;Project TeslaElectricVehiclesWeiss
;Created by Estlcam version 11 build 11,227
;Machining time about 00:10:40 hours

G90
M03 S18000
G00 X0.0000 Y0.0000 Z0.0000
G00 Z2.0000


;No. 1: Helical drill 4
G00 X32.5875 Y150.0000
G00 Z0.5000
M106 S240
G01 X32.5837 Y149.9128 Z0.4722 F400 S18000
G01 X32.5723 Y149.8263 Z0.4444
G01 X32.5534 Y149.7412 Z0.4167
G01 X32.5272 Y149.6580 Z0.3889
G01 X32.4938 Y149.5774 Z0.3611
G01 X32.4535 Y149.5000 Z0.3333
G01 X32.4067 Y149.4264 Z0.3056
G01 X32.3535 Y149.3572 Z0.2778
G01 X32.2946 Y149.2929 Z0.2500
G01 X32.2303 Y149.2339 Z0.2222
G01 X32.1611 Y149.1808 Z0.1944
G01 X32.0875 Y149.1340 Z0.1667
G01 X32.0101 Y149.0937 Z0.1389
G01 X31.9295 Y149.0603 Z0.1111
G01 X31.8463 Y149.0341 Z0.0833
G01 X31.7611 Y149.0152 Z0.0556
G01 X31.6747 Y149.0038 Z0.0278
G01 X31.5875 Y149.0000 Z0.0000
G01 X31.5003 Y149.0038 Z-0.0278
G01 X31.4139 Y149.0152 Z-0.0556
G01 X31.3287 Y149.0341 Z-0.0833
G01 X31.2455 Y149.0603 Z-0.1111
G01 X31.1649 Y149.0937 Z-0.1389
G01 X31.0875 Y149.1340 Z-0.1667
G01 X31.0139 Y149.1808 Z-0.1944
G01 X30.9447 Y149.2339 Z-0.2222
G01 X30.8804 Y149.2929 Z-0.2500
G01 X30.8215 Y149.3572 Z-0.2778
G01 X30.7683 Y149.4264 Z-0.3056
G01 X30.7215 Y149.5000 Z-0.3333
G01 X30.6812 Y149.5774 Z-0.3611
G01 X30.6478 Y149.6580 Z-0.3889
G01 X30.6216 Y149.7412 Z-0.4167
G01 X30.6027 Y149.8263 Z-0.4444
G01 X30.5913 Y149.9128 Z-0.4722
G01 X30.5875 Y150.0000 Z-0.5000
G01 X30.5913 Y150.0871 Z-0.5278
G01 X30.6027 Y150.1736 Z-0.5556
G01 X30.6216 Y150.2588 Z-0.5833
G01 X30.6478 Y150.3420 Z-0.6111
G01 X30.6812 Y150.4226 Z-0.6389
G01 X30.7215 Y150.5000 Z-0.6667
G01 X30.7683 Y150.5736 Z-0.6944
G01 X30.8215 Y150.6428 Z-0.7222
G01 X30.8804 Y150.7071 Z-0.7500
G01 X30.9447 Y150.7660 Z-0.7778
G01 X31.0139 Y150.8191 Z-0.8056
G01 X31.0875 Y150.8660 Z-0.8333
G01 X31.1649 Y150.9063 Z-0.8611
G01 X31.2455 Y150.9397 Z-0.8889
G01 X31.3287 Y150.9659 Z-0.9167
G01 X31.4139 Y150.9848 Z-0.9444
G01 X31.5003 Y150.9962 Z-0.9722
G01 X31.5875 Y151.0000 Z-1.0000
G01 X31.6747 Y150.9962 Z-1.0278
G01 X31.7611 Y150.9848 Z-1.0556
G01 X31.8463 Y150.9659 Z-1.0833
G01 X31.9295 Y150.9397 Z-1.1111
G01 X32.0101 Y150.9063 Z-1.1389
G01 X32.0875 Y150.8660 Z-1.1667
G01 X32.1611 Y150.8191 Z-1.1944
G01 X32.2303 Y150.7660 Z-1.2222
G01 X32.2946 Y150.7071 Z-1.2500
G01 X32.3535 Y150.6428 Z-1.2778
G01 X32.4067 Y150.5736 Z-1.3056
G01 X32.4535 Y150.5000 Z-1.3333
G01 X32.4938 Y150.4226 Z-1.3611
G01 X32.5272 Y150.3420 Z-1.3889
G01 X32.5534 Y150.2588 Z-1.4167
G01 X32.5723 Y150.1736 Z-1.4444
G01 X32.5837 Y150.0871 Z-1.4722
G01 X32.5875 Y150.0000 Z-1.5000
G01 X32.5837 Y149.9128
G01 X32.5723 Y149.8263
G01 X32.5534 Y149.7412
G01 X32.5272 Y149.6580
G01 X32.4938 Y149.5774
G01 X32.4535 Y149.5000
G01 X32.4067 Y149.4264
G01 X32.3535 Y149.3572
G01 X32.2946 Y149.2929
G01 X32.2303 Y149.2339
G01 X32.1611 Y149.1808
G01 X32.0875 Y149.1340
G01 X32.0101 Y149.0937
G01 X31.9295 Y149.0603
G01 X31.8463 Y149.0341
G01 X31.7611 Y149.0152
G01 X31.6747 Y149.0038
G01 X31.5875 Y149.0000
G01 X31.5003 Y149.0038
G01 X31.4139 Y149.0152
G01 X31.3287 Y149.0341
G01 X31.2455 Y149.0603
G01 X31.1649 Y149.0937
G01 X31.0875 Y149.1340
G01 X31.0139 Y149.1808
G01 X30.9447 Y149.2339
G01 X30.8804 Y149.2929
G01 X30.8215 Y149.3572
G01 X30.7683 Y149.4264
G01 X30.7215 Y149.5000
G01 X30.6812 Y149.5774
G01 X30.6478 Y149.6580
G01 X30.6216 Y149.7412
G01 X30.6027 Y149.8263
G01 X30.5913 Y149.9128
G01 X30.5875 Y150.0000
G01 X30.5913 Y150.0871
G01 X30.6027 Y150.1736
G01 X30.6216 Y150.2588
G01 X30.6478 Y150.3420
G01 X30.6812 Y150.4226
G01 X30.7215 Y150.5000
G01 X30.7683 Y150.5736
G01 X30.8215 Y150.6428
G01 X30.8804 Y150.7071
G01 X30.9447 Y150.7660
G01 X31.0139 Y150.8191
G01 X31.0875 Y150.8660
G01 X31.1649 Y150.9063
G01 X31.2455 Y150.9397
G01 X31.3287 Y150.9659
G01 X31.4139 Y150.9848
G01 X31.5003 Y150.9962
G01 X31.5875 Y151.0000
G01 X31.6747 Y150.9962
G01 X31.7611 Y150.9848
G01 X31.8463 Y150.9659
G01 X31.9295 Y150.9397
G01 X32.0101 Y150.9063
G01 X32.0875 Y150.8660
G01 X32.1611 Y150.8191
G01 X32.2303 Y150.7660
G01 X32.2946 Y150.7071
G01 X32.3535 Y150.6428
G01 X32.4067 Y150.5736
G01 X32.4535 Y150.5000
G01 X32.4938 Y150.4226
G01 X32.5272 Y150.3420
G01 X32.5534 Y150.2588
G01 X32.5723 Y150.1736
G01 X32.5837 Y150.0871
G01 X32.5875 Y150.0000
G01 X32.5982 Y149.9484 F1000
G01 X32.6063 Y149.8963
G01 X32.6117 Y149.8439
G01 X32.6144 Y149.7912
G01 X32.6143 Y149.7385
G01 X32.6116 Y149.6859
G01 X32.6061 Y149.6335
G01 X32.5980 Y149.5814
G01 X32.5863 Y149.5254
G01 X32.5717 Y149.4701
G01 X32.5543 Y149.4156
G01 X32.5342 Y149.3621
G01 X32.5114 Y149.3096
G01 X32.4859 Y149.2584
G01 X32.4578 Y149.2086
G01 X32.4272 Y149.1603
G01 X32.3916 Y149.1099
G01 X32.3535 Y149.0614
G01 X32.3129 Y149.0148
G01 X32.2701 Y148.9704
G01 X32.2250 Y148.9283
G01 X32.1779 Y148.8885
G01 X32.1288 Y148.8511
G01 X32.0778 Y148.8163
G01 X32.0213 Y148.7817
G01 X31.9631 Y148.7500
G01 X31.9034 Y148.7213
G01 X31.8424 Y148.6957
G01 X31.7801 Y148.6732
G01 X31.7167 Y148.6539
G01 X31.6525 Y148.6378
G01 X31.5875 Y148.6250
G01 X31.5175 Y148.6148
G01 X31.4470 Y148.6082
G01 X31.3763 Y148.6051
G01 X31.3056 Y148.6056
G01 X31.2349 Y148.6096
G01 X31.1645 Y148.6172
G01 X31.0947 Y148.6284
G01 X31.0254 Y148.6430
G01 X30.9573 Y148.6690
G01 X30.8904 Y148.6983
G01 X30.8251 Y148.7308
G01 X30.7615 Y148.7666
G01 X30.6997 Y148.8054
G01 X30.6399 Y148.8472
G01 X30.5823 Y148.8919
G01 X30.5269 Y148.9393
G01 X30.4761 Y148.9927
G01 X30.4280 Y149.0484
G01 X30.3827 Y149.1064
G01 X30.3403 Y149.1666
G01 X30.3009 Y149.2288
G01 X30.2646 Y149.2929
G01 X30.2315 Y149.3587
G01 X30.2017 Y149.4260
G01 X30.1752 Y149.4946
G01 X30.1521 Y149.5646
G01 X30.1325 Y149.6355
G01 X30.1163 Y149.7073
G01 X30.1038 Y149.7799
G01 X30.0947 Y149.8530
G01 X30.0893 Y149.9264
G01 X30.0875 Y150.0000
G01 X30.0893 Y150.0736
G01 X30.0947 Y150.1470
G01 X30.1038 Y150.2201
G01 X30.1163 Y150.2926
G01 X30.1325 Y150.3644
G01 X30.1521 Y150.4354
G01 X30.1752 Y150.5053
G01 X30.2017 Y150.5740
G01 X30.2315 Y150.6413
G01 X30.2646 Y150.7071
G01 X30.3009 Y150.7711
G01 X30.3403 Y150.8333
G01 X30.3827 Y150.8935
G01 X30.4280 Y150.9516
G01 X30.4761 Y151.0073
G01 X30.5269 Y151.0606
G01 X30.5802 Y151.1114
G01 X30.6359 Y151.1595
G01 X30.6940 Y151.2048
G01 X30.7542 Y151.2472
G01 X30.8164 Y151.2866
G01 X30.8804 Y151.3228
G01 X30.9462 Y151.3559
G01 X31.0135 Y151.3858
G01 X31.0822 Y151.4123
G01 X31.1521 Y151.4354
G01 X31.2230 Y151.4550
G01 X31.2949 Y151.4711
G01 X31.3674 Y151.4837
G01 X31.4405 Y151.4927
G01 X31.5139 Y151.4981
G01 X31.5875 Y151.5000
G01 X31.6611 Y151.4981
G01 X31.7345 Y151.4927
G01 X31.8076 Y151.4837
G01 X31.8801 Y151.4711
G01 X31.9520 Y151.4550
G01 X32.0229 Y151.4354
G01 X32.0928 Y151.4123
G01 X32.1615 Y151.3858
G01 X32.2288 Y151.3559
G01 X32.2946 Y151.3228
G01 X32.3586 Y151.2866
G01 X32.4208 Y151.2472
G01 X32.4810 Y151.2048
G01 X32.5391 Y151.1595
G01 X32.5948 Y151.1114
G01 X32.6481 Y151.0606
G01 X32.6989 Y151.0073
G01 X32.7470 Y150.9516
G01 X32.7923 Y150.8935
G01 X32.8347 Y150.8333
G01 X32.8741 Y150.7711
G01 X32.9104 Y150.7071
G01 X32.9435 Y150.6413
G01 X32.9733 Y150.5740
G01 X32.9998 Y150.5053
G01 X33.0229 Y150.4354
G01 X33.0425 Y150.3644
G01 X33.0587 Y150.2926
G01 X33.0712 Y150.2201
G01 X33.0803 Y150.1470
G01 X33.0857 Y150.0736
G01 X33.0875 Y150.0000
G01 X33.0833 Y149.8879
G01 X33.0707 Y149.7764
G01 X33.0499 Y149.6662
G01 X33.0208 Y149.5578
G01 X32.9838 Y149.4520
G01 X32.9389 Y149.3492
G01 X32.8865 Y149.2500
G01 X32.8268 Y149.1550
G01 X32.7602 Y149.0648
G01 X32.6871 Y148.9797
G01 X32.6077 Y148.9004
G01 X32.5227 Y148.8272
G01 X32.4325 Y148.7606
G01 X32.3375 Y148.7010
G01 X32.2383 Y148.6485
G01 X32.1355 Y148.6037
G01 X32.0296 Y148.5666
G01 X31.9213 Y148.5376
G01 X31.8111 Y148.5168
G01 X31.6996 Y148.5042
G01 X31.5875 Y148.5000
G01 X31.4754 Y148.5042
G01 X31.3639 Y148.5168
G01 X31.2537 Y148.5376
G01 X31.1454 Y148.5666
G01 X31.0395 Y148.6037
G01 X30.9367 Y148.6485
G01 X30.8375 Y148.7010
G01 X30.7425 Y148.7606
G01 X30.6523 Y148.8272
G01 X30.5673 Y148.9004
G01 X30.4879 Y148.9797
G01 X30.4148 Y149.0648
G01 X30.3482 Y149.1550
G01 X30.2885 Y149.2500
G01 X30.2361 Y149.3492
G01 X30.1912 Y149.4520
G01 X30.1542 Y149.5578
G01 X30.1251 Y149.6662
G01 X30.1043 Y149.7764
G01 X30.0917 Y149.8879
G01 X30.0875 Y150.0000
G01 X30.0917 Y150.1121
G01 X30.1043 Y150.2235
G01 X30.1251 Y150.3338
G01 X30.1542 Y150.4421
G01 X30.1912 Y150.5480
G01 X30.2361 Y150.6508
G01 X30.2885 Y150.7500
G01 X30.3482 Y150.8449
G01 X30.4148 Y150.9352
G01 X30.4879 Y151.0202
G01 X30.5673 Y151.0995
G01 X30.6523 Y151.1727
G01 X30.7425 Y151.2393
G01 X30.8375 Y151.2990
G01 X30.9367 Y151.3514
G01 X31.0395 Y151.3963
G01 X31.1454 Y151.4333
G01 X31.2537 Y151.4623
G01 X31.3639 Y151.4832
G01 X31.4754 Y151.4958
G01 X31.5875 Y151.5000
G01 X31.6996 Y151.4958
G01 X31.8111 Y151.4832
G01 X31.9213 Y151.4623
G01 X32.0296 Y151.4333
G01 X32.1355 Y151.3963
G01 X32.2383 Y151.3514
G01 X32.3375 Y151.2990
G01 X32.4325 Y151.2393
G01 X32.5227 Y151.1727
G01 X32.6077 Y151.0995
G01 X32.6871 Y151.0202
G01 X32.7602 Y150.9352
G01 X32.8268 Y150.8449
G01 X32.8865 Y150.7500
G01 X32.9389 Y150.6508
G01 X32.9838 Y150.5480
G01 X33.0208 Y150.4421
G01 X33.0499 Y150.3338
G01 X33.0707 Y150.2235
G01 X33.0833 Y150.1121
G01 X33.0875 Y150.0000
G01 X33.0836 Y149.9019
G01 X33.0721 Y149.8044
G01 X33.0529 Y149.7082
G01 X33.0263 Y149.6137
G01 X32.9923 Y149.5216
G01 X32.9512 Y149.4325
G01 X32.9033 Y149.3469
G01 X32.8488 Y149.2653
G01 X32.7880 Y149.1882
G01 X32.7214 Y149.1161
G01 X32.6493 Y149.0495
G01 X32.5722 Y148.9887
G01 X32.4906 Y148.9342
G01 X32.4050 Y148.8862
G01 X32.3158 Y148.8451
G01 X32.2238 Y148.8112
G01 X32.1293 Y148.7845
G01 X32.0330 Y148.7654
G01 X31.9356 Y148.7538
G01 X31.8375 Y148.7500
G01 X31.7394 Y148.7538
G01 X31.6419 Y148.7654
G01 X31.5457 Y148.7845
G01 X31.4512 Y148.8112
G01 X31.3591 Y148.8451
G01 X31.2700 Y148.8862
G01 X31.1844 Y148.9342
G01 X31.1028 Y148.9887
G01 X31.0257 Y149.0495
G01 X30.9536 Y149.1161
G01 X30.8870 Y149.1882
G01 X30.8262 Y149.2653
G01 X30.7717 Y149.3469
G01 X30.7237 Y149.4325
G01 X30.6827 Y149.5216
G01 X30.6487 Y149.6137
G01 X30.6220 Y149.7082
G01 X30.6029 Y149.8044
G01 X30.5914 Y149.9019
G01 X30.5875 Y150.0000
G01 X30.5913 Y150.0871
G01 X30.6027 Y150.1736
G01 X30.6216 Y150.2588
G01 X30.6478 Y150.3420
G01 X30.6812 Y150.4226
G01 X30.7215 Y150.5000
G01 X30.7683 Y150.5736
G01 X30.8215 Y150.6428
G01 X30.8804 Y150.7071
G01 X30.9447 Y150.7660
G01 X31.0139 Y150.8191
G01 X31.0875 Y150.8660
G01 X31.1649 Y150.9063
G01 X31.2455 Y150.9397
G01 X31.3287 Y150.9659
G01 X31.4139 Y150.9848
G01 X31.5003 Y150.9962
G01 X31.5875 Y151.0000
G01 X31.6747 Y150.9962
G01 X31.7611 Y150.9848
G01 X31.8463 Y150.9659
G01 X31.9295 Y150.9397
G01 X32.0101 Y150.9063
G01 X32.0875 Y150.8660
G01 X32.1611 Y150.8191
G01 X32.2303 Y150.7660
G01 X32.2946 Y150.7071
G01 X32.3535 Y150.6428
G01 X32.4067 Y150.5736
G01 X32.4535 Y150.5000
G01 X32.4938 Y150.4226
G01 X32.5272 Y150.3420
G01 X32.5534 Y150.2588
G01 X32.5723 Y150.1736
G01 X32.5837 Y150.0871
G01 X32.5875 Y150.0000
M107
M106 S240
G01 X32.5837 Y149.9128 Z-1.5278 F400
G01 X32.5723 Y149.8263 Z-1.5556
G01 X32.5534 Y149.7412 Z-1.5833
G01 X32.5272 Y149.6580 Z-1.6111
G01 X32.4938 Y149.5774 Z-1.6389
G01 X32.4535 Y149.5000 Z-1.6667
G01 X32.4067 Y149.4264 Z-1.6944
G01 X32.3535 Y149.3572 Z-1.7222
G01 X32.2946 Y149.2929 Z-1.7500
G01 X32.2303 Y149.2339 Z-1.7778
G01 X32.1611 Y149.1808 Z-1.8056
G01 X32.0875 Y149.1340 Z-1.8333
G01 X32.0101 Y149.0937 Z-1.8611
G01 X31.9295 Y149.0603 Z-1.8889
G01 X31.8463 Y149.0341 Z-1.9167
G01 X31.7611 Y149.0152 Z-1.9444
G01 X31.6747 Y149.0038 Z-1.9722
G01 X31.5875 Y149.0000 Z-2.0000
G01 X31.5003 Y149.0038 Z-2.0278
G01 X31.4139 Y149.0152 Z-2.0556
G01 X31.3287 Y149.0341 Z-2.0833
G01 X31.2455 Y149.0603 Z-2.1111
G01 X31.1649 Y149.0937 Z-2.1389
G01 X31.0875 Y149.1340 Z-2.1667
G01 X31.0139 Y149.1808 Z-2.1944
G01 X30.9447 Y149.2339 Z-2.2222
G01 X30.8804 Y149.2929 Z-2.2500
G01 X30.8215 Y149.3572 Z-2.2778
G01 X30.7683 Y149.4264 Z-2.3056
G01 X30.7215 Y149.5000 Z-2.3333
G01 X30.6812 Y149.5774 Z-2.3611
G01 X30.6478 Y149.6580 Z-2.3889
G01 X30.6216 Y149.7412 Z-2.4167
G01 X30.6027 Y149.8263 Z-2.4444
G01 X30.5913 Y149.9128 Z-2.4722
G01 X30.5875 Y150.0000 Z-2.5000
G01 X30.5913 Y150.0871 Z-2.5278
G01 X30.6027 Y150.1736 Z-2.5556
G01 X30.6216 Y150.2588 Z-2.5833
G01 X30.6478 Y150.3420 Z-2.6111
G01 X30.6812 Y150.4226 Z-2.6389
G01 X30.7215 Y150.5000 Z-2.6667
G01 X30.7683 Y150.5736 Z-2.6944
G01 X30.8215 Y150.6428 Z-2.7222
G01 X30.8804 Y150.7071 Z-2.7500
G01 X30.9447 Y150.7660 Z-2.7778
G01 X31.0139 Y150.8191 Z-2.8056
G01 X31.0875 Y150.8660 Z-2.8333
G01 X31.1649 Y150.9063 Z-2.8611
G01 X31.2455 Y150.9397 Z-2.8889
G01 X31.3287 Y150.9659 Z-2.9167
G01 X31.4139 Y150.9848 Z-2.9444
G01 X31.5003 Y150.9962 Z-2.9722
G01 X31.5875 Y151.0000 Z-3.0000
G01 X31.6747 Y150.9962 Z-3.0278
G01 X31.7611 Y150.9848 Z-3.0556
G01 X31.8463 Y150.9659 Z-3.0833
G01 X31.9295 Y150.9397 Z-3.1111
G01 X32.0101 Y150.9063 Z-3.1389
G01 X32.0875 Y150.8660 Z-3.1667
G01 X32.1611 Y150.8191 Z-3.1944
G01 X32.2303 Y150.7660 Z-3.2222
G01 X32.2946 Y150.7071 Z-3.2500
G01 X32.3535 Y150.6428 Z-3.2778
G01 X32.4067 Y150.5736 Z-3.3056
G01 X32.4535 Y150.5000 Z-3.3333
G01 X32.4938 Y150.4226 Z-3.3611
G01 X32.5272 Y150.3420 Z-3.3889
G01 X32.5534 Y150.2588 Z-3.4167
G01 X32.5723 Y150.1736 Z-3.4444
G01 X32.5837 Y150.0871 Z-3.4722
G01 X32.5875 Y150.0000 Z-3.5000
G01 X32.5837 Y149.9128
G01 X32.5723 Y149.8263
G01 X32.5534 Y149.7412
G01 X32.5272 Y149.6580
G01 X32.4938 Y149.5774
G01 X32.4535 Y149.5000
G01 X32.4067 Y149.4264
G01 X32.3535 Y149.3572
G01 X32.2946 Y149.2929
G01 X32.2303 Y149.2339
G01 X32.1611 Y149.1808
G01 X32.0875 Y149.1340
G01 X32.0101 Y149.0937
G01 X31.9295 Y149.0603
G01 X31.8463 Y149.0341
G01 X31.7611 Y149.0152
G01 X31.6747 Y149.0038
G01 X31.5875 Y149.0000
G01 X31.5003 Y149.0038
G01 X31.4139 Y149.0152
G01 X31.3287 Y149.0341
G01 X31.2455 Y149.0603
G01 X31.1649 Y149.0937
G01 X31.0875 Y149.1340
G01 X31.0139 Y149.1808
G01 X30.9447 Y149.2339
G01 X30.8804 Y149.2929
G01 X30.8215 Y149.3572
G01 X30.7683 Y149.4264
G01 X30.7215 Y149.5000
G01 X30.6812 Y149.5774
G01 X30.6478 Y149.6580
G01 X30.6216 Y149.7412
G01 X30.6027 Y149.8263
G01 X30.5913 Y149.9128
G01 X30.5875 Y150.0000
G01 X30.5913 Y150.0871
G01 X30.6027 Y150.1736
G01 X30.6216 Y150.2588
G01 X30.6478 Y150.3420
G01 X30.6812 Y150.4226
G01 X30.7215 Y150.5000
G01 X30.7683 Y150.5736
G01 X30.8215 Y150.6428
G01 X30.8804 Y150.7071
G01 X30.9447 Y150.7660
G01 X31.0139 Y150.8191
G01 X31.0875 Y150.8660
G01 X31.1649 Y150.9063
G01 X31.2455 Y150.9397
G01 X31.3287 Y150.9659
G01 X31.4139 Y150.9848
G01 X31.5003 Y150.9962
G01 X31.5875 Y151.0000
G01 X31.6747 Y150.9962
G01 X31.7611 Y150.9848
G01 X31.8463 Y150.9659
G01 X31.9295 Y150.9397
G01 X32.0101 Y150.9063
G01 X32.0875 Y150.8660
G01 X32.1611 Y150.8191
G01 X32.2303 Y150.7660
G01 X32.2946 Y150.7071
G01 X32.3535 Y150.6428
G01 X32.4067 Y150.5736
G01 X32.4535 Y150.5000
G01 X32.4938 Y150.4226
G01 X32.5272 Y150.3420
G01 X32.5534 Y150.2588
G01 X32.5723 Y150.1736
G01 X32.5837 Y150.0871
G01 X32.5875 Y150.0000
G01 X32.5982 Y149.9484 F1000
G01 X32.6063 Y149.8963
G01 X32.6117 Y149.8439
G01 X32.6144 Y149.7912
G01 X32.6143 Y149.7385
G01 X32.6116 Y149.6859
G01 X32.6061 Y149.6335
G01 X32.5980 Y149.5814
G01 X32.5863 Y149.5254
G01 X32.5717 Y149.4701
G01 X32.5543 Y149.4156
G01 X32.5342 Y149.3621
G01 X32.5114 Y149.3096
G01 X32.4859 Y149.2584
G01 X32.4578 Y149.2086
G01 X32.4272 Y149.1603
G01 X32.3916 Y149.1099
G01 X32.3535 Y149.0614
G01 X32.3129 Y149.0148
G01 X32.2701 Y148.9704
G01 X32.2250 Y148.9283
G01 X32.1779 Y148.8885
G01 X32.1288 Y148.8511
G01 X32.0778 Y148.8163
G01 X32.0213 Y148.7817
G01 X31.9631 Y148.7500
G01 X31.9034 Y148.7213
G01 X31.8424 Y148.6957
G01 X31.7801 Y148.6732
G01 X31.7167 Y148.6539
G01 X31.6525 Y148.6378
G01 X31.5875 Y148.6250
G01 X31.5175 Y148.6148
G01 X31.4470 Y148.6082
G01 X31.3763 Y148.6051
G01 X31.3056 Y148.6056
G01 X31.2349 Y148.6096
G01 X31.1645 Y148.6172
G01 X31.0947 Y148.6284
G01 X31.0254 Y148.6430
G01 X30.9573 Y148.6690
G01 X30.8904 Y148.6983
G01 X30.8251 Y148.7308
G01 X30.7615 Y148.7666
G01 X30.6997 Y148.8054
G01 X30.6399 Y148.8472
G01 X30.5823 Y148.8919
G01 X30.5269 Y148.9393
G01 X30.4761 Y148.9927
G01 X30.4280 Y149.0484
G01 X30.3827 Y149.1064
G01 X30.3403 Y149.1666
G01 X30.3009 Y149.2288
G01 X30.2646 Y149.2929
G01 X30.2315 Y149.3587
G01 X30.2017 Y149.4260
G01 X30.1752 Y149.4946
G01 X30.1521 Y149.5646
G01 X30.1325 Y149.6355
G01 X30.1163 Y149.7073
G01 X30.1038 Y149.7799
G01 X30.0947 Y149.8530
G01 X30.0893 Y149.9264
G01 X30.0875 Y150.0000
G01 X30.0893 Y150.0736
G01 X30.0947 Y150.1470
G01 X30.1038 Y150.2201
G01 X30.1163 Y150.2926
G01 X30.1325 Y150.3644
G01 X30.1521 Y150.4354
G01 X30.1752 Y150.5053
G01 X30.2017 Y150.5740
G01 X30.2315 Y150.6413
G01 X30.2646 Y150.7071
G01 X30.3009 Y150.7711
G01 X30.3403 Y150.8333
G01 X30.3827 Y150.8935
G01 X30.4280 Y150.9516
G01 X30.4761 Y151.0073
G01 X30.5269 Y151.0606
G01 X30.5802 Y151.1114
G01 X30.6359 Y151.1595
G01 X30.6940 Y151.2048
G01 X30.7542 Y151.2472
G01 X30.8164 Y151.2866
G01 X30.8804 Y151.3228
G01 X30.9462 Y151.3559
G01 X31.0135 Y151.3858
G01 X31.0822 Y151.4123
G01 X31.1521 Y151.4354
G01 X31.2230 Y151.4550
G01 X31.2949 Y151.4711
G01 X31.3674 Y151.4837
G01 X31.4405 Y151.4927
G01 X31.5139 Y151.4981
G01 X31.5875 Y151.5000
G01 X31.6611 Y151.4981
G01 X31.7345 Y151.4927
G01 X31.8076 Y151.4837
G01 X31.8801 Y151.4711
G01 X31.9520 Y151.4550
G01 X32.0229 Y151.4354
G01 X32.0928 Y151.4123
G01 X32.1615 Y151.3858
G01 X32.2288 Y151.3559
G01 X32.2946 Y151.3228
G01 X32.3586 Y151.2866
G01 X32.4208 Y151.2472
G01 X32.4810 Y151.2048
G01 X32.5391 Y151.1595
G01 X32.5948 Y151.1114
G01 X32.6481 Y151.0606
G01 X32.6989 Y151.0073
G01 X32.7470 Y150.9516
G01 X32.7923 Y150.8935
G01 X32.8347 Y150.8333
G01 X32.8741 Y150.7711
G01 X32.9104 Y150.7071
G01 X32.9435 Y150.6413
G01 X32.9733 Y150.5740
G01 X32.9998 Y150.5053
G01 X33.0229 Y150.4354
G01 X33.0425 Y150.3644
G01 X33.0587 Y150.2926
G01 X33.0712 Y150.2201
G01 X33.0803 Y150.1470
G01 X33.0857 Y150.0736
G01 X33.0875 Y150.0000
G01 X33.0833 Y149.8879
G01 X33.0707 Y149.7764
G01 X33.0499 Y149.6662
G01 X33.0208 Y149.5578
G01 X32.9838 Y149.4520
G01 X32.9389 Y149.3492
G01 X32.8865 Y149.2500
G01 X32.8268 Y149.1550
G01 X32.7602 Y149.0648
G01 X32.6871 Y148.9797
G01 X32.6077 Y148.9004
G01 X32.5227 Y148.8272
G01 X32.4325 Y148.7606
G01 X32.3375 Y148.7010
G01 X32.2383 Y148.6485
G01 X32.1355 Y148.6037
G01 X32.0296 Y148.5666
G01 X31.9213 Y148.5376
G01 X31.8111 Y148.5168
G01 X31.6996 Y148.5042
G01 X31.5875 Y148.5000
G01 X31.4754 Y148.5042
G01 X31.3639 Y148.5168
G01 X31.2537 Y148.5376
G01 X31.1454 Y148.5666
G01 X31.0395 Y148.6037
G01 X30.9367 Y148.6485
G01 X30.8375 Y148.7010
G01 X30.7425 Y148.7606
G01 X30.6523 Y148.8272
G01 X30.5673 Y148.9004
G01 X30.4879 Y148.9797
G01 X30.4148 Y149.0648
G01 X30.3482 Y149.1550
G01 X30.2885 Y149.2500
G01 X30.2361 Y149.3492
G01 X30.1912 Y149.4520
G01 X30.1542 Y149.5578
G01 X30.1251 Y149.6662
G01 X30.1043 Y149.7764
G01 X30.0917 Y149.8879
G01 X30.0875 Y150.0000
G01 X30.0917 Y150.1121
G01 X30.1043 Y150.2235
G01 X30.1251 Y150.3338
G01 X30.1542 Y150.4421
G01 X30.1912 Y150.5480
G01 X30.2361 Y150.6508
G01 X30.2885 Y150.7500
G01 X30.3482 Y150.8449
G01 X30.4148 Y150.9352
G01 X30.4879 Y151.0202
G01 X30.5673 Y151.0995
G01 X30.6523 Y151.1727
G01 X30.7425 Y151.2393
G01 X30.8375 Y151.2990
G01 X30.9367 Y151.3514
G01 X31.0395 Y151.3963
G01 X31.1454 Y151.4333
G01 X31.2537 Y151.4623
G01 X31.3639 Y151.4832
G01 X31.4754 Y151.4958
G01 X31.5875 Y151.5000
G01 X31.6996 Y151.4958
G01 X31.8111 Y151.4832
G01 X31.9213 Y151.4623
G01 X32.0296 Y151.4333
G01 X32.1355 Y151.3963
G01 X32.2383 Y151.3514
G01 X32.3375 Y151.2990
G01 X32.4325 Y151.2393
G01 X32.5227 Y151.1727
G01 X32.6077 Y151.0995
G01 X32.6871 Y151.0202
G01 X32.7602 Y150.9352
G01 X32.8268 Y150.8449
G01 X32.8865 Y150.7500
G01 X32.9389 Y150.6508
G01 X32.9838 Y150.5480
G01 X33.0208 Y150.4421
G01 X33.0499 Y150.3338
G01 X33.0707 Y150.2235
G01 X33.0833 Y150.1121
G01 X33.0875 Y150.0000
G01 X33.0836 Y149.9019
G01 X33.0721 Y149.8044
G01 X33.0529 Y149.7082
G01 X33.0263 Y149.6137
G01 X32.9923 Y149.5216
G01 X32.9512 Y149.4325
G01 X32.9033 Y149.3469
G01 X32.8488 Y149.2653
G01 X32.7880 Y149.1882
G01 X32.7214 Y149.1161
G01 X32.6493 Y149.0495
G01 X32.5722 Y148.9887
G01 X32.4906 Y148.9342
G01 X32.4050 Y148.8862
G01 X32.3158 Y148.8451
G01 X32.2238 Y148.8112
G01 X32.1293 Y148.7845
G01 X32.0330 Y148.7654
G01 X31.9356 Y148.7538
G01 X31.8375 Y148.7500
G01 X31.7394 Y148.7538
G01 X31.6419 Y148.7654
G01 X31.5457 Y148.7845
G01 X31.4512 Y148.8112
G01 X31.3591 Y148.8451
G01 X31.2700 Y148.8862
G01 X31.1844 Y148.9342
G01 X31.1028 Y148.9887
G01 X31.0257 Y149.0495
G01 X30.9536 Y149.1161
G01 X30.8870 Y149.1882
G01 X30.8262 Y149.2653
G01 X30.7717 Y149.3469
G01 X30.7237 Y149.4325
G01 X30.6827 Y149.5216
G01 X30.6487 Y149.6137
G01 X30.6220 Y149.7082
G01 X30.6029 Y149.8044
G01 X30.5914 Y149.9019
G01 X30.5875 Y150.0000
G01 X30.5913 Y150.0871
G01 X30.6027 Y150.1736
G01 X30.6216 Y150.2588
G01 X30.6478 Y150.3420
G01 X30.6812 Y150.4226
G01 X30.7215 Y150.5000
G01 X30.7683 Y150.5736
G01 X30.8215 Y150.6428
G01 X30.8804 Y150.7071
G01 X30.9447 Y150.7660
G01 X31.0139 Y150.8191
G01 X31.0875 Y150.8660
G01 X31.1649 Y150.9063
G01 X31.2455 Y150.9397
G01 X31.3287 Y150.9659
G01 X31.4139 Y150.9848
G01 X31.5003 Y150.9962
G01 X31.5875 Y151.0000
G01 X31.6747 Y150.9962
G01 X31.7611 Y150.9848
G01 X31.8463 Y150.9659
G01 X31.9295 Y150.9397
G01 X32.0101 Y150.9063
G01 X32.0875 Y150.8660
G01 X32.1611 Y150.8191
G01 X32.2303 Y150.7660
G01 X32.2946 Y150.7071
G01 X32.3535 Y150.6428
G01 X32.4067 Y150.5736
G01 X32.4535 Y150.5000
G01 X32.4938 Y150.4226
G01 X32.5272 Y150.3420
G01 X32.5534 Y150.2588
G01 X32.5723 Y150.1736
G01 X32.5837 Y150.0871
G01 X32.5875 Y150.0000
M107
M106 S240
G01 X32.5837 Y149.9128 Z-3.5278 F400
G01 X32.5723 Y149.8263 Z-3.5556
G01 X32.5534 Y149.7412 Z-3.5833
G01 X32.5272 Y149.6580 Z-3.6111
G01 X32.4938 Y149.5774 Z-3.6389
G01 X32.4535 Y149.5000 Z-3.6667
G01 X32.4067 Y149.4264 Z-3.6944
G01 X32.3535 Y149.3572 Z-3.7222
G01 X32.2946 Y149.2929 Z-3.7500
G01 X32.2303 Y149.2339 Z-3.7778
G01 X32.1611 Y149.1808 Z-3.8056
G01 X32.0875 Y149.1340 Z-3.8333
G01 X32.0101 Y149.0937 Z-3.8611
G01 X31.9295 Y149.0603 Z-3.8889
G01 X31.8463 Y149.0341 Z-3.9167
G01 X31.7611 Y149.0152 Z-3.9444
G01 X31.6747 Y149.0038 Z-3.9722
G01 X31.5875 Y149.0000 Z-4.0000
G01 X31.5003 Y149.0038 Z-4.0278
G01 X31.4139 Y149.0152 Z-4.0556
G01 X31.3287 Y149.0341 Z-4.0833
G01 X31.2455 Y149.0603 Z-4.1111
G01 X31.1649 Y149.0937 Z-4.1389
G01 X31.0875 Y149.1340 Z-4.1667
G01 X31.0139 Y149.1808 Z-4.1944
G01 X30.9447 Y149.2339 Z-4.2222
G01 X30.8804 Y149.2929 Z-4.2500
G01 X30.8215 Y149.3572 Z-4.2778
G01 X30.7683 Y149.4264 Z-4.3056
G01 X30.7215 Y149.5000 Z-4.3333
G01 X30.6812 Y149.5774 Z-4.3611
G01 X30.6478 Y149.6580 Z-4.3889
G01 X30.6216 Y149.7412 Z-4.4167
G01 X30.6027 Y149.8263 Z-4.4444
G01 X30.5913 Y149.9128 Z-4.4722
G01 X30.5875 Y150.0000 Z-4.5000
G01 X30.5913 Y150.0871 Z-4.5278
G01 X30.6027 Y150.1736 Z-4.5556
G01 X30.6216 Y150.2588 Z-4.5833
G01 X30.6478 Y150.3420 Z-4.6111
G01 X30.6812 Y150.4226 Z-4.6389
G01 X30.7215 Y150.5000 Z-4.6667
G01 X30.7683 Y150.5736 Z-4.6944
G01 X30.8215 Y150.6428 Z-4.7222
G01 X30.8804 Y150.7071 Z-4.7500
G01 X30.9447 Y150.7660 Z-4.7778
G01 X31.0139 Y150.8191 Z-4.8056
G01 X31.0875 Y150.8660 Z-4.8333
G01 X31.1649 Y150.9063 Z-4.8611
G01 X31.2455 Y150.9397 Z-4.8889
G01 X31.3287 Y150.9659 Z-4.9167
G01 X31.4139 Y150.9848 Z-4.9444
G01 X31.5003 Y150.9962 Z-4.9722
G01 X31.5875 Y151.0000 Z-5.0000
G01 X31.6747 Y150.9962 Z-5.0278
G01 X31.7611 Y150.9848 Z-5.0556
G01 X31.8463 Y150.9659 Z-5.0833
G01 X31.9295 Y150.9397 Z-5.1111
G01 X32.0101 Y150.9063 Z-5.1389
G01 X32.0875 Y150.8660 Z-5.1667
G01 X32.1611 Y150.8191 Z-5.1944
G01 X32.2303 Y150.7660 Z-5.2222
G01 X32.2946 Y150.7071 Z-5.2500
G01 X32.3535 Y150.6428 Z-5.2778
G01 X32.4067 Y150.5736 Z-5.3056
G01 X32.4535 Y150.5000 Z-5.3333
G01 X32.4938 Y150.4226 Z-5.3611
G01 X32.5272 Y150.3420 Z-5.3889
G01 X32.5534 Y150.2588 Z-5.4167
G01 X32.5723 Y150.1736 Z-5.4444
G01 X32.5837 Y150.0871 Z-5.4722
G01 X32.5875 Y150.0000 Z-5.5000
G01 X32.5837 Y149.9128
G01 X32.5723 Y149.8263
G01 X32.5534 Y149.7412
G01 X32.5272 Y149.6580
G01 X32.4938 Y149.5774
G01 X32.4535 Y149.5000
G01 X32.4067 Y149.4264
G01 X32.3535 Y149.3572
G01 X32.2946 Y149.2929
G01 X32.2303 Y149.2339
G01 X32.1611 Y149.1808
G01 X32.0875 Y149.1340
G01 X32.0101 Y149.0937
G01 X31.9295 Y149.0603
G01 X31.8463 Y149.0341
G01 X31.7611 Y149.0152
G01 X31.6747 Y149.0038
G01 X31.5875 Y149.0000
G01 X31.5003 Y149.0038
G01 X31.4139 Y149.0152
G01 X31.3287 Y149.0341
G01 X31.2455 Y149.0603
G01 X31.1649 Y149.0937
G01 X31.0875 Y149.1340
G01 X31.0139 Y149.1808
G01 X30.9447 Y149.2339
G01 X30.8804 Y149.2929
G01 X30.8215 Y149.3572
G01 X30.7683 Y149.4264
G01 X30.7215 Y149.5000
G01 X30.6812 Y149.5774
G01 X30.6478 Y149.6580
G01 X30.6216 Y149.7412
G01 X30.6027 Y149.8263
G01 X30.5913 Y149.9128
G01 X30.5875 Y150.0000
G01 X30.5913 Y150.0871
G01 X30.6027 Y150.1736
G01 X30.6216 Y150.2588
G01 X30.6478 Y150.3420
G01 X30.6812 Y150.4226
G01 X30.7215 Y150.5000
G01 X30.7683 Y150.5736
G01 X30.8215 Y150.6428
G01 X30.8804 Y150.7071
G01 X30.9447 Y150.7660
G01 X31.0139 Y150.8191
G01 X31.0875 Y150.8660
G01 X31.1649 Y150.9063
G01 X31.2455 Y150.9397
G01 X31.3287 Y150.9659
G01 X31.4139 Y150.9848
G01 X31.5003 Y150.9962
G01 X31.5875 Y151.0000
G01 X31.6747 Y150.9962
G01 X31.7611 Y150.9848
G01 X31.8463 Y150.9659
G01 X31.9295 Y150.9397
G01 X32.0101 Y150.9063
G01 X32.0875 Y150.8660
G01 X32.1611 Y150.8191
G01 X32.2303 Y150.7660
G01 X32.2946 Y150.7071
G01 X32.3535 Y150.6428
G01 X32.4067 Y150.5736
G01 X32.4535 Y150.5000
G01 X32.4938 Y150.4226
G01 X32.5272 Y150.3420
G01 X32.5534 Y150.2588
G01 X32.5723 Y150.1736
G01 X32.5837 Y150.0871
G01 X32.5875 Y150.0000
G01 X32.5982 Y149.9484 F1000
G01 X32.6063 Y149.8963
G01 X32.6117 Y149.8439
G01 X32.6144 Y149.7912
G01 X32.6143 Y149.7385
G01 X32.6116 Y149.6859
G01 X32.6061 Y149.6335
G01 X32.5980 Y149.5814
G01 X32.5863 Y149.5254
G01 X32.5717 Y149.4701
G01 X32.5543 Y149.4156
G01 X32.5342 Y149.3621
G01 X32.5114 Y149.3096
G01 X32.4859 Y149.2584
G01 X32.4578 Y149.2086
G01 X32.4272 Y149.1603
G01 X32.3916 Y149.1099
G01 X32.3535 Y149.0614
G01 X32.3129 Y149.0148
G01 X32.2701 Y148.9704
G01 X32.2250 Y148.9283
G01 X32.1779 Y148.8885
G01 X32.1288 Y148.8511
G01 X32.0778 Y148.8163
G01 X32.0213 Y148.7817
G01 X31.9631 Y148.7500
G01 X31.9034 Y148.7213
G01 X31.8424 Y148.6957
G01 X31.7801 Y148.6732
G01 X31.7167 Y148.6539
G01 X31.6525 Y148.6378
G01 X31.5875 Y148.6250
G01 X31.5175 Y148.6148
G01 X31.4470 Y148.6082
G01 X31.3763 Y148.6051
G01 X31.3056 Y148.6056
G01 X31.2349 Y148.6096
G01 X31.1645 Y148.6172
G01 X31.0947 Y148.6284
G01 X31.0254 Y148.6430
G01 X30.9573 Y148.6690
G01 X30.8904 Y148.6983
G01 X30.8251 Y148.7308
G01 X30.7615 Y148.7666
G01 X30.6997 Y148.8054
G01 X30.6399 Y148.8472
G01 X30.5823 Y148.8919
G01 X30.5269 Y148.9393
G01 X30.4761 Y148.9927
G01 X30.4280 Y149.0484
G01 X30.3827 Y149.1064
G01 X30.3403 Y149.1666
G01 X30.3009 Y149.2288
G01 X30.2646 Y149.2929
G01 X30.2315 Y149.3587
G01 X30.2017 Y149.4260
G01 X30.1752 Y149.4946
G01 X30.1521 Y149.5646
G01 X30.1325 Y149.6355
G01 X30.1163 Y149.7073
G01 X30.1038 Y149.7799
G01 X30.0947 Y149.8530
G01 X30.0893 Y149.9264
G01 X30.0875 Y150.0000
G01 X30.0893 Y150.0736
G01 X30.0947 Y150.1470
G01 X30.1038 Y150.2201
G01 X30.1163 Y150.2926
G01 X30.1325 Y150.3644
G01 X30.1521 Y150.4354
G01 X30.1752 Y150.5053
G01 X30.2017 Y150.5740
G01 X30.2315 Y150.6413
G01 X30.2646 Y150.7071
G01 X30.3009 Y150.7711
G01 X30.3403 Y150.8333
G01 X30.3827 Y150.8935
G01 X30.4280 Y150.9516
G01 X30.4761 Y151.0073
G01 X30.5269 Y151.0606
G01 X30.5802 Y151.1114
G01 X30.6359 Y151.1595
G01 X30.6940 Y151.2048
G01 X30.7542 Y151.2472
G01 X30.8164 Y151.2866
G01 X30.8804 Y151.3228
G01 X30.9462 Y151.3559
G01 X31.0135 Y151.3858
G01 X31.0822 Y151.4123
G01 X31.1521 Y151.4354
G01 X31.2230 Y151.4550
G01 X31.2949 Y151.4711
G01 X31.3674 Y151.4837
G01 X31.4405 Y151.4927
G01 X31.5139 Y151.4981
G01 X31.5875 Y151.5000
G01 X31.6611 Y151.4981
G01 X31.7345 Y151.4927
G01 X31.8076 Y151.4837
G01 X31.8801 Y151.4711
G01 X31.9520 Y151.4550
G01 X32.0229 Y151.4354
G01 X32.0928 Y151.4123
G01 X32.1615 Y151.3858
G01 X32.2288 Y151.3559
G01 X32.2946 Y151.3228
G01 X32.3586 Y151.2866
G01 X32.4208 Y151.2472
G01 X32.4810 Y151.2048
G01 X32.5391 Y151.1595
G01 X32.5948 Y151.1114
G01 X32.6481 Y151.0606
G01 X32.6989 Y151.0073
G01 X32.7470 Y150.9516
G01 X32.7923 Y150.8935
G01 X32.8347 Y150.8333
G01 X32.8741 Y150.7711
G01 X32.9104 Y150.7071
G01 X32.9435 Y150.6413
G01 X32.9733 Y150.5740
G01 X32.9998 Y150.5053
G01 X33.0229 Y150.4354
G01 X33.0425 Y150.3644
G01 X33.0587 Y150.2926
G01 X33.0712 Y150.2201
G01 X33.0803 Y150.1470
G01 X33.0857 Y150.0736
G01 X33.0875 Y150.0000
G01 X33.0833 Y149.8879
G01 X33.0707 Y149.7764
G01 X33.0499 Y149.6662
G01 X33.0208 Y149.5578
G01 X32.9838 Y149.4520
G01 X32.9389 Y149.3492
G01 X32.8865 Y149.2500
G01 X32.8268 Y149.1550
G01 X32.7602 Y149.0648
G01 X32.6871 Y148.9797
G01 X32.6077 Y148.9004
G01 X32.5227 Y148.8272
G01 X32.4325 Y148.7606
G01 X32.3375 Y148.7010
G01 X32.2383 Y148.6485
G01 X32.1355 Y148.6037
G01 X32.0296 Y148.5666
G01 X31.9213 Y148.5376
G01 X31.8111 Y148.5168
G01 X31.6996 Y148.5042
G01 X31.5875 Y148.5000
G01 X31.4754 Y148.5042
G01 X31.3639 Y148.5168
G01 X31.2537 Y148.5376
G01 X31.1454 Y148.5666
G01 X31.0395 Y148.6037
G01 X30.9367 Y148.6485
G01 X30.8375 Y148.7010
G01 X30.7425 Y148.7606
G01 X30.6523 Y148.8272
G01 X30.5673 Y148.9004
G01 X30.4879 Y148.9797
G01 X30.4148 Y149.0648
G01 X30.3482 Y149.1550
G01 X30.2885 Y149.2500
G01 X30.2361 Y149.3492
G01 X30.1912 Y149.4520
G01 X30.1542 Y149.5578
G01 X30.1251 Y149.6662
G01 X30.1043 Y149.7764
G01 X30.0917 Y149.8879
G01 X30.0875 Y150.0000
G01 X30.0917 Y150.1121
G01 X30.1043 Y150.2235
G01 X30.1251 Y150.3338
G01 X30.1542 Y150.4421
G01 X30.1912 Y150.5480
G01 X30.2361 Y150.6508
G01 X30.2885 Y150.7500
G01 X30.3482 Y150.8449
G01 X30.4148 Y150.9352
G01 X30.4879 Y151.0202
G01 X30.5673 Y151.0995
G01 X30.6523 Y151.1727
G01 X30.7425 Y151.2393
G01 X30.8375 Y151.2990
G01 X30.9367 Y151.3514
G01 X31.0395 Y151.3963
G01 X31.1454 Y151.4333
G01 X31.2537 Y151.4623
G01 X31.3639 Y151.4832
G01 X31.4754 Y151.4958
G01 X31.5875 Y151.5000
G01 X31.6996 Y151.4958
G01 X31.8111 Y151.4832
G01 X31.9213 Y151.4623
G01 X32.0296 Y151.4333
G01 X32.1355 Y151.3963
G01 X32.2383 Y151.3514
G01 X32.3375 Y151.2990
G01 X32.4325 Y151.2393
G01 X32.5227 Y151.1727
G01 X32.6077 Y151.0995
G01 X32.6871 Y151.0202
G01 X32.7602 Y150.9352
G01 X32.8268 Y150.8449
G01 X32.8865 Y150.7500
G01 X32.9389 Y150.6508
G01 X32.9838 Y150.5480
G01 X33.0208 Y150.4421
G01 X33.0499 Y150.3338
G01 X33.0707 Y150.2235
G01 X33.0833 Y150.1121
G01 X33.0875 Y150.0000
M107
M106 S240
G01 X33.0844 Y149.9215 Z-5.4750 F400
M107
M106 S240
G01 X33.0752 Y149.8435 Z-5.4500
M107
M106 S240
G01 X33.0598 Y149.7665 Z-5.4250
M107
M106 S240
G01 X33.0385 Y149.6910 Z-5.4000
M107
M106 S240
G01 X33.0114 Y149.6173 Z-5.3750
M107
M106 S240
G01 X32.9785 Y149.5460 Z-5.3500
M107
M106 S240
G01 X32.9401 Y149.4775 Z-5.3250
M107
M106 S240
G01 X32.8965 Y149.4122 Z-5.3000
M107
M106 S240
G01 X32.8479 Y149.3505 Z-5.2750
M107
M106 S240
G01 X32.7946 Y149.2929 Z-5.2500
M107
M106 S240
G01 X32.7369 Y149.2396 Z-5.2250
M107
M106 S240
G01 X32.6753 Y149.1910 Z-5.2000
M107
M106 S240
G01 X32.6100 Y149.1473 Z-5.1750
M107
M106 S240
G01 X32.5415 Y149.1090 Z-5.1500
M107
M106 S240
G01 X32.4702 Y149.0761 Z-5.1250
M107
M106 S240
G01 X32.3965 Y149.0489 Z-5.1000
M107
M106 S240
G01 X32.3209 Y149.0276 Z-5.0750
M107
M106 S240
G01 X32.2439 Y149.0123 Z-5.0500
M107
M106 S240
G01 X32.1659 Y149.0031 Z-5.0250
M107
M106 S240
G01 X32.0875 Y149.0000 Z-5.0000
M107
G00 Z2.0000


;No. 2: Hole 19
G00 X57.7895 Y220.9124 Z2.0000
G00 Z0.5000
G01 Z0.0000 F400
G01 Z-1.8000
M106 S240
G01 X126.1991 F1000
G01 Y222.4124
G01 X126.2994
G01 X57.7055
G01 X66.0790
G01 Y223.9124
G01 X127.9962
G01 X129.7867 Y225.4124
G01 X74.4524
G01 X82.8259
G01 Y226.9124
G01 X131.5973
G01 X133.4217 Y228.4124
G01 X91.1993
G01 X99.5727
G01 Y229.9124
G01 X135.2495
G01 X137.0772 Y231.4124
G01 X107.9462
G01 X116.3196
G01 Y232.9124
G01 X138.9050
G01 X138.9146 Y234.4124
G01 X124.6930
G01 X129.7346
G01 Y235.9124
G01 X138.7923
G01 X138.6459 Y237.4124
G01 X129.8328
G01 X129.8028 Y238.9124
G01 X138.4760
G01 X138.2834 Y240.4124
G01 X129.7565
G01 X129.6954 Y241.9124
G01 X138.0684
G01 X137.8314 Y243.4124
G01 X129.6094
G01 X129.4857 Y244.9124
G01 X137.5728
G01 X137.2923 Y246.4124
G01 X129.3132
G01 X129.0744 Y247.9124
G01 X136.9905
G01 X136.6667 Y249.4124
G01 X128.7429
G01 X128.2751 Y250.9124
G01 X136.3211
G01 X135.9528 Y252.4124
G01 X127.5922
G01 X126.5285 Y253.9124
G01 X135.5619
G01 X135.1472 Y255.4124
G01 X124.6111
G01 X122.9394 Y256.9124
G01 X134.7081
G01 X134.2435 Y258.4124
G01 X123.7044
G01 X124.5655 Y259.9124
G01 X133.7519
G01 X133.2320 Y261.4124
G01 X125.5224
G01 X126.5933 Y262.9124
G01 X132.6815
G01 X132.0979 Y264.4124
G01 X127.8096
G01 X129.2235 Y265.9124
G01 X131.4785
M107
G00 Z2.0000
G00 X66.2331 Y220.9124
G00 Z0.5000
G01 Z-1.8000 F400
M106 S240
G01 Y219.4124 F1000
G01 X127.9536
G01 X129.7791 Y217.9124
G01 X74.6659
G01 X83.0912
G01 Y216.4124
G01 X131.6046
G01 X133.4307 Y214.9124
G01 X91.5103
G01 X99.9231
G01 Y213.4124
G01 X135.2548
G01 X137.0728 Y211.9124
G01 X108.3290
G01 X116.7248
G01 Y210.4124
G01 X138.8786
G01 X138.9099 Y208.9124
G01 X125.0990
G01 X129.7157
G01 Y207.4124
G01 X138.7894
G01 X138.6436 Y205.9124
G01 X129.7895
G01 X129.7637 Y204.4124
G01 X138.4743
G01 X138.2830 Y202.9124
G01 X129.7243
G01 X129.6740 Y201.4124
G01 X138.0698
G01 X137.8345 Y199.9124
G01 X129.6075
G01 X129.4879 Y198.4124
G01 X137.5773
G01 X137.2980 Y196.9124
G01 X129.3109
G01 X129.0686 Y195.4124
G01 X136.9964
G01 X136.6721 Y193.9124
G01 X128.7341
G01 X128.2637 Y192.4124
G01 X136.3251
G01 X135.9549 Y190.9124
G01 X127.5788
G01 X126.5147 Y189.4124
G01 X135.5612
G01 X135.1432 Y187.9124
G01 X124.5735
G01 X122.9609 Y186.4124
G01 X134.7006
G01 X134.2324 Y184.9124
G01 X123.7278
G01 X124.5660 Y183.4124
G01 X133.7381
G01 X133.2165 Y181.9124
G01 X125.5304
G01 X126.6065 Y180.4124
G01 X132.6662
G01 X132.0820 Y178.9124
G01 X127.8234
G01 X129.2322 Y177.4124
G01 X131.4733
G01 X131.6435 Y177.3007
G01 X131.4730 Y176.8901
G01 X131.3002 Y176.4805
G01 X131.1250 Y176.0718
G01 X130.9475 Y175.6642
G01 X130.2825 Y176.2064
G01 X129.6368 Y176.7715
G01 X129.0114 Y177.3588
G01 X128.4069 Y177.9677
G01 X127.8241 Y178.5974
G01 X127.2637 Y179.2472
G01 X126.7264 Y179.9161
G01 X126.2129 Y180.6035
G01 X125.7243 Y181.2751
G01 X125.2528 Y181.9587
G01 X124.7986 Y182.6541
G01 X124.3621 Y183.3606
G01 X123.9436 Y184.0780
G01 X123.5433 Y184.8057
G01 X123.1615 Y185.5432
G01 X122.7984 Y186.2901
G01 X122.6710 Y186.5459
G01 X122.5447 Y186.8022
G01 X122.4196 Y187.0590
G01 X122.2955 Y187.3164
G01 X122.6508 Y187.3935
G01 X123.0019 Y187.4875
G01 X123.3483 Y187.5981
G01 X123.6889 Y187.7251
G01 X124.0231 Y187.8682
G01 X124.3501 Y188.0270
G01 X124.6692 Y188.2013
G01 X124.9796 Y188.3905
G01 X125.2806 Y188.5943
G01 X125.5716 Y188.8123
G01 X125.8519 Y189.0439
G01 X126.1208 Y189.2885
G01 X126.4753 Y189.6861
G01 X126.8061 Y190.1035
G01 X127.1123 Y190.5395
G01 X127.3926 Y190.9924
G01 X127.6463 Y191.4608
G01 X127.8724 Y191.9431
G01 X128.0702 Y192.4377
G01 X128.2390 Y192.9429
G01 X128.4411 Y193.6463
G01 X128.6241 Y194.3550
G01 X128.7878 Y195.0684
G01 X128.9322 Y195.7859
G01 X129.0570 Y196.5071
G01 X129.1623 Y197.2314
G01 X129.2479 Y197.9583
G01 X129.3138 Y198.6872
G01 X129.4076 Y200.1584
G01 X129.4811 Y201.6307
G01 X129.5344 Y203.1038
G01 X129.5673 Y204.5776
G01 X129.5821 Y205.1944
G01 X129.5890 Y205.8114
G01 X129.5880 Y206.4283
G01 X129.5791 Y207.0453
G01 X129.5752 Y207.1332
G01 X129.5638 Y207.2205
G01 X129.5448 Y207.3064
G01 X129.5186 Y207.3904
G01 X129.4852 Y207.4719
G01 X129.4449 Y207.5501
G01 X129.3980 Y207.6246
G01 X129.3449 Y207.6948
G01 X129.2859 Y207.7601
G01 X129.2215 Y207.8201
G01 X129.1522 Y207.8744
G01 X129.0785 Y207.9224
G01 X129.0009 Y207.9640
G01 X128.9200 Y207.9987
G01 X128.8364 Y208.0263
G01 X128.7508 Y208.0466
G01 X125.9005 Y208.5607
G01 X123.0501 Y209.0739
G01 X120.1995 Y209.5862
G01 X117.3487 Y210.0977
G01 X114.4978 Y210.6083
G01 X111.6468 Y211.1180
G01 X108.7956 Y211.6269
G01 X105.9442 Y212.1350
G01 X105.1298 Y212.2803
G01 X104.3154 Y212.4257
G01 X103.5010 Y212.5710
G01 X102.6865 Y212.7163
G01 X101.8721 Y212.8616
G01 X101.0577 Y213.0069
G01 X100.2433 Y213.1522
G01 X99.4288 Y213.2974
G01 X98.6144 Y213.4427
G01 X97.8000 Y213.5879
G01 X96.9855 Y213.7332
G01 X96.1711 Y213.8784
G01 X95.3567 Y214.0236
G01 X94.5422 Y214.1688
G01 X93.7278 Y214.3140
G01 X92.9134 Y214.4592
G01 X92.0989 Y214.6044
G01 X91.2845 Y214.7495
G01 X90.4700 Y214.8947
G01 X89.6556 Y215.0398
G01 X88.8411 Y215.1849
G01 X88.0267 Y215.3301
G01 X87.2122 Y215.4752
G01 X86.3978 Y215.6203
G01 X85.5833 Y215.7654
G01 X84.7689 Y215.9105
G01 X83.9544 Y216.0555
G01 X83.1399 Y216.2006
G01 X82.3255 Y216.3457
G01 X81.5110 Y216.4907
G01 X80.6965 Y216.6357
G01 X79.8821 Y216.7808
G01 X79.0676 Y216.9258
G01 X78.2531 Y217.0708
G01 X77.4387 Y217.2158
G01 X76.6242 Y217.3607
G01 X75.8097 Y217.5057
G01 X74.9952 Y217.6507
G01 X74.1807 Y217.7956
G01 X73.3662 Y217.9406
G01 X72.5517 Y218.0855
G01 X71.7373 Y218.2304
G01 X70.9228 Y218.3753
G01 X70.1083 Y218.5202
G01 X69.2938 Y218.6650
G01 X68.4793 Y218.8099
G01 X67.6648 Y218.9547
G01 X66.8502 Y219.0996
G01 X66.0357 Y219.2444
G01 X65.2212 Y219.3892
G01 X64.4067 Y219.5340
G01 X63.5922 Y219.6787
G01 X62.7776 Y219.8235
G01 X61.9631 Y219.9682
G01 X61.1485 Y220.1129
G01 X60.3340 Y220.2575
G01 X59.5194 Y220.4022
G01 X58.7049 Y220.5468
G01 X57.8903 Y220.6914
G01 X57.0757 Y220.8360
G01 X56.2611 Y220.9805
G01 X55.4465 Y221.1250
G01 X54.6319 Y221.2695
G01 X54.2222 Y221.3421
G01 X53.8124 Y221.4148
G01 X53.4026 Y221.4874
G01 X52.9928 Y221.5600
G01 X52.3948 Y221.6659
G01 X128.7882 Y235.3492
G01 X128.8689 Y235.3674
G01 X128.9479 Y235.3922
G01 X129.0246 Y235.4233
G01 X129.0985 Y235.4606
G01 X129.1691 Y235.5039
G01 X129.2359 Y235.5527
G01 X129.2984 Y235.6069
G01 X129.3563 Y235.6660
G01 X129.4092 Y235.7297
G01 X129.4567 Y235.7975
G01 X129.4985 Y235.8690
G01 X129.5343 Y235.9436
G01 X129.5639 Y236.0209
G01 X129.5870 Y236.1004
G01 X129.6035 Y236.1815
G01 X129.6134 Y236.2637
G01 X129.6238 Y237.1634
G01 X129.6208 Y238.0632
G01 X129.6046 Y238.9629
G01 X129.5750 Y239.8623
G01 X129.5522 Y240.5428
G01 X129.5255 Y241.2232
G01 X129.4951 Y241.9035
G01 X129.4609 Y242.5836
G01 X129.4686 Y242.4559
G01 X129.4267 Y243.3042
G01 X129.3655 Y244.1513
G01 X129.2849 Y244.9968
G01 X129.1851 Y245.8403
G01 X129.0661 Y246.6812
G01 X128.9280 Y247.5193
G01 X128.7708 Y248.3539
G01 X128.5946 Y249.1848
G01 X128.4589 Y249.7419
G01 X128.2948 Y250.2913
G01 X128.1027 Y250.8315
G01 X127.8830 Y251.3611
G01 X127.6364 Y251.8787
G01 X127.3636 Y252.3830
G01 X127.0652 Y252.8726
G01 X126.7420 Y253.3462
G01 X126.4593 Y253.6857
G01 X126.1564 Y254.0073
G01 X125.8345 Y254.3099
G01 X125.4948 Y254.5923
G01 X125.1385 Y254.8535
G01 X124.7670 Y255.0925
G01 X124.3816 Y255.3084
G01 X123.9837 Y255.5004
G01 X123.5749 Y255.6679
G01 X123.1566 Y255.8101
G01 X122.7305 Y255.9266
G01 X122.2981 Y256.0169
G01 X122.6739 Y256.8351
G01 X123.0706 Y257.6433
G01 X123.4880 Y258.4410
G01 X123.9257 Y259.2277
G01 X124.3836 Y260.0030
G01 X124.8612 Y260.7661
G01 X125.3583 Y261.5168
G01 X125.8746 Y262.2544
G01 X126.4096 Y262.9785
G01 X126.9631 Y263.6886
G01 X127.5347 Y264.3843
G01 X128.1239 Y265.0650
G01 X128.4499 Y265.4161
G01 X128.7835 Y265.7601
G01 X129.1244 Y266.0968
G01 X129.4724 Y266.4260
G01 X129.8276 Y266.7477
G01 X130.1895 Y267.0616
G01 X130.5582 Y267.3676
G01 X130.9335 Y267.6656
G01 X131.5504 Y266.2367
G01 X132.1438 Y264.7979
G01 X132.7134 Y263.3496
G01 X133.2593 Y261.8921
G01 X133.7811 Y260.4258
G01 X134.2787 Y258.9512
G01 X134.7521 Y257.4686
G01 X135.2011 Y255.9784
G01 X135.6255 Y254.4811
G01 X136.0253 Y252.9769
G01 X136.4004 Y251.4664
G01 X136.7506 Y249.9500
G01 X137.0634 Y248.5478
G01 X137.3568 Y247.1415
G01 X137.6307 Y245.7312
G01 X137.8852 Y244.3173
G01 X138.1201 Y242.9000
G01 X138.3354 Y241.4796
G01 X138.5310 Y240.0563
G01 X138.7070 Y238.6305
G01 X138.8633 Y237.2024
G01 X138.9999 Y235.7722
G01 X139.1167 Y234.3404
G01 X139.2137 Y232.9070
G01 X133.0377 Y227.8385
G01 X131.4018 Y226.4976
G01 X129.7765 Y225.1441
G01 X128.1618 Y223.7779
G01 X126.5577 Y222.3992
G01 X126.4905 Y222.3397
G01 X126.4288 Y222.2744
G01 X126.3731 Y222.2040
G01 X126.3238 Y222.1290
G01 X126.2813 Y222.0498
G01 X126.2460 Y221.9673
G01 X126.2181 Y221.8819
G01 X126.1978 Y221.7945
G01 X126.1854 Y221.7056
G01 X126.1808 Y221.6159
G01 X126.1841 Y221.5262
G01 X126.1953 Y221.4371
G01 X126.2144 Y221.3493
G01 X126.2411 Y221.2636
G01 X126.2752 Y221.1806
G01 X126.3166 Y221.1009
G01 X126.3648 Y221.0251
G01 X126.4195 Y220.9539
G01 X126.4803 Y220.8878
G01 X126.5466 Y220.8273
G01 X128.2511 Y219.4258
G01 X129.9559 Y218.0248
G01 X131.6611 Y216.6241
G01 X133.3666 Y215.2238
G01 X134.8275 Y214.0243
G01 X136.2859 Y212.8217
G01 X137.7419 Y211.6162
G01 X139.1954 Y210.4078
G01 X139.0821 Y208.7197
G01 X138.9412 Y207.0336
G01 X138.7728 Y205.3501
G01 X138.5770 Y203.6696
G01 X138.3537 Y201.9925
G01 X138.1031 Y200.3192
G01 X137.8252 Y198.6503
G01 X137.5202 Y196.9861
G01 X137.1880 Y195.3271
G01 X136.8287 Y193.6738
G01 X136.4426 Y192.0265
G01 X136.0295 Y190.3858
G01 X135.5898 Y188.7521
G01 X135.1235 Y187.1257
G01 X134.6306 Y185.5071
G01 X134.1115 Y183.8969
G01 X133.5406 Y182.2309
G01 X132.9389 Y180.5758
G01 X132.3064 Y178.9322
G01 X131.6435 Y177.3007
G01 X131.4733 Y177.4124
M107
G00 Z2.0000


;No. 3: Hole 18
G00 X136.6613 Y175.1696 Z2.0000
G00 Z0.5000
G01 Z0.0000 F400
G01 Z-1.8000
M106 S240
G01 X141.0004 F1000
G01 X141.5196 Y176.6696
G01 X137.2541
G01 X137.8216 Y178.1696
G01 X142.0215
G01 X142.5058 Y179.6696
G01 X138.3645
G01 X138.8837 Y181.1696
G01 X142.9727
G01 X143.4218 Y182.6696
G01 X139.3798
G01 X139.8534 Y184.1696
G01 X143.8534
G01 X144.2675 Y185.6696
G01 X140.3050
G01 X140.7353 Y187.1696
G01 X144.6640
G01 X145.0429 Y188.6696
G01 X141.1445
G01 X141.5331 Y190.1696
G01 X145.4042
G01 X145.7482 Y191.6696
G01 X141.9015
G01 X142.2499 Y193.1696
G01 X146.0748
G01 X146.3841 Y194.6696
G01 X142.5786
G01 X142.8880 Y196.1696
G01 X146.6762
G01 X146.9513 Y197.6696
G01 X143.1781
G01 X143.4492 Y199.1696
G01 X147.2095
G01 X147.4508 Y200.6696
G01 X143.7013
G01 X143.9347 Y202.1696
G01 X147.6755
G01 X147.8839 Y203.6696
G01 X144.1494
G01 X144.3453 Y205.1696
G01 X148.0759
G01 X148.2518 Y206.6696
G01 X144.5225
G01 X144.6811 Y208.1696
G01 X148.4120
G01 X148.5563 Y209.6696
G01 X144.8211
G01 X144.9424 Y211.1696
G01 X148.6853
G01 X148.7984 Y212.6696
G01 X145.0389
G01 X145.1090 Y214.1696
G01 X148.8939
G01 X148.9712 Y215.6696
G01 X145.1623
G01 X145.2029 Y217.1696
G01 X149.0307
G01 X149.0730 Y218.6696
G01 X145.2331
G01 X145.2537 Y220.1696
G01 X149.0973
G01 X149.1045 Y221.6696
G01 X145.2650
G01 X145.2666 Y223.1696
G01 X149.0948
G01 X149.0676 Y224.6696
G01 X145.2573
G01 X145.2347 Y226.1696
G01 X149.0238
G01 X148.9631 Y227.6696
G01 X145.1938
G01 X145.1250 Y229.1696
G01 X148.8856
G01 X148.7917 Y230.6696
G01 X145.0363
G01 X144.9306 Y232.1696
G01 X148.6808
G01 X148.5535 Y233.6696
G01 X144.8083
G01 X144.6685 Y235.1696
G01 X148.4099
G01 X148.2494 Y236.6696
G01 X144.5113
G01 X144.3364 Y238.1696
G01 X148.0727
G01 X147.8797 Y239.6696
G01 X144.1431
G01 X143.9317 Y241.1696
G01 X147.6698
G01 X147.4437 Y242.6696
G01 X143.7013
G01 X143.4521 Y244.1696
G01 X147.2011
G01 X146.9417 Y245.6696
G01 X143.1836
G01 X142.8954 Y247.1696
G01 X146.6660
G01 X146.3736 Y248.6696
G01 X142.5876
G01 X142.2594 Y250.1696
G01 X146.0642
G01 X145.7382 Y251.6696
G01 X141.9109
G01 X141.5418 Y253.1696
G01 X145.3954
G01 X145.0352 Y254.6696
G01 X141.1515
G01 X140.7402 Y256.1696
G01 X144.6580
G01 X144.2637 Y257.6696
G01 X140.3075
G01 X139.8527 Y259.1696
G01 X143.8518
G01 X143.4221 Y260.6696
G01 X139.3762
G01 X138.8775 Y262.1696
G01 X142.9748
G01 X142.5096 Y263.6696
G01 X138.3563
G01 X137.8124 Y265.1696
G01 X142.0261
G01 X141.5240 Y266.6696
G01 X137.2456
G01 X136.6558 Y268.1696
G01 X141.0035
G01 X140.4608 Y269.6696
G01 X136.0429
G01 X137.3493 Y271.1696
G01 X139.9026
M107
G00 Z2.0000
G00 X140.4638 Y175.1696
G00 Z0.5000
G01 Z-1.8000 F400
M106 S240
G01 Y173.6696 F1000
G01 X136.0423
G01 X137.2924 Y172.1696
G01 X139.9100
G01 X140.0683 Y172.0223
G01 X139.9726 Y171.7679
G01 X139.6206 Y170.8660
G01 X138.5790 Y171.3381
G01 X137.5445 Y171.8256
G01 X136.5173 Y172.3282
G01 X135.4976 Y172.8460
G01 X135.8009 Y173.6156
G01 X136.1095 Y174.3831
G01 X136.4235 Y175.1484
G01 X136.7428 Y175.9115
G01 X137.4402 Y177.7395
G01 X138.1080 Y179.5785
G01 X138.7460 Y181.4281
G01 X139.3541 Y183.2877
G01 X139.9320 Y185.1569
G01 X140.4796 Y187.0352
G01 X140.9968 Y188.9221
G01 X141.4835 Y190.8171
G01 X141.9395 Y192.7197
G01 X142.3647 Y194.6295
G01 X142.7589 Y196.5458
G01 X143.1222 Y198.4683
G01 X143.4544 Y200.3964
G01 X143.7553 Y202.3296
G01 X144.0250 Y204.2674
G01 X144.2634 Y206.2094
G01 X144.4703 Y208.1549
G01 X144.6458 Y210.1035
G01 X144.7898 Y212.0547
G01 X144.9022 Y214.0080
G01 X144.9675 Y215.8245
G01 X145.0160 Y217.6416
G01 X145.0479 Y219.4590
G01 X145.0631 Y221.2767
G01 X145.0616 Y223.0944
G01 X145.0434 Y224.9120
G01 X145.0086 Y226.7294
G01 X144.9570 Y228.5464
G01 X144.8453 Y230.6548
G01 X144.6971 Y232.7609
G01 X144.5125 Y234.8641
G01 X144.2916 Y236.9638
G01 X144.0343 Y239.0594
G01 X143.7408 Y241.1502
G01 X143.4112 Y243.2356
G01 X143.0456 Y245.3150
G01 X142.6441 Y247.3878
G01 X142.2067 Y249.4533
G01 X141.7337 Y251.5109
G01 X141.2251 Y253.5601
G01 X140.6812 Y255.6001
G01 X140.1020 Y257.6304
G01 X139.4878 Y259.6504
G01 X138.8388 Y261.6595
G01 X138.4543 Y262.7705
G01 X138.0609 Y263.8784
G01 X137.6586 Y264.9831
G01 X137.2475 Y266.0846
G01 X136.8276 Y267.1827
G01 X136.3988 Y268.2774
G01 X135.9613 Y269.3686
G01 X135.5150 Y270.4563
G01 X136.5287 Y270.9806
G01 X137.5495 Y271.4911
G01 X138.5770 Y271.9877
G01 X139.6113 Y272.4703
G01 X140.3614 Y270.5064
G01 X141.0823 Y268.5317
G01 X141.7738 Y266.5464
G01 X142.4357 Y264.5511
G01 X143.0680 Y262.5462
G01 X143.6704 Y260.5321
G01 X144.2429 Y258.5093
G01 X144.7853 Y256.4783
G01 X145.2975 Y254.4394
G01 X145.7793 Y252.3931
G01 X146.2307 Y250.3399
G01 X146.6516 Y248.2802
G01 X147.0419 Y246.2145
G01 X147.4014 Y244.1433
G01 X147.7302 Y242.0669
G01 X148.0281 Y239.9859
G01 X148.2951 Y237.9007
G01 X148.5312 Y235.8117
G01 X148.7361 Y233.7195
G01 X148.9100 Y231.6245
G01 X149.0528 Y229.5271
G01 X149.1645 Y227.4278
G01 X149.2449 Y225.3271
G01 X149.2942 Y223.2255
G01 X149.2989 Y221.4567
G01 X149.2811 Y219.6881
G01 X149.2408 Y217.9198
G01 X149.1779 Y216.1522
G01 X149.0925 Y214.3855
G01 X148.9845 Y212.6201
G01 X148.8541 Y210.8561
G01 X148.7012 Y209.0940
G01 X148.5259 Y207.3340
G01 X148.3282 Y205.5764
G01 X148.1080 Y203.8214
G01 X147.8655 Y202.0693
G01 X147.6007 Y200.3205
G01 X147.3137 Y198.5752
G01 X147.0044 Y196.8338
G01 X146.6729 Y195.0964
G01 X146.2695 Y193.1351
G01 X145.8390 Y191.1796
G01 X145.3816 Y189.2302
G01 X144.8973 Y187.2873
G01 X144.3863 Y185.3513
G01 X143.8486 Y183.4225
G01 X143.2843 Y181.5014
G01 X142.6935 Y179.5882
G01 X142.0765 Y177.6833
G01 X141.4331 Y175.7871
G01 X140.7637 Y173.9000
G01 X140.0683 Y172.0223
G01 X139.9100 Y172.1696
M107
G00 Z2.0000


;No. 4: Hole 35
G00 X93.4425 Y155.4690 Z2.0000
G00 Z0.5000
G01 Z0.0000 F400
G01 Z-1.5000
M106 S240
G01 X90.3239 F1000
G01 X90.7772 Y153.9690
G01 X86.5871
G01 X86.7362 Y152.4690
G01 X82.8504
G01 X79.1136 Y150.9690
G01 X82.6953
G01 X80.7663
G01 Y149.4690
G01 X77.7120
G01 X79.1136 Y147.9690
G01 X82.4181
G01 X82.8504 Y146.4690
G01 X86.4591
G01 X86.5871 Y144.9690
G01 X90.5001
G01 X90.3239 Y143.4690
G01 X93.4425
G01 X93.6425 Y143.4467
G01 Y141.9213
G01 X77.5120 Y148.3964
G01 Y150.5416
G01 X93.6425 Y157.0166
G01 Y154.8192
G01 X81.6160 Y150.3550
G01 X81.5726 Y150.3378
G01 X81.5300 Y150.3185
G01 X81.4884 Y150.2972
G01 X81.4478 Y150.2740
G01 X81.4084 Y150.2490
G01 X81.3701 Y150.2221
G01 X81.3332 Y150.1935
G01 X81.2976 Y150.1631
G01 X81.2635 Y150.1312
G01 X81.2309 Y150.0977
G01 X81.1999 Y150.0627
G01 X81.1706 Y150.0262
G01 X81.1431 Y149.9885
G01 X81.1173 Y149.9495
G01 X81.0933 Y149.9094
G01 X81.0713 Y149.8682
G01 X81.0512 Y149.8259
G01 X81.0331 Y149.7828
G01 X81.0171 Y149.7389
G01 X81.0031 Y149.6944
G01 X80.9912 Y149.6491
G01 X80.9815 Y149.6034
G01 X80.9738 Y149.5573
G01 X80.9684 Y149.5109
G01 X80.9651 Y149.4643
G01 X80.9640 Y149.4175
G01 X80.9651 Y149.3708
G01 X80.9684 Y149.3242
G01 X80.9738 Y149.2778
G01 X80.9815 Y149.2317
G01 X80.9912 Y149.1859
G01 X81.0031 Y149.1407
G01 X81.0171 Y149.0961
G01 X81.0331 Y149.0522
G01 X81.0512 Y149.0091
G01 X81.0713 Y148.9669
G01 X81.0933 Y148.9257
G01 X81.1173 Y148.8856
G01 X81.1431 Y148.8466
G01 X81.1706 Y148.8088
G01 X81.1999 Y148.7724
G01 X81.2309 Y148.7374
G01 X81.2635 Y148.7039
G01 X81.2976 Y148.6720
G01 X81.3332 Y148.6416
G01 X81.3701 Y148.6130
G01 X81.4084 Y148.5861
G01 X81.4478 Y148.5611
G01 X81.4884 Y148.5379
G01 X81.5300 Y148.5166
G01 X81.5726 Y148.4973
G01 X81.6160 Y148.4800
G01 X93.6425 Y144.0159
G01 Y143.4467
G01 X93.4425 Y143.4690
M107
G00 Z2.0000


;No. 5: Hole 20
G00 X103.5575 Y145.0716 Z2.0000
G00 Z0.5000
G01 Z0.0000 F400
G01 Z-1.5000
M106 S240
G01 X104.6807 F1000
G01 Y146.5716
G01 X103.5575
G01 Y148.0716
G01 X104.6807
G01 Y149.5716
G01 X103.5575
G01 Y151.0716
G01 X104.6807
G01 X104.6839 Y152.5716
G01 X103.5575
G01 Y154.0716
G01 X119.1594
G01 Y152.5716
G01 X118.0330
G01 X118.0361 Y151.0716
G01 X119.1594
G01 Y149.5716
G01 X118.0361
G01 Y148.0716
G01 X119.1594
G01 Y146.5716
G01 X118.0361
G01 Y145.0716
G01 X119.1594
M107
G00 Z2.0000
G00 X111.9875 Y154.0716
G00 Z0.5000
G01 Z-1.5000 F400
M106 S240
G01 Y152.5716 F1000
G01 X110.8579
G01 X110.8611 Y151.0716
G01 X111.9843
G01 Y149.5716
G01 X110.8611
G01 Y148.0716
G01 X111.9843
G01 Y146.5716
G01 X110.8611
G01 X110.6611 Y146.5810
G01 Y152.4905
G01 X110.6602 Y152.5341
G01 X110.6573 Y152.5777
G01 X110.6526 Y152.6210
G01 X110.6459 Y152.6642
G01 X110.6374 Y152.7070
G01 X110.6271 Y152.7493
G01 X110.6148 Y152.7912
G01 X110.6008 Y152.8325
G01 X110.5850 Y152.8732
G01 X110.5674 Y152.9131
G01 X110.5481 Y152.9523
G01 X110.5272 Y152.9905
G01 X110.5045 Y153.0278
G01 X110.4803 Y153.0641
G01 X110.4545 Y153.0993
G01 X110.4272 Y153.1333
G01 X110.3984 Y153.1661
G01 X110.3682 Y153.1976
G01 X110.3367 Y153.2278
G01 X110.3039 Y153.2566
G01 X110.2699 Y153.2839
G01 X110.2347 Y153.3097
G01 X110.1984 Y153.3339
G01 X110.1611 Y153.3565
G01 X110.1229 Y153.3775
G01 X110.0837 Y153.3968
G01 X110.0438 Y153.4144
G01 X110.0031 Y153.4302
G01 X109.9618 Y153.4442
G01 X109.9199 Y153.4564
G01 X109.8776 Y153.4668
G01 X109.8348 Y153.4753
G01 X109.7917 Y153.4820
G01 X109.7483 Y153.4867
G01 X109.7047 Y153.4896
G01 X109.6611 Y153.4905
G01 X105.8807
G01 X105.8023 Y153.4874
G01 X105.7243 Y153.4782
G01 X105.6473 Y153.4629
G01 X105.5717 Y153.4416
G01 X105.4981 Y153.4144
G01 X105.4268 Y153.3815
G01 X105.3582 Y153.3432
G01 X105.2930 Y153.2995
G01 X105.2313 Y153.2509
G01 X105.1736 Y153.1976
G01 X105.1203 Y153.1400
G01 X105.0717 Y153.0783
G01 X105.0281 Y153.0130
G01 X104.9897 Y152.9445
G01 X104.9569 Y152.8732
G01 X104.9297 Y152.7995
G01 X104.9084 Y152.7240
G01 X104.8931 Y152.6469
G01 X104.8838 Y152.5690
G01 X104.8807 Y152.4905
G01 Y143.7181
G01 X103.3575
G01 Y155.4252
G01 X119.3594
G01 Y143.8467
G01 X117.8361
G01 Y152.4905
G01 X117.8331 Y152.5690
G01 X117.8238 Y152.6469
G01 X117.8085 Y152.7240
G01 X117.7872 Y152.7995
G01 X117.7600 Y152.8732
G01 X117.7271 Y152.9445
G01 X117.6888 Y153.0130
G01 X117.6452 Y153.0783
G01 X117.5965 Y153.1400
G01 X117.5432 Y153.1976
G01 X117.4856 Y153.2509
G01 X117.4239 Y153.2995
G01 X117.3586 Y153.3432
G01 X117.2901 Y153.3815
G01 X117.2188 Y153.4144
G01 X117.1452 Y153.4416
G01 X117.0696 Y153.4629
G01 X116.9926 Y153.4782
G01 X116.9146 Y153.4874
G01 X116.8361 Y153.4905
G01 X113.1843
G01 X113.1407 Y153.4896
G01 X113.0972 Y153.4867
G01 X113.0538 Y153.4820
G01 X113.0107 Y153.4753
G01 X112.9679 Y153.4668
G01 X112.9255 Y153.4564
G01 X112.8836 Y153.4442
G01 X112.8423 Y153.4302
G01 X112.8017 Y153.4144
G01 X112.7617 Y153.3968
G01 X112.7226 Y153.3775
G01 X112.6843 Y153.3565
G01 X112.6470 Y153.3339
G01 X112.6108 Y153.3097
G01 X112.5756 Y153.2839
G01 X112.5416 Y153.2566
G01 X112.5088 Y153.2278
G01 X112.4772 Y153.1976
G01 X112.4471 Y153.1661
G01 X112.4183 Y153.1333
G01 X112.3910 Y153.0993
G01 X112.3652 Y153.0641
G01 X112.3410 Y153.0278
G01 X112.3183 Y152.9905
G01 X112.2973 Y152.9523
G01 X112.2780 Y152.9131
G01 X112.2605 Y152.8732
G01 X112.2447 Y152.8325
G01 X112.2306 Y152.7912
G01 X112.2184 Y152.7493
G01 X112.2080 Y152.7070
G01 X112.1995 Y152.6642
G01 X112.1929 Y152.6210
G01 X112.1881 Y152.5777
G01 X112.1853 Y152.5341
G01 X112.1843 Y152.4905
G01 Y145.0039
G01 X110.6611
G01 Y146.5810
G01 X110.8611 Y146.5716
M107
G00 Z2.0000


;No. 6: Hole 34
G00 X93.4425 Y135.3114 Z2.0000
G00 Z0.5000
G01 Z0.0000 F400
G01 Z-1.5000
M106 S240
G01 X77.8406 F1000
G01 Y133.8114
G01 X78.9670
G01 X78.9638 Y132.3114
G01 X77.8406
G01 Y130.8114
G01 X78.9638
G01 Y129.3114
G01 X77.8406
G01 Y127.8114
G01 X78.9638
G01 Y126.3114
G01 X77.8406
M107
G00 Z2.0000
G00 X85.1410 Y135.3114
G00 Z0.5000
G01 Z-1.5000 F400
M106 S240
G01 Y133.8114 F1000
G01 X86.2706
G01 X86.2674 Y132.3114
G01 X85.1442
G01 Y130.8114
G01 X86.2674
G01 Y129.3114
G01 X85.1442
G01 Y127.8114
G01 X86.2674
M107
G00 Z2.0000
G00 X92.3161 Y135.3114
G00 Z0.5000
G01 Z-1.5000 F400
M106 S240
G01 Y133.8114 F1000
G01 X93.4425
G01 Y132.3114
G01 X92.3192
G01 Y130.8114
G01 X93.4425
G01 Y129.3114
G01 X92.3192
G01 Y127.8114
G01 X93.4425
G01 Y126.3114
G01 X92.3192
G01 X92.1192 Y126.3249
G01 Y133.7302
G01 X92.1183 Y133.7739
G01 X92.1154 Y133.8174
G01 X92.1107 Y133.8608
G01 X92.1040 Y133.9039
G01 X92.0955 Y133.9467
G01 X92.0852 Y133.9891
G01 X92.0730 Y134.0309
G01 X92.0589 Y134.0723
G01 X92.0431 Y134.1129
G01 X92.0255 Y134.1529
G01 X92.0063 Y134.1920
G01 X91.9853 Y134.2302
G01 X91.9626 Y134.2675
G01 X91.9384 Y134.3038
G01 X91.9126 Y134.3390
G01 X91.8853 Y134.3730
G01 X91.8565 Y134.4058
G01 X91.8263 Y134.4373
G01 X91.7948 Y134.4675
G01 X91.7620 Y134.4963
G01 X91.7280 Y134.5236
G01 X91.6928 Y134.5494
G01 X91.6565 Y134.5736
G01 X91.6192 Y134.5963
G01 X91.5810 Y134.6172
G01 X91.5419 Y134.6365
G01 X91.5019 Y134.6541
G01 X91.4613 Y134.6699
G01 X91.4199 Y134.6840
G01 X91.3781 Y134.6962
G01 X91.3357 Y134.7065
G01 X91.2929 Y134.7150
G01 X91.2498 Y134.7217
G01 X91.2064 Y134.7264
G01 X91.1629 Y134.7293
G01 X91.1192 Y134.7302
G01 X87.4674
G01 X87.3890 Y134.7272
G01 X87.3110 Y134.7179
G01 X87.2340 Y134.7026
G01 X87.1584 Y134.6813
G01 X87.0848 Y134.6541
G01 X87.0134 Y134.6212
G01 X86.9449 Y134.5829
G01 X86.8797 Y134.5393
G01 X86.8180 Y134.4906
G01 X86.7603 Y134.4373
G01 X86.7070 Y134.3797
G01 X86.6584 Y134.3180
G01 X86.6148 Y134.2527
G01 X86.5764 Y134.1842
G01 X86.5436 Y134.1129
G01 X86.5164 Y134.0393
G01 X86.4951 Y133.9637
G01 X86.4798 Y133.8867
G01 X86.4705 Y133.8087
G01 X86.4674 Y133.7302
G01 Y126.2437
G01 X84.9442
G01 Y133.7302
G01 X84.9411 Y133.8087
G01 X84.9319 Y133.8867
G01 X84.9166 Y133.9637
G01 X84.8953 Y134.0393
G01 X84.8681 Y134.1129
G01 X84.8352 Y134.1842
G01 X84.7969 Y134.2527
G01 X84.7532 Y134.3180
G01 X84.7046 Y134.3797
G01 X84.6513 Y134.4373
G01 X84.5937 Y134.4906
G01 X84.5320 Y134.5393
G01 X84.4667 Y134.5829
G01 X84.3982 Y134.6212
G01 X84.3269 Y134.6541
G01 X84.2532 Y134.6813
G01 X84.1777 Y134.7026
G01 X84.1007 Y134.7179
G01 X84.0227 Y134.7272
G01 X83.9442 Y134.7302
G01 X80.1638
G01 X80.1202 Y134.7293
G01 X80.0767 Y134.7264
G01 X80.0333 Y134.7217
G01 X79.9902 Y134.7150
G01 X79.9474 Y134.7065
G01 X79.9050 Y134.6962
G01 X79.8631 Y134.6840
G01 X79.8218 Y134.6699
G01 X79.7812 Y134.6541
G01 X79.7412 Y134.6365
G01 X79.7021 Y134.6172
G01 X79.6638 Y134.5963
G01 X79.6265 Y134.5736
G01 X79.5903 Y134.5494
G01 X79.5551 Y134.5236
G01 X79.5211 Y134.4963
G01 X79.4882 Y134.4675
G01 X79.4567 Y134.4373
G01 X79.4266 Y134.4058
G01 X79.3978 Y134.3730
G01 X79.3705 Y134.3390
G01 X79.3447 Y134.3038
G01 X79.3204 Y134.2675
G01 X79.2978 Y134.2302
G01 X79.2768 Y134.1920
G01 X79.2575 Y134.1529
G01 X79.2400 Y134.1129
G01 X79.2241 Y134.0723
G01 X79.2101 Y134.0309
G01 X79.1979 Y133.9891
G01 X79.1875 Y133.9467
G01 X79.1790 Y133.9039
G01 X79.1724 Y133.8608
G01 X79.1676 Y133.8174
G01 X79.1648 Y133.7739
G01 X79.1638 Y133.7302
G01 Y124.9578
G01 X77.6406
G01 Y136.6649
G01 X93.6425
G01 Y125.0864
G01 X92.1192
G01 Y126.3249
G01 X92.3192 Y126.3114
M107
G00 Z2.0000


;No. 7: Hole 21
G00 X103.5575 Y128.2291 Z2.0000
G00 Z0.5000
G01 Z0.0000 F400
G01 Z-1.5000
M106 S240
G01 X104.7579 F1000
G01 Y129.7291
G01 X103.5575
G01 Y131.2291
G01 X104.7579
G01 Y132.7291
G01 X103.5575
G01 Y134.2291
G01 X104.7579
G01 X104.8646 Y135.7291
G01 X103.5575
G01 Y137.2291
G01 X119.1594
G01 X119.3594 Y137.2286
G01 Y136.2365
G01 X105.9579
G01 X105.8794 Y136.2334
G01 X105.8015 Y136.2242
G01 X105.7244 Y136.2089
G01 X105.6489 Y136.1875
G01 X105.5752 Y136.1604
G01 X105.5039 Y136.1275
G01 X105.4354 Y136.0891
G01 X105.3701 Y136.0455
G01 X105.3084 Y135.9969
G01 X105.2508 Y135.9436
G01 X105.1975 Y135.8859
G01 X105.1489 Y135.8243
G01 X105.1053 Y135.7590
G01 X105.0669 Y135.6905
G01 X105.0340 Y135.6192
G01 X105.0068 Y135.5455
G01 X104.9855 Y135.4699
G01 X104.9702 Y135.3929
G01 X104.9610 Y135.3149
G01 X104.9579 Y135.2365
G01 Y127.2613
G01 X103.3575
G01 Y138.1969
G01 X119.3594
G01 Y137.2286
G01 X119.1594 Y137.2291
M107
G00 Z2.0000


;No. 8: Hole 33
G00 X93.4425 Y118.0744 Z2.0000
G00 Z0.5000
G01 Z0.0000 F400
G01 Z-1.5000
M106 S240
G01 X77.8406 F1000
G01 X85.0629
G01 Y116.5744
G01 X86.3231
G01 X86.3189 Y115.0744
G01 X85.0671
G01 Y113.5744
G01 X86.3189
G01 Y112.0744
G01 X85.0671
G01 Y110.5744
G01 X86.3189
G01 X86.3231 Y109.0744
G01 X85.0629
G01 Y107.5744
G01 X77.8406
G01 X93.4425
G01 X93.6425 Y107.5567
G01 Y106.2122
G01 X77.6406
G01 Y108.1726
G01 X83.8671
G01 X83.9455 Y108.1757
G01 X84.0235 Y108.1849
G01 X84.1005 Y108.2002
G01 X84.1761 Y108.2215
G01 X84.2498 Y108.2487
G01 X84.3211 Y108.2816
G01 X84.3896 Y108.3200
G01 X84.4549 Y108.3636
G01 X84.5165 Y108.4122
G01 X84.5742 Y108.4655
G01 X84.6275 Y108.5232
G01 X84.6761 Y108.5848
G01 X84.7197 Y108.6501
G01 X84.7581 Y108.7186
G01 X84.7910 Y108.7899
G01 X84.8181 Y108.8636
G01 X84.8394 Y108.9392
G01 X84.8548 Y109.0162
G01 X84.8640 Y109.0941
G01 X84.8671 Y109.1726
G01 Y116.4762
G01 X84.8640 Y116.5547
G01 X84.8548 Y116.6326
G01 X84.8394 Y116.7096
G01 X84.8181 Y116.7852
G01 X84.7910 Y116.8589
G01 X84.7581 Y116.9302
G01 X84.7197 Y116.9987
G01 X84.6761 Y117.0640
G01 X84.6275 Y117.1257
G01 X84.5742 Y117.1833
G01 X84.5165 Y117.2366
G01 X84.4549 Y117.2852
G01 X84.3896 Y117.3288
G01 X84.3211 Y117.3672
G01 X84.2498 Y117.4001
G01 X84.1761 Y117.4273
G01 X84.1005 Y117.4486
G01 X84.0235 Y117.4639
G01 X83.9455 Y117.4731
G01 X83.8671 Y117.4762
G01 X77.6406
G01 Y119.4366
G01 X93.6425
G01 Y117.4762
G01 X87.5189
G01 X87.4404 Y117.4731
G01 X87.3624 Y117.4639
G01 X87.2854 Y117.4486
G01 X87.2099 Y117.4273
G01 X87.1362 Y117.4001
G01 X87.0649 Y117.3672
G01 X86.9964 Y117.3288
G01 X86.9311 Y117.2852
G01 X86.8694 Y117.2366
G01 X86.8118 Y117.1833
G01 X86.7585 Y117.1257
G01 X86.7099 Y117.0640
G01 X86.6662 Y116.9987
G01 X86.6279 Y116.9302
G01 X86.5950 Y116.8589
G01 X86.5678 Y116.7852
G01 X86.5465 Y116.7096
G01 X86.5312 Y116.6326
G01 X86.5220 Y116.5547
G01 X86.5189 Y116.4762
G01 Y109.1726
G01 X86.5220 Y109.0941
G01 X86.5312 Y109.0162
G01 X86.5465 Y108.9392
G01 X86.5678 Y108.8636
G01 X86.5950 Y108.7899
G01 X86.6279 Y108.7186
G01 X86.6662 Y108.6501
G01 X86.7099 Y108.5848
G01 X86.7585 Y108.5232
G01 X86.8118 Y108.4655
G01 X86.8694 Y108.4122
G01 X86.9311 Y108.3636
G01 X86.9964 Y108.3200
G01 X87.0649 Y108.2816
G01 X87.1362 Y108.2487
G01 X87.2099 Y108.2215
G01 X87.2854 Y108.2002
G01 X87.3624 Y108.1849
G01 X87.4404 Y108.1757
G01 X87.5189 Y108.1726
G01 X93.6425
G01 Y107.5567
G01 X93.4425 Y107.5744
M107
G00 Z2.0000


;No. 9: Hole 22
G00 X103.5575 Y111.9210 Z2.0000
G00 Z0.5000
G01 Z0.0000 F400
G01 Z-1.5000
M106 S240
G01 X104.6807 F1000
G01 Y113.4210
G01 X103.5575
G01 Y114.9210
G01 X104.6807
G01 Y116.4210
G01 X103.5575
G01 Y117.9210
G01 X104.6807
G01 X104.6839 Y119.4210
G01 X103.5575
G01 Y120.9210
G01 X119.1594
G01 Y119.4210
G01 X118.0330
G01 X118.0361 Y117.9210
G01 X119.1594
G01 Y116.4210
G01 X118.0361
G01 Y114.9210
G01 X119.1594
G01 Y113.4210
G01 X118.0361
G01 Y111.9210
G01 X119.1594
M107
G00 Z2.0000
G00 X111.9875 Y120.9210
G00 Z0.5000
G01 Z-1.5000 F400
M106 S240
G01 Y119.4210 F1000
G01 X110.8579
G01 X110.8611 Y117.9210
G01 X111.9843
G01 Y116.4210
G01 X110.8611
G01 Y114.9210
G01 X111.9843
G01 Y113.4210
G01 X110.8611
G01 X110.6611 Y113.4303
G01 Y119.3398
G01 X110.6602 Y119.3834
G01 X110.6573 Y119.4270
G01 X110.6526 Y119.4704
G01 X110.6459 Y119.5135
G01 X110.6374 Y119.5563
G01 X110.6271 Y119.5986
G01 X110.6148 Y119.6405
G01 X110.6008 Y119.6818
G01 X110.5850 Y119.7225
G01 X110.5674 Y119.7624
G01 X110.5481 Y119.8016
G01 X110.5272 Y119.8398
G01 X110.5045 Y119.8771
G01 X110.4803 Y119.9134
G01 X110.4545 Y119.9486
G01 X110.4272 Y119.9826
G01 X110.3984 Y120.0154
G01 X110.3682 Y120.0469
G01 X110.3367 Y120.0771
G01 X110.3039 Y120.1059
G01 X110.2699 Y120.1332
G01 X110.2347 Y120.1590
G01 X110.1984 Y120.1832
G01 X110.1611 Y120.2058
G01 X110.1229 Y120.2268
G01 X110.0837 Y120.2461
G01 X110.0438 Y120.2637
G01 X110.0031 Y120.2795
G01 X109.9618 Y120.2935
G01 X109.9199 Y120.3057
G01 X109.8776 Y120.3161
G01 X109.8348 Y120.3246
G01 X109.7917 Y120.3313
G01 X109.7483 Y120.3360
G01 X109.7047 Y120.3389
G01 X109.6611 Y120.3398
G01 X105.8807
G01 X105.8023 Y120.3367
G01 X105.7243 Y120.3275
G01 X105.6473 Y120.3122
G01 X105.5717 Y120.2909
G01 X105.4981 Y120.2637
G01 X105.4268 Y120.2308
G01 X105.3582 Y120.1925
G01 X105.2930 Y120.1488
G01 X105.2313 Y120.1002
G01 X105.1736 Y120.0469
G01 X105.1203 Y119.9893
G01 X105.0717 Y119.9276
G01 X105.0281 Y119.8623
G01 X104.9897 Y119.7938
G01 X104.9569 Y119.7225
G01 X104.9297 Y119.6488
G01 X104.9084 Y119.5733
G01 X104.8931 Y119.4963
G01 X104.8838 Y119.4183
G01 X104.8807 Y119.3398
G01 Y110.5674
G01 X103.3575
G01 Y122.2745
G01 X119.3594
G01 Y110.6960
G01 X117.8361
G01 Y119.3398
G01 X117.8331 Y119.4183
G01 X117.8238 Y119.4963
G01 X117.8085 Y119.5733
G01 X117.7872 Y119.6488
G01 X117.7600 Y119.7225
G01 X117.7271 Y119.7938
G01 X117.6888 Y119.8623
G01 X117.6452 Y119.9276
G01 X117.5965 Y119.9893
G01 X117.5432 Y120.0469
G01 X117.4856 Y120.1002
G01 X117.4239 Y120.1488
G01 X117.3586 Y120.1925
G01 X117.2901 Y120.2308
G01 X117.2188 Y120.2637
G01 X117.1452 Y120.2909
G01 X117.0696 Y120.3122
G01 X116.9926 Y120.3275
G01 X116.9146 Y120.3367
G01 X116.8361 Y120.3398
G01 X113.1843
G01 X113.1407 Y120.3389
G01 X113.0972 Y120.3360
G01 X113.0538 Y120.3313
G01 X113.0107 Y120.3246
G01 X112.9679 Y120.3161
G01 X112.9255 Y120.3057
G01 X112.8836 Y120.2935
G01 X112.8423 Y120.2795
G01 X112.8017 Y120.2637
G01 X112.7617 Y120.2461
G01 X112.7226 Y120.2268
G01 X112.6843 Y120.2058
G01 X112.6470 Y120.1832
G01 X112.6108 Y120.1590
G01 X112.5756 Y120.1332
G01 X112.5416 Y120.1059
G01 X112.5088 Y120.0771
G01 X112.4772 Y120.0469
G01 X112.4471 Y120.0154
G01 X112.4183 Y119.9826
G01 X112.3910 Y119.9486
G01 X112.3652 Y119.9134
G01 X112.3410 Y119.8771
G01 X112.3183 Y119.8398
G01 X112.2973 Y119.8016
G01 X112.2780 Y119.7624
G01 X112.2605 Y119.7225
G01 X112.2447 Y119.6818
G01 X112.2306 Y119.6405
G01 X112.2184 Y119.5986
G01 X112.2080 Y119.5563
G01 X112.1995 Y119.5135
G01 X112.1929 Y119.4704
G01 X112.1881 Y119.4270
G01 X112.1853 Y119.3834
G01 X112.1843 Y119.3398
G01 Y111.8532
G01 X110.6611
G01 Y113.4303
G01 X110.8611 Y113.4210
M107
G00 Z2.0000


;No. 10: Hole 32
G00 X93.4425 Y98.7376 Z2.0000
G00 Z0.5000
G01 Z0.0000 F400
G01 Z-1.5000
M106 S240
G01 X77.6406 F1000
G01 Y99.7178
G01 X93.6425
G01 Y97.7574
G01 X77.6406
G01 Y98.7376
G01 X77.8406
M107
G00 Z2.0000


;No. 11: Hole 23
G00 X103.2531 Y97.2889 Z2.0000
G00 Z0.5000
G01 Z0.0000 F400
G01 Z-1.5000
M106 S240
G01 X104.5032 F1000
G01 X104.6327 Y98.7889
G01 X103.3277
G01 X103.6751 Y100.2889
G01 X105.1506
G01 X104.3576 Y101.7889
G01 X106.2057
G01 X105.5121 Y103.2889
G01 X108.3641
G01 X107.5884 Y104.7889
G01 X115.0864
G01 X114.3724 Y103.2889
G01 X117.1700
G01 X116.5135 Y101.7889
G01 X118.3279
G01 X119.0152 Y100.2889
G01 X117.5648
G01 X118.0833 Y98.7889
G01 X119.3729
G01 X119.4667 Y97.2889
G01 X118.2134
G01 X118.0117 Y95.7889
G01 X119.3555
G01 X119.0046 Y94.2889
G01 X117.4479
G01 X116.9209 Y92.7889
G01 X118.3030
M107
G00 Z2.0000
G00 X103.3930 Y97.2889
G00 Z0.5000
G01 Z-1.5000 F400
M106 S240
G01 Y95.7889 F1000
G01 X104.6838
G01 X105.2246 Y94.2889
G01 X103.8005
G01 X104.5979 Y92.7889
G01 X106.1425
G01 X106.2390 Y92.6030
G01 X105.2707 Y91.6445
G01 X104.9453 Y92.0020
G01 X104.6425 Y92.3790
G01 X104.3637 Y92.7740
G01 X104.1097 Y93.1854
G01 X103.8817 Y93.6117
G01 X103.6804 Y94.0513
G01 X103.5066 Y94.5025
G01 X103.3611 Y94.9635
G01 X103.2443 Y95.4327
G01 X103.1567 Y95.9081
G01 X103.0986 Y96.3881
G01 X103.0703 Y96.8708
G01 X103.0418 Y97.2982
G01 X103.0351 Y97.7265
G01 X103.0505 Y98.1547
G01 X103.0877 Y98.5814
G01 X103.1468 Y99.0057
G01 X103.2275 Y99.4264
G01 X103.3297 Y99.8425
G01 X103.4531 Y100.2527
G01 X103.5974 Y100.6561
G01 X103.7621 Y101.0515
G01 X103.9469 Y101.4380
G01 X104.1513 Y101.8145
G01 X104.3747 Y102.1800
G01 X104.6165 Y102.5336
G01 X104.8762 Y102.8743
G01 X105.1530 Y103.2013
G01 X105.4996 Y103.5509
G01 X105.8662 Y103.8795
G01 X106.2514 Y104.1860
G01 X106.6540 Y104.4694
G01 X107.0725 Y104.7286
G01 X107.5056 Y104.9627
G01 X107.9516 Y105.1711
G01 X108.4091 Y105.3529
G01 X108.8765 Y105.5074
G01 X109.3522 Y105.6343
G01 X109.8345 Y105.7330
G01 X110.3218 Y105.8032
G01 X110.8123 Y105.8447
G01 X111.3045 Y105.8572
G01 X111.7965 Y105.8409
G01 X112.2867 Y105.7956
G01 X112.7664 Y105.7380
G01 X113.2417 Y105.6519
G01 X113.7111 Y105.5376
G01 X114.1728 Y105.3955
G01 X114.6252 Y105.2260
G01 X115.0667 Y105.0299
G01 X115.4957 Y104.8078
G01 X115.9107 Y104.5604
G01 X116.3101 Y104.2888
G01 X116.6927 Y103.9938
G01 X117.0570 Y103.6765
G01 X117.4017 Y103.3380
G01 X117.7256 Y102.9796
G01 X118.0275 Y102.6024
G01 X118.3063 Y102.2080
G01 X118.5612 Y101.7976
G01 X118.7911 Y101.3727
G01 X118.9952 Y100.9348
G01 X119.1728 Y100.4856
G01 X119.3233 Y100.0265
G01 X119.4462 Y99.5593
G01 X119.5409 Y99.0856
G01 X119.6073 Y98.6071
G01 X119.6449 Y98.1255
G01 X119.6708 Y97.7207
G01 X119.6797 Y97.3152
G01 X119.6718 Y96.9097
G01 X119.6469 Y96.5048
G01 X119.6051 Y96.1014
G01 X119.5465 Y95.7000
G01 X119.4712 Y95.3015
G01 X119.3794 Y94.9064
G01 X119.2711 Y94.5155
G01 X119.1466 Y94.1295
G01 X119.0062 Y93.7490
G01 X118.8499 Y93.3747
G01 X118.6269 Y92.9471
G01 X118.3782 Y92.5338
G01 X118.1048 Y92.1365
G01 X117.8076 Y91.7567
G01 X116.4075 Y92.9688
G01 X116.3939 Y93.0051
G01 X116.6501 Y93.3356
G01 X116.8864 Y93.6807
G01 X117.1021 Y94.0390
G01 X117.2963 Y94.4094
G01 X117.4683 Y94.7906
G01 X117.6177 Y95.1812
G01 X117.7439 Y95.5800
G01 X117.8464 Y95.9854
G01 X117.9249 Y96.3962
G01 X117.9791 Y96.8109
G01 X118.0089 Y97.2281
G01 X118.0141 Y97.6462
G01 X117.9831 Y98.1145
G01 X117.9164 Y98.5790
G01 X117.8144 Y99.0370
G01 X117.6777 Y99.4859
G01 X117.5070 Y99.9230
G01 X117.3034 Y100.3458
G01 X117.0681 Y100.7518
G01 X116.8024 Y101.1386
G01 X116.5079 Y101.5040
G01 X116.1863 Y101.8457
G01 X115.8396 Y102.1619
G01 X115.4696 Y102.4506
G01 X115.0787 Y102.7101
G01 X114.6690 Y102.9390
G01 X114.2431 Y103.1359
G01 X113.8033 Y103.2997
G01 X113.3781 Y103.4344
G01 X112.9455 Y103.5429
G01 X112.5070 Y103.6248
G01 X112.0644 Y103.6796
G01 X111.6192 Y103.7074
G01 X111.1732 Y103.7079
G01 X110.7280 Y103.6811
G01 X110.2852 Y103.6271
G01 X109.8466 Y103.5462
G01 X109.4137 Y103.4387
G01 X108.9882 Y103.3048
G01 X108.5717 Y103.1453
G01 X108.1657 Y102.9605
G01 X107.7718 Y102.7513
G01 X107.3914 Y102.5185
G01 X107.0259 Y102.2628
G01 X106.7215 Y102.0093
G01 X106.4342 Y101.7365
G01 X106.1654 Y101.4456
G01 X105.9162 Y101.1377
G01 X105.6876 Y100.8142
G01 X105.4805 Y100.4765
G01 X105.2960 Y100.1260
G01 X105.1347 Y99.7642
G01 X104.9974 Y99.3926
G01 X104.8846 Y99.0129
G01 X104.7969 Y98.6266
G01 X104.7346 Y98.2354
G01 X104.6979 Y97.8410
G01 X104.6870 Y97.4450
G01 X104.7020 Y97.0492
G01 X104.7428 Y96.6551
G01 X104.7921 Y96.3034
G01 X104.8589 Y95.9546
G01 X104.9431 Y95.6096
G01 X105.0445 Y95.2692
G01 X105.1628 Y94.9343
G01 X105.2978 Y94.6058
G01 X105.4491 Y94.2845
G01 X105.6163 Y93.9712
G01 X105.7990 Y93.6666
G01 X105.9968 Y93.3716
G01 X106.2091 Y93.0869
G01 X106.4354 Y92.8131
G01 X106.4265 Y92.7886
G01 X106.4380 Y92.7999
G01 X106.2390 Y92.6030
G01 X106.1425 Y92.7889
M107
G00 Z2.0000


;No. 12: Hole 31
G00 X93.2982 Y86.5012 Z2.0000
G00 Z0.5000
G01 Z0.0000 F400
G01 Z-1.5000
M106 S240
G01 X91.8479 F1000
G01 X92.3664 Y85.0012
G01 X93.6560
G01 X93.7498 Y83.5012
G01 X92.4965
G01 X92.2948 Y82.0012
G01 X93.6385
G01 X93.2876 Y80.5012
G01 X91.7309
G01 X91.2040 Y79.0012
G01 X92.5861
M107
G00 Z2.0000
G00 X92.6110 Y86.5012
G00 Z0.5000
G01 Z-1.5000 F400
M106 S240
G01 Y88.0012 F1000
G01 X90.7966
G01 X91.4531 Y89.5012
G01 X88.6555
G01 X89.3694 Y91.0012
G01 X81.8715
G01 X82.6472 Y89.5012
G01 X79.7952
G01 X80.4888 Y88.0012
G01 X78.6407
G01 X77.9581 Y86.5012
G01 X79.4337
G01 X78.9158 Y85.0012
G01 X77.6108
G01 X77.5362 Y83.5012
G01 X78.7863
G01 X78.9669 Y82.0012
G01 X77.6761
G01 X78.0836 Y80.5012
G01 X79.5077
G01 X78.8809 Y79.0012
G01 X80.4256
G01 X80.5221 Y78.8153
G01 X79.5538 Y77.8568
G01 X79.2284 Y78.2144
G01 X78.9256 Y78.5913
G01 X78.6468 Y78.9863
G01 X78.3928 Y79.3977
G01 X78.1648 Y79.8240
G01 X77.9635 Y80.2636
G01 X77.7897 Y80.7148
G01 X77.6442 Y81.1758
G01 X77.5274 Y81.6450
G01 X77.4398 Y82.1205
G01 X77.3817 Y82.6004
G01 X77.3534 Y83.0831
G01 X77.3249 Y83.5105
G01 X77.3182 Y83.9389
G01 X77.3335 Y84.3670
G01 X77.3708 Y84.7937
G01 X77.4299 Y85.2180
G01 X77.5106 Y85.6388
G01 X77.6128 Y86.0548
G01 X77.7362 Y86.4650
G01 X77.8805 Y86.8684
G01 X78.0452 Y87.2638
G01 X78.2300 Y87.6503
G01 X78.4344 Y88.0268
G01 X78.6578 Y88.3923
G01 X78.8996 Y88.7459
G01 X79.1593 Y89.0867
G01 X79.4360 Y89.4137
G01 X79.7827 Y89.7632
G01 X80.1493 Y90.0918
G01 X80.5345 Y90.3983
G01 X80.9371 Y90.6817
G01 X81.3556 Y90.9409
G01 X81.7886 Y91.1751
G01 X82.2347 Y91.3834
G01 X82.6922 Y91.5652
G01 X83.1596 Y91.7198
G01 X83.6353 Y91.8466
G01 X84.1176 Y91.9453
G01 X84.6048 Y92.0155
G01 X85.0954 Y92.0570
G01 X85.5875 Y92.0696
G01 X86.0795 Y92.0532
G01 X86.5698 Y92.0080
G01 X87.0494 Y91.9504
G01 X87.5248 Y91.8642
G01 X87.9941 Y91.7499
G01 X88.4558 Y91.6078
G01 X88.9083 Y91.4383
G01 X89.3497 Y91.2422
G01 X89.7787 Y91.0201
G01 X90.1937 Y90.7728
G01 X90.5932 Y90.5011
G01 X90.9758 Y90.2061
G01 X91.3400 Y89.8888
G01 X91.6847 Y89.5503
G01 X92.0086 Y89.1919
G01 X92.3105 Y88.8148
G01 X92.5894 Y88.4203
G01 X92.8442 Y88.0099
G01 X93.0741 Y87.5850
G01 X93.2783 Y87.1471
G01 X93.4559 Y86.6979
G01 X93.6064 Y86.2389
G01 X93.7293 Y85.7716
G01 X93.8240 Y85.2979
G01 X93.8903 Y84.8194
G01 X93.9280 Y84.3378
G01 X93.9538 Y83.9330
G01 X93.9628 Y83.5275
G01 X93.9548 Y83.1220
G01 X93.9299 Y82.7172
G01 X93.8882 Y82.3137
G01 X93.8296 Y81.9124
G01 X93.7543 Y81.5138
G01 X93.6624 Y81.1187
G01 X93.5542 Y80.7279
G01 X93.4297 Y80.3418
G01 X93.2892 Y79.9613
G01 X93.1330 Y79.5870
G01 X92.9100 Y79.1594
G01 X92.6613 Y78.7462
G01 X92.3878 Y78.3489
G01 X92.0906 Y77.9690
G01 X90.6905 Y79.1811
G01 X90.6770 Y79.2174
G01 X90.9391 Y79.5560
G01 X91.1804 Y79.9098
G01 X91.3999 Y80.2775
G01 X91.5969 Y80.6577
G01 X91.7706 Y81.0492
G01 X91.9203 Y81.4503
G01 X92.0457 Y81.8598
G01 X92.1461 Y82.2761
G01 X92.2213 Y82.6977
G01 X92.2709 Y83.1230
G01 X92.2948 Y83.5506
G01 X92.2929 Y83.9788
G01 X92.2524 Y84.4461
G01 X92.1763 Y84.9089
G01 X92.0652 Y85.3646
G01 X91.9196 Y85.8104
G01 X91.7404 Y86.2439
G01 X91.5287 Y86.6624
G01 X91.2856 Y87.0636
G01 X91.0127 Y87.4450
G01 X90.7114 Y87.8045
G01 X90.3837 Y88.1400
G01 X90.0312 Y88.4495
G01 X89.6562 Y88.7312
G01 X89.2608 Y88.9835
G01 X88.8473 Y89.2049
G01 X88.4181 Y89.3941
G01 X87.9758 Y89.5500
G01 X87.5485 Y89.6783
G01 X87.1141 Y89.7801
G01 X86.6743 Y89.8552
G01 X86.2307 Y89.9031
G01 X85.7850 Y89.9238
G01 X85.3389 Y89.9171
G01 X84.8941 Y89.8831
G01 X84.4521 Y89.8218
G01 X84.0148 Y89.7336
G01 X83.5836 Y89.6188
G01 X83.1604 Y89.4777
G01 X82.7465 Y89.3110
G01 X82.3437 Y89.1192
G01 X81.9534 Y88.9031
G01 X81.5771 Y88.6634
G01 X81.2161 Y88.4011
G01 X80.9222 Y88.1468
G01 X80.6451 Y87.8742
G01 X80.3861 Y87.5844
G01 X80.1461 Y87.2786
G01 X79.9262 Y86.9580
G01 X79.7274 Y86.6241
G01 X79.5503 Y86.2780
G01 X79.3957 Y85.9214
G01 X79.2643 Y85.5556
G01 X79.1566 Y85.1821
G01 X79.0731 Y84.8025
G01 X79.0140 Y84.4183
G01 X78.9797 Y84.0311
G01 X78.9702 Y83.6425
G01 X78.9856 Y83.2541
G01 X79.0259 Y82.8675
G01 X79.0752 Y82.5157
G01 X79.1420 Y82.1669
G01 X79.2262 Y81.8219
G01 X79.3276 Y81.4815
G01 X79.4459 Y81.1467
G01 X79.5809 Y80.8182
G01 X79.7322 Y80.4968
G01 X79.8994 Y80.1835
G01 X80.0821 Y79.8789
G01 X80.2799 Y79.5839
G01 X80.4922 Y79.2992
G01 X80.7185 Y79.0255
G01 X80.7096 Y79.0010
G01 X80.7211 Y79.0123
G01 X80.5221 Y78.8153
G01 X80.4256 Y79.0012
M107
G00 Z2.0000


;No. 13: Hole 24
G00 X103.5575 Y80.1378 Z2.0000
G00 Z0.5000
G01 Z0.0000 F400
G01 Z-1.5000
M106 S240
G01 X119.1594 F1000
G01 Y78.6378
G01 X117.9076
G01 Y77.1378
G01 X119.1594
G01 Y75.6378
G01 X117.9076
M107
G00 Z2.0000
G00 X119.1594 Y80.1378
G00 Z0.5000
G01 Z-1.5000 F400
M106 S240
G01 Y81.6378 F1000
G01 X103.5575
G01 X117.9076
G01 Y83.1378
G01 X119.1594
G01 Y84.6378
G01 X117.9076
G01 Y86.1378
G01 X119.1594
G01 X119.3594 Y86.1231
G01 Y74.4299
G01 X117.7076
G01 Y78.9076
G01 X117.7045 Y78.9861
G01 X117.6952 Y79.0641
G01 X117.6799 Y79.1411
G01 X117.6586 Y79.2167
G01 X117.6314 Y79.2903
G01 X117.5986 Y79.3616
G01 X117.5602 Y79.4301
G01 X117.5166 Y79.4954
G01 X117.4680 Y79.5571
G01 X117.4147 Y79.6147
G01 X117.3570 Y79.6680
G01 X117.2953 Y79.7167
G01 X117.2301 Y79.7603
G01 X117.1615 Y79.7986
G01 X117.0902 Y79.8315
G01 X117.0166 Y79.8587
G01 X116.9410 Y79.8800
G01 X116.8640 Y79.8953
G01 X116.7860 Y79.9046
G01 X116.7076 Y79.9076
G01 X103.3575
G01 Y81.8680
G01 X116.7076
G01 X116.7860 Y81.8711
G01 X116.8640 Y81.8803
G01 X116.9410 Y81.8957
G01 X117.0166 Y81.9170
G01 X117.0902 Y81.9442
G01 X117.1615 Y81.9770
G01 X117.2301 Y82.0154
G01 X117.2953 Y82.0590
G01 X117.3570 Y82.1076
G01 X117.4147 Y82.1609
G01 X117.4680 Y82.2186
G01 X117.5166 Y82.2802
G01 X117.5602 Y82.3455
G01 X117.5986 Y82.4140
G01 X117.6314 Y82.4854
G01 X117.6586 Y82.5590
G01 X117.6799 Y82.6346
G01 X117.6952 Y82.7116
G01 X117.7045 Y82.7896
G01 X117.7076 Y82.8680
G01 Y87.3457
G01 X119.3594
G01 Y86.1231
G01 X119.1594 Y86.1378
M107
G00 Z2.0000


;No. 14: Hole 30
G00 X93.4425 Y71.3044 Z2.0000
G00 Z0.5000
G01 Z0.0000 F400
G01 Z-1.5000
M106 S240
G01 X77.8406 F1000
G01 Y69.8044
G01 X79.1477
G01 X79.0410 Y68.3044
G01 X77.8406
G01 Y66.8044
G01 X79.0410
G01 Y65.3044
G01 X77.8406
G01 Y63.8044
G01 X79.0410
G01 Y62.3044
G01 X77.8406
G01 X77.6406 Y62.3228
G01 Y72.2722
G01 X93.6425
G01 Y70.3118
G01 X80.2410
G01 X80.1974 Y70.3109
G01 X80.1538 Y70.3080
G01 X80.1105 Y70.3033
G01 X80.0673 Y70.2966
G01 X80.0246 Y70.2881
G01 X79.9822 Y70.2777
G01 X79.9403 Y70.2655
G01 X79.8990 Y70.2515
G01 X79.8583 Y70.2357
G01 X79.8184 Y70.2181
G01 X79.7792 Y70.1988
G01 X79.7410 Y70.1778
G01 X79.7037 Y70.1552
G01 X79.6674 Y70.1310
G01 X79.6322 Y70.1052
G01 X79.5982 Y70.0779
G01 X79.5654 Y70.0491
G01 X79.5339 Y70.0189
G01 X79.5037 Y69.9874
G01 X79.4749 Y69.9546
G01 X79.4476 Y69.9206
G01 X79.4218 Y69.8854
G01 X79.3976 Y69.8491
G01 X79.3750 Y69.8118
G01 X79.3540 Y69.7736
G01 X79.3347 Y69.7344
G01 X79.3171 Y69.6945
G01 X79.3013 Y69.6538
G01 X79.2873 Y69.6125
G01 X79.2751 Y69.5706
G01 X79.2647 Y69.5283
G01 X79.2562 Y69.4855
G01 X79.2495 Y69.4423
G01 X79.2448 Y69.3990
G01 X79.2419 Y69.3554
G01 X79.2410 Y69.3118
G01 Y61.3366
G01 X77.6406
G01 Y62.3228
G01 X77.8406 Y62.3044
M107
G00 Z2.0000


;No. 15: Hole 37
G00 X103.5575 Y57.6247 Z2.0000
G00 Z0.5000
G01 Z0.0000 F400
G01 Z-1.5000
M106 S240
G01 X104.3247 F1000
G01 X104.0219 Y59.1247
G01 X106.5177
G01 X106.2619 Y60.6247
G01 X110.7028
G01 X110.4227 Y62.1247
G01 X108.5019
G01 X109.3181
G01 Y63.6247
G01 X110.4156
G01 Y65.1247
G01 X109.3181
G01 X109.3007 Y66.6247
G01 X110.4330
G01 Y68.1247
G01 X103.5575
G01 X119.1594
G01 Y66.6247
G01 X117.9673
G01 X117.9847 Y65.1247
G01 X119.1594
G01 Y63.6247
G01 X117.9847
G01 X117.9753 Y62.1247
G01 X119.1592
G01 X119.0382 Y60.6247
G01 X117.7017
G01 X118.6035 Y59.1247
G01 X116.7642
G01 X117.5435 Y57.6247
G01 X111.2402
G01 X111.6640 Y59.1247
G01 X111.7848 Y59.2859
G01 X111.9958 Y59.1102
G01 X112.2195 Y58.9511
G01 X112.4547 Y58.8096
G01 X112.7000 Y58.6864
G01 X112.9541 Y58.5822
G01 X113.2153 Y58.4978
G01 X113.4822 Y58.4335
G01 X113.7532 Y58.3898
G01 X114.0268 Y58.3669
G01 X114.3013 Y58.3649
G01 X114.5752 Y58.3839
G01 X114.8468 Y58.4237
G01 X115.1701 Y58.4854
G01 X115.4857 Y58.5793
G01 X115.7902 Y58.7043
G01 X116.0806 Y58.8592
G01 X116.3541 Y59.0425
G01 X116.6077 Y59.2524
G01 X116.8391 Y59.4866
G01 X117.0457 Y59.7428
G01 X117.2257 Y60.0184
G01 X117.3770 Y60.3108
G01 X117.4983 Y60.6168
G01 X117.5882 Y60.9335
G01 X117.6764 Y61.3153
G01 X117.7387 Y61.7021
G01 X117.7749 Y62.0923
G01 X117.7847 Y62.4840
G01 Y66.4237
G01 X117.7838 Y66.4673
G01 X117.7809 Y66.5108
G01 X117.7762 Y66.5542
G01 X117.7695 Y66.5973
G01 X117.7610 Y66.6401
G01 X117.7506 Y66.6825
G01 X117.7384 Y66.7244
G01 X117.7244 Y66.7657
G01 X117.7086 Y66.8064
G01 X117.6910 Y66.8463
G01 X117.6717 Y66.8854
G01 X117.6507 Y66.9237
G01 X117.6281 Y66.9610
G01 X117.6039 Y66.9973
G01 X117.5781 Y67.0324
G01 X117.5508 Y67.0665
G01 X117.5220 Y67.0993
G01 X117.4918 Y67.1308
G01 X117.4603 Y67.1610
G01 X117.4275 Y67.1897
G01 X117.3935 Y67.2170
G01 X117.3583 Y67.2428
G01 X117.3220 Y67.2671
G01 X117.2847 Y67.2897
G01 X117.2465 Y67.3107
G01 X117.2073 Y67.3300
G01 X117.1674 Y67.3476
G01 X117.1267 Y67.3634
G01 X117.0854 Y67.3774
G01 X117.0435 Y67.3896
G01 X117.0011 Y67.4000
G01 X116.9584 Y67.4085
G01 X116.9152 Y67.4151
G01 X116.8719 Y67.4199
G01 X116.8283 Y67.4227
G01 X116.7847 Y67.4237
G01 X111.6156
G01 X111.5720 Y67.4227
G01 X111.5285 Y67.4199
G01 X111.4851 Y67.4151
G01 X111.4420 Y67.4085
G01 X111.3992 Y67.4000
G01 X111.3568 Y67.3896
G01 X111.3149 Y67.3774
G01 X111.2736 Y67.3634
G01 X111.2329 Y67.3476
G01 X111.1930 Y67.3300
G01 X111.1539 Y67.3107
G01 X111.1156 Y67.2897
G01 X111.0783 Y67.2671
G01 X111.0420 Y67.2428
G01 X111.0069 Y67.2170
G01 X110.9728 Y67.1897
G01 X110.9400 Y67.1610
G01 X110.9085 Y67.1308
G01 X110.8783 Y67.0993
G01 X110.8496 Y67.0665
G01 X110.8223 Y67.0324
G01 X110.7965 Y66.9973
G01 X110.7722 Y66.9610
G01 X110.7496 Y66.9237
G01 X110.7286 Y66.8854
G01 X110.7093 Y66.8463
G01 X110.6917 Y66.8064
G01 X110.6759 Y66.7657
G01 X110.6619 Y66.7244
G01 X110.6497 Y66.6825
G01 X110.6393 Y66.6401
G01 X110.6308 Y66.5973
G01 X110.6242 Y66.5542
G01 X110.6194 Y66.5108
G01 X110.6166 Y66.4673
G01 X110.6156 Y66.4237
G01 X110.5931 Y65.3408
G01 X110.5870 Y64.2577
G01 X110.5973 Y63.1746
G01 X110.6241 Y62.0918
G01 X110.6354 Y61.8328
G01 X110.6630 Y61.5751
G01 X110.7069 Y61.3196
G01 X110.7670 Y61.0675
G01 X110.8428 Y60.8196
G01 X110.9343 Y60.5771
G01 X111.0409 Y60.3408
G01 X111.1623 Y60.1118
G01 X111.2980 Y59.8909
G01 X111.4473 Y59.6791
G01 X111.6098 Y59.4771
G01 X111.7848 Y59.2859
G01 X111.6640 Y59.1247
G01 X110.1302
G01 X109.9425 Y59.0537
G01 X109.8632 Y59.2475
G01 X109.7785 Y59.4391
G01 X109.6884 Y59.6281
G01 X109.5930 Y59.8145
G01 X109.5670 Y59.8484
G01 X109.5396 Y59.8812
G01 X109.5108 Y59.9127
G01 X109.4807 Y59.9430
G01 X109.4493 Y59.9720
G01 X109.4167 Y59.9996
G01 X109.3830 Y60.0258
G01 X109.3481 Y60.0505
G01 X109.3123 Y60.0737
G01 X109.2755 Y60.0954
G01 X109.2378 Y60.1155
G01 X109.1993 Y60.1339
G01 X109.1600 Y60.1507
G01 X109.1200 Y60.1658
G01 X109.0795 Y60.1792
G01 X109.0384 Y60.1908
G01 X108.9968 Y60.2006
G01 X108.9549 Y60.2087
G01 X108.9126 Y60.2150
G01 X108.8702 Y60.2195
G01 X108.8275 Y60.2221
G01 X108.7848 Y60.2230
G01 X108.7421 Y60.2220
G01 X108.6995 Y60.2191
G01 X108.6571 Y60.2145
G01 X108.6148 Y60.2081
G01 X108.5729 Y60.1998
G01 X108.5314 Y60.1898
G01 X108.4904 Y60.1780
G01 X108.4499 Y60.1645
G01 X108.4100 Y60.1492
G01 X108.3707 Y60.1323
G01 X108.3323 Y60.1137
G01 X108.2947 Y60.0935
G01 X108.2579 Y60.0717
G01 X108.2222 Y60.0483
G01 X103.3575 Y56.7209
G01 Y58.9205
G01 X108.6745 Y62.4810
G01 X108.7080 Y62.5045
G01 X108.7405 Y62.5292
G01 X108.7720 Y62.5553
G01 X108.8023 Y62.5826
G01 X108.8315 Y62.6112
G01 X108.8596 Y62.6409
G01 X108.8864 Y62.6718
G01 X108.9119 Y62.7037
G01 X108.9361 Y62.7366
G01 X108.9589 Y62.7705
G01 X108.9803 Y62.8053
G01 X109.0003 Y62.8410
G01 X109.0188 Y62.8774
G01 X109.0358 Y62.9146
G01 X109.0512 Y62.9524
G01 X109.0651 Y62.9908
G01 X109.0775 Y63.0298
G01 X109.0882 Y63.0692
G01 X109.0973 Y63.1090
G01 X109.1048 Y63.1492
G01 X109.1106 Y63.1896
G01 X109.1148 Y63.2303
G01 X109.1173 Y63.2711
G01 X109.1181 Y63.3119
G01 Y66.4237
G01 X109.1172 Y66.4673
G01 X109.1143 Y66.5108
G01 X109.1096 Y66.5542
G01 X109.1029 Y66.5973
G01 X109.0944 Y66.6401
G01 X109.0840 Y66.6825
G01 X109.0718 Y66.7244
G01 X109.0578 Y66.7657
G01 X109.0420 Y66.8064
G01 X109.0244 Y66.8463
G01 X109.0051 Y66.8854
G01 X108.9841 Y66.9237
G01 X108.9615 Y66.9610
G01 X108.9373 Y66.9973
G01 X108.9115 Y67.0324
G01 X108.8842 Y67.0665
G01 X108.8554 Y67.0993
G01 X108.8252 Y67.1308
G01 X108.7937 Y67.1610
G01 X108.7609 Y67.1897
G01 X108.7269 Y67.2170
G01 X108.6917 Y67.2428
G01 X108.6554 Y67.2671
G01 X108.6181 Y67.2897
G01 X108.5799 Y67.3107
G01 X108.5407 Y67.3300
G01 X108.5008 Y67.3476
G01 X108.4601 Y67.3634
G01 X108.4188 Y67.3774
G01 X108.3769 Y67.3896
G01 X108.3345 Y67.4000
G01 X108.2918 Y67.4085
G01 X108.2486 Y67.4151
G01 X108.2053 Y67.4199
G01 X108.1617 Y67.4227
G01 X108.1181 Y67.4237
G01 X103.3575
G01 Y69.3841
G01 X119.3594
G01 X119.3768 Y67.5300
G01 X119.3823 Y65.6758
G01 X119.3759 Y63.8217
G01 X119.3576 Y61.9676
G01 X119.3509 Y61.4995
G01 X119.3126 Y61.0329
G01 X119.2428 Y60.5700
G01 X119.1419 Y60.1128
G01 X119.0103 Y59.6636
G01 X118.8486 Y59.2242
G01 X118.6576 Y58.7968
G01 X118.4381 Y58.3832
G01 X118.2444 Y58.1027
G01 X118.0290 Y57.8385
G01 X117.7933 Y57.5921
G01 X117.5387 Y57.3653
G01 X117.2670 Y57.1593
G01 X116.9798 Y56.9756
G01 X116.6790 Y56.8153
G01 X116.3663 Y56.6793
G01 X116.0438 Y56.5686
G01 X115.7136 Y56.4839
G01 X115.3777 Y56.4256
G01 X115.0382 Y56.3941
G01 X114.6134 Y56.3575
G01 X114.1869 Y56.3540
G01 X113.7615 Y56.3837
G01 X113.3397 Y56.4464
G01 X112.9241 Y56.5418
G01 X112.5171 Y56.6692
G01 X112.1213 Y56.8279
G01 X111.7390 Y57.0170
G01 X111.4521 Y57.2076
G01 X111.1802 Y57.4192
G01 X110.9248 Y57.6504
G01 X110.6874 Y57.9001
G01 X110.4693 Y58.1668
G01 X110.2718 Y58.4490
G01 X110.0958 Y58.7452
G01 X109.9425 Y59.0537
G01 X110.1302 Y59.1247
M107
G00 Z2.0000


;No. 16: Hole 29
G00 X93.4425 Y54.9963 Z2.0000
G00 Z0.5000
G01 Z0.0000 F400
G01 Z-1.5000
M106 S240
G01 X77.8406 F1000
G01 Y53.4963
G01 X78.9670
G01 X78.9638 Y51.9963
G01 X77.8406
G01 Y50.4963
G01 X78.9638
G01 Y48.9963
G01 X77.8406
G01 Y47.4963
G01 X78.9638
G01 Y45.9963
G01 X77.8406
M107
G00 Z2.0000
G00 X85.1410 Y54.9963
G00 Z0.5000
G01 Z-1.5000 F400
M106 S240
G01 Y53.4963 F1000
G01 X86.2706
G01 X86.2674 Y51.9963
G01 X85.1442
G01 Y50.4963
G01 X86.2674
G01 Y48.9963
G01 X85.1442
G01 Y47.4963
G01 X86.2674
M107
G00 Z2.0000
G00 X92.3161 Y54.9963
G00 Z0.5000
G01 Z-1.5000 F400
M106 S240
G01 Y53.4963 F1000
G01 X93.4425
G01 Y51.9963
G01 X92.3192
G01 Y50.4963
G01 X93.4425
G01 Y48.9963
G01 X92.3192
G01 Y47.4963
G01 X93.4425
G01 Y45.9963
G01 X92.3192
G01 X92.1192 Y46.0098
G01 Y53.4152
G01 X92.1183 Y53.4588
G01 X92.1154 Y53.5023
G01 X92.1107 Y53.5457
G01 X92.1040 Y53.5888
G01 X92.0955 Y53.6316
G01 X92.0852 Y53.6740
G01 X92.0730 Y53.7159
G01 X92.0589 Y53.7572
G01 X92.0431 Y53.7978
G01 X92.0255 Y53.8378
G01 X92.0063 Y53.8769
G01 X91.9853 Y53.9152
G01 X91.9626 Y53.9525
G01 X91.9384 Y53.9887
G01 X91.9126 Y54.0239
G01 X91.8853 Y54.0579
G01 X91.8565 Y54.0907
G01 X91.8263 Y54.1223
G01 X91.7948 Y54.1524
G01 X91.7620 Y54.1812
G01 X91.7280 Y54.2085
G01 X91.6928 Y54.2343
G01 X91.6565 Y54.2585
G01 X91.6192 Y54.2812
G01 X91.5810 Y54.3022
G01 X91.5419 Y54.3215
G01 X91.5019 Y54.3390
G01 X91.4613 Y54.3548
G01 X91.4199 Y54.3689
G01 X91.3781 Y54.3811
G01 X91.3357 Y54.3915
G01 X91.2929 Y54.4000
G01 X91.2498 Y54.4066
G01 X91.2064 Y54.4113
G01 X91.1629 Y54.4142
G01 X91.1192 Y54.4152
G01 X87.4674
G01 X87.4238 Y54.4142
G01 X87.3803 Y54.4113
G01 X87.3369 Y54.4066
G01 X87.2938 Y54.4000
G01 X87.2510 Y54.3915
G01 X87.2086 Y54.3811
G01 X87.1667 Y54.3689
G01 X87.1254 Y54.3548
G01 X87.0848 Y54.3390
G01 X87.0448 Y54.3215
G01 X87.0057 Y54.3022
G01 X86.9674 Y54.2812
G01 X86.9301 Y54.2585
G01 X86.8939 Y54.2343
G01 X86.8587 Y54.2085
G01 X86.8247 Y54.1812
G01 X86.7918 Y54.1524
G01 X86.7603 Y54.1223
G01 X86.7302 Y54.0907
G01 X86.7014 Y54.0579
G01 X86.6741 Y54.0239
G01 X86.6483 Y53.9887
G01 X86.6240 Y53.9525
G01 X86.6014 Y53.9152
G01 X86.5804 Y53.8769
G01 X86.5611 Y53.8378
G01 X86.5436 Y53.7978
G01 X86.5277 Y53.7572
G01 X86.5137 Y53.7159
G01 X86.5015 Y53.6740
G01 X86.4911 Y53.6316
G01 X86.4826 Y53.5888
G01 X86.4760 Y53.5457
G01 X86.4712 Y53.5023
G01 X86.4684 Y53.4588
G01 X86.4674 Y53.4152
G01 Y45.9286
G01 X84.9442
G01 Y53.4152
G01 X84.9433 Y53.4588
G01 X84.9404 Y53.5023
G01 X84.9357 Y53.5457
G01 X84.9290 Y53.5888
G01 X84.9205 Y53.6316
G01 X84.9102 Y53.6740
G01 X84.8979 Y53.7159
G01 X84.8839 Y53.7572
G01 X84.8681 Y53.7978
G01 X84.8505 Y53.8378
G01 X84.8312 Y53.8769
G01 X84.8103 Y53.9152
G01 X84.7876 Y53.9525
G01 X84.7634 Y53.9887
G01 X84.7376 Y54.0239
G01 X84.7103 Y54.0579
G01 X84.6815 Y54.0907
G01 X84.6513 Y54.1223
G01 X84.6198 Y54.1524
G01 X84.5870 Y54.1812
G01 X84.5530 Y54.2085
G01 X84.5178 Y54.2343
G01 X84.4815 Y54.2585
G01 X84.4442 Y54.2812
G01 X84.4060 Y54.3022
G01 X84.3668 Y54.3215
G01 X84.3269 Y54.3390
G01 X84.2863 Y54.3548
G01 X84.2449 Y54.3689
G01 X84.2030 Y54.3811
G01 X84.1607 Y54.3915
G01 X84.1179 Y54.4000
G01 X84.0748 Y54.4066
G01 X84.0314 Y54.4113
G01 X83.9878 Y54.4142
G01 X83.9442 Y54.4152
G01 X80.1638
G01 X80.0854 Y54.4121
G01 X80.0074 Y54.4028
G01 X79.9304 Y54.3875
G01 X79.8548 Y54.3662
G01 X79.7812 Y54.3390
G01 X79.7098 Y54.3062
G01 X79.6413 Y54.2678
G01 X79.5761 Y54.2242
G01 X79.5144 Y54.1756
G01 X79.4567 Y54.1223
G01 X79.4034 Y54.0646
G01 X79.3548 Y54.0029
G01 X79.3112 Y53.9377
G01 X79.2728 Y53.8691
G01 X79.2400 Y53.7978
G01 X79.2128 Y53.7242
G01 X79.1915 Y53.6486
G01 X79.1762 Y53.5716
G01 X79.1669 Y53.4936
G01 X79.1638 Y53.4152
G01 Y44.6427
G01 X77.6406
G01 Y56.3498
G01 X93.6425
G01 Y44.7713
G01 X92.1192
G01 Y46.0098
G01 X92.3192 Y45.9963
M107
G00 Z2.0000


;No. 17: Hole 26
G00 X103.5575 Y49.6394 Z2.0000
G00 Z0.5000
G01 Z0.0000 F400
G01 Z-1.5000
M106 S240
G01 X119.3594 F1000
G01 Y48.6592
G01 X103.3575
G01 Y50.6196
G01 X119.3594
G01 Y49.6394
G01 X119.1594
M107
G00 Z2.0000


;No. 18: Hole 28
G00 X93.1845 Y36.9784 Z2.0000
G00 Z0.5000
G01 Z0.0000 F400
G01 Z-1.5000
M106 S240
G01 X91.7904 F1000
G01 X92.1146 Y38.4784
G01 X86.7968
G01 X85.8978 Y36.9784
G01 X87.7300
G01 X86.9417 Y35.4784
G01 X85.3811
G01 X84.9779 Y33.9784
G01 X86.4809
G01 X86.0781 Y32.4784
G01 X84.5234
G01 X83.8017 Y30.9784
G01 X85.5601
G01 X84.7104 Y29.4784
G01 X78.9726
G01 X79.3985 Y30.9784
G01 X78.0452
G01 X77.6662 Y32.4784
G01 X78.7865
G01 X78.6877 Y33.9784
G01 X77.5868
G01 X77.7319 Y35.4784
G01 X78.8845
G01 X79.3756 Y36.9784
G01 X78.1027
G01 X78.7302 Y38.4784
G01 X80.1828
M107
G00 Z2.0000
G00 X92.4923 Y36.9784
G00 Z0.5000
G01 Z-1.5000 F400
M106 S240
G01 Y35.4784 F1000
G01 X93.6141
G01 X93.6937 Y33.9784
G01 X92.5887
G01 X92.3290 Y32.4784
G01 X93.5367
G01 X93.1326 Y30.9784
G01 X91.7614
G01 X91.5623 Y31.0258
G01 X91.7189 Y31.3445
G01 X91.8597 Y31.6704
G01 X91.9845 Y32.0028
G01 X92.0929 Y32.3410
G01 X92.1846 Y32.6840
G01 X92.2595 Y33.0311
G01 X92.3174 Y33.3814
G01 X92.3581 Y33.7341
G01 X92.3816 Y34.0884
G01 X92.3877 Y34.4434
G01 X92.3764 Y34.7983
G01 X92.3479 Y35.1523
G01 X92.3007 Y35.4639
G01 X92.2218 Y35.7690
G01 X92.1121 Y36.0645
G01 X91.9728 Y36.3472
G01 X91.8052 Y36.6141
G01 X91.6112 Y36.8625
G01 X91.3928 Y37.0898
G01 X91.1523 Y37.2935
G01 X91.0219 Y37.3710
G01 X90.8873 Y37.4408
G01 X90.7489 Y37.5029
G01 X90.6072 Y37.5568
G01 X90.4626 Y37.6026
G01 X90.3156 Y37.6399
G01 X90.1667 Y37.6688
G01 X90.0164 Y37.6890
G01 X89.8652 Y37.7006
G01 X89.7136 Y37.7035
G01 X89.5620 Y37.6976
G01 X89.4111 Y37.6831
G01 X89.2612 Y37.6599
G01 X89.1129 Y37.6281
G01 X88.9667 Y37.5879
G01 X88.8230 Y37.5393
G01 X88.7072 Y37.4846
G01 X88.5940 Y37.4245
G01 X88.4839 Y37.3592
G01 X88.3769 Y37.2887
G01 X88.2733 Y37.2133
G01 X88.1735 Y37.1331
G01 X88.0775 Y37.0483
G01 X87.9856 Y36.9590
G01 X87.8980 Y36.8655
G01 X87.8149 Y36.7680
G01 X87.7365 Y36.6667
G01 X87.6630 Y36.5618
G01 X87.5945 Y36.4536
G01 X87.5311 Y36.3423
G01 X87.4731 Y36.2281
G01 X87.4205 Y36.1113
G01 X87.1375 Y35.3900
G01 X86.8849 Y34.6575
G01 X86.6631 Y33.9152
G01 X86.4725 Y33.1642
G01 X86.3671 Y32.7261
G01 X86.2457 Y32.2921
G01 X86.1083 Y31.8629
G01 X85.9552 Y31.4391
G01 X85.7865 Y31.0212
G01 X85.6026 Y30.6098
G01 X85.4036 Y30.2055
G01 X85.1898 Y29.8088
G01 X85.0345 Y29.5579
G01 X84.8575 Y29.3219
G01 X84.6601 Y29.1026
G01 X84.4440 Y28.9017
G01 X84.2109 Y28.7209
G01 X83.9626 Y28.5615
G01 X83.7011 Y28.4249
G01 X83.4285 Y28.3122
G01 X83.1469 Y28.2241
G01 X82.8585 Y28.1615
G01 X82.5658 Y28.1249
G01 X82.2709 Y28.1144
G01 X81.9976 Y28.0987
G01 X81.7239 Y28.0999
G01 X81.4507 Y28.1180
G01 X81.1792 Y28.1529
G01 X80.9104 Y28.2044
G01 X80.6452 Y28.2725
G01 X80.3848 Y28.3568
G01 X80.1301 Y28.4571
G01 X79.8820 Y28.5728
G01 X79.6416 Y28.7037
G01 X79.4097 Y28.8492
G01 X79.1872 Y29.0087
G01 X78.8789 Y29.3040
G01 X78.5970 Y29.6245
G01 X78.3434 Y29.9679
G01 X78.1200 Y30.3317
G01 X77.9284 Y30.7132
G01 X77.7700 Y31.1096
G01 X77.6461 Y31.5181
G01 X77.5573 Y31.9356
G01 X77.4769 Y32.4564
G01 X77.4229 Y32.9806
G01 X77.3955 Y33.5069
G01 X77.3947 Y34.0339
G01 X77.4205 Y34.5603
G01 X77.4729 Y35.0846
G01 X77.5517 Y35.6057
G01 X77.6567 Y36.1221
G01 X77.7878 Y36.6326
G01 X77.9444 Y37.1357
G01 X78.1263 Y37.6303
G01 X78.3329 Y38.1151
G01 X78.5638 Y38.5888
G01 X78.8183 Y39.0503
G01 X79.0958 Y39.4983
G01 X79.3956 Y39.9317
G01 X80.6660 Y38.8826
G01 X80.6874 Y38.8641
G01 X80.4237 Y38.5000
G01 X80.1790 Y38.1229
G01 X79.9537 Y37.7338
G01 X79.7486 Y37.3338
G01 X79.5641 Y36.9238
G01 X79.4008 Y36.5050
G01 X79.2590 Y36.0784
G01 X79.1391 Y35.6451
G01 X79.0414 Y35.2063
G01 X78.9662 Y34.7631
G01 X78.9137 Y34.3166
G01 X78.8840 Y33.8680
G01 X78.8715 Y33.5216
G01 X78.8846 Y33.1752
G01 X78.9233 Y32.8307
G01 X78.9873 Y32.4900
G01 X79.0764 Y32.1549
G01 X79.1899 Y31.8274
G01 X79.3274 Y31.5091
G01 X79.4880 Y31.2019
G01 X79.5714 Y31.0806
G01 X79.6616 Y30.9643
G01 X79.7584 Y30.8534
G01 X79.8615 Y30.7484
G01 X79.9705 Y30.6495
G01 X80.0851 Y30.5571
G01 X80.2048 Y30.4714
G01 X80.3293 Y30.3929
G01 X80.4581 Y30.3217
G01 X80.5908 Y30.2581
G01 X80.7271 Y30.2023
G01 X80.8663 Y30.1545
G01 X81.0080 Y30.1149
G01 X81.1518 Y30.0835
G01 X81.2972 Y30.0606
G01 X81.4437 Y30.0461
G01 X81.5908 Y30.0401
G01 X81.7379 Y30.0426
G01 X81.8847 Y30.0537
G01 X82.0306 Y30.0733
G01 X82.1751 Y30.1013
G01 X82.3177 Y30.1377
G01 X82.4580 Y30.1822
G01 X82.5955 Y30.2348
G01 X82.7296 Y30.2953
G01 X82.8601 Y30.3635
G01 X82.9864 Y30.4391
G01 X83.1081 Y30.5219
G01 X83.2713 Y30.6767
G01 X83.4251 Y30.8408
G01 X83.5688 Y31.0139
G01 X83.7020 Y31.1952
G01 X83.8242 Y31.3840
G01 X83.9348 Y31.5799
G01 X84.0337 Y31.7820
G01 X84.1203 Y31.9896
G01 X84.4038 Y32.7879
G01 X84.6622 Y33.5947
G01 X84.8952 Y34.4093
G01 X85.1025 Y35.2307
G01 X85.2013 Y35.6152
G01 X85.3148 Y35.9956
G01 X85.4429 Y36.3714
G01 X85.5853 Y36.7420
G01 X85.7419 Y37.1069
G01 X85.9124 Y37.4654
G01 X86.0965 Y37.8171
G01 X86.2940 Y38.1615
G01 X86.4386 Y38.3679
G01 X86.5992 Y38.5621
G01 X86.7748 Y38.7429
G01 X86.9643 Y38.9091
G01 X87.1665 Y39.0596
G01 X87.3800 Y39.1934
G01 X87.6035 Y39.3098
G01 X87.8356 Y39.4080
G01 X88.0748 Y39.4873
G01 X88.3196 Y39.5473
G01 X88.5684 Y39.5876
G01 X88.8196 Y39.6078
G01 X89.2154 Y39.6453
G01 X89.6130 Y39.6473
G01 X90.0091 Y39.6138
G01 X90.4007 Y39.5450
G01 X90.7846 Y39.4415
G01 X91.1577 Y39.3040
G01 X91.5170 Y39.1338
G01 X91.8596 Y38.9322
G01 X92.1033 Y38.7392
G01 X92.3340 Y38.5309
G01 X92.5510 Y38.3083
G01 X92.7532 Y38.0723
G01 X92.9399 Y37.8237
G01 X93.1103 Y37.5637
G01 X93.2636 Y37.2933
G01 X93.3993 Y37.0137
G01 X93.5168 Y36.7259
G01 X93.6156 Y36.4312
G01 X93.6953 Y36.1307
G01 X93.7555 Y35.8258
G01 X93.8387 Y35.2402
G01 X93.8854 Y34.6505
G01 X93.8954 Y34.0591
G01 X93.8688 Y33.4682
G01 X93.8057 Y32.8801
G01 X93.7062 Y32.2970
G01 X93.5708 Y31.7213
G01 X93.3999 Y31.1550
G01 X93.1943 Y30.6004
G01 X92.9548 Y30.0595
G01 X92.6822 Y29.5346
G01 X92.3775 Y29.0276
G01 X91.0154 Y29.9638
G01 X91.0192 Y30.0178
G01 X91.1637 Y30.2650
G01 X91.3025 Y30.5155
G01 X91.4354 Y30.7691
G01 X91.5623 Y31.0258
G01 X91.7614 Y30.9784
M107
G00 Z2.0000


;No. 19: Hole 27
G00 X103.3930 Y32.9030 Z2.0000
G00 Z0.5000
G01 Z0.0000 F400
G01 Z-1.5000
M106 S240
G01 X104.6838 F1000
G01 X104.5032 Y34.4030
G01 X103.2531
G01 X103.3277 Y35.9030
G01 X104.6327
G01 X105.1506 Y37.4030
G01 X103.6751
G01 X104.3576 Y38.9030
G01 X106.2057
G01 X105.5121 Y40.4030
G01 X108.3641
G01 X107.5884 Y41.9030
G01 X115.0864
G01 X114.3724 Y40.4030
G01 X117.1700
G01 X116.5135 Y38.9030
G01 X118.3279
G01 X119.0152 Y37.4030
G01 X117.5648
G01 X118.0833 Y35.9030
G01 X119.3729
G01 X119.4667 Y34.4030
G01 X118.2134
G01 X118.0117 Y32.9030
G01 X119.3555
G01 X119.0046 Y31.4030
G01 X117.4479
G01 X116.9209 Y29.9030
G01 X118.3030
M107
G00 Z2.0000
G00 X103.8005 Y32.9030
G00 Z0.5000
G01 Z-1.5000 F400
M106 S240
G01 Y31.4030 F1000
G01 X105.2246
G01 X104.5979 Y29.9030
G01 X106.1425
G01 X106.2390 Y29.7171
G01 X105.2707 Y28.7586
G01 X104.9453 Y29.1162
G01 X104.6425 Y29.4932
G01 X104.3637 Y29.8881
G01 X104.1097 Y30.2995
G01 X103.8817 Y30.7258
G01 X103.6804 Y31.1654
G01 X103.5066 Y31.6166
G01 X103.3611 Y32.0776
G01 X103.2443 Y32.5468
G01 X103.1567 Y33.0223
G01 X103.0986 Y33.5023
G01 X103.0703 Y33.9849
G01 X103.0418 Y34.4123
G01 X103.0351 Y34.8407
G01 X103.0505 Y35.2688
G01 X103.0877 Y35.6956
G01 X103.1468 Y36.1199
G01 X103.2275 Y36.5406
G01 X103.3297 Y36.9566
G01 X103.4531 Y37.3668
G01 X103.5974 Y37.7702
G01 X103.7622 Y38.1656
G01 X103.9469 Y38.5521
G01 X104.1513 Y38.9286
G01 X104.3747 Y39.2942
G01 X104.6165 Y39.6478
G01 X104.8762 Y39.9885
G01 X105.1530 Y40.3155
G01 X105.4996 Y40.6650
G01 X105.8662 Y40.9937
G01 X106.2514 Y41.3002
G01 X106.6540 Y41.5835
G01 X107.0725 Y41.8427
G01 X107.5056 Y42.0769
G01 X107.9516 Y42.2852
G01 X108.4091 Y42.4670
G01 X108.8765 Y42.6216
G01 X109.3522 Y42.7484
G01 X109.8345 Y42.8472
G01 X110.3218 Y42.9174
G01 X110.8123 Y42.9588
G01 X111.3045 Y42.9714
G01 X111.7965 Y42.9550
G01 X112.2867 Y42.9098
G01 X112.7663 Y42.8522
G01 X113.2417 Y42.7661
G01 X113.7111 Y42.6517
G01 X114.1728 Y42.5096
G01 X114.6252 Y42.3402
G01 X115.0667 Y42.1440
G01 X115.4957 Y41.9219
G01 X115.9107 Y41.6746
G01 X116.3101 Y41.4029
G01 X116.6927 Y41.1079
G01 X117.0570 Y40.7906
G01 X117.4017 Y40.4522
G01 X117.7255 Y40.0937
G01 X118.0275 Y39.7166
G01 X118.3063 Y39.3221
G01 X118.5612 Y38.9117
G01 X118.7911 Y38.4868
G01 X118.9952 Y38.0490
G01 X119.1728 Y37.5997
G01 X119.3233 Y37.1407
G01 X119.4462 Y36.6735
G01 X119.5409 Y36.1998
G01 X119.6073 Y35.7212
G01 X119.6449 Y35.2396
G01 X119.6708 Y34.8348
G01 X119.6797 Y34.4293
G01 X119.6718 Y34.0238
G01 X119.6469 Y33.6190
G01 X119.6051 Y33.2155
G01 X119.5465 Y32.8142
G01 X119.4712 Y32.4156
G01 X119.3794 Y32.0206
G01 X119.2711 Y31.6297
G01 X119.1466 Y31.2436
G01 X119.0062 Y30.8631
G01 X118.8499 Y30.4888
G01 X118.6269 Y30.0612
G01 X118.3782 Y29.6480
G01 X118.1048 Y29.2507
G01 X117.8076 Y28.8708
G01 X116.4075 Y30.0829
G01 X116.3939 Y30.1192
G01 X116.6501 Y30.4498
G01 X116.8864 Y30.7948
G01 X117.1021 Y31.1532
G01 X117.2963 Y31.5236
G01 X117.4683 Y31.9047
G01 X117.6177 Y32.2954
G01 X117.7439 Y32.6941
G01 X117.8464 Y33.0996
G01 X117.9249 Y33.5104
G01 X117.9791 Y33.9250
G01 X118.0089 Y34.3422
G01 X118.0141 Y34.7604
G01 X117.9831 Y35.2286
G01 X117.9164 Y35.6931
G01 X117.8144 Y36.1512
G01 X117.6777 Y36.6001
G01 X117.5070 Y37.0372
G01 X117.3034 Y37.4600
G01 X117.0681 Y37.8660
G01 X116.8024 Y38.2528
G01 X116.5079 Y38.6181
G01 X116.1863 Y38.9598
G01 X115.8396 Y39.2760
G01 X115.4696 Y39.5647
G01 X115.0787 Y39.8243
G01 X114.6690 Y40.0532
G01 X114.2431 Y40.2501
G01 X113.8033 Y40.4138
G01 X113.3781 Y40.5486
G01 X112.9455 Y40.6571
G01 X112.5070 Y40.7389
G01 X112.0644 Y40.7938
G01 X111.6192 Y40.8215
G01 X111.1732 Y40.8220
G01 X110.7280 Y40.7952
G01 X110.2852 Y40.7413
G01 X109.8466 Y40.6604
G01 X109.4137 Y40.5528
G01 X108.9882 Y40.4190
G01 X108.5717 Y40.2594
G01 X108.1657 Y40.0747
G01 X107.7718 Y39.8655
G01 X107.3914 Y39.6326
G01 X107.0259 Y39.3769
G01 X106.7215 Y39.1235
G01 X106.4342 Y38.8507
G01 X106.1654 Y38.5597
G01 X105.9162 Y38.2518
G01 X105.6876 Y37.9284
G01 X105.4805 Y37.5906
G01 X105.2960 Y37.2401
G01 X105.1347 Y36.8783
G01 X104.9974 Y36.5067
G01 X104.8846 Y36.1270
G01 X104.7969 Y35.7407
G01 X104.7346 Y35.3495
G01 X104.6979 Y34.9551
G01 X104.6870 Y34.5591
G01 X104.7020 Y34.1633
G01 X104.7428 Y33.7693
G01 X104.7921 Y33.4176
G01 X104.8589 Y33.0687
G01 X104.9431 Y32.7237
G01 X105.0445 Y32.3833
G01 X105.1628 Y32.0485
G01 X105.2978 Y31.7200
G01 X105.4491 Y31.3986
G01 X105.6163 Y31.0853
G01 X105.7990 Y30.7808
G01 X105.9968 Y30.4857
G01 X106.2091 Y30.2010
G01 X106.4354 Y29.9273
G01 X106.4265 Y29.9028
G01 X106.4380 Y29.9141
G01 X106.2390 Y29.7171
G01 X106.1425 Y29.9030
M107
G00 Z2.0000


;No. 20: Helical drill 3
G00 X166.4126 Y149.9997 Z2.0000
G00 Z0.5000
M106 S240
G01 X166.4088 Y149.9126 Z0.4722 F400
G01 X166.3974 Y149.8261 Z0.4444
G01 X166.3785 Y149.7409 Z0.4167
G01 X166.3523 Y149.6577 Z0.3889
G01 X166.3189 Y149.5771 Z0.3611
G01 X166.2786 Y149.4997 Z0.3333
G01 X166.2318 Y149.4262 Z0.3056
G01 X166.1787 Y149.3570 Z0.2778
G01 X166.1197 Y149.2926 Z0.2500
G01 X166.0554 Y149.2337 Z0.2222
G01 X165.9862 Y149.1806 Z0.1944
G01 X165.9126 Y149.1337 Z0.1667
G01 X165.8352 Y149.0934 Z0.1389
G01 X165.7546 Y149.0601 Z0.1111
G01 X165.6714 Y149.0338 Z0.0833
G01 X165.5863 Y149.0149 Z0.0556
G01 X165.4998 Y149.0036 Z0.0278
G01 X165.4126 Y148.9997 Z0.0000
G01 X165.3255 Y149.0036 Z-0.0278
G01 X165.2390 Y149.0149 Z-0.0556
G01 X165.1538 Y149.0338 Z-0.0833
G01 X165.0706 Y149.0601 Z-0.1111
G01 X164.9900 Y149.0934 Z-0.1389
G01 X164.9126 Y149.1337 Z-0.1667
G01 X164.8390 Y149.1806 Z-0.1944
G01 X164.7698 Y149.2337 Z-0.2222
G01 X164.7055 Y149.2926 Z-0.2500
G01 X164.6466 Y149.3570 Z-0.2778
G01 X164.5935 Y149.4262 Z-0.3056
G01 X164.5466 Y149.4997 Z-0.3333
G01 X164.5063 Y149.5771 Z-0.3611
G01 X164.4729 Y149.6577 Z-0.3889
G01 X164.4467 Y149.7409 Z-0.4167
G01 X164.4278 Y149.8261 Z-0.4444
G01 X164.4164 Y149.9126 Z-0.4722
G01 X164.4126 Y149.9997 Z-0.5000
G01 X164.4164 Y150.0869 Z-0.5278
G01 X164.4278 Y150.1734 Z-0.5556
G01 X164.4467 Y150.2586 Z-0.5833
G01 X164.4729 Y150.3418 Z-0.6111
G01 X164.5063 Y150.4224 Z-0.6389
G01 X164.5466 Y150.4997 Z-0.6667
G01 X164.5935 Y150.5733 Z-0.6944
G01 X164.6466 Y150.6425 Z-0.7222
G01 X164.7055 Y150.7069 Z-0.7500
G01 X164.7698 Y150.7658 Z-0.7778
G01 X164.8390 Y150.8189 Z-0.8056
G01 X164.9126 Y150.8658 Z-0.8333
G01 X164.9900 Y150.9061 Z-0.8611
G01 X165.0706 Y150.9394 Z-0.8889
G01 X165.1538 Y150.9657 Z-0.9167
G01 X165.2390 Y150.9846 Z-0.9444
G01 X165.3255 Y150.9959 Z-0.9722
G01 X165.4126 Y150.9997 Z-1.0000
G01 X165.4998 Y150.9959 Z-1.0278
G01 X165.5863 Y150.9846 Z-1.0556
G01 X165.6714 Y150.9657 Z-1.0833
G01 X165.7546 Y150.9394 Z-1.1111
G01 X165.8352 Y150.9061 Z-1.1389
G01 X165.9126 Y150.8658 Z-1.1667
G01 X165.9862 Y150.8189 Z-1.1944
G01 X166.0554 Y150.7658 Z-1.2222
G01 X166.1197 Y150.7069 Z-1.2500
G01 X166.1787 Y150.6425 Z-1.2778
G01 X166.2318 Y150.5733 Z-1.3056
G01 X166.2786 Y150.4997 Z-1.3333
G01 X166.3189 Y150.4224 Z-1.3611
G01 X166.3523 Y150.3418 Z-1.3889
G01 X166.3785 Y150.2586 Z-1.4167
G01 X166.3974 Y150.1734 Z-1.4444
G01 X166.4088 Y150.0869 Z-1.4722
G01 X166.4126 Y149.9997 Z-1.5000
G01 X166.4088 Y149.9126
G01 X166.3974 Y149.8261
G01 X166.3785 Y149.7409
G01 X166.3523 Y149.6577
G01 X166.3189 Y149.5771
G01 X166.2786 Y149.4997
G01 X166.2318 Y149.4262
G01 X166.1787 Y149.3570
G01 X166.1197 Y149.2926
G01 X166.0554 Y149.2337
G01 X165.9862 Y149.1806
G01 X165.9126 Y149.1337
G01 X165.8352 Y149.0934
G01 X165.7546 Y149.0601
G01 X165.6714 Y149.0338
G01 X165.5863 Y149.0149
G01 X165.4998 Y149.0036
G01 X165.4126 Y148.9997
G01 X165.3255 Y149.0036
G01 X165.2390 Y149.0149
G01 X165.1538 Y149.0338
G01 X165.0706 Y149.0601
G01 X164.9900 Y149.0934
G01 X164.9126 Y149.1337
G01 X164.8390 Y149.1806
G01 X164.7698 Y149.2337
G01 X164.7055 Y149.2926
G01 X164.6466 Y149.3570
G01 X164.5935 Y149.4262
G01 X164.5466 Y149.4997
G01 X164.5063 Y149.5771
G01 X164.4729 Y149.6577
G01 X164.4467 Y149.7409
G01 X164.4278 Y149.8261
G01 X164.4164 Y149.9126
G01 X164.4126 Y149.9997
G01 X164.4164 Y150.0869
G01 X164.4278 Y150.1734
G01 X164.4467 Y150.2586
G01 X164.4729 Y150.3418
G01 X164.5063 Y150.4224
G01 X164.5466 Y150.4997
G01 X164.5935 Y150.5733
G01 X164.6466 Y150.6425
G01 X164.7055 Y150.7069
G01 X164.7698 Y150.7658
G01 X164.8390 Y150.8189
G01 X164.9126 Y150.8658
G01 X164.9900 Y150.9061
G01 X165.0706 Y150.9394
G01 X165.1538 Y150.9657
G01 X165.2390 Y150.9846
G01 X165.3255 Y150.9959
G01 X165.4126 Y150.9997
G01 X165.4998 Y150.9959
G01 X165.5863 Y150.9846
G01 X165.6714 Y150.9657
G01 X165.7546 Y150.9394
G01 X165.8352 Y150.9061
G01 X165.9126 Y150.8658
G01 X165.9862 Y150.8189
G01 X166.0554 Y150.7658
G01 X166.1197 Y150.7069
