;Project 2xTesla parking Only
;Created by Estlcam version 11 build 11,242
;Machining time about 00:35:51 hours

G90
M03 S10000
G00 Z5.0000


;No. 1: Helical drill 4
G00 X28.6286 Y28.5700
G00 Z0.5000
G02 X26.9411 Y27.5957 Z-0.0417 I-1.1250 J0.0000 F400 S10000
G02 Y29.5443 Z-0.5833 I0.5625 J0.9743
G02 X28.6286 Y28.5700 Z-1.1250 I0.5625 J-0.9743
G02 X26.9411 Y27.5957 I-1.1250 J0.0000
G02 Y29.5443 I0.5625 J0.9743
G02 X28.6286 Y28.5700 I0.5625 J-0.9743
G02 X28.6512 Y28.0946 I-1.1145 J-0.2913 F900
G02 X28.3874 Y27.6861 I-1.1585 J0.4586
G02 X27.9819 Y27.4152 I-0.8839 J0.8839
G02 X27.5036 Y27.3200 I-0.4783 J1.1548
G02 X27.0252 Y27.4152 I0.0000 J1.2500
G02 X26.6197 Y27.6861 I0.4783 J1.1548
G02 X26.3487 Y28.0917 I0.8839 J0.8839
G02 X26.2536 Y28.5700 I1.1548 J0.4783
G02 X26.3487 Y29.0484 I1.2500 J0.0000
G02 X26.6197 Y29.4539 I1.1548 J-0.4783
G02 X27.0252 Y29.7248 I0.8839 J-0.8839
G02 X27.5036 Y29.8200 I0.4783 J-1.1548
G02 X27.9819 Y29.7248 I0.0000 J-1.2500
G02 X28.3874 Y29.4539 I-0.4783 J-1.1548
G02 X28.6584 Y29.0484 I-0.8839 J-0.8839
G02 X28.7535 Y28.5700 I-1.1548 J-0.4783
G02 X26.8786 Y27.4875 I-1.2500 J0.0000
G02 Y29.6525 I0.6250 J1.0825
G02 X28.7535 Y28.5700 I0.6250 J-1.0825
G02 X26.3786 I-1.1875 J0.0000
G02 X28.6286 I1.1250 J0.0000
G02 X26.9411 Y27.5957 Z-1.6667 I-1.1250 J0.0000 F400
G02 Y29.5443 Z-2.2083 I0.5625 J0.9743
G02 X28.6286 Y28.5700 Z-2.7500 I0.5625 J-0.9743
G02 X26.9411 Y27.5957 I-1.1250 J0.0000
G02 Y29.5443 I0.5625 J0.9743
G02 X28.6286 Y28.5700 I0.5625 J-0.9743
G02 X28.6512 Y28.0946 I-1.1145 J-0.2913 F900
G02 X28.3874 Y27.6861 I-1.1585 J0.4586
G02 X27.9819 Y27.4152 I-0.8839 J0.8839
G02 X27.5036 Y27.3200 I-0.4783 J1.1548
G02 X27.0252 Y27.4152 I0.0000 J1.2500
G02 X26.6197 Y27.6861 I0.4783 J1.1548
G02 X26.3487 Y28.0917 I0.8839 J0.8839
G02 X26.2536 Y28.5700 I1.1548 J0.4783
G02 X26.3487 Y29.0484 I1.2500 J0.0000
G02 X26.6197 Y29.4539 I1.1548 J-0.4783
G02 X27.0252 Y29.7248 I0.8839 J-0.8839
G02 X27.5036 Y29.8200 I0.4783 J-1.1548
G02 X27.9819 Y29.7248 I0.0000 J-1.2500
G02 X28.3874 Y29.4539 I-0.4783 J-1.1548
G02 X28.6584 Y29.0484 I-0.8839 J-0.8839
G02 X28.7535 Y28.5700 I-1.1548 J-0.4783
G02 X26.8786 Y27.4875 I-1.2500 J0.0000
G02 Y29.6525 I0.6250 J1.0825
G02 X28.7535 Y28.5700 I0.6250 J-1.0825
G02 X26.3786 I-1.1875 J0.0000
G02 X28.6286 I1.1250 J0.0000
G02 X26.9411 Y27.5957 Z-3.2917 I-1.1250 J0.0000 F400
G02 Y29.5443 Z-3.8333 I0.5625 J0.9743
G02 X28.6286 Y28.5700 Z-4.3750 I0.5625 J-0.9743
G02 X26.9411 Y27.5957 I-1.1250 J0.0000
G02 Y29.5443 I0.5625 J0.9743
G02 X28.6286 Y28.5700 I0.5625 J-0.9743
G02 X28.6512 Y28.0946 I-1.1145 J-0.2913 F900
G02 X28.3874 Y27.6861 I-1.1585 J0.4586
G02 X27.9819 Y27.4152 I-0.8839 J0.8839
G02 X27.5036 Y27.3200 I-0.4783 J1.1548
G02 X27.0252 Y27.4152 I0.0000 J1.2500
G02 X26.6197 Y27.6861 I0.4783 J1.1548
G02 X26.3487 Y28.0917 I0.8839 J0.8839
G02 X26.2536 Y28.5700 I1.1548 J0.4783
G02 X26.3487 Y29.0484 I1.2500 J0.0000
G02 X26.6197 Y29.4539 I1.1548 J-0.4783
G02 X27.0252 Y29.7248 I0.8839 J-0.8839
G02 X27.5036 Y29.8200 I0.4783 J-1.1548
G02 X27.9819 Y29.7248 I0.0000 J-1.2500
G02 X28.3874 Y29.4539 I-0.4783 J-1.1548
G02 X28.6584 Y29.0484 I-0.8839 J-0.8839
G02 X28.7535 Y28.5700 I-1.1548 J-0.4783
G02 X26.8786 Y27.4875 I-1.2500 J0.0000
G02 Y29.6525 I0.6250 J1.0825
G02 X28.7535 Y28.5700 I0.6250 J-1.0825
G02 X26.3786 I-1.1875 J0.0000
G02 X28.6286 I1.1250 J0.0000
G02 X26.9411 Y27.5957 Z-4.9167 I-1.1250 J0.0000 F400
G02 Y29.5443 Z-5.4583 I0.5625 J0.9743
G02 X28.6286 Y28.5700 Z-6.0000 I0.5625 J-0.9743
G02 X26.9411 Y27.5957 I-1.1250 J0.0000
G02 Y29.5443 I0.5625 J0.9743
G02 X28.6286 Y28.5700 I0.5625 J-0.9743
G02 X28.6512 Y28.0946 I-1.1145 J-0.2913 F900
G02 X28.3874 Y27.6861 I-1.1585 J0.4586
G02 X27.9819 Y27.4152 I-0.8839 J0.8839
G02 X27.5036 Y27.3200 I-0.4783 J1.1548
G02 X27.0252 Y27.4152 I0.0000 J1.2500
G02 X26.6197 Y27.6861 I0.4783 J1.1548
G02 X26.3487 Y28.0917 I0.8839 J0.8839
G02 X26.2536 Y28.5700 I1.1548 J0.4783
G02 X26.3487 Y29.0484 I1.2500 J0.0000
G02 X26.6197 Y29.4539 I1.1548 J-0.4783
G02 X27.0252 Y29.7248 I0.8839 J-0.8839
G02 X27.5036 Y29.8200 I0.4783 J-1.1548
G02 X27.9819 Y29.7248 I0.0000 J-1.2500
G02 X28.3874 Y29.4539 I-0.4783 J-1.1548
G02 X28.6584 Y29.0484 I-0.8839 J-0.8839
G02 X28.7535 Y28.5700 I-1.1548 J-0.4783
G02 X26.8786 Y27.4875 I-1.2500 J0.0000
G02 Y29.6525 I0.6250 J1.0825
G02 X28.7535 Y28.5700 I0.6250 J-1.0825
G02 X27.5036 Z-5.5000 I-0.6250 J0.0000 F400
G00 Z5.0000


;No. 2: Hole 25
G00 X36.0030 Y44.9090 Z5.0000
G00 Z0.5000
G01 Z0.0000 F400
G01 Z-1.5000
G01 X38.5542 F900
G01 Y46.7840
G01 X36.0030
G01 Y48.6590
G01 X38.6564
G01 X36.0030 Y50.5340
G01 X47.1191
G01 X46.3748 Y52.4090
G01 X49.1778
G01 X49.8370 Y54.2840
G01 X47.2920
G01 X47.2501 Y56.1590
G01 X49.8716
G01 X49.3149 Y58.0340
G01 X46.2041
G01 X47.4824 Y59.9090
G01 X36.0030
G01 Y58.0340
G01 X38.5800
G01 X38.5542 Y56.1590
G01 X36.0030
G01 Y54.2840
G01 X38.5542
G01 X38.5561 Y52.4090
G01 X38.8061 Y52.4173
G03 X40.0542 Y51.2163 I1.2473 J0.0472
G03 X43.0903 Y51.2287 I1.3661 J37.1380
G03 X46.1925 Y52.5802 I-0.0930 J4.4498
G03 X47.0347 Y55.9702 I-2.9930 J2.5431
G03 X44.3977 Y58.7772 I-3.5243 J-0.6687
G03 X42.6642 Y59.0099 I-1.6841 J-5.9710
G01 X40.0542
G03 X38.8042 Y57.7599 I0.0000 J-1.2500
G01 Y52.4663
G01 X38.8061 Y52.4173
G01 X38.5561 Y52.4090
G01 X35.7530
G01 Y61.1741
G02 X43.3126 Y61.1721 I3.7006 J-303.3542
G02 X47.5659 Y60.1498 I0.1205 J-8.8582
G02 X50.1374 Y56.0152 I-2.4487 J-4.3899
G02 X49.4151 Y52.3185 I-6.1765 J-0.7121
G02 X46.2594 Y49.8957 I-4.8256 J3.0186
G02 X42.7983 Y49.3669 I-3.3223 J10.1547
G01 X40.0542
G03 X38.8042 Y48.1169 I0.0000 J-1.2500
G01 Y43.6440
G01 X35.7530
G01 Y52.4090
G01 X36.0030
G00 Z5.0000


;No. 3: Hole 26
G00 X52.8768 Y44.9806 Z5.0000
G00 Z0.5000
G01 Z0.0000 F400
G01 Z-1.5000
G01 X55.4114 F900
G01 X56.2130 Y46.8556
G01 X53.6694
G01 X54.4619 Y48.7306
G01 X68.2531
G01 X67.4606 Y50.6056
G01 X65.0125
G01 X64.2996 Y52.4806
G01 X66.6680
G01 X65.8755 Y54.3556
G01 X63.5647
G01 X62.8298 Y56.2306
G01 X65.0829
G01 X64.2904 Y58.1056
G01 X58.4247
G01 X57.6321 Y56.2306
G01 X59.7979
G01 X59.0535 Y54.3556
G01 X56.8396
G01 X56.0470 Y52.4806
G01 X58.3092
G01 X57.5882 Y50.6056
G01 X57.8452 Y50.6055
G03 X59.0541 Y49.0416 I1.2082 J-0.3152
G01 X63.5465
G03 X64.7103 Y50.7477 I0.0000 J1.2500
G01 X62.4784 Y56.4420
G03 X60.1528 Y56.4471 I-1.1638 J-0.4562
G01 X57.8923 Y50.7528
G01 X57.8587 Y50.6570
G01 X57.8452 Y50.6055
G01 X57.5882 Y50.6056
G01 X55.2545
G00 Z5.0000
G00 X59.2172 Y58.1056
G00 Z0.5000
G01 Z-1.5000 F400
G01 Y59.9806 F900
G01 X63.4978
G00 Z5.0000
G00 X66.3591 Y48.7306
G00 Z0.5000
G01 Z-1.5000 F400
G01 Y46.8556 F900
G01 X69.0457
G01 X69.8382 Y44.9806
G01 X67.1730
G01 X66.9398 Y44.8904
G01 X66.3063 Y46.4430
G03 X65.1489 Y47.2208 I-1.1574 J-0.4722
G01 X57.4230
G03 X56.2624 Y46.4350 I0.0000 J-1.2500
G01 X55.1460 Y43.6440
G01 X52.0404
G01 X59.5108 Y61.3172
G01 X63.2043
G01 X70.6746 Y43.6440
G01 X67.4483
G01 X66.9398 Y44.8904
G01 X67.1730 Y44.9806
G00 Z5.0000


;No. 4: Hole 27
G00 X76.0058 Y44.9090 Z5.0000
G00 Z0.5000
G01 Z0.0000 F400
G01 Z-1.5000
G01 X78.5570 F900
G01 Y46.7840
G01 X76.0058
G01 Y48.6590
G01 X78.5703
G01 X76.0058 Y50.5340
G01 X87.2025
G01 X87.0045 Y52.4090
G01 X89.8076
G01 X90.6532 Y54.2840
G01 X88.0971
G01 X88.0983 Y56.1590
G01 X90.7539
G01 X90.2794 Y58.0340
G01 X87.0149
G01 X88.5292 Y59.9090
G01 X76.0058
G01 Y58.0340
G01 X78.6169
G01 X78.5570 Y56.1590
G01 X76.0058
G01 Y54.2840
G01 X78.5570
G01 X78.6119 Y52.4090
G01 X78.8548 Y52.4708
G03 X80.0570 Y51.5596 I1.2015 J0.3365
G03 X83.9662 Y51.5644 I1.8682 J71.2640
G03 X86.9046 Y52.6559 I0.0260 J4.4306
G03 X87.8973 Y55.8792 I-2.5524 J2.5507
G03 X85.3146 Y58.6617 I-3.3506 J-0.5201
G03 X83.6973 Y58.8669 I-1.5676 J-5.8821
G01 X80.0570
G03 X78.8070 Y57.6169 I0.0000 J-1.2500
G01 Y52.8096
G03 X78.8548 Y52.4708 I1.1930 J-0.0045
G01 X78.6119 Y52.4090
G01 X76.0058
G00 Z5.0000
G00 X84.1585 Y50.5340
G00 Z0.5000
G01 Z-1.5000 F400
G01 Y48.6590 F900
G01 X86.8384
G01 X88.1111 Y46.7840
G01 X85.4055
G01 X86.6526 Y44.9090
G01 X89.3944
G01 X89.5945 Y45.0594
G01 X90.5632 Y43.6440
G01 X87.1937
G01 X83.5300 Y49.1525
G03 X82.4892 Y49.7103 I-1.0408 J-0.6922
G01 X80.0570
G03 X78.8070 Y48.4603 I0.0000 J-1.2500
G01 Y43.6440
G01 X75.7558
G01 Y61.1741
G02 X84.3144 Y61.1704 I4.1536 J-294.6721
G02 X88.3208 Y60.3118 I0.1135 J-9.2471
G02 X91.0025 Y56.1881 I-2.0919 J-4.2942
G02 X90.3997 Y52.8602 I-5.8339 J-0.6619
G02 X87.5761 Y50.4839 I-4.7539 J2.7830
G03 X87.1233 Y48.6699 I0.5787 J-1.1080
G01 X89.5945 Y45.0594
G01 X89.3944 Y44.9090
G00 Z5.0000


;No. 5: Hole 16
G00 X96.5795 Y44.9090 Z5.0000
G00 Z0.5000
G01 Z0.0000 F400
G01 Z-1.5000
G01 X99.1307 F900
G01 Y46.7840
G01 X96.5795
G01 Y48.6590
G01 X99.5898
G01 X101.2750 Y50.5340
G01 X96.5795
G01 Y52.4090
G01 X105.6685
G01 X105.1020
G01 Y54.2840
G01 X102.5865
G01 X104.1776 Y56.1590
G01 X106.5939
G01 X105.7687 Y58.0340
G01 X108.2446
G01 X107.3599 Y59.9090
G01 X109.8954
G00 Z5.0000
G00 X103.9997 Y52.4090
G00 Z0.5000
G01 Z-1.5000 F400
G01 Y50.5340 F900
G01 X106.9561
G01 X108.2437 Y48.6590
G01 X105.2689
G01 X106.5381 Y46.7840
G01 X109.5313
G01 X110.8189 Y44.9090
G01 X107.8074
G00 Z5.0000
G00 X99.1312 Y52.4090
G00 Z0.5000
G01 Z-1.5000 F400
G01 Y54.2840 F900
G01 X96.5795
G01 Y56.1590
G01 X99.1307
G01 Y58.0340
G01 X96.5795
G01 Y59.9090
G01 X99.1307
G01 X99.3807 Y59.8902
G01 Y54.2976
G03 X101.5838 Y53.4888 I1.2500 J0.0000
G01 X108.1055 Y61.1741
G01 X111.3422
G01 X105.5871 Y54.6371
G03 X105.4949 Y53.1035 I0.9382 J-0.8260
G01 X111.9909 Y43.6440
G01 X108.3618
G01 X103.6975 Y50.5345
G03 X101.7327 Y50.6693 I-1.0351 J-0.7007
G01 X99.7010 Y48.4088
G03 X99.3807 Y47.5732 I0.9297 J-0.8356
G01 Y43.6440
G01 X96.3295
G01 Y61.1741
G01 X99.3807
G01 Y59.8902
G01 X99.1307 Y59.9090
G00 Z5.0000


;No. 6: Hole 17
G00 X117.5825 Y59.9090 Z5.0000
G00 Z0.5000
G01 Z0.0000 F400
G01 Z-1.5000
G01 X120.1623 F900
G01 Y58.0340
G01 X117.5825
G01 Y56.1590
G01 X120.1623
G01 Y54.2840
G01 X117.5825
G01 Y52.4090
G01 X120.1623
G01 Y50.5340
G01 X117.5825
G01 Y48.6590
G01 X120.1623
G01 Y46.7840
G01 X117.5825
G01 Y44.9090
G01 X120.1623
G01 X120.4123 Y44.9316
G01 Y43.6440
G01 X117.3325
G01 Y61.1741
G01 X120.4123
G01 Y44.9316
G01 X120.1623 Y44.9090
G00 Z5.0000


;No. 7: Hole 18
G00 X126.8249 Y44.9090 Z5.0000
G00 Z0.5000
G01 Z0.0000 F400
G01 Z-1.5000
G01 X129.3189 F900
G01 Y46.7840
G01 X126.8249
G01 Y48.6590
G01 X129.3189
G01 Y50.5340
G01 X126.8249
G01 Y52.4090
G01 X129.3189
G01 Y54.2840
G01 X129.6217
G01 X126.8249
G01 Y56.1590
G01 X133.4799
G01 X134.9393 Y54.2840
G01 X132.0176
G01 X133.4775 Y52.4090
G01 X136.3988
G01 X134.9375 Y50.5340
G01 X138.0019
G01 X136.3975 Y48.6590
G01 X142.7391
G01 Y46.7840
G01 X137.8574
G01 X139.3174 Y44.9090
G01 X142.7391
G01 X139.4865 Y50.5340
G01 X142.7391
G01 Y52.4090
G01 X140.2451
G01 Y54.2840
G01 X142.7391
G01 Y56.1590
G01 X140.2451
G01 Y58.0340
G01 X142.7391
G01 Y59.9090
G01 X140.2451
G00 Z5.0000
G00 X132.0204 Y56.1590
G00 Z0.5000
G01 Z-1.5000 F400
G01 Y58.0340 F900
G01 X126.8249
G01 Y59.9090
G01 X130.5610
G01 X130.7701 Y60.0474
G01 X137.7587 Y51.0690
G03 X139.9951 Y51.8368 I0.9864 J0.7678
G01 Y61.1741
G01 X142.9891
G01 Y43.6440
G01 X139.9855
G01 X131.8052 Y54.1499
G03 X129.5689 Y53.3819 I-0.9863 J-0.7680
G01 Y43.6440
G01 X126.5749
G01 Y61.1741
G01 X129.8931
G01 X130.7701 Y60.0474
G01 X130.5610 Y59.9090
G00 Z5.0000


;No. 8: Hole 19
G00 X148.7897 Y54.2840 Z5.0000
G00 Z0.5000
G01 Z0.0000 F400
G01 Z-1.5000
G01 X151.5363 F900
G01 X151.2950 Y52.4090
G01 X148.6006
G01 X148.7697 Y50.5340
G01 X151.4959
G01 X152.2208 Y48.6590
G01 X149.3518
G01 X150.5008 Y46.7840
G01 X153.8012
G01 X152.6633 Y44.9090
G01 X163.7562
G01 X162.6932 Y46.7840
G01 X165.2014
G01 Y48.6590
G01 X162.9363
G01 X162.8500 Y50.5340
G01 X165.2014
G01 Y52.4090
G01 X158.9875
G00 Z5.0000
G00 X149.4018 Y54.2840
G00 Z0.5000
G01 Z-1.5000 F400
G01 Y56.1590 F900
G01 X152.3205
G01 X153.9805 Y58.0340
G01 X150.5730
G01 X152.7197 Y59.9090
G01 X163.4745
G01 X163.6342 Y60.1046
G02 X164.2258 Y59.7194 I-5.3360 J-8.8407
G01 X162.5914 Y57.7463
G01 X162.4725 Y57.7579
G03 X156.4780 Y58.9574 I-4.4176 J-6.4978
G03 X151.6421 Y53.5787 I1.6113 J-6.3120
G03 X153.0353 Y47.9031 I7.0966 J-1.2668
G03 X158.5255 Y45.5263 I5.0917 J4.2322
G03 X162.1944 Y46.6079 I0.0147 J6.7134
G03 X162.6863 Y47.6018 I-0.7580 J0.9939
G01 Y50.0341
G03 X161.4363 Y51.2841 I-1.2500 J0.0000
G01 X158.7375
G01 Y52.8473
G01 X165.4514
G01 Y45.6938
G02 X154.5758 Y43.7649 I-7.3508 J9.8218
G02 X148.7955 Y49.4202 I2.5137 J8.3511
G02 X149.9790 Y57.6662 I9.0259 J2.9124
G02 X157.2865 Y61.5585 I7.6275 J-5.5143
G02 X162.8164 Y60.5480 I0.7792 J-11.3721
G02 X163.6342 Y60.1046 I-4.2674 J-8.8473
G01 X163.4745 Y59.9090
G00 Z5.0000


;No. 9: Hole 28
G00 X178.7283 Y54.2840 Z5.0000
G00 Z0.5000
G01 Z0.0000 F400
G01 Z-1.5000
G01 X181.4484 F900
G01 X181.2253 Y52.4090
G01 X178.5311
G01 X178.7143 Y50.5340
G01 X181.4664
G01 X182.2585 Y48.6590
G01 X179.3274
G01 X180.5024 Y46.7840
G01 X183.9485
G01 X182.6500 Y44.9090
G01 X192.9200
G01 X191.7742 Y46.7840
G01 X195.0838
G01 X196.2781 Y48.6590
G01 X193.4475
G01 X194.2175 Y50.5340
G01 X196.9091
G01 X197.1063 Y52.4090
G01 X194.4407
G01 X194.1994 Y54.2840
G01 X196.9232
G01 X196.3100 Y56.1590
G01 X193.4063
G01 X191.7105 Y58.0340
G01 X195.1350
G01 X192.9875 Y59.9090
G01 X182.7175
G01 X183.8851 Y58.0340
G01 X180.5537
G01 X179.3594 Y56.1590
G01 X179.1573 Y56.3160
G02 X186.9490 Y61.5374 I8.4082 J-4.1229
G02 X194.2463 Y59.2967 I0.9774 J-9.8198
G02 X197.1887 Y50.6528 I-5.9210 J-6.8383
G02 X189.8694 Y43.4477 I-8.9905 J1.8127
G02 X181.8471 Y45.1552 I-2.0876 J9.8910
G02 X178.3976 Y53.8765 I5.4274 J7.1896
G02 X179.1573 Y56.3160 I8.8253 J-1.4103
G01 X179.3594 Y56.1590
G01 X182.2171
G01 X182.4224 Y56.0150
G03 X183.0289 Y48.0050 I6.1887 J-3.5593
G03 X192.4683 Y47.7533 I4.8311 J4.0497
G03 X193.9534 Y54.2369 I-5.3104 J4.6282
G03 X188.2815 Y59.0490 I-6.1543 J-1.5051
G03 X182.4224 Y56.0150 I-0.5454 J-6.1212
G01 X182.2171 Y56.1590
G00 Z5.0000


;No. 10: Hole 20
G00 X202.9964 Y56.1590 Z5.0000
G00 Z0.5000
G01 Z0.0000 F400
G01 Z-1.5000
G01 X209.6513 F900
G01 X211.1108 Y54.2840
G01 X208.1890
G01 X209.6490 Y52.4090
G01 X212.5702
G01 X211.1089 Y50.5340
G01 X214.1733
G01 X212.5689 Y48.6590
G01 X218.9105
G01 Y46.7840
G01 X214.0289
G01 X215.4888 Y44.9090
G01 X218.9105
G01 X215.6579 Y50.5340
G01 X218.9105
G01 Y52.4090
G01 X216.4165
G01 Y54.2840
G01 X218.9105
G01 Y56.1590
G01 X216.4165
G01 Y58.0340
G01 X218.9105
G01 Y59.9090
G01 X216.4165
G00 Z5.0000
G00 X208.1919 Y56.1590
G00 Z0.5000
G01 Z-1.5000 F400
G01 Y58.0340 F900
G01 X202.9964
G01 Y59.9090
G01 X206.7324
G01 X202.9964 Y54.2840
G01 X205.7932
G01 X205.4903
G01 Y52.4090
G01 X202.9964
G01 Y50.5340
G01 X205.4903
G01 Y48.6590
G01 X202.9964
G01 Y46.7840
G01 X205.4903
G01 Y44.9090
G01 X202.9964
G01 X202.7464 Y44.9316
G01 Y61.1741
G01 X206.0645
G01 X213.9301 Y51.0690
G03 X216.1665 Y51.8368 I0.9864 J0.7678
G01 Y61.1741
G01 X219.1605
G01 Y43.6440
G01 X216.1570
G01 X207.9766 Y54.1499
G03 X205.7403 Y53.3819 I-0.9863 J-0.7680
G01 Y43.6440
G01 X202.7464
G01 Y44.9316
G01 X202.9964 Y44.9090
G00 Z5.0000


;No. 11: Hole 21
G00 X225.4587 Y44.9090 Z5.0000
G00 Z0.5000
G01 Z0.0000 F400
G01 Z-1.5000
G01 X237.7102 F900
G01 X228.0871
G01 Y46.7840
G01 X225.4587
G01 Y48.6590
G01 X228.0099
G01 Y50.5340
G01 X225.4587
G01 Y52.4090
G01 X228.0099
G01 Y54.2840
G01 X225.4587
G01 Y56.1590
G01 X228.0099
G01 Y58.0340
G01 X225.4587
G01 Y59.9090
G01 X228.0099
G01 X228.2599 Y59.8871
G01 Y47.2585
G03 X229.5099 Y46.0085 I1.2500 J0.0000
G01 X237.9602
G01 Y43.6440
G01 X225.2087
G01 Y61.1741
G01 X228.2599
G01 Y59.8871
G01 X228.0099 Y59.9090
G00 Z5.0000


;No. 12: Hole 22
G00 X239.3163 Y59.9090 Z5.0000
G00 Z0.5000
G01 Z0.0000 F400
G01 Z-1.5000
G01 X242.0553 F900
G01 X243.1141 Y58.0340
G01 X240.4550
G01 X241.5937 Y56.1590
G01 X244.1729
G01 X245.2382 Y54.2840
G01 X242.7324
G01 X243.8711 Y52.4090
G01 X248.9542
G01 X247.8334 Y50.5340
G01 X244.9995
G01 X245.1453 Y48.6590
G01 X247.7252
G01 Y46.7840
G01 X245.1453
G01 Y44.9090
G01 X247.7252
G00 Z5.0000
G00 X247.7183 Y52.4090
G00 Z0.5000
G01 Z-1.5000 F400
G01 Y54.2840 F900
G01 X250.1008
G01 X251.2473 Y56.1590
G01 X248.7903
G01 X249.8565 Y58.0340
G01 X252.3939
G01 X253.5404 Y59.9090
G01 X250.9227
G01 X250.6961 Y60.0164
G01 X251.3544 Y61.1741
G01 X254.6070
G01 X248.1587 Y50.6289
G03 X247.9752 Y49.9768 I1.0664 J-0.6521
G01 Y43.6440
G01 X244.8953
G01 Y49.8910
G03 X244.7137 Y50.5398 I-1.2500 J0.0000
G01 X238.2555 Y61.1741
G01 X241.6280
G01 X245.3897 Y54.5128
G03 X247.5648 Y54.5095 I1.0884 J0.6146
G01 X250.6961 Y60.0164
G01 X250.9227 Y59.9090
G00 Z5.0000


;No. 13: Hole 23
G00 X259.9268 Y59.4211 Z5.0000
G00 Z0.5000
G01 Z0.0000 F400
G01 Z-1.5000
G01 X262.9029 F900
G01 X262.6219 Y57.5461
G01 X260.2078
G01 X260.4888 Y55.6711
G01 X262.3409
G01 X262.0599 Y53.7961
G01 X260.7698
G01 X261.0508 Y51.9211
G01 X261.7789
G01 X262.0282 Y51.8980
G01 X261.7690 Y50.1681
G01 X261.0608
G01 X259.5745 Y60.0850
G01 Y61.1741
G01 X263.2552
G01 Y60.0850
G01 X262.0282 Y51.8980
G01 X261.7789 Y51.9211
G00 Z5.0000


;No. 14: Hole 24


;No. 15: Hole 24
G00 X259.8321 Y43.6440 Z5.0000
G00 Z0.5000
G01 Z0.0000 F400
G01 Z-1.5000
G01 Y46.0085 F900
G01 X262.9977
G01 Y43.6440
G01 X259.8321
G00 Z5.0000


;No. 16: Helical drill 3
G00 X273.6277 Y28.5700 Z5.0000
G00 Z0.5000
G02 X271.9402 Y27.5957 Z-0.0417 I-1.1250 J0.0000 F400
G02 Y29.5443 Z-0.5833 I0.5625 J0.9743
G02 X273.6277 Y28.5700 Z-1.1250 I0.5625 J-0.9743
G02 X271.9402 Y27.5957 I-1.1250 J0.0000
G02 Y29.5443 I0.5625 J0.9743
G02 X273.6277 Y28.5700 I0.5625 J-0.9743
G02 X273.6504 Y28.0946 I-1.1145 J-0.2913 F900
G02 X273.3863 Y27.6864 I-1.1579 J0.4595
G02 X272.9809 Y27.4156 I-0.8836 J0.8836
G02 X272.5027 Y27.3204 I-0.4782 J1.1544
G02 X272.0245 Y27.4156 I0.0000 J1.2495
G02 X271.6192 Y27.6864 I0.4782 J1.1544
G02 X271.3483 Y28.0918 I0.8836 J0.8836
G02 X271.2532 Y28.5700 I1.1544 J0.4782
G02 X271.3483 Y29.0482 I1.2495 J0.0000
G02 X271.6192 Y29.4535 I1.1544 J-0.4782
G02 X272.0245 Y29.7244 I0.8836 J-0.8836
G02 X272.5027 Y29.8195 I0.4782 J-1.1544
G02 X272.9809 Y29.7244 I0.0000 J-1.2495
G02 X273.3863 Y29.4535 I-0.4782 J-1.1544
G02 X273.6572 Y29.0482 I-0.8836 J-0.8836
G02 X273.7523 Y28.5700 I-1.1544 J-0.4782
G02 X271.8780 Y27.4878 I-1.2495 J0.0000
G02 Y29.6521 I0.6248 J1.0821
G02 X273.7523 Y28.5700 I0.6248 J-1.0821
G02 X271.3777 I-1.1873 J0.0000
G02 X273.6277 I1.1250 J0.0000
G02 X271.9402 Y27.5957 Z-1.6667 I-1.1250 J0.0000 F400
G02 Y29.5443 Z-2.2083 I0.5625 J0.9743
G02 X273.6277 Y28.5700 Z-2.7500 I0.5625 J-0.9743
G02 X271.9402 Y27.5957 I-1.1250 J0.0000
G02 Y29.5443 I0.5625 J0.9743
G02 X273.6277 Y28.5700 I0.5625 J-0.9743
G02 X273.6504 Y28.0946 I-1.1145 J-0.2913 F900
G02 X273.3863 Y27.6864 I-1.1579 J0.4595
G02 X272.9809 Y27.4156 I-0.8836 J0.8836
G02 X272.5027 Y27.3204 I-0.4782 J1.1544
G02 X272.0245 Y27.4156 I0.0000 J1.2495
G02 X271.6192 Y27.6864 I0.4782 J1.1544
G02 X271.3483 Y28.0918 I0.8836 J0.8836
G02 X271.2532 Y28.5700 I1.1544 J0.4782
G02 X271.3483 Y29.0482 I1.2495 J0.0000
G02 X271.6192 Y29.4535 I1.1544 J-0.4782
G02 X272.0245 Y29.7244 I0.8836 J-0.8836
G02 X272.5027 Y29.8195 I0.4782 J-1.1544
G02 X272.9809 Y29.7244 I0.0000 J-1.2495
G02 X273.3863 Y29.4535 I-0.4782 J-1.1544
G02 X273.6572 Y29.0482 I-0.8836 J-0.8836
G02 X273.7523 Y28.5700 I-1.1544 J-0.4782
G02 X271.8780 Y27.4878 I-1.2495 J0.0000
G02 Y29.6521 I0.6248 J1.0821
G02 X273.7523 Y28.5700 I0.6248 J-1.0821
G02 X271.3777 I-1.1873 J0.0000
G02 X273.6277 I1.1250 J0.0000
G02 X271.9402 Y27.5957 Z-3.2917 I-1.1250 J0.0000 F400
G02 Y29.5443 Z-3.8333 I0.5625 J0.9743
G02 X273.6277 Y28.5700 Z-4.3750 I0.5625 J-0.9743
G02 X271.9402 Y27.5957 I-1.1250 J0.0000
G02 Y29.5443 I0.5625 J0.9743
G02 X273.6277 Y28.5700 I0.5625 J-0.9743
G02 X273.6504 Y28.0946 I-1.1145 J-0.2913 F900
G02 X273.3863 Y27.6864 I-1.1579 J0.4595
G02 X272.9809 Y27.4156 I-0.8836 J0.8836
G02 X272.5027 Y27.3204 I-0.4782 J1.1544
G02 X272.0245 Y27.4156 I0.0000 J1.2495
G02 X271.6192 Y27.6864 I0.4782 J1.1544
G02 X271.3483 Y28.0918 I0.8836 J0.8836
G02 X271.2532 Y28.5700 I1.1544 J0.4782
G02 X271.3483 Y29.0482 I1.2495 J0.0000
G02 X271.6192 Y29.4535 I1.1544 J-0.4782
G02 X272.0245 Y29.7244 I0.8836 J-0.8836
G02 X272.5027 Y29.8195 I0.4782 J-1.1544
G02 X272.9809 Y29.7244 I0.0000 J-1.2495
G02 X273.3863 Y29.4535 I-0.4782 J-1.1544
G02 X273.6572 Y29.0482 I-0.8836 J-0.8836
G02 X273.7523 Y28.5700 I-1.1544 J-0.4782
G02 X271.8780 Y27.4878 I-1.2495 J0.0000
G02 Y29.6521 I0.6248 J1.0821
G02 X273.7523 Y28.5700 I0.6248 J-1.0821
G02 X271.3777 I-1.1873 J0.0000
G02 X273.6277 I1.1250 J0.0000
G02 X271.9402 Y27.5957 Z-4.9167 I-1.1250 J0.0000 F400
G02 Y29.5443 Z-5.4583 I0.5625 J0.9743
G02 X273.6277 Y28.5700 Z-6.0000 I0.5625 J-0.9743
G02 X271.9402 Y27.5957 I-1.1250 J0.0000
G02 Y29.5443 I0.5625 J0.9743
G02 X273.6277 Y28.5700 I0.5625 J-0.9743
G02 X273.6504 Y28.0946 I-1.1145 J-0.2913 F900
G02 X273.3863 Y27.6864 I-1.1579 J0.4595
G02 X272.9809 Y27.4156 I-0.8836 J0.8836
G02 X272.5027 Y27.3204 I-0.4782 J1.1544
G02 X272.0245 Y27.4156 I0.0000 J1.2495
G02 X271.6192 Y27.6864 I0.4782 J1.1544
G02 X271.3483 Y28.0918 I0.8836 J0.8836
G02 X271.2532 Y28.5700 I1.1544 J0.4782
G02 X271.3483 Y29.0482 I1.2495 J0.0000
G02 X271.6192 Y29.4535 I1.1544 J-0.4782
G02 X272.0245 Y29.7244 I0.8836 J-0.8836
G02 X272.5027 Y29.8195 I0.4782 J-1.1544
G02 X272.9809 Y29.7244 I0.0000 J-1.2495
G02 X273.3863 Y29.4535 I-0.4782 J-1.1544
G02 X273.6572 Y29.0482 I-0.8836 J-0.8836
G02 X273.7523 Y28.5700 I-1.1544 J-0.4782
G02 X271.8780 Y27.4878 I-1.2495 J0.0000
G02 Y29.6521 I0.6248 J1.0821
G02 X273.7523 Y28.5700 I0.6248 J-1.0821
G02 X272.5027 Z-5.5000 I-0.6248 J0.0000 F400
G00 Z5.0000


;No. 17: Hole 15
G00 X278.2943 Y71.1097 Z5.0000
G00 Z0.5000
G01 Z0.0000 F400
G01 Z-1.5000
G01 X21.0443 F900
G01 Y72.3597
G01 X278.5443
G01 Y69.8597
G01 X21.0443
G01 Y71.1097
G01 X21.2943
G00 Z5.0000


;No. 18: Helical drill 2
G00 X273.6292 Y168.5694 Z5.0000
G00 Z0.5000
G02 X271.9417 Y167.5951 Z-0.0417 I-1.1250 J0.0000 F400
G02 Y169.5437 Z-0.5833 I0.5625 J0.9743
G02 X273.6292 Y168.5694 Z-1.1250 I0.5625 J-0.9743
G02 X271.9417 Y167.5951 I-1.1250 J0.0000
G02 Y169.5437 I0.5625 J0.9743
G02 X273.6292 Y168.5694 I0.5625 J-0.9743
G02 X273.6518 Y168.0941 I-1.1145 J-0.2913 F900
G02 X273.3878 Y167.6859 I-1.1579 J0.4595
G02 X272.9824 Y167.4150 I-0.8836 J0.8836
G02 X272.5042 Y167.3199 I-0.4782 J1.1544
G02 X272.0260 Y167.4150 I0.0000 J1.2496
G02 X271.6206 Y167.6859 I0.4782 J1.1544
G02 X271.3497 Y168.0912 I0.8836 J0.8836
G02 X271.2546 Y168.5694 I1.1544 J0.4782
G02 X271.3497 Y169.0476 I1.2496 J0.0000
G02 X271.6206 Y169.4530 I1.1544 J-0.4782
G02 X272.0260 Y169.7239 I0.8836 J-0.8836
G02 X272.5042 Y169.8190 I0.4782 J-1.1544
G02 X272.9824 Y169.7239 I0.0000 J-1.2496
G02 X273.3878 Y169.4530 I-0.4782 J-1.1544
G02 X273.6586 Y169.0476 I-0.8836 J-0.8836
G02 X273.7537 Y168.5694 I-1.1544 J-0.4782
G02 X271.8794 Y167.4873 I-1.2496 J0.0000
G02 Y169.6516 I0.6248 J1.0821
G02 X273.7537 Y168.5694 I0.6248 J-1.0821
G02 X271.3792 I-1.1873 J0.0000
G02 X273.6292 I1.1250 J0.0000
G02 X271.9417 Y167.5951 Z-1.6667 I-1.1250 J0.0000 F400
G02 Y169.5437 Z-2.2083 I0.5625 J0.9743
G02 X273.6292 Y168.5694 Z-2.7500 I0.5625 J-0.9743
G02 X271.9417 Y167.5951 I-1.1250 J0.0000
G02 Y169.5437 I0.5625 J0.9743
G02 X273.6292 Y168.5694 I0.5625 J-0.9743
G02 X273.6518 Y168.0941 I-1.1145 J-0.2913 F900
G02 X273.3878 Y167.6859 I-1.1579 J0.4595
G02 X272.9824 Y167.4150 I-0.8836 J0.8836
G02 X272.5042 Y167.3199 I-0.4782 J1.1544
G02 X272.0260 Y167.4150 I0.0000 J1.2496
G02 X271.6206 Y167.6859 I0.4782 J1.1544
G02 X271.3497 Y168.0912 I0.8836 J0.8836
G02 X271.2546 Y168.5694 I1.1544 J0.4782
G02 X271.3497 Y169.0476 I1.2496 J0.0000
G02 X271.6206 Y169.4530 I1.1544 J-0.4782
G02 X272.0260 Y169.7239 I0.8836 J-0.8836
G02 X272.5042 Y169.8190 I0.4782 J-1.1544
G02 X272.9824 Y169.7239 I0.0000 J-1.2496
G02 X273.3878 Y169.4530 I-0.4782 J-1.1544
G02 X273.6586 Y169.0476 I-0.8836 J-0.8836
G02 X273.7537 Y168.5694 I-1.1544 J-0.4782
G02 X271.8794 Y167.4873 I-1.2496 J0.0000
G02 Y169.6516 I0.6248 J1.0821
G02 X273.7537 Y168.5694 I0.6248 J-1.0821
G02 X271.3792 I-1.1873 J0.0000
G02 X273.6292 I1.1250 J0.0000
G02 X271.9417 Y167.5951 Z-3.2917 I-1.1250 J0.0000 F400
G02 Y169.5437 Z-3.8333 I0.5625 J0.9743
G02 X273.6292 Y168.5694 Z-4.3750 I0.5625 J-0.9743
G02 X271.9417 Y167.5951 I-1.1250 J0.0000
G02 Y169.5437 I0.5625 J0.9743
G02 X273.6292 Y168.5694 I0.5625 J-0.9743
G02 X273.6518 Y168.0941 I-1.1145 J-0.2913 F900
G02 X273.3878 Y167.6859 I-1.1579 J0.4595
G02 X272.9824 Y167.4150 I-0.8836 J0.8836
G02 X272.5042 Y167.3199 I-0.4782 J1.1544
G02 X272.0260 Y167.4150 I0.0000 J1.2496
G02 X271.6206 Y167.6859 I0.4782 J1.1544
G02 X271.3497 Y168.0912 I0.8836 J0.8836
G02 X271.2546 Y168.5694 I1.1544 J0.4782
G02 X271.3497 Y169.0476 I1.2496 J0.0000
G02 X271.6206 Y169.4530 I1.1544 J-0.4782
G02 X272.0260 Y169.7239 I0.8836 J-0.8836
G02 X272.5042 Y169.8190 I0.4782 J-1.1544
G02 X272.9824 Y169.7239 I0.0000 J-1.2496
G02 X273.3878 Y169.4530 I-0.4782 J-1.1544
G02 X273.6586 Y169.0476 I-0.8836 J-0.8836
G02 X273.7537 Y168.5694 I-1.1544 J-0.4782
G02 X271.8794 Y167.4873 I-1.2496 J0.0000
G02 Y169.6516 I0.6248 J1.0821
G02 X273.7537 Y168.5694 I0.6248 J-1.0821
G02 X271.3792 I-1.1873 J0.0000
G02 X273.6292 I1.1250 J0.0000
G02 X271.9417 Y167.5951 Z-4.9167 I-1.1250 J0.0000 F400
G02 Y169.5437 Z-5.4583 I0.5625 J0.9743
G02 X273.6292 Y168.5694 Z-6.0000 I0.5625 J-0.9743
G02 X271.9417 Y167.5951 I-1.1250 J0.0000
G02 Y169.5437 I0.5625 J0.9743
G02 X273.6292 Y168.5694 I0.5625 J-0.9743
G02 X273.6518 Y168.0941 I-1.1145 J-0.2913 F900
G02 X273.3878 Y167.6859 I-1.1579 J0.4595
G02 X272.9824 Y167.4150 I-0.8836 J0.8836
G02 X272.5042 Y167.3199 I-0.4782 J1.1544
G02 X272.0260 Y167.4150 I0.0000 J1.2496
G02 X271.6206 Y167.6859 I0.4782 J1.1544
G02 X271.3497 Y168.0912 I0.8836 J0.8836
G02 X271.2546 Y168.5694 I1.1544 J0.4782
G02 X271.3497 Y169.0476 I1.2496 J0.0000
G02 X271.6206 Y169.4530 I1.1544 J-0.4782
G02 X272.0260 Y169.7239 I0.8836 J-0.8836
G02 X272.5042 Y169.8190 I0.4782 J-1.1544
G02 X272.9824 Y169.7239 I0.0000 J-1.2496
G02 X273.3878 Y169.4530 I-0.4782 J-1.1544
G02 X273.6586 Y169.0476 I-0.8836 J-0.8836
G02 X273.7537 Y168.5694 I-1.1544 J-0.4782
G02 X271.8794 Y167.4873 I-1.2496 J0.0000
G02 Y169.6516 I0.6248 J1.0821
G02 X273.7537 Y168.5694 I0.6248 J-1.0821
G02 X272.5042 Z-5.5000 I-0.6248 J0.0000 F400
G00 Z5.0000


;No. 19: Hole 6
G00 X265.2635 Y155.0776 Z5.0000
G00 Z0.5000
G01 Z0.0000 F400
G01 Z-2.0000
G01 X249.9959 F900
G01 Y153.2026
G01 X265.2635
G01 Y151.3276
G01 X249.9959
G01 Y149.4526
G01 X249.7165
G01 X265.2635
G01 Y147.5776
G01 X247.7987
G01 X245.8425 Y145.7026
G01 X265.2635
G01 Y143.8276
G01 X243.8862
G01 X241.9299 Y141.9526
G01 X264.6981
G01 X262.7418 Y140.0776
G01 X239.9736
G01 X238.0173 Y138.2026
G01 X260.7855
G01 X258.8292 Y136.3276
G01 X236.0610
G01 X234.1047 Y134.4526
G01 X256.8729
G01 X254.9166 Y132.5776
G01 X232.1484
G01 X230.1922 Y130.7026
G01 X252.9603
G01 X251.0040 Y128.8276
G01 X228.2359
G01 X226.2796 Y126.9526
G01 X249.0477
G01 X247.0914 Y125.0776
G01 X224.3233
G01 X222.3670 Y123.2026
G01 X245.1351
G01 X243.1789 Y121.3276
G01 X198.2634
G01 X196.3071 Y123.2026
G01 X219.0753
G01 X217.1191 Y125.0776
G01 X194.3508
G01 X192.3945 Y126.9526
G01 X215.1628
G01 X213.2065 Y128.8276
G01 X190.4382
G01 X188.4819 Y130.7026
G01 X211.2502
G01 X209.2939 Y132.5776
G01 X186.5256
G01 X184.5693 Y134.4526
G01 X207.3376
G01 X205.3813 Y136.3276
G01 X182.6131
G01 X180.6568 Y138.2026
G01 X203.4250
G01 X201.4687 Y140.0776
G01 X178.7005
G01 X176.7442 Y141.9526
G01 X199.5124
G01 X197.5561 Y143.8276
G01 X176.1787
G01 Y145.7026
G01 X195.5998
G01 X193.6435 Y147.5776
G01 X176.1787
G01 Y149.4526
G01 X191.7258
G01 X191.4464
G01 Y151.3276
G01 X176.1787
G01 Y153.2026
G01 X191.4464
G01 Y155.0776
G01 X176.1787
G00 Z5.0000
G00 X200.2197 Y121.3276
G00 Z0.5000
G01 Z-2.0000 F400
G01 Y119.4526 F900
G01 X241.2226
G01 X239.2663 Y117.5776
G01 X202.1760
G01 X204.1323 Y115.7026
G01 X237.3100
G01 X235.3537 Y113.8276
G01 X206.0886
G01 X208.0449 Y111.9526
G01 X233.3974
G01 X231.4411 Y110.0776
G01 X210.0012
G01 X211.9575 Y108.2026
G01 X229.4848
G01 X228.3549
G01 Y106.3276
G01 X213.0874
G01 Y104.4526
G01 X228.3549
G01 Y102.5776
G01 X213.0874
G01 Y100.7026
G01 X228.3549
G01 Y98.8276
G01 X213.0874
G01 Y96.9526
G01 X228.3549
G01 Y95.0776
G01 X213.0874
G01 Y93.2026
G01 X228.3549
G01 Y91.3276
G01 X213.0874
G01 Y89.4526
G01 X228.3549
G01 Y87.5776
G01 X213.0874
G01 X212.8374 Y87.5911
G01 Y106.4796
G03 X212.4523 Y107.3820 I-1.2500 J0.0000
G01 X175.9287 Y142.3879
G01 Y157.1328
G01 X191.6964
G01 Y150.3235
G03 X192.0814 Y149.4211 I1.2500 J0.0000
G01 X219.8562 Y122.8004
G03 X221.5861 I0.8649 J0.9024
G01 X249.3608 Y149.4211
G03 X249.7459 Y150.3235 I-0.8649 J0.9024
G01 Y157.1328
G01 X265.5135
G01 Y142.3879
G01 X228.9899 Y107.3820
G03 X228.6049 Y106.4796 I0.8649 J-0.9024
G01 Y85.5224
G01 X212.8374
G01 Y87.5911
G01 X213.0874 Y87.5776
G01 Z-2.5000 F400
G01 X228.3549 F900
G01 Y89.4526
G01 X213.0874
G01 Y91.3276
G01 X228.3549
G01 Y93.2026
G01 X213.0874
G01 Y95.0776
G01 X228.3549
G01 Y96.9526
G01 X213.0874
G01 Y98.8276
G01 X228.3549
G01 Y100.7026
G01 X213.0874
G01 Y102.5776
G01 X228.3549
G01 Y104.4526
G01 X213.0874
G01 Y106.3276
G01 X228.3549
G01 Y108.2026
G01 X229.4848
G01 X211.9575
G01 X210.0012 Y110.0776
G01 X231.4411
G01 X233.3974 Y111.9526
G01 X208.0449
G01 X206.0886 Y113.8276
G01 X235.3537
G01 X237.3100 Y115.7026
G01 X204.1323
G01 X202.1760 Y117.5776
G01 X239.2663
G01 X241.2226 Y119.4526
G01 X200.2197
G01 X198.2634 Y121.3276
G01 X243.1789
G01 X245.1351 Y123.2026
G01 X222.3670
G01 X224.3233 Y125.0776
G01 X247.0914
G01 X249.0477 Y126.9526
G01 X226.2796
G01 X228.2359 Y128.8276
G01 X251.0040
G01 X252.9603 Y130.7026
G01 X230.1922
G01 X232.1484 Y132.5776
G01 X254.9166
G01 X256.8729 Y134.4526
G01 X234.1047
G01 X236.0610 Y136.3276
G01 X258.8292
G01 X260.7855 Y138.2026
G01 X238.0173
G01 X239.9736 Y140.0776
G01 X262.7418
G01 X264.6981 Y141.9526
G01 X241.9299
G01 X243.8862 Y143.8276
G01 X265.2635
G01 Y145.7026
G01 X245.8425
G01 X247.7987 Y147.5776
G01 X265.2635
G01 Y149.4526
G01 X249.7165
G01 X249.9959
G01 Y151.3276
G01 X265.2635
G01 Y153.2026
G01 X249.9959
G01 Y155.0776
G01 X265.2635
G00 Z5.0000
G00 X219.0753 Y121.3276
G00 Z-1.5000
G01 Z-2.5000 F400
G01 Y123.2026 F900
G01 X196.3071
G01 X194.3508 Y125.0776
G01 X217.1191
G01 X215.1628 Y126.9526
G01 X192.3945
G01 X190.4382 Y128.8276
G01 X213.2065
G01 X211.2502 Y130.7026
G01 X188.4819
G01 X186.5256 Y132.5776
G01 X209.2939
G01 X207.3376 Y134.4526
G01 X184.5693
G01 X182.6131 Y136.3276
G01 X205.3813
G01 X203.4250 Y138.2026
G01 X180.6568
G01 X178.7005 Y140.0776
G01 X201.4687
G01 X199.5124 Y141.9526
G01 X176.7442
G01 X176.1787 Y143.8276
G01 X197.5561
G01 X195.5998 Y145.7026
G01 X176.1787
G01 Y147.5776
G01 X193.6435
G01 X191.7258 Y149.4526
G01 X176.1787
G01 Y151.3276
G01 X191.4464
G01 Y153.2026
G01 X176.1787
G01 Y155.0776
G01 X191.4464
G01 X191.6964 Y155.0690
G01 Y150.3235
G03 X192.0814 Y149.4211 I1.2500 J0.0000
G01 X219.8562 Y122.8004
G03 X221.5861 I0.8649 J0.9024
G01 X249.3608 Y149.4211
G03 X249.7459 Y150.3235 I-0.8649 J0.9024
G01 Y157.1328
G01 X265.5135
G01 Y142.3879
G01 X228.9899 Y107.3820
G03 X228.6049 Y106.4796 I0.8649 J-0.9024
G01 Y85.5224
G01 X212.8374
G01 Y106.4796
G03 X212.4523 Y107.3820 I-1.2500 J0.0000
G01 X175.9287 Y142.3879
G01 Y157.1328
G01 X191.6964
G01 Y155.0690
G01 X191.4464 Y155.0776
G00 Z5.0000


;No. 20: Hole 13
G00 X178.9653 Y106.1157 Z5.0000
G00 Z0.5000
G01 Z0.0000 F400
G01 Z-1.5000
G01 X175.6634 F900
G01 Y104.2407
G01 X178.9653
G01 Y102.3657
G01 X175.6634
G01 Y100.4907
G01 X178.9653
G01 Y98.6157
G01 X175.6634
G01 Y96.7407
G01 X178.9653
G01 Y94.8657
G01 X175.6634
G01 Y92.9907
G01 X178.9653
G01 Y91.1157
G01 X175.6634
G01 Y89.2407
G01 X179.7803
G01 X175.6634 Y87.3657
G01 X201.4726
G01 X201.6896 Y87.2383
G02 X198.2728 Y85.5225 I-3.4069 J2.5244
G01 X175.4134
G01 Y107.9588
G01 X179.2153
G01 Y90.5745
G03 X180.4753 Y89.3245 I1.2501 J0.0000
G01 X202.4887 Y89.3234
G02 X201.6896 Y87.2383 I-4.0370 J0.3516
G01 X201.4726 Y87.3657
G00 Z5.0000


;No. 21: Hole 14
G00 X168.9065 Y87.4234 Z5.0000
G00 Z0.5000
G01 Z0.0000 F400
G01 Z-1.5000
G01 X143.7831 F900
G01 X143.5990 Y87.2512
G02 X142.8238 Y89.3245 I3.3887 J2.4487
G01 X169.8793 Y89.3234
G02 X165.6634 Y85.5225 I-4.2120 J0.4334
G01 X147.0416
G02 X143.5990 Y87.2512 I-0.0820 J4.1288
G01 X143.7831 Y87.4234
G00 Z5.0000


;No. 22: Hole 12
G00 X143.7846 Y96.7395 Z5.0000
G00 Z0.5000
G01 Z0.0000 F400
G01 Z-1.5000
G01 X168.9050 F900
G01 X169.1261 Y96.6185
G02 X165.6633 Y94.8386 I-3.4577 J2.4683
G01 X147.0426 Y94.8385
G02 X142.8238 Y98.6405 I-0.0720 J4.1618
G01 X169.8795 Y98.6411
G02 X169.1261 Y96.6185 I-4.0339 J0.3510
G01 X168.9050 Y96.7395
G00 Z5.0000


;No. 23: Hole 11
G00 X168.9065 Y106.0578 Z5.0000
G00 Z0.5000
G01 Z0.0000 F400
G01 Z-1.5000
G01 X143.7831 F900
G01 X143.5990 Y105.8856
G02 X142.8238 Y107.9588 I3.3887 J2.4487
G01 X169.8793 Y107.9577
G02 X165.6634 Y104.1568 I-4.2120 J0.4334
G01 X147.0416
G02 X143.5990 Y105.8856 I-0.0820 J4.1288
G01 X143.7831 Y106.0578
G00 Z5.0000


;No. 24: Hole 10
G00 X137.0399 Y106.1156 Z5.0000
G00 Z0.5000
G01 Z0.0000 F400
G01 Z-1.5000
G01 X111.1334 F900
G01 X132.9206
G01 Y104.2406
G01 X137.0399
G01 Y102.3656
G01 X133.7356
G01 Y100.4906
G01 X137.0399
G01 Y98.6156
G01 X133.7356
G01 Y96.7406
G01 X137.0399
G01 Y94.8656
G01 X133.7356
G01 Y92.9906
G01 X137.0399
G01 Y91.1156
G01 X133.5888
G01 Y89.2406
G01 X131.7494
G01 X137.0093
G01 X136.2537 Y87.3656
G01 X110.4444
G01 Y89.2406
G01 X114.5614
G01 X113.7464
G01 Y91.1156
G01 X110.4444
G01 Y92.9906
G01 X113.7464
G01 Y94.8656
G01 X110.4444
G01 Y96.7406
G01 X113.7464
G01 X113.9964 Y96.7293
G01 Y90.5744
G03 X115.2464 Y89.3244 I1.2500 J0.0000
G01 X130.7579
G03 X133.4856 Y92.0675 I-0.0104 J2.7382
G01 Y102.9068
G03 X132.2356 Y104.1568 I-1.2500 J0.0000
G01 X114.4334
G02 X110.2147 Y107.9562 I-0.0722 J4.1616
G01 X137.2899 Y107.9588
G01 Y89.7610
G02 X133.0538 Y85.5225 I-4.2278 J-0.0107
G01 X110.1944
G01 Y98.6404
G01 X113.9964
G01 Y96.7293
G01 X113.7464 Y96.7406
G00 Z5.0000


;No. 25: Hole 8
G00 X103.6852 Y106.0578 Z5.0000
G00 Z0.5000
G01 Z0.0000 F400
G01 Z-1.5000
G01 X78.5620 F900
G01 X78.3785 Y105.8848
G02 X77.6047 Y107.9588 I3.3884 J2.4455
G01 X104.6599 Y107.9574
G02 X100.4441 Y104.1568 I-4.2158 J0.4379
G01 X81.8222
G02 X78.3785 Y105.8848 I-0.0803 J4.1356
G01 X78.5620 Y106.0578
G00 Z5.0000


;No. 26: Hole 9
G00 X77.8347 Y96.7690 Z5.0000
G00 Z0.5000
G01 Z0.0000 F400
G01 Z-1.5000
G01 X81.1367 F900
G01 Y94.8940
G01 X77.8347
G01 Y93.0190
G01 X81.1367
G01 Y91.1440
G01 X77.8347
G01 Y89.2690
G01 X81.8987
G01 X77.8347 Y87.3940
G01 X104.4302
G01 Y89.2690
G01 X100.3639
G01 X101.1259
G01 Y91.1440
G01 X104.4302
G01 Y93.0190
G01 X101.1259
G01 Y94.8940
G01 X104.4302
G01 Y96.7690
G01 X101.1259
G01 X100.8759 Y96.7574
G01 Y98.6405
G01 X104.6802
G01 Y85.5225
G01 X77.5847
G01 Y98.6405
G01 X81.3867
G01 Y90.5745
G03 X82.6367 Y89.3245 I1.2500 J0.0000
G01 X99.6259
G03 X100.8759 Y90.5745 I0.0000 J1.2500
G01 Y96.7574
G01 X101.1259 Y96.7690
G00 Z5.0000


;No. 27: Hole 7
G00 X69.2687 Y106.1157 Z5.0000
G00 Z0.5000
G01 Z0.0000 F400
G01 Z-1.5000
G01 X64.1976 F900
G01 X62.3226 Y104.2407
G01 X67.4287
G01 X67.1615
G01 Y102.3657
G01 X60.4476
G01 X58.5726 Y100.4907
G01 X67.1615
G01 Y98.6157
G01 X56.6976
G01 X54.8107 Y96.7407
G01 X59.8913
G01 X58.0163 Y94.8657
G01 X49.7088
G01 X47.8338 Y96.7407
G01 X52.9145
G01 X51.0279 Y98.6157
G01 X40.5660
G01 Y96.7407
G01 X43.8680
G01 Y94.8657
G01 X40.5660
G01 Y92.9907
G01 X43.8680
G01 Y91.1157
G01 X40.5660
G01 Y89.2407
G01 X43.8680
G01 Y87.3657
G01 X40.5660
G00 Z5.0000
G00 Y98.6157
G00 Z0.5000
G01 Z-1.5000 F400
G01 Y100.4907 F900
G01 X49.1533
G01 X47.2787 Y102.3657
G01 X40.5660
G01 Y104.2407
G01 X40.2988
G01 X45.4041
G01 X43.5295 Y106.1157
G01 X38.4588
G00 Z5.0000
G00 X51.5838 Y94.8657
G00 Z0.5000
G01 Z-1.5000 F400
G01 Y92.9907 F900
G01 X56.1413
G01 X55.5136
G01 Y91.1157
G01 X52.2116
G01 Y89.2407
G01 X55.5136
G01 Y87.3657
G01 X52.2116
G00 Z5.0000
G00 X63.8572 Y98.6157
G00 Z0.5000
G01 Z-1.5000 F400
G01 Y96.7407 F900
G01 X67.1615
G01 Y94.8657
G01 X63.8572
G01 Y92.9907
G01 X67.1615
G01 Y91.1157
G01 X63.8572
G01 Y89.2407
G01 X67.1615
G01 Y87.3657
G01 X63.8572
G01 X63.6072 Y87.3793
G01 Y97.0852
G03 X61.4733 Y97.9691 I-1.2500 J0.0000
G01 X56.1297 Y92.6255
G03 X55.7636 Y91.7416 I0.8839 J-0.8839
G01 Y85.5225
G01 X51.9616
G01 Y91.7416
G03 X51.5955 Y92.6255 I-1.2500 J0.0000
G01 X46.2518 Y97.9691
G03 X44.1180 Y97.0852 I-0.8839 J-0.8839
G01 Y85.5225
G01 X40.3160
G01 Y103.3872
G03 X39.9499 Y104.2711 I-1.2500 J0.0000
G01 X36.2621 Y107.9588
G01 X42.0402
G01 X52.9786 Y97.0182
G03 X54.7465 Y97.0181 I0.8840 J0.8838
G01 X65.6872 Y107.9588
G01 X71.4654
G01 X67.7776 Y104.2711
G03 X67.4115 Y103.3872 I0.8839 J-0.8839
G01 Y85.5225
G01 X63.6072
G01 Y87.3793
G01 X63.8572 Y87.3657
G00 Z5.0000


;No. 28: Helical drill 1
G00 X28.6283 Y168.5701 Z5.0000
G00 Z0.5000
G02 X26.9408 Y167.5958 Z-0.0417 I-1.1250 J0.0000 F400
G02 Y169.5444 Z-0.5833 I0.5625 J0.9743
G02 X28.6283 Y168.5701 Z-1.1250 I0.5625 J-0.9743
G02 X26.9408 Y167.5958 I-1.1250 J0.0000
G02 Y169.5444 I0.5625 J0.9743
G02 X28.6283 Y168.5701 I0.5625 J-0.9743
G02 X28.6509 Y168.0947 I-1.1145 J-0.2913 F900
G02 X28.3873 Y167.6861 I-1.1586 J0.4583
G02 X27.9817 Y167.4152 I-0.8840 J0.8840
G02 X27.5033 Y167.3200 I-0.4784 J1.1549
G02 X27.0249 Y167.4152 I0.0000 J1.2501
G02 X26.6194 Y167.6861 I0.4784 J1.1549
G02 X26.3484 Y168.0917 I0.8840 J0.8840
G02 X26.2532 Y168.5701 I1.1549 J0.4784
G02 X26.3484 Y169.0485 I1.2501 J0.0000
G02 X26.6194 Y169.4540 I1.1549 J-0.4784
G02 X27.0249 Y169.7250 I0.8840 J-0.8840
G02 X27.5033 Y169.8202 I0.4784 J-1.1549
G02 X27.9817 Y169.7250 I0.0000 J-1.2501
G02 X28.3873 Y169.4540 I-0.4784 J-1.1549
G02 X28.6583 Y169.0485 I-0.8840 J-0.8840
G02 X28.7534 Y168.5701 I-1.1549 J-0.4784
G02 X26.8783 Y167.4875 I-1.2501 J0.0000
G02 Y169.6527 I0.6250 J1.0826
G02 X28.7534 Y168.5701 I0.6250 J-1.0826
G02 X26.3783 I-1.1875 J0.0000
G02 X28.6283 I1.1250 J0.0000
G02 X26.9408 Y167.5958 Z-1.6667 I-1.1250 J0.0000 F400
G02 Y169.5444 Z-2.2083 I0.5625 J0.9743
G02 X28.6283 Y168.5701 Z-2.7500 I0.5625 J-0.9743
G02 X26.9408 Y167.5958 I-1.1250 J0.0000
G02 Y169.5444 I0.5625 J0.9743
G02 X28.6283 Y168.5701 I0.5625 J-0.9743
G02 X28.6509 Y168.0947 I-1.1145 J-0.2913 F900
G02 X28.3873 Y167.6861 I-1.1586 J0.4583
G02 X27.9817 Y167.4152 I-0.8840 J0.8840
G02 X27.5033 Y167.3200 I-0.4784 J1.1549
G02 X27.0249 Y167.4152 I0.0000 J1.2501
G02 X26.6194 Y167.6861 I0.4784 J1.1549
G02 X26.3484 Y168.0917 I0.8840 J0.8840
G02 X26.2532 Y168.5701 I1.1549 J0.4784
G02 X26.3484 Y169.0485 I1.2501 J0.0000
G02 X26.6194 Y169.4540 I1.1549 J-0.4784
G02 X27.0249 Y169.7250 I0.8840 J-0.8840
G02 X27.5033 Y169.8202 I0.4784 J-1.1549
G02 X27.9817 Y169.7250 I0.0000 J-1.2501
G02 X28.3873 Y169.4540 I-0.4784 J-1.1549
G02 X28.6583 Y169.0485 I-0.8840 J-0.8840
G02 X28.7534 Y168.5701 I-1.1549 J-0.4784
G02 X26.8783 Y167.4875 I-1.2501 J0.0000
G02 Y169.6527 I0.6250 J1.0826
G02 X28.7534 Y168.5701 I0.6250 J-1.0826
G02 X26.3783 I-1.1875 J0.0000
G02 X28.6283 I1.1250 J0.0000
G02 X26.9408 Y167.5958 Z-3.2917 I-1.1250 J0.0000 F400
G02 Y169.5444 Z-3.8333 I0.5625 J0.9743
G02 X28.6283 Y168.5701 Z-4.3750 I0.5625 J-0.9743
G02 X26.9408 Y167.5958 I-1.1250 J0.0000
G02 Y169.5444 I0.5625 J0.9743
G02 X28.6283 Y168.5701 I0.5625 J-0.9743
G02 X28.6509 Y168.0947 I-1.1145 J-0.2913 F900
G02 X28.3873 Y167.6861 I-1.1586 J0.4583
G02 X27.9817 Y167.4152 I-0.8840 J0.8840
G02 X27.5033 Y167.3200 I-0.4784 J1.1549
G02 X27.0249 Y167.4152 I0.0000 J1.2501
G02 X26.6194 Y167.6861 I0.4784 J1.1549
G02 X26.3484 Y168.0917 I0.8840 J0.8840
G02 X26.2532 Y168.5701 I1.1549 J0.4784
G02 X26.3484 Y169.0485 I1.2501 J0.0000
G02 X26.6194 Y169.4540 I1.1549 J-0.4784
G02 X27.0249 Y169.7250 I0.8840 J-0.8840
G02 X27.5033 Y169.8202 I0.4784 J-1.1549
G02 X27.9817 Y169.7250 I0.0000 J-1.2501
G02 X28.3873 Y169.4540 I-0.4784 J-1.1549
G02 X28.6583 Y169.0485 I-0.8840 J-0.8840
G02 X28.7534 Y168.5701 I-1.1549 J-0.4784
G02 X26.8783 Y167.4875 I-1.2501 J0.0000
G02 Y169.6527 I0.6250 J1.0826
G02 X28.7534 Y168.5701 I0.6250 J-1.0826
G02 X26.3783 I-1.1875 J0.0000
G02 X28.6283 I1.1250 J0.0000
G02 X26.9408 Y167.5958 Z-4.9167 I-1.1250 J0.0000 F400
G02 Y169.5444 Z-5.4583 I0.5625 J0.9743
G02 X28.6283 Y168.5701 Z-6.0000 I0.5625 J-0.9743
G02 X26.9408 Y167.5958 I-1.1250 J0.0000
G02 Y169.5444 I0.5625 J0.9743
G02 X28.6283 Y168.5701 I0.5625 J-0.9743
G02 X28.6509 Y168.0947 I-1.1145 J-0.2913 F900
G02 X28.3873 Y167.6861 I-1.1586 J0.4583
G02 X27.9817 Y167.4152 I-0.8840 J0.8840
G02 X27.5033 Y167.3200 I-0.4784 J1.1549
G02 X27.0249 Y167.4152 I0.0000 J1.2501
G02 X26.6194 Y167.6861 I0.4784 J1.1549
G02 X26.3484 Y168.0917 I0.8840 J0.8840
G02 X26.2532 Y168.5701 I1.1549 J0.4784
G02 X26.3484 Y169.0485 I1.2501 J0.0000
G02 X26.6194 Y169.4540 I1.1549 J-0.4784
G02 X27.0249 Y169.7250 I0.8840 J-0.8840
G02 X27.5033 Y169.8202 I0.4784 J-1.1549
G02 X27.9817 Y169.7250 I0.0000 J-1.2501
G02 X28.3873 Y169.4540 I-0.4784 J-1.1549
G02 X28.6583 Y169.0485 I-0.8840 J-0.8840
G02 X28.7534 Y168.5701 I-1.1549 J-0.4784
G02 X26.8783 Y167.4875 I-1.2501 J0.0000
G02 Y169.6527 I0.6250 J1.0826
G02 X28.7534 Y168.5701 I0.6250 J-1.0826
G02 X27.5034 Y167.3201 Z-5.5000 I-1.2500 J0.0000 F400
G00 Z5.0000


;No. 29: Hole 1
G00 X36.0798 Y155.8425 Z5.0000
G00 Z0.5000
G01 Z0.0000 F400
G01 Z-2.0000
G01 X74.8000 F900
G01 X73.9374 Y153.9675
G01 X36.0798
G01 Y152.0925
G01 X71.8702
G01 X41.7551
G01 Y150.2175
G01 X36.0798
G01 Y148.3425
G01 X41.6973
G01 Y146.4675
G01 X36.0798
G01 Y144.5925
G01 X41.7974
G01 X36.0798 Y142.7175
G01 X74.9928
G01 Y140.8425
G01 X36.0798
G01 Y138.9675
G01 X74.9928
G01 Y137.0925
G01 X69.2752
G01 X69.3753 Y135.2175
G01 X74.9928
G01 Y133.3425
G01 X69.3753
G01 X69.3182 Y131.4675
G01 X74.9928
G01 Y129.5925
G01 X39.1982
G01 X37.1386 Y127.7175
G01 X74.9928
G01 Y125.8425
G01 X36.2739
G01 X36.0386 Y125.9310
G02 X42.2228 Y130.6253 I6.1758 J-1.7152
G01 X67.8753
G03 X69.1253 Y131.8753 I0.0000 J1.2500
G01 Y136.5561
G03 X67.8753 Y137.8061 I-1.2500 J0.0000
G01 X35.8298
G01 Y157.1327
G01 X75.2371 Y157.1273
G02 X71.9002 Y151.8229 I-6.2651 J0.2394
G02 X68.8498 Y151.0572 I-3.0085 J5.5264
G01 X43.1973
G03 X41.9473 Y149.8072 I0.0000 J-1.2500
G01 Y145.1290
G03 X43.1973 Y143.8790 I1.2500 J0.0000
G01 X75.2428
G01 Y124.5524
G01 X35.8398
G02 X36.0386 Y125.9310 I6.0782 J-0.1732
G01 X36.2739 Y125.8425
G01 Z-2.5000 F400
G01 X74.9928 F900
G01 Y127.7175
G01 X37.1386
G01 X39.1982 Y129.5925
G01 X74.9928
G01 Y131.4675
G01 X69.3182
G01 X69.3753 Y133.3425
G01 X74.9928
G01 Y135.2175
G01 X69.3753
G01 X69.2752 Y137.0925
G01 X74.9928
G01 Y138.9675
G01 X36.0798
G01 Y140.8425
G01 X74.9928
G01 Y142.7175
G01 X36.0798
G01 Y144.5925
G01 X41.7974
G01 X41.6973 Y146.4675
G01 X36.0798
G01 Y148.3425
G01 X41.6973
G01 X41.7551 Y150.2175
G01 X36.0798
G01 Y152.0925
G01 X71.8702
G01 X73.9374 Y153.9675
G01 X36.0798
G01 Y155.8425
G01 X74.8000
G01 X75.0375 Y155.7622
G02 X68.8498 Y151.0572 I-6.1906 J1.7202
G01 X43.1973
G03 X41.9473 Y149.8072 I0.0000 J-1.2500
G01 Y145.1290
G03 X43.1973 Y143.8790 I1.2500 J0.0000
G01 X75.2428
G01 Y124.5524
G01 X35.8398
G02 X40.3975 Y130.3705 I6.3360 J-0.2691
G02 X42.2228 Y130.6253 I1.8029 J-6.2508
G01 X67.8753
G03 X69.1253 Y131.8753 I0.0000 J1.2500
G01 Y136.5561
G03 X67.8753 Y137.8061 I-1.2500 J0.0000
G01 X35.8298
G01 Y157.1327
G01 X75.2371 Y157.1273
G02 X75.0375 Y155.7622 I-6.4296 J0.2431
G01 X74.8000 Y155.8425
G00 Z5.0000


;No. 30: Hole 2
G00 X83.1552 Y155.0325 Z5.0000
G00 Z0.5000
G01 Z0.0000 F400
G01 Z-2.0000
G01 X121.1394 F900
G01 X119.8687 Y153.1575
G01 X84.3815
G01 X84.2175 Y152.9673
G02 X82.4540 Y157.1327 I4.4872 J4.3558
G01 X121.8491 Y157.1274
G02 X118.5138 Y151.8235 I-6.2663 J0.2398
G02 X115.4643 Y151.0573 I-3.0071 J5.5168
G01 X88.8362
G02 X84.2175 Y152.9673 I-0.1154 J6.2603
G01 X84.3815 Y153.1575
G01 Z-2.5000 F400
G01 X119.8687 F900
G01 X121.1394 Y155.0325
G01 X83.1552
G01 X82.9316 Y154.9192
G02 X82.4540 Y157.1327 I5.7369 J2.3962
G01 X121.8491 Y157.1274
G02 X118.5138 Y151.8235 I-6.2663 J0.2398
G02 X115.4643 Y151.0573 I-3.0071 J5.5168
G01 X88.8362
G02 X82.9316 Y154.9192 I-0.1146 J6.2695
G01 X83.1552 Y155.0325
G00 Z5.0000


;No. 31: Hole 3
G00 X83.1547 Y141.7800 Z5.0000
G00 Z0.5000
G01 Z0.0000 F400
G01 Z-2.0000
G01 X121.1400 F900
G01 X119.8699 Y139.9050
G01 X84.3803
G01 X84.2175 Y139.7136
G02 X82.4540 Y143.8790 I4.4873 J4.3557
G01 X121.8491 Y143.8736
G02 X118.4413 Y138.5314 I-6.2680 J0.2404
G02 X115.4643 Y137.8060 I-2.9335 J5.5674
G01 X88.8359
G02 X84.2175 Y139.7136 I-0.1129 J6.2712
G01 X84.3803 Y139.9050
G01 Z-2.5000 F400
G01 X119.8699 F900
G01 X121.1400 Y141.7800
G01 X83.1547
G01 X82.9316 Y141.6656
G02 X82.4540 Y143.8790 I5.7370 J2.3961
G01 X121.8491 Y143.8736
G02 X118.4413 Y138.5314 I-6.2680 J0.2404
G02 X115.4643 Y137.8060 I-2.9335 J5.5674
G01 X88.8359
G02 X82.9316 Y141.6656 I-0.1134 J6.2723
G01 X83.1547 Y141.7800
G00 Z5.0000


;No. 32: Hole 4
G00 X83.1547 Y128.5263 Z5.0000
G00 Z0.5000
G01 Z0.0000 F400
G01 Z-2.0000
G01 X121.1400 F900
G01 X119.8700 Y126.6513
G01 X84.3803
G01 X84.2217 Y126.4554
G02 X82.4540 Y130.6253 I4.4833 J4.3603
G01 X121.8491 Y130.6199
G02 X118.2182 Y125.1652 I-6.2892 J0.2506
G02 X115.4643 Y124.5523 I-2.7148 J5.7049
G01 X88.8350
G02 X84.2217 Y126.4554 I-0.1107 J6.2745
G01 X84.3803 Y126.6513
G01 Z-2.5000 F400
G01 X119.8700 F900
G01 X121.1400 Y128.5263
G01 X83.1547
G01 X82.9316 Y128.4118
G02 X82.4540 Y130.6253 I5.7370 J2.3961
G01 X121.8491 Y130.6199
G02 X118.2182 Y125.1652 I-6.2892 J0.2506
G02 X115.4643 Y124.5523 I-2.7148 J5.7049
G01 X88.8350
G02 X82.9316 Y128.4118 I-0.1131 J6.2715
G01 X83.1547 Y128.5263
G00 Z5.0000


;No. 33: Hole 5
G00 X129.3083 Y127.7175 Z5.0000
G00 Z0.5000
G01 Z0.0000 F400
G01 Z-2.0000
G01 X135.0221 F900
G01 X134.9233 Y125.8425
G01 X129.3083
G01 Y129.5925
G01 X136.7167
G01 X138.6009 Y131.4675
G01 X130.0983
G01 X131.9825 Y133.3425
G01 X140.4851
G01 X142.3693 Y135.2175
G01 X133.8667
G01 X135.7509 Y137.0925
G01 X144.2535
G01 X146.1377 Y138.9675
G01 X137.6351
G01 X138.8915
G01 Y140.8425
G01 X158.6305
G01 Y142.7175
G01 X159.8710
G01 X151.3919
G01 X153.2761 Y144.5925
G01 X161.7751
G01 X163.6628 Y146.4675
G01 X155.1603
G01 X157.0445 Y148.3425
G01 X165.5470
G01 X167.4312 Y150.2175
G01 X158.9287
G01 X160.8129 Y152.0925
G01 X168.2188
G01 Y153.9675
G01 X162.5059
G01 X162.6038 Y155.8425
G01 X168.2188
G00 Z5.0000
G00 X151.3894 Y140.8425
G00 Z0.5000
G01 Z-2.0000 F400
G01 Y138.9675 F900
G01 X159.8919
G01 X161.7761 Y137.0925
G01 X153.2736
G01 X155.1578 Y135.2175
G01 X163.6603
G01 X165.5445 Y133.3425
G01 X157.0420
G01 X158.9262 Y131.4675
G01 X167.4287
G01 X168.2188 Y129.5925
G01 X160.8104
G01 X162.5050 Y127.7175
G01 X168.2188
G01 Y125.8425
G01 X162.6038
G00 Z5.0000
G00 X146.1351 Y140.8425
G00 Z0.5000
G01 Z-2.0000 F400
G01 Y142.7175 F900
G01 X137.6326
G01 X135.7484 Y144.5925
G01 X144.2509
G01 X142.3667 Y146.4675
G01 X133.8642
G01 X131.9800 Y148.3425
G01 X140.4825
G01 X138.5983 Y150.2175
G01 X130.0958
G01 X129.3083 Y152.0925
G01 X136.7141
G01 X135.0211 Y153.9675
G01 X129.3083
G01 Y155.8425
G01 X134.9232
G01 X135.1732 Y155.8416
G01 Y154.4982
G03 X135.5415 Y153.6121 I1.2500 J0.0000
G01 X147.8818 Y141.3321
G03 X149.6452 I0.8817 J0.8860
G01 X161.9855 Y153.6121
G03 X162.3538 Y154.4982 I-0.8817 J0.8860
G01 Y157.1327
G01 X168.4688
G01 Y150.8973
G01 X161.9714 Y144.4317
G03 X161.5500 Y144.0604 I42.9863 J-49.2196
G01 X159.2415 Y141.7251
G03 X159.2487 Y139.9603 I0.8890 J-0.8788
G01 X168.4688 Y130.7852
G01 Y124.5524
G01 X162.3538
G01 Y127.1844
G03 X161.9855 Y128.0704 I-1.2500 J0.0000
G01 X149.6452 Y140.3505
G03 X147.8818 I-0.8817 J-0.8860
G01 X135.5415 Y128.0704
G03 X135.1733 Y127.1844 I0.8817 J-0.8860
G01 Y124.5524
G01 X129.0583
G01 Y130.7852
G01 X138.2732 Y139.9552
G03 Y141.7273 I-0.8817 J0.8860
G01 X135.6360 Y144.3517
G01 X129.0583 Y150.8973
G01 Y157.1327
G01 X135.1732
G01 Y155.8416
G01 X134.9232 Y155.8425
G01 Z-2.5000 F400
G01 X129.3083 F900
G01 Y153.9675
G01 X135.0211
G01 X136.7141 Y152.0925
G01 X129.3083
G01 X130.0958 Y150.2175
G01 X138.5983
G01 X140.4825 Y148.3425
G01 X131.9800
G01 X133.8642 Y146.4675
G01 X142.3667
G01 X144.2509 Y144.5925
G01 X135.7484
G01 X137.6326 Y142.7175
G01 X146.1351
G01 Y140.8425
G01 X138.8915
G01 X158.6305
G01 Y142.7175
G01 X159.8710
G01 X151.3919
G01 X153.2761 Y144.5925
G01 X161.7751
G01 X163.6628 Y146.4675
G01 X155.1603
G01 X157.0445 Y148.3425
G01 X165.5470
G01 X167.4312 Y150.2175
G01 X158.9287
G01 X160.8129 Y152.0925
G01 X168.2188
G01 Y153.9675
G01 X162.5059
G01 X162.6038 Y155.8425
G01 X168.2188
G00 Z5.0000
G00 X151.3894 Y140.8425
G00 Z-1.5000
G01 Z-2.5000 F400
G01 Y138.9675 F900
G01 X159.8919
G01 X161.7761 Y137.0925
G01 X153.2736
G01 X155.1578 Y135.2175
G01 X163.6603
G01 X165.5445 Y133.3425
G01 X157.0420
G01 X158.9262 Y131.4675
G01 X167.4287
G01 X168.2188 Y129.5925
G01 X160.8104
G01 X162.5050 Y127.7175
G01 X168.2188
G01 Y125.8425
G01 X162.6038
G00 Z5.0000
G00 X146.1377 Y140.8425
G00 Z-1.5000
G01 Z-2.5000 F400
G01 Y138.9675 F900
G01 X137.6351
G01 X135.7509 Y137.0925
G01 X144.2535
G01 X142.3693 Y135.2175
G01 X133.8667
G01 X131.9825 Y133.3425
G01 X140.4851
G01 X138.6009 Y131.4675
G01 X130.0983
G01 X129.3083 Y129.5925
G01 X136.7167
G01 X135.0221 Y127.7175
G01 X129.3083
G01 Y125.8425
G01 X134.9233
G01 X135.1733 Y125.8434
G01 Y124.5524
G01 X129.0583
G01 Y130.7852
G01 X138.2732 Y139.9552
G03 Y141.7273 I-0.8817 J0.8860
G01 X135.6360 Y144.3517
G01 X129.0583 Y150.8973
G01 Y157.1327
G01 X135.1732
G01 Y154.4982
G03 X135.5415 Y153.6121 I1.2500 J0.0000
G01 X147.8818 Y141.3321
G03 X149.6452 I0.8817 J0.8860
G01 X161.9855 Y153.6121
G03 X162.3538 Y154.4982 I-0.8817 J0.8860
G01 Y157.1327
G01 X168.4688
G01 Y150.8973
G01 X161.9714 Y144.4317
G03 X161.5500 Y144.0604 I42.9863 J-49.2196
G01 X159.2415 Y141.7251
G03 X159.2487 Y139.9603 I0.8890 J-0.8788
G01 X168.4688 Y130.7852
G01 Y124.5524
G01 X162.3538
G01 Y127.1844
G03 X161.9855 Y128.0704 I-1.2500 J0.0000
G01 X149.6452 Y140.3505
G03 X147.8818 I-0.8817 J-0.8860
G01 X135.5415 Y128.0704
G03 X135.1733 Y127.1844 I0.8817 J-0.8860
G01 Y125.8434
G01 X134.9233 Y125.8425
G00 Z5.0000


;No. 34: Helical drill 8
G00 X28.6342 Y210.8072 Z5.0000
G00 Z0.5000
G02 X26.9467 Y209.8329 Z-0.0417 I-1.1250 J0.0000 F400
G02 Y211.7814 Z-0.5833 I0.5625 J0.9743
G02 X28.6342 Y210.8072 Z-1.1250 I0.5625 J-0.9743
G02 X26.9467 Y209.8329 I-1.1250 J0.0000
G02 Y211.7814 I0.5625 J0.9743
G02 X28.6342 Y210.8072 I0.5625 J-0.9743
G02 X28.6568 Y210.3318 I-1.1145 J-0.2913 F900
G02 X28.3931 Y209.9232 I-1.1586 J0.4584
G02 X27.9875 Y209.6522 I-0.8839 J0.8839
G02 X27.5092 Y209.5571 I-0.4784 J1.1549
G02 X27.0308 Y209.6522 I0.0000 J1.2501
G02 X26.6252 Y209.9232 I0.4784 J1.1549
G02 X26.3542 Y210.3288 I0.8839 J0.8839
G02 X26.2591 Y210.8072 I1.1549 J0.4784
G02 X26.3542 Y211.2855 I1.2501 J0.0000
G02 X26.6252 Y211.6911 I1.1549 J-0.4784
G02 X27.0308 Y211.9621 I0.8839 J-0.8839
G02 X27.5092 Y212.0572 I0.4784 J-1.1549
G02 X27.9875 Y211.9621 I0.0000 J-1.2501
G02 X28.3931 Y211.6911 I-0.4784 J-1.1549
G02 X28.6641 Y211.2855 I-0.8839 J-0.8839
G02 X28.7592 Y210.8072 I-1.1549 J-0.4784
G02 X26.8841 Y209.7246 I-1.2501 J0.0000
G02 Y211.8898 I0.6250 J1.0826
G02 X28.7592 Y210.8072 I0.6250 J-1.0826
G02 X26.3842 I-1.1875 J0.0000
G02 X28.6342 I1.1250 J0.0000
G02 X26.9467 Y209.8329 Z-1.6667 I-1.1250 J0.0000 F400
G02 Y211.7814 Z-2.2083 I0.5625 J0.9743
G02 X28.6342 Y210.8072 Z-2.7500 I0.5625 J-0.9743
G02 X26.9467 Y209.8329 I-1.1250 J0.0000
G02 Y211.7814 I0.5625 J0.9743
G02 X28.6342 Y210.8072 I0.5625 J-0.9743
G02 X28.6568 Y210.3318 I-1.1145 J-0.2913 F900
G02 X28.3931 Y209.9232 I-1.1586 J0.4584
G02 X27.9875 Y209.6522 I-0.8839 J0.8839
G02 X27.5092 Y209.5571 I-0.4784 J1.1549
G02 X27.0308 Y209.6522 I0.0000 J1.2501
G02 X26.6252 Y209.9232 I0.4784 J1.1549
G02 X26.3542 Y210.3288 I0.8839 J0.8839
G02 X26.2591 Y210.8072 I1.1549 J0.4784
G02 X26.3542 Y211.2855 I1.2501 J0.0000
G02 X26.6252 Y211.6911 I1.1549 J-0.4784
G02 X27.0308 Y211.9621 I0.8839 J-0.8839
G02 X27.5092 Y212.0572 I0.4784 J-1.1549
G02 X27.9875 Y211.9621 I0.0000 J-1.2501
G02 X28.3931 Y211.6911 I-0.4784 J-1.1549
G02 X28.6641 Y211.2855 I-0.8839 J-0.8839
G02 X28.7592 Y210.8072 I-1.1549 J-0.4784
G02 X26.8841 Y209.7246 I-1.2501 J0.0000
G02 Y211.8898 I0.6250 J1.0826
G02 X28.7592 Y210.8072 I0.6250 J-1.0826
G02 X26.3842 I-1.1875 J0.0000
G02 X28.6342 I1.1250 J0.0000
G02 X26.9467 Y209.8329 Z-3.2917 I-1.1250 J0.0000 F400
G02 Y211.7814 Z-3.8333 I0.5625 J0.9743
G02 X28.6342 Y210.8072 Z-4.3750 I0.5625 J-0.9743
G02 X26.9467 Y209.8329 I-1.1250 J0.0000
G02 Y211.7814 I0.5625 J0.9743
G02 X28.6342 Y210.8072 I0.5625 J-0.9743
G02 X28.6568 Y210.3318 I-1.1145 J-0.2913 F900
G02 X28.3931 Y209.9232 I-1.1586 J0.4584
G02 X27.9875 Y209.6522 I-0.8839 J0.8839
G02 X27.5092 Y209.5571 I-0.4784 J1.1549
G02 X27.0308 Y209.6522 I0.0000 J1.2501
G02 X26.6252 Y209.9232 I0.4784 J1.1549
G02 X26.3542 Y210.3288 I0.8839 J0.8839
G02 X26.2591 Y210.8072 I1.1549 J0.4784
G02 X26.3542 Y211.2855 I1.2501 J0.0000
G02 X26.6252 Y211.6911 I1.1549 J-0.4784
G02 X27.0308 Y211.9621 I0.8839 J-0.8839
G02 X27.5092 Y212.0572 I0.4784 J-1.1549
G02 X27.9875 Y211.9621 I0.0000 J-1.2501
G02 X28.3931 Y211.6911 I-0.4784 J-1.1549
G02 X28.6641 Y211.2855 I-0.8839 J-0.8839
G02 X28.7592 Y210.8072 I-1.1549 J-0.4784
G02 X26.8841 Y209.7246 I-1.2501 J0.0000
G02 Y211.8898 I0.6250 J1.0826
G02 X28.7592 Y210.8072 I0.6250 J-1.0826
G02 X26.3842 I-1.1875 J0.0000
G02 X28.6342 I1.1250 J0.0000
G02 X26.9467 Y209.8329 Z-4.9167 I-1.1250 J0.0000 F400
G02 Y211.7814 Z-5.4583 I0.5625 J0.9743
G02 X28.6342 Y210.8072 Z-6.0000 I0.5625 J-0.9743
G02 X26.9467 Y209.8329 I-1.1250 J0.0000
G02 Y211.7814 I0.5625 J0.9743
G02 X28.6342 Y210.8072 I0.5625 J-0.9743
G02 X28.6568 Y210.3318 I-1.1145 J-0.2913 F900
G02 X28.3931 Y209.9232 I-1.1586 J0.4584
G02 X27.9875 Y209.6522 I-0.8839 J0.8839
G02 X27.5092 Y209.5571 I-0.4784 J1.1549
G02 X27.0308 Y209.6522 I0.0000 J1.2501
G02 X26.6252 Y209.9232 I0.4784 J1.1549
G02 X26.3542 Y210.3288 I0.8839 J0.8839
G02 X26.2591 Y210.8072 I1.1549 J0.4784
G02 X26.3542 Y211.2855 I1.2501 J0.0000
G02 X26.6252 Y211.6911 I1.1549 J-0.4784
G02 X27.0308 Y211.9621 I0.8839 J-0.8839
G02 X27.5092 Y212.0572 I0.4784 J-1.1549
G02 X27.9875 Y211.9621 I0.0000 J-1.2501
G02 X28.3931 Y211.6911 I-0.4784 J-1.1549
G02 X28.6641 Y211.2855 I-0.8839 J-0.8839
G02 X28.7592 Y210.8072 I-1.1549 J-0.4784
G02 X26.8841 Y209.7246 I-1.2501 J0.0000
G02 Y211.8898 I0.6250 J1.0826
G02 X28.7592 Y210.8072 I0.6250 J-1.0826
G02 X27.5092 Y209.5572 Z-5.5000 I-1.2500 J0.0000 F400
G00 Z5.0000


;No. 35: Hole 48
G00 X36.0087 Y227.1463 Z5.0000
G00 Z0.5000
G01 Z0.0000 F400
G01 Z-1.5000
G01 X38.5599 F900
G01 Y229.0213
G01 X36.0087
G01 Y230.8963
G01 X38.6620
G01 X36.0087 Y232.7713
G01 X47.1247
G01 X46.3805 Y234.6463
G01 X49.1834
G01 X49.8427 Y236.5213
G01 X47.2976
G01 X47.2558 Y238.3963
G01 X49.8772
G01 X49.3206 Y240.2713
G01 X46.2098
G01 X47.4880 Y242.1463
G01 X36.0087
G01 Y240.2713
G01 X38.5856
G01 X38.5599 Y238.3963
G01 X36.0087
G01 Y236.5213
G01 X38.5599
G01 X38.5617 Y234.6463
G01 X38.8118 Y234.6546
G03 X40.0599 Y233.4536 I1.2473 J0.0472
G03 X43.0960 Y233.4660 I1.3662 J37.1349
G03 X46.1982 Y234.8174 I-0.0930 J4.4498
G03 X47.0403 Y238.2075 I-2.9930 J2.5431
G03 X44.4034 Y241.0145 I-3.5243 J-0.6687
G03 X42.6699 Y241.2472 I-1.6841 J-5.9710
G01 X40.0599
G03 X38.8099 Y239.9972 I0.0000 J-1.2500
G01 Y234.7036
G01 X38.8118 Y234.6546
G01 X38.5617 Y234.6463
G01 X35.7587
G01 Y243.4114
G02 X43.3183 Y243.4094 I3.7006 J-303.3564
G02 X47.5716 Y242.3871 I0.1205 J-8.8582
G02 X50.1431 Y238.2525 I-2.4488 J-4.3899
G02 X49.4208 Y234.5558 I-6.1765 J-0.7121
G02 X46.2651 Y232.1329 I-4.8256 J3.0186
G02 X42.8040 Y231.6042 I-3.3223 J10.1547
G01 X40.0599
G03 X38.8099 Y230.3542 I0.0000 J-1.2500
G01 Y225.8813
G01 X35.7587
G01 Y234.6463
G01 X36.0087
G00 Z5.0000


;No. 36: Hole 49
G00 X52.8825 Y227.2179 Z5.0000
G00 Z0.5000
G01 Z0.0000 F400
G01 Z-1.5000
G01 X55.4171 F900
G01 X56.2186 Y229.0929
G01 X53.6750
G01 X54.4676 Y230.9679
G01 X68.2588
G01 X69.0513 Y229.0929
G01 X66.3648
G01 X67.1786 Y227.2179
G01 X69.8439
G01 X65.0181 Y232.8429
G01 X67.4662
G01 X66.6737 Y234.7179
G01 X64.3053
G01 X63.5704 Y236.5929
G01 X65.8811
G01 X65.0886 Y238.4679
G01 X62.8354
G01 X64.2960 Y240.3429
G01 X58.4304
G01 X57.6378 Y238.4679
G01 X59.8035
G01 X59.0592 Y236.5929
G01 X56.8452
G01 X56.0527 Y234.7179
G01 X58.3149
G01 X57.5938 Y232.8429
G01 X57.8509 Y232.8428
G03 X59.0597 Y231.2789 I1.2082 J-0.3152
G01 X63.5522
G03 X64.7160 Y232.9850 I0.0000 J1.2500
G01 X62.4841 Y238.6793
G03 X60.1585 Y238.6843 I-1.1638 J-0.4562
G01 X57.8979 Y232.9901
G01 X57.8643 Y232.8943
G01 X57.8509 Y232.8428
G01 X57.5938 Y232.8429
G01 X55.2601
G00 Z5.0000
G00 X59.2229 Y240.3429
G00 Z0.5000
G01 Z-1.5000 F400
G01 Y242.2179 F900
G01 X63.5035
G01 X63.7420 Y242.2956
G01 X70.6803 Y225.8813
G01 X67.4540
G01 X66.3120 Y228.6803
G03 X65.1546 Y229.4581 I-1.1574 J-0.4722
G01 X57.4287
G03 X56.2681 Y228.6723 I0.0000 J-1.2500
G01 X55.1517 Y225.8813
G01 X52.0461
G01 X59.5165 Y243.5544
G01 X63.2099
G01 X63.7420 Y242.2956
G01 X63.5035 Y242.2179
G00 Z5.0000


;No. 37: Hole 50
G00 X76.0114 Y242.1463 Z5.0000
G00 Z0.5000
G01 Z0.0000 F400
G01 Z-1.5000
G01 X88.5349 F900
G01 X87.0205 Y240.2713
G01 X90.2851
G01 X90.7596 Y238.3963
G01 X88.1039
G01 X88.1028 Y236.5213
G01 X90.6589
G01 X89.8133 Y234.6463
G01 X87.0101
G01 X87.2082 Y232.7713
G01 X76.0114
G01 Y230.8963
G01 X78.5760
G01 X78.5626 Y229.0213
G01 X76.0114
G01 Y227.1463
G01 X78.5626
G00 Z5.0000
G00 X78.6175 Y232.7713
G00 Z0.5000
G01 Z-1.5000 F400
G01 Y234.6463 F900
G01 X76.0114
G01 Y236.5213
G01 X78.5626
G01 Y238.3963
G01 X76.0114
G01 Y240.2713
G01 X78.6225
G01 X78.8606 Y240.1936
G03 X78.8126 Y239.8542 I1.1454 J-0.3350
G01 Y235.0469
G03 X80.0627 Y233.7969 I1.2500 J0.0000
G03 X83.9719 Y233.8017 I1.8682 J71.2665
G03 X86.9102 Y234.8932 I0.0260 J4.4306
G03 X87.9030 Y238.1165 I-2.5524 J2.5507
G03 X85.3203 Y240.8990 I-3.3507 J-0.5201
G03 X83.7029 Y241.1042 I-1.5676 J-5.8820
G01 X80.0626
G03 X78.8606 Y240.1936 I-0.0010 J-1.2474
G01 X78.6225 Y240.2713
G00 Z5.0000
G00 X84.1641 Y232.7713
G00 Z0.5000
G01 Z-1.5000 F400
G01 Y230.8963 F900
G01 X86.8440
G01 X88.1168 Y229.0213
G01 X85.4112
G01 X86.6582 Y227.1463
G01 X89.4001
G01 X89.6001 Y227.2967
G01 X90.5689 Y225.8813
G01 X87.1994
G01 X83.5357 Y231.3898
G03 X82.4949 Y231.9475 I-1.0408 J-0.6922
G01 X80.0626
G03 X78.8126 Y230.6975 I0.0000 J-1.2500
G01 Y225.8813
G01 X75.7614
G01 Y243.4113
G02 X84.3201 Y243.4077 I4.1536 J-294.6658
G02 X88.3264 Y242.5491 I0.1135 J-9.2470
G02 X91.0081 Y238.4254 I-2.0919 J-4.2942
G02 X90.4426 Y235.1669 I-5.8979 J-0.6547
G02 X87.6647 Y232.7606 I-4.7148 J2.6363
G03 X87.1290 Y230.9072 I0.4959 J-1.1474
G01 X89.6001 Y227.2967
G01 X89.4001 Y227.1463
G00 Z5.0000


;No. 38: Hole 39
G00 X96.5852 Y227.1463 Z5.0000
G00 Z0.5000
G01 Z0.0000 F400
G01 Z-1.5000
G01 X99.1364 F900
G01 Y229.0213
G01 X96.5852
G01 Y230.8963
G01 X99.5955
G01 X101.2806 Y232.7713
G01 X96.5852
G01 Y234.6463
G01 X105.6742
G01 X105.1077
G01 Y236.5213
G01 X102.5922
G01 X104.1833 Y238.3963
G01 X106.5996
G01 X105.7744 Y240.2713
G01 X108.2503
G01 X107.3655 Y242.1463
G01 X109.9010
G00 Z5.0000
G00 X104.0053 Y234.6463
G00 Z0.5000
G01 Z-1.5000 F400
G01 Y232.7713 F900
G01 X106.9618
G01 X108.2494 Y230.8963
G01 X105.2746
G01 X106.5438 Y229.0213
G01 X109.5370
G01 X110.8245 Y227.1463
G01 X107.8130
G00 Z5.0000
G00 X99.1369 Y234.6463
G00 Z0.5000
G01 Z-1.5000 F400
G01 Y236.5213 F900
G01 X96.5852
G01 Y238.3963
G01 X99.1364
G01 Y240.2713
G01 X96.5852
G01 Y242.1463
G01 X99.1364
G01 X99.3864 Y242.1275
G01 Y236.5349
G03 X101.5895 Y235.7261 I1.2500 J0.0000
G01 X108.1111 Y243.4114
G01 X111.3479
G01 X105.5928 Y236.8744
G03 X105.5005 Y235.3408 I0.9382 J-0.8260
G01 X111.9965 Y225.8813
G01 X108.3675
G01 X103.7032 Y232.7717
G03 X101.7383 Y232.9066 I-1.0351 J-0.7007
G01 X99.7067 Y230.6460
G03 X99.3864 Y229.8105 I0.9297 J-0.8356
G01 Y225.8813
G01 X96.3352
G01 Y243.4114
G01 X99.3864
G01 Y242.1275
G01 X99.1364 Y242.1463
G00 Z5.0000


;No. 39: Hole 40
G00 X117.5882 Y242.1463 Z5.0000
G00 Z0.5000
G01 Z0.0000 F400
G01 Z-1.5000
G01 X120.1680 F900
G01 Y240.2713
G01 X117.5882
G01 Y238.3963
G01 X120.1680
G01 Y236.5213
G01 X117.5882
G01 Y234.6463
G01 X120.1680
G01 Y232.7713
G01 X117.5882
G01 Y230.8963
G01 X120.1680
G01 Y229.0213
G01 X117.5882
G01 Y227.1463
G01 X120.1680
G01 X120.4180 Y227.1689
G01 Y225.8813
G01 X117.3382
G01 Y243.4114
G01 X120.4180
G01 Y227.1689
G01 X120.1680 Y227.1463
G00 Z5.0000


;No. 40: Hole 41
G00 X126.8306 Y227.1463 Z5.0000
G00 Z0.5000
G01 Z0.0000 F400
G01 Z-1.5000
G01 X129.3246 F900
G01 Y229.0213
G01 X126.8306
G01 Y230.8963
G01 X129.3246
G01 Y232.7713
G01 X126.8306
G01 Y234.6463
G01 X129.3246
G01 Y236.5213
G01 X129.6274
G01 X126.8306
G01 Y238.3963
G01 X133.4855
G01 X132.0261 Y240.2713
G01 X126.8306
G01 Y242.1463
G01 X130.5666
G01 X132.0232 Y236.5213
G01 X134.9450
G01 X136.4044 Y234.6463
G01 X133.4832
G01 X134.9432 Y232.7713
G01 X138.0075
G01 X136.4031 Y230.8963
G01 X142.7447
G01 Y229.0213
G01 X137.8631
G01 X139.3230 Y227.1463
G01 X142.7447
G01 X139.4922 Y232.7713
G01 X142.7447
G01 Y234.6463
G01 X140.2508
G01 Y236.5213
G01 X142.7447
G01 Y238.3963
G01 X140.2508
G01 Y240.2713
G01 X142.7447
G01 Y242.1463
G01 X140.2508
G01 X140.0008 Y242.1258
G01 Y243.4114
G01 X142.9947
G01 Y225.8813
G01 X139.9912
G01 X131.8108 Y236.3872
G03 X129.5746 Y235.6192 I-0.9863 J-0.7680
G01 Y225.8813
G01 X126.5806
G01 Y243.4114
G01 X129.8987
G01 X137.7643 Y233.3062
G03 X140.0008 Y234.0740 I0.9864 J0.7678
G01 Y242.1258
G01 X140.2508 Y242.1463
G00 Z5.0000


;No. 41: Hole 42
G00 X149.4074 Y238.3963 Z5.0000
G00 Z0.5000
G01 Z0.0000 F400
G01 Z-1.5000
G01 X152.3262 F900
G01 X151.5420 Y236.5213
G01 X148.7954
G01 X148.6062 Y234.6463
G01 X151.3006
G01 X151.5015 Y232.7713
G01 X148.7754
G01 X149.3574 Y230.8963
G01 X152.2264
G01 X153.8068 Y229.0213
G01 X150.5065
G01 X152.6689 Y227.1463
G01 X163.7619
G01 X162.6989 Y229.0213
G01 X165.2070
G01 Y230.8963
G01 X162.9420
G01 X162.8557 Y232.7713
G01 X165.2070
G01 Y234.6463
G01 X158.9932
G00 Z5.0000
G00 X150.5786 Y238.3963
G00 Z0.5000
G01 Z-1.5000 F400
G01 Y240.2713 F900
G01 X153.9862
G01 X152.7253 Y242.1463
G01 X163.4801
G01 X163.6399 Y242.3419
G02 X164.2314 Y241.9566 I-5.3360 J-8.8407
G01 X162.5970 Y239.9836
G01 X162.4781 Y239.9951
G03 X156.4837 Y241.1947 I-4.4176 J-6.4977
G03 X151.6478 Y235.8160 I1.6113 J-6.3120
G03 X153.0409 Y230.1404 I7.0966 J-1.2668
G03 X158.5312 Y227.7636 I5.0917 J4.2322
G03 X162.2000 Y228.8452 I0.0147 J6.7133
G03 X162.6920 Y229.8391 I-0.7581 J0.9939
G01 Y232.2713
G03 X161.4420 Y233.5213 I-1.2500 J0.0000
G01 X158.7432
G01 Y235.0846
G01 X165.4570
G01 Y227.9310
G02 X154.5815 Y226.0022 I-7.3508 J9.8218
G02 X148.8011 Y231.6575 I2.5137 J8.3511
G02 X149.9847 Y239.9035 I9.0259 J2.9124
G02 X157.2921 Y243.7958 I7.6275 J-5.5142
G02 X162.8221 Y242.7852 I0.7792 J-11.3720
G02 X163.6399 Y242.3419 I-4.2674 J-8.8473
G01 X163.4801 Y242.1463
G00 Z5.0000


;No. 42: Hole 51
G00 X178.7340 Y236.5213 Z5.0000
G00 Z0.5000
G01 Z0.0000 F400
G01 Z-1.5000
G01 X181.4540 F900
G01 X181.2310 Y234.6463
G01 X178.5368
G01 X178.7199 Y232.7713
G01 X181.4720
G01 X182.2641 Y230.8963
G01 X179.3331
G01 X180.5080 Y229.0213
G01 X183.9541
G01 X182.6556 Y227.1463
G01 X192.9256
G01 X191.7799 Y229.0213
G01 X195.0894
G01 X196.2837 Y230.8963
G01 X193.4531
G01 X194.2231 Y232.7713
G01 X196.9148
G01 X197.1119 Y234.6463
G01 X194.4463
G01 X194.2051 Y236.5213
G01 X196.9288
G01 X196.3157 Y238.3963
G01 X193.4119
G01 X191.7161 Y240.2713
G01 X195.1407
G01 X192.9931 Y242.1463
G01 X182.7231
G01 X183.8907 Y240.2713
G01 X180.5593
G01 X179.3650 Y238.3963
G01 X179.1629 Y238.5533
G02 X186.9546 Y243.7747 I8.4082 J-4.1229
G02 X194.2519 Y241.5340 I0.9774 J-9.8198
G02 X197.1943 Y232.8901 I-5.9210 J-6.8383
G02 X189.8751 Y225.6850 I-8.9905 J1.8127
G02 X181.8528 Y227.3925 I-2.0876 J9.8910
G02 X178.4032 Y236.1138 I5.4274 J7.1896
G02 X179.1629 Y238.5533 I8.8252 J-1.4103
G01 X179.3650 Y238.3963
G01 X182.2228
G01 X182.4281 Y238.2522
G03 X183.0346 Y230.2423 I6.1887 J-3.5593
G03 X192.4740 Y229.9906 I4.8311 J4.0498
G03 X193.9893 Y236.3563 I-5.3068 J4.6264
G03 X188.5330 Y241.2636 I-6.1933 J-1.3991
G03 X182.4281 Y238.2522 I-0.7816 J-6.1094
G01 X182.2228 Y238.3963
G00 Z5.0000


;No. 43: Hole 43
G00 X203.0020 Y238.3963 Z5.0000
G00 Z0.5000
G01 Z0.0000 F400
G01 Z-1.5000
G01 X209.6570 F900
G01 X208.1975 Y240.2713
G01 X203.0020
G01 Y242.1463
G01 X206.7380
G01 X203.0020 Y236.5213
G01 X205.7988
G01 X205.4960
G01 Y234.6463
G01 X203.0020
G01 Y232.7713
G01 X205.4960
G01 Y230.8963
G01 X203.0020
G01 Y229.0213
G01 X205.4960
G01 Y227.1463
G01 X203.0020
G00 Z5.0000
G00 X208.1947 Y238.3963
G00 Z0.5000
G01 Z-1.5000 F400
G01 Y236.5213 F900
G01 X211.1164
G01 X212.5759 Y234.6463
G01 X209.6546
G01 X211.1146 Y232.7713
G01 X214.1790
G01 X212.5746 Y230.8963
G01 X218.9162
G01 Y229.0213
G01 X214.0345
G01 X215.4945 Y227.1463
G01 X218.9162
G01 X215.6636 Y232.7713
G01 X218.9162
G01 Y234.6463
G01 X216.4222
G01 Y236.5213
G01 X218.9162
G01 Y238.3963
G01 X216.4222
G01 Y240.2713
G01 X218.9162
G01 Y242.1463
G01 X216.4222
G01 X216.1722 Y242.1258
G01 Y243.4114
G01 X219.1662
G01 Y225.8813
G01 X216.1626
G01 X207.9823 Y236.3872
G03 X205.7460 Y235.6192 I-0.9863 J-0.7680
G01 Y225.8813
G01 X202.7520
G01 Y243.4114
G01 X206.0702
G01 X213.9358 Y233.3062
G03 X216.1722 Y234.0740 I0.9864 J0.7678
G01 Y242.1258
G01 X216.4222 Y242.1463
G00 Z5.0000


;No. 44: Hole 44
G00 X225.4644 Y242.1463 Z5.0000
G00 Z0.5000
G01 Z0.0000 F400
G01 Z-1.5000
G01 X228.0155 F900
G01 Y240.2713
G01 X225.4644
G01 Y238.3963
G01 X228.0155
G01 Y236.5213
G01 X225.4644
G01 Y234.6463
G01 X228.0155
G01 Y232.7713
G01 X225.4644
G01 Y230.8963
G01 X228.0155
G01 X228.0928 Y229.0213
G01 X225.4644
G01 Y227.1463
G01 X237.7158
G01 X237.9658 Y227.1428
G01 Y225.8813
G01 X225.2144
G01 Y243.4114
G01 X228.2655
G01 Y229.4957
G03 X229.5155 Y228.2457 I1.2500 J0.0000
G01 X237.9658
G01 Y227.1428
G01 X237.7158 Y227.1463
G00 Z5.0000


;No. 45: Hole 45
G00 X245.1510 Y227.1463 Z5.0000
G00 Z0.5000
G01 Z0.0000 F400
G01 Z-1.5000
G01 X247.7308 F900
G01 Y229.0213
G01 X245.1510
G01 Y230.8963
G01 X247.7308
G01 X247.8391 Y232.7713
G01 X245.0052
G01 X243.8767 Y234.6463
G01 X248.9599
G01 X250.1064 Y236.5213
G01 X247.7240
G01 X248.7960 Y238.3963
G01 X251.2530
G01 X252.3995 Y240.2713
G01 X249.8622
G01 X250.9283 Y242.1463
G01 X253.5461
G00 Z5.0000
G00 X245.2438 Y234.6463
G00 Z0.5000
G01 Z-1.5000 F400
G01 Y236.5213 F900
G01 X242.7380
G01 X241.5993 Y238.3963
G01 X244.1786
G01 X243.1198 Y240.2713
G01 X240.4606
G01 X239.3219 Y242.1463
G01 X242.0610
G01 X242.2878 Y242.2530
G01 X245.3954 Y236.7500
G03 X247.5704 Y236.7468 I1.0884 J0.6146
G01 X251.3601 Y243.4114
G01 X254.6127
G01 X248.1644 Y232.8662
G03 X247.9808 Y232.2141 I1.0664 J-0.6521
G01 Y225.8813
G01 X244.9010
G01 Y232.1283
G03 X244.7194 Y232.7771 I-1.2500 J0.0000
G01 X238.2612 Y243.4114
G01 X241.6337
G01 X242.2878 Y242.2530
G01 X242.0610 Y242.1463
G00 Z5.0000


;No. 46: Hole 46
G00 X259.9325 Y241.6584 Z5.0000
G00 Z0.5000
G01 Z0.0000 F400
G01 Z-1.5000
G01 X262.9086 F900
G01 X262.6276 Y239.7834
G01 X260.2135
G01 X260.4945 Y237.9084
G01 X262.3466
G01 X262.0656 Y236.0334
G01 X260.7755
G01 X261.0565 Y234.1584
G01 X261.7846
G01 X262.0339 Y234.1353
G01 X261.7746 Y232.4054
G01 X261.0664
G01 X259.5802 Y242.3223
G01 Y243.4114
G01 X263.2609
G01 Y242.3223
G01 X262.0339 Y234.1353
G01 X261.7846 Y234.1584
G00 Z5.0000


;No. 47: Hole 47


;No. 48: Hole 47
G00 X259.8377 Y225.8813 Z5.0000
G00 Z0.5000
G01 Z0.0000 F400
G01 Z-1.5000
G01 Y228.2457 F900
G01 X263.0034
G01 Y225.8813
G01 X259.8377
G00 Z5.0000


;No. 49: Helical drill 7
G00 X273.6342 Y210.8070 Z5.0000
G00 Z0.5000
G02 X271.9467 Y209.8327 Z-0.0417 I-1.1250 J0.0000 F400
G02 Y211.7813 Z-0.5833 I0.5625 J0.9743
G02 X273.6342 Y210.8070 Z-1.1250 I0.5625 J-0.9743
G02 X271.9467 Y209.8327 I-1.1250 J0.0000
G02 Y211.7813 I0.5625 J0.9743
G02 X273.6342 Y210.8070 I0.5625 J-0.9743
G02 X273.6569 Y210.3316 I-1.1145 J-0.2913 F900
G02 X273.3931 Y209.9231 I-1.1585 J0.4586
G02 X272.9876 Y209.6522 I-0.8839 J0.8839
G02 X272.5092 Y209.5570 I-0.4783 J1.1548
G02 X272.0309 Y209.6522 I0.0000 J1.2500
G02 X271.6254 Y209.9231 I0.4783 J1.1548
G02 X271.3544 Y210.3287 I0.8839 J0.8839
G02 X271.2593 Y210.8070 I1.1548 J0.4783
G02 X271.3544 Y211.2854 I1.2500 J0.0000
G02 X271.6254 Y211.6909 I1.1548 J-0.4783
G02 X272.0309 Y211.9618 I0.8839 J-0.8839
G02 X272.5092 Y212.0570 I0.4783 J-1.1548
G02 X272.9876 Y211.9618 I0.0000 J-1.2500
G02 X273.3931 Y211.6909 I-0.4783 J-1.1548
G02 X273.6640 Y211.2854 I-0.8839 J-0.8839
G02 X273.7592 Y210.8070 I-1.1548 J-0.4783
G02 X271.8842 Y209.7245 I-1.2500 J0.0000
G02 Y211.8895 I0.6250 J1.0825
G02 X273.7592 Y210.8070 I0.6250 J-1.0825
G02 X271.3842 I-1.1875 J0.0000
G02 X273.6342 I1.1250 J0.0000
G02 X271.9467 Y209.8327 Z-1.6667 I-1.1250 J0.0000 F400
G02 Y211.7813 Z-2.2083 I0.5625 J0.9743
G02 X273.6342 Y210.8070 Z-2.7500 I0.5625 J-0.9743
G02 X271.9467 Y209.8327 I-1.1250 J0.0000
G02 Y211.7813 I0.5625 J0.9743
G02 X273.6342 Y210.8070 I0.5625 J-0.9743
G02 X273.6569 Y210.3316 I-1.1145 J-0.2913 F900
G02 X273.3931 Y209.9231 I-1.1585 J0.4586
G02 X272.9876 Y209.6522 I-0.8839 J0.8839
G02 X272.5092 Y209.5570 I-0.4783 J1.1548
G02 X272.0309 Y209.6522 I0.0000 J1.2500
G02 X271.6254 Y209.9231 I0.4783 J1.1548
G02 X271.3544 Y210.3287 I0.8839 J0.8839
G02 X271.2593 Y210.8070 I1.1548 J0.4783
G02 X271.3544 Y211.2854 I1.2500 J0.0000
G02 X271.6254 Y211.6909 I1.1548 J-0.4783
G02 X272.0309 Y211.9618 I0.8839 J-0.8839
G02 X272.5092 Y212.0570 I0.4783 J-1.1548
G02 X272.9876 Y211.9618 I0.0000 J-1.2500
G02 X273.3931 Y211.6909 I-0.4783 J-1.1548
G02 X273.6640 Y211.2854 I-0.8839 J-0.8839
G02 X273.7592 Y210.8070 I-1.1548 J-0.4783
G02 X271.8842 Y209.7245 I-1.2500 J0.0000
G02 Y211.8895 I0.6250 J1.0825
G02 X273.7592 Y210.8070 I0.6250 J-1.0825
G02 X271.3842 I-1.1875 J0.0000
G02 X273.6342 I1.1250 J0.0000
G02 X271.9467 Y209.8327 Z-3.2917 I-1.1250 J0.0000 F400
G02 Y211.7813 Z-3.8333 I0.5625 J0.9743
G02 X273.6342 Y210.8070 Z-4.3750 I0.5625 J-0.9743
G02 X271.9467 Y209.8327 I-1.1250 J0.0000
G02 Y211.7813 I0.5625 J0.9743
G02 X273.6342 Y210.8070 I0.5625 J-0.9743
G02 X273.6569 Y210.3316 I-1.1145 J-0.2913 F900
G02 X273.3931 Y209.9231 I-1.1585 J0.4586
G02 X272.9876 Y209.6522 I-0.8839 J0.8839
G02 X272.5092 Y209.5570 I-0.4783 J1.1548
G02 X272.0309 Y209.6522 I0.0000 J1.2500
G02 X271.6254 Y209.9231 I0.4783 J1.1548
G02 X271.3544 Y210.3287 I0.8839 J0.8839
G02 X271.2593 Y210.8070 I1.1548 J0.4783
G02 X271.3544 Y211.2854 I1.2500 J0.0000
G02 X271.6254 Y211.6909 I1.1548 J-0.4783
G02 X272.0309 Y211.9618 I0.8839 J-0.8839
G02 X272.5092 Y212.0570 I0.4783 J-1.1548
G02 X272.9876 Y211.9618 I0.0000 J-1.2500
G02 X273.3931 Y211.6909 I-0.4783 J-1.1548
G02 X273.6640 Y211.2854 I-0.8839 J-0.8839
G02 X273.7592 Y210.8070 I-1.1548 J-0.4783
G02 X271.8842 Y209.7245 I-1.2500 J0.0000
G02 Y211.8895 I0.6250 J1.0825
G02 X273.7592 Y210.8070 I0.6250 J-1.0825
G02 X271.3842 I-1.1875 J0.0000
G02 X273.6342 I1.1250 J0.0000
G02 X271.9467 Y209.8327 Z-4.9167 I-1.1250 J0.0000 F400
G02 Y211.7813 Z-5.4583 I0.5625 J0.9743
G02 X273.6342 Y210.8070 Z-6.0000 I0.5625 J-0.9743
G02 X271.9467 Y209.8327 I-1.1250 J0.0000
G02 Y211.7813 I0.5625 J0.9743
G02 X273.6342 Y210.8070 I0.5625 J-0.9743
G02 X273.6569 Y210.3316 I-1.1145 J-0.2913 F900
G02 X273.3931 Y209.9231 I-1.1585 J0.4586
G02 X272.9876 Y209.6522 I-0.8839 J0.8839
G02 X272.5092 Y209.5570 I-0.4783 J1.1548
G02 X272.0309 Y209.6522 I0.0000 J1.2500
G02 X271.6254 Y209.9231 I0.4783 J1.1548
G02 X271.3544 Y210.3287 I0.8839 J0.8839
G02 X271.2593 Y210.8070 I1.1548 J0.4783
G02 X271.3544 Y211.2854 I1.2500 J0.0000
G02 X271.6254 Y211.6909 I1.1548 J-0.4783
G02 X272.0309 Y211.9618 I0.8839 J-0.8839
G02 X272.5092 Y212.0570 I0.4783 J-1.1548
G02 X272.9876 Y211.9618 I0.0000 J-1.2500
G02 X273.3931 Y211.6909 I-0.4783 J-1.1548
G02 X273.6640 Y211.2854 I-0.8839 J-0.8839
G02 X273.7592 Y210.8070 I-1.1548 J-0.4783
G02 X271.8842 Y209.7245 I-1.2500 J0.0000
G02 Y211.8895 I0.6250 J1.0825
G02 X273.7592 Y210.8070 I0.6250 J-1.0825
G02 X272.5092 Z-5.5000 I-0.6250 J0.0000 F400
G00 Z5.0000


;No. 50: Hole 38
G00 X278.3000 Y253.3470 Z5.0000
G00 Z0.5000
G01 Z0.0000 F400
G01 Z-1.5000
G01 X21.0500 F900
G01 Y254.5970
G01 X278.5500
G01 Y252.0970
G01 X21.0500
G01 Y253.3470
G01 X21.3000
G00 Z5.0000


;No. 51: Helical drill 6
G00 X273.6342 Y350.8070 Z5.0000
G00 Z0.5000
G02 X271.9467 Y349.8327 Z-0.0417 I-1.1250 J0.0000 F400
G02 Y351.7813 Z-0.5833 I0.5625 J0.9743
G02 X273.6342 Y350.8070 Z-1.1250 I0.5625 J-0.9743
G02 X271.9467 Y349.8327 I-1.1250 J0.0000
G02 Y351.7813 I0.5625 J0.9743
G02 X273.6342 Y350.8070 I0.5625 J-0.9743
G02 X273.6569 Y350.3316 I-1.1145 J-0.2913 F900
G02 X273.3931 Y349.9231 I-1.1585 J0.4586
G02 X272.9876 Y349.6522 I-0.8839 J0.8839
G02 X272.5092 Y349.5570 I-0.4783 J1.1548
G02 X272.0309 Y349.6522 I0.0000 J1.2500
G02 X271.6254 Y349.9231 I0.4783 J1.1548
G02 X271.3544 Y350.3286 I0.8839 J0.8839
G02 X271.2593 Y350.8070 I1.1548 J0.4783
G02 X271.3544 Y351.2853 I1.2500 J0.0000
G02 X271.6254 Y351.6909 I1.1548 J-0.4783
G02 X272.0309 Y351.9618 I0.8839 J-0.8839
G02 X272.5092 Y352.0570 I0.4783 J-1.1548
G02 X272.9876 Y351.9618 I0.0000 J-1.2500
G02 X273.3931 Y351.6909 I-0.4783 J-1.1548
G02 X273.6641 Y351.2853 I-0.8839 J-0.8839
G02 X273.7592 Y350.8070 I-1.1548 J-0.4783
G02 X271.8842 Y349.7245 I-1.2500 J0.0000
G02 Y351.8895 I0.6250 J1.0825
G02 X273.7592 Y350.8070 I0.6250 J-1.0825
G02 X271.3842 I-1.1875 J0.0000
G02 X273.6342 I1.1250 J0.0000
G02 X271.9467 Y349.8327 Z-1.6667 I-1.1250 J0.0000 F400
G02 Y351.7813 Z-2.2083 I0.5625 J0.9743
G02 X273.6342 Y350.8070 Z-2.7500 I0.5625 J-0.9743
G02 X271.9467 Y349.8327 I-1.1250 J0.0000
G02 Y351.7813 I0.5625 J0.9743
G02 X273.6342 Y350.8070 I0.5625 J-0.9743
G02 X273.6569 Y350.3316 I-1.1145 J-0.2913 F900
G02 X273.3931 Y349.9231 I-1.1585 J0.4586
G02 X272.9876 Y349.6522 I-0.8839 J0.8839
G02 X272.5092 Y349.5570 I-0.4783 J1.1548
G02 X272.0309 Y349.6522 I0.0000 J1.2500
G02 X271.6254 Y349.9231 I0.4783 J1.1548
G02 X271.3544 Y350.3286 I0.8839 J0.8839
G02 X271.2593 Y350.8070 I1.1548 J0.4783
G02 X271.3544 Y351.2853 I1.2500 J0.0000
G02 X271.6254 Y351.6909 I1.1548 J-0.4783
G02 X272.0309 Y351.9618 I0.8839 J-0.8839
G02 X272.5092 Y352.0570 I0.4783 J-1.1548
G02 X272.9876 Y351.9618 I0.0000 J-1.2500
G02 X273.3931 Y351.6909 I-0.4783 J-1.1548
G02 X273.6641 Y351.2853 I-0.8839 J-0.8839
G02 X273.7592 Y350.8070 I-1.1548 J-0.4783
G02 X271.8842 Y349.7245 I-1.2500 J0.0000
G02 Y351.8895 I0.6250 J1.0825
G02 X273.7592 Y350.8070 I0.6250 J-1.0825
G02 X271.3842 I-1.1875 J0.0000
G02 X273.6342 I1.1250 J0.0000
G02 X271.9467 Y349.8327 Z-3.2917 I-1.1250 J0.0000 F400
G02 Y351.7813 Z-3.8333 I0.5625 J0.9743
G02 X273.6342 Y350.8070 Z-4.3750 I0.5625 J-0.9743
G02 X271.9467 Y349.8327 I-1.1250 J0.0000
G02 Y351.7813 I0.5625 J0.9743
G02 X273.6342 Y350.8070 I0.5625 J-0.9743
G02 X273.6569 Y350.3316 I-1.1145 J-0.2913 F900
G02 X273.3931 Y349.9231 I-1.1585 J0.4586
G02 X272.9876 Y349.6522 I-0.8839 J0.8839
G02 X272.5092 Y349.5570 I-0.4783 J1.1548
G02 X272.0309 Y349.6522 I0.0000 J1.2500
G02 X271.6254 Y349.9231 I0.4783 J1.1548
G02 X271.3544 Y350.3286 I0.8839 J0.8839
G02 X271.2593 Y350.8070 I1.1548 J0.4783
G02 X271.3544 Y351.2853 I1.2500 J0.0000
G02 X271.6254 Y351.6909 I1.1548 J-0.4783
G02 X272.0309 Y351.9618 I0.8839 J-0.8839
G02 X272.5092 Y352.0570 I0.4783 J-1.1548
G02 X272.9876 Y351.9618 I0.0000 J-1.2500
G02 X273.3931 Y351.6909 I-0.4783 J-1.1548
G02 X273.6641 Y351.2853 I-0.8839 J-0.8839
G02 X273.7592 Y350.8070 I-1.1548 J-0.4783
G02 X271.8842 Y349.7245 I-1.2500 J0.0000
G02 Y351.8895 I0.6250 J1.0825
G02 X273.7592 Y350.8070 I0.6250 J-1.0825
G02 X271.3842 I-1.1875 J0.0000
G02 X273.6342 I1.1250 J0.0000
G02 X271.9467 Y349.8327 Z-4.9167 I-1.1250 J0.0000 F400
G02 Y351.7813 Z-5.4583 I0.5625 J0.9743
G02 X273.6342 Y350.8070 Z-6.0000 I0.5625 J-0.9743
G02 X271.9467 Y349.8327 I-1.1250 J0.0000
G02 Y351.7813 I0.5625 J0.9743
G02 X273.6342 Y350.8070 I0.5625 J-0.9743
G02 X273.6569 Y350.3316 I-1.1145 J-0.2913 F900
G02 X273.3931 Y349.9231 I-1.1585 J0.4586
G02 X272.9876 Y349.6522 I-0.8839 J0.8839
G02 X272.5092 Y349.5570 I-0.4783 J1.1548
G02 X272.0309 Y349.6522 I0.0000 J1.2500
G02 X271.6254 Y349.9231 I0.4783 J1.1548
G02 X271.3544 Y350.3286 I0.8839 J0.8839
G02 X271.2593 Y350.8070 I1.1548 J0.4783
G02 X271.3544 Y351.2853 I1.2500 J0.0000
G02 X271.6254 Y351.6909 I1.1548 J-0.4783
G02 X272.0309 Y351.9618 I0.8839 J-0.8839
G02 X272.5092 Y352.0570 I0.4783 J-1.1548
G02 X272.9876 Y351.9618 I0.0000 J-1.2500
G02 X273.3931 Y351.6909 I-0.4783 J-1.1548
G02 X273.6641 Y351.2853 I-0.8839 J-0.8839
G02 X273.7592 Y350.8070 I-1.1548 J-0.4783
G02 X271.8842 Y349.7245 I-1.2500 J0.0000
G02 Y351.8895 I0.6250 J1.0825
G02 X273.7592 Y350.8070 I0.6250 J-1.0825
G02 X272.5092 Z-5.5000 I-0.6250 J0.0000 F400
G00 Z5.0000


;No. 52: Hole 29
G00 X274.0489 Y333.9437 Z5.0000
G00 Z0.5000
G01 Z0.0000 F400
G01 Z-2.0000
G01 X261.0995 F900
G01 Y332.0687
G01 X274.0489
G01 Y330.1937
G01 X261.0994
G01 Y328.3187
G01 X259.8071
G01 X274.0489
G01 Y326.4437
G01 X257.8508
G01 X255.8946 Y324.5687
G01 X274.0489
G01 X273.2669 Y322.6937
G01 X253.9383
G01 X251.9820 Y320.8187
G01 X271.3106
G01 X269.3543 Y318.9437
G01 X250.0257
G01 X248.0694 Y317.0687
G01 X267.3980
G01 X265.4417 Y315.1937
G01 X246.1131
G01 X244.1568 Y313.3187
G01 X263.4854
G01 X261.5291 Y311.4437
G01 X242.2005
G01 X240.2443 Y309.5687
G01 X259.5728
G01 X257.6166 Y307.6937
G01 X238.2880
G01 X236.3272 Y305.8187
G01 X255.6603
G01 X253.7040 Y303.9437
G01 X216.9949
G01 X215.0386 Y305.8187
G01 X234.3718
G01 X232.4110 Y307.6937
G01 X213.0823
G01 X211.1261 Y309.5687
G01 X230.4547
G01 X228.4984 Y311.4437
G01 X209.1698
G01 X207.2135 Y313.3187
G01 X226.5421
G01 X224.5858 Y315.1937
G01 X205.2572
G01 X203.3009 Y317.0687
G01 X222.6295
G01 X220.6733 Y318.9437
G01 X201.3446
G01 X199.3883 Y320.8187
G01 X218.7170
G01 X216.7607 Y322.6937
G01 X197.4320
G01 X196.6500 Y324.5687
G01 X214.8044
G01 X212.8481 Y326.4437
G01 X196.6500
G01 Y328.3187
G01 X210.8918
G01 X209.5995
G01 Y330.1937
G01 X196.6500
G01 Y332.0687
G01 X209.5994
G01 Y333.9437
G01 X196.6500
G00 Z5.0000
G00 X218.9512 Y303.9437
G00 Z0.5000
G01 Z-2.0000 F400
G01 Y302.0687 F900
G01 X251.7477
G01 X249.7914 Y300.1937
G01 X220.9075
G01 X222.8638 Y298.3187
G01 X247.8351
G01 X245.8788 Y296.4437
G01 X224.8201
G01 X226.7764 Y294.5687
G01 X243.9225
G01 X242.0409 Y292.6937
G01 X228.6580
G01 X228.8748
G01 Y290.8187
G01 X241.8241
G01 Y288.9437
G01 X228.8748
G01 Y287.0687
G01 X241.8241
G01 Y285.1937
G01 X228.8748
G01 Y283.3187
G01 X241.8241
G01 Y281.4437
G01 X228.8748
G01 Y279.5687
G01 X241.8241
G01 Y277.6937
G01 X228.8748
G01 Y275.8187
G01 X241.8241
G01 X242.0741 Y275.8320
G01 Y273.7784
G01 X228.6248
G01 Y291.9174
G03 X228.2397 Y292.8199 I-1.2500 J0.0000
G01 X196.4000 Y323.3365
G01 Y335.9840
G01 X209.8494
G01 Y330.1974
G03 X210.2345 Y329.2950 I1.2500 J0.0000
G01 X234.4846 Y306.0526
G03 X236.2144 I0.8649 J0.9024
G01 X260.4644 Y329.2950
G03 X260.8495 Y330.1974 I-0.8649 J0.9024
G01 Y335.9840
G01 X274.2989
G01 Y323.3365
G01 X242.4592 Y292.8199
G03 X242.0741 Y291.9174 I0.8649 J-0.9024
G01 Y275.8320
G01 X241.8241 Y275.8187
G01 Z-2.5000 F400
G01 X228.8748 F900
G01 Y277.6937
G01 X241.8241
G01 Y279.5687
G01 X228.8748
G01 Y281.4437
G01 X241.8241
G01 Y283.3187
G01 X228.8748
G01 Y285.1937
G01 X241.8241
G01 Y287.0687
G01 X228.8748
G01 Y288.9437
G01 X241.8241
G01 Y290.8187
G01 X228.8748
G01 Y292.6937
G01 X228.6580
G01 X242.0409
G01 X243.9225 Y294.5687
G01 X226.7764
G01 X224.8201 Y296.4437
G01 X245.8788
G01 X247.8351 Y298.3187
G01 X222.8638
G01 X220.9075 Y300.1937
G01 X249.7914
G01 X251.7477 Y302.0687
G01 X218.9512
G01 X216.9949 Y303.9437
G01 X253.7040
G01 X255.6603 Y305.8187
G01 X236.3272
G01 X238.2880 Y307.6937
G01 X257.6166
G01 X259.5728 Y309.5687
G01 X240.2443
G01 X242.2005 Y311.4437
G01 X261.5291
G01 X263.4854 Y313.3187
G01 X244.1568
G01 X246.1131 Y315.1937
G01 X265.4417
G01 X267.3980 Y317.0687
G01 X248.0694
G01 X250.0257 Y318.9437
G01 X269.3543
G01 X271.3106 Y320.8187
G01 X251.9820
G01 X253.9383 Y322.6937
G01 X273.2669
G01 X274.0489 Y324.5687
G01 X255.8946
G01 X257.8508 Y326.4437
G01 X274.0489
G01 Y328.3187
G01 X259.8071
G01 X261.0994
G01 Y330.1937
G01 X274.0489
G01 Y332.0687
G01 X261.0995
G01 Y333.9437
G01 X274.0489
G00 Z5.0000
G00 X234.3718 Y303.9437
G00 Z-1.5000
G01 Z-2.5000 F400
G01 Y305.8187 F900
G01 X215.0386
G01 X213.0823 Y307.6937
G01 X232.4110
G01 X230.4547 Y309.5687
G01 X211.1261
G01 X209.1698 Y311.4437
G01 X228.4984
G01 X226.5421 Y313.3187
G01 X207.2135
G01 X205.2572 Y315.1937
G01 X224.5858
G01 X222.6295 Y317.0687
G01 X203.3009
G01 X201.3446 Y318.9437
G01 X220.6733
G01 X218.7170 Y320.8187
G01 X199.3883
G01 X197.4320 Y322.6937
G01 X216.7607
G01 X214.8044 Y324.5687
G01 X196.6500
G01 Y326.4437
G01 X212.8481
G01 X210.8918 Y328.3187
G01 X196.6500
G01 Y330.1937
G01 X209.5995
G01 X209.5994 Y332.0687
G01 X196.6500
G01 Y333.9437
G01 X209.5994
G01 X209.8494 Y333.9368
G01 Y330.1974
G03 X210.2345 Y329.2950 I1.2500 J0.0000
G01 X234.4846 Y306.0526
G03 X236.2144 I0.8649 J0.9024
G01 X260.4644 Y329.2950
G03 X260.8495 Y330.1974 I-0.8649 J0.9024
G01 Y335.9840
G01 X274.2989
G01 Y323.3365
G01 X242.4592 Y292.8199
G03 X242.0741 Y291.9174 I0.8649 J-0.9024
G01 Y273.7784
G01 X228.6248
G01 Y291.9174
G03 X228.2397 Y292.8199 I-1.2500 J0.0000
G01 X196.4000 Y323.3365
G01 Y335.9840
G01 X209.8494
G01 Y333.9368
G01 X209.5994 Y333.9437
G00 Z5.0000


;No. 53: Hole 36
G00 X180.3736 Y291.3728 Z5.0000
G00 Z0.5000
G01 Z0.0000 F400
G01 Z-1.5000
G01 X156.4099 F900
G01 Y293.2478
G01 X159.5199
G01 X159.2701
G01 Y295.1228
G01 X156.4099
G01 Y296.9978
G01 X159.2701
G01 Y298.8728
G01 X156.4099
G01 Y300.7478
G01 X159.2701
G01 Y302.6228
G01 X156.4099
G01 Y304.4978
G01 X159.2701
G01 Y306.3728
G01 X156.4099
G01 Y308.2478
G01 X159.2701
G01 X159.5201 Y308.2337
G01 Y294.0764
G03 X160.7801 Y292.8264 I1.2501 J0.0000
G01 X181.1514 Y292.8199
G02 X177.3283 Y289.4662 I-3.8199 J0.4986
G01 X156.1599
G01 Y310.1544
G01 X159.5201
G01 Y308.2337
G01 X159.2701 Y308.2478
G00 Z5.0000


;No. 54: Hole 37
G00 X149.8899 Y291.1463 Z5.0000
G00 Z0.5000
G01 Z0.0000 F400
G01 Z-1.5000
G01 X126.7894 F900
G01 X126.5788 Y291.0107
G02 X125.8665 Y292.8264 I3.0330 J2.2375
G01 X150.8281 Y292.8199
G02 X147.0050 Y289.4662 I-3.8198 J0.4986
G01 X129.6895
G02 X126.5788 Y291.0107 I-0.0761 J3.7515
G01 X126.7894 Y291.1463
G00 Z5.0000


;No. 55: Hole 35
G00 X126.7909 Y299.8092 Z5.0000
G00 Z0.5000
G01 Z0.0000 F400
G01 Z-1.5000
G01 X149.8884 F900
G01 X150.0952 Y299.6682
G02 X147.0050 Y298.1292 I-3.0835 J2.3195
G01 X129.6895
G02 X125.8665 Y301.4893 I-0.0676 J3.7780
G01 X150.8283 Y301.4844
G02 X150.0952 Y299.6682 I-3.6409 J0.4135
G01 X149.8884 Y299.8092
G00 Z5.0000


;No. 56: Hole 34
G00 X149.8899 Y308.4743 Z5.0000
G00 Z0.5000
G01 Z0.0000 F400
G01 Z-1.5000
G01 X126.7894 F900
G01 X126.5788 Y308.3387
G02 X125.8665 Y310.1544 I3.0330 J2.2375
G01 X150.8281 Y310.1479
G02 X147.0050 Y306.7942 I-3.8198 J0.4986
G01 X129.7362 Y306.7937
G02 X126.5788 Y308.3387 I-0.1179 J3.7576
G01 X126.7894 Y308.4743
G00 Z5.0000


;No. 57: Hole 33
G00 X120.2839 Y308.2478 Z5.0000
G00 Z0.5000
G01 Z0.0000 F400
G01 Z-1.5000
G01 X96.6471 F900
G01 X117.1718
G01 Y306.3728
G01 X120.2839
G01 Y304.4978
G01 X117.4216
G01 Y302.6228
G01 X120.2839
G01 Y300.7478
G01 X117.4216
G01 Y298.8728
G01 X120.2839
G01 Y296.9978
G01 X117.4216
G01 X117.4036 Y295.1228
G01 X120.2839
G01 X120.2829 Y293.2478
G01 X116.3876
G01 X119.7269 Y291.3728
G01 X95.7632
G01 Y293.2478
G01 X98.8732
G01 X98.6234
G01 Y295.1228
G01 X95.7632
G01 Y296.9978
G01 X98.6234
G01 Y298.8728
G01 X95.7632
G01 Y300.7478
G01 X98.6234
G01 X98.8734 Y300.7116
G01 Y294.0763
G03 X100.1234 Y292.8263 I1.2500 J0.0000
G01 X114.5550
G03 X117.1716 Y295.4625 I-0.0166 J2.6332
G01 Y305.5442
G03 X115.9216 Y306.7942 I-1.2500 J0.0000
G01 X99.3608
G02 X95.5419 Y310.1526 I-0.0614 J3.7807
G01 X120.5339 Y310.1544
G01 Y293.3209
G02 X116.6816 Y289.4662 I-3.8422 J-0.0124
G01 X95.5132
G01 Y301.4893
G01 X98.8734
G01 Y300.7116
G01 X98.6234 Y300.7478
G00 Z5.0000


;No. 58: Hole 32
G00 X89.9603 Y300.1653 Z5.0000
G00 Z0.5000
G01 Z0.0000 F400
G01 Z-1.5000
G01 X87.0980 F900
G01 Y298.2903
G01 X89.9603
G01 Y296.4153
G01 X87.0980
G01 Y294.5403
G01 X89.9603
G01 Y292.6653
G01 X86.1048
G01 X89.9603 Y290.7903
G01 X65.4397
G01 Y292.6653
G01 X69.2930
G01 X68.2998
G01 Y294.5403
G01 X65.4397
G01 Y296.4153
G01 X68.2998
G01 Y298.2903
G01 X65.4397
G01 Y300.1653
G01 X68.2998
G01 X68.5498 Y300.1470
G01 Y294.0764
G03 X69.7998 Y292.8264 I1.2500 J0.0000
G01 X85.5980
G03 X86.8480 Y294.0764 I0.0000 J1.2500
G01 Y301.4893
G01 X90.2103
G01 Y289.4662
G01 X65.1897
G01 Y301.4893
G01 X68.5498
G01 Y300.1470
G01 X68.2998 Y300.1653
G00 Z5.0000


;No. 59: Hole 31
G00 X66.1406 Y308.4743 Z5.0000
G00 Z0.5000
G01 Z0.0000 F400
G01 Z-1.5000
G01 X89.2409 F900
G01 X89.4462 Y308.3312
G02 X86.3580 Y306.7942 I-3.0765 J2.3104
G01 X69.0471 Y306.7941
G02 X65.2197 Y310.1544 I-0.0719 J3.7780
G01 X90.1810 Y310.1478
G02 X89.4462 Y308.3312 I-3.6487 J0.4189
G01 X89.2409 Y308.4743
G00 Z5.0000


;No. 60: Hole 30
G00 X56.9400 Y308.2478 Z5.0000
G00 Z0.5000
G01 Z0.0000 F400
G01 Z-1.5000
G01 X52.5219 F900
G01 X50.6469 Y306.3728
G01 X55.3540
G01 X55.3044 Y304.4978
G01 X48.7719
G01 X46.8969 Y302.6228
G01 X55.3044
G01 Y300.7478
G01 X52.3084
G01 X52.4421 Y298.8728
G01 X55.3044
G01 Y296.9978
G01 X52.4421
G01 Y295.1228
G01 X55.3044
G01 Y293.2478
G01 X52.4421
G01 Y291.3728
G01 X55.3044
G00 Z5.0000
G00 X49.4378 Y302.6228
G00 Z0.5000
G01 Z-1.5000 F400
G01 Y300.7478 F900
G01 X45.0219
G01 X47.5628 Y298.8728
G01 X38.5231
G01 X40.3981 Y296.9978
G01 X45.6878
G01 X44.4730
G01 Y295.1228
G01 X41.6129
G01 Y293.2478
G01 X44.4730
G01 Y291.3728
G01 X41.6129
G00 Z5.0000
G00 X41.0642 Y298.8728
G00 Z0.5000
G01 Z-1.5000 F400
G01 Y300.7478 F900
G01 X36.6481
G01 X39.1896 Y302.6228
G01 X30.7837
G01 Y300.7478
G01 X33.7775
G01 X33.6438 Y298.8728
G01 X30.7837
G01 Y296.9978
G01 X33.6438
G01 Y295.1228
G01 X30.7837
G01 Y293.2478
G01 X33.6438
G01 Y291.3728
G01 X30.7837
G00 Z5.0000
G00 Y302.6228
G00 Z0.5000
G01 Z-1.5000 F400
G01 Y304.4978 F900
G01 X37.3150
G01 X35.4404 Y306.3728
G01 X30.7341
G01 Y308.2478
G01 X29.1481
G01 X33.5658
G01 X33.7497 Y308.4174
G01 X42.1590 Y300.0064
G03 X43.9268 Y300.0063 I0.8840 J0.8838
G01 X54.0749 Y310.1544
G01 X59.2001
G01 X55.9205 Y306.8747
G03 X55.5544 Y305.9909 I0.8839 J-0.8839
G01 Y289.4662
G01 X52.1921
G01 Y300.1307
G03 X50.0582 Y301.0146 I-1.2500 J0.0000
G01 X45.0891 Y296.0456
G03 X44.7230 Y295.1617 I0.8839 J-0.8839
G01 Y289.4662
G01 X41.3629
G01 Y295.1617
G03 X40.9968 Y296.0456 I-1.2500 J0.0000
G01 X36.0277 Y301.0146
G03 X33.8938 Y300.1307 I-0.8839 J-0.8839
G01 Y289.4662
G01 X30.5337
G01 Y305.9909
G03 X30.1676 Y306.8747 I-1.2500 J0.0000
G01 X26.8880 Y310.1544
G01 X32.0131
G01 X33.7497 Y308.4174
G01 X33.5658 Y308.2478
G00 Z5.0000


;No. 61: Helical drill 5
G00 X28.6342 Y350.8070 Z5.0000
G00 Z0.5000
G02 X26.9467 Y349.8328 Z-0.0417 I-1.1250 J0.0000 F400
G02 Y351.7813 Z-0.5833 I0.5625 J0.9743
G02 X28.6342 Y350.8070 Z-1.1250 I0.5625 J-0.9743
G02 X26.9467 Y349.8328 I-1.1250 J0.0000
G02 Y351.7813 I0.5625 J0.9743
G02 X28.6342 Y350.8070 I0.5625 J-0.9743
G02 X28.6568 Y350.3317 I-1.1145 J-0.2913 F900
G02 X28.3931 Y349.9232 I-1.1585 J0.4585
G02 X27.9875 Y349.6522 I-0.8839 J0.8839
G02 X27.5092 Y349.5570 I-0.4784 J1.1549
G02 X27.0308 Y349.6522 I0.0000 J1.2500
G02 X26.6253 Y349.9232 I0.4784 J1.1549
G02 X26.3543 Y350.3287 I0.8839 J0.8839
G02 X26.2592 Y350.8070 I1.1549 J0.4784
G02 X26.3543 Y351.2854 I1.2500 J0.0000
G02 X26.6253 Y351.6909 I1.1549 J-0.4784
G02 X27.0308 Y351.9619 I0.8839 J-0.8839
G02 X27.5092 Y352.0570 I0.4784 J-1.1549
G02 X27.9875 Y351.9619 I0.0000 J-1.2500
G02 X28.3931 Y351.6909 I-0.4784 J-1.1549
G02 X28.6640 Y351.2854 I-0.8839 J-0.8839
G02 X28.7592 Y350.8070 I-1.1549 J-0.4784
G02 X26.8842 Y349.7245 I-1.2500 J0.0000
G02 Y351.8896 I0.6250 J1.0825
G02 X28.7592 Y350.8070 I0.6250 J-1.0825
G02 X26.3842 I-1.1875 J0.0000
G02 X28.6342 I1.1250 J0.0000
G02 X26.9467 Y349.8328 Z-1.6667 I-1.1250 J0.0000 F400
G02 Y351.7813 Z-2.2083 I0.5625 J0.9743
G02 X28.6342 Y350.8070 Z-2.7500 I0.5625 J-0.9743
G02 X26.9467 Y349.8328 I-1.1250 J0.0000
G02 Y351.7813 I0.5625 J0.9743
G02 X28.6342 Y350.8070 I0.5625 J-0.9743
G02 X28.6568 Y350.3317 I-1.1145 J-0.2913 F900
G02 X28.3931 Y349.9232 I-1.1585 J0.4585
G02 X27.9875 Y349.6522 I-0.8839 J0.8839
G02 X27.5092 Y349.5570 I-0.4784 J1.1549
G02 X27.0308 Y349.6522 I0.0000 J1.2500
G02 X26.6253 Y349.9232 I0.4784 J1.1549
G02 X26.3543 Y350.3287 I0.8839 J0.8839
G02 X26.2592 Y350.8070 I1.1549 J0.4784
G02 X26.3543 Y351.2854 I1.2500 J0.0000
G02 X26.6253 Y351.6909 I1.1549 J-0.4784
G02 X27.0308 Y351.9619 I0.8839 J-0.8839
G02 X27.5092 Y352.0570 I0.4784 J-1.1549
G02 X27.9875 Y351.9619 I0.0000 J-1.2500
G02 X28.3931 Y351.6909 I-0.4784 J-1.1549
G02 X28.6640 Y351.2854 I-0.8839 J-0.8839
G02 X28.7592 Y350.8070 I-1.1549 J-0.4784
G02 X26.8842 Y349.7245 I-1.2500 J0.0000
G02 Y351.8896 I0.6250 J1.0825
G02 X28.7592 Y350.8070 I0.6250 J-1.0825
G02 X26.3842 I-1.1875 J0.0000
G02 X28.6342 I1.1250 J0.0000
G02 X26.9467 Y349.8328 Z-3.2917 I-1.1250 J0.0000 F400
G02 Y351.7813 Z-3.8333 I0.5625 J0.9743
G02 X28.6342 Y350.8070 Z-4.3750 I0.5625 J-0.9743
G02 X26.9467 Y349.8328 I-1.1250 J0.0000
G02 Y351.7813 I0.5625 J0.9743
G02 X28.6342 Y350.8070 I0.5625 J-0.9743
G02 X28.6568 Y350.3317 I-1.1145 J-0.2913 F900
G02 X28.3931 Y349.9232 I-1.1585 J0.4585
G02 X27.9875 Y349.6522 I-0.8839 J0.8839
G02 X27.5092 Y349.5570 I-0.4784 J1.1549
G02 X27.0308 Y349.6522 I0.0000 J1.2500
G02 X26.6253 Y349.9232 I0.4784 J1.1549
G02 X26.3543 Y350.3287 I0.8839 J0.8839
G02 X26.2592 Y350.8070 I1.1549 J0.4784
G02 X26.3543 Y351.2854 I1.2500 J0.0000
G02 X26.6253 Y351.6909 I1.1549 J-0.4784
G02 X27.0308 Y351.9619 I0.8839 J-0.8839
G02 X27.5092 Y352.0570 I0.4784 J-1.1549
G02 X27.9875 Y351.9619 I0.0000 J-1.2500
G02 X28.3931 Y351.6909 I-0.4784 J-1.1549
G02 X28.6640 Y351.2854 I-0.8839 J-0.8839
G02 X28.7592 Y350.8070 I-1.1549 J-0.4784
G02 X26.8842 Y349.7245 I-1.2500 J0.0000
G02 Y351.8896 I0.6250 J1.0825
G02 X28.7592 Y350.8070 I0.6250 J-1.0825
G02 X26.3842 I-1.1875 J0.0000
G02 X28.6342 I1.1250 J0.0000
G02 X26.9467 Y349.8328 Z-4.9167 I-1.1250 J0.0000 F400
G02 Y351.7813 Z-5.4583 I0.5625 J0.9743
G02 X28.6342 Y350.8070 Z-6.0000 I0.5625 J-0.9743
G02 X26.9467 Y349.8328 I-1.1250 J0.0000
G02 Y351.7813 I0.5625 J0.9743
G02 X28.6342 Y350.8070 I0.5625 J-0.9743
G02 X28.6568 Y350.3317 I-1.1145 J-0.2913 F900
G02 X28.3931 Y349.9232 I-1.1585 J0.4585
G02 X27.9875 Y349.6522 I-0.8839 J0.8839
G02 X27.5092 Y349.5570 I-0.4784 J1.1549
G02 X27.0308 Y349.6522 I0.0000 J1.2500
G02 X26.6253 Y349.9232 I0.4784 J1.1549
G02 X26.3543 Y350.3287 I0.8839 J0.8839
G02 X26.2592 Y350.8070 I1.1549 J0.4784
G02 X26.3543 Y351.2854 I1.2500 J0.0000
G02 X26.6253 Y351.6909 I1.1549 J-0.4784
G02 X27.0308 Y351.9619 I0.8839 J-0.8839
G02 X27.5092 Y352.0570 I0.4784 J-1.1549
G02 X27.9875 Y351.9619 I0.0000 J-1.2500
G02 X28.3931 Y351.6909 I-0.4784 J-1.1549
G02 X28.6640 Y351.2854 I-0.8839 J-0.8839
G02 X28.7592 Y350.8070 I-1.1549 J-0.4784
G02 X26.8842 Y349.7245 I-1.2500 J0.0000
G02 Y351.8896 I0.6250 J1.0825
G02 X28.7592 Y350.8070 I0.6250 J-1.0825
G02 X27.5092 Y349.5570 Z-5.5000 I-1.2500 J0.0000 F400
G00 Z5.0000


;No. 62: Part 1
G00 X18.0207 Y195.5709 Z5.0000
G00 Z0.5000
G01 Z0.0000 F400
G01 Z-2.0000
G03 X30.1480 Y191.8591 I12.0874 J17.8250 F900
G01 X269.8706
G03 X280.8492 Y194.8435 I0.0393 J21.5405
G03 X285.8675 Y198.9303 I-10.9736 J18.5995
G01 X285.8700 Y198.9331
G03 X291.4740 Y213.4946 I-15.9917 J14.5136
G01 Y348.1191
G03 X288.3285 Y359.3905 I-21.6191 J0.0414
G03 X284.1748 Y364.3536 I-18.4677 J-11.2364
G01 X284.1720 Y364.3560
G03 X269.8705 Y369.7545 I-14.2583 J-16.1299
G01 X30.1478
G03 X17.1630 Y365.4300 I-0.0426 J-21.5283
G03 X12.6295 Y360.8061 I12.9987 J-17.2789
G03 X8.5444 Y348.1190 I17.5188 J-12.6421
G01 Y213.4945
G03 X13.2670 Y199.9681 I21.5984 J-0.0468
G03 X18.0207 Y195.5709 I16.8872 J13.4882
G01 Z-4.0000 F400
G03 X30.1480 Y191.8591 I12.0874 J17.8250 F900
G01 X269.8706
G03 X280.8492 Y194.8435 I0.0393 J21.5405
G00 Z-3.0000
G03 X285.8675 Y198.9303 I-10.9736 J18.5995
G01 Z-4.0000 F400
G01 X285.8700 Y198.9331 F900
G03 X291.4740 Y213.4946 I-15.9917 J14.5136
G01 Y348.1191
G03 X288.3285 Y359.3905 I-21.6191 J0.0414
G00 Z-3.0000
G03 X284.1748 Y364.3536 I-18.4677 J-11.2364
G01 Z-4.0000 F400
G01 X284.1720 Y364.3560 F900
G03 X269.8705 Y369.7545 I-14.2583 J-16.1299
G01 X30.1478
G03 X17.1630 Y365.4300 I-0.0426 J-21.5283
G00 Z-3.0000
G03 X12.6295 Y360.8061 I12.9987 J-17.2789
G01 Z-4.0000 F400
G03 X8.5444 Y348.1190 I17.5188 J-12.6421 F900
G01 Y213.4945
G03 X13.2670 Y199.9681 I21.5984 J-0.0468
G00 Z-3.0000
G03 X18.0207 Y195.5709 I16.8872 J13.4882
G00 Z-3.5000
G01 Z-4.0000 F400
G01 Z-6.0000
G03 X30.1480 Y191.8591 I12.0874 J17.8250 F900
G01 X269.8706
G03 X280.8492 Y194.8435 I0.0393 J21.5405
G00 Z-3.0000
G03 X285.8675 Y198.9303 I-10.9736 J18.5995
G00 Z-3.5000
G01 Z-4.0000 F400
G01 Z-6.0000
G01 X285.8700 Y198.9331 F900
G03 X291.4740 Y213.4946 I-15.9917 J14.5136
G01 Y348.1191
G03 X288.3285 Y359.3905 I-21.6191 J0.0414
G00 Z-3.0000
G03 X284.1748 Y364.3536 I-18.4677 J-11.2364
G00 Z-3.5000
G01 Z-4.0000 F400
G01 Z-6.0000
G01 X284.1720 Y364.3560 F900
G03 X269.8705 Y369.7545 I-14.2583 J-16.1299
G01 X30.1478
G03 X17.1630 Y365.4300 I-0.0426 J-21.5283
G00 Z-3.0000
G03 X12.6295 Y360.8061 I12.9987 J-17.2789
G00 Z-3.5000
G01 Z-4.0000 F400
G01 Z-6.0000
G03 X8.5444 Y348.1190 I17.5188 J-12.6421 F900
G01 Y213.4945
G03 X13.2670 Y199.9681 I21.5984 J-0.0468
G00 Z-3.0000
G03 X18.0207 Y195.5709 I16.8872 J13.4882
G00 Z5.0000


;No. 63: Part 1
G00 X18.0207 Y195.5709 Z5.0000
G00 Z0.5000
G01 Z-6.0000 F400
G01 X18.2548 Y195.7752 F900
G03 X30.1491 Y192.1591 I11.8528 J17.6173
G01 X269.8694
G03 X280.6284 Y195.0622 I0.0411 J21.2359
G01 X280.8492 Y194.8435
G00 Z-3.0000
G01 X280.6284 Y195.0622
G03 X285.6552 Y199.1430 I-10.7403 J18.3666
G01 X285.8675 Y198.9303
G01 Z-6.0000 F400
G01 X285.6552 Y199.1430 F900
G03 X291.1740 Y213.4958 I-15.7765 J14.3036
G01 Y348.1180
G03 X288.1129 Y359.1668 I-21.3150 J0.0431
G01 X288.3285 Y359.3905
G00 Z-3.0000
G01 X288.1129 Y359.1668
G03 X283.9649 Y364.1385 I-18.2381 J-11.0002
G01 X284.1748 Y364.3536
G01 Z-6.0000 F400
G01 X283.9649 Y364.1385 F900
G03 X269.8693 Y369.4545 I-14.0512 J-15.9119
G01 X30.1490
G03 X17.3524 Y365.1969 I-0.0439 J-21.2276
G01 X17.1630 Y365.4300
G00 Z-3.0000
G01 X17.3524 Y365.1969
G03 X12.8269 Y360.5662 I12.7973 J-17.0331
G01 X12.6295 Y360.8061
G01 Z-6.0000 F400
G01 X12.8269 Y360.5662 F900
G03 X8.8444 Y348.1178 I17.3184 J-12.4017
G01 Y213.4956
G03 X13.4945 Y200.1641 I21.2978 J-0.0481
G01 X13.2670 Y199.9681
G00 Z-3.0000
G01 X13.4945 Y200.1641
G03 X18.2548 Y195.7752 I16.6465 J13.2792
G01 X18.0207 Y195.5709
G00 Z5.0000


;No. 64: Part 2
G00 X12.2347 Y178.0115 Z5.0000
G00 Z0.5000
G01 Z0.0000 F400
G01 Z-2.0000
G03 X8.5388 Y165.8817 I17.9181 J-12.0875 F900
G01 Y31.2572
G03 X14.6075 Y16.1996 I21.5938 J-0.0487
G03 X19.7545 Y12.2701 I15.5205 J14.9940
G03 X30.1423 Y9.6218 I10.3514 J18.9060
G01 X269.8650
G03 X281.1647 Y12.7992 I0.0390 J21.5428
G03 X286.1135 Y16.9756 I-11.3008 J18.4109
G03 X291.4684 Y31.2573 I-16.2411 J14.2343
G01 Y165.8818
G03 X289.1328 Y175.6990 I-21.6499 J0.0358
G03 X285.3703 Y180.9694 I-19.2580 J-9.7701
G03 X269.8648 Y187.5172 I-15.4621 J-14.9821
G01 X30.1421
G03 X16.6207 Y182.7756 I-0.0432 J-21.5270
G03 X12.2347 Y178.0115 I13.5333 J-16.8604
G01 Z-4.0000 F400
G03 X8.5388 Y165.8817 I17.9181 J-12.0875 F900
G01 Y31.2572
G03 X14.6075 Y16.1996 I21.5938 J-0.0487
G00 Z-3.0000
G03 X19.7545 Y12.2701 I15.5205 J14.9940
G01 Z-4.0000 F400
G03 X30.1423 Y9.6218 I10.3514 J18.9060 F900
G01 X269.8650
G03 X281.1647 Y12.7992 I0.0390 J21.5428
G00 Z-3.0000
G03 X286.1135 Y16.9756 I-11.3008 J18.4109
G01 Z-4.0000 F400
G03 X291.4684 Y31.2573 I-16.2411 J14.2343 F900
G01 Y165.8818
G03 X289.1328 Y175.6990 I-21.6499 J0.0358
G00 Z-3.0000
G03 X285.3703 Y180.9694 I-19.2580 J-9.7701
G01 Z-4.0000 F400
G03 X269.8648 Y187.5172 I-15.4621 J-14.9821 F900
G01 X30.1421
G03 X16.6207 Y182.7756 I-0.0432 J-21.5270
G00 Z-3.0000
G03 X12.2347 Y178.0115 I13.5333 J-16.8604
G00 Z-3.5000
G01 Z-4.0000 F400
G01 Z-6.0000
G03 X8.5388 Y165.8817 I17.9181 J-12.0875 F900
G01 Y31.2572
G03 X14.6075 Y16.1996 I21.5938 J-0.0487
G00 Z-3.0000
G03 X19.7545 Y12.2701 I15.5205 J14.9940
G00 Z-3.5000
G01 Z-4.0000 F400
G01 Z-6.0000
G03 X30.1423 Y9.6218 I10.3514 J18.9060 F900
G01 X269.8650
G03 X281.1647 Y12.7992 I0.0390 J21.5428
G00 Z-3.0000
G03 X286.1135 Y16.9756 I-11.3008 J18.4109
G00 Z-3.5000
G01 Z-4.0000 F400
G01 Z-6.0000
G03 X291.4684 Y31.2573 I-16.2411 J14.2343 F900
G01 Y165.8818
G03 X289.1328 Y175.6990 I-21.6499 J0.0358
G00 Z-3.0000
G03 X285.3703 Y180.9694 I-19.2580 J-9.7701
G00 Z-3.5000
G01 Z-4.0000 F400
G01 Z-6.0000
G03 X269.8648 Y187.5172 I-15.4621 J-14.9821 F900
G01 X30.1421
G03 X16.6207 Y182.7756 I-0.0432 J-21.5270
G00 Z-3.0000
G03 X12.2347 Y178.0115 I13.5333 J-16.8604
G00 Z5.0000


;No. 65: Part 2
G00 X12.2347 Y178.0115 Z5.0000
G00 Z0.5000
G01 Z-6.0000 F400
G01 X12.4395 Y177.7779 F900
G03 X8.8388 Y165.8806 I17.7100 J-11.8535
G01 Y31.2584
G03 X14.8155 Y16.4162 I21.2933 J-0.0499
G01 X14.6075 Y16.1996
G00 Z-3.0000
G01 X14.8155 Y16.4162
G03 X19.9683 Y12.4956 I15.3004 J14.7629
G01 X19.7545 Y12.2701
G01 Z-6.0000 F400
G01 X19.9683 Y12.4956 F900
G03 X30.1434 Y9.9218 I10.1371 J18.6757
G01 X269.8638
G03 X280.9981 Y13.0491 I0.0403 J21.2418
G01 X281.1647 Y12.7992
G00 Z-3.0000
G01 X280.9981 Y13.0491
G03 X285.9395 Y17.2330 I-11.1233 J18.1471
G01 X286.1135 Y16.9756
G01 Z-6.0000 F400
G01 X285.9395 Y17.2330 F900
G03 X291.1684 Y31.2585 I-16.0647 J13.9765
G01 Y165.8807
G03 X288.8703 Y175.5532 I-21.3486 J0.0371
G01 X289.1328 Y175.6990
G00 Z-3.0000
G01 X288.8703 Y175.5532
G03 X285.0996 Y180.8168 I-18.9805 J-9.6145
G01 X285.3703 Y180.9694
G01 Z-6.0000 F400
G01 X285.0996 Y180.8168 F900
G03 X269.8637 Y187.2172 I-15.1910 J-14.8272
G01 X30.1433
G03 X16.8172 Y182.5486 I-0.0444 J-21.2263
G01 X16.6207 Y182.7756
G00 Z-3.0000
G01 X16.8172 Y182.5486
G03 X12.4395 Y177.7779 I13.3238 J-16.6204
G01 X12.2347 Y178.0115
G00 Z5.0000
G00 X0.0000 Y0.0000

M05
