;Project 2xTeslaElectricVehiclesWeiss2x
;Created by Estlcam version 11 build 11,236
;Machining time about 00:23:11 hours

G90
M03 S18000
G00 X0.0000 Y0.0000 Z0.0000
G00 Z2.0000


;No. 1: Hole 18
G00 X27.5800 Y138.9986
G00 Z0.5000
G01 Z0.0000 F400 S18000
G01 Z-2.0000
M106 S240
G01 X31.9953 F1000
G01 X36.0957 Y140.4986
G01 X26.8515
G01 X29.4109 Y141.9986
G01 X40.7155
G01 Y143.4986
G01 X46.0926
G01 X33.7419
G01 X38.5784
G01 Y144.9986
G01 X52.7185
G01 Y146.4986
G01 X44.1036
G01 X62.0623
G01 Y147.9986
G01 X50.6961
G01 X108.7835
G01 Y146.4986
G01 X115.3495
G01 X97.4351
G01 X106.6674
G01 Y144.9986
G01 X120.8460
G01 Y143.4986
G01 X125.6679
G01 X113.2977
G01 X118.7064
G01 Y141.9986
G01 X130.0181
G01 X132.5864 Y140.4986
G01 X123.3517
G01 X127.4533 Y138.9986
G01 X131.8739
M107
G00 Z2.0000
G00 X100.1448 Y147.9986
G00 Z0.5000
G01 Z-2.0000 F400
M106 S240
G01 Y149.4986 F1000
G01 X59.3210
G01 X59.2174 Y149.7463
G01 X61.3336 Y150.0408
G01 X63.4539 Y150.3032
G01 X65.5780 Y150.5336
G01 X67.7054 Y150.7318
G01 X69.8355 Y150.8979
G01 X71.9678 Y151.0317
G01 X74.1020 Y151.1333
G01 X76.2374 Y151.2025
G01 X78.3737 Y151.2395
G01 X80.5102 Y151.2442
G01 X82.6466 Y151.2165
G01 X84.7823 Y151.1566
G01 X86.9169 Y151.0644
G01 X89.0498 Y150.9399
G01 X91.1806 Y150.7831
G01 X93.3088 Y150.5942
G01 X95.4339 Y150.3731
G01 X97.5554 Y150.1199
G01 X99.6728 Y149.8346
G01 X101.7857 Y149.5174
G01 X103.7925 Y149.1910
G01 X105.7947 Y148.8376
G01 X107.7920 Y148.4574
G01 X109.7840 Y148.0504
G01 X111.7704 Y147.6166
G01 X113.7507 Y147.1562
G01 X115.7247 Y146.6692
G01 X117.6920 Y146.1557
G01 X119.6522 Y145.6158
G01 X121.6049 Y145.0496
G01 X123.5499 Y144.4572
G01 X125.4867 Y143.8387
G01 X127.4150 Y143.1943
G01 X129.3345 Y142.5239
G01 X131.2448 Y141.8279
G01 X133.1456 Y141.1062
G01 X132.6924 Y140.1157
G01 X132.2267 Y139.1310
G01 X131.7485 Y138.1523
G01 X131.2580 Y137.1797
G01 X129.2892 Y137.9901
G01 X127.3071 Y138.7678
G01 X125.3125 Y139.5124
G01 X123.3057 Y140.2238
G01 X121.2874 Y140.9018
G01 X119.2582 Y141.5462
G01 X117.2185 Y142.1569
G01 X115.1690 Y142.7335
G01 X113.1101 Y143.2761
G01 X111.0426 Y143.7845
G01 X108.9669 Y144.2584
G01 X106.8836 Y144.6978
G01 X104.7933 Y145.1026
G01 X102.6966 Y145.4726
G01 X100.5940 Y145.8078
G01 X98.4861 Y146.1080
G01 X96.3736 Y146.3732
G01 X94.2569 Y146.6033
G01 X92.1367 Y146.7982
G01 X90.0136 Y146.9579
G01 X87.8166 Y147.0616
G01 X85.6186 Y147.1418
G01 X83.4199 Y147.1985
G01 X81.2207 Y147.2315
G01 X79.0213 Y147.2410
G01 X76.8219 Y147.2269
G01 X74.6228 Y147.1892
G01 X72.4242 Y147.1280
G01 X70.2731 Y147.0143
G01 X68.1241 Y146.8649
G01 X65.9779 Y146.6798
G01 X63.8350 Y146.4591
G01 X61.6962 Y146.2028
G01 X59.5618 Y145.9109
G01 X57.4327 Y145.5837
G01 X55.3092 Y145.2211
G01 X53.1921 Y144.8233
G01 X51.0819 Y144.3904
G01 X48.9791 Y143.9224
G01 X46.8845 Y143.4196
G01 X44.7984 Y142.8821
G01 X42.7216 Y142.3099
G01 X40.6546 Y141.7034
G01 X38.5980 Y141.0626
G01 X37.2828 Y140.6263
G01 X35.9721 Y140.1766
G01 X34.6661 Y139.7136
G01 X33.3649 Y139.2373
G01 X32.0686 Y138.7479
G01 X30.7773 Y138.2452
G01 X29.4912 Y137.7294
G01 X28.2104 Y137.2006
G01 X27.7092 Y138.1670
G01 X27.2207 Y139.1398
G01 X26.7449 Y140.1190
G01 X26.2820 Y141.1043
G01 X28.2759 Y141.8611
G01 X30.2803 Y142.5896
G01 X32.2948 Y143.2896
G01 X34.3190 Y143.9611
G01 X36.3525 Y144.6039
G01 X38.3949 Y145.2178
G01 X40.4458 Y145.8027
G01 X42.5048 Y146.3586
G01 X44.5714 Y146.8852
G01 X46.6453 Y147.3826
G01 X48.7260 Y147.8506
G01 X50.8131 Y148.2890
G01 X52.9063 Y148.6979
G01 X55.0050 Y149.0771
G01 X57.1088 Y149.4266
G01 X59.2174 Y149.7463
G01 X59.3210 Y149.4986
M107
G00 Z2.0000


;No. 2: Hole 18
G00 X28.2104 Y137.2006 Z2.0000
G00 Z0.5000
G01 Z-2.0000 F400
M106 S240
G01 X28.0673 Y136.8250 F1000
G01 X27.4956 Y137.9233
G01 X26.9403 Y139.0301
G01 X26.4016 Y140.1450
G01 X25.8796 Y141.2678
G01 X27.9137 Y142.0448
G01 X29.9588 Y142.7923
G01 X32.0146 Y143.5100
G01 X34.0805 Y144.1980
G01 X36.1562 Y144.8559
G01 X38.2412 Y145.4837
G01 X40.3351 Y146.0812
G01 X42.4373 Y146.6484
G01 X44.5476 Y147.1850
G01 X46.6655 Y147.6911
G01 X48.7904 Y148.1664
G01 X50.9220 Y148.6109
G01 X53.0599 Y149.0244
G01 X55.2034 Y149.4070
G01 X57.3523 Y149.7585
G01 X59.5061 Y150.0788
G01 X61.6643 Y150.3680
G01 X63.8264 Y150.6258
G01 X65.9921 Y150.8523
G01 X68.1608 Y151.0474
G01 X70.3321 Y151.2111
G01 X72.5055 Y151.3433
G01 X74.6806 Y151.4440
G01 X76.8570 Y151.5132
G01 X78.6412 Y151.5346
G01 X80.4256 Y151.5342
G01 X82.2098 Y151.5120
G01 X83.9937 Y151.4679
G01 X85.7768 Y151.4020
G01 X87.5591 Y151.3142
G01 X89.3401 Y151.2047
G01 X91.1196 Y151.0734
G01 X92.8974 Y150.9203
G01 X94.6732 Y150.7455
G01 X96.4467 Y150.5489
G01 X98.2177 Y150.3307
G01 X99.9859 Y150.0908
G01 X101.7510 Y149.8292
G01 X103.5128 Y149.5461
G01 X105.2709 Y149.2415
G01 X107.0792 Y148.9046
G01 X108.8832 Y148.5459
G01 X110.6828 Y148.1655
G01 X112.4776 Y147.7633
G01 X114.2675 Y147.3395
G01 X116.0521 Y146.8941
G01 X117.8312 Y146.4272
G01 X119.6045 Y145.9389
G01 X121.3718 Y145.4292
G01 X123.1329 Y144.8982
G01 X124.8874 Y144.3460
G01 X126.6351 Y143.7726
G01 X128.3757 Y143.1781
G01 X130.1090 Y142.5627
G01 X131.8348 Y141.9264
G01 X133.5528 Y141.2694
G01 X133.0372 Y140.1410
G01 X132.5062 Y139.0199
G01 X131.9597 Y137.9062
G01 X131.3980 Y136.8001
G01 X130.3831 Y137.2085
G01 X129.3688 Y137.6181
G01 X128.3550 Y138.0291
G01 X127.3417 Y138.4414
G01 X125.4506 Y139.1488
G01 X123.5487 Y139.8263
G01 X121.6364 Y140.4738
G01 X119.7140 Y141.0911
G01 X117.7823 Y141.6781
G01 X115.8415 Y142.2346
G01 X113.8922 Y142.7606
G01 X111.9348 Y143.2557
G01 X109.9699 Y143.7200
G01 X107.9980 Y144.1533
G01 X106.0194 Y144.5556
G01 X104.0348 Y144.9266
G01 X102.0446 Y145.2664
G01 X100.0493 Y145.5747
G01 X98.0494 Y145.8517
G01 X96.0454 Y146.0971
G01 X94.0377 Y146.3110
G01 X92.0269 Y146.4932
G01 X90.0136 Y146.6438
G01 X87.9981 Y146.7627
G01 X86.0540 Y146.8342
G01 X84.1094 Y146.8876
G01 X82.1644 Y146.9230
G01 X80.2191 Y146.9402
G01 X78.2738 Y146.9394
G01 X76.3285 Y146.9205
G01 X74.3835 Y146.8835
G01 X72.4390 Y146.8284
G01 X70.2927 Y146.7150
G01 X68.1487 Y146.5659
G01 X66.0074 Y146.3813
G01 X63.8695 Y146.1610
G01 X61.7355 Y145.9053
G01 X59.6061 Y145.6142
G01 X57.4818 Y145.2877
G01 X55.3632 Y144.9260
G01 X53.2510 Y144.5291
G01 X51.1456 Y144.0972
G01 X49.0477 Y143.6304
G01 X46.9578 Y143.1287
G01 X44.8766 Y142.5924
G01 X42.8045 Y142.0216
G01 X40.7423 Y141.4165
G01 X38.6903 Y140.7771
G01 X37.3464 Y140.3275
G01 X36.0068 Y139.8651
G01 X34.6717 Y139.3900
G01 X33.3412 Y138.9022
G01 X32.0154 Y138.4017
G01 X30.6944 Y137.8887
G01 X29.3783 Y137.3631
G01 X28.0673 Y136.8250
G01 X28.2104 Y137.2006
M107
G00 Z0.0000
G00 Z2.0000


;No. 3: Hole 19
G00 X32.3080 Y131.3032 Z2.0000
G00 Z0.5000
G01 Z0.0000 F400
G01 Z-2.0000
M106 S240
G01 X74.9853 F1000
G01 X73.7452 Y132.8032
G01 X34.0807
G01 X38.0300 Y134.3032
G01 X72.5122
G01 X71.2812 Y135.8032
G01 X42.6356
G01 X48.1609
G01 Y137.3032
G01 X70.0502
G01 X68.8192 Y138.8032
G01 X55.2581
M107
G00 Z2.0000
G00 X49.5472 Y131.3032
G00 Z0.5000
G01 Z-2.0000 F400
M106 S240
G01 Y129.8032 F1000
G01 X33.7519
G01 X35.4616 Y128.3032
G01 X46.2915
G01 X44.6384 Y126.8032
G01 X37.4704
G01 X39.8252 Y125.3032
G01 X43.6500
M107
G00 Z2.0000
G00 X65.7435 Y131.3032
G00 Z0.5000
G01 Z-2.0000 F400
M106 S240
G01 Y129.8032 F1000
G01 X76.2346
G01 X77.4985 Y128.3032
G01 X66.0122
G01 X66.2809 Y126.8032
G01 X78.8876
G01 Y125.3032
G01 X66.5496
G01 X92.8136
G01 X92.5445 Y123.8032
G01 X66.8183
G01 X67.0871 Y122.3032
G01 X92.2757
G01 X92.0071 Y120.8032
G01 X67.3558
G01 X67.6245 Y119.3032
G01 X91.7386
G01 X91.4703 Y117.8032
G01 X67.8932
G01 X68.1620 Y116.3032
G01 X91.2021
G01 X90.9340 Y114.8032
G01 X68.4307
G01 X68.6994 Y113.3032
G01 X90.6659
G01 X90.3980 Y111.8032
G01 X68.9681
G01 X69.2368 Y110.3032
G01 X90.1300
G01 X89.8622 Y108.8032
G01 X69.5056
G01 X69.7743 Y107.3032
G01 X89.5944
G01 X89.3266 Y105.8032
G01 X70.0430
G01 X70.3117 Y104.3032
G01 X89.0589
G01 X88.7913 Y102.8032
G01 X70.5805
G01 X70.8492 Y101.3032
G01 X88.5236
G01 X88.2561 Y99.8032
G01 X71.1179
G01 X71.3866 Y98.3032
G01 X87.9885
G01 X87.7210 Y96.8032
G01 X71.6553
G01 X71.9241 Y95.3032
G01 X87.4535
G01 X87.1861 Y93.8032
G01 X72.1928
G01 X72.4615 Y92.3032
G01 X86.9187
G01 X86.6513 Y90.8032
G01 X72.7302
G01 X72.9989 Y89.3032
G01 X86.3840
G01 X86.1166 Y87.8032
G01 X73.2677
G01 X73.5364 Y86.3032
G01 X85.8494
G01 X85.5821 Y84.8032
G01 X73.8051
G01 X74.0738 Y83.3032
G01 X85.3149
G01 X85.0477 Y81.8032
G01 X74.3426
G01 X74.6113 Y80.3032
G01 X84.7806
G01 X84.5135 Y78.8032
G01 X74.8800
G01 X75.1487 Y77.3032
G01 X84.2464
G01 X83.9793 Y75.8032
G01 X75.4174
G01 X75.6862 Y74.3032
G01 X83.7123
G01 X83.4453 Y72.8032
G01 X75.9549
G01 X76.2236 Y71.3032
G01 X83.1784
G01 X82.9115 Y69.8032
G01 X76.4923
G01 X76.7610 Y68.3032
G01 X82.6447
G01 X82.3779 Y66.8032
G01 X77.0298
G01 X77.2985 Y65.3032
G01 X82.1111
G01 X81.8444 Y63.8032
G01 X77.5672
G01 X77.8359 Y62.3032
G01 X81.5777
G01 X81.3111 Y60.8032
G01 X78.1047
G01 X78.3734 Y59.3032
G01 X81.0446
G01 X80.7782 Y57.8032
G01 X78.6421
G01 X78.9108 Y56.3032
G01 X80.5118
G01 X80.2455 Y54.8032
G01 X79.1795
G01 X79.4483 Y53.3032
G01 X79.9793
M107
G00 Z2.0000
G00 X80.6854 Y125.3032
G00 Z0.5000
G01 Z-2.0000 F400
M106 S240
G01 Y126.8032 F1000
G01 X93.0832
G01 X93.3536 Y128.3032
G01 X81.9906
G01 X83.2231 Y129.8032
G01 X93.6288
G01 Y131.3032
G01 X84.4555
G01 X127.1271
G01 X125.6760 Y129.8032
G01 X109.8580
G01 X113.1275
G01 Y128.3032
G01 X123.9603
G01 X121.9557 Y126.8032
G01 X114.7915
G01 X115.7648 Y125.3032
G01 X119.6164
M107
G00 Z2.0000
G00 X125.3218 Y131.3032
G00 Z0.5000
G01 Z-2.0000 F400
M106 S240
G01 Y132.8032 F1000
G01 X85.6880
G01 X86.9202 Y134.3032
G01 X121.3642
G01 X116.7785 Y135.8032
G01 X88.1530
G01 X89.3885 Y137.3032
G01 X111.2927
G01 X104.2076
G01 Y138.8032
G01 X90.6280
G01 X90.4218 Y138.9619
G01 X90.7487 Y139.3565
G01 X91.0761 Y139.7507
G01 X91.4042 Y140.1444
G01 X91.7329 Y140.5376
G01 X93.4739 Y140.4295
G01 X95.2126 Y140.2907
G01 X96.9487 Y140.1213
G01 X98.6815 Y139.9213
G01 X100.4105 Y139.6907
G01 X102.1351 Y139.4297
G01 X103.8549 Y139.1383
G01 X105.5693 Y138.8166
G01 X107.4723 Y138.4446
G01 X109.3681 Y138.0374
G01 X111.2560 Y137.5950
G01 X113.1354 Y137.1177
G01 X115.0056 Y136.6056
G01 X116.8659 Y136.0588
G01 X118.7158 Y135.4776
G01 X120.5546 Y134.8622
G01 X122.3816 Y134.2127
G01 X124.1963 Y133.5295
G01 X125.9980 Y132.8126
G01 X127.7860 Y132.0625
G01 X127.8423 Y132.0383
G01 X127.8985 Y132.0140
G01 X127.9548 Y131.9897
G01 X128.0109 Y131.9653
G01 X127.4187 Y131.2634
G01 X126.8026 Y130.5824
G01 X126.1635 Y129.9229
G01 X125.5021 Y129.2858
G01 X124.8192 Y128.6718
G01 X124.1156 Y128.0816
G01 X123.3921 Y127.5160
G01 X122.6495 Y126.9756
G01 X122.0029 Y126.5153
G01 X121.3455 Y126.0703
G01 X120.6779 Y125.6409
G01 X120.0003 Y125.2273
G01 X119.3132 Y124.8298
G01 X118.6169 Y124.4486
G01 X117.9119 Y124.0839
G01 X117.1984 Y123.7359
G01 X116.9555 Y123.6142
G01 X116.7121 Y123.4935
G01 X116.4681 Y123.3737
G01 X116.2237 Y123.2550
G01 X116.1100 Y123.7229
G01 X115.9675 Y124.1827
G01 X115.7969 Y124.6330
G01 X115.5987 Y125.0717
G01 X115.3738 Y125.4974
G01 X115.1230 Y125.9084
G01 X114.8473 Y126.3031
G01 X114.5477 Y126.6799
G01 X114.2253 Y127.0376
G01 X113.8815 Y127.3745
G01 X113.5174 Y127.6896
G01 X113.1346 Y127.9816
G01 X112.6611 Y128.2835
G01 X112.1745 Y128.5638
G01 X111.6759 Y128.8219
G01 X111.1661 Y129.0574
G01 X110.6463 Y129.2698
G01 X110.1174 Y129.4586
G01 X109.5806 Y129.6235
G01 X109.0370 Y129.7641
G01 X108.1490 Y129.9605
G01 X107.2566 Y130.1350
G01 X106.3601 Y130.2876
G01 X105.4601 Y130.4181
G01 X104.5572 Y130.5264
G01 X103.6519 Y130.6126
G01 X102.7447 Y130.6764
G01 X101.8363 Y130.7180
G01 X100.1760 Y130.7825
G01 X98.5151 Y130.8275
G01 X96.8537 Y130.8527
G01 X95.1922 Y130.8584
G01 X95.1006 Y130.8553
G01 X95.0095 Y130.8459
G01 X94.9193 Y130.8303
G01 X94.8303 Y130.8085
G01 X94.7431 Y130.7805
G01 X94.6580 Y130.7466
G01 X94.5754 Y130.7069
G01 X94.4958 Y130.6616
G01 X94.4196 Y130.6109
G01 X94.3470 Y130.5551
G01 X94.2784 Y130.4943
G01 X94.2142 Y130.4290
G01 X94.1546 Y130.3594
G01 X94.1001 Y130.2858
G01 X94.0507 Y130.2087
G01 X94.0068 Y130.1283
G01 X93.9685 Y130.0451
G01 X93.9361 Y129.9594
G01 X93.9096 Y129.8717
G01 X93.8893 Y129.7824
G01 X93.3648 Y126.8740
G01 X92.8411 Y123.9654
G01 X92.3182 Y121.0567
G01 X91.7963 Y118.1478
G01 X91.2752 Y115.2388
G01 X90.7549 Y112.3296
G01 X90.2355 Y109.4202
G01 X89.7170 Y106.5107
G01 X89.5632 Y105.6490
G01 X89.4094 Y104.7872
G01 X89.2556 Y103.9255
G01 X89.1019 Y103.0638
G01 X88.9481 Y102.2020
G01 X88.7943 Y101.3403
G01 X88.6406 Y100.4785
G01 X88.4869 Y99.6168
G01 X88.3332 Y98.7550
G01 X88.1795 Y97.8932
G01 X88.0258 Y97.0315
G01 X87.8721 Y96.1697
G01 X87.7185 Y95.3080
G01 X87.5648 Y94.4462
G01 X87.4112 Y93.5844
G01 X87.2575 Y92.7227
G01 X87.1039 Y91.8609
G01 X86.9503 Y90.9991
G01 X86.7967 Y90.1373
G01 X86.6431 Y89.2756
G01 X86.4895 Y88.4138
G01 X86.3360 Y87.5520
G01 X86.1824 Y86.6902
G01 X86.0289 Y85.8285
G01 X85.8753 Y84.9667
G01 X85.7218 Y84.1049
G01 X85.5683 Y83.2431
G01 X85.4148 Y82.3813
G01 X85.2613 Y81.5195
G01 X85.1078 Y80.6577
G01 X84.9543 Y79.7959
G01 X84.8009 Y78.9341
G01 X84.6474 Y78.0723
G01 X84.4940 Y77.2105
G01 X84.3405 Y76.3487
G01 X84.1871 Y75.4869
G01 X84.0337 Y74.6251
G01 X83.8803 Y73.7633
G01 X83.7269 Y72.9015
G01 X83.5735 Y72.0397
G01 X83.4202 Y71.1779
G01 X83.2668 Y70.3160
G01 X83.1135 Y69.4542
G01 X82.9602 Y68.5924
G01 X82.8069 Y67.7305
G01 X82.6536 Y66.8687
G01 X82.5003 Y66.0069
G01 X82.3470 Y65.1450
G01 X82.1938 Y64.2832
G01 X82.0406 Y63.4213
G01 X81.8874 Y62.5595
G01 X81.7342 Y61.6976
G01 X81.5810 Y60.8358
G01 X81.4278 Y59.9739
G01 X81.2747 Y59.1120
G01 X81.1216 Y58.2501
G01 X80.9685 Y57.3883
G01 X80.8155 Y56.5264
G01 X80.6624 Y55.6645
G01 X80.5094 Y54.8025
G01 X80.3565 Y53.9406
G01 X80.2035 Y53.0787
G01 X80.0506 Y52.2167
G01 X79.9737 Y51.7833
G01 X79.8969 Y51.3498
G01 X79.8200 Y50.9164
G01 X79.7432 Y50.4829
G01 X79.7161 Y50.3300
G01 X65.4762 Y129.8209
G01 X65.4531 Y129.9238
G01 X65.4218 Y130.0246
G01 X65.3825 Y130.1225
G01 X65.3355 Y130.2170
G01 X65.2810 Y130.3073
G01 X65.2194 Y130.3930
G01 X65.1511 Y130.4734
G01 X65.0765 Y130.5480
G01 X64.9962 Y130.6164
G01 X64.9106 Y130.6782
G01 X64.8204 Y130.7328
G01 X64.7260 Y130.7800
G01 X64.6281 Y130.8194
G01 X64.5274 Y130.8508
G01 X64.4245 Y130.8740
G01 X64.3200 Y130.8888
G01 X63.6317 Y130.9055
G01 X62.9432 Y130.9103
G01 X62.2546 Y130.9031
G01 X61.5664 Y130.8840
G01 X60.5710 Y130.8639
G01 X59.5760 Y130.8314
G01 X58.5814 Y130.7865
G01 X57.5875 Y130.7292
G01 X56.5944 Y130.6595
G01 X55.6023 Y130.5774
G01 X54.6112 Y130.4829
G01 X53.6214 Y130.3761
G01 X52.9343 Y130.2883
G01 X52.2504 Y130.1784
G01 X51.5704 Y130.0465
G01 X50.8950 Y129.8928
G01 X50.2249 Y129.7175
G01 X49.5608 Y129.5207
G01 X48.9033 Y129.3025
G01 X48.2533 Y129.0634
G01 X47.8758 Y128.9075
G01 X47.5064 Y128.7334
G01 X47.1458 Y128.5415
G01 X46.7951 Y128.3322
G01 X46.4550 Y128.1061
G01 X46.1263 Y127.8637
G01 X45.8099 Y127.6055
G01 X45.5064 Y127.3323
G01 X45.2166 Y127.0445
G01 X44.9411 Y126.7430
G01 X44.6807 Y126.4283
G01 X44.4359 Y126.1014
G01 X44.2187 Y125.7761
G01 X44.0184 Y125.4400
G01 X43.8355 Y125.0942
G01 X43.6704 Y124.7396
G01 X43.5237 Y124.3769
G01 X43.3957 Y124.0073
G01 X43.2867 Y123.6316
G01 X43.1970 Y123.2508
G01 X42.5604 Y123.5549
G01 X41.9280 Y123.8677
G01 X41.3000 Y124.1890
G01 X40.6763 Y124.5188
G01 X40.6852 Y124.5133
G01 X39.9682 Y124.9086
G01 X39.2613 Y125.3215
G01 X38.5647 Y125.7517
G01 X37.8789 Y126.1989
G01 X37.2043 Y126.6628
G01 X36.5413 Y127.1431
G01 X35.8903 Y127.6397
G01 X35.2518 Y128.1520
G01 X34.6260 Y128.6800
G01 X34.0135 Y129.2232
G01 X33.4144 Y129.7813
G01 X32.8293 Y130.3539
G01 X32.4634 Y130.7416
G01 X32.1070 Y131.1379
G01 X31.7601 Y131.5427
G01 X31.4232 Y131.9557
G01 X32.9381 Y132.6025
G01 X34.4634 Y133.2244
G01 X35.9986 Y133.8214
G01 X37.5433 Y134.3933
G01 X39.0972 Y134.9399
G01 X40.6598 Y135.4610
G01 X42.2306 Y135.9567
G01 X43.8094 Y136.4266
G01 X45.3956 Y136.8707
G01 X46.9888 Y137.2889
G01 X48.5887 Y137.6811
G01 X50.1947 Y138.0471
G01 X51.6367 Y138.3643
G01 X53.0828 Y138.6620
G01 X54.5328 Y138.9403
G01 X55.9864 Y139.1990
G01 X57.4433 Y139.4381
G01 X58.9033 Y139.6576
G01 X60.3662 Y139.8575
G01 X61.8316 Y140.0376
G01 X63.2993 Y140.1979
G01 X64.7691 Y140.3386
G01 X66.2406 Y140.4594
G01 X67.7135 Y140.5604
G01 X72.9981 Y134.1209
G01 X74.4223 Y132.3831
G01 X75.8602 Y130.6567
G01 X77.3118 Y128.9419
G01 X78.7771 Y127.2387
G01 X78.8417 Y127.1683
G01 X78.9113 Y127.1029
G01 X78.9854 Y127.0426
G01 X79.0636 Y126.9879
G01 X79.1457 Y126.9389
G01 X79.2310 Y126.8961
G01 X79.3193 Y126.8596
G01 X79.4100 Y126.8296
G01 X79.5026 Y126.8062
G01 X79.5966 Y126.7896
G01 X79.6916 Y126.7798
G01 X79.7871 Y126.7770
G01 X79.8825 Y126.7812
G01 X79.9774 Y126.7922
G01 X80.0712 Y126.8101
G01 X80.1635 Y126.8347
G01 X80.2537 Y126.8660
G01 X80.3415 Y126.9037
G01 X80.4263 Y126.9477
G01 X80.5076 Y126.9977
G01 X80.5851 Y127.0535
G01 X80.6584 Y127.1148
G01 X80.7270 Y127.1812
G01 X80.7907 Y127.2524
G01 X82.2541 Y129.0322
G01 X83.7171 Y130.8123
G01 X85.1796 Y132.5928
G01 X86.6417 Y134.3737
G01 X87.5850 Y135.5222
G01 X88.5294 Y136.6697
G01 X89.4750 Y137.8162
G01 X90.4218 Y138.9619
G01 X90.6280 Y138.8032
M107
G00 Z2.0000


;No. 4: Hole 19
G00 X79.7161 Y50.3300 Z2.0000
G00 Z0.5000
G01 Z-2.0000 F400
M106 S240
G01 X79.7165 Y48.6127 F1000
G01 X65.1809 Y129.7680
G01 X65.1627 Y129.8484
G01 X65.1380 Y129.9271
G01 X65.1070 Y130.0035
G01 X65.0699 Y130.0771
G01 X65.0269 Y130.1474
G01 X64.9783 Y130.2140
G01 X64.9244 Y130.2764
G01 X64.8656 Y130.3343
G01 X64.8024 Y130.3871
G01 X64.7350 Y130.4346
G01 X64.6640 Y130.4765
G01 X64.5898 Y130.5124
G01 X64.5129 Y130.5422
G01 X64.4338 Y130.5656
G01 X64.3531 Y130.5825
G01 X64.2713 Y130.5928
G01 X63.4210 Y130.6057
G01 X62.5705 Y130.6053
G01 X61.7201 Y130.5916
G01 X60.8701 Y130.5646
G01 X59.8832 Y130.5417
G01 X58.8968 Y130.5046
G01 X57.9111 Y130.4534
G01 X56.9262 Y130.3880
G01 X55.9423 Y130.3084
G01 X54.9597 Y130.2147
G01 X53.9785 Y130.1069
G01 X52.9990 Y129.9850
G01 X52.3533 Y129.8908
G01 X51.7113 Y129.7743
G01 X51.0737 Y129.6356
G01 X50.4414 Y129.4747
G01 X49.8150 Y129.2919
G01 X49.1953 Y129.0875
G01 X48.5832 Y128.8616
G01 X47.9792 Y128.6146
G01 X47.5586 Y128.4201
G01 X47.1505 Y128.2007
G01 X46.7563 Y127.9571
G01 X46.3775 Y127.6903
G01 X46.0154 Y127.4012
G01 X45.6713 Y127.0909
G01 X45.3464 Y126.7604
G01 X45.0421 Y126.4110
G01 X44.7593 Y126.0440
G01 X44.4990 Y125.6606
G01 X44.2623 Y125.2623
G01 X44.0499 Y124.8504
G01 X43.8453 Y124.3602
G01 X43.6702 Y123.8587
G01 X43.5254 Y123.3476
G01 X43.4112 Y122.8288
G01 X42.5568 Y123.2198
G01 X41.7124 Y123.6321
G01 X40.8787 Y124.0656
G01 X40.0562 Y124.5198
G01 X39.2453 Y124.9947
G01 X38.4467 Y125.4897
G01 X37.6607 Y126.0047
G01 X36.8880 Y126.5393
G01 X36.1289 Y127.0932
G01 X35.3840 Y127.6659
G01 X34.6538 Y128.2573
G01 X33.9386 Y128.8667
G01 X33.5336 Y129.2365
G01 X33.1371 Y129.6156
G01 X32.7496 Y130.0037
G01 X32.3711 Y130.4006
G01 X32.0019 Y130.8062
G01 X31.6421 Y131.2202
G01 X31.2920 Y131.6424
G01 X30.9518 Y132.0725
G01 X32.4420 Y132.7173
G01 X33.9425 Y133.3378
G01 X35.4528 Y133.9340
G01 X36.9726 Y134.5056
G01 X38.5015 Y135.0526
G01 X40.0390 Y135.5747
G01 X41.5847 Y136.0719
G01 X43.1383 Y136.5439
G01 X44.6994 Y136.9908
G01 X46.2675 Y137.4123
G01 X47.8422 Y137.8084
G01 X49.4231 Y138.1789
G01 X50.9384 Y138.5216
G01 X52.4583 Y138.8428
G01 X53.9826 Y139.1427
G01 X55.5110 Y139.4211
G01 X57.0432 Y139.6779
G01 X58.5788 Y139.9132
G01 X60.1176 Y140.1268
G01 X61.6592 Y140.3188
G01 X63.2034 Y140.4891
G01 X64.7498 Y140.6376
G01 X66.2982 Y140.7643
G01 X67.8482 Y140.8692
G01 X73.2300 Y134.3112
G01 X74.6506 Y132.5778
G01 X76.0849 Y130.8557
G01 X77.5327 Y129.1450
G01 X78.9941 Y127.4459
G01 X79.0540 Y127.3796
G01 X79.1194 Y127.3189
G01 X79.1898 Y127.2642
G01 X79.2649 Y127.2158
G01 X79.3438 Y127.1742
G01 X79.4261 Y127.1397
G01 X79.5111 Y127.1125
G01 X79.5982 Y127.0929
G01 X79.6867 Y127.0811
G01 X79.7758 Y127.0770
G01 X79.8650 Y127.0807
G01 X79.9535 Y127.0923
G01 X80.0406 Y127.1115
G01 X80.1257 Y127.1384
G01 X80.2082 Y127.1726
G01 X80.2873 Y127.2139
G01 X80.3625 Y127.2619
G01 X80.4332 Y127.3164
G01 X80.4988 Y127.3769
G01 X80.5589 Y127.4429
G01 X82.0223 Y129.2226
G01 X83.4853 Y131.0027
G01 X84.9478 Y132.7832
G01 X86.4098 Y134.5641
G01 X87.7030 Y136.1395
G01 X88.9997 Y137.7121
G01 X90.2999 Y139.2819
G01 X91.6035 Y140.8488
G01 X92.9427 Y140.7680
G01 X94.2807 Y140.6697
G01 X95.6174 Y140.5539
G01 X96.9524 Y140.4206
G01 X98.2855 Y140.2699
G01 X99.6166 Y140.1017
G01 X100.9454 Y139.9161
G01 X102.2716 Y139.7131
G01 X103.5950 Y139.4927
G01 X104.9154 Y139.2551
G01 X106.2327 Y139.0002
G01 X107.5464 Y138.7280
G01 X109.3406 Y138.3460
G01 X111.1277 Y137.9323
G01 X112.9072 Y137.4870
G01 X114.6786 Y137.0102
G01 X116.4412 Y136.5021
G01 X118.1945 Y135.9628
G01 X119.9380 Y135.3926
G01 X121.6711 Y134.7915
G01 X123.3933 Y134.1598
G01 X125.1040 Y133.4977
G01 X126.8027 Y132.8053
G01 X128.4889 Y132.0830
G01 X127.8599 Y131.3161
G01 X127.2031 Y130.5729
G01 X126.5194 Y129.8544
G01 X125.8097 Y129.1615
G01 X125.0750 Y128.4952
G01 X124.3163 Y127.8564
G01 X123.5346 Y127.2459
G01 X122.7310 Y126.6646
G01 X122.0898 Y126.2112
G01 X121.4383 Y125.7727
G01 X120.7769 Y125.3494
G01 X120.1059 Y124.9415
G01 X119.4256 Y124.5491
G01 X118.7365 Y124.1726
G01 X118.0388 Y123.8121
G01 X117.3331 Y123.4678
G01 X117.0067 Y123.3045
G01 X116.6795 Y123.1430
G01 X116.3514 Y122.9830
G01 X116.0226 Y122.8247
G01 X115.9128 Y123.3138
G01 X115.7740 Y123.7955
G01 X115.6068 Y124.2680
G01 X115.4117 Y124.7298
G01 X115.1895 Y125.1791
G01 X114.9409 Y125.6143
G01 X114.6668 Y126.0340
G01 X114.3681 Y126.4366
G01 X113.9815 Y126.8507
G01 X113.5689 Y127.2389
G01 X113.1321 Y127.5995
G01 X112.6729 Y127.9312
G01 X112.1931 Y128.2325
G01 X111.6949 Y128.5021
G01 X111.1803 Y128.7389
G01 X110.6514 Y128.9419
G01 X109.9815 Y129.1640
G01 X109.3053 Y129.3663
G01 X108.6235 Y129.5487
G01 X107.9366 Y129.7110
G01 X107.2453 Y129.8530
G01 X106.5500 Y129.9746
G01 X105.8515 Y130.0757
G01 X105.1504 Y130.1563
G01 X103.7189 Y130.2914
G01 X102.2849 Y130.3943
G01 X100.8488 Y130.4648
G01 X99.4115 Y130.5030
G01 X98.3329 Y130.5368
G01 X97.2538 Y130.5555
G01 X96.1746 Y130.5590
G01 X95.0955 Y130.5474
G01 X95.0138 Y130.5375
G01 X94.9332 Y130.5209
G01 X94.8542 Y130.4979
G01 X94.7773 Y130.4684
G01 X94.7031 Y130.4329
G01 X94.6321 Y130.3914
G01 X94.5646 Y130.3442
G01 X94.5012 Y130.2917
G01 X94.4424 Y130.2342
G01 X94.3883 Y130.1721
G01 X94.3396 Y130.1058
G01 X94.2964 Y130.0358
G01 X94.2590 Y129.9625
G01 X94.2277 Y129.8863
G01 X94.2028 Y129.8079
G01 X94.1843 Y129.7277
G01 X93.6598 Y126.8196
G01 X93.1361 Y123.9112
G01 X92.6133 Y121.0028
G01 X92.0914 Y118.0941
G01 X91.5704 Y115.1853
G01 X91.0502 Y112.2764
G01 X90.5308 Y109.3673
G01 X90.0124 Y106.4580
G01 X89.8585 Y105.5963
G01 X89.7047 Y104.7345
G01 X89.5510 Y103.8728
G01 X89.3972 Y103.0111
G01 X89.2434 Y102.1493
G01 X89.0897 Y101.2876
G01 X88.9360 Y100.4258
G01 X88.7822 Y99.5641
G01 X88.6285 Y98.7023
G01 X88.4748 Y97.8406
G01 X88.3211 Y96.9788
G01 X88.1675 Y96.1171
G01 X88.0138 Y95.2553
G01 X87.8602 Y94.3935
G01 X87.7065 Y93.5318
G01 X87.5529 Y92.6700
G01 X87.3993 Y91.8082
G01 X87.2457 Y90.9465
G01 X87.0921 Y90.0847
G01 X86.9385 Y89.2229
G01 X86.7849 Y88.3612
G01 X86.6313 Y87.4994
G01 X86.4778 Y86.6376
G01 X86.3242 Y85.7758
G01 X86.1707 Y84.9141
G01 X86.0171 Y84.0523
G01 X85.8636 Y83.1905
G01 X85.7101 Y82.3287
G01 X85.5566 Y81.4669
G01 X85.4031 Y80.6051
G01 X85.2497 Y79.7433
G01 X85.0962 Y78.8815
G01 X84.9428 Y78.0197
G01 X84.7893 Y77.1579
G01 X84.6359 Y76.2961
G01 X84.4825 Y75.4343
G01 X84.3291 Y74.5725
G01 X84.1757 Y73.7107
G01 X84.0223 Y72.8489
G01 X83.8689 Y71.9871
G01 X83.7155 Y71.1253
G01 X83.5622 Y70.2635
G01 X83.4089 Y69.4017
G01 X83.2555 Y68.5398
G01 X83.1022 Y67.6780
G01 X82.9489 Y66.8162
G01 X82.7957 Y65.9543
G01 X82.6424 Y65.0925
G01 X82.4892 Y64.2307
G01 X82.3359 Y63.3688
G01 X82.1827 Y62.5070
G01 X82.0295 Y61.6451
G01 X81.8764 Y60.7833
G01 X81.7232 Y59.9214
G01 X81.5701 Y59.0595
G01 X81.4170 Y58.1977
G01 X81.2639 Y57.3358
G01 X81.1108 Y56.4739
G01 X80.9578 Y55.6120
G01 X80.8048 Y54.7501
G01 X80.6518 Y53.8882
G01 X80.4989 Y53.0263
G01 X80.3460 Y52.1644
G01 X80.1932 Y51.3024
G01 X80.0404 Y50.4405
G01 X79.9594 Y49.9835
G01 X79.8784 Y49.5266
G01 X79.7975 Y49.0697
G01 X79.7165 Y48.6127
G01 X79.7161 Y50.3300
M107
G00 Z0.0000
G00 Z2.0000


;No. 5: Helical drill 1
G00 X150.9000 Y30.8173 Z2.0000
G00 Z0.5000
M106 S240
G01 X150.8990 Y30.7745 Z0.4848 F400
G01 X150.8959 Y30.7318 Z0.4697
G01 X150.8909 Y30.6893 Z0.4545
G01 X150.8838 Y30.6470 Z0.4394
G01 X150.8746 Y30.6052 Z0.4242
G01 X150.8636 Y30.5638 Z0.4091
G01 X150.8505 Y30.5230 Z0.3939
G01 X150.8355 Y30.4828 Z0.3788
G01 X150.8187 Y30.4435 Z0.3636
G01 X150.8000 Y30.4049 Z0.3485
G01 X150.7794 Y30.3673 Z0.3333
G01 X150.7571 Y30.3308 Z0.3182
G01 X150.7331 Y30.2953 Z0.3030
G01 X150.7075 Y30.2610 Z0.2879
G01 X150.6802 Y30.2280 Z0.2727
G01 X150.6514 Y30.1963 Z0.2576
G01 X150.6211 Y30.1660 Z0.2424
G01 X150.5894 Y30.1372 Z0.2273
G01 X150.5564 Y30.1099 Z0.2121
G01 X150.5221 Y30.0842 Z0.1970
G01 X150.4866 Y30.0602 Z0.1818
G01 X150.4500 Y30.0379 Z0.1667
G01 X150.4124 Y30.0174 Z0.1515
G01 X150.3739 Y29.9987 Z0.1364
G01 X150.3345 Y29.9818 Z0.1212
G01 X150.2944 Y29.9668 Z0.1061
G01 X150.2536 Y29.9538 Z0.0909
G01 X150.2122 Y29.9427 Z0.0758
G01 X150.1703 Y29.9336 Z0.0606
G01 X150.1281 Y29.9265 Z0.0455
G01 X150.0856 Y29.9214 Z0.0303
G01 X150.0428 Y29.9184 Z0.0152
G01 X150.0000 Y29.9173 Z0.0000
G01 X149.9572 Y29.9184 Z-0.0152
G01 X149.9145 Y29.9214 Z-0.0303
G01 X149.8719 Y29.9265 Z-0.0455
G01 X149.8297 Y29.9336 Z-0.0606
G01 X149.7878 Y29.9427 Z-0.0758
G01 X149.7465 Y29.9538 Z-0.0909
G01 X149.7057 Y29.9668 Z-0.1061
G01 X149.6655 Y29.9818 Z-0.1212
G01 X149.6261 Y29.9987 Z-0.1364
G01 X149.5876 Y30.0174 Z-0.1515
G01 X149.5500 Y30.0379 Z-0.1667
G01 X149.5134 Y30.0602 Z-0.1818
G01 X149.4780 Y30.0842 Z-0.1970
G01 X149.4437 Y30.1099 Z-0.2121
G01 X149.4106 Y30.1372 Z-0.2273
G01 X149.3789 Y30.1660 Z-0.2424
G01 X149.3487 Y30.1963 Z-0.2576
G01 X149.3198 Y30.2280 Z-0.2727
G01 X149.2926 Y30.2610 Z-0.2879
G01 X149.2669 Y30.2953 Z-0.3030
G01 X149.2429 Y30.3308 Z-0.3182
G01 X149.2206 Y30.3673 Z-0.3333
G01 X149.2001 Y30.4049 Z-0.3485
G01 X149.1813 Y30.4435 Z-0.3636
G01 X149.1645 Y30.4828 Z-0.3788
G01 X149.1495 Y30.5230 Z-0.3939
G01 X149.1365 Y30.5638 Z-0.4091
G01 X149.1254 Y30.6052 Z-0.4242
G01 X149.1163 Y30.6470 Z-0.4394
G01 X149.1092 Y30.6893 Z-0.4545
G01 X149.1041 Y30.7318 Z-0.4697
G01 X149.1010 Y30.7745 Z-0.4848
G01 X149.1000 Y30.8173 Z-0.5000
G01 X149.1010 Y30.8602 Z-0.5152
G01 X149.1041 Y30.9029 Z-0.5303
G01 X149.1092 Y30.9454 Z-0.5455
G01 X149.1163 Y30.9877 Z-0.5606
G01 X149.1254 Y31.0295 Z-0.5758
G01 X149.1365 Y31.0709 Z-0.5909
G01 X149.1495 Y31.1117 Z-0.6061
G01 X149.1645 Y31.1518 Z-0.6212
G01 X149.1813 Y31.1912 Z-0.6364
G01 X149.2001 Y31.2297 Z-0.6515
G01 X149.2206 Y31.2673 Z-0.6667
G01 X149.2429 Y31.3039 Z-0.6818
G01 X149.2669 Y31.3394 Z-0.6970
G01 X149.2926 Y31.3737 Z-0.7121
G01 X149.3198 Y31.4067 Z-0.7273
G01 X149.3487 Y31.4384 Z-0.7424
G01 X149.3789 Y31.4687 Z-0.7576
G01 X149.4106 Y31.4975 Z-0.7727
G01 X149.4437 Y31.5248 Z-0.7879
G01 X149.4780 Y31.5505 Z-0.8030
G01 X149.5134 Y31.5745 Z-0.8182
G01 X149.5500 Y31.5968 Z-0.8333
G01 X149.5876 Y31.6173 Z-0.8485
G01 X149.6261 Y31.6360 Z-0.8636
G01 X149.6655 Y31.6529 Z-0.8788
G01 X149.7057 Y31.6678 Z-0.8939
G01 X149.7465 Y31.6809 Z-0.9091
G01 X149.7878 Y31.6920 Z-0.9242
G01 X149.8297 Y31.7011 Z-0.9394
G01 X149.8719 Y31.7082 Z-0.9545
G01 X149.9145 Y31.7133 Z-0.9697
G01 X149.9572 Y31.7163 Z-0.9848
G01 X150.0000 Y31.7173 Z-1.0000
G01 X150.0428 Y31.7163 Z-1.0152
G01 X150.0856 Y31.7133 Z-1.0303
G01 X150.1281 Y31.7082 Z-1.0455
G01 X150.1703 Y31.7011 Z-1.0606
G01 X150.2122 Y31.6920 Z-1.0758
G01 X150.2536 Y31.6809 Z-1.0909
G01 X150.2944 Y31.6678 Z-1.1061
G01 X150.3345 Y31.6529 Z-1.1212
G01 X150.3739 Y31.6360 Z-1.1364
G01 X150.4124 Y31.6173 Z-1.1515
G01 X150.4500 Y31.5968 Z-1.1667
G01 X150.4866 Y31.5745 Z-1.1818
G01 X150.5221 Y31.5505 Z-1.1970
G01 X150.5564 Y31.5248 Z-1.2121
G01 X150.5894 Y31.4975 Z-1.2273
G01 X150.6211 Y31.4687 Z-1.2424
G01 X150.6514 Y31.4384 Z-1.2576
G01 X150.6802 Y31.4067 Z-1.2727
G01 X150.7075 Y31.3737 Z-1.2879
G01 X150.7331 Y31.3394 Z-1.3030
G01 X150.7571 Y31.3039 Z-1.3182
G01 X150.7794 Y31.2673 Z-1.3333
G01 X150.8000 Y31.2297 Z-1.3485
G01 X150.8187 Y31.1912 Z-1.3636
G01 X150.8355 Y31.1518 Z-1.3788
G01 X150.8505 Y31.1117 Z-1.3939
G01 X150.8636 Y31.0709 Z-1.4091
G01 X150.8746 Y31.0295 Z-1.4242
G01 X150.8838 Y30.9877 Z-1.4394
G01 X150.8909 Y30.9454 Z-1.4545
G01 X150.8959 Y30.9029 Z-1.4697
G01 X150.8990 Y30.8602 Z-1.4848
G01 X150.9000 Y30.8173 Z-1.5000
G01 X150.8990 Y30.7745
G01 X150.8959 Y30.7318
G01 X150.8909 Y30.6893
G01 X150.8838 Y30.6470
G01 X150.8746 Y30.6052
G01 X150.8636 Y30.5638
G01 X150.8505 Y30.5230
G01 X150.8355 Y30.4828
G01 X150.8187 Y30.4435
G01 X150.8000 Y30.4049
G01 X150.7794 Y30.3673
G01 X150.7571 Y30.3308
G01 X150.7331 Y30.2953
G01 X150.7075 Y30.2610
G01 X150.6802 Y30.2280
G01 X150.6514 Y30.1963
G01 X150.6211 Y30.1660
G01 X150.5894 Y30.1372
G01 X150.5564 Y30.1099
G01 X150.5221 Y30.0842
G01 X150.4866 Y30.0602
G01 X150.4500 Y30.0379
G01 X150.4124 Y30.0174
G01 X150.3739 Y29.9987
G01 X150.3345 Y29.9818
G01 X150.2944 Y29.9668
G01 X150.2536 Y29.9538
G01 X150.2122 Y29.9427
G01 X150.1703 Y29.9336
G01 X150.1281 Y29.9265
G01 X150.0856 Y29.9214
G01 X150.0428 Y29.9184
G01 X150.0000 Y29.9173
G01 X149.9572 Y29.9184
G01 X149.9145 Y29.9214
G01 X149.8719 Y29.9265
G01 X149.8297 Y29.9336
G01 X149.7878 Y29.9427
G01 X149.7465 Y29.9538
G01 X149.7057 Y29.9668
G01 X149.6655 Y29.9818
G01 X149.6261 Y29.9987
G01 X149.5876 Y30.0174
G01 X149.5500 Y30.0379
G01 X149.5134 Y30.0602
G01 X149.4780 Y30.0842
G01 X149.4437 Y30.1099
G01 X149.4106 Y30.1372
G01 X149.3789 Y30.1660
G01 X149.3487 Y30.1963
G01 X149.3198 Y30.2280
G01 X149.2926 Y30.2610
G01 X149.2669 Y30.2953
G01 X149.2429 Y30.3308
G01 X149.2206 Y30.3673
G01 X149.2001 Y30.4049
G01 X149.1813 Y30.4435
G01 X149.1645 Y30.4828
G01 X149.1495 Y30.5230
G01 X149.1365 Y30.5638
G01 X149.1254 Y30.6052
G01 X149.1163 Y30.6470
G01 X149.1092 Y30.6893
G01 X149.1041 Y30.7318
G01 X149.1010 Y30.7745
G01 X149.1000 Y30.8173
G01 X149.1010 Y30.8602
G01 X149.1041 Y30.9029
G01 X149.1092 Y30.9454
G01 X149.1163 Y30.9877
G01 X149.1254 Y31.0295
G01 X149.1365 Y31.0709
G01 X149.1495 Y31.1117
G01 X149.1645 Y31.1518
G01 X149.1813 Y31.1912
G01 X149.2001 Y31.2297
G01 X149.2206 Y31.2673
G01 X149.2429 Y31.3039
G01 X149.2669 Y31.3394
G01 X149.2926 Y31.3737
G01 X149.3198 Y31.4067
G01 X149.3487 Y31.4384
G01 X149.3789 Y31.4687
G01 X149.4106 Y31.4975
G01 X149.4437 Y31.5248
G01 X149.4780 Y31.5505
G01 X149.5134 Y31.5745
G01 X149.5500 Y31.5968
G01 X149.5876 Y31.6173
G01 X149.6261 Y31.6360
G01 X149.6655 Y31.6529
G01 X149.7057 Y31.6678
G01 X149.7465 Y31.6809
G01 X149.7878 Y31.6920
G01 X149.8297 Y31.7011
G01 X149.8719 Y31.7082
G01 X149.9145 Y31.7133
G01 X149.9572 Y31.7163
G01 X150.0000 Y31.7173
G01 X150.0428 Y31.7163
G01 X150.0856 Y31.7133
G01 X150.1281 Y31.7082
G01 X150.1703 Y31.7011
G01 X150.2122 Y31.6920
G01 X150.2536 Y31.6809
G01 X150.2944 Y31.6678
G01 X150.3345 Y31.6529
G01 X150.3739 Y31.6360
G01 X150.4124 Y31.6173
G01 X150.4500 Y31.5968
G01 X150.4866 Y31.5745
G01 X150.5221 Y31.5505
G01 X150.5564 Y31.5248
G01 X150.5894 Y31.4975
G01 X150.6211 Y31.4687
G01 X150.6514 Y31.4384
G01 X150.6802 Y31.4067
G01 X150.7075 Y31.3737
G01 X150.7331 Y31.3394
G01 X150.7571 Y31.3039
G01 X150.7794 Y31.2673
G01 X150.8000 Y31.2297
G01 X150.8187 Y31.1912
G01 X150.8355 Y31.1518
G01 X150.8505 Y31.1117
G01 X150.8636 Y31.0709
G01 X150.8746 Y31.0295
G01 X150.8838 Y30.9877
G01 X150.8909 Y30.9454
G01 X150.8959 Y30.9029
G01 X150.8990 Y30.8602
G01 X150.9000 Y30.8173
G01 X150.9076 Y30.7863 F1000
G01 X150.9140 Y30.7550
G01 X150.9194 Y30.7235
G01 X150.9237 Y30.6918
G01 X150.9269 Y30.6600
G01 X150.9289 Y30.6281
G01 X150.9299 Y30.5962
G01 X150.9297 Y30.5642
G01 X150.9285 Y30.5323
G01 X150.9261 Y30.5004
G01 X150.9227 Y30.4687
G01 X150.9181 Y30.4370
G01 X150.9084 Y30.3855
G01 X150.8961 Y30.3346
G01 X150.8812 Y30.2844
G01 X150.8637 Y30.2350
G01 X150.8436 Y30.1866
G01 X150.8211 Y30.1392
G01 X150.7962 Y30.0931
G01 X150.7690 Y30.0484
G01 X150.7370 Y30.0013
G01 X150.7026 Y29.9560
G01 X150.6659 Y29.9125
G01 X150.6271 Y29.8709
G01 X150.5862 Y29.8314
G01 X150.5433 Y29.7940
G01 X150.4985 Y29.7588
G01 X150.4521 Y29.7260
G01 X150.4002 Y29.6932
G01 X150.3467 Y29.6630
G01 X150.2917 Y29.6357
G01 X150.2354 Y29.6111
G01 X150.1780 Y29.5894
G01 X150.1195 Y29.5707
G01 X150.0601 Y29.5550
G01 X150.0000 Y29.5423
G01 X149.9349 Y29.5320
G01 X149.8693 Y29.5250
G01 X149.8035 Y29.5213
G01 X149.7376 Y29.5209
G01 X149.6717 Y29.5239
G01 X149.6061 Y29.5302
G01 X149.5409 Y29.5399
G01 X149.4762 Y29.5528
G01 X149.4079 Y29.5700
G01 X149.3405 Y29.5907
G01 X149.2743 Y29.6148
G01 X149.2094 Y29.6422
G01 X149.1459 Y29.6728
G01 X149.0841 Y29.7065
G01 X149.0240 Y29.7434
G01 X148.9659 Y29.7832
G01 X148.9124 Y29.8326
G01 X148.8613 Y29.8846
G01 X148.8129 Y29.9391
G01 X148.7673 Y29.9959
G01 X148.7245 Y30.0548
G01 X148.6847 Y30.1158
G01 X148.6479 Y30.1787
G01 X148.6142 Y30.2433
G01 X148.5877 Y30.3120
G01 X148.5646 Y30.3819
G01 X148.5450 Y30.4529
G01 X148.5289 Y30.5247
G01 X148.5163 Y30.5972
G01 X148.5073 Y30.6703
G01 X148.5019 Y30.7437
G01 X148.5000 Y30.8173
G01 X148.5019 Y30.8909
G01 X148.5073 Y30.9644
G01 X148.5163 Y31.0374
G01 X148.5289 Y31.1100
G01 X148.5450 Y31.1818
G01 X148.5646 Y31.2528
G01 X148.5877 Y31.3227
G01 X148.6142 Y31.3914
G01 X148.6441 Y31.4587
G01 X148.6772 Y31.5244
G01 X148.7134 Y31.5885
G01 X148.7528 Y31.6507
G01 X148.7952 Y31.7109
G01 X148.8405 Y31.7689
G01 X148.8886 Y31.8247
G01 X148.9394 Y31.8780
G01 X148.9927 Y31.9287
G01 X149.0484 Y31.9768
G01 X149.1065 Y32.0221
G01 X149.1667 Y32.0645
G01 X149.2289 Y32.1039
G01 X149.2929 Y32.1402
G01 X149.3587 Y32.1733
G01 X149.4260 Y32.2031
G01 X149.4947 Y32.2296
G01 X149.5646 Y32.2527
G01 X149.6356 Y32.2724
G01 X149.7074 Y32.2885
G01 X149.7799 Y32.3011
G01 X149.8530 Y32.3101
G01 X149.9264 Y32.3155
G01 X150.0000 Y32.3173
G01 X150.0736 Y32.3155
G01 X150.1470 Y32.3101
G01 X150.2201 Y32.3011
G01 X150.2926 Y32.2885
G01 X150.3645 Y32.2724
G01 X150.4354 Y32.2527
G01 X150.5053 Y32.2296
G01 X150.5740 Y32.2031
G01 X150.6413 Y32.1733
G01 X150.7071 Y32.1402
G01 X150.7712 Y32.1039
G01 X150.8334 Y32.0645
G01 X150.8936 Y32.0221
G01 X150.9516 Y31.9768
G01 X151.0073 Y31.9287
G01 X151.0607 Y31.8780
G01 X151.1114 Y31.8247
G01 X151.1595 Y31.7689
G01 X151.2048 Y31.7109
G01 X151.2472 Y31.6507
G01 X151.2866 Y31.5885
G01 X151.3229 Y31.5244
G01 X151.3560 Y31.4587
G01 X151.3858 Y31.3914
G01 X151.4123 Y31.3227
G01 X151.4354 Y31.2528
G01 X151.4550 Y31.1818
G01 X151.4712 Y31.1100
G01 X151.4838 Y31.0374
G01 X151.4928 Y30.9644
G01 X151.4982 Y30.8909
G01 X151.5000 Y30.8173
G01 X151.4958 Y30.7052
G01 X151.4832 Y30.5938
G01 X151.4624 Y30.4836
G01 X151.4334 Y30.3752
G01 X151.3963 Y30.2693
G01 X151.3514 Y30.1665
G01 X151.2990 Y30.0674
G01 X151.2394 Y29.9724
G01 X151.1727 Y29.8821
G01 X151.0996 Y29.7971
G01 X151.0203 Y29.7178
G01 X150.9352 Y29.6446
G01 X150.8450 Y29.5780
G01 X150.7500 Y29.5183
G01 X150.6508 Y29.4659
G01 X150.5480 Y29.4211
G01 X150.4421 Y29.3840
G01 X150.3338 Y29.3550
G01 X150.2236 Y29.3341
G01 X150.1121 Y29.3216
G01 X150.0000 Y29.3174
G01 X149.8879 Y29.3216
G01 X149.7765 Y29.3341
G01 X149.6662 Y29.3550
G01 X149.5579 Y29.3840
G01 X149.4520 Y29.4211
G01 X149.3492 Y29.4659
G01 X149.2500 Y29.5183
G01 X149.1551 Y29.5780
G01 X149.0648 Y29.6446
G01 X148.9798 Y29.7178
G01 X148.9005 Y29.7971
G01 X148.8273 Y29.8821
G01 X148.7607 Y29.9724
G01 X148.7010 Y30.0674
G01 X148.6486 Y30.1665
G01 X148.6037 Y30.2693
G01 X148.5667 Y30.3752
G01 X148.5377 Y30.4836
G01 X148.5168 Y30.5938
G01 X148.5042 Y30.7052
G01 X148.5000 Y30.8173
G01 X148.5042 Y30.9294
G01 X148.5168 Y31.0409
G01 X148.5377 Y31.1511
G01 X148.5667 Y31.2595
G01 X148.6037 Y31.3653
G01 X148.6486 Y31.4682
G01 X148.7010 Y31.5673
G01 X148.7607 Y31.6623
G01 X148.8273 Y31.7526
G01 X148.9005 Y31.8376
G01 X148.9798 Y31.9169
G01 X149.0648 Y31.9901
G01 X149.1551 Y32.0567
G01 X149.2500 Y32.1164
G01 X149.3492 Y32.1688
G01 X149.4520 Y32.2136
G01 X149.5579 Y32.2507
G01 X149.6662 Y32.2797
G01 X149.7765 Y32.3006
G01 X149.8879 Y32.3131
G01 X150.0000 Y32.3173
G01 X150.1121 Y32.3131
G01 X150.2236 Y32.3006
G01 X150.3338 Y32.2797
G01 X150.4421 Y32.2507
G01 X150.5480 Y32.2136
G01 X150.6508 Y32.1688
G01 X150.7500 Y32.1164
G01 X150.8450 Y32.0567
G01 X150.9352 Y31.9901
G01 X151.0203 Y31.9169
G01 X151.0996 Y31.8376
G01 X151.1727 Y31.7526
G01 X151.2394 Y31.6623
G01 X151.2990 Y31.5673
G01 X151.3514 Y31.4682
G01 X151.3963 Y31.3653
G01 X151.4334 Y31.2595
G01 X151.4624 Y31.1511
G01 X151.4832 Y31.0409
G01 X151.4958 Y30.9294
G01 X151.5000 Y30.8173
G01 X151.4954 Y30.7128
G01 X151.4818 Y30.6090
G01 X151.4591 Y30.5068
G01 X151.4276 Y30.4069
G01 X151.3876 Y30.3102
G01 X151.3392 Y30.2173
G01 X151.2830 Y30.1291
G01 X151.2192 Y30.0460
G01 X151.1485 Y29.9688
G01 X151.0713 Y29.8981
G01 X150.9883 Y29.8344
G01 X150.9000 Y29.7781
G01 X150.8071 Y29.7298
G01 X150.7104 Y29.6897
G01 X150.6106 Y29.6582
G01 X150.5084 Y29.6356
G01 X150.4046 Y29.6219
G01 X150.3000 Y29.6174
G01 X150.1954 Y29.6219
G01 X150.0916 Y29.6356
G01 X149.9894 Y29.6582
G01 X149.8896 Y29.6897
G01 X149.7929 Y29.7298
G01 X149.7000 Y29.7781
G01 X149.6117 Y29.8344
G01 X149.5287 Y29.8981
G01 X149.4515 Y29.9688
G01 X149.3808 Y30.0460
G01 X149.3170 Y30.1291
G01 X149.2608 Y30.2173
G01 X149.2124 Y30.3102
G01 X149.1724 Y30.4069
G01 X149.1409 Y30.5068
G01 X149.1182 Y30.6090
G01 X149.1046 Y30.7128
G01 X149.1000 Y30.8173
G01 X149.1011 Y30.8615
G01 X149.1044 Y30.9056
G01 X149.1098 Y30.9494
G01 X149.1173 Y30.9929
G01 X149.1270 Y31.0360
G01 X149.1388 Y31.0786
G01 X149.1526 Y31.1205
G01 X149.1685 Y31.1618
G01 X149.1864 Y31.2021
G01 X149.2063 Y31.2416
G01 X149.2281 Y31.2800
G01 X149.2517 Y31.3174
G01 X149.2771 Y31.3535
G01 X149.3043 Y31.3883
G01 X149.3332 Y31.4217
G01 X149.3636 Y31.4537
G01 X149.3956 Y31.4842
G01 X149.4291 Y31.5131
G01 X149.4639 Y31.5402
G01 X149.5000 Y31.5657
G01 X149.5373 Y31.5893
G01 X149.5758 Y31.6111
G01 X149.6152 Y31.6309
G01 X149.6556 Y31.6488
G01 X149.6968 Y31.6647
G01 X149.7388 Y31.6786
G01 X149.7813 Y31.6904
G01 X149.8244 Y31.7000
G01 X149.8680 Y31.7076
G01 X149.9118 Y31.7130
G01 X149.9559 Y31.7163
G01 X150.0000 Y31.7173
G01 X150.0442 Y31.7163
G01 X150.0882 Y31.7130
G01 X150.1321 Y31.7076
G01 X150.1756 Y31.7000
G01 X150.2187 Y31.6904
G01 X150.2613 Y31.6786
G01 X150.3032 Y31.6647
G01 X150.3444 Y31.6488
G01 X150.3848 Y31.6309
G01 X150.4243 Y31.6111
G01 X150.4627 Y31.5893
G01 X150.5000 Y31.5657
G01 X150.5361 Y31.5402
G01 X150.5710 Y31.5131
G01 X150.6044 Y31.4842
G01 X150.6364 Y31.4537
G01 X150.6669 Y31.4217
G01 X150.6957 Y31.3883
G01 X150.7229 Y31.3535
G01 X150.7483 Y31.3174
G01 X150.7720 Y31.2800
G01 X150.7937 Y31.2416
G01 X150.8136 Y31.2021
G01 X150.8315 Y31.1618
G01 X150.8474 Y31.1205
G01 X150.8613 Y31.0786
G01 X150.8730 Y31.0360
G01 X150.8827 Y30.9929
G01 X150.8903 Y30.9494
G01 X150.8957 Y30.9056
G01 X150.8989 Y30.8615
G01 X150.9000 Y30.8173
M107
M106 S240
G01 X150.8990 Y30.7745 Z-1.5152 F400
G01 X150.8959 Y30.7318 Z-1.5303
G01 X150.8909 Y30.6893 Z-1.5455
G01 X150.8838 Y30.6470 Z-1.5606
G01 X150.8746 Y30.6052 Z-1.5758
G01 X150.8636 Y30.5638 Z-1.5909
G01 X150.8505 Y30.5230 Z-1.6061
G01 X150.8355 Y30.4828 Z-1.6212
G01 X150.8187 Y30.4435 Z-1.6364
G01 X150.8000 Y30.4049 Z-1.6515
G01 X150.7794 Y30.3673 Z-1.6667
G01 X150.7571 Y30.3308 Z-1.6818
G01 X150.7331 Y30.2953 Z-1.6970
G01 X150.7075 Y30.2610 Z-1.7121
G01 X150.6802 Y30.2280 Z-1.7273
G01 X150.6514 Y30.1963 Z-1.7424
G01 X150.6211 Y30.1660 Z-1.7576
G01 X150.5894 Y30.1372 Z-1.7727
G01 X150.5564 Y30.1099 Z-1.7879
G01 X150.5221 Y30.0842 Z-1.8030
G01 X150.4866 Y30.0602 Z-1.8182
G01 X150.4500 Y30.0379 Z-1.8333
G01 X150.4124 Y30.0174 Z-1.8485
G01 X150.3739 Y29.9987 Z-1.8636
G01 X150.3345 Y29.9818 Z-1.8788
G01 X150.2944 Y29.9668 Z-1.8939
G01 X150.2536 Y29.9538 Z-1.9091
G01 X150.2122 Y29.9427 Z-1.9242
G01 X150.1703 Y29.9336 Z-1.9394
G01 X150.1281 Y29.9265 Z-1.9545
G01 X150.0856 Y29.9214 Z-1.9697
G01 X150.0428 Y29.9184 Z-1.9848
G01 X150.0000 Y29.9173 Z-2.0000
G01 X149.9572 Y29.9184 Z-2.0152
G01 X149.9145 Y29.9214 Z-2.0303
G01 X149.8719 Y29.9265 Z-2.0455
G01 X149.8297 Y29.9336 Z-2.0606
G01 X149.7878 Y29.9427 Z-2.0758
G01 X149.7465 Y29.9538 Z-2.0909
G01 X149.7057 Y29.9668 Z-2.1061
G01 X149.6655 Y29.9818 Z-2.1212
G01 X149.6261 Y29.9987 Z-2.1364
G01 X149.5876 Y30.0174 Z-2.1515
G01 X149.5500 Y30.0379 Z-2.1667
G01 X149.5134 Y30.0602 Z-2.1818
G01 X149.4780 Y30.0842 Z-2.1970
G01 X149.4437 Y30.1099 Z-2.2121
G01 X149.4106 Y30.1372 Z-2.2273
G01 X149.3789 Y30.1660 Z-2.2424
G01 X149.3487 Y30.1963 Z-2.2576
G01 X149.3198 Y30.2280 Z-2.2727
G01 X149.2926 Y30.2610 Z-2.2879
G01 X149.2669 Y30.2953 Z-2.3030
G01 X149.2429 Y30.3308 Z-2.3182
G01 X149.2206 Y30.3673 Z-2.3333
G01 X149.2001 Y30.4049 Z-2.3485
G01 X149.1813 Y30.4435 Z-2.3636
G01 X149.1645 Y30.4828 Z-2.3788
G01 X149.1495 Y30.5230 Z-2.3939
G01 X149.1365 Y30.5638 Z-2.4091
G01 X149.1254 Y30.6052 Z-2.4242
G01 X149.1163 Y30.6470 Z-2.4394
G01 X149.1092 Y30.6893 Z-2.4545
G01 X149.1041 Y30.7318 Z-2.4697
G01 X149.1010 Y30.7745 Z-2.4848
G01 X149.1000 Y30.8173 Z-2.5000
G01 X149.1010 Y30.8602 Z-2.5152
G01 X149.1041 Y30.9029 Z-2.5303
G01 X149.1092 Y30.9454 Z-2.5455
G01 X149.1163 Y30.9877 Z-2.5606
G01 X149.1254 Y31.0295 Z-2.5758
G01 X149.1365 Y31.0709 Z-2.5909
G01 X149.1495 Y31.1117 Z-2.6061
G01 X149.1645 Y31.1518 Z-2.6212
G01 X149.1813 Y31.1912 Z-2.6364
G01 X149.2001 Y31.2297 Z-2.6515
G01 X149.2206 Y31.2673 Z-2.6667
G01 X149.2429 Y31.3039 Z-2.6818
G01 X149.2669 Y31.3394 Z-2.6970
G01 X149.2926 Y31.3737 Z-2.7121
G01 X149.3198 Y31.4067 Z-2.7273
G01 X149.3487 Y31.4384 Z-2.7424
G01 X149.3789 Y31.4687 Z-2.7576
G01 X149.4106 Y31.4975 Z-2.7727
G01 X149.4437 Y31.5248 Z-2.7879
G01 X149.4780 Y31.5505 Z-2.8030
G01 X149.5134 Y31.5745 Z-2.8182
G01 X149.5500 Y31.5968 Z-2.8333
G01 X149.5876 Y31.6173 Z-2.8485
G01 X149.6261 Y31.6360 Z-2.8636
G01 X149.6655 Y31.6529 Z-2.8788
G01 X149.7057 Y31.6678 Z-2.8939
G01 X149.7465 Y31.6809 Z-2.9091
G01 X149.7878 Y31.6920 Z-2.9242
G01 X149.8297 Y31.7011 Z-2.9394
G01 X149.8719 Y31.7082 Z-2.9545
G01 X149.9145 Y31.7133 Z-2.9697
G01 X149.9572 Y31.7163 Z-2.9848
G01 X150.0000 Y31.7173 Z-3.0000
G01 X150.0428 Y31.7163 Z-3.0152
G01 X150.0856 Y31.7133 Z-3.0303
G01 X150.1281 Y31.7082 Z-3.0455
G01 X150.1703 Y31.7011 Z-3.0606
G01 X150.2122 Y31.6920 Z-3.0758
G01 X150.2536 Y31.6809 Z-3.0909
G01 X150.2944 Y31.6678 Z-3.1061
G01 X150.3345 Y31.6529 Z-3.1212
G01 X150.3739 Y31.6360 Z-3.1364
G01 X150.4124 Y31.6173 Z-3.1515
G01 X150.4500 Y31.5968 Z-3.1667
G01 X150.4866 Y31.5745 Z-3.1818
G01 X150.5221 Y31.5505 Z-3.1970
G01 X150.5564 Y31.5248 Z-3.2121
G01 X150.5894 Y31.4975 Z-3.2273
G01 X150.6211 Y31.4687 Z-3.2424
G01 X150.6514 Y31.4384 Z-3.2576
G01 X150.6802 Y31.4067 Z-3.2727
G01 X150.7075 Y31.3737 Z-3.2879
G01 X150.7331 Y31.3394 Z-3.3030
G01 X150.7571 Y31.3039 Z-3.3182
G01 X150.7794 Y31.2673 Z-3.3333
G01 X150.8000 Y31.2297 Z-3.3485
G01 X150.8187 Y31.1912 Z-3.3636
G01 X150.8355 Y31.1518 Z-3.3788
G01 X150.8505 Y31.1117 Z-3.3939
G01 X150.8636 Y31.0709 Z-3.4091
G01 X150.8746 Y31.0295 Z-3.4242
G01 X150.8838 Y30.9877 Z-3.4394
G01 X150.8909 Y30.9454 Z-3.4545
G01 X150.8959 Y30.9029 Z-3.4697
G01 X150.8990 Y30.8602 Z-3.4848
G01 X150.9000 Y30.8173 Z-3.5000
G01 X150.8990 Y30.7745
G01 X150.8959 Y30.7318
G01 X150.8909 Y30.6893
G01 X150.8838 Y30.6470
G01 X150.8746 Y30.6052
G01 X150.8636 Y30.5638
G01 X150.8505 Y30.5230
G01 X150.8355 Y30.4828
G01 X150.8187 Y30.4435
G01 X150.8000 Y30.4049
G01 X150.7794 Y30.3673
G01 X150.7571 Y30.3308
G01 X150.7331 Y30.2953
G01 X150.7075 Y30.2610
G01 X150.6802 Y30.2280
G01 X150.6514 Y30.1963
G01 X150.6211 Y30.1660
G01 X150.5894 Y30.1372
G01 X150.5564 Y30.1099
G01 X150.5221 Y30.0842
G01 X150.4866 Y30.0602
G01 X150.4500 Y30.0379
G01 X150.4124 Y30.0174
G01 X150.3739 Y29.9987
G01 X150.3345 Y29.9818
G01 X150.2944 Y29.9668
G01 X150.2536 Y29.9538
G01 X150.2122 Y29.9427
G01 X150.1703 Y29.9336
G01 X150.1281 Y29.9265
G01 X150.0856 Y29.9214
G01 X150.0428 Y29.9184
G01 X150.0000 Y29.9173
G01 X149.9572 Y29.9184
G01 X149.9145 Y29.9214
G01 X149.8719 Y29.9265
G01 X149.8297 Y29.9336
G01 X149.7878 Y29.9427
G01 X149.7465 Y29.9538
G01 X149.7057 Y29.9668
G01 X149.6655 Y29.9818
G01 X149.6261 Y29.9987
G01 X149.5876 Y30.0174
G01 X149.5500 Y30.0379
G01 X149.5134 Y30.0602
G01 X149.4780 Y30.0842
G01 X149.4437 Y30.1099
G01 X149.4106 Y30.1372
G01 X149.3789 Y30.1660
G01 X149.3487 Y30.1963
G01 X149.3198 Y30.2280
G01 X149.2926 Y30.2610
G01 X149.2669 Y30.2953
G01 X149.2429 Y30.3308
G01 X149.2206 Y30.3673
G01 X149.2001 Y30.4049
G01 X149.1813 Y30.4435
G01 X149.1645 Y30.4828
G01 X149.1495 Y30.5230
G01 X149.1365 Y30.5638
G01 X149.1254 Y30.6052
G01 X149.1163 Y30.6470
G01 X149.1092 Y30.6893
G01 X149.1041 Y30.7318
G01 X149.1010 Y30.7745
G01 X149.1000 Y30.8173
G01 X149.1010 Y30.8602
G01 X149.1041 Y30.9029
G01 X149.1092 Y30.9454
G01 X149.1163 Y30.9877
G01 X149.1254 Y31.0295
G01 X149.1365 Y31.0709
G01 X149.1495 Y31.1117
G01 X149.1645 Y31.1518
G01 X149.1813 Y31.1912
G01 X149.2001 Y31.2297
G01 X149.2206 Y31.2673
G01 X149.2429 Y31.3039
G01 X149.2669 Y31.3394
G01 X149.2926 Y31.3737
G01 X149.3198 Y31.4067
G01 X149.3487 Y31.4384
G01 X149.3789 Y31.4687
G01 X149.4106 Y31.4975
G01 X149.4437 Y31.5248
G01 X149.4780 Y31.5505
G01 X149.5134 Y31.5745
G01 X149.5500 Y31.5968
G01 X149.5876 Y31.6173
G01 X149.6261 Y31.6360
G01 X149.6655 Y31.6529
G01 X149.7057 Y31.6678
G01 X149.7465 Y31.6809
G01 X149.7878 Y31.6920
G01 X149.8297 Y31.7011
G01 X149.8719 Y31.7082
G01 X149.9145 Y31.7133
G01 X149.9572 Y31.7163
G01 X150.0000 Y31.7173
G01 X150.0428 Y31.7163
G01 X150.0856 Y31.7133
G01 X150.1281 Y31.7082
G01 X150.1703 Y31.7011
G01 X150.2122 Y31.6920
G01 X150.2536 Y31.6809
G01 X150.2944 Y31.6678
G01 X150.3345 Y31.6529
G01 X150.3739 Y31.6360
G01 X150.4124 Y31.6173
G01 X150.4500 Y31.5968
G01 X150.4866 Y31.5745
G01 X150.5221 Y31.5505
G01 X150.5564 Y31.5248
G01 X150.5894 Y31.4975
G01 X150.6211 Y31.4687
G01 X150.6514 Y31.4384
G01 X150.6802 Y31.4067
G01 X150.7075 Y31.3737
G01 X150.7331 Y31.3394
G01 X150.7571 Y31.3039
G01 X150.7794 Y31.2673
G01 X150.8000 Y31.2297
G01 X150.8187 Y31.1912
G01 X150.8355 Y31.1518
G01 X150.8505 Y31.1117
G01 X150.8636 Y31.0709
G01 X150.8746 Y31.0295
G01 X150.8838 Y30.9877
G01 X150.8909 Y30.9454
G01 X150.8959 Y30.9029
G01 X150.8990 Y30.8602
G01 X150.9000 Y30.8173
G01 X150.9076 Y30.7863 F1000
G01 X150.9140 Y30.7550
G01 X150.9194 Y30.7235
G01 X150.9237 Y30.6918
G01 X150.9269 Y30.6600
G01 X150.9289 Y30.6281
G01 X150.9299 Y30.5962
G01 X150.9297 Y30.5642
G01 X150.9285 Y30.5323
G01 X150.9261 Y30.5004
G01 X150.9227 Y30.4687
G01 X150.9181 Y30.4370
G01 X150.9084 Y30.3855
G01 X150.8961 Y30.3346
G01 X150.8812 Y30.2844
G01 X150.8637 Y30.2350
G01 X150.8436 Y30.1866
G01 X150.8211 Y30.1392
G01 X150.7962 Y30.0931
G01 X150.7690 Y30.0484
G01 X150.7370 Y30.0013
G01 X150.7026 Y29.9560
G01 X150.6659 Y29.9125
G01 X150.6271 Y29.8709
G01 X150.5862 Y29.8314
G01 X150.5433 Y29.7940
G01 X150.4985 Y29.7588
G01 X150.4521 Y29.7260
G01 X150.4002 Y29.6932
G01 X150.3467 Y29.6630
G01 X150.2917 Y29.6357
G01 X150.2354 Y29.6111
G01 X150.1780 Y29.5894
G01 X150.1195 Y29.5707
G01 X150.0601 Y29.5550
G01 X150.0000 Y29.5423
G01 X149.9349 Y29.5320
G01 X149.8693 Y29.5250
G01 X149.8035 Y29.5213
G01 X149.7376 Y29.5209
G01 X149.6717 Y29.5239
G01 X149.6061 Y29.5302
G01 X149.5409 Y29.5399
G01 X149.4762 Y29.5528
G01 X149.4079 Y29.5700
G01 X149.3405 Y29.5907
G01 X149.2743 Y29.6148
G01 X149.2094 Y29.6422
G01 X149.1459 Y29.6728
G01 X149.0841 Y29.7065
G01 X149.0240 Y29.7434
G01 X148.9659 Y29.7832
G01 X148.9124 Y29.8326
G01 X148.8613 Y29.8846
G01 X148.8129 Y29.9391
G01 X148.7673 Y29.9959
G01 X148.7245 Y30.0548
G01 X148.6847 Y30.1158
G01 X148.6479 Y30.1787
G01 X148.6142 Y30.2433
G01 X148.5877 Y30.3120
G01 X148.5646 Y30.3819
G01 X148.5450 Y30.4529
G01 X148.5289 Y30.5247
G01 X148.5163 Y30.5972
G01 X148.5073 Y30.6703
G01 X148.5019 Y30.7437
G01 X148.5000 Y30.8173
G01 X148.5019 Y30.8909
G01 X148.5073 Y30.9644
G01 X148.5163 Y31.0374
G01 X148.5289 Y31.1100
G01 X148.5450 Y31.1818
G01 X148.5646 Y31.2528
G01 X148.5877 Y31.3227
G01 X148.6142 Y31.3914
G01 X148.6441 Y31.4587
G01 X148.6772 Y31.5244
G01 X148.7134 Y31.5885
G01 X148.7528 Y31.6507
G01 X148.7952 Y31.7109
G01 X148.8405 Y31.7689
G01 X148.8886 Y31.8247
G01 X148.9394 Y31.8780
G01 X148.9927 Y31.9287
G01 X149.0484 Y31.9768
G01 X149.1065 Y32.0221
G01 X149.1667 Y32.0645
G01 X149.2289 Y32.1039
G01 X149.2929 Y32.1402
G01 X149.3587 Y32.1733
G01 X149.4260 Y32.2031
G01 X149.4947 Y32.2296
G01 X149.5646 Y32.2527
G01 X149.6356 Y32.2724
G01 X149.7074 Y32.2885
G01 X149.7799 Y32.3011
G01 X149.8530 Y32.3101
G01 X149.9264 Y32.3155
G01 X150.0000 Y32.3173
G01 X150.0736 Y32.3155
G01 X150.1470 Y32.3101
G01 X150.2201 Y32.3011
G01 X150.2926 Y32.2885
G01 X150.3645 Y32.2724
G01 X150.4354 Y32.2527
G01 X150.5053 Y32.2296
G01 X150.5740 Y32.2031
G01 X150.6413 Y32.1733
G01 X150.7071 Y32.1402
G01 X150.7712 Y32.1039
G01 X150.8334 Y32.0645
G01 X150.8936 Y32.0221
G01 X150.9516 Y31.9768
G01 X151.0073 Y31.9287
G01 X151.0607 Y31.8780
G01 X151.1114 Y31.8247
G01 X151.1595 Y31.7689
G01 X151.2048 Y31.7109
G01 X151.2472 Y31.6507
G01 X151.2866 Y31.5885
G01 X151.3229 Y31.5244
G01 X151.3560 Y31.4587
G01 X151.3858 Y31.3914
G01 X151.4123 Y31.3227
G01 X151.4354 Y31.2528
G01 X151.4550 Y31.1818
G01 X151.4712 Y31.1100
G01 X151.4838 Y31.0374
G01 X151.4928 Y30.9644
G01 X151.4982 Y30.8909
G01 X151.5000 Y30.8173
G01 X151.4958 Y30.7052
G01 X151.4832 Y30.5938
G01 X151.4624 Y30.4836
G01 X151.4334 Y30.3752
G01 X151.3963 Y30.2693
G01 X151.3514 Y30.1665
G01 X151.2990 Y30.0674
G01 X151.2394 Y29.9724
G01 X151.1727 Y29.8821
G01 X151.0996 Y29.7971
G01 X151.0203 Y29.7178
G01 X150.9352 Y29.6446
G01 X150.8450 Y29.5780
G01 X150.7500 Y29.5183
G01 X150.6508 Y29.4659
G01 X150.5480 Y29.4211
G01 X150.4421 Y29.3840
G01 X150.3338 Y29.3550
G01 X150.2236 Y29.3341
G01 X150.1121 Y29.3216
G01 X150.0000 Y29.3174
G01 X149.8879 Y29.3216
G01 X149.7765 Y29.3341
G01 X149.6662 Y29.3550
G01 X149.5579 Y29.3840
G01 X149.4520 Y29.4211
G01 X149.3492 Y29.4659
G01 X149.2500 Y29.5183
G01 X149.1551 Y29.5780
G01 X149.0648 Y29.6446
G01 X148.9798 Y29.7178
G01 X148.9005 Y29.7971
G01 X148.8273 Y29.8821
G01 X148.7607 Y29.9724
G01 X148.7010 Y30.0674
G01 X148.6486 Y30.1665
G01 X148.6037 Y30.2693
G01 X148.5667 Y30.3752
G01 X148.5377 Y30.4836
G01 X148.5168 Y30.5938
G01 X148.5042 Y30.7052
G01 X148.5000 Y30.8173
G01 X148.5042 Y30.9294
G01 X148.5168 Y31.0409
G01 X148.5377 Y31.1511
G01 X148.5667 Y31.2595
G01 X148.6037 Y31.3653
G01 X148.6486 Y31.4682
G01 X148.7010 Y31.5673
G01 X148.7607 Y31.6623
G01 X148.8273 Y31.7526
G01 X148.9005 Y31.8376
G01 X148.9798 Y31.9169
G01 X149.0648 Y31.9901
G01 X149.1551 Y32.0567
G01 X149.2500 Y32.1164
G01 X149.3492 Y32.1688
G01 X149.4520 Y32.2136
G01 X149.5579 Y32.2507
G01 X149.6662 Y32.2797
G01 X149.7765 Y32.3006
G01 X149.8879 Y32.3131
G01 X150.0000 Y32.3173
G01 X150.1121 Y32.3131
G01 X150.2236 Y32.3006
G01 X150.3338 Y32.2797
G01 X150.4421 Y32.2507
G01 X150.5480 Y32.2136
G01 X150.6508 Y32.1688
G01 X150.7500 Y32.1164
G01 X150.8450 Y32.0567
G01 X150.9352 Y31.9901
G01 X151.0203 Y31.9169
G01 X151.0996 Y31.8376
G01 X151.1727 Y31.7526
G01 X151.2394 Y31.6623
G01 X151.2990 Y31.5673
G01 X151.3514 Y31.4682
G01 X151.3963 Y31.3653
G01 X151.4334 Y31.2595
G01 X151.4624 Y31.1511
G01 X151.4832 Y31.0409
G01 X151.4958 Y30.9294
G01 X151.5000 Y30.8173
G01 X151.4954 Y30.7128
G01 X151.4818 Y30.6090
G01 X151.4591 Y30.5068
G01 X151.4276 Y30.4069
G01 X151.3876 Y30.3102
G01 X151.3392 Y30.2173
G01 X151.2830 Y30.1291
G01 X151.2192 Y30.0460
G01 X151.1485 Y29.9688
G01 X151.0713 Y29.8981
G01 X150.9883 Y29.8344
G01 X150.9000 Y29.7781
G01 X150.8071 Y29.7298
G01 X150.7104 Y29.6897
G01 X150.6106 Y29.6582
G01 X150.5084 Y29.6356
G01 X150.4046 Y29.6219
G01 X150.3000 Y29.6174
G01 X150.1954 Y29.6219
G01 X150.0916 Y29.6356
G01 X149.9894 Y29.6582
G01 X149.8896 Y29.6897
G01 X149.7929 Y29.7298
G01 X149.7000 Y29.7781
G01 X149.6117 Y29.8344
G01 X149.5287 Y29.8981
G01 X149.4515 Y29.9688
G01 X149.3808 Y30.0460
G01 X149.3170 Y30.1291
G01 X149.2608 Y30.2173
G01 X149.2124 Y30.3102
G01 X149.1724 Y30.4069
G01 X149.1409 Y30.5068
G01 X149.1182 Y30.6090
G01 X149.1046 Y30.7128
G01 X149.1000 Y30.8173
G01 X149.1011 Y30.8615
G01 X149.1044 Y30.9056
G01 X149.1098 Y30.9494
G01 X149.1173 Y30.9929
G01 X149.1270 Y31.0360
G01 X149.1388 Y31.0786
G01 X149.1526 Y31.1205
G01 X149.1685 Y31.1618
G01 X149.1864 Y31.2021
G01 X149.2063 Y31.2416
G01 X149.2281 Y31.2800
G01 X149.2517 Y31.3174
G01 X149.2771 Y31.3535
G01 X149.3043 Y31.3883
G01 X149.3332 Y31.4217
G01 X149.3636 Y31.4537
G01 X149.3956 Y31.4842
G01 X149.4291 Y31.5131
G01 X149.4639 Y31.5402
G01 X149.5000 Y31.5657
G01 X149.5373 Y31.5893
G01 X149.5758 Y31.6111
G01 X149.6152 Y31.6309
G01 X149.6556 Y31.6488
G01 X149.6968 Y31.6647
G01 X149.7388 Y31.6786
G01 X149.7813 Y31.6904
G01 X149.8244 Y31.7000
G01 X149.8680 Y31.7076
G01 X149.9118 Y31.7130
G01 X149.9559 Y31.7163
G01 X150.0000 Y31.7173
G01 X150.0442 Y31.7163
G01 X150.0882 Y31.7130
G01 X150.1321 Y31.7076
G01 X150.1756 Y31.7000
G01 X150.2187 Y31.6904
G01 X150.2613 Y31.6786
G01 X150.3032 Y31.6647
G01 X150.3444 Y31.6488
G01 X150.3848 Y31.6309
G01 X150.4243 Y31.6111
G01 X150.4627 Y31.5893
G01 X150.5000 Y31.5657
G01 X150.5361 Y31.5402
G01 X150.5710 Y31.5131
G01 X150.6044 Y31.4842
G01 X150.6364 Y31.4537
G01 X150.6669 Y31.4217
G01 X150.6957 Y31.3883
G01 X150.7229 Y31.3535
G01 X150.7483 Y31.3174
G01 X150.7720 Y31.2800
G01 X150.7937 Y31.2416
G01 X150.8136 Y31.2021
G01 X150.8315 Y31.1618
G01 X150.8474 Y31.1205
G01 X150.8613 Y31.0786
G01 X150.8730 Y31.0360
G01 X150.8827 Y30.9929
G01 X150.8903 Y30.9494
G01 X150.8957 Y30.9056
G01 X150.8989 Y30.8615
G01 X150.9000 Y30.8173
M107
M106 S240
G01 X150.8990 Y30.7745 Z-3.5152 F400
G01 X150.8959 Y30.7318 Z-3.5303
G01 X150.8909 Y30.6893 Z-3.5455
G01 X150.8838 Y30.6470 Z-3.5606
G01 X150.8746 Y30.6052 Z-3.5758
G01 X150.8636 Y30.5638 Z-3.5909
G01 X150.8505 Y30.5230 Z-3.6061
G01 X150.8355 Y30.4828 Z-3.6212
G01 X150.8187 Y30.4435 Z-3.6364
G01 X150.8000 Y30.4049 Z-3.6515
G01 X150.7794 Y30.3673 Z-3.6667
G01 X150.7571 Y30.3308 Z-3.6818
G01 X150.7331 Y30.2953 Z-3.6970
G01 X150.7075 Y30.2610 Z-3.7121
G01 X150.6802 Y30.2280 Z-3.7273
G01 X150.6514 Y30.1963 Z-3.7424
G01 X150.6211 Y30.1660 Z-3.7576
G01 X150.5894 Y30.1372 Z-3.7727
G01 X150.5564 Y30.1099 Z-3.7879
G01 X150.5221 Y30.0842 Z-3.8030
G01 X150.4866 Y30.0602 Z-3.8182
G01 X150.4500 Y30.0379 Z-3.8333
G01 X150.4124 Y30.0174 Z-3.8485
G01 X150.3739 Y29.9987 Z-3.8636
G01 X150.3345 Y29.9818 Z-3.8788
G01 X150.2944 Y29.9668 Z-3.8939
G01 X150.2536 Y29.9538 Z-3.9091
G01 X150.2122 Y29.9427 Z-3.9242
G01 X150.1703 Y29.9336 Z-3.9394
G01 X150.1281 Y29.9265 Z-3.9545
G01 X150.0856 Y29.9214 Z-3.9697
G01 X150.0428 Y29.9184 Z-3.9848
G01 X150.0000 Y29.9173 Z-4.0000
G01 X149.9572 Y29.9184 Z-4.0152
G01 X149.9145 Y29.9214 Z-4.0303
G01 X149.8719 Y29.9265 Z-4.0455
G01 X149.8297 Y29.9336 Z-4.0606
G01 X149.7878 Y29.9427 Z-4.0758
G01 X149.7465 Y29.9538 Z-4.0909
G01 X149.7057 Y29.9668 Z-4.1061
G01 X149.6655 Y29.9818 Z-4.1212
G01 X149.6261 Y29.9987 Z-4.1364
G01 X149.5876 Y30.0174 Z-4.1515
G01 X149.5500 Y30.0379 Z-4.1667
G01 X149.5134 Y30.0602 Z-4.1818
G01 X149.4780 Y30.0842 Z-4.1970
G01 X149.4437 Y30.1099 Z-4.2121
G01 X149.4106 Y30.1372 Z-4.2273
G01 X149.3789 Y30.1660 Z-4.2424
G01 X149.3487 Y30.1963 Z-4.2576
G01 X149.3198 Y30.2280 Z-4.2727
G01 X149.2926 Y30.2610 Z-4.2879
G01 X149.2669 Y30.2953 Z-4.3030
G01 X149.2429 Y30.3308 Z-4.3182
G01 X149.2206 Y30.3673 Z-4.3333
G01 X149.2001 Y30.4049 Z-4.3485
G01 X149.1813 Y30.4435 Z-4.3636
G01 X149.1645 Y30.4828 Z-4.3788
G01 X149.1495 Y30.5230 Z-4.3939
G01 X149.1365 Y30.5638 Z-4.4091
G01 X149.1254 Y30.6052 Z-4.4242
G01 X149.1163 Y30.6470 Z-4.4394
G01 X149.1092 Y30.6893 Z-4.4545
G01 X149.1041 Y30.7318 Z-4.4697
G01 X149.1010 Y30.7745 Z-4.4848
G01 X149.1000 Y30.8173 Z-4.5000
G01 X149.1010 Y30.8602 Z-4.5152
G01 X149.1041 Y30.9029 Z-4.5303
G01 X149.1092 Y30.9454 Z-4.5455
G01 X149.1163 Y30.9877 Z-4.5606
G01 X149.1254 Y31.0295 Z-4.5758
G01 X149.1365 Y31.0709 Z-4.5909
G01 X149.1495 Y31.1117 Z-4.6061
G01 X149.1645 Y31.1518 Z-4.6212
G01 X149.1813 Y31.1912 Z-4.6364
G01 X149.2001 Y31.2297 Z-4.6515
G01 X149.2206 Y31.2673 Z-4.6667
G01 X149.2429 Y31.3039 Z-4.6818
G01 X149.2669 Y31.3394 Z-4.6970
G01 X149.2926 Y31.3737 Z-4.7121
G01 X149.3198 Y31.4067 Z-4.7273
G01 X149.3487 Y31.4384 Z-4.7424
G01 X149.3789 Y31.4687 Z-4.7576
G01 X149.4106 Y31.4975 Z-4.7727
G01 X149.4437 Y31.5248 Z-4.7879
G01 X149.4780 Y31.5505 Z-4.8030
G01 X149.5134 Y31.5745 Z-4.8182
G01 X149.5500 Y31.5968 Z-4.8333
G01 X149.5876 Y31.6173 Z-4.8485
G01 X149.6261 Y31.6360 Z-4.8636
G01 X149.6655 Y31.6529 Z-4.8788
G01 X149.7057 Y31.6678 Z-4.8939
G01 X149.7465 Y31.6809 Z-4.9091
G01 X149.7878 Y31.6920 Z-4.9242
G01 X149.8297 Y31.7011 Z-4.9394
G01 X149.8719 Y31.7082 Z-4.9545
G01 X149.9145 Y31.7133 Z-4.9697
G01 X149.9572 Y31.7163 Z-4.9848
G01 X150.0000 Y31.7173 Z-5.0000
G01 X150.0428 Y31.7163 Z-5.0152
G01 X150.0856 Y31.7133 Z-5.0303
G01 X150.1281 Y31.7082 Z-5.0455
G01 X150.1703 Y31.7011 Z-5.0606
G01 X150.2122 Y31.6920 Z-5.0758
G01 X150.2536 Y31.6809 Z-5.0909
G01 X150.2944 Y31.6678 Z-5.1061
G01 X150.3345 Y31.6529 Z-5.1212
G01 X150.3739 Y31.6360 Z-5.1364
G01 X150.4124 Y31.6173 Z-5.1515
G01 X150.4500 Y31.5968 Z-5.1667
G01 X150.4866 Y31.5745 Z-5.1818
G01 X150.5221 Y31.5505 Z-5.1970
G01 X150.5564 Y31.5248 Z-5.2121
G01 X150.5894 Y31.4975 Z-5.2273
G01 X150.6211 Y31.4687 Z-5.2424
G01 X150.6514 Y31.4384 Z-5.2576
G01 X150.6802 Y31.4067 Z-5.2727
G01 X150.7075 Y31.3737 Z-5.2879
G01 X150.7331 Y31.3394 Z-5.3030
G01 X150.7571 Y31.3039 Z-5.3182
G01 X150.7794 Y31.2673 Z-5.3333
G01 X150.8000 Y31.2297 Z-5.3485
G01 X150.8187 Y31.1912 Z-5.3636
G01 X150.8355 Y31.1518 Z-5.3788
G01 X150.8505 Y31.1117 Z-5.3939
G01 X150.8636 Y31.0709 Z-5.4091
G01 X150.8746 Y31.0295 Z-5.4242
G01 X150.8838 Y30.9877 Z-5.4394
G01 X150.8909 Y30.9454 Z-5.4545
G01 X150.8959 Y30.9029 Z-5.4697
G01 X150.8990 Y30.8602 Z-5.4848
G01 X150.9000 Y30.8173 Z-5.5000
G01 X150.8990 Y30.7745
G01 X150.8959 Y30.7318
G01 X150.8909 Y30.6893
G01 X150.8838 Y30.6470
G01 X150.8746 Y30.6052
G01 X150.8636 Y30.5638
G01 X150.8505 Y30.5230
G01 X150.8355 Y30.4828
G01 X150.8187 Y30.4435
G01 X150.8000 Y30.4049
G01 X150.7794 Y30.3673
G01 X150.7571 Y30.3308
G01 X150.7331 Y30.2953
G01 X150.7075 Y30.2610
G01 X150.6802 Y30.2280
G01 X150.6514 Y30.1963
G01 X150.6211 Y30.1660
G01 X150.5894 Y30.1372
G01 X150.5564 Y30.1099
G01 X150.5221 Y30.0842
G01 X150.4866 Y30.0602
G01 X150.4500 Y30.0379
G01 X150.4124 Y30.0174
G01 X150.3739 Y29.9987
G01 X150.3345 Y29.9818
G01 X150.2944 Y29.9668
G01 X150.2536 Y29.9538
G01 X150.2122 Y29.9427
G01 X150.1703 Y29.9336
G01 X150.1281 Y29.9265
G01 X150.0856 Y29.9214
G01 X150.0428 Y29.9184
G01 X150.0000 Y29.9173
G01 X149.9572 Y29.9184
G01 X149.9145 Y29.9214
G01 X149.8719 Y29.9265
G01 X149.8297 Y29.9336
G01 X149.7878 Y29.9427
G01 X149.7465 Y29.9538
G01 X149.7057 Y29.9668
G01 X149.6655 Y29.9818
G01 X149.6261 Y29.9987
G01 X149.5876 Y30.0174
G01 X149.5500 Y30.0379
G01 X149.5134 Y30.0602
G01 X149.4780 Y30.0842
G01 X149.4437 Y30.1099
G01 X149.4106 Y30.1372
G01 X149.3789 Y30.1660
G01 X149.3487 Y30.1963
G01 X149.3198 Y30.2280
G01 X149.2926 Y30.2610
G01 X149.2669 Y30.2953
G01 X149.2429 Y30.3308
G01 X149.2206 Y30.3673
G01 X149.2001 Y30.4049
G01 X149.1813 Y30.4435
G01 X149.1645 Y30.4828
G01 X149.1495 Y30.5230
G01 X149.1365 Y30.5638
G01 X149.1254 Y30.6052
G01 X149.1163 Y30.6470
G01 X149.1092 Y30.6893
G01 X149.1041 Y30.7318
G01 X149.1010 Y30.7745
G01 X149.1000 Y30.8173
G01 X149.1010 Y30.8602
G01 X149.1041 Y30.9029
G01 X149.1092 Y30.9454
G01 X149.1163 Y30.9877
G01 X149.1254 Y31.0295
G01 X149.1365 Y31.0709
G01 X149.1495 Y31.1117
G01 X149.1645 Y31.1518
G01 X149.1813 Y31.1912
G01 X149.2001 Y31.2297
G01 X149.2206 Y31.2673
G01 X149.2429 Y31.3039
G01 X149.2669 Y31.3394
G01 X149.2926 Y31.3737
G01 X149.3198 Y31.4067
G01 X149.3487 Y31.4384
G01 X149.3789 Y31.4687
G01 X149.4106 Y31.4975
G01 X149.4437 Y31.5248
G01 X149.4780 Y31.5505
G01 X149.5134 Y31.5745
G01 X149.5500 Y31.5968
G01 X149.5876 Y31.6173
G01 X149.6261 Y31.6360
G01 X149.6655 Y31.6529
G01 X149.7057 Y31.6678
G01 X149.7465 Y31.6809
G01 X149.7878 Y31.6920
G01 X149.8297 Y31.7011
G01 X149.8719 Y31.7082
G01 X149.9145 Y31.7133
G01 X149.9572 Y31.7163
G01 X150.0000 Y31.7173
G01 X150.0428 Y31.7163
G01 X150.0856 Y31.7133
G01 X150.1281 Y31.7082
G01 X150.1703 Y31.7011
G01 X150.2122 Y31.6920
G01 X150.2536 Y31.6809
G01 X150.2944 Y31.6678
G01 X150.3345 Y31.6529
G01 X150.3739 Y31.6360
G01 X150.4124 Y31.6173
G01 X150.4500 Y31.5968
G01 X150.4866 Y31.5745
G01 X150.5221 Y31.5505
G01 X150.5564 Y31.5248
G01 X150.5894 Y31.4975
G01 X150.6211 Y31.4687
G01 X150.6514 Y31.4384
G01 X150.6802 Y31.4067
G01 X150.7075 Y31.3737
G01 X150.7331 Y31.3394
G01 X150.7571 Y31.3039
G01 X150.7794 Y31.2673
G01 X150.8000 Y31.2297
G01 X150.8187 Y31.1912
G01 X150.8355 Y31.1518
G01 X150.8505 Y31.1117
G01 X150.8636 Y31.0709
G01 X150.8746 Y31.0295
G01 X150.8838 Y30.9877
G01 X150.8909 Y30.9454
G01 X150.8959 Y30.9029
G01 X150.8990 Y30.8602
G01 X150.9000 Y30.8173
G01 X150.9076 Y30.7863 F1000
G01 X150.9140 Y30.7550
G01 X150.9194 Y30.7235
G01 X150.9237 Y30.6918
G01 X150.9269 Y30.6600
G01 X150.9289 Y30.6281
G01 X150.9299 Y30.5962
G01 X150.9297 Y30.5642
G01 X150.9285 Y30.5323
G01 X150.9261 Y30.5004
G01 X150.9227 Y30.4687
G01 X150.9181 Y30.4370
G01 X150.9084 Y30.3855
G01 X150.8961 Y30.3346
G01 X150.8812 Y30.2844
G01 X150.8637 Y30.2350
G01 X150.8436 Y30.1866
G01 X150.8211 Y30.1392
G01 X150.7962 Y30.0931
G01 X150.7690 Y30.0484
G01 X150.7370 Y30.0013
G01 X150.7026 Y29.9560
G01 X150.6659 Y29.9125
G01 X150.6271 Y29.8709
G01 X150.5862 Y29.8314
G01 X150.5433 Y29.7940
G01 X150.4985 Y29.7588
G01 X150.4521 Y29.7260
G01 X150.4002 Y29.6932
G01 X150.3467 Y29.6630
G01 X150.2917 Y29.6357
G01 X150.2354 Y29.6111
G01 X150.1780 Y29.5894
G01 X150.1195 Y29.5707
G01 X150.0601 Y29.5550
G01 X150.0000 Y29.5423
G01 X149.9349 Y29.5320
G01 X149.8693 Y29.5250
G01 X149.8035 Y29.5213
G01 X149.7376 Y29.5209
G01 X149.6717 Y29.5239
G01 X149.6061 Y29.5302
G01 X149.5409 Y29.5399
G01 X149.4762 Y29.5528
G01 X149.4079 Y29.5700
G01 X149.3405 Y29.5907
G01 X149.2743 Y29.6148
G01 X149.2094 Y29.6422
G01 X149.1459 Y29.6728
G01 X149.0841 Y29.7065
G01 X149.0240 Y29.7434
G01 X148.9659 Y29.7832
G01 X148.9124 Y29.8326
G01 X148.8613 Y29.8846
G01 X148.8129 Y29.9391
G01 X148.7673 Y29.9959
G01 X148.7245 Y30.0548
G01 X148.6847 Y30.1158
G01 X148.6479 Y30.1787
G01 X148.6142 Y30.2433
G01 X148.5877 Y30.3120
G01 X148.5646 Y30.3819
G01 X148.5450 Y30.4529
G01 X148.5289 Y30.5247
G01 X148.5163 Y30.5972
G01 X148.5073 Y30.6703
G01 X148.5019 Y30.7437
G01 X148.5000 Y30.8173
G01 X148.5019 Y30.8909
G01 X148.5073 Y30.9644
G01 X148.5163 Y31.0374
G01 X148.5289 Y31.1100
G01 X148.5450 Y31.1818
G01 X148.5646 Y31.2528
G01 X148.5877 Y31.3227
G01 X148.6142 Y31.3914
G01 X148.6441 Y31.4587
G01 X148.6772 Y31.5244
G01 X148.7134 Y31.5885
G01 X148.7528 Y31.6507
G01 X148.7952 Y31.7109
G01 X148.8405 Y31.7689
G01 X148.8886 Y31.8247
G01 X148.9394 Y31.8780
G01 X148.9927 Y31.9287
G01 X149.0484 Y31.9768
G01 X149.1065 Y32.0221
G01 X149.1667 Y32.0645
G01 X149.2289 Y32.1039
G01 X149.2929 Y32.1402
G01 X149.3587 Y32.1733
G01 X149.4260 Y32.2031
G01 X149.4947 Y32.2296
G01 X149.5646 Y32.2527
G01 X149.6356 Y32.2724
G01 X149.7074 Y32.2885
G01 X149.7799 Y32.3011
G01 X149.8530 Y32.3101
G01 X149.9264 Y32.3155
G01 X150.0000 Y32.3173
G01 X150.0736 Y32.3155
G01 X150.1470 Y32.3101
G01 X150.2201 Y32.3011
G01 X150.2926 Y32.2885
G01 X150.3645 Y32.2724
G01 X150.4354 Y32.2527
G01 X150.5053 Y32.2296
G01 X150.5740 Y32.2031
G01 X150.6413 Y32.1733
G01 X150.7071 Y32.1402
G01 X150.7712 Y32.1039
G01 X150.8334 Y32.0645
G01 X150.8936 Y32.0221
G01 X150.9516 Y31.9768
G01 X151.0073 Y31.9287
G01 X151.0607 Y31.8780
G01 X151.1114 Y31.8247
G01 X151.1595 Y31.7689
G01 X151.2048 Y31.7109
G01 X151.2472 Y31.6507
G01 X151.2866 Y31.5885
G01 X151.3229 Y31.5244
G01 X151.3560 Y31.4587
G01 X151.3858 Y31.3914
G01 X151.4123 Y31.3227
G01 X151.4354 Y31.2528
G01 X151.4550 Y31.1818
G01 X151.4712 Y31.1100
G01 X151.4838 Y31.0374
G01 X151.4928 Y30.9644
G01 X151.4982 Y30.8909
G01 X151.5000 Y30.8173
G01 X151.4958 Y30.7052
G01 X151.4832 Y30.5938
G01 X151.4624 Y30.4836
G01 X151.4334 Y30.3752
G01 X151.3963 Y30.2693
G01 X151.3514 Y30.1665
G01 X151.2990 Y30.0674
G01 X151.2394 Y29.9724
G01 X151.1727 Y29.8821
G01 X151.0996 Y29.7971
G01 X151.0203 Y29.7178
G01 X150.9352 Y29.6446
G01 X150.8450 Y29.5780
G01 X150.7500 Y29.5183
G01 X150.6508 Y29.4659
G01 X150.5480 Y29.4211
G01 X150.4421 Y29.3840
G01 X150.3338 Y29.3550
G01 X150.2236 Y29.3341
G01 X150.1121 Y29.3216
G01 X150.0000 Y29.3174
G01 X149.8879 Y29.3216
G01 X149.7765 Y29.3341
G01 X149.6662 Y29.3550
G01 X149.5579 Y29.3840
G01 X149.4520 Y29.4211
G01 X149.3492 Y29.4659
G01 X149.2500 Y29.5183
G01 X149.1551 Y29.5780
G01 X149.0648 Y29.6446
G01 X148.9798 Y29.7178
G01 X148.9005 Y29.7971
G01 X148.8273 Y29.8821
G01 X148.7607 Y29.9724
G01 X148.7010 Y30.0674
G01 X148.6486 Y30.1665
G01 X148.6037 Y30.2693
G01 X148.5667 Y30.3752
G01 X148.5377 Y30.4836
G01 X148.5168 Y30.5938
G01 X148.5042 Y30.7052
G01 X148.5000 Y30.8173
G01 X148.5042 Y30.9294
G01 X148.5168 Y31.0409
G01 X148.5377 Y31.1511
G01 X148.5667 Y31.2595
G01 X148.6037 Y31.3653
G01 X148.6486 Y31.4682
G01 X148.7010 Y31.5673
G01 X148.7607 Y31.6623
G01 X148.8273 Y31.7526
G01 X148.9005 Y31.8376
G01 X148.9798 Y31.9169
G01 X149.0648 Y31.9901
G01 X149.1551 Y32.0567
G01 X149.2500 Y32.1164
G01 X149.3492 Y32.1688
G01 X149.4520 Y32.2136
G01 X149.5579 Y32.2507
G01 X149.6662 Y32.2797
G01 X149.7765 Y32.3006
G01 X149.8879 Y32.3131
G01 X150.0000 Y32.3173
G01 X150.1121 Y32.3131
G01 X150.2236 Y32.3006
G01 X150.3338 Y32.2797
G01 X150.4421 Y32.2507
G01 X150.5480 Y32.2136
G01 X150.6508 Y32.1688
G01 X150.7500 Y32.1164
G01 X150.8450 Y32.0567
G01 X150.9352 Y31.9901
G01 X151.0203 Y31.9169
G01 X151.0996 Y31.8376
G01 X151.1727 Y31.7526
G01 X151.2394 Y31.6623
G01 X151.2990 Y31.5673
G01 X151.3514 Y31.4682
G01 X151.3963 Y31.3653
G01 X151.4334 Y31.2595
G01 X151.4624 Y31.1511
G01 X151.4832 Y31.0409
G01 X151.4958 Y30.9294
G01 X151.5000 Y30.8173
M107
M106 S240
G01 X151.4969 Y30.7389 Z-5.4750 F400
M107
M106 S240
G01 X151.4877 Y30.6609 Z-5.4500
M107
M106 S240
G01 X151.4724 Y30.5839 Z-5.4250
M107
M106 S240
G01 X151.4510 Y30.5083 Z-5.4000
M107
M106 S240
G01 X151.4239 Y30.4347 Z-5.3750
M107
M106 S240
G01 X151.3910 Y30.3634 Z-5.3500
M107
M106 S240
G01 X151.3526 Y30.2948 Z-5.3250
M107
M106 S240
G01 X151.3090 Y30.2296 Z-5.3000
M107
M106 S240
G01 X151.2604 Y30.1679 Z-5.2750
M107
M106 S240
G01 X151.2071 Y30.1102 Z-5.2500
M107
M106 S240
G01 X151.1494 Y30.0569 Z-5.2250
M107
M106 S240
G01 X151.0878 Y30.0083 Z-5.2000
M107
M106 S240
G01 X151.0225 Y29.9647 Z-5.1750
M107
M106 S240
G01 X150.9540 Y29.9263 Z-5.1500
M107
M106 S240
G01 X150.8827 Y29.8935 Z-5.1250
M107
M106 S240
G01 X150.8090 Y29.8663 Z-5.1000
M107
M106 S240
G01 X150.7334 Y29.8450 Z-5.0750
M107
M106 S240
G01 X150.6564 Y29.8297 Z-5.0500
M107
M106 S240
G01 X150.5784 Y29.8204 Z-5.0250
M107
M106 S240
G01 X150.5000 Y29.8173 Z-5.0000
M107
G00 Z2.0000


;No. 6: Hole 34
G00 X149.5339 Y78.0566 Z2.0000
G00 Z0.5000
G01 Z0.0000 F400
G01 Z-1.1000
M106 S240
G01 X151.5282 F1000
G01 X152.1303 Y79.5566
G01 X148.9318
G01 X148.9692 Y81.0566
G01 X148.3297
G01 X148.4124 Y82.5566
G01 X147.7275
G01 X147.8556 Y84.0566
G01 X147.1254
G01 X147.2988 Y85.5566
G01 X146.5233
G01 X146.7420 Y87.0566
G01 X145.9211
G01 X146.1852 Y88.5566
G01 X145.3190
G01 X145.6285 Y90.0566
G01 X144.7169
G01 X145.0717 Y91.5566
G01 X144.1148
M107
G00 Z2.0000
G00 X154.4229 Y87.0566
G00 Z0.5000
G01 Z0.0000 F400
G01 Z-1.1000
M106 S240
G01 X155.1409 F1000
G01 X154.9797 Y88.5566
G01 X155.7430
G01 X155.5365 Y90.0566
G01 X156.3452
G01 X156.0933 Y91.5566
G01 X156.9473
M107
G00 Z2.0000
G00 X154.5388 Y87.0566
G00 Z0.5000
G01 Z-1.1000 F400
M106 S240
G01 Y85.5566 F1000
G01 X153.8661
G01 X153.9367 Y84.0566
G01 X153.3093
G01 X153.3345 Y82.5566
G01 X152.7525
G01 X152.1957 Y81.0566
G01 X152.7324
G01 X152.9757 Y80.9647
G01 X151.4008 Y77.0414
G01 X149.6613
G01 X143.4271 Y92.5718
G01 X144.9722
G01 X149.3637 Y80.7410
G01 X149.4016 Y80.6498
G01 X149.4462 Y80.5618
G01 X149.4974 Y80.4774
G01 X149.5549 Y80.3971
G01 X149.6183 Y80.3214
G01 X149.6872 Y80.2508
G01 X149.7614 Y80.1855
G01 X149.8402 Y80.1261
G01 X149.9233 Y80.0729
G01 X150.0103 Y80.0261
G01 X150.1005 Y79.9860
G01 X150.1935 Y79.9529
G01 X150.2888 Y79.9270
G01 X150.3857 Y79.9084
G01 X150.4838 Y79.8971
G01 X150.5825 Y79.8934
G01 X150.6811 Y79.8971
G01 X150.7792 Y79.9084
G01 X150.8761 Y79.9270
G01 X150.9714 Y79.9529
G01 X151.0644 Y79.9860
G01 X151.1547 Y80.0261
G01 X151.2416 Y80.0729
G01 X151.3247 Y80.1261
G01 X151.4036 Y80.1855
G01 X151.4777 Y80.2508
G01 X151.5466 Y80.3214
G01 X151.6100 Y80.3971
G01 X151.6675 Y80.4774
G01 X151.7187 Y80.5618
G01 X151.7634 Y80.6498
G01 X151.8012 Y80.7410
G01 X156.1928 Y92.5718
G01 X157.6350
G01 X152.9757 Y80.9647
G01 X152.7324 Y81.0566
M107
G00 Z2.0000


;No. 7: Hole 34
G00 X149.6613 Y77.0414 Z2.0000
G00 Z0.5000
G01 Z-1.1000 F400
M106 S240
G01 X149.4584 Y76.7414 F1000
G01 X142.9834 Y92.8718
G01 X145.1808
G01 X149.6450 Y80.8454
G01 X149.6622 Y80.8020
G01 X149.6815 Y80.7594
G01 X149.7028 Y80.7178
G01 X149.7260 Y80.6772
G01 X149.7511 Y80.6377
G01 X149.7779 Y80.5995
G01 X149.8066 Y80.5626
G01 X149.8369 Y80.5270
G01 X149.8688 Y80.4929
G01 X149.9023 Y80.4603
G01 X149.9373 Y80.4293
G01 X149.9738 Y80.4000
G01 X150.0115 Y80.3724
G01 X150.0505 Y80.3466
G01 X150.0906 Y80.3227
G01 X150.1319 Y80.3007
G01 X150.1741 Y80.2806
G01 X150.2172 Y80.2625
G01 X150.2611 Y80.2465
G01 X150.3057 Y80.2325
G01 X150.3509 Y80.2206
G01 X150.3966 Y80.2108
G01 X150.4427 Y80.2032
G01 X150.4891 Y80.1978
G01 X150.5357 Y80.1945
G01 X150.5825 Y80.1934
G01 X150.6292 Y80.1945
G01 X150.6758 Y80.1978
G01 X150.7222 Y80.2032
G01 X150.7684 Y80.2108
G01 X150.8141 Y80.2206
G01 X150.8593 Y80.2325
G01 X150.9039 Y80.2465
G01 X150.9478 Y80.2625
G01 X150.9909 Y80.2806
G01 X151.0331 Y80.3007
G01 X151.0743 Y80.3227
G01 X151.1144 Y80.3466
G01 X151.1534 Y80.3724
G01 X151.1912 Y80.4000
G01 X151.2276 Y80.4293
G01 X151.2626 Y80.4603
G01 X151.2961 Y80.4929
G01 X151.3280 Y80.5270
G01 X151.3584 Y80.5626
G01 X151.3870 Y80.5995
G01 X151.4139 Y80.6377
G01 X151.4389 Y80.6772
G01 X151.4621 Y80.7178
G01 X151.4834 Y80.7594
G01 X151.5027 Y80.8020
G01 X151.5200 Y80.8454
G01 X155.9841 Y92.8718
G01 X158.0787
G01 X151.6036 Y76.7414
G01 X149.4584
G01 X149.6613 Y77.0414
M107
G00 Z0.0000
G00 Z2.0000


;No. 8: Hole 33
G00 X163.8951 Y78.8709 Z2.0000
G00 Z0.5000
G01 Z0.0000 F400
G01 Z-1.1000
M106 S240
G01 X164.8004 F1000
G01 X164.7098 Y80.3709
G01 X163.8951
G01 Y81.8709
G01 X164.7098
G01 X164.7225 Y83.3709
G01 X163.8951
G01 Y84.8709
G01 X173.1964
G01 X164.7448
G01 Y86.3709
G01 X163.8951
G01 Y87.8709
G01 X164.7098
G01 Y89.3709
G01 X163.8951
G01 Y90.8709
G01 X164.8004
G01 X165.0508 Y90.7976
G01 X165.0319 Y90.7435
G01 X165.0154 Y90.6885
G01 X165.0015 Y90.6329
G01 X164.9900 Y90.5768
G01 X164.9811 Y90.5201
G01 X164.9747 Y90.4631
G01 X164.9710 Y90.4059
G01 X164.9698 Y90.3486
G01 Y86.6968
G01 X164.9738 Y86.5948
G01 X164.9858 Y86.4935
G01 X165.0057 Y86.3933
G01 X165.0334 Y86.2951
G01 X165.0687 Y86.1993
G01 X165.1115 Y86.1066
G01 X165.1613 Y86.0176
G01 X165.2180 Y85.9327
G01 X165.2812 Y85.8525
G01 X165.3505 Y85.7776
G01 X165.4255 Y85.7083
G01 X165.5056 Y85.6451
G01 X165.5905 Y85.5884
G01 X165.6796 Y85.5385
G01 X165.7723 Y85.4958
G01 X165.8680 Y85.4604
G01 X165.9663 Y85.4327
G01 X166.0664 Y85.4128
G01 X166.1678 Y85.4008
G01 X166.2698 Y85.3968
G01 X173.4564
G01 Y84.4736
G01 X166.2698
G01 X166.1678 Y84.4696
G01 X166.0664 Y84.4576
G01 X165.9663 Y84.4377
G01 X165.8680 Y84.4100
G01 X165.7723 Y84.3746
G01 X165.6796 Y84.3319
G01 X165.5905 Y84.2820
G01 X165.5056 Y84.2253
G01 X165.4255 Y84.1621
G01 X165.3505 Y84.0928
G01 X165.2812 Y84.0179
G01 X165.2180 Y83.9377
G01 X165.1613 Y83.8528
G01 X165.1115 Y83.7638
G01 X165.0687 Y83.6711
G01 X165.0334 Y83.5753
G01 X165.0057 Y83.4771
G01 X164.9858 Y83.3770
G01 X164.9738 Y83.2756
G01 X164.9698 Y83.1736
G01 Y79.3932
G01 X164.9738 Y79.2912
G01 X164.9858 Y79.1899
G01 X165.0057 Y79.0897
G01 X165.0334 Y78.9915
G01 X165.0687 Y78.8957
G01 X165.1115 Y78.8030
G01 X165.1613 Y78.7140
G01 X165.2180 Y78.6291
G01 X165.2812 Y78.5489
G01 X165.3505 Y78.4740
G01 X165.4255 Y78.4047
G01 X165.5056 Y78.3415
G01 X165.5905 Y78.2848
G01 X165.6796 Y78.2349
G01 X165.7723 Y78.1922
G01 X165.8680 Y78.1568
G01 X165.9663 Y78.1291
G01 X166.0664 Y78.1092
G01 X166.1678 Y78.0972
G01 X166.2698 Y78.0932
G01 X174.7422
G01 Y77.1700
G01 X163.6351
G01 Y92.5718
G01 X174.6136
G01 Y91.6486
G01 X166.2698
G01 X166.1709 Y91.6449
G01 X166.0726 Y91.6337
G01 X165.9755 Y91.6150
G01 X165.8801 Y91.5890
G01 X165.7869 Y91.5558
G01 X165.6965 Y91.5155
G01 X165.6095 Y91.4685
G01 X165.5263 Y91.4151
G01 X165.4474 Y91.3554
G01 X165.3733 Y91.2899
G01 X165.3044 Y91.2189
G01 X165.2411 Y91.1429
G01 X165.1838 Y91.0622
G01 X165.1328 Y90.9775
G01 X165.0884 Y90.8891
G01 X165.0508 Y90.7976
G01 X164.8004 Y90.8709
M107
G00 Z2.0000


;No. 9: Hole 33
G00 X163.6351 Y77.1700 Z2.0000
G00 Z0.5000
G01 Z-1.1000 F400
M106 S240
G01 X163.3351 Y76.8700 F1000
G01 Y92.8718
G01 X174.9136
G01 Y91.3486
G01 X166.2698
G01 X166.1913 Y91.3455
G01 X166.1133 Y91.3363
G01 X166.0363 Y91.3210
G01 X165.9608 Y91.2997
G01 X165.8871 Y91.2725
G01 X165.8158 Y91.2396
G01 X165.7473 Y91.2013
G01 X165.6820 Y91.1576
G01 X165.6203 Y91.1090
G01 X165.5627 Y91.0557
G01 X165.5094 Y90.9981
G01 X165.4608 Y90.9364
G01 X165.4171 Y90.8711
G01 X165.3788 Y90.8026
G01 X165.3459 Y90.7313
G01 X165.3187 Y90.6576
G01 X165.2974 Y90.5821
G01 X165.2821 Y90.5051
G01 X165.2729 Y90.4271
G01 X165.2698 Y90.3486
G01 Y86.6968
G01 X165.2707 Y86.6532
G01 X165.2736 Y86.6097
G01 X165.2783 Y86.5663
G01 X165.2850 Y86.5232
G01 X165.2935 Y86.4804
G01 X165.3038 Y86.4380
G01 X165.3161 Y86.3961
G01 X165.3301 Y86.3548
G01 X165.3459 Y86.3141
G01 X165.3635 Y86.2742
G01 X165.3828 Y86.2351
G01 X165.4037 Y86.1968
G01 X165.4264 Y86.1595
G01 X165.4506 Y86.1232
G01 X165.4764 Y86.0881
G01 X165.5037 Y86.0540
G01 X165.5325 Y86.0212
G01 X165.5627 Y85.9897
G01 X165.5942 Y85.9595
G01 X165.6270 Y85.9308
G01 X165.6610 Y85.9035
G01 X165.6962 Y85.8777
G01 X165.7325 Y85.8534
G01 X165.7698 Y85.8308
G01 X165.8080 Y85.8098
G01 X165.8472 Y85.7905
G01 X165.8871 Y85.7729
G01 X165.9277 Y85.7571
G01 X165.9691 Y85.7431
G01 X166.0110 Y85.7309
G01 X166.0533 Y85.7205
G01 X166.0961 Y85.7120
G01 X166.1392 Y85.7054
G01 X166.1826 Y85.7006
G01 X166.2262 Y85.6978
G01 X166.2698 Y85.6968
G01 X173.7564
G01 Y84.1736
G01 X166.2698
G01 X166.2262 Y84.1726
G01 X166.1826 Y84.1698
G01 X166.1392 Y84.1650
G01 X166.0961 Y84.1584
G01 X166.0533 Y84.1499
G01 X166.0110 Y84.1395
G01 X165.9691 Y84.1273
G01 X165.9277 Y84.1133
G01 X165.8871 Y84.0975
G01 X165.8472 Y84.0799
G01 X165.8080 Y84.0606
G01 X165.7698 Y84.0396
G01 X165.7325 Y84.0170
G01 X165.6962 Y83.9928
G01 X165.6610 Y83.9670
G01 X165.6270 Y83.9396
G01 X165.5942 Y83.9109
G01 X165.5627 Y83.8807
G01 X165.5325 Y83.8492
G01 X165.5037 Y83.8164
G01 X165.4764 Y83.7824
G01 X165.4506 Y83.7472
G01 X165.4264 Y83.7109
G01 X165.4037 Y83.6736
G01 X165.3828 Y83.6353
G01 X165.3635 Y83.5962
G01 X165.3459 Y83.5563
G01 X165.3301 Y83.5156
G01 X165.3161 Y83.4743
G01 X165.3038 Y83.4324
G01 X165.2935 Y83.3900
G01 X165.2850 Y83.3472
G01 X165.2783 Y83.3041
G01 X165.2736 Y83.2608
G01 X165.2707 Y83.2172
G01 X165.2698 Y83.1736
G01 Y79.3932
G01 X165.2707 Y79.3496
G01 X165.2736 Y79.3061
G01 X165.2783 Y79.2627
G01 X165.2850 Y79.2196
G01 X165.2935 Y79.1768
G01 X165.3038 Y79.1344
G01 X165.3161 Y79.0925
G01 X165.3301 Y79.0512
G01 X165.3459 Y79.0105
G01 X165.3635 Y78.9706
G01 X165.3828 Y78.9315
G01 X165.4037 Y78.8932
G01 X165.4264 Y78.8559
G01 X165.4506 Y78.8196
G01 X165.4764 Y78.7845
G01 X165.5037 Y78.7504
G01 X165.5325 Y78.7176
G01 X165.5627 Y78.6861
G01 X165.5942 Y78.6559
G01 X165.6270 Y78.6272
G01 X165.6610 Y78.5999
G01 X165.6962 Y78.5741
G01 X165.7325 Y78.5498
G01 X165.7698 Y78.5272
G01 X165.8080 Y78.5062
G01 X165.8472 Y78.4869
G01 X165.8871 Y78.4693
G01 X165.9277 Y78.4535
G01 X165.9691 Y78.4395
G01 X166.0110 Y78.4273
G01 X166.0533 Y78.4169
G01 X166.0961 Y78.4084
G01 X166.1392 Y78.4018
G01 X166.1826 Y78.3970
G01 X166.2262 Y78.3942
G01 X166.2698 Y78.3932
G01 X175.0422
G01 Y76.8700
G01 X163.3351
G01 X163.6351 Y77.1700
M107
G00 Z0.0000
G00 Z2.0000


;No. 10: Hole 32
G00 X181.1234 Y78.8709 Z2.0000
G00 Z0.5000
G01 Z0.0000 F400
G01 Z-1.1000
M106 S240
G01 X181.9638 F1000
G01 Y80.3709
G01 X181.1234
G01 Y81.8709
G01 X181.9638
G01 X181.9888 Y83.3709
G01 X181.1234
G01 Y84.8709
G01 X193.2278
G01 Y83.3709
G01 X192.3624
G01 X192.3874 Y81.8709
G01 X193.2278
G01 Y80.3709
G01 X192.3874
G01 Y78.8709
G01 X193.2278
M107
G00 Z2.0000
G00 Y84.8709
G00 Z0.5000
G01 Z-1.1000 F400
M106 S240
G01 Y86.3709 F1000
G01 X192.3404
G01 X192.3874 Y87.8709
G01 X193.2278
G01 Y89.3709
G01 X192.3874
G01 Y90.8709
G01 X193.2278
M107
G00 Z2.0000
G00 X182.0108 Y84.8709
G00 Z0.5000
G01 Z-1.1000 F400
M106 S240
G01 Y86.3709 F1000
G01 X181.1234
G01 Y87.8709
G01 X181.9638
G01 Y89.3709
G01 X181.1234
G01 Y90.8709
G01 X181.9638
G01 X182.2238 Y90.8594
G01 Y86.7483
G01 X182.2278 Y86.6463
G01 X182.2398 Y86.5449
G01 X182.2597 Y86.4448
G01 X182.2874 Y86.3465
G01 X182.3228 Y86.2508
G01 X182.3655 Y86.1581
G01 X182.4154 Y86.0690
G01 X182.4721 Y85.9841
G01 X182.5353 Y85.9040
G01 X182.6046 Y85.8290
G01 X182.6795 Y85.7597
G01 X182.7597 Y85.6965
G01 X182.8446 Y85.6398
G01 X182.9336 Y85.5899
G01 X183.0263 Y85.5472
G01 X183.1221 Y85.5119
G01 X183.2203 Y85.4842
G01 X183.3204 Y85.4643
G01 X183.4218 Y85.4523
G01 X183.5238 Y85.4483
G01 X190.8274
G01 X190.9294 Y85.4523
G01 X191.0308 Y85.4643
G01 X191.1309 Y85.4842
G01 X191.2291 Y85.5119
G01 X191.3249 Y85.5472
G01 X191.4176 Y85.5899
G01 X191.5066 Y85.6398
G01 X191.5915 Y85.6965
G01 X191.6717 Y85.7597
G01 X191.7466 Y85.8290
G01 X191.8159 Y85.9040
G01 X191.8791 Y85.9841
G01 X191.9358 Y86.0690
G01 X191.9857 Y86.1581
G01 X192.0284 Y86.2508
G01 X192.0638 Y86.3465
G01 X192.0915 Y86.4448
G01 X192.1114 Y86.5449
G01 X192.1234 Y86.6463
G01 X192.1274 Y86.7483
G01 Y92.5718
G01 X193.4878
G01 Y77.1700
G01 X192.1274
G01 Y83.0965
G01 X192.1234 Y83.1984
G01 X192.1114 Y83.2998
G01 X192.0915 Y83.3999
G01 X192.0638 Y83.4982
G01 X192.0284 Y83.5939
G01 X191.9857 Y83.6866
G01 X191.9358 Y83.7757
G01 X191.8791 Y83.8606
G01 X191.8159 Y83.9407
G01 X191.7466 Y84.0157
G01 X191.6717 Y84.0850
G01 X191.5915 Y84.1482
G01 X191.5066 Y84.2049
G01 X191.4176 Y84.2548
G01 X191.3249 Y84.2975
G01 X191.2291 Y84.3328
G01 X191.1309 Y84.3605
G01 X191.0308 Y84.3804
G01 X190.9294 Y84.3924
G01 X190.8274 Y84.3964
G01 X183.5238 Y84.3965
G01 X183.4218 Y84.3924
G01 X183.3204 Y84.3804
G01 X183.2203 Y84.3605
G01 X183.1221 Y84.3328
G01 X183.0263 Y84.2975
G01 X182.9336 Y84.2548
G01 X182.8446 Y84.2049
G01 X182.7597 Y84.1482
G01 X182.6795 Y84.0850
G01 X182.6046 Y84.0157
G01 X182.5353 Y83.9407
G01 X182.4721 Y83.8606
G01 X182.4154 Y83.7757
G01 X182.3655 Y83.6866
G01 X182.3228 Y83.5939
G01 X182.2874 Y83.4982
G01 X182.2597 Y83.3999
G01 X182.2398 Y83.2998
G01 X182.2278 Y83.1984
G01 X182.2238 Y83.0965
G01 Y77.1700
G01 X180.8634
G01 Y92.5718
G01 X182.2238
G01 Y90.8594
G01 X181.9638 Y90.8709
M107
G00 Z2.0000


;No. 11: Hole 32
G00 X180.8634 Y77.1700 Z2.0000
G00 Z0.5000
G01 Z-1.1000 F400
M106 S240
G01 X180.5634 Y76.8700 F1000
G01 Y92.8718
G01 X182.5238
G01 Y86.7483
G01 X182.5248 Y86.7046
G01 X182.5276 Y86.6611
G01 X182.5324 Y86.6177
G01 X182.5390 Y86.5746
G01 X182.5475 Y86.5318
G01 X182.5579 Y86.4894
G01 X182.5701 Y86.4475
G01 X182.5841 Y86.4062
G01 X182.5999 Y86.3656
G01 X182.6175 Y86.3256
G01 X182.6368 Y86.2865
G01 X182.6578 Y86.2483
G01 X182.6804 Y86.2110
G01 X182.7046 Y86.1747
G01 X182.7304 Y86.1395
G01 X182.7578 Y86.1055
G01 X182.7865 Y86.0727
G01 X182.8167 Y86.0411
G01 X182.8482 Y86.0110
G01 X182.8810 Y85.9822
G01 X182.9150 Y85.9549
G01 X182.9502 Y85.9291
G01 X182.9865 Y85.9049
G01 X183.0238 Y85.8822
G01 X183.0621 Y85.8612
G01 X183.1012 Y85.8419
G01 X183.1411 Y85.8244
G01 X183.1818 Y85.8086
G01 X183.2231 Y85.7945
G01 X183.2650 Y85.7823
G01 X183.3074 Y85.7720
G01 X183.3502 Y85.7634
G01 X183.3933 Y85.7568
G01 X183.4366 Y85.7521
G01 X183.4802 Y85.7492
G01 X183.5238 Y85.7483
G01 X190.8274
G01 X190.9059 Y85.7513
G01 X190.9838 Y85.7606
G01 X191.0608 Y85.7759
G01 X191.1364 Y85.7972
G01 X191.2101 Y85.8244
G01 X191.2814 Y85.8572
G01 X191.3499 Y85.8956
G01 X191.4152 Y85.9392
G01 X191.4768 Y85.9878
G01 X191.5345 Y86.0411
G01 X191.5878 Y86.0988
G01 X191.6364 Y86.1605
G01 X191.6800 Y86.2258
G01 X191.7184 Y86.2943
G01 X191.7513 Y86.3656
G01 X191.7785 Y86.4392
G01 X191.7998 Y86.5148
G01 X191.8151 Y86.5918
G01 X191.8243 Y86.6698
G01 X191.8274 Y86.7483
G01 Y92.8718
G01 X193.7878
G01 Y76.8700
G01 X191.8274
G01 Y83.0965
G01 X191.8264 Y83.1401
G01 X191.8236 Y83.1836
G01 X191.8188 Y83.2270
G01 X191.8122 Y83.2701
G01 X191.8037 Y83.3129
G01 X191.7933 Y83.3553
G01 X191.7811 Y83.3972
G01 X191.7671 Y83.4385
G01 X191.7513 Y83.4791
G01 X191.7337 Y83.5191
G01 X191.7144 Y83.5582
G01 X191.6934 Y83.5965
G01 X191.6708 Y83.6337
G01 X191.6466 Y83.6700
G01 X191.6208 Y83.7052
G01 X191.5934 Y83.7392
G01 X191.5647 Y83.7720
G01 X191.5345 Y83.8036
G01 X191.5030 Y83.8337
G01 X191.4702 Y83.8625
G01 X191.4362 Y83.8898
G01 X191.4010 Y83.9156
G01 X191.3647 Y83.9398
G01 X191.3274 Y83.9625
G01 X191.2891 Y83.9835
G01 X191.2500 Y84.0028
G01 X191.2101 Y84.0203
G01 X191.1694 Y84.0361
G01 X191.1281 Y84.0502
G01 X191.0862 Y84.0624
G01 X191.0438 Y84.0727
G01 X191.0010 Y84.0813
G01 X190.9579 Y84.0879
G01 X190.9146 Y84.0926
G01 X190.8710 Y84.0955
G01 X190.8274 Y84.0964
G01 X183.5238 Y84.0965
G01 X183.4802 Y84.0955
G01 X183.4366 Y84.0926
G01 X183.3933 Y84.0879
G01 X183.3502 Y84.0813
G01 X183.3074 Y84.0727
G01 X183.2650 Y84.0624
G01 X183.2231 Y84.0502
G01 X183.1818 Y84.0361
G01 X183.1411 Y84.0203
G01 X183.1012 Y84.0028
G01 X183.0621 Y83.9835
G01 X183.0238 Y83.9625
G01 X182.9865 Y83.9398
G01 X182.9502 Y83.9156
G01 X182.9150 Y83.8898
G01 X182.8810 Y83.8625
G01 X182.8482 Y83.8337
G01 X182.8167 Y83.8036
G01 X182.7865 Y83.7720
G01 X182.7578 Y83.7392
G01 X182.7304 Y83.7052
G01 X182.7046 Y83.6700
G01 X182.6804 Y83.6337
G01 X182.6578 Y83.5965
G01 X182.6368 Y83.5582
G01 X182.6175 Y83.5191
G01 X182.5999 Y83.4791
G01 X182.5841 Y83.4385
G01 X182.5701 Y83.3972
G01 X182.5579 Y83.3553
G01 X182.5475 Y83.3129
G01 X182.5390 Y83.2701
G01 X182.5324 Y83.2270
G01 X182.5276 Y83.1836
G01 X182.5248 Y83.1401
G01 X182.5238 Y83.0965
G01 Y76.8700
G01 X180.5634
G01 X180.8634 Y77.1700
M107
G00 Z0.0000
G00 Z2.0000


;No. 12: Hole 31
G00 X200.8422 Y78.8709 Z2.0000
G00 Z0.5000
G01 Z0.0000 F400
G01 Z-1.1000
M106 S240
G01 X201.6826 F1000
G01 Y80.3709
G01 X200.8422
G01 Y81.8709
G01 X201.6826
G01 Y83.3709
G01 X200.8422
G01 Y84.8709
G01 X201.6826
G01 Y86.3709
G01 X200.8422
G01 Y87.8709
G01 X201.6826
G01 Y89.3709
G01 X200.8422
G01 Y90.8709
G01 X201.6826
G01 X201.9426 Y90.8536
G01 Y77.1700
G01 X200.5822
G01 Y92.5718
G01 X201.9426
G01 Y90.8536
G01 X201.6826 Y90.8709
M107
G00 Z2.0000


;No. 13: Hole 31
G00 X200.5822 Y77.1700 Z2.0000
G00 Z0.5000
G01 Z-1.1000 F400
M106 S240
G01 X200.2822 Y76.8700 F1000
G01 Y92.8718
G01 X202.2426
G01 Y76.8700
G01 X200.2822
G01 X200.5822 Y77.1700
M107
G00 Z0.0000
G00 Z2.0000


;No. 14: Hole 30
G00 X209.3928 Y81.1209 Z2.0000
G00 Z0.5000
G01 Z0.0000 F400
G01 Z-1.1000
M106 S240
G01 X210.4712 F1000
G01 X210.4287 Y79.6209
G01 X211.5847
G01 X212.2841 Y78.1209
G01 X213.8295
M107
G00 Z2.0000
G00 X209.8457 Y81.1209
G00 Z0.5000
G01 Z-1.1000 F400
M106 S240
G01 Y82.6209 F1000
G01 X208.8003
G01 X208.5333 Y84.1209
G01 X209.5594
G01 X209.5555 Y85.6209
G01 X208.5374
G01 X208.8136 Y87.1209
G01 X209.8371
G01 X209.4147 Y88.6209
G01 X210.4631
G01 X210.4609 Y90.1209
G01 X211.5819
G01 X212.3394 Y91.6209
G01 X213.8329
M107
G00 Z2.0000
G00 X218.8936
G00 Z0.5000
G01 Z0.0000 F400
G01 Z-1.1000
M106 S240
G01 X220.6215 F1000
M107
G00 Z2.0000
G00 X220.3464 Y78.1209
G00 Z0.5000
G01 Z0.0000 F400
G01 Z-1.1000
M106 S240
G01 X218.9894 F1000
G01 X218.8967 Y78.3638
G01 X219.1720 Y78.4780
G01 X219.4429 Y78.6023
G01 X219.7091 Y78.7365
G01 X219.9701 Y78.8806
G01 X220.2255 Y79.0342
G01 X220.4751 Y79.1971
G01 X220.7185 Y79.3692
G01 X220.9553 Y79.5503
G01 X220.9876 Y79.5241
G01 X220.9645 Y79.5475
G01 X221.7119 Y78.7925
G01 X221.3748 Y78.5090
G01 X221.0218 Y78.2457
G01 X220.6540 Y78.0035
G01 X220.2727 Y77.7831
G01 X219.8791 Y77.5855
G01 X219.4747 Y77.4111
G01 X219.0608 Y77.2607
G01 X218.6388 Y77.1347
G01 X218.2101 Y77.0335
G01 X217.7763 Y76.9576
G01 X217.3388 Y76.9071
G01 X216.8991 Y76.8823
G01 X216.4867 Y76.8542
G01 X216.0733 Y76.8474
G01 X215.6601 Y76.8618
G01 X215.2482 Y76.8973
G01 X214.8387 Y76.9539
G01 X214.4327 Y77.0315
G01 X214.0311 Y77.1298
G01 X213.6351 Y77.2485
G01 X213.2457 Y77.3874
G01 X212.8640 Y77.5461
G01 X212.4909 Y77.7242
G01 X212.1274 Y77.9212
G01 X211.7745 Y78.1366
G01 X211.4331 Y78.3698
G01 X211.1042 Y78.6202
G01 X210.7885 Y78.8871
G01 X210.4515 Y79.2216
G01 X210.1348 Y79.5753
G01 X209.8394 Y79.9469
G01 X209.5663 Y80.3353
G01 X209.3165 Y80.7391
G01 X209.0909 Y81.1569
G01 X208.8902 Y81.5871
G01 X208.7152 Y82.0285
G01 X208.5664 Y82.4793
G01 X208.4443 Y82.9381
G01 X208.3494 Y83.4033
G01 X208.2819 Y83.8733
G01 X208.2423 Y84.3464
G01 X208.2304 Y84.8210
G01 X208.2465 Y85.2955
G01 X208.2905 Y85.7683
G01 X208.3448 Y86.2253
G01 X208.4261 Y86.6783
G01 X208.5341 Y87.1257
G01 X208.6682 Y87.5659
G01 X208.8281 Y87.9975
G01 X209.0133 Y88.4188
G01 X209.2230 Y88.8285
G01 X209.4565 Y89.2250
G01 X209.7131 Y89.6071
G01 X209.9918 Y89.9734
G01 X210.2916 Y90.3225
G01 X210.6116 Y90.6533
G01 X210.9505 Y90.9647
G01 X211.3072 Y91.2555
G01 X211.6805 Y91.5247
G01 X212.0690 Y91.7713
G01 X212.4714 Y91.9946
G01 X212.8863 Y92.1938
G01 X213.3123 Y92.3681
G01 X213.7478 Y92.5169
G01 X214.1913 Y92.6397
G01 X214.6413 Y92.7361
G01 X215.0963 Y92.8057
G01 X215.5545 Y92.8484
G01 X215.9498 Y92.8781
G01 X216.3460 Y92.8913
G01 X216.7424 Y92.8880
G01 X217.1383 Y92.8683
G01 X217.5330 Y92.8322
G01 X217.9259 Y92.7797
G01 X218.3163 Y92.7108
G01 X218.7035 Y92.6259
G01 X219.0868 Y92.5249
G01 X219.4656 Y92.4081
G01 X219.8392 Y92.2756
G01 X220.2070 Y92.1277
G01 X220.5715 Y91.9453
G01 X220.9254 Y91.7431
G01 X221.2676 Y91.5217
G01 X221.5970 Y91.2817
G01 X220.7920 Y90.3468
G01 X220.6907 Y90.3480
G01 X220.3739 Y90.5774
G01 X220.0450 Y90.7891
G01 X219.7050 Y90.9825
G01 X219.3549 Y91.1569
G01 X218.9958 Y91.3120
G01 X218.6288 Y91.4472
G01 X218.2549 Y91.5621
G01 X217.8753 Y91.6563
G01 X217.4911 Y91.7297
G01 X217.1035 Y91.7819
G01 X216.7136 Y91.8129
G01 X216.3225 Y91.8224
G01 X215.9316 Y91.8106
G01 X215.5419 Y91.7774
G01 X215.1545 Y91.7229
G01 X214.7708 Y91.6473
G01 X214.3306 Y91.5174
G01 X213.9006 Y91.3571
G01 X213.4828 Y91.1672
G01 X213.0793 Y90.9486
G01 X212.6920 Y90.7024
G01 X212.3228 Y90.4298
G01 X211.9736 Y90.1321
G01 X211.6460 Y89.8107
G01 X211.3416 Y89.4673
G01 X211.0619 Y89.1035
G01 X210.8082 Y88.7210
G01 X210.5819 Y88.3218
G01 X210.3840 Y87.9077
G01 X210.2155 Y87.4809
G01 X210.0771 Y87.0433
G01 X209.9696 Y86.5971
G01 X209.8827 Y86.1709
G01 X209.8206 Y85.7403
G01 X209.7836 Y85.3068
G01 X209.7718 Y84.8720
G01 X209.7853 Y84.4371
G01 X209.8239 Y84.0038
G01 X209.8876 Y83.5735
G01 X209.9762 Y83.1476
G01 X210.0893 Y82.7275
G01 X210.2266 Y82.3147
G01 X210.3875 Y81.9105
G01 X210.5717 Y81.5164
G01 X210.7784 Y81.1336
G01 X211.0070 Y80.7635
G01 X211.2566 Y80.4072
G01 X211.5265 Y80.0660
G01 X211.7940 Y79.7798
G01 X212.0785 Y79.5106
G01 X212.3791 Y79.2593
G01 X212.6945 Y79.0270
G01 X213.0236 Y78.8146
G01 X213.3652 Y78.6227
G01 X213.7179 Y78.4522
G01 X214.0804 Y78.3037
G01 X214.4513 Y78.1778
G01 X214.8293 Y78.0749
G01 X215.2129 Y77.9955
G01 X215.6006 Y77.9397
G01 X215.9911 Y77.9079
G01 X216.3827 Y77.9002
G01 X216.7741 Y77.9166
G01 X217.1637 Y77.9569
G01 X217.6060 Y78.0160
G01 X218.0435 Y78.1037
G01 X218.4743 Y78.2198
G01 X218.8967 Y78.3638
G01 X218.9894 Y78.1209
M107
G00 Z2.0000


;No. 15: Hole 30
G00 X208.8231 Y81.7393 Z2.0000
G00 Z0.5000
G01 Z-1.1000 F400
M106 S240
G01 X208.5444 Y81.6285 F1000
G01 X208.3605 Y82.1417
G01 X208.2091 Y82.6654
G01 X208.0906 Y83.1975
G01 X208.0055 Y83.7360
G01 X207.9542 Y84.2787
G01 X207.9368 Y84.8236
G01 X207.9535 Y85.3685
G01 X208.0041 Y85.9113
G01 X208.0885 Y86.4499
G01 X208.2063 Y86.9821
G01 X208.3571 Y87.5060
G01 X208.5403 Y88.0195
G01 X208.7551 Y88.5205
G01 X209.0008 Y89.0072
G01 X209.2763 Y89.4775
G01 X209.5807 Y89.9298
G01 X209.8806 Y90.3016
G01 X210.2016 Y90.6553
G01 X210.5426 Y90.9898
G01 X210.9023 Y91.3040
G01 X211.2798 Y91.5967
G01 X211.6735 Y91.8671
G01 X212.0823 Y92.1141
G01 X212.5048 Y92.3370
G01 X212.9394 Y92.5351
G01 X213.3849 Y92.7075
G01 X213.8395 Y92.8539
G01 X214.3020 Y92.9736
G01 X214.7705 Y93.0662
G01 X215.2437 Y93.1315
G01 X215.7198 Y93.1693
G01 X216.1974 Y93.1794
G01 X216.7719 Y93.1857
G01 X217.3456 Y93.1562
G01 X217.9164 Y93.0911
G01 X218.4820 Y92.9906
G01 X219.0403 Y92.8550
G01 X219.5890 Y92.6849
G01 X220.1261 Y92.4810
G01 X220.6494 Y92.2440
G01 X221.0124 Y92.0403
G01 X221.3643 Y91.8180
G01 X221.7041 Y91.5777
G01 X222.0310 Y91.3200
G01 X220.8189 Y89.9199
G01 X220.7826 Y89.9064
G01 X220.4520 Y90.1626
G01 X220.1070 Y90.3989
G01 X219.7486 Y90.6145
G01 X219.3782 Y90.8087
G01 X218.9971 Y90.9808
G01 X218.6064 Y91.1302
G01 X218.2077 Y91.2563
G01 X217.8023 Y91.3589
G01 X217.3915 Y91.4374
G01 X216.9768 Y91.4916
G01 X216.5596 Y91.5213
G01 X216.1414 Y91.5265
G01 X215.6732 Y91.4956
G01 X215.2087 Y91.4289
G01 X214.7507 Y91.3269
G01 X214.3018 Y91.1901
G01 X213.8646 Y91.0195
G01 X213.4418 Y90.8159
G01 X213.0359 Y90.5805
G01 X212.6491 Y90.3149
G01 X212.2837 Y90.0204
G01 X211.9420 Y89.6988
G01 X211.6258 Y89.3520
G01 X211.3371 Y88.9821
G01 X211.0776 Y88.5911
G01 X210.8486 Y88.1815
G01 X210.6517 Y87.7555
G01 X210.4880 Y87.3158
G01 X210.3533 Y86.8906
G01 X210.2448 Y86.4579
G01 X210.1629 Y86.0195
G01 X210.1080 Y85.5768
G01 X210.0803 Y85.1317
G01 X210.0798 Y84.6856
G01 X210.1066 Y84.2404
G01 X210.1605 Y83.7977
G01 X210.2414 Y83.3590
G01 X210.3490 Y82.9262
G01 X210.4828 Y82.5007
G01 X210.6424 Y82.0842
G01 X210.8271 Y81.6782
G01 X211.0363 Y81.2842
G01 X211.2692 Y80.9038
G01 X211.5249 Y80.5384
G01 X211.7783 Y80.2338
G01 X212.0510 Y79.9465
G01 X212.3419 Y79.6776
G01 X212.6497 Y79.4282
G01 X212.9732 Y79.1995
G01 X213.3109 Y78.9924
G01 X213.6614 Y78.8079
G01 X214.0233 Y78.6466
G01 X214.3949 Y78.5093
G01 X214.7746 Y78.3965
G01 X215.1609 Y78.3088
G01 X215.5522 Y78.2465
G01 X215.9466 Y78.2099
G01 X216.3426 Y78.1992
G01 X216.7385 Y78.2143
G01 X217.1325 Y78.2553
G01 X217.4843 Y78.3045
G01 X217.8331 Y78.3713
G01 X218.1781 Y78.4556
G01 X218.5185 Y78.5570
G01 X218.8533 Y78.6753
G01 X219.1818 Y78.8103
G01 X219.5032 Y78.9616
G01 X219.8165 Y79.1288
G01 X220.1211 Y79.3115
G01 X220.4161 Y79.5093
G01 X220.7008 Y79.7216
G01 X220.9745 Y79.9479
G01 X220.9990 Y79.9390
G01 X220.9877 Y79.9504
G01 X222.1432 Y78.7832
G01 X221.7856 Y78.4578
G01 X221.4087 Y78.1550
G01 X221.0137 Y77.8762
G01 X220.6023 Y77.6222
G01 X220.1760 Y77.3942
G01 X219.7364 Y77.1929
G01 X219.2852 Y77.0191
G01 X218.8242 Y76.8736
G01 X218.3550 Y76.7568
G01 X217.8795 Y76.6692
G01 X217.3996 Y76.6111
G01 X216.9169 Y76.5828
G01 X216.4895 Y76.5542
G01 X216.0611 Y76.5476
G01 X215.6330 Y76.5629
G01 X215.2063 Y76.6002
G01 X214.7820 Y76.6593
G01 X214.3612 Y76.7400
G01 X213.9452 Y76.8422
G01 X213.5350 Y76.9656
G01 X213.1316 Y77.1099
G01 X212.7362 Y77.2746
G01 X212.3497 Y77.4594
G01 X211.9732 Y77.6638
G01 X211.6077 Y77.8872
G01 X211.2541 Y78.1290
G01 X210.9133 Y78.3887
G01 X210.5863 Y78.6654
G01 X210.2604 Y78.9809
G01 X209.9528 Y79.3143
G01 X209.6646 Y79.6646
G01 X209.3967 Y80.0307
G01 X209.1500 Y80.4114
G01 X208.9252 Y80.8054
G01 X208.7231 Y81.2115
G01 X208.5444 Y81.6285
G01 X208.8231 Y81.7393
M107
G00 Z0.0000
G00 Z2.0000


;No. 16: Hole 29
G00 X228.2878 Y81.8709 Z2.0000
G00 Z0.5000
G01 Z0.0000 F400
G01 Z-1.1000
M106 S240
G01 X229.1282 F1000
G01 Y80.3709
G01 X228.2878
G01 Y78.8709
G01 X229.2481
G01 X228.2878 Y83.3709
G01 X229.1282
G01 Y84.8709
G01 X228.2878
G01 Y86.3709
G01 X229.1282
G01 Y87.8709
G01 X228.2878
G01 Y89.3709
G01 X229.1282
G01 Y90.8709
G01 X228.2878
G01 X228.0278 Y90.8536
G01 Y92.5718
G01 X229.3882
G01 Y79.4704
G01 X229.3922 Y79.3684
G01 X229.4042 Y79.2670
G01 X229.4241 Y79.1669
G01 X229.4518 Y79.0686
G01 X229.4871 Y78.9729
G01 X229.5299 Y78.8802
G01 X229.5798 Y78.7911
G01 X229.6365 Y78.7062
G01 X229.6997 Y78.6261
G01 X229.7690 Y78.5511
G01 X229.8439 Y78.4818
G01 X229.9241 Y78.4186
G01 X230.0089 Y78.3619
G01 X230.0980 Y78.3121
G01 X230.1907 Y78.2693
G01 X230.2865 Y78.2340
G01 X230.3847 Y78.2063
G01 X230.4848 Y78.1864
G01 X230.5862 Y78.1744
G01 X230.6882 Y78.1704
G01 X238.3634
G01 Y77.1700
G01 X228.0278
G01 Y90.8536
G01 X228.2878 Y90.8709
M107
G00 Z2.0000


;No. 17: Hole 29
G00 X228.0278 Y77.1700 Z2.0000
G00 Z0.5000
G01 Z-1.1000 F400
M106 S240
G01 X227.7278 Y76.8700 F1000
G01 Y92.8718
G01 X229.6882
G01 Y79.4704
G01 X229.6913 Y79.3919
G01 X229.7005 Y79.3139
G01 X229.7158 Y79.2369
G01 X229.7371 Y79.1614
G01 X229.7643 Y79.0877
G01 X229.7972 Y79.0164
G01 X229.8355 Y78.9479
G01 X229.8792 Y78.8826
G01 X229.9278 Y78.8209
G01 X229.9811 Y78.7633
G01 X230.0387 Y78.7100
G01 X230.1004 Y78.6614
G01 X230.1657 Y78.6177
G01 X230.2342 Y78.5794
G01 X230.3055 Y78.5465
G01 X230.3792 Y78.5193
G01 X230.4547 Y78.4980
G01 X230.5318 Y78.4827
G01 X230.6097 Y78.4735
G01 X230.6882 Y78.4704
G01 X238.6634
G01 Y76.8700
G01 X227.7278
G01 X228.0278 Y77.1700
M107
G00 Z0.0000
G00 Z2.0000


;No. 18: Hole 28
G00 X244.2102 Y78.8709 Z2.0000
G00 Z0.5000
G01 Z0.0000 F400
G01 Z-1.1000
M106 S240
G01 X245.1155 F1000
G01 X245.0249 Y80.3709
G01 X244.2102
G01 Y81.8709
G01 X245.0249
G01 X245.0376 Y83.3709
G01 X244.2102
G01 Y84.8709
G01 X253.5114
G01 X245.0599
G01 Y86.3709
G01 X244.2102
G01 Y87.8709
G01 X245.0249
G01 Y89.3709
G01 X244.2102
G01 Y90.8709
G01 X245.1155
G01 X245.3659 Y90.7976
G01 X245.3470 Y90.7435
G01 X245.3305 Y90.6885
G01 X245.3165 Y90.6329
G01 X245.3051 Y90.5768
G01 X245.2962 Y90.5201
G01 X245.2898 Y90.4631
G01 X245.2861 Y90.4059
G01 X245.2849 Y90.3486
G01 Y86.6968
G01 X245.2889 Y86.5948
G01 X245.3009 Y86.4935
G01 X245.3208 Y86.3933
G01 X245.3485 Y86.2951
G01 X245.3838 Y86.1993
G01 X245.4266 Y86.1066
G01 X245.4764 Y86.0176
G01 X245.5331 Y85.9327
G01 X245.5963 Y85.8525
G01 X245.6656 Y85.7776
G01 X245.7406 Y85.7083
G01 X245.8207 Y85.6451
G01 X245.9056 Y85.5884
G01 X245.9947 Y85.5385
G01 X246.0874 Y85.4958
G01 X246.1831 Y85.4604
G01 X246.2814 Y85.4327
G01 X246.3815 Y85.4128
G01 X246.4829 Y85.4008
G01 X246.5849 Y85.3968
G01 X253.7714
G01 Y84.4736
G01 X246.5849
G01 X246.4829 Y84.4696
G01 X246.3815 Y84.4576
G01 X246.2814 Y84.4377
G01 X246.1831 Y84.4100
G01 X246.0874 Y84.3746
G01 X245.9947 Y84.3319
G01 X245.9056 Y84.2820
G01 X245.8207 Y84.2253
G01 X245.7406 Y84.1621
G01 X245.6656 Y84.0928
G01 X245.5963 Y84.0179
G01 X245.5331 Y83.9377
G01 X245.4764 Y83.8528
G01 X245.4266 Y83.7638
G01 X245.3838 Y83.6711
G01 X245.3485 Y83.5753
G01 X245.3208 Y83.4771
G01 X245.3009 Y83.3770
G01 X245.2889 Y83.2756
G01 X245.2849 Y83.1736
G01 Y79.3932
G01 X245.2889 Y79.2912
G01 X245.3009 Y79.1899
G01 X245.3208 Y79.0897
G01 X245.3485 Y78.9915
G01 X245.3838 Y78.8957
G01 X245.4266 Y78.8030
G01 X245.4764 Y78.7140
G01 X245.5331 Y78.6291
G01 X245.5963 Y78.5489
G01 X245.6656 Y78.4740
G01 X245.7406 Y78.4047
G01 X245.8207 Y78.3415
G01 X245.9056 Y78.2848
G01 X245.9947 Y78.2349
G01 X246.0874 Y78.1922
G01 X246.1831 Y78.1568
G01 X246.2814 Y78.1291
G01 X246.3815 Y78.1092
G01 X246.4829 Y78.0972
G01 X246.5849 Y78.0932
G01 X255.0573
G01 Y77.1700
G01 X243.9502
G01 Y92.5718
G01 X254.9287
G01 Y91.6486
G01 X246.5849
G01 X246.4860 Y91.6449
G01 X246.3877 Y91.6337
G01 X246.2906 Y91.6150
G01 X246.1952 Y91.5890
G01 X246.1020 Y91.5558
G01 X246.0116 Y91.5155
G01 X245.9246 Y91.4685
G01 X245.8414 Y91.4151
G01 X245.7625 Y91.3554
G01 X245.6884 Y91.2899
G01 X245.6195 Y91.2189
G01 X245.5562 Y91.1429
G01 X245.4989 Y91.0622
G01 X245.4479 Y90.9775
G01 X245.4035 Y90.8891
G01 X245.3659 Y90.7976
G01 X245.1155 Y90.8709
M107
G00 Z2.0000


;No. 19: Hole 28
G00 X243.9502 Y77.1700 Z2.0000
G00 Z0.5000
G01 Z-1.1000 F400
M106 S240
G01 X243.6502 Y76.8700 F1000
G01 Y92.8718
G01 X255.2287
G01 Y91.3486
G01 X246.5849
G01 X246.5412 Y91.3477
G01 X246.4977 Y91.3448
G01 X246.4543 Y91.3401
G01 X246.4112 Y91.3334
G01 X246.3684 Y91.3249
G01 X246.3260 Y91.3145
G01 X246.2842 Y91.3023
G01 X246.2428 Y91.2883
G01 X246.2022 Y91.2725
G01 X246.1622 Y91.2549
G01 X246.1231 Y91.2356
G01 X246.0849 Y91.2146
G01 X246.0476 Y91.1920
G01 X246.0113 Y91.1678
G01 X245.9761 Y91.1420
G01 X245.9421 Y91.1147
G01 X245.9093 Y91.0859
G01 X245.8778 Y91.0557
G01 X245.8476 Y91.0242
G01 X245.8188 Y90.9914
G01 X245.7915 Y90.9574
G01 X245.7657 Y90.9222
G01 X245.7415 Y90.8859
G01 X245.7188 Y90.8486
G01 X245.6978 Y90.8104
G01 X245.6786 Y90.7712
G01 X245.6610 Y90.7313
G01 X245.6452 Y90.6906
G01 X245.6311 Y90.6493
G01 X245.6189 Y90.6074
G01 X245.6086 Y90.5651
G01 X245.6001 Y90.5223
G01 X245.5934 Y90.4791
G01 X245.5887 Y90.4358
G01 X245.5858 Y90.3922
G01 X245.5849 Y90.3486
G01 Y86.6968
G01 X245.5879 Y86.6184
G01 X245.5972 Y86.5404
G01 X245.6125 Y86.4634
G01 X245.6338 Y86.3878
G01 X245.6610 Y86.3141
G01 X245.6939 Y86.2428
G01 X245.7322 Y86.1743
G01 X245.7758 Y86.1090
G01 X245.8245 Y86.0474
G01 X245.8778 Y85.9897
G01 X245.9354 Y85.9364
G01 X245.9971 Y85.8878
G01 X246.0624 Y85.8442
G01 X246.1309 Y85.8058
G01 X246.2022 Y85.7729
G01 X246.2758 Y85.7458
G01 X246.3514 Y85.7245
G01 X246.4284 Y85.7091
G01 X246.5064 Y85.6999
G01 X246.5849 Y85.6968
G01 X254.0714
G01 Y84.1736
G01 X246.5849
G01 X246.5064 Y84.1705
G01 X246.4284 Y84.1613
G01 X246.3514 Y84.1460
G01 X246.2758 Y84.1247
G01 X246.2022 Y84.0975
G01 X246.1309 Y84.0646
G01 X246.0624 Y84.0262
G01 X245.9971 Y83.9826
G01 X245.9354 Y83.9340
G01 X245.8778 Y83.8807
G01 X245.8245 Y83.8230
G01 X245.7758 Y83.7614
G01 X245.7322 Y83.6961
G01 X245.6939 Y83.6276
G01 X245.6610 Y83.5563
G01 X245.6338 Y83.4826
G01 X245.6125 Y83.4070
G01 X245.5972 Y83.3300
G01 X245.5879 Y83.2521
G01 X245.5849 Y83.1736
G01 Y79.3932
G01 X245.5879 Y79.3148
G01 X245.5972 Y79.2368
G01 X245.6125 Y79.1598
G01 X245.6338 Y79.0842
G01 X245.6610 Y79.0105
G01 X245.6939 Y78.9392
G01 X245.7322 Y78.8707
G01 X245.7758 Y78.8054
G01 X245.8245 Y78.7438
G01 X245.8778 Y78.6861
G01 X245.9354 Y78.6328
G01 X245.9971 Y78.5842
G01 X246.0624 Y78.5406
G01 X246.1309 Y78.5022
G01 X246.2022 Y78.4693
G01 X246.2758 Y78.4422
G01 X246.3514 Y78.4209
G01 X246.4284 Y78.4055
G01 X246.5064 Y78.3963
G01 X246.5849 Y78.3932
G01 X255.3573
G01 Y76.8700
G01 X243.6502
G01 X243.9502 Y77.1700
M107
G00 Z0.0000
G00 Z2.0000


;No. 20: Hole 27
G00 X262.0085 Y78.1209 Z2.0000
G00 Z0.5000
G01 Z0.0000 F400
G01 Z-1.1000
M106 S240
G01 X263.2573 F1000
M107
G00 Z2.0000
G00 X268.8894
G00 Z0.5000
G01 Z0.0000 F400
G01 Z-1.1000
M106 S240
G01 X269.8573 F1000
G01 X270.2759 Y79.6209
G01 X271.0534
G01 X271.3302 Y81.1209
G01 X270.5067
G01 X269.9641 Y82.6209
G01 X271.0966
G01 X267.5600 Y84.1209
G01 X269.5917
G01 X265.0341 Y85.6209
G01 X262.8001
G01 X261.1803 Y87.1209
G01 X262.3586
G01 X261.7584 Y88.6209
G01 X260.9244
G01 X261.1826 Y90.1209
G01 X261.9395
G01 X262.3601 Y91.6209
G01 X263.2525
M107
G00 Z2.0000
G00 X268.4686
G00 Z0.5000
G01 Z0.0000 F400
G01 Z-1.1000
M106 S240
G01 X269.8302 F1000
G01 X269.9606 Y91.8462
G01 X270.1089 Y91.7693
G01 X270.2557 Y91.6896
G01 X270.4010 Y91.6071
G01 X270.5446 Y91.5219
G01 X269.9589 Y90.6611
G01 X269.8498 Y90.6726
G01 X269.3594 Y90.9499
G01 X268.8521 Y91.1946
G01 X268.3298 Y91.4057
G01 X267.7949 Y91.5823
G01 X267.2496 Y91.7237
G01 X266.6962 Y91.8292
G01 X266.1372 Y91.8984
G01 X265.5748 Y91.9310
G01 X265.2269 Y91.9279
G01 X264.8805 Y91.8954
G01 X264.5381 Y91.8335
G01 X264.2022 Y91.7429
G01 X263.8751 Y91.6241
G01 X263.5594 Y91.4780
G01 X263.2571 Y91.3056
G01 X262.9706 Y91.1082
G01 X262.8614 Y91.0127
G01 X262.7574 Y90.9114
G01 X262.6590 Y90.8048
G01 X262.5664 Y90.6931
G01 X262.4799 Y90.5765
G01 X262.3998 Y90.4556
G01 X262.3262 Y90.3305
G01 X262.2594 Y90.2017
G01 X262.1995 Y90.0695
G01 X262.1468 Y89.9343
G01 X262.1014 Y89.7964
G01 X262.0634 Y89.6564
G01 X262.0329 Y89.5145
G01 X262.0101 Y89.3712
G01 X261.9949 Y89.2269
G01 X261.9874 Y89.0820
G01 X261.9877 Y88.9368
G01 X261.9957 Y88.7920
G01 X262.0115 Y88.6477
G01 X262.0349 Y88.5045
G01 X262.0578 Y88.3770
G01 X262.0868 Y88.2508
G01 X262.1219 Y88.1262
G01 X262.1630 Y88.0034
G01 X262.2101 Y87.8827
G01 X262.2629 Y87.7644
G01 X262.3213 Y87.6489
G01 X262.3853 Y87.5363
G01 X262.4547 Y87.4269
G01 X262.5293 Y87.3211
G01 X262.6089 Y87.2190
G01 X262.6934 Y87.1208
G01 X262.7825 Y87.0268
G01 X262.8761 Y86.9373
G01 X262.9739 Y86.8524
G01 X263.0757 Y86.7724
G01 X263.1813 Y86.6974
G01 X263.2903 Y86.6275
G01 X263.4026 Y86.5631
G01 X263.5179 Y86.5041
G01 X264.1365 Y86.2259
G01 X264.7690 Y85.9810
G01 X265.4137 Y85.7701
G01 X266.0687 Y85.5938
G01 X266.4817 Y85.4967
G01 X266.8924 Y85.3902
G01 X267.3007 Y85.2745
G01 X267.7062 Y85.1496
G01 X268.1087 Y85.0155
G01 X268.5082 Y84.8724
G01 X268.9043 Y84.7203
G01 X269.2969 Y84.5593
G01 X269.5588 Y84.4450
G01 X269.8122 Y84.3129
G01 X270.0559 Y84.1635
G01 X270.2886 Y83.9977
G01 X270.5093 Y83.8161
G01 X270.7169 Y83.6197
G01 X270.9104 Y83.4094
