;Project EvActivityArea
;Created by Estlcam version 11 build 11,240
;Machining time about 00:19:30 hours

G90
M03 S18000
G00 X0.0000 Y0.0000 Z0.0000
G00 Z2.0000


;No. 1: Helical drill 4
G00 X39.3628 Y38.0826
G00 Z0.5000
M106 S240
G01 X39.3618 Y38.0398 Z0.4836 F400 S18000
G01 X39.3587 Y37.9971 Z0.4672
G01 X39.3536 Y37.9545 Z0.4508
G01 X39.3465 Y37.9123 Z0.4343
G01 X39.3374 Y37.8704 Z0.4179
G01 X39.3263 Y37.8291 Z0.4015
G01 X39.3133 Y37.7883 Z0.3851
G01 X39.2983 Y37.7481 Z0.3687
G01 X39.2814 Y37.7087 Z0.3523
G01 X39.2627 Y37.6702 Z0.3359
G01 X39.2422 Y37.6326 Z0.3194
G01 X39.2199 Y37.5960 Z0.3030
G01 X39.1959 Y37.5606 Z0.2866
G01 X39.1702 Y37.5263 Z0.2702
G01 X39.1429 Y37.4932 Z0.2538
G01 X39.1141 Y37.4616 Z0.2374
G01 X39.0838 Y37.4313 Z0.2210
G01 X39.0521 Y37.4024 Z0.2045
G01 X39.0191 Y37.3752 Z0.1881
G01 X38.9848 Y37.3495 Z0.1717
G01 X38.9494 Y37.3255 Z0.1553
G01 X38.9128 Y37.3032 Z0.1389
G01 X38.8752 Y37.2827 Z0.1225
G01 X38.8366 Y37.2640 Z0.1061
G01 X38.7973 Y37.2471 Z0.0896
G01 X38.7571 Y37.2321 Z0.0732
G01 X38.7163 Y37.2191 Z0.0568
G01 X38.6750 Y37.2080 Z0.0404
G01 X38.6331 Y37.1989 Z0.0240
G01 X38.5909 Y37.1918 Z0.0076
G01 X38.5483 Y37.1867 Z-0.0088
G01 X38.5056 Y37.1836 Z-0.0253
G01 X38.4628 Y37.1826 Z-0.0417
G01 X38.4200 Y37.1836 Z-0.0581
G01 X38.3772 Y37.1867 Z-0.0745
G01 X38.3347 Y37.1918 Z-0.0909
G01 X38.2924 Y37.1989 Z-0.1073
G01 X38.2506 Y37.2080 Z-0.1237
G01 X38.2092 Y37.2191 Z-0.1402
G01 X38.1684 Y37.2321 Z-0.1566
G01 X38.1283 Y37.2471 Z-0.1730
G01 X38.0889 Y37.2640 Z-0.1894
G01 X38.0504 Y37.2827 Z-0.2058
G01 X38.0128 Y37.3032 Z-0.2222
G01 X37.9762 Y37.3255 Z-0.2386
G01 X37.9407 Y37.3495 Z-0.2551
G01 X37.9064 Y37.3752 Z-0.2715
G01 X37.8734 Y37.4024 Z-0.2879
G01 X37.8417 Y37.4313 Z-0.3043
G01 X37.8114 Y37.4616 Z-0.3207
G01 X37.7826 Y37.4932 Z-0.3371
G01 X37.7553 Y37.5263 Z-0.3535
G01 X37.7297 Y37.5606 Z-0.3699
G01 X37.7056 Y37.5960 Z-0.3864
G01 X37.6834 Y37.6326 Z-0.4028
G01 X37.6628 Y37.6702 Z-0.4192
G01 X37.6441 Y37.7087 Z-0.4356
G01 X37.6272 Y37.7481 Z-0.4520
G01 X37.6123 Y37.7883 Z-0.4684
G01 X37.5992 Y37.8291 Z-0.4848
G01 X37.5881 Y37.8704 Z-0.5013
G01 X37.5790 Y37.9123 Z-0.5177
G01 X37.5719 Y37.9545 Z-0.5341
G01 X37.5668 Y37.9971 Z-0.5505
G01 X37.5638 Y38.0398 Z-0.5669
G01 X37.5628 Y38.0826 Z-0.5833
G01 X37.5638 Y38.1254 Z-0.5997
G01 X37.5668 Y38.1682 Z-0.6162
G01 X37.5719 Y38.2107 Z-0.6326
G01 X37.5790 Y38.2529 Z-0.6490
G01 X37.5881 Y38.2948 Z-0.6654
G01 X37.5992 Y38.3362 Z-0.6818
G01 X37.6123 Y38.3770 Z-0.6982
G01 X37.6272 Y38.4171 Z-0.7146
G01 X37.6441 Y38.4565 Z-0.7311
G01 X37.6628 Y38.4950 Z-0.7475
G01 X37.6834 Y38.5326 Z-0.7639
G01 X37.7056 Y38.5692 Z-0.7803
G01 X37.7297 Y38.6047 Z-0.7967
G01 X37.7553 Y38.6390 Z-0.8131
G01 X37.7826 Y38.6720 Z-0.8295
G01 X37.8114 Y38.7037 Z-0.8460
G01 X37.8417 Y38.7340 Z-0.8624
G01 X37.8734 Y38.7628 Z-0.8788
G01 X37.9064 Y38.7901 Z-0.8952
G01 X37.9407 Y38.8157 Z-0.9116
G01 X37.9762 Y38.8398 Z-0.9280
G01 X38.0128 Y38.8620 Z-0.9444
G01 X38.0504 Y38.8826 Z-0.9609
G01 X38.0889 Y38.9013 Z-0.9773
G01 X38.1283 Y38.9182 Z-0.9937
G01 X38.1684 Y38.9331 Z-1.0101
G01 X38.2092 Y38.9462 Z-1.0265
G01 X38.2506 Y38.9573 Z-1.0429
G01 X38.2924 Y38.9664 Z-1.0593
G01 X38.3347 Y38.9735 Z-1.0758
G01 X38.3772 Y38.9785 Z-1.0922
G01 X38.4200 Y38.9816 Z-1.1086
G01 X38.4628 Y38.9826 Z-1.1250
G01 X38.5056 Y38.9816 Z-1.1414
G01 X38.5483 Y38.9785 Z-1.1578
G01 X38.5909 Y38.9735 Z-1.1742
G01 X38.6331 Y38.9664 Z-1.1907
G01 X38.6750 Y38.9573 Z-1.2071
G01 X38.7163 Y38.9462 Z-1.2235
G01 X38.7571 Y38.9331 Z-1.2399
G01 X38.7973 Y38.9182 Z-1.2563
G01 X38.8366 Y38.9013 Z-1.2727
G01 X38.8752 Y38.8826 Z-1.2891
G01 X38.9128 Y38.8620 Z-1.3056
G01 X38.9494 Y38.8398 Z-1.3220
G01 X38.9848 Y38.8157 Z-1.3384
G01 X39.0191 Y38.7901 Z-1.3548
G01 X39.0521 Y38.7628 Z-1.3712
G01 X39.0838 Y38.7340 Z-1.3876
G01 X39.1141 Y38.7037 Z-1.4040
G01 X39.1429 Y38.6720 Z-1.4205
G01 X39.1702 Y38.6390 Z-1.4369
G01 X39.1959 Y38.6047 Z-1.4533
G01 X39.2199 Y38.5692 Z-1.4697
G01 X39.2422 Y38.5326 Z-1.4861
G01 X39.2627 Y38.4950 Z-1.5025
G01 X39.2814 Y38.4565 Z-1.5189
G01 X39.2983 Y38.4171 Z-1.5354
G01 X39.3133 Y38.3770 Z-1.5518
G01 X39.3263 Y38.3362 Z-1.5682
G01 X39.3374 Y38.2948 Z-1.5846
G01 X39.3465 Y38.2529 Z-1.6010
G01 X39.3536 Y38.2107 Z-1.6174
G01 X39.3587 Y38.1682 Z-1.6338
G01 X39.3618 Y38.1254 Z-1.6503
G01 X39.3628 Y38.0826 Z-1.6667
G01 X39.3618 Y38.0398
G01 X39.3587 Y37.9971
G01 X39.3536 Y37.9545
G01 X39.3465 Y37.9123
G01 X39.3374 Y37.8704
G01 X39.3263 Y37.8291
G01 X39.3133 Y37.7883
G01 X39.2983 Y37.7481
G01 X39.2814 Y37.7087
G01 X39.2627 Y37.6702
G01 X39.2422 Y37.6326
G01 X39.2199 Y37.5960
G01 X39.1959 Y37.5606
G01 X39.1702 Y37.5263
G01 X39.1429 Y37.4932
G01 X39.1141 Y37.4616
G01 X39.0838 Y37.4313
G01 X39.0521 Y37.4024
G01 X39.0191 Y37.3752
G01 X38.9848 Y37.3495
G01 X38.9494 Y37.3255
G01 X38.9128 Y37.3032
G01 X38.8752 Y37.2827
G01 X38.8366 Y37.2640
G01 X38.7973 Y37.2471
G01 X38.7571 Y37.2321
G01 X38.7163 Y37.2191
G01 X38.6750 Y37.2080
G01 X38.6331 Y37.1989
G01 X38.5909 Y37.1918
G01 X38.5483 Y37.1867
G01 X38.5056 Y37.1836
G01 X38.4628 Y37.1826
G01 X38.4200 Y37.1836
G01 X38.3772 Y37.1867
G01 X38.3347 Y37.1918
G01 X38.2924 Y37.1989
G01 X38.2506 Y37.2080
G01 X38.2092 Y37.2191
G01 X38.1684 Y37.2321
G01 X38.1283 Y37.2471
G01 X38.0889 Y37.2640
G01 X38.0504 Y37.2827
G01 X38.0128 Y37.3032
G01 X37.9762 Y37.3255
G01 X37.9407 Y37.3495
G01 X37.9064 Y37.3752
G01 X37.8734 Y37.4024
G01 X37.8417 Y37.4313
G01 X37.8114 Y37.4616
G01 X37.7826 Y37.4932
G01 X37.7553 Y37.5263
G01 X37.7297 Y37.5606
G01 X37.7056 Y37.5960
G01 X37.6834 Y37.6326
G01 X37.6628 Y37.6702
G01 X37.6441 Y37.7087
G01 X37.6272 Y37.7481
G01 X37.6123 Y37.7883
G01 X37.5992 Y37.8291
G01 X37.5881 Y37.8704
G01 X37.5790 Y37.9123
G01 X37.5719 Y37.9545
G01 X37.5668 Y37.9971
G01 X37.5638 Y38.0398
G01 X37.5628 Y38.0826
G01 X37.5638 Y38.1254
G01 X37.5668 Y38.1682
G01 X37.5719 Y38.2107
G01 X37.5790 Y38.2529
G01 X37.5881 Y38.2948
G01 X37.5992 Y38.3362
G01 X37.6123 Y38.3770
G01 X37.6272 Y38.4171
G01 X37.6441 Y38.4565
G01 X37.6628 Y38.4950
G01 X37.6834 Y38.5326
G01 X37.7056 Y38.5692
G01 X37.7297 Y38.6047
G01 X37.7553 Y38.6390
G01 X37.7826 Y38.6720
G01 X37.8114 Y38.7037
G01 X37.8417 Y38.7340
G01 X37.8734 Y38.7628
G01 X37.9064 Y38.7901
G01 X37.9407 Y38.8157
G01 X37.9762 Y38.8398
G01 X38.0128 Y38.8620
G01 X38.0504 Y38.8826
G01 X38.0889 Y38.9013
G01 X38.1283 Y38.9182
G01 X38.1684 Y38.9331
G01 X38.2092 Y38.9462
G01 X38.2506 Y38.9573
G01 X38.2924 Y38.9664
G01 X38.3347 Y38.9735
G01 X38.3772 Y38.9785
G01 X38.4200 Y38.9816
G01 X38.4628 Y38.9826
G01 X38.5056 Y38.9816
G01 X38.5483 Y38.9785
G01 X38.5909 Y38.9735
G01 X38.6331 Y38.9664
G01 X38.6750 Y38.9573
G01 X38.7163 Y38.9462
G01 X38.7571 Y38.9331
G01 X38.7973 Y38.9182
G01 X38.8366 Y38.9013
G01 X38.8752 Y38.8826
G01 X38.9128 Y38.8620
G01 X38.9494 Y38.8398
G01 X38.9848 Y38.8157
G01 X39.0191 Y38.7901
G01 X39.0521 Y38.7628
G01 X39.0838 Y38.7340
G01 X39.1141 Y38.7037
G01 X39.1429 Y38.6720
G01 X39.1702 Y38.6390
G01 X39.1959 Y38.6047
G01 X39.2199 Y38.5692
G01 X39.2422 Y38.5326
G01 X39.2627 Y38.4950
G01 X39.2814 Y38.4565
G01 X39.2983 Y38.4171
G01 X39.3133 Y38.3770
G01 X39.3263 Y38.3362
G01 X39.3374 Y38.2948
G01 X39.3465 Y38.2529
G01 X39.3536 Y38.2107
G01 X39.3587 Y38.1682
G01 X39.3618 Y38.1254
G01 X39.3628 Y38.0826
G01 X39.3703 Y38.0516 F1000
G01 X39.3768 Y38.0203
G01 X39.3822 Y37.9888
G01 X39.3864 Y37.9571
G01 X39.3896 Y37.9253
G01 X39.3917 Y37.8934
G01 X39.3926 Y37.8615
G01 X39.3925 Y37.8295
G01 X39.3913 Y37.7976
G01 X39.3889 Y37.7657
G01 X39.3854 Y37.7340
G01 X39.3809 Y37.7023
G01 X39.3712 Y37.6508
G01 X39.3589 Y37.5999
G01 X39.3439 Y37.5497
G01 X39.3264 Y37.5003
G01 X39.3064 Y37.4518
G01 X39.2839 Y37.4045
G01 X39.2590 Y37.3584
G01 X39.2318 Y37.3136
G01 X39.1997 Y37.2666
G01 X39.1653 Y37.2213
G01 X39.1287 Y37.1778
G01 X39.0898 Y37.1362
G01 X39.0489 Y37.0967
G01 X39.0060 Y37.0593
G01 X38.9613 Y37.0241
G01 X38.9148 Y36.9913
G01 X38.8629 Y36.9585
G01 X38.8094 Y36.9283
G01 X38.7545 Y36.9009
G01 X38.6982 Y36.8764
G01 X38.6407 Y36.8547
G01 X38.5822 Y36.8360
G01 X38.5229 Y36.8203
G01 X38.4628 Y36.8076
G01 X38.3977 Y36.7973
G01 X38.3321 Y36.7903
G01 X38.2663 Y36.7866
G01 X38.2003 Y36.7862
G01 X38.1345 Y36.7892
G01 X38.0689 Y36.7955
G01 X38.0036 Y36.8051
G01 X37.9390 Y36.8181
G01 X37.8707 Y36.8353
G01 X37.8033 Y36.8560
G01 X37.7371 Y36.8801
G01 X37.6721 Y36.9074
G01 X37.6087 Y36.9380
G01 X37.5468 Y36.9718
G01 X37.4868 Y37.0087
G01 X37.4286 Y37.0485
G01 X37.3690 Y37.0939
G01 X37.3117 Y37.1423
G01 X37.2568 Y37.1935
G01 X37.2047 Y37.2474
G01 X37.1553 Y37.3039
G01 X37.1088 Y37.3627
G01 X37.0653 Y37.4238
G01 X37.0250 Y37.4871
G01 X36.9856 Y37.5562
G01 X36.9497 Y37.6272
G01 X36.9175 Y37.6999
G01 X36.8889 Y37.7742
G01 X36.8641 Y37.8498
G01 X36.8431 Y37.9265
G01 X36.8260 Y38.0042
G01 X36.8128 Y38.0826
G01 X36.8057 Y38.1656
G01 X36.8028 Y38.2488
G01 X36.8041 Y38.3320
G01 X36.8094 Y38.4151
G01 X36.8189 Y38.4978
G01 X36.8325 Y38.5799
G01 X36.8501 Y38.6613
G01 X36.8717 Y38.7417
G01 X36.9060 Y38.8189
G01 X36.9440 Y38.8944
G01 X36.9857 Y38.9680
G01 X37.0309 Y39.0394
G01 X37.0795 Y39.1085
G01 X37.1315 Y39.1751
G01 X37.1868 Y39.2391
G01 X37.2450 Y39.3004
G01 X37.3063 Y39.3586
G01 X37.3703 Y39.4138
G01 X37.4369 Y39.4659
G01 X37.5060 Y39.5145
G01 X37.5774 Y39.5597
G01 X37.6510 Y39.6014
G01 X37.7265 Y39.6394
G01 X37.8037 Y39.6737
G01 X37.8826 Y39.7041
G01 X37.9629 Y39.7306
G01 X38.0443 Y39.7531
G01 X38.1268 Y39.7717
G01 X38.2101 Y39.7861
G01 X38.2940 Y39.7965
G01 X38.3783 Y39.8027
G01 X38.4628 Y39.8048
G01 X38.5473 Y39.8027
G01 X38.6316 Y39.7965
G01 X38.7155 Y39.7861
G01 X38.7987 Y39.7717
G01 X38.8812 Y39.7531
G01 X38.9627 Y39.7306
G01 X39.0429 Y39.7041
G01 X39.1218 Y39.6737
G01 X39.1991 Y39.6394
G01 X39.2746 Y39.6014
G01 X39.3481 Y39.5597
G01 X39.4195 Y39.5145
G01 X39.4886 Y39.4659
G01 X39.5553 Y39.4138
G01 X39.6193 Y39.3586
G01 X39.6805 Y39.3004
G01 X39.7388 Y39.2391
G01 X39.7940 Y39.1751
G01 X39.8460 Y39.1085
G01 X39.8947 Y39.0394
G01 X39.9399 Y38.9680
G01 X39.9816 Y38.8944
G01 X40.0196 Y38.8189
G01 X40.0538 Y38.7417
G01 X40.0842 Y38.6628
G01 X40.1108 Y38.5825
G01 X40.1333 Y38.5011
G01 X40.1518 Y38.4186
G01 X40.1663 Y38.3353
G01 X40.1766 Y38.2514
G01 X40.1828 Y38.1671
G01 X40.1849 Y38.0826
G01 X40.1812 Y37.9700
G01 X40.1702 Y37.8578
G01 X40.1518 Y37.7467
G01 X40.1262 Y37.6369
G01 X40.0935 Y37.5291
G01 X40.0538 Y37.4236
G01 X40.0073 Y37.3209
G01 X39.9542 Y37.2216
G01 X39.8947 Y37.1259
G01 X39.8290 Y37.0343
G01 X39.7575 Y36.9471
G01 X39.6805 Y36.8649
G01 X39.5983 Y36.7879
G01 X39.5111 Y36.7164
G01 X39.4195 Y36.6507
G01 X39.3238 Y36.5912
G01 X39.2245 Y36.5381
G01 X39.1218 Y36.4916
G01 X39.0163 Y36.4519
G01 X38.9085 Y36.4192
G01 X38.7987 Y36.3936
G01 X38.6876 Y36.3752
G01 X38.5754 Y36.3642
G01 X38.4628 Y36.3605
G01 X38.3501 Y36.3642
G01 X38.2380 Y36.3752
G01 X38.1268 Y36.3936
G01 X38.0171 Y36.4192
G01 X37.9092 Y36.4519
G01 X37.8037 Y36.4916
G01 X37.7011 Y36.5381
G01 X37.6017 Y36.5912
G01 X37.5060 Y36.6507
G01 X37.4144 Y36.7164
G01 X37.3273 Y36.7879
G01 X37.2450 Y36.8649
G01 X37.1680 Y36.9471
G01 X37.0965 Y37.0343
G01 X37.0309 Y37.1259
G01 X36.9714 Y37.2216
G01 X36.9182 Y37.3209
G01 X36.8717 Y37.4236
G01 X36.8320 Y37.5291
G01 X36.7993 Y37.6369
G01 X36.7737 Y37.7467
G01 X36.7554 Y37.8578
G01 X36.7443 Y37.9700
G01 X36.7406 Y38.0826
G01 X36.7443 Y38.1953
G01 X36.7554 Y38.3074
G01 X36.7737 Y38.4186
G01 X36.7993 Y38.5283
G01 X36.8320 Y38.6362
G01 X36.8717 Y38.7417
G01 X36.9182 Y38.8443
G01 X36.9714 Y38.9437
G01 X37.0309 Y39.0394
G01 X37.0965 Y39.1310
G01 X37.1680 Y39.2181
G01 X37.2450 Y39.3004
G01 X37.3273 Y39.3774
G01 X37.4144 Y39.4489
G01 X37.5060 Y39.5145
G01 X37.6017 Y39.5740
G01 X37.7011 Y39.6272
G01 X37.8037 Y39.6737
G01 X37.9092 Y39.7134
G01 X38.0171 Y39.7461
G01 X38.1268 Y39.7717
G01 X38.2380 Y39.7900
G01 X38.3501 Y39.8011
G01 X38.4628 Y39.8048
G01 X38.5754 Y39.8011
G01 X38.6876 Y39.7900
G01 X38.7987 Y39.7717
G01 X38.9085 Y39.7461
G01 X39.0163 Y39.7134
G01 X39.1218 Y39.6737
G01 X39.2245 Y39.6272
G01 X39.3238 Y39.5740
G01 X39.4195 Y39.5145
G01 X39.5111 Y39.4489
G01 X39.5983 Y39.3774
G01 X39.6805 Y39.3004
G01 X39.7575 Y39.2181
G01 X39.8290 Y39.1310
G01 X39.8947 Y39.0394
G01 X39.9542 Y38.9437
G01 X40.0073 Y38.8443
G01 X40.0538 Y38.7417
G01 X40.0935 Y38.6362
G01 X40.1262 Y38.5283
G01 X40.1518 Y38.4186
G01 X40.1702 Y38.3074
G01 X40.1812 Y38.1953
G01 X40.1849 Y38.0826
G01 X40.1809 Y37.9798
G01 X40.1688 Y37.8775
G01 X40.1487 Y37.7766
G01 X40.1207 Y37.6775
G01 X40.0851 Y37.5809
G01 X40.0420 Y37.4874
G01 X39.9917 Y37.3976
G01 X39.9345 Y37.3120
G01 X39.8708 Y37.2312
G01 X39.8009 Y37.1556
G01 X39.7253 Y37.0857
G01 X39.6445 Y37.0219
G01 X39.5589 Y36.9648
G01 X39.4691 Y36.9145
G01 X39.3756 Y36.8714
G01 X39.2790 Y36.8357
G01 X39.1799 Y36.8078
G01 X39.0789 Y36.7877
G01 X38.9767 Y36.7756
G01 X38.8738 Y36.7716
G01 X38.7710 Y36.7756
G01 X38.6687 Y36.7877
G01 X38.5678 Y36.8078
G01 X38.4687 Y36.8357
G01 X38.3721 Y36.8714
G01 X38.2786 Y36.9145
G01 X38.1888 Y36.9648
G01 X38.1032 Y37.0219
G01 X38.0224 Y37.0857
G01 X37.9468 Y37.1556
G01 X37.8769 Y37.2312
G01 X37.8132 Y37.3120
G01 X37.7560 Y37.3976
G01 X37.7057 Y37.4874
G01 X37.6626 Y37.5809
G01 X37.6269 Y37.6775
G01 X37.5990 Y37.7766
G01 X37.5789 Y37.8775
G01 X37.5668 Y37.9798
G01 X37.5628 Y38.0826
G01 X37.5639 Y38.1268
G01 X37.5671 Y38.1708
G01 X37.5725 Y38.2147
G01 X37.5801 Y38.2582
G01 X37.5897 Y38.3013
G01 X37.6015 Y38.3439
G01 X37.6154 Y38.3858
G01 X37.6313 Y38.4270
G01 X37.6492 Y38.4674
G01 X37.6690 Y38.5069
G01 X37.6908 Y38.5453
G01 X37.7145 Y38.5826
G01 X37.7399 Y38.6188
G01 X37.7671 Y38.6536
G01 X37.7959 Y38.6870
G01 X37.8264 Y38.7190
G01 X37.8584 Y38.7495
G01 X37.8918 Y38.7783
G01 X37.9266 Y38.8055
G01 X37.9628 Y38.8309
G01 X38.0001 Y38.8546
G01 X38.0385 Y38.8764
G01 X38.0780 Y38.8962
G01 X38.1184 Y38.9141
G01 X38.1596 Y38.9300
G01 X38.2015 Y38.9439
G01 X38.2441 Y38.9557
G01 X38.2872 Y38.9653
G01 X38.3307 Y38.9729
G01 X38.3746 Y38.9783
G01 X38.4186 Y38.9815
G01 X38.4628 Y38.9826
G01 X38.5069 Y38.9815
G01 X38.5510 Y38.9783
G01 X38.5948 Y38.9729
G01 X38.6384 Y38.9653
G01 X38.6815 Y38.9557
G01 X38.7240 Y38.9439
G01 X38.7660 Y38.9300
G01 X38.8072 Y38.9141
G01 X38.8476 Y38.8962
G01 X38.8870 Y38.8764
G01 X38.9255 Y38.8546
G01 X38.9628 Y38.8309
G01 X38.9989 Y38.8055
G01 X39.0337 Y38.7783
G01 X39.0672 Y38.7495
G01 X39.0992 Y38.7190
G01 X39.1296 Y38.6870
G01 X39.1585 Y38.6536
G01 X39.1857 Y38.6188
G01 X39.2111 Y38.5826
G01 X39.2347 Y38.5453
G01 X39.2565 Y38.5069
G01 X39.2764 Y38.4674
G01 X39.2943 Y38.4270
G01 X39.3102 Y38.3858
G01 X39.3240 Y38.3439
G01 X39.3358 Y38.3013
G01 X39.3455 Y38.2582
G01 X39.3530 Y38.2147
G01 X39.3584 Y38.1708
G01 X39.3617 Y38.1268
G01 X39.3628 Y38.0826
M107
M106 S240
G01 X39.3618 Y38.0398 Z-1.6831 F400
G01 X39.3587 Y37.9971 Z-1.6995
G01 X39.3536 Y37.9545 Z-1.7159
G01 X39.3465 Y37.9123 Z-1.7323
G01 X39.3374 Y37.8704 Z-1.7487
G01 X39.3263 Y37.8291 Z-1.7652
G01 X39.3133 Y37.7883 Z-1.7816
G01 X39.2983 Y37.7481 Z-1.7980
G01 X39.2814 Y37.7087 Z-1.8144
G01 X39.2627 Y37.6702 Z-1.8308
G01 X39.2422 Y37.6326 Z-1.8472
G01 X39.2199 Y37.5960 Z-1.8636
G01 X39.1959 Y37.5606 Z-1.8801
G01 X39.1702 Y37.5263 Z-1.8965
G01 X39.1429 Y37.4932 Z-1.9129
G01 X39.1141 Y37.4616 Z-1.9293
G01 X39.0838 Y37.4313 Z-1.9457
G01 X39.0521 Y37.4024 Z-1.9621
G01 X39.0191 Y37.3752 Z-1.9785
G01 X38.9848 Y37.3495 Z-1.9949
G01 X38.9494 Y37.3255 Z-2.0114
G01 X38.9128 Y37.3032 Z-2.0278
G01 X38.8752 Y37.2827 Z-2.0442
G01 X38.8366 Y37.2640 Z-2.0606
G01 X38.7973 Y37.2471 Z-2.0770
G01 X38.7571 Y37.2321 Z-2.0934
G01 X38.7163 Y37.2191 Z-2.1098
G01 X38.6750 Y37.2080 Z-2.1263
G01 X38.6331 Y37.1989 Z-2.1427
G01 X38.5909 Y37.1918 Z-2.1591
G01 X38.5483 Y37.1867 Z-2.1755
G01 X38.5056 Y37.1836 Z-2.1919
G01 X38.4628 Y37.1826 Z-2.2083
G01 X38.4200 Y37.1836 Z-2.2247
G01 X38.3772 Y37.1867 Z-2.2412
G01 X38.3347 Y37.1918 Z-2.2576
G01 X38.2924 Y37.1989 Z-2.2740
G01 X38.2506 Y37.2080 Z-2.2904
G01 X38.2092 Y37.2191 Z-2.3068
G01 X38.1684 Y37.2321 Z-2.3232
G01 X38.1283 Y37.2471 Z-2.3396
G01 X38.0889 Y37.2640 Z-2.3561
G01 X38.0504 Y37.2827 Z-2.3725
G01 X38.0128 Y37.3032 Z-2.3889
G01 X37.9762 Y37.3255 Z-2.4053
G01 X37.9407 Y37.3495 Z-2.4217
G01 X37.9064 Y37.3752 Z-2.4381
G01 X37.8734 Y37.4024 Z-2.4545
G01 X37.8417 Y37.4313 Z-2.4710
G01 X37.8114 Y37.4616 Z-2.4874
G01 X37.7826 Y37.4932 Z-2.5038
G01 X37.7553 Y37.5263 Z-2.5202
G01 X37.7297 Y37.5606 Z-2.5366
G01 X37.7056 Y37.5960 Z-2.5530
G01 X37.6834 Y37.6326 Z-2.5694
G01 X37.6628 Y37.6702 Z-2.5859
G01 X37.6441 Y37.7087 Z-2.6023
G01 X37.6272 Y37.7481 Z-2.6187
G01 X37.6123 Y37.7883 Z-2.6351
G01 X37.5992 Y37.8291 Z-2.6515
G01 X37.5881 Y37.8704 Z-2.6679
G01 X37.5790 Y37.9123 Z-2.6843
G01 X37.5719 Y37.9545 Z-2.7008
G01 X37.5668 Y37.9971 Z-2.7172
G01 X37.5638 Y38.0398 Z-2.7336
G01 X37.5628 Y38.0826 Z-2.7500
G01 X37.5638 Y38.1254 Z-2.7664
G01 X37.5668 Y38.1682 Z-2.7828
G01 X37.5719 Y38.2107 Z-2.7992
G01 X37.5790 Y38.2529 Z-2.8157
G01 X37.5881 Y38.2948 Z-2.8321
G01 X37.5992 Y38.3362 Z-2.8485
G01 X37.6123 Y38.3770 Z-2.8649
G01 X37.6272 Y38.4171 Z-2.8813
G01 X37.6441 Y38.4565 Z-2.8977
G01 X37.6628 Y38.4950 Z-2.9141
G01 X37.6834 Y38.5326 Z-2.9306
G01 X37.7056 Y38.5692 Z-2.9470
G01 X37.7297 Y38.6047 Z-2.9634
G01 X37.7553 Y38.6390 Z-2.9798
G01 X37.7826 Y38.6720 Z-2.9962
G01 X37.8114 Y38.7037 Z-3.0126
G01 X37.8417 Y38.7340 Z-3.0290
G01 X37.8734 Y38.7628 Z-3.0455
G01 X37.9064 Y38.7901 Z-3.0619
G01 X37.9407 Y38.8157 Z-3.0783
G01 X37.9762 Y38.8398 Z-3.0947
G01 X38.0128 Y38.8620 Z-3.1111
G01 X38.0504 Y38.8826 Z-3.1275
G01 X38.0889 Y38.9013 Z-3.1439
G01 X38.1283 Y38.9182 Z-3.1604
G01 X38.1684 Y38.9331 Z-3.1768
G01 X38.2092 Y38.9462 Z-3.1932
G01 X38.2506 Y38.9573 Z-3.2096
G01 X38.2924 Y38.9664 Z-3.2260
G01 X38.3347 Y38.9735 Z-3.2424
G01 X38.3772 Y38.9785 Z-3.2588
G01 X38.4200 Y38.9816 Z-3.2753
G01 X38.4628 Y38.9826 Z-3.2917
G01 X38.5056 Y38.9816 Z-3.3081
G01 X38.5483 Y38.9785 Z-3.3245
G01 X38.5909 Y38.9735 Z-3.3409
G01 X38.6331 Y38.9664 Z-3.3573
G01 X38.6750 Y38.9573 Z-3.3737
G01 X38.7163 Y38.9462 Z-3.3902
G01 X38.7571 Y38.9331 Z-3.4066
G01 X38.7973 Y38.9182 Z-3.4230
G01 X38.8366 Y38.9013 Z-3.4394
G01 X38.8752 Y38.8826 Z-3.4558
G01 X38.9128 Y38.8620 Z-3.4722
G01 X38.9494 Y38.8398 Z-3.4886
G01 X38.9848 Y38.8157 Z-3.5051
G01 X39.0191 Y38.7901 Z-3.5215
G01 X39.0521 Y38.7628 Z-3.5379
G01 X39.0838 Y38.7340 Z-3.5543
G01 X39.1141 Y38.7037 Z-3.5707
G01 X39.1429 Y38.6720 Z-3.5871
G01 X39.1702 Y38.6390 Z-3.6035
G01 X39.1959 Y38.6047 Z-3.6199
G01 X39.2199 Y38.5692 Z-3.6364
G01 X39.2422 Y38.5326 Z-3.6528
G01 X39.2627 Y38.4950 Z-3.6692
G01 X39.2814 Y38.4565 Z-3.6856
G01 X39.2983 Y38.4171 Z-3.7020
G01 X39.3133 Y38.3770 Z-3.7184
G01 X39.3263 Y38.3362 Z-3.7348
G01 X39.3374 Y38.2948 Z-3.7513
G01 X39.3465 Y38.2529 Z-3.7677
G01 X39.3536 Y38.2107 Z-3.7841
G01 X39.3587 Y38.1682 Z-3.8005
G01 X39.3618 Y38.1254 Z-3.8169
G01 X39.3628 Y38.0826 Z-3.8333
G01 X39.3618 Y38.0398
G01 X39.3587 Y37.9971
G01 X39.3536 Y37.9545
G01 X39.3465 Y37.9123
G01 X39.3374 Y37.8704
G01 X39.3263 Y37.8291
G01 X39.3133 Y37.7883
G01 X39.2983 Y37.7481
G01 X39.2814 Y37.7087
G01 X39.2627 Y37.6702
G01 X39.2422 Y37.6326
G01 X39.2199 Y37.5960
G01 X39.1959 Y37.5606
G01 X39.1702 Y37.5263
G01 X39.1429 Y37.4932
G01 X39.1141 Y37.4616
G01 X39.0838 Y37.4313
G01 X39.0521 Y37.4024
G01 X39.0191 Y37.3752
G01 X38.9848 Y37.3495
G01 X38.9494 Y37.3255
G01 X38.9128 Y37.3032
G01 X38.8752 Y37.2827
G01 X38.8366 Y37.2640
G01 X38.7973 Y37.2471
G01 X38.7571 Y37.2321
G01 X38.7163 Y37.2191
G01 X38.6750 Y37.2080
G01 X38.6331 Y37.1989
G01 X38.5909 Y37.1918
G01 X38.5483 Y37.1867
G01 X38.5056 Y37.1836
G01 X38.4628 Y37.1826
G01 X38.4200 Y37.1836
G01 X38.3772 Y37.1867
G01 X38.3347 Y37.1918
G01 X38.2924 Y37.1989
G01 X38.2506 Y37.2080
G01 X38.2092 Y37.2191
G01 X38.1684 Y37.2321
G01 X38.1283 Y37.2471
G01 X38.0889 Y37.2640
G01 X38.0504 Y37.2827
G01 X38.0128 Y37.3032
G01 X37.9762 Y37.3255
G01 X37.9407 Y37.3495
G01 X37.9064 Y37.3752
G01 X37.8734 Y37.4024
G01 X37.8417 Y37.4313
G01 X37.8114 Y37.4616
G01 X37.7826 Y37.4932
G01 X37.7553 Y37.5263
G01 X37.7297 Y37.5606
G01 X37.7056 Y37.5960
G01 X37.6834 Y37.6326
G01 X37.6628 Y37.6702
G01 X37.6441 Y37.7087
G01 X37.6272 Y37.7481
G01 X37.6123 Y37.7883
G01 X37.5992 Y37.8291
G01 X37.5881 Y37.8704
G01 X37.5790 Y37.9123
G01 X37.5719 Y37.9545
G01 X37.5668 Y37.9971
G01 X37.5638 Y38.0398
G01 X37.5628 Y38.0826
G01 X37.5638 Y38.1254
G01 X37.5668 Y38.1682
G01 X37.5719 Y38.2107
G01 X37.5790 Y38.2529
G01 X37.5881 Y38.2948
G01 X37.5992 Y38.3362
G01 X37.6123 Y38.3770
G01 X37.6272 Y38.4171
G01 X37.6441 Y38.4565
G01 X37.6628 Y38.4950
G01 X37.6834 Y38.5326
G01 X37.7056 Y38.5692
G01 X37.7297 Y38.6047
G01 X37.7553 Y38.6390
G01 X37.7826 Y38.6720
G01 X37.8114 Y38.7037
G01 X37.8417 Y38.7340
G01 X37.8734 Y38.7628
G01 X37.9064 Y38.7901
G01 X37.9407 Y38.8157
G01 X37.9762 Y38.8398
G01 X38.0128 Y38.8620
G01 X38.0504 Y38.8826
G01 X38.0889 Y38.9013
G01 X38.1283 Y38.9182
G01 X38.1684 Y38.9331
G01 X38.2092 Y38.9462
G01 X38.2506 Y38.9573
G01 X38.2924 Y38.9664
G01 X38.3347 Y38.9735
G01 X38.3772 Y38.9785
G01 X38.4200 Y38.9816
G01 X38.4628 Y38.9826
G01 X38.5056 Y38.9816
G01 X38.5483 Y38.9785
G01 X38.5909 Y38.9735
G01 X38.6331 Y38.9664
G01 X38.6750 Y38.9573
G01 X38.7163 Y38.9462
G01 X38.7571 Y38.9331
G01 X38.7973 Y38.9182
G01 X38.8366 Y38.9013
G01 X38.8752 Y38.8826
G01 X38.9128 Y38.8620
G01 X38.9494 Y38.8398
G01 X38.9848 Y38.8157
G01 X39.0191 Y38.7901
G01 X39.0521 Y38.7628
G01 X39.0838 Y38.7340
G01 X39.1141 Y38.7037
G01 X39.1429 Y38.6720
G01 X39.1702 Y38.6390
G01 X39.1959 Y38.6047
G01 X39.2199 Y38.5692
G01 X39.2422 Y38.5326
G01 X39.2627 Y38.4950
G01 X39.2814 Y38.4565
G01 X39.2983 Y38.4171
G01 X39.3133 Y38.3770
G01 X39.3263 Y38.3362
G01 X39.3374 Y38.2948
G01 X39.3465 Y38.2529
G01 X39.3536 Y38.2107
G01 X39.3587 Y38.1682
G01 X39.3618 Y38.1254
G01 X39.3628 Y38.0826
G01 X39.3703 Y38.0516 F1000
G01 X39.3768 Y38.0203
G01 X39.3822 Y37.9888
G01 X39.3864 Y37.9571
G01 X39.3896 Y37.9253
G01 X39.3917 Y37.8934
G01 X39.3926 Y37.8615
G01 X39.3925 Y37.8295
G01 X39.3913 Y37.7976
G01 X39.3889 Y37.7657
G01 X39.3854 Y37.7340
G01 X39.3809 Y37.7023
G01 X39.3712 Y37.6508
G01 X39.3589 Y37.5999
G01 X39.3439 Y37.5497
G01 X39.3264 Y37.5003
G01 X39.3064 Y37.4518
G01 X39.2839 Y37.4045
G01 X39.2590 Y37.3584
G01 X39.2318 Y37.3136
G01 X39.1997 Y37.2666
G01 X39.1653 Y37.2213
G01 X39.1287 Y37.1778
G01 X39.0898 Y37.1362
G01 X39.0489 Y37.0967
G01 X39.0060 Y37.0593
G01 X38.9613 Y37.0241
G01 X38.9148 Y36.9913
G01 X38.8629 Y36.9585
G01 X38.8094 Y36.9283
G01 X38.7545 Y36.9009
G01 X38.6982 Y36.8764
G01 X38.6407 Y36.8547
G01 X38.5822 Y36.8360
G01 X38.5229 Y36.8203
G01 X38.4628 Y36.8076
G01 X38.3977 Y36.7973
G01 X38.3321 Y36.7903
G01 X38.2663 Y36.7866
G01 X38.2003 Y36.7862
G01 X38.1345 Y36.7892
G01 X38.0689 Y36.7955
G01 X38.0036 Y36.8051
G01 X37.9390 Y36.8181
G01 X37.8707 Y36.8353
G01 X37.8033 Y36.8560
G01 X37.7371 Y36.8801
G01 X37.6721 Y36.9074
G01 X37.6087 Y36.9380
G01 X37.5468 Y36.9718
G01 X37.4868 Y37.0087
G01 X37.4286 Y37.0485
G01 X37.3690 Y37.0939
G01 X37.3117 Y37.1423
G01 X37.2568 Y37.1935
G01 X37.2047 Y37.2474
G01 X37.1553 Y37.3039
G01 X37.1088 Y37.3627
G01 X37.0653 Y37.4238
G01 X37.0250 Y37.4871
G01 X36.9856 Y37.5562
G01 X36.9497 Y37.6272
G01 X36.9175 Y37.6999
G01 X36.8889 Y37.7742
G01 X36.8641 Y37.8498
G01 X36.8431 Y37.9265
G01 X36.8260 Y38.0042
G01 X36.8128 Y38.0826
G01 X36.8057 Y38.1656
G01 X36.8028 Y38.2488
G01 X36.8041 Y38.3320
G01 X36.8094 Y38.4151
G01 X36.8189 Y38.4978
G01 X36.8325 Y38.5799
G01 X36.8501 Y38.6613
G01 X36.8717 Y38.7417
G01 X36.9060 Y38.8189
G01 X36.9440 Y38.8944
G01 X36.9857 Y38.9680
G01 X37.0309 Y39.0394
G01 X37.0795 Y39.1085
G01 X37.1315 Y39.1751
G01 X37.1868 Y39.2391
G01 X37.2450 Y39.3004
G01 X37.3063 Y39.3586
G01 X37.3703 Y39.4138
G01 X37.4369 Y39.4659
G01 X37.5060 Y39.5145
G01 X37.5774 Y39.5597
G01 X37.6510 Y39.6014
G01 X37.7265 Y39.6394
G01 X37.8037 Y39.6737
G01 X37.8826 Y39.7041
G01 X37.9629 Y39.7306
G01 X38.0443 Y39.7531
G01 X38.1268 Y39.7717
G01 X38.2101 Y39.7861
G01 X38.2940 Y39.7965
G01 X38.3783 Y39.8027
G01 X38.4628 Y39.8048
G01 X38.5473 Y39.8027
G01 X38.6316 Y39.7965
G01 X38.7155 Y39.7861
G01 X38.7987 Y39.7717
G01 X38.8812 Y39.7531
G01 X38.9627 Y39.7306
G01 X39.0429 Y39.7041
G01 X39.1218 Y39.6737
G01 X39.1991 Y39.6394
G01 X39.2746 Y39.6014
G01 X39.3481 Y39.5597
G01 X39.4195 Y39.5145
G01 X39.4886 Y39.4659
G01 X39.5553 Y39.4138
G01 X39.6193 Y39.3586
G01 X39.6805 Y39.3004
G01 X39.7388 Y39.2391
G01 X39.7940 Y39.1751
G01 X39.8460 Y39.1085
G01 X39.8947 Y39.0394
G01 X39.9399 Y38.9680
G01 X39.9816 Y38.8944
G01 X40.0196 Y38.8189
G01 X40.0538 Y38.7417
G01 X40.0842 Y38.6628
G01 X40.1108 Y38.5825
G01 X40.1333 Y38.5011
G01 X40.1518 Y38.4186
G01 X40.1663 Y38.3353
G01 X40.1766 Y38.2514
G01 X40.1828 Y38.1671
G01 X40.1849 Y38.0826
G01 X40.1812 Y37.9700
G01 X40.1702 Y37.8578
G01 X40.1518 Y37.7467
G01 X40.1262 Y37.6369
G01 X40.0935 Y37.5291
G01 X40.0538 Y37.4236
G01 X40.0073 Y37.3209
G01 X39.9542 Y37.2216
G01 X39.8947 Y37.1259
G01 X39.8290 Y37.0343
G01 X39.7575 Y36.9471
G01 X39.6805 Y36.8649
G01 X39.5983 Y36.7879
G01 X39.5111 Y36.7164
G01 X39.4195 Y36.6507
G01 X39.3238 Y36.5912
G01 X39.2245 Y36.5381
G01 X39.1218 Y36.4916
G01 X39.0163 Y36.4519
G01 X38.9085 Y36.4192
G01 X38.7987 Y36.3936
G01 X38.6876 Y36.3752
G01 X38.5754 Y36.3642
G01 X38.4628 Y36.3605
G01 X38.3501 Y36.3642
G01 X38.2380 Y36.3752
G01 X38.1268 Y36.3936
G01 X38.0171 Y36.4192
G01 X37.9092 Y36.4519
G01 X37.8037 Y36.4916
G01 X37.7011 Y36.5381
G01 X37.6017 Y36.5912
G01 X37.5060 Y36.6507
G01 X37.4144 Y36.7164
G01 X37.3273 Y36.7879
G01 X37.2450 Y36.8649
G01 X37.1680 Y36.9471
G01 X37.0965 Y37.0343
G01 X37.0309 Y37.1259
G01 X36.9714 Y37.2216
G01 X36.9182 Y37.3209
G01 X36.8717 Y37.4236
G01 X36.8320 Y37.5291
G01 X36.7993 Y37.6369
G01 X36.7737 Y37.7467
G01 X36.7554 Y37.8578
G01 X36.7443 Y37.9700
G01 X36.7406 Y38.0826
G01 X36.7443 Y38.1953
G01 X36.7554 Y38.3074
G01 X36.7737 Y38.4186
G01 X36.7993 Y38.5283
G01 X36.8320 Y38.6362
G01 X36.8717 Y38.7417
G01 X36.9182 Y38.8443
G01 X36.9714 Y38.9437
G01 X37.0309 Y39.0394
G01 X37.0965 Y39.1310
G01 X37.1680 Y39.2181
G01 X37.2450 Y39.3004
G01 X37.3273 Y39.3774
G01 X37.4144 Y39.4489
G01 X37.5060 Y39.5145
G01 X37.6017 Y39.5740
G01 X37.7011 Y39.6272
G01 X37.8037 Y39.6737
G01 X37.9092 Y39.7134
G01 X38.0171 Y39.7461
G01 X38.1268 Y39.7717
G01 X38.2380 Y39.7900
G01 X38.3501 Y39.8011
G01 X38.4628 Y39.8048
G01 X38.5754 Y39.8011
G01 X38.6876 Y39.7900
G01 X38.7987 Y39.7717
G01 X38.9085 Y39.7461
G01 X39.0163 Y39.7134
G01 X39.1218 Y39.6737
G01 X39.2245 Y39.6272
G01 X39.3238 Y39.5740
G01 X39.4195 Y39.5145
G01 X39.5111 Y39.4489
G01 X39.5983 Y39.3774
G01 X39.6805 Y39.3004
G01 X39.7575 Y39.2181
G01 X39.8290 Y39.1310
G01 X39.8947 Y39.0394
G01 X39.9542 Y38.9437
G01 X40.0073 Y38.8443
G01 X40.0538 Y38.7417
G01 X40.0935 Y38.6362
G01 X40.1262 Y38.5283
G01 X40.1518 Y38.4186
G01 X40.1702 Y38.3074
G01 X40.1812 Y38.1953
G01 X40.1849 Y38.0826
G01 X40.1809 Y37.9798
G01 X40.1688 Y37.8775
G01 X40.1487 Y37.7766
G01 X40.1207 Y37.6775
G01 X40.0851 Y37.5809
G01 X40.0420 Y37.4874
G01 X39.9917 Y37.3976
G01 X39.9345 Y37.3120
G01 X39.8708 Y37.2312
G01 X39.8009 Y37.1556
G01 X39.7253 Y37.0857
G01 X39.6445 Y37.0219
G01 X39.5589 Y36.9648
G01 X39.4691 Y36.9145
G01 X39.3756 Y36.8714
G01 X39.2790 Y36.8357
G01 X39.1799 Y36.8078
G01 X39.0789 Y36.7877
G01 X38.9767 Y36.7756
G01 X38.8738 Y36.7716
G01 X38.7710 Y36.7756
G01 X38.6687 Y36.7877
G01 X38.5678 Y36.8078
G01 X38.4687 Y36.8357
G01 X38.3721 Y36.8714
G01 X38.2786 Y36.9145
G01 X38.1888 Y36.9648
G01 X38.1032 Y37.0219
G01 X38.0224 Y37.0857
G01 X37.9468 Y37.1556
G01 X37.8769 Y37.2312
G01 X37.8132 Y37.3120
G01 X37.7560 Y37.3976
G01 X37.7057 Y37.4874
G01 X37.6626 Y37.5809
G01 X37.6269 Y37.6775
G01 X37.5990 Y37.7766
G01 X37.5789 Y37.8775
G01 X37.5668 Y37.9798
G01 X37.5628 Y38.0826
G01 X37.5639 Y38.1268
G01 X37.5671 Y38.1708
G01 X37.5725 Y38.2147
G01 X37.5801 Y38.2582
G01 X37.5897 Y38.3013
G01 X37.6015 Y38.3439
G01 X37.6154 Y38.3858
G01 X37.6313 Y38.4270
G01 X37.6492 Y38.4674
G01 X37.6690 Y38.5069
G01 X37.6908 Y38.5453
G01 X37.7145 Y38.5826
G01 X37.7399 Y38.6188
G01 X37.7671 Y38.6536
G01 X37.7959 Y38.6870
G01 X37.8264 Y38.7190
G01 X37.8584 Y38.7495
G01 X37.8918 Y38.7783
G01 X37.9266 Y38.8055
G01 X37.9628 Y38.8309
G01 X38.0001 Y38.8546
G01 X38.0385 Y38.8764
G01 X38.0780 Y38.8962
G01 X38.1184 Y38.9141
G01 X38.1596 Y38.9300
G01 X38.2015 Y38.9439
G01 X38.2441 Y38.9557
G01 X38.2872 Y38.9653
G01 X38.3307 Y38.9729
G01 X38.3746 Y38.9783
G01 X38.4186 Y38.9815
G01 X38.4628 Y38.9826
G01 X38.5069 Y38.9815
G01 X38.5510 Y38.9783
G01 X38.5948 Y38.9729
G01 X38.6384 Y38.9653
G01 X38.6815 Y38.9557
G01 X38.7240 Y38.9439
G01 X38.7660 Y38.9300
G01 X38.8072 Y38.9141
G01 X38.8476 Y38.8962
G01 X38.8870 Y38.8764
G01 X38.9255 Y38.8546
G01 X38.9628 Y38.8309
G01 X38.9989 Y38.8055
G01 X39.0337 Y38.7783
G01 X39.0672 Y38.7495
G01 X39.0992 Y38.7190
G01 X39.1296 Y38.6870
G01 X39.1585 Y38.6536
G01 X39.1857 Y38.6188
G01 X39.2111 Y38.5826
G01 X39.2347 Y38.5453
G01 X39.2565 Y38.5069
G01 X39.2764 Y38.4674
G01 X39.2943 Y38.4270
G01 X39.3102 Y38.3858
G01 X39.3240 Y38.3439
G01 X39.3358 Y38.3013
G01 X39.3455 Y38.2582
G01 X39.3530 Y38.2147
G01 X39.3584 Y38.1708
G01 X39.3617 Y38.1268
G01 X39.3628 Y38.0826
M107
M106 S240
G01 X39.3618 Y38.0398 Z-3.8497 F400
G01 X39.3587 Y37.9971 Z-3.8662
G01 X39.3536 Y37.9545 Z-3.8826
G01 X39.3465 Y37.9123 Z-3.8990
G01 X39.3374 Y37.8704 Z-3.9154
G01 X39.3263 Y37.8291 Z-3.9318
G01 X39.3133 Y37.7883 Z-3.9482
G01 X39.2983 Y37.7481 Z-3.9646
G01 X39.2814 Y37.7087 Z-3.9811
G01 X39.2627 Y37.6702 Z-3.9975
G01 X39.2422 Y37.6326 Z-4.0139
G01 X39.2199 Y37.5960 Z-4.0303
G01 X39.1959 Y37.5606 Z-4.0467
G01 X39.1702 Y37.5263 Z-4.0631
G01 X39.1429 Y37.4932 Z-4.0795
G01 X39.1141 Y37.4616 Z-4.0960
G01 X39.0838 Y37.4313 Z-4.1124
G01 X39.0521 Y37.4024 Z-4.1288
G01 X39.0191 Y37.3752 Z-4.1452
G01 X38.9848 Y37.3495 Z-4.1616
G01 X38.9494 Y37.3255 Z-4.1780
G01 X38.9128 Y37.3032 Z-4.1944
G01 X38.8752 Y37.2827 Z-4.2109
G01 X38.8366 Y37.2640 Z-4.2273
G01 X38.7973 Y37.2471 Z-4.2437
G01 X38.7571 Y37.2321 Z-4.2601
G01 X38.7163 Y37.2191 Z-4.2765
G01 X38.6750 Y37.2080 Z-4.2929
G01 X38.6331 Y37.1989 Z-4.3093
G01 X38.5909 Y37.1918 Z-4.3258
G01 X38.5483 Y37.1867 Z-4.3422
G01 X38.5056 Y37.1836 Z-4.3586
G01 X38.4628 Y37.1826 Z-4.3750
G01 X38.4200 Y37.1836 Z-4.3914
G01 X38.3772 Y37.1867 Z-4.4078
G01 X38.3347 Y37.1918 Z-4.4242
G01 X38.2924 Y37.1989 Z-4.4407
G01 X38.2506 Y37.2080 Z-4.4571
G01 X38.2092 Y37.2191 Z-4.4735
G01 X38.1684 Y37.2321 Z-4.4899
G01 X38.1283 Y37.2471 Z-4.5063
G01 X38.0889 Y37.2640 Z-4.5227
G01 X38.0504 Y37.2827 Z-4.5391
G01 X38.0128 Y37.3032 Z-4.5556
G01 X37.9762 Y37.3255 Z-4.5720
G01 X37.9407 Y37.3495 Z-4.5884
G01 X37.9064 Y37.3752 Z-4.6048
G01 X37.8734 Y37.4024 Z-4.6212
G01 X37.8417 Y37.4313 Z-4.6376
G01 X37.8114 Y37.4616 Z-4.6540
G01 X37.7826 Y37.4932 Z-4.6705
G01 X37.7553 Y37.5263 Z-4.6869
G01 X37.7297 Y37.5606 Z-4.7033
G01 X37.7056 Y37.5960 Z-4.7197
G01 X37.6834 Y37.6326 Z-4.7361
G01 X37.6628 Y37.6702 Z-4.7525
G01 X37.6441 Y37.7087 Z-4.7689
G01 X37.6272 Y37.7481 Z-4.7854
G01 X37.6123 Y37.7883 Z-4.8018
G01 X37.5992 Y37.8291 Z-4.8182
G01 X37.5881 Y37.8704 Z-4.8346
G01 X37.5790 Y37.9123 Z-4.8510
G01 X37.5719 Y37.9545 Z-4.8674
G01 X37.5668 Y37.9971 Z-4.8838
G01 X37.5638 Y38.0398 Z-4.9003
G01 X37.5628 Y38.0826 Z-4.9167
G01 X37.5638 Y38.1254 Z-4.9331
G01 X37.5668 Y38.1682 Z-4.9495
G01 X37.5719 Y38.2107 Z-4.9659
G01 X37.5790 Y38.2529 Z-4.9823
G01 X37.5881 Y38.2948 Z-4.9987
G01 X37.5992 Y38.3362 Z-5.0152
G01 X37.6123 Y38.3770 Z-5.0316
G01 X37.6272 Y38.4171 Z-5.0480
G01 X37.6441 Y38.4565 Z-5.0644
G01 X37.6628 Y38.4950 Z-5.0808
G01 X37.6834 Y38.5326 Z-5.0972
G01 X37.7056 Y38.5692 Z-5.1136
G01 X37.7297 Y38.6047 Z-5.1301
G01 X37.7553 Y38.6390 Z-5.1465
G01 X37.7826 Y38.6720 Z-5.1629
G01 X37.8114 Y38.7037 Z-5.1793
G01 X37.8417 Y38.7340 Z-5.1957
G01 X37.8734 Y38.7628 Z-5.2121
G01 X37.9064 Y38.7901 Z-5.2285
G01 X37.9407 Y38.8157 Z-5.2449
G01 X37.9762 Y38.8398 Z-5.2614
G01 X38.0128 Y38.8620 Z-5.2778
G01 X38.0504 Y38.8826 Z-5.2942
G01 X38.0889 Y38.9013 Z-5.3106
G01 X38.1283 Y38.9182 Z-5.3270
G01 X38.1684 Y38.9331 Z-5.3434
G01 X38.2092 Y38.9462 Z-5.3598
G01 X38.2506 Y38.9573 Z-5.3763
G01 X38.2924 Y38.9664 Z-5.3927
G01 X38.3347 Y38.9735 Z-5.4091
G01 X38.3772 Y38.9785 Z-5.4255
G01 X38.4200 Y38.9816 Z-5.4419
G01 X38.4628 Y38.9826 Z-5.4583
G01 X38.5056 Y38.9816 Z-5.4747
G01 X38.5483 Y38.9785 Z-5.4912
G01 X38.5909 Y38.9735 Z-5.5076
G01 X38.6331 Y38.9664 Z-5.5240
G01 X38.6750 Y38.9573 Z-5.5404
G01 X38.7163 Y38.9462 Z-5.5568
G01 X38.7571 Y38.9331 Z-5.5732
G01 X38.7973 Y38.9182 Z-5.5896
G01 X38.8366 Y38.9013 Z-5.6061
G01 X38.8752 Y38.8826 Z-5.6225
G01 X38.9128 Y38.8620 Z-5.6389
G01 X38.9494 Y38.8398 Z-5.6553
G01 X38.9848 Y38.8157 Z-5.6717
G01 X39.0191 Y38.7901 Z-5.6881
G01 X39.0521 Y38.7628 Z-5.7045
G01 X39.0838 Y38.7340 Z-5.7210
G01 X39.1141 Y38.7037 Z-5.7374
G01 X39.1429 Y38.6720 Z-5.7538
G01 X39.1702 Y38.6390 Z-5.7702
G01 X39.1959 Y38.6047 Z-5.7866
G01 X39.2199 Y38.5692 Z-5.8030
G01 X39.2422 Y38.5326 Z-5.8194
G01 X39.2627 Y38.4950 Z-5.8359
G01 X39.2814 Y38.4565 Z-5.8523
G01 X39.2983 Y38.4171 Z-5.8687
G01 X39.3133 Y38.3770 Z-5.8851
G01 X39.3263 Y38.3362 Z-5.9015
G01 X39.3374 Y38.2948 Z-5.9179
G01 X39.3465 Y38.2529 Z-5.9343
G01 X39.3536 Y38.2107 Z-5.9508
G01 X39.3587 Y38.1682 Z-5.9672
G01 X39.3618 Y38.1254 Z-5.9836
G01 X39.3628 Y38.0826 Z-6.0000
G01 X39.3618 Y38.0398
G01 X39.3587 Y37.9971
G01 X39.3536 Y37.9545
G01 X39.3465 Y37.9123
G01 X39.3374 Y37.8704
G01 X39.3263 Y37.8291
G01 X39.3133 Y37.7883
G01 X39.2983 Y37.7481
G01 X39.2814 Y37.7087
G01 X39.2627 Y37.6702
G01 X39.2422 Y37.6326
G01 X39.2199 Y37.5960
G01 X39.1959 Y37.5606
G01 X39.1702 Y37.5263
G01 X39.1429 Y37.4932
G01 X39.1141 Y37.4616
G01 X39.0838 Y37.4313
G01 X39.0521 Y37.4024
G01 X39.0191 Y37.3752
G01 X38.9848 Y37.3495
G01 X38.9494 Y37.3255
G01 X38.9128 Y37.3032
G01 X38.8752 Y37.2827
G01 X38.8366 Y37.2640
G01 X38.7973 Y37.2471
G01 X38.7571 Y37.2321
G01 X38.7163 Y37.2191
G01 X38.6750 Y37.2080
G01 X38.6331 Y37.1989
G01 X38.5909 Y37.1918
G01 X38.5483 Y37.1867
G01 X38.5056 Y37.1836
G01 X38.4628 Y37.1826
G01 X38.4200 Y37.1836
G01 X38.3772 Y37.1867
G01 X38.3347 Y37.1918
G01 X38.2924 Y37.1989
G01 X38.2506 Y37.2080
G01 X38.2092 Y37.2191
G01 X38.1684 Y37.2321
G01 X38.1283 Y37.2471
G01 X38.0889 Y37.2640
G01 X38.0504 Y37.2827
G01 X38.0128 Y37.3032
G01 X37.9762 Y37.3255
G01 X37.9407 Y37.3495
G01 X37.9064 Y37.3752
G01 X37.8734 Y37.4024
G01 X37.8417 Y37.4313
G01 X37.8114 Y37.4616
G01 X37.7826 Y37.4932
G01 X37.7553 Y37.5263
G01 X37.7297 Y37.5606
G01 X37.7056 Y37.5960
G01 X37.6834 Y37.6326
G01 X37.6628 Y37.6702
G01 X37.6441 Y37.7087
G01 X37.6272 Y37.7481
G01 X37.6123 Y37.7883
G01 X37.5992 Y37.8291
G01 X37.5881 Y37.8704
G01 X37.5790 Y37.9123
G01 X37.5719 Y37.9545
G01 X37.5668 Y37.9971
G01 X37.5638 Y38.0398
G01 X37.5628 Y38.0826
G01 X37.5638 Y38.1254
G01 X37.5668 Y38.1682
G01 X37.5719 Y38.2107
G01 X37.5790 Y38.2529
G01 X37.5881 Y38.2948
G01 X37.5992 Y38.3362
G01 X37.6123 Y38.3770
G01 X37.6272 Y38.4171
G01 X37.6441 Y38.4565
G01 X37.6628 Y38.4950
G01 X37.6834 Y38.5326
G01 X37.7056 Y38.5692
G01 X37.7297 Y38.6047
G01 X37.7553 Y38.6390
G01 X37.7826 Y38.6720
G01 X37.8114 Y38.7037
G01 X37.8417 Y38.7340
G01 X37.8734 Y38.7628
G01 X37.9064 Y38.7901
G01 X37.9407 Y38.8157
G01 X37.9762 Y38.8398
G01 X38.0128 Y38.8620
G01 X38.0504 Y38.8826
G01 X38.0889 Y38.9013
G01 X38.1283 Y38.9182
G01 X38.1684 Y38.9331
G01 X38.2092 Y38.9462
G01 X38.2506 Y38.9573
G01 X38.2924 Y38.9664
G01 X38.3347 Y38.9735
G01 X38.3772 Y38.9785
G01 X38.4200 Y38.9816
G01 X38.4628 Y38.9826
G01 X38.5056 Y38.9816
G01 X38.5483 Y38.9785
G01 X38.5909 Y38.9735
G01 X38.6331 Y38.9664
G01 X38.6750 Y38.9573
G01 X38.7163 Y38.9462
G01 X38.7571 Y38.9331
G01 X38.7973 Y38.9182
G01 X38.8366 Y38.9013
G01 X38.8752 Y38.8826
G01 X38.9128 Y38.8620
G01 X38.9494 Y38.8398
G01 X38.9848 Y38.8157
G01 X39.0191 Y38.7901
G01 X39.0521 Y38.7628
G01 X39.0838 Y38.7340
G01 X39.1141 Y38.7037
G01 X39.1429 Y38.6720
G01 X39.1702 Y38.6390
G01 X39.1959 Y38.6047
G01 X39.2199 Y38.5692
G01 X39.2422 Y38.5326
G01 X39.2627 Y38.4950
G01 X39.2814 Y38.4565
G01 X39.2983 Y38.4171
G01 X39.3133 Y38.3770
G01 X39.3263 Y38.3362
G01 X39.3374 Y38.2948
G01 X39.3465 Y38.2529
G01 X39.3536 Y38.2107
G01 X39.3587 Y38.1682
G01 X39.3618 Y38.1254
G01 X39.3628 Y38.0826
G01 X39.3703 Y38.0516 F1000
G01 X39.3768 Y38.0203
G01 X39.3822 Y37.9888
G01 X39.3864 Y37.9571
G01 X39.3896 Y37.9253
G01 X39.3917 Y37.8934
G01 X39.3926 Y37.8615
G01 X39.3925 Y37.8295
G01 X39.3913 Y37.7976
G01 X39.3889 Y37.7657
G01 X39.3854 Y37.7340
G01 X39.3809 Y37.7023
G01 X39.3712 Y37.6508
G01 X39.3589 Y37.5999
G01 X39.3439 Y37.5497
G01 X39.3264 Y37.5003
G01 X39.3064 Y37.4518
G01 X39.2839 Y37.4045
G01 X39.2590 Y37.3584
G01 X39.2318 Y37.3136
G01 X39.1997 Y37.2666
G01 X39.1653 Y37.2213
G01 X39.1287 Y37.1778
G01 X39.0898 Y37.1362
G01 X39.0489 Y37.0967
G01 X39.0060 Y37.0593
G01 X38.9613 Y37.0241
G01 X38.9148 Y36.9913
G01 X38.8629 Y36.9585
G01 X38.8094 Y36.9283
G01 X38.7545 Y36.9009
G01 X38.6982 Y36.8764
G01 X38.6407 Y36.8547
G01 X38.5822 Y36.8360
G01 X38.5229 Y36.8203
G01 X38.4628 Y36.8076
G01 X38.3977 Y36.7973
G01 X38.3321 Y36.7903
G01 X38.2663 Y36.7866
G01 X38.2003 Y36.7862
G01 X38.1345 Y36.7892
G01 X38.0689 Y36.7955
G01 X38.0036 Y36.8051
G01 X37.9390 Y36.8181
G01 X37.8707 Y36.8353
G01 X37.8033 Y36.8560
G01 X37.7371 Y36.8801
G01 X37.6721 Y36.9074
G01 X37.6087 Y36.9380
G01 X37.5468 Y36.9718
G01 X37.4868 Y37.0087
G01 X37.4286 Y37.0485
G01 X37.3690 Y37.0939
G01 X37.3117 Y37.1423
G01 X37.2568 Y37.1935
G01 X37.2047 Y37.2474
G01 X37.1553 Y37.3039
G01 X37.1088 Y37.3627
G01 X37.0653 Y37.4238
G01 X37.0250 Y37.4871
G01 X36.9856 Y37.5562
G01 X36.9497 Y37.6272
G01 X36.9175 Y37.6999
G01 X36.8889 Y37.7742
G01 X36.8641 Y37.8498
G01 X36.8431 Y37.9265
G01 X36.8260 Y38.0042
G01 X36.8128 Y38.0826
G01 X36.8057 Y38.1656
G01 X36.8028 Y38.2488
G01 X36.8041 Y38.3320
G01 X36.8094 Y38.4151
G01 X36.8189 Y38.4978
G01 X36.8325 Y38.5799
G01 X36.8501 Y38.6613
G01 X36.8717 Y38.7417
G01 X36.9060 Y38.8189
G01 X36.9440 Y38.8944
G01 X36.9857 Y38.9680
G01 X37.0309 Y39.0394
G01 X37.0795 Y39.1085
G01 X37.1315 Y39.1751
G01 X37.1868 Y39.2391
G01 X37.2450 Y39.3004
G01 X37.3063 Y39.3586
G01 X37.3703 Y39.4138
G01 X37.4369 Y39.4659
G01 X37.5060 Y39.5145
G01 X37.5774 Y39.5597
G01 X37.6510 Y39.6014
G01 X37.7265 Y39.6394
G01 X37.8037 Y39.6737
G01 X37.8826 Y39.7041
G01 X37.9629 Y39.7306
G01 X38.0443 Y39.7531
G01 X38.1268 Y39.7717
G01 X38.2101 Y39.7861
G01 X38.2940 Y39.7965
G01 X38.3783 Y39.8027
G01 X38.4628 Y39.8048
G01 X38.5473 Y39.8027
G01 X38.6316 Y39.7965
G01 X38.7155 Y39.7861
G01 X38.7987 Y39.7717
G01 X38.8812 Y39.7531
G01 X38.9627 Y39.7306
G01 X39.0429 Y39.7041
G01 X39.1218 Y39.6737
G01 X39.1991 Y39.6394
G01 X39.2746 Y39.6014
G01 X39.3481 Y39.5597
G01 X39.4195 Y39.5145
G01 X39.4886 Y39.4659
G01 X39.5553 Y39.4138
G01 X39.6193 Y39.3586
G01 X39.6805 Y39.3004
G01 X39.7388 Y39.2391
G01 X39.7940 Y39.1751
G01 X39.8460 Y39.1085
G01 X39.8947 Y39.0394
G01 X39.9399 Y38.9680
G01 X39.9816 Y38.8944
G01 X40.0196 Y38.8189
G01 X40.0538 Y38.7417
G01 X40.0842 Y38.6628
G01 X40.1108 Y38.5825
G01 X40.1333 Y38.5011
G01 X40.1518 Y38.4186
G01 X40.1663 Y38.3353
G01 X40.1766 Y38.2514
G01 X40.1828 Y38.1671
G01 X40.1849 Y38.0826
G01 X40.1812 Y37.9700
G01 X40.1702 Y37.8578
G01 X40.1518 Y37.7467
G01 X40.1262 Y37.6369
G01 X40.0935 Y37.5291
G01 X40.0538 Y37.4236
G01 X40.0073 Y37.3209
G01 X39.9542 Y37.2216
G01 X39.8947 Y37.1259
G01 X39.8290 Y37.0343
G01 X39.7575 Y36.9471
G01 X39.6805 Y36.8649
G01 X39.5983 Y36.7879
G01 X39.5111 Y36.7164
G01 X39.4195 Y36.6507
G01 X39.3238 Y36.5912
G01 X39.2245 Y36.5381
G01 X39.1218 Y36.4916
G01 X39.0163 Y36.4519
G01 X38.9085 Y36.4192
G01 X38.7987 Y36.3936
G01 X38.6876 Y36.3752
G01 X38.5754 Y36.3642
G01 X38.4628 Y36.3605
G01 X38.3501 Y36.3642
G01 X38.2380 Y36.3752
G01 X38.1268 Y36.3936
G01 X38.0171 Y36.4192
G01 X37.9092 Y36.4519
G01 X37.8037 Y36.4916
G01 X37.7011 Y36.5381
G01 X37.6017 Y36.5912
G01 X37.5060 Y36.6507
G01 X37.4144 Y36.7164
G01 X37.3273 Y36.7879
G01 X37.2450 Y36.8649
G01 X37.1680 Y36.9471
G01 X37.0965 Y37.0343
G01 X37.0309 Y37.1259
G01 X36.9714 Y37.2216
G01 X36.9182 Y37.3209
G01 X36.8717 Y37.4236
G01 X36.8320 Y37.5291
G01 X36.7993 Y37.6369
G01 X36.7737 Y37.7467
G01 X36.7554 Y37.8578
G01 X36.7443 Y37.9700
G01 X36.7406 Y38.0826
G01 X36.7443 Y38.1953
G01 X36.7554 Y38.3074
G01 X36.7737 Y38.4186
G01 X36.7993 Y38.5283
G01 X36.8320 Y38.6362
G01 X36.8717 Y38.7417
G01 X36.9182 Y38.8443
G01 X36.9714 Y38.9437
G01 X37.0309 Y39.0394
G01 X37.0965 Y39.1310
G01 X37.1680 Y39.2181
G01 X37.2450 Y39.3004
G01 X37.3273 Y39.3774
G01 X37.4144 Y39.4489
G01 X37.5060 Y39.5145
G01 X37.6017 Y39.5740
G01 X37.7011 Y39.6272
G01 X37.8037 Y39.6737
G01 X37.9092 Y39.7134
G01 X38.0171 Y39.7461
G01 X38.1268 Y39.7717
G01 X38.2380 Y39.7900
G01 X38.3501 Y39.8011
G01 X38.4628 Y39.8048
G01 X38.5754 Y39.8011
G01 X38.6876 Y39.7900
G01 X38.7987 Y39.7717
G01 X38.9085 Y39.7461
G01 X39.0163 Y39.7134
G01 X39.1218 Y39.6737
G01 X39.2245 Y39.6272
G01 X39.3238 Y39.5740
G01 X39.4195 Y39.5145
G01 X39.5111 Y39.4489
G01 X39.5983 Y39.3774
G01 X39.6805 Y39.3004
G01 X39.7575 Y39.2181
G01 X39.8290 Y39.1310
G01 X39.8947 Y39.0394
G01 X39.9542 Y38.9437
G01 X40.0073 Y38.8443
G01 X40.0538 Y38.7417
G01 X40.0935 Y38.6362
G01 X40.1262 Y38.5283
G01 X40.1518 Y38.4186
G01 X40.1702 Y38.3074
G01 X40.1812 Y38.1953
G01 X40.1849 Y38.0826
M107
M106 S240
G01 X40.1818 Y38.0042 Z-5.9750 F400
M107
M106 S240
G01 X40.1726 Y37.9262 Z-5.9500
M107
M106 S240
G01 X40.1573 Y37.8492 Z-5.9250
M107
M106 S240
G01 X40.1360 Y37.7736 Z-5.9000
M107
M106 S240
G01 X40.1088 Y37.6999 Z-5.8750
M107
M106 S240
G01 X40.0759 Y37.6286 Z-5.8500
M107
M106 S240
G01 X40.0375 Y37.5601 Z-5.8250
M107
M106 S240
G01 X39.9939 Y37.4948 Z-5.8000
M107
M106 S240
G01 X39.9453 Y37.4332 Z-5.7750
M107
M106 S240
G01 X39.8920 Y37.3755 Z-5.7500
M107
M106 S240
G01 X39.8344 Y37.3222 Z-5.7250
M107
M106 S240
G01 X39.7727 Y37.2736 Z-5.7000
M107
M106 S240
G01 X39.7074 Y37.2300 Z-5.6750
M107
M106 S240
G01 X39.6389 Y37.1916 Z-5.6500
M107
M106 S240
G01 X39.5676 Y37.1587 Z-5.6250
M107
M106 S240
G01 X39.4939 Y37.1316 Z-5.6000
M107
M106 S240
G01 X39.4184 Y37.1103 Z-5.5750
M107
M106 S240
G01 X39.3413 Y37.0949 Z-5.5500
M107
M106 S240
G01 X39.2634 Y37.0857 Z-5.5250
M107
M106 S240
G01 X39.1849 Y37.0826 Z-5.5000
M107
G00 Z2.0000


;No. 2: Hole 11
G00 X57.1752 Y57.2744 Z2.0000
G00 Z0.5000
G01 Z0.0000 F400
G01 Z-1.0000
M106 S240
G01 X58.2640 F1000
G01 X58.2191 Y58.7744
G01 X60.4102
G01 X59.2629 Y60.2744
G01 X62.5569
G01 X64.7041 Y61.7744
G01 X60.3068
G01 X61.3507 Y63.2744
G01 X66.8516
G01 X68.9995 Y64.7744
G01 X62.3945
G01 X63.4384 Y66.2744
G01 X71.1476
G01 X73.2959 Y67.7744
G01 X64.4822
G01 X65.5261 Y69.2744
G01 X75.4444
G01 X77.5931 Y70.7744
G01 X66.5699
G01 X67.6138 Y72.2744
G01 X79.7420
G01 X81.8910 Y73.7744
G01 X68.6577
G01 X69.7015 Y75.2744
G01 X84.0402
G01 X86.1895 Y76.7744
G01 X70.7454
G01 X71.7892 Y78.2744
G01 X88.3388
G01 X90.4883 Y79.7744
G01 X72.8331
G01 X73.8770 Y81.2744
G01 X92.6380
G01 X94.7876 Y82.7744
G01 X74.9208
G01 X75.9647 Y84.2744
G01 X96.9374
G01 X99.0873 Y85.7744
G01 X77.0085
G01 X78.0524 Y87.2744
G01 X98.3736
G01 X96.8736 Y88.7744
G01 X79.0963
G01 X80.1401 Y90.2744
G01 X95.3736
G01 X93.8736 Y91.7744
G01 X81.1840
G01 X82.2278 Y93.2744
G01 X92.3736
G01 X90.8736 Y94.7744
G01 X83.2717
G01 X84.3156 Y96.2744
G01 X89.3736
G01 X87.8736 Y97.7744
G01 X85.3594
G01 X85.1899 Y97.8810
G01 X86.3635 Y99.5674
G01 X99.8607 Y86.0702
G01 X99.8500 Y86.0627
G01 X99.3552 Y85.7175
G01 X98.8603 Y85.3722
G01 X98.3654 Y85.0269
G01 X97.8705 Y84.6816
G01 X97.3757 Y84.3363
G01 X96.8808 Y83.9911
G01 X96.3859 Y83.6458
G01 X95.8911 Y83.3005
G01 X95.3962 Y82.9552
G01 X94.9013 Y82.6099
G01 X94.4065 Y82.2646
G01 X93.9116 Y81.9193
G01 X93.4168 Y81.5740
G01 X92.9219 Y81.2287
G01 X92.4271 Y80.8834
G01 X91.9322 Y80.5381
G01 X91.4374 Y80.1928
G01 X90.9425 Y79.8475
G01 X90.4477 Y79.5022
G01 X89.9528 Y79.1568
G01 X89.4580 Y78.8115
G01 X88.9631 Y78.4662
G01 X88.4683 Y78.1209
G01 X87.9734 Y77.7756
G01 X87.4786 Y77.4302
G01 X86.9838 Y77.0849
G01 X86.4889 Y76.7396
G01 X85.9941 Y76.3942
G01 X85.4993 Y76.0489
G01 X85.0044 Y75.7035
G01 X84.5096 Y75.3582
G01 X84.0148 Y75.0128
G01 X83.5200 Y74.6675
G01 X83.0252 Y74.3221
G01 X82.5303 Y73.9768
G01 X82.0355 Y73.6314
G01 X81.5407 Y73.2860
G01 X81.0459 Y72.9407
G01 X80.5511 Y72.5953
G01 X80.0563 Y72.2499
G01 X79.5615 Y71.9045
G01 X79.0667 Y71.5591
G01 X78.5719 Y71.2138
G01 X78.0771 Y70.8684
G01 X77.5823 Y70.5230
G01 X77.0875 Y70.1776
G01 X76.5927 Y69.8322
G01 X76.0979 Y69.4868
G01 X75.6031 Y69.1413
G01 X75.1084 Y68.7959
G01 X74.6136 Y68.4505
G01 X74.1188 Y68.1051
G01 X73.6240 Y67.7596
G01 X73.1293 Y67.4142
G01 X72.6345 Y67.0687
G01 X72.1397 Y66.7233
G01 X71.6450 Y66.3778
G01 X71.1502 Y66.0324
G01 X70.6555 Y65.6869
G01 X70.1607 Y65.3414
G01 X69.6660 Y64.9960
G01 X69.1713 Y64.6505
G01 X68.6765 Y64.3050
G01 X68.1818 Y63.9595
G01 X67.6871 Y63.6140
G01 X67.1924 Y63.2685
G01 X66.6976 Y62.9230
G01 X66.2029 Y62.5774
G01 X65.7082 Y62.2319
G01 X65.2135 Y61.8863
G01 X64.7188 Y61.5408
G01 X64.2241 Y61.1952
G01 X63.7295 Y60.8496
G01 X63.2348 Y60.5041
G01 X62.7401 Y60.1585
G01 X62.2454 Y59.8129
G01 X61.7508 Y59.4672
G01 X61.2561 Y59.1216
G01 X60.7615 Y58.7760
G01 X60.2669 Y58.4303
G01 X59.7722 Y58.0846
G01 X59.2776 Y57.7389
G01 X58.7830 Y57.3932
G01 X58.2884 Y57.0475
G01 X57.7938 Y56.7018
G01 X57.2992 Y56.3560
G01 X56.8047 Y56.0102
G01 X56.5553 Y55.8359
G01 X56.3060 Y55.6615
G01 X56.0567 Y55.4872
G01 X55.8074 Y55.3128
G01 X55.3375 Y54.9842
G01 X85.1899 Y97.8810
G01 X85.3594 Y97.7744
M107
G00 Z2.0000


;No. 3: Helical drill 1
G00 X39.3628 Y212.3008 Z2.0000
G00 Z0.5000
M106 S240
G01 X39.3618 Y212.2580 Z0.4836 F400
G01 X39.3587 Y212.2153 Z0.4672
G01 X39.3536 Y212.1727 Z0.4508
G01 X39.3465 Y212.1305 Z0.4343
G01 X39.3374 Y212.0887 Z0.4179
G01 X39.3263 Y212.0473 Z0.4015
G01 X39.3133 Y212.0065 Z0.3851
G01 X39.2983 Y211.9663 Z0.3687
G01 X39.2814 Y211.9270 Z0.3523
G01 X39.2627 Y211.8884 Z0.3359
G01 X39.2422 Y211.8508 Z0.3194
G01 X39.2199 Y211.8143 Z0.3030
G01 X39.1959 Y211.7788 Z0.2866
G01 X39.1702 Y211.7445 Z0.2702
G01 X39.1429 Y211.7115 Z0.2538
G01 X39.1141 Y211.6798 Z0.2374
G01 X39.0838 Y211.6495 Z0.2210
G01 X39.0521 Y211.6207 Z0.2045
G01 X39.0191 Y211.5934 Z0.1881
G01 X38.9848 Y211.5677 Z0.1717
G01 X38.9493 Y211.5437 Z0.1553
G01 X38.9128 Y211.5214 Z0.1389
G01 X38.8752 Y211.5009 Z0.1225
G01 X38.8366 Y211.4822 Z0.1061
G01 X38.7973 Y211.4653 Z0.0896
G01 X38.7571 Y211.4503 Z0.0732
G01 X38.7163 Y211.4373 Z0.0568
G01 X38.6750 Y211.4262 Z0.0404
G01 X38.6331 Y211.4171 Z0.0240
G01 X38.5909 Y211.4100 Z0.0076
G01 X38.5483 Y211.4049 Z-0.0088
G01 X38.5056 Y211.4019 Z-0.0253
G01 X38.4628 Y211.4008 Z-0.0417
G01 X38.4199 Y211.4019 Z-0.0581
G01 X38.3772 Y211.4049 Z-0.0745
G01 X38.3347 Y211.4100 Z-0.0909
G01 X38.2924 Y211.4171 Z-0.1073
G01 X38.2506 Y211.4262 Z-0.1237
G01 X38.2092 Y211.4373 Z-0.1402
G01 X38.1684 Y211.4503 Z-0.1566
G01 X38.1283 Y211.4653 Z-0.1730
G01 X38.0889 Y211.4822 Z-0.1894
G01 X38.0504 Y211.5009 Z-0.2058
G01 X38.0128 Y211.5214 Z-0.2222
G01 X37.9762 Y211.5437 Z-0.2386
G01 X37.9407 Y211.5677 Z-0.2551
G01 X37.9064 Y211.5934 Z-0.2715
G01 X37.8734 Y211.6207 Z-0.2879
G01 X37.8417 Y211.6495 Z-0.3043
G01 X37.8114 Y211.6798 Z-0.3207
G01 X37.7826 Y211.7115 Z-0.3371
G01 X37.7553 Y211.7445 Z-0.3535
G01 X37.7297 Y211.7788 Z-0.3699
G01 X37.7056 Y211.8143 Z-0.3864
G01 X37.6834 Y211.8508 Z-0.4028
G01 X37.6628 Y211.8884 Z-0.4192
G01 X37.6441 Y211.9270 Z-0.4356
G01 X37.6272 Y211.9663 Z-0.4520
G01 X37.6123 Y212.0065 Z-0.4684
G01 X37.5992 Y212.0473 Z-0.4848
G01 X37.5881 Y212.0887 Z-0.5013
G01 X37.5790 Y212.1305 Z-0.5177
G01 X37.5719 Y212.1727 Z-0.5341
G01 X37.5668 Y212.2153 Z-0.5505
G01 X37.5638 Y212.2580 Z-0.5669
G01 X37.5628 Y212.3008 Z-0.5833
G01 X37.5638 Y212.3437 Z-0.5997
G01 X37.5668 Y212.3864 Z-0.6162
G01 X37.5719 Y212.4289 Z-0.6326
G01 X37.5790 Y212.4712 Z-0.6490
G01 X37.5881 Y212.5130 Z-0.6654
G01 X37.5992 Y212.5544 Z-0.6818
G01 X37.6123 Y212.5952 Z-0.6982
G01 X37.6272 Y212.6353 Z-0.7146
G01 X37.6441 Y212.6747 Z-0.7311
G01 X37.6628 Y212.7132 Z-0.7475
G01 X37.6834 Y212.7508 Z-0.7639
G01 X37.7056 Y212.7874 Z-0.7803
G01 X37.7297 Y212.8229 Z-0.7967
G01 X37.7553 Y212.8572 Z-0.8131
G01 X37.7826 Y212.8902 Z-0.8295
G01 X37.8114 Y212.9219 Z-0.8460
G01 X37.8417 Y212.9522 Z-0.8624
G01 X37.8734 Y212.9810 Z-0.8788
G01 X37.9064 Y213.0083 Z-0.8952
G01 X37.9407 Y213.0340 Z-0.9116
G01 X37.9762 Y213.0580 Z-0.9280
G01 X38.0128 Y213.0803 Z-0.9444
G01 X38.0504 Y213.1008 Z-0.9609
G01 X38.0889 Y213.1195 Z-0.9773
G01 X38.1283 Y213.1364 Z-0.9937
G01 X38.1684 Y213.1513 Z-1.0101
G01 X38.2092 Y213.1644 Z-1.0265
G01 X38.2506 Y213.1755 Z-1.0429
G01 X38.2924 Y213.1846 Z-1.0593
G01 X38.3347 Y213.1917 Z-1.0758
G01 X38.3772 Y213.1968 Z-1.0922
G01 X38.4199 Y213.1998 Z-1.1086
G01 X38.4628 Y213.2008 Z-1.1250
G01 X38.5056 Y213.1998 Z-1.1414
G01 X38.5483 Y213.1968 Z-1.1578
G01 X38.5909 Y213.1917 Z-1.1742
G01 X38.6331 Y213.1846 Z-1.1907
G01 X38.6750 Y213.1755 Z-1.2071
G01 X38.7163 Y213.1644 Z-1.2235
G01 X38.7571 Y213.1513 Z-1.2399
G01 X38.7973 Y213.1364 Z-1.2563
G01 X38.8366 Y213.1195 Z-1.2727
G01 X38.8752 Y213.1008 Z-1.2891
G01 X38.9128 Y213.0803 Z-1.3056
G01 X38.9493 Y213.0580 Z-1.3220
G01 X38.9848 Y213.0340 Z-1.3384
G01 X39.0191 Y213.0083 Z-1.3548
G01 X39.0521 Y212.9810 Z-1.3712
G01 X39.0838 Y212.9522 Z-1.3876
G01 X39.1141 Y212.9219 Z-1.4040
G01 X39.1429 Y212.8902 Z-1.4205
G01 X39.1702 Y212.8572 Z-1.4369
G01 X39.1959 Y212.8229 Z-1.4533
G01 X39.2199 Y212.7874 Z-1.4697
G01 X39.2422 Y212.7508 Z-1.4861
G01 X39.2627 Y212.7132 Z-1.5025
G01 X39.2814 Y212.6747 Z-1.5189
G01 X39.2983 Y212.6353 Z-1.5354
G01 X39.3133 Y212.5952 Z-1.5518
G01 X39.3263 Y212.5544 Z-1.5682
G01 X39.3374 Y212.5130 Z-1.5846
G01 X39.3465 Y212.4712 Z-1.6010
G01 X39.3536 Y212.4289 Z-1.6174
G01 X39.3587 Y212.3864 Z-1.6338
G01 X39.3618 Y212.3437 Z-1.6503
G01 X39.3628 Y212.3008 Z-1.6667
G01 X39.3618 Y212.2580
G01 X39.3587 Y212.2153
G01 X39.3536 Y212.1727
G01 X39.3465 Y212.1305
G01 X39.3374 Y212.0887
G01 X39.3263 Y212.0473
G01 X39.3133 Y212.0065
G01 X39.2983 Y211.9663
G01 X39.2814 Y211.9270
G01 X39.2627 Y211.8884
G01 X39.2422 Y211.8508
G01 X39.2199 Y211.8143
G01 X39.1959 Y211.7788
G01 X39.1702 Y211.7445
G01 X39.1429 Y211.7115
G01 X39.1141 Y211.6798
G01 X39.0838 Y211.6495
G01 X39.0521 Y211.6207
G01 X39.0191 Y211.5934
G01 X38.9848 Y211.5677
G01 X38.9493 Y211.5437
G01 X38.9128 Y211.5214
G01 X38.8752 Y211.5009
G01 X38.8366 Y211.4822
G01 X38.7973 Y211.4653
G01 X38.7571 Y211.4503
G01 X38.7163 Y211.4373
G01 X38.6750 Y211.4262
G01 X38.6331 Y211.4171
G01 X38.5909 Y211.4100
G01 X38.5483 Y211.4049
G01 X38.5056 Y211.4019
G01 X38.4628 Y211.4008
G01 X38.4199 Y211.4019
G01 X38.3772 Y211.4049
G01 X38.3347 Y211.4100
G01 X38.2924 Y211.4171
G01 X38.2506 Y211.4262
G01 X38.2092 Y211.4373
G01 X38.1684 Y211.4503
G01 X38.1283 Y211.4653
G01 X38.0889 Y211.4822
G01 X38.0504 Y211.5009
G01 X38.0128 Y211.5214
G01 X37.9762 Y211.5437
G01 X37.9407 Y211.5677
G01 X37.9064 Y211.5934
G01 X37.8734 Y211.6207
G01 X37.8417 Y211.6495
G01 X37.8114 Y211.6798
G01 X37.7826 Y211.7115
G01 X37.7553 Y211.7445
G01 X37.7297 Y211.7788
G01 X37.7056 Y211.8143
G01 X37.6834 Y211.8508
G01 X37.6628 Y211.8884
G01 X37.6441 Y211.9270
G01 X37.6272 Y211.9663
G01 X37.6123 Y212.0065
G01 X37.5992 Y212.0473
G01 X37.5881 Y212.0887
G01 X37.5790 Y212.1305
G01 X37.5719 Y212.1727
G01 X37.5668 Y212.2153
G01 X37.5638 Y212.2580
G01 X37.5628 Y212.3008
G01 X37.5638 Y212.3437
G01 X37.5668 Y212.3864
G01 X37.5719 Y212.4289
G01 X37.5790 Y212.4712
G01 X37.5881 Y212.5130
G01 X37.5992 Y212.5544
G01 X37.6123 Y212.5952
G01 X37.6272 Y212.6353
G01 X37.6441 Y212.6747
G01 X37.6628 Y212.7132
G01 X37.6834 Y212.7508
G01 X37.7056 Y212.7874
G01 X37.7297 Y212.8229
G01 X37.7553 Y212.8572
G01 X37.7826 Y212.8902
G01 X37.8114 Y212.9219
G01 X37.8417 Y212.9522
G01 X37.8734 Y212.9810
G01 X37.9064 Y213.0083
G01 X37.9407 Y213.0340
G01 X37.9762 Y213.0580
G01 X38.0128 Y213.0803
G01 X38.0504 Y213.1008
G01 X38.0889 Y213.1195
G01 X38.1283 Y213.1364
G01 X38.1684 Y213.1513
G01 X38.2092 Y213.1644
G01 X38.2506 Y213.1755
G01 X38.2924 Y213.1846
G01 X38.3347 Y213.1917
G01 X38.3772 Y213.1968
G01 X38.4199 Y213.1998
G01 X38.4628 Y213.2008
G01 X38.5056 Y213.1998
G01 X38.5483 Y213.1968
G01 X38.5909 Y213.1917
G01 X38.6331 Y213.1846
G01 X38.6750 Y213.1755
G01 X38.7163 Y213.1644
G01 X38.7571 Y213.1513
G01 X38.7973 Y213.1364
G01 X38.8366 Y213.1195
G01 X38.8752 Y213.1008
G01 X38.9128 Y213.0803
G01 X38.9493 Y213.0580
G01 X38.9848 Y213.0340
G01 X39.0191 Y213.0083
G01 X39.0521 Y212.9810
G01 X39.0838 Y212.9522
G01 X39.1141 Y212.9219
G01 X39.1429 Y212.8902
G01 X39.1702 Y212.8572
G01 X39.1959 Y212.8229
G01 X39.2199 Y212.7874
G01 X39.2422 Y212.7508
G01 X39.2627 Y212.7132
G01 X39.2814 Y212.6747
G01 X39.2983 Y212.6353
G01 X39.3133 Y212.5952
G01 X39.3263 Y212.5544
G01 X39.3374 Y212.5130
G01 X39.3465 Y212.4712
G01 X39.3536 Y212.4289
G01 X39.3587 Y212.3864
G01 X39.3618 Y212.3437
G01 X39.3628 Y212.3008
G01 X39.3703 Y212.2698 F1000
G01 X39.3768 Y212.2385
G01 X39.3822 Y212.2070
G01 X39.3864 Y212.1753
G01 X39.3896 Y212.1435
G01 X39.3917 Y212.1116
G01 X39.3926 Y212.0797
G01 X39.3925 Y212.0477
G01 X39.3913 Y212.0158
G01 X39.3889 Y211.9839
G01 X39.3854 Y211.9522
G01 X39.3809 Y211.9205
G01 X39.3712 Y211.8690
G01 X39.3589 Y211.8181
G01 X39.3439 Y211.7679
G01 X39.3264 Y211.7185
G01 X39.3064 Y211.6701
G01 X39.2839 Y211.6227
G01 X39.2590 Y211.5766
G01 X39.2318 Y211.5319
G01 X39.1997 Y211.4848
G01 X39.1653 Y211.4395
G01 X39.1287 Y211.3960
G01 X39.0898 Y211.3544
G01 X39.0489 Y211.3149
G01 X39.0060 Y211.2775
G01 X38.9613 Y211.2423
G01 X38.9148 Y211.2095
G01 X38.8629 Y211.1767
G01 X38.8094 Y211.1465
G01 X38.7545 Y211.1191
G01 X38.6982 Y211.0946
G01 X38.6407 Y211.0729
G01 X38.5822 Y211.0542
G01 X38.5229 Y211.0385
G01 X38.4628 Y211.0258
G01 X38.3977 Y211.0155
G01 X38.3321 Y211.0085
G01 X38.2663 Y211.0048
G01 X38.2003 Y211.0044
G01 X38.1345 Y211.0074
G01 X38.0689 Y211.0137
G01 X38.0036 Y211.0234
G01 X37.9390 Y211.0363
G01 X37.8707 Y211.0535
G01 X37.8033 Y211.0742
G01 X37.7371 Y211.0983
G01 X37.6721 Y211.1257
G01 X37.6087 Y211.1563
G01 X37.5468 Y211.1900
G01 X37.4868 Y211.2269
G01 X37.4286 Y211.2667
G01 X37.3690 Y211.3121
G01 X37.3116 Y211.3605
G01 X37.2568 Y211.4117
G01 X37.2047 Y211.4656
G01 X37.1553 Y211.5221
G01 X37.1088 Y211.5809
G01 X37.0653 Y211.6421
G01 X37.0250 Y211.7053
G01 X36.9856 Y211.7744
G01 X36.9497 Y211.8454
G01 X36.9175 Y211.9181
G01 X36.8889 Y211.9924
G01 X36.8641 Y212.0680
G01 X36.8431 Y212.1447
G01 X36.8260 Y212.2224
G01 X36.8128 Y212.3008
G01 X36.8057 Y212.3838
G01 X36.8028 Y212.4670
G01 X36.8041 Y212.5502
G01 X36.8094 Y212.6333
G01 X36.8189 Y212.7160
G01 X36.8325 Y212.7981
G01 X36.8501 Y212.8795
G01 X36.8717 Y212.9599
G01 X36.9060 Y213.0371
G01 X36.9440 Y213.1126
G01 X36.9856 Y213.1862
G01 X37.0309 Y213.2576
G01 X37.0795 Y213.3267
G01 X37.1315 Y213.3933
G01 X37.1868 Y213.4573
G01 X37.2450 Y213.5186
G01 X37.3063 Y213.5769
G01 X37.3703 Y213.6321
G01 X37.4369 Y213.6841
G01 X37.5060 Y213.7327
G01 X37.5774 Y213.7780
G01 X37.6510 Y213.8196
G01 X37.7265 Y213.8576
G01 X37.8037 Y213.8919
G01 X37.8826 Y213.9223
G01 X37.9629 Y213.9488
G01 X38.0443 Y213.9714
G01 X38.1268 Y213.9899
G01 X38.2101 Y214.0043
G01 X38.2940 Y214.0147
G01 X38.3783 Y214.0209
G01 X38.4628 Y214.0230
G01 X38.5473 Y214.0209
G01 X38.6316 Y214.0147
G01 X38.7155 Y214.0043
G01 X38.7987 Y213.9899
G01 X38.8812 Y213.9714
G01 X38.9627 Y213.9488
G01 X39.0429 Y213.9223
G01 X39.1218 Y213.8919
G01 X39.1991 Y213.8576
G01 X39.2746 Y213.8196
G01 X39.3481 Y213.7780
G01 X39.4195 Y213.7327
G01 X39.4886 Y213.6841
G01 X39.5553 Y213.6321
G01 X39.6193 Y213.5769
G01 X39.6805 Y213.5186
G01 X39.7388 Y213.4573
G01 X39.7940 Y213.3933
G01 X39.8460 Y213.3267
G01 X39.8947 Y213.2576
G01 X39.9399 Y213.1862
G01 X39.9816 Y213.1126
G01 X40.0196 Y213.0371
G01 X40.0538 Y212.9599
G01 X40.0842 Y212.8810
G01 X40.1108 Y212.8007
G01 X40.1333 Y212.7193
G01 X40.1518 Y212.6368
G01 X40.1663 Y212.5535
G01 X40.1766 Y212.4696
G01 X40.1828 Y212.3853
G01 X40.1849 Y212.3008
G01 X40.1812 Y212.1882
G01 X40.1702 Y212.0760
G01 X40.1518 Y211.9649
G01 X40.1262 Y211.8551
G01 X40.0935 Y211.7473
G01 X40.0538 Y211.6418
G01 X40.0073 Y211.5392
G01 X39.9542 Y211.4398
G01 X39.8947 Y211.3441
G01 X39.8290 Y211.2525
G01 X39.7575 Y211.1654
G01 X39.6805 Y211.0831
G01 X39.5983 Y211.0061
G01 X39.5111 Y210.9346
G01 X39.4195 Y210.8689
G01 X39.3238 Y210.8094
G01 X39.2245 Y210.7563
G01 X39.1218 Y210.7098
G01 X39.0163 Y210.6701
G01 X38.9085 Y210.6374
G01 X38.7987 Y210.6118
G01 X38.6876 Y210.5934
G01 X38.5754 Y210.5824
G01 X38.4628 Y210.5787
G01 X38.3501 Y210.5824
G01 X38.2380 Y210.5934
G01 X38.1268 Y210.6118
G01 X38.0171 Y210.6374
G01 X37.9092 Y210.6701
G01 X37.8037 Y210.7098
G01 X37.7011 Y210.7563
G01 X37.6017 Y210.8094
G01 X37.5060 Y210.8689
G01 X37.4144 Y210.9346
G01 X37.3273 Y211.0061
G01 X37.2450 Y211.0831
G01 X37.1680 Y211.1654
G01 X37.0965 Y211.2525
G01 X37.0309 Y211.3441
G01 X36.9714 Y211.4398
G01 X36.9182 Y211.5392
G01 X36.8717 Y211.6418
G01 X36.8320 Y211.7473
G01 X36.7993 Y211.8551
G01 X36.7737 Y211.9649
G01 X36.7554 Y212.0760
G01 X36.7443 Y212.1882
G01 X36.7406 Y212.3008
G01 X36.7443 Y212.4135
G01 X36.7554 Y212.5256
G01 X36.7737 Y212.6368
G01 X36.7993 Y212.7466
G01 X36.8320 Y212.8544
G01 X36.8717 Y212.9599
G01 X36.9182 Y213.0625
G01 X36.9714 Y213.1619
G01 X37.0309 Y213.2576
G01 X37.0965 Y213.3492
G01 X37.1680 Y213.4363
G01 X37.2450 Y213.5186
G01 X37.3273 Y213.5956
G01 X37.4144 Y213.6671
G01 X37.5060 Y213.7327
G01 X37.6017 Y213.7922
G01 X37.7011 Y213.8454
G01 X37.8037 Y213.8919
G01 X37.9092 Y213.9316
G01 X38.0171 Y213.9643
G01 X38.1268 Y213.9899
G01 X38.2380 Y214.0082
G01 X38.3501 Y214.0193
G01 X38.4628 Y214.0230
G01 X38.5754 Y214.0193
G01 X38.6876 Y214.0082
G01 X38.7987 Y213.9899
G01 X38.9085 Y213.9643
G01 X39.0163 Y213.9316
G01 X39.1218 Y213.8919
G01 X39.2245 Y213.8454
G01 X39.3238 Y213.7922
G01 X39.4195 Y213.7327
G01 X39.5111 Y213.6671
G01 X39.5983 Y213.5956
G01 X39.6805 Y213.5186
G01 X39.7575 Y213.4363
G01 X39.8290 Y213.3492
G01 X39.8947 Y213.2576
G01 X39.9542 Y213.1619
G01 X40.0073 Y213.0625
G01 X40.0538 Y212.9599
G01 X40.0935 Y212.8544
G01 X40.1262 Y212.7466
G01 X40.1518 Y212.6368
G01 X40.1702 Y212.5256
G01 X40.1812 Y212.4135
G01 X40.1849 Y212.3008
G01 X40.1809 Y212.1980
G01 X40.1688 Y212.0957
G01 X40.1487 Y211.9948
G01 X40.1207 Y211.8957
G01 X40.0851 Y211.7991
G01 X40.0420 Y211.7056
G01 X39.9917 Y211.6158
G01 X39.9345 Y211.5302
G01 X39.8708 Y211.4494
G01 X39.8009 Y211.3738
G01 X39.7253 Y211.3039
G01 X39.6445 Y211.2402
G01 X39.5589 Y211.1830
G01 X39.4691 Y211.1327
G01 X39.3756 Y211.0896
G01 X39.2790 Y211.0539
G01 X39.1799 Y211.0260
G01 X39.0789 Y211.0059
G01 X38.9767 Y210.9938
G01 X38.8738 Y210.9898
G01 X38.7710 Y210.9938
G01 X38.6687 Y211.0059
G01 X38.5678 Y211.0260
G01 X38.4687 Y211.0539
G01 X38.3721 Y211.0896
G01 X38.2786 Y211.1327
G01 X38.1888 Y211.1830
G01 X38.1032 Y211.2402
G01 X38.0224 Y211.3039
G01 X37.9468 Y211.3738
G01 X37.8769 Y211.4494
G01 X37.8132 Y211.5302
G01 X37.7560 Y211.6158
G01 X37.7057 Y211.7056
G01 X37.6626 Y211.7991
G01 X37.6269 Y211.8957
G01 X37.5990 Y211.9948
G01 X37.5789 Y212.0957
G01 X37.5668 Y212.1980
G01 X37.5628 Y212.3008
G01 X37.5639 Y212.3450
G01 X37.5671 Y212.3890
G01 X37.5725 Y212.4329
G01 X37.5801 Y212.4764
G01 X37.5897 Y212.5195
G01 X37.6015 Y212.5621
G01 X37.6154 Y212.6040
G01 X37.6313 Y212.6452
G01 X37.6492 Y212.6856
G01 X37.6690 Y212.7251
G01 X37.6908 Y212.7635
G01 X37.7145 Y212.8008
G01 X37.7399 Y212.8370
G01 X37.7671 Y212.8718
G01 X37.7959 Y212.9052
G01 X37.8264 Y212.9372
G01 X37.8584 Y212.9677
G01 X37.8918 Y212.9965
G01 X37.9266 Y213.0237
G01 X37.9628 Y213.0492
G01 X38.0001 Y213.0728
G01 X38.0385 Y213.0946
G01 X38.0780 Y213.1144
G01 X38.1184 Y213.1323
G01 X38.1596 Y213.1482
G01 X38.2015 Y213.1621
G01 X38.2441 Y213.1739
G01 X38.2872 Y213.1835
G01 X38.3307 Y213.1911
G01 X38.3746 Y213.1965
G01 X38.4186 Y213.1997
G01 X38.4628 Y213.2008
G01 X38.5069 Y213.1997
G01 X38.5510 Y213.1965
G01 X38.5948 Y213.1911
G01 X38.6384 Y213.1835
G01 X38.6815 Y213.1739
G01 X38.7240 Y213.1621
G01 X38.7660 Y213.1482
G01 X38.8072 Y213.1323
G01 X38.8476 Y213.1144
G01 X38.8870 Y213.0946
G01 X38.9255 Y213.0728
G01 X38.9628 Y213.0492
G01 X38.9989 Y213.0237
G01 X39.0337 Y212.9965
G01 X39.0672 Y212.9677
G01 X39.0992 Y212.9372
G01 X39.1296 Y212.9052
G01 X39.1585 Y212.8718
G01 X39.1857 Y212.8370
G01 X39.2111 Y212.8008
G01 X39.2347 Y212.7635
G01 X39.2565 Y212.7251
G01 X39.2764 Y212.6856
G01 X39.2943 Y212.6452
G01 X39.3102 Y212.6040
G01 X39.3240 Y212.5621
G01 X39.3358 Y212.5195
G01 X39.3455 Y212.4764
G01 X39.3530 Y212.4329
G01 X39.3584 Y212.3890
G01 X39.3617 Y212.3450
G01 X39.3628 Y212.3008
M107
M106 S240
G01 X39.3618 Y212.2580 Z-1.6831 F400
G01 X39.3587 Y212.2153 Z-1.6995
G01 X39.3536 Y212.1727 Z-1.7159
G01 X39.3465 Y212.1305 Z-1.7323
G01 X39.3374 Y212.0887 Z-1.7487
G01 X39.3263 Y212.0473 Z-1.7652
G01 X39.3133 Y212.0065 Z-1.7816
G01 X39.2983 Y211.9663 Z-1.7980
G01 X39.2814 Y211.9270 Z-1.8144
G01 X39.2627 Y211.8884 Z-1.8308
G01 X39.2422 Y211.8508 Z-1.8472
G01 X39.2199 Y211.8143 Z-1.8636
G01 X39.1959 Y211.7788 Z-1.8801
G01 X39.1702 Y211.7445 Z-1.8965
G01 X39.1429 Y211.7115 Z-1.9129
G01 X39.1141 Y211.6798 Z-1.9293
G01 X39.0838 Y211.6495 Z-1.9457
G01 X39.0521 Y211.6207 Z-1.9621
G01 X39.0191 Y211.5934 Z-1.9785
G01 X38.9848 Y211.5677 Z-1.9949
G01 X38.9493 Y211.5437 Z-2.0114
G01 X38.9128 Y211.5214 Z-2.0278
G01 X38.8752 Y211.5009 Z-2.0442
G01 X38.8366 Y211.4822 Z-2.0606
G01 X38.7973 Y211.4653 Z-2.0770
G01 X38.7571 Y211.4503 Z-2.0934
G01 X38.7163 Y211.4373 Z-2.1098
G01 X38.6750 Y211.4262 Z-2.1263
G01 X38.6331 Y211.4171 Z-2.1427
G01 X38.5909 Y211.4100 Z-2.1591
G01 X38.5483 Y211.4049 Z-2.1755
G01 X38.5056 Y211.4019 Z-2.1919
G01 X38.4628 Y211.4008 Z-2.2083
G01 X38.4199 Y211.4019 Z-2.2247
G01 X38.3772 Y211.4049 Z-2.2412
G01 X38.3347 Y211.4100 Z-2.2576
G01 X38.2924 Y211.4171 Z-2.2740
G01 X38.2506 Y211.4262 Z-2.2904
G01 X38.2092 Y211.4373 Z-2.3068
G01 X38.1684 Y211.4503 Z-2.3232
G01 X38.1283 Y211.4653 Z-2.3396
G01 X38.0889 Y211.4822 Z-2.3561
G01 X38.0504 Y211.5009 Z-2.3725
G01 X38.0128 Y211.5214 Z-2.3889
G01 X37.9762 Y211.5437 Z-2.4053
G01 X37.9407 Y211.5677 Z-2.4217
G01 X37.9064 Y211.5934 Z-2.4381
G01 X37.8734 Y211.6207 Z-2.4545
G01 X37.8417 Y211.6495 Z-2.4710
G01 X37.8114 Y211.6798 Z-2.4874
G01 X37.7826 Y211.7115 Z-2.5038
G01 X37.7553 Y211.7445 Z-2.5202
G01 X37.7297 Y211.7788 Z-2.5366
G01 X37.7056 Y211.8143 Z-2.5530
G01 X37.6834 Y211.8508 Z-2.5694
G01 X37.6628 Y211.8884 Z-2.5859
G01 X37.6441 Y211.9270 Z-2.6023
G01 X37.6272 Y211.9663 Z-2.6187
G01 X37.6123 Y212.0065 Z-2.6351
G01 X37.5992 Y212.0473 Z-2.6515
G01 X37.5881 Y212.0887 Z-2.6679
G01 X37.5790 Y212.1305 Z-2.6843
G01 X37.5719 Y212.1727 Z-2.7008
G01 X37.5668 Y212.2153 Z-2.7172
G01 X37.5638 Y212.2580 Z-2.7336
G01 X37.5628 Y212.3008 Z-2.7500
G01 X37.5638 Y212.3437 Z-2.7664
G01 X37.5668 Y212.3864 Z-2.7828
G01 X37.5719 Y212.4289 Z-2.7992
G01 X37.5790 Y212.4712 Z-2.8157
G01 X37.5881 Y212.5130 Z-2.8321
G01 X37.5992 Y212.5544 Z-2.8485
G01 X37.6123 Y212.5952 Z-2.8649
G01 X37.6272 Y212.6353 Z-2.8813
G01 X37.6441 Y212.6747 Z-2.8977
G01 X37.6628 Y212.7132 Z-2.9141
G01 X37.6834 Y212.7508 Z-2.9306
G01 X37.7056 Y212.7874 Z-2.9470
G01 X37.7297 Y212.8229 Z-2.9634
G01 X37.7553 Y212.8572 Z-2.9798
G01 X37.7826 Y212.8902 Z-2.9962
G01 X37.8114 Y212.9219 Z-3.0126
G01 X37.8417 Y212.9522 Z-3.0290
G01 X37.8734 Y212.9810 Z-3.0455
G01 X37.9064 Y213.0083 Z-3.0619
G01 X37.9407 Y213.0340 Z-3.0783
G01 X37.9762 Y213.0580 Z-3.0947
G01 X38.0128 Y213.0803 Z-3.1111
G01 X38.0504 Y213.1008 Z-3.1275
G01 X38.0889 Y213.1195 Z-3.1439
G01 X38.1283 Y213.1364 Z-3.1604
G01 X38.1684 Y213.1513 Z-3.1768
G01 X38.2092 Y213.1644 Z-3.1932
G01 X38.2506 Y213.1755 Z-3.2096
G01 X38.2924 Y213.1846 Z-3.2260
G01 X38.3347 Y213.1917 Z-3.2424
G01 X38.3772 Y213.1968 Z-3.2588
G01 X38.4199 Y213.1998 Z-3.2753
G01 X38.4628 Y213.2008 Z-3.2917
G01 X38.5056 Y213.1998 Z-3.3081
G01 X38.5483 Y213.1968 Z-3.3245
G01 X38.5909 Y213.1917 Z-3.3409
G01 X38.6331 Y213.1846 Z-3.3573
G01 X38.6750 Y213.1755 Z-3.3737
G01 X38.7163 Y213.1644 Z-3.3902
G01 X38.7571 Y213.1513 Z-3.4066
G01 X38.7973 Y213.1364 Z-3.4230
G01 X38.8366 Y213.1195 Z-3.4394
G01 X38.8752 Y213.1008 Z-3.4558
G01 X38.9128 Y213.0803 Z-3.4722
G01 X38.9493 Y213.0580 Z-3.4886
G01 X38.9848 Y213.0340 Z-3.5051
G01 X39.0191 Y213.0083 Z-3.5215
G01 X39.0521 Y212.9810 Z-3.5379
G01 X39.0838 Y212.9522 Z-3.5543
G01 X39.1141 Y212.9219 Z-3.5707
G01 X39.1429 Y212.8902 Z-3.5871
G01 X39.1702 Y212.8572 Z-3.6035
G01 X39.1959 Y212.8229 Z-3.6199
G01 X39.2199 Y212.7874 Z-3.6364
G01 X39.2422 Y212.7508 Z-3.6528
G01 X39.2627 Y212.7132 Z-3.6692
G01 X39.2814 Y212.6747 Z-3.6856
G01 X39.2983 Y212.6353 Z-3.7020
G01 X39.3133 Y212.5952 Z-3.7184
G01 X39.3263 Y212.5544 Z-3.7348
G01 X39.3374 Y212.5130 Z-3.7513
G01 X39.3465 Y212.4712 Z-3.7677
G01 X39.3536 Y212.4289 Z-3.7841
G01 X39.3587 Y212.3864 Z-3.8005
G01 X39.3618 Y212.3437 Z-3.8169
G01 X39.3628 Y212.3008 Z-3.8333
G01 X39.3618 Y212.2580
G01 X39.3587 Y212.2153
G01 X39.3536 Y212.1727
G01 X39.3465 Y212.1305
G01 X39.3374 Y212.0887
G01 X39.3263 Y212.0473
G01 X39.3133 Y212.0065
G01 X39.2983 Y211.9663
G01 X39.2814 Y211.9270
G01 X39.2627 Y211.8884
G01 X39.2422 Y211.8508
G01 X39.2199 Y211.8143
G01 X39.1959 Y211.7788
G01 X39.1702 Y211.7445
G01 X39.1429 Y211.7115
G01 X39.1141 Y211.6798
G01 X39.0838 Y211.6495
G01 X39.0521 Y211.6207
G01 X39.0191 Y211.5934
G01 X38.9848 Y211.5677
G01 X38.9493 Y211.5437
G01 X38.9128 Y211.5214
G01 X38.8752 Y211.5009
G01 X38.8366 Y211.4822
G01 X38.7973 Y211.4653
G01 X38.7571 Y211.4503
G01 X38.7163 Y211.4373
G01 X38.6750 Y211.4262
G01 X38.6331 Y211.4171
G01 X38.5909 Y211.4100
G01 X38.5483 Y211.4049
G01 X38.5056 Y211.4019
G01 X38.4628 Y211.4008
G01 X38.4199 Y211.4019
G01 X38.3772 Y211.4049
G01 X38.3347 Y211.4100
G01 X38.2924 Y211.4171
G01 X38.2506 Y211.4262
G01 X38.2092 Y211.4373
G01 X38.1684 Y211.4503
G01 X38.1283 Y211.4653
G01 X38.0889 Y211.4822
G01 X38.0504 Y211.5009
G01 X38.0128 Y211.5214
G01 X37.9762 Y211.5437
G01 X37.9407 Y211.5677
G01 X37.9064 Y211.5934
G01 X37.8734 Y211.6207
G01 X37.8417 Y211.6495
G01 X37.8114 Y211.6798
G01 X37.7826 Y211.7115
G01 X37.7553 Y211.7445
G01 X37.7297 Y211.7788
G01 X37.7056 Y211.8143
G01 X37.6834 Y211.8508
G01 X37.6628 Y211.8884
G01 X37.6441 Y211.9270
G01 X37.6272 Y211.9663
G01 X37.6123 Y212.0065
G01 X37.5992 Y212.0473
G01 X37.5881 Y212.0887
G01 X37.5790 Y212.1305
G01 X37.5719 Y212.1727
G01 X37.5668 Y212.2153
G01 X37.5638 Y212.2580
G01 X37.5628 Y212.3008
G01 X37.5638 Y212.3437
G01 X37.5668 Y212.3864
G01 X37.5719 Y212.4289
G01 X37.5790 Y212.4712
G01 X37.5881 Y212.5130
G01 X37.5992 Y212.5544
G01 X37.6123 Y212.5952
G01 X37.6272 Y212.6353
G01 X37.6441 Y212.6747
G01 X37.6628 Y212.7132
G01 X37.6834 Y212.7508
G01 X37.7056 Y212.7874
G01 X37.7297 Y212.8229
G01 X37.7553 Y212.8572
G01 X37.7826 Y212.8902
G01 X37.8114 Y212.9219
G01 X37.8417 Y212.9522
G01 X37.8734 Y212.9810
G01 X37.9064 Y213.0083
G01 X37.9407 Y213.0340
G01 X37.9762 Y213.0580
G01 X38.0128 Y213.0803
G01 X38.0504 Y213.1008
G01 X38.0889 Y213.1195
G01 X38.1283 Y213.1364
G01 X38.1684 Y213.1513
G01 X38.2092 Y213.1644
G01 X38.2506 Y213.1755
G01 X38.2924 Y213.1846
G01 X38.3347 Y213.1917
G01 X38.3772 Y213.1968
G01 X38.4199 Y213.1998
G01 X38.4628 Y213.2008
G01 X38.5056 Y213.1998
G01 X38.5483 Y213.1968
G01 X38.5909 Y213.1917
G01 X38.6331 Y213.1846
G01 X38.6750 Y213.1755
G01 X38.7163 Y213.1644
G01 X38.7571 Y213.1513
G01 X38.7973 Y213.1364
G01 X38.8366 Y213.1195
G01 X38.8752 Y213.1008
G01 X38.9128 Y213.0803
G01 X38.9493 Y213.0580
G01 X38.9848 Y213.0340
G01 X39.0191 Y213.0083
G01 X39.0521 Y212.9810
G01 X39.0838 Y212.9522
G01 X39.1141 Y212.9219
G01 X39.1429 Y212.8902
G01 X39.1702 Y212.8572
G01 X39.1959 Y212.8229
G01 X39.2199 Y212.7874
G01 X39.2422 Y212.7508
G01 X39.2627 Y212.7132
G01 X39.2814 Y212.6747
G01 X39.2983 Y212.6353
G01 X39.3133 Y212.5952
G01 X39.3263 Y212.5544
G01 X39.3374 Y212.5130
G01 X39.3465 Y212.4712
G01 X39.3536 Y212.4289
G01 X39.3587 Y212.3864
G01 X39.3618 Y212.3437
G01 X39.3628 Y212.3008
G01 X39.3703 Y212.2698 F1000
G01 X39.3768 Y212.2385
G01 X39.3822 Y212.2070
G01 X39.3864 Y212.1753
G01 X39.3896 Y212.1435
G01 X39.3917 Y212.1116
G01 X39.3926 Y212.0797
G01 X39.3925 Y212.0477
G01 X39.3913 Y212.0158
G01 X39.3889 Y211.9839
G01 X39.3854 Y211.9522
G01 X39.3809 Y211.9205
G01 X39.3712 Y211.8690
G01 X39.3589 Y211.8181
G01 X39.3439 Y211.7679
G01 X39.3264 Y211.7185
G01 X39.3064 Y211.6701
G01 X39.2839 Y211.6227
G01 X39.2590 Y211.5766
G01 X39.2318 Y211.5319
G01 X39.1997 Y211.4848
G01 X39.1653 Y211.4395
G01 X39.1287 Y211.3960
G01 X39.0898 Y211.3544
G01 X39.0489 Y211.3149
G01 X39.0060 Y211.2775
G01 X38.9613 Y211.2423
G01 X38.9148 Y211.2095
G01 X38.8629 Y211.1767
G01 X38.8094 Y211.1465
G01 X38.7545 Y211.1191
G01 X38.6982 Y211.0946
G01 X38.6407 Y211.0729
G01 X38.5822 Y211.0542
G01 X38.5229 Y211.0385
G01 X38.4628 Y211.0258
G01 X38.3977 Y211.0155
G01 X38.3321 Y211.0085
G01 X38.2663 Y211.0048
G01 X38.2003 Y211.0044
G01 X38.1345 Y211.0074
G01 X38.0689 Y211.0137
G01 X38.0036 Y211.0234
G01 X37.9390 Y211.0363
G01 X37.8707 Y211.0535
G01 X37.8033 Y211.0742
G01 X37.7371 Y211.0983
G01 X37.6721 Y211.1257
G01 X37.6087 Y211.1563
G01 X37.5468 Y211.1900
G01 X37.4868 Y211.2269
G01 X37.4286 Y211.2667
G01 X37.3690 Y211.3121
G01 X37.3116 Y211.3605
G01 X37.2568 Y211.4117
G01 X37.2047 Y211.4656
G01 X37.1553 Y211.5221
G01 X37.1088 Y211.5809
G01 X37.0653 Y211.6421
G01 X37.0250 Y211.7053
G01 X36.9856 Y211.7744
G01 X36.9497 Y211.8454
G01 X36.9175 Y211.9181
G01 X36.8889 Y211.9924
G01 X36.8641 Y212.0680
G01 X36.8431 Y212.1447
G01 X36.8260 Y212.2224
G01 X36.8128 Y212.3008
G01 X36.8057 Y212.3838
G01 X36.8028 Y212.4670
G01 X36.8041 Y212.5502
G01 X36.8094 Y212.6333
G01 X36.8189 Y212.7160
G01 X36.8325 Y212.7981
G01 X36.8501 Y212.8795
G01 X36.8717 Y212.9599
G01 X36.9060 Y213.0371
G01 X36.9440 Y213.1126
G01 X36.9856 Y213.1862
G01 X37.0309 Y213.2576
G01 X37.0795 Y213.3267
G01 X37.1315 Y213.3933
G01 X37.1868 Y213.4573
G01 X37.2450 Y213.5186
G01 X37.3063 Y213.5769
G01 X37.3703 Y213.6321
G01 X37.4369 Y213.6841
G01 X37.5060 Y213.7327
G01 X37.5774 Y213.7780
G01 X37.6510 Y213.8196
G01 X37.7265 Y213.8576
G01 X37.8037 Y213.8919
G01 X37.8826 Y213.9223
G01 X37.9629 Y213.9488
G01 X38.0443 Y213.9714
G01 X38.1268 Y213.9899
G01 X38.2101 Y214.0043
G01 X38.2940 Y214.0147
G01 X38.3783 Y214.0209
G01 X38.4628 Y214.0230
G01 X38.5473 Y214.0209
G01 X38.6316 Y214.0147
G01 X38.7155 Y214.0043
G01 X38.7987 Y213.9899
G01 X38.8812 Y213.9714
G01 X38.9627 Y213.9488
G01 X39.0429 Y213.9223
G01 X39.1218 Y213.8919
G01 X39.1991 Y213.8576
G01 X39.2746 Y213.8196
G01 X39.3481 Y213.7780
G01 X39.4195 Y213.7327
G01 X39.4886 Y213.6841
G01 X39.5553 Y213.6321
G01 X39.6193 Y213.5769
G01 X39.6805 Y213.5186
G01 X39.7388 Y213.4573
G01 X39.7940 Y213.3933
G01 X39.8460 Y213.3267
G01 X39.8947 Y213.2576
G01 X39.9399 Y213.1862
G01 X39.9816 Y213.1126
G01 X40.0196 Y213.0371
G01 X40.0538 Y212.9599
G01 X40.0842 Y212.8810
G01 X40.1108 Y212.8007
G01 X40.1333 Y212.7193
G01 X40.1518 Y212.6368
G01 X40.1663 Y212.5535
G01 X40.1766 Y212.4696
G01 X40.1828 Y212.3853
G01 X40.1849 Y212.3008
G01 X40.1812 Y212.1882
G01 X40.1702 Y212.0760
G01 X40.1518 Y211.9649
G01 X40.1262 Y211.8551
G01 X40.0935 Y211.7473
G01 X40.0538 Y211.6418
G01 X40.0073 Y211.5392
G01 X39.9542 Y211.4398
G01 X39.8947 Y211.3441
G01 X39.8290 Y211.2525
G01 X39.7575 Y211.1654
G01 X39.6805 Y211.0831
G01 X39.5983 Y211.0061
G01 X39.5111 Y210.9346
G01 X39.4195 Y210.8689
G01 X39.3238 Y210.8094
G01 X39.2245 Y210.7563
G01 X39.1218 Y210.7098
G01 X39.0163 Y210.6701
G01 X38.9085 Y210.6374
G01 X38.7987 Y210.6118
G01 X38.6876 Y210.5934
G01 X38.5754 Y210.5824
G01 X38.4628 Y210.5787
G01 X38.3501 Y210.5824
G01 X38.2380 Y210.5934
G01 X38.1268 Y210.6118
G01 X38.0171 Y210.6374
G01 X37.9092 Y210.6701
G01 X37.8037 Y210.7098
G01 X37.7011 Y210.7563
G01 X37.6017 Y210.8094
G01 X37.5060 Y210.8689
G01 X37.4144 Y210.9346
G01 X37.3273 Y211.0061
G01 X37.2450 Y211.0831
G01 X37.1680 Y211.1654
G01 X37.0965 Y211.2525
G01 X37.0309 Y211.3441
G01 X36.9714 Y211.4398
G01 X36.9182 Y211.5392
G01 X36.8717 Y211.6418
G01 X36.8320 Y211.7473
G01 X36.7993 Y211.8551
G01 X36.7737 Y211.9649
G01 X36.7554 Y212.0760
G01 X36.7443 Y212.1882
G01 X36.7406 Y212.3008
G01 X36.7443 Y212.4135
G01 X36.7554 Y212.5256
G01 X36.7737 Y212.6368
G01 X36.7993 Y212.7466
G01 X36.8320 Y212.8544
G01 X36.8717 Y212.9599
G01 X36.9182 Y213.0625
G01 X36.9714 Y213.1619
G01 X37.0309 Y213.2576
G01 X37.0965 Y213.3492
G01 X37.1680 Y213.4363
G01 X37.2450 Y213.5186
G01 X37.3273 Y213.5956
G01 X37.4144 Y213.6671
G01 X37.5060 Y213.7327
G01 X37.6017 Y213.7922
G01 X37.7011 Y213.8454
G01 X37.8037 Y213.8919
G01 X37.9092 Y213.9316
G01 X38.0171 Y213.9643
G01 X38.1268 Y213.9899
G01 X38.2380 Y214.0082
G01 X38.3501 Y214.0193
G01 X38.4628 Y214.0230
G01 X38.5754 Y214.0193
G01 X38.6876 Y214.0082
G01 X38.7987 Y213.9899
G01 X38.9085 Y213.9643
G01 X39.0163 Y213.9316
G01 X39.1218 Y213.8919
G01 X39.2245 Y213.8454
G01 X39.3238 Y213.7922
G01 X39.4195 Y213.7327
G01 X39.5111 Y213.6671
G01 X39.5983 Y213.5956
G01 X39.6805 Y213.5186
G01 X39.7575 Y213.4363
G01 X39.8290 Y213.3492
G01 X39.8947 Y213.2576
G01 X39.9542 Y213.1619
G01 X40.0073 Y213.0625
G01 X40.0538 Y212.9599
G01 X40.0935 Y212.8544
G01 X40.1262 Y212.7466
G01 X40.1518 Y212.6368
G01 X40.1702 Y212.5256
G01 X40.1812 Y212.4135
G01 X40.1849 Y212.3008
G01 X40.1809 Y212.1980
G01 X40.1688 Y212.0957
G01 X40.1487 Y211.9948
G01 X40.1207 Y211.8957
G01 X40.0851 Y211.7991
G01 X40.0420 Y211.7056
G01 X39.9917 Y211.6158
G01 X39.9345 Y211.5302
G01 X39.8708 Y211.4494
G01 X39.8009 Y211.3738
G01 X39.7253 Y211.3039
G01 X39.6445 Y211.2402
G01 X39.5589 Y211.1830
G01 X39.4691 Y211.1327
G01 X39.3756 Y211.0896
G01 X39.2790 Y211.0539
G01 X39.1799 Y211.0260
G01 X39.0789 Y211.0059
G01 X38.9767 Y210.9938
G01 X38.8738 Y210.9898
G01 X38.7710 Y210.9938
G01 X38.6687 Y211.0059
G01 X38.5678 Y211.0260
G01 X38.4687 Y211.0539
G01 X38.3721 Y211.0896
G01 X38.2786 Y211.1327
G01 X38.1888 Y211.1830
G01 X38.1032 Y211.2402
G01 X38.0224 Y211.3039
G01 X37.9468 Y211.3738
G01 X37.8769 Y211.4494
G01 X37.8132 Y211.5302
G01 X37.7560 Y211.6158
G01 X37.7057 Y211.7056
G01 X37.6626 Y211.7991
G01 X37.6269 Y211.8957
G01 X37.5990 Y211.9948
G01 X37.5789 Y212.0957
G01 X37.5668 Y212.1980
G01 X37.5628 Y212.3008
G01 X37.5639 Y212.3450
G01 X37.5671 Y212.3890
G01 X37.5725 Y212.4329
G01 X37.5801 Y212.4764
G01 X37.5897 Y212.5195
G01 X37.6015 Y212.5621
G01 X37.6154 Y212.6040
G01 X37.6313 Y212.6452
G01 X37.6492 Y212.6856
G01 X37.6690 Y212.7251
G01 X37.6908 Y212.7635
G01 X37.7145 Y212.8008
G01 X37.7399 Y212.8370
G01 X37.7671 Y212.8718
G01 X37.7959 Y212.9052
G01 X37.8264 Y212.9372
G01 X37.8584 Y212.9677
G01 X37.8918 Y212.9965
G01 X37.9266 Y213.0237
G01 X37.9628 Y213.0492
G01 X38.0001 Y213.0728
G01 X38.0385 Y213.0946
G01 X38.0780 Y213.1144
G01 X38.1184 Y213.1323
G01 X38.1596 Y213.1482
G01 X38.2015 Y213.1621
G01 X38.2441 Y213.1739
G01 X38.2872 Y213.1835
G01 X38.3307 Y213.1911
G01 X38.3746 Y213.1965
G01 X38.4186 Y213.1997
G01 X38.4628 Y213.2008
G01 X38.5069 Y213.1997
G01 X38.5510 Y213.1965
G01 X38.5948 Y213.1911
G01 X38.6384 Y213.1835
G01 X38.6815 Y213.1739
G01 X38.7240 Y213.1621
G01 X38.7660 Y213.1482
G01 X38.8072 Y213.1323
G01 X38.8476 Y213.1144
G01 X38.8870 Y213.0946
G01 X38.9255 Y213.0728
G01 X38.9628 Y213.0492
G01 X38.9989 Y213.0237
G01 X39.0337 Y212.9965
G01 X39.0672 Y212.9677
G01 X39.0992 Y212.9372
G01 X39.1296 Y212.9052
G01 X39.1585 Y212.8718
G01 X39.1857 Y212.8370
G01 X39.2111 Y212.8008
G01 X39.2347 Y212.7635
G01 X39.2565 Y212.7251
G01 X39.2764 Y212.6856
G01 X39.2943 Y212.6452
G01 X39.3102 Y212.6040
G01 X39.3240 Y212.5621
G01 X39.3358 Y212.5195
G01 X39.3455 Y212.4764
G01 X39.3530 Y212.4329
G01 X39.3584 Y212.3890
G01 X39.3617 Y212.3450
G01 X39.3628 Y212.3008
M107
M106 S240
G01 X39.3618 Y212.2580 Z-3.8497 F400
G01 X39.3587 Y212.2153 Z-3.8662
G01 X39.3536 Y212.1727 Z-3.8826
G01 X39.3465 Y212.1305 Z-3.8990
G01 X39.3374 Y212.0887 Z-3.9154
G01 X39.3263 Y212.0473 Z-3.9318
G01 X39.3133 Y212.0065 Z-3.9482
G01 X39.2983 Y211.9663 Z-3.9646
G01 X39.2814 Y211.9270 Z-3.9811
G01 X39.2627 Y211.8884 Z-3.9975
G01 X39.2422 Y211.8508 Z-4.0139
G01 X39.2199 Y211.8143 Z-4.0303
G01 X39.1959 Y211.7788 Z-4.0467
G01 X39.1702 Y211.7445 Z-4.0631
G01 X39.1429 Y211.7115 Z-4.0795
G01 X39.1141 Y211.6798 Z-4.0960
G01 X39.0838 Y211.6495 Z-4.1124
G01 X39.0521 Y211.6207 Z-4.1288
G01 X39.0191 Y211.5934 Z-4.1452
G01 X38.9848 Y211.5677 Z-4.1616
G01 X38.9493 Y211.5437 Z-4.1780
G01 X38.9128 Y211.5214 Z-4.1944
G01 X38.8752 Y211.5009 Z-4.2109
G01 X38.8366 Y211.4822 Z-4.2273
G01 X38.7973 Y211.4653 Z-4.2437
G01 X38.7571 Y211.4503 Z-4.2601
G01 X38.7163 Y211.4373 Z-4.2765
G01 X38.6750 Y211.4262 Z-4.2929
G01 X38.6331 Y211.4171 Z-4.3093
G01 X38.5909 Y211.4100 Z-4.3258
G01 X38.5483 Y211.4049 Z-4.3422
G01 X38.5056 Y211.4019 Z-4.3586
G01 X38.4628 Y211.4008 Z-4.3750
G01 X38.4199 Y211.4019 Z-4.3914
G01 X38.3772 Y211.4049 Z-4.4078
G01 X38.3347 Y211.4100 Z-4.4242
G01 X38.2924 Y211.4171 Z-4.4407
G01 X38.2506 Y211.4262 Z-4.4571
G01 X38.2092 Y211.4373 Z-4.4735
G01 X38.1684 Y211.4503 Z-4.4899
G01 X38.1283 Y211.4653 Z-4.5063
G01 X38.0889 Y211.4822 Z-4.5227
G01 X38.0504 Y211.5009 Z-4.5391
G01 X38.0128 Y211.5214 Z-4.5556
G01 X37.9762 Y211.5437 Z-4.5720
G01 X37.9407 Y211.5677 Z-4.5884
G01 X37.9064 Y211.5934 Z-4.6048
G01 X37.8734 Y211.6207 Z-4.6212
G01 X37.8417 Y211.6495 Z-4.6376
G01 X37.8114 Y211.6798 Z-4.6540
G01 X37.7826 Y211.7115 Z-4.6705
G01 X37.7553 Y211.7445 Z-4.6869
G01 X37.7297 Y211.7788 Z-4.7033
G01 X37.7056 Y211.8143 Z-4.7197
G01 X37.6834 Y211.8508 Z-4.7361
G01 X37.6628 Y211.8884 Z-4.7525
G01 X37.6441 Y211.9270 Z-4.7689
G01 X37.6272 Y211.9663 Z-4.7854
G01 X37.6123 Y212.0065 Z-4.8018
G01 X37.5992 Y212.0473 Z-4.8182
G01 X37.5881 Y212.0887 Z-4.8346
G01 X37.5790 Y212.1305 Z-4.8510
G01 X37.5719 Y212.1727 Z-4.8674
G01 X37.5668 Y212.2153 Z-4.8838
G01 X37.5638 Y212.2580 Z-4.9003
G01 X37.5628 Y212.3008 Z-4.9167
G01 X37.5638 Y212.3437 Z-4.9331
G01 X37.5668 Y212.3864 Z-4.9495
G01 X37.5719 Y212.4289 Z-4.9659
G01 X37.5790 Y212.4712 Z-4.9823
G01 X37.5881 Y212.5130 Z-4.9987
G01 X37.5992 Y212.5544 Z-5.0152
G01 X37.6123 Y212.5952 Z-5.0316
G01 X37.6272 Y212.6353 Z-5.0480
G01 X37.6441 Y212.6747 Z-5.0644
G01 X37.6628 Y212.7132 Z-5.0808
G01 X37.6834 Y212.7508 Z-5.0972
G01 X37.7056 Y212.7874 Z-5.1136
G01 X37.7297 Y212.8229 Z-5.1301
G01 X37.7553 Y212.8572 Z-5.1465
G01 X37.7826 Y212.8902 Z-5.1629
G01 X37.8114 Y212.9219 Z-5.1793
G01 X37.8417 Y212.9522 Z-5.1957
G01 X37.8734 Y212.9810 Z-5.2121
G01 X37.9064 Y213.0083 Z-5.2285
G01 X37.9407 Y213.0340 Z-5.2449
G01 X37.9762 Y213.0580 Z-5.2614
G01 X38.0128 Y213.0803 Z-5.2778
G01 X38.0504 Y213.1008 Z-5.2942
G01 X38.0889 Y213.1195 Z-5.3106
G01 X38.1283 Y213.1364 Z-5.3270
G01 X38.1684 Y213.1513 Z-5.3434
G01 X38.2092 Y213.1644 Z-5.3598
G01 X38.2506 Y213.1755 Z-5.3763
G01 X38.2924 Y213.1846 Z-5.3927
G01 X38.3347 Y213.1917 Z-5.4091
G01 X38.3772 Y213.1968 Z-5.4255
G01 X38.4199 Y213.1998 Z-5.4419
G01 X38.4628 Y213.2008 Z-5.4583
G01 X38.5056 Y213.1998 Z-5.4747
G01 X38.5483 Y213.1968 Z-5.4912
G01 X38.5909 Y213.1917 Z-5.5076
G01 X38.6331 Y213.1846 Z-5.5240
G01 X38.6750 Y213.1755 Z-5.5404
G01 X38.7163 Y213.1644 Z-5.5568
G01 X38.7571 Y213.1513 Z-5.5732
G01 X38.7973 Y213.1364 Z-5.5896
G01 X38.8366 Y213.1195 Z-5.6061
G01 X38.8752 Y213.1008 Z-5.6225
G01 X38.9128 Y213.0803 Z-5.6389
G01 X38.9493 Y213.0580 Z-5.6553
G01 X38.9848 Y213.0340 Z-5.6717
G01 X39.0191 Y213.0083 Z-5.6881
G01 X39.0521 Y212.9810 Z-5.7045
G01 X39.0838 Y212.9522 Z-5.7210
G01 X39.1141 Y212.9219 Z-5.7374
G01 X39.1429 Y212.8902 Z-5.7538
G01 X39.1702 Y212.8572 Z-5.7702
G01 X39.1959 Y212.8229 Z-5.7866
G01 X39.2199 Y212.7874 Z-5.8030
G01 X39.2422 Y212.7508 Z-5.8194
G01 X39.2627 Y212.7132 Z-5.8359
G01 X39.2814 Y212.6747 Z-5.8523
G01 X39.2983 Y212.6353 Z-5.8687
G01 X39.3133 Y212.5952 Z-5.8851
G01 X39.3263 Y212.5544 Z-5.9015
G01 X39.3374 Y212.5130 Z-5.9179
G01 X39.3465 Y212.4712 Z-5.9343
G01 X39.3536 Y212.4289 Z-5.9508
G01 X39.3587 Y212.3864 Z-5.9672
G01 X39.3618 Y212.3437 Z-5.9836
G01 X39.3628 Y212.3008 Z-6.0000
G01 X39.3618 Y212.2580
G01 X39.3587 Y212.2153
G01 X39.3536 Y212.1727
G01 X39.3465 Y212.1305
G01 X39.3374 Y212.0887
G01 X39.3263 Y212.0473
G01 X39.3133 Y212.0065
G01 X39.2983 Y211.9663
G01 X39.2814 Y211.9270
G01 X39.2627 Y211.8884
G01 X39.2422 Y211.8508
G01 X39.2199 Y211.8143
G01 X39.1959 Y211.7788
G01 X39.1702 Y211.7445
G01 X39.1429 Y211.7115
G01 X39.1141 Y211.6798
G01 X39.0838 Y211.6495
G01 X39.0521 Y211.6207
G01 X39.0191 Y211.5934
G01 X38.9848 Y211.5677
G01 X38.9493 Y211.5437
G01 X38.9128 Y211.5214
G01 X38.8752 Y211.5009
G01 X38.8366 Y211.4822
G01 X38.7973 Y211.4653
G01 X38.7571 Y211.4503
G01 X38.7163 Y211.4373
G01 X38.6750 Y211.4262
G01 X38.6331 Y211.4171
G01 X38.5909 Y211.4100
G01 X38.5483 Y211.4049
G01 X38.5056 Y211.4019
G01 X38.4628 Y211.4008
G01 X38.4199 Y211.4019
G01 X38.3772 Y211.4049
G01 X38.3347 Y211.4100
G01 X38.2924 Y211.4171
G01 X38.2506 Y211.4262
G01 X38.2092 Y211.4373
G01 X38.1684 Y211.4503
G01 X38.1283 Y211.4653
G01 X38.0889 Y211.4822
G01 X38.0504 Y211.5009
G01 X38.0128 Y211.5214
G01 X37.9762 Y211.5437
G01 X37.9407 Y211.5677
G01 X37.9064 Y211.5934
G01 X37.8734 Y211.6207
G01 X37.8417 Y211.6495
G01 X37.8114 Y211.6798
G01 X37.7826 Y211.7115
G01 X37.7553 Y211.7445
G01 X37.7297 Y211.7788
G01 X37.7056 Y211.8143
G01 X37.6834 Y211.8508
G01 X37.6628 Y211.8884
G01 X37.6441 Y211.9270
G01 X37.6272 Y211.9663
G01 X37.6123 Y212.0065
G01 X37.5992 Y212.0473
G01 X37.5881 Y212.0887
G01 X37.5790 Y212.1305
G01 X37.5719 Y212.1727
G01 X37.5668 Y212.2153
G01 X37.5638 Y212.2580
G01 X37.5628 Y212.3008
G01 X37.5638 Y212.3437
G01 X37.5668 Y212.3864
G01 X37.5719 Y212.4289
G01 X37.5790 Y212.4712
G01 X37.5881 Y212.5130
G01 X37.5992 Y212.5544
G01 X37.6123 Y212.5952
G01 X37.6272 Y212.6353
G01 X37.6441 Y212.6747
G01 X37.6628 Y212.7132
G01 X37.6834 Y212.7508
G01 X37.7056 Y212.7874
G01 X37.7297 Y212.8229
G01 X37.7553 Y212.8572
G01 X37.7826 Y212.8902
G01 X37.8114 Y212.9219
G01 X37.8417 Y212.9522
G01 X37.8734 Y212.9810
G01 X37.9064 Y213.0083
G01 X37.9407 Y213.0340
G01 X37.9762 Y213.0580
G01 X38.0128 Y213.0803
G01 X38.0504 Y213.1008
G01 X38.0889 Y213.1195
G01 X38.1283 Y213.1364
G01 X38.1684 Y213.1513
G01 X38.2092 Y213.1644
G01 X38.2506 Y213.1755
G01 X38.2924 Y213.1846
G01 X38.3347 Y213.1917
G01 X38.3772 Y213.1968
G01 X38.4199 Y213.1998
G01 X38.4628 Y213.2008
G01 X38.5056 Y213.1998
G01 X38.5483 Y213.1968
G01 X38.5909 Y213.1917
G01 X38.6331 Y213.1846
G01 X38.6750 Y213.1755
G01 X38.7163 Y213.1644
G01 X38.7571 Y213.1513
G01 X38.7973 Y213.1364
G01 X38.8366 Y213.1195
G01 X38.8752 Y213.1008
G01 X38.9128 Y213.0803
G01 X38.9493 Y213.0580
G01 X38.9848 Y213.0340
G01 X39.0191 Y213.0083
G01 X39.0521 Y212.9810
G01 X39.0838 Y212.9522
G01 X39.1141 Y212.9219
G01 X39.1429 Y212.8902
G01 X39.1702 Y212.8572
G01 X39.1959 Y212.8229
G01 X39.2199 Y212.7874
G01 X39.2422 Y212.7508
G01 X39.2627 Y212.7132
G01 X39.2814 Y212.6747
G01 X39.2983 Y212.6353
G01 X39.3133 Y212.5952
G01 X39.3263 Y212.5544
G01 X39.3374 Y212.5130
G01 X39.3465 Y212.4712
G01 X39.3536 Y212.4289
G01 X39.3587 Y212.3864
G01 X39.3618 Y212.3437
G01 X39.3628 Y212.3008
G01 X39.3703 Y212.2698 F1000
G01 X39.3768 Y212.2385
G01 X39.3822 Y212.2070
G01 X39.3864 Y212.1753
G01 X39.3896 Y212.1435
G01 X39.3917 Y212.1116
G01 X39.3926 Y212.0797
G01 X39.3925 Y212.0477
G01 X39.3913 Y212.0158
G01 X39.3889 Y211.9839
G01 X39.3854 Y211.9522
G01 X39.3809 Y211.9205
G01 X39.3712 Y211.8690
G01 X39.3589 Y211.8181
G01 X39.3439 Y211.7679
G01 X39.3264 Y211.7185
G01 X39.3064 Y211.6701
G01 X39.2839 Y211.6227
G01 X39.2590 Y211.5766
G01 X39.2318 Y211.5319
G01 X39.1997 Y211.4848
G01 X39.1653 Y211.4395
G01 X39.1287 Y211.3960
G01 X39.0898 Y211.3544
G01 X39.0489 Y211.3149
G01 X39.0060 Y211.2775
G01 X38.9613 Y211.2423
G01 X38.9148 Y211.2095
G01 X38.8629 Y211.1767
G01 X38.8094 Y211.1465
G01 X38.7545 Y211.1191
G01 X38.6982 Y211.0946
G01 X38.6407 Y211.0729
G01 X38.5822 Y211.0542
G01 X38.5229 Y211.0385
G01 X38.4628 Y211.0258
G01 X38.3977 Y211.0155
G01 X38.3321 Y211.0085
G01 X38.2663 Y211.0048
G01 X38.2003 Y211.0044
G01 X38.1345 Y211.0074
G01 X38.0689 Y211.0137
G01 X38.0036 Y211.0234
G01 X37.9390 Y211.0363
G01 X37.8707 Y211.0535
G01 X37.8033 Y211.0742
G01 X37.7371 Y211.0983
G01 X37.6721 Y211.1257
G01 X37.6087 Y211.1563
G01 X37.5468 Y211.1900
G01 X37.4868 Y211.2269
G01 X37.4286 Y211.2667
G01 X37.3690 Y211.3121
G01 X37.3116 Y211.3605
G01 X37.2568 Y211.4117
G01 X37.2047 Y211.4656
G01 X37.1553 Y211.5221
G01 X37.1088 Y211.5809
G01 X37.0653 Y211.6421
G01 X37.0250 Y211.7053
G01 X36.9856 Y211.7744
G01 X36.9497 Y211.8454
G01 X36.9175 Y211.9181
G01 X36.8889 Y211.9924
G01 X36.8641 Y212.0680
G01 X36.8431 Y212.1447
G01 X36.8260 Y212.2224
G01 X36.8128 Y212.3008
G01 X36.8057 Y212.3838
G01 X36.8028 Y212.4670
G01 X36.8041 Y212.5502
G01 X36.8094 Y212.6333
G01 X36.8189 Y212.7160
G01 X36.8325 Y212.7981
G01 X36.8501 Y212.8795
G01 X36.8717 Y212.9599
G01 X36.9060 Y213.0371
G01 X36.9440 Y213.1126
G01 X36.9856 Y213.1862
G01 X37.0309 Y213.2576
G01 X37.0795 Y213.3267
G01 X37.1315 Y213.3933
G01 X37.1868 Y213.4573
G01 X37.2450 Y213.5186
G01 X37.3063 Y213.5769
G01 X37.3703 Y213.6321
G01 X37.4369 Y213.6841
G01 X37.5060 Y213.7327
G01 X37.5774 Y213.7780
G01 X37.6510 Y213.8196
G01 X37.7265 Y213.8576
G01 X37.8037 Y213.8919
G01 X37.8826 Y213.9223
G01 X37.9629 Y213.9488
G01 X38.0443 Y213.9714
G01 X38.1268 Y213.9899
G01 X38.2101 Y214.0043
G01 X38.2940 Y214.0147
G01 X38.3783 Y214.0209
G01 X38.4628 Y214.0230
G01 X38.5473 Y214.0209
G01 X38.6316 Y214.0147
G01 X38.7155 Y214.0043
G01 X38.7987 Y213.9899
G01 X38.8812 Y213.9714
G01 X38.9627 Y213.9488
G01 X39.0429 Y213.9223
G01 X39.1218 Y213.8919
G01 X39.1991 Y213.8576
G01 X39.2746 Y213.8196
G01 X39.3481 Y213.7780
G01 X39.4195 Y213.7327
G01 X39.4886 Y213.6841
G01 X39.5553 Y213.6321
G01 X39.6193 Y213.5769
G01 X39.6805 Y213.5186
G01 X39.7388 Y213.4573
G01 X39.7940 Y213.3933
G01 X39.8460 Y213.3267
G01 X39.8947 Y213.2576
G01 X39.9399 Y213.1862
G01 X39.9816 Y213.1126
G01 X40.0196 Y213.0371
G01 X40.0538 Y212.9599
G01 X40.0842 Y212.8810
G01 X40.1108 Y212.8007
G01 X40.1333 Y212.7193
G01 X40.1518 Y212.6368
G01 X40.1663 Y212.5535
G01 X40.1766 Y212.4696
G01 X40.1828 Y212.3853
G01 X40.1849 Y212.3008
G01 X40.1812 Y212.1882
G01 X40.1702 Y212.0760
G01 X40.1518 Y211.9649
G01 X40.1262 Y211.8551
G01 X40.0935 Y211.7473
G01 X40.0538 Y211.6418
G01 X40.0073 Y211.5392
G01 X39.9542 Y211.4398
G01 X39.8947 Y211.3441
G01 X39.8290 Y211.2525
G01 X39.7575 Y211.1654
G01 X39.6805 Y211.0831
G01 X39.5983 Y211.0061
G01 X39.5111 Y210.9346
G01 X39.4195 Y210.8689
G01 X39.3238 Y210.8094
G01 X39.2245 Y210.7563
G01 X39.1218 Y210.7098
G01 X39.0163 Y210.6701
G01 X38.9085 Y210.6374
G01 X38.7987 Y210.6118
G01 X38.6876 Y210.5934
G01 X38.5754 Y210.5824
G01 X38.4628 Y210.5787
G01 X38.3501 Y210.5824
G01 X38.2380 Y210.5934
G01 X38.1268 Y210.6118
G01 X38.0171 Y210.6374
G01 X37.9092 Y210.6701
G01 X37.8037 Y210.7098
G01 X37.7011 Y210.7563
G01 X37.6017 Y210.8094
G01 X37.5060 Y210.8689
G01 X37.4144 Y210.9346
G01 X37.3273 Y211.0061
G01 X37.2450 Y211.0831
G01 X37.1680 Y211.1654
G01 X37.0965 Y211.2525
G01 X37.0309 Y211.3441
G01 X36.9714 Y211.4398
G01 X36.9182 Y211.5392
G01 X36.8717 Y211.6418
G01 X36.8320 Y211.7473
G01 X36.7993 Y211.8551
G01 X36.7737 Y211.9649
G01 X36.7554 Y212.0760
G01 X36.7443 Y212.1882
G01 X36.7406 Y212.3008
G01 X36.7443 Y212.4135
G01 X36.7554 Y212.5256
G01 X36.7737 Y212.6368
G01 X36.7993 Y212.7466
G01 X36.8320 Y212.8544
G01 X36.8717 Y212.9599
G01 X36.9182 Y213.0625
G01 X36.9714 Y213.1619
G01 X37.0309 Y213.2576
G01 X37.0965 Y213.3492
G01 X37.1680 Y213.4363
G01 X37.2450 Y213.5186
G01 X37.3273 Y213.5956
G01 X37.4144 Y213.6671
G01 X37.5060 Y213.7327
G01 X37.6017 Y213.7922
G01 X37.7011 Y213.8454
G01 X37.8037 Y213.8919
G01 X37.9092 Y213.9316
G01 X38.0171 Y213.9643
G01 X38.1268 Y213.9899
G01 X38.2380 Y214.0082
G01 X38.3501 Y214.0193
G01 X38.4628 Y214.0230
G01 X38.5754 Y214.0193
G01 X38.6876 Y214.0082
G01 X38.7987 Y213.9899
G01 X38.9085 Y213.9643
G01 X39.0163 Y213.9316
G01 X39.1218 Y213.8919
G01 X39.2245 Y213.8454
G01 X39.3238 Y213.7922
G01 X39.4195 Y213.7327
G01 X39.5111 Y213.6671
G01 X39.5983 Y213.5956
G01 X39.6805 Y213.5186
G01 X39.7575 Y213.4363
G01 X39.8290 Y213.3492
G01 X39.8947 Y213.2576
G01 X39.9542 Y213.1619
G01 X40.0073 Y213.0625
G01 X40.0538 Y212.9599
G01 X40.0935 Y212.8544
G01 X40.1262 Y212.7466
G01 X40.1518 Y212.6368
G01 X40.1702 Y212.5256
G01 X40.1812 Y212.4135
G01 X40.1849 Y212.3008
M107
M106 S240
G01 X40.1818 Y212.2224 Z-5.9750 F400
M107
M106 S240
G01 X40.1726 Y212.1444 Z-5.9500
M107
M106 S240
G01 X40.1573 Y212.0674 Z-5.9250
M107
M106 S240
G01 X40.1360 Y211.9918 Z-5.9000
M107
M106 S240
G01 X40.1088 Y211.9181 Z-5.8750
M107
M106 S240
G01 X40.0759 Y211.8468 Z-5.8500
M107
M106 S240
G01 X40.0375 Y211.7783 Z-5.8250
M107
M106 S240
G01 X39.9939 Y211.7130 Z-5.8000
M107
M106 S240
G01 X39.9453 Y211.6514 Z-5.7750
M107
M106 S240
G01 X39.8920 Y211.5937 Z-5.7500
M107
M106 S240
G01 X39.8344 Y211.5404 Z-5.7250
M107
M106 S240
G01 X39.7727 Y211.4918 Z-5.7000
M107
M106 S240
G01 X39.7074 Y211.4482 Z-5.6750
M107
M106 S240
G01 X39.6389 Y211.4098 Z-5.6500
M107
M106 S240
G01 X39.5676 Y211.3770 Z-5.6250
M107
M106 S240
G01 X39.4939 Y211.3498 Z-5.6000
M107
M106 S240
G01 X39.4184 Y211.3285 Z-5.5750
M107
M106 S240
G01 X39.3413 Y211.3131 Z-5.5500
M107
M106 S240
G01 X39.2634 Y211.3039 Z-5.5250
M107
M106 S240
G01 X39.1849 Y211.3008 Z-5.5000
M107
G00 Z2.0000


;No. 4: Hole 12
G00 X39.4866 Y181.0163 Z2.0000
G00 Z0.5000
G01 Z0.0000 F400
G01 Z-1.0000
M106 S240
G01 X38.1989 F1000
G01 X37.5583 Y179.5163
G01 X40.4633
G01 X39.7753 Y178.0163
G01 X36.9177
G01 X36.2771 Y176.5163
G01 X39.0873
G01 X38.3993 Y175.0163
G01 X35.6365
G01 X34.9959 Y173.5163
G01 X37.7113
G01 X37.0233 Y172.0163
G01 X34.3553
G01 X33.7147 Y170.5163
G01 X36.3353
G01 X35.7303 Y169.0163
G01 X33.0741
G01 X32.4334 Y167.5163
G01 X42.4943
G01 X40.0023 Y169.0163
G01 X46.0057
G01 X43.2764 Y170.5163
G01 X49.5171
G01 X48.4866 Y172.0163
G01 X46.5505
M107
G00 Z2.0000
G00 X38.9829 Y167.5163
G00 Z0.5000
G01 Z-1.0000 F400
M106 S240
G01 Y166.0163 F1000
G01 X31.7928
G01 X32.4568 Y164.5163
G01 X35.4715
G01 X35.5565 Y164.3351
G01 X33.3134 Y163.3769
G01 X31.3056 Y165.3846
G01 X38.5165 Y182.2692
G01 X40.8676 Y179.9181
G01 X36.0176 Y169.3440
G01 X35.9992 Y169.3011
G01 X35.9827 Y169.2574
G01 X35.9683 Y169.2129
G01 X35.9560 Y169.1678
G01 X35.9458 Y169.1222
G01 X35.9378 Y169.0761
G01 X35.9319 Y169.0297
G01 X35.9282 Y168.9832
G01 X35.9266 Y168.9364
G01 X35.9273 Y168.8897
G01 X35.9301 Y168.8430
G01 X35.9352 Y168.7966
G01 X35.9423 Y168.7504
G01 X35.9517 Y168.7046
G01 X35.9631 Y168.6593
G01 X35.9767 Y168.6145
G01 X35.9924 Y168.5705
G01 X36.0100 Y168.5272
G01 X36.0297 Y168.4848
G01 X36.0514 Y168.4434
G01 X36.0749 Y168.4030
G01 X36.1004 Y168.3638
G01 X36.1276 Y168.3258
G01 X36.1566 Y168.2891
G01 X36.1872 Y168.2538
G01 X36.2195 Y168.2200
G01 X36.2533 Y168.1877
G01 X36.2886 Y168.1571
G01 X36.3253 Y168.1281
G01 X36.3633 Y168.1009
G01 X36.4025 Y168.0755
G01 X36.4429 Y168.0519
G01 X36.4843 Y168.0303
G01 X36.5267 Y168.0106
G01 X36.5700 Y167.9929
G01 X36.6140 Y167.9772
G01 X36.6587 Y167.9637
G01 X36.7040 Y167.9522
G01 X36.7498 Y167.9429
G01 X36.7960 Y167.9357
G01 X36.8425 Y167.9307
G01 X36.8892 Y167.9278
G01 X36.9359 Y167.9272
G01 X36.9826 Y167.9287
G01 X37.0292 Y167.9324
G01 X37.0756 Y167.9383
G01 X37.1216 Y167.9463
G01 X37.1673 Y167.9565
G01 X37.2124 Y167.9688
G01 X37.2568 Y167.9832
G01 X37.3006 Y167.9997
G01 X37.3435 Y168.0182
G01 X47.9207 Y172.8650
G01 X50.1966 Y170.5891
G01 X35.5565 Y164.3351
G01 X35.4715 Y164.5163
M107
G00 Z2.0000


;No. 5: Hole 13
G00 X42.4155 Y157.7472 Z2.0000
G00 Z0.5000
G01 Z0.0000 F400
G01 Z-1.0000
M106 S240
G01 X46.0531 F1000
G01 X44.7937
G01 Y156.2472
G01 X40.9155
G01 X42.4064 Y154.7472
G01 X45.4665
G01 X46.9665 Y153.2472
G01 X43.9064
G01 X45.4064 Y151.7472
G01 X48.4665
G01 X49.9665 Y150.2472
G01 X46.9064
G01 X48.4064 Y148.7472
G01 X50.7466
M107
G00 Z2.0000
G00 X43.9155 Y157.7472
G00 Z0.5000
G01 Z-1.0000 F400
M106 S240
G01 Y159.2472 F1000
G01 X51.2014
G01 X49.9198
G01 Y160.7472
G01 X45.4155
G01 X46.9155 Y162.2472
G01 X50.5531
G01 X52.0554 Y163.7472
G01 X48.4155
G01 X49.9155 Y165.2472
G01 X55.2557
G01 X56.7557 Y163.7472
G01 X53.6902
G01 X55.1925 Y162.2472
G01 X58.2557
G01 X59.7557 Y160.7472
G01 X56.6925
G01 X58.1925 Y159.2472
G01 X61.0662
M107
G00 Z2.0000
G00 X53.7557 Y165.2472
G00 Z0.5000
G01 Z-1.0000 F400
M106 S240
G01 Y166.7472 F1000
G01 X51.4155
M107
G00 Z2.0000
G00 X49.6382 Y159.2472
G00 Z0.5000
G01 Z-1.0000 F400
M106 S240
G01 Y157.7472 F1000
G01 X52.7014
G01 X54.2014 Y156.2472
G01 X51.1382
G01 X52.6382 Y154.7472
G01 X54.9451
G01 X55.0754 Y154.5946
G01 X53.7916 Y153.3109
G01 X48.5527 Y158.5498
G01 X48.5212 Y158.5799
G01 X48.4884 Y158.6087
G01 X48.4544 Y158.6360
G01 X48.4192 Y158.6618
G01 X48.3829 Y158.6861
G01 X48.3456 Y158.7087
G01 X48.3074 Y158.7297
G01 X48.2683 Y158.7490
G01 X48.2283 Y158.7665
G01 X48.1877 Y158.7824
G01 X48.1463 Y158.7964
G01 X48.1045 Y158.8086
G01 X48.0621 Y158.8190
G01 X48.0193 Y158.8275
G01 X47.9762 Y158.8341
G01 X47.9328 Y158.8389
G01 X47.8893 Y158.8417
G01 X47.8456 Y158.8427
G01 X47.8020 Y158.8417
G01 X47.7585 Y158.8389
G01 X47.7151 Y158.8341
G01 X47.6720 Y158.8275
G01 X47.6292 Y158.8190
G01 X47.5868 Y158.8086
G01 X47.5449 Y158.7964
G01 X47.5036 Y158.7824
G01 X47.4630 Y158.7665
G01 X47.4230 Y158.7490
G01 X47.3839 Y158.7297
G01 X47.3456 Y158.7087
G01 X47.3083 Y158.6861
G01 X47.2721 Y158.6618
G01 X47.2369 Y158.6360
G01 X47.2028 Y158.6087
G01 X47.1700 Y158.5799
G01 X47.1385 Y158.5498
G01 X45.2498 Y156.6610
G01 X45.1965 Y156.6033
G01 X45.1479 Y156.5417
G01 X45.1042 Y156.4764
G01 X45.0659 Y156.4079
G01 X45.0330 Y156.3366
G01 X45.0058 Y156.2629
G01 X44.9845 Y156.1873
G01 X44.9692 Y156.1103
G01 X44.9600 Y156.0324
G01 X44.9569 Y155.9539
G01 X44.9600 Y155.8754
G01 X44.9692 Y155.7975
G01 X44.9845 Y155.7205
G01 X45.0058 Y155.6449
G01 X45.0330 Y155.5712
G01 X45.0659 Y155.4999
G01 X45.1042 Y155.4314
G01 X45.1479 Y155.3661
G01 X45.1965 Y155.3044
G01 X45.2498 Y155.2468
G01 X51.3894 Y149.1071
G01 X49.9568 Y147.6745
G01 X49.5765 Y147.2942
G01 X40.6281 Y156.2426
G01 X52.5856 Y168.2001
G01 X61.4438 Y159.3420
G01 X59.6294 Y157.5275
G01 X53.5799 Y163.5770
G01 X53.5223 Y163.6303
G01 X53.4606 Y163.6789
G01 X53.3953 Y163.7225
G01 X53.3268 Y163.7609
G01 X53.2555 Y163.7937
G01 X53.1818 Y163.8209
G01 X53.1063 Y163.8422
G01 X53.0293 Y163.8575
G01 X52.9513 Y163.8668
G01 X52.8728 Y163.8698
G01 X52.7944 Y163.8668
G01 X52.7164 Y163.8575
G01 X52.6394 Y163.8422
G01 X52.5638 Y163.8209
G01 X52.4901 Y163.7937
G01 X52.4188 Y163.7609
G01 X52.3503 Y163.7225
G01 X52.2850 Y163.6789
G01 X52.2234 Y163.6303
G01 X52.1657 Y163.5770
G01 X50.3672 Y161.7784
G01 X50.3370 Y161.7469
G01 X50.3082 Y161.7141
G01 X50.2809 Y161.6801
G01 X50.2551 Y161.6449
G01 X50.2309 Y161.6086
G01 X50.2083 Y161.5713
G01 X50.1873 Y161.5331
G01 X50.1680 Y161.4939
G01 X50.1504 Y161.4540
G01 X50.1346 Y161.4133
G01 X50.1206 Y161.3720
G01 X50.1084 Y161.3301
G01 X50.0980 Y161.2877
G01 X50.0895 Y161.2450
G01 X50.0828 Y161.2018
G01 X50.0781 Y161.1585
G01 X50.0752 Y161.1149
G01 X50.0743 Y161.0713
G01 X50.0752 Y161.0277
G01 X50.0781 Y160.9842
G01 X50.0828 Y160.9408
G01 X50.0895 Y160.8977
G01 X50.0980 Y160.8549
G01 X50.1084 Y160.8125
G01 X50.1206 Y160.7706
G01 X50.1346 Y160.7293
G01 X50.1504 Y160.6886
G01 X50.1680 Y160.6487
G01 X50.1873 Y160.6096
G01 X50.2083 Y160.5713
G01 X50.2309 Y160.5340
G01 X50.2551 Y160.4977
G01 X50.2809 Y160.4625
G01 X50.3082 Y160.4285
G01 X50.3370 Y160.3957
G01 X50.3672 Y160.3642
G01 X55.6061 Y155.1253
G01 X55.0754 Y154.5946
G01 X54.9451 Y154.7472
M107
G00 Z2.0000


;No. 6: Hole 14
G00 X58.8364 Y150.7631 Z2.0000
G00 Z0.5000
G01 Z0.0000 F400
G01 Z-1.0000
M106 S240
G01 X62.5101 F1000
G01 X61.6381
G01 Y149.2631
G01 X57.3364
G01 X55.8364 Y147.7631
G01 X62.7576
G01 X64.2576 Y146.2631
G01 X61.0140
G01 X62.5140 Y144.7631
G01 X65.7576
G01 X64.0140 Y143.2631
G01 X70.7939
G01 X72.2939 Y144.7631
G01 X68.6202
G01 X70.1202 Y146.2631
G01 X73.7939
G01 X72.7398 Y147.7631
G01 X71.6202
M107
G00 Z2.0000
G00 X69.2939 Y143.2631
G00 Z0.5000
G01 Z-1.0000 F400
M106 S240
G01 Y141.7631 F1000
G01 X65.0680
G01 Y140.2631
G01 X64.1202
G01 X67.7939
G01 X66.2939 Y138.7631
G01 X62.6202
G01 X61.1202 Y137.2631
G01 X64.7939
G01 X63.2939 Y135.7631
G01 X61.3905
M107
G00 Z2.0000
G00 X58.0101 Y147.7631
G00 Z0.5000
G01 Z-1.0000 F400
M106 S240
G01 Y146.2631 F1000
G01 X54.3364
G01 X52.8364 Y144.7631
G01 X56.5101
G01 X55.0101 Y143.2631
G01 X53.8905
M107
G00 Z2.0000
G00 X60.3364 Y150.7631
G00 Z0.5000
G01 Z-1.0000 F400
M106 S240
G01 Y152.2631 F1000
G01 X64.0101
G01 X65.5101 Y153.7631
G01 X61.8364
G01 X63.3364 Y155.2631
G01 X65.2398
G01 X65.3807 Y155.4051
G01 X66.4078 Y154.3779
G01 X62.1238 Y150.0939
G01 X62.0705 Y150.0363
G01 X62.0219 Y149.9746
G01 X61.9783 Y149.9093
G01 X61.9399 Y149.8408
G01 X61.9071 Y149.7695
G01 X61.8799 Y149.6959
G01 X61.8586 Y149.6203
G01 X61.8432 Y149.5433
G01 X61.8340 Y149.4653
G01 X61.8309 Y149.3868
G01 X61.8340 Y149.3084
G01 X61.8432 Y149.2304
G01 X61.8586 Y149.1534
G01 X61.8799 Y149.0778
G01 X61.9071 Y149.0041
G01 X61.9399 Y148.9328
G01 X61.9783 Y148.8643
G01 X62.0219 Y148.7990
G01 X62.0705 Y148.7374
G01 X62.1238 Y148.6797
G01 X66.4818 Y144.3217
G01 X66.5133 Y144.2916
G01 X66.5461 Y144.2628
G01 X66.5802 Y144.2355
G01 X66.6153 Y144.2097
G01 X66.6516 Y144.1855
G01 X66.6889 Y144.1628
G01 X66.7272 Y144.1418
G01 X66.7663 Y144.1225
G01 X66.8062 Y144.1050
G01 X66.8469 Y144.0892
G01 X66.8882 Y144.0751
G01 X66.9301 Y144.0629
G01 X66.9725 Y144.0525
G01 X67.0153 Y144.0440
G01 X67.0584 Y144.0374
G01 X67.1018 Y144.0327
G01 X67.1453 Y144.0298
G01 X67.1889 Y144.0288
G01 X67.2325 Y144.0298
G01 X67.2761 Y144.0327
G01 X67.3194 Y144.0374
G01 X67.3626 Y144.0440
G01 X67.4054 Y144.0526
G01 X67.4477 Y144.0629
G01 X67.4896 Y144.0751
G01 X67.5309 Y144.0892
G01 X67.5716 Y144.1050
G01 X67.6115 Y144.1225
G01 X67.6507 Y144.1418
G01 X67.6889 Y144.1628
G01 X67.7262 Y144.1855
G01 X67.7625 Y144.2097
G01 X67.7977 Y144.2355
G01 X67.8317 Y144.2628
G01 X67.8645 Y144.2916
G01 X67.8960 Y144.3217
G01 X72.1800 Y148.6057
G01 X74.2997 Y146.4860
G01 X62.3422 Y134.5285
G01 X60.2225 Y136.6482
G01 X64.5772 Y141.0029
G01 X64.6305 Y141.0605
G01 X64.6791 Y141.1222
G01 X64.7227 Y141.1875
G01 X64.7611 Y141.2560
G01 X64.7939 Y141.3273
G01 X64.8211 Y141.4010
G01 X64.8424 Y141.4765
G01 X64.8577 Y141.5535
G01 X64.8670 Y141.6315
G01 X64.8701 Y141.7100
G01 X64.8670 Y141.7884
G01 X64.8577 Y141.8664
G01 X64.8424 Y141.9434
G01 X64.8211 Y142.0190
G01 X64.7939 Y142.0927
G01 X64.7611 Y142.1640
G01 X64.7227 Y142.2325
G01 X64.6791 Y142.2978
G01 X64.6305 Y142.3594
G01 X64.5772 Y142.4171
G01 X60.2192 Y146.7751
G01 X60.1615 Y146.8284
G01 X60.0999 Y146.8770
G01 X60.0346 Y146.9206
G01 X59.9661 Y146.9590
G01 X59.8947 Y146.9918
G01 X59.8211 Y147.0190
G01 X59.7455 Y147.0403
G01 X59.6685 Y147.0557
G01 X59.5905 Y147.0649
G01 X59.5121 Y147.0680
G01 X59.4336 Y147.0649
G01 X59.3556 Y147.0557
G01 X59.2786 Y147.0403
G01 X59.2030 Y147.0190
G01 X59.1294 Y146.9918
G01 X59.0581 Y146.9590
G01 X58.9896 Y146.9206
G01 X58.9243 Y146.8770
G01 X58.8626 Y146.8284
G01 X58.8050 Y146.7751
G01 X54.4503 Y142.4204
G01 X52.3306 Y144.5401
G01 X64.2881 Y156.4976
G01 X65.3807 Y155.4051
G01 X65.2398 Y155.2631
M107
G00 Z2.0000


;No. 7: Hole 15
G00 X76.9793 Y142.0121 Z2.0000
G00 Z0.5000
G01 Z0.0000 F400
G01 Z-1.0000
M106 S240
G01 X78.4908 F1000
G01 X79.1530 Y140.5121
G01 X75.4793
G01 X73.9793 Y139.0121
G01 X77.6530
G01 X76.1530 Y137.5121
G01 X72.4793
G01 X70.9793 Y136.0121
G01 X74.6530
G01 X73.1530 Y134.5121
G01 X69.4793
G01 X67.9793 Y133.0121
G01 X71.6530
G01 X70.1530 Y131.5121
G01 X66.4793
G01 X67.1414 Y130.0121
G01 X68.6530
G01 X68.8046 Y129.8809
G01 X67.8972 Y128.9735
G01 X65.7775 Y131.0932
G01 X77.7350 Y143.0507
G01 X79.8547 Y140.9310
G01 X68.8046 Y129.8809
G01 X68.6530 Y130.0121
M107
G00 Z2.0000


;No. 8: Hole 16
G00 X74.8548 Y128.8212 Z2.0000
G00 Z0.5000
G01 Z0.0000 F400
G01 Z-1.0000
M106 S240
G01 X77.9243 F1000
G01 X77.1903 Y127.3212
G01 X74.4376
G01 X74.3075 Y125.8212
G01 X76.8852
G01 X76.9758 Y124.3212
G01 X74.4527
G01 X74.8897 Y122.8212
G01 X77.5062
G01 X78.6422 Y121.3212
G01 X75.6681
G01 X76.8997 Y119.8212
G01 X81.0140
G01 X83.1431 Y118.3212
G01 X78.7940
M107
G00 Z2.0000
G00 X75.6026 Y128.8212
G00 Z0.5000
G01 Z-1.0000 F400
M106 S240
G01 Y130.3212 F1000
G01 X79.2332
G01 X76.7868 Y131.8212
G01 X82.1461
G01 X78.6877 Y133.3212
G01 X87.2015
G01 X89.1109 Y131.8212
G01 X84.6403
G01 X87.3700
G01 Y130.3212
G01 X90.3715
G01 X91.2142 Y128.8212
G01 X88.5152
G01 X89.1085 Y127.3212
G01 X91.6935
G01 X91.8900 Y127.3584
G01 X91.9597 Y126.9886
G01 X92.0143 Y126.6164
G01 X92.0538 Y126.2422
G01 X92.0781 Y125.8667
G01 X89.1904 Y125.6531
G01 X89.1519 Y126.0956
G01 X89.0871 Y126.5350
G01 X88.9963 Y126.9698
G01 X88.8799 Y127.3984
G01 X88.7381 Y127.8193
G01 X88.5715 Y128.2311
G01 X88.3807 Y128.6322
G01 X88.1664 Y129.0212
G01 X87.9773 Y129.3169
G01 X87.7700 Y129.6003
G01 X87.5455 Y129.8701
G01 X87.3045 Y130.1253
G01 X87.0480 Y130.3650
G01 X86.7771 Y130.5882
G01 X86.4927 Y130.7941
G01 X86.1960 Y130.9817
