;Project TeslaElectricVehiclesWeiss
;Created by Estlcam version 11 build 11,227
;Machining time about 00:03:25 hours

G90
M03 S18000
G00 X0.0000 Y0.0000 Z0.0000
G00 Z2.0000


;No. 1: Part 3
G00 X282.5000 Y290.5000
G00 Z0.5000
G01 Z0.0000 F400 S18000
G01 Z-5.5000
M106 S240
G01 X217.4961 F1000
G01 X216.6713 Y290.4853
G01 X215.8478 Y290.4382
G01 X215.0267 Y290.3587
G01 X214.2094 Y290.2470
G01 X213.3972 Y290.1032
G01 X212.5912 Y289.9275
G01 X211.7928 Y289.7203
G01 X211.0031 Y289.4818
G01 X210.2235 Y289.2123
G01 X209.4550 Y288.9125
G01 X208.6990 Y288.5826
G01 X207.9565 Y288.2232
G01 X207.2287 Y287.8349
G01 X206.5168 Y287.4182
G01 X205.8218 Y286.9738
G01 X205.1449 Y286.5024
G01 X204.4870 Y286.0048
G01 X203.8492 Y285.4816
G01 X203.2325 Y284.9338
G01 X202.6379 Y284.3621
G01 X202.0662 Y283.7674
G01 X201.5183 Y283.1507
G01 X200.9952 Y282.5130
G01 X200.4975 Y281.8551
G01 X200.0261 Y281.1781
G01 X199.5818 Y280.4832
G01 X199.1651 Y279.7712
G01 X198.7768 Y279.0435
G01 X198.4174 Y278.3010
G01 X198.0875 Y277.5449
G01 X197.7876 Y276.7765
G01 X197.5182 Y275.9968
G01 X197.2797 Y275.2071
G01 X197.0725 Y274.4087
G01 X196.8968 Y273.6027
G01 X196.7530 Y272.7905
G01 X196.6412 Y271.9732
G01 X196.5618 Y271.1521
G01 X196.5147 Y270.3286
G01 X196.5000 Y269.5038
G01 Y152.0000
M107
G00 Z-2.5000
M106 S240
G01 Y148.0000
G01 Z-5.5000 F400
G01 Y30.4961 F1000
G01 X196.5147 Y29.6713
G01 X196.5618 Y28.8478
G01 X196.6413 Y28.0267
G01 X196.7530 Y27.2094
G01 X196.8968 Y26.3972
G01 X197.0725 Y25.5912
G01 X197.2797 Y24.7928
G01 X197.5182 Y24.0031
G01 X197.7876 Y23.2235
G01 X198.0875 Y22.4550
G01 X198.4174 Y21.6990
G01 X198.7768 Y20.9565
G01 X199.1651 Y20.2287
G01 X199.5818 Y19.5168
G01 X200.0262 Y18.8218
G01 X200.4976 Y18.1449
G01 X200.9952 Y17.4870
G01 X201.5184 Y16.8492
G01 X202.0662 Y16.2325
G01 X202.6379 Y15.6379
G01 X203.2326 Y15.0662
G01 X203.8493 Y14.5183
G01 X204.4870 Y13.9952
G01 X205.1449 Y13.4975
G01 X205.8219 Y13.0261
G01 X206.5168 Y12.5818
G01 X207.2288 Y12.1651
G01 X207.9565 Y11.7768
G01 X208.6990 Y11.4174
G01 X209.4551 Y11.0875
G01 X210.2235 Y10.7876
G01 X211.0032 Y10.5182
G01 X211.7929 Y10.2797
G01 X212.5913 Y10.0725
G01 X213.3973 Y9.8968
G01 X214.2095 Y9.7530
G01 X215.0268 Y9.6412
G01 X215.8479 Y9.5618
G01 X216.6714 Y9.5147
G01 X217.4962 Y9.5000
G01 X282.6074
M107
G00 Z-2.5000
M106 S240
G01 X286.6074
G01 Z-5.5000 F400
G01 X351.5039 F1000
G01 X352.3287 Y9.5147
G01 X353.1522 Y9.5618
G01 X353.9733 Y9.6413
G01 X354.7906 Y9.7530
G01 X355.6028 Y9.8968
G01 X356.4088 Y10.0725
G01 X357.2072 Y10.2797
G01 X357.9969 Y10.5182
G01 X358.7765 Y10.7876
G01 X359.5450 Y11.0875
G01 X360.3010 Y11.4174
G01 X361.0435 Y11.7768
G01 X361.7713 Y12.1651
G01 X362.4832 Y12.5818
G01 X363.1782 Y13.0262
G01 X363.8551 Y13.4976
G01 X364.5130 Y13.9952
G01 X365.1508 Y14.5184
G01 X365.7675 Y15.0662
G01 X366.3621 Y15.6379
G01 X366.9338 Y16.2326
G01 X367.4817 Y16.8493
G01 X368.0048 Y17.4870
G01 X368.5025 Y18.1449
G01 X368.9739 Y18.8219
G01 X369.4182 Y19.5168
G01 X369.8349 Y20.2288
G01 X370.2232 Y20.9565
G01 X370.5826 Y21.6990
G01 X370.9125 Y22.4551
G01 X371.2124 Y23.2235
G01 X371.4818 Y24.0032
G01 X371.7203 Y24.7929
G01 X371.9275 Y25.5913
G01 X372.1032 Y26.3973
G01 X372.2470 Y27.2095
G01 X372.3588 Y28.0268
G01 X372.4382 Y28.8479
G01 X372.4853 Y29.6714
G01 X372.5000 Y30.4962
G01 Y148.0000
M107
G00 Z-2.5000
M106 S240
G01 Y152.0000
G01 Z-5.5000 F400
G01 Y269.5039 F1000
G01 X372.4853 Y270.3287
G01 X372.4382 Y271.1522
G01 X372.3587 Y271.9733
G01 X372.2470 Y272.7906
G01 X372.1032 Y273.6028
G01 X371.9275 Y274.4088
G01 X371.7203 Y275.2072
G01 X371.4818 Y275.9969
G01 X371.2123 Y276.7765
G01 X370.9125 Y277.5450
G01 X370.5826 Y278.3010
G01 X370.2232 Y279.0435
G01 X369.8349 Y279.7713
G01 X369.4182 Y280.4832
G01 X368.9738 Y281.1782
G01 X368.5024 Y281.8551
G01 X368.0048 Y282.5130
G01 X367.4816 Y283.1508
G01 X366.9338 Y283.7675
G01 X366.3621 Y284.3621
G01 X365.7674 Y284.9338
G01 X365.1507 Y285.4817
G01 X364.5130 Y286.0048
G01 X363.8551 Y286.5025
G01 X363.1781 Y286.9739
G01 X362.4832 Y287.4182
G01 X361.7712 Y287.8349
G01 X361.0435 Y288.2232
G01 X360.3010 Y288.5826
G01 X359.5449 Y288.9125
G01 X358.7765 Y289.2124
G01 X357.9968 Y289.4818
G01 X357.2071 Y289.7203
G01 X356.4087 Y289.9275
G01 X355.6027 Y290.1032
G01 X354.7905 Y290.2470
G01 X353.9732 Y290.3588
G01 X353.1521 Y290.4382
G01 X352.3286 Y290.4853
G01 X351.5038 Y290.5000
G01 X286.5000
M107
G00 Z-2.5000
M106 S240
G01 X282.5000
M107
G00 Z2.0000


;No. 2: Part 4
G00 X96.5000 Y290.5000 Z2.0000
G00 Z0.5000
G01 Z0.0000 F400
G01 Z-5.5000
M106 S240
G01 X31.4961 F1000
G01 X30.6713 Y290.4853
G01 X29.8478 Y290.4382
G01 X29.0267 Y290.3587
G01 X28.2094 Y290.2470
G01 X27.3972 Y290.1032
G01 X26.5912 Y289.9275
G01 X25.7928 Y289.7203
G01 X25.0031 Y289.4818
G01 X24.2235 Y289.2124
G01 X23.4550 Y288.9125
G01 X22.6990 Y288.5826
G01 X21.9565 Y288.2232
G01 X21.2287 Y287.8349
G01 X20.5168 Y287.4182
G01 X19.8218 Y286.9738
G01 X19.1449 Y286.5024
G01 X18.4870 Y286.0048
G01 X17.8492 Y285.4816
G01 X17.2325 Y284.9338
G01 X16.6379 Y284.3621
G01 X16.0662 Y283.7674
G01 X15.5183 Y283.1507
G01 X14.9952 Y282.5130
G01 X14.4975 Y281.8551
G01 X14.0261 Y281.1781
G01 X13.5818 Y280.4832
G01 X13.1651 Y279.7712
G01 X12.7768 Y279.0435
G01 X12.4174 Y278.3010
G01 X12.0875 Y277.5449
G01 X11.7876 Y276.7765
G01 X11.5182 Y275.9968
G01 X11.2797 Y275.2071
G01 X11.0725 Y274.4087
G01 X10.8968 Y273.6027
G01 X10.7530 Y272.7905
G01 X10.6412 Y271.9732
G01 X10.5618 Y271.1521
G01 X10.5147 Y270.3286
G01 X10.5000 Y269.5038
G01 Y152.0000
M107
G00 Z-2.5000
M106 S240
G01 Y148.0000
G01 Z-5.5000 F400
G01 Y30.4961 F1000
G01 X10.5147 Y29.6713
G01 X10.5618 Y28.8478
G01 X10.6413 Y28.0267
G01 X10.7530 Y27.2094
G01 X10.8968 Y26.3972
G01 X11.0725 Y25.5912
G01 X11.2797 Y24.7928
G01 X11.5182 Y24.0031
G01 X11.7876 Y23.2235
G01 X12.0875 Y22.4550
G01 X12.4174 Y21.6990
G01 X12.7768 Y20.9565
G01 X13.1651 Y20.2287
G01 X13.5818 Y19.5168
G01 X14.0262 Y18.8218
G01 X14.4976 Y18.1449
G01 X14.9952 Y17.4870
G01 X15.5184 Y16.8492
G01 X16.0662 Y16.2325
G01 X16.6379 Y15.6379
G01 X17.2326 Y15.0662
G01 X17.8493 Y14.5183
G01 X18.4870 Y13.9952
G01 X19.1449 Y13.4975
G01 X19.8219 Y13.0261
G01 X20.5168 Y12.5818
G01 X21.2288 Y12.1651
G01 X21.9565 Y11.7768
G01 X22.6990 Y11.4174
G01 X23.4551 Y11.0875
G01 X24.2235 Y10.7876
G01 X25.0032 Y10.5182
G01 X25.7929 Y10.2797
G01 X26.5913 Y10.0725
G01 X27.3973 Y9.8968
G01 X28.2095 Y9.7530
G01 X29.0268 Y9.6412
G01 X29.8479 Y9.5618
G01 X30.6714 Y9.5147
G01 X31.4962 Y9.5000
G01 X96.5000
M107
G00 Z-2.5000
M106 S240
G01 X100.5000
G01 Z-5.5000 F400
G01 X165.5039 F1000
G01 X166.3287 Y9.5147
G01 X167.1522 Y9.5618
G01 X167.9733 Y9.6413
G01 X168.7906 Y9.7530
G01 X169.6028 Y9.8968
G01 X170.4088 Y10.0725
G01 X171.2072 Y10.2797
G01 X171.9969 Y10.5182
G01 X172.7765 Y10.7876
G01 X173.5450 Y11.0875
G01 X174.3010 Y11.4174
G01 X175.0435 Y11.7768
G01 X175.7713 Y12.1651
G01 X176.4832 Y12.5818
G01 X177.1782 Y13.0262
G01 X177.8551 Y13.4976
G01 X178.5130 Y13.9952
G01 X179.1508 Y14.5184
G01 X179.7675 Y15.0662
G01 X180.3621 Y15.6379
G01 X180.9338 Y16.2326
G01 X181.4817 Y16.8493
G01 X182.0048 Y17.4870
G01 X182.5025 Y18.1449
G01 X182.9739 Y18.8219
G01 X183.4182 Y19.5168
G01 X183.8349 Y20.2288
G01 X184.2232 Y20.9565
G01 X184.5826 Y21.6990
G01 X184.9125 Y22.4551
G01 X185.2124 Y23.2235
G01 X185.4818 Y24.0032
G01 X185.7203 Y24.7929
G01 X185.9275 Y25.5913
G01 X186.1032 Y26.3973
G01 X186.2470 Y27.2095
G01 X186.3588 Y28.0268
G01 X186.4382 Y28.8479
G01 X186.4853 Y29.6714
G01 X186.5000 Y30.4962
G01 Y148.0000
M107
G00 Z-2.5000
M106 S240
G01 Y152.0000
G01 Z-5.5000 F400
G01 Y269.5039 F1000
G01 X186.4853 Y270.3287
G01 X186.4382 Y271.1522
G01 X186.3587 Y271.9733
G01 X186.2470 Y272.7906
G01 X186.1032 Y273.6028
G01 X185.9275 Y274.4088
G01 X185.7203 Y275.2072
G01 X185.4818 Y275.9969
G01 X185.2124 Y276.7765
G01 X184.9125 Y277.5450
G01 X184.5826 Y278.3010
G01 X184.2232 Y279.0435
G01 X183.8349 Y279.7713
G01 X183.4182 Y280.4832
G01 X182.9738 Y281.1782
G01 X182.5024 Y281.8551
G01 X182.0048 Y282.5130
G01 X181.4816 Y283.1508
G01 X180.9338 Y283.7675
G01 X180.3621 Y284.3621
G01 X179.7674 Y284.9338
G01 X179.1507 Y285.4817
G01 X178.5130 Y286.0048
G01 X177.8551 Y286.5025
G01 X177.1781 Y286.9739
G01 X176.4832 Y287.4182
G01 X175.7712 Y287.8349
G01 X175.0435 Y288.2232
G01 X174.3010 Y288.5826
G01 X173.5449 Y288.9125
G01 X172.7765 Y289.2124
G01 X171.9968 Y289.4818
G01 X171.2071 Y289.7203
G01 X170.4087 Y289.9275
G01 X169.6027 Y290.1032
G01 X168.7905 Y290.2470
G01 X167.9732 Y290.3588
G01 X167.1521 Y290.4382
G01 X166.3286 Y290.4853
G01 X165.5038 Y290.5000
G01 X100.5000
M107
G00 Z-2.5000
M106 S240
G01 X96.5000
M107
G00 Z2.0000
G00 X0.0000 Y0.0000
G00 Z0.0000

M05
