;Project ModelYParking Only
;Created by Estlcam version 11 build 11,244
;Machining time about 00:15:04 hours

G90
M03 S10000
G00 Z5.0000


;No. 1: Helical drill 8
G00 X28.6342 Y26.2221
G00 Z0.5000
G01 X28.6299 Y26.1240 Z0.4774 F400 S10000
G01 X28.6171 Y26.0267 Z0.4549
G01 X28.5958 Y25.9309 Z0.4323
G01 X28.5663 Y25.8373 Z0.4097
G01 X28.5288 Y25.7466 Z0.3872
G01 X28.4834 Y25.6596 Z0.3646
G01 X28.4307 Y25.5768 Z0.3420
G01 X28.3710 Y25.4989 Z0.3194
G01 X28.3047 Y25.4266 Z0.2969
G01 X28.2323 Y25.3603 Z0.2743
G01 X28.1544 Y25.3005 Z0.2517
G01 X28.0717 Y25.2478 Z0.2292
G01 X27.9846 Y25.2025 Z0.2066
G01 X27.8939 Y25.1649 Z0.1840
G01 X27.8003 Y25.1354 Z0.1615
G01 X27.7045 Y25.1142 Z0.1389
G01 X27.6072 Y25.1014 Z0.1163
G01 X27.5092 Y25.0971 Z0.0938
G01 X27.4111 Y25.1014 Z0.0712
G01 X27.3138 Y25.1142 Z0.0486
G01 X27.2180 Y25.1354 Z0.0260
G01 X27.1244 Y25.1649 Z0.0035
G01 X27.0337 Y25.2025 Z-0.0191
G01 X26.9467 Y25.2478 Z-0.0417
G01 X26.8639 Y25.3005 Z-0.0642
G01 X26.7860 Y25.3603 Z-0.0868
G01 X26.7137 Y25.4266 Z-0.1094
G01 X26.6474 Y25.4989 Z-0.1319
G01 X26.5876 Y25.5768 Z-0.1545
G01 X26.5349 Y25.6596 Z-0.1771
G01 X26.4896 Y25.7466 Z-0.1997
G01 X26.4520 Y25.8373 Z-0.2222
G01 X26.4225 Y25.9309 Z-0.2448
G01 X26.4012 Y26.0267 Z-0.2674
G01 X26.3884 Y26.1240 Z-0.2899
G01 X26.3842 Y26.2221 Z-0.3125
G01 X26.3884 Y26.3201 Z-0.3351
G01 X26.4012 Y26.4174 Z-0.3576
G01 X26.4225 Y26.5133 Z-0.3802
G01 X26.4520 Y26.6069 Z-0.4028
G01 X26.4896 Y26.6975 Z-0.4253
G01 X26.5349 Y26.7846 Z-0.4479
G01 X26.5876 Y26.8674 Z-0.4705
G01 X26.6474 Y26.9452 Z-0.4931
G01 X26.7137 Y27.0176 Z-0.5156
G01 X26.7860 Y27.0839 Z-0.5382
G01 X26.8639 Y27.1436 Z-0.5608
G01 X26.9467 Y27.1964 Z-0.5833
G01 X27.0337 Y27.2417 Z-0.6059
G01 X27.1244 Y27.2792 Z-0.6285
G01 X27.2180 Y27.3087 Z-0.6510
G01 X27.3138 Y27.3300 Z-0.6736
G01 X27.4111 Y27.3428 Z-0.6962
G01 X27.5092 Y27.3471 Z-0.7188
G01 X27.6072 Y27.3428 Z-0.7413
G01 X27.7045 Y27.3300 Z-0.7639
G01 X27.8003 Y27.3087 Z-0.7865
G01 X27.8939 Y27.2792 Z-0.8090
G01 X27.9846 Y27.2417 Z-0.8316
G01 X28.0717 Y27.1964 Z-0.8542
G01 X28.1544 Y27.1436 Z-0.8767
G01 X28.2323 Y27.0839 Z-0.8993
G01 X28.3047 Y27.0176 Z-0.9219
G01 X28.3710 Y26.9452 Z-0.9444
G01 X28.4307 Y26.8674 Z-0.9670
G01 X28.4834 Y26.7846 Z-0.9896
G01 X28.5288 Y26.6975 Z-1.0122
G01 X28.5663 Y26.6069 Z-1.0347
G01 X28.5958 Y26.5133 Z-1.0573
G01 X28.6171 Y26.4174 Z-1.0799
G01 X28.6299 Y26.3201 Z-1.1024
G01 X28.6342 Y26.2221 Z-1.1250
G01 X28.6299 Y26.1240
G01 X28.6171 Y26.0267
G01 X28.5958 Y25.9309
G01 X28.5663 Y25.8373
G01 X28.5288 Y25.7466
G01 X28.4834 Y25.6596
G01 X28.4307 Y25.5768
G01 X28.3710 Y25.4989
G01 X28.3047 Y25.4266
G01 X28.2323 Y25.3603
G01 X28.1544 Y25.3005
G01 X28.0717 Y25.2478
G01 X27.9846 Y25.2025
G01 X27.8939 Y25.1649
G01 X27.8003 Y25.1354
G01 X27.7045 Y25.1142
G01 X27.6072 Y25.1014
G01 X27.5092 Y25.0971
G01 X27.4111 Y25.1014
G01 X27.3138 Y25.1142
G01 X27.2180 Y25.1354
G01 X27.1244 Y25.1649
G01 X27.0337 Y25.2025
G01 X26.9467 Y25.2478
G01 X26.8639 Y25.3005
G01 X26.7860 Y25.3603
G01 X26.7137 Y25.4266
G01 X26.6474 Y25.4989
G01 X26.5876 Y25.5768
G01 X26.5349 Y25.6596
G01 X26.4896 Y25.7466
G01 X26.4520 Y25.8373
G01 X26.4225 Y25.9309
G01 X26.4012 Y26.0267
G01 X26.3884 Y26.1240
G01 X26.3842 Y26.2221
G01 X26.3884 Y26.3201
G01 X26.4012 Y26.4174
G01 X26.4225 Y26.5133
G01 X26.4520 Y26.6069
G01 X26.4896 Y26.6975
G01 X26.5349 Y26.7846
G01 X26.5876 Y26.8674
G01 X26.6474 Y26.9452
G01 X26.7137 Y27.0176
G01 X26.7860 Y27.0839
G01 X26.8639 Y27.1436
G01 X26.9467 Y27.1964
G01 X27.0337 Y27.2417
G01 X27.1244 Y27.2792
G01 X27.2180 Y27.3087
G01 X27.3138 Y27.3300
G01 X27.4111 Y27.3428
G01 X27.5092 Y27.3471
G01 X27.6072 Y27.3428
G01 X27.7045 Y27.3300
G01 X27.8003 Y27.3087
G01 X27.8939 Y27.2792
G01 X27.9846 Y27.2417
G01 X28.0717 Y27.1964
G01 X28.1544 Y27.1436
G01 X28.2323 Y27.0839
G01 X28.3047 Y27.0176
G01 X28.3710 Y26.9452
G01 X28.4307 Y26.8674
G01 X28.4834 Y26.7846
G01 X28.5288 Y26.6975
G01 X28.5663 Y26.6069
G01 X28.5958 Y26.5133
G01 X28.6171 Y26.4174
G01 X28.6299 Y26.3201
G01 X28.6342 Y26.2221
G01 X28.6478 Y26.1637 F900
G01 X28.6584 Y26.1048
G01 X28.6659 Y26.0453
G01 X28.6703 Y25.9856
G01 X28.6716 Y25.9257
G01 X28.6698 Y25.8658
G01 X28.6648 Y25.8061
G01 X28.6568 Y25.7467
G01 X28.6329 Y25.6904
G01 X28.6063 Y25.6353
G01 X28.5770 Y25.5816
G01 X28.5451 Y25.5294
G01 X28.5106 Y25.4789
G01 X28.4738 Y25.4301
G01 X28.4346 Y25.3831
G01 X28.3931 Y25.3381
G01 X28.3487 Y25.2958
G01 X28.3022 Y25.2558
G01 X28.2538 Y25.2180
G01 X28.2037 Y25.1827
G01 X28.1518 Y25.1499
G01 X28.0984 Y25.1196
G01 X28.0436 Y25.0920
G01 X27.9875 Y25.0672
G01 X27.9303 Y25.0451
G01 X27.8720 Y25.0258
G01 X27.8129 Y25.0095
G01 X27.7530 Y24.9960
G01 X27.6926 Y24.9855
G01 X27.6317 Y24.9780
G01 X27.5705 Y24.9735
G01 X27.5092 Y24.9720
G01 X27.4478 Y24.9735
G01 X27.3866 Y24.9780
G01 X27.3257 Y24.9855
G01 X27.2653 Y24.9960
G01 X27.2054 Y25.0095
G01 X27.1463 Y25.0258
G01 X27.0880 Y25.0451
G01 X27.0308 Y25.0672
G01 X26.9747 Y25.0920
G01 X26.9199 Y25.1196
G01 X26.8665 Y25.1499
G01 X26.8147 Y25.1827
G01 X26.7645 Y25.2180
G01 X26.7161 Y25.2558
G01 X26.6697 Y25.2958
G01 X26.6252 Y25.3381
G01 X26.5829 Y25.3826
G01 X26.5428 Y25.4290
G01 X26.5051 Y25.4774
G01 X26.4698 Y25.5276
G01 X26.4369 Y25.5794
G01 X26.4067 Y25.6328
G01 X26.3791 Y25.6876
G01 X26.3542 Y25.7437
G01 X26.3322 Y25.8009
G01 X26.3129 Y25.8592
G01 X26.2965 Y25.9183
G01 X26.2831 Y25.9782
G01 X26.2726 Y26.0387
G01 X26.2651 Y26.0996
G01 X26.2606 Y26.1607
G01 X26.2591 Y26.2221
G01 X26.2606 Y26.2834
G01 X26.2651 Y26.3446
G01 X26.2726 Y26.4055
G01 X26.2831 Y26.4660
G01 X26.2965 Y26.5258
G01 X26.3129 Y26.5850
G01 X26.3322 Y26.6432
G01 X26.3542 Y26.7005
G01 X26.3791 Y26.7566
G01 X26.4067 Y26.8114
G01 X26.4369 Y26.8647
G01 X26.4698 Y26.9166
G01 X26.5051 Y26.9668
G01 X26.5428 Y27.0151
G01 X26.5829 Y27.0616
G01 X26.6252 Y27.1060
G01 X26.6697 Y27.1483
G01 X26.7161 Y27.1884
G01 X26.7645 Y27.2262
G01 X26.8147 Y27.2615
G01 X26.8665 Y27.2943
G01 X26.9199 Y27.3245
G01 X26.9747 Y27.3521
G01 X27.0308 Y27.3770
G01 X27.0880 Y27.3991
G01 X27.1463 Y27.4183
G01 X27.2054 Y27.4347
G01 X27.2653 Y27.4481
G01 X27.3257 Y27.4586
G01 X27.3866 Y27.4661
G01 X27.4478 Y27.4706
G01 X27.5092 Y27.4722
G01 X27.5705 Y27.4706
G01 X27.6317 Y27.4661
G01 X27.6926 Y27.4586
G01 X27.7530 Y27.4481
G01 X27.8129 Y27.4347
G01 X27.8720 Y27.4183
G01 X27.9303 Y27.3991
G01 X27.9875 Y27.3770
G01 X28.0436 Y27.3521
G01 X28.0984 Y27.3245
G01 X28.1518 Y27.2943
G01 X28.2037 Y27.2615
G01 X28.2538 Y27.2262
G01 X28.3022 Y27.1884
G01 X28.3487 Y27.1483
G01 X28.3931 Y27.1060
G01 X28.4354 Y27.0616
G01 X28.4755 Y27.0151
G01 X28.5132 Y26.9668
G01 X28.5486 Y26.9166
G01 X28.5814 Y26.8647
G01 X28.6116 Y26.8114
G01 X28.6392 Y26.7566
G01 X28.6641 Y26.7005
G01 X28.6862 Y26.6432
G01 X28.7054 Y26.5850
G01 X28.7218 Y26.5258
G01 X28.7352 Y26.4660
G01 X28.7457 Y26.4055
G01 X28.7532 Y26.3446
G01 X28.7577 Y26.2834
G01 X28.7592 Y26.2221
G01 X28.7557 Y26.1287
G01 X28.7453 Y26.0358
G01 X28.7279 Y25.9439
G01 X28.7037 Y25.8536
G01 X28.6728 Y25.7654
G01 X28.6354 Y25.6797
G01 X28.5918 Y25.5970
G01 X28.5420 Y25.5179
G01 X28.4865 Y25.4427
G01 X28.4255 Y25.3718
G01 X28.3594 Y25.3057
G01 X28.2886 Y25.2447
G01 X28.2133 Y25.1892
G01 X28.1342 Y25.1395
G01 X28.0515 Y25.0958
G01 X27.9659 Y25.0584
G01 X27.8776 Y25.0275
G01 X27.7873 Y25.0034
G01 X27.6955 Y24.9860
G01 X27.6026 Y24.9755
G01 X27.5092 Y24.9720
G01 X27.4157 Y24.9755
G01 X27.3228 Y24.9860
G01 X27.2310 Y25.0034
G01 X27.1407 Y25.0275
G01 X27.0525 Y25.0584
G01 X26.9668 Y25.0958
G01 X26.8841 Y25.1395
G01 X26.8050 Y25.1892
G01 X26.7298 Y25.2447
G01 X26.6589 Y25.3057
G01 X26.5928 Y25.3718
G01 X26.5318 Y25.4427
G01 X26.4763 Y25.5179
G01 X26.4266 Y25.5970
G01 X26.3829 Y25.6797
G01 X26.3455 Y25.7654
G01 X26.3146 Y25.8536
G01 X26.2904 Y25.9439
G01 X26.2730 Y26.0358
G01 X26.2626 Y26.1287
G01 X26.2591 Y26.2221
G01 X26.2626 Y26.3155
G01 X26.2730 Y26.4084
G01 X26.2904 Y26.5002
G01 X26.3146 Y26.5905
G01 X26.3455 Y26.6788
G01 X26.3829 Y26.7645
G01 X26.4266 Y26.8471
G01 X26.4763 Y26.9263
G01 X26.5318 Y27.0015
G01 X26.5928 Y27.0723
G01 X26.6589 Y27.1385
G01 X26.7298 Y27.1994
G01 X26.8050 Y27.2549
G01 X26.8841 Y27.3047
G01 X26.9668 Y27.3484
G01 X27.0525 Y27.3857
G01 X27.1407 Y27.4166
G01 X27.2310 Y27.4408
G01 X27.3228 Y27.4582
G01 X27.4157 Y27.4687
G01 X27.5092 Y27.4722
G01 X27.6026 Y27.4687
G01 X27.6955 Y27.4582
G01 X27.7873 Y27.4408
G01 X27.8776 Y27.4166
G01 X27.9659 Y27.3857
G01 X28.0515 Y27.3484
G01 X28.1342 Y27.3047
G01 X28.2133 Y27.2549
G01 X28.2886 Y27.1994
G01 X28.3594 Y27.1385
G01 X28.4255 Y27.0723
G01 X28.4865 Y27.0015
G01 X28.5420 Y26.9263
G01 X28.5918 Y26.8471
G01 X28.6354 Y26.7645
G01 X28.6728 Y26.6788
G01 X28.7037 Y26.5905
G01 X28.7279 Y26.5002
G01 X28.7453 Y26.4084
G01 X28.7557 Y26.3155
G01 X28.7592 Y26.2221
G01 X28.7547 Y26.1186
G01 X28.7412 Y26.0159
G01 X28.7188 Y25.9147
G01 X28.6876 Y25.8159
G01 X28.6480 Y25.7202
G01 X28.6001 Y25.6283
G01 X28.5445 Y25.5409
G01 X28.4814 Y25.4587
G01 X28.4114 Y25.3824
G01 X28.3350 Y25.3124
G01 X28.2528 Y25.2493
G01 X28.1655 Y25.1936
G01 X28.0736 Y25.1458
G01 X27.9779 Y25.1062
G01 X27.8791 Y25.0750
G01 X27.7779 Y25.0526
G01 X27.6752 Y25.0391
G01 X27.5717 Y25.0345
G01 X27.4682 Y25.0391
G01 X27.3655 Y25.0526
G01 X27.2643 Y25.0750
G01 X27.1655 Y25.1062
G01 X27.0698 Y25.1458
G01 X26.9779 Y25.1936
G01 X26.8906 Y25.2493
G01 X26.8084 Y25.3124
G01 X26.7320 Y25.3824
G01 X26.6620 Y25.4587
G01 X26.5989 Y25.5409
G01 X26.5433 Y25.6283
G01 X26.4954 Y25.7202
G01 X26.4558 Y25.8159
G01 X26.4246 Y25.9147
G01 X26.4022 Y26.0159
G01 X26.3887 Y26.1186
G01 X26.3842 Y26.2221
G01 X26.3884 Y26.3201
G01 X26.4012 Y26.4174
G01 X26.4225 Y26.5133
G01 X26.4520 Y26.6069
G01 X26.4896 Y26.6975
G01 X26.5349 Y26.7846
G01 X26.5876 Y26.8674
G01 X26.6474 Y26.9452
G01 X26.7137 Y27.0176
G01 X26.7860 Y27.0839
G01 X26.8639 Y27.1436
G01 X26.9467 Y27.1964
G01 X27.0337 Y27.2417
G01 X27.1244 Y27.2792
G01 X27.2180 Y27.3087
G01 X27.3138 Y27.3300
G01 X27.4111 Y27.3428
G01 X27.5092 Y27.3471
G01 X27.6072 Y27.3428
G01 X27.7045 Y27.3300
G01 X27.8003 Y27.3087
G01 X27.8939 Y27.2792
G01 X27.9846 Y27.2417
G01 X28.0717 Y27.1964
G01 X28.1544 Y27.1436
G01 X28.2323 Y27.0839
G01 X28.3047 Y27.0176
G01 X28.3710 Y26.9452
G01 X28.4307 Y26.8674
G01 X28.4834 Y26.7846
G01 X28.5288 Y26.6975
G01 X28.5663 Y26.6069
G01 X28.5958 Y26.5133
G01 X28.6171 Y26.4174
G01 X28.6299 Y26.3201
G01 X28.6342 Y26.2221
G01 X28.6299 Y26.1240 Z-1.1476 F400
G01 X28.6171 Y26.0267 Z-1.1701
G01 X28.5958 Y25.9309 Z-1.1927
G01 X28.5663 Y25.8373 Z-1.2153
G01 X28.5288 Y25.7466 Z-1.2378
G01 X28.4834 Y25.6596 Z-1.2604
G01 X28.4307 Y25.5768 Z-1.2830
G01 X28.3710 Y25.4989 Z-1.3056
G01 X28.3047 Y25.4266 Z-1.3281
G01 X28.2323 Y25.3603 Z-1.3507
G01 X28.1544 Y25.3005 Z-1.3733
G01 X28.0717 Y25.2478 Z-1.3958
G01 X27.9846 Y25.2025 Z-1.4184
G01 X27.8939 Y25.1649 Z-1.4410
G01 X27.8003 Y25.1354 Z-1.4635
G01 X27.7045 Y25.1142 Z-1.4861
G01 X27.6072 Y25.1014 Z-1.5087
G01 X27.5092 Y25.0971 Z-1.5313
G01 X27.4111 Y25.1014 Z-1.5538
G01 X27.3138 Y25.1142 Z-1.5764
G01 X27.2180 Y25.1354 Z-1.5990
G01 X27.1244 Y25.1649 Z-1.6215
G01 X27.0337 Y25.2025 Z-1.6441
G01 X26.9467 Y25.2478 Z-1.6667
G01 X26.8639 Y25.3005 Z-1.6892
G01 X26.7860 Y25.3603 Z-1.7118
G01 X26.7137 Y25.4266 Z-1.7344
G01 X26.6474 Y25.4989 Z-1.7569
G01 X26.5876 Y25.5768 Z-1.7795
G01 X26.5349 Y25.6596 Z-1.8021
G01 X26.4896 Y25.7466 Z-1.8247
G01 X26.4520 Y25.8373 Z-1.8472
G01 X26.4225 Y25.9309 Z-1.8698
G01 X26.4012 Y26.0267 Z-1.8924
G01 X26.3884 Y26.1240 Z-1.9149
G01 X26.3842 Y26.2221 Z-1.9375
G01 X26.3884 Y26.3201 Z-1.9601
G01 X26.4012 Y26.4174 Z-1.9826
G01 X26.4225 Y26.5133 Z-2.0052
G01 X26.4520 Y26.6069 Z-2.0278
G01 X26.4896 Y26.6975 Z-2.0503
G01 X26.5349 Y26.7846 Z-2.0729
G01 X26.5876 Y26.8674 Z-2.0955
G01 X26.6474 Y26.9452 Z-2.1181
G01 X26.7137 Y27.0176 Z-2.1406
G01 X26.7860 Y27.0839 Z-2.1632
G01 X26.8639 Y27.1436 Z-2.1858
G01 X26.9467 Y27.1964 Z-2.2083
G01 X27.0337 Y27.2417 Z-2.2309
G01 X27.1244 Y27.2792 Z-2.2535
G01 X27.2180 Y27.3087 Z-2.2760
G01 X27.3138 Y27.3300 Z-2.2986
G01 X27.4111 Y27.3428 Z-2.3212
G01 X27.5092 Y27.3471 Z-2.3438
G01 X27.6072 Y27.3428 Z-2.3663
G01 X27.7045 Y27.3300 Z-2.3889
G01 X27.8003 Y27.3087 Z-2.4115
G01 X27.8939 Y27.2792 Z-2.4340
G01 X27.9846 Y27.2417 Z-2.4566
G01 X28.0717 Y27.1964 Z-2.4792
G01 X28.1544 Y27.1436 Z-2.5017
G01 X28.2323 Y27.0839 Z-2.5243
G01 X28.3047 Y27.0176 Z-2.5469
G01 X28.3710 Y26.9452 Z-2.5694
G01 X28.4307 Y26.8674 Z-2.5920
G01 X28.4834 Y26.7846 Z-2.6146
G01 X28.5288 Y26.6975 Z-2.6372
G01 X28.5663 Y26.6069 Z-2.6597
G01 X28.5958 Y26.5133 Z-2.6823
G01 X28.6171 Y26.4174 Z-2.7049
G01 X28.6299 Y26.3201 Z-2.7274
G01 X28.6342 Y26.2221 Z-2.7500
G01 X28.6299 Y26.1240
G01 X28.6171 Y26.0267
G01 X28.5958 Y25.9309
G01 X28.5663 Y25.8373
G01 X28.5288 Y25.7466
G01 X28.4834 Y25.6596
G01 X28.4307 Y25.5768
G01 X28.3710 Y25.4989
G01 X28.3047 Y25.4266
G01 X28.2323 Y25.3603
G01 X28.1544 Y25.3005
G01 X28.0717 Y25.2478
G01 X27.9846 Y25.2025
G01 X27.8939 Y25.1649
G01 X27.8003 Y25.1354
G01 X27.7045 Y25.1142
G01 X27.6072 Y25.1014
G01 X27.5092 Y25.0971
G01 X27.4111 Y25.1014
G01 X27.3138 Y25.1142
G01 X27.2180 Y25.1354
G01 X27.1244 Y25.1649
G01 X27.0337 Y25.2025
G01 X26.9467 Y25.2478
G01 X26.8639 Y25.3005
G01 X26.7860 Y25.3603
G01 X26.7137 Y25.4266
G01 X26.6474 Y25.4989
G01 X26.5876 Y25.5768
G01 X26.5349 Y25.6596
G01 X26.4896 Y25.7466
G01 X26.4520 Y25.8373
G01 X26.4225 Y25.9309
G01 X26.4012 Y26.0267
G01 X26.3884 Y26.1240
G01 X26.3842 Y26.2221
G01 X26.3884 Y26.3201
G01 X26.4012 Y26.4174
G01 X26.4225 Y26.5133
G01 X26.4520 Y26.6069
G01 X26.4896 Y26.6975
G01 X26.5349 Y26.7846
G01 X26.5876 Y26.8674
G01 X26.6474 Y26.9452
G01 X26.7137 Y27.0176
G01 X26.7860 Y27.0839
G01 X26.8639 Y27.1436
G01 X26.9467 Y27.1964
G01 X27.0337 Y27.2417
G01 X27.1244 Y27.2792
G01 X27.2180 Y27.3087
G01 X27.3138 Y27.3300
G01 X27.4111 Y27.3428
G01 X27.5092 Y27.3471
G01 X27.6072 Y27.3428
G01 X27.7045 Y27.3300
G01 X27.8003 Y27.3087
G01 X27.8939 Y27.2792
G01 X27.9846 Y27.2417
G01 X28.0717 Y27.1964
G01 X28.1544 Y27.1436
G01 X28.2323 Y27.0839
G01 X28.3047 Y27.0176
G01 X28.3710 Y26.9452
G01 X28.4307 Y26.8674
G01 X28.4834 Y26.7846
G01 X28.5288 Y26.6975
G01 X28.5663 Y26.6069
G01 X28.5958 Y26.5133
G01 X28.6171 Y26.4174
G01 X28.6299 Y26.3201
G01 X28.6342 Y26.2221
G01 X28.6478 Y26.1637 F900
G01 X28.6584 Y26.1048
G01 X28.6659 Y26.0453
G01 X28.6703 Y25.9856
G01 X28.6716 Y25.9257
G01 X28.6698 Y25.8658
G01 X28.6648 Y25.8061
G01 X28.6568 Y25.7467
G01 X28.6329 Y25.6904
G01 X28.6063 Y25.6353
G01 X28.5770 Y25.5816
G01 X28.5451 Y25.5294
G01 X28.5106 Y25.4789
G01 X28.4738 Y25.4301
G01 X28.4346 Y25.3831
G01 X28.3931 Y25.3381
G01 X28.3487 Y25.2958
G01 X28.3022 Y25.2558
G01 X28.2538 Y25.2180
G01 X28.2037 Y25.1827
G01 X28.1518 Y25.1499
G01 X28.0984 Y25.1196
G01 X28.0436 Y25.0920
G01 X27.9875 Y25.0672
G01 X27.9303 Y25.0451
G01 X27.8720 Y25.0258
G01 X27.8129 Y25.0095
G01 X27.7530 Y24.9960
G01 X27.6926 Y24.9855
G01 X27.6317 Y24.9780
G01 X27.5705 Y24.9735
G01 X27.5092 Y24.9720
G01 X27.4478 Y24.9735
G01 X27.3866 Y24.9780
G01 X27.3257 Y24.9855
G01 X27.2653 Y24.9960
G01 X27.2054 Y25.0095
G01 X27.1463 Y25.0258
G01 X27.0880 Y25.0451
G01 X27.0308 Y25.0672
G01 X26.9747 Y25.0920
G01 X26.9199 Y25.1196
G01 X26.8665 Y25.1499
G01 X26.8147 Y25.1827
G01 X26.7645 Y25.2180
G01 X26.7161 Y25.2558
G01 X26.6697 Y25.2958
G01 X26.6252 Y25.3381
G01 X26.5829 Y25.3826
G01 X26.5428 Y25.4290
G01 X26.5051 Y25.4774
G01 X26.4698 Y25.5276
G01 X26.4369 Y25.5794
G01 X26.4067 Y25.6328
G01 X26.3791 Y25.6876
G01 X26.3542 Y25.7437
G01 X26.3322 Y25.8009
G01 X26.3129 Y25.8592
G01 X26.2965 Y25.9183
G01 X26.2831 Y25.9782
G01 X26.2726 Y26.0387
G01 X26.2651 Y26.0996
G01 X26.2606 Y26.1607
G01 X26.2591 Y26.2221
G01 X26.2606 Y26.2834
G01 X26.2651 Y26.3446
G01 X26.2726 Y26.4055
G01 X26.2831 Y26.4660
G01 X26.2965 Y26.5258
G01 X26.3129 Y26.5850
G01 X26.3322 Y26.6432
G01 X26.3542 Y26.7005
G01 X26.3791 Y26.7566
G01 X26.4067 Y26.8114
G01 X26.4369 Y26.8647
G01 X26.4698 Y26.9166
G01 X26.5051 Y26.9668
G01 X26.5428 Y27.0151
G01 X26.5829 Y27.0616
G01 X26.6252 Y27.1060
G01 X26.6697 Y27.1483
G01 X26.7161 Y27.1884
G01 X26.7645 Y27.2262
G01 X26.8147 Y27.2615
G01 X26.8665 Y27.2943
G01 X26.9199 Y27.3245
G01 X26.9747 Y27.3521
G01 X27.0308 Y27.3770
G01 X27.0880 Y27.3991
G01 X27.1463 Y27.4183
G01 X27.2054 Y27.4347
G01 X27.2653 Y27.4481
G01 X27.3257 Y27.4586
G01 X27.3866 Y27.4661
G01 X27.4478 Y27.4706
G01 X27.5092 Y27.4722
G01 X27.5705 Y27.4706
G01 X27.6317 Y27.4661
G01 X27.6926 Y27.4586
G01 X27.7530 Y27.4481
G01 X27.8129 Y27.4347
G01 X27.8720 Y27.4183
G01 X27.9303 Y27.3991
G01 X27.9875 Y27.3770
G01 X28.0436 Y27.3521
G01 X28.0984 Y27.3245
G01 X28.1518 Y27.2943
G01 X28.2037 Y27.2615
G01 X28.2538 Y27.2262
G01 X28.3022 Y27.1884
G01 X28.3487 Y27.1483
G01 X28.3931 Y27.1060
G01 X28.4354 Y27.0616
G01 X28.4755 Y27.0151
G01 X28.5132 Y26.9668
G01 X28.5486 Y26.9166
G01 X28.5814 Y26.8647
G01 X28.6116 Y26.8114
G01 X28.6392 Y26.7566
G01 X28.6641 Y26.7005
G01 X28.6862 Y26.6432
G01 X28.7054 Y26.5850
G01 X28.7218 Y26.5258
G01 X28.7352 Y26.4660
G01 X28.7457 Y26.4055
G01 X28.7532 Y26.3446
G01 X28.7577 Y26.2834
G01 X28.7592 Y26.2221
G01 X28.7557 Y26.1287
G01 X28.7453 Y26.0358
G01 X28.7279 Y25.9439
G01 X28.7037 Y25.8536
G01 X28.6728 Y25.7654
G01 X28.6354 Y25.6797
G01 X28.5918 Y25.5970
G01 X28.5420 Y25.5179
G01 X28.4865 Y25.4427
G01 X28.4255 Y25.3718
G01 X28.3594 Y25.3057
G01 X28.2886 Y25.2447
G01 X28.2133 Y25.1892
G01 X28.1342 Y25.1395
G01 X28.0515 Y25.0958
G01 X27.9659 Y25.0584
G01 X27.8776 Y25.0275
G01 X27.7873 Y25.0034
G01 X27.6955 Y24.9860
G01 X27.6026 Y24.9755
G01 X27.5092 Y24.9720
G01 X27.4157 Y24.9755
G01 X27.3228 Y24.9860
G01 X27.2310 Y25.0034
G01 X27.1407 Y25.0275
G01 X27.0525 Y25.0584
G01 X26.9668 Y25.0958
G01 X26.8841 Y25.1395
G01 X26.8050 Y25.1892
G01 X26.7298 Y25.2447
G01 X26.6589 Y25.3057
G01 X26.5928 Y25.3718
G01 X26.5318 Y25.4427
G01 X26.4763 Y25.5179
G01 X26.4266 Y25.5970
G01 X26.3829 Y25.6797
G01 X26.3455 Y25.7654
G01 X26.3146 Y25.8536
G01 X26.2904 Y25.9439
G01 X26.2730 Y26.0358
G01 X26.2626 Y26.1287
G01 X26.2591 Y26.2221
G01 X26.2626 Y26.3155
G01 X26.2730 Y26.4084
G01 X26.2904 Y26.5002
G01 X26.3146 Y26.5905
G01 X26.3455 Y26.6788
G01 X26.3829 Y26.7645
G01 X26.4266 Y26.8471
G01 X26.4763 Y26.9263
G01 X26.5318 Y27.0015
G01 X26.5928 Y27.0723
G01 X26.6589 Y27.1385
G01 X26.7298 Y27.1994
G01 X26.8050 Y27.2549
G01 X26.8841 Y27.3047
G01 X26.9668 Y27.3484
G01 X27.0525 Y27.3857
G01 X27.1407 Y27.4166
G01 X27.2310 Y27.4408
G01 X27.3228 Y27.4582
G01 X27.4157 Y27.4687
G01 X27.5092 Y27.4722
G01 X27.6026 Y27.4687
G01 X27.6955 Y27.4582
G01 X27.7873 Y27.4408
G01 X27.8776 Y27.4166
G01 X27.9659 Y27.3857
G01 X28.0515 Y27.3484
G01 X28.1342 Y27.3047
G01 X28.2133 Y27.2549
G01 X28.2886 Y27.1994
G01 X28.3594 Y27.1385
G01 X28.4255 Y27.0723
G01 X28.4865 Y27.0015
G01 X28.5420 Y26.9263
G01 X28.5918 Y26.8471
G01 X28.6354 Y26.7645
G01 X28.6728 Y26.6788
G01 X28.7037 Y26.5905
G01 X28.7279 Y26.5002
G01 X28.7453 Y26.4084
G01 X28.7557 Y26.3155
G01 X28.7592 Y26.2221
G01 X28.7547 Y26.1186
G01 X28.7412 Y26.0159
G01 X28.7188 Y25.9147
G01 X28.6876 Y25.8159
G01 X28.6480 Y25.7202
G01 X28.6001 Y25.6283
G01 X28.5445 Y25.5409
G01 X28.4814 Y25.4587
G01 X28.4114 Y25.3824
G01 X28.3350 Y25.3124
G01 X28.2528 Y25.2493
G01 X28.1655 Y25.1936
G01 X28.0736 Y25.1458
G01 X27.9779 Y25.1062
G01 X27.8791 Y25.0750
G01 X27.7779 Y25.0526
G01 X27.6752 Y25.0391
G01 X27.5717 Y25.0345
G01 X27.4682 Y25.0391
G01 X27.3655 Y25.0526
G01 X27.2643 Y25.0750
G01 X27.1655 Y25.1062
G01 X27.0698 Y25.1458
G01 X26.9779 Y25.1936
G01 X26.8906 Y25.2493
G01 X26.8084 Y25.3124
G01 X26.7320 Y25.3824
G01 X26.6620 Y25.4587
G01 X26.5989 Y25.5409
G01 X26.5433 Y25.6283
G01 X26.4954 Y25.7202
G01 X26.4558 Y25.8159
G01 X26.4246 Y25.9147
G01 X26.4022 Y26.0159
G01 X26.3887 Y26.1186
G01 X26.3842 Y26.2221
G01 X26.3884 Y26.3201
G01 X26.4012 Y26.4174
G01 X26.4225 Y26.5133
G01 X26.4520 Y26.6069
G01 X26.4896 Y26.6975
G01 X26.5349 Y26.7846
G01 X26.5876 Y26.8674
G01 X26.6474 Y26.9452
G01 X26.7137 Y27.0176
G01 X26.7860 Y27.0839
G01 X26.8639 Y27.1436
G01 X26.9467 Y27.1964
G01 X27.0337 Y27.2417
G01 X27.1244 Y27.2792
G01 X27.2180 Y27.3087
G01 X27.3138 Y27.3300
G01 X27.4111 Y27.3428
G01 X27.5092 Y27.3471
G01 X27.6072 Y27.3428
G01 X27.7045 Y27.3300
G01 X27.8003 Y27.3087
G01 X27.8939 Y27.2792
G01 X27.9846 Y27.2417
G01 X28.0717 Y27.1964
G01 X28.1544 Y27.1436
G01 X28.2323 Y27.0839
G01 X28.3047 Y27.0176
G01 X28.3710 Y26.9452
G01 X28.4307 Y26.8674
G01 X28.4834 Y26.7846
G01 X28.5288 Y26.6975
G01 X28.5663 Y26.6069
G01 X28.5958 Y26.5133
G01 X28.6171 Y26.4174
G01 X28.6299 Y26.3201
G01 X28.6342 Y26.2221
G01 X28.6299 Y26.1240 Z-2.7726 F400
G01 X28.6171 Y26.0267 Z-2.7951
G01 X28.5958 Y25.9309 Z-2.8177
G01 X28.5663 Y25.8373 Z-2.8403
G01 X28.5288 Y25.7466 Z-2.8628
G01 X28.4834 Y25.6596 Z-2.8854
G01 X28.4307 Y25.5768 Z-2.9080
G01 X28.3710 Y25.4989 Z-2.9306
G01 X28.3047 Y25.4266 Z-2.9531
G01 X28.2323 Y25.3603 Z-2.9757
G01 X28.1544 Y25.3005 Z-2.9983
G01 X28.0717 Y25.2478 Z-3.0208
G01 X27.9846 Y25.2025 Z-3.0434
G01 X27.8939 Y25.1649 Z-3.0660
G01 X27.8003 Y25.1354 Z-3.0885
G01 X27.7045 Y25.1142 Z-3.1111
G01 X27.6072 Y25.1014 Z-3.1337
G01 X27.5092 Y25.0971 Z-3.1563
G01 X27.4111 Y25.1014 Z-3.1788
G01 X27.3138 Y25.1142 Z-3.2014
G01 X27.2180 Y25.1354 Z-3.2240
G01 X27.1244 Y25.1649 Z-3.2465
G01 X27.0337 Y25.2025 Z-3.2691
G01 X26.9467 Y25.2478 Z-3.2917
G01 X26.8639 Y25.3005 Z-3.3142
G01 X26.7860 Y25.3603 Z-3.3368
G01 X26.7137 Y25.4266 Z-3.3594
G01 X26.6474 Y25.4989 Z-3.3819
G01 X26.5876 Y25.5768 Z-3.4045
G01 X26.5349 Y25.6596 Z-3.4271
G01 X26.4896 Y25.7466 Z-3.4497
G01 X26.4520 Y25.8373 Z-3.4722
G01 X26.4225 Y25.9309 Z-3.4948
G01 X26.4012 Y26.0267 Z-3.5174
G01 X26.3884 Y26.1240 Z-3.5399
G01 X26.3842 Y26.2221 Z-3.5625
G01 X26.3884 Y26.3201 Z-3.5851
G01 X26.4012 Y26.4174 Z-3.6076
G01 X26.4225 Y26.5133 Z-3.6302
G01 X26.4520 Y26.6069 Z-3.6528
G01 X26.4896 Y26.6975 Z-3.6753
G01 X26.5349 Y26.7846 Z-3.6979
G01 X26.5876 Y26.8674 Z-3.7205
G01 X26.6474 Y26.9452 Z-3.7431
G01 X26.7137 Y27.0176 Z-3.7656
G01 X26.7860 Y27.0839 Z-3.7882
G01 X26.8639 Y27.1436 Z-3.8108
G01 X26.9467 Y27.1964 Z-3.8333
G01 X27.0337 Y27.2417 Z-3.8559
G01 X27.1244 Y27.2792 Z-3.8785
G01 X27.2180 Y27.3087 Z-3.9010
G01 X27.3138 Y27.3300 Z-3.9236
G01 X27.4111 Y27.3428 Z-3.9462
G01 X27.5092 Y27.3471 Z-3.9688
G01 X27.6072 Y27.3428 Z-3.9913
G01 X27.7045 Y27.3300 Z-4.0139
G01 X27.8003 Y27.3087 Z-4.0365
G01 X27.8939 Y27.2792 Z-4.0590
G01 X27.9846 Y27.2417 Z-4.0816
G01 X28.0717 Y27.1964 Z-4.1042
G01 X28.1544 Y27.1436 Z-4.1267
G01 X28.2323 Y27.0839 Z-4.1493
G01 X28.3047 Y27.0176 Z-4.1719
G01 X28.3710 Y26.9452 Z-4.1944
G01 X28.4307 Y26.8674 Z-4.2170
G01 X28.4834 Y26.7846 Z-4.2396
G01 X28.5288 Y26.6975 Z-4.2622
G01 X28.5663 Y26.6069 Z-4.2847
G01 X28.5958 Y26.5133 Z-4.3073
G01 X28.6171 Y26.4174 Z-4.3299
G01 X28.6299 Y26.3201 Z-4.3524
G01 X28.6342 Y26.2221 Z-4.3750
G01 X28.6299 Y26.1240
G01 X28.6171 Y26.0267
G01 X28.5958 Y25.9309
G01 X28.5663 Y25.8373
G01 X28.5288 Y25.7466
G01 X28.4834 Y25.6596
G01 X28.4307 Y25.5768
G01 X28.3710 Y25.4989
G01 X28.3047 Y25.4266
G01 X28.2323 Y25.3603
G01 X28.1544 Y25.3005
G01 X28.0717 Y25.2478
G01 X27.9846 Y25.2025
G01 X27.8939 Y25.1649
G01 X27.8003 Y25.1354
G01 X27.7045 Y25.1142
G01 X27.6072 Y25.1014
G01 X27.5092 Y25.0971
G01 X27.4111 Y25.1014
G01 X27.3138 Y25.1142
G01 X27.2180 Y25.1354
G01 X27.1244 Y25.1649
G01 X27.0337 Y25.2025
G01 X26.9467 Y25.2478
G01 X26.8639 Y25.3005
G01 X26.7860 Y25.3603
G01 X26.7137 Y25.4266
G01 X26.6474 Y25.4989
G01 X26.5876 Y25.5768
G01 X26.5349 Y25.6596
G01 X26.4896 Y25.7466
G01 X26.4520 Y25.8373
G01 X26.4225 Y25.9309
G01 X26.4012 Y26.0267
G01 X26.3884 Y26.1240
G01 X26.3842 Y26.2221
G01 X26.3884 Y26.3201
G01 X26.4012 Y26.4174
G01 X26.4225 Y26.5133
G01 X26.4520 Y26.6069
G01 X26.4896 Y26.6975
G01 X26.5349 Y26.7846
G01 X26.5876 Y26.8674
G01 X26.6474 Y26.9452
G01 X26.7137 Y27.0176
G01 X26.7860 Y27.0839
G01 X26.8639 Y27.1436
G01 X26.9467 Y27.1964
G01 X27.0337 Y27.2417
G01 X27.1244 Y27.2792
G01 X27.2180 Y27.3087
G01 X27.3138 Y27.3300
G01 X27.4111 Y27.3428
G01 X27.5092 Y27.3471
G01 X27.6072 Y27.3428
G01 X27.7045 Y27.3300
G01 X27.8003 Y27.3087
G01 X27.8939 Y27.2792
G01 X27.9846 Y27.2417
G01 X28.0717 Y27.1964
G01 X28.1544 Y27.1436
G01 X28.2323 Y27.0839
G01 X28.3047 Y27.0176
G01 X28.3710 Y26.9452
G01 X28.4307 Y26.8674
G01 X28.4834 Y26.7846
G01 X28.5288 Y26.6975
G01 X28.5663 Y26.6069
G01 X28.5958 Y26.5133
G01 X28.6171 Y26.4174
G01 X28.6299 Y26.3201
G01 X28.6342 Y26.2221
G01 X28.6478 Y26.1637 F900
G01 X28.6584 Y26.1048
G01 X28.6659 Y26.0453
G01 X28.6703 Y25.9856
G01 X28.6716 Y25.9257
G01 X28.6698 Y25.8658
G01 X28.6648 Y25.8061
G01 X28.6568 Y25.7467
G01 X28.6329 Y25.6904
G01 X28.6063 Y25.6353
G01 X28.5770 Y25.5816
G01 X28.5451 Y25.5294
G01 X28.5106 Y25.4789
G01 X28.4738 Y25.4301
G01 X28.4346 Y25.3831
G01 X28.3931 Y25.3381
G01 X28.3487 Y25.2958
G01 X28.3022 Y25.2558
G01 X28.2538 Y25.2180
G01 X28.2037 Y25.1827
G01 X28.1518 Y25.1499
G01 X28.0984 Y25.1196
G01 X28.0436 Y25.0920
G01 X27.9875 Y25.0672
G01 X27.9303 Y25.0451
G01 X27.8720 Y25.0258
G01 X27.8129 Y25.0095
G01 X27.7530 Y24.9960
G01 X27.6926 Y24.9855
G01 X27.6317 Y24.9780
G01 X27.5705 Y24.9735
G01 X27.5092 Y24.9720
G01 X27.4478 Y24.9735
G01 X27.3866 Y24.9780
G01 X27.3257 Y24.9855
G01 X27.2653 Y24.9960
G01 X27.2054 Y25.0095
G01 X27.1463 Y25.0258
G01 X27.0880 Y25.0451
G01 X27.0308 Y25.0672
G01 X26.9747 Y25.0920
G01 X26.9199 Y25.1196
G01 X26.8665 Y25.1499
G01 X26.8147 Y25.1827
G01 X26.7645 Y25.2180
G01 X26.7161 Y25.2558
G01 X26.6697 Y25.2958
G01 X26.6252 Y25.3381
G01 X26.5829 Y25.3826
G01 X26.5428 Y25.4290
G01 X26.5051 Y25.4774
G01 X26.4698 Y25.5276
G01 X26.4369 Y25.5794
G01 X26.4067 Y25.6328
G01 X26.3791 Y25.6876
G01 X26.3542 Y25.7437
G01 X26.3322 Y25.8009
G01 X26.3129 Y25.8592
G01 X26.2965 Y25.9183
G01 X26.2831 Y25.9782
G01 X26.2726 Y26.0387
G01 X26.2651 Y26.0996
G01 X26.2606 Y26.1607
G01 X26.2591 Y26.2221
G01 X26.2606 Y26.2834
G01 X26.2651 Y26.3446
G01 X26.2726 Y26.4055
G01 X26.2831 Y26.4660
G01 X26.2965 Y26.5258
G01 X26.3129 Y26.5850
G01 X26.3322 Y26.6432
G01 X26.3542 Y26.7005
G01 X26.3791 Y26.7566
G01 X26.4067 Y26.8114
G01 X26.4369 Y26.8647
G01 X26.4698 Y26.9166
G01 X26.5051 Y26.9668
G01 X26.5428 Y27.0151
G01 X26.5829 Y27.0616
G01 X26.6252 Y27.1060
G01 X26.6697 Y27.1483
G01 X26.7161 Y27.1884
G01 X26.7645 Y27.2262
G01 X26.8147 Y27.2615
G01 X26.8665 Y27.2943
G01 X26.9199 Y27.3245
G01 X26.9747 Y27.3521
G01 X27.0308 Y27.3770
G01 X27.0880 Y27.3991
G01 X27.1463 Y27.4183
G01 X27.2054 Y27.4347
G01 X27.2653 Y27.4481
G01 X27.3257 Y27.4586
G01 X27.3866 Y27.4661
G01 X27.4478 Y27.4706
G01 X27.5092 Y27.4722
G01 X27.5705 Y27.4706
G01 X27.6317 Y27.4661
G01 X27.6926 Y27.4586
G01 X27.7530 Y27.4481
G01 X27.8129 Y27.4347
G01 X27.8720 Y27.4183
G01 X27.9303 Y27.3991
G01 X27.9875 Y27.3770
G01 X28.0436 Y27.3521
G01 X28.0984 Y27.3245
G01 X28.1518 Y27.2943
G01 X28.2037 Y27.2615
G01 X28.2538 Y27.2262
G01 X28.3022 Y27.1884
G01 X28.3487 Y27.1483
G01 X28.3931 Y27.1060
G01 X28.4354 Y27.0616
G01 X28.4755 Y27.0151
G01 X28.5132 Y26.9668
G01 X28.5486 Y26.9166
G01 X28.5814 Y26.8647
G01 X28.6116 Y26.8114
G01 X28.6392 Y26.7566
G01 X28.6641 Y26.7005
G01 X28.6862 Y26.6432
G01 X28.7054 Y26.5850
G01 X28.7218 Y26.5258
G01 X28.7352 Y26.4660
G01 X28.7457 Y26.4055
G01 X28.7532 Y26.3446
G01 X28.7577 Y26.2834
G01 X28.7592 Y26.2221
G01 X28.7557 Y26.1287
G01 X28.7453 Y26.0358
G01 X28.7279 Y25.9439
G01 X28.7037 Y25.8536
G01 X28.6728 Y25.7654
G01 X28.6354 Y25.6797
G01 X28.5918 Y25.5970
G01 X28.5420 Y25.5179
G01 X28.4865 Y25.4427
G01 X28.4255 Y25.3718
G01 X28.3594 Y25.3057
G01 X28.2886 Y25.2447
G01 X28.2133 Y25.1892
G01 X28.1342 Y25.1395
G01 X28.0515 Y25.0958
G01 X27.9659 Y25.0584
G01 X27.8776 Y25.0275
G01 X27.7873 Y25.0034
G01 X27.6955 Y24.9860
G01 X27.6026 Y24.9755
G01 X27.5092 Y24.9720
G01 X27.4157 Y24.9755
G01 X27.3228 Y24.9860
G01 X27.2310 Y25.0034
G01 X27.1407 Y25.0275
G01 X27.0525 Y25.0584
G01 X26.9668 Y25.0958
G01 X26.8841 Y25.1395
G01 X26.8050 Y25.1892
G01 X26.7298 Y25.2447
G01 X26.6589 Y25.3057
G01 X26.5928 Y25.3718
G01 X26.5318 Y25.4427
G01 X26.4763 Y25.5179
G01 X26.4266 Y25.5970
G01 X26.3829 Y25.6797
G01 X26.3455 Y25.7654
G01 X26.3146 Y25.8536
G01 X26.2904 Y25.9439
G01 X26.2730 Y26.0358
G01 X26.2626 Y26.1287
G01 X26.2591 Y26.2221
G01 X26.2626 Y26.3155
G01 X26.2730 Y26.4084
G01 X26.2904 Y26.5002
G01 X26.3146 Y26.5905
G01 X26.3455 Y26.6788
G01 X26.3829 Y26.7645
G01 X26.4266 Y26.8471
G01 X26.4763 Y26.9263
G01 X26.5318 Y27.0015
G01 X26.5928 Y27.0723
G01 X26.6589 Y27.1385
G01 X26.7298 Y27.1994
G01 X26.8050 Y27.2549
G01 X26.8841 Y27.3047
G01 X26.9668 Y27.3484
G01 X27.0525 Y27.3857
G01 X27.1407 Y27.4166
G01 X27.2310 Y27.4408
G01 X27.3228 Y27.4582
G01 X27.4157 Y27.4687
G01 X27.5092 Y27.4722
G01 X27.6026 Y27.4687
G01 X27.6955 Y27.4582
G01 X27.7873 Y27.4408
G01 X27.8776 Y27.4166
G01 X27.9659 Y27.3857
G01 X28.0515 Y27.3484
G01 X28.1342 Y27.3047
G01 X28.2133 Y27.2549
G01 X28.2886 Y27.1994
G01 X28.3594 Y27.1385
G01 X28.4255 Y27.0723
G01 X28.4865 Y27.0015
G01 X28.5420 Y26.9263
G01 X28.5918 Y26.8471
G01 X28.6354 Y26.7645
G01 X28.6728 Y26.6788
G01 X28.7037 Y26.5905
G01 X28.7279 Y26.5002
G01 X28.7453 Y26.4084
G01 X28.7557 Y26.3155
G01 X28.7592 Y26.2221
G01 X28.7547 Y26.1186
G01 X28.7412 Y26.0159
G01 X28.7188 Y25.9147
G01 X28.6876 Y25.8159
G01 X28.6480 Y25.7202
G01 X28.6001 Y25.6283
G01 X28.5445 Y25.5409
G01 X28.4814 Y25.4587
G01 X28.4114 Y25.3824
G01 X28.3350 Y25.3124
G01 X28.2528 Y25.2493
G01 X28.1655 Y25.1936
G01 X28.0736 Y25.1458
G01 X27.9779 Y25.1062
G01 X27.8791 Y25.0750
G01 X27.7779 Y25.0526
G01 X27.6752 Y25.0391
G01 X27.5717 Y25.0345
G01 X27.4682 Y25.0391
G01 X27.3655 Y25.0526
G01 X27.2643 Y25.0750
G01 X27.1655 Y25.1062
G01 X27.0698 Y25.1458
G01 X26.9779 Y25.1936
G01 X26.8906 Y25.2493
G01 X26.8084 Y25.3124
G01 X26.7320 Y25.3824
G01 X26.6620 Y25.4587
G01 X26.5989 Y25.5409
G01 X26.5433 Y25.6283
G01 X26.4954 Y25.7202
G01 X26.4558 Y25.8159
G01 X26.4246 Y25.9147
G01 X26.4022 Y26.0159
G01 X26.3887 Y26.1186
G01 X26.3842 Y26.2221
G01 X26.3884 Y26.3201
G01 X26.4012 Y26.4174
G01 X26.4225 Y26.5133
G01 X26.4520 Y26.6069
G01 X26.4896 Y26.6975
G01 X26.5349 Y26.7846
G01 X26.5876 Y26.8674
G01 X26.6474 Y26.9452
G01 X26.7137 Y27.0176
G01 X26.7860 Y27.0839
G01 X26.8639 Y27.1436
G01 X26.9467 Y27.1964
G01 X27.0337 Y27.2417
G01 X27.1244 Y27.2792
G01 X27.2180 Y27.3087
G01 X27.3138 Y27.3300
G01 X27.4111 Y27.3428
G01 X27.5092 Y27.3471
G01 X27.6072 Y27.3428
G01 X27.7045 Y27.3300
G01 X27.8003 Y27.3087
G01 X27.8939 Y27.2792
G01 X27.9846 Y27.2417
G01 X28.0717 Y27.1964
G01 X28.1544 Y27.1436
G01 X28.2323 Y27.0839
G01 X28.3047 Y27.0176
G01 X28.3710 Y26.9452
G01 X28.4307 Y26.8674
G01 X28.4834 Y26.7846
G01 X28.5288 Y26.6975
G01 X28.5663 Y26.6069
G01 X28.5958 Y26.5133
G01 X28.6171 Y26.4174
G01 X28.6299 Y26.3201
G01 X28.6342 Y26.2221
G01 X28.6299 Y26.1240 Z-4.3976 F400
G01 X28.6171 Y26.0267 Z-4.4201
G01 X28.5958 Y25.9309 Z-4.4427
G01 X28.5663 Y25.8373 Z-4.4653
G01 X28.5288 Y25.7466 Z-4.4878
G01 X28.4834 Y25.6596 Z-4.5104
G01 X28.4307 Y25.5768 Z-4.5330
G01 X28.3710 Y25.4989 Z-4.5556
G01 X28.3047 Y25.4266 Z-4.5781
G01 X28.2323 Y25.3603 Z-4.6007
G01 X28.1544 Y25.3005 Z-4.6233
G01 X28.0717 Y25.2478 Z-4.6458
G01 X27.9846 Y25.2025 Z-4.6684
G01 X27.8939 Y25.1649 Z-4.6910
G01 X27.8003 Y25.1354 Z-4.7135
G01 X27.7045 Y25.1142 Z-4.7361
G01 X27.6072 Y25.1014 Z-4.7587
G01 X27.5092 Y25.0971 Z-4.7813
G01 X27.4111 Y25.1014 Z-4.8038
G01 X27.3138 Y25.1142 Z-4.8264
G01 X27.2180 Y25.1354 Z-4.8490
G01 X27.1244 Y25.1649 Z-4.8715
G01 X27.0337 Y25.2025 Z-4.8941
G01 X26.9467 Y25.2478 Z-4.9167
G01 X26.8639 Y25.3005 Z-4.9392
G01 X26.7860 Y25.3603 Z-4.9618
G01 X26.7137 Y25.4266 Z-4.9844
G01 X26.6474 Y25.4989 Z-5.0069
G01 X26.5876 Y25.5768 Z-5.0295
G01 X26.5349 Y25.6596 Z-5.0521
G01 X26.4896 Y25.7466 Z-5.0747
G01 X26.4520 Y25.8373 Z-5.0972
G01 X26.4225 Y25.9309 Z-5.1198
G01 X26.4012 Y26.0267 Z-5.1424
G01 X26.3884 Y26.1240 Z-5.1649
G01 X26.3842 Y26.2221 Z-5.1875
G01 X26.3884 Y26.3201 Z-5.2101
G01 X26.4012 Y26.4174 Z-5.2326
G01 X26.4225 Y26.5133 Z-5.2552
G01 X26.4520 Y26.6069 Z-5.2778
G01 X26.4896 Y26.6975 Z-5.3003
G01 X26.5349 Y26.7846 Z-5.3229
G01 X26.5876 Y26.8674 Z-5.3455
G01 X26.6474 Y26.9452 Z-5.3681
G01 X26.7137 Y27.0176 Z-5.3906
G01 X26.7860 Y27.0839 Z-5.4132
G01 X26.8639 Y27.1436 Z-5.4358
G01 X26.9467 Y27.1964 Z-5.4583
G01 X27.0337 Y27.2417 Z-5.4809
G01 X27.1244 Y27.2792 Z-5.5035
G01 X27.2180 Y27.3087 Z-5.5260
G01 X27.3138 Y27.3300 Z-5.5486
G01 X27.4111 Y27.3428 Z-5.5712
G01 X27.5092 Y27.3471 Z-5.5938
G01 X27.6072 Y27.3428 Z-5.6163
G01 X27.7045 Y27.3300 Z-5.6389
G01 X27.8003 Y27.3087 Z-5.6615
G01 X27.8939 Y27.2792 Z-5.6840
G01 X27.9846 Y27.2417 Z-5.7066
G01 X28.0717 Y27.1964 Z-5.7292
G01 X28.1544 Y27.1436 Z-5.7517
G01 X28.2323 Y27.0839 Z-5.7743
G01 X28.3047 Y27.0176 Z-5.7969
G01 X28.3710 Y26.9452 Z-5.8194
G01 X28.4307 Y26.8674 Z-5.8420
G01 X28.4834 Y26.7846 Z-5.8646
G01 X28.5288 Y26.6975 Z-5.8872
G01 X28.5663 Y26.6069 Z-5.9097
G01 X28.5958 Y26.5133 Z-5.9323
G01 X28.6171 Y26.4174 Z-5.9549
G01 X28.6299 Y26.3201 Z-5.9774
G01 X28.6342 Y26.2221 Z-6.0000
G01 X28.6299 Y26.1240
G01 X28.6171 Y26.0267
G01 X28.5958 Y25.9309
G01 X28.5663 Y25.8373
G01 X28.5288 Y25.7466
G01 X28.4834 Y25.6596
G01 X28.4307 Y25.5768
G01 X28.3710 Y25.4989
G01 X28.3047 Y25.4266
G01 X28.2323 Y25.3603
G01 X28.1544 Y25.3005
G01 X28.0717 Y25.2478
G01 X27.9846 Y25.2025
G01 X27.8939 Y25.1649
G01 X27.8003 Y25.1354
G01 X27.7045 Y25.1142
G01 X27.6072 Y25.1014
G01 X27.5092 Y25.0971
G01 X27.4111 Y25.1014
G01 X27.3138 Y25.1142
G01 X27.2180 Y25.1354
G01 X27.1244 Y25.1649
G01 X27.0337 Y25.2025
G01 X26.9467 Y25.2478
G01 X26.8639 Y25.3005
G01 X26.7860 Y25.3603
G01 X26.7137 Y25.4266
G01 X26.6474 Y25.4989
G01 X26.5876 Y25.5768
G01 X26.5349 Y25.6596
G01 X26.4896 Y25.7466
G01 X26.4520 Y25.8373
G01 X26.4225 Y25.9309
G01 X26.4012 Y26.0267
G01 X26.3884 Y26.1240
G01 X26.3842 Y26.2221
G01 X26.3884 Y26.3201
G01 X26.4012 Y26.4174
G01 X26.4225 Y26.5133
G01 X26.4520 Y26.6069
G01 X26.4896 Y26.6975
G01 X26.5349 Y26.7846
G01 X26.5876 Y26.8674
G01 X26.6474 Y26.9452
G01 X26.7137 Y27.0176
G01 X26.7860 Y27.0839
G01 X26.8639 Y27.1436
G01 X26.9467 Y27.1964
G01 X27.0337 Y27.2417
G01 X27.1244 Y27.2792
G01 X27.2180 Y27.3087
G01 X27.3138 Y27.3300
G01 X27.4111 Y27.3428
G01 X27.5092 Y27.3471
G01 X27.6072 Y27.3428
G01 X27.7045 Y27.3300
G01 X27.8003 Y27.3087
G01 X27.8939 Y27.2792
G01 X27.9846 Y27.2417
G01 X28.0717 Y27.1964
G01 X28.1544 Y27.1436
G01 X28.2323 Y27.0839
G01 X28.3047 Y27.0176
G01 X28.3710 Y26.9452
G01 X28.4307 Y26.8674
G01 X28.4834 Y26.7846
G01 X28.5288 Y26.6975
G01 X28.5663 Y26.6069
G01 X28.5958 Y26.5133
G01 X28.6171 Y26.4174
G01 X28.6299 Y26.3201
G01 X28.6342 Y26.2221
G01 X28.6478 Y26.1637 F900
G01 X28.6584 Y26.1048
G01 X28.6659 Y26.0453
G01 X28.6703 Y25.9856
G01 X28.6716 Y25.9257
G01 X28.6698 Y25.8658
G01 X28.6648 Y25.8061
G01 X28.6568 Y25.7467
G01 X28.6329 Y25.6904
G01 X28.6063 Y25.6353
G01 X28.5770 Y25.5816
G01 X28.5451 Y25.5294
G01 X28.5106 Y25.4789
G01 X28.4738 Y25.4301
G01 X28.4346 Y25.3831
G01 X28.3931 Y25.3381
G01 X28.3487 Y25.2958
G01 X28.3022 Y25.2558
G01 X28.2538 Y25.2180
G01 X28.2037 Y25.1827
G01 X28.1518 Y25.1499
G01 X28.0984 Y25.1196
G01 X28.0436 Y25.0920
G01 X27.9875 Y25.0672
G01 X27.9303 Y25.0451
G01 X27.8720 Y25.0258
G01 X27.8129 Y25.0095
G01 X27.7530 Y24.9960
G01 X27.6926 Y24.9855
G01 X27.6317 Y24.9780
G01 X27.5705 Y24.9735
G01 X27.5092 Y24.9720
G01 X27.4478 Y24.9735
G01 X27.3866 Y24.9780
G01 X27.3257 Y24.9855
G01 X27.2653 Y24.9960
G01 X27.2054 Y25.0095
G01 X27.1463 Y25.0258
G01 X27.0880 Y25.0451
G01 X27.0308 Y25.0672
G01 X26.9747 Y25.0920
G01 X26.9199 Y25.1196
G01 X26.8665 Y25.1499
G01 X26.8147 Y25.1827
G01 X26.7645 Y25.2180
G01 X26.7161 Y25.2558
G01 X26.6697 Y25.2958
G01 X26.6252 Y25.3381
G01 X26.5829 Y25.3826
G01 X26.5428 Y25.4290
G01 X26.5051 Y25.4774
G01 X26.4698 Y25.5276
G01 X26.4369 Y25.5794
G01 X26.4067 Y25.6328
G01 X26.3791 Y25.6876
G01 X26.3542 Y25.7437
G01 X26.3322 Y25.8009
G01 X26.3129 Y25.8592
G01 X26.2965 Y25.9183
G01 X26.2831 Y25.9782
G01 X26.2726 Y26.0387
G01 X26.2651 Y26.0996
G01 X26.2606 Y26.1607
G01 X26.2591 Y26.2221
G01 X26.2606 Y26.2834
G01 X26.2651 Y26.3446
G01 X26.2726 Y26.4055
G01 X26.2831 Y26.4660
G01 X26.2965 Y26.5258
G01 X26.3129 Y26.5850
G01 X26.3322 Y26.6432
G01 X26.3542 Y26.7005
G01 X26.3791 Y26.7566
G01 X26.4067 Y26.8114
G01 X26.4369 Y26.8647
G01 X26.4698 Y26.9166
G01 X26.5051 Y26.9668
G01 X26.5428 Y27.0151
G01 X26.5829 Y27.0616
G01 X26.6252 Y27.1060
G01 X26.6697 Y27.1483
G01 X26.7161 Y27.1884
G01 X26.7645 Y27.2262
G01 X26.8147 Y27.2615
G01 X26.8665 Y27.2943
G01 X26.9199 Y27.3245
G01 X26.9747 Y27.3521
G01 X27.0308 Y27.3770
G01 X27.0880 Y27.3991
G01 X27.1463 Y27.4183
G01 X27.2054 Y27.4347
G01 X27.2653 Y27.4481
G01 X27.3257 Y27.4586
G01 X27.3866 Y27.4661
G01 X27.4478 Y27.4706
G01 X27.5092 Y27.4722
G01 X27.5705 Y27.4706
G01 X27.6317 Y27.4661
G01 X27.6926 Y27.4586
G01 X27.7530 Y27.4481
G01 X27.8129 Y27.4347
G01 X27.8720 Y27.4183
G01 X27.9303 Y27.3991
G01 X27.9875 Y27.3770
G01 X28.0436 Y27.3521
G01 X28.0984 Y27.3245
G01 X28.1518 Y27.2943
G01 X28.2037 Y27.2615
G01 X28.2538 Y27.2262
G01 X28.3022 Y27.1884
G01 X28.3487 Y27.1483
G01 X28.3931 Y27.1060
G01 X28.4354 Y27.0616
G01 X28.4755 Y27.0151
G01 X28.5132 Y26.9668
G01 X28.5486 Y26.9166
G01 X28.5814 Y26.8647
G01 X28.6116 Y26.8114
G01 X28.6392 Y26.7566
G01 X28.6641 Y26.7005
G01 X28.6862 Y26.6432
G01 X28.7054 Y26.5850
G01 X28.7218 Y26.5258
G01 X28.7352 Y26.4660
G01 X28.7457 Y26.4055
G01 X28.7532 Y26.3446
G01 X28.7577 Y26.2834
G01 X28.7592 Y26.2221
G01 X28.7557 Y26.1287
G01 X28.7453 Y26.0358
G01 X28.7279 Y25.9439
G01 X28.7037 Y25.8536
G01 X28.6728 Y25.7654
G01 X28.6354 Y25.6797
G01 X28.5918 Y25.5970
G01 X28.5420 Y25.5179
G01 X28.4865 Y25.4427
G01 X28.4255 Y25.3718
G01 X28.3594 Y25.3057
G01 X28.2886 Y25.2447
G01 X28.2133 Y25.1892
G01 X28.1342 Y25.1395
G01 X28.0515 Y25.0958
G01 X27.9659 Y25.0584
G01 X27.8776 Y25.0275
G01 X27.7873 Y25.0034
G01 X27.6955 Y24.9860
G01 X27.6026 Y24.9755
G01 X27.5092 Y24.9720
G01 X27.4157 Y24.9755
G01 X27.3228 Y24.9860
G01 X27.2310 Y25.0034
G01 X27.1407 Y25.0275
G01 X27.0525 Y25.0584
G01 X26.9668 Y25.0958
G01 X26.8841 Y25.1395
G01 X26.8050 Y25.1892
G01 X26.7298 Y25.2447
G01 X26.6589 Y25.3057
G01 X26.5928 Y25.3718
G01 X26.5318 Y25.4427
G01 X26.4763 Y25.5179
G01 X26.4266 Y25.5970
G01 X26.3829 Y25.6797
G01 X26.3455 Y25.7654
G01 X26.3146 Y25.8536
G01 X26.2904 Y25.9439
G01 X26.2730 Y26.0358
G01 X26.2626 Y26.1287
G01 X26.2591 Y26.2221
G01 X26.2626 Y26.3155
G01 X26.2730 Y26.4084
G01 X26.2904 Y26.5002
G01 X26.3146 Y26.5905
G01 X26.3455 Y26.6788
G01 X26.3829 Y26.7645
G01 X26.4266 Y26.8471
G01 X26.4763 Y26.9263
G01 X26.5318 Y27.0015
G01 X26.5928 Y27.0723
G01 X26.6589 Y27.1385
G01 X26.7298 Y27.1994
G01 X26.8050 Y27.2549
G01 X26.8841 Y27.3047
G01 X26.9668 Y27.3484
G01 X27.0525 Y27.3857
G01 X27.1407 Y27.4166
G01 X27.2310 Y27.4408
G01 X27.3228 Y27.4582
G01 X27.4157 Y27.4687
G01 X27.5092 Y27.4722
G01 X27.6026 Y27.4687
G01 X27.6955 Y27.4582
G01 X27.7873 Y27.4408
G01 X27.8776 Y27.4166
G01 X27.9659 Y27.3857
G01 X28.0515 Y27.3484
G01 X28.1342 Y27.3047
G01 X28.2133 Y27.2549
G01 X28.2886 Y27.1994
G01 X28.3594 Y27.1385
G01 X28.4255 Y27.0723
G01 X28.4865 Y27.0015
G01 X28.5420 Y26.9263
G01 X28.5918 Y26.8471
G01 X28.6354 Y26.7645
G01 X28.6728 Y26.6788
G01 X28.7037 Y26.5905
G01 X28.7279 Y26.5002
G01 X28.7453 Y26.4084
G01 X28.7557 Y26.3155
G01 X28.7592 Y26.2221
G01 X28.7554 Y26.1240 Z-5.9750 F400
G01 X28.7438 Y26.0265 Z-5.9500
G01 X28.7247 Y25.9303 Z-5.9250
G01 X28.6981 Y25.8358 Z-5.9000
G01 X28.6641 Y25.7437 Z-5.8750
G01 X28.6230 Y25.6546 Z-5.8500
G01 X28.5750 Y25.5690 Z-5.8250
G01 X28.5205 Y25.4874 Z-5.8000
G01 X28.4597 Y25.4103 Z-5.7750
G01 X28.3931 Y25.3382 Z-5.7500
G01 X28.3210 Y25.2716 Z-5.7250
G01 X28.2440 Y25.2108 Z-5.7000
G01 X28.1624 Y25.1563 Z-5.6750
G01 X28.0767 Y25.1083 Z-5.6500
G01 X27.9876 Y25.0672 Z-5.6250
G01 X27.8955 Y25.0333 Z-5.6000
G01 X27.8010 Y25.0066 Z-5.5750
G01 X27.7048 Y24.9875 Z-5.5500
G01 X27.6073 Y24.9759 Z-5.5250
G01 X27.5092 Y24.9721 Z-5.5000
G00 Z5.0000


;No. 2: Hole 48
G00 X36.0087 Y42.5612 Z5.0000
G00 Z0.5000
G01 Z0.0000 F400
G01 Z-1.5000
G01 X38.5599 F900
G01 Y44.4362
G01 X36.0087
G01 Y46.3112
G01 X38.6620
G01 X36.0087 Y48.1862
G01 X47.1247
G01 X46.3805 Y50.0612
G01 X49.1834
G01 X49.8427 Y51.9362
G01 X47.2976
G01 X47.2558 Y53.8112
G01 X49.8772
G01 X49.3206 Y55.6862
G01 X46.2098
G01 X47.4880 Y57.5612
G01 X36.0087
G01 Y55.6862
G01 X38.5856
G01 X38.5599 Y53.8112
G01 X36.0087
G01 Y51.9362
G01 X38.5599
G01 X38.5617 Y50.0612
G01 X38.8118 Y50.0695
G01 X38.8191 Y49.9741
G01 X38.8336 Y49.8795
G01 X38.8554 Y49.7863
G01 X38.8842 Y49.6951
G01 X38.9200 Y49.6063
G01 X38.9624 Y49.5206
G01 X39.0113 Y49.4383
G01 X39.0664 Y49.3601
G01 X39.1273 Y49.2862
G01 X39.1936 Y49.2173
G01 X39.2650 Y49.1536
G01 X39.3412 Y49.0956
G01 X39.4215 Y49.0436
G01 X39.5056 Y48.9979
G01 X39.5929 Y48.9588
G01 X39.6830 Y48.9265
G01 X39.7752 Y48.9012
G01 X39.8692 Y48.8830
G01 X39.9642 Y48.8721
G01 X40.0599 Y48.8685
G01 X40.8188 Y48.8483
G01 X41.5780 Y48.8437
G01 X42.3372 Y48.8545
G01 X43.0960 Y48.8809
G01 X43.3848 Y48.8963
G01 X43.6720 Y48.9305
G01 X43.9563 Y48.9832
G01 X44.2367 Y49.0543
G01 X44.5118 Y49.1435
G01 X44.7805 Y49.2503
G01 X45.0418 Y49.3744
G01 X45.2944 Y49.5151
G01 X45.5374 Y49.6720
G01 X45.7697 Y49.8443
G01 X45.9902 Y50.0314
G01 X46.1982 Y50.2324
G01 X46.3845 Y50.4695
G01 X46.5521 Y50.7203
G01 X46.6999 Y50.9831
G01 X46.8271 Y51.2565
G01 X46.9330 Y51.5389
G01 X47.0169 Y51.8286
G01 X47.0783 Y52.1239
G01 X47.1169 Y52.4230
G01 X47.1324 Y52.7241
G01 X47.1248 Y53.0256
G01 X47.0940 Y53.3256
G01 X47.0403 Y53.6224
G01 X46.9616 Y53.9518
G01 X46.8521 Y54.2722
G01 X46.7129 Y54.5810
G01 X46.5452 Y54.8752
G01 X46.3505 Y55.1523
G01 X46.1305 Y55.4098
G01 X45.8872 Y55.6454
G01 X45.6228 Y55.8570
G01 X45.3396 Y56.0427
G01 X45.0402 Y56.2010
G01 X44.7272 Y56.3302
G01 X44.4034 Y56.4294
G01 X43.9773 Y56.5335
G01 X43.5449 Y56.6072
G01 X43.1083 Y56.6501
G01 X42.6699 Y56.6621
G01 X40.0599
G01 X39.9618 Y56.6583
G01 X39.8643 Y56.6468
G01 X39.7680 Y56.6276
G01 X39.6736 Y56.6010
G01 X39.5815 Y56.5670
G01 X39.4924 Y56.5259
G01 X39.4067 Y56.4779
G01 X39.3251 Y56.4234
G01 X39.2480 Y56.3627
G01 X39.1760 Y56.2960
G01 X39.1093 Y56.2240
G01 X39.0486 Y56.1469
G01 X38.9941 Y56.0653
G01 X38.9461 Y55.9796
G01 X38.9050 Y55.8905
G01 X38.8710 Y55.7984
G01 X38.8444 Y55.7040
G01 X38.8252 Y55.6077
G01 X38.8137 Y55.5102
G01 X38.8099 Y55.4121
G01 Y50.1185
G01 X38.8118 Y50.0695
G01 X38.5617 Y50.0612
G01 X35.7587
G01 Y58.8263
G01 X37.6485 Y58.8434
G01 X39.5385 Y58.8488
G01 X41.4284 Y58.8425
G01 X43.3183 Y58.8243
G01 X43.8706 Y58.8146
G01 X44.4213 Y58.7705
G01 X44.9681 Y58.6921
G01 X45.5090 Y58.5798
G01 X46.0419 Y58.4341
G01 X46.5646 Y58.2553
G01 X47.0752 Y58.0444
G01 X47.5716 Y57.8021
G01 X47.9324 Y57.5804
G01 X48.2732 Y57.3291
G01 X48.5917 Y57.0501
G01 X48.8856 Y56.7452
G01 X49.1528 Y56.4167
G01 X49.3914 Y56.0669
G01 X49.5996 Y55.6982
G01 X49.7762 Y55.3133
G01 X49.9197 Y54.9149
G01 X50.0291 Y54.5058
G01 X50.1038 Y54.0890
G01 X50.1431 Y53.6674
G01 X50.1795 Y53.1906
G01 X50.1792 Y52.7124
G01 X50.1422 Y52.2356
G01 X50.0686 Y51.7631
G01 X49.9589 Y51.2976
G01 X49.8138 Y50.8419
G01 X49.6341 Y50.3988
G01 X49.4208 Y49.9708
G01 X49.2327 Y49.6891
G01 X49.0283 Y49.4192
G01 X48.8081 Y49.1619
G01 X48.5730 Y48.9181
G01 X48.3239 Y48.6887
G01 X48.0615 Y48.4746
G01 X47.7869 Y48.2765
G01 X47.5010 Y48.0950
G01 X47.2048 Y47.9308
G01 X46.8993 Y47.7846
G01 X46.5857 Y47.6568
G01 X46.2651 Y47.5479
G01 X45.8445 Y47.4198
G01 X45.4191 Y47.3091
G01 X44.9894 Y47.2161
G01 X44.5563 Y47.1407
G01 X44.1205 Y47.0833
G01 X43.6827 Y47.0438
G01 X43.2436 Y47.0224
G01 X42.8040 Y47.0191
G01 X40.0599
G01 X39.9618 Y47.0152
G01 X39.8643 Y47.0037
G01 X39.7680 Y46.9846
G01 X39.6736 Y46.9579
G01 X39.5815 Y46.9239
G01 X39.4924 Y46.8829
G01 X39.4067 Y46.8349
G01 X39.3251 Y46.7804
G01 X39.2480 Y46.7196
G01 X39.1760 Y46.6530
G01 X39.1093 Y46.5809
G01 X39.0486 Y46.5038
G01 X38.9941 Y46.4222
G01 X38.9461 Y46.3366
G01 X38.9050 Y46.2475
G01 X38.8710 Y46.1554
G01 X38.8444 Y46.0609
G01 X38.8252 Y45.9646
G01 X38.8137 Y45.8672
G01 X38.8099 Y45.7691
G01 Y41.2962
G01 X35.7587
G01 Y50.0612
G01 X36.0087
G00 Z5.0000


;No. 3: Hole 49
G00 X52.8825 Y42.6328 Z5.0000
G00 Z0.5000
G01 Z0.0000 F400
G01 Z-1.5000
G01 X55.4171 F900
G01 X56.2186 Y44.5078
G01 X53.6750
G01 X54.4676 Y46.3828
G01 X68.2588
G01 X69.0513 Y44.5078
G01 X66.3648
G01 X67.1786 Y42.6328
G01 X69.8439
G01 X65.0181 Y48.2578
G01 X67.4662
G01 X66.6737 Y50.1328
G01 X64.3053
G01 X63.5704 Y52.0078
G01 X65.8811
G01 X65.0886 Y53.8828
G01 X62.8354
G01 X64.2960 Y55.7578
G01 X58.4304
G01 X57.6378 Y53.8828
G01 X59.8035
G01 X59.0592 Y52.0078
G01 X56.8452
G01 X56.0527 Y50.1328
G01 X58.3149
G01 X57.5938 Y48.2578
G01 X57.8509 Y48.2577
G01 X57.8304 Y48.1650
G01 X57.8170 Y48.0709
G01 X57.8109 Y47.9761
G01 X57.8119 Y47.8811
G01 X57.8202 Y47.7864
G01 X57.8356 Y47.6927
G01 X57.8582 Y47.6004
G01 X57.8877 Y47.5101
G01 X57.9239 Y47.4223
G01 X57.9668 Y47.3375
G01 X58.0159 Y47.2562
G01 X58.0711 Y47.1788
G01 X58.1321 Y47.1059
G01 X58.1983 Y47.0379
G01 X58.2696 Y46.9750
G01 X58.3455 Y46.9178
G01 X58.4254 Y46.8665
G01 X58.5091 Y46.8214
G01 X58.5959 Y46.7829
G01 X58.6854 Y46.7510
G01 X58.7771 Y46.7260
G01 X58.8704 Y46.7081
G01 X58.9648 Y46.6974
G01 X59.0597 Y46.6938
G01 X63.5522
G01 X63.6533 Y46.6979
G01 X63.7538 Y46.7102
G01 X63.8530 Y46.7305
G01 X63.9502 Y46.7588
G01 X64.0448 Y46.7949
G01 X64.1361 Y46.8386
G01 X64.2237 Y46.8895
G01 X64.3068 Y46.9473
G01 X64.3850 Y47.0116
G01 X64.4577 Y47.0820
G01 X64.5244 Y47.1581
G01 X64.5848 Y47.2394
G01 X64.6384 Y47.3253
G01 X64.6849 Y47.4152
G01 X64.7240 Y47.5086
G01 X64.7554 Y47.6049
G01 X64.7788 Y47.7034
G01 X64.7943 Y47.8034
G01 X64.8016 Y47.9044
G01 X64.8007 Y48.0056
G01 X64.7916 Y48.1065
G01 X64.7743 Y48.2062
G01 X64.7491 Y48.3043
G01 X64.7160 Y48.3999
G01 X62.4841 Y54.0942
G01 X62.4409 Y54.1918
G01 X62.3896 Y54.2853
G01 X62.3306 Y54.3741
G01 X62.2641 Y54.4576
G01 X62.1908 Y54.5351
G01 X62.1112 Y54.6060
G01 X62.0258 Y54.6699
G01 X61.9352 Y54.7263
G01 X61.8402 Y54.7748
G01 X61.7414 Y54.8150
G01 X61.6395 Y54.8466
G01 X61.5353 Y54.8694
G01 X61.4295 Y54.8833
G01 X61.3230 Y54.8881
G01 X61.2164 Y54.8837
G01 X61.1106 Y54.8703
G01 X61.0063 Y54.8480
G01 X60.9043 Y54.8168
G01 X60.8053 Y54.7770
G01 X60.7100 Y54.7290
G01 X60.6193 Y54.6730
G01 X60.5336 Y54.6095
G01 X60.4536 Y54.5388
G01 X60.3800 Y54.4617
G01 X60.3132 Y54.3785
G01 X60.2537 Y54.2900
G01 X60.2020 Y54.1966
G01 X60.1585 Y54.0993
G01 X57.8979 Y48.4050
G01 X57.8643 Y48.3093
G01 X57.8509 Y48.2577
G01 X57.5938 Y48.2578
G01 X55.2601
G00 Z5.0000
G00 X59.2229 Y55.7578
G00 Z0.5000
G01 Z-1.5000 F400
G01 Y57.6328 F900
G01 X63.5035
G01 X63.7420 Y57.7105
G01 X70.6803 Y41.2962
G01 X67.4540
G01 X66.3120 Y44.0952
G01 X66.2739 Y44.1795
G01 X66.2297 Y44.2607
G01 X66.1797 Y44.3384
G01 X66.1240 Y44.4121
G01 X66.0630 Y44.4816
G01 X65.9971 Y44.5464
G01 X65.9266 Y44.6061
G01 X65.8518 Y44.6605
G01 X65.7732 Y44.7092
G01 X65.6913 Y44.7519
G01 X65.6064 Y44.7885
G01 X65.5190 Y44.8187
G01 X65.4297 Y44.8424
G01 X65.3388 Y44.8594
G01 X65.2470 Y44.8696
G01 X65.1546 Y44.8730
G01 X57.4287
G01 X57.3358 Y44.8696
G01 X57.2434 Y44.8592
G01 X57.1520 Y44.8420
G01 X57.0622 Y44.8181
G01 X56.9744 Y44.7875
G01 X56.8891 Y44.7505
G01 X56.8068 Y44.7073
G01 X56.7279 Y44.6581
G01 X56.6529 Y44.6032
G01 X56.5822 Y44.5428
G01 X56.5162 Y44.4773
G01 X56.4552 Y44.4071
G01 X56.3996 Y44.3326
G01 X56.3497 Y44.2542
G01 X56.3058 Y44.1722
G01 X56.2681 Y44.0873
G01 X55.1517 Y41.2962
G01 X52.0461
G01 X59.5165 Y58.9694
G01 X63.2099
G01 X63.7420 Y57.7105
G01 X63.5035 Y57.6328
G00 Z5.0000


;No. 4: Hole 50
G00 X76.0114 Y57.5612 Z5.0000
G00 Z0.5000
G01 Z0.0000 F400
G01 Z-1.5000
G01 X88.5349 F900
G01 X87.0205 Y55.6862
G01 X90.2851
G01 X90.7596 Y53.8112
G01 X88.1039
G01 X88.1028 Y51.9362
G01 X90.6589
G01 X89.8133 Y50.0612
G01 X87.0101
G01 X87.2082 Y48.1862
G01 X76.0114
G01 Y46.3112
G01 X78.5760
G01 X78.5626 Y44.4362
G01 X76.0114
G01 Y42.5612
G01 X78.5626
G00 Z5.0000
G00 X78.6175 Y48.1862
G00 Z0.5000
G01 Z-1.5000 F400
G01 Y50.0612 F900
G01 X76.0114
G01 Y51.9362
G01 X78.5626
G01 Y53.8112
G01 X76.0114
G01 Y55.6862
G01 X78.6225
G01 X78.8606 Y55.6085
G01 X78.8395 Y55.5252
G01 X78.8244 Y55.4405
G01 X78.8154 Y55.3550
G01 X78.8126 Y55.2691
G01 Y50.4619
G01 X78.8165 Y50.3638
G01 X78.8280 Y50.2663
G01 X78.8472 Y50.1700
G01 X78.8738 Y50.0756
G01 X78.9078 Y49.9835
G01 X78.9489 Y49.8944
G01 X78.9968 Y49.8087
G01 X79.0514 Y49.7271
G01 X79.1121 Y49.6500
G01 X79.1788 Y49.5780
G01 X79.2508 Y49.5113
G01 X79.3279 Y49.4506
G01 X79.4095 Y49.3961
G01 X79.4952 Y49.3481
G01 X79.5843 Y49.3070
G01 X79.6764 Y49.2730
G01 X79.7708 Y49.2464
G01 X79.8671 Y49.2272
G01 X79.9646 Y49.2157
G01 X80.0627 Y49.2119
G01 X81.0399 Y49.1929
G01 X82.0173 Y49.1874
G01 X82.9947 Y49.1953
G01 X83.9719 Y49.2166
G01 X84.3719 Y49.2323
G01 X84.7689 Y49.2841
G01 X85.1596 Y49.3715
G01 X85.5408 Y49.4938
G01 X85.9094 Y49.6501
G01 X86.2624 Y49.8389
G01 X86.5969 Y50.0589
G01 X86.9102 Y50.3081
G01 X87.1083 Y50.5231
G01 X87.2884 Y50.7535
G01 X87.4492 Y50.9976
G01 X87.5898 Y51.2540
G01 X87.7091 Y51.5209
G01 X87.8064 Y51.7966
G01 X87.8810 Y52.0793
G01 X87.9326 Y52.3671
G01 X87.9607 Y52.6581
G01 X87.9651 Y52.9505
G01 X87.9458 Y53.2422
G01 X87.9030 Y53.5314
G01 X87.8352 Y53.8601
G01 X87.7352 Y54.1805
G01 X87.6040 Y54.4895
G01 X87.4429 Y54.7839
G01 X87.2534 Y55.0610
G01 X87.0376 Y55.3180
G01 X86.7973 Y55.5524
G01 X86.5351 Y55.7619
G01 X86.2534 Y55.9445
G01 X85.9551 Y56.0983
G01 X85.6430 Y56.2219
G01 X85.3203 Y56.3140
G01 X84.9220 Y56.4059
G01 X84.5185 Y56.4709
G01 X84.1115 Y56.5087
G01 X83.7029 Y56.5191
G01 X80.0626
G01 X79.9615 Y56.5150
G01 X79.8611 Y56.5028
G01 X79.7620 Y56.4825
G01 X79.6648 Y56.4543
G01 X79.5703 Y56.4182
G01 X79.4790 Y56.3746
G01 X79.3915 Y56.3238
G01 X79.3085 Y56.2660
G01 X79.2303 Y56.2017
G01 X79.1577 Y56.1312
G01 X79.0910 Y56.0551
G01 X79.0307 Y55.9739
G01 X78.9772 Y55.8880
G01 X78.9308 Y55.7981
G01 X78.8919 Y55.7047
G01 X78.8606 Y55.6085
G01 X78.6225 Y55.6862
G00 Z5.0000
G00 X84.1641 Y48.1862
G00 Z0.5000
G01 Z-1.5000 F400
G01 Y46.3112 F900
G01 X86.8440
G01 X88.1168 Y44.4362
G01 X85.4112
G01 X86.6582 Y42.5612
G01 X89.4001
G01 X89.6001 Y42.7116
G01 X90.5689 Y41.2962
G01 X87.1994
G01 X83.5357 Y46.8047
G01 X83.4755 Y46.8876
G01 X83.4087 Y46.9653
G01 X83.3358 Y47.0373
G01 X83.2572 Y47.1031
G01 X83.1735 Y47.1622
G01 X83.0853 Y47.2142
G01 X82.9931 Y47.2589
G01 X82.8975 Y47.2958
G01 X82.7992 Y47.3248
G01 X82.6989 Y47.3457
G01 X82.5972 Y47.3583
G01 X82.4949 Y47.3625
G01 X80.0626
G01 X79.9646 Y47.3586
G01 X79.8671 Y47.3471
G01 X79.7708 Y47.3279
G01 X79.6764 Y47.3013
G01 X79.5843 Y47.2673
G01 X79.4952 Y47.2262
G01 X79.4095 Y47.1783
G01 X79.3279 Y47.1237
G01 X79.2508 Y47.0630
G01 X79.1788 Y46.9963
G01 X79.1121 Y46.9243
G01 X79.0514 Y46.8472
G01 X78.9968 Y46.7656
G01 X78.9489 Y46.6800
G01 X78.9078 Y46.5908
G01 X78.8738 Y46.4987
G01 X78.8472 Y46.4043
G01 X78.8280 Y46.3080
G01 X78.8165 Y46.2105
G01 X78.8126 Y46.1125
G01 Y41.2962
G01 X75.7614
G01 Y58.8263
G01 X77.9011 Y58.8487
G01 X80.0408 Y58.8555
G01 X82.1805 Y58.8468
G01 X84.3201 Y58.8226
G01 X84.8364 Y58.8145
G01 X85.3515 Y58.7776
G01 X85.8637 Y58.7121
G01 X86.3714 Y58.6180
G01 X86.8731 Y58.4957
G01 X87.3672 Y58.3456
G01 X87.8522 Y58.1682
G01 X88.3264 Y57.9640
G01 X88.6118 Y57.8129
G01 X88.8863 Y57.6428
G01 X89.1486 Y57.4546
G01 X89.3976 Y57.2490
G01 X89.6322 Y57.0272
G01 X89.8513 Y56.7900
G01 X90.0538 Y56.5385
G01 X90.2389 Y56.2739
G01 X90.4057 Y55.9974
G01 X90.5534 Y55.7103
G01 X90.6814 Y55.4138
G01 X90.7891 Y55.1094
G01 X90.8759 Y54.7984
G01 X90.9416 Y54.4823
G01 X90.9857 Y54.1624
G01 X91.0081 Y53.8403
G01 X91.0396 Y53.4226
G01 X91.0416 Y53.0038
G01 X91.0140 Y52.5859
G01 X90.9569 Y52.1709
G01 X90.8708 Y51.7610
G01 X90.7559 Y51.3582
G01 X90.6130 Y50.9645
G01 X90.4426 Y50.5819
G01 X90.2823 Y50.3137
G01 X90.1067 Y50.0552
G01 X89.9165 Y49.8073
G01 X89.7123 Y49.5708
G01 X89.4947 Y49.3465
G01 X89.2646 Y49.1352
G01 X89.0226 Y48.9375
G01 X88.7695 Y48.7542
G01 X88.5064 Y48.5858
G01 X88.2339 Y48.4329
G01 X87.9530 Y48.2960
G01 X87.6647 Y48.1756
G01 X87.5818 Y48.1361
G01 X87.5020 Y48.0906
G01 X87.4258 Y48.0394
G01 X87.3536 Y47.9828
G01 X87.2857 Y47.9210
G01 X87.2225 Y47.8544
G01 X87.1644 Y47.7833
G01 X87.1117 Y47.7081
G01 X87.0646 Y47.6293
G01 X87.0234 Y47.5473
G01 X86.9884 Y47.4624
G01 X86.9597 Y47.3752
G01 X86.9374 Y47.2861
G01 X86.9218 Y47.1957
G01 X86.9128 Y47.1043
G01 X86.9106 Y47.0125
G01 X86.9151 Y46.9208
G01 X86.9264 Y46.8297
G01 X86.9443 Y46.7396
G01 X86.9687 Y46.6512
G01 X86.9996 Y46.5647
G01 X87.0367 Y46.4807
G01 X87.0800 Y46.3997
G01 X87.1290 Y46.3221
G01 X89.6001 Y42.7116
G01 X89.4001 Y42.5612
G00 Z5.0000


;No. 5: Hole 39
G00 X96.5852 Y42.5613 Z5.0000
G00 Z0.5000
G01 Z0.0000 F400
G01 Z-1.5000
G01 X99.1364 F900
G01 Y44.4363
G01 X96.5852
G01 Y46.3113
G01 X99.5955
G01 X101.2806 Y48.1863
G01 X96.5852
G01 Y50.0613
G01 X105.6742
G01 X105.1077
G01 Y51.9363
G01 X102.5922
G01 X104.1833 Y53.8113
G01 X106.5996
G01 X105.7744 Y55.6863
G01 X108.2503
G01 X107.3655 Y57.5613
G01 X109.9010
G00 Z5.0000
G00 X104.0053 Y50.0613
G00 Z0.5000
G01 Z-1.5000 F400
G01 Y48.1863 F900
G01 X106.9618
G01 X108.2494 Y46.3113
G01 X105.2746
G01 X106.5438 Y44.4363
G01 X109.5370
G01 X110.8245 Y42.5613
G01 X107.8130
G00 Z5.0000
G00 X99.1369 Y50.0613
G00 Z0.5000
G01 Z-1.5000 F400
G01 Y51.9363 F900
G01 X96.5852
G01 Y53.8113
G01 X99.1364
G01 Y55.6863
G01 X96.5852
G01 Y57.5613
G01 X99.1364
G01 X99.3864 Y57.5424
G01 Y51.9498
G01 X99.3900 Y51.8547
G01 X99.4009 Y51.7601
G01 X99.4189 Y51.6666
G01 X99.4440 Y51.5748
G01 X99.4760 Y51.4851
G01 X99.5147 Y51.3981
G01 X99.5600 Y51.3143
G01 X99.6115 Y51.2343
G01 X99.6689 Y51.1583
G01 X99.7319 Y51.0870
G01 X99.8002 Y51.0206
G01 X99.8734 Y50.9597
G01 X99.9510 Y50.9045
G01 X100.0325 Y50.8554
G01 X100.1176 Y50.8126
G01 X100.2056 Y50.7764
G01 X100.2962 Y50.7470
G01 X100.3887 Y50.7246
G01 X100.4827 Y50.7093
G01 X100.5775 Y50.7012
G01 X100.6727 Y50.7003
G01 X100.7677 Y50.7067
G01 X100.8620 Y50.7203
G01 X100.9549 Y50.7411
G01 X101.0460 Y50.7688
G01 X101.1347 Y50.8034
G01 X101.2205 Y50.8447
G01 X101.3029 Y50.8923
G01 X101.3814 Y50.9461
G01 X101.4557 Y51.0057
G01 X101.5252 Y51.0708
G01 X101.5895 Y51.1410
G01 X108.1111 Y58.8263
G01 X111.3479
G01 X105.5928 Y52.2894
G01 X105.5277 Y52.2090
G01 X105.4695 Y52.1235
G01 X105.4186 Y52.0336
G01 X105.3753 Y51.9397
G01 X105.3399 Y51.8426
G01 X105.3126 Y51.7429
G01 X105.2937 Y51.6412
G01 X105.2832 Y51.5384
G01 X105.2813 Y51.4350
G01 X105.2879 Y51.3319
G01 X105.3030 Y51.2296
G01 X105.3265 Y51.1289
G01 X105.3583 Y51.0305
G01 X105.3981 Y50.9351
G01 X105.4456 Y50.8433
G01 X105.5005 Y50.7557
G01 X111.9965 Y41.2962
G01 X108.3675
G01 X103.7032 Y48.1867
G01 X103.6473 Y48.2628
G01 X103.5858 Y48.3346
G01 X103.5191 Y48.4015
G01 X103.4475 Y48.4631
G01 X103.3715 Y48.5192
G01 X103.2914 Y48.5694
G01 X103.2078 Y48.6134
G01 X103.1211 Y48.6509
G01 X103.0318 Y48.6818
G01 X102.9405 Y48.7059
G01 X102.8475 Y48.7230
G01 X102.7536 Y48.7330
G01 X102.6592 Y48.7359
G01 X102.5648 Y48.7317
G01 X102.4710 Y48.7203
G01 X102.3783 Y48.7019
G01 X102.2873 Y48.6766
G01 X102.1985 Y48.6444
G01 X102.1123 Y48.6056
G01 X102.0293 Y48.5605
G01 X101.9500 Y48.5092
G01 X101.8748 Y48.4520
G01 X101.8041 Y48.3893
G01 X101.7383 Y48.3215
G01 X99.7067 Y46.0610
G01 X99.6575 Y46.0027
G01 X99.6119 Y45.9416
G01 X99.5701 Y45.8778
G01 X99.5323 Y45.8116
G01 X99.4987 Y45.7432
G01 X99.4692 Y45.6728
G01 X99.4441 Y45.6008
G01 X99.4234 Y45.5274
G01 X99.4073 Y45.4529
G01 X99.3957 Y45.3776
G01 X99.3887 Y45.3016
G01 X99.3864 Y45.2254
G01 Y41.2962
G01 X96.3352
G01 Y58.8263
G01 X99.3864
G01 Y57.5424
G01 X99.1364 Y57.5613
G00 Z5.0000


;No. 6: Hole 40
G00 X117.5882 Y57.5613 Z5.0000
G00 Z0.5000
G01 Z0.0000 F400
G01 Z-1.5000
G01 X120.1680 F900
G01 Y55.6863
G01 X117.5882
G01 Y53.8113
G01 X120.1680
G01 Y51.9363
G01 X117.5882
G01 Y50.0613
G01 X120.1680
G01 Y48.1863
G01 X117.5882
G01 Y46.3113
G01 X120.1680
G01 Y44.4363
G01 X117.5882
G01 Y42.5613
G01 X120.1680
G01 X120.4180 Y42.5838
G01 Y41.2962
G01 X117.3382
G01 Y58.8263
G01 X120.4180
G01 Y42.5838
G01 X120.1680 Y42.5613
G00 Z5.0000


;No. 7: Hole 41
G00 X126.8306 Y42.5613 Z5.0000
G00 Z0.5000
G01 Z0.0000 F400
G01 Z-1.5000
G01 X129.3246 F900
G01 Y44.4363
G01 X126.8306
G01 Y46.3113
G01 X129.3246
G01 Y48.1863
G01 X126.8306
G01 Y50.0613
G01 X129.3246
G01 Y51.9363
G01 X129.6274
G01 X126.8306
G01 Y53.8113
G01 X133.4855
G01 X132.0261 Y55.6863
G01 X126.8306
G01 Y57.5613
G01 X130.5666
G01 X132.0232 Y51.9363
G01 X134.9450
G01 X136.4044 Y50.0613
G01 X133.4832
G01 X134.9432 Y48.1863
G01 X138.0075
G01 X136.4031 Y46.3113
G01 X142.7447
G01 Y44.4363
G01 X137.8631
G01 X139.3230 Y42.5613
G01 X142.7447
G01 X139.4922 Y48.1863
G01 X142.7447
G01 Y50.0613
G01 X140.2508
G01 Y51.9363
G01 X142.7447
G01 Y53.8113
G01 X140.2508
G01 Y55.6863
G01 X142.7447
G01 Y57.5613
G01 X140.2508
G01 X140.0008 Y57.5407
G01 Y58.8263
G01 X142.9947
G01 Y41.2962
G01 X139.9912
G01 X131.8108 Y51.8021
G01 X131.7484 Y51.8762
G01 X131.6805 Y51.9452
G01 X131.6074 Y52.0087
G01 X131.5295 Y52.0664
G01 X131.4475 Y52.1179
G01 X131.3617 Y52.1628
G01 X131.2727 Y52.2010
G01 X131.1811 Y52.2322
G01 X131.0872 Y52.2562
G01 X130.9918 Y52.2729
G01 X130.8954 Y52.2821
G01 X130.7986 Y52.2839
G01 X130.7019 Y52.2781
G01 X130.6060 Y52.2649
G01 X130.5113 Y52.2443
G01 X130.4186 Y52.2164
G01 X130.3283 Y52.1814
G01 X130.2409 Y52.1395
G01 X130.1571 Y52.0910
G01 X130.0773 Y52.0362
G01 X130.0019 Y51.9753
G01 X129.9315 Y51.9088
G01 X129.8665 Y51.8370
G01 X129.8072 Y51.7604
G01 X129.7540 Y51.6795
G01 X129.7073 Y51.5947
G01 X129.6672 Y51.5065
G01 X129.6341 Y51.4155
G01 X129.6082 Y51.3222
G01 X129.5895 Y51.2271
G01 X129.5783 Y51.1309
G01 X129.5746 Y51.0341
G01 Y41.2962
G01 X126.5806
G01 Y58.8263
G01 X129.8987
G01 X137.7643 Y48.7212
G01 X137.8268 Y48.6471
G01 X137.8947 Y48.5781
G01 X137.9678 Y48.5145
G01 X138.0456 Y48.4568
G01 X138.1276 Y48.4053
G01 X138.2134 Y48.3604
G01 X138.3024 Y48.3221
G01 X138.3941 Y48.2909
G01 X138.4879 Y48.2669
G01 X138.5833 Y48.2502
G01 X138.6798 Y48.2410
G01 X138.7766 Y48.2392
G01 X138.8733 Y48.2450
G01 X138.9692 Y48.2582
G01 X139.0639 Y48.2788
G01 X139.1566 Y48.3067
G01 X139.2470 Y48.3417
G01 X139.3343 Y48.3835
G01 X139.4181 Y48.4320
G01 X139.4980 Y48.4869
G01 X139.5733 Y48.5478
G01 X139.6437 Y48.6143
G01 X139.7088 Y48.6860
G01 X139.7681 Y48.7626
G01 X139.8213 Y48.8436
G01 X139.8680 Y48.9284
G01 X139.9081 Y49.0166
G01 X139.9412 Y49.1076
G01 X139.9671 Y49.2009
G01 X139.9858 Y49.2960
G01 X139.9970 Y49.3922
G01 X140.0007 Y49.4890
G01 X140.0008 Y57.5407
G01 X140.2508 Y57.5613
G00 Z5.0000


;No. 8: Hole 42
G00 X149.4074 Y53.8112 Z5.0000
G00 Z0.5000
G01 Z0.0000 F400
G01 Z-1.5000
G01 X152.3262 F900
G01 X151.5420 Y51.9362
G01 X148.7954
G01 X148.6062 Y50.0612
G01 X151.3006
G01 X151.5015 Y48.1862
G01 X148.7754
G01 X149.3574 Y46.3112
G01 X152.2264
G01 X153.8068 Y44.4362
G01 X150.5065
G01 X152.6689 Y42.5612
G01 X163.7619
G01 X162.6989 Y44.4362
G01 X165.2070
G01 Y46.3112
G01 X162.9420
G01 X162.8557 Y48.1862
G01 X165.2070
G01 Y50.0612
G01 X158.9932
G00 Z5.0000
G00 X150.5786 Y53.8112
G00 Z0.5000
G01 Z-1.5000 F400
G01 Y55.6862 F900
G01 X153.9862
G01 X152.7253 Y57.5612
G01 X163.4801
G01 X163.6399 Y57.7568
G01 X163.7902 Y57.6643
G01 X163.9389 Y57.5692
G01 X164.0860 Y57.4717
G01 X164.2314 Y57.3716
G01 X162.5970 Y55.3985
G01 X162.4781 Y55.4101
G01 X162.0359 Y55.6896
G01 X161.5761 Y55.9392
G01 X161.1007 Y56.1575
G01 X160.6118 Y56.3438
G01 X160.1116 Y56.4971
G01 X159.6023 Y56.6168
G01 X159.0862 Y56.7023
G01 X158.5656 Y56.7533
G01 X158.0426 Y56.7695
G01 X157.5198 Y56.7509
G01 X156.9994 Y56.6975
G01 X156.4837 Y56.6097
G01 X156.0241 Y56.4741
G01 X155.5757 Y56.3052
G01 X155.1409 Y56.1038
G01 X154.7221 Y55.8710
G01 X154.3216 Y55.6080
G01 X153.9415 Y55.3163
G01 X153.5839 Y54.9974
G01 X153.2506 Y54.6531
G01 X152.9436 Y54.2852
G01 X152.6644 Y53.8958
G01 X152.4146 Y53.4869
G01 X152.1956 Y53.0608
G01 X152.0084 Y52.6197
G01 X151.8542 Y52.1660
G01 X151.7338 Y51.7023
G01 X151.6478 Y51.2309
G01 X151.5769 Y50.7346
G01 X151.5406 Y50.2346
G01 X151.5393 Y49.7332
G01 X151.5727 Y49.2330
G01 X151.6409 Y48.7363
G01 X151.7434 Y48.2456
G01 X151.8798 Y47.7632
G01 X152.0493 Y47.2914
G01 X152.2513 Y46.8325
G01 X152.4847 Y46.3888
G01 X152.7483 Y45.9624
G01 X153.0409 Y45.5553
G01 X153.2975 Y45.2644
G01 X153.5707 Y44.9890
G01 X153.8595 Y44.7300
G01 X154.1631 Y44.4885
G01 X154.4802 Y44.2651
G01 X154.8099 Y44.0607
G01 X155.1510 Y43.8759
G01 X155.5023 Y43.7114
G01 X155.8626 Y43.5678
G01 X156.2308 Y43.4455
G01 X156.6054 Y43.3450
G01 X156.9854 Y43.2667
G01 X157.3692 Y43.2107
G01 X157.7557 Y43.1772
G01 X158.1434 Y43.1665
G01 X158.5312 Y43.1785
G01 X159.0156 Y43.1949
G01 X159.4976 Y43.2463
G01 X159.9747 Y43.3323
G01 X160.4443 Y43.4525
G01 X160.9040 Y43.6063
G01 X161.3514 Y43.7928
G01 X161.7841 Y44.0111
G01 X162.2000 Y44.2601
G01 X162.2739 Y44.3211
G01 X162.3428 Y44.3874
G01 X162.4065 Y44.4589
G01 X162.4645 Y44.5351
G01 X162.5165 Y44.6154
G01 X162.5623 Y44.6995
G01 X162.6014 Y44.7869
G01 X162.6337 Y44.8770
G01 X162.6591 Y44.9693
G01 X162.6773 Y45.0633
G01 X162.6883 Y45.1584
G01 X162.6920 Y45.2540
G01 Y47.6863
G01 X162.6881 Y47.7843
G01 X162.6766 Y47.8818
G01 X162.6574 Y47.9781
G01 X162.6308 Y48.0725
G01 X162.5968 Y48.1646
G01 X162.5557 Y48.2537
G01 X162.5078 Y48.3394
G01 X162.4532 Y48.4210
G01 X162.3925 Y48.4981
G01 X162.3259 Y48.5701
G01 X162.2538 Y48.6368
G01 X162.1767 Y48.6975
G01 X162.0951 Y48.7521
G01 X162.0095 Y48.8000
G01 X161.9203 Y48.8411
G01 X161.8282 Y48.8751
G01 X161.7338 Y48.9017
G01 X161.6375 Y48.9209
G01 X161.5400 Y48.9324
G01 X161.4420 Y48.9363
G01 X158.7432
G01 Y50.4995
G01 X165.4570
G01 Y43.3460
G01 X164.9905 Y43.0135
G01 X164.5091 Y42.7033
G01 X164.0136 Y42.4158
G01 X163.5053 Y42.1518
G01 X162.9852 Y41.9118
G01 X162.4545 Y41.6963
G01 X161.9143 Y41.5058
G01 X161.3657 Y41.3408
G01 X160.8101 Y41.2015
G01 X160.2486 Y41.0884
G01 X159.6824 Y41.0015
G01 X159.1128 Y40.9412
G01 X158.5410 Y40.9076
G01 X157.9682 Y40.9006
G01 X157.3958 Y40.9204
G01 X156.8249 Y40.9670
G01 X156.2568 Y41.0401
G01 X155.6927 Y41.1396
G01 X155.1338 Y41.2654
G01 X154.5815 Y41.4171
G01 X154.0831 Y41.5837
G01 X153.5957 Y41.7799
G01 X153.1210 Y42.0052
G01 X152.6607 Y42.2586
G01 X152.2165 Y42.5393
G01 X151.7900 Y42.8462
G01 X151.3827 Y43.1783
G01 X150.9962 Y43.5343
G01 X150.6319 Y43.9129
G01 X150.2910 Y44.3128
G01 X149.9748 Y44.7325
G01 X149.6844 Y45.1704
G01 X149.4210 Y45.6251
G01 X149.1854 Y46.0948
G01 X148.9785 Y46.5778
G01 X148.8011 Y47.0724
G01 X148.6503 Y47.5898
G01 X148.5290 Y48.1150
G01 X148.4378 Y48.6462
G01 X148.3769 Y49.1817
G01 X148.3466 Y49.7198
G01 X148.3468 Y50.2588
G01 X148.3777 Y50.7969
G01 X148.4391 Y51.3323
G01 X148.5308 Y51.8634
G01 X148.6525 Y52.3885
G01 X148.8039 Y52.9057
G01 X148.9844 Y53.4136
G01 X149.1934 Y53.9103
G01 X149.4303 Y54.3944
G01 X149.6944 Y54.8643
G01 X149.9847 Y55.3184
G01 X150.3108 Y55.7434
G01 X150.6605 Y56.1492
G01 X151.0328 Y56.5345
G01 X151.4264 Y56.8979
G01 X151.8400 Y57.2384
G01 X152.2723 Y57.5547
G01 X152.7220 Y57.8460
G01 X153.1874 Y58.1112
G01 X153.6672 Y58.3495
G01 X154.1598 Y58.5601
G01 X154.6636 Y58.7424
G01 X155.1769 Y58.8956
G01 X155.6981 Y59.0195
G01 X156.2255 Y59.1134
G01 X156.7574 Y59.1773
G01 X157.2921 Y59.2107
G01 X157.7649 Y59.2333
G01 X158.2382 Y59.2362
G01 X158.7112 Y59.2194
G01 X159.1831 Y59.1830
G01 X159.6531 Y59.1271
G01 X160.1204 Y59.0517
G01 X160.5841 Y58.9570
G01 X161.0435 Y58.8431
G01 X161.4978 Y58.7102
G01 X161.9461 Y58.5586
G01 X162.3878 Y58.3885
G01 X162.8221 Y58.2002
G01 X163.0304 Y58.0966
G01 X163.2362 Y57.9882
G01 X163.4394 Y57.8749
G01 X163.6399 Y57.7568
G01 X163.4801 Y57.5612
G00 Z5.0000


;No. 9: Hole 51
G00 X178.7340 Y51.9362 Z5.0000
G00 Z0.5000
G01 Z0.0000 F400
G01 Z-1.5000
G01 X181.4540 F900
G01 X181.2310 Y50.0612
G01 X178.5368
G01 X178.7199 Y48.1862
G01 X181.4720
G01 X182.2641 Y46.3112
G01 X179.3331
G01 X180.5080 Y44.4362
G01 X183.9541
G01 X182.6556 Y42.5612
G01 X192.9256
G01 X191.7799 Y44.4362
G01 X195.0894
G01 X196.2837 Y46.3112
G01 X193.4531
G01 X194.2231 Y48.1862
G01 X196.9148
G01 X197.1119 Y50.0612
G01 X194.4463
G01 X194.2051 Y51.9362
G01 X196.9288
G01 X196.3157 Y53.8112
G01 X193.4119
G01 X191.7161 Y55.6862
G01 X195.1407
G01 X192.9931 Y57.5612
G01 X182.7231
G01 X183.8907 Y55.6862
G01 X180.5593
G01 X179.3650 Y53.8112
G01 X179.1629 Y53.9682
G01 X179.3906 Y54.4034
G01 X179.6409 Y54.8260
G01 X179.9129 Y55.2349
G01 X180.2060 Y55.6290
G01 X180.5193 Y56.0072
G01 X180.8521 Y56.3684
G01 X181.2033 Y56.7117
G01 X181.5720 Y57.0361
G01 X181.9573 Y57.3407
G01 X182.3580 Y57.6247
G01 X182.7730 Y57.8873
G01 X183.2012 Y58.1278
G01 X183.6414 Y58.3455
G01 X184.0925 Y58.5399
G01 X184.5531 Y58.7103
G01 X185.0220 Y58.8563
G01 X185.4979 Y58.9776
G01 X185.9796 Y59.0737
G01 X186.4656 Y59.1444
G01 X186.9546 Y59.1896
G01 X187.4431 Y59.2260
G01 X187.9328 Y59.2381
G01 X188.4224 Y59.2259
G01 X188.9109 Y59.1895
G01 X189.3970 Y59.1288
G01 X189.8794 Y59.0441
G01 X190.3570 Y58.9355
G01 X190.8287 Y58.8034
G01 X191.2932 Y58.6481
G01 X191.7495 Y58.4699
G01 X192.1964 Y58.2692
G01 X192.6327 Y58.0467
G01 X193.0575 Y57.8027
G01 X193.4696 Y57.5380
G01 X193.8681 Y57.2532
G01 X194.2519 Y56.9489
G01 X194.6053 Y56.6262
G01 X194.9411 Y56.2853
G01 X195.2583 Y55.9271
G01 X195.5562 Y55.5527
G01 X195.8339 Y55.1630
G01 X196.0906 Y54.7591
G01 X196.3255 Y54.3423
G01 X196.5381 Y53.9136
G01 X196.7277 Y53.4742
G01 X196.8939 Y53.0255
G01 X197.0360 Y52.5686
G01 X197.1538 Y52.1048
G01 X197.2469 Y51.6355
G01 X197.3151 Y51.1618
G01 X197.3581 Y50.6853
G01 X197.3759 Y50.2071
G01 X197.3683 Y49.7286
G01 X197.3355 Y49.2513
G01 X197.2774 Y48.7763
G01 X197.1943 Y48.3051
G01 X197.0708 Y47.7743
G01 X196.9159 Y47.2518
G01 X196.7303 Y46.7394
G01 X196.5146 Y46.2389
G01 X196.2696 Y45.7521
G01 X195.9960 Y45.2808
G01 X195.6950 Y44.8265
G01 X195.3675 Y44.3909
G01 X195.0147 Y43.9755
G01 X194.6379 Y43.5819
G01 X194.2383 Y43.2113
G01 X193.8175 Y42.8650
G01 X193.3768 Y42.5444
G01 X192.9178 Y42.2505
G01 X192.4422 Y41.9844
G01 X191.9517 Y41.7471
G01 X191.4479 Y41.5392
G01 X190.9326 Y41.3617
G01 X190.4078 Y41.2151
G01 X189.8751 Y41.0999
G01 X189.3560 Y41.0044
G01 X188.8327 Y40.9362
G01 X188.3065 Y40.8953
G01 X187.7789 Y40.8820
G01 X187.2513 Y40.8962
G01 X186.7251 Y40.9380
G01 X186.2019 Y41.0071
G01 X185.6830 Y41.1035
G01 X185.1698 Y41.2268
G01 X184.6638 Y41.3767
G01 X184.1663 Y41.5529
G01 X183.6786 Y41.7547
G01 X183.2021 Y41.9818
G01 X182.7382 Y42.2333
G01 X182.2880 Y42.5088
G01 X181.8528 Y42.8074
G01 X181.4675 Y43.1152
G01 X181.0996 Y43.4436
G01 X180.7502 Y43.7916
G01 X180.4204 Y44.1583
G01 X180.1112 Y44.5424
G01 X179.8234 Y44.9429
G01 X179.5580 Y45.3586
G01 X179.3158 Y45.7881
G01 X179.0974 Y46.2303
G01 X178.9035 Y46.6837
G01 X178.7347 Y47.1471
G01 X178.5916 Y47.6190
G01 X178.4745 Y48.0981
G01 X178.3838 Y48.5828
G01 X178.3197 Y49.0718
G01 X178.2825 Y49.5635
G01 X178.2722 Y50.0565
G01 X178.2890 Y50.5494
G01 X178.3327 Y51.0406
G01 X178.4032 Y51.5287
G01 X178.4595 Y51.8442
G01 X178.5270 Y52.1575
G01 X178.6057 Y52.4681
G01 X178.6954 Y52.7758
G01 X178.7962 Y53.0800
G01 X178.9078 Y53.3804
G01 X179.0301 Y53.6766
G01 X179.1629 Y53.9682
G01 X179.3650 Y53.8112
G01 X182.2228
G01 X182.4281 Y53.6672
G01 X182.2266 Y53.2913
G01 X182.0479 Y52.9040
G01 X181.8926 Y52.5067
G01 X181.7614 Y52.1009
G01 X181.6546 Y51.6880
G01 X181.5727 Y51.2694
G01 X181.5159 Y50.8467
G01 X181.4844 Y50.4213
G01 X181.4784 Y49.9949
G01 X181.4979 Y49.5688
G01 X181.5428 Y49.1447
G01 X181.6129 Y48.7240
G01 X181.7081 Y48.3082
G01 X181.8279 Y47.8988
G01 X181.9719 Y47.4974
G01 X182.1396 Y47.1052
G01 X182.3305 Y46.7238
G01 X182.5438 Y46.3545
G01 X182.7788 Y45.9985
G01 X183.0346 Y45.6572
G01 X183.3320 Y45.3268
G01 X183.6520 Y45.0182
G01 X183.9930 Y44.7328
G01 X184.3532 Y44.4722
G01 X184.7309 Y44.2377
G01 X185.1242 Y44.0304
G01 X185.5311 Y43.8513
G01 X185.9496 Y43.7013
G01 X186.3777 Y43.5812
G01 X186.8132 Y43.4915
G01 X187.2539 Y43.4328
G01 X187.6976 Y43.4053
G01 X188.1422 Y43.4091
G01 X188.5854 Y43.4443
G01 X189.0250 Y43.5106
G01 X189.4588 Y43.6077
G01 X189.8848 Y43.7351
G01 X190.3007 Y43.8923
G01 X190.7044 Y44.0784
G01 X191.0941 Y44.2925
G01 X191.4677 Y44.5335
G01 X191.8234 Y44.8002
G01 X192.1594 Y45.0914
G01 X192.4740 Y45.4055
G01 X192.7437 Y45.7344
G01 X192.9930 Y46.0789
G01 X193.2210 Y46.4379
G01 X193.4270 Y46.8099
G01 X193.6101 Y47.1938
G01 X193.7697 Y47.5880
G01 X193.9052 Y47.9911
G01 X194.0162 Y48.4016
G01 X194.1021 Y48.8181
G01 X194.1627 Y49.2390
G01 X194.1978 Y49.6629
G01 X194.2073 Y50.0880
G01 X194.1911 Y50.5130
G01 X194.1492 Y50.9362
G01 X194.0819 Y51.3561
G01 X193.9893 Y51.7712
G01 X193.8914 Y52.1499
G01 X193.7704 Y52.5219
G01 X193.6267 Y52.8856
G01 X193.4608 Y53.2399
G01 X193.2735 Y53.5833
G01 X193.0654 Y53.9145
G01 X192.8372 Y54.2322
G01 X192.5900 Y54.5353
G01 X192.3245 Y54.8226
G01 X192.0419 Y55.0930
G01 X191.7432 Y55.3455
G01 X191.4294 Y55.5791
G01 X191.1019 Y55.7929
G01 X190.7619 Y55.9862
G01 X190.4105 Y56.1582
G01 X190.0493 Y56.3082
G01 X189.6795 Y56.4357
G01 X189.3026 Y56.5401
G01 X188.9199 Y56.6212
G01 X188.5330 Y56.6785
G01 X188.0842 Y56.7193
G01 X187.6336 Y56.7272
G01 X187.1836 Y56.7021
G01 X186.7367 Y56.6442
G01 X186.2952 Y56.5537
G01 X185.8615 Y56.4312
G01 X185.4379 Y56.2773
G01 X185.0267 Y56.0929
G01 X184.6301 Y55.8789
G01 X184.2502 Y55.6364
G01 X183.8890 Y55.3668
G01 X183.5486 Y55.0716
G01 X183.2306 Y54.7522
G01 X182.9368 Y54.4105
G01 X182.6688 Y54.0481
G01 X182.4281 Y53.6672
G01 X182.2228 Y53.8112
G00 Z5.0000


;No. 10: Hole 43
G00 X203.0020 Y53.8113 Z5.0000
G00 Z0.5000
G01 Z0.0000 F400
G01 Z-1.5000
G01 X209.6570 F900
G01 X208.1975 Y55.6863
G01 X203.0020
G01 Y57.5613
G01 X206.7380
G01 X203.0020 Y51.9363
G01 X205.7988
G01 X205.4960
G01 Y50.0613
G01 X203.0020
G01 Y48.1863
G01 X205.4960
G01 Y46.3113
G01 X203.0020
G01 Y44.4363
G01 X205.4960
G01 Y42.5613
G01 X203.0020
G00 Z5.0000
G00 X208.1947 Y53.8113
G00 Z0.5000
G01 Z-1.5000 F400
G01 Y51.9363 F900
G01 X211.1164
G01 X212.5759 Y50.0613
G01 X209.6546
G01 X211.1146 Y48.1863
G01 X214.1790
G01 X212.5746 Y46.3113
G01 X218.9162
G01 Y44.4363
G01 X214.0345
G01 X215.4945 Y42.5613
G01 X218.9162
G01 X215.6636 Y48.1863
G01 X218.9162
G01 Y50.0613
G01 X216.4222
G01 Y51.9363
G01 X218.9162
G01 Y53.8113
G01 X216.4222
G01 Y55.6863
G01 X218.9162
G01 Y57.5613
G01 X216.4222
G01 X216.1722 Y57.5407
G01 Y58.8263
G01 X219.1662
G01 Y41.2962
G01 X216.1626
G01 X207.9823 Y51.8021
G01 X207.9199 Y51.8762
G01 X207.8519 Y51.9452
G01 X207.7788 Y52.0087
G01 X207.7010 Y52.0664
G01 X207.6190 Y52.1179
G01 X207.5332 Y52.1628
G01 X207.4442 Y52.2010
G01 X207.3525 Y52.2322
G01 X207.2587 Y52.2562
G01 X207.1633 Y52.2729
G01 X207.0668 Y52.2821
G01 X206.9700 Y52.2839
G01 X206.8733 Y52.2781
G01 X206.7774 Y52.2649
G01 X206.6828 Y52.2443
G01 X206.5900 Y52.2164
G01 X206.4997 Y52.1814
G01 X206.4124 Y52.1395
G01 X206.3285 Y52.0910
G01 X206.2487 Y52.0362
G01 X206.1734 Y51.9753
G01 X206.1030 Y51.9088
G01 X206.0379 Y51.8370
G01 X205.9787 Y51.7604
G01 X205.9255 Y51.6795
G01 X205.8787 Y51.5947
G01 X205.8387 Y51.5065
G01 X205.8056 Y51.4155
G01 X205.7796 Y51.3222
G01 X205.7610 Y51.2271
G01 X205.7498 Y51.1309
G01 X205.7460 Y51.0341
G01 Y41.2962
G01 X202.7520
G01 Y58.8263
G01 X206.0702
G01 X213.9358 Y48.7212
G01 X213.9982 Y48.6471
G01 X214.0662 Y48.5781
G01 X214.1393 Y48.5145
G01 X214.2171 Y48.4568
G01 X214.2991 Y48.4053
G01 X214.3849 Y48.3604
G01 X214.4739 Y48.3221
G01 X214.5655 Y48.2909
G01 X214.6594 Y48.2669
G01 X214.7548 Y48.2502
G01 X214.8512 Y48.2410
G01 X214.9480 Y48.2392
G01 X215.0447 Y48.2450
G01 X215.1407 Y48.2582
G01 X215.2353 Y48.2788
G01 X215.3281 Y48.3067
G01 X215.4184 Y48.3417
G01 X215.5057 Y48.3835
G01 X215.5896 Y48.4320
G01 X215.6694 Y48.4869
G01 X215.7448 Y48.5478
G01 X215.8152 Y48.6143
G01 X215.8802 Y48.6860
G01 X215.9395 Y48.7626
G01 X215.9927 Y48.8436
G01 X216.0394 Y48.9284
G01 X216.0795 Y49.0166
G01 X216.1126 Y49.1076
G01 X216.1386 Y49.2009
G01 X216.1572 Y49.2960
G01 X216.1684 Y49.3922
G01 X216.1722 Y49.4890
G01 Y57.5407
G01 X216.4222 Y57.5613
G00 Z5.0000


;No. 11: Hole 44
G00 X225.4644 Y57.5613 Z5.0000
G00 Z0.5000
G01 Z0.0000 F400
G01 Z-1.5000
G01 X228.0155 F900
G01 Y55.6863
G01 X225.4644
G01 Y53.8113
G01 X228.0155
G01 Y51.9363
G01 X225.4644
G01 Y50.0613
G01 X228.0155
G01 Y48.1863
G01 X225.4644
G01 Y46.3113
G01 X228.0155
G01 X228.0928 Y44.4363
G01 X225.4644
G01 Y42.5613
G01 X237.7158
G01 X237.9658 Y42.5577
G01 Y41.2962
G01 X225.2144
G01 Y58.8263
G01 X228.2655
G01 Y44.9107
G01 X228.2694 Y44.8126
G01 X228.2809 Y44.7151
G01 X228.3001 Y44.6188
G01 X228.3267 Y44.5244
G01 X228.3607 Y44.4323
G01 X228.4018 Y44.3432
G01 X228.4497 Y44.2575
G01 X228.5043 Y44.1759
G01 X228.5650 Y44.0988
G01 X228.6317 Y44.0268
G01 X228.7037 Y43.9601
G01 X228.7808 Y43.8994
G01 X228.8624 Y43.8449
G01 X228.9481 Y43.7969
G01 X229.0372 Y43.7558
G01 X229.1293 Y43.7218
G01 X229.2237 Y43.6952
G01 X229.3200 Y43.6760
G01 X229.4175 Y43.6645
G01 X229.5155 Y43.6607
G01 X237.9658
G01 Y42.5577
G01 X237.7158 Y42.5613
G00 Z5.0000


;No. 12: Hole 45
G00 X245.1510 Y42.5613 Z5.0000
G00 Z0.5000
G01 Z0.0000 F400
G01 Z-1.5000
G01 X247.7308 F900
G01 Y44.4363
G01 X245.1510
G01 Y46.3113
G01 X247.7308
G01 X247.8391 Y48.1863
G01 X245.0052
G01 X243.8767 Y50.0613
G01 X248.9599
G01 X250.1064 Y51.9363
G01 X247.7240
G01 X248.7960 Y53.8113
G01 X251.2530
G01 X252.3995 Y55.6863
G01 X249.8622
G01 X250.9283 Y57.5613
G01 X253.5461
G00 Z5.0000
G00 X245.2438 Y50.0613
G00 Z0.5000
G01 Z-1.5000 F400
G01 Y51.9363 F900
G01 X242.7380
G01 X241.5993 Y53.8113
G01 X244.1786
G01 X243.1198 Y55.6863
G01 X240.4606
G01 X239.3219 Y57.5613
G01 X242.0610
G01 X242.2878 Y57.6679
G01 X245.3954 Y52.1650
G01 X245.4448 Y52.0847
G01 X245.5000 Y52.0085
G01 X245.5609 Y51.9366
G01 X245.6270 Y51.8695
G01 X245.6980 Y51.8075
G01 X245.7734 Y51.7511
G01 X245.8529 Y51.7005
G01 X245.9359 Y51.6561
G01 X246.0221 Y51.6180
G01 X246.1109 Y51.5866
G01 X246.2018 Y51.5619
G01 X246.2943 Y51.5441
G01 X246.3878 Y51.5333
G01 X246.4820 Y51.5296
G01 X246.5761 Y51.5330
G01 X246.6697 Y51.5435
G01 X246.7623 Y51.5610
G01 X246.8532 Y51.5855
G01 X246.9421 Y51.6167
G01 X247.0284 Y51.6545
G01 X247.1116 Y51.6987
G01 X247.1912 Y51.7490
G01 X247.2668 Y51.8052
G01 X247.3379 Y51.8669
G01 X247.4042 Y51.9338
G01 X247.4653 Y52.0056
G01 X247.5208 Y52.0817
G01 X247.5704 Y52.1617
G01 X251.3601 Y58.8263
G01 X254.6127
G01 X248.1644 Y48.2811
G01 X248.1222 Y48.2065
G01 X248.0852 Y48.1291
G01 X248.0536 Y48.0494
G01 X248.0276 Y47.9678
G01 X248.0072 Y47.8845
G01 X247.9926 Y47.8000
G01 X247.9838 Y47.7147
G01 X247.9808 Y47.6290
G01 Y41.2962
G01 X244.9010
G01 Y47.5432
G01 X244.8981 Y47.6284
G01 X244.8894 Y47.7132
G01 X244.8749 Y47.7972
G01 X244.8547 Y47.8801
G01 X244.8290 Y47.9614
G01 X244.7977 Y48.0407
G01 X244.7612 Y48.1177
G01 X244.7194 Y48.1920
G01 X238.2612 Y58.8263
G01 X241.6337
G01 X242.2878 Y57.6679
G01 X242.0610 Y57.5613
G00 Z5.0000


;No. 13: Hole 46
G00 X259.9325 Y57.0733 Z5.0000
G00 Z0.5000
G01 Z0.0000 F400
G01 Z-1.5000
G01 X262.9086 F900
G01 X262.6276 Y55.1983
G01 X260.2135
G01 X260.4945 Y53.3233
G01 X262.3466
G01 X262.0656 Y51.4483
G01 X260.7755
G01 X261.0565 Y49.5733
G01 X261.7846
G01 X262.0339 Y49.5502
G01 X261.7746 Y47.8203
G01 X261.0664
G01 X259.5802 Y57.7372
G01 Y58.8263
G01 X263.2609
G01 Y57.7372
G01 X262.0339 Y49.5502
G01 X261.7846 Y49.5733
G00 Z5.0000


;No. 14: Hole 47


;No. 15: Hole 47
G00 X259.8377 Y41.2962 Z5.0000
G00 Z0.5000
G01 Z0.0000 F400
G01 Z-1.5000
G01 Y43.6607 F900
G01 X263.0034
G01 Y41.2962
G01 X259.8377
G00 Z5.0000


;No. 16: Helical drill 7
G00 X273.6342 Y26.2219 Z5.0000
G00 Z0.5000
G01 X273.6299 Y26.1239 Z0.4774 F400
G01 X273.6171 Y26.0266 Z0.4549
G01 X273.5959 Y25.9308 Z0.4323
G01 X273.5664 Y25.8372 Z0.4097
G01 X273.5288 Y25.7465 Z0.3872
G01 X273.4835 Y25.6594 Z0.3646
G01 X273.4308 Y25.5767 Z0.3420
G01 X273.3710 Y25.4988 Z0.3194
G01 X273.3047 Y25.4264 Z0.2969
G01 X273.2324 Y25.3601 Z0.2743
G01 X273.1545 Y25.3004 Z0.2517
G01 X273.0717 Y25.2477 Z0.2292
G01 X272.9847 Y25.2023 Z0.2066
G01 X272.8940 Y25.1648 Z0.1840
G01 X272.8004 Y25.1353 Z0.1615
G01 X272.7046 Y25.1140 Z0.1389
G01 X272.6073 Y25.1012 Z0.1163
G01 X272.5092 Y25.0969 Z0.0938
G01 X272.4112 Y25.1012 Z0.0712
G01 X272.3139 Y25.1140 Z0.0486
G01 X272.2181 Y25.1353 Z0.0260
G01 X272.1245 Y25.1648 Z0.0035
G01 X272.0338 Y25.2023 Z-0.0191
G01 X271.9467 Y25.2477 Z-0.0417
G01 X271.8640 Y25.3004 Z-0.0642
G01 X271.7861 Y25.3601 Z-0.0868
G01 X271.7137 Y25.4264 Z-0.1094
G01 X271.6474 Y25.4988 Z-0.1319
G01 X271.5877 Y25.5767 Z-0.1545
G01 X271.5349 Y25.6594 Z-0.1771
G01 X271.4896 Y25.7465 Z-0.1997
G01 X271.4521 Y25.8372 Z-0.2222
G01 X271.4226 Y25.9308 Z-0.2448
G01 X271.4013 Y26.0266 Z-0.2674
G01 X271.3885 Y26.1239 Z-0.2899
G01 X271.3842 Y26.2219 Z-0.3125
G01 X271.3885 Y26.3200 Z-0.3351
G01 X271.4013 Y26.4173 Z-0.3576
G01 X271.4226 Y26.5131 Z-0.3802
G01 X271.4521 Y26.6067 Z-0.4028
G01 X271.4896 Y26.6974 Z-0.4253
G01 X271.5349 Y26.7844 Z-0.4479
G01 X271.5877 Y26.8672 Z-0.4705
G01 X271.6474 Y26.9451 Z-0.4931
G01 X271.7137 Y27.0174 Z-0.5156
G01 X271.7861 Y27.0837 Z-0.5382
G01 X271.8640 Y27.1435 Z-0.5608
G01 X271.9467 Y27.1962 Z-0.5833
G01 X272.0338 Y27.2415 Z-0.6059
G01 X272.1245 Y27.2791 Z-0.6285
G01 X272.2181 Y27.3086 Z-0.6510
G01 X272.3139 Y27.3298 Z-0.6736
G01 X272.4112 Y27.3427 Z-0.6962
G01 X272.5092 Y27.3469 Z-0.7188
G01 X272.6073 Y27.3427 Z-0.7413
G01 X272.7046 Y27.3298 Z-0.7639
G01 X272.8004 Y27.3086 Z-0.7865
G01 X272.8940 Y27.2791 Z-0.8090
G01 X272.9847 Y27.2415 Z-0.8316
G01 X273.0717 Y27.1962 Z-0.8542
G01 X273.1545 Y27.1435 Z-0.8767
G01 X273.2324 Y27.0837 Z-0.8993
G01 X273.3047 Y27.0174 Z-0.9219
G01 X273.3710 Y26.9451 Z-0.9444
G01 X273.4308 Y26.8672 Z-0.9670
G01 X273.4835 Y26.7844 Z-0.9896
G01 X273.5288 Y26.6974 Z-1.0122
G01 X273.5664 Y26.6067 Z-1.0347
G01 X273.5959 Y26.5131 Z-1.0573
G01 X273.6171 Y26.4173 Z-1.0799
G01 X273.6299 Y26.3200 Z-1.1024
G01 X273.6342 Y26.2219 Z-1.1250
G01 X273.6299 Y26.1239
G01 X273.6171 Y26.0266
G01 X273.5959 Y25.9308
G01 X273.5664 Y25.8372
G01 X273.5288 Y25.7465
G01 X273.4835 Y25.6594
G01 X273.4308 Y25.5767
G01 X273.3710 Y25.4988
G01 X273.3047 Y25.4264
G01 X273.2324 Y25.3601
G01 X273.1545 Y25.3004
G01 X273.0717 Y25.2477
G01 X272.9847 Y25.2023
G01 X272.8940 Y25.1648
G01 X272.8004 Y25.1353
G01 X272.7046 Y25.1140
G01 X272.6073 Y25.1012
G01 X272.5092 Y25.0969
G01 X272.4112 Y25.1012
G01 X272.3139 Y25.1140
G01 X272.2181 Y25.1353
G01 X272.1245 Y25.1648
G01 X272.0338 Y25.2023
G01 X271.9467 Y25.2477
G01 X271.8640 Y25.3004
G01 X271.7861 Y25.3601
G01 X271.7137 Y25.4264
G01 X271.6474 Y25.4988
G01 X271.5877 Y25.5767
G01 X271.5349 Y25.6594
G01 X271.4896 Y25.7465
G01 X271.4521 Y25.8372
G01 X271.4226 Y25.9308
G01 X271.4013 Y26.0266
G01 X271.3885 Y26.1239
G01 X271.3842 Y26.2219
G01 X271.3885 Y26.3200
G01 X271.4013 Y26.4173
G01 X271.4226 Y26.5131
G01 X271.4521 Y26.6067
G01 X271.4896 Y26.6974
G01 X271.5349 Y26.7844
G01 X271.5877 Y26.8672
G01 X271.6474 Y26.9451
G01 X271.7137 Y27.0174
G01 X271.7861 Y27.0837
G01 X271.8640 Y27.1435
G01 X271.9467 Y27.1962
G01 X272.0338 Y27.2415
G01 X272.1245 Y27.2791
G01 X272.2181 Y27.3086
G01 X272.3139 Y27.3298
G01 X272.4112 Y27.3427
G01 X272.5092 Y27.3469
G01 X272.6073 Y27.3427
G01 X272.7046 Y27.3298
G01 X272.8004 Y27.3086
G01 X272.8940 Y27.2791
G01 X272.9847 Y27.2415
G01 X273.0717 Y27.1962
G01 X273.1545 Y27.1435
G01 X273.2324 Y27.0837
G01 X273.3047 Y27.0174
G01 X273.3710 Y26.9451
G01 X273.4308 Y26.8672
G01 X273.4835 Y26.7844
G01 X273.5288 Y26.6974
G01 X273.5664 Y26.6067
G01 X273.5959 Y26.5131
G01 X273.6171 Y26.4173
G01 X273.6299 Y26.3200
G01 X273.6342 Y26.2219
G01 X273.6479 Y26.1636 F900
G01 X273.6584 Y26.1046
G01 X273.6660 Y26.0452
G01 X273.6704 Y25.9854
G01 X273.6716 Y25.9255
G01 X273.6698 Y25.8657
G01 X273.6649 Y25.8059
G01 X273.6569 Y25.7466
G01 X273.6330 Y25.6903
G01 X273.6063 Y25.6352
G01 X273.5770 Y25.5815
G01 X273.5451 Y25.5293
G01 X273.5107 Y25.4788
G01 X273.4738 Y25.4300
G01 X273.4346 Y25.3830
G01 X273.3931 Y25.3381
G01 X273.3487 Y25.2958
G01 X273.3022 Y25.2557
G01 X273.2538 Y25.2179
G01 X273.2037 Y25.1826
G01 X273.1518 Y25.1498
G01 X273.0985 Y25.1196
G01 X273.0437 Y25.0920
G01 X272.9876 Y25.0671
G01 X272.9303 Y25.0450
G01 X272.8721 Y25.0258
G01 X272.8129 Y25.0094
G01 X272.7531 Y24.9960
G01 X272.6926 Y24.9855
G01 X272.6317 Y24.9780
G01 X272.5706 Y24.9735
G01 X272.5092 Y24.9720
G01 X272.4479 Y24.9735
G01 X272.3867 Y24.9780
G01 X272.3258 Y24.9855
G01 X272.2654 Y24.9960
G01 X272.2055 Y25.0094
G01 X272.1464 Y25.0258
G01 X272.0881 Y25.0450
G01 X272.0309 Y25.0671
G01 X271.9748 Y25.0920
G01 X271.9200 Y25.1196
G01 X271.8666 Y25.1498
G01 X271.8148 Y25.1826
G01 X271.7646 Y25.2179
G01 X271.7163 Y25.2557
G01 X271.6698 Y25.2958
G01 X271.6254 Y25.3381
G01 X271.5831 Y25.3825
G01 X271.5430 Y25.4290
G01 X271.5052 Y25.4773
G01 X271.4699 Y25.5275
G01 X271.4371 Y25.5793
G01 X271.4068 Y25.6327
G01 X271.3793 Y25.6875
G01 X271.3544 Y25.7436
G01 X271.3323 Y25.8008
G01 X271.3131 Y25.8591
G01 X271.2967 Y25.9182
G01 X271.2833 Y25.9781
G01 X271.2728 Y26.0385
G01 X271.2653 Y26.0994
G01 X271.2608 Y26.1606
G01 X271.2593 Y26.2219
G01 X271.2608 Y26.2833
G01 X271.2653 Y26.3445
G01 X271.2728 Y26.4053
G01 X271.2833 Y26.4658
G01 X271.2967 Y26.5257
G01 X271.3131 Y26.5848
G01 X271.3323 Y26.6430
G01 X271.3544 Y26.7003
G01 X271.3793 Y26.7564
G01 X271.4068 Y26.8112
G01 X271.4371 Y26.8646
G01 X271.4699 Y26.9164
G01 X271.5052 Y26.9665
G01 X271.5430 Y27.0149
G01 X271.5831 Y27.0614
G01 X271.6254 Y27.1058
G01 X271.6698 Y27.1481
G01 X271.7163 Y27.1882
G01 X271.7646 Y27.2259
G01 X271.8148 Y27.2613
G01 X271.8666 Y27.2941
G01 X271.9200 Y27.3243
G01 X271.9748 Y27.3519
G01 X272.0309 Y27.3768
G01 X272.0881 Y27.3988
G01 X272.1464 Y27.4181
G01 X272.2055 Y27.4344
G01 X272.2654 Y27.4479
G01 X272.3258 Y27.4584
G01 X272.3867 Y27.4659
G01 X272.4479 Y27.4704
G01 X272.5092 Y27.4719
G01 X272.5706 Y27.4704
G01 X272.6317 Y27.4659
G01 X272.6926 Y27.4584
G01 X272.7531 Y27.4479
G01 X272.8129 Y27.4344
G01 X272.8721 Y27.4181
G01 X272.9303 Y27.3988
G01 X272.9876 Y27.3768
G01 X273.0437 Y27.3519
G01 X273.0985 Y27.3243
G01 X273.1518 Y27.2941
G01 X273.2037 Y27.2613
G01 X273.2538 Y27.2259
G01 X273.3022 Y27.1882
G01 X273.3487 Y27.1481
G01 X273.3931 Y27.1058
G01 X273.4354 Y27.0614
G01 X273.4755 Y27.0149
G01 X273.5132 Y26.9665
G01 X273.5485 Y26.9164
G01 X273.5814 Y26.8646
G01 X273.6116 Y26.8112
G01 X273.6392 Y26.7564
G01 X273.6640 Y26.7003
G01 X273.6861 Y26.6430
G01 X273.7054 Y26.5848
G01 X273.7217 Y26.5257
G01 X273.7352 Y26.4658
G01 X273.7457 Y26.4053
G01 X273.7532 Y26.3445
G01 X273.7577 Y26.2833
G01 X273.7592 Y26.2219
G01 X273.7557 Y26.1285
G01 X273.7452 Y26.0356
G01 X273.7279 Y25.9438
G01 X273.7037 Y25.8535
G01 X273.6728 Y25.7653
G01 X273.6354 Y25.6796
G01 X273.5917 Y25.5969
G01 X273.5420 Y25.5178
G01 X273.4865 Y25.4426
G01 X273.4255 Y25.3717
G01 X273.3594 Y25.3056
G01 X273.2886 Y25.2447
G01 X273.2134 Y25.1892
G01 X273.1342 Y25.1394
G01 X273.0516 Y25.0957
G01 X272.9659 Y25.0584
G01 X272.8777 Y25.0275
G01 X272.7874 Y25.0033
G01 X272.6955 Y24.9859
G01 X272.6026 Y24.9755
G01 X272.5092 Y24.9720
G01 X272.4158 Y24.9755
G01 X272.3229 Y24.9859
G01 X272.2311 Y25.0033
G01 X272.1408 Y25.0275
G01 X272.0526 Y25.0584
G01 X271.9669 Y25.0957
G01 X271.8842 Y25.1394
G01 X271.8051 Y25.1892
G01 X271.7299 Y25.2447
G01 X271.6590 Y25.3056
G01 X271.5929 Y25.3717
G01 X271.5320 Y25.4426
G01 X271.4764 Y25.5178
G01 X271.4267 Y25.5969
G01 X271.3830 Y25.6796
G01 X271.3457 Y25.7653
G01 X271.3148 Y25.8535
G01 X271.2906 Y25.9438
G01 X271.2732 Y26.0356
G01 X271.2627 Y26.1285
G01 X271.2593 Y26.2219
G01 X271.2627 Y26.3153
G01 X271.2732 Y26.4082
G01 X271.2906 Y26.5001
G01 X271.3148 Y26.5904
G01 X271.3457 Y26.6786
G01 X271.3830 Y26.7643
G01 X271.4267 Y26.8469
G01 X271.4764 Y26.9261
G01 X271.5320 Y27.0013
G01 X271.5929 Y27.0721
G01 X271.6590 Y27.1382
G01 X271.7299 Y27.1992
G01 X271.8051 Y27.2547
G01 X271.8842 Y27.3044
G01 X271.9669 Y27.3481
G01 X272.0526 Y27.3855
G01 X272.1408 Y27.4164
G01 X272.2311 Y27.4406
G01 X272.3229 Y27.4579
G01 X272.4158 Y27.4684
G01 X272.5092 Y27.4719
G01 X272.6026 Y27.4684
G01 X272.6955 Y27.4579
G01 X272.7874 Y27.4406
G01 X272.8777 Y27.4164
G01 X272.9659 Y27.3855
G01 X273.0516 Y27.3481
G01 X273.1342 Y27.3044
G01 X273.2134 Y27.2547
G01 X273.2886 Y27.1992
G01 X273.3594 Y27.1382
G01 X273.4255 Y27.0721
G01 X273.4865 Y27.0013
G01 X273.5420 Y26.9261
G01 X273.5917 Y26.8469
G01 X273.6354 Y26.7643
G01 X273.6728 Y26.6786
G01 X273.7037 Y26.5904
G01 X273.7279 Y26.5001
G01 X273.7452 Y26.4082
G01 X273.7557 Y26.3153
G01 X273.7592 Y26.2219
G01 X273.7547 Y26.1184
G01 X273.7412 Y26.0157
G01 X273.7187 Y25.9146
G01 X273.6876 Y25.8158
G01 X273.6479 Y25.7201
G01 X273.6001 Y25.6282
G01 X273.5444 Y25.5408
G01 X273.4814 Y25.4586
G01 X273.4114 Y25.3823
G01 X273.3350 Y25.3123
G01 X273.2528 Y25.2492
G01 X273.1655 Y25.1935
G01 X273.0736 Y25.1457
G01 X272.9779 Y25.1061
G01 X272.8791 Y25.0749
G01 X272.7779 Y25.0525
G01 X272.6752 Y25.0390
G01 X272.5717 Y25.0344
G01 X272.4682 Y25.0390
G01 X272.3655 Y25.0525
G01 X272.2644 Y25.0749
G01 X272.1656 Y25.1061
G01 X272.0699 Y25.1457
G01 X271.9780 Y25.1935
G01 X271.8906 Y25.2492
G01 X271.8084 Y25.3123
G01 X271.7320 Y25.3823
G01 X271.6620 Y25.4586
G01 X271.5990 Y25.5408
G01 X271.5433 Y25.6282
G01 X271.4955 Y25.7201
G01 X271.4558 Y25.8158
G01 X271.4247 Y25.9146
G01 X271.4023 Y26.0157
G01 X271.3887 Y26.1184
G01 X271.3842 Y26.2219
G01 X271.3885 Y26.3200
G01 X271.4013 Y26.4173
G01 X271.4226 Y26.5131
G01 X271.4521 Y26.6067
G01 X271.4896 Y26.6974
G01 X271.5349 Y26.7844
G01 X271.5877 Y26.8672
G01 X271.6474 Y26.9451
G01 X271.7137 Y27.0174
G01 X271.7861 Y27.0837
G01 X271.8640 Y27.1435
G01 X271.9467 Y27.1962
G01 X272.0338 Y27.2415
G01 X272.1245 Y27.2791
G01 X272.2181 Y27.3086
G01 X272.3139 Y27.3298
G01 X272.4112 Y27.3427
G01 X272.5092 Y27.3469
G01 X272.6073 Y27.3427
G01 X272.7046 Y27.3298
G01 X272.8004 Y27.3086
G01 X272.8940 Y27.2791
G01 X272.9847 Y27.2415
G01 X273.0717 Y27.1962
G01 X273.1545 Y27.1435
G01 X273.2324 Y27.0837
G01 X273.3047 Y27.0174
G01 X273.3710 Y26.9451
G01 X273.4308 Y26.8672
G01 X273.4835 Y26.7844
G01 X273.5288 Y26.6974
G01 X273.5664 Y26.6067
G01 X273.5959 Y26.5131
G01 X273.6171 Y26.4173
G01 X273.6299 Y26.3200
G01 X273.6342 Y26.2219
G01 X273.6299 Y26.1239 Z-1.1476 F400
G01 X273.6171 Y26.0266 Z-1.1701
G01 X273.5959 Y25.9308 Z-1.1927
G01 X273.5664 Y25.8372 Z-1.2153
G01 X273.5288 Y25.7465 Z-1.2378
G01 X273.4835 Y25.6594 Z-1.2604
G01 X273.4308 Y25.5767 Z-1.2830
G01 X273.3710 Y25.4988 Z-1.3056
G01 X273.3047 Y25.4264 Z-1.3281
G01 X273.2324 Y25.3601 Z-1.3507
G01 X273.1545 Y25.3004 Z-1.3733
G01 X273.0717 Y25.2477 Z-1.3958
G01 X272.9847 Y25.2023 Z-1.4184
G01 X272.8940 Y25.1648 Z-1.4410
G01 X272.8004 Y25.1353 Z-1.4635
G01 X272.7046 Y25.1140 Z-1.4861
G01 X272.6073 Y25.1012 Z-1.5087
G01 X272.5092 Y25.0969 Z-1.5313
G01 X272.4112 Y25.1012 Z-1.5538
G01 X272.3139 Y25.1140 Z-1.5764
G01 X272.2181 Y25.1353 Z-1.5990
G01 X272.1245 Y25.1648 Z-1.6215
G01 X272.0338 Y25.2023 Z-1.6441
G01 X271.9467 Y25.2477 Z-1.6667
G01 X271.8640 Y25.3004 Z-1.6892
G01 X271.7861 Y25.3601 Z-1.7118
G01 X271.7137 Y25.4264 Z-1.7344
G01 X271.6474 Y25.4988 Z-1.7569
G01 X271.5877 Y25.5767 Z-1.7795
G01 X271.5349 Y25.6594 Z-1.8021
G01 X271.4896 Y25.7465 Z-1.8247
G01 X271.4521 Y25.8372 Z-1.8472
G01 X271.4226 Y25.9308 Z-1.8698
G01 X271.4013 Y26.0266 Z-1.8924
G01 X271.3885 Y26.1239 Z-1.9149
G01 X271.3842 Y26.2219 Z-1.9375
G01 X271.3885 Y26.3200 Z-1.9601
G01 X271.4013 Y26.4173 Z-1.9826
G01 X271.4226 Y26.5131 Z-2.0052
G01 X271.4521 Y26.6067 Z-2.0278
G01 X271.4896 Y26.6974 Z-2.0503
G01 X271.5349 Y26.7844 Z-2.0729
G01 X271.5877 Y26.8672 Z-2.0955
G01 X271.6474 Y26.9451 Z-2.1181
G01 X271.7137 Y27.0174 Z-2.1406
G01 X271.7861 Y27.0837 Z-2.1632
G01 X271.8640 Y27.1435 Z-2.1858
G01 X271.9467 Y27.1962 Z-2.2083
G01 X272.0338 Y27.2415 Z-2.2309
G01 X272.1245 Y27.2791 Z-2.2535
G01 X272.2181 Y27.3086 Z-2.2760
G01 X272.3139 Y27.3298 Z-2.2986
G01 X272.4112 Y27.3427 Z-2.3212
G01 X272.5092 Y27.3469 Z-2.3438
G01 X272.6073 Y27.3427 Z-2.3663
G01 X272.7046 Y27.3298 Z-2.3889
G01 X272.8004 Y27.3086 Z-2.4115
G01 X272.8940 Y27.2791 Z-2.4340
G01 X272.9847 Y27.2415 Z-2.4566
G01 X273.0717 Y27.1962 Z-2.4792
G01 X273.1545 Y27.1435 Z-2.5017
G01 X273.2324 Y27.0837 Z-2.5243
G01 X273.3047 Y27.0174 Z-2.5469
G01 X273.3710 Y26.9451 Z-2.5694
G01 X273.4308 Y26.8672 Z-2.5920
G01 X273.4835 Y26.7844 Z-2.6146
G01 X273.5288 Y26.6974 Z-2.6372
G01 X273.5664 Y26.6067 Z-2.6597
G01 X273.5959 Y26.5131 Z-2.6823
G01 X273.6171 Y26.4173 Z-2.7049
G01 X273.6299 Y26.3200 Z-2.7274
G01 X273.6342 Y26.2219 Z-2.7500
G01 X273.6299 Y26.1239
G01 X273.6171 Y26.0266
G01 X273.5959 Y25.9308
G01 X273.5664 Y25.8372
G01 X273.5288 Y25.7465
G01 X273.4835 Y25.6594
G01 X273.4308 Y25.5767
G01 X273.3710 Y25.4988
G01 X273.3047 Y25.4264
G01 X273.2324 Y25.3601
G01 X273.1545 Y25.3004
G01 X273.0717 Y25.2477
G01 X272.9847 Y25.2023
G01 X272.8940 Y25.1648
G01 X272.8004 Y25.1353
G01 X272.7046 Y25.1140
G01 X272.6073 Y25.1012
G01 X272.5092 Y25.0969
G01 X272.4112 Y25.1012
G01 X272.3139 Y25.1140
G01 X272.2181 Y25.1353
G01 X272.1245 Y25.1648
G01 X272.0338 Y25.2023
G01 X271.9467 Y25.2477
G01 X271.8640 Y25.3004
G01 X271.7861 Y25.3601
G01 X271.7137 Y25.4264
G01 X271.6474 Y25.4988
G01 X271.5877 Y25.5767
G01 X271.5349 Y25.6594
G01 X271.4896 Y25.7465
G01 X271.4521 Y25.8372
G01 X271.4226 Y25.9308
G01 X271.4013 Y26.0266
G01 X271.3885 Y26.1239
G01 X271.3842 Y26.2219
G01 X271.3885 Y26.3200
G01 X271.4013 Y26.4173
G01 X271.4226 Y26.5131
G01 X271.4521 Y26.6067
G01 X271.4896 Y26.6974
G01 X271.5349 Y26.7844
G01 X271.5877 Y26.8672
G01 X271.6474 Y26.9451
G01 X271.7137 Y27.0174
G01 X271.7861 Y27.0837
G01 X271.8640 Y27.1435
G01 X271.9467 Y27.1962
G01 X272.0338 Y27.2415
G01 X272.1245 Y27.2791
G01 X272.2181 Y27.3086
G01 X272.3139 Y27.3298
G01 X272.4112 Y27.3427
G01 X272.5092 Y27.3469
G01 X272.6073 Y27.3427
G01 X272.7046 Y27.3298
G01 X272.8004 Y27.3086
G01 X272.8940 Y27.2791
G01 X272.9847 Y27.2415
G01 X273.0717 Y27.1962
G01 X273.1545 Y27.1435
G01 X273.2324 Y27.0837
G01 X273.3047 Y27.0174
G01 X273.3710 Y26.9451
G01 X273.4308 Y26.8672
G01 X273.4835 Y26.7844
G01 X273.5288 Y26.6974
G01 X273.5664 Y26.6067
G01 X273.5959 Y26.5131
G01 X273.6171 Y26.4173
G01 X273.6299 Y26.3200
G01 X273.6342 Y26.2219
G01 X273.6479 Y26.1636 F900
G01 X273.6584 Y26.1046
G01 X273.6660 Y26.0452
G01 X273.6704 Y25.9854
G01 X273.6716 Y25.9255
G01 X273.6698 Y25.8657
G01 X273.6649 Y25.8059
G01 X273.6569 Y25.7466
G01 X273.6330 Y25.6903
G01 X273.6063 Y25.6352
G01 X273.5770 Y25.5815
G01 X273.5451 Y25.5293
G01 X273.5107 Y25.4788
G01 X273.4738 Y25.4300
G01 X273.4346 Y25.3830
G01 X273.3931 Y25.3381
G01 X273.3487 Y25.2958
G01 X273.3022 Y25.2557
G01 X273.2538 Y25.2179
G01 X273.2037 Y25.1826
G01 X273.1518 Y25.1498
G01 X273.0985 Y25.1196
G01 X273.0437 Y25.0920
G01 X272.9876 Y25.0671
G01 X272.9303 Y25.0450
G01 X272.8721 Y25.0258
G01 X272.8129 Y25.0094
G01 X272.7531 Y24.9960
G01 X272.6926 Y24.9855
G01 X272.6317 Y24.9780
G01 X272.5706 Y24.9735
G01 X272.5092 Y24.9720
G01 X272.4479 Y24.9735
G01 X272.3867 Y24.9780
G01 X272.3258 Y24.9855
G01 X272.2654 Y24.9960
G01 X272.2055 Y25.0094
G01 X272.1464 Y25.0258
G01 X272.0881 Y25.0450
G01 X272.0309 Y25.0671
G01 X271.9748 Y25.0920
G01 X271.9200 Y25.1196
G01 X271.8666 Y25.1498
G01 X271.8148 Y25.1826
G01 X271.7646 Y25.2179
G01 X271.7163 Y25.2557
G01 X271.6698 Y25.2958
G01 X271.6254 Y25.3381
G01 X271.5831 Y25.3825
G01 X271.5430 Y25.4290
G01 X271.5052 Y25.4773
G01 X271.4699 Y25.5275
G01 X271.4371 Y25.5793
G01 X271.4068 Y25.6327
G01 X271.3793 Y25.6875
G01 X271.3544 Y25.7436
G01 X271.3323 Y25.8008
G01 X271.3131 Y25.8591
G01 X271.2967 Y25.9182
G01 X271.2833 Y25.9781
G01 X271.2728 Y26.0385
G01 X271.2653 Y26.0994
G01 X271.2608 Y26.1606
G01 X271.2593 Y26.2219
G01 X271.2608 Y26.2833
G01 X271.2653 Y26.3445
G01 X271.2728 Y26.4053
G01 X271.2833 Y26.4658
G01 X271.2967 Y26.5257
G01 X271.3131 Y26.5848
G01 X271.3323 Y26.6430
G01 X271.3544 Y26.7003
G01 X271.3793 Y26.7564
G01 X271.4068 Y26.8112
G01 X271.4371 Y26.8646
G01 X271.4699 Y26.9164
G01 X271.5052 Y26.9665
G01 X271.5430 Y27.0149
G01 X271.5831 Y27.0614
G01 X271.6254 Y27.1058
G01 X271.6698 Y27.1481
G01 X271.7163 Y27.1882
G01 X271.7646 Y27.2259
G01 X271.8148 Y27.2613
G01 X271.8666 Y27.2941
G01 X271.9200 Y27.3243
G01 X271.9748 Y27.3519
G01 X272.0309 Y27.3768
G01 X272.0881 Y27.3988
G01 X272.1464 Y27.4181
G01 X272.2055 Y27.4344
G01 X272.2654 Y27.4479
G01 X272.3258 Y27.4584
G01 X272.3867 Y27.4659
G01 X272.4479 Y27.4704
G01 X272.5092 Y27.4719
G01 X272.5706 Y27.4704
G01 X272.6317 Y27.4659
G01 X272.6926 Y27.4584
G01 X272.7531 Y27.4479
G01 X272.8129 Y27.4344
G01 X272.8721 Y27.4181
G01 X272.9303 Y27.3988
G01 X272.9876 Y27.3768
G01 X273.0437 Y27.3519
G01 X273.0985 Y27.3243
G01 X273.1518 Y27.2941
G01 X273.2037 Y27.2613
G01 X273.2538 Y27.2259
G01 X273.3022 Y27.1882
G01 X273.3487 Y27.1481
G01 X273.3931 Y27.1058
G01 X273.4354 Y27.0614
G01 X273.4755 Y27.0149
G01 X273.5132 Y26.9665
G01 X273.5485 Y26.9164
G01 X273.5814 Y26.8646
G01 X273.6116 Y26.8112
G01 X273.6392 Y26.7564
G01 X273.6640 Y26.7003
G01 X273.6861 Y26.6430
G01 X273.7054 Y26.5848
G01 X273.7217 Y26.5257
G01 X273.7352 Y26.4658
G01 X273.7457 Y26.4053
G01 X273.7532 Y26.3445
G01 X273.7577 Y26.2833
G01 X273.7592 Y26.2219
G01 X273.7557 Y26.1285
G01 X273.7452 Y26.0356
G01 X273.7279 Y25.9438
G01 X273.7037 Y25.8535
G01 X273.6728 Y25.7653
G01 X273.6354 Y25.6796
G01 X273.5917 Y25.5969
G01 X273.5420 Y25.5178
G01 X273.4865 Y25.4426
G01 X273.4255 Y25.3717
G01 X273.3594 Y25.3056
G01 X273.2886 Y25.2447
G01 X273.2134 Y25.1892
G01 X273.1342 Y25.1394
G01 X273.0516 Y25.0957
G01 X272.9659 Y25.0584
G01 X272.8777 Y25.0275
G01 X272.7874 Y25.0033
G01 X272.6955 Y24.9859
G01 X272.6026 Y24.9755
G01 X272.5092 Y24.9720
G01 X272.4158 Y24.9755
G01 X272.3229 Y24.9859
G01 X272.2311 Y25.0033
G01 X272.1408 Y25.0275
G01 X272.0526 Y25.0584
G01 X271.9669 Y25.0957
G01 X271.8842 Y25.1394
G01 X271.8051 Y25.1892
G01 X271.7299 Y25.2447
G01 X271.6590 Y25.3056
G01 X271.5929 Y25.3717
G01 X271.5320 Y25.4426
G01 X271.4764 Y25.5178
G01 X271.4267 Y25.5969
G01 X271.3830 Y25.6796
G01 X271.3457 Y25.7653
G01 X271.3148 Y25.8535
G01 X271.2906 Y25.9438
G01 X271.2732 Y26.0356
G01 X271.2627 Y26.1285
G01 X271.2593 Y26.2219
G01 X271.2627 Y26.3153
G01 X271.2732 Y26.4082
G01 X271.2906 Y26.5001
G01 X271.3148 Y26.5904
G01 X271.3457 Y26.6786
G01 X271.3830 Y26.7643
G01 X271.4267 Y26.8469
G01 X271.4764 Y26.9261
G01 X271.5320 Y27.0013
G01 X271.5929 Y27.0721
G01 X271.6590 Y27.1382
G01 X271.7299 Y27.1992
G01 X271.8051 Y27.2547
G01 X271.8842 Y27.3044
G01 X271.9669 Y27.3481
G01 X272.0526 Y27.3855
G01 X272.1408 Y27.4164
G01 X272.2311 Y27.4406
G01 X272.3229 Y27.4579
G01 X272.4158 Y27.4684
G01 X272.5092 Y27.4719
G01 X272.6026 Y27.4684
G01 X272.6955 Y27.4579
G01 X272.7874 Y27.4406
G01 X272.8777 Y27.4164
G01 X272.9659 Y27.3855
G01 X273.0516 Y27.3481
G01 X273.1342 Y27.3044
G01 X273.2134 Y27.2547
G01 X273.2886 Y27.1992
G01 X273.3594 Y27.1382
G01 X273.4255 Y27.0721
G01 X273.4865 Y27.0013
G01 X273.5420 Y26.9261
G01 X273.5917 Y26.8469
G01 X273.6354 Y26.7643
G01 X273.6728 Y26.6786
G01 X273.7037 Y26.5904
G01 X273.7279 Y26.5001
G01 X273.7452 Y26.4082
G01 X273.7557 Y26.3153
G01 X273.7592 Y26.2219
G01 X273.7547 Y26.1184
G01 X273.7412 Y26.0157
G01 X273.7187 Y25.9146
G01 X273.6876 Y25.8158
G01 X273.6479 Y25.7201
G01 X273.6001 Y25.6282
G01 X273.5444 Y25.5408
G01 X273.4814 Y25.4586
G01 X273.4114 Y25.3823
G01 X273.3350 Y25.3123
G01 X273.2528 Y25.2492
G01 X273.1655 Y25.1935
G01 X273.0736 Y25.1457
G01 X272.9779 Y25.1061
G01 X272.8791 Y25.0749
G01 X272.7779 Y25.0525
G01 X272.6752 Y25.0390
G01 X272.5717 Y25.0344
G01 X272.4682 Y25.0390
G01 X272.3655 Y25.0525
G01 X272.2644 Y25.0749
G01 X272.1656 Y25.1061
G01 X272.0699 Y25.1457
G01 X271.9780 Y25.1935
G01 X271.8906 Y25.2492
G01 X271.8084 Y25.3123
G01 X271.7320 Y25.3823
G01 X271.6620 Y25.4586
G01 X271.5990 Y25.5408
G01 X271.5433 Y25.6282
G01 X271.4955 Y25.7201
G01 X271.4558 Y25.8158
G01 X271.4247 Y25.9146
G01 X271.4023 Y26.0157
G01 X271.3887 Y26.1184
G01 X271.3842 Y26.2219
G01 X271.3885 Y26.3200
G01 X271.4013 Y26.4173
G01 X271.4226 Y26.5131
G01 X271.4521 Y26.6067
G01 X271.4896 Y26.6974
G01 X271.5349 Y26.7844
G01 X271.5877 Y26.8672
G01 X271.6474 Y26.9451
G01 X271.7137 Y27.0174
G01 X271.7861 Y27.0837
G01 X271.8640 Y27.1435
G01 X271.9467 Y27.1962
G01 X272.0338 Y27.2415
G01 X272.1245 Y27.2791
G01 X272.2181 Y27.3086
G01 X272.3139 Y27.3298
G01 X272.4112 Y27.3427
G01 X272.5092 Y27.3469
G01 X272.6073 Y27.3427
G01 X272.7046 Y27.3298
G01 X272.8004 Y27.3086
G01 X272.8940 Y27.2791
G01 X272.9847 Y27.2415
G01 X273.0717 Y27.1962
G01 X273.1545 Y27.1435
G01 X273.2324 Y27.0837
G01 X273.3047 Y27.0174
G01 X273.3710 Y26.9451
G01 X273.4308 Y26.8672
G01 X273.4835 Y26.7844
G01 X273.5288 Y26.6974
G01 X273.5664 Y26.6067
G01 X273.5959 Y26.5131
G01 X273.6171 Y26.4173
G01 X273.6299 Y26.3200
G01 X273.6342 Y26.2219
G01 X273.6299 Y26.1239 Z-2.7726 F400
G01 X273.6171 Y26.0266 Z-2.7951
G01 X273.5959 Y25.9308 Z-2.8177
G01 X273.5664 Y25.8372 Z-2.8403
G01 X273.5288 Y25.7465 Z-2.8628
G01 X273.4835 Y25.6594 Z-2.8854
G01 X273.4308 Y25.5767 Z-2.9080
G01 X273.3710 Y25.4988 Z-2.9306
G01 X273.3047 Y25.4264 Z-2.9531
G01 X273.2324 Y25.3601 Z-2.9757
G01 X273.1545 Y25.3004 Z-2.9983
G01 X273.0717 Y25.2477 Z-3.0208
G01 X272.9847 Y25.2023 Z-3.0434
G01 X272.8940 Y25.1648 Z-3.0660
G01 X272.8004 Y25.1353 Z-3.0885
G01 X272.7046 Y25.1140 Z-3.1111
G01 X272.6073 Y25.1012 Z-3.1337
G01 X272.5092 Y25.0969 Z-3.1563
G01 X272.4112 Y25.1012 Z-3.1788
G01 X272.3139 Y25.1140 Z-3.2014
G01 X272.2181 Y25.1353 Z-3.2240
G01 X272.1245 Y25.1648 Z-3.2465
G01 X272.0338 Y25.2023 Z-3.2691
G01 X271.9467 Y25.2477 Z-3.2917
G01 X271.8640 Y25.3004 Z-3.3142
G01 X271.7861 Y25.3601 Z-3.3368
G01 X271.7137 Y25.4264 Z-3.3594
G01 X271.6474 Y25.4988 Z-3.3819
G01 X271.5877 Y25.5767 Z-3.4045
G01 X271.5349 Y25.6594 Z-3.4271
G01 X271.4896 Y25.7465 Z-3.4497
G01 X271.4521 Y25.8372 Z-3.4722
G01 X271.4226 Y25.9308 Z-3.4948
G01 X271.4013 Y26.0266 Z-3.5174
G01 X271.3885 Y26.1239 Z-3.5399
G01 X271.3842 Y26.2219 Z-3.5625
G01 X271.3885 Y26.3200 Z-3.5851
G01 X271.4013 Y26.4173 Z-3.6076
G01 X271.4226 Y26.5131 Z-3.6302
G01 X271.4521 Y26.6067 Z-3.6528
G01 X271.4896 Y26.6974 Z-3.6753
G01 X271.5349 Y26.7844 Z-3.6979
G01 X271.5877 Y26.8672 Z-3.7205
G01 X271.6474 Y26.9451 Z-3.7431
G01 X271.7137 Y27.0174 Z-3.7656
G01 X271.7861 Y27.0837 Z-3.7882
G01 X271.8640 Y27.1435 Z-3.8108
G01 X271.9467 Y27.1962 Z-3.8333
G01 X272.0338 Y27.2415 Z-3.8559
G01 X272.1245 Y27.2791 Z-3.8785
G01 X272.2181 Y27.3086 Z-3.9010
G01 X272.3139 Y27.3298 Z-3.9236
G01 X272.4112 Y27.3427 Z-3.9462
G01 X272.5092 Y27.3469 Z-3.9688
G01 X272.6073 Y27.3427 Z-3.9913
G01 X272.7046 Y27.3298 Z-4.0139
G01 X272.8004 Y27.3086 Z-4.0365
G01 X272.8940 Y27.2791 Z-4.0590
G01 X272.9847 Y27.2415 Z-4.0816
G01 X273.0717 Y27.1962 Z-4.1042
G01 X273.1545 Y27.1435 Z-4.1267
G01 X273.2324 Y27.0837 Z-4.1493
G01 X273.3047 Y27.0174 Z-4.1719
G01 X273.3710 Y26.9451 Z-4.1944
G01 X273.4308 Y26.8672 Z-4.2170
G01 X273.4835 Y26.7844 Z-4.2396
G01 X273.5288 Y26.6974 Z-4.2622
G01 X273.5664 Y26.6067 Z-4.2847
G01 X273.5959 Y26.5131 Z-4.3073
G01 X273.6171 Y26.4173 Z-4.3299
G01 X273.6299 Y26.3200 Z-4.3524
G01 X273.6342 Y26.2219 Z-4.3750
G01 X273.6299 Y26.1239
G01 X273.6171 Y26.0266
G01 X273.5959 Y25.9308
G01 X273.5664 Y25.8372
G01 X273.5288 Y25.7465
G01 X273.4835 Y25.6594
G01 X273.4308 Y25.5767
G01 X273.3710 Y25.4988
G01 X273.3047 Y25.4264
G01 X273.2324 Y25.3601
G01 X273.1545 Y25.3004
G01 X273.0717 Y25.2477
G01 X272.9847 Y25.2023
G01 X272.8940 Y25.1648
G01 X272.8004 Y25.1353
G01 X272.7046 Y25.1140
G01 X272.6073 Y25.1012
G01 X272.5092 Y25.0969
G01 X272.4112 Y25.1012
G01 X272.3139 Y25.1140
G01 X272.2181 Y25.1353
G01 X272.1245 Y25.1648
G01 X272.0338 Y25.2023
G01 X271.9467 Y25.2477
G01 X271.8640 Y25.3004
G01 X271.7861 Y25.3601
G01 X271.7137 Y25.4264
G01 X271.6474 Y25.4988
G01 X271.5877 Y25.5767
G01 X271.5349 Y25.6594
G01 X271.4896 Y25.7465
G01 X271.4521 Y25.8372
G01 X271.4226 Y25.9308
G01 X271.4013 Y26.0266
G01 X271.3885 Y26.1239
G01 X271.3842 Y26.2219
G01 X271.3885 Y26.3200
G01 X271.4013 Y26.4173
G01 X271.4226 Y26.5131
G01 X271.4521 Y26.6067
G01 X271.4896 Y26.6974
G01 X271.5349 Y26.7844
G01 X271.5877 Y26.8672
G01 X271.6474 Y26.9451
G01 X271.7137 Y27.0174
G01 X271.7861 Y27.0837
G01 X271.8640 Y27.1435
G01 X271.9467 Y27.1962
G01 X272.0338 Y27.2415
G01 X272.1245 Y27.2791
G01 X272.2181 Y27.3086
G01 X272.3139 Y27.3298
G01 X272.4112 Y27.3427
G01 X272.5092 Y27.3469
G01 X272.6073 Y27.3427
G01 X272.7046 Y27.3298
G01 X272.8004 Y27.3086
G01 X272.8940 Y27.2791
G01 X272.9847 Y27.2415
G01 X273.0717 Y27.1962
G01 X273.1545 Y27.1435
G01 X273.2324 Y27.0837
G01 X273.3047 Y27.0174
G01 X273.3710 Y26.9451
G01 X273.4308 Y26.8672
G01 X273.4835 Y26.7844
G01 X273.5288 Y26.6974
G01 X273.5664 Y26.6067
G01 X273.5959 Y26.5131
G01 X273.6171 Y26.4173
G01 X273.6299 Y26.3200
G01 X273.6342 Y26.2219
G01 X273.6479 Y26.1636 F900
G01 X273.6584 Y26.1046
G01 X273.6660 Y26.0452
G01 X273.6704 Y25.9854
G01 X273.6716 Y25.9255
G01 X273.6698 Y25.8657
G01 X273.6649 Y25.8059
G01 X273.6569 Y25.7466
G01 X273.6330 Y25.6903
G01 X273.6063 Y25.6352
G01 X273.5770 Y25.5815
G01 X273.5451 Y25.5293
G01 X273.5107 Y25.4788
G01 X273.4738 Y25.4300
G01 X273.4346 Y25.3830
G01 X273.3931 Y25.3381
G01 X273.3487 Y25.2958
G01 X273.3022 Y25.2557
G01 X273.2538 Y25.2179
