;Project Notahorse_01
;Created by Estlcam version 11 build 11,121
;Machining time about 00:22:59 hours

G90
M03 S18000
G00 X0.0000 Y0.0000 Z0.0000
G00 Z2.0000


;No. 1: Helical drill 1
G00 X33.3464 Y266.6875
G00 Z0.5000
M106 S240
G01 X33.3452 Y266.6404 Z0.4958 F400 S18000
G01 X33.3415 Y266.5934 Z0.4917
G01 X33.3353 Y266.5467 Z0.4875
G01 X33.3267 Y266.5004 Z0.4833
G01 X33.3157 Y266.4546 Z0.4792
G01 X33.3023 Y266.4094 Z0.4750
G01 X33.2866 Y266.3650 Z0.4708
G01 X33.2686 Y266.3215 Z0.4667
G01 X33.2483 Y266.2789 Z0.4625
G01 X33.2258 Y266.2375 Z0.4583
G01 X33.2012 Y266.1973 Z0.4542
G01 X33.1745 Y266.1585 Z0.4500
G01 X33.1458 Y266.1211 Z0.4458
G01 X33.1152 Y266.0853 Z0.4417
G01 X33.0828 Y266.0511 Z0.4375
G01 X33.0486 Y266.0187 Z0.4333
G01 X33.0128 Y265.9881 Z0.4292
G01 X32.9754 Y265.9594 Z0.4250
G01 X32.9366 Y265.9327 Z0.4208
G01 X32.8964 Y265.9081 Z0.4167
G01 X32.8550 Y265.8856 Z0.4125
G01 X32.8124 Y265.8653 Z0.4083
G01 X32.7689 Y265.8473 Z0.4042
G01 X32.7245 Y265.8316 Z0.4000
G01 X32.6793 Y265.8182 Z0.3958
G01 X32.6335 Y265.8072 Z0.3917
G01 X32.5872 Y265.7986 Z0.3875
G01 X32.5405 Y265.7925 Z0.3833
G01 X32.4935 Y265.7888 Z0.3792
G01 X32.4464 Y265.7875 Z0.3750
G01 X32.3993 Y265.7888 Z0.3708
G01 X32.3523 Y265.7925 Z0.3667
G01 X32.3056 Y265.7986 Z0.3625
G01 X32.2593 Y265.8072 Z0.3583
G01 X32.2134 Y265.8182 Z0.3542
G01 X32.1683 Y265.8316 Z0.3500
G01 X32.1239 Y265.8473 Z0.3458
G01 X32.0803 Y265.8653 Z0.3417
G01 X32.0378 Y265.8856 Z0.3375
G01 X31.9964 Y265.9081 Z0.3333
G01 X31.9562 Y265.9327 Z0.3292
G01 X31.9174 Y265.9594 Z0.3250
G01 X31.8800 Y265.9881 Z0.3208
G01 X31.8442 Y266.0187 Z0.3167
G01 X31.8100 Y266.0511 Z0.3125
G01 X31.7776 Y266.0853 Z0.3083
G01 X31.7470 Y266.1211 Z0.3042
G01 X31.7183 Y266.1585 Z0.3000
G01 X31.6916 Y266.1973 Z0.2958
G01 X31.6670 Y266.2375 Z0.2917
G01 X31.6445 Y266.2789 Z0.2875
G01 X31.6242 Y266.3215 Z0.2833
G01 X31.6062 Y266.3650 Z0.2792
G01 X31.5904 Y266.4094 Z0.2750
G01 X31.5771 Y266.4546 Z0.2708
G01 X31.5661 Y266.5004 Z0.2667
G01 X31.5575 Y266.5467 Z0.2625
G01 X31.5513 Y266.5934 Z0.2583
G01 X31.5476 Y266.6404 Z0.2542
G01 X31.5464 Y266.6875 Z0.2500
G01 X31.5476 Y266.7346 Z0.2458
G01 X31.5513 Y266.7816 Z0.2417
G01 X31.5575 Y266.8283 Z0.2375
G01 X31.5661 Y266.8746 Z0.2333
G01 X31.5771 Y266.9205 Z0.2292
G01 X31.5904 Y266.9656 Z0.2250
G01 X31.6062 Y267.0101 Z0.2208
G01 X31.6242 Y267.0536 Z0.2167
G01 X31.6445 Y267.0961 Z0.2125
G01 X31.6670 Y267.1375 Z0.2083
G01 X31.6916 Y267.1777 Z0.2042
G01 X31.7183 Y267.2165 Z0.2000
G01 X31.7470 Y267.2539 Z0.1958
G01 X31.7776 Y267.2897 Z0.1917
G01 X31.8100 Y267.3239 Z0.1875
G01 X31.8442 Y267.3564 Z0.1833
G01 X31.8800 Y267.3870 Z0.1792
G01 X31.9174 Y267.4156 Z0.1750
G01 X31.9562 Y267.4423 Z0.1708
G01 X31.9964 Y267.4669 Z0.1667
G01 X32.0378 Y267.4894 Z0.1625
G01 X32.0803 Y267.5097 Z0.1583
G01 X32.1239 Y267.5277 Z0.1542
G01 X32.1683 Y267.5435 Z0.1500
G01 X32.2134 Y267.5569 Z0.1458
G01 X32.2593 Y267.5679 Z0.1417
G01 X32.3056 Y267.5764 Z0.1375
G01 X32.3523 Y267.5826 Z0.1333
G01 X32.3993 Y267.5863 Z0.1292
G01 X32.4464 Y267.5875 Z0.1250
G01 X32.4935 Y267.5863 Z0.1208
G01 X32.5405 Y267.5826 Z0.1167
G01 X32.5872 Y267.5764 Z0.1125
G01 X32.6335 Y267.5679 Z0.1083
G01 X32.6793 Y267.5569 Z0.1042
G01 X32.7245 Y267.5435 Z0.1000
G01 X32.7689 Y267.5277 Z0.0958
G01 X32.8124 Y267.5097 Z0.0917
G01 X32.8550 Y267.4894 Z0.0875
G01 X32.8964 Y267.4669 Z0.0833
G01 X32.9366 Y267.4423 Z0.0792
G01 X32.9754 Y267.4156 Z0.0750
G01 X33.0128 Y267.3870 Z0.0708
G01 X33.0486 Y267.3564 Z0.0667
G01 X33.0828 Y267.3239 Z0.0625
G01 X33.1152 Y267.2897 Z0.0583
G01 X33.1458 Y267.2539 Z0.0542
G01 X33.1745 Y267.2165 Z0.0500
G01 X33.2012 Y267.1777 Z0.0458
G01 X33.2258 Y267.1375 Z0.0417
G01 X33.2483 Y267.0961 Z0.0375
G01 X33.2686 Y267.0536 Z0.0333
G01 X33.2866 Y267.0101 Z0.0292
G01 X33.3023 Y266.9656 Z0.0250
G01 X33.3157 Y266.9205 Z0.0208
G01 X33.3267 Y266.8746 Z0.0167
G01 X33.3353 Y266.8283 Z0.0125
G01 X33.3415 Y266.7816 Z0.0083
G01 X33.3452 Y266.7346 Z0.0042
G01 X33.3464 Y266.6875 Z0.0000
G01 X33.3452 Y266.6404
G01 X33.3415 Y266.5934
G01 X33.3353 Y266.5467
G01 X33.3267 Y266.5004
G01 X33.3157 Y266.4546
G01 X33.3023 Y266.4094
G01 X33.2866 Y266.3650
G01 X33.2686 Y266.3215
G01 X33.2483 Y266.2789
G01 X33.2258 Y266.2375
G01 X33.2012 Y266.1973
G01 X33.1745 Y266.1585
G01 X33.1458 Y266.1211
G01 X33.1152 Y266.0853
G01 X33.0828 Y266.0511
G01 X33.0486 Y266.0187
G01 X33.0128 Y265.9881
G01 X32.9754 Y265.9594
G01 X32.9366 Y265.9327
G01 X32.8964 Y265.9081
G01 X32.8550 Y265.8856
G01 X32.8124 Y265.8653
G01 X32.7689 Y265.8473
G01 X32.7245 Y265.8316
G01 X32.6793 Y265.8182
G01 X32.6335 Y265.8072
G01 X32.5872 Y265.7986
G01 X32.5405 Y265.7925
G01 X32.4935 Y265.7888
G01 X32.4464 Y265.7875
G01 X32.3993 Y265.7888
G01 X32.3523 Y265.7925
G01 X32.3056 Y265.7986
G01 X32.2593 Y265.8072
G01 X32.2134 Y265.8182
G01 X32.1683 Y265.8316
G01 X32.1239 Y265.8473
G01 X32.0803 Y265.8653
G01 X32.0378 Y265.8856
G01 X31.9964 Y265.9081
G01 X31.9562 Y265.9327
G01 X31.9174 Y265.9594
G01 X31.8800 Y265.9881
G01 X31.8442 Y266.0187
G01 X31.8100 Y266.0511
G01 X31.7776 Y266.0853
G01 X31.7470 Y266.1211
G01 X31.7183 Y266.1585
G01 X31.6916 Y266.1973
G01 X31.6670 Y266.2375
G01 X31.6445 Y266.2789
G01 X31.6242 Y266.3215
G01 X31.6062 Y266.3650
G01 X31.5904 Y266.4094
G01 X31.5771 Y266.4546
G01 X31.5661 Y266.5004
G01 X31.5575 Y266.5467
G01 X31.5513 Y266.5934
G01 X31.5476 Y266.6404
G01 X31.5464 Y266.6875
G01 X31.5476 Y266.7346
G01 X31.5513 Y266.7816
G01 X31.5575 Y266.8283
G01 X31.5661 Y266.8746
G01 X31.5771 Y266.9205
G01 X31.5904 Y266.9656
G01 X31.6062 Y267.0101
G01 X31.6242 Y267.0536
G01 X31.6445 Y267.0961
G01 X31.6670 Y267.1375
G01 X31.6916 Y267.1777
G01 X31.7183 Y267.2165
G01 X31.7470 Y267.2539
G01 X31.7776 Y267.2897
G01 X31.8100 Y267.3239
G01 X31.8442 Y267.3564
G01 X31.8800 Y267.3870
G01 X31.9174 Y267.4156
G01 X31.9562 Y267.4423
G01 X31.9964 Y267.4669
G01 X32.0378 Y267.4894
G01 X32.0803 Y267.5097
G01 X32.1239 Y267.5277
G01 X32.1683 Y267.5435
G01 X32.2134 Y267.5569
G01 X32.2593 Y267.5679
G01 X32.3056 Y267.5764
G01 X32.3523 Y267.5826
G01 X32.3993 Y267.5863
G01 X32.4464 Y267.5875
G01 X32.4935 Y267.5863
G01 X32.5405 Y267.5826
G01 X32.5872 Y267.5764
G01 X32.6335 Y267.5679
G01 X32.6793 Y267.5569
G01 X32.7245 Y267.5435
G01 X32.7689 Y267.5277
G01 X32.8124 Y267.5097
G01 X32.8550 Y267.4894
G01 X32.8964 Y267.4669
G01 X32.9366 Y267.4423
G01 X32.9754 Y267.4156
G01 X33.0128 Y267.3870
G01 X33.0486 Y267.3564
G01 X33.0828 Y267.3239
G01 X33.1152 Y267.2897
G01 X33.1458 Y267.2539
G01 X33.1745 Y267.2165
G01 X33.2012 Y267.1777
G01 X33.2258 Y267.1375
G01 X33.2483 Y267.0961
G01 X33.2686 Y267.0536
G01 X33.2866 Y267.0101
G01 X33.3023 Y266.9656
G01 X33.3157 Y266.9205
G01 X33.3267 Y266.8746
G01 X33.3353 Y266.8283
G01 X33.3415 Y266.7816
G01 X33.3452 Y266.7346
G01 X33.3464 Y266.6875
M107
M106 S240
G01 X33.3452 Y266.6404 Z-0.0183
G01 X33.3415 Y266.5934 Z-0.0367
G01 X33.3353 Y266.5467 Z-0.0550
G01 X33.3267 Y266.5004 Z-0.0733
G01 X33.3157 Y266.4546 Z-0.0917
G01 X33.3023 Y266.4094 Z-0.1100
G01 X33.2866 Y266.3650 Z-0.1283
G01 X33.2686 Y266.3215 Z-0.1467
G01 X33.2483 Y266.2789 Z-0.1650
G01 X33.2258 Y266.2375 Z-0.1833
G01 X33.2012 Y266.1973 Z-0.2017
G01 X33.1745 Y266.1585 Z-0.2200
G01 X33.1458 Y266.1211 Z-0.2383
G01 X33.1152 Y266.0853 Z-0.2567
G01 X33.0828 Y266.0511 Z-0.2750
G01 X33.0486 Y266.0187 Z-0.2933
G01 X33.0128 Y265.9881 Z-0.3117
G01 X32.9754 Y265.9594 Z-0.3300
G01 X32.9366 Y265.9327 Z-0.3483
G01 X32.8964 Y265.9081 Z-0.3667
G01 X32.8550 Y265.8856 Z-0.3850
G01 X32.8124 Y265.8653 Z-0.4033
G01 X32.7689 Y265.8473 Z-0.4217
G01 X32.7245 Y265.8316 Z-0.4400
G01 X32.6793 Y265.8182 Z-0.4583
G01 X32.6335 Y265.8072 Z-0.4767
G01 X32.5872 Y265.7986 Z-0.4950
G01 X32.5405 Y265.7925 Z-0.5133
G01 X32.4935 Y265.7888 Z-0.5317
G01 X32.4464 Y265.7875 Z-0.5500
G01 X32.3993 Y265.7888 Z-0.5683
G01 X32.3523 Y265.7925 Z-0.5867
G01 X32.3056 Y265.7986 Z-0.6050
G01 X32.2593 Y265.8072 Z-0.6233
G01 X32.2134 Y265.8182 Z-0.6417
G01 X32.1683 Y265.8316 Z-0.6600
G01 X32.1239 Y265.8473 Z-0.6783
G01 X32.0803 Y265.8653 Z-0.6967
G01 X32.0378 Y265.8856 Z-0.7150
G01 X31.9964 Y265.9081 Z-0.7333
G01 X31.9562 Y265.9327 Z-0.7517
G01 X31.9174 Y265.9594 Z-0.7700
G01 X31.8800 Y265.9881 Z-0.7883
G01 X31.8442 Y266.0187 Z-0.8067
G01 X31.8100 Y266.0511 Z-0.8250
G01 X31.7776 Y266.0853 Z-0.8433
G01 X31.7470 Y266.1211 Z-0.8617
G01 X31.7183 Y266.1585 Z-0.8800
G01 X31.6916 Y266.1973 Z-0.8983
G01 X31.6670 Y266.2375 Z-0.9167
G01 X31.6445 Y266.2789 Z-0.9350
G01 X31.6242 Y266.3215 Z-0.9533
G01 X31.6062 Y266.3650 Z-0.9717
G01 X31.5904 Y266.4094 Z-0.9900
G01 X31.5771 Y266.4546 Z-1.0083
G01 X31.5661 Y266.5004 Z-1.0267
G01 X31.5575 Y266.5467 Z-1.0450
G01 X31.5513 Y266.5934 Z-1.0633
G01 X31.5476 Y266.6404 Z-1.0817
G01 X31.5464 Y266.6875 Z-1.1000
G01 X31.5476 Y266.7346 Z-1.1183
G01 X31.5513 Y266.7816 Z-1.1367
G01 X31.5575 Y266.8283 Z-1.1550
G01 X31.5661 Y266.8746 Z-1.1733
G01 X31.5771 Y266.9205 Z-1.1917
G01 X31.5904 Y266.9656 Z-1.2100
G01 X31.6062 Y267.0101 Z-1.2283
G01 X31.6242 Y267.0536 Z-1.2467
G01 X31.6445 Y267.0961 Z-1.2650
G01 X31.6670 Y267.1375 Z-1.2833
G01 X31.6916 Y267.1777 Z-1.3017
G01 X31.7183 Y267.2165 Z-1.3200
G01 X31.7470 Y267.2539 Z-1.3383
G01 X31.7776 Y267.2897 Z-1.3567
G01 X31.8100 Y267.3239 Z-1.3750
G01 X31.8442 Y267.3564 Z-1.3933
G01 X31.8800 Y267.3870 Z-1.4117
G01 X31.9174 Y267.4156 Z-1.4300
G01 X31.9562 Y267.4423 Z-1.4483
G01 X31.9964 Y267.4669 Z-1.4667
G01 X32.0378 Y267.4894 Z-1.4850
G01 X32.0803 Y267.5097 Z-1.5033
G01 X32.1239 Y267.5277 Z-1.5217
G01 X32.1683 Y267.5435 Z-1.5400
G01 X32.2134 Y267.5569 Z-1.5583
G01 X32.2593 Y267.5679 Z-1.5767
G01 X32.3056 Y267.5764 Z-1.5950
G01 X32.3523 Y267.5826 Z-1.6133
G01 X32.3993 Y267.5863 Z-1.6317
G01 X32.4464 Y267.5875 Z-1.6500
G01 X32.4935 Y267.5863 Z-1.6683
G01 X32.5405 Y267.5826 Z-1.6867
G01 X32.5872 Y267.5764 Z-1.7050
G01 X32.6335 Y267.5679 Z-1.7233
G01 X32.6793 Y267.5569 Z-1.7417
G01 X32.7245 Y267.5435 Z-1.7600
G01 X32.7689 Y267.5277 Z-1.7783
G01 X32.8124 Y267.5097 Z-1.7967
G01 X32.8550 Y267.4894 Z-1.8150
G01 X32.8964 Y267.4669 Z-1.8333
G01 X32.9366 Y267.4423 Z-1.8517
G01 X32.9754 Y267.4156 Z-1.8700
G01 X33.0128 Y267.3870 Z-1.8883
G01 X33.0486 Y267.3564 Z-1.9067
G01 X33.0828 Y267.3239 Z-1.9250
G01 X33.1152 Y267.2897 Z-1.9433
G01 X33.1458 Y267.2539 Z-1.9617
G01 X33.1745 Y267.2165 Z-1.9800
G01 X33.2012 Y267.1777 Z-1.9983
G01 X33.2258 Y267.1375 Z-2.0167
G01 X33.2483 Y267.0961 Z-2.0350
G01 X33.2686 Y267.0536 Z-2.0533
G01 X33.2866 Y267.0101 Z-2.0717
G01 X33.3023 Y266.9656 Z-2.0900
G01 X33.3157 Y266.9205 Z-2.1083
G01 X33.3267 Y266.8746 Z-2.1267
G01 X33.3353 Y266.8283 Z-2.1450
G01 X33.3415 Y266.7816 Z-2.1633
G01 X33.3452 Y266.7346 Z-2.1817
G01 X33.3464 Y266.6875 Z-2.2000
G01 X33.3452 Y266.6404
G01 X33.3415 Y266.5934
G01 X33.3353 Y266.5467
G01 X33.3267 Y266.5004
G01 X33.3157 Y266.4546
G01 X33.3023 Y266.4094
G01 X33.2866 Y266.3650
G01 X33.2686 Y266.3215
G01 X33.2483 Y266.2789
G01 X33.2258 Y266.2375
G01 X33.2012 Y266.1973
G01 X33.1745 Y266.1585
G01 X33.1458 Y266.1211
G01 X33.1152 Y266.0853
G01 X33.0828 Y266.0511
G01 X33.0486 Y266.0187
G01 X33.0128 Y265.9881
G01 X32.9754 Y265.9594
G01 X32.9366 Y265.9327
G01 X32.8964 Y265.9081
G01 X32.8550 Y265.8856
G01 X32.8124 Y265.8653
G01 X32.7689 Y265.8473
G01 X32.7245 Y265.8316
G01 X32.6793 Y265.8182
G01 X32.6335 Y265.8072
G01 X32.5872 Y265.7986
G01 X32.5405 Y265.7925
G01 X32.4935 Y265.7888
G01 X32.4464 Y265.7875
G01 X32.3993 Y265.7888
G01 X32.3523 Y265.7925
G01 X32.3056 Y265.7986
G01 X32.2593 Y265.8072
G01 X32.2134 Y265.8182
G01 X32.1683 Y265.8316
G01 X32.1239 Y265.8473
G01 X32.0803 Y265.8653
G01 X32.0378 Y265.8856
G01 X31.9964 Y265.9081
G01 X31.9562 Y265.9327
G01 X31.9174 Y265.9594
G01 X31.8800 Y265.9881
G01 X31.8442 Y266.0187
G01 X31.8100 Y266.0511
G01 X31.7776 Y266.0853
G01 X31.7470 Y266.1211
G01 X31.7183 Y266.1585
G01 X31.6916 Y266.1973
G01 X31.6670 Y266.2375
G01 X31.6445 Y266.2789
G01 X31.6242 Y266.3215
G01 X31.6062 Y266.3650
G01 X31.5904 Y266.4094
G01 X31.5771 Y266.4546
G01 X31.5661 Y266.5004
G01 X31.5575 Y266.5467
G01 X31.5513 Y266.5934
G01 X31.5476 Y266.6404
G01 X31.5464 Y266.6875
G01 X31.5476 Y266.7346
G01 X31.5513 Y266.7816
G01 X31.5575 Y266.8283
G01 X31.5661 Y266.8746
G01 X31.5771 Y266.9205
G01 X31.5904 Y266.9656
G01 X31.6062 Y267.0101
G01 X31.6242 Y267.0536
G01 X31.6445 Y267.0961
G01 X31.6670 Y267.1375
G01 X31.6916 Y267.1777
G01 X31.7183 Y267.2165
G01 X31.7470 Y267.2539
G01 X31.7776 Y267.2897
G01 X31.8100 Y267.3239
G01 X31.8442 Y267.3564
G01 X31.8800 Y267.3870
G01 X31.9174 Y267.4156
G01 X31.9562 Y267.4423
G01 X31.9964 Y267.4669
G01 X32.0378 Y267.4894
G01 X32.0803 Y267.5097
G01 X32.1239 Y267.5277
G01 X32.1683 Y267.5435
G01 X32.2134 Y267.5569
G01 X32.2593 Y267.5679
G01 X32.3056 Y267.5764
G01 X32.3523 Y267.5826
G01 X32.3993 Y267.5863
G01 X32.4464 Y267.5875
G01 X32.4935 Y267.5863
G01 X32.5405 Y267.5826
G01 X32.5872 Y267.5764
G01 X32.6335 Y267.5679
G01 X32.6793 Y267.5569
G01 X32.7245 Y267.5435
G01 X32.7689 Y267.5277
G01 X32.8124 Y267.5097
G01 X32.8550 Y267.4894
G01 X32.8964 Y267.4669
G01 X32.9366 Y267.4423
G01 X32.9754 Y267.4156
G01 X33.0128 Y267.3870
G01 X33.0486 Y267.3564
G01 X33.0828 Y267.3239
G01 X33.1152 Y267.2897
G01 X33.1458 Y267.2539
G01 X33.1745 Y267.2165
G01 X33.2012 Y267.1777
G01 X33.2258 Y267.1375
G01 X33.2483 Y267.0961
G01 X33.2686 Y267.0536
G01 X33.2866 Y267.0101
G01 X33.3023 Y266.9656
G01 X33.3157 Y266.9205
G01 X33.3267 Y266.8746
G01 X33.3353 Y266.8283
G01 X33.3415 Y266.7816
G01 X33.3452 Y266.7346
G01 X33.3464 Y266.6875
G01 X33.3558 Y266.6411 F1000
G01 X33.3628 Y266.5943
G01 X33.3675 Y266.5472
G01 X33.3696 Y266.4999
G01 X33.3694 Y266.4526
G01 X33.3667 Y266.4053
G01 X33.3616 Y266.3583
G01 X33.3541 Y266.3115
G01 X33.3434 Y266.2614
G01 X33.3301 Y266.2118
G01 X33.3143 Y266.1630
G01 X33.2961 Y266.1151
G01 X33.2754 Y266.0681
G01 X33.2524 Y266.0223
G01 X33.2270 Y265.9777
G01 X33.1995 Y265.9345
G01 X33.1674 Y265.8894
G01 X33.1331 Y265.8461
G01 X33.0966 Y265.8045
G01 X33.0581 Y265.7649
G01 X33.0177 Y265.7273
G01 X32.9753 Y265.6918
G01 X32.9312 Y265.6584
G01 X32.8855 Y265.6274
G01 X32.8349 Y265.5966
G01 X32.7828 Y265.5684
G01 X32.7293 Y265.5429
G01 X32.6746 Y265.5202
G01 X32.6188 Y265.5002
G01 X32.5621 Y265.4831
G01 X32.5045 Y265.4688
G01 X32.4464 Y265.4575
G01 X32.3838 Y265.4486
G01 X32.3208 Y265.4428
G01 X32.2576 Y265.4402
G01 X32.1944 Y265.4408
G01 X32.1312 Y265.4446
G01 X32.0684 Y265.4516
G01 X32.0060 Y265.4617
G01 X31.9441 Y265.4749
G01 X31.8792 Y265.4923
G01 X31.8151 Y265.5129
G01 X31.7523 Y265.5367
G01 X31.6906 Y265.5636
G01 X31.6305 Y265.5936
G01 X31.5718 Y265.6266
G01 X31.5150 Y265.6624
G01 X31.4600 Y265.7011
G01 X31.4038 Y265.7450
G01 X31.3499 Y265.7916
G01 X31.2984 Y265.8408
G01 X31.2495 Y265.8926
G01 X31.2032 Y265.9467
G01 X31.1597 Y266.0031
G01 X31.1190 Y266.0616
G01 X31.0814 Y266.1221
G01 X31.0525 Y266.1893
G01 X31.0270 Y266.2578
G01 X31.0049 Y266.3275
G01 X30.9862 Y266.3982
G01 X30.9710 Y266.4697
G01 X30.9594 Y266.5419
G01 X30.9513 Y266.6145
G01 X30.9468 Y266.6875
G01 X30.9486 Y266.7611
G01 X30.9541 Y266.8345
G01 X30.9631 Y266.9076
G01 X30.9756 Y266.9801
G01 X30.9918 Y267.0519
G01 X31.0114 Y267.1228
G01 X31.0345 Y267.1927
G01 X31.0610 Y267.2614
G01 X31.0908 Y267.3287
G01 X31.1239 Y267.3944
G01 X31.1602 Y267.4584
G01 X31.1996 Y267.5206
G01 X31.2419 Y267.5808
G01 X31.2872 Y267.6388
G01 X31.3353 Y267.6946
G01 X31.3860 Y267.7479
G01 X31.4393 Y267.7986
G01 X31.4951 Y267.8467
G01 X31.5531 Y267.8920
G01 X31.6133 Y267.9344
G01 X31.6755 Y267.9737
G01 X31.7395 Y268.0100
G01 X31.8052 Y268.0431
G01 X31.8725 Y268.0729
G01 X31.9412 Y268.0994
G01 X32.0111 Y268.1225
G01 X32.0820 Y268.1421
G01 X32.1538 Y268.1583
G01 X32.2264 Y268.1708
G01 X32.2994 Y268.1798
G01 X32.3728 Y268.1853
G01 X32.4464 Y268.1871
G01 X32.5200 Y268.1853
G01 X32.5934 Y268.1798
G01 X32.6664 Y268.1708
G01 X32.7389 Y268.1583
G01 X32.8107 Y268.1421
G01 X32.8817 Y268.1225
G01 X32.9516 Y268.0994
G01 X33.0202 Y268.0729
G01 X33.0875 Y268.0431
G01 X33.1533 Y268.0100
G01 X33.2173 Y267.9737
G01 X33.2795 Y267.9344
G01 X33.3397 Y267.8920
G01 X33.3977 Y267.8467
G01 X33.4534 Y267.7986
G01 X33.5067 Y267.7479
G01 X33.5575 Y267.6946
G01 X33.6056 Y267.6388
G01 X33.6508 Y267.5808
G01 X33.6932 Y267.5206
G01 X33.7326 Y267.4584
G01 X33.7689 Y267.3944
G01 X33.8020 Y267.3287
G01 X33.8318 Y267.2614
G01 X33.8583 Y267.1927
G01 X33.8814 Y267.1228
G01 X33.9010 Y267.0519
G01 X33.9171 Y266.9801
G01 X33.9297 Y266.9076
G01 X33.9387 Y266.8345
G01 X33.9441 Y266.7611
G01 X33.9459 Y266.6875
G01 X33.9417 Y266.5755
G01 X33.9292 Y266.4640
G01 X33.9083 Y266.3538
G01 X33.8793 Y266.2455
G01 X33.8423 Y266.1397
G01 X33.7974 Y266.0369
G01 X33.7450 Y265.9377
G01 X33.6854 Y265.8428
G01 X33.6188 Y265.7526
G01 X33.5456 Y265.6676
G01 X33.4663 Y265.5883
G01 X33.3813 Y265.5151
G01 X33.2911 Y265.4485
G01 X33.1962 Y265.3889
G01 X33.0970 Y265.3365
G01 X32.9942 Y265.2916
G01 X32.8884 Y265.2546
G01 X32.7801 Y265.2256
G01 X32.6699 Y265.2047
G01 X32.5584 Y265.1922
G01 X32.4464 Y265.1880
G01 X32.3343 Y265.1922
G01 X32.2229 Y265.2047
G01 X32.1127 Y265.2256
G01 X32.0044 Y265.2546
G01 X31.8985 Y265.2916
G01 X31.7958 Y265.3365
G01 X31.6966 Y265.3889
G01 X31.6017 Y265.4485
G01 X31.5114 Y265.5151
G01 X31.4264 Y265.5883
G01 X31.3471 Y265.6676
G01 X31.2740 Y265.7526
G01 X31.2074 Y265.8428
G01 X31.1477 Y265.9377
G01 X31.0953 Y266.0369
G01 X31.0505 Y266.1397
G01 X31.0135 Y266.2455
G01 X30.9844 Y266.3538
G01 X30.9636 Y266.4640
G01 X30.9510 Y266.5755
G01 X30.9468 Y266.6875
G01 X30.9510 Y266.7996
G01 X30.9636 Y266.9110
G01 X30.9844 Y267.0212
G01 X31.0135 Y267.1295
G01 X31.0505 Y267.2354
G01 X31.0953 Y267.3382
G01 X31.1477 Y267.4373
G01 X31.2074 Y267.5322
G01 X31.2740 Y267.6225
G01 X31.3471 Y267.7075
G01 X31.4264 Y267.7868
G01 X31.5114 Y267.8599
G01 X31.6017 Y267.9265
G01 X31.6966 Y267.9862
G01 X31.7958 Y268.0386
G01 X31.8985 Y268.0834
G01 X32.0044 Y268.1204
G01 X32.1127 Y268.1495
G01 X32.2229 Y268.1703
G01 X32.3343 Y268.1829
G01 X32.4464 Y268.1871
G01 X32.5584 Y268.1829
G01 X32.6699 Y268.1703
G01 X32.7801 Y268.1495
G01 X32.8884 Y268.1204
G01 X32.9942 Y268.0834
G01 X33.0970 Y268.0386
G01 X33.1962 Y267.9862
G01 X33.2911 Y267.9265
G01 X33.3813 Y267.8599
G01 X33.4663 Y267.7868
G01 X33.5456 Y267.7075
G01 X33.6188 Y267.6225
G01 X33.6854 Y267.5322
G01 X33.7450 Y267.4373
G01 X33.7974 Y267.3382
G01 X33.8423 Y267.2354
G01 X33.8793 Y267.1295
G01 X33.9083 Y267.0212
G01 X33.9292 Y266.9110
G01 X33.9417 Y266.7996
G01 X33.9459 Y266.6875
G01 X33.9414 Y266.5830
G01 X33.9277 Y266.4792
G01 X33.9051 Y266.3770
G01 X33.8736 Y266.2772
G01 X33.8335 Y266.1805
G01 X33.7852 Y266.0876
G01 X33.7290 Y265.9994
G01 X33.6652 Y265.9163
G01 X33.5945 Y265.8392
G01 X33.5174 Y265.7684
G01 X33.4343 Y265.7047
G01 X33.3460 Y265.6485
G01 X33.2532 Y265.6002
G01 X33.1565 Y265.5601
G01 X33.0567 Y265.5286
G01 X32.9545 Y265.5060
G01 X32.8507 Y265.4923
G01 X32.7462 Y265.4877
G01 X32.6416 Y265.4923
G01 X32.5378 Y265.5060
G01 X32.4356 Y265.5286
G01 X32.3358 Y265.5601
G01 X32.2391 Y265.6002
G01 X32.1463 Y265.6485
G01 X32.0580 Y265.7047
G01 X31.9750 Y265.7684
G01 X31.8978 Y265.8392
G01 X31.8271 Y265.9163
G01 X31.7634 Y265.9994
G01 X31.7071 Y266.0876
G01 X31.6588 Y266.1805
G01 X31.6187 Y266.2772
G01 X31.5873 Y266.3770
G01 X31.5646 Y266.4792
G01 X31.5509 Y266.5830
G01 X31.5464 Y266.6875
G01 X31.5476 Y266.7346
G01 X31.5513 Y266.7816
G01 X31.5575 Y266.8283
G01 X31.5661 Y266.8746
G01 X31.5771 Y266.9205
G01 X31.5904 Y266.9656
G01 X31.6062 Y267.0101
G01 X31.6242 Y267.0536
G01 X31.6445 Y267.0961
G01 X31.6670 Y267.1375
G01 X31.6916 Y267.1777
G01 X31.7183 Y267.2165
G01 X31.7470 Y267.2539
G01 X31.7776 Y267.2897
G01 X31.8100 Y267.3239
G01 X31.8442 Y267.3564
G01 X31.8800 Y267.3870
G01 X31.9174 Y267.4156
G01 X31.9562 Y267.4423
G01 X31.9964 Y267.4669
G01 X32.0378 Y267.4894
G01 X32.0803 Y267.5097
G01 X32.1239 Y267.5277
G01 X32.1683 Y267.5435
G01 X32.2134 Y267.5569
G01 X32.2593 Y267.5679
G01 X32.3056 Y267.5764
G01 X32.3523 Y267.5826
G01 X32.3993 Y267.5863
G01 X32.4464 Y267.5875
G01 X32.4935 Y267.5863
G01 X32.5405 Y267.5826
G01 X32.5872 Y267.5764
G01 X32.6335 Y267.5679
G01 X32.6793 Y267.5569
G01 X32.7245 Y267.5435
G01 X32.7689 Y267.5277
G01 X32.8124 Y267.5097
G01 X32.8550 Y267.4894
G01 X32.8964 Y267.4669
G01 X32.9366 Y267.4423
G01 X32.9754 Y267.4156
G01 X33.0128 Y267.3870
G01 X33.0486 Y267.3564
G01 X33.0828 Y267.3239
G01 X33.1152 Y267.2897
G01 X33.1458 Y267.2539
G01 X33.1745 Y267.2165
G01 X33.2012 Y267.1777
G01 X33.2258 Y267.1375
G01 X33.2483 Y267.0961
G01 X33.2686 Y267.0536
G01 X33.2866 Y267.0101
G01 X33.3023 Y266.9656
G01 X33.3157 Y266.9205
G01 X33.3267 Y266.8746
G01 X33.3353 Y266.8283
G01 X33.3415 Y266.7816
G01 X33.3452 Y266.7346
G01 X33.3464 Y266.6875
M107
M106 S240
G01 X33.3452 Y266.6404 Z-2.2183 F400
G01 X33.3415 Y266.5934 Z-2.2367
G01 X33.3353 Y266.5467 Z-2.2550
G01 X33.3267 Y266.5004 Z-2.2733
G01 X33.3157 Y266.4546 Z-2.2917
G01 X33.3023 Y266.4094 Z-2.3100
G01 X33.2866 Y266.3650 Z-2.3283
G01 X33.2686 Y266.3215 Z-2.3467
G01 X33.2483 Y266.2789 Z-2.3650
G01 X33.2258 Y266.2375 Z-2.3833
G01 X33.2012 Y266.1973 Z-2.4017
G01 X33.1745 Y266.1585 Z-2.4200
G01 X33.1458 Y266.1211 Z-2.4383
G01 X33.1152 Y266.0853 Z-2.4567
G01 X33.0828 Y266.0511 Z-2.4750
G01 X33.0486 Y266.0187 Z-2.4933
G01 X33.0128 Y265.9881 Z-2.5117
G01 X32.9754 Y265.9594 Z-2.5300
G01 X32.9366 Y265.9327 Z-2.5483
G01 X32.8964 Y265.9081 Z-2.5667
G01 X32.8550 Y265.8856 Z-2.5850
G01 X32.8124 Y265.8653 Z-2.6033
G01 X32.7689 Y265.8473 Z-2.6217
G01 X32.7245 Y265.8316 Z-2.6400
G01 X32.6793 Y265.8182 Z-2.6583
G01 X32.6335 Y265.8072 Z-2.6767
G01 X32.5872 Y265.7986 Z-2.6950
G01 X32.5405 Y265.7925 Z-2.7133
G01 X32.4935 Y265.7888 Z-2.7317
G01 X32.4464 Y265.7875 Z-2.7500
G01 X32.3993 Y265.7888 Z-2.7683
G01 X32.3523 Y265.7925 Z-2.7867
G01 X32.3056 Y265.7986 Z-2.8050
G01 X32.2593 Y265.8072 Z-2.8233
G01 X32.2134 Y265.8182 Z-2.8417
G01 X32.1683 Y265.8316 Z-2.8600
G01 X32.1239 Y265.8473 Z-2.8783
G01 X32.0803 Y265.8653 Z-2.8967
G01 X32.0378 Y265.8856 Z-2.9150
G01 X31.9964 Y265.9081 Z-2.9333
G01 X31.9562 Y265.9327 Z-2.9517
G01 X31.9174 Y265.9594 Z-2.9700
G01 X31.8800 Y265.9881 Z-2.9883
G01 X31.8442 Y266.0187 Z-3.0067
G01 X31.8100 Y266.0511 Z-3.0250
G01 X31.7776 Y266.0853 Z-3.0433
G01 X31.7470 Y266.1211 Z-3.0617
G01 X31.7183 Y266.1585 Z-3.0800
G01 X31.6916 Y266.1973 Z-3.0983
G01 X31.6670 Y266.2375 Z-3.1167
G01 X31.6445 Y266.2789 Z-3.1350
G01 X31.6242 Y266.3215 Z-3.1533
G01 X31.6062 Y266.3650 Z-3.1717
G01 X31.5904 Y266.4094 Z-3.1900
G01 X31.5771 Y266.4546 Z-3.2083
G01 X31.5661 Y266.5004 Z-3.2267
G01 X31.5575 Y266.5467 Z-3.2450
G01 X31.5513 Y266.5934 Z-3.2633
G01 X31.5476 Y266.6404 Z-3.2817
G01 X31.5464 Y266.6875 Z-3.3000
G01 X31.5476 Y266.7346 Z-3.3183
G01 X31.5513 Y266.7816 Z-3.3367
G01 X31.5575 Y266.8283 Z-3.3550
G01 X31.5661 Y266.8746 Z-3.3733
G01 X31.5771 Y266.9205 Z-3.3917
G01 X31.5904 Y266.9656 Z-3.4100
G01 X31.6062 Y267.0101 Z-3.4283
G01 X31.6242 Y267.0536 Z-3.4467
G01 X31.6445 Y267.0961 Z-3.4650
G01 X31.6670 Y267.1375 Z-3.4833
G01 X31.6916 Y267.1777 Z-3.5017
G01 X31.7183 Y267.2165 Z-3.5200
G01 X31.7470 Y267.2539 Z-3.5383
G01 X31.7776 Y267.2897 Z-3.5567
G01 X31.8100 Y267.3239 Z-3.5750
G01 X31.8442 Y267.3564 Z-3.5933
G01 X31.8800 Y267.3870 Z-3.6117
G01 X31.9174 Y267.4156 Z-3.6300
G01 X31.9562 Y267.4423 Z-3.6483
G01 X31.9964 Y267.4669 Z-3.6667
G01 X32.0378 Y267.4894 Z-3.6850
G01 X32.0803 Y267.5097 Z-3.7033
G01 X32.1239 Y267.5277 Z-3.7217
G01 X32.1683 Y267.5435 Z-3.7400
G01 X32.2134 Y267.5569 Z-3.7583
G01 X32.2593 Y267.5679 Z-3.7767
G01 X32.3056 Y267.5764 Z-3.7950
G01 X32.3523 Y267.5826 Z-3.8133
G01 X32.3993 Y267.5863 Z-3.8317
G01 X32.4464 Y267.5875 Z-3.8500
G01 X32.4935 Y267.5863 Z-3.8683
G01 X32.5405 Y267.5826 Z-3.8867
G01 X32.5872 Y267.5764 Z-3.9050
G01 X32.6335 Y267.5679 Z-3.9233
G01 X32.6793 Y267.5569 Z-3.9417
G01 X32.7245 Y267.5435 Z-3.9600
G01 X32.7689 Y267.5277 Z-3.9783
G01 X32.8124 Y267.5097 Z-3.9967
G01 X32.8550 Y267.4894 Z-4.0150
G01 X32.8964 Y267.4669 Z-4.0333
G01 X32.9366 Y267.4423 Z-4.0517
G01 X32.9754 Y267.4156 Z-4.0700
G01 X33.0128 Y267.3870 Z-4.0883
G01 X33.0486 Y267.3564 Z-4.1067
G01 X33.0828 Y267.3239 Z-4.1250
G01 X33.1152 Y267.2897 Z-4.1433
G01 X33.1458 Y267.2539 Z-4.1617
G01 X33.1745 Y267.2165 Z-4.1800
G01 X33.2012 Y267.1777 Z-4.1983
G01 X33.2258 Y267.1375 Z-4.2167
G01 X33.2483 Y267.0961 Z-4.2350
G01 X33.2686 Y267.0536 Z-4.2533
G01 X33.2866 Y267.0101 Z-4.2717
G01 X33.3023 Y266.9656 Z-4.2900
G01 X33.3157 Y266.9205 Z-4.3083
G01 X33.3267 Y266.8746 Z-4.3267
G01 X33.3353 Y266.8283 Z-4.3450
G01 X33.3415 Y266.7816 Z-4.3633
G01 X33.3452 Y266.7346 Z-4.3817
G01 X33.3464 Y266.6875 Z-4.4000
G01 X33.3452 Y266.6404
G01 X33.3415 Y266.5934
G01 X33.3353 Y266.5467
G01 X33.3267 Y266.5004
G01 X33.3157 Y266.4546
G01 X33.3023 Y266.4094
G01 X33.2866 Y266.3650
G01 X33.2686 Y266.3215
G01 X33.2483 Y266.2789
G01 X33.2258 Y266.2375
G01 X33.2012 Y266.1973
G01 X33.1745 Y266.1585
G01 X33.1458 Y266.1211
G01 X33.1152 Y266.0853
G01 X33.0828 Y266.0511
G01 X33.0486 Y266.0187
G01 X33.0128 Y265.9881
G01 X32.9754 Y265.9594
G01 X32.9366 Y265.9327
G01 X32.8964 Y265.9081
G01 X32.8550 Y265.8856
G01 X32.8124 Y265.8653
G01 X32.7689 Y265.8473
G01 X32.7245 Y265.8316
G01 X32.6793 Y265.8182
G01 X32.6335 Y265.8072
G01 X32.5872 Y265.7986
G01 X32.5405 Y265.7925
G01 X32.4935 Y265.7888
G01 X32.4464 Y265.7875
G01 X32.3993 Y265.7888
G01 X32.3523 Y265.7925
G01 X32.3056 Y265.7986
G01 X32.2593 Y265.8072
G01 X32.2134 Y265.8182
G01 X32.1683 Y265.8316
G01 X32.1239 Y265.8473
G01 X32.0803 Y265.8653
G01 X32.0378 Y265.8856
G01 X31.9964 Y265.9081
G01 X31.9562 Y265.9327
G01 X31.9174 Y265.9594
G01 X31.8800 Y265.9881
G01 X31.8442 Y266.0187
G01 X31.8100 Y266.0511
G01 X31.7776 Y266.0853
G01 X31.7470 Y266.1211
G01 X31.7183 Y266.1585
G01 X31.6916 Y266.1973
G01 X31.6670 Y266.2375
G01 X31.6445 Y266.2789
G01 X31.6242 Y266.3215
G01 X31.6062 Y266.3650
G01 X31.5904 Y266.4094
G01 X31.5771 Y266.4546
G01 X31.5661 Y266.5004
G01 X31.5575 Y266.5467
G01 X31.5513 Y266.5934
G01 X31.5476 Y266.6404
G01 X31.5464 Y266.6875
G01 X31.5476 Y266.7346
G01 X31.5513 Y266.7816
G01 X31.5575 Y266.8283
G01 X31.5661 Y266.8746
G01 X31.5771 Y266.9205
G01 X31.5904 Y266.9656
G01 X31.6062 Y267.0101
G01 X31.6242 Y267.0536
G01 X31.6445 Y267.0961
G01 X31.6670 Y267.1375
G01 X31.6916 Y267.1777
G01 X31.7183 Y267.2165
G01 X31.7470 Y267.2539
G01 X31.7776 Y267.2897
G01 X31.8100 Y267.3239
G01 X31.8442 Y267.3564
G01 X31.8800 Y267.3870
G01 X31.9174 Y267.4156
G01 X31.9562 Y267.4423
G01 X31.9964 Y267.4669
G01 X32.0378 Y267.4894
G01 X32.0803 Y267.5097
G01 X32.1239 Y267.5277
G01 X32.1683 Y267.5435
G01 X32.2134 Y267.5569
G01 X32.2593 Y267.5679
G01 X32.3056 Y267.5764
G01 X32.3523 Y267.5826
G01 X32.3993 Y267.5863
G01 X32.4464 Y267.5875
G01 X32.4935 Y267.5863
G01 X32.5405 Y267.5826
G01 X32.5872 Y267.5764
G01 X32.6335 Y267.5679
G01 X32.6793 Y267.5569
G01 X32.7245 Y267.5435
G01 X32.7689 Y267.5277
G01 X32.8124 Y267.5097
G01 X32.8550 Y267.4894
G01 X32.8964 Y267.4669
G01 X32.9366 Y267.4423
G01 X32.9754 Y267.4156
G01 X33.0128 Y267.3870
G01 X33.0486 Y267.3564
G01 X33.0828 Y267.3239
G01 X33.1152 Y267.2897
G01 X33.1458 Y267.2539
G01 X33.1745 Y267.2165
G01 X33.2012 Y267.1777
G01 X33.2258 Y267.1375
G01 X33.2483 Y267.0961
G01 X33.2686 Y267.0536
G01 X33.2866 Y267.0101
G01 X33.3023 Y266.9656
G01 X33.3157 Y266.9205
G01 X33.3267 Y266.8746
G01 X33.3353 Y266.8283
G01 X33.3415 Y266.7816
G01 X33.3452 Y266.7346
G01 X33.3464 Y266.6875
G01 X33.3558 Y266.6411 F1000
G01 X33.3628 Y266.5943
G01 X33.3675 Y266.5472
G01 X33.3696 Y266.4999
G01 X33.3694 Y266.4526
G01 X33.3667 Y266.4053
G01 X33.3616 Y266.3583
G01 X33.3541 Y266.3115
G01 X33.3434 Y266.2614
G01 X33.3301 Y266.2118
G01 X33.3143 Y266.1630
G01 X33.2961 Y266.1151
G01 X33.2754 Y266.0681
G01 X33.2524 Y266.0223
G01 X33.2270 Y265.9777
G01 X33.1995 Y265.9345
G01 X33.1674 Y265.8894
G01 X33.1331 Y265.8461
G01 X33.0966 Y265.8045
G01 X33.0581 Y265.7649
G01 X33.0177 Y265.7273
G01 X32.9753 Y265.6918
G01 X32.9312 Y265.6584
G01 X32.8855 Y265.6274
G01 X32.8349 Y265.5966
G01 X32.7828 Y265.5684
G01 X32.7293 Y265.5429
G01 X32.6746 Y265.5202
G01 X32.6188 Y265.5002
G01 X32.5621 Y265.4831
G01 X32.5045 Y265.4688
G01 X32.4464 Y265.4575
G01 X32.3838 Y265.4486
G01 X32.3208 Y265.4428
G01 X32.2576 Y265.4402
G01 X32.1944 Y265.4408
G01 X32.1312 Y265.4446
G01 X32.0684 Y265.4516
G01 X32.0060 Y265.4617
G01 X31.9441 Y265.4749
G01 X31.8792 Y265.4923
G01 X31.8151 Y265.5129
G01 X31.7523 Y265.5367
G01 X31.6906 Y265.5636
G01 X31.6305 Y265.5936
G01 X31.5718 Y265.6266
G01 X31.5150 Y265.6624
G01 X31.4600 Y265.7011
G01 X31.4038 Y265.7450
G01 X31.3499 Y265.7916
G01 X31.2984 Y265.8408
G01 X31.2495 Y265.8926
G01 X31.2032 Y265.9467
G01 X31.1597 Y266.0031
G01 X31.1190 Y266.0616
G01 X31.0814 Y266.1221
G01 X31.0525 Y266.1893
G01 X31.0270 Y266.2578
G01 X31.0049 Y266.3275
G01 X30.9862 Y266.3982
G01 X30.9710 Y266.4697
G01 X30.9594 Y266.5419
G01 X30.9513 Y266.6145
G01 X30.9468 Y266.6875
G01 X30.9486 Y266.7611
G01 X30.9541 Y266.8345
G01 X30.9631 Y266.9076
G01 X30.9756 Y266.9801
G01 X30.9918 Y267.0519
G01 X31.0114 Y267.1228
G01 X31.0345 Y267.1927
G01 X31.0610 Y267.2614
G01 X31.0908 Y267.3287
G01 X31.1239 Y267.3944
G01 X31.1602 Y267.4584
G01 X31.1996 Y267.5206
G01 X31.2419 Y267.5808
G01 X31.2872 Y267.6388
G01 X31.3353 Y267.6946
G01 X31.3860 Y267.7479
G01 X31.4393 Y267.7986
G01 X31.4951 Y267.8467
G01 X31.5531 Y267.8920
G01 X31.6133 Y267.9344
G01 X31.6755 Y267.9737
G01 X31.7395 Y268.0100
G01 X31.8052 Y268.0431
G01 X31.8725 Y268.0729
G01 X31.9412 Y268.0994
G01 X32.0111 Y268.1225
G01 X32.0820 Y268.1421
G01 X32.1538 Y268.1583
G01 X32.2264 Y268.1708
G01 X32.2994 Y268.1798
G01 X32.3728 Y268.1853
G01 X32.4464 Y268.1871
G01 X32.5200 Y268.1853
G01 X32.5934 Y268.1798
G01 X32.6664 Y268.1708
G01 X32.7389 Y268.1583
G01 X32.8107 Y268.1421
G01 X32.8817 Y268.1225
G01 X32.9516 Y268.0994
G01 X33.0202 Y268.0729
G01 X33.0875 Y268.0431
G01 X33.1533 Y268.0100
G01 X33.2173 Y267.9737
G01 X33.2795 Y267.9344
G01 X33.3397 Y267.8920
G01 X33.3977 Y267.8467
G01 X33.4534 Y267.7986
G01 X33.5067 Y267.7479
G01 X33.5575 Y267.6946
G01 X33.6056 Y267.6388
G01 X33.6508 Y267.5808
G01 X33.6932 Y267.5206
G01 X33.7326 Y267.4584
G01 X33.7689 Y267.3944
G01 X33.8020 Y267.3287
G01 X33.8318 Y267.2614
G01 X33.8583 Y267.1927
G01 X33.8814 Y267.1228
G01 X33.9010 Y267.0519
G01 X33.9171 Y266.9801
G01 X33.9297 Y266.9076
G01 X33.9387 Y266.8345
G01 X33.9441 Y266.7611
G01 X33.9459 Y266.6875
G01 X33.9417 Y266.5755
G01 X33.9292 Y266.4640
G01 X33.9083 Y266.3538
G01 X33.8793 Y266.2455
G01 X33.8423 Y266.1397
G01 X33.7974 Y266.0369
G01 X33.7450 Y265.9377
G01 X33.6854 Y265.8428
G01 X33.6188 Y265.7526
G01 X33.5456 Y265.6676
G01 X33.4663 Y265.5883
G01 X33.3813 Y265.5151
G01 X33.2911 Y265.4485
G01 X33.1962 Y265.3889
G01 X33.0970 Y265.3365
G01 X32.9942 Y265.2916
G01 X32.8884 Y265.2546
G01 X32.7801 Y265.2256
G01 X32.6699 Y265.2047
G01 X32.5584 Y265.1922
G01 X32.4464 Y265.1880
G01 X32.3343 Y265.1922
G01 X32.2229 Y265.2047
G01 X32.1127 Y265.2256
G01 X32.0044 Y265.2546
G01 X31.8985 Y265.2916
G01 X31.7958 Y265.3365
G01 X31.6966 Y265.3889
G01 X31.6017 Y265.4485
G01 X31.5114 Y265.5151
G01 X31.4264 Y265.5883
G01 X31.3471 Y265.6676
G01 X31.2740 Y265.7526
G01 X31.2074 Y265.8428
G01 X31.1477 Y265.9377
G01 X31.0953 Y266.0369
G01 X31.0505 Y266.1397
G01 X31.0135 Y266.2455
G01 X30.9844 Y266.3538
G01 X30.9636 Y266.4640
G01 X30.9510 Y266.5755
G01 X30.9468 Y266.6875
G01 X30.9510 Y266.7996
G01 X30.9636 Y266.9110
G01 X30.9844 Y267.0212
G01 X31.0135 Y267.1295
G01 X31.0505 Y267.2354
G01 X31.0953 Y267.3382
G01 X31.1477 Y267.4373
G01 X31.2074 Y267.5322
G01 X31.2740 Y267.6225
G01 X31.3471 Y267.7075
G01 X31.4264 Y267.7868
G01 X31.5114 Y267.8599
G01 X31.6017 Y267.9265
G01 X31.6966 Y267.9862
G01 X31.7958 Y268.0386
G01 X31.8985 Y268.0834
G01 X32.0044 Y268.1204
G01 X32.1127 Y268.1495
G01 X32.2229 Y268.1703
G01 X32.3343 Y268.1829
G01 X32.4464 Y268.1871
G01 X32.5584 Y268.1829
G01 X32.6699 Y268.1703
G01 X32.7801 Y268.1495
G01 X32.8884 Y268.1204
G01 X32.9942 Y268.0834
G01 X33.0970 Y268.0386
G01 X33.1962 Y267.9862
G01 X33.2911 Y267.9265
G01 X33.3813 Y267.8599
G01 X33.4663 Y267.7868
G01 X33.5456 Y267.7075
G01 X33.6188 Y267.6225
G01 X33.6854 Y267.5322
G01 X33.7450 Y267.4373
G01 X33.7974 Y267.3382
G01 X33.8423 Y267.2354
G01 X33.8793 Y267.1295
G01 X33.9083 Y267.0212
G01 X33.9292 Y266.9110
G01 X33.9417 Y266.7996
G01 X33.9459 Y266.6875
G01 X33.9414 Y266.5830
G01 X33.9277 Y266.4792
G01 X33.9051 Y266.3770
G01 X33.8736 Y266.2772
G01 X33.8335 Y266.1805
G01 X33.7852 Y266.0876
G01 X33.7290 Y265.9994
G01 X33.6652 Y265.9163
G01 X33.5945 Y265.8392
G01 X33.5174 Y265.7684
G01 X33.4343 Y265.7047
G01 X33.3460 Y265.6485
G01 X33.2532 Y265.6002
G01 X33.1565 Y265.5601
G01 X33.0567 Y265.5286
G01 X32.9545 Y265.5060
G01 X32.8507 Y265.4923
G01 X32.7462 Y265.4877
G01 X32.6416 Y265.4923
G01 X32.5378 Y265.5060
G01 X32.4356 Y265.5286
G01 X32.3358 Y265.5601
G01 X32.2391 Y265.6002
G01 X32.1463 Y265.6485
G01 X32.0580 Y265.7047
G01 X31.9750 Y265.7684
G01 X31.8978 Y265.8392
G01 X31.8271 Y265.9163
G01 X31.7634 Y265.9994
G01 X31.7071 Y266.0876
G01 X31.6588 Y266.1805
G01 X31.6187 Y266.2772
G01 X31.5873 Y266.3770
G01 X31.5646 Y266.4792
G01 X31.5509 Y266.5830
G01 X31.5464 Y266.6875
G01 X31.5476 Y266.7346
G01 X31.5513 Y266.7816
G01 X31.5575 Y266.8283
G01 X31.5661 Y266.8746
G01 X31.5771 Y266.9205
G01 X31.5904 Y266.9656
G01 X31.6062 Y267.0101
G01 X31.6242 Y267.0536
G01 X31.6445 Y267.0961
G01 X31.6670 Y267.1375
G01 X31.6916 Y267.1777
G01 X31.7183 Y267.2165
G01 X31.7470 Y267.2539
G01 X31.7776 Y267.2897
G01 X31.8100 Y267.3239
G01 X31.8442 Y267.3564
G01 X31.8800 Y267.3870
G01 X31.9174 Y267.4156
G01 X31.9562 Y267.4423
G01 X31.9964 Y267.4669
G01 X32.0378 Y267.4894
G01 X32.0803 Y267.5097
G01 X32.1239 Y267.5277
G01 X32.1683 Y267.5435
G01 X32.2134 Y267.5569
G01 X32.2593 Y267.5679
G01 X32.3056 Y267.5764
G01 X32.3523 Y267.5826
G01 X32.3993 Y267.5863
G01 X32.4464 Y267.5875
G01 X32.4935 Y267.5863
G01 X32.5405 Y267.5826
G01 X32.5872 Y267.5764
G01 X32.6335 Y267.5679
G01 X32.6793 Y267.5569
G01 X32.7245 Y267.5435
G01 X32.7689 Y267.5277
G01 X32.8124 Y267.5097
G01 X32.8550 Y267.4894
G01 X32.8964 Y267.4669
G01 X32.9366 Y267.4423
G01 X32.9754 Y267.4156
G01 X33.0128 Y267.3870
G01 X33.0486 Y267.3564
G01 X33.0828 Y267.3239
G01 X33.1152 Y267.2897
G01 X33.1458 Y267.2539
G01 X33.1745 Y267.2165
G01 X33.2012 Y267.1777
G01 X33.2258 Y267.1375
G01 X33.2483 Y267.0961
G01 X33.2686 Y267.0536
G01 X33.2866 Y267.0101
G01 X33.3023 Y266.9656
G01 X33.3157 Y266.9205
G01 X33.3267 Y266.8746
G01 X33.3353 Y266.8283
G01 X33.3415 Y266.7816
G01 X33.3452 Y266.7346
G01 X33.3464 Y266.6875
M107
M106 S240
G01 X33.3452 Y266.6404 Z-4.4133 F400
G01 X33.3415 Y266.5934 Z-4.4267
G01 X33.3353 Y266.5467 Z-4.4400
G01 X33.3267 Y266.5004 Z-4.4533
G01 X33.3157 Y266.4546 Z-4.4667
G01 X33.3023 Y266.4094 Z-4.4800
G01 X33.2866 Y266.3650 Z-4.4933
G01 X33.2686 Y266.3215 Z-4.5067
G01 X33.2483 Y266.2789 Z-4.5200
G01 X33.2258 Y266.2375 Z-4.5333
G01 X33.2012 Y266.1973 Z-4.5467
G01 X33.1745 Y266.1585 Z-4.5600
G01 X33.1458 Y266.1211 Z-4.5733
G01 X33.1152 Y266.0853 Z-4.5867
G01 X33.0828 Y266.0511 Z-4.6000
G01 X33.0486 Y266.0187 Z-4.6133
G01 X33.0128 Y265.9881 Z-4.6267
G01 X32.9754 Y265.9594 Z-4.6400
G01 X32.9366 Y265.9327 Z-4.6533
G01 X32.8964 Y265.9081 Z-4.6667
G01 X32.8550 Y265.8856 Z-4.6800
G01 X32.8124 Y265.8653 Z-4.6933
G01 X32.7689 Y265.8473 Z-4.7067
G01 X32.7245 Y265.8316 Z-4.7200
G01 X32.6793 Y265.8182 Z-4.7333
G01 X32.6335 Y265.8072 Z-4.7467
G01 X32.5872 Y265.7986 Z-4.7600
G01 X32.5405 Y265.7925 Z-4.7733
G01 X32.4935 Y265.7888 Z-4.7867
G01 X32.4464 Y265.7875 Z-4.8000
G01 X32.3993 Y265.7888 Z-4.8133
G01 X32.3523 Y265.7925 Z-4.8267
G01 X32.3056 Y265.7986 Z-4.8400
G01 X32.2593 Y265.8072 Z-4.8533
G01 X32.2134 Y265.8182 Z-4.8667
G01 X32.1683 Y265.8316 Z-4.8800
G01 X32.1239 Y265.8473 Z-4.8933
G01 X32.0803 Y265.8653 Z-4.9067
G01 X32.0378 Y265.8856 Z-4.9200
G01 X31.9964 Y265.9081 Z-4.9333
G01 X31.9562 Y265.9327 Z-4.9467
G01 X31.9174 Y265.9594 Z-4.9600
G01 X31.8800 Y265.9881 Z-4.9733
G01 X31.8442 Y266.0187 Z-4.9867
G01 X31.8100 Y266.0511 Z-5.0000
G01 X31.7776 Y266.0853 Z-5.0133
G01 X31.7470 Y266.1211 Z-5.0267
G01 X31.7183 Y266.1585 Z-5.0400
G01 X31.6916 Y266.1973 Z-5.0533
G01 X31.6670 Y266.2375 Z-5.0667
G01 X31.6445 Y266.2789 Z-5.0800
G01 X31.6242 Y266.3215 Z-5.0933
G01 X31.6062 Y266.3650 Z-5.1067
G01 X31.5904 Y266.4094 Z-5.1200
G01 X31.5771 Y266.4546 Z-5.1333
G01 X31.5661 Y266.5004 Z-5.1467
G01 X31.5575 Y266.5467 Z-5.1600
G01 X31.5513 Y266.5934 Z-5.1733
G01 X31.5476 Y266.6404 Z-5.1867
G01 X31.5464 Y266.6875 Z-5.2000
G01 X31.5476 Y266.7346 Z-5.2133
G01 X31.5513 Y266.7816 Z-5.2267
G01 X31.5575 Y266.8283 Z-5.2400
G01 X31.5661 Y266.8746 Z-5.2533
G01 X31.5771 Y266.9205 Z-5.2667
G01 X31.5904 Y266.9656 Z-5.2800
G01 X31.6062 Y267.0101 Z-5.2933
G01 X31.6242 Y267.0536 Z-5.3067
G01 X31.6445 Y267.0961 Z-5.3200
G01 X31.6670 Y267.1375 Z-5.3333
G01 X31.6916 Y267.1777 Z-5.3467
G01 X31.7183 Y267.2165 Z-5.3600
G01 X31.7470 Y267.2539 Z-5.3733
G01 X31.7776 Y267.2897 Z-5.3867
G01 X31.8100 Y267.3239 Z-5.4000
G01 X31.8442 Y267.3564 Z-5.4133
G01 X31.8800 Y267.3870 Z-5.4267
G01 X31.9174 Y267.4156 Z-5.4400
G01 X31.9562 Y267.4423 Z-5.4533
G01 X31.9964 Y267.4669 Z-5.4667
G01 X32.0378 Y267.4894 Z-5.4800
G01 X32.0803 Y267.5097 Z-5.4933
G01 X32.1239 Y267.5277 Z-5.5067
G01 X32.1683 Y267.5435 Z-5.5200
G01 X32.2134 Y267.5569 Z-5.5333
G01 X32.2593 Y267.5679 Z-5.5467
G01 X32.3056 Y267.5764 Z-5.5600
G01 X32.3523 Y267.5826 Z-5.5733
G01 X32.3993 Y267.5863 Z-5.5867
G01 X32.4464 Y267.5875 Z-5.6000
G01 X32.4935 Y267.5863 Z-5.6133
G01 X32.5405 Y267.5826 Z-5.6267
G01 X32.5872 Y267.5764 Z-5.6400
G01 X32.6335 Y267.5679 Z-5.6533
G01 X32.6793 Y267.5569 Z-5.6667
G01 X32.7245 Y267.5435 Z-5.6800
G01 X32.7689 Y267.5277 Z-5.6933
G01 X32.8124 Y267.5097 Z-5.7067
G01 X32.8550 Y267.4894 Z-5.7200
G01 X32.8964 Y267.4669 Z-5.7333
G01 X32.9366 Y267.4423 Z-5.7467
G01 X32.9754 Y267.4156 Z-5.7600
G01 X33.0128 Y267.3870 Z-5.7733
G01 X33.0486 Y267.3564 Z-5.7867
G01 X33.0828 Y267.3239 Z-5.8000
G01 X33.1152 Y267.2897 Z-5.8133
G01 X33.1458 Y267.2539 Z-5.8267
G01 X33.1745 Y267.2165 Z-5.8400
G01 X33.2012 Y267.1777 Z-5.8533
G01 X33.2258 Y267.1375 Z-5.8667
G01 X33.2483 Y267.0961 Z-5.8800
G01 X33.2686 Y267.0536 Z-5.8933
G01 X33.2866 Y267.0101 Z-5.9067
G01 X33.3023 Y266.9656 Z-5.9200
G01 X33.3157 Y266.9205 Z-5.9333
G01 X33.3267 Y266.8746 Z-5.9467
G01 X33.3353 Y266.8283 Z-5.9600
G01 X33.3415 Y266.7816 Z-5.9733
G01 X33.3452 Y266.7346 Z-5.9867
G01 X33.3464 Y266.6875 Z-6.0000
G01 X33.3452 Y266.6404
G01 X33.3415 Y266.5934
G01 X33.3353 Y266.5467
G01 X33.3267 Y266.5004
G01 X33.3157 Y266.4546
G01 X33.3023 Y266.4094
G01 X33.2866 Y266.3650
G01 X33.2686 Y266.3215
G01 X33.2483 Y266.2789
G01 X33.2258 Y266.2375
G01 X33.2012 Y266.1973
G01 X33.1745 Y266.1585
G01 X33.1458 Y266.1211
G01 X33.1152 Y266.0853
G01 X33.0828 Y266.0511
G01 X33.0486 Y266.0187
G01 X33.0128 Y265.9881
G01 X32.9754 Y265.9594
G01 X32.9366 Y265.9327
G01 X32.8964 Y265.9081
G01 X32.8550 Y265.8856
G01 X32.8124 Y265.8653
G01 X32.7689 Y265.8473
G01 X32.7245 Y265.8316
G01 X32.6793 Y265.8182
G01 X32.6335 Y265.8072
G01 X32.5872 Y265.7986
G01 X32.5405 Y265.7925
G01 X32.4935 Y265.7888
G01 X32.4464 Y265.7875
G01 X32.3993 Y265.7888
G01 X32.3523 Y265.7925
G01 X32.3056 Y265.7986
G01 X32.2593 Y265.8072
G01 X32.2134 Y265.8182
G01 X32.1683 Y265.8316
G01 X32.1239 Y265.8473
G01 X32.0803 Y265.8653
G01 X32.0378 Y265.8856
G01 X31.9964 Y265.9081
G01 X31.9562 Y265.9327
G01 X31.9174 Y265.9594
G01 X31.8800 Y265.9881
G01 X31.8442 Y266.0187
G01 X31.8100 Y266.0511
G01 X31.7776 Y266.0853
G01 X31.7470 Y266.1211
G01 X31.7183 Y266.1585
G01 X31.6916 Y266.1973
G01 X31.6670 Y266.2375
G01 X31.6445 Y266.2789
G01 X31.6242 Y266.3215
G01 X31.6062 Y266.3650
G01 X31.5904 Y266.4094
G01 X31.5771 Y266.4546
G01 X31.5661 Y266.5004
G01 X31.5575 Y266.5467
G01 X31.5513 Y266.5934
G01 X31.5476 Y266.6404
G01 X31.5464 Y266.6875
G01 X31.5476 Y266.7346
G01 X31.5513 Y266.7816
G01 X31.5575 Y266.8283
G01 X31.5661 Y266.8746
G01 X31.5771 Y266.9205
G01 X31.5904 Y266.9656
G01 X31.6062 Y267.0101
G01 X31.6242 Y267.0536
G01 X31.6445 Y267.0961
G01 X31.6670 Y267.1375
G01 X31.6916 Y267.1777
G01 X31.7183 Y267.2165
G01 X31.7470 Y267.2539
G01 X31.7776 Y267.2897
G01 X31.8100 Y267.3239
G01 X31.8442 Y267.3564
G01 X31.8800 Y267.3870
G01 X31.9174 Y267.4156
G01 X31.9562 Y267.4423
G01 X31.9964 Y267.4669
G01 X32.0378 Y267.4894
G01 X32.0803 Y267.5097
G01 X32.1239 Y267.5277
G01 X32.1683 Y267.5435
G01 X32.2134 Y267.5569
G01 X32.2593 Y267.5679
G01 X32.3056 Y267.5764
G01 X32.3523 Y267.5826
G01 X32.3993 Y267.5863
G01 X32.4464 Y267.5875
G01 X32.4935 Y267.5863
G01 X32.5405 Y267.5826
G01 X32.5872 Y267.5764
G01 X32.6335 Y267.5679
G01 X32.6793 Y267.5569
G01 X32.7245 Y267.5435
G01 X32.7689 Y267.5277
G01 X32.8124 Y267.5097
G01 X32.8550 Y267.4894
G01 X32.8964 Y267.4669
G01 X32.9366 Y267.4423
G01 X32.9754 Y267.4156
G01 X33.0128 Y267.3870
G01 X33.0486 Y267.3564
G01 X33.0828 Y267.3239
G01 X33.1152 Y267.2897
G01 X33.1458 Y267.2539
G01 X33.1745 Y267.2165
G01 X33.2012 Y267.1777
G01 X33.2258 Y267.1375
G01 X33.2483 Y267.0961
G01 X33.2686 Y267.0536
G01 X33.2866 Y267.0101
G01 X33.3023 Y266.9656
G01 X33.3157 Y266.9205
G01 X33.3267 Y266.8746
G01 X33.3353 Y266.8283
G01 X33.3415 Y266.7816
G01 X33.3452 Y266.7346
G01 X33.3464 Y266.6875
G01 X33.3558 Y266.6411 F1000
G01 X33.3628 Y266.5943
G01 X33.3675 Y266.5472
G01 X33.3696 Y266.4999
G01 X33.3694 Y266.4526
G01 X33.3667 Y266.4053
G01 X33.3616 Y266.3583
G01 X33.3541 Y266.3115
G01 X33.3434 Y266.2614
G01 X33.3301 Y266.2118
G01 X33.3143 Y266.1630
G01 X33.2961 Y266.1151
G01 X33.2754 Y266.0681
G01 X33.2524 Y266.0223
G01 X33.2270 Y265.9777
G01 X33.1995 Y265.9345
G01 X33.1674 Y265.8894
G01 X33.1331 Y265.8461
G01 X33.0966 Y265.8045
G01 X33.0581 Y265.7649
G01 X33.0177 Y265.7273
G01 X32.9753 Y265.6918
G01 X32.9312 Y265.6584
G01 X32.8855 Y265.6274
G01 X32.8349 Y265.5966
G01 X32.7828 Y265.5684
G01 X32.7293 Y265.5429
G01 X32.6746 Y265.5202
G01 X32.6188 Y265.5002
G01 X32.5621 Y265.4831
G01 X32.5045 Y265.4688
G01 X32.4464 Y265.4575
G01 X32.3838 Y265.4486
G01 X32.3208 Y265.4428
G01 X32.2576 Y265.4402
G01 X32.1944 Y265.4408
G01 X32.1312 Y265.4446
G01 X32.0684 Y265.4516
G01 X32.0060 Y265.4617
G01 X31.9441 Y265.4749
G01 X31.8792 Y265.4923
G01 X31.8151 Y265.5129
G01 X31.7523 Y265.5367
G01 X31.6906 Y265.5636
G01 X31.6305 Y265.5936
G01 X31.5718 Y265.6266
G01 X31.5150 Y265.6624
G01 X31.4600 Y265.7011
G01 X31.4038 Y265.7450
G01 X31.3499 Y265.7916
G01 X31.2984 Y265.8408
G01 X31.2495 Y265.8926
G01 X31.2032 Y265.9467
G01 X31.1597 Y266.0031
G01 X31.1190 Y266.0616
G01 X31.0814 Y266.1221
G01 X31.0525 Y266.1893
G01 X31.0270 Y266.2578
G01 X31.0049 Y266.3275
G01 X30.9862 Y266.3982
G01 X30.9710 Y266.4697
G01 X30.9594 Y266.5419
G01 X30.9513 Y266.6145
G01 X30.9468 Y266.6875
G01 X30.9486 Y266.7611
G01 X30.9541 Y266.8345
G01 X30.9631 Y266.9076
G01 X30.9756 Y266.9801
G01 X30.9918 Y267.0519
G01 X31.0114 Y267.1228
G01 X31.0345 Y267.1927
G01 X31.0610 Y267.2614
G01 X31.0908 Y267.3287
G01 X31.1239 Y267.3944
G01 X31.1602 Y267.4584
G01 X31.1996 Y267.5206
G01 X31.2419 Y267.5808
G01 X31.2872 Y267.6388
G01 X31.3353 Y267.6946
G01 X31.3860 Y267.7479
G01 X31.4393 Y267.7986
G01 X31.4951 Y267.8467
G01 X31.5531 Y267.8920
G01 X31.6133 Y267.9344
G01 X31.6755 Y267.9737
G01 X31.7395 Y268.0100
G01 X31.8052 Y268.0431
G01 X31.8725 Y268.0729
G01 X31.9412 Y268.0994
G01 X32.0111 Y268.1225
G01 X32.0820 Y268.1421
G01 X32.1538 Y268.1583
G01 X32.2264 Y268.1708
G01 X32.2994 Y268.1798
G01 X32.3728 Y268.1853
G01 X32.4464 Y268.1871
G01 X32.5200 Y268.1853
G01 X32.5934 Y268.1798
G01 X32.6664 Y268.1708
G01 X32.7389 Y268.1583
G01 X32.8107 Y268.1421
G01 X32.8817 Y268.1225
G01 X32.9516 Y268.0994
G01 X33.0202 Y268.0729
G01 X33.0875 Y268.0431
G01 X33.1533 Y268.0100
G01 X33.2173 Y267.9737
G01 X33.2795 Y267.9344
G01 X33.3397 Y267.8920
G01 X33.3977 Y267.8467
G01 X33.4534 Y267.7986
G01 X33.5067 Y267.7479
G01 X33.5575 Y267.6946
G01 X33.6056 Y267.6388
G01 X33.6508 Y267.5808
G01 X33.6932 Y267.5206
G01 X33.7326 Y267.4584
G01 X33.7689 Y267.3944
G01 X33.8020 Y267.3287
G01 X33.8318 Y267.2614
G01 X33.8583 Y267.1927
G01 X33.8814 Y267.1228
G01 X33.9010 Y267.0519
G01 X33.9171 Y266.9801
G01 X33.9297 Y266.9076
G01 X33.9387 Y266.8345
G01 X33.9441 Y266.7611
G01 X33.9459 Y266.6875
G01 X33.9417 Y266.5755
G01 X33.9292 Y266.4640
G01 X33.9083 Y266.3538
G01 X33.8793 Y266.2455
G01 X33.8423 Y266.1397
G01 X33.7974 Y266.0369
G01 X33.7450 Y265.9377
G01 X33.6854 Y265.8428
G01 X33.6188 Y265.7526
G01 X33.5456 Y265.6676
G01 X33.4663 Y265.5883
G01 X33.3813 Y265.5151
G01 X33.2911 Y265.4485
G01 X33.1962 Y265.3889
G01 X33.0970 Y265.3365
G01 X32.9942 Y265.2916
G01 X32.8884 Y265.2546
G01 X32.7801 Y265.2256
G01 X32.6699 Y265.2047
G01 X32.5584 Y265.1922
G01 X32.4464 Y265.1880
G01 X32.3343 Y265.1922
G01 X32.2229 Y265.2047
G01 X32.1127 Y265.2256
G01 X32.0044 Y265.2546
G01 X31.8985 Y265.2916
G01 X31.7958 Y265.3365
G01 X31.6966 Y265.3889
G01 X31.6017 Y265.4485
G01 X31.5114 Y265.5151
G01 X31.4264 Y265.5883
G01 X31.3471 Y265.6676
G01 X31.2740 Y265.7526
G01 X31.2074 Y265.8428
G01 X31.1477 Y265.9377
G01 X31.0953 Y266.0369
G01 X31.0505 Y266.1397
G01 X31.0135 Y266.2455
G01 X30.9844 Y266.3538
G01 X30.9636 Y266.4640
G01 X30.9510 Y266.5755
G01 X30.9468 Y266.6875
G01 X30.9510 Y266.7996
G01 X30.9636 Y266.9110
G01 X30.9844 Y267.0212
G01 X31.0135 Y267.1295
G01 X31.0505 Y267.2354
G01 X31.0953 Y267.3382
G01 X31.1477 Y267.4373
G01 X31.2074 Y267.5322
G01 X31.2740 Y267.6225
G01 X31.3471 Y267.7075
G01 X31.4264 Y267.7868
G01 X31.5114 Y267.8599
G01 X31.6017 Y267.9265
G01 X31.6966 Y267.9862
G01 X31.7958 Y268.0386
G01 X31.8985 Y268.0834
G01 X32.0044 Y268.1204
G01 X32.1127 Y268.1495
G01 X32.2229 Y268.1703
G01 X32.3343 Y268.1829
G01 X32.4464 Y268.1871
G01 X32.5584 Y268.1829
G01 X32.6699 Y268.1703
G01 X32.7801 Y268.1495
G01 X32.8884 Y268.1204
G01 X32.9942 Y268.0834
G01 X33.0970 Y268.0386
G01 X33.1962 Y267.9862
G01 X33.2911 Y267.9265
G01 X33.3813 Y267.8599
G01 X33.4663 Y267.7868
G01 X33.5456 Y267.7075
G01 X33.6188 Y267.6225
G01 X33.6854 Y267.5322
G01 X33.7450 Y267.4373
G01 X33.7974 Y267.3382
G01 X33.8423 Y267.2354
G01 X33.8793 Y267.1295
G01 X33.9083 Y267.0212
G01 X33.9292 Y266.9110
G01 X33.9417 Y266.7996
G01 X33.9459 Y266.6875
M107
M106 S240
G01 X33.9411 Y266.5895 Z-5.9688 F400
M107
M106 S240
G01 X33.9267 Y266.4924 Z-5.9375
M107
M106 S240
G01 X33.9029 Y266.3972 Z-5.9063
M107
M106 S240
G01 X33.8698 Y266.3048 Z-5.8750
M107
M106 S240
G01 X33.8279 Y266.2161 Z-5.8438
M107
M106 S240
G01 X33.7774 Y266.1320 Z-5.8125
M107
M106 S240
G01 X33.7189 Y266.0531 Z-5.7813
M107
M106 S240
G01 X33.6530 Y265.9804 Z-5.7500
M107
M106 S240
G01 X33.5803 Y265.9145 Z-5.7188
M107
M106 S240
G01 X33.5015 Y265.8561 Z-5.6875
M107
M106 S240
G01 X33.4173 Y265.8056 Z-5.6563
M107
M106 S240
G01 X33.3286 Y265.7636 Z-5.6250
M107
M106 S240
G01 X33.2362 Y265.7306 Z-5.5938
M107
M106 S240
G01 X33.1410 Y265.7067 Z-5.5625
M107
M106 S240
G01 X33.0439 Y265.6923 Z-5.5313
M107
M106 S240
G01 X32.9459 Y265.6875 Z-5.5000
M107
G00 Z2.0000


;No. 2: Hole 18
G00 X54.8133 Y252.7201 Z2.0000
G00 Z0.5000
G01 Z-1.8000 F400
M106 S240
G01 X56.4267 F1000
G01 Y254.0401
G01 X54.8133
G01 Y255.3601
G01 X56.4267
G01 Y256.6801
G01 X54.8133
G01 Y258.0001
G01 X56.4267
G01 Y259.3201
G01 X54.8133
G01 Y260.6401
G01 X56.4267
G01 Y261.9601
G01 X54.8133
G01 Y263.2801
G01 X56.4267
G01 X54.8133
G01 Y264.6001
G01 X60.6563
G01 X59.3504 Y263.2801
G01 X61.9763
G01 X60.6704 Y261.9601
G01 X63.2963
G01 X61.9904 Y260.6401
G01 X64.6163
G01 X63.3104 Y259.3201
G01 X65.9363
G01 X64.6304 Y258.0001
G01 X67.2563
G01 X65.9504 Y256.6801
G01 X68.5763
G01 X67.2704 Y255.3601
G01 X72.4800
G01 Y254.0401
G01 X68.5904
G01 X69.9104 Y252.7201
G01 X72.4800
M107
G00 Z2.0000
G00 Y255.3601
G00 Z0.5000
G01 Z-1.8000 F400
M106 S240
G01 Y256.6801 F1000
G01 X70.7005
G01 X70.8667 Y258.0001
G01 X72.4800
G01 Y259.3201
G01 X70.8667
G01 Y260.6401
G01 X72.4800
G01 Y261.9601
G01 X70.8667
G01 Y263.2801
G01 X72.4800
G01 Y264.6001
G01 X70.8667
G01 Y265.9201
G01 X72.4800
G01 Y267.2401
G01 X70.8667
G01 Y268.5601
G01 X72.4800
G01 Y269.8801
G01 X70.8667
M107
G00 Z2.0000
G00 X59.3363 Y264.6001
G00 Z0.5000
G01 Z-1.8000 F400
M106 S240
G01 Y265.9201 F1000
G01 X54.8133
G01 Y267.2401
G01 X58.0163
G01 X56.6963 Y268.5601
G01 X54.0710
G01 X55.3763 Y269.8801
G01 X52.7529
M107
G00 Z2.0000
G00 Z0.5000
G01 Z-1.8000 F400
M106 S240
G01 X52.6122 Y269.7397 F1000
G01 X52.0200 Y270.3334
G01 X55.2000
G01 X55.2099 Y270.3293
G01 X68.9454 Y256.5938
G01 X69.0174 Y256.5259
G01 X69.0958 Y256.4655
G01 X69.1798 Y256.4131
G01 X69.2685 Y256.3693
G01 X69.3612 Y256.3345
G01 X69.4568 Y256.3089
G01 X69.5545 Y256.2930
G01 X69.6533 Y256.2868
G01 X69.7522 Y256.2904
G01 X69.8502 Y256.3037
G01 X69.9465 Y256.3267
G01 X70.0400 Y256.3591
G01 X70.1299 Y256.4005
G01 X70.2152 Y256.4507
G01 X70.2952 Y256.5090
G01 X70.3690 Y256.5749
G01 X70.4359 Y256.6479
G01 X70.4953 Y256.7270
G01 X70.5466 Y256.8117
G01 X70.5892 Y256.9010
G01 X70.6228 Y256.9941
G01 X70.6471 Y257.0900
G01 X70.6618 Y257.1879
G01 X70.6667 Y257.2868
G01 Y270.3334
G01 X72.6800
G01 Y252.2668
G01 X70.0867
G01 X70.0768 Y252.2709
G01 X58.3479 Y263.9997
G01 X58.2759 Y264.0676
G01 X58.1975 Y264.1280
G01 X58.1135 Y264.1804
G01 X58.0248 Y264.2242
G01 X57.9321 Y264.2591
G01 X57.8365 Y264.2846
G01 X57.7388 Y264.3005
G01 X57.6401 Y264.3067
G01 X57.5412 Y264.3031
G01 X57.4431 Y264.2898
G01 X57.3468 Y264.2668
G01 X57.2533 Y264.2344
G01 X57.1634 Y264.1930
G01 X57.0781 Y264.1428
G01 X56.9981 Y264.0845
G01 X56.9243 Y264.0186
G01 X56.8574 Y263.9457
G01 X56.7980 Y263.8665
G01 X56.7468 Y263.7818
G01 X56.7041 Y263.6925
G01 X56.6705 Y263.5994
G01 X56.6462 Y263.5035
G01 X56.6316 Y263.4056
G01 X56.6267 Y263.3068
G01 Y252.2668
G01 X54.6133
G01 Y267.3001
G01 X54.6124 Y267.3672
G01 X54.6069 Y267.4341
G01 X54.5970 Y267.5004
G01 X54.5827 Y267.5660
G01 X54.5640 Y267.6305
G01 X54.5410 Y267.6935
G01 X54.5138 Y267.7549
G01 X54.4827 Y267.8143
G01 X54.4475 Y267.8715
G01 X54.4087 Y267.9262
G01 X54.3663 Y267.9782
G01 X54.3204 Y268.0272
G01 X52.6122 Y269.7397
G01 X52.7529 Y269.8801
M107
G00 Z2.0000


;No. 3: Hole 17
G00 X80.7490 Y268.6668 Z2.0000
G00 Z0.5000
G01 Z-1.8000 F400
M106 S240
G01 X98.6798 F1000
G01 Y269.9868
G01 X100.2459
G01 X79.2160
M107
G00 Z2.0000
G00 Z0.5000
G01 Z-1.8000 F400
M106 S240
G01 X79.0392 Y269.8932 F1000
G01 X78.9813 Y269.9981
G01 X78.9308 Y270.1068
G01 X78.8881 Y270.2188
G01 X78.8533 Y270.3334
G01 X100.6133
G01 X100.6130 Y270.3187
G01 X100.6065 Y270.2997
G01 X100.4849 Y270.0168
G01 X100.3352 Y269.7476
G01 X100.1589 Y269.4949
G01 X99.9580 Y269.2614
G01 X99.7345 Y269.0495
G01 X99.4906 Y268.8614
G01 X99.2289 Y268.6989
G01 X98.9521 Y268.5637
G01 X98.6630 Y268.4574
G01 X98.3647 Y268.3808
G01 X98.0601 Y268.3349
G01 X97.7524 Y268.3201
G01 X81.7121
G01 X81.5487 Y268.3204
G01 X81.3856 Y268.3299
G01 X81.2232 Y268.3484
G01 X81.0622 Y268.3760
G01 X80.9029 Y268.4124
G01 X80.7459 Y268.4578
G01 X80.5917 Y268.5117
G01 X80.4408 Y268.5742
G01 X80.2935 Y268.6451
G01 X80.1504 Y268.7240
G01 X80.0120 Y268.8108
G01 X79.8786 Y268.9051
G01 X79.7507 Y269.0068
G01 X79.6286 Y269.1154
G01 X79.5128 Y269.2306
G01 X79.4036 Y269.3522
G01 X79.3013 Y269.4796
G01 X79.2063 Y269.6125
G01 X79.1188 Y269.7505
G01 X79.0392 Y269.8932
G01 X79.2160 Y269.9868
M107
G00 Z2.0000


;No. 4: Hole 16
G00 X78.8933 Y252.6668 Z2.0000
G00 Z0.5000
G01 Z-1.8000 F400
M106 S240
G01 X100.5733 F1000
G01 Y253.9868
G01 X78.8933
G01 Y255.3068
G01 X80.5067
G01 Y256.6268
G01 X78.8933
G01 Y257.9468
G01 X80.5067
G01 Y259.2668
G01 X78.8933
G01 Y260.5868
G01 X80.5067
G01 Y261.9068
G01 X78.8933
M107
G00 Z2.0000
G00 X98.9600 Y253.9868
G00 Z0.5000
G01 Z-1.8000 F400
M106 S240
G01 Y255.3068 F1000
G01 X100.5733
G01 Y256.6268
G01 X98.9600
G01 Y257.9468
G01 X100.5733
G01 Y259.2668
G01 X98.9600
G01 Y260.5868
G01 X100.5733
G01 Y261.9068
G01 X98.9600
M107
G00 Z2.0000
G00 Z0.5000
G01 Z-1.8000 F400
M106 S240
G01 X98.7600 F1000
G01 Y262.3068
G01 X100.7733
G01 Y252.2668
G01 X78.6933
G01 Y262.3068
G01 X80.7067
G01 Y255.3001
G01 X80.7092 Y255.2094
G01 X80.7136 Y255.1627
G01 X80.7202 Y255.1163
G01 X80.7289 Y255.0702
G01 X80.7398 Y255.0247
G01 X80.7529 Y254.9796
G01 X80.7680 Y254.9353
G01 X80.7852 Y254.8917
G01 X80.8044 Y254.8489
G01 X80.8256 Y254.8071
G01 X80.8487 Y254.7663
G01 X80.8737 Y254.7267
G01 X80.9006 Y254.6883
G01 X80.9292 Y254.6512
G01 X80.9595 Y254.6154
G01 X80.9915 Y254.5812
G01 X81.0250 Y254.5484
G01 X81.0601 Y254.5173
G01 X81.0965 Y254.4878
G01 X81.1343 Y254.4601
G01 X81.1734 Y254.4342
G01 X81.2136 Y254.4101
G01 X81.2549 Y254.3880
G01 X81.2972 Y254.3678
G01 X81.3404 Y254.3496
G01 X81.3844 Y254.3334
G01 X81.4291 Y254.3194
G01 X81.4744 Y254.3074
G01 X81.5203 Y254.2976
G01 X81.5665 Y254.2900
G01 X81.6130 Y254.2845
G01 X81.6598 Y254.2812
G01 X81.7067 Y254.2801
G01 X97.7400
G01 X97.8393 Y254.2831
G01 X97.9379 Y254.2959
G01 X98.0347 Y254.3185
G01 X98.1288 Y254.3505
G01 X98.2192 Y254.3917
G01 X98.3051 Y254.4417
G01 X98.3856 Y254.5000
G01 X98.4600 Y254.5659
G01 X98.5274 Y254.6389
G01 X98.5872 Y254.7183
G01 X98.6389 Y254.8032
G01 X98.6819 Y254.8928
G01 X98.7158 Y254.9862
G01 X98.7403 Y255.0826
G01 X98.7550 Y255.1808
G01 X98.7600 Y255.2801
G01 Y261.9068
G01 X98.9600
M107
G00 Z2.0000


;No. 5: Hole 15
G00 X117.0200 Y252.7201 Z2.0000
G00 Z0.5000
G01 Z-1.8000 F400
M106 S240
G01 X118.6333 F1000
G01 Y254.0401
G01 X117.0200
G01 Y255.3601
G01 X118.6333
G01 Y256.6801
G01 X117.0200
G01 Y258.0001
G01 X118.6333
G01 Y259.3201
G01 X117.0200
G01 Y260.6401
G01 X118.6333
G01 Y261.9601
G01 X117.0200
G01 Y263.2801
G01 X118.6333
G01 Y264.6001
G01 X117.0200
G01 Y265.9201
G01 X118.6333
G01 Y267.2401
G01 X117.0200
G01 Y268.5601
G01 X109.2849
G01 X126.3506
G01 Y269.8801
G01 X128.2764
G01 X107.3693
M107
G00 Z2.0000
G00 Z0.5000
G01 Z-1.8000 F400
M106 S240
G01 X107.1962 Y269.7798 F1000
G01 X107.1203 Y269.9118
G01 X107.0533 Y270.0484
G01 X106.9953 Y270.1892
G01 X106.9467 Y270.3334
G01 X128.7067
G01 X128.7063 Y270.3187
G01 X128.5855 Y270.0336
G01 X128.4363 Y269.7624
G01 X128.2604 Y269.5077
G01 X128.0594 Y269.2722
G01 X127.8356 Y269.0583
G01 X127.5912 Y268.8683
G01 X127.3287 Y268.7042
G01 X127.0509 Y268.5676
G01 X126.7607 Y268.4599
G01 X126.4610 Y268.3823
G01 X126.1549 Y268.3355
G01 X125.8457 Y268.3201
G01 X119.8533
G01 X119.7540 Y268.3171
G01 X119.6554 Y268.3043
G01 X119.5586 Y268.2817
G01 X119.4646 Y268.2497
G01 X119.3741 Y268.2085
G01 X119.2882 Y268.1585
G01 X119.2077 Y268.1002
G01 X119.1334 Y268.0343
G01 X119.0659 Y267.9612
G01 X119.0061 Y267.8819
G01 X118.9544 Y267.7970
G01 X118.9114 Y267.7074
G01 X118.8775 Y267.6140
G01 X118.8531 Y267.5176
G01 X118.8383 Y267.4194
G01 X118.8333 Y267.3201
G01 Y252.2668
G01 X116.8200
G01 Y267.3001
G01 X116.8170 Y267.3994
G01 X116.8042 Y267.4980
G01 X116.7816 Y267.5948
G01 X116.7496 Y267.6889
G01 X116.7084 Y267.7793
G01 X116.6584 Y267.8652
G01 X116.6001 Y267.9457
G01 X116.5342 Y268.0201
G01 X116.4612 Y268.0875
G01 X116.3818 Y268.1473
G01 X116.2969 Y268.1990
G01 X116.2073 Y268.2420
G01 X116.1139 Y268.2759
G01 X116.0175 Y268.3004
G01 X115.9193 Y268.3151
G01 X115.8200 Y268.3201
G01 X109.7309 Y268.3209
G01 X109.5780 Y268.3243
G01 X109.4255 Y268.3357
G01 X109.2738 Y268.3552
G01 X109.1233 Y268.3825
G01 X108.9745 Y268.4178
G01 X108.8278 Y268.4608
G01 X108.6834 Y268.5114
G01 X108.5420 Y268.5696
G01 X108.4038 Y268.6351
G01 X108.2692 Y268.7077
G01 X108.1387 Y268.7873
G01 X108.0125 Y268.8737
G01 X107.8910 Y268.9666
G01 X107.7745 Y269.0657
G01 X107.6635 Y269.1709
G01 X107.5581 Y269.2817
G01 X107.4586 Y269.3979
G01 X107.3654 Y269.5191
G01 X107.2787 Y269.6451
G01 X107.1987 Y269.7754
G01 X107.3693 Y269.8801
M107
G00 Z2.0000


;No. 6: Hole 13
G00 X147.1200 Y252.6668 Z2.0000
G00 Z0.5000
G01 Z-1.8000 F400
M106 S240
G01 X148.7333 F1000
G01 Y253.9868
G01 X147.1200
G01 Y255.3068
G01 X148.7333
G01 Y256.6268
G01 X147.1200
G01 Y257.9468
G01 X148.7333
G01 Y259.2668
G01 X147.1200
G01 Y260.5868
G01 X168.8000
G01 Y259.2668
G01 X167.1867
G01 Y257.9468
G01 X168.8000
G01 Y256.6268
G01 X167.1867
G01 Y255.3068
G01 X168.8000
G01 Y253.9868
G01 X167.1867
G01 Y252.6668
G01 X168.8000
M107
G00 Z2.0000
G00 Y260.5868
G00 Z0.5000
G01 Z-1.8000 F400
M106 S240
G01 Y261.9068 F1000
G01 X147.1200
M107
G00 Z2.0000
G00 Z0.5000
G01 Z-1.8000 F400
M106 S240
G01 X146.9200 F1000
G01 Y262.3068
G01 X169.0000
G01 Y252.2668
G01 X166.9867
G01 Y259.2734
G01 X166.9837 Y259.3728
G01 X166.9709 Y259.4713
G01 X166.9483 Y259.5681
G01 X166.9163 Y259.6622
G01 X166.8751 Y259.7526
G01 X166.8251 Y259.8385
G01 X166.7668 Y259.9191
G01 X166.7008 Y259.9934
G01 X166.6278 Y260.0608
G01 X166.5485 Y260.1207
G01 X166.4636 Y260.1724
G01 X166.3740 Y260.2153
G01 X166.2805 Y260.2492
G01 X166.1842 Y260.2737
G01 X166.0859 Y260.2885
G01 X165.9867 Y260.2934
G01 X149.9533
G01 X149.8540 Y260.2904
G01 X149.7554 Y260.2776
G01 X149.6586 Y260.2551
G01 X149.5646 Y260.2230
G01 X149.4741 Y260.1818
G01 X149.3882 Y260.1318
G01 X149.3077 Y260.0736
G01 X149.2334 Y260.0076
G01 X149.1659 Y259.9346
G01 X149.1061 Y259.8552
G01 X149.0544 Y259.7703
G01 X149.0114 Y259.6807
G01 X148.9775 Y259.5873
G01 X148.9531 Y259.4910
G01 X148.9383 Y259.3927
G01 X148.9333 Y259.2934
G01 Y252.2668
G01 X146.9200
G01 Y261.9068
G01 X147.1200
M107
G00 Z2.0000


;No. 7: Helical drill 2
G00 X188.3458 Y266.6869 Z2.0000
G00 Z0.5000
M106 S240
G01 X188.3446 Y266.6398 Z0.4958 F400
G01 X188.3409 Y266.5928 Z0.4917
G01 X188.3347 Y266.5461 Z0.4875
G01 X188.3262 Y266.4998 Z0.4833
G01 X188.3152 Y266.4540 Z0.4792
G01 X188.3018 Y266.4088 Z0.4750
G01 X188.2860 Y266.3644 Z0.4708
G01 X188.2680 Y266.3208 Z0.4667
G01 X188.2477 Y266.2783 Z0.4625
G01 X188.2252 Y266.2369 Z0.4583
G01 X188.2006 Y266.1967 Z0.4542
G01 X188.1739 Y266.1579 Z0.4500
G01 X188.1453 Y266.1205 Z0.4458
G01 X188.1147 Y266.0847 Z0.4417
G01 X188.0822 Y266.0505 Z0.4375
G01 X188.0480 Y266.0181 Z0.4333
G01 X188.0122 Y265.9875 Z0.4292
G01 X187.9748 Y265.9588 Z0.4250
G01 X187.9360 Y265.9321 Z0.4208
G01 X187.8958 Y265.9075 Z0.4167
G01 X187.8544 Y265.8850 Z0.4125
G01 X187.8119 Y265.8647 Z0.4083
G01 X187.7684 Y265.8467 Z0.4042
G01 X187.7239 Y265.8310 Z0.4000
G01 X187.6788 Y265.8176 Z0.3958
G01 X187.6329 Y265.8066 Z0.3917
G01 X187.5866 Y265.7980 Z0.3875
G01 X187.5399 Y265.7918 Z0.3833
G01 X187.4929 Y265.7881 Z0.3792
G01 X187.4458 Y265.7869 Z0.3750
G01 X187.3987 Y265.7881 Z0.3708
G01 X187.3517 Y265.7918 Z0.3667
G01 X187.3050 Y265.7980 Z0.3625
G01 X187.2587 Y265.8066 Z0.3583
G01 X187.2129 Y265.8176 Z0.3542
G01 X187.1677 Y265.8310 Z0.3500
G01 X187.1233 Y265.8467 Z0.3458
G01 X187.0798 Y265.8647 Z0.3417
G01 X187.0372 Y265.8850 Z0.3375
G01 X186.9958 Y265.9075 Z0.3333
G01 X186.9556 Y265.9321 Z0.3292
G01 X186.9168 Y265.9588 Z0.3250
G01 X186.8794 Y265.9875 Z0.3208
G01 X186.8436 Y266.0181 Z0.3167
G01 X186.8094 Y266.0505 Z0.3125
G01 X186.7770 Y266.0847 Z0.3083
G01 X186.7464 Y266.1205 Z0.3042
G01 X186.7177 Y266.1579 Z0.3000
G01 X186.6910 Y266.1967 Z0.2958
G01 X186.6664 Y266.2369 Z0.2917
G01 X186.6439 Y266.2783 Z0.2875
G01 X186.6236 Y266.3208 Z0.2833
G01 X186.6056 Y266.3644 Z0.2792
G01 X186.5899 Y266.4088 Z0.2750
G01 X186.5765 Y266.4540 Z0.2708
G01 X186.5655 Y266.4998 Z0.2667
G01 X186.5569 Y266.5461 Z0.2625
G01 X186.5508 Y266.5928 Z0.2583
G01 X186.5471 Y266.6398 Z0.2542
G01 X186.5458 Y266.6869 Z0.2500
G01 X186.5471 Y266.7340 Z0.2458
G01 X186.5508 Y266.7810 Z0.2417
G01 X186.5569 Y266.8277 Z0.2375
G01 X186.5655 Y266.8740 Z0.2333
G01 X186.5765 Y266.9198 Z0.2292
G01 X186.5899 Y266.9650 Z0.2250
G01 X186.6056 Y267.0094 Z0.2208
G01 X186.6236 Y267.0530 Z0.2167
G01 X186.6439 Y267.0955 Z0.2125
G01 X186.6664 Y267.1369 Z0.2083
G01 X186.6910 Y267.1771 Z0.2042
G01 X186.7177 Y267.2159 Z0.2000
G01 X186.7464 Y267.2533 Z0.1958
G01 X186.7770 Y267.2891 Z0.1917
G01 X186.8094 Y267.3233 Z0.1875
G01 X186.8436 Y267.3557 Z0.1833
G01 X186.8794 Y267.3863 Z0.1792
G01 X186.9168 Y267.4150 Z0.1750
G01 X186.9556 Y267.4417 Z0.1708
G01 X186.9958 Y267.4663 Z0.1667
G01 X187.0372 Y267.4888 Z0.1625
G01 X187.0798 Y267.5091 Z0.1583
G01 X187.1233 Y267.5271 Z0.1542
G01 X187.1677 Y267.5429 Z0.1500
G01 X187.2129 Y267.5562 Z0.1458
G01 X187.2587 Y267.5672 Z0.1417
G01 X187.3050 Y267.5758 Z0.1375
G01 X187.3517 Y267.5820 Z0.1333
G01 X187.3987 Y267.5857 Z0.1292
G01 X187.4458 Y267.5869 Z0.1250
G01 X187.4929 Y267.5857 Z0.1208
G01 X187.5399 Y267.5820 Z0.1167
G01 X187.5866 Y267.5758 Z0.1125
G01 X187.6329 Y267.5672 Z0.1083
G01 X187.6788 Y267.5562 Z0.1042
G01 X187.7239 Y267.5429 Z0.1000
G01 X187.7684 Y267.5271 Z0.0958
G01 X187.8119 Y267.5091 Z0.0917
G01 X187.8544 Y267.4888 Z0.0875
G01 X187.8958 Y267.4663 Z0.0833
G01 X187.9360 Y267.4417 Z0.0792
G01 X187.9748 Y267.4150 Z0.0750
G01 X188.0122 Y267.3863 Z0.0708
G01 X188.0480 Y267.3557 Z0.0667
G01 X188.0822 Y267.3233 Z0.0625
G01 X188.1147 Y267.2891 Z0.0583
G01 X188.1453 Y267.2533 Z0.0542
G01 X188.1739 Y267.2159 Z0.0500
G01 X188.2006 Y267.1771 Z0.0458
G01 X188.2252 Y267.1369 Z0.0417
G01 X188.2477 Y267.0955 Z0.0375
G01 X188.2680 Y267.0530 Z0.0333
G01 X188.2860 Y267.0094 Z0.0292
G01 X188.3018 Y266.9650 Z0.0250
G01 X188.3152 Y266.9198 Z0.0208
G01 X188.3262 Y266.8740 Z0.0167
G01 X188.3347 Y266.8277 Z0.0125
G01 X188.3409 Y266.7810 Z0.0083
G01 X188.3446 Y266.7340 Z0.0042
G01 X188.3458 Y266.6869 Z0.0000
G01 X188.3446 Y266.6398
G01 X188.3409 Y266.5928
G01 X188.3347 Y266.5461
G01 X188.3262 Y266.4998
G01 X188.3152 Y266.4540
G01 X188.3018 Y266.4088
G01 X188.2860 Y266.3644
G01 X188.2680 Y266.3208
G01 X188.2477 Y266.2783
G01 X188.2252 Y266.2369
G01 X188.2006 Y266.1967
G01 X188.1739 Y266.1579
G01 X188.1453 Y266.1205
G01 X188.1147 Y266.0847
G01 X188.0822 Y266.0505
G01 X188.0480 Y266.0181
G01 X188.0122 Y265.9875
G01 X187.9748 Y265.9588
G01 X187.9360 Y265.9321
G01 X187.8958 Y265.9075
G01 X187.8544 Y265.8850
G01 X187.8119 Y265.8647
G01 X187.7684 Y265.8467
G01 X187.7239 Y265.8310
G01 X187.6788 Y265.8176
G01 X187.6329 Y265.8066
G01 X187.5866 Y265.7980
G01 X187.5399 Y265.7918
G01 X187.4929 Y265.7881
G01 X187.4458 Y265.7869
G01 X187.3987 Y265.7881
G01 X187.3517 Y265.7918
G01 X187.3050 Y265.7980
G01 X187.2587 Y265.8066
G01 X187.2129 Y265.8176
G01 X187.1677 Y265.8310
G01 X187.1233 Y265.8467
G01 X187.0798 Y265.8647
G01 X187.0372 Y265.8850
G01 X186.9958 Y265.9075
G01 X186.9556 Y265.9321
G01 X186.9168 Y265.9588
G01 X186.8794 Y265.9875
G01 X186.8436 Y266.0181
G01 X186.8094 Y266.0505
G01 X186.7770 Y266.0847
G01 X186.7464 Y266.1205
G01 X186.7177 Y266.1579
G01 X186.6910 Y266.1967
G01 X186.6664 Y266.2369
G01 X186.6439 Y266.2783
G01 X186.6236 Y266.3208
G01 X186.6056 Y266.3644
G01 X186.5899 Y266.4088
G01 X186.5765 Y266.4540
G01 X186.5655 Y266.4998
G01 X186.5569 Y266.5461
G01 X186.5508 Y266.5928
G01 X186.5471 Y266.6398
G01 X186.5458 Y266.6869
G01 X186.5471 Y266.7340
G01 X186.5508 Y266.7810
G01 X186.5569 Y266.8277
G01 X186.5655 Y266.8740
G01 X186.5765 Y266.9198
G01 X186.5899 Y266.9650
G01 X186.6056 Y267.0094
G01 X186.6236 Y267.0530
G01 X186.6439 Y267.0955
G01 X186.6664 Y267.1369
G01 X186.6910 Y267.1771
G01 X186.7177 Y267.2159
G01 X186.7464 Y267.2533
G01 X186.7770 Y267.2891
G01 X186.8094 Y267.3233
G01 X186.8436 Y267.3557
G01 X186.8794 Y267.3863
G01 X186.9168 Y267.4150
G01 X186.9556 Y267.4417
G01 X186.9958 Y267.4663
G01 X187.0372 Y267.4888
G01 X187.0798 Y267.5091
G01 X187.1233 Y267.5271
G01 X187.1677 Y267.5429
G01 X187.2129 Y267.5562
G01 X187.2587 Y267.5672
G01 X187.3050 Y267.5758
G01 X187.3517 Y267.5820
G01 X187.3987 Y267.5857
G01 X187.4458 Y267.5869
G01 X187.4929 Y267.5857
G01 X187.5399 Y267.5820
G01 X187.5866 Y267.5758
G01 X187.6329 Y267.5672
G01 X187.6788 Y267.5562
G01 X187.7239 Y267.5429
G01 X187.7684 Y267.5271
G01 X187.8119 Y267.5091
G01 X187.8544 Y267.4888
G01 X187.8958 Y267.4663
G01 X187.9360 Y267.4417
G01 X187.9748 Y267.4150
G01 X188.0122 Y267.3863
G01 X188.0480 Y267.3557
G01 X188.0822 Y267.3233
G01 X188.1147 Y267.2891
G01 X188.1453 Y267.2533
G01 X188.1739 Y267.2159
G01 X188.2006 Y267.1771
G01 X188.2252 Y267.1369
G01 X188.2477 Y267.0955
G01 X188.2680 Y267.0530
G01 X188.2860 Y267.0094
G01 X188.3018 Y266.9650
G01 X188.3152 Y266.9198
G01 X188.3262 Y266.8740
G01 X188.3347 Y266.8277
G01 X188.3409 Y266.7810
G01 X188.3446 Y266.7340
G01 X188.3458 Y266.6869
M107
M106 S240
G01 X188.3446 Y266.6398 Z-0.0183
G01 X188.3409 Y266.5928 Z-0.0367
G01 X188.3347 Y266.5461 Z-0.0550
G01 X188.3262 Y266.4998 Z-0.0733
G01 X188.3152 Y266.4540 Z-0.0917
G01 X188.3018 Y266.4088 Z-0.1100
G01 X188.2860 Y266.3644 Z-0.1283
G01 X188.2680 Y266.3208 Z-0.1467
G01 X188.2477 Y266.2783 Z-0.1650
G01 X188.2252 Y266.2369 Z-0.1833
G01 X188.2006 Y266.1967 Z-0.2017
G01 X188.1739 Y266.1579 Z-0.2200
G01 X188.1453 Y266.1205 Z-0.2383
G01 X188.1147 Y266.0847 Z-0.2567
G01 X188.0822 Y266.0505 Z-0.2750
G01 X188.0480 Y266.0181 Z-0.2933
G01 X188.0122 Y265.9875 Z-0.3117
G01 X187.9748 Y265.9588 Z-0.3300
G01 X187.9360 Y265.9321 Z-0.3483
G01 X187.8958 Y265.9075 Z-0.3667
G01 X187.8544 Y265.8850 Z-0.3850
G01 X187.8119 Y265.8647 Z-0.4033
G01 X187.7684 Y265.8467 Z-0.4217
G01 X187.7239 Y265.8310 Z-0.4400
G01 X187.6788 Y265.8176 Z-0.4583
G01 X187.6329 Y265.8066 Z-0.4767
G01 X187.5866 Y265.7980 Z-0.4950
G01 X187.5399 Y265.7918 Z-0.5133
G01 X187.4929 Y265.7881 Z-0.5317
G01 X187.4458 Y265.7869 Z-0.5500
G01 X187.3987 Y265.7881 Z-0.5683
G01 X187.3517 Y265.7918 Z-0.5867
G01 X187.3050 Y265.7980 Z-0.6050
G01 X187.2587 Y265.8066 Z-0.6233
G01 X187.2129 Y265.8176 Z-0.6417
G01 X187.1677 Y265.8310 Z-0.6600
G01 X187.1233 Y265.8467 Z-0.6783
G01 X187.0798 Y265.8647 Z-0.6967
G01 X187.0372 Y265.8850 Z-0.7150
G01 X186.9958 Y265.9075 Z-0.7333
G01 X186.9556 Y265.9321 Z-0.7517
G01 X186.9168 Y265.9588 Z-0.7700
G01 X186.8794 Y265.9875 Z-0.7883
G01 X186.8436 Y266.0181 Z-0.8067
G01 X186.8094 Y266.0505 Z-0.8250
G01 X186.7770 Y266.0847 Z-0.8433
G01 X186.7464 Y266.1205 Z-0.8617
G01 X186.7177 Y266.1579 Z-0.8800
G01 X186.6910 Y266.1967 Z-0.8983
G01 X186.6664 Y266.2369 Z-0.9167
G01 X186.6439 Y266.2783 Z-0.9350
G01 X186.6236 Y266.3208 Z-0.9533
G01 X186.6056 Y266.3644 Z-0.9717
G01 X186.5899 Y266.4088 Z-0.9900
G01 X186.5765 Y266.4540 Z-1.0083
G01 X186.5655 Y266.4998 Z-1.0267
G01 X186.5569 Y266.5461 Z-1.0450
G01 X186.5508 Y266.5928 Z-1.0633
G01 X186.5471 Y266.6398 Z-1.0817
G01 X186.5458 Y266.6869 Z-1.1000
G01 X186.5471 Y266.7340 Z-1.1183
G01 X186.5508 Y266.7810 Z-1.1367
G01 X186.5569 Y266.8277 Z-1.1550
G01 X186.5655 Y266.8740 Z-1.1733
G01 X186.5765 Y266.9198 Z-1.1917
G01 X186.5899 Y266.9650 Z-1.2100
G01 X186.6056 Y267.0094 Z-1.2283
G01 X186.6236 Y267.0530 Z-1.2467
G01 X186.6439 Y267.0955 Z-1.2650
G01 X186.6664 Y267.1369 Z-1.2833
G01 X186.6910 Y267.1771 Z-1.3017
G01 X186.7177 Y267.2159 Z-1.3200
G01 X186.7464 Y267.2533 Z-1.3383
G01 X186.7770 Y267.2891 Z-1.3567
G01 X186.8094 Y267.3233 Z-1.3750
G01 X186.8436 Y267.3557 Z-1.3933
G01 X186.8794 Y267.3863 Z-1.4117
G01 X186.9168 Y267.4150 Z-1.4300
G01 X186.9556 Y267.4417 Z-1.4483
G01 X186.9958 Y267.4663 Z-1.4667
G01 X187.0372 Y267.4888 Z-1.4850
G01 X187.0798 Y267.5091 Z-1.5033
G01 X187.1233 Y267.5271 Z-1.5217
G01 X187.1677 Y267.5429 Z-1.5400
G01 X187.2129 Y267.5562 Z-1.5583
G01 X187.2587 Y267.5672 Z-1.5767
G01 X187.3050 Y267.5758 Z-1.5950
G01 X187.3517 Y267.5820 Z-1.6133
G01 X187.3987 Y267.5857 Z-1.6317
G01 X187.4458 Y267.5869 Z-1.6500
G01 X187.4929 Y267.5857 Z-1.6683
G01 X187.5399 Y267.5820 Z-1.6867
G01 X187.5866 Y267.5758 Z-1.7050
G01 X187.6329 Y267.5672 Z-1.7233
G01 X187.6788 Y267.5562 Z-1.7417
G01 X187.7239 Y267.5429 Z-1.7600
G01 X187.7684 Y267.5271 Z-1.7783
G01 X187.8119 Y267.5091 Z-1.7967
G01 X187.8544 Y267.4888 Z-1.8150
G01 X187.8958 Y267.4663 Z-1.8333
G01 X187.9360 Y267.4417 Z-1.8517
G01 X187.9748 Y267.4150 Z-1.8700
G01 X188.0122 Y267.3863 Z-1.8883
G01 X188.0480 Y267.3557 Z-1.9067
G01 X188.0822 Y267.3233 Z-1.9250
G01 X188.1147 Y267.2891 Z-1.9433
G01 X188.1453 Y267.2533 Z-1.9617
G01 X188.1739 Y267.2159 Z-1.9800
G01 X188.2006 Y267.1771 Z-1.9983
G01 X188.2252 Y267.1369 Z-2.0167
G01 X188.2477 Y267.0955 Z-2.0350
G01 X188.2680 Y267.0530 Z-2.0533
G01 X188.2860 Y267.0094 Z-2.0717
G01 X188.3018 Y266.9650 Z-2.0900
G01 X188.3152 Y266.9198 Z-2.1083
G01 X188.3262 Y266.8740 Z-2.1267
G01 X188.3347 Y266.8277 Z-2.1450
G01 X188.3409 Y266.7810 Z-2.1633
G01 X188.3446 Y266.7340 Z-2.1817
G01 X188.3458 Y266.6869 Z-2.2000
G01 X188.3446 Y266.6398
G01 X188.3409 Y266.5928
G01 X188.3347 Y266.5461
G01 X188.3262 Y266.4998
G01 X188.3152 Y266.4540
G01 X188.3018 Y266.4088
G01 X188.2860 Y266.3644
G01 X188.2680 Y266.3208
G01 X188.2477 Y266.2783
G01 X188.2252 Y266.2369
G01 X188.2006 Y266.1967
G01 X188.1739 Y266.1579
G01 X188.1453 Y266.1205
G01 X188.1147 Y266.0847
G01 X188.0822 Y266.0505
G01 X188.0480 Y266.0181
G01 X188.0122 Y265.9875
G01 X187.9748 Y265.9588
G01 X187.9360 Y265.9321
G01 X187.8958 Y265.9075
G01 X187.8544 Y265.8850
G01 X187.8119 Y265.8647
G01 X187.7684 Y265.8467
G01 X187.7239 Y265.8310
G01 X187.6788 Y265.8176
G01 X187.6329 Y265.8066
G01 X187.5866 Y265.7980
G01 X187.5399 Y265.7918
G01 X187.4929 Y265.7881
G01 X187.4458 Y265.7869
G01 X187.3987 Y265.7881
G01 X187.3517 Y265.7918
G01 X187.3050 Y265.7980
G01 X187.2587 Y265.8066
G01 X187.2129 Y265.8176
G01 X187.1677 Y265.8310
G01 X187.1233 Y265.8467
G01 X187.0798 Y265.8647
G01 X187.0372 Y265.8850
G01 X186.9958 Y265.9075
G01 X186.9556 Y265.9321
G01 X186.9168 Y265.9588
G01 X186.8794 Y265.9875
G01 X186.8436 Y266.0181
G01 X186.8094 Y266.0505
G01 X186.7770 Y266.0847
G01 X186.7464 Y266.1205
G01 X186.7177 Y266.1579
G01 X186.6910 Y266.1967
G01 X186.6664 Y266.2369
G01 X186.6439 Y266.2783
G01 X186.6236 Y266.3208
G01 X186.6056 Y266.3644
G01 X186.5899 Y266.4088
G01 X186.5765 Y266.4540
G01 X186.5655 Y266.4998
G01 X186.5569 Y266.5461
G01 X186.5508 Y266.5928
G01 X186.5471 Y266.6398
G01 X186.5458 Y266.6869
G01 X186.5471 Y266.7340
G01 X186.5508 Y266.7810
G01 X186.5569 Y266.8277
G01 X186.5655 Y266.8740
G01 X186.5765 Y266.9198
G01 X186.5899 Y266.9650
G01 X186.6056 Y267.0094
G01 X186.6236 Y267.0530
G01 X186.6439 Y267.0955
G01 X186.6664 Y267.1369
G01 X186.6910 Y267.1771
G01 X186.7177 Y267.2159
G01 X186.7464 Y267.2533
G01 X186.7770 Y267.2891
G01 X186.8094 Y267.3233
G01 X186.8436 Y267.3557
G01 X186.8794 Y267.3863
G01 X186.9168 Y267.4150
G01 X186.9556 Y267.4417
G01 X186.9958 Y267.4663
G01 X187.0372 Y267.4888
G01 X187.0798 Y267.5091
G01 X187.1233 Y267.5271
G01 X187.1677 Y267.5429
G01 X187.2129 Y267.5562
G01 X187.2587 Y267.5672
G01 X187.3050 Y267.5758
G01 X187.3517 Y267.5820
G01 X187.3987 Y267.5857
G01 X187.4458 Y267.5869
G01 X187.4929 Y267.5857
G01 X187.5399 Y267.5820
G01 X187.5866 Y267.5758
G01 X187.6329 Y267.5672
G01 X187.6788 Y267.5562
G01 X187.7239 Y267.5429
G01 X187.7684 Y267.5271
G01 X187.8119 Y267.5091
G01 X187.8544 Y267.4888
G01 X187.8958 Y267.4663
G01 X187.9360 Y267.4417
G01 X187.9748 Y267.4150
G01 X188.0122 Y267.3863
G01 X188.0480 Y267.3557
G01 X188.0822 Y267.3233
G01 X188.1147 Y267.2891
G01 X188.1453 Y267.2533
G01 X188.1739 Y267.2159
G01 X188.2006 Y267.1771
G01 X188.2252 Y267.1369
G01 X188.2477 Y267.0955
G01 X188.2680 Y267.0530
G01 X188.2860 Y267.0094
G01 X188.3018 Y266.9650
G01 X188.3152 Y266.9198
G01 X188.3262 Y266.8740
G01 X188.3347 Y266.8277
G01 X188.3409 Y266.7810
G01 X188.3446 Y266.7340
G01 X188.3458 Y266.6869
G01 X188.3552 Y266.6405 F1000
G01 X188.3623 Y266.5937
G01 X188.3669 Y266.5466
G01 X188.3691 Y266.4993
G01 X188.3688 Y266.4520
G01 X188.3662 Y266.4047
G01 X188.3610 Y266.3577
G01 X188.3535 Y266.3109
G01 X188.3428 Y266.2608
G01 X188.3296 Y266.2112
G01 X188.3138 Y266.1624
G01 X188.2955 Y266.1145
G01 X188.2749 Y266.0675
G01 X188.2518 Y266.0217
G01 X188.2265 Y265.9771
G01 X188.1989 Y265.9338
G01 X188.1668 Y265.8888
G01 X188.1325 Y265.8455
G01 X188.0961 Y265.8039
G01 X188.0576 Y265.7643
G01 X188.0171 Y265.7267
G01 X187.9748 Y265.6911
G01 X187.9307 Y265.6578
G01 X187.8850 Y265.6268
G01 X187.8343 Y265.5960
G01 X187.7822 Y265.5678
G01 X187.7287 Y265.5423
G01 X187.6740 Y265.5196
G01 X187.6182 Y265.4996
G01 X187.5615 Y265.4825
G01 X187.5040 Y265.4682
G01 X187.4458 Y265.4569
G01 X187.3832 Y265.4480
G01 X187.3202 Y265.4422
G01 X187.2570 Y265.4396
G01 X187.1938 Y265.4402
G01 X187.1307 Y265.4440
G01 X187.0678 Y265.4510
G01 X187.0054 Y265.4611
G01 X186.9435 Y265.4743
G01 X186.8786 Y265.4917
G01 X186.8146 Y265.5123
G01 X186.7517 Y265.5361
G01 X186.6901 Y265.5630
G01 X186.6299 Y265.5930
G01 X186.5713 Y265.6260
G01 X186.5144 Y265.6618
G01 X186.4594 Y265.7005
G01 X186.4033 Y265.7443
G01 X186.3494 Y265.7910
G01 X186.2979 Y265.8402
G01 X186.2489 Y265.8920
G01 X186.2026 Y265.9461
G01 X186.1591 Y266.0025
G01 X186.1185 Y266.0610
G01 X186.0808 Y266.1215
G01 X186.0519 Y266.1887
G01 X186.0263 Y266.2572
G01 X186.0042 Y266.3269
G01 X185.9854 Y266.3976
G01 X185.9702 Y266.4691
G01 X185.9585 Y266.5413
G01 X185.9504 Y266.6139
G01 X185.9458 Y266.6869
G01 X185.9477 Y266.7605
G01 X185.9531 Y266.8339
G01 X185.9621 Y266.9070
G01 X185.9747 Y266.9795
G01 X185.9908 Y267.0514
G01 X186.0104 Y267.1223
G01 X186.0335 Y267.1922
G01 X186.0600 Y267.2609
G01 X186.0899 Y267.3282
G01 X186.1230 Y267.3940
G01 X186.1593 Y267.4581
G01 X186.1986 Y267.5203
G01 X186.2410 Y267.5804
G01 X186.2863 Y267.6385
G01 X186.3344 Y267.6942
G01 X186.3852 Y267.7476
G01 X186.4385 Y267.7983
G01 X186.4942 Y267.8464
G01 X186.5523 Y267.8917
G01 X186.6125 Y267.9341
G01 X186.6747 Y267.9735
G01 X186.7387 Y268.0098
G01 X186.8045 Y268.0429
G01 X186.8718 Y268.0727
G01 X186.9405 Y268.0992
G01 X187.0104 Y268.1223
G01 X187.0814 Y268.1419
G01 X187.1532 Y268.1581
G01 X187.2257 Y268.1707
G01 X187.2988 Y268.1797
G01 X187.3722 Y268.1851
G01 X187.4458 Y268.1869
G01 X187.5194 Y268.1851
G01 X187.5928 Y268.1797
G01 X187.6659 Y268.1707
G01 X187.7385 Y268.1581
G01 X187.8103 Y268.1419
G01 X187.8812 Y268.1223
G01 X187.9511 Y268.0992
G01 X188.0198 Y268.0727
G01 X188.0871 Y268.0429
G01 X188.1529 Y268.0098
G01 X188.2170 Y267.9735
G01 X188.2792 Y267.9341
G01 X188.3394 Y267.8917
G01 X188.3974 Y267.8464
G01 X188.4531 Y267.7983
G01 X188.5065 Y267.7476
G01 X188.5572 Y267.6942
G01 X188.6053 Y267.6385
G01 X188.6506 Y267.5804
G01 X188.6930 Y267.5203
G01 X188.7324 Y267.4581
G01 X188.7687 Y267.3940
G01 X188.8018 Y267.3282
G01 X188.8316 Y267.2609
G01 X188.8581 Y267.1922
G01 X188.8812 Y267.1223
G01 X188.9008 Y267.0514
G01 X188.9170 Y266.9795
G01 X188.9296 Y266.9070
G01 X188.9386 Y266.8339
G01 X188.9440 Y266.7605
G01 X188.9458 Y266.6869
G01 X188.9416 Y266.5748
G01 X188.9290 Y266.4634
G01 X188.9082 Y266.3531
G01 X188.8792 Y266.2448
G01 X188.8421 Y266.1389
G01 X188.7973 Y266.0361
G01 X188.7448 Y265.9369
G01 X188.6852 Y265.8419
G01 X188.6185 Y265.7517
G01 X188.5454 Y265.6667
G01 X188.4661 Y265.5874
G01 X188.3810 Y265.5142
G01 X188.2908 Y265.4476
G01 X188.1958 Y265.3879
G01 X188.0966 Y265.3355
G01 X187.9938 Y265.2906
G01 X187.8879 Y265.2536
G01 X187.7796 Y265.2245
G01 X187.6694 Y265.2037
G01 X187.5579 Y265.1911
G01 X187.4458 Y265.1869
G01 X187.3337 Y265.1911
G01 X187.2223 Y265.2037
G01 X187.1120 Y265.2245
G01 X187.0037 Y265.2536
G01 X186.8978 Y265.2906
G01 X186.7950 Y265.3355
G01 X186.6958 Y265.3879
G01 X186.6009 Y265.4476
G01 X186.5106 Y265.5142
G01 X186.4256 Y265.5874
G01 X186.3463 Y265.6667
G01 X186.2731 Y265.7517
G01 X186.2065 Y265.8419
G01 X186.1468 Y265.9369
G01 X186.0944 Y266.0361
G01 X186.0495 Y266.1389
G01 X186.0125 Y266.2448
G01 X185.9835 Y266.3531
G01 X185.9626 Y266.4634
G01 X185.9500 Y266.5748
G01 X185.9458 Y266.6869
G01 X185.9500 Y266.7990
G01 X185.9626 Y266.9105
G01 X185.9835 Y267.0207
G01 X186.0125 Y267.1290
G01 X186.0495 Y267.2349
G01 X186.0944 Y267.3377
G01 X186.1468 Y267.4369
G01 X186.2065 Y267.5319
G01 X186.2731 Y267.6221
G01 X186.3463 Y267.7072
G01 X186.4256 Y267.7865
G01 X186.5106 Y267.8596
G01 X186.6009 Y267.9262
G01 X186.6958 Y267.9859
G01 X186.7950 Y268.0383
G01 X186.8978 Y268.0832
G01 X187.0037 Y268.1202
G01 X187.1120 Y268.1493
G01 X187.2223 Y268.1701
G01 X187.3337 Y268.1827
G01 X187.4458 Y268.1869
G01 X187.5579 Y268.1827
G01 X187.6694 Y268.1701
G01 X187.7796 Y268.1493
G01 X187.8879 Y268.1202
G01 X187.9938 Y268.0832
G01 X188.0966 Y268.0383
G01 X188.1958 Y267.9859
G01 X188.2908 Y267.9262
G01 X188.3810 Y267.8596
G01 X188.4661 Y267.7865
G01 X188.5454 Y267.7072
G01 X188.6185 Y267.6221
G01 X188.6852 Y267.5319
G01 X188.7448 Y267.4369
G01 X188.7973 Y267.3377
G01 X188.8421 Y267.2349
G01 X188.8792 Y267.1290
G01 X188.9082 Y267.0207
G01 X188.9290 Y266.9105
G01 X188.9416 Y266.7990
G01 X188.9458 Y266.6869
G01 X188.9412 Y266.5823
G01 X188.9276 Y266.4785
G01 X188.9049 Y266.3763
G01 X188.8734 Y266.2765
G01 X188.8334 Y266.1798
G01 X188.7850 Y266.0869
G01 X188.7288 Y265.9986
G01 X188.6651 Y265.9156
G01 X188.5943 Y265.8384
G01 X188.5171 Y265.7677
G01 X188.4341 Y265.7039
G01 X188.3458 Y265.6477
G01 X188.2529 Y265.5994
G01 X188.1562 Y265.5593
G01 X188.0564 Y265.5278
G01 X187.9542 Y265.5052
G01 X187.8504 Y265.4915
G01 X187.7458 Y265.4869
G01 X187.6412 Y265.4915
G01 X187.5374 Y265.5052
G01 X187.4352 Y265.5278
G01 X187.3354 Y265.5593
G01 X187.2387 Y265.5994
G01 X187.1458 Y265.6477
G01 X187.0575 Y265.7039
G01 X186.9745 Y265.7677
G01 X186.8973 Y265.8384
G01 X186.8266 Y265.9156
G01 X186.7628 Y265.9986
G01 X186.7066 Y266.0869
G01 X186.6583 Y266.1798
G01 X186.6182 Y266.2765
G01 X186.5867 Y266.3763
G01 X186.5641 Y266.4785
G01 X186.5504 Y266.5823
G01 X186.5458 Y266.6869
G01 X186.5471 Y266.7340
G01 X186.5508 Y266.7810
G01 X186.5569 Y266.8277
G01 X186.5655 Y266.8740
G01 X186.5765 Y266.9198
G01 X186.5899 Y266.9650
G01 X186.6056 Y267.0094
G01 X186.6236 Y267.0530
G01 X186.6439 Y267.0955
G01 X186.6664 Y267.1369
G01 X186.6910 Y267.1771
G01 X186.7177 Y267.2159
G01 X186.7464 Y267.2533
G01 X186.7770 Y267.2891
G01 X186.8094 Y267.3233
G01 X186.8436 Y267.3557
G01 X186.8794 Y267.3863
G01 X186.9168 Y267.4150
G01 X186.9556 Y267.4417
G01 X186.9958 Y267.4663
G01 X187.0372 Y267.4888
G01 X187.0798 Y267.5091
G01 X187.1233 Y267.5271
G01 X187.1677 Y267.5429
G01 X187.2129 Y267.5562
G01 X187.2587 Y267.5672
G01 X187.3050 Y267.5758
G01 X187.3517 Y267.5820
G01 X187.3987 Y267.5857
G01 X187.4458 Y267.5869
G01 X187.4929 Y267.5857
G01 X187.5399 Y267.5820
G01 X187.5866 Y267.5758
G01 X187.6329 Y267.5672
G01 X187.6788 Y267.5562
G01 X187.7239 Y267.5429
G01 X187.7684 Y267.5271
G01 X187.8119 Y267.5091
G01 X187.8544 Y267.4888
G01 X187.8958 Y267.4663
G01 X187.9360 Y267.4417
G01 X187.9748 Y267.4150
G01 X188.0122 Y267.3863
G01 X188.0480 Y267.3557
G01 X188.0822 Y267.3233
G01 X188.1147 Y267.2891
G01 X188.1453 Y267.2533
G01 X188.1739 Y267.2159
G01 X188.2006 Y267.1771
G01 X188.2252 Y267.1369
G01 X188.2477 Y267.0955
G01 X188.2680 Y267.0530
G01 X188.2860 Y267.0094
G01 X188.3018 Y266.9650
G01 X188.3152 Y266.9198
G01 X188.3262 Y266.8740
G01 X188.3347 Y266.8277
G01 X188.3409 Y266.7810
G01 X188.3446 Y266.7340
G01 X188.3458 Y266.6869
M107
M106 S240
G01 X188.3446 Y266.6398 Z-2.2183 F400
G01 X188.3409 Y266.5928 Z-2.2367
G01 X188.3347 Y266.5461 Z-2.2550
G01 X188.3262 Y266.4998 Z-2.2733
G01 X188.3152 Y266.4540 Z-2.2917
G01 X188.3018 Y266.4088 Z-2.3100
G01 X188.2860 Y266.3644 Z-2.3283
G01 X188.2680 Y266.3208 Z-2.3467
G01 X188.2477 Y266.2783 Z-2.3650
G01 X188.2252 Y266.2369 Z-2.3833
G01 X188.2006 Y266.1967 Z-2.4017
G01 X188.1739 Y266.1579 Z-2.4200
G01 X188.1453 Y266.1205 Z-2.4383
G01 X188.1147 Y266.0847 Z-2.4567
G01 X188.0822 Y266.0505 Z-2.4750
G01 X188.0480 Y266.0181 Z-2.4933
G01 X188.0122 Y265.9875 Z-2.5117
G01 X187.9748 Y265.9588 Z-2.5300
G01 X187.9360 Y265.9321 Z-2.5483
G01 X187.8958 Y265.9075 Z-2.5667
G01 X187.8544 Y265.8850 Z-2.5850
G01 X187.8119 Y265.8647 Z-2.6033
G01 X187.7684 Y265.8467 Z-2.6217
G01 X187.7239 Y265.8310 Z-2.6400
G01 X187.6788 Y265.8176 Z-2.6583
G01 X187.6329 Y265.8066 Z-2.6767
G01 X187.5866 Y265.7980 Z-2.6950
G01 X187.5399 Y265.7918 Z-2.7133
G01 X187.4929 Y265.7881 Z-2.7317
G01 X187.4458 Y265.7869 Z-2.7500
G01 X187.3987 Y265.7881 Z-2.7683
G01 X187.3517 Y265.7918 Z-2.7867
G01 X187.3050 Y265.7980 Z-2.8050
G01 X187.2587 Y265.8066 Z-2.8233
G01 X187.2129 Y265.8176 Z-2.8417
G01 X187.1677 Y265.8310 Z-2.8600
G01 X187.1233 Y265.8467 Z-2.8783
G01 X187.0798 Y265.8647 Z-2.8967
G01 X187.0372 Y265.8850 Z-2.9150
G01 X186.9958 Y265.9075 Z-2.9333
G01 X186.9556 Y265.9321 Z-2.9517
G01 X186.9168 Y265.9588 Z-2.9700
G01 X186.8794 Y265.9875 Z-2.9883
G01 X186.8436 Y266.0181 Z-3.0067
G01 X186.8094 Y266.0505 Z-3.0250
G01 X186.7770 Y266.0847 Z-3.0433
G01 X186.7464 Y266.1205 Z-3.0617
G01 X186.7177 Y266.1579 Z-3.0800
G01 X186.6910 Y266.1967 Z-3.0983
G01 X186.6664 Y266.2369 Z-3.1167
G01 X186.6439 Y266.2783 Z-3.1350
G01 X186.6236 Y266.3208 Z-3.1533
G01 X186.6056 Y266.3644 Z-3.1717
G01 X186.5899 Y266.4088 Z-3.1900
G01 X186.5765 Y266.4540 Z-3.2083
G01 X186.5655 Y266.4998 Z-3.2267
G01 X186.5569 Y266.5461 Z-3.2450
G01 X186.5508 Y266.5928 Z-3.2633
G01 X186.5471 Y266.6398 Z-3.2817
G01 X186.5458 Y266.6869 Z-3.3000
G01 X186.5471 Y266.7340 Z-3.3183
G01 X186.5508 Y266.7810 Z-3.3367
G01 X186.5569 Y266.8277 Z-3.3550
G01 X186.5655 Y266.8740 Z-3.3733
G01 X186.5765 Y266.9198 Z-3.3917
G01 X186.5899 Y266.9650 Z-3.4100
G01 X186.6056 Y267.0094 Z-3.4283
G01 X186.6236 Y267.0530 Z-3.4467
G01 X186.6439 Y267.0955 Z-3.4650
G01 X186.6664 Y267.1369 Z-3.4833
G01 X186.6910 Y267.1771 Z-3.5017
G01 X186.7177 Y267.2159 Z-3.5200
G01 X186.7464 Y267.2533 Z-3.5383
G01 X186.7770 Y267.2891 Z-3.5567
G01 X186.8094 Y267.3233 Z-3.5750
G01 X186.8436 Y267.3557 Z-3.5933
G01 X186.8794 Y267.3863 Z-3.6117
G01 X186.9168 Y267.4150 Z-3.6300
G01 X186.9556 Y267.4417 Z-3.6483
G01 X186.9958 Y267.4663 Z-3.6667
G01 X187.0372 Y267.4888 Z-3.6850
G01 X187.0798 Y267.5091 Z-3.7033
G01 X187.1233 Y267.5271 Z-3.7217
G01 X187.1677 Y267.5429 Z-3.7400
G01 X187.2129 Y267.5562 Z-3.7583
G01 X187.2587 Y267.5672 Z-3.7767
G01 X187.3050 Y267.5758 Z-3.7950
G01 X187.3517 Y267.5820 Z-3.8133
G01 X187.3987 Y267.5857 Z-3.8317
G01 X187.4458 Y267.5869 Z-3.8500
G01 X187.4929 Y267.5857 Z-3.8683
G01 X187.5399 Y267.5820 Z-3.8867
G01 X187.5866 Y267.5758 Z-3.9050
G01 X187.6329 Y267.5672 Z-3.9233
G01 X187.6788 Y267.5562 Z-3.9417
G01 X187.7239 Y267.5429 Z-3.9600
G01 X187.7684 Y267.5271 Z-3.9783
G01 X187.8119 Y267.5091 Z-3.9967
G01 X187.8544 Y267.4888 Z-4.0150
G01 X187.8958 Y267.4663 Z-4.0333
G01 X187.9360 Y267.4417 Z-4.0517
G01 X187.9748 Y267.4150 Z-4.0700
G01 X188.0122 Y267.3863 Z-4.0883
G01 X188.0480 Y267.3557 Z-4.1067
G01 X188.0822 Y267.3233 Z-4.1250
G01 X188.1147 Y267.2891 Z-4.1433
G01 X188.1453 Y267.2533 Z-4.1617
G01 X188.1739 Y267.2159 Z-4.1800
G01 X188.2006 Y267.1771 Z-4.1983
G01 X188.2252 Y267.1369 Z-4.2167
G01 X188.2477 Y267.0955 Z-4.2350
G01 X188.2680 Y267.0530 Z-4.2533
G01 X188.2860 Y267.0094 Z-4.2717
G01 X188.3018 Y266.9650 Z-4.2900
G01 X188.3152 Y266.9198 Z-4.3083
G01 X188.3262 Y266.8740 Z-4.3267
G01 X188.3347 Y266.8277 Z-4.3450
G01 X188.3409 Y266.7810 Z-4.3633
G01 X188.3446 Y266.7340 Z-4.3817
G01 X188.3458 Y266.6869 Z-4.4000
G01 X188.3446 Y266.6398
G01 X188.3409 Y266.5928
G01 X188.3347 Y266.5461
G01 X188.3262 Y266.4998
G01 X188.3152 Y266.4540
G01 X188.3018 Y266.4088
G01 X188.2860 Y266.3644
G01 X188.2680 Y266.3208
G01 X188.2477 Y266.2783
G01 X188.2252 Y266.2369
G01 X188.2006 Y266.1967
G01 X188.1739 Y266.1579
G01 X188.1453 Y266.1205
G01 X188.1147 Y266.0847
G01 X188.0822 Y266.0505
G01 X188.0480 Y266.0181
G01 X188.0122 Y265.9875
G01 X187.9748 Y265.9588
G01 X187.9360 Y265.9321
G01 X187.8958 Y265.9075
G01 X187.8544 Y265.8850
G01 X187.8119 Y265.8647
G01 X187.7684 Y265.8467
G01 X187.7239 Y265.8310
G01 X187.6788 Y265.8176
G01 X187.6329 Y265.8066
G01 X187.5866 Y265.7980
G01 X187.5399 Y265.7918
G01 X187.4929 Y265.7881
G01 X187.4458 Y265.7869
G01 X187.3987 Y265.7881
G01 X187.3517 Y265.7918
G01 X187.3050 Y265.7980
G01 X187.2587 Y265.8066
G01 X187.2129 Y265.8176
G01 X187.1677 Y265.8310
G01 X187.1233 Y265.8467
G01 X187.0798 Y265.8647
G01 X187.0372 Y265.8850
G01 X186.9958 Y265.9075
G01 X186.9556 Y265.9321
G01 X186.9168 Y265.9588
G01 X186.8794 Y265.9875
G01 X186.8436 Y266.0181
G01 X186.8094 Y266.0505
G01 X186.7770 Y266.0847
G01 X186.7464 Y266.1205
G01 X186.7177 Y266.1579
G01 X186.6910 Y266.1967
G01 X186.6664 Y266.2369
G01 X186.6439 Y266.2783
G01 X186.6236 Y266.3208
G01 X186.6056 Y266.3644
G01 X186.5899 Y266.4088
G01 X186.5765 Y266.4540
G01 X186.5655 Y266.4998
G01 X186.5569 Y266.5461
G01 X186.5508 Y266.5928
G01 X186.5471 Y266.6398
G01 X186.5458 Y266.6869
G01 X186.5471 Y266.7340
G01 X186.5508 Y266.7810
G01 X186.5569 Y266.8277
G01 X186.5655 Y266.8740
G01 X186.5765 Y266.9198
G01 X186.5899 Y266.9650
G01 X186.6056 Y267.0094
G01 X186.6236 Y267.0530
G01 X186.6439 Y267.0955
G01 X186.6664 Y267.1369
G01 X186.6910 Y267.1771
G01 X186.7177 Y267.2159
G01 X186.7464 Y267.2533
G01 X186.7770 Y267.2891
G01 X186.8094 Y267.3233
G01 X186.8436 Y267.3557
G01 X186.8794 Y267.3863
G01 X186.9168 Y267.4150
G01 X186.9556 Y267.4417
G01 X186.9958 Y267.4663
G01 X187.0372 Y267.4888
G01 X187.0798 Y267.5091
G01 X187.1233 Y267.5271
G01 X187.1677 Y267.5429
G01 X187.2129 Y267.5562
G01 X187.2587 Y267.5672
G01 X187.3050 Y267.5758
G01 X187.3517 Y267.5820
G01 X187.3987 Y267.5857
G01 X187.4458 Y267.5869
G01 X187.4929 Y267.5857
G01 X187.5399 Y267.5820
G01 X187.5866 Y267.5758
G01 X187.6329 Y267.5672
G01 X187.6788 Y267.5562
G01 X187.7239 Y267.5429
G01 X187.7684 Y267.5271
G01 X187.8119 Y267.5091
G01 X187.8544 Y267.4888
G01 X187.8958 Y267.4663
G01 X187.9360 Y267.4417
G01 X187.9748 Y267.4150
G01 X188.0122 Y267.3863
G01 X188.0480 Y267.3557
G01 X188.0822 Y267.3233
G01 X188.1147 Y267.2891
G01 X188.1453 Y267.2533
G01 X188.1739 Y267.2159
G01 X188.2006 Y267.1771
G01 X188.2252 Y267.1369
G01 X188.2477 Y267.0955
G01 X188.2680 Y267.0530
G01 X188.2860 Y267.0094
G01 X188.3018 Y266.9650
G01 X188.3152 Y266.9198
G01 X188.3262 Y266.8740
G01 X188.3347 Y266.8277
G01 X188.3409 Y266.7810
G01 X188.3446 Y266.7340
G01 X188.3458 Y266.6869
G01 X188.3552 Y266.6405 F1000
G01 X188.3623 Y266.5937
G01 X188.3669 Y266.5466
G01 X188.3691 Y266.4993
G01 X188.3688 Y266.4520
G01 X188.3662 Y266.4047
G01 X188.3610 Y266.3577
G01 X188.3535 Y266.3109
G01 X188.3428 Y266.2608
G01 X188.3296 Y266.2112
G01 X188.3138 Y266.1624
G01 X188.2955 Y266.1145
G01 X188.2749 Y266.0675
G01 X188.2518 Y266.0217
G01 X188.2265 Y265.9771
G01 X188.1989 Y265.9338
G01 X188.1668 Y265.8888
G01 X188.1325 Y265.8455
G01 X188.0961 Y265.8039
G01 X188.0576 Y265.7643
G01 X188.0171 Y265.7267
G01 X187.9748 Y265.6911
G01 X187.9307 Y265.6578
G01 X187.8850 Y265.6268
G01 X187.8343 Y265.5960
G01 X187.7822 Y265.5678
G01 X187.7287 Y265.5423
G01 X187.6740 Y265.5196
G01 X187.6182 Y265.4996
G01 X187.5615 Y265.4825
G01 X187.5040 Y265.4682
G01 X187.4458 Y265.4569
G01 X187.3832 Y265.4480
G01 X187.3202 Y265.4422
G01 X187.2570 Y265.4396
G01 X187.1938 Y265.4402
G01 X187.1307 Y265.4440
G01 X187.0678 Y265.4510
G01 X187.0054 Y265.4611
G01 X186.9435 Y265.4743
G01 X186.8786 Y265.4917
G01 X186.8146 Y265.5123
G01 X186.7517 Y265.5361
G01 X186.6901 Y265.5630
G01 X186.6299 Y265.5930
G01 X186.5713 Y265.6260
G01 X186.5144 Y265.6618
G01 X186.4594 Y265.7005
G01 X186.4033 Y265.7443
G01 X186.3494 Y265.7910
G01 X186.2979 Y265.8402
G01 X186.2489 Y265.8920
G01 X186.2026 Y265.9461
G01 X186.1591 Y266.0025
G01 X186.1185 Y266.0610
G01 X186.0808 Y266.1215
G01 X186.0519 Y266.1887
G01 X186.0263 Y266.2572
G01 X186.0042 Y266.3269
G01 X185.9854 Y266.3976
G01 X185.9702 Y266.4691
G01 X185.9585 Y266.5413
G01 X185.9504 Y266.6139
G01 X185.9458 Y266.6869
G01 X185.9477 Y266.7605
G01 X185.9531 Y266.8339
G01 X185.9621 Y266.9070
G01 X185.9747 Y266.9795
G01 X185.9908 Y267.0514
G01 X186.0104 Y267.1223
G01 X186.0335 Y267.1922
G01 X186.0600 Y267.2609
G01 X186.0899 Y267.3282
G01 X186.1230 Y267.3940
G01 X186.1593 Y267.4581
G01 X186.1986 Y267.5203
G01 X186.2410 Y267.5804
G01 X186.2863 Y267.6385
G01 X186.3344 Y267.6942
G01 X186.3852 Y267.7476
G01 X186.4385 Y267.7983
G01 X186.4942 Y267.8464
G01 X186.5523 Y267.8917
G01 X186.6125 Y267.9341
G01 X186.6747 Y267.9735
G01 X186.7387 Y268.0098
G01 X186.8045 Y268.0429
G01 X186.8718 Y268.0727
G01 X186.9405 Y268.0992
G01 X187.0104 Y268.1223
G01 X187.0814 Y268.1419
G01 X187.1532 Y268.1581
G01 X187.2257 Y268.1707
G01 X187.2988 Y268.1797
G01 X187.3722 Y268.1851
G01 X187.4458 Y268.1869
G01 X187.5194 Y268.1851
G01 X187.5928 Y268.1797
G01 X187.6659 Y268.1707
G01 X187.7385 Y268.1581
G01 X187.8103 Y268.1419
G01 X187.8812 Y268.1223
G01 X187.9511 Y268.0992
G01 X188.0198 Y268.0727
G01 X188.0871 Y268.0429
G01 X188.1529 Y268.0098
G01 X188.2170 Y267.9735
G01 X188.2792 Y267.9341
G01 X188.3394 Y267.8917
G01 X188.3974 Y267.8464
G01 X188.4531 Y267.7983
G01 X188.5065 Y267.7476
G01 X188.5572 Y267.6942
G01 X188.6053 Y267.6385
G01 X188.6506 Y267.5804
G01 X188.6930 Y267.5203
G01 X188.7324 Y267.4581
G01 X188.7687 Y267.3940
G01 X188.8018 Y267.3282
G01 X188.8316 Y267.2609
G01 X188.8581 Y267.1922
G01 X188.8812 Y267.1223
G01 X188.9008 Y267.0514
G01 X188.9170 Y266.9795
G01 X188.9296 Y266.9070
G01 X188.9386 Y266.8339
G01 X188.9440 Y266.7605
G01 X188.9458 Y266.6869
G01 X188.9416 Y266.5748
G01 X188.9290 Y266.4634
G01 X188.9082 Y266.3531
G01 X188.8792 Y266.2448
G01 X188.8421 Y266.1389
G01 X188.7973 Y266.0361
G01 X188.7448 Y265.9369
G01 X188.6852 Y265.8419
G01 X188.6185 Y265.7517
G01 X188.5454 Y265.6667
G01 X188.4661 Y265.5874
G01 X188.3810 Y265.5142
G01 X188.2908 Y265.4476
G01 X188.1958 Y265.3879
G01 X188.0966 Y265.3355
G01 X187.9938 Y265.2906
G01 X187.8879 Y265.2536
G01 X187.7796 Y265.2245
G01 X187.6694 Y265.2037
G01 X187.5579 Y265.1911
G01 X187.4458 Y265.1869
G01 X187.3337 Y265.1911
G01 X187.2223 Y265.2037
G01 X187.1120 Y265.2245
G01 X187.0037 Y265.2536
G01 X186.8978 Y265.2906
G01 X186.7950 Y265.3355
G01 X186.6958 Y265.3879
G01 X186.6009 Y265.4476
G01 X186.5106 Y265.5142
G01 X186.4256 Y265.5874
G01 X186.3463 Y265.6667
G01 X186.2731 Y265.7517
G01 X186.2065 Y265.8419
G01 X186.1468 Y265.9369
G01 X186.0944 Y266.0361
G01 X186.0495 Y266.1389
G01 X186.0125 Y266.2448
G01 X185.9835 Y266.3531
G01 X185.9626 Y266.4634
G01 X185.9500 Y266.5748
G01 X185.9458 Y266.6869
G01 X185.9500 Y266.7990
G01 X185.9626 Y266.9105
G01 X185.9835 Y267.0207
G01 X186.0125 Y267.1290
G01 X186.0495 Y267.2349
G01 X186.0944 Y267.3377
G01 X186.1468 Y267.4369
G01 X186.2065 Y267.5319
G01 X186.2731 Y267.6221
G01 X186.3463 Y267.7072
G01 X186.4256 Y267.7865
G01 X186.5106 Y267.8596
G01 X186.6009 Y267.9262
G01 X186.6958 Y267.9859
G01 X186.7950 Y268.0383
G01 X186.8978 Y268.0832
G01 X187.0037 Y268.1202
G01 X187.1120 Y268.1493
G01 X187.2223 Y268.1701
G01 X187.3337 Y268.1827
G01 X187.4458 Y268.1869
G01 X187.5579 Y268.1827
G01 X187.6694 Y268.1701
G01 X187.7796 Y268.1493
G01 X187.8879 Y268.1202
G01 X187.9938 Y268.0832
G01 X188.0966 Y268.0383
G01 X188.1958 Y267.9859
G01 X188.2908 Y267.9262
G01 X188.3810 Y267.8596
G01 X188.4661 Y267.7865
G01 X188.5454 Y267.7072
G01 X188.6185 Y267.6221
G01 X188.6852 Y267.5319
G01 X188.7448 Y267.4369
G01 X188.7973 Y267.3377
G01 X188.8421 Y267.2349
G01 X188.8792 Y267.1290
G01 X188.9082 Y267.0207
G01 X188.9290 Y266.9105
G01 X188.9416 Y266.7990
G01 X188.9458 Y266.6869
G01 X188.9412 Y266.5823
G01 X188.9276 Y266.4785
G01 X188.9049 Y266.3763
G01 X188.8734 Y266.2765
G01 X188.8334 Y266.1798
G01 X188.7850 Y266.0869
G01 X188.7288 Y265.9986
G01 X188.6651 Y265.9156
G01 X188.5943 Y265.8384
G01 X188.5171 Y265.7677
G01 X188.4341 Y265.7039
G01 X188.3458 Y265.6477
G01 X188.2529 Y265.5994
G01 X188.1562 Y265.5593
G01 X188.0564 Y265.5278
G01 X187.9542 Y265.5052
G01 X187.8504 Y265.4915
G01 X187.7458 Y265.4869
G01 X187.6412 Y265.4915
G01 X187.5374 Y265.5052
G01 X187.4352 Y265.5278
G01 X187.3354 Y265.5593
G01 X187.2387 Y265.5994
G01 X187.1458 Y265.6477
G01 X187.0575 Y265.7039
G01 X186.9745 Y265.7677
G01 X186.8973 Y265.8384
G01 X186.8266 Y265.9156
G01 X186.7628 Y265.9986
G01 X186.7066 Y266.0869
G01 X186.6583 Y266.1798
G01 X186.6182 Y266.2765
G01 X186.5867 Y266.3763
G01 X186.5641 Y266.4785
G01 X186.5504 Y266.5823
G01 X186.5458 Y266.6869
G01 X186.5471 Y266.7340
G01 X186.5508 Y266.7810
G01 X186.5569 Y266.8277
G01 X186.5655 Y266.8740
G01 X186.5765 Y266.9198
G01 X186.5899 Y266.9650
G01 X186.6056 Y267.0094
G01 X186.6236 Y267.0530
G01 X186.6439 Y267.0955
G01 X186.6664 Y267.1369
G01 X186.6910 Y267.1771
G01 X186.7177 Y267.2159
G01 X186.7464 Y267.2533
G01 X186.7770 Y267.2891
G01 X186.8094 Y267.3233
G01 X186.8436 Y267.3557
G01 X186.8794 Y267.3863
G01 X186.9168 Y267.4150
G01 X186.9556 Y267.4417
G01 X186.9958 Y267.4663
G01 X187.0372 Y267.4888
G01 X187.0798 Y267.5091
G01 X187.1233 Y267.5271
G01 X187.1677 Y267.5429
G01 X187.2129 Y267.5562
G01 X187.2587 Y267.5672
G01 X187.3050 Y267.5758
G01 X187.3517 Y267.5820
G01 X187.3987 Y267.5857
G01 X187.4458 Y267.5869
G01 X187.4929 Y267.5857
G01 X187.5399 Y267.5820
G01 X187.5866 Y267.5758
G01 X187.6329 Y267.5672
G01 X187.6788 Y267.5562
G01 X187.7239 Y267.5429
G01 X187.7684 Y267.5271
G01 X187.8119 Y267.5091
G01 X187.8544 Y267.4888
G01 X187.8958 Y267.4663
G01 X187.9360 Y267.4417
G01 X187.9748 Y267.4150
G01 X188.0122 Y267.3863
G01 X188.0480 Y267.3557
G01 X188.0822 Y267.3233
G01 X188.1147 Y267.2891
G01 X188.1453 Y267.2533
G01 X188.1739 Y267.2159
G01 X188.2006 Y267.1771
G01 X188.2252 Y267.1369
G01 X188.2477 Y267.0955
G01 X188.2680 Y267.0530
G01 X188.2860 Y267.0094
G01 X188.3018 Y266.9650
G01 X188.3152 Y266.9198
G01 X188.3262 Y266.8740
G01 X188.3347 Y266.8277
G01 X188.3409 Y266.7810
G01 X188.3446 Y266.7340
G01 X188.3458 Y266.6869
M107
M106 S240
G01 X188.3446 Y266.6398 Z-4.4133 F400
G01 X188.3409 Y266.5928 Z-4.4267
G01 X188.3347 Y266.5461 Z-4.4400
G01 X188.3262 Y266.4998 Z-4.4533
G01 X188.3152 Y266.4540 Z-4.4667
G01 X188.3018 Y266.4088 Z-4.4800
G01 X188.2860 Y266.3644 Z-4.4933
G01 X188.2680 Y266.3208 Z-4.5067
G01 X188.2477 Y266.2783 Z-4.5200
G01 X188.2252 Y266.2369 Z-4.5333
G01 X188.2006 Y266.1967 Z-4.5467
G01 X188.1739 Y266.1579 Z-4.5600
G01 X188.1453 Y266.1205 Z-4.5733
G01 X188.1147 Y266.0847 Z-4.5867
G01 X188.0822 Y266.0505 Z-4.6000
G01 X188.0480 Y266.0181 Z-4.6133
G01 X188.0122 Y265.9875 Z-4.6267
G01 X187.9748 Y265.9588 Z-4.6400
G01 X187.9360 Y265.9321 Z-4.6533
G01 X187.8958 Y265.9075 Z-4.6667
G01 X187.8544 Y265.8850 Z-4.6800
G01 X187.8119 Y265.8647 Z-4.6933
G01 X187.7684 Y265.8467 Z-4.7067
G01 X187.7239 Y265.8310 Z-4.7200
G01 X187.6788 Y265.8176 Z-4.7333
G01 X187.6329 Y265.8066 Z-4.7467
G01 X187.5866 Y265.7980 Z-4.7600
G01 X187.5399 Y265.7918 Z-4.7733
G01 X187.4929 Y265.7881 Z-4.7867
G01 X187.4458 Y265.7869 Z-4.8000
G01 X187.3987 Y265.7881 Z-4.8133
G01 X187.3517 Y265.7918 Z-4.8267
G01 X187.3050 Y265.7980 Z-4.8400
G01 X187.2587 Y265.8066 Z-4.8533
G01 X187.2129 Y265.8176 Z-4.8667
G01 X187.1677 Y265.8310 Z-4.8800
G01 X187.1233 Y265.8467 Z-4.8933
G01 X187.0798 Y265.8647 Z-4.9067
G01 X187.0372 Y265.8850 Z-4.9200
G01 X186.9958 Y265.9075 Z-4.9333
G01 X186.9556 Y265.9321 Z-4.9467
G01 X186.9168 Y265.9588 Z-4.9600
G01 X186.8794 Y265.9875 Z-4.9733
G01 X186.8436 Y266.0181 Z-4.9867
G01 X186.8094 Y266.0505 Z-5.0000
G01 X186.7770 Y266.0847 Z-5.0133
G01 X186.7464 Y266.1205 Z-5.0267
G01 X186.7177 Y266.1579 Z-5.0400
G01 X186.6910 Y266.1967 Z-5.0533
G01 X186.6664 Y266.2369 Z-5.0667
G01 X186.6439 Y266.2783 Z-5.0800
G01 X186.6236 Y266.3208 Z-5.0933
G01 X186.6056 Y266.3644 Z-5.1067
G01 X186.5899 Y266.4088 Z-5.1200
G01 X186.5765 Y266.4540 Z-5.1333
G01 X186.5655 Y266.4998 Z-5.1467
G01 X186.5569 Y266.5461 Z-5.1600
G01 X186.5508 Y266.5928 Z-5.1733
G01 X186.5471 Y266.6398 Z-5.1867
G01 X186.5458 Y266.6869 Z-5.2000
G01 X186.5471 Y266.7340 Z-5.2133
G01 X186.5508 Y266.7810 Z-5.2267
G01 X186.5569 Y266.8277 Z-5.2400
G01 X186.5655 Y266.8740 Z-5.2533
G01 X186.5765 Y266.9198 Z-5.2667
G01 X186.5899 Y266.9650 Z-5.2800
G01 X186.6056 Y267.0094 Z-5.2933
G01 X186.6236 Y267.0530 Z-5.3067
G01 X186.6439 Y267.0955 Z-5.3200
G01 X186.6664 Y267.1369 Z-5.3333
G01 X186.6910 Y267.1771 Z-5.3467
G01 X186.7177 Y267.2159 Z-5.3600
G01 X186.7464 Y267.2533 Z-5.3733
G01 X186.7770 Y267.2891 Z-5.3867
G01 X186.8094 Y267.3233 Z-5.4000
G01 X186.8436 Y267.3557 Z-5.4133
G01 X186.8794 Y267.3863 Z-5.4267
G01 X186.9168 Y267.4150 Z-5.4400
G01 X186.9556 Y267.4417 Z-5.4533
G01 X186.9958 Y267.4663 Z-5.4667
G01 X187.0372 Y267.4888 Z-5.4800
G01 X187.0798 Y267.5091 Z-5.4933
G01 X187.1233 Y267.5271 Z-5.5067
G01 X187.1677 Y267.5429 Z-5.5200
G01 X187.2129 Y267.5562 Z-5.5333
G01 X187.2587 Y267.5672 Z-5.5467
G01 X187.3050 Y267.5758 Z-5.5600
G01 X187.3517 Y267.5820 Z-5.5733
G01 X187.3987 Y267.5857 Z-5.5867
G01 X187.4458 Y267.5869 Z-5.6000
G01 X187.4929 Y267.5857 Z-5.6133
G01 X187.5399 Y267.5820 Z-5.6267
G01 X187.5866 Y267.5758 Z-5.6400
G01 X187.6329 Y267.5672 Z-5.6533
G01 X187.6788 Y267.5562 Z-5.6667
G01 X187.7239 Y267.5429 Z-5.6800
G01 X187.7684 Y267.5271 Z-5.6933
G01 X187.8119 Y267.5091 Z-5.7067
G01 X187.8544 Y267.4888 Z-5.7200
G01 X187.8958 Y267.4663 Z-5.7333
G01 X187.9360 Y267.4417 Z-5.7467
G01 X187.9748 Y267.4150 Z-5.7600
G01 X188.0122 Y267.3863 Z-5.7733
G01 X188.0480 Y267.3557 Z-5.7867
G01 X188.0822 Y267.3233 Z-5.8000
G01 X188.1147 Y267.2891 Z-5.8133
G01 X188.1453 Y267.2533 Z-5.8267
G01 X188.1739 Y267.2159 Z-5.8400
G01 X188.2006 Y267.1771 Z-5.8533
G01 X188.2252 Y267.1369 Z-5.8667
G01 X188.2477 Y267.0955 Z-5.8800
G01 X188.2680 Y267.0530 Z-5.8933
G01 X188.2860 Y267.0094 Z-5.9067
G01 X188.3018 Y266.9650 Z-5.9200
G01 X188.3152 Y266.9198 Z-5.9333
G01 X188.3262 Y266.8740 Z-5.9467
G01 X188.3347 Y266.8277 Z-5.9600
G01 X188.3409 Y266.7810 Z-5.9733
G01 X188.3446 Y266.7340 Z-5.9867
G01 X188.3458 Y266.6869 Z-6.0000
G01 X188.3446 Y266.6398
G01 X188.3409 Y266.5928
G01 X188.3347 Y266.5461
G01 X188.3262 Y266.4998
G01 X188.3152 Y266.4540
G01 X188.3018 Y266.4088
G01 X188.2860 Y266.3644
G01 X188.2680 Y266.3208
G01 X188.2477 Y266.2783
G01 X188.2252 Y266.2369
G01 X188.2006 Y266.1967
G01 X188.1739 Y266.1579
G01 X188.1453 Y266.1205
G01 X188.1147 Y266.0847
G01 X188.0822 Y266.0505
G01 X188.0480 Y266.0181
G01 X188.0122 Y265.9875
G01 X187.9748 Y265.9588
G01 X187.9360 Y265.9321
G01 X187.8958 Y265.9075
G01 X187.8544 Y265.8850
G01 X187.8119 Y265.8647
G01 X187.7684 Y265.8467
G01 X187.7239 Y265.8310
G01 X187.6788 Y265.8176
G01 X187.6329 Y265.8066
G01 X187.5866 Y265.7980
G01 X187.5399 Y265.7918
G01 X187.4929 Y265.7881
G01 X187.4458 Y265.7869
G01 X187.3987 Y265.7881
G01 X187.3517 Y265.7918
G01 X187.3050 Y265.7980
G01 X187.2587 Y265.8066
G01 X187.2129 Y265.8176
G01 X187.1677 Y265.8310
G01 X187.1233 Y265.8467
G01 X187.0798 Y265.8647
G01 X187.0372 Y265.8850
G01 X186.9958 Y265.9075
G01 X186.9556 Y265.9321
G01 X186.9168 Y265.9588
G01 X186.8794 Y265.9875
G01 X186.8436 Y266.0181
G01 X186.8094 Y266.0505
G01 X186.7770 Y266.0847
G01 X186.7464 Y266.1205
G01 X186.7177 Y266.1579
G01 X186.6910 Y266.1967
G01 X186.6664 Y266.2369
G01 X186.6439 Y266.2783
G01 X186.6236 Y266.3208
G01 X186.6056 Y266.3644
G01 X186.5899 Y266.4088
G01 X186.5765 Y266.4540
G01 X186.5655 Y266.4998
G01 X186.5569 Y266.5461
G01 X186.5508 Y266.5928
G01 X186.5471 Y266.6398
G01 X186.5458 Y266.6869
G01 X186.5471 Y266.7340
G01 X186.5508 Y266.7810
G01 X186.5569 Y266.8277
G01 X186.5655 Y266.8740
G01 X186.5765 Y266.9198
G01 X186.5899 Y266.9650
G01 X186.6056 Y267.0094
G01 X186.6236 Y267.0530
G01 X186.6439 Y267.0955
G01 X186.6664 Y267.1369
G01 X186.6910 Y267.1771
G01 X186.7177 Y267.2159
G01 X186.7464 Y267.2533
G01 X186.7770 Y267.2891
G01 X186.8094 Y267.3233
G01 X186.8436 Y267.3557
G01 X186.8794 Y267.3863
G01 X186.9168 Y267.4150
G01 X186.9556 Y267.4417
G01 X186.9958 Y267.4663
G01 X187.0372 Y267.4888
G01 X187.0798 Y267.5091
G01 X187.1233 Y267.5271
G01 X187.1677 Y267.5429
G01 X187.2129 Y267.5562
G01 X187.2587 Y267.5672
G01 X187.3050 Y267.5758
G01 X187.3517 Y267.5820
G01 X187.3987 Y267.5857
G01 X187.4458 Y267.5869
G01 X187.4929 Y267.5857
G01 X187.5399 Y267.5820
G01 X187.5866 Y267.5758
G01 X187.6329 Y267.5672
G01 X187.6788 Y267.5562
G01 X187.7239 Y267.5429
G01 X187.7684 Y267.5271
G01 X187.8119 Y267.5091
G01 X187.8544 Y267.4888
G01 X187.8958 Y267.4663
G01 X187.9360 Y267.4417
G01 X187.9748 Y267.4150
G01 X188.0122 Y267.3863
G01 X188.0480 Y267.3557
G01 X188.0822 Y267.3233
G01 X188.1147 Y267.2891
G01 X188.1453 Y267.2533
G01 X188.1739 Y267.2159
G01 X188.2006 Y267.1771
G01 X188.2252 Y267.1369
G01 X188.2477 Y267.0955
G01 X188.2680 Y267.0530
G01 X188.2860 Y267.0094
G01 X188.3018 Y266.9650
G01 X188.3152 Y266.9198
G01 X188.3262 Y266.8740
G01 X188.3347 Y266.8277
G01 X188.3409 Y266.7810
G01 X188.3446 Y266.7340
G01 X188.3458 Y266.6869
G01 X188.3552 Y266.6405 F1000
G01 X188.3623 Y266.5937
G01 X188.3669 Y266.5466
G01 X188.3691 Y266.4993
G01 X188.3688 Y266.4520
G01 X188.3662 Y266.4047
G01 X188.3610 Y266.3577
G01 X188.3535 Y266.3109
G01 X188.3428 Y266.2608
G01 X188.3296 Y266.2112
G01 X188.3138 Y266.1624
G01 X188.2955 Y266.1145
G01 X188.2749 Y266.0675
G01 X188.2518 Y266.0217
G01 X188.2265 Y265.9771
G01 X188.1989 Y265.9338
G01 X188.1668 Y265.8888
G01 X188.1325 Y265.8455
G01 X188.0961 Y265.8039
G01 X188.0576 Y265.7643
G01 X188.0171 Y265.7267
G01 X187.9748 Y265.6911
G01 X187.9307 Y265.6578
G01 X187.8850 Y265.6268
G01 X187.8343 Y265.5960
G01 X187.7822 Y265.5678
G01 X187.7287 Y265.5423
G01 X187.6740 Y265.5196
G01 X187.6182 Y265.4996
G01 X187.5615 Y265.4825
G01 X187.5040 Y265.4682
G01 X187.4458 Y265.4569
G01 X187.3832 Y265.4480
G01 X187.3202 Y265.4422
G01 X187.2570 Y265.4396
G01 X187.1938 Y265.4402
G01 X187.1307 Y265.4440
G01 X187.0678 Y265.4510
G01 X187.0054 Y265.4611
G01 X186.9435 Y265.4743
G01 X186.8786 Y265.4917
G01 X186.8146 Y265.5123
G01 X186.7517 Y265.5361
G01 X186.6901 Y265.5630
G01 X186.6299 Y265.5930
G01 X186.5713 Y265.6260
G01 X186.5144 Y265.6618
G01 X186.4594 Y265.7005
G01 X186.4033 Y265.7443
G01 X186.3494 Y265.7910
G01 X186.2979 Y265.8402
G01 X186.2489 Y265.8920
G01 X186.2026 Y265.9461
G01 X186.1591 Y266.0025
G01 X186.1185 Y266.0610
G01 X186.0808 Y266.1215
