;Project Notahorse_02
;Created by Estlcam version 11 build 11,121
;Machining time about 00:22:48 hours

G90
M03 S18000
G00 X0.0000 Y0.0000 Z0.0000
G00 Z2.0000


;No. 1: Helical drill 1
G00 X33.3458 Y266.6869
G00 Z0.5000
M106 S240
G01 X33.3446 Y266.6398 Z0.4958 F400 S18000
G01 X33.3409 Y266.5928 Z0.4917
G01 X33.3347 Y266.5461 Z0.4875
G01 X33.3262 Y266.4998 Z0.4833
G01 X33.3152 Y266.4540 Z0.4792
G01 X33.3018 Y266.4088 Z0.4750
G01 X33.2861 Y266.3644 Z0.4708
G01 X33.2680 Y266.3209 Z0.4667
G01 X33.2477 Y266.2783 Z0.4625
G01 X33.2253 Y266.2369 Z0.4583
G01 X33.2006 Y266.1967 Z0.4542
G01 X33.1739 Y266.1579 Z0.4500
G01 X33.1453 Y266.1205 Z0.4458
G01 X33.1147 Y266.0847 Z0.4417
G01 X33.0822 Y266.0505 Z0.4375
G01 X33.0480 Y266.0181 Z0.4333
G01 X33.0122 Y265.9875 Z0.4292
G01 X32.9748 Y265.9588 Z0.4250
G01 X32.9360 Y265.9321 Z0.4208
G01 X32.8958 Y265.9075 Z0.4167
G01 X32.8544 Y265.8850 Z0.4125
G01 X32.8119 Y265.8647 Z0.4083
G01 X32.7684 Y265.8467 Z0.4042
G01 X32.7239 Y265.8310 Z0.4000
G01 X32.6788 Y265.8176 Z0.3958
G01 X32.6329 Y265.8066 Z0.3917
G01 X32.5866 Y265.7980 Z0.3875
G01 X32.5399 Y265.7918 Z0.3833
G01 X32.4929 Y265.7882 Z0.3792
G01 X32.4458 Y265.7869 Z0.3750
G01 X32.3987 Y265.7882 Z0.3708
G01 X32.3518 Y265.7918 Z0.3667
G01 X32.3050 Y265.7980 Z0.3625
G01 X32.2587 Y265.8066 Z0.3583
G01 X32.2129 Y265.8176 Z0.3542
G01 X32.1677 Y265.8310 Z0.3500
G01 X32.1233 Y265.8467 Z0.3458
G01 X32.0798 Y265.8647 Z0.3417
G01 X32.0372 Y265.8850 Z0.3375
G01 X31.9958 Y265.9075 Z0.3333
G01 X31.9557 Y265.9321 Z0.3292
G01 X31.9168 Y265.9588 Z0.3250
G01 X31.8794 Y265.9875 Z0.3208
G01 X31.8436 Y266.0181 Z0.3167
G01 X31.8094 Y266.0505 Z0.3125
G01 X31.7770 Y266.0847 Z0.3083
G01 X31.7464 Y266.1205 Z0.3042
G01 X31.7177 Y266.1579 Z0.3000
G01 X31.6910 Y266.1967 Z0.2958
G01 X31.6664 Y266.2369 Z0.2917
G01 X31.6439 Y266.2783 Z0.2875
G01 X31.6236 Y266.3209 Z0.2833
G01 X31.6056 Y266.3644 Z0.2792
G01 X31.5899 Y266.4088 Z0.2750
G01 X31.5765 Y266.4540 Z0.2708
G01 X31.5655 Y266.4998 Z0.2667
G01 X31.5569 Y266.5461 Z0.2625
G01 X31.5508 Y266.5928 Z0.2583
G01 X31.5471 Y266.6398 Z0.2542
G01 X31.5458 Y266.6869 Z0.2500
G01 X31.5471 Y266.7340 Z0.2458
G01 X31.5508 Y266.7810 Z0.2417
G01 X31.5569 Y266.8277 Z0.2375
G01 X31.5655 Y266.8740 Z0.2333
G01 X31.5765 Y266.9199 Z0.2292
G01 X31.5899 Y266.9650 Z0.2250
G01 X31.6056 Y267.0094 Z0.2208
G01 X31.6236 Y267.0530 Z0.2167
G01 X31.6439 Y267.0955 Z0.2125
G01 X31.6664 Y267.1369 Z0.2083
G01 X31.6910 Y267.1771 Z0.2042
G01 X31.7177 Y267.2159 Z0.2000
G01 X31.7464 Y267.2533 Z0.1958
G01 X31.7770 Y267.2891 Z0.1917
G01 X31.8094 Y267.3233 Z0.1875
G01 X31.8436 Y267.3557 Z0.1833
G01 X31.8794 Y267.3863 Z0.1792
G01 X31.9168 Y267.4150 Z0.1750
G01 X31.9557 Y267.4417 Z0.1708
G01 X31.9958 Y267.4663 Z0.1667
G01 X32.0372 Y267.4888 Z0.1625
G01 X32.0798 Y267.5091 Z0.1583
G01 X32.1233 Y267.5271 Z0.1542
G01 X32.1677 Y267.5429 Z0.1500
G01 X32.2129 Y267.5563 Z0.1458
G01 X32.2587 Y267.5672 Z0.1417
G01 X32.3050 Y267.5758 Z0.1375
G01 X32.3518 Y267.5820 Z0.1333
G01 X32.3987 Y267.5857 Z0.1292
G01 X32.4458 Y267.5869 Z0.1250
G01 X32.4929 Y267.5857 Z0.1208
G01 X32.5399 Y267.5820 Z0.1167
G01 X32.5866 Y267.5758 Z0.1125
G01 X32.6329 Y267.5672 Z0.1083
G01 X32.6788 Y267.5563 Z0.1042
G01 X32.7239 Y267.5429 Z0.1000
G01 X32.7684 Y267.5271 Z0.0958
G01 X32.8119 Y267.5091 Z0.0917
G01 X32.8544 Y267.4888 Z0.0875
G01 X32.8958 Y267.4663 Z0.0833
G01 X32.9360 Y267.4417 Z0.0792
G01 X32.9748 Y267.4150 Z0.0750
G01 X33.0122 Y267.3863 Z0.0708
G01 X33.0480 Y267.3557 Z0.0667
G01 X33.0822 Y267.3233 Z0.0625
G01 X33.1147 Y267.2891 Z0.0583
G01 X33.1453 Y267.2533 Z0.0542
G01 X33.1739 Y267.2159 Z0.0500
G01 X33.2006 Y267.1771 Z0.0458
G01 X33.2253 Y267.1369 Z0.0417
G01 X33.2477 Y267.0955 Z0.0375
G01 X33.2680 Y267.0530 Z0.0333
G01 X33.2861 Y267.0094 Z0.0292
G01 X33.3018 Y266.9650 Z0.0250
G01 X33.3152 Y266.9199 Z0.0208
G01 X33.3262 Y266.8740 Z0.0167
G01 X33.3347 Y266.8277 Z0.0125
G01 X33.3409 Y266.7810 Z0.0083
G01 X33.3446 Y266.7340 Z0.0042
G01 X33.3458 Y266.6869 Z0.0000
G01 X33.3446 Y266.6398
G01 X33.3409 Y266.5928
G01 X33.3347 Y266.5461
G01 X33.3262 Y266.4998
G01 X33.3152 Y266.4540
G01 X33.3018 Y266.4088
G01 X33.2861 Y266.3644
G01 X33.2680 Y266.3209
G01 X33.2477 Y266.2783
G01 X33.2253 Y266.2369
G01 X33.2006 Y266.1967
G01 X33.1739 Y266.1579
G01 X33.1453 Y266.1205
G01 X33.1147 Y266.0847
G01 X33.0822 Y266.0505
G01 X33.0480 Y266.0181
G01 X33.0122 Y265.9875
G01 X32.9748 Y265.9588
G01 X32.9360 Y265.9321
G01 X32.8958 Y265.9075
G01 X32.8544 Y265.8850
G01 X32.8119 Y265.8647
G01 X32.7684 Y265.8467
G01 X32.7239 Y265.8310
G01 X32.6788 Y265.8176
G01 X32.6329 Y265.8066
G01 X32.5866 Y265.7980
G01 X32.5399 Y265.7918
G01 X32.4929 Y265.7882
G01 X32.4458 Y265.7869
G01 X32.3987 Y265.7882
G01 X32.3518 Y265.7918
G01 X32.3050 Y265.7980
G01 X32.2587 Y265.8066
G01 X32.2129 Y265.8176
G01 X32.1677 Y265.8310
G01 X32.1233 Y265.8467
G01 X32.0798 Y265.8647
G01 X32.0372 Y265.8850
G01 X31.9958 Y265.9075
G01 X31.9557 Y265.9321
G01 X31.9168 Y265.9588
G01 X31.8794 Y265.9875
G01 X31.8436 Y266.0181
G01 X31.8094 Y266.0505
G01 X31.7770 Y266.0847
G01 X31.7464 Y266.1205
G01 X31.7177 Y266.1579
G01 X31.6910 Y266.1967
G01 X31.6664 Y266.2369
G01 X31.6439 Y266.2783
G01 X31.6236 Y266.3209
G01 X31.6056 Y266.3644
G01 X31.5899 Y266.4088
G01 X31.5765 Y266.4540
G01 X31.5655 Y266.4998
G01 X31.5569 Y266.5461
G01 X31.5508 Y266.5928
G01 X31.5471 Y266.6398
G01 X31.5458 Y266.6869
G01 X31.5471 Y266.7340
G01 X31.5508 Y266.7810
G01 X31.5569 Y266.8277
G01 X31.5655 Y266.8740
G01 X31.5765 Y266.9199
G01 X31.5899 Y266.9650
G01 X31.6056 Y267.0094
G01 X31.6236 Y267.0530
G01 X31.6439 Y267.0955
G01 X31.6664 Y267.1369
G01 X31.6910 Y267.1771
G01 X31.7177 Y267.2159
G01 X31.7464 Y267.2533
G01 X31.7770 Y267.2891
G01 X31.8094 Y267.3233
G01 X31.8436 Y267.3557
G01 X31.8794 Y267.3863
G01 X31.9168 Y267.4150
G01 X31.9557 Y267.4417
G01 X31.9958 Y267.4663
G01 X32.0372 Y267.4888
G01 X32.0798 Y267.5091
G01 X32.1233 Y267.5271
G01 X32.1677 Y267.5429
G01 X32.2129 Y267.5563
G01 X32.2587 Y267.5672
G01 X32.3050 Y267.5758
G01 X32.3518 Y267.5820
G01 X32.3987 Y267.5857
G01 X32.4458 Y267.5869
G01 X32.4929 Y267.5857
G01 X32.5399 Y267.5820
G01 X32.5866 Y267.5758
G01 X32.6329 Y267.5672
G01 X32.6788 Y267.5563
G01 X32.7239 Y267.5429
G01 X32.7684 Y267.5271
G01 X32.8119 Y267.5091
G01 X32.8544 Y267.4888
G01 X32.8958 Y267.4663
G01 X32.9360 Y267.4417
G01 X32.9748 Y267.4150
G01 X33.0122 Y267.3863
G01 X33.0480 Y267.3557
G01 X33.0822 Y267.3233
G01 X33.1147 Y267.2891
G01 X33.1453 Y267.2533
G01 X33.1739 Y267.2159
G01 X33.2006 Y267.1771
G01 X33.2253 Y267.1369
G01 X33.2477 Y267.0955
G01 X33.2680 Y267.0530
G01 X33.2861 Y267.0094
G01 X33.3018 Y266.9650
G01 X33.3152 Y266.9199
G01 X33.3262 Y266.8740
G01 X33.3347 Y266.8277
G01 X33.3409 Y266.7810
G01 X33.3446 Y266.7340
G01 X33.3458 Y266.6869
M107
M106 S240
G01 X33.3446 Y266.6398 Z-0.0183
G01 X33.3409 Y266.5928 Z-0.0367
G01 X33.3347 Y266.5461 Z-0.0550
G01 X33.3262 Y266.4998 Z-0.0733
G01 X33.3152 Y266.4540 Z-0.0917
G01 X33.3018 Y266.4088 Z-0.1100
G01 X33.2861 Y266.3644 Z-0.1283
G01 X33.2680 Y266.3209 Z-0.1467
G01 X33.2477 Y266.2783 Z-0.1650
G01 X33.2253 Y266.2369 Z-0.1833
G01 X33.2006 Y266.1967 Z-0.2017
G01 X33.1739 Y266.1579 Z-0.2200
G01 X33.1453 Y266.1205 Z-0.2383
G01 X33.1147 Y266.0847 Z-0.2567
G01 X33.0822 Y266.0505 Z-0.2750
G01 X33.0480 Y266.0181 Z-0.2933
G01 X33.0122 Y265.9875 Z-0.3117
G01 X32.9748 Y265.9588 Z-0.3300
G01 X32.9360 Y265.9321 Z-0.3483
G01 X32.8958 Y265.9075 Z-0.3667
G01 X32.8544 Y265.8850 Z-0.3850
G01 X32.8119 Y265.8647 Z-0.4033
G01 X32.7684 Y265.8467 Z-0.4217
G01 X32.7239 Y265.8310 Z-0.4400
G01 X32.6788 Y265.8176 Z-0.4583
G01 X32.6329 Y265.8066 Z-0.4767
G01 X32.5866 Y265.7980 Z-0.4950
G01 X32.5399 Y265.7918 Z-0.5133
G01 X32.4929 Y265.7882 Z-0.5317
G01 X32.4458 Y265.7869 Z-0.5500
G01 X32.3987 Y265.7882 Z-0.5683
G01 X32.3518 Y265.7918 Z-0.5867
G01 X32.3050 Y265.7980 Z-0.6050
G01 X32.2587 Y265.8066 Z-0.6233
G01 X32.2129 Y265.8176 Z-0.6417
G01 X32.1677 Y265.8310 Z-0.6600
G01 X32.1233 Y265.8467 Z-0.6783
G01 X32.0798 Y265.8647 Z-0.6967
G01 X32.0372 Y265.8850 Z-0.7150
G01 X31.9958 Y265.9075 Z-0.7333
G01 X31.9557 Y265.9321 Z-0.7517
G01 X31.9168 Y265.9588 Z-0.7700
G01 X31.8794 Y265.9875 Z-0.7883
G01 X31.8436 Y266.0181 Z-0.8067
G01 X31.8094 Y266.0505 Z-0.8250
G01 X31.7770 Y266.0847 Z-0.8433
G01 X31.7464 Y266.1205 Z-0.8617
G01 X31.7177 Y266.1579 Z-0.8800
G01 X31.6910 Y266.1967 Z-0.8983
G01 X31.6664 Y266.2369 Z-0.9167
G01 X31.6439 Y266.2783 Z-0.9350
G01 X31.6236 Y266.3209 Z-0.9533
G01 X31.6056 Y266.3644 Z-0.9717
G01 X31.5899 Y266.4088 Z-0.9900
G01 X31.5765 Y266.4540 Z-1.0083
G01 X31.5655 Y266.4998 Z-1.0267
G01 X31.5569 Y266.5461 Z-1.0450
G01 X31.5508 Y266.5928 Z-1.0633
G01 X31.5471 Y266.6398 Z-1.0817
G01 X31.5458 Y266.6869 Z-1.1000
G01 X31.5471 Y266.7340 Z-1.1183
G01 X31.5508 Y266.7810 Z-1.1367
G01 X31.5569 Y266.8277 Z-1.1550
G01 X31.5655 Y266.8740 Z-1.1733
G01 X31.5765 Y266.9199 Z-1.1917
G01 X31.5899 Y266.9650 Z-1.2100
G01 X31.6056 Y267.0094 Z-1.2283
G01 X31.6236 Y267.0530 Z-1.2467
G01 X31.6439 Y267.0955 Z-1.2650
G01 X31.6664 Y267.1369 Z-1.2833
G01 X31.6910 Y267.1771 Z-1.3017
G01 X31.7177 Y267.2159 Z-1.3200
G01 X31.7464 Y267.2533 Z-1.3383
G01 X31.7770 Y267.2891 Z-1.3567
G01 X31.8094 Y267.3233 Z-1.3750
G01 X31.8436 Y267.3557 Z-1.3933
G01 X31.8794 Y267.3863 Z-1.4117
G01 X31.9168 Y267.4150 Z-1.4300
G01 X31.9557 Y267.4417 Z-1.4483
G01 X31.9958 Y267.4663 Z-1.4667
G01 X32.0372 Y267.4888 Z-1.4850
G01 X32.0798 Y267.5091 Z-1.5033
G01 X32.1233 Y267.5271 Z-1.5217
G01 X32.1677 Y267.5429 Z-1.5400
G01 X32.2129 Y267.5563 Z-1.5583
G01 X32.2587 Y267.5672 Z-1.5767
G01 X32.3050 Y267.5758 Z-1.5950
G01 X32.3518 Y267.5820 Z-1.6133
G01 X32.3987 Y267.5857 Z-1.6317
G01 X32.4458 Y267.5869 Z-1.6500
G01 X32.4929 Y267.5857 Z-1.6683
G01 X32.5399 Y267.5820 Z-1.6867
G01 X32.5866 Y267.5758 Z-1.7050
G01 X32.6329 Y267.5672 Z-1.7233
G01 X32.6788 Y267.5563 Z-1.7417
G01 X32.7239 Y267.5429 Z-1.7600
G01 X32.7684 Y267.5271 Z-1.7783
G01 X32.8119 Y267.5091 Z-1.7967
G01 X32.8544 Y267.4888 Z-1.8150
G01 X32.8958 Y267.4663 Z-1.8333
G01 X32.9360 Y267.4417 Z-1.8517
G01 X32.9748 Y267.4150 Z-1.8700
G01 X33.0122 Y267.3863 Z-1.8883
G01 X33.0480 Y267.3557 Z-1.9067
G01 X33.0822 Y267.3233 Z-1.9250
G01 X33.1147 Y267.2891 Z-1.9433
G01 X33.1453 Y267.2533 Z-1.9617
G01 X33.1739 Y267.2159 Z-1.9800
G01 X33.2006 Y267.1771 Z-1.9983
G01 X33.2253 Y267.1369 Z-2.0167
G01 X33.2477 Y267.0955 Z-2.0350
G01 X33.2680 Y267.0530 Z-2.0533
G01 X33.2861 Y267.0094 Z-2.0717
G01 X33.3018 Y266.9650 Z-2.0900
G01 X33.3152 Y266.9199 Z-2.1083
G01 X33.3262 Y266.8740 Z-2.1267
G01 X33.3347 Y266.8277 Z-2.1450
G01 X33.3409 Y266.7810 Z-2.1633
G01 X33.3446 Y266.7340 Z-2.1817
G01 X33.3458 Y266.6869 Z-2.2000
G01 X33.3446 Y266.6398
G01 X33.3409 Y266.5928
G01 X33.3347 Y266.5461
G01 X33.3262 Y266.4998
G01 X33.3152 Y266.4540
G01 X33.3018 Y266.4088
G01 X33.2861 Y266.3644
G01 X33.2680 Y266.3209
G01 X33.2477 Y266.2783
G01 X33.2253 Y266.2369
G01 X33.2006 Y266.1967
G01 X33.1739 Y266.1579
G01 X33.1453 Y266.1205
G01 X33.1147 Y266.0847
G01 X33.0822 Y266.0505
G01 X33.0480 Y266.0181
G01 X33.0122 Y265.9875
G01 X32.9748 Y265.9588
G01 X32.9360 Y265.9321
G01 X32.8958 Y265.9075
G01 X32.8544 Y265.8850
G01 X32.8119 Y265.8647
G01 X32.7684 Y265.8467
G01 X32.7239 Y265.8310
G01 X32.6788 Y265.8176
G01 X32.6329 Y265.8066
G01 X32.5866 Y265.7980
G01 X32.5399 Y265.7918
G01 X32.4929 Y265.7882
G01 X32.4458 Y265.7869
G01 X32.3987 Y265.7882
G01 X32.3518 Y265.7918
G01 X32.3050 Y265.7980
G01 X32.2587 Y265.8066
G01 X32.2129 Y265.8176
G01 X32.1677 Y265.8310
G01 X32.1233 Y265.8467
G01 X32.0798 Y265.8647
G01 X32.0372 Y265.8850
G01 X31.9958 Y265.9075
G01 X31.9557 Y265.9321
G01 X31.9168 Y265.9588
G01 X31.8794 Y265.9875
G01 X31.8436 Y266.0181
G01 X31.8094 Y266.0505
G01 X31.7770 Y266.0847
G01 X31.7464 Y266.1205
G01 X31.7177 Y266.1579
G01 X31.6910 Y266.1967
G01 X31.6664 Y266.2369
G01 X31.6439 Y266.2783
G01 X31.6236 Y266.3209
G01 X31.6056 Y266.3644
G01 X31.5899 Y266.4088
G01 X31.5765 Y266.4540
G01 X31.5655 Y266.4998
G01 X31.5569 Y266.5461
G01 X31.5508 Y266.5928
G01 X31.5471 Y266.6398
G01 X31.5458 Y266.6869
G01 X31.5471 Y266.7340
G01 X31.5508 Y266.7810
G01 X31.5569 Y266.8277
G01 X31.5655 Y266.8740
G01 X31.5765 Y266.9199
G01 X31.5899 Y266.9650
G01 X31.6056 Y267.0094
G01 X31.6236 Y267.0530
G01 X31.6439 Y267.0955
G01 X31.6664 Y267.1369
G01 X31.6910 Y267.1771
G01 X31.7177 Y267.2159
G01 X31.7464 Y267.2533
G01 X31.7770 Y267.2891
G01 X31.8094 Y267.3233
G01 X31.8436 Y267.3557
G01 X31.8794 Y267.3863
G01 X31.9168 Y267.4150
G01 X31.9557 Y267.4417
G01 X31.9958 Y267.4663
G01 X32.0372 Y267.4888
G01 X32.0798 Y267.5091
G01 X32.1233 Y267.5271
G01 X32.1677 Y267.5429
G01 X32.2129 Y267.5563
G01 X32.2587 Y267.5672
G01 X32.3050 Y267.5758
G01 X32.3518 Y267.5820
G01 X32.3987 Y267.5857
G01 X32.4458 Y267.5869
G01 X32.4929 Y267.5857
G01 X32.5399 Y267.5820
G01 X32.5866 Y267.5758
G01 X32.6329 Y267.5672
G01 X32.6788 Y267.5563
G01 X32.7239 Y267.5429
G01 X32.7684 Y267.5271
G01 X32.8119 Y267.5091
G01 X32.8544 Y267.4888
G01 X32.8958 Y267.4663
G01 X32.9360 Y267.4417
G01 X32.9748 Y267.4150
G01 X33.0122 Y267.3863
G01 X33.0480 Y267.3557
G01 X33.0822 Y267.3233
G01 X33.1147 Y267.2891
G01 X33.1453 Y267.2533
G01 X33.1739 Y267.2159
G01 X33.2006 Y267.1771
G01 X33.2253 Y267.1369
G01 X33.2477 Y267.0955
G01 X33.2680 Y267.0530
G01 X33.2861 Y267.0094
G01 X33.3018 Y266.9650
G01 X33.3152 Y266.9199
G01 X33.3262 Y266.8740
G01 X33.3347 Y266.8277
G01 X33.3409 Y266.7810
G01 X33.3446 Y266.7340
G01 X33.3458 Y266.6869
G01 X33.3553 Y266.6405 F1000
G01 X33.3623 Y266.5937
G01 X33.3669 Y266.5466
G01 X33.3691 Y266.4993
G01 X33.3688 Y266.4520
G01 X33.3662 Y266.4047
G01 X33.3611 Y266.3577
G01 X33.3535 Y266.3109
G01 X33.3428 Y266.2608
G01 X33.3296 Y266.2112
G01 X33.3138 Y266.1624
G01 X33.2955 Y266.1145
G01 X33.2749 Y266.0675
G01 X33.2518 Y266.0217
G01 X33.2265 Y265.9771
G01 X33.1989 Y265.9338
G01 X33.1668 Y265.8888
G01 X33.1325 Y265.8455
G01 X33.0961 Y265.8039
G01 X33.0576 Y265.7643
G01 X33.0171 Y265.7267
G01 X32.9748 Y265.6911
G01 X32.9307 Y265.6578
G01 X32.8850 Y265.6268
G01 X32.8343 Y265.5960
G01 X32.7822 Y265.5678
G01 X32.7287 Y265.5423
G01 X32.6740 Y265.5196
G01 X32.6182 Y265.4996
G01 X32.5615 Y265.4825
G01 X32.5040 Y265.4682
G01 X32.4458 Y265.4569
G01 X32.3832 Y265.4480
G01 X32.3202 Y265.4422
G01 X32.2571 Y265.4396
G01 X32.1938 Y265.4402
G01 X32.1307 Y265.4440
G01 X32.0678 Y265.4510
G01 X32.0054 Y265.4611
G01 X31.9436 Y265.4743
G01 X31.8786 Y265.4917
G01 X31.8146 Y265.5123
G01 X31.7517 Y265.5361
G01 X31.6901 Y265.5630
G01 X31.6299 Y265.5930
G01 X31.5713 Y265.6260
G01 X31.5144 Y265.6618
G01 X31.4594 Y265.7005
G01 X31.4033 Y265.7444
G01 X31.3494 Y265.7910
G01 X31.2979 Y265.8402
G01 X31.2489 Y265.8920
G01 X31.2026 Y265.9461
G01 X31.1591 Y266.0025
G01 X31.1185 Y266.0610
G01 X31.0808 Y266.1215
G01 X31.0519 Y266.1887
G01 X31.0263 Y266.2572
G01 X31.0042 Y266.3269
G01 X30.9854 Y266.3976
G01 X30.9702 Y266.4691
G01 X30.9585 Y266.5413
G01 X30.9504 Y266.6139
G01 X30.9459 Y266.6869
G01 X30.9477 Y266.7605
G01 X30.9531 Y266.8339
G01 X30.9621 Y266.9070
G01 X30.9747 Y266.9795
G01 X30.9908 Y267.0514
G01 X31.0104 Y267.1223
G01 X31.0335 Y267.1922
G01 X31.0600 Y267.2609
G01 X31.0899 Y267.3282
G01 X31.1230 Y267.3940
G01 X31.1593 Y267.4581
G01 X31.1986 Y267.5203
G01 X31.2410 Y267.5805
G01 X31.2863 Y267.6385
G01 X31.3344 Y267.6942
G01 X31.3852 Y267.7476
G01 X31.4385 Y267.7983
G01 X31.4943 Y267.8464
G01 X31.5523 Y267.8917
G01 X31.6125 Y267.9341
G01 X31.6747 Y267.9735
G01 X31.7387 Y268.0098
G01 X31.8045 Y268.0429
G01 X31.8718 Y268.0727
G01 X31.9405 Y268.0992
G01 X32.0104 Y268.1223
G01 X32.0814 Y268.1419
G01 X32.1532 Y268.1581
G01 X32.2257 Y268.1707
G01 X32.2988 Y268.1797
G01 X32.3722 Y268.1851
G01 X32.4458 Y268.1869
G01 X32.5194 Y268.1851
G01 X32.5929 Y268.1797
G01 X32.6659 Y268.1707
G01 X32.7385 Y268.1581
G01 X32.8103 Y268.1419
G01 X32.8812 Y268.1223
G01 X32.9512 Y268.0992
G01 X33.0198 Y268.0727
G01 X33.0871 Y268.0429
G01 X33.1529 Y268.0098
G01 X33.2170 Y267.9735
G01 X33.2792 Y267.9341
G01 X33.3394 Y267.8917
G01 X33.3974 Y267.8464
G01 X33.4531 Y267.7983
G01 X33.5065 Y267.7476
G01 X33.5572 Y267.6942
G01 X33.6053 Y267.6385
G01 X33.6506 Y267.5805
G01 X33.6930 Y267.5203
G01 X33.7324 Y267.4581
G01 X33.7687 Y267.3940
G01 X33.8018 Y267.3282
G01 X33.8316 Y267.2609
G01 X33.8581 Y267.1922
G01 X33.8812 Y267.1223
G01 X33.9009 Y267.0514
G01 X33.9170 Y266.9795
G01 X33.9296 Y266.9070
G01 X33.9386 Y266.8339
G01 X33.9440 Y266.7605
G01 X33.9458 Y266.6869
G01 X33.9416 Y266.5748
G01 X33.9290 Y266.4634
G01 X33.9082 Y266.3531
G01 X33.8792 Y266.2448
G01 X33.8421 Y266.1389
G01 X33.7973 Y266.0361
G01 X33.7448 Y265.9369
G01 X33.6852 Y265.8420
G01 X33.6186 Y265.7517
G01 X33.5454 Y265.6667
G01 X33.4661 Y265.5874
G01 X33.3810 Y265.5142
G01 X33.2908 Y265.4476
G01 X33.1958 Y265.3879
G01 X33.0966 Y265.3355
G01 X32.9938 Y265.2906
G01 X32.8880 Y265.2536
G01 X32.7796 Y265.2245
G01 X32.6694 Y265.2037
G01 X32.5579 Y265.1911
G01 X32.4458 Y265.1869
G01 X32.3337 Y265.1911
G01 X32.2223 Y265.2037
G01 X32.1121 Y265.2245
G01 X32.0037 Y265.2536
G01 X31.8978 Y265.2906
G01 X31.7950 Y265.3355
G01 X31.6958 Y265.3879
G01 X31.6009 Y265.4476
G01 X31.5106 Y265.5142
G01 X31.4256 Y265.5874
G01 X31.3463 Y265.6667
G01 X31.2731 Y265.7517
G01 X31.2065 Y265.8420
G01 X31.1468 Y265.9369
G01 X31.0944 Y266.0361
G01 X31.0495 Y266.1389
G01 X31.0125 Y266.2448
G01 X30.9835 Y266.3531
G01 X30.9626 Y266.4634
G01 X30.9500 Y266.5748
G01 X30.9459 Y266.6869
G01 X30.9500 Y266.7990
G01 X30.9626 Y266.9105
G01 X30.9835 Y267.0207
G01 X31.0125 Y267.1290
G01 X31.0495 Y267.2349
G01 X31.0944 Y267.3377
G01 X31.1468 Y267.4369
G01 X31.2065 Y267.5319
G01 X31.2731 Y267.6221
G01 X31.3463 Y267.7072
G01 X31.4256 Y267.7865
G01 X31.5106 Y267.8596
G01 X31.6009 Y267.9263
G01 X31.6958 Y267.9859
G01 X31.7950 Y268.0383
G01 X31.8978 Y268.0832
G01 X32.0037 Y268.1203
G01 X32.1121 Y268.1493
G01 X32.2223 Y268.1701
G01 X32.3337 Y268.1827
G01 X32.4458 Y268.1869
G01 X32.5579 Y268.1827
G01 X32.6694 Y268.1701
G01 X32.7796 Y268.1493
G01 X32.8880 Y268.1203
G01 X32.9938 Y268.0832
G01 X33.0966 Y268.0383
G01 X33.1958 Y267.9859
G01 X33.2908 Y267.9263
G01 X33.3810 Y267.8596
G01 X33.4661 Y267.7865
G01 X33.5454 Y267.7072
G01 X33.6186 Y267.6221
G01 X33.6852 Y267.5319
G01 X33.7448 Y267.4369
G01 X33.7973 Y267.3377
G01 X33.8421 Y267.2349
G01 X33.8792 Y267.1290
G01 X33.9082 Y267.0207
G01 X33.9290 Y266.9105
G01 X33.9416 Y266.7990
G01 X33.9458 Y266.6869
G01 X33.9412 Y266.5823
G01 X33.9276 Y266.4785
G01 X33.9049 Y266.3763
G01 X33.8734 Y266.2765
G01 X33.8334 Y266.1798
G01 X33.7850 Y266.0869
G01 X33.7288 Y265.9986
G01 X33.6651 Y265.9156
G01 X33.5943 Y265.8384
G01 X33.5172 Y265.7677
G01 X33.4341 Y265.7039
G01 X33.3458 Y265.6477
G01 X33.2530 Y265.5994
G01 X33.1562 Y265.5593
G01 X33.0564 Y265.5278
G01 X32.9542 Y265.5052
G01 X32.8504 Y265.4915
G01 X32.7458 Y265.4869
G01 X32.6412 Y265.4915
G01 X32.5374 Y265.5052
G01 X32.4352 Y265.5278
G01 X32.3354 Y265.5593
G01 X32.2387 Y265.5994
G01 X32.1458 Y265.6477
G01 X32.0575 Y265.7039
G01 X31.9745 Y265.7677
G01 X31.8973 Y265.8384
G01 X31.8266 Y265.9156
G01 X31.7628 Y265.9986
G01 X31.7066 Y266.0869
G01 X31.6583 Y266.1798
G01 X31.6182 Y266.2765
G01 X31.5867 Y266.3763
G01 X31.5641 Y266.4785
G01 X31.5504 Y266.5823
G01 X31.5458 Y266.6869
G01 X31.5471 Y266.7340
G01 X31.5508 Y266.7810
G01 X31.5569 Y266.8277
G01 X31.5655 Y266.8740
G01 X31.5765 Y266.9199
G01 X31.5899 Y266.9650
G01 X31.6056 Y267.0094
G01 X31.6236 Y267.0530
G01 X31.6439 Y267.0955
G01 X31.6664 Y267.1369
G01 X31.6910 Y267.1771
G01 X31.7177 Y267.2159
G01 X31.7464 Y267.2533
G01 X31.7770 Y267.2891
G01 X31.8094 Y267.3233
G01 X31.8436 Y267.3557
G01 X31.8794 Y267.3863
G01 X31.9168 Y267.4150
G01 X31.9557 Y267.4417
G01 X31.9958 Y267.4663
G01 X32.0372 Y267.4888
G01 X32.0798 Y267.5091
G01 X32.1233 Y267.5271
G01 X32.1677 Y267.5429
G01 X32.2129 Y267.5563
G01 X32.2587 Y267.5672
G01 X32.3050 Y267.5758
G01 X32.3518 Y267.5820
G01 X32.3987 Y267.5857
G01 X32.4458 Y267.5869
G01 X32.4929 Y267.5857
G01 X32.5399 Y267.5820
G01 X32.5866 Y267.5758
G01 X32.6329 Y267.5672
G01 X32.6788 Y267.5563
G01 X32.7239 Y267.5429
G01 X32.7684 Y267.5271
G01 X32.8119 Y267.5091
G01 X32.8544 Y267.4888
G01 X32.8958 Y267.4663
G01 X32.9360 Y267.4417
G01 X32.9748 Y267.4150
G01 X33.0122 Y267.3863
G01 X33.0480 Y267.3557
G01 X33.0822 Y267.3233
G01 X33.1147 Y267.2891
G01 X33.1453 Y267.2533
G01 X33.1739 Y267.2159
G01 X33.2006 Y267.1771
G01 X33.2253 Y267.1369
G01 X33.2477 Y267.0955
G01 X33.2680 Y267.0530
G01 X33.2861 Y267.0094
G01 X33.3018 Y266.9650
G01 X33.3152 Y266.9199
G01 X33.3262 Y266.8740
G01 X33.3347 Y266.8277
G01 X33.3409 Y266.7810
G01 X33.3446 Y266.7340
G01 X33.3458 Y266.6869
M107
M106 S240
G01 X33.3446 Y266.6398 Z-2.2183 F400
G01 X33.3409 Y266.5928 Z-2.2367
G01 X33.3347 Y266.5461 Z-2.2550
G01 X33.3262 Y266.4998 Z-2.2733
G01 X33.3152 Y266.4540 Z-2.2917
G01 X33.3018 Y266.4088 Z-2.3100
G01 X33.2861 Y266.3644 Z-2.3283
G01 X33.2680 Y266.3209 Z-2.3467
G01 X33.2477 Y266.2783 Z-2.3650
G01 X33.2253 Y266.2369 Z-2.3833
G01 X33.2006 Y266.1967 Z-2.4017
G01 X33.1739 Y266.1579 Z-2.4200
G01 X33.1453 Y266.1205 Z-2.4383
G01 X33.1147 Y266.0847 Z-2.4567
G01 X33.0822 Y266.0505 Z-2.4750
G01 X33.0480 Y266.0181 Z-2.4933
G01 X33.0122 Y265.9875 Z-2.5117
G01 X32.9748 Y265.9588 Z-2.5300
G01 X32.9360 Y265.9321 Z-2.5483
G01 X32.8958 Y265.9075 Z-2.5667
G01 X32.8544 Y265.8850 Z-2.5850
G01 X32.8119 Y265.8647 Z-2.6033
G01 X32.7684 Y265.8467 Z-2.6217
G01 X32.7239 Y265.8310 Z-2.6400
G01 X32.6788 Y265.8176 Z-2.6583
G01 X32.6329 Y265.8066 Z-2.6767
G01 X32.5866 Y265.7980 Z-2.6950
G01 X32.5399 Y265.7918 Z-2.7133
G01 X32.4929 Y265.7882 Z-2.7317
G01 X32.4458 Y265.7869 Z-2.7500
G01 X32.3987 Y265.7882 Z-2.7683
G01 X32.3518 Y265.7918 Z-2.7867
G01 X32.3050 Y265.7980 Z-2.8050
G01 X32.2587 Y265.8066 Z-2.8233
G01 X32.2129 Y265.8176 Z-2.8417
G01 X32.1677 Y265.8310 Z-2.8600
G01 X32.1233 Y265.8467 Z-2.8783
G01 X32.0798 Y265.8647 Z-2.8967
G01 X32.0372 Y265.8850 Z-2.9150
G01 X31.9958 Y265.9075 Z-2.9333
G01 X31.9557 Y265.9321 Z-2.9517
G01 X31.9168 Y265.9588 Z-2.9700
G01 X31.8794 Y265.9875 Z-2.9883
G01 X31.8436 Y266.0181 Z-3.0067
G01 X31.8094 Y266.0505 Z-3.0250
G01 X31.7770 Y266.0847 Z-3.0433
G01 X31.7464 Y266.1205 Z-3.0617
G01 X31.7177 Y266.1579 Z-3.0800
G01 X31.6910 Y266.1967 Z-3.0983
G01 X31.6664 Y266.2369 Z-3.1167
G01 X31.6439 Y266.2783 Z-3.1350
G01 X31.6236 Y266.3209 Z-3.1533
G01 X31.6056 Y266.3644 Z-3.1717
G01 X31.5899 Y266.4088 Z-3.1900
G01 X31.5765 Y266.4540 Z-3.2083
G01 X31.5655 Y266.4998 Z-3.2267
G01 X31.5569 Y266.5461 Z-3.2450
G01 X31.5508 Y266.5928 Z-3.2633
G01 X31.5471 Y266.6398 Z-3.2817
G01 X31.5458 Y266.6869 Z-3.3000
G01 X31.5471 Y266.7340 Z-3.3183
G01 X31.5508 Y266.7810 Z-3.3367
G01 X31.5569 Y266.8277 Z-3.3550
G01 X31.5655 Y266.8740 Z-3.3733
G01 X31.5765 Y266.9199 Z-3.3917
G01 X31.5899 Y266.9650 Z-3.4100
G01 X31.6056 Y267.0094 Z-3.4283
G01 X31.6236 Y267.0530 Z-3.4467
G01 X31.6439 Y267.0955 Z-3.4650
G01 X31.6664 Y267.1369 Z-3.4833
G01 X31.6910 Y267.1771 Z-3.5017
G01 X31.7177 Y267.2159 Z-3.5200
G01 X31.7464 Y267.2533 Z-3.5383
G01 X31.7770 Y267.2891 Z-3.5567
G01 X31.8094 Y267.3233 Z-3.5750
G01 X31.8436 Y267.3557 Z-3.5933
G01 X31.8794 Y267.3863 Z-3.6117
G01 X31.9168 Y267.4150 Z-3.6300
G01 X31.9557 Y267.4417 Z-3.6483
G01 X31.9958 Y267.4663 Z-3.6667
G01 X32.0372 Y267.4888 Z-3.6850
G01 X32.0798 Y267.5091 Z-3.7033
G01 X32.1233 Y267.5271 Z-3.7217
G01 X32.1677 Y267.5429 Z-3.7400
G01 X32.2129 Y267.5563 Z-3.7583
G01 X32.2587 Y267.5672 Z-3.7767
G01 X32.3050 Y267.5758 Z-3.7950
G01 X32.3518 Y267.5820 Z-3.8133
G01 X32.3987 Y267.5857 Z-3.8317
G01 X32.4458 Y267.5869 Z-3.8500
G01 X32.4929 Y267.5857 Z-3.8683
G01 X32.5399 Y267.5820 Z-3.8867
G01 X32.5866 Y267.5758 Z-3.9050
G01 X32.6329 Y267.5672 Z-3.9233
G01 X32.6788 Y267.5563 Z-3.9417
G01 X32.7239 Y267.5429 Z-3.9600
G01 X32.7684 Y267.5271 Z-3.9783
G01 X32.8119 Y267.5091 Z-3.9967
G01 X32.8544 Y267.4888 Z-4.0150
G01 X32.8958 Y267.4663 Z-4.0333
G01 X32.9360 Y267.4417 Z-4.0517
G01 X32.9748 Y267.4150 Z-4.0700
G01 X33.0122 Y267.3863 Z-4.0883
G01 X33.0480 Y267.3557 Z-4.1067
G01 X33.0822 Y267.3233 Z-4.1250
G01 X33.1147 Y267.2891 Z-4.1433
G01 X33.1453 Y267.2533 Z-4.1617
G01 X33.1739 Y267.2159 Z-4.1800
G01 X33.2006 Y267.1771 Z-4.1983
G01 X33.2253 Y267.1369 Z-4.2167
G01 X33.2477 Y267.0955 Z-4.2350
G01 X33.2680 Y267.0530 Z-4.2533
G01 X33.2861 Y267.0094 Z-4.2717
G01 X33.3018 Y266.9650 Z-4.2900
G01 X33.3152 Y266.9199 Z-4.3083
G01 X33.3262 Y266.8740 Z-4.3267
G01 X33.3347 Y266.8277 Z-4.3450
G01 X33.3409 Y266.7810 Z-4.3633
G01 X33.3446 Y266.7340 Z-4.3817
G01 X33.3458 Y266.6869 Z-4.4000
G01 X33.3446 Y266.6398
G01 X33.3409 Y266.5928
G01 X33.3347 Y266.5461
G01 X33.3262 Y266.4998
G01 X33.3152 Y266.4540
G01 X33.3018 Y266.4088
G01 X33.2861 Y266.3644
G01 X33.2680 Y266.3209
G01 X33.2477 Y266.2783
G01 X33.2253 Y266.2369
G01 X33.2006 Y266.1967
G01 X33.1739 Y266.1579
G01 X33.1453 Y266.1205
G01 X33.1147 Y266.0847
G01 X33.0822 Y266.0505
G01 X33.0480 Y266.0181
G01 X33.0122 Y265.9875
G01 X32.9748 Y265.9588
G01 X32.9360 Y265.9321
G01 X32.8958 Y265.9075
G01 X32.8544 Y265.8850
G01 X32.8119 Y265.8647
G01 X32.7684 Y265.8467
G01 X32.7239 Y265.8310
G01 X32.6788 Y265.8176
G01 X32.6329 Y265.8066
G01 X32.5866 Y265.7980
G01 X32.5399 Y265.7918
G01 X32.4929 Y265.7882
G01 X32.4458 Y265.7869
G01 X32.3987 Y265.7882
G01 X32.3518 Y265.7918
G01 X32.3050 Y265.7980
G01 X32.2587 Y265.8066
G01 X32.2129 Y265.8176
G01 X32.1677 Y265.8310
G01 X32.1233 Y265.8467
G01 X32.0798 Y265.8647
G01 X32.0372 Y265.8850
G01 X31.9958 Y265.9075
G01 X31.9557 Y265.9321
G01 X31.9168 Y265.9588
G01 X31.8794 Y265.9875
G01 X31.8436 Y266.0181
G01 X31.8094 Y266.0505
G01 X31.7770 Y266.0847
G01 X31.7464 Y266.1205
G01 X31.7177 Y266.1579
G01 X31.6910 Y266.1967
G01 X31.6664 Y266.2369
G01 X31.6439 Y266.2783
G01 X31.6236 Y266.3209
G01 X31.6056 Y266.3644
G01 X31.5899 Y266.4088
G01 X31.5765 Y266.4540
G01 X31.5655 Y266.4998
G01 X31.5569 Y266.5461
G01 X31.5508 Y266.5928
G01 X31.5471 Y266.6398
G01 X31.5458 Y266.6869
G01 X31.5471 Y266.7340
G01 X31.5508 Y266.7810
G01 X31.5569 Y266.8277
G01 X31.5655 Y266.8740
G01 X31.5765 Y266.9199
G01 X31.5899 Y266.9650
G01 X31.6056 Y267.0094
G01 X31.6236 Y267.0530
G01 X31.6439 Y267.0955
G01 X31.6664 Y267.1369
G01 X31.6910 Y267.1771
G01 X31.7177 Y267.2159
G01 X31.7464 Y267.2533
G01 X31.7770 Y267.2891
G01 X31.8094 Y267.3233
G01 X31.8436 Y267.3557
G01 X31.8794 Y267.3863
G01 X31.9168 Y267.4150
G01 X31.9557 Y267.4417
G01 X31.9958 Y267.4663
G01 X32.0372 Y267.4888
G01 X32.0798 Y267.5091
G01 X32.1233 Y267.5271
G01 X32.1677 Y267.5429
G01 X32.2129 Y267.5563
G01 X32.2587 Y267.5672
G01 X32.3050 Y267.5758
G01 X32.3518 Y267.5820
G01 X32.3987 Y267.5857
G01 X32.4458 Y267.5869
G01 X32.4929 Y267.5857
G01 X32.5399 Y267.5820
G01 X32.5866 Y267.5758
G01 X32.6329 Y267.5672
G01 X32.6788 Y267.5563
G01 X32.7239 Y267.5429
G01 X32.7684 Y267.5271
G01 X32.8119 Y267.5091
G01 X32.8544 Y267.4888
G01 X32.8958 Y267.4663
G01 X32.9360 Y267.4417
G01 X32.9748 Y267.4150
G01 X33.0122 Y267.3863
G01 X33.0480 Y267.3557
G01 X33.0822 Y267.3233
G01 X33.1147 Y267.2891
G01 X33.1453 Y267.2533
G01 X33.1739 Y267.2159
G01 X33.2006 Y267.1771
G01 X33.2253 Y267.1369
G01 X33.2477 Y267.0955
G01 X33.2680 Y267.0530
G01 X33.2861 Y267.0094
G01 X33.3018 Y266.9650
G01 X33.3152 Y266.9199
G01 X33.3262 Y266.8740
G01 X33.3347 Y266.8277
G01 X33.3409 Y266.7810
G01 X33.3446 Y266.7340
G01 X33.3458 Y266.6869
G01 X33.3553 Y266.6405 F1000
G01 X33.3623 Y266.5937
G01 X33.3669 Y266.5466
G01 X33.3691 Y266.4993
G01 X33.3688 Y266.4520
G01 X33.3662 Y266.4047
G01 X33.3611 Y266.3577
G01 X33.3535 Y266.3109
G01 X33.3428 Y266.2608
G01 X33.3296 Y266.2112
G01 X33.3138 Y266.1624
G01 X33.2955 Y266.1145
G01 X33.2749 Y266.0675
G01 X33.2518 Y266.0217
G01 X33.2265 Y265.9771
G01 X33.1989 Y265.9338
G01 X33.1668 Y265.8888
G01 X33.1325 Y265.8455
G01 X33.0961 Y265.8039
G01 X33.0576 Y265.7643
G01 X33.0171 Y265.7267
G01 X32.9748 Y265.6911
G01 X32.9307 Y265.6578
G01 X32.8850 Y265.6268
G01 X32.8343 Y265.5960
G01 X32.7822 Y265.5678
G01 X32.7287 Y265.5423
G01 X32.6740 Y265.5196
G01 X32.6182 Y265.4996
G01 X32.5615 Y265.4825
G01 X32.5040 Y265.4682
G01 X32.4458 Y265.4569
G01 X32.3832 Y265.4480
G01 X32.3202 Y265.4422
G01 X32.2571 Y265.4396
G01 X32.1938 Y265.4402
G01 X32.1307 Y265.4440
G01 X32.0678 Y265.4510
G01 X32.0054 Y265.4611
G01 X31.9436 Y265.4743
G01 X31.8786 Y265.4917
G01 X31.8146 Y265.5123
G01 X31.7517 Y265.5361
G01 X31.6901 Y265.5630
G01 X31.6299 Y265.5930
G01 X31.5713 Y265.6260
G01 X31.5144 Y265.6618
G01 X31.4594 Y265.7005
G01 X31.4033 Y265.7444
G01 X31.3494 Y265.7910
G01 X31.2979 Y265.8402
G01 X31.2489 Y265.8920
G01 X31.2026 Y265.9461
G01 X31.1591 Y266.0025
G01 X31.1185 Y266.0610
G01 X31.0808 Y266.1215
G01 X31.0519 Y266.1887
G01 X31.0263 Y266.2572
G01 X31.0042 Y266.3269
G01 X30.9854 Y266.3976
G01 X30.9702 Y266.4691
G01 X30.9585 Y266.5413
G01 X30.9504 Y266.6139
G01 X30.9459 Y266.6869
G01 X30.9477 Y266.7605
G01 X30.9531 Y266.8339
G01 X30.9621 Y266.9070
G01 X30.9747 Y266.9795
G01 X30.9908 Y267.0514
G01 X31.0104 Y267.1223
G01 X31.0335 Y267.1922
G01 X31.0600 Y267.2609
G01 X31.0899 Y267.3282
G01 X31.1230 Y267.3940
G01 X31.1593 Y267.4581
G01 X31.1986 Y267.5203
G01 X31.2410 Y267.5805
G01 X31.2863 Y267.6385
G01 X31.3344 Y267.6942
G01 X31.3852 Y267.7476
G01 X31.4385 Y267.7983
G01 X31.4943 Y267.8464
G01 X31.5523 Y267.8917
G01 X31.6125 Y267.9341
G01 X31.6747 Y267.9735
G01 X31.7387 Y268.0098
G01 X31.8045 Y268.0429
G01 X31.8718 Y268.0727
G01 X31.9405 Y268.0992
G01 X32.0104 Y268.1223
G01 X32.0814 Y268.1419
G01 X32.1532 Y268.1581
G01 X32.2257 Y268.1707
G01 X32.2988 Y268.1797
G01 X32.3722 Y268.1851
G01 X32.4458 Y268.1869
G01 X32.5194 Y268.1851
G01 X32.5929 Y268.1797
G01 X32.6659 Y268.1707
G01 X32.7385 Y268.1581
G01 X32.8103 Y268.1419
G01 X32.8812 Y268.1223
G01 X32.9512 Y268.0992
G01 X33.0198 Y268.0727
G01 X33.0871 Y268.0429
G01 X33.1529 Y268.0098
G01 X33.2170 Y267.9735
G01 X33.2792 Y267.9341
G01 X33.3394 Y267.8917
G01 X33.3974 Y267.8464
G01 X33.4531 Y267.7983
G01 X33.5065 Y267.7476
G01 X33.5572 Y267.6942
G01 X33.6053 Y267.6385
G01 X33.6506 Y267.5805
G01 X33.6930 Y267.5203
G01 X33.7324 Y267.4581
G01 X33.7687 Y267.3940
G01 X33.8018 Y267.3282
G01 X33.8316 Y267.2609
G01 X33.8581 Y267.1922
G01 X33.8812 Y267.1223
G01 X33.9009 Y267.0514
G01 X33.9170 Y266.9795
G01 X33.9296 Y266.9070
G01 X33.9386 Y266.8339
G01 X33.9440 Y266.7605
G01 X33.9458 Y266.6869
G01 X33.9416 Y266.5748
G01 X33.9290 Y266.4634
G01 X33.9082 Y266.3531
G01 X33.8792 Y266.2448
G01 X33.8421 Y266.1389
G01 X33.7973 Y266.0361
G01 X33.7448 Y265.9369
G01 X33.6852 Y265.8420
G01 X33.6186 Y265.7517
G01 X33.5454 Y265.6667
G01 X33.4661 Y265.5874
G01 X33.3810 Y265.5142
G01 X33.2908 Y265.4476
G01 X33.1958 Y265.3879
G01 X33.0966 Y265.3355
G01 X32.9938 Y265.2906
G01 X32.8880 Y265.2536
G01 X32.7796 Y265.2245
G01 X32.6694 Y265.2037
G01 X32.5579 Y265.1911
G01 X32.4458 Y265.1869
G01 X32.3337 Y265.1911
G01 X32.2223 Y265.2037
G01 X32.1121 Y265.2245
G01 X32.0037 Y265.2536
G01 X31.8978 Y265.2906
G01 X31.7950 Y265.3355
G01 X31.6958 Y265.3879
G01 X31.6009 Y265.4476
G01 X31.5106 Y265.5142
G01 X31.4256 Y265.5874
G01 X31.3463 Y265.6667
G01 X31.2731 Y265.7517
G01 X31.2065 Y265.8420
G01 X31.1468 Y265.9369
G01 X31.0944 Y266.0361
G01 X31.0495 Y266.1389
G01 X31.0125 Y266.2448
G01 X30.9835 Y266.3531
G01 X30.9626 Y266.4634
G01 X30.9500 Y266.5748
G01 X30.9459 Y266.6869
G01 X30.9500 Y266.7990
G01 X30.9626 Y266.9105
G01 X30.9835 Y267.0207
G01 X31.0125 Y267.1290
G01 X31.0495 Y267.2349
G01 X31.0944 Y267.3377
G01 X31.1468 Y267.4369
G01 X31.2065 Y267.5319
G01 X31.2731 Y267.6221
G01 X31.3463 Y267.7072
G01 X31.4256 Y267.7865
G01 X31.5106 Y267.8596
G01 X31.6009 Y267.9263
G01 X31.6958 Y267.9859
G01 X31.7950 Y268.0383
G01 X31.8978 Y268.0832
G01 X32.0037 Y268.1203
G01 X32.1121 Y268.1493
G01 X32.2223 Y268.1701
G01 X32.3337 Y268.1827
G01 X32.4458 Y268.1869
G01 X32.5579 Y268.1827
G01 X32.6694 Y268.1701
G01 X32.7796 Y268.1493
G01 X32.8880 Y268.1203
G01 X32.9938 Y268.0832
G01 X33.0966 Y268.0383
G01 X33.1958 Y267.9859
G01 X33.2908 Y267.9263
G01 X33.3810 Y267.8596
G01 X33.4661 Y267.7865
G01 X33.5454 Y267.7072
G01 X33.6186 Y267.6221
G01 X33.6852 Y267.5319
G01 X33.7448 Y267.4369
G01 X33.7973 Y267.3377
G01 X33.8421 Y267.2349
G01 X33.8792 Y267.1290
G01 X33.9082 Y267.0207
G01 X33.9290 Y266.9105
G01 X33.9416 Y266.7990
G01 X33.9458 Y266.6869
G01 X33.9412 Y266.5823
G01 X33.9276 Y266.4785
G01 X33.9049 Y266.3763
G01 X33.8734 Y266.2765
G01 X33.8334 Y266.1798
G01 X33.7850 Y266.0869
G01 X33.7288 Y265.9986
G01 X33.6651 Y265.9156
G01 X33.5943 Y265.8384
G01 X33.5172 Y265.7677
G01 X33.4341 Y265.7039
G01 X33.3458 Y265.6477
G01 X33.2530 Y265.5994
G01 X33.1562 Y265.5593
G01 X33.0564 Y265.5278
G01 X32.9542 Y265.5052
G01 X32.8504 Y265.4915
G01 X32.7458 Y265.4869
G01 X32.6412 Y265.4915
G01 X32.5374 Y265.5052
G01 X32.4352 Y265.5278
G01 X32.3354 Y265.5593
G01 X32.2387 Y265.5994
G01 X32.1458 Y265.6477
G01 X32.0575 Y265.7039
G01 X31.9745 Y265.7677
G01 X31.8973 Y265.8384
G01 X31.8266 Y265.9156
G01 X31.7628 Y265.9986
G01 X31.7066 Y266.0869
G01 X31.6583 Y266.1798
G01 X31.6182 Y266.2765
G01 X31.5867 Y266.3763
G01 X31.5641 Y266.4785
G01 X31.5504 Y266.5823
G01 X31.5458 Y266.6869
G01 X31.5471 Y266.7340
G01 X31.5508 Y266.7810
G01 X31.5569 Y266.8277
G01 X31.5655 Y266.8740
G01 X31.5765 Y266.9199
G01 X31.5899 Y266.9650
G01 X31.6056 Y267.0094
G01 X31.6236 Y267.0530
G01 X31.6439 Y267.0955
G01 X31.6664 Y267.1369
G01 X31.6910 Y267.1771
G01 X31.7177 Y267.2159
G01 X31.7464 Y267.2533
G01 X31.7770 Y267.2891
G01 X31.8094 Y267.3233
G01 X31.8436 Y267.3557
G01 X31.8794 Y267.3863
G01 X31.9168 Y267.4150
G01 X31.9557 Y267.4417
G01 X31.9958 Y267.4663
G01 X32.0372 Y267.4888
G01 X32.0798 Y267.5091
G01 X32.1233 Y267.5271
G01 X32.1677 Y267.5429
G01 X32.2129 Y267.5563
G01 X32.2587 Y267.5672
G01 X32.3050 Y267.5758
G01 X32.3518 Y267.5820
G01 X32.3987 Y267.5857
G01 X32.4458 Y267.5869
G01 X32.4929 Y267.5857
G01 X32.5399 Y267.5820
G01 X32.5866 Y267.5758
G01 X32.6329 Y267.5672
G01 X32.6788 Y267.5563
G01 X32.7239 Y267.5429
G01 X32.7684 Y267.5271
G01 X32.8119 Y267.5091
G01 X32.8544 Y267.4888
G01 X32.8958 Y267.4663
G01 X32.9360 Y267.4417
G01 X32.9748 Y267.4150
G01 X33.0122 Y267.3863
G01 X33.0480 Y267.3557
G01 X33.0822 Y267.3233
G01 X33.1147 Y267.2891
G01 X33.1453 Y267.2533
G01 X33.1739 Y267.2159
G01 X33.2006 Y267.1771
G01 X33.2253 Y267.1369
G01 X33.2477 Y267.0955
G01 X33.2680 Y267.0530
G01 X33.2861 Y267.0094
G01 X33.3018 Y266.9650
G01 X33.3152 Y266.9199
G01 X33.3262 Y266.8740
G01 X33.3347 Y266.8277
G01 X33.3409 Y266.7810
G01 X33.3446 Y266.7340
G01 X33.3458 Y266.6869
M107
M106 S240
G01 X33.3446 Y266.6398 Z-4.4133 F400
G01 X33.3409 Y266.5928 Z-4.4267
G01 X33.3347 Y266.5461 Z-4.4400
G01 X33.3262 Y266.4998 Z-4.4533
G01 X33.3152 Y266.4540 Z-4.4667
G01 X33.3018 Y266.4088 Z-4.4800
G01 X33.2861 Y266.3644 Z-4.4933
G01 X33.2680 Y266.3209 Z-4.5067
G01 X33.2477 Y266.2783 Z-4.5200
G01 X33.2253 Y266.2369 Z-4.5333
G01 X33.2006 Y266.1967 Z-4.5467
G01 X33.1739 Y266.1579 Z-4.5600
G01 X33.1453 Y266.1205 Z-4.5733
G01 X33.1147 Y266.0847 Z-4.5867
G01 X33.0822 Y266.0505 Z-4.6000
G01 X33.0480 Y266.0181 Z-4.6133
G01 X33.0122 Y265.9875 Z-4.6267
G01 X32.9748 Y265.9588 Z-4.6400
G01 X32.9360 Y265.9321 Z-4.6533
G01 X32.8958 Y265.9075 Z-4.6667
G01 X32.8544 Y265.8850 Z-4.6800
G01 X32.8119 Y265.8647 Z-4.6933
G01 X32.7684 Y265.8467 Z-4.7067
G01 X32.7239 Y265.8310 Z-4.7200
G01 X32.6788 Y265.8176 Z-4.7333
G01 X32.6329 Y265.8066 Z-4.7467
G01 X32.5866 Y265.7980 Z-4.7600
G01 X32.5399 Y265.7918 Z-4.7733
G01 X32.4929 Y265.7882 Z-4.7867
G01 X32.4458 Y265.7869 Z-4.8000
G01 X32.3987 Y265.7882 Z-4.8133
G01 X32.3518 Y265.7918 Z-4.8267
G01 X32.3050 Y265.7980 Z-4.8400
G01 X32.2587 Y265.8066 Z-4.8533
G01 X32.2129 Y265.8176 Z-4.8667
G01 X32.1677 Y265.8310 Z-4.8800
G01 X32.1233 Y265.8467 Z-4.8933
G01 X32.0798 Y265.8647 Z-4.9067
G01 X32.0372 Y265.8850 Z-4.9200
G01 X31.9958 Y265.9075 Z-4.9333
G01 X31.9557 Y265.9321 Z-4.9467
G01 X31.9168 Y265.9588 Z-4.9600
G01 X31.8794 Y265.9875 Z-4.9733
G01 X31.8436 Y266.0181 Z-4.9867
G01 X31.8094 Y266.0505 Z-5.0000
G01 X31.7770 Y266.0847 Z-5.0133
G01 X31.7464 Y266.1205 Z-5.0267
G01 X31.7177 Y266.1579 Z-5.0400
G01 X31.6910 Y266.1967 Z-5.0533
G01 X31.6664 Y266.2369 Z-5.0667
G01 X31.6439 Y266.2783 Z-5.0800
G01 X31.6236 Y266.3209 Z-5.0933
G01 X31.6056 Y266.3644 Z-5.1067
G01 X31.5899 Y266.4088 Z-5.1200
G01 X31.5765 Y266.4540 Z-5.1333
G01 X31.5655 Y266.4998 Z-5.1467
G01 X31.5569 Y266.5461 Z-5.1600
G01 X31.5508 Y266.5928 Z-5.1733
G01 X31.5471 Y266.6398 Z-5.1867
G01 X31.5458 Y266.6869 Z-5.2000
G01 X31.5471 Y266.7340 Z-5.2133
G01 X31.5508 Y266.7810 Z-5.2267
G01 X31.5569 Y266.8277 Z-5.2400
G01 X31.5655 Y266.8740 Z-5.2533
G01 X31.5765 Y266.9199 Z-5.2667
G01 X31.5899 Y266.9650 Z-5.2800
G01 X31.6056 Y267.0094 Z-5.2933
G01 X31.6236 Y267.0530 Z-5.3067
G01 X31.6439 Y267.0955 Z-5.3200
G01 X31.6664 Y267.1369 Z-5.3333
G01 X31.6910 Y267.1771 Z-5.3467
G01 X31.7177 Y267.2159 Z-5.3600
G01 X31.7464 Y267.2533 Z-5.3733
G01 X31.7770 Y267.2891 Z-5.3867
G01 X31.8094 Y267.3233 Z-5.4000
G01 X31.8436 Y267.3557 Z-5.4133
G01 X31.8794 Y267.3863 Z-5.4267
G01 X31.9168 Y267.4150 Z-5.4400
G01 X31.9557 Y267.4417 Z-5.4533
G01 X31.9958 Y267.4663 Z-5.4667
G01 X32.0372 Y267.4888 Z-5.4800
G01 X32.0798 Y267.5091 Z-5.4933
G01 X32.1233 Y267.5271 Z-5.5067
G01 X32.1677 Y267.5429 Z-5.5200
G01 X32.2129 Y267.5563 Z-5.5333
G01 X32.2587 Y267.5672 Z-5.5467
G01 X32.3050 Y267.5758 Z-5.5600
G01 X32.3518 Y267.5820 Z-5.5733
G01 X32.3987 Y267.5857 Z-5.5867
G01 X32.4458 Y267.5869 Z-5.6000
G01 X32.4929 Y267.5857 Z-5.6133
G01 X32.5399 Y267.5820 Z-5.6267
G01 X32.5866 Y267.5758 Z-5.6400
G01 X32.6329 Y267.5672 Z-5.6533
G01 X32.6788 Y267.5563 Z-5.6667
G01 X32.7239 Y267.5429 Z-5.6800
G01 X32.7684 Y267.5271 Z-5.6933
G01 X32.8119 Y267.5091 Z-5.7067
G01 X32.8544 Y267.4888 Z-5.7200
G01 X32.8958 Y267.4663 Z-5.7333
G01 X32.9360 Y267.4417 Z-5.7467
G01 X32.9748 Y267.4150 Z-5.7600
G01 X33.0122 Y267.3863 Z-5.7733
G01 X33.0480 Y267.3557 Z-5.7867
G01 X33.0822 Y267.3233 Z-5.8000
G01 X33.1147 Y267.2891 Z-5.8133
G01 X33.1453 Y267.2533 Z-5.8267
G01 X33.1739 Y267.2159 Z-5.8400
G01 X33.2006 Y267.1771 Z-5.8533
G01 X33.2253 Y267.1369 Z-5.8667
G01 X33.2477 Y267.0955 Z-5.8800
G01 X33.2680 Y267.0530 Z-5.8933
G01 X33.2861 Y267.0094 Z-5.9067
G01 X33.3018 Y266.9650 Z-5.9200
G01 X33.3152 Y266.9199 Z-5.9333
G01 X33.3262 Y266.8740 Z-5.9467
G01 X33.3347 Y266.8277 Z-5.9600
G01 X33.3409 Y266.7810 Z-5.9733
G01 X33.3446 Y266.7340 Z-5.9867
G01 X33.3458 Y266.6869 Z-6.0000
G01 X33.3446 Y266.6398
G01 X33.3409 Y266.5928
G01 X33.3347 Y266.5461
G01 X33.3262 Y266.4998
G01 X33.3152 Y266.4540
G01 X33.3018 Y266.4088
G01 X33.2861 Y266.3644
G01 X33.2680 Y266.3209
G01 X33.2477 Y266.2783
G01 X33.2253 Y266.2369
G01 X33.2006 Y266.1967
G01 X33.1739 Y266.1579
G01 X33.1453 Y266.1205
G01 X33.1147 Y266.0847
G01 X33.0822 Y266.0505
G01 X33.0480 Y266.0181
G01 X33.0122 Y265.9875
G01 X32.9748 Y265.9588
G01 X32.9360 Y265.9321
G01 X32.8958 Y265.9075
G01 X32.8544 Y265.8850
G01 X32.8119 Y265.8647
G01 X32.7684 Y265.8467
G01 X32.7239 Y265.8310
G01 X32.6788 Y265.8176
G01 X32.6329 Y265.8066
G01 X32.5866 Y265.7980
G01 X32.5399 Y265.7918
G01 X32.4929 Y265.7882
G01 X32.4458 Y265.7869
G01 X32.3987 Y265.7882
G01 X32.3518 Y265.7918
G01 X32.3050 Y265.7980
G01 X32.2587 Y265.8066
G01 X32.2129 Y265.8176
G01 X32.1677 Y265.8310
G01 X32.1233 Y265.8467
G01 X32.0798 Y265.8647
G01 X32.0372 Y265.8850
G01 X31.9958 Y265.9075
G01 X31.9557 Y265.9321
G01 X31.9168 Y265.9588
G01 X31.8794 Y265.9875
G01 X31.8436 Y266.0181
G01 X31.8094 Y266.0505
G01 X31.7770 Y266.0847
G01 X31.7464 Y266.1205
G01 X31.7177 Y266.1579
G01 X31.6910 Y266.1967
G01 X31.6664 Y266.2369
G01 X31.6439 Y266.2783
G01 X31.6236 Y266.3209
G01 X31.6056 Y266.3644
G01 X31.5899 Y266.4088
G01 X31.5765 Y266.4540
G01 X31.5655 Y266.4998
G01 X31.5569 Y266.5461
G01 X31.5508 Y266.5928
G01 X31.5471 Y266.6398
G01 X31.5458 Y266.6869
G01 X31.5471 Y266.7340
G01 X31.5508 Y266.7810
G01 X31.5569 Y266.8277
G01 X31.5655 Y266.8740
G01 X31.5765 Y266.9199
G01 X31.5899 Y266.9650
G01 X31.6056 Y267.0094
G01 X31.6236 Y267.0530
G01 X31.6439 Y267.0955
G01 X31.6664 Y267.1369
G01 X31.6910 Y267.1771
G01 X31.7177 Y267.2159
G01 X31.7464 Y267.2533
G01 X31.7770 Y267.2891
G01 X31.8094 Y267.3233
G01 X31.8436 Y267.3557
G01 X31.8794 Y267.3863
G01 X31.9168 Y267.4150
G01 X31.9557 Y267.4417
G01 X31.9958 Y267.4663
G01 X32.0372 Y267.4888
G01 X32.0798 Y267.5091
G01 X32.1233 Y267.5271
G01 X32.1677 Y267.5429
G01 X32.2129 Y267.5563
G01 X32.2587 Y267.5672
G01 X32.3050 Y267.5758
G01 X32.3518 Y267.5820
G01 X32.3987 Y267.5857
G01 X32.4458 Y267.5869
G01 X32.4929 Y267.5857
G01 X32.5399 Y267.5820
G01 X32.5866 Y267.5758
G01 X32.6329 Y267.5672
G01 X32.6788 Y267.5563
G01 X32.7239 Y267.5429
G01 X32.7684 Y267.5271
G01 X32.8119 Y267.5091
G01 X32.8544 Y267.4888
G01 X32.8958 Y267.4663
G01 X32.9360 Y267.4417
G01 X32.9748 Y267.4150
G01 X33.0122 Y267.3863
G01 X33.0480 Y267.3557
G01 X33.0822 Y267.3233
G01 X33.1147 Y267.2891
G01 X33.1453 Y267.2533
G01 X33.1739 Y267.2159
G01 X33.2006 Y267.1771
G01 X33.2253 Y267.1369
G01 X33.2477 Y267.0955
G01 X33.2680 Y267.0530
G01 X33.2861 Y267.0094
G01 X33.3018 Y266.9650
G01 X33.3152 Y266.9199
G01 X33.3262 Y266.8740
G01 X33.3347 Y266.8277
G01 X33.3409 Y266.7810
G01 X33.3446 Y266.7340
G01 X33.3458 Y266.6869
G01 X33.3553 Y266.6405 F1000
G01 X33.3623 Y266.5937
G01 X33.3669 Y266.5466
G01 X33.3691 Y266.4993
G01 X33.3688 Y266.4520
G01 X33.3662 Y266.4047
G01 X33.3611 Y266.3577
G01 X33.3535 Y266.3109
G01 X33.3428 Y266.2608
G01 X33.3296 Y266.2112
G01 X33.3138 Y266.1624
G01 X33.2955 Y266.1145
G01 X33.2749 Y266.0675
G01 X33.2518 Y266.0217
G01 X33.2265 Y265.9771
G01 X33.1989 Y265.9338
G01 X33.1668 Y265.8888
G01 X33.1325 Y265.8455
G01 X33.0961 Y265.8039
G01 X33.0576 Y265.7643
G01 X33.0171 Y265.7267
G01 X32.9748 Y265.6911
G01 X32.9307 Y265.6578
G01 X32.8850 Y265.6268
G01 X32.8343 Y265.5960
G01 X32.7822 Y265.5678
G01 X32.7287 Y265.5423
G01 X32.6740 Y265.5196
G01 X32.6182 Y265.4996
G01 X32.5615 Y265.4825
G01 X32.5040 Y265.4682
G01 X32.4458 Y265.4569
G01 X32.3832 Y265.4480
G01 X32.3202 Y265.4422
G01 X32.2571 Y265.4396
G01 X32.1938 Y265.4402
G01 X32.1307 Y265.4440
G01 X32.0678 Y265.4510
G01 X32.0054 Y265.4611
G01 X31.9436 Y265.4743
G01 X31.8786 Y265.4917
G01 X31.8146 Y265.5123
G01 X31.7517 Y265.5361
G01 X31.6901 Y265.5630
G01 X31.6299 Y265.5930
G01 X31.5713 Y265.6260
G01 X31.5144 Y265.6618
G01 X31.4594 Y265.7005
G01 X31.4033 Y265.7444
G01 X31.3494 Y265.7910
G01 X31.2979 Y265.8402
G01 X31.2489 Y265.8920
G01 X31.2026 Y265.9461
G01 X31.1591 Y266.0025
G01 X31.1185 Y266.0610
G01 X31.0808 Y266.1215
G01 X31.0519 Y266.1887
G01 X31.0263 Y266.2572
G01 X31.0042 Y266.3269
G01 X30.9854 Y266.3976
G01 X30.9702 Y266.4691
G01 X30.9585 Y266.5413
G01 X30.9504 Y266.6139
G01 X30.9459 Y266.6869
G01 X30.9477 Y266.7605
G01 X30.9531 Y266.8339
G01 X30.9621 Y266.9070
G01 X30.9747 Y266.9795
G01 X30.9908 Y267.0514
G01 X31.0104 Y267.1223
G01 X31.0335 Y267.1922
G01 X31.0600 Y267.2609
G01 X31.0899 Y267.3282
G01 X31.1230 Y267.3940
G01 X31.1593 Y267.4581
G01 X31.1986 Y267.5203
G01 X31.2410 Y267.5805
G01 X31.2863 Y267.6385
G01 X31.3344 Y267.6942
G01 X31.3852 Y267.7476
G01 X31.4385 Y267.7983
G01 X31.4943 Y267.8464
G01 X31.5523 Y267.8917
G01 X31.6125 Y267.9341
G01 X31.6747 Y267.9735
G01 X31.7387 Y268.0098
G01 X31.8045 Y268.0429
G01 X31.8718 Y268.0727
G01 X31.9405 Y268.0992
G01 X32.0104 Y268.1223
G01 X32.0814 Y268.1419
G01 X32.1532 Y268.1581
G01 X32.2257 Y268.1707
G01 X32.2988 Y268.1797
G01 X32.3722 Y268.1851
G01 X32.4458 Y268.1869
G01 X32.5194 Y268.1851
G01 X32.5929 Y268.1797
G01 X32.6659 Y268.1707
G01 X32.7385 Y268.1581
G01 X32.8103 Y268.1419
G01 X32.8812 Y268.1223
G01 X32.9512 Y268.0992
G01 X33.0198 Y268.0727
G01 X33.0871 Y268.0429
G01 X33.1529 Y268.0098
G01 X33.2170 Y267.9735
G01 X33.2792 Y267.9341
G01 X33.3394 Y267.8917
G01 X33.3974 Y267.8464
G01 X33.4531 Y267.7983
G01 X33.5065 Y267.7476
G01 X33.5572 Y267.6942
G01 X33.6053 Y267.6385
G01 X33.6506 Y267.5805
G01 X33.6930 Y267.5203
G01 X33.7324 Y267.4581
G01 X33.7687 Y267.3940
G01 X33.8018 Y267.3282
G01 X33.8316 Y267.2609
G01 X33.8581 Y267.1922
G01 X33.8812 Y267.1223
G01 X33.9009 Y267.0514
G01 X33.9170 Y266.9795
G01 X33.9296 Y266.9070
G01 X33.9386 Y266.8339
G01 X33.9440 Y266.7605
G01 X33.9458 Y266.6869
G01 X33.9416 Y266.5748
G01 X33.9290 Y266.4634
G01 X33.9082 Y266.3531
G01 X33.8792 Y266.2448
G01 X33.8421 Y266.1389
G01 X33.7973 Y266.0361
G01 X33.7448 Y265.9369
G01 X33.6852 Y265.8420
G01 X33.6186 Y265.7517
G01 X33.5454 Y265.6667
G01 X33.4661 Y265.5874
G01 X33.3810 Y265.5142
G01 X33.2908 Y265.4476
G01 X33.1958 Y265.3879
G01 X33.0966 Y265.3355
G01 X32.9938 Y265.2906
G01 X32.8880 Y265.2536
G01 X32.7796 Y265.2245
G01 X32.6694 Y265.2037
G01 X32.5579 Y265.1911
G01 X32.4458 Y265.1869
G01 X32.3337 Y265.1911
G01 X32.2223 Y265.2037
G01 X32.1121 Y265.2245
G01 X32.0037 Y265.2536
G01 X31.8978 Y265.2906
G01 X31.7950 Y265.3355
G01 X31.6958 Y265.3879
G01 X31.6009 Y265.4476
G01 X31.5106 Y265.5142
G01 X31.4256 Y265.5874
G01 X31.3463 Y265.6667
G01 X31.2731 Y265.7517
G01 X31.2065 Y265.8420
G01 X31.1468 Y265.9369
G01 X31.0944 Y266.0361
G01 X31.0495 Y266.1389
G01 X31.0125 Y266.2448
G01 X30.9835 Y266.3531
G01 X30.9626 Y266.4634
G01 X30.9500 Y266.5748
G01 X30.9459 Y266.6869
G01 X30.9500 Y266.7990
G01 X30.9626 Y266.9105
G01 X30.9835 Y267.0207
G01 X31.0125 Y267.1290
G01 X31.0495 Y267.2349
G01 X31.0944 Y267.3377
G01 X31.1468 Y267.4369
G01 X31.2065 Y267.5319
G01 X31.2731 Y267.6221
G01 X31.3463 Y267.7072
G01 X31.4256 Y267.7865
G01 X31.5106 Y267.8596
G01 X31.6009 Y267.9263
G01 X31.6958 Y267.9859
G01 X31.7950 Y268.0383
G01 X31.8978 Y268.0832
G01 X32.0037 Y268.1203
G01 X32.1121 Y268.1493
G01 X32.2223 Y268.1701
G01 X32.3337 Y268.1827
G01 X32.4458 Y268.1869
G01 X32.5579 Y268.1827
G01 X32.6694 Y268.1701
G01 X32.7796 Y268.1493
G01 X32.8880 Y268.1203
G01 X32.9938 Y268.0832
G01 X33.0966 Y268.0383
G01 X33.1958 Y267.9859
G01 X33.2908 Y267.9263
G01 X33.3810 Y267.8596
G01 X33.4661 Y267.7865
G01 X33.5454 Y267.7072
G01 X33.6186 Y267.6221
G01 X33.6852 Y267.5319
G01 X33.7448 Y267.4369
G01 X33.7973 Y267.3377
G01 X33.8421 Y267.2349
G01 X33.8792 Y267.1290
G01 X33.9082 Y267.0207
G01 X33.9290 Y266.9105
G01 X33.9416 Y266.7990
G01 X33.9458 Y266.6869
M107
M106 S240
G01 X33.9410 Y266.5889 Z-5.9688 F400
M107
M106 S240
G01 X33.9266 Y266.4918 Z-5.9375
M107
M106 S240
G01 X33.9027 Y266.3966 Z-5.9063
M107
M106 S240
G01 X33.8697 Y266.3042 Z-5.8750
M107
M106 S240
G01 X33.8277 Y266.2155 Z-5.8438
M107
M106 S240
G01 X33.7773 Y266.1313 Z-5.8125
M107
M106 S240
G01 X33.7188 Y266.0525 Z-5.7813
M107
M106 S240
G01 X33.6529 Y265.9798 Z-5.7500
M107
M106 S240
G01 X33.5802 Y265.9139 Z-5.7188
M107
M106 S240
G01 X33.5014 Y265.8554 Z-5.6875
M107
M106 S240
G01 X33.4172 Y265.8050 Z-5.6563
M107
M106 S240
G01 X33.3285 Y265.7630 Z-5.6250
M107
M106 S240
G01 X33.2361 Y265.7300 Z-5.5938
M107
M106 S240
G01 X33.1409 Y265.7061 Z-5.5625
M107
M106 S240
G01 X33.0438 Y265.6917 Z-5.5313
M107
M106 S240
G01 X32.9458 Y265.6869 Z-5.5000
M107
G00 Z2.0000


;No. 2: Hole 3
G00 X109.2678 Y191.6583 Z2.0000
G00 Z0.5000
G01 Z-1.8000 F400
M106 S240
G01 X110.3013 F1000
G01 X110.5356 Y192.9783
G01 X109.0314
G01 X108.7950 Y194.2983
G01 X110.7700
G01 X111.0044 Y195.6183
G01 X108.5585
G01 X108.3221 Y196.9383
G01 X111.2391
G01 X111.4738 Y198.2583
G01 X108.0857
G01 X107.8492 Y199.5783
G01 X111.7085
G01 X111.9432 Y200.8983
G01 X107.6128
G01 X107.3764 Y202.2183
G01 X112.1779
G01 X112.4126 Y203.5383
G01 X107.1399
G01 X106.9035 Y204.8583
G01 X112.6477
G01 X112.8828 Y206.1783
G01 X106.6671
G01 X106.4306 Y207.4983
G01 X113.1179
G01 X113.3529 Y208.8183
G01 X106.1942
G01 X105.9578 Y210.1383
G01 X113.5880
G01 X113.8231 Y211.4583
G01 X105.7213
G01 X105.4849 Y212.7783
G01 X114.0582
G01 X114.2933 Y214.0983
G01 X105.2485
G01 X105.0120 Y215.4183
G01 X114.5284
G01 X114.7635 Y216.7383
G01 X104.7756
G01 X104.5391 Y218.0583
G01 X114.9986
G01 X115.2337 Y219.3783
G01 X104.3027
G01 X104.0663 Y220.6983
G01 X115.4687
G01 X115.7038 Y222.0183
G01 X103.8298
G01 X103.5934 Y223.3383
G01 X115.9393
G01 X116.1749 Y224.6583
G01 X103.3570
G01 X103.1205 Y225.9783
G01 X116.4104
G01 X116.6460 Y227.2983
G01 X102.8841
G01 X102.6477 Y228.6183
G01 X116.8815
G01 X117.1171 Y229.9383
G01 X102.4112
G01 X102.1748 Y231.2583
G01 X117.3527
G01 X117.5882 Y232.5783
G01 X101.9384
G01 X101.7019 Y233.8983
G01 X117.8238
G01 X118.0594 Y235.2183
G01 X101.4655
G01 X101.2291 Y236.5383
G01 X118.2949
G01 X118.5305 Y237.8583
G01 X100.9926
G01 X100.7562 Y239.1783
G01 X118.7660
G01 X119.0019 Y240.4983
G01 X100.5198
G01 X100.2833 Y241.8183
G01 X119.2380
G01 X119.4742 Y243.1383
G01 X100.0469
G01 X99.8105 Y244.4583
G01 X119.7103
G01 X119.9464 Y245.7783
G01 X99.5740
G01 X99.3376 Y247.0983
G01 X120.1831
G01 X120.4200 Y248.4183
G01 X99.1011
G01 X98.8647 Y249.7383
G01 X109.6391
G01 X108.1129
G01 Y251.0583
G01 X98.6283
G01 X98.3910 Y252.3783
G01 X107.0005
G01 X105.9011 Y253.6983
G01 X71.1504
G01 X72.3923 Y252.3783
G01 X85.7904
G01 X82.7582
G01 Y251.0583
G01 X73.8859
G01 X75.6641
G01 Y249.7383
G01 X81.3314
G01 X80.5151 Y248.4183
G01 X77.7775
M107
G00 Z2.0000
G00 X110.0584
G00 Z0.5000
G01 Z-1.8000 F400
M106 S240
G01 Y249.7383 F1000
G01 X120.6569
G01 X120.8948 Y251.0583
G01 X111.5128
G01 X112.5973 Y252.3783
G01 X121.1395
G01 X113.6818
G01 Y253.6983
G01 X148.4286
G01 X147.1816 Y252.3783
G01 X133.7633
G01 X136.8081
G01 Y251.0583
G01 X145.6824
G01 X143.9077
G01 Y249.7383
G01 X138.2434
G01 X139.0441 Y248.4183
G01 X141.7938
M107
G00 Z2.0000
G00 X104.8109 Y253.6983
G00 Z0.5000
G01 Z-1.8000 F400
M106 S240
G01 Y255.0183 F1000
G01 X73.3150
G01 X76.9035
G01 Y256.3383
G01 X103.7264
G01 X102.6431 Y257.6583
G01 X81.1716
G01 X86.4726
G01 Y258.9783
G01 X101.5598
G01 X100.4766 Y260.2983
G01 X93.9806
M107
G00 Z2.0000
G00 X114.7663 Y253.6983
G00 Z0.5000
G01 Z-1.8000 F400
M106 S240
G01 Y255.0183 F1000
G01 X146.2322
G01 X142.6433
G01 Y256.3383
G01 X115.8508
G01 X116.9368 Y257.6583
G01 X138.4017
G01 X133.1362
G01 Y258.9783
G01 X118.0253
G01 X119.1185 Y260.2983
G01 X125.6003
M107
G00 Z2.0000
G00 Z0.5000
G01 Z-1.8000 F400
M106 S240
G01 X125.6267 Y260.4965 F1000
G01 X127.1324 Y260.2888
G01 X128.6342 Y260.0550
G01 X130.1318 Y259.7950
G01 X131.6246 Y259.5090
G01 X133.1122 Y259.1971
G01 X134.5942 Y258.8593
G01 X136.0700 Y258.4958
G01 X137.5393 Y258.1066
G01 X139.0017 Y257.6919
G01 X140.4565 Y257.2519
G01 X141.9035 Y256.7866
G01 X143.3422 Y256.2961
G01 X144.7721 Y255.7807
G01 X146.1928 Y255.2405
G01 X147.6039 Y254.6756
G01 X149.0050 Y254.0863
G01 X148.4177 Y253.3981
G01 X147.8037 Y252.7335
G01 X147.1640 Y252.0937
G01 X146.4995 Y251.4797
G01 X145.8113 Y250.8923
G01 X145.1005 Y250.3326
G01 X144.3681 Y249.8013
G01 X143.6154 Y249.2994
G01 X143.0992 Y248.9708
G01 X142.5771 Y248.6518
G01 X142.0491 Y248.3425
G01 X141.5155 Y248.0430
G01 X140.9765 Y247.7535
G01 X140.4322 Y247.4740
G01 X139.8828 Y247.2046
G01 X139.3285 Y246.9455
G01 X139.2335 Y247.3487
G01 X139.1120 Y247.7447
G01 X138.9645 Y248.1319
G01 X138.7916 Y248.5083
G01 X138.5942 Y248.8725
G01 X138.3730 Y249.2228
G01 X138.1290 Y249.5576
G01 X137.8634 Y249.8755
G01 X137.5772 Y250.1750
G01 X137.2718 Y250.4550
G01 X136.9485 Y250.7140
G01 X136.6088 Y250.9510
G01 X136.1690 Y251.2055
G01 X135.7181 Y251.4399
G01 X135.2571 Y251.6536
G01 X134.7869 Y251.8462
G01 X134.3085 Y252.0174
G01 X133.8228 Y252.1667
G01 X133.3309 Y252.2939
G01 X132.8337 Y252.3988
G01 X132.0869 Y252.5394
G01 X131.3372 Y252.6629
G01 X130.5848 Y252.7691
G01 X129.8301 Y252.8580
G01 X129.0737 Y252.9296
G01 X128.3157 Y252.9839
G01 X127.5568 Y253.0207
G01 X126.7972 Y253.0401
G01 X125.7010 Y253.0829
G01 X124.6044 Y253.1108
G01 X123.5076 Y253.1239
G01 X122.4106 Y253.1221
G01 X122.3173 Y253.1243
G01 X122.2241 Y253.1180
G01 X122.1318 Y253.1034
G01 X122.0412 Y253.0806
G01 X121.9531 Y253.0496
G01 X121.8681 Y253.0109
G01 X121.7870 Y252.9647
G01 X121.7103 Y252.9113
G01 X121.6388 Y252.8512
G01 X121.5729 Y252.7850
G01 X121.5133 Y252.7131
G01 X121.4605 Y252.6361
G01 X121.4147 Y252.5546
G01 X121.3765 Y252.4694
G01 X121.3462 Y252.3811
G01 X121.3239 Y252.2904
G01 X121.1939 Y251.5889
G01 X121.0674 Y250.8904
G01 X120.1898 Y246.0030
G01 X117.9436 Y233.4360
G01 X114.9554 Y216.6793
G01 X111.9724 Y199.9216
G01 X109.7880 Y187.6200
G01 X98.2023 Y252.3022
G01 X98.1826 Y252.3924
G01 X98.1550 Y252.4805
G01 X98.1195 Y252.5658
G01 X98.0766 Y252.6476
G01 X98.0266 Y252.7252
G01 X97.9698 Y252.7980
G01 X97.9067 Y252.8654
G01 X97.8379 Y252.9270
G01 X97.7638 Y252.9821
G01 X97.6851 Y253.0304
G01 X97.6024 Y253.0714
G01 X97.5164 Y253.1050
G01 X97.4277 Y253.1306
G01 X97.3370 Y253.1483
G01 X97.2452 Y253.1577
G01 X97.1528 Y253.1589
G01 X97.0347 Y253.1631
G01 X96.7505 Y253.1651
G01 X96.4664 Y253.1649
G01 X96.1823 Y253.1623
G01 X95.8982 Y253.1574
G01 X95.0040 Y253.1475
G01 X94.1099 Y253.1257
G01 X93.2163 Y253.0918
G01 X92.3232 Y253.0458
G01 X91.4307 Y252.9879
G01 X90.5392 Y252.9179
G01 X89.6486 Y252.8360
G01 X88.7593 Y252.7421
G01 X88.1793 Y252.6718
G01 X87.6021 Y252.5817
G01 X87.0283 Y252.4719
G01 X86.4586 Y252.3425
G01 X85.8936 Y252.1937
G01 X85.3341 Y252.0256
G01 X84.7807 Y251.8385
G01 X84.2340 Y251.6325
G01 X83.9025 Y251.4928
G01 X83.5792 Y251.3351
G01 X83.2651 Y251.1598
G01 X82.9612 Y250.9674
G01 X82.6682 Y250.7587
G01 X82.3872 Y250.5341
G01 X82.1190 Y250.2945
G01 X81.8643 Y250.0404
G01 X81.6240 Y249.7727
G01 X81.3989 Y249.4922
G01 X81.1895 Y249.1997
G01 X80.9965 Y248.8962
G01 X80.8658 Y248.6664
G01 X80.7451 Y248.4314
G01 X80.6344 Y248.1914
G01 X80.5340 Y247.9470
G01 X80.4441 Y247.6985
G01 X80.3648 Y247.4464
G01 X80.2962 Y247.1912
G01 X80.2386 Y246.9333
G01 X80.2278 Y246.9365
G01 X79.5158 Y247.2683
G01 X78.8130 Y247.6189
G01 X78.1197 Y247.9881
G01 X77.4366 Y248.3757
G01 X76.7640 Y248.7814
G01 X76.1025 Y249.2049
G01 X75.4525 Y249.6459
G01 X74.8146 Y250.1040
G01 X74.1890 Y250.5790
G01 X73.5764 Y251.0706
G01 X72.9771 Y251.5782
G01 X72.3915 Y252.1017
G01 X71.9112 Y252.5720
G01 X71.4481 Y253.0593
G01 X71.0030 Y253.5631
G01 X70.5764 Y254.0826
G01 X71.1167 Y254.3187
G01 X71.6586 Y254.5511
G01 X72.2020 Y254.7799
G01 X72.7470 Y255.0050
G01 X74.4296 Y255.6533
G01 X76.1251 Y256.2670
G01 X77.8327 Y256.8459
G01 X79.5519 Y257.3897
G01 X81.2819 Y257.8982
G01 X83.0218 Y258.3712
G01 X84.7711 Y258.8086
G01 X86.5290 Y259.2101
G01 X88.2947 Y259.5755
G01 X90.0676 Y259.9047
G01 X91.8467 Y260.1976
G01 X93.6316 Y260.4540
G01 X94.2113 Y260.5314
G01 X94.7915 Y260.6050
G01 X95.3722 Y260.6746
G01 X95.9534 Y260.7403
G01 X96.9864 Y260.8484
G01 X98.0209 Y260.9411
G01 X99.0567 Y261.0184
G01 X100.0935 Y261.0803
G01 X104.5774 Y255.6166
G01 X105.6585 Y254.2952
G01 X106.7501 Y252.9826
G01 X107.8523 Y251.6788
G01 X108.9649 Y250.3839
G01 X109.0143 Y250.3181
G01 X109.0686 Y250.2563
G01 X109.1274 Y250.1989
G01 X109.1905 Y250.1461
G01 X109.2575 Y250.0983
G01 X109.3279 Y250.0558
G01 X109.4013 Y250.0189
G01 X109.4774 Y249.9876
G01 X109.5556 Y249.9623
G01 X109.6355 Y249.9430
G01 X109.7167 Y249.9300
G01 X109.7987 Y249.9231
G01 X109.8809 Y249.9226
G01 X109.9629 Y249.9284
G01 X110.0443 Y249.9405
G01 X110.1245 Y249.9587
G01 X110.1956 Y249.9823
G01 X110.2648 Y250.0112
G01 X110.3317 Y250.0452
G01 X110.3958 Y250.0841
G01 X110.4568 Y250.1277
G01 X110.5143 Y250.1758
G01 X110.5681 Y250.2280
G01 X110.6179 Y250.2841
G01 X116.0287 Y256.8699
G01 X116.8368 Y257.8536
G01 X117.6467 Y258.8359
G01 X118.4585 Y259.8165
G01 X119.2722 Y260.7957
G01 X119.5013 Y261.0692
G01 X119.5182 Y261.0727
G01 X121.0493 Y260.9747
G01 X122.5782 Y260.8459
G01 X124.1042 Y260.6865
G01 X125.6267 Y260.4965
G01 X125.6003 Y260.2983
M107
G00 Z2.0000


;No. 3: Helical drill 2
G00 X188.3458 Y266.6869 Z2.0000
G00 Z0.5000
M106 S240
G01 X188.3446 Y266.6398 Z0.4958 F400
G01 X188.3409 Y266.5928 Z0.4917
G01 X188.3347 Y266.5461 Z0.4875
G01 X188.3261 Y266.4998 Z0.4833
G01 X188.3151 Y266.4540 Z0.4792
G01 X188.3018 Y266.4088 Z0.4750
G01 X188.2860 Y266.3644 Z0.4708
G01 X188.2680 Y266.3209 Z0.4667
G01 X188.2477 Y266.2783 Z0.4625
G01 X188.2252 Y266.2369 Z0.4583
G01 X188.2006 Y266.1967 Z0.4542
G01 X188.1739 Y266.1579 Z0.4500
G01 X188.1452 Y266.1205 Z0.4458
G01 X188.1146 Y266.0847 Z0.4417
G01 X188.0822 Y266.0505 Z0.4375
G01 X188.0480 Y266.0181 Z0.4333
G01 X188.0122 Y265.9875 Z0.4292
G01 X187.9748 Y265.9588 Z0.4250
G01 X187.9360 Y265.9321 Z0.4208
G01 X187.8958 Y265.9075 Z0.4167
G01 X187.8544 Y265.8850 Z0.4125
G01 X187.8119 Y265.8647 Z0.4083
G01 X187.7683 Y265.8467 Z0.4042
G01 X187.7239 Y265.8310 Z0.4000
G01 X187.6788 Y265.8176 Z0.3958
G01 X187.6329 Y265.8066 Z0.3917
G01 X187.5866 Y265.7980 Z0.3875
G01 X187.5399 Y265.7918 Z0.3833
G01 X187.4929 Y265.7882 Z0.3792
G01 X187.4458 Y265.7869 Z0.3750
G01 X187.3987 Y265.7882 Z0.3708
G01 X187.3517 Y265.7918 Z0.3667
G01 X187.3050 Y265.7980 Z0.3625
G01 X187.2587 Y265.8066 Z0.3583
G01 X187.2129 Y265.8176 Z0.3542
G01 X187.1677 Y265.8310 Z0.3500
G01 X187.1233 Y265.8467 Z0.3458
G01 X187.0798 Y265.8647 Z0.3417
G01 X187.0372 Y265.8850 Z0.3375
G01 X186.9958 Y265.9075 Z0.3333
G01 X186.9556 Y265.9321 Z0.3292
G01 X186.9168 Y265.9588 Z0.3250
G01 X186.8794 Y265.9875 Z0.3208
G01 X186.8436 Y266.0181 Z0.3167
G01 X186.8094 Y266.0505 Z0.3125
G01 X186.7770 Y266.0847 Z0.3083
G01 X186.7464 Y266.1205 Z0.3042
G01 X186.7177 Y266.1579 Z0.3000
G01 X186.6910 Y266.1967 Z0.2958
G01 X186.6664 Y266.2369 Z0.2917
G01 X186.6439 Y266.2783 Z0.2875
G01 X186.6236 Y266.3209 Z0.2833
G01 X186.6056 Y266.3644 Z0.2792
G01 X186.5899 Y266.4088 Z0.2750
G01 X186.5765 Y266.4540 Z0.2708
G01 X186.5655 Y266.4998 Z0.2667
G01 X186.5569 Y266.5461 Z0.2625
G01 X186.5507 Y266.5928 Z0.2583
G01 X186.5470 Y266.6398 Z0.2542
G01 X186.5458 Y266.6869 Z0.2500
G01 X186.5470 Y266.7340 Z0.2458
G01 X186.5507 Y266.7810 Z0.2417
G01 X186.5569 Y266.8277 Z0.2375
G01 X186.5655 Y266.8740 Z0.2333
G01 X186.5765 Y266.9199 Z0.2292
G01 X186.5899 Y266.9650 Z0.2250
G01 X186.6056 Y267.0094 Z0.2208
G01 X186.6236 Y267.0530 Z0.2167
G01 X186.6439 Y267.0955 Z0.2125
G01 X186.6664 Y267.1369 Z0.2083
G01 X186.6910 Y267.1771 Z0.2042
G01 X186.7177 Y267.2159 Z0.2000
G01 X186.7464 Y267.2533 Z0.1958
G01 X186.7770 Y267.2891 Z0.1917
G01 X186.8094 Y267.3233 Z0.1875
G01 X186.8436 Y267.3557 Z0.1833
G01 X186.8794 Y267.3863 Z0.1792
G01 X186.9168 Y267.4150 Z0.1750
G01 X186.9556 Y267.4417 Z0.1708
G01 X186.9958 Y267.4663 Z0.1667
G01 X187.0372 Y267.4888 Z0.1625
G01 X187.0798 Y267.5091 Z0.1583
G01 X187.1233 Y267.5271 Z0.1542
G01 X187.1677 Y267.5429 Z0.1500
G01 X187.2129 Y267.5563 Z0.1458
G01 X187.2587 Y267.5673 Z0.1417
G01 X187.3050 Y267.5758 Z0.1375
G01 X187.3517 Y267.5820 Z0.1333
G01 X187.3987 Y267.5857 Z0.1292
G01 X187.4458 Y267.5869 Z0.1250
G01 X187.4929 Y267.5857 Z0.1208
G01 X187.5399 Y267.5820 Z0.1167
G01 X187.5866 Y267.5758 Z0.1125
G01 X187.6329 Y267.5673 Z0.1083
G01 X187.6788 Y267.5563 Z0.1042
G01 X187.7239 Y267.5429 Z0.1000
G01 X187.7683 Y267.5271 Z0.0958
G01 X187.8119 Y267.5091 Z0.0917
G01 X187.8544 Y267.4888 Z0.0875
G01 X187.8958 Y267.4663 Z0.0833
G01 X187.9360 Y267.4417 Z0.0792
G01 X187.9748 Y267.4150 Z0.0750
G01 X188.0122 Y267.3863 Z0.0708
G01 X188.0480 Y267.3557 Z0.0667
G01 X188.0822 Y267.3233 Z0.0625
G01 X188.1146 Y267.2891 Z0.0583
G01 X188.1452 Y267.2533 Z0.0542
G01 X188.1739 Y267.2159 Z0.0500
G01 X188.2006 Y267.1771 Z0.0458
G01 X188.2252 Y267.1369 Z0.0417
G01 X188.2477 Y267.0955 Z0.0375
G01 X188.2680 Y267.0530 Z0.0333
G01 X188.2860 Y267.0094 Z0.0292
G01 X188.3018 Y266.9650 Z0.0250
G01 X188.3151 Y266.9199 Z0.0208
G01 X188.3261 Y266.8740 Z0.0167
G01 X188.3347 Y266.8277 Z0.0125
G01 X188.3409 Y266.7810 Z0.0083
G01 X188.3446 Y266.7340 Z0.0042
G01 X188.3458 Y266.6869 Z0.0000
G01 X188.3446 Y266.6398
G01 X188.3409 Y266.5928
G01 X188.3347 Y266.5461
G01 X188.3261 Y266.4998
G01 X188.3151 Y266.4540
G01 X188.3018 Y266.4088
G01 X188.2860 Y266.3644
G01 X188.2680 Y266.3209
G01 X188.2477 Y266.2783
G01 X188.2252 Y266.2369
G01 X188.2006 Y266.1967
G01 X188.1739 Y266.1579
G01 X188.1452 Y266.1205
G01 X188.1146 Y266.0847
G01 X188.0822 Y266.0505
G01 X188.0480 Y266.0181
G01 X188.0122 Y265.9875
G01 X187.9748 Y265.9588
G01 X187.9360 Y265.9321
G01 X187.8958 Y265.9075
G01 X187.8544 Y265.8850
G01 X187.8119 Y265.8647
G01 X187.7683 Y265.8467
G01 X187.7239 Y265.8310
G01 X187.6788 Y265.8176
G01 X187.6329 Y265.8066
G01 X187.5866 Y265.7980
G01 X187.5399 Y265.7918
G01 X187.4929 Y265.7882
G01 X187.4458 Y265.7869
G01 X187.3987 Y265.7882
G01 X187.3517 Y265.7918
G01 X187.3050 Y265.7980
G01 X187.2587 Y265.8066
G01 X187.2129 Y265.8176
G01 X187.1677 Y265.8310
G01 X187.1233 Y265.8467
G01 X187.0798 Y265.8647
G01 X187.0372 Y265.8850
G01 X186.9958 Y265.9075
G01 X186.9556 Y265.9321
G01 X186.9168 Y265.9588
G01 X186.8794 Y265.9875
G01 X186.8436 Y266.0181
G01 X186.8094 Y266.0505
G01 X186.7770 Y266.0847
G01 X186.7464 Y266.1205
G01 X186.7177 Y266.1579
G01 X186.6910 Y266.1967
G01 X186.6664 Y266.2369
G01 X186.6439 Y266.2783
G01 X186.6236 Y266.3209
G01 X186.6056 Y266.3644
G01 X186.5899 Y266.4088
G01 X186.5765 Y266.4540
G01 X186.5655 Y266.4998
G01 X186.5569 Y266.5461
G01 X186.5507 Y266.5928
G01 X186.5470 Y266.6398
G01 X186.5458 Y266.6869
G01 X186.5470 Y266.7340
G01 X186.5507 Y266.7810
G01 X186.5569 Y266.8277
G01 X186.5655 Y266.8740
G01 X186.5765 Y266.9199
G01 X186.5899 Y266.9650
G01 X186.6056 Y267.0094
G01 X186.6236 Y267.0530
G01 X186.6439 Y267.0955
G01 X186.6664 Y267.1369
G01 X186.6910 Y267.1771
G01 X186.7177 Y267.2159
G01 X186.7464 Y267.2533
G01 X186.7770 Y267.2891
G01 X186.8094 Y267.3233
G01 X186.8436 Y267.3557
G01 X186.8794 Y267.3863
G01 X186.9168 Y267.4150
G01 X186.9556 Y267.4417
G01 X186.9958 Y267.4663
G01 X187.0372 Y267.4888
G01 X187.0798 Y267.5091
G01 X187.1233 Y267.5271
G01 X187.1677 Y267.5429
G01 X187.2129 Y267.5563
G01 X187.2587 Y267.5673
G01 X187.3050 Y267.5758
G01 X187.3517 Y267.5820
G01 X187.3987 Y267.5857
G01 X187.4458 Y267.5869
G01 X187.4929 Y267.5857
G01 X187.5399 Y267.5820
G01 X187.5866 Y267.5758
G01 X187.6329 Y267.5673
G01 X187.6788 Y267.5563
G01 X187.7239 Y267.5429
G01 X187.7683 Y267.5271
G01 X187.8119 Y267.5091
G01 X187.8544 Y267.4888
G01 X187.8958 Y267.4663
G01 X187.9360 Y267.4417
G01 X187.9748 Y267.4150
G01 X188.0122 Y267.3863
G01 X188.0480 Y267.3557
G01 X188.0822 Y267.3233
G01 X188.1146 Y267.2891
G01 X188.1452 Y267.2533
G01 X188.1739 Y267.2159
G01 X188.2006 Y267.1771
G01 X188.2252 Y267.1369
G01 X188.2477 Y267.0955
G01 X188.2680 Y267.0530
G01 X188.2860 Y267.0094
G01 X188.3018 Y266.9650
G01 X188.3151 Y266.9199
G01 X188.3261 Y266.8740
G01 X188.3347 Y266.8277
G01 X188.3409 Y266.7810
G01 X188.3446 Y266.7340
G01 X188.3458 Y266.6869
M107
M106 S240
G01 X188.3446 Y266.6398 Z-0.0183
G01 X188.3409 Y266.5928 Z-0.0367
G01 X188.3347 Y266.5461 Z-0.0550
G01 X188.3261 Y266.4998 Z-0.0733
G01 X188.3151 Y266.4540 Z-0.0917
G01 X188.3018 Y266.4088 Z-0.1100
G01 X188.2860 Y266.3644 Z-0.1283
G01 X188.2680 Y266.3209 Z-0.1467
G01 X188.2477 Y266.2783 Z-0.1650
G01 X188.2252 Y266.2369 Z-0.1833
G01 X188.2006 Y266.1967 Z-0.2017
G01 X188.1739 Y266.1579 Z-0.2200
G01 X188.1452 Y266.1205 Z-0.2383
G01 X188.1146 Y266.0847 Z-0.2567
G01 X188.0822 Y266.0505 Z-0.2750
G01 X188.0480 Y266.0181 Z-0.2933
G01 X188.0122 Y265.9875 Z-0.3117
G01 X187.9748 Y265.9588 Z-0.3300
G01 X187.9360 Y265.9321 Z-0.3483
G01 X187.8958 Y265.9075 Z-0.3667
G01 X187.8544 Y265.8850 Z-0.3850
G01 X187.8119 Y265.8647 Z-0.4033
G01 X187.7683 Y265.8467 Z-0.4217
G01 X187.7239 Y265.8310 Z-0.4400
G01 X187.6788 Y265.8176 Z-0.4583
G01 X187.6329 Y265.8066 Z-0.4767
G01 X187.5866 Y265.7980 Z-0.4950
G01 X187.5399 Y265.7918 Z-0.5133
G01 X187.4929 Y265.7882 Z-0.5317
G01 X187.4458 Y265.7869 Z-0.5500
G01 X187.3987 Y265.7882 Z-0.5683
G01 X187.3517 Y265.7918 Z-0.5867
G01 X187.3050 Y265.7980 Z-0.6050
G01 X187.2587 Y265.8066 Z-0.6233
G01 X187.2129 Y265.8176 Z-0.6417
G01 X187.1677 Y265.8310 Z-0.6600
G01 X187.1233 Y265.8467 Z-0.6783
G01 X187.0798 Y265.8647 Z-0.6967
G01 X187.0372 Y265.8850 Z-0.7150
G01 X186.9958 Y265.9075 Z-0.7333
G01 X186.9556 Y265.9321 Z-0.7517
G01 X186.9168 Y265.9588 Z-0.7700
G01 X186.8794 Y265.9875 Z-0.7883
G01 X186.8436 Y266.0181 Z-0.8067
G01 X186.8094 Y266.0505 Z-0.8250
G01 X186.7770 Y266.0847 Z-0.8433
G01 X186.7464 Y266.1205 Z-0.8617
G01 X186.7177 Y266.1579 Z-0.8800
G01 X186.6910 Y266.1967 Z-0.8983
G01 X186.6664 Y266.2369 Z-0.9167
G01 X186.6439 Y266.2783 Z-0.9350
G01 X186.6236 Y266.3209 Z-0.9533
G01 X186.6056 Y266.3644 Z-0.9717
G01 X186.5899 Y266.4088 Z-0.9900
G01 X186.5765 Y266.4540 Z-1.0083
G01 X186.5655 Y266.4998 Z-1.0267
G01 X186.5569 Y266.5461 Z-1.0450
G01 X186.5507 Y266.5928 Z-1.0633
G01 X186.5470 Y266.6398 Z-1.0817
G01 X186.5458 Y266.6869 Z-1.1000
G01 X186.5470 Y266.7340 Z-1.1183
G01 X186.5507 Y266.7810 Z-1.1367
G01 X186.5569 Y266.8277 Z-1.1550
G01 X186.5655 Y266.8740 Z-1.1733
G01 X186.5765 Y266.9199 Z-1.1917
G01 X186.5899 Y266.9650 Z-1.2100
G01 X186.6056 Y267.0094 Z-1.2283
G01 X186.6236 Y267.0530 Z-1.2467
G01 X186.6439 Y267.0955 Z-1.2650
G01 X186.6664 Y267.1369 Z-1.2833
G01 X186.6910 Y267.1771 Z-1.3017
G01 X186.7177 Y267.2159 Z-1.3200
G01 X186.7464 Y267.2533 Z-1.3383
G01 X186.7770 Y267.2891 Z-1.3567
G01 X186.8094 Y267.3233 Z-1.3750
G01 X186.8436 Y267.3557 Z-1.3933
G01 X186.8794 Y267.3863 Z-1.4117
G01 X186.9168 Y267.4150 Z-1.4300
G01 X186.9556 Y267.4417 Z-1.4483
G01 X186.9958 Y267.4663 Z-1.4667
G01 X187.0372 Y267.4888 Z-1.4850
G01 X187.0798 Y267.5091 Z-1.5033
G01 X187.1233 Y267.5271 Z-1.5217
G01 X187.1677 Y267.5429 Z-1.5400
G01 X187.2129 Y267.5563 Z-1.5583
G01 X187.2587 Y267.5673 Z-1.5767
G01 X187.3050 Y267.5758 Z-1.5950
G01 X187.3517 Y267.5820 Z-1.6133
G01 X187.3987 Y267.5857 Z-1.6317
G01 X187.4458 Y267.5869 Z-1.6500
G01 X187.4929 Y267.5857 Z-1.6683
G01 X187.5399 Y267.5820 Z-1.6867
G01 X187.5866 Y267.5758 Z-1.7050
G01 X187.6329 Y267.5673 Z-1.7233
G01 X187.6788 Y267.5563 Z-1.7417
G01 X187.7239 Y267.5429 Z-1.7600
G01 X187.7683 Y267.5271 Z-1.7783
G01 X187.8119 Y267.5091 Z-1.7967
G01 X187.8544 Y267.4888 Z-1.8150
G01 X187.8958 Y267.4663 Z-1.8333
G01 X187.9360 Y267.4417 Z-1.8517
G01 X187.9748 Y267.4150 Z-1.8700
G01 X188.0122 Y267.3863 Z-1.8883
G01 X188.0480 Y267.3557 Z-1.9067
G01 X188.0822 Y267.3233 Z-1.9250
G01 X188.1146 Y267.2891 Z-1.9433
G01 X188.1452 Y267.2533 Z-1.9617
G01 X188.1739 Y267.2159 Z-1.9800
G01 X188.2006 Y267.1771 Z-1.9983
G01 X188.2252 Y267.1369 Z-2.0167
G01 X188.2477 Y267.0955 Z-2.0350
G01 X188.2680 Y267.0530 Z-2.0533
G01 X188.2860 Y267.0094 Z-2.0717
G01 X188.3018 Y266.9650 Z-2.0900
G01 X188.3151 Y266.9199 Z-2.1083
G01 X188.3261 Y266.8740 Z-2.1267
G01 X188.3347 Y266.8277 Z-2.1450
G01 X188.3409 Y266.7810 Z-2.1633
G01 X188.3446 Y266.7340 Z-2.1817
G01 X188.3458 Y266.6869 Z-2.2000
G01 X188.3446 Y266.6398
G01 X188.3409 Y266.5928
G01 X188.3347 Y266.5461
G01 X188.3261 Y266.4998
G01 X188.3151 Y266.4540
G01 X188.3018 Y266.4088
G01 X188.2860 Y266.3644
G01 X188.2680 Y266.3209
G01 X188.2477 Y266.2783
G01 X188.2252 Y266.2369
G01 X188.2006 Y266.1967
G01 X188.1739 Y266.1579
G01 X188.1452 Y266.1205
G01 X188.1146 Y266.0847
G01 X188.0822 Y266.0505
G01 X188.0480 Y266.0181
G01 X188.0122 Y265.9875
G01 X187.9748 Y265.9588
G01 X187.9360 Y265.9321
G01 X187.8958 Y265.9075
G01 X187.8544 Y265.8850
G01 X187.8119 Y265.8647
G01 X187.7683 Y265.8467
G01 X187.7239 Y265.8310
G01 X187.6788 Y265.8176
G01 X187.6329 Y265.8066
G01 X187.5866 Y265.7980
G01 X187.5399 Y265.7918
G01 X187.4929 Y265.7882
G01 X187.4458 Y265.7869
G01 X187.3987 Y265.7882
G01 X187.3517 Y265.7918
G01 X187.3050 Y265.7980
G01 X187.2587 Y265.8066
G01 X187.2129 Y265.8176
G01 X187.1677 Y265.8310
G01 X187.1233 Y265.8467
G01 X187.0798 Y265.8647
G01 X187.0372 Y265.8850
G01 X186.9958 Y265.9075
G01 X186.9556 Y265.9321
G01 X186.9168 Y265.9588
G01 X186.8794 Y265.9875
G01 X186.8436 Y266.0181
G01 X186.8094 Y266.0505
G01 X186.7770 Y266.0847
G01 X186.7464 Y266.1205
G01 X186.7177 Y266.1579
G01 X186.6910 Y266.1967
G01 X186.6664 Y266.2369
G01 X186.6439 Y266.2783
G01 X186.6236 Y266.3209
G01 X186.6056 Y266.3644
G01 X186.5899 Y266.4088
G01 X186.5765 Y266.4540
G01 X186.5655 Y266.4998
G01 X186.5569 Y266.5461
G01 X186.5507 Y266.5928
G01 X186.5470 Y266.6398
G01 X186.5458 Y266.6869
G01 X186.5470 Y266.7340
G01 X186.5507 Y266.7810
G01 X186.5569 Y266.8277
G01 X186.5655 Y266.8740
G01 X186.5765 Y266.9199
G01 X186.5899 Y266.9650
G01 X186.6056 Y267.0094
G01 X186.6236 Y267.0530
G01 X186.6439 Y267.0955
G01 X186.6664 Y267.1369
G01 X186.6910 Y267.1771
G01 X186.7177 Y267.2159
G01 X186.7464 Y267.2533
G01 X186.7770 Y267.2891
G01 X186.8094 Y267.3233
G01 X186.8436 Y267.3557
G01 X186.8794 Y267.3863
G01 X186.9168 Y267.4150
G01 X186.9556 Y267.4417
G01 X186.9958 Y267.4663
G01 X187.0372 Y267.4888
G01 X187.0798 Y267.5091
G01 X187.1233 Y267.5271
G01 X187.1677 Y267.5429
G01 X187.2129 Y267.5563
G01 X187.2587 Y267.5673
G01 X187.3050 Y267.5758
G01 X187.3517 Y267.5820
G01 X187.3987 Y267.5857
G01 X187.4458 Y267.5869
G01 X187.4929 Y267.5857
G01 X187.5399 Y267.5820
G01 X187.5866 Y267.5758
G01 X187.6329 Y267.5673
G01 X187.6788 Y267.5563
G01 X187.7239 Y267.5429
G01 X187.7683 Y267.5271
G01 X187.8119 Y267.5091
G01 X187.8544 Y267.4888
G01 X187.8958 Y267.4663
G01 X187.9360 Y267.4417
G01 X187.9748 Y267.4150
G01 X188.0122 Y267.3863
G01 X188.0480 Y267.3557
G01 X188.0822 Y267.3233
G01 X188.1146 Y267.2891
G01 X188.1452 Y267.2533
G01 X188.1739 Y267.2159
G01 X188.2006 Y267.1771
G01 X188.2252 Y267.1369
G01 X188.2477 Y267.0955
G01 X188.2680 Y267.0530
G01 X188.2860 Y267.0094
G01 X188.3018 Y266.9650
G01 X188.3151 Y266.9199
G01 X188.3261 Y266.8740
G01 X188.3347 Y266.8277
G01 X188.3409 Y266.7810
G01 X188.3446 Y266.7340
G01 X188.3458 Y266.6869
G01 X188.3552 Y266.6405 F1000
G01 X188.3623 Y266.5937
G01 X188.3669 Y266.5466
G01 X188.3691 Y266.4993
G01 X188.3688 Y266.4520
G01 X188.3661 Y266.4047
G01 X188.3610 Y266.3577
G01 X188.3535 Y266.3109
G01 X188.3428 Y266.2608
G01 X188.3295 Y266.2112
G01 X188.3138 Y266.1624
G01 X188.2955 Y266.1145
G01 X188.2749 Y266.0675
G01 X188.2518 Y266.0217
G01 X188.2265 Y265.9771
G01 X188.1989 Y265.9338
G01 X188.1668 Y265.8888
G01 X188.1325 Y265.8455
G01 X188.0961 Y265.8039
G01 X188.0576 Y265.7643
G01 X188.0171 Y265.7267
G01 X187.9748 Y265.6911
G01 X187.9307 Y265.6578
G01 X187.8849 Y265.6268
G01 X187.8343 Y265.5960
G01 X187.7822 Y265.5678
G01 X187.7287 Y265.5423
G01 X187.6740 Y265.5196
G01 X187.6182 Y265.4996
G01 X187.5615 Y265.4825
G01 X187.5040 Y265.4682
G01 X187.4458 Y265.4569
G01 X187.3832 Y265.4480
G01 X187.3202 Y265.4422
G01 X187.2570 Y265.4396
G01 X187.1938 Y265.4402
G01 X187.1307 Y265.4440
G01 X187.0678 Y265.4510
G01 X187.0054 Y265.4611
G01 X186.9435 Y265.4743
G01 X186.8786 Y265.4917
G01 X186.8146 Y265.5123
G01 X186.7517 Y265.5361
G01 X186.6901 Y265.5630
G01 X186.6299 Y265.5930
G01 X186.5713 Y265.6260
G01 X186.5144 Y265.6618
G01 X186.4594 Y265.7005
G01 X186.4032 Y265.7444
G01 X186.3494 Y265.7910
G01 X186.2979 Y265.8402
G01 X186.2489 Y265.8920
G01 X186.2026 Y265.9461
G01 X186.1591 Y266.0025
G01 X186.1184 Y266.0610
G01 X186.0808 Y266.1215
G01 X186.0519 Y266.1887
G01 X186.0263 Y266.2572
G01 X186.0041 Y266.3269
G01 X185.9854 Y266.3976
G01 X185.9702 Y266.4691
G01 X185.9585 Y266.5413
G01 X185.9504 Y266.6139
G01 X185.9458 Y266.6869
G01 X185.9476 Y266.7605
G01 X185.9531 Y266.8339
G01 X185.9621 Y266.9070
G01 X185.9747 Y266.9795
G01 X185.9908 Y267.0514
G01 X186.0104 Y267.1223
G01 X186.0335 Y267.1922
G01 X186.0600 Y267.2609
G01 X186.0898 Y267.3282
G01 X186.1230 Y267.3940
G01 X186.1592 Y267.4581
G01 X186.1986 Y267.5203
G01 X186.2410 Y267.5805
G01 X186.2863 Y267.6385
G01 X186.3344 Y267.6942
G01 X186.3852 Y267.7476
G01 X186.4385 Y267.7983
G01 X186.4942 Y267.8464
G01 X186.5523 Y267.8917
G01 X186.6125 Y267.9341
G01 X186.6747 Y267.9735
G01 X186.7387 Y268.0098
G01 X186.8045 Y268.0429
G01 X186.8718 Y268.0727
G01 X186.9405 Y268.0992
G01 X187.0104 Y268.1223
G01 X187.0813 Y268.1419
G01 X187.1532 Y268.1581
G01 X187.2257 Y268.1707
G01 X187.2988 Y268.1797
G01 X187.3722 Y268.1851
G01 X187.4458 Y268.1869
G01 X187.5194 Y268.1851
G01 X187.5928 Y268.1797
G01 X187.6659 Y268.1707
G01 X187.7384 Y268.1581
G01 X187.8103 Y268.1419
G01 X187.8812 Y268.1223
G01 X187.9511 Y268.0992
G01 X188.0198 Y268.0727
G01 X188.0871 Y268.0429
G01 X188.1529 Y268.0098
G01 X188.2170 Y267.9735
G01 X188.2792 Y267.9341
G01 X188.3394 Y267.8917
G01 X188.3974 Y267.8464
G01 X188.4531 Y267.7983
G01 X188.5065 Y267.7476
G01 X188.5572 Y267.6942
G01 X188.6053 Y267.6385
G01 X188.6506 Y267.5805
G01 X188.6930 Y267.5203
G01 X188.7324 Y267.4581
G01 X188.7687 Y267.3940
G01 X188.8018 Y267.3282
G01 X188.8316 Y267.2609
G01 X188.8581 Y267.1922
G01 X188.8812 Y267.1223
G01 X188.9008 Y267.0514
G01 X188.9170 Y266.9795
G01 X188.9296 Y266.9070
G01 X188.9386 Y266.8339
G01 X188.9440 Y266.7605
G01 X188.9458 Y266.6869
G01 X188.9416 Y266.5748
G01 X188.9290 Y266.4634
G01 X188.9082 Y266.3531
G01 X188.8792 Y266.2448
G01 X188.8421 Y266.1389
G01 X188.7973 Y266.0361
G01 X188.7448 Y265.9369
G01 X188.6852 Y265.8419
G01 X188.6185 Y265.7517
G01 X188.5454 Y265.6667
G01 X188.4661 Y265.5874
G01 X188.3810 Y265.5142
G01 X188.2908 Y265.4476
G01 X188.1958 Y265.3879
G01 X188.0966 Y265.3355
G01 X187.9938 Y265.2906
G01 X187.8879 Y265.2536
G01 X187.7796 Y265.2245
G01 X187.6694 Y265.2037
G01 X187.5579 Y265.1911
G01 X187.4458 Y265.1869
G01 X187.3337 Y265.1911
G01 X187.2223 Y265.2037
G01 X187.1120 Y265.2245
G01 X187.0037 Y265.2536
G01 X186.8978 Y265.2906
G01 X186.7950 Y265.3355
G01 X186.6958 Y265.3879
G01 X186.6008 Y265.4476
G01 X186.5106 Y265.5142
G01 X186.4256 Y265.5874
G01 X186.3463 Y265.6667
G01 X186.2731 Y265.7517
G01 X186.2065 Y265.8419
G01 X186.1468 Y265.9369
G01 X186.0944 Y266.0361
G01 X186.0495 Y266.1389
G01 X186.0125 Y266.2448
G01 X185.9834 Y266.3531
G01 X185.9626 Y266.4634
G01 X185.9500 Y266.5748
G01 X185.9458 Y266.6869
G01 X185.9500 Y266.7990
G01 X185.9626 Y266.9105
G01 X185.9834 Y267.0207
G01 X186.0125 Y267.1290
G01 X186.0495 Y267.2349
G01 X186.0944 Y267.3377
G01 X186.1468 Y267.4369
G01 X186.2065 Y267.5319
G01 X186.2731 Y267.6221
G01 X186.3463 Y267.7072
G01 X186.4256 Y267.7865
G01 X186.5106 Y267.8596
G01 X186.6008 Y267.9263
G01 X186.6958 Y267.9859
G01 X186.7950 Y268.0384
G01 X186.8978 Y268.0832
G01 X187.0037 Y268.1203
G01 X187.1120 Y268.1493
G01 X187.2223 Y268.1701
G01 X187.3337 Y268.1827
G01 X187.4458 Y268.1869
G01 X187.5579 Y268.1827
G01 X187.6694 Y268.1701
G01 X187.7796 Y268.1493
G01 X187.8879 Y268.1203
G01 X187.9938 Y268.0832
G01 X188.0966 Y268.0384
G01 X188.1958 Y267.9859
G01 X188.2908 Y267.9263
G01 X188.3810 Y267.8596
G01 X188.4661 Y267.7865
G01 X188.5454 Y267.7072
G01 X188.6185 Y267.6221
G01 X188.6852 Y267.5319
G01 X188.7448 Y267.4369
G01 X188.7973 Y267.3377
G01 X188.8421 Y267.2349
G01 X188.8792 Y267.1290
G01 X188.9082 Y267.0207
G01 X188.9290 Y266.9105
G01 X188.9416 Y266.7990
G01 X188.9458 Y266.6869
G01 X188.9412 Y266.5823
G01 X188.9276 Y266.4785
G01 X188.9049 Y266.3763
G01 X188.8734 Y266.2765
G01 X188.8334 Y266.1798
G01 X188.7850 Y266.0869
G01 X188.7288 Y265.9986
G01 X188.6651 Y265.9156
G01 X188.5943 Y265.8384
G01 X188.5171 Y265.7677
G01 X188.4341 Y265.7039
G01 X188.3458 Y265.6477
G01 X188.2529 Y265.5994
G01 X188.1562 Y265.5593
G01 X188.0564 Y265.5278
G01 X187.9542 Y265.5052
G01 X187.8504 Y265.4915
G01 X187.7458 Y265.4869
G01 X187.6412 Y265.4915
G01 X187.5374 Y265.5052
G01 X187.4352 Y265.5278
G01 X187.3354 Y265.5593
G01 X187.2387 Y265.5994
G01 X187.1458 Y265.6477
G01 X187.0575 Y265.7039
G01 X186.9745 Y265.7677
G01 X186.8973 Y265.8384
G01 X186.8266 Y265.9156
G01 X186.7628 Y265.9986
G01 X186.7066 Y266.0869
G01 X186.6582 Y266.1798
G01 X186.6182 Y266.2765
G01 X186.5867 Y266.3763
G01 X186.5640 Y266.4785
G01 X186.5504 Y266.5823
G01 X186.5458 Y266.6869
G01 X186.5470 Y266.7340
G01 X186.5507 Y266.7810
G01 X186.5569 Y266.8277
G01 X186.5655 Y266.8740
G01 X186.5765 Y266.9199
G01 X186.5899 Y266.9650
G01 X186.6056 Y267.0094
G01 X186.6236 Y267.0530
G01 X186.6439 Y267.0955
G01 X186.6664 Y267.1369
G01 X186.6910 Y267.1771
G01 X186.7177 Y267.2159
G01 X186.7464 Y267.2533
G01 X186.7770 Y267.2891
G01 X186.8094 Y267.3233
G01 X186.8436 Y267.3557
G01 X186.8794 Y267.3863
G01 X186.9168 Y267.4150
G01 X186.9556 Y267.4417
G01 X186.9958 Y267.4663
G01 X187.0372 Y267.4888
G01 X187.0798 Y267.5091
G01 X187.1233 Y267.5271
G01 X187.1677 Y267.5429
G01 X187.2129 Y267.5563
G01 X187.2587 Y267.5673
G01 X187.3050 Y267.5758
G01 X187.3517 Y267.5820
G01 X187.3987 Y267.5857
G01 X187.4458 Y267.5869
G01 X187.4929 Y267.5857
G01 X187.5399 Y267.5820
G01 X187.5866 Y267.5758
G01 X187.6329 Y267.5673
G01 X187.6788 Y267.5563
G01 X187.7239 Y267.5429
G01 X187.7683 Y267.5271
G01 X187.8119 Y267.5091
G01 X187.8544 Y267.4888
G01 X187.8958 Y267.4663
G01 X187.9360 Y267.4417
G01 X187.9748 Y267.4150
G01 X188.0122 Y267.3863
G01 X188.0480 Y267.3557
G01 X188.0822 Y267.3233
G01 X188.1146 Y267.2891
G01 X188.1452 Y267.2533
G01 X188.1739 Y267.2159
G01 X188.2006 Y267.1771
G01 X188.2252 Y267.1369
G01 X188.2477 Y267.0955
G01 X188.2680 Y267.0530
G01 X188.2860 Y267.0094
G01 X188.3018 Y266.9650
G01 X188.3151 Y266.9199
G01 X188.3261 Y266.8740
G01 X188.3347 Y266.8277
G01 X188.3409 Y266.7810
G01 X188.3446 Y266.7340
G01 X188.3458 Y266.6869
M107
M106 S240
G01 X188.3446 Y266.6398 Z-2.2183 F400
G01 X188.3409 Y266.5928 Z-2.2367
G01 X188.3347 Y266.5461 Z-2.2550
G01 X188.3261 Y266.4998 Z-2.2733
G01 X188.3151 Y266.4540 Z-2.2917
G01 X188.3018 Y266.4088 Z-2.3100
G01 X188.2860 Y266.3644 Z-2.3283
G01 X188.2680 Y266.3209 Z-2.3467
G01 X188.2477 Y266.2783 Z-2.3650
G01 X188.2252 Y266.2369 Z-2.3833
G01 X188.2006 Y266.1967 Z-2.4017
G01 X188.1739 Y266.1579 Z-2.4200
G01 X188.1452 Y266.1205 Z-2.4383
G01 X188.1146 Y266.0847 Z-2.4567
G01 X188.0822 Y266.0505 Z-2.4750
G01 X188.0480 Y266.0181 Z-2.4933
G01 X188.0122 Y265.9875 Z-2.5117
G01 X187.9748 Y265.9588 Z-2.5300
G01 X187.9360 Y265.9321 Z-2.5483
G01 X187.8958 Y265.9075 Z-2.5667
G01 X187.8544 Y265.8850 Z-2.5850
G01 X187.8119 Y265.8647 Z-2.6033
G01 X187.7683 Y265.8467 Z-2.6217
G01 X187.7239 Y265.8310 Z-2.6400
G01 X187.6788 Y265.8176 Z-2.6583
G01 X187.6329 Y265.8066 Z-2.6767
G01 X187.5866 Y265.7980 Z-2.6950
G01 X187.5399 Y265.7918 Z-2.7133
G01 X187.4929 Y265.7882 Z-2.7317
G01 X187.4458 Y265.7869 Z-2.7500
G01 X187.3987 Y265.7882 Z-2.7683
G01 X187.3517 Y265.7918 Z-2.7867
G01 X187.3050 Y265.7980 Z-2.8050
G01 X187.2587 Y265.8066 Z-2.8233
G01 X187.2129 Y265.8176 Z-2.8417
G01 X187.1677 Y265.8310 Z-2.8600
G01 X187.1233 Y265.8467 Z-2.8783
G01 X187.0798 Y265.8647 Z-2.8967
G01 X187.0372 Y265.8850 Z-2.9150
G01 X186.9958 Y265.9075 Z-2.9333
G01 X186.9556 Y265.9321 Z-2.9517
G01 X186.9168 Y265.9588 Z-2.9700
G01 X186.8794 Y265.9875 Z-2.9883
G01 X186.8436 Y266.0181 Z-3.0067
G01 X186.8094 Y266.0505 Z-3.0250
G01 X186.7770 Y266.0847 Z-3.0433
G01 X186.7464 Y266.1205 Z-3.0617
G01 X186.7177 Y266.1579 Z-3.0800
G01 X186.6910 Y266.1967 Z-3.0983
G01 X186.6664 Y266.2369 Z-3.1167
G01 X186.6439 Y266.2783 Z-3.1350
G01 X186.6236 Y266.3209 Z-3.1533
G01 X186.6056 Y266.3644 Z-3.1717
G01 X186.5899 Y266.4088 Z-3.1900
G01 X186.5765 Y266.4540 Z-3.2083
G01 X186.5655 Y266.4998 Z-3.2267
G01 X186.5569 Y266.5461 Z-3.2450
G01 X186.5507 Y266.5928 Z-3.2633
G01 X186.5470 Y266.6398 Z-3.2817
G01 X186.5458 Y266.6869 Z-3.3000
G01 X186.5470 Y266.7340 Z-3.3183
G01 X186.5507 Y266.7810 Z-3.3367
G01 X186.5569 Y266.8277 Z-3.3550
G01 X186.5655 Y266.8740 Z-3.3733
G01 X186.5765 Y266.9199 Z-3.3917
G01 X186.5899 Y266.9650 Z-3.4100
G01 X186.6056 Y267.0094 Z-3.4283
G01 X186.6236 Y267.0530 Z-3.4467
G01 X186.6439 Y267.0955 Z-3.4650
G01 X186.6664 Y267.1369 Z-3.4833
G01 X186.6910 Y267.1771 Z-3.5017
G01 X186.7177 Y267.2159 Z-3.5200
G01 X186.7464 Y267.2533 Z-3.5383
G01 X186.7770 Y267.2891 Z-3.5567
G01 X186.8094 Y267.3233 Z-3.5750
G01 X186.8436 Y267.3557 Z-3.5933
G01 X186.8794 Y267.3863 Z-3.6117
G01 X186.9168 Y267.4150 Z-3.6300
G01 X186.9556 Y267.4417 Z-3.6483
G01 X186.9958 Y267.4663 Z-3.6667
G01 X187.0372 Y267.4888 Z-3.6850
G01 X187.0798 Y267.5091 Z-3.7033
G01 X187.1233 Y267.5271 Z-3.7217
G01 X187.1677 Y267.5429 Z-3.7400
G01 X187.2129 Y267.5563 Z-3.7583
G01 X187.2587 Y267.5673 Z-3.7767
G01 X187.3050 Y267.5758 Z-3.7950
G01 X187.3517 Y267.5820 Z-3.8133
G01 X187.3987 Y267.5857 Z-3.8317
G01 X187.4458 Y267.5869 Z-3.8500
G01 X187.4929 Y267.5857 Z-3.8683
G01 X187.5399 Y267.5820 Z-3.8867
G01 X187.5866 Y267.5758 Z-3.9050
G01 X187.6329 Y267.5673 Z-3.9233
G01 X187.6788 Y267.5563 Z-3.9417
G01 X187.7239 Y267.5429 Z-3.9600
G01 X187.7683 Y267.5271 Z-3.9783
G01 X187.8119 Y267.5091 Z-3.9967
G01 X187.8544 Y267.4888 Z-4.0150
G01 X187.8958 Y267.4663 Z-4.0333
G01 X187.9360 Y267.4417 Z-4.0517
G01 X187.9748 Y267.4150 Z-4.0700
G01 X188.0122 Y267.3863 Z-4.0883
G01 X188.0480 Y267.3557 Z-4.1067
G01 X188.0822 Y267.3233 Z-4.1250
G01 X188.1146 Y267.2891 Z-4.1433
G01 X188.1452 Y267.2533 Z-4.1617
G01 X188.1739 Y267.2159 Z-4.1800
G01 X188.2006 Y267.1771 Z-4.1983
G01 X188.2252 Y267.1369 Z-4.2167
G01 X188.2477 Y267.0955 Z-4.2350
G01 X188.2680 Y267.0530 Z-4.2533
G01 X188.2860 Y267.0094 Z-4.2717
G01 X188.3018 Y266.9650 Z-4.2900
G01 X188.3151 Y266.9199 Z-4.3083
G01 X188.3261 Y266.8740 Z-4.3267
G01 X188.3347 Y266.8277 Z-4.3450
G01 X188.3409 Y266.7810 Z-4.3633
G01 X188.3446 Y266.7340 Z-4.3817
G01 X188.3458 Y266.6869 Z-4.4000
G01 X188.3446 Y266.6398
G01 X188.3409 Y266.5928
G01 X188.3347 Y266.5461
G01 X188.3261 Y266.4998
G01 X188.3151 Y266.4540
G01 X188.3018 Y266.4088
G01 X188.2860 Y266.3644
G01 X188.2680 Y266.3209
G01 X188.2477 Y266.2783
G01 X188.2252 Y266.2369
G01 X188.2006 Y266.1967
G01 X188.1739 Y266.1579
G01 X188.1452 Y266.1205
G01 X188.1146 Y266.0847
G01 X188.0822 Y266.0505
G01 X188.0480 Y266.0181
G01 X188.0122 Y265.9875
G01 X187.9748 Y265.9588
G01 X187.9360 Y265.9321
G01 X187.8958 Y265.9075
G01 X187.8544 Y265.8850
G01 X187.8119 Y265.8647
G01 X187.7683 Y265.8467
G01 X187.7239 Y265.8310
G01 X187.6788 Y265.8176
G01 X187.6329 Y265.8066
G01 X187.5866 Y265.7980
G01 X187.5399 Y265.7918
G01 X187.4929 Y265.7882
G01 X187.4458 Y265.7869
G01 X187.3987 Y265.7882
G01 X187.3517 Y265.7918
G01 X187.3050 Y265.7980
G01 X187.2587 Y265.8066
G01 X187.2129 Y265.8176
G01 X187.1677 Y265.8310
G01 X187.1233 Y265.8467
G01 X187.0798 Y265.8647
G01 X187.0372 Y265.8850
G01 X186.9958 Y265.9075
G01 X186.9556 Y265.9321
G01 X186.9168 Y265.9588
G01 X186.8794 Y265.9875
G01 X186.8436 Y266.0181
G01 X186.8094 Y266.0505
G01 X186.7770 Y266.0847
G01 X186.7464 Y266.1205
G01 X186.7177 Y266.1579
G01 X186.6910 Y266.1967
G01 X186.6664 Y266.2369
G01 X186.6439 Y266.2783
G01 X186.6236 Y266.3209
G01 X186.6056 Y266.3644
G01 X186.5899 Y266.4088
G01 X186.5765 Y266.4540
G01 X186.5655 Y266.4998
G01 X186.5569 Y266.5461
G01 X186.5507 Y266.5928
G01 X186.5470 Y266.6398
G01 X186.5458 Y266.6869
G01 X186.5470 Y266.7340
G01 X186.5507 Y266.7810
G01 X186.5569 Y266.8277
G01 X186.5655 Y266.8740
G01 X186.5765 Y266.9199
G01 X186.5899 Y266.9650
G01 X186.6056 Y267.0094
G01 X186.6236 Y267.0530
G01 X186.6439 Y267.0955
G01 X186.6664 Y267.1369
G01 X186.6910 Y267.1771
G01 X186.7177 Y267.2159
G01 X186.7464 Y267.2533
G01 X186.7770 Y267.2891
G01 X186.8094 Y267.3233
G01 X186.8436 Y267.3557
G01 X186.8794 Y267.3863
G01 X186.9168 Y267.4150
G01 X186.9556 Y267.4417
G01 X186.9958 Y267.4663
G01 X187.0372 Y267.4888
G01 X187.0798 Y267.5091
G01 X187.1233 Y267.5271
G01 X187.1677 Y267.5429
G01 X187.2129 Y267.5563
G01 X187.2587 Y267.5673
G01 X187.3050 Y267.5758
G01 X187.3517 Y267.5820
G01 X187.3987 Y267.5857
G01 X187.4458 Y267.5869
G01 X187.4929 Y267.5857
G01 X187.5399 Y267.5820
G01 X187.5866 Y267.5758
G01 X187.6329 Y267.5673
G01 X187.6788 Y267.5563
G01 X187.7239 Y267.5429
G01 X187.7683 Y267.5271
G01 X187.8119 Y267.5091
G01 X187.8544 Y267.4888
G01 X187.8958 Y267.4663
G01 X187.9360 Y267.4417
G01 X187.9748 Y267.4150
G01 X188.0122 Y267.3863
G01 X188.0480 Y267.3557
G01 X188.0822 Y267.3233
G01 X188.1146 Y267.2891
G01 X188.1452 Y267.2533
G01 X188.1739 Y267.2159
G01 X188.2006 Y267.1771
G01 X188.2252 Y267.1369
G01 X188.2477 Y267.0955
G01 X188.2680 Y267.0530
G01 X188.2860 Y267.0094
G01 X188.3018 Y266.9650
G01 X188.3151 Y266.9199
G01 X188.3261 Y266.8740
G01 X188.3347 Y266.8277
G01 X188.3409 Y266.7810
G01 X188.3446 Y266.7340
G01 X188.3458 Y266.6869
G01 X188.3552 Y266.6405 F1000
G01 X188.3623 Y266.5937
G01 X188.3669 Y266.5466
G01 X188.3691 Y266.4993
G01 X188.3688 Y266.4520
G01 X188.3661 Y266.4047
G01 X188.3610 Y266.3577
G01 X188.3535 Y266.3109
G01 X188.3428 Y266.2608
G01 X188.3295 Y266.2112
G01 X188.3138 Y266.1624
G01 X188.2955 Y266.1145
G01 X188.2749 Y266.0675
G01 X188.2518 Y266.0217
G01 X188.2265 Y265.9771
G01 X188.1989 Y265.9338
G01 X188.1668 Y265.8888
G01 X188.1325 Y265.8455
G01 X188.0961 Y265.8039
G01 X188.0576 Y265.7643
G01 X188.0171 Y265.7267
G01 X187.9748 Y265.6911
G01 X187.9307 Y265.6578
G01 X187.8849 Y265.6268
G01 X187.8343 Y265.5960
G01 X187.7822 Y265.5678
G01 X187.7287 Y265.5423
G01 X187.6740 Y265.5196
G01 X187.6182 Y265.4996
G01 X187.5615 Y265.4825
G01 X187.5040 Y265.4682
G01 X187.4458 Y265.4569
G01 X187.3832 Y265.4480
G01 X187.3202 Y265.4422
G01 X187.2570 Y265.4396
G01 X187.1938 Y265.4402
G01 X187.1307 Y265.4440
G01 X187.0678 Y265.4510
G01 X187.0054 Y265.4611
G01 X186.9435 Y265.4743
G01 X186.8786 Y265.4917
G01 X186.8146 Y265.5123
G01 X186.7517 Y265.5361
G01 X186.6901 Y265.5630
G01 X186.6299 Y265.5930
G01 X186.5713 Y265.6260
G01 X186.5144 Y265.6618
G01 X186.4594 Y265.7005
G01 X186.4032 Y265.7444
G01 X186.3494 Y265.7910
G01 X186.2979 Y265.8402
G01 X186.2489 Y265.8920
G01 X186.2026 Y265.9461
G01 X186.1591 Y266.0025
G01 X186.1184 Y266.0610
G01 X186.0808 Y266.1215
G01 X186.0519 Y266.1887
G01 X186.0263 Y266.2572
G01 X186.0041 Y266.3269
G01 X185.9854 Y266.3976
G01 X185.9702 Y266.4691
G01 X185.9585 Y266.5413
G01 X185.9504 Y266.6139
G01 X185.9458 Y266.6869
G01 X185.9476 Y266.7605
G01 X185.9531 Y266.8339
G01 X185.9621 Y266.9070
G01 X185.9747 Y266.9795
G01 X185.9908 Y267.0514
G01 X186.0104 Y267.1223
G01 X186.0335 Y267.1922
G01 X186.0600 Y267.2609
G01 X186.0898 Y267.3282
G01 X186.1230 Y267.3940
G01 X186.1592 Y267.4581
G01 X186.1986 Y267.5203
G01 X186.2410 Y267.5805
G01 X186.2863 Y267.6385
G01 X186.3344 Y267.6942
G01 X186.3852 Y267.7476
G01 X186.4385 Y267.7983
G01 X186.4942 Y267.8464
G01 X186.5523 Y267.8917
G01 X186.6125 Y267.9341
G01 X186.6747 Y267.9735
G01 X186.7387 Y268.0098
G01 X186.8045 Y268.0429
G01 X186.8718 Y268.0727
G01 X186.9405 Y268.0992
G01 X187.0104 Y268.1223
G01 X187.0813 Y268.1419
G01 X187.1532 Y268.1581
G01 X187.2257 Y268.1707
G01 X187.2988 Y268.1797
G01 X187.3722 Y268.1851
G01 X187.4458 Y268.1869
G01 X187.5194 Y268.1851
G01 X187.5928 Y268.1797
G01 X187.6659 Y268.1707
G01 X187.7384 Y268.1581
G01 X187.8103 Y268.1419
G01 X187.8812 Y268.1223
G01 X187.9511 Y268.0992
G01 X188.0198 Y268.0727
G01 X188.0871 Y268.0429
G01 X188.1529 Y268.0098
G01 X188.2170 Y267.9735
G01 X188.2792 Y267.9341
G01 X188.3394 Y267.8917
G01 X188.3974 Y267.8464
G01 X188.4531 Y267.7983
G01 X188.5065 Y267.7476
G01 X188.5572 Y267.6942
G01 X188.6053 Y267.6385
G01 X188.6506 Y267.5805
G01 X188.6930 Y267.5203
G01 X188.7324 Y267.4581
G01 X188.7687 Y267.3940
G01 X188.8018 Y267.3282
G01 X188.8316 Y267.2609
G01 X188.8581 Y267.1922
G01 X188.8812 Y267.1223
G01 X188.9008 Y267.0514
G01 X188.9170 Y266.9795
G01 X188.9296 Y266.9070
G01 X188.9386 Y266.8339
G01 X188.9440 Y266.7605
G01 X188.9458 Y266.6869
G01 X188.9416 Y266.5748
G01 X188.9290 Y266.4634
G01 X188.9082 Y266.3531
G01 X188.8792 Y266.2448
G01 X188.8421 Y266.1389
G01 X188.7973 Y266.0361
G01 X188.7448 Y265.9369
G01 X188.6852 Y265.8419
G01 X188.6185 Y265.7517
G01 X188.5454 Y265.6667
G01 X188.4661 Y265.5874
G01 X188.3810 Y265.5142
G01 X188.2908 Y265.4476
G01 X188.1958 Y265.3879
G01 X188.0966 Y265.3355
G01 X187.9938 Y265.2906
G01 X187.8879 Y265.2536
G01 X187.7796 Y265.2245
G01 X187.6694 Y265.2037
G01 X187.5579 Y265.1911
G01 X187.4458 Y265.1869
G01 X187.3337 Y265.1911
G01 X187.2223 Y265.2037
G01 X187.1120 Y265.2245
G01 X187.0037 Y265.2536
G01 X186.8978 Y265.2906
G01 X186.7950 Y265.3355
G01 X186.6958 Y265.3879
G01 X186.6008 Y265.4476
G01 X186.5106 Y265.5142
G01 X186.4256 Y265.5874
G01 X186.3463 Y265.6667
G01 X186.2731 Y265.7517
G01 X186.2065 Y265.8419
G01 X186.1468 Y265.9369
G01 X186.0944 Y266.0361
G01 X186.0495 Y266.1389
G01 X186.0125 Y266.2448
G01 X185.9834 Y266.3531
G01 X185.9626 Y266.4634
G01 X185.9500 Y266.5748
G01 X185.9458 Y266.6869
G01 X185.9500 Y266.7990
G01 X185.9626 Y266.9105
G01 X185.9834 Y267.0207
G01 X186.0125 Y267.1290
G01 X186.0495 Y267.2349
G01 X186.0944 Y267.3377
G01 X186.1468 Y267.4369
G01 X186.2065 Y267.5319
G01 X186.2731 Y267.6221
G01 X186.3463 Y267.7072
G01 X186.4256 Y267.7865
G01 X186.5106 Y267.8596
G01 X186.6008 Y267.9263
G01 X186.6958 Y267.9859
G01 X186.7950 Y268.0384
G01 X186.8978 Y268.0832
G01 X187.0037 Y268.1203
G01 X187.1120 Y268.1493
G01 X187.2223 Y268.1701
G01 X187.3337 Y268.1827
G01 X187.4458 Y268.1869
G01 X187.5579 Y268.1827
G01 X187.6694 Y268.1701
G01 X187.7796 Y268.1493
G01 X187.8879 Y268.1203
G01 X187.9938 Y268.0832
G01 X188.0966 Y268.0384
G01 X188.1958 Y267.9859
G01 X188.2908 Y267.9263
G01 X188.3810 Y267.8596
G01 X188.4661 Y267.7865
G01 X188.5454 Y267.7072
G01 X188.6185 Y267.6221
G01 X188.6852 Y267.5319
G01 X188.7448 Y267.4369
G01 X188.7973 Y267.3377
G01 X188.8421 Y267.2349
G01 X188.8792 Y267.1290
G01 X188.9082 Y267.0207
G01 X188.9290 Y266.9105
G01 X188.9416 Y266.7990
G01 X188.9458 Y266.6869
G01 X188.9412 Y266.5823
G01 X188.9276 Y266.4785
G01 X188.9049 Y266.3763
G01 X188.8734 Y266.2765
G01 X188.8334 Y266.1798
G01 X188.7850 Y266.0869
G01 X188.7288 Y265.9986
G01 X188.6651 Y265.9156
G01 X188.5943 Y265.8384
G01 X188.5171 Y265.7677
G01 X188.4341 Y265.7039
G01 X188.3458 Y265.6477
G01 X188.2529 Y265.5994
G01 X188.1562 Y265.5593
G01 X188.0564 Y265.5278
G01 X187.9542 Y265.5052
G01 X187.8504 Y265.4915
G01 X187.7458 Y265.4869
G01 X187.6412 Y265.4915
G01 X187.5374 Y265.5052
G01 X187.4352 Y265.5278
G01 X187.3354 Y265.5593
G01 X187.2387 Y265.5994
G01 X187.1458 Y265.6477
G01 X187.0575 Y265.7039
G01 X186.9745 Y265.7677
G01 X186.8973 Y265.8384
G01 X186.8266 Y265.9156
G01 X186.7628 Y265.9986
G01 X186.7066 Y266.0869
G01 X186.6582 Y266.1798
G01 X186.6182 Y266.2765
G01 X186.5867 Y266.3763
G01 X186.5640 Y266.4785
G01 X186.5504 Y266.5823
G01 X186.5458 Y266.6869
G01 X186.5470 Y266.7340
G01 X186.5507 Y266.7810
G01 X186.5569 Y266.8277
G01 X186.5655 Y266.8740
G01 X186.5765 Y266.9199
G01 X186.5899 Y266.9650
G01 X186.6056 Y267.0094
G01 X186.6236 Y267.0530
G01 X186.6439 Y267.0955
G01 X186.6664 Y267.1369
G01 X186.6910 Y267.1771
G01 X186.7177 Y267.2159
G01 X186.7464 Y267.2533
G01 X186.7770 Y267.2891
G01 X186.8094 Y267.3233
G01 X186.8436 Y267.3557
G01 X186.8794 Y267.3863
G01 X186.9168 Y267.4150
G01 X186.9556 Y267.4417
G01 X186.9958 Y267.4663
G01 X187.0372 Y267.4888
G01 X187.0798 Y267.5091
G01 X187.1233 Y267.5271
G01 X187.1677 Y267.5429
G01 X187.2129 Y267.5563
G01 X187.2587 Y267.5673
G01 X187.3050 Y267.5758
G01 X187.3517 Y267.5820
G01 X187.3987 Y267.5857
G01 X187.4458 Y267.5869
G01 X187.4929 Y267.5857
G01 X187.5399 Y267.5820
G01 X187.5866 Y267.5758
G01 X187.6329 Y267.5673
G01 X187.6788 Y267.5563
G01 X187.7239 Y267.5429
G01 X187.7683 Y267.5271
G01 X187.8119 Y267.5091
G01 X187.8544 Y267.4888
G01 X187.8958 Y267.4663
G01 X187.9360 Y267.4417
G01 X187.9748 Y267.4150
G01 X188.0122 Y267.3863
G01 X188.0480 Y267.3557
G01 X188.0822 Y267.3233
G01 X188.1146 Y267.2891
G01 X188.1452 Y267.2533
G01 X188.1739 Y267.2159
G01 X188.2006 Y267.1771
G01 X188.2252 Y267.1369
G01 X188.2477 Y267.0955
G01 X188.2680 Y267.0530
G01 X188.2860 Y267.0094
G01 X188.3018 Y266.9650
G01 X188.3151 Y266.9199
G01 X188.3261 Y266.8740
G01 X188.3347 Y266.8277
G01 X188.3409 Y266.7810
G01 X188.3446 Y266.7340
G01 X188.3458 Y266.6869
M107
M106 S240
G01 X188.3446 Y266.6398 Z-4.4133 F400
G01 X188.3409 Y266.5928 Z-4.4267
G01 X188.3347 Y266.5461 Z-4.4400
G01 X188.3261 Y266.4998 Z-4.4533
G01 X188.3151 Y266.4540 Z-4.4667
G01 X188.3018 Y266.4088 Z-4.4800
G01 X188.2860 Y266.3644 Z-4.4933
G01 X188.2680 Y266.3209 Z-4.5067
G01 X188.2477 Y266.2783 Z-4.5200
G01 X188.2252 Y266.2369 Z-4.5333
G01 X188.2006 Y266.1967 Z-4.5467
G01 X188.1739 Y266.1579 Z-4.5600
G01 X188.1452 Y266.1205 Z-4.5733
G01 X188.1146 Y266.0847 Z-4.5867
G01 X188.0822 Y266.0505 Z-4.6000
G01 X188.0480 Y266.0181 Z-4.6133
G01 X188.0122 Y265.9875 Z-4.6267
G01 X187.9748 Y265.9588 Z-4.6400
G01 X187.9360 Y265.9321 Z-4.6533
G01 X187.8958 Y265.9075 Z-4.6667
G01 X187.8544 Y265.8850 Z-4.6800
G01 X187.8119 Y265.8647 Z-4.6933
G01 X187.7683 Y265.8467 Z-4.7067
G01 X187.7239 Y265.8310 Z-4.7200
G01 X187.6788 Y265.8176 Z-4.7333
G01 X187.6329 Y265.8066 Z-4.7467
G01 X187.5866 Y265.7980 Z-4.7600
G01 X187.5399 Y265.7918 Z-4.7733
G01 X187.4929 Y265.7882 Z-4.7867
G01 X187.4458 Y265.7869 Z-4.8000
G01 X187.3987 Y265.7882 Z-4.8133
G01 X187.3517 Y265.7918 Z-4.8267
G01 X187.3050 Y265.7980 Z-4.8400
G01 X187.2587 Y265.8066 Z-4.8533
G01 X187.2129 Y265.8176 Z-4.8667
G01 X187.1677 Y265.8310 Z-4.8800
G01 X187.1233 Y265.8467 Z-4.8933
G01 X187.0798 Y265.8647 Z-4.9067
G01 X187.0372 Y265.8850 Z-4.9200
G01 X186.9958 Y265.9075 Z-4.9333
G01 X186.9556 Y265.9321 Z-4.9467
G01 X186.9168 Y265.9588 Z-4.9600
G01 X186.8794 Y265.9875 Z-4.9733
G01 X186.8436 Y266.0181 Z-4.9867
G01 X186.8094 Y266.0505 Z-5.0000
G01 X186.7770 Y266.0847 Z-5.0133
G01 X186.7464 Y266.1205 Z-5.0267
G01 X186.7177 Y266.1579 Z-5.0400
G01 X186.6910 Y266.1967 Z-5.0533
G01 X186.6664 Y266.2369 Z-5.0667
G01 X186.6439 Y266.2783 Z-5.0800
G01 X186.6236 Y266.3209 Z-5.0933
G01 X186.6056 Y266.3644 Z-5.1067
G01 X186.5899 Y266.4088 Z-5.1200
G01 X186.5765 Y266.4540 Z-5.1333
G01 X186.5655 Y266.4998 Z-5.1467
G01 X186.5569 Y266.5461 Z-5.1600
G01 X186.5507 Y266.5928 Z-5.1733
G01 X186.5470 Y266.6398 Z-5.1867
G01 X186.5458 Y266.6869 Z-5.2000
G01 X186.5470 Y266.7340 Z-5.2133
G01 X186.5507 Y266.7810 Z-5.2267
G01 X186.5569 Y266.8277 Z-5.2400
G01 X186.5655 Y266.8740 Z-5.2533
G01 X186.5765 Y266.9199 Z-5.2667
G01 X186.5899 Y266.9650 Z-5.2800
G01 X186.6056 Y267.0094 Z-5.2933
G01 X186.6236 Y267.0530 Z-5.3067
G01 X186.6439 Y267.0955 Z-5.3200
G01 X186.6664 Y267.1369 Z-5.3333
G01 X186.6910 Y267.1771 Z-5.3467
G01 X186.7177 Y267.2159 Z-5.3600
G01 X186.7464 Y267.2533 Z-5.3733
G01 X186.7770 Y267.2891 Z-5.3867
G01 X186.8094 Y267.3233 Z-5.4000
G01 X186.8436 Y267.3557 Z-5.4133
G01 X186.8794 Y267.3863 Z-5.4267
G01 X186.9168 Y267.4150 Z-5.4400
G01 X186.9556 Y267.4417 Z-5.4533
G01 X186.9958 Y267.4663 Z-5.4667
G01 X187.0372 Y267.4888 Z-5.4800
G01 X187.0798 Y267.5091 Z-5.4933
G01 X187.1233 Y267.5271 Z-5.5067
G01 X187.1677 Y267.5429 Z-5.5200
G01 X187.2129 Y267.5563 Z-5.5333
G01 X187.2587 Y267.5673 Z-5.5467
G01 X187.3050 Y267.5758 Z-5.5600
G01 X187.3517 Y267.5820 Z-5.5733
G01 X187.3987 Y267.5857 Z-5.5867
G01 X187.4458 Y267.5869 Z-5.6000
G01 X187.4929 Y267.5857 Z-5.6133
G01 X187.5399 Y267.5820 Z-5.6267
G01 X187.5866 Y267.5758 Z-5.6400
G01 X187.6329 Y267.5673 Z-5.6533
G01 X187.6788 Y267.5563 Z-5.6667
G01 X187.7239 Y267.5429 Z-5.6800
G01 X187.7683 Y267.5271 Z-5.6933
G01 X187.8119 Y267.5091 Z-5.7067
G01 X187.8544 Y267.4888 Z-5.7200
G01 X187.8958 Y267.4663 Z-5.7333
G01 X187.9360 Y267.4417 Z-5.7467
G01 X187.9748 Y267.4150 Z-5.7600
G01 X188.0122 Y267.3863 Z-5.7733
G01 X188.0480 Y267.3557 Z-5.7867
G01 X188.0822 Y267.3233 Z-5.8000
G01 X188.1146 Y267.2891 Z-5.8133
G01 X188.1452 Y267.2533 Z-5.8267
G01 X188.1739 Y267.2159 Z-5.8400
G01 X188.2006 Y267.1771 Z-5.8533
G01 X188.2252 Y267.1369 Z-5.8667
G01 X188.2477 Y267.0955 Z-5.8800
G01 X188.2680 Y267.0530 Z-5.8933
G01 X188.2860 Y267.0094 Z-5.9067
G01 X188.3018 Y266.9650 Z-5.9200
G01 X188.3151 Y266.9199 Z-5.9333
G01 X188.3261 Y266.8740 Z-5.9467
G01 X188.3347 Y266.8277 Z-5.9600
G01 X188.3409 Y266.7810 Z-5.9733
G01 X188.3446 Y266.7340 Z-5.9867
G01 X188.3458 Y266.6869 Z-6.0000
G01 X188.3446 Y266.6398
G01 X188.3409 Y266.5928
G01 X188.3347 Y266.5461
G01 X188.3261 Y266.4998
G01 X188.3151 Y266.4540
G01 X188.3018 Y266.4088
G01 X188.2860 Y266.3644
G01 X188.2680 Y266.3209
G01 X188.2477 Y266.2783
G01 X188.2252 Y266.2369
G01 X188.2006 Y266.1967
G01 X188.1739 Y266.1579
G01 X188.1452 Y266.1205
G01 X188.1146 Y266.0847
G01 X188.0822 Y266.0505
G01 X188.0480 Y266.0181
G01 X188.0122 Y265.9875
G01 X187.9748 Y265.9588
G01 X187.9360 Y265.9321
G01 X187.8958 Y265.9075
G01 X187.8544 Y265.8850
G01 X187.8119 Y265.8647
G01 X187.7683 Y265.8467
G01 X187.7239 Y265.8310
G01 X187.6788 Y265.8176
G01 X187.6329 Y265.8066
G01 X187.5866 Y265.7980
G01 X187.5399 Y265.7918
G01 X187.4929 Y265.7882
G01 X187.4458 Y265.7869
G01 X187.3987 Y265.7882
G01 X187.3517 Y265.7918
G01 X187.3050 Y265.7980
G01 X187.2587 Y265.8066
G01 X187.2129 Y265.8176
G01 X187.1677 Y265.8310
G01 X187.1233 Y265.8467
G01 X187.0798 Y265.8647
G01 X187.0372 Y265.8850
G01 X186.9958 Y265.9075
G01 X186.9556 Y265.9321
G01 X186.9168 Y265.9588
G01 X186.8794 Y265.9875
G01 X186.8436 Y266.0181
G01 X186.8094 Y266.0505
G01 X186.7770 Y266.0847
G01 X186.7464 Y266.1205
G01 X186.7177 Y266.1579
G01 X186.6910 Y266.1967
G01 X186.6664 Y266.2369
G01 X186.6439 Y266.2783
G01 X186.6236 Y266.3209
G01 X186.6056 Y266.3644
G01 X186.5899 Y266.4088
G01 X186.5765 Y266.4540
G01 X186.5655 Y266.4998
G01 X186.5569 Y266.5461
G01 X186.5507 Y266.5928
G01 X186.5470 Y266.6398
G01 X186.5458 Y266.6869
G01 X186.5470 Y266.7340
G01 X186.5507 Y266.7810
G01 X186.5569 Y266.8277
G01 X186.5655 Y266.8740
G01 X186.5765 Y266.9199
G01 X186.5899 Y266.9650
G01 X186.6056 Y267.0094
G01 X186.6236 Y267.0530
G01 X186.6439 Y267.0955
G01 X186.6664 Y267.1369
G01 X186.6910 Y267.1771
G01 X186.7177 Y267.2159
G01 X186.7464 Y267.2533
G01 X186.7770 Y267.2891
G01 X186.8094 Y267.3233
G01 X186.8436 Y267.3557
G01 X186.8794 Y267.3863
G01 X186.9168 Y267.4150
G01 X186.9556 Y267.4417
G01 X186.9958 Y267.4663
G01 X187.0372 Y267.4888
G01 X187.0798 Y267.5091
G01 X187.1233 Y267.5271
G01 X187.1677 Y267.5429
G01 X187.2129 Y267.5563
G01 X187.2587 Y267.5673
G01 X187.3050 Y267.5758
G01 X187.3517 Y267.5820
G01 X187.3987 Y267.5857
G01 X187.4458 Y267.5869
G01 X187.4929 Y267.5857
G01 X187.5399 Y267.5820
G01 X187.5866 Y267.5758
G01 X187.6329 Y267.5673
G01 X187.6788 Y267.5563
G01 X187.7239 Y267.5429
G01 X187.7683 Y267.5271
G01 X187.8119 Y267.5091
G01 X187.8544 Y267.4888
G01 X187.8958 Y267.4663
G01 X187.9360 Y267.4417
G01 X187.9748 Y267.4150
G01 X188.0122 Y267.3863
G01 X188.0480 Y267.3557
G01 X188.0822 Y267.3233
G01 X188.1146 Y267.2891
G01 X188.1452 Y267.2533
G01 X188.1739 Y267.2159
G01 X188.2006 Y267.1771
G01 X188.2252 Y267.1369
G01 X188.2477 Y267.0955
G01 X188.2680 Y267.0530
G01 X188.2860 Y267.0094
G01 X188.3018 Y266.9650
G01 X188.3151 Y266.9199
G01 X188.3261 Y266.8740
G01 X188.3347 Y266.8277
G01 X188.3409 Y266.7810
G01 X188.3446 Y266.7340
G01 X188.3458 Y266.6869
G01 X188.3552 Y266.6405 F1000
G01 X188.3623 Y266.5937
G01 X188.3669 Y266.5466
G01 X188.3691 Y266.4993
G01 X188.3688 Y266.4520
G01 X188.3661 Y266.4047
G01 X188.3610 Y266.3577
G01 X188.3535 Y266.3109
G01 X188.3428 Y266.2608
G01 X188.3295 Y266.2112
G01 X188.3138 Y266.1624
G01 X188.2955 Y266.1145
G01 X188.2749 Y266.0675
G01 X188.2518 Y266.0217
G01 X188.2265 Y265.9771
G01 X188.1989 Y265.9338
G01 X188.1668 Y265.8888
G01 X188.1325 Y265.8455
G01 X188.0961 Y265.8039
G01 X188.0576 Y265.7643
G01 X188.0171 Y265.7267
G01 X187.9748 Y265.6911
G01 X187.9307 Y265.6578
G01 X187.8849 Y265.6268
G01 X187.8343 Y265.5960
G01 X187.7822 Y265.5678
G01 X187.7287 Y265.5423
G01 X187.6740 Y265.5196
G01 X187.6182 Y265.4996
G01 X187.5615 Y265.4825
G01 X187.5040 Y265.4682
G01 X187.4458 Y265.4569
G01 X187.3832 Y265.4480
G01 X187.3202 Y265.4422
G01 X187.2570 Y265.4396
G01 X187.1938 Y265.4402
G01 X187.1307 Y265.4440
G01 X187.0678 Y265.4510
G01 X187.0054 Y265.4611
G01 X186.9435 Y265.4743
G01 X186.8786 Y265.4917
G01 X186.8146 Y265.5123
G01 X186.7517 Y265.5361
G01 X186.6901 Y265.5630
G01 X186.6299 Y265.5930
G01 X186.5713 Y265.6260
G01 X186.5144 Y265.6618
G01 X186.4594 Y265.7005
G01 X186.4032 Y265.7444
G01 X186.3494 Y265.7910
G01 X186.2979 Y265.8402
G01 X186.2489 Y265.8920
G01 X186.2026 Y265.9461
G01 X186.1591 Y266.0025
G01 X186.1184 Y266.0610
G01 X186.0808 Y266.1215
G01 X186.0519 Y266.1887
G01 X186.0263 Y266.2572
G01 X186.0041 Y266.3269
G01 X185.9854 Y266.3976
G01 X185.9702 Y266.4691
G01 X185.9585 Y266.5413
G01 X185.9504 Y266.6139
G01 X185.9458 Y266.6869
G01 X185.9476 Y266.7605
G01 X185.9531 Y266.8339
G01 X185.9621 Y266.9070
G01 X185.9747 Y266.9795
G01 X185.9908 Y267.0514
G01 X186.0104 Y267.1223
G01 X186.0335 Y267.1922
G01 X186.0600 Y267.2609
G01 X186.0898 Y267.3282
G01 X186.1230 Y267.3940
G01 X186.1592 Y267.4581
G01 X186.1986 Y267.5203
G01 X186.2410 Y267.5805
G01 X186.2863 Y267.6385
G01 X186.3344 Y267.6942
G01 X186.3852 Y267.7476
G01 X186.4385 Y267.7983
G01 X186.4942 Y267.8464
G01 X186.5523 Y267.8917
G01 X186.6125 Y267.9341
G01 X186.6747 Y267.9735
G01 X186.7387 Y268.0098
G01 X186.8045 Y268.0429
G01 X186.8718 Y268.0727
G01 X186.9405 Y268.0992
G01 X187.0104 Y268.1223
G01 X187.0813 Y268.1419
G01 X187.1532 Y268.1581
G01 X187.2257 Y268.1707
G01 X187.2988 Y268.1797
G01 X187.3722 Y268.1851
G01 X187.4458 Y268.1869
G01 X187.5194 Y268.1851
G01 X187.5928 Y268.1797
G01 X187.6659 Y268.1707
G01 X187.7384 Y268.1581
G01 X187.8103 Y268.1419
G01 X187.8812 Y268.1223
G01 X187.9511 Y268.0992
G01 X188.0198 Y268.0727
G01 X188.0871 Y268.0429
G01 X188.1529 Y268.0098
G01 X188.2170 Y267.9735
G01 X188.2792 Y267.9341
G01 X188.3394 Y267.8917
G01 X188.3974 Y267.8464
G01 X188.4531 Y267.7983
G01 X188.5065 Y267.7476
G01 X188.5572 Y267.6942
G01 X188.6053 Y267.6385
G01 X188.6506 Y267.5805
G01 X188.6930 Y267.5203
G01 X188.7324 Y267.4581
G01 X188.7687 Y267.3940
G01 X188.8018 Y267.3282
G01 X188.8316 Y267.2609
G01 X188.8581 Y267.1922
G01 X188.8812 Y267.1223
G01 X188.9008 Y267.0514
G01 X188.9170 Y266.9795
