;Project SexyModelYParkingOnly
;Created by Estlcam version 11 build 11,242
;Machining time about 00:15:26 hours

G90
M03 S10000
G00 Z5.0000


;No. 1: Helical drill 4
G00 X28.4036 Y28.5700
G00 Z0.5000
G01 X28.4025 Y28.5272 Z0.4836 F400 S10000
G01 X28.3995 Y28.4845 Z0.4672
G01 X28.3944 Y28.4419 Z0.4508
G01 X28.3873 Y28.3997 Z0.4343
G01 X28.3782 Y28.3578 Z0.4179
G01 X28.3671 Y28.3165 Z0.4015
G01 X28.3541 Y28.2757 Z0.3851
G01 X28.3391 Y28.2355 Z0.3687
G01 X28.3222 Y28.1961 Z0.3523
G01 X28.3035 Y28.1576 Z0.3359
G01 X28.2830 Y28.1200 Z0.3194
G01 X28.2607 Y28.0834 Z0.3030
G01 X28.2367 Y28.0480 Z0.2866
G01 X28.2110 Y28.0137 Z0.2702
G01 X28.1837 Y27.9806 Z0.2538
G01 X28.1549 Y27.9489 Z0.2374
G01 X28.1246 Y27.9187 Z0.2210
G01 X28.0929 Y27.8898 Z0.2045
G01 X28.0599 Y27.8626 Z0.1881
G01 X28.0256 Y27.8369 Z0.1717
G01 X27.9901 Y27.8129 Z0.1553
G01 X27.9536 Y27.7906 Z0.1389
G01 X27.9160 Y27.7701 Z0.1225
G01 X27.8774 Y27.7513 Z0.1061
G01 X27.8381 Y27.7345 Z0.0896
G01 X27.7979 Y27.7195 Z0.0732
G01 X27.7571 Y27.7065 Z0.0568
G01 X27.7157 Y27.6954 Z0.0404
G01 X27.6739 Y27.6863 Z0.0240
G01 X27.6316 Y27.6792 Z0.0076
G01 X27.5891 Y27.6741 Z-0.0088
G01 X27.5464 Y27.6710 Z-0.0253
G01 X27.5036 Y27.6700 Z-0.0417
G01 X27.4607 Y27.6710 Z-0.0581
G01 X27.4180 Y27.6741 Z-0.0745
G01 X27.3755 Y27.6792 Z-0.0909
G01 X27.3332 Y27.6863 Z-0.1073
G01 X27.2914 Y27.6954 Z-0.1237
G01 X27.2500 Y27.7065 Z-0.1402
G01 X27.2092 Y27.7195 Z-0.1566
G01 X27.1691 Y27.7345 Z-0.1730
G01 X27.1297 Y27.7513 Z-0.1894
G01 X27.0912 Y27.7701 Z-0.2058
G01 X27.0536 Y27.7906 Z-0.2222
G01 X27.0170 Y27.8129 Z-0.2386
G01 X26.9815 Y27.8369 Z-0.2551
G01 X26.9472 Y27.8626 Z-0.2715
G01 X26.9142 Y27.8898 Z-0.2879
G01 X26.8825 Y27.9187 Z-0.3043
G01 X26.8522 Y27.9489 Z-0.3207
G01 X26.8234 Y27.9806 Z-0.3371
G01 X26.7961 Y28.0137 Z-0.3535
G01 X26.7704 Y28.0480 Z-0.3699
G01 X26.7464 Y28.0834 Z-0.3864
G01 X26.7241 Y28.1200 Z-0.4028
G01 X26.7036 Y28.1576 Z-0.4192
G01 X26.6849 Y28.1961 Z-0.4356
G01 X26.6680 Y28.2355 Z-0.4520
G01 X26.6531 Y28.2757 Z-0.4684
G01 X26.6400 Y28.3165 Z-0.4848
G01 X26.6289 Y28.3578 Z-0.5013
G01 X26.6198 Y28.3997 Z-0.5177
G01 X26.6127 Y28.4419 Z-0.5341
G01 X26.6076 Y28.4845 Z-0.5505
G01 X26.6046 Y28.5272 Z-0.5669
G01 X26.6036 Y28.5700 Z-0.5833
G01 X26.6046 Y28.6128 Z-0.5997
G01 X26.6076 Y28.6556 Z-0.6162
G01 X26.6127 Y28.6981 Z-0.6326
G01 X26.6198 Y28.7403 Z-0.6490
G01 X26.6289 Y28.7822 Z-0.6654
G01 X26.6400 Y28.8236 Z-0.6818
G01 X26.6531 Y28.8644 Z-0.6982
G01 X26.6680 Y28.9045 Z-0.7146
G01 X26.6849 Y28.9439 Z-0.7311
G01 X26.7036 Y28.9824 Z-0.7475
G01 X26.7241 Y29.0200 Z-0.7639
G01 X26.7464 Y29.0566 Z-0.7803
G01 X26.7704 Y29.0921 Z-0.7967
G01 X26.7961 Y29.1264 Z-0.8131
G01 X26.8234 Y29.1594 Z-0.8295
G01 X26.8522 Y29.1911 Z-0.8460
G01 X26.8825 Y29.2214 Z-0.8624
G01 X26.9142 Y29.2502 Z-0.8788
G01 X26.9472 Y29.2775 Z-0.8952
G01 X26.9815 Y29.3031 Z-0.9116
G01 X27.0170 Y29.3271 Z-0.9280
G01 X27.0536 Y29.3494 Z-0.9444
G01 X27.0912 Y29.3700 Z-0.9609
G01 X27.1297 Y29.3887 Z-0.9773
G01 X27.1691 Y29.4055 Z-0.9937
G01 X27.2092 Y29.4205 Z-1.0101
G01 X27.2500 Y29.4336 Z-1.0265
G01 X27.2914 Y29.4446 Z-1.0429
G01 X27.3332 Y29.4538 Z-1.0593
G01 X27.3755 Y29.4609 Z-1.0758
G01 X27.4180 Y29.4659 Z-1.0922
G01 X27.4607 Y29.4690 Z-1.1086
G01 X27.5036 Y29.4700 Z-1.1250
G01 X27.5464 Y29.4690 Z-1.1414
G01 X27.5891 Y29.4659 Z-1.1578
G01 X27.6316 Y29.4609 Z-1.1742
G01 X27.6739 Y29.4538 Z-1.1907
G01 X27.7157 Y29.4446 Z-1.2071
G01 X27.7571 Y29.4336 Z-1.2235
G01 X27.7979 Y29.4205 Z-1.2399
G01 X27.8381 Y29.4055 Z-1.2563
G01 X27.8774 Y29.3887 Z-1.2727
G01 X27.9160 Y29.3700 Z-1.2891
G01 X27.9536 Y29.3494 Z-1.3056
G01 X27.9901 Y29.3271 Z-1.3220
G01 X28.0256 Y29.3031 Z-1.3384
G01 X28.0599 Y29.2775 Z-1.3548
G01 X28.0929 Y29.2502 Z-1.3712
G01 X28.1246 Y29.2214 Z-1.3876
G01 X28.1549 Y29.1911 Z-1.4040
G01 X28.1837 Y29.1594 Z-1.4205
G01 X28.2110 Y29.1264 Z-1.4369
G01 X28.2367 Y29.0921 Z-1.4533
G01 X28.2607 Y29.0566 Z-1.4697
G01 X28.2830 Y29.0200 Z-1.4861
G01 X28.3035 Y28.9824 Z-1.5025
G01 X28.3222 Y28.9439 Z-1.5189
G01 X28.3391 Y28.9045 Z-1.5354
G01 X28.3541 Y28.8644 Z-1.5518
G01 X28.3671 Y28.8236 Z-1.5682
G01 X28.3782 Y28.7822 Z-1.5846
G01 X28.3873 Y28.7403 Z-1.6010
G01 X28.3944 Y28.6981 Z-1.6174
G01 X28.3995 Y28.6556 Z-1.6338
G01 X28.4025 Y28.6128 Z-1.6503
G01 X28.4036 Y28.5700 Z-1.6667
G01 X28.4025 Y28.5272
G01 X28.3995 Y28.4845
G01 X28.3944 Y28.4419
G01 X28.3873 Y28.3997
G01 X28.3782 Y28.3578
G01 X28.3671 Y28.3165
G01 X28.3541 Y28.2757
G01 X28.3391 Y28.2355
G01 X28.3222 Y28.1961
G01 X28.3035 Y28.1576
G01 X28.2830 Y28.1200
G01 X28.2607 Y28.0834
G01 X28.2367 Y28.0480
G01 X28.2110 Y28.0137
G01 X28.1837 Y27.9806
G01 X28.1549 Y27.9489
G01 X28.1246 Y27.9187
G01 X28.0929 Y27.8898
G01 X28.0599 Y27.8626
G01 X28.0256 Y27.8369
G01 X27.9901 Y27.8129
G01 X27.9536 Y27.7906
G01 X27.9160 Y27.7701
G01 X27.8774 Y27.7513
G01 X27.8381 Y27.7345
G01 X27.7979 Y27.7195
G01 X27.7571 Y27.7065
G01 X27.7157 Y27.6954
G01 X27.6739 Y27.6863
G01 X27.6316 Y27.6792
G01 X27.5891 Y27.6741
G01 X27.5464 Y27.6710
G01 X27.5036 Y27.6700
G01 X27.4607 Y27.6710
G01 X27.4180 Y27.6741
G01 X27.3755 Y27.6792
G01 X27.3332 Y27.6863
G01 X27.2914 Y27.6954
G01 X27.2500 Y27.7065
G01 X27.2092 Y27.7195
G01 X27.1691 Y27.7345
G01 X27.1297 Y27.7513
G01 X27.0912 Y27.7701
G01 X27.0536 Y27.7906
G01 X27.0170 Y27.8129
G01 X26.9815 Y27.8369
G01 X26.9472 Y27.8626
G01 X26.9142 Y27.8898
G01 X26.8825 Y27.9187
G01 X26.8522 Y27.9489
G01 X26.8234 Y27.9806
G01 X26.7961 Y28.0137
G01 X26.7704 Y28.0480
G01 X26.7464 Y28.0834
G01 X26.7241 Y28.1200
G01 X26.7036 Y28.1576
G01 X26.6849 Y28.1961
G01 X26.6680 Y28.2355
G01 X26.6531 Y28.2757
G01 X26.6400 Y28.3165
G01 X26.6289 Y28.3578
G01 X26.6198 Y28.3997
G01 X26.6127 Y28.4419
G01 X26.6076 Y28.4845
G01 X26.6046 Y28.5272
G01 X26.6036 Y28.5700
G01 X26.6046 Y28.6128
G01 X26.6076 Y28.6556
G01 X26.6127 Y28.6981
G01 X26.6198 Y28.7403
G01 X26.6289 Y28.7822
G01 X26.6400 Y28.8236
G01 X26.6531 Y28.8644
G01 X26.6680 Y28.9045
G01 X26.6849 Y28.9439
G01 X26.7036 Y28.9824
G01 X26.7241 Y29.0200
G01 X26.7464 Y29.0566
G01 X26.7704 Y29.0921
G01 X26.7961 Y29.1264
G01 X26.8234 Y29.1594
G01 X26.8522 Y29.1911
G01 X26.8825 Y29.2214
G01 X26.9142 Y29.2502
G01 X26.9472 Y29.2775
G01 X26.9815 Y29.3031
G01 X27.0170 Y29.3271
G01 X27.0536 Y29.3494
G01 X27.0912 Y29.3700
G01 X27.1297 Y29.3887
G01 X27.1691 Y29.4055
G01 X27.2092 Y29.4205
G01 X27.2500 Y29.4336
G01 X27.2914 Y29.4446
G01 X27.3332 Y29.4538
G01 X27.3755 Y29.4609
G01 X27.4180 Y29.4659
G01 X27.4607 Y29.4690
G01 X27.5036 Y29.4700
G01 X27.5464 Y29.4690
G01 X27.5891 Y29.4659
G01 X27.6316 Y29.4609
G01 X27.6739 Y29.4538
G01 X27.7157 Y29.4446
G01 X27.7571 Y29.4336
G01 X27.7979 Y29.4205
G01 X27.8381 Y29.4055
G01 X27.8774 Y29.3887
G01 X27.9160 Y29.3700
G01 X27.9536 Y29.3494
G01 X27.9901 Y29.3271
G01 X28.0256 Y29.3031
G01 X28.0599 Y29.2775
G01 X28.0929 Y29.2502
G01 X28.1246 Y29.2214
G01 X28.1549 Y29.1911
G01 X28.1837 Y29.1594
G01 X28.2110 Y29.1264
G01 X28.2367 Y29.0921
G01 X28.2607 Y29.0566
G01 X28.2830 Y29.0200
G01 X28.3035 Y28.9824
G01 X28.3222 Y28.9439
G01 X28.3391 Y28.9045
G01 X28.3541 Y28.8644
G01 X28.3671 Y28.8236
G01 X28.3782 Y28.7822
G01 X28.3873 Y28.7403
G01 X28.3944 Y28.6981
G01 X28.3995 Y28.6556
G01 X28.4025 Y28.6128
G01 X28.4036 Y28.5700
G01 X28.4111 Y28.5390 F1100
G01 X28.4176 Y28.5077
G01 X28.4229 Y28.4762
G01 X28.4272 Y28.4445
G01 X28.4304 Y28.4127
G01 X28.4325 Y28.3808
G01 X28.4334 Y28.3489
G01 X28.4333 Y28.3169
G01 X28.4320 Y28.2850
G01 X28.4297 Y28.2531
G01 X28.4262 Y28.2214
G01 X28.4217 Y28.1897
G01 X28.4120 Y28.1382
G01 X28.3996 Y28.0873
G01 X28.3847 Y28.0371
G01 X28.3672 Y27.9877
G01 X28.3472 Y27.9392
G01 X28.3247 Y27.8919
G01 X28.2998 Y27.8458
G01 X28.2725 Y27.8010
G01 X28.2405 Y27.7540
G01 X28.2061 Y27.7087
G01 X28.1695 Y27.6652
G01 X28.1306 Y27.6236
G01 X28.0897 Y27.5840
G01 X28.0468 Y27.5467
G01 X28.0021 Y27.5115
G01 X27.9556 Y27.4787
G01 X27.9037 Y27.4459
G01 X27.8502 Y27.4157
G01 X27.7952 Y27.3883
G01 X27.7390 Y27.3638
G01 X27.6815 Y27.3421
G01 X27.6230 Y27.3234
G01 X27.5636 Y27.3077
G01 X27.5036 Y27.2950
G01 X27.4384 Y27.2847
G01 X27.3729 Y27.2777
G01 X27.3071 Y27.2740
G01 X27.2411 Y27.2736
G01 X27.1753 Y27.2766
G01 X27.1096 Y27.2829
G01 X27.0444 Y27.2925
G01 X26.9798 Y27.3055
G01 X26.9114 Y27.3227
G01 X26.8441 Y27.3434
G01 X26.7779 Y27.3675
G01 X26.7129 Y27.3948
G01 X26.6495 Y27.4254
G01 X26.5876 Y27.4592
G01 X26.5275 Y27.4960
G01 X26.4694 Y27.5359
G01 X26.4159 Y27.5853
G01 X26.3649 Y27.6373
G01 X26.3165 Y27.6918
G01 X26.2708 Y27.7485
G01 X26.2280 Y27.8075
G01 X26.1882 Y27.8685
G01 X26.1514 Y27.9314
G01 X26.1178 Y27.9960
G01 X26.0913 Y28.0647
G01 X26.0682 Y28.1346
G01 X26.0485 Y28.2055
G01 X26.0324 Y28.2774
G01 X26.0198 Y28.3499
G01 X26.0108 Y28.4230
G01 X26.0054 Y28.4964
G01 X26.0036 Y28.5700
G01 X26.0054 Y28.6436
G01 X26.0108 Y28.7170
G01 X26.0198 Y28.7901
G01 X26.0324 Y28.8626
G01 X26.0485 Y28.9345
G01 X26.0682 Y29.0054
G01 X26.0913 Y29.0753
G01 X26.1178 Y29.1440
G01 X26.1476 Y29.2113
G01 X26.1807 Y29.2771
G01 X26.2170 Y29.3412
G01 X26.2564 Y29.4034
G01 X26.2988 Y29.4636
G01 X26.3441 Y29.5216
G01 X26.3921 Y29.5773
G01 X26.4429 Y29.6307
G01 X26.4962 Y29.6814
G01 X26.5520 Y29.7295
G01 X26.6100 Y29.7748
G01 X26.6702 Y29.8172
G01 X26.7324 Y29.8566
G01 X26.7965 Y29.8929
G01 X26.8622 Y29.9260
G01 X26.9295 Y29.9558
G01 X26.9982 Y29.9823
G01 X27.0681 Y30.0054
G01 X27.1391 Y30.0250
G01 X27.2109 Y30.0412
G01 X27.2835 Y30.0538
G01 X27.3565 Y30.0628
G01 X27.4300 Y30.0682
G01 X27.5036 Y30.0700
G01 X27.5772 Y30.0682
G01 X27.6506 Y30.0628
G01 X27.7236 Y30.0538
G01 X27.7962 Y30.0412
G01 X27.8680 Y30.0250
G01 X27.9390 Y30.0054
G01 X28.0089 Y29.9823
G01 X28.0776 Y29.9558
G01 X28.1449 Y29.9260
G01 X28.2106 Y29.8929
G01 X28.2747 Y29.8566
G01 X28.3369 Y29.8172
G01 X28.3971 Y29.7748
G01 X28.4551 Y29.7295
G01 X28.5109 Y29.6814
G01 X28.5642 Y29.6307
G01 X28.6150 Y29.5773
G01 X28.6631 Y29.5216
G01 X28.7084 Y29.4636
G01 X28.7507 Y29.4034
G01 X28.7901 Y29.3412
G01 X28.8264 Y29.2771
G01 X28.8595 Y29.2113
G01 X28.8894 Y29.1440
G01 X28.9159 Y29.0753
G01 X28.9389 Y29.0054
G01 X28.9586 Y28.9345
G01 X28.9747 Y28.8626
G01 X28.9873 Y28.7901
G01 X28.9963 Y28.7170
G01 X29.0017 Y28.6436
G01 X29.0035 Y28.5700
G01 X28.9993 Y28.4579
G01 X28.9868 Y28.3465
G01 X28.9659 Y28.2362
G01 X28.9369 Y28.1279
G01 X28.8998 Y28.0220
G01 X28.8550 Y27.9192
G01 X28.8026 Y27.8200
G01 X28.7429 Y27.7250
G01 X28.6763 Y27.6348
G01 X28.6031 Y27.5498
G01 X28.5238 Y27.4705
G01 X28.4388 Y27.3973
G01 X28.3485 Y27.3307
G01 X28.2535 Y27.2710
G01 X28.1544 Y27.2186
G01 X28.0516 Y27.1737
G01 X27.9457 Y27.1367
G01 X27.8373 Y27.1076
G01 X27.7271 Y27.0868
G01 X27.6156 Y27.0742
G01 X27.5036 Y27.0700
G01 X27.3915 Y27.0742
G01 X27.2800 Y27.0868
G01 X27.1698 Y27.1076
G01 X27.0614 Y27.1367
G01 X26.9556 Y27.1737
G01 X26.8527 Y27.2186
G01 X26.7536 Y27.2710
G01 X26.6586 Y27.3307
G01 X26.5683 Y27.3973
G01 X26.4833 Y27.4705
G01 X26.4040 Y27.5498
G01 X26.3308 Y27.6348
G01 X26.2642 Y27.7250
G01 X26.2045 Y27.8200
G01 X26.1521 Y27.9192
G01 X26.1073 Y28.0220
G01 X26.0702 Y28.1279
G01 X26.0412 Y28.2362
G01 X26.0203 Y28.3465
G01 X26.0078 Y28.4579
G01 X26.0036 Y28.5700
G01 X26.0078 Y28.6821
G01 X26.0203 Y28.7936
G01 X26.0412 Y28.9038
G01 X26.0702 Y29.0121
G01 X26.1073 Y29.1180
G01 X26.1521 Y29.2208
G01 X26.2045 Y29.3200
G01 X26.2642 Y29.4150
G01 X26.3308 Y29.5052
G01 X26.4040 Y29.5903
G01 X26.4833 Y29.6696
G01 X26.5683 Y29.7427
G01 X26.6586 Y29.8094
G01 X26.7536 Y29.8690
G01 X26.8527 Y29.9215
G01 X26.9556 Y29.9663
G01 X27.0614 Y30.0034
G01 X27.1698 Y30.0324
G01 X27.2800 Y30.0532
G01 X27.3915 Y30.0658
G01 X27.5036 Y30.0700
G01 X27.6156 Y30.0658
G01 X27.7271 Y30.0532
G01 X27.8373 Y30.0324
G01 X27.9457 Y30.0034
G01 X28.0516 Y29.9663
G01 X28.1544 Y29.9215
G01 X28.2535 Y29.8690
G01 X28.3485 Y29.8094
G01 X28.4388 Y29.7427
G01 X28.5238 Y29.6696
G01 X28.6031 Y29.5903
G01 X28.6763 Y29.5052
G01 X28.7429 Y29.4150
G01 X28.8026 Y29.3200
G01 X28.8550 Y29.2208
G01 X28.8998 Y29.1180
G01 X28.9369 Y29.0121
G01 X28.9659 Y28.9038
G01 X28.9868 Y28.7936
G01 X28.9993 Y28.6821
G01 X29.0035 Y28.5700
G01 X28.9990 Y28.4654
G01 X28.9853 Y28.3616
G01 X28.9626 Y28.2594
G01 X28.9312 Y28.1596
G01 X28.8911 Y28.0629
G01 X28.8428 Y27.9700
G01 X28.7865 Y27.8817
G01 X28.7228 Y27.7987
G01 X28.6521 Y27.7215
G01 X28.5749 Y27.6508
G01 X28.4918 Y27.5870
G01 X28.4035 Y27.5308
G01 X28.3107 Y27.4825
G01 X28.2140 Y27.4424
G01 X28.1141 Y27.4109
G01 X28.0119 Y27.3883
G01 X27.9081 Y27.3746
G01 X27.8035 Y27.3700
G01 X27.6990 Y27.3746
G01 X27.5952 Y27.3883
G01 X27.4930 Y27.4109
G01 X27.3931 Y27.4424
G01 X27.2964 Y27.4825
G01 X27.2036 Y27.5308
G01 X27.1153 Y27.5870
G01 X27.0322 Y27.6508
G01 X26.9550 Y27.7215
G01 X26.8843 Y27.7987
G01 X26.8206 Y27.8817
G01 X26.7643 Y27.9700
G01 X26.7160 Y28.0629
G01 X26.6759 Y28.1596
G01 X26.6444 Y28.2594
G01 X26.6218 Y28.3616
G01 X26.6081 Y28.4654
G01 X26.6036 Y28.5700
G01 X26.6046 Y28.6142
G01 X26.6079 Y28.6582
G01 X26.6133 Y28.7021
G01 X26.6208 Y28.7456
G01 X26.6305 Y28.7887
G01 X26.6423 Y28.8313
G01 X26.6562 Y28.8732
G01 X26.6721 Y28.9144
G01 X26.6900 Y28.9548
G01 X26.7098 Y28.9943
G01 X26.7316 Y29.0327
G01 X26.7552 Y29.0700
G01 X26.7807 Y29.1061
G01 X26.8078 Y29.1410
G01 X26.8367 Y29.1744
G01 X26.8672 Y29.2064
G01 X26.8992 Y29.2369
G01 X26.9326 Y29.2657
G01 X26.9674 Y29.2929
G01 X27.0035 Y29.3183
G01 X27.0409 Y29.3420
G01 X27.0793 Y29.3637
G01 X27.1188 Y29.3836
G01 X27.1591 Y29.4015
G01 X27.2004 Y29.4174
G01 X27.2423 Y29.4313
G01 X27.2849 Y29.4430
G01 X27.3280 Y29.4527
G01 X27.3715 Y29.4603
G01 X27.4153 Y29.4657
G01 X27.4594 Y29.4689
G01 X27.5036 Y29.4700
G01 X27.5477 Y29.4689
G01 X27.5918 Y29.4657
G01 X27.6356 Y29.4603
G01 X27.6791 Y29.4527
G01 X27.7222 Y29.4430
G01 X27.7648 Y29.4313
G01 X27.8068 Y29.4174
G01 X27.8480 Y29.4015
G01 X27.8884 Y29.3836
G01 X27.9278 Y29.3637
G01 X27.9662 Y29.3420
G01 X28.0036 Y29.3183
G01 X28.0397 Y29.2929
G01 X28.0745 Y29.2657
G01 X28.1080 Y29.2369
G01 X28.1400 Y29.2064
G01 X28.1704 Y29.1744
G01 X28.1993 Y29.1410
G01 X28.2264 Y29.1061
G01 X28.2519 Y29.0700
G01 X28.2755 Y29.0327
G01 X28.2973 Y28.9943
G01 X28.3171 Y28.9548
G01 X28.3350 Y28.9144
G01 X28.3509 Y28.8732
G01 X28.3648 Y28.8313
G01 X28.3766 Y28.7887
G01 X28.3863 Y28.7456
G01 X28.3938 Y28.7021
G01 X28.3992 Y28.6582
G01 X28.4025 Y28.6142
G01 X28.4036 Y28.5700
G01 X28.4025 Y28.5272 Z-1.6831 F400
G01 X28.3995 Y28.4845 Z-1.6995
G01 X28.3944 Y28.4419 Z-1.7159
G01 X28.3873 Y28.3997 Z-1.7323
G01 X28.3782 Y28.3578 Z-1.7487
G01 X28.3671 Y28.3165 Z-1.7652
G01 X28.3541 Y28.2757 Z-1.7816
G01 X28.3391 Y28.2355 Z-1.7980
G01 X28.3222 Y28.1961 Z-1.8144
G01 X28.3035 Y28.1576 Z-1.8308
G01 X28.2830 Y28.1200 Z-1.8472
G01 X28.2607 Y28.0834 Z-1.8636
G01 X28.2367 Y28.0480 Z-1.8801
G01 X28.2110 Y28.0137 Z-1.8965
G01 X28.1837 Y27.9806 Z-1.9129
G01 X28.1549 Y27.9489 Z-1.9293
G01 X28.1246 Y27.9187 Z-1.9457
G01 X28.0929 Y27.8898 Z-1.9621
G01 X28.0599 Y27.8626 Z-1.9785
G01 X28.0256 Y27.8369 Z-1.9949
G01 X27.9901 Y27.8129 Z-2.0114
G01 X27.9536 Y27.7906 Z-2.0278
G01 X27.9160 Y27.7701 Z-2.0442
G01 X27.8774 Y27.7513 Z-2.0606
G01 X27.8381 Y27.7345 Z-2.0770
G01 X27.7979 Y27.7195 Z-2.0934
G01 X27.7571 Y27.7065 Z-2.1098
G01 X27.7157 Y27.6954 Z-2.1263
G01 X27.6739 Y27.6863 Z-2.1427
G01 X27.6316 Y27.6792 Z-2.1591
G01 X27.5891 Y27.6741 Z-2.1755
G01 X27.5464 Y27.6710 Z-2.1919
G01 X27.5036 Y27.6700 Z-2.2083
G01 X27.4607 Y27.6710 Z-2.2247
G01 X27.4180 Y27.6741 Z-2.2412
G01 X27.3755 Y27.6792 Z-2.2576
G01 X27.3332 Y27.6863 Z-2.2740
G01 X27.2914 Y27.6954 Z-2.2904
G01 X27.2500 Y27.7065 Z-2.3068
G01 X27.2092 Y27.7195 Z-2.3232
G01 X27.1691 Y27.7345 Z-2.3396
G01 X27.1297 Y27.7513 Z-2.3561
G01 X27.0912 Y27.7701 Z-2.3725
G01 X27.0536 Y27.7906 Z-2.3889
G01 X27.0170 Y27.8129 Z-2.4053
G01 X26.9815 Y27.8369 Z-2.4217
G01 X26.9472 Y27.8626 Z-2.4381
G01 X26.9142 Y27.8898 Z-2.4545
G01 X26.8825 Y27.9187 Z-2.4710
G01 X26.8522 Y27.9489 Z-2.4874
G01 X26.8234 Y27.9806 Z-2.5038
G01 X26.7961 Y28.0137 Z-2.5202
G01 X26.7704 Y28.0480 Z-2.5366
G01 X26.7464 Y28.0834 Z-2.5530
G01 X26.7241 Y28.1200 Z-2.5694
G01 X26.7036 Y28.1576 Z-2.5859
G01 X26.6849 Y28.1961 Z-2.6023
G01 X26.6680 Y28.2355 Z-2.6187
G01 X26.6531 Y28.2757 Z-2.6351
G01 X26.6400 Y28.3165 Z-2.6515
G01 X26.6289 Y28.3578 Z-2.6679
G01 X26.6198 Y28.3997 Z-2.6843
G01 X26.6127 Y28.4419 Z-2.7008
G01 X26.6076 Y28.4845 Z-2.7172
G01 X26.6046 Y28.5272 Z-2.7336
G01 X26.6036 Y28.5700 Z-2.7500
G01 X26.6046 Y28.6128 Z-2.7664
G01 X26.6076 Y28.6556 Z-2.7828
G01 X26.6127 Y28.6981 Z-2.7992
G01 X26.6198 Y28.7403 Z-2.8157
G01 X26.6289 Y28.7822 Z-2.8321
G01 X26.6400 Y28.8236 Z-2.8485
G01 X26.6531 Y28.8644 Z-2.8649
G01 X26.6680 Y28.9045 Z-2.8813
G01 X26.6849 Y28.9439 Z-2.8977
G01 X26.7036 Y28.9824 Z-2.9141
G01 X26.7241 Y29.0200 Z-2.9306
G01 X26.7464 Y29.0566 Z-2.9470
G01 X26.7704 Y29.0921 Z-2.9634
G01 X26.7961 Y29.1264 Z-2.9798
G01 X26.8234 Y29.1594 Z-2.9962
G01 X26.8522 Y29.1911 Z-3.0126
G01 X26.8825 Y29.2214 Z-3.0290
G01 X26.9142 Y29.2502 Z-3.0455
G01 X26.9472 Y29.2775 Z-3.0619
G01 X26.9815 Y29.3031 Z-3.0783
G01 X27.0170 Y29.3271 Z-3.0947
G01 X27.0536 Y29.3494 Z-3.1111
G01 X27.0912 Y29.3700 Z-3.1275
G01 X27.1297 Y29.3887 Z-3.1439
G01 X27.1691 Y29.4055 Z-3.1604
G01 X27.2092 Y29.4205 Z-3.1768
G01 X27.2500 Y29.4336 Z-3.1932
G01 X27.2914 Y29.4446 Z-3.2096
G01 X27.3332 Y29.4538 Z-3.2260
G01 X27.3755 Y29.4609 Z-3.2424
G01 X27.4180 Y29.4659 Z-3.2588
G01 X27.4607 Y29.4690 Z-3.2753
G01 X27.5036 Y29.4700 Z-3.2917
G01 X27.5464 Y29.4690 Z-3.3081
G01 X27.5891 Y29.4659 Z-3.3245
G01 X27.6316 Y29.4609 Z-3.3409
G01 X27.6739 Y29.4538 Z-3.3573
G01 X27.7157 Y29.4446 Z-3.3737
G01 X27.7571 Y29.4336 Z-3.3902
G01 X27.7979 Y29.4205 Z-3.4066
G01 X27.8381 Y29.4055 Z-3.4230
G01 X27.8774 Y29.3887 Z-3.4394
G01 X27.9160 Y29.3700 Z-3.4558
G01 X27.9536 Y29.3494 Z-3.4722
G01 X27.9901 Y29.3271 Z-3.4886
G01 X28.0256 Y29.3031 Z-3.5051
G01 X28.0599 Y29.2775 Z-3.5215
G01 X28.0929 Y29.2502 Z-3.5379
G01 X28.1246 Y29.2214 Z-3.5543
G01 X28.1549 Y29.1911 Z-3.5707
G01 X28.1837 Y29.1594 Z-3.5871
G01 X28.2110 Y29.1264 Z-3.6035
G01 X28.2367 Y29.0921 Z-3.6199
G01 X28.2607 Y29.0566 Z-3.6364
G01 X28.2830 Y29.0200 Z-3.6528
G01 X28.3035 Y28.9824 Z-3.6692
G01 X28.3222 Y28.9439 Z-3.6856
G01 X28.3391 Y28.9045 Z-3.7020
G01 X28.3541 Y28.8644 Z-3.7184
G01 X28.3671 Y28.8236 Z-3.7348
G01 X28.3782 Y28.7822 Z-3.7513
G01 X28.3873 Y28.7403 Z-3.7677
G01 X28.3944 Y28.6981 Z-3.7841
G01 X28.3995 Y28.6556 Z-3.8005
G01 X28.4025 Y28.6128 Z-3.8169
G01 X28.4036 Y28.5700 Z-3.8333
G01 X28.4025 Y28.5272
G01 X28.3995 Y28.4845
G01 X28.3944 Y28.4419
G01 X28.3873 Y28.3997
G01 X28.3782 Y28.3578
G01 X28.3671 Y28.3165
G01 X28.3541 Y28.2757
G01 X28.3391 Y28.2355
G01 X28.3222 Y28.1961
G01 X28.3035 Y28.1576
G01 X28.2830 Y28.1200
G01 X28.2607 Y28.0834
G01 X28.2367 Y28.0480
G01 X28.2110 Y28.0137
G01 X28.1837 Y27.9806
G01 X28.1549 Y27.9489
G01 X28.1246 Y27.9187
G01 X28.0929 Y27.8898
G01 X28.0599 Y27.8626
G01 X28.0256 Y27.8369
G01 X27.9901 Y27.8129
G01 X27.9536 Y27.7906
G01 X27.9160 Y27.7701
G01 X27.8774 Y27.7513
G01 X27.8381 Y27.7345
G01 X27.7979 Y27.7195
G01 X27.7571 Y27.7065
G01 X27.7157 Y27.6954
G01 X27.6739 Y27.6863
G01 X27.6316 Y27.6792
G01 X27.5891 Y27.6741
G01 X27.5464 Y27.6710
G01 X27.5036 Y27.6700
G01 X27.4607 Y27.6710
G01 X27.4180 Y27.6741
G01 X27.3755 Y27.6792
G01 X27.3332 Y27.6863
G01 X27.2914 Y27.6954
G01 X27.2500 Y27.7065
G01 X27.2092 Y27.7195
G01 X27.1691 Y27.7345
G01 X27.1297 Y27.7513
G01 X27.0912 Y27.7701
G01 X27.0536 Y27.7906
G01 X27.0170 Y27.8129
G01 X26.9815 Y27.8369
G01 X26.9472 Y27.8626
G01 X26.9142 Y27.8898
G01 X26.8825 Y27.9187
G01 X26.8522 Y27.9489
G01 X26.8234 Y27.9806
G01 X26.7961 Y28.0137
G01 X26.7704 Y28.0480
G01 X26.7464 Y28.0834
G01 X26.7241 Y28.1200
G01 X26.7036 Y28.1576
G01 X26.6849 Y28.1961
G01 X26.6680 Y28.2355
G01 X26.6531 Y28.2757
G01 X26.6400 Y28.3165
G01 X26.6289 Y28.3578
G01 X26.6198 Y28.3997
G01 X26.6127 Y28.4419
G01 X26.6076 Y28.4845
G01 X26.6046 Y28.5272
G01 X26.6036 Y28.5700
G01 X26.6046 Y28.6128
G01 X26.6076 Y28.6556
G01 X26.6127 Y28.6981
G01 X26.6198 Y28.7403
G01 X26.6289 Y28.7822
G01 X26.6400 Y28.8236
G01 X26.6531 Y28.8644
G01 X26.6680 Y28.9045
G01 X26.6849 Y28.9439
G01 X26.7036 Y28.9824
G01 X26.7241 Y29.0200
G01 X26.7464 Y29.0566
G01 X26.7704 Y29.0921
G01 X26.7961 Y29.1264
G01 X26.8234 Y29.1594
G01 X26.8522 Y29.1911
G01 X26.8825 Y29.2214
G01 X26.9142 Y29.2502
G01 X26.9472 Y29.2775
G01 X26.9815 Y29.3031
G01 X27.0170 Y29.3271
G01 X27.0536 Y29.3494
G01 X27.0912 Y29.3700
G01 X27.1297 Y29.3887
G01 X27.1691 Y29.4055
G01 X27.2092 Y29.4205
G01 X27.2500 Y29.4336
G01 X27.2914 Y29.4446
G01 X27.3332 Y29.4538
G01 X27.3755 Y29.4609
G01 X27.4180 Y29.4659
G01 X27.4607 Y29.4690
G01 X27.5036 Y29.4700
G01 X27.5464 Y29.4690
G01 X27.5891 Y29.4659
G01 X27.6316 Y29.4609
G01 X27.6739 Y29.4538
G01 X27.7157 Y29.4446
G01 X27.7571 Y29.4336
G01 X27.7979 Y29.4205
G01 X27.8381 Y29.4055
G01 X27.8774 Y29.3887
G01 X27.9160 Y29.3700
G01 X27.9536 Y29.3494
G01 X27.9901 Y29.3271
G01 X28.0256 Y29.3031
G01 X28.0599 Y29.2775
G01 X28.0929 Y29.2502
G01 X28.1246 Y29.2214
G01 X28.1549 Y29.1911
G01 X28.1837 Y29.1594
G01 X28.2110 Y29.1264
G01 X28.2367 Y29.0921
G01 X28.2607 Y29.0566
G01 X28.2830 Y29.0200
G01 X28.3035 Y28.9824
G01 X28.3222 Y28.9439
G01 X28.3391 Y28.9045
G01 X28.3541 Y28.8644
G01 X28.3671 Y28.8236
G01 X28.3782 Y28.7822
G01 X28.3873 Y28.7403
G01 X28.3944 Y28.6981
G01 X28.3995 Y28.6556
G01 X28.4025 Y28.6128
G01 X28.4036 Y28.5700
G01 X28.4111 Y28.5390 F1100
G01 X28.4176 Y28.5077
G01 X28.4229 Y28.4762
G01 X28.4272 Y28.4445
G01 X28.4304 Y28.4127
G01 X28.4325 Y28.3808
G01 X28.4334 Y28.3489
G01 X28.4333 Y28.3169
G01 X28.4320 Y28.2850
G01 X28.4297 Y28.2531
G01 X28.4262 Y28.2214
G01 X28.4217 Y28.1897
G01 X28.4120 Y28.1382
G01 X28.3996 Y28.0873
G01 X28.3847 Y28.0371
G01 X28.3672 Y27.9877
G01 X28.3472 Y27.9392
G01 X28.3247 Y27.8919
G01 X28.2998 Y27.8458
G01 X28.2725 Y27.8010
G01 X28.2405 Y27.7540
G01 X28.2061 Y27.7087
G01 X28.1695 Y27.6652
G01 X28.1306 Y27.6236
G01 X28.0897 Y27.5840
G01 X28.0468 Y27.5467
G01 X28.0021 Y27.5115
G01 X27.9556 Y27.4787
G01 X27.9037 Y27.4459
G01 X27.8502 Y27.4157
G01 X27.7952 Y27.3883
G01 X27.7390 Y27.3638
G01 X27.6815 Y27.3421
G01 X27.6230 Y27.3234
G01 X27.5636 Y27.3077
G01 X27.5036 Y27.2950
G01 X27.4384 Y27.2847
G01 X27.3729 Y27.2777
G01 X27.3071 Y27.2740
G01 X27.2411 Y27.2736
G01 X27.1753 Y27.2766
G01 X27.1096 Y27.2829
G01 X27.0444 Y27.2925
G01 X26.9798 Y27.3055
G01 X26.9114 Y27.3227
G01 X26.8441 Y27.3434
G01 X26.7779 Y27.3675
G01 X26.7129 Y27.3948
G01 X26.6495 Y27.4254
G01 X26.5876 Y27.4592
G01 X26.5275 Y27.4960
G01 X26.4694 Y27.5359
G01 X26.4159 Y27.5853
G01 X26.3649 Y27.6373
G01 X26.3165 Y27.6918
G01 X26.2708 Y27.7485
G01 X26.2280 Y27.8075
G01 X26.1882 Y27.8685
G01 X26.1514 Y27.9314
G01 X26.1178 Y27.9960
G01 X26.0913 Y28.0647
G01 X26.0682 Y28.1346
G01 X26.0485 Y28.2055
G01 X26.0324 Y28.2774
G01 X26.0198 Y28.3499
G01 X26.0108 Y28.4230
G01 X26.0054 Y28.4964
G01 X26.0036 Y28.5700
G01 X26.0054 Y28.6436
G01 X26.0108 Y28.7170
G01 X26.0198 Y28.7901
G01 X26.0324 Y28.8626
G01 X26.0485 Y28.9345
G01 X26.0682 Y29.0054
G01 X26.0913 Y29.0753
G01 X26.1178 Y29.1440
G01 X26.1476 Y29.2113
G01 X26.1807 Y29.2771
G01 X26.2170 Y29.3412
G01 X26.2564 Y29.4034
G01 X26.2988 Y29.4636
G01 X26.3441 Y29.5216
G01 X26.3921 Y29.5773
G01 X26.4429 Y29.6307
G01 X26.4962 Y29.6814
G01 X26.5520 Y29.7295
G01 X26.6100 Y29.7748
G01 X26.6702 Y29.8172
G01 X26.7324 Y29.8566
G01 X26.7965 Y29.8929
G01 X26.8622 Y29.9260
G01 X26.9295 Y29.9558
G01 X26.9982 Y29.9823
G01 X27.0681 Y30.0054
G01 X27.1391 Y30.0250
G01 X27.2109 Y30.0412
G01 X27.2835 Y30.0538
G01 X27.3565 Y30.0628
G01 X27.4300 Y30.0682
G01 X27.5036 Y30.0700
G01 X27.5772 Y30.0682
G01 X27.6506 Y30.0628
G01 X27.7236 Y30.0538
G01 X27.7962 Y30.0412
G01 X27.8680 Y30.0250
G01 X27.9390 Y30.0054
G01 X28.0089 Y29.9823
G01 X28.0776 Y29.9558
G01 X28.1449 Y29.9260
G01 X28.2106 Y29.8929
G01 X28.2747 Y29.8566
G01 X28.3369 Y29.8172
G01 X28.3971 Y29.7748
G01 X28.4551 Y29.7295
G01 X28.5109 Y29.6814
G01 X28.5642 Y29.6307
G01 X28.6150 Y29.5773
G01 X28.6631 Y29.5216
G01 X28.7084 Y29.4636
G01 X28.7507 Y29.4034
G01 X28.7901 Y29.3412
G01 X28.8264 Y29.2771
G01 X28.8595 Y29.2113
G01 X28.8894 Y29.1440
G01 X28.9159 Y29.0753
G01 X28.9389 Y29.0054
G01 X28.9586 Y28.9345
G01 X28.9747 Y28.8626
G01 X28.9873 Y28.7901
G01 X28.9963 Y28.7170
G01 X29.0017 Y28.6436
G01 X29.0035 Y28.5700
G01 X28.9993 Y28.4579
G01 X28.9868 Y28.3465
G01 X28.9659 Y28.2362
G01 X28.9369 Y28.1279
G01 X28.8998 Y28.0220
G01 X28.8550 Y27.9192
G01 X28.8026 Y27.8200
G01 X28.7429 Y27.7250
G01 X28.6763 Y27.6348
G01 X28.6031 Y27.5498
G01 X28.5238 Y27.4705
G01 X28.4388 Y27.3973
G01 X28.3485 Y27.3307
G01 X28.2535 Y27.2710
G01 X28.1544 Y27.2186
G01 X28.0516 Y27.1737
G01 X27.9457 Y27.1367
G01 X27.8373 Y27.1076
G01 X27.7271 Y27.0868
G01 X27.6156 Y27.0742
G01 X27.5036 Y27.0700
G01 X27.3915 Y27.0742
G01 X27.2800 Y27.0868
G01 X27.1698 Y27.1076
G01 X27.0614 Y27.1367
G01 X26.9556 Y27.1737
G01 X26.8527 Y27.2186
G01 X26.7536 Y27.2710
G01 X26.6586 Y27.3307
G01 X26.5683 Y27.3973
G01 X26.4833 Y27.4705
G01 X26.4040 Y27.5498
G01 X26.3308 Y27.6348
G01 X26.2642 Y27.7250
G01 X26.2045 Y27.8200
G01 X26.1521 Y27.9192
G01 X26.1073 Y28.0220
G01 X26.0702 Y28.1279
G01 X26.0412 Y28.2362
G01 X26.0203 Y28.3465
G01 X26.0078 Y28.4579
G01 X26.0036 Y28.5700
G01 X26.0078 Y28.6821
G01 X26.0203 Y28.7936
G01 X26.0412 Y28.9038
G01 X26.0702 Y29.0121
G01 X26.1073 Y29.1180
G01 X26.1521 Y29.2208
G01 X26.2045 Y29.3200
G01 X26.2642 Y29.4150
G01 X26.3308 Y29.5052
G01 X26.4040 Y29.5903
G01 X26.4833 Y29.6696
G01 X26.5683 Y29.7427
G01 X26.6586 Y29.8094
G01 X26.7536 Y29.8690
G01 X26.8527 Y29.9215
G01 X26.9556 Y29.9663
G01 X27.0614 Y30.0034
G01 X27.1698 Y30.0324
G01 X27.2800 Y30.0532
G01 X27.3915 Y30.0658
G01 X27.5036 Y30.0700
G01 X27.6156 Y30.0658
G01 X27.7271 Y30.0532
G01 X27.8373 Y30.0324
G01 X27.9457 Y30.0034
G01 X28.0516 Y29.9663
G01 X28.1544 Y29.9215
G01 X28.2535 Y29.8690
G01 X28.3485 Y29.8094
G01 X28.4388 Y29.7427
G01 X28.5238 Y29.6696
G01 X28.6031 Y29.5903
G01 X28.6763 Y29.5052
G01 X28.7429 Y29.4150
G01 X28.8026 Y29.3200
G01 X28.8550 Y29.2208
G01 X28.8998 Y29.1180
G01 X28.9369 Y29.0121
G01 X28.9659 Y28.9038
G01 X28.9868 Y28.7936
G01 X28.9993 Y28.6821
G01 X29.0035 Y28.5700
G01 X28.9990 Y28.4654
G01 X28.9853 Y28.3616
G01 X28.9626 Y28.2594
G01 X28.9312 Y28.1596
G01 X28.8911 Y28.0629
G01 X28.8428 Y27.9700
G01 X28.7865 Y27.8817
G01 X28.7228 Y27.7987
G01 X28.6521 Y27.7215
G01 X28.5749 Y27.6508
G01 X28.4918 Y27.5870
G01 X28.4035 Y27.5308
G01 X28.3107 Y27.4825
G01 X28.2140 Y27.4424
G01 X28.1141 Y27.4109
G01 X28.0119 Y27.3883
G01 X27.9081 Y27.3746
G01 X27.8035 Y27.3700
G01 X27.6990 Y27.3746
G01 X27.5952 Y27.3883
G01 X27.4930 Y27.4109
G01 X27.3931 Y27.4424
G01 X27.2964 Y27.4825
G01 X27.2036 Y27.5308
G01 X27.1153 Y27.5870
G01 X27.0322 Y27.6508
G01 X26.9550 Y27.7215
G01 X26.8843 Y27.7987
G01 X26.8206 Y27.8817
G01 X26.7643 Y27.9700
G01 X26.7160 Y28.0629
G01 X26.6759 Y28.1596
G01 X26.6444 Y28.2594
G01 X26.6218 Y28.3616
G01 X26.6081 Y28.4654
G01 X26.6036 Y28.5700
G01 X26.6046 Y28.6142
G01 X26.6079 Y28.6582
G01 X26.6133 Y28.7021
G01 X26.6208 Y28.7456
G01 X26.6305 Y28.7887
G01 X26.6423 Y28.8313
G01 X26.6562 Y28.8732
G01 X26.6721 Y28.9144
G01 X26.6900 Y28.9548
G01 X26.7098 Y28.9943
G01 X26.7316 Y29.0327
G01 X26.7552 Y29.0700
G01 X26.7807 Y29.1061
G01 X26.8078 Y29.1410
G01 X26.8367 Y29.1744
G01 X26.8672 Y29.2064
G01 X26.8992 Y29.2369
G01 X26.9326 Y29.2657
G01 X26.9674 Y29.2929
G01 X27.0035 Y29.3183
G01 X27.0409 Y29.3420
G01 X27.0793 Y29.3637
G01 X27.1188 Y29.3836
G01 X27.1591 Y29.4015
G01 X27.2004 Y29.4174
G01 X27.2423 Y29.4313
G01 X27.2849 Y29.4430
G01 X27.3280 Y29.4527
G01 X27.3715 Y29.4603
G01 X27.4153 Y29.4657
G01 X27.4594 Y29.4689
G01 X27.5036 Y29.4700
G01 X27.5477 Y29.4689
G01 X27.5918 Y29.4657
G01 X27.6356 Y29.4603
G01 X27.6791 Y29.4527
G01 X27.7222 Y29.4430
G01 X27.7648 Y29.4313
G01 X27.8068 Y29.4174
G01 X27.8480 Y29.4015
G01 X27.8884 Y29.3836
G01 X27.9278 Y29.3637
G01 X27.9662 Y29.3420
G01 X28.0036 Y29.3183
G01 X28.0397 Y29.2929
G01 X28.0745 Y29.2657
G01 X28.1080 Y29.2369
G01 X28.1400 Y29.2064
G01 X28.1704 Y29.1744
G01 X28.1993 Y29.1410
G01 X28.2264 Y29.1061
G01 X28.2519 Y29.0700
G01 X28.2755 Y29.0327
G01 X28.2973 Y28.9943
G01 X28.3171 Y28.9548
G01 X28.3350 Y28.9144
G01 X28.3509 Y28.8732
G01 X28.3648 Y28.8313
G01 X28.3766 Y28.7887
G01 X28.3863 Y28.7456
G01 X28.3938 Y28.7021
G01 X28.3992 Y28.6582
G01 X28.4025 Y28.6142
G01 X28.4036 Y28.5700
G01 X28.4025 Y28.5272 Z-3.8497 F400
G01 X28.3995 Y28.4845 Z-3.8662
G01 X28.3944 Y28.4419 Z-3.8826
G01 X28.3873 Y28.3997 Z-3.8990
G01 X28.3782 Y28.3578 Z-3.9154
G01 X28.3671 Y28.3165 Z-3.9318
G01 X28.3541 Y28.2757 Z-3.9482
G01 X28.3391 Y28.2355 Z-3.9646
G01 X28.3222 Y28.1961 Z-3.9811
G01 X28.3035 Y28.1576 Z-3.9975
G01 X28.2830 Y28.1200 Z-4.0139
G01 X28.2607 Y28.0834 Z-4.0303
G01 X28.2367 Y28.0480 Z-4.0467
G01 X28.2110 Y28.0137 Z-4.0631
G01 X28.1837 Y27.9806 Z-4.0795
G01 X28.1549 Y27.9489 Z-4.0960
G01 X28.1246 Y27.9187 Z-4.1124
G01 X28.0929 Y27.8898 Z-4.1288
G01 X28.0599 Y27.8626 Z-4.1452
G01 X28.0256 Y27.8369 Z-4.1616
G01 X27.9901 Y27.8129 Z-4.1780
G01 X27.9536 Y27.7906 Z-4.1944
G01 X27.9160 Y27.7701 Z-4.2109
G01 X27.8774 Y27.7513 Z-4.2273
G01 X27.8381 Y27.7345 Z-4.2437
G01 X27.7979 Y27.7195 Z-4.2601
G01 X27.7571 Y27.7065 Z-4.2765
G01 X27.7157 Y27.6954 Z-4.2929
G01 X27.6739 Y27.6863 Z-4.3093
G01 X27.6316 Y27.6792 Z-4.3258
G01 X27.5891 Y27.6741 Z-4.3422
G01 X27.5464 Y27.6710 Z-4.3586
G01 X27.5036 Y27.6700 Z-4.3750
G01 X27.4607 Y27.6710 Z-4.3914
G01 X27.4180 Y27.6741 Z-4.4078
G01 X27.3755 Y27.6792 Z-4.4242
G01 X27.3332 Y27.6863 Z-4.4407
G01 X27.2914 Y27.6954 Z-4.4571
G01 X27.2500 Y27.7065 Z-4.4735
G01 X27.2092 Y27.7195 Z-4.4899
G01 X27.1691 Y27.7345 Z-4.5063
G01 X27.1297 Y27.7513 Z-4.5227
G01 X27.0912 Y27.7701 Z-4.5391
G01 X27.0536 Y27.7906 Z-4.5556
G01 X27.0170 Y27.8129 Z-4.5720
G01 X26.9815 Y27.8369 Z-4.5884
G01 X26.9472 Y27.8626 Z-4.6048
G01 X26.9142 Y27.8898 Z-4.6212
G01 X26.8825 Y27.9187 Z-4.6376
G01 X26.8522 Y27.9489 Z-4.6540
G01 X26.8234 Y27.9806 Z-4.6705
G01 X26.7961 Y28.0137 Z-4.6869
G01 X26.7704 Y28.0480 Z-4.7033
G01 X26.7464 Y28.0834 Z-4.7197
G01 X26.7241 Y28.1200 Z-4.7361
G01 X26.7036 Y28.1576 Z-4.7525
G01 X26.6849 Y28.1961 Z-4.7689
G01 X26.6680 Y28.2355 Z-4.7854
G01 X26.6531 Y28.2757 Z-4.8018
G01 X26.6400 Y28.3165 Z-4.8182
G01 X26.6289 Y28.3578 Z-4.8346
G01 X26.6198 Y28.3997 Z-4.8510
G01 X26.6127 Y28.4419 Z-4.8674
G01 X26.6076 Y28.4845 Z-4.8838
G01 X26.6046 Y28.5272 Z-4.9003
G01 X26.6036 Y28.5700 Z-4.9167
G01 X26.6046 Y28.6128 Z-4.9331
G01 X26.6076 Y28.6556 Z-4.9495
G01 X26.6127 Y28.6981 Z-4.9659
G01 X26.6198 Y28.7403 Z-4.9823
G01 X26.6289 Y28.7822 Z-4.9987
G01 X26.6400 Y28.8236 Z-5.0152
G01 X26.6531 Y28.8644 Z-5.0316
G01 X26.6680 Y28.9045 Z-5.0480
G01 X26.6849 Y28.9439 Z-5.0644
G01 X26.7036 Y28.9824 Z-5.0808
G01 X26.7241 Y29.0200 Z-5.0972
G01 X26.7464 Y29.0566 Z-5.1136
G01 X26.7704 Y29.0921 Z-5.1301
G01 X26.7961 Y29.1264 Z-5.1465
G01 X26.8234 Y29.1594 Z-5.1629
G01 X26.8522 Y29.1911 Z-5.1793
G01 X26.8825 Y29.2214 Z-5.1957
G01 X26.9142 Y29.2502 Z-5.2121
G01 X26.9472 Y29.2775 Z-5.2285
G01 X26.9815 Y29.3031 Z-5.2449
G01 X27.0170 Y29.3271 Z-5.2614
G01 X27.0536 Y29.3494 Z-5.2778
G01 X27.0912 Y29.3700 Z-5.2942
G01 X27.1297 Y29.3887 Z-5.3106
G01 X27.1691 Y29.4055 Z-5.3270
G01 X27.2092 Y29.4205 Z-5.3434
G01 X27.2500 Y29.4336 Z-5.3598
G01 X27.2914 Y29.4446 Z-5.3763
G01 X27.3332 Y29.4538 Z-5.3927
G01 X27.3755 Y29.4609 Z-5.4091
G01 X27.4180 Y29.4659 Z-5.4255
G01 X27.4607 Y29.4690 Z-5.4419
G01 X27.5036 Y29.4700 Z-5.4583
G01 X27.5464 Y29.4690 Z-5.4747
G01 X27.5891 Y29.4659 Z-5.4912
G01 X27.6316 Y29.4609 Z-5.5076
G01 X27.6739 Y29.4538 Z-5.5240
G01 X27.7157 Y29.4446 Z-5.5404
G01 X27.7571 Y29.4336 Z-5.5568
G01 X27.7979 Y29.4205 Z-5.5732
G01 X27.8381 Y29.4055 Z-5.5896
G01 X27.8774 Y29.3887 Z-5.6061
G01 X27.9160 Y29.3700 Z-5.6225
G01 X27.9536 Y29.3494 Z-5.6389
G01 X27.9901 Y29.3271 Z-5.6553
G01 X28.0256 Y29.3031 Z-5.6717
G01 X28.0599 Y29.2775 Z-5.6881
G01 X28.0929 Y29.2502 Z-5.7045
G01 X28.1246 Y29.2214 Z-5.7210
G01 X28.1549 Y29.1911 Z-5.7374
G01 X28.1837 Y29.1594 Z-5.7538
G01 X28.2110 Y29.1264 Z-5.7702
G01 X28.2367 Y29.0921 Z-5.7866
G01 X28.2607 Y29.0566 Z-5.8030
G01 X28.2830 Y29.0200 Z-5.8194
G01 X28.3035 Y28.9824 Z-5.8359
G01 X28.3222 Y28.9439 Z-5.8523
G01 X28.3391 Y28.9045 Z-5.8687
G01 X28.3541 Y28.8644 Z-5.8851
G01 X28.3671 Y28.8236 Z-5.9015
G01 X28.3782 Y28.7822 Z-5.9179
G01 X28.3873 Y28.7403 Z-5.9343
G01 X28.3944 Y28.6981 Z-5.9508
G01 X28.3995 Y28.6556 Z-5.9672
G01 X28.4025 Y28.6128 Z-5.9836
G01 X28.4036 Y28.5700 Z-6.0000
G01 X28.4025 Y28.5272
G01 X28.3995 Y28.4845
G01 X28.3944 Y28.4419
G01 X28.3873 Y28.3997
G01 X28.3782 Y28.3578
G01 X28.3671 Y28.3165
G01 X28.3541 Y28.2757
G01 X28.3391 Y28.2355
G01 X28.3222 Y28.1961
G01 X28.3035 Y28.1576
G01 X28.2830 Y28.1200
G01 X28.2607 Y28.0834
G01 X28.2367 Y28.0480
G01 X28.2110 Y28.0137
G01 X28.1837 Y27.9806
G01 X28.1549 Y27.9489
G01 X28.1246 Y27.9187
G01 X28.0929 Y27.8898
G01 X28.0599 Y27.8626
G01 X28.0256 Y27.8369
G01 X27.9901 Y27.8129
G01 X27.9536 Y27.7906
G01 X27.9160 Y27.7701
G01 X27.8774 Y27.7513
G01 X27.8381 Y27.7345
G01 X27.7979 Y27.7195
G01 X27.7571 Y27.7065
G01 X27.7157 Y27.6954
G01 X27.6739 Y27.6863
G01 X27.6316 Y27.6792
G01 X27.5891 Y27.6741
G01 X27.5464 Y27.6710
G01 X27.5036 Y27.6700
G01 X27.4607 Y27.6710
G01 X27.4180 Y27.6741
G01 X27.3755 Y27.6792
G01 X27.3332 Y27.6863
G01 X27.2914 Y27.6954
G01 X27.2500 Y27.7065
G01 X27.2092 Y27.7195
G01 X27.1691 Y27.7345
G01 X27.1297 Y27.7513
G01 X27.0912 Y27.7701
G01 X27.0536 Y27.7906
G01 X27.0170 Y27.8129
G01 X26.9815 Y27.8369
G01 X26.9472 Y27.8626
G01 X26.9142 Y27.8898
G01 X26.8825 Y27.9187
G01 X26.8522 Y27.9489
G01 X26.8234 Y27.9806
G01 X26.7961 Y28.0137
G01 X26.7704 Y28.0480
G01 X26.7464 Y28.0834
G01 X26.7241 Y28.1200
G01 X26.7036 Y28.1576
G01 X26.6849 Y28.1961
G01 X26.6680 Y28.2355
G01 X26.6531 Y28.2757
G01 X26.6400 Y28.3165
G01 X26.6289 Y28.3578
G01 X26.6198 Y28.3997
G01 X26.6127 Y28.4419
G01 X26.6076 Y28.4845
G01 X26.6046 Y28.5272
G01 X26.6036 Y28.5700
G01 X26.6046 Y28.6128
G01 X26.6076 Y28.6556
G01 X26.6127 Y28.6981
G01 X26.6198 Y28.7403
G01 X26.6289 Y28.7822
G01 X26.6400 Y28.8236
G01 X26.6531 Y28.8644
G01 X26.6680 Y28.9045
G01 X26.6849 Y28.9439
G01 X26.7036 Y28.9824
G01 X26.7241 Y29.0200
G01 X26.7464 Y29.0566
G01 X26.7704 Y29.0921
G01 X26.7961 Y29.1264
G01 X26.8234 Y29.1594
G01 X26.8522 Y29.1911
G01 X26.8825 Y29.2214
G01 X26.9142 Y29.2502
G01 X26.9472 Y29.2775
G01 X26.9815 Y29.3031
G01 X27.0170 Y29.3271
G01 X27.0536 Y29.3494
G01 X27.0912 Y29.3700
G01 X27.1297 Y29.3887
G01 X27.1691 Y29.4055
G01 X27.2092 Y29.4205
G01 X27.2500 Y29.4336
G01 X27.2914 Y29.4446
G01 X27.3332 Y29.4538
G01 X27.3755 Y29.4609
G01 X27.4180 Y29.4659
G01 X27.4607 Y29.4690
G01 X27.5036 Y29.4700
G01 X27.5464 Y29.4690
G01 X27.5891 Y29.4659
G01 X27.6316 Y29.4609
G01 X27.6739 Y29.4538
G01 X27.7157 Y29.4446
G01 X27.7571 Y29.4336
G01 X27.7979 Y29.4205
G01 X27.8381 Y29.4055
G01 X27.8774 Y29.3887
G01 X27.9160 Y29.3700
G01 X27.9536 Y29.3494
G01 X27.9901 Y29.3271
G01 X28.0256 Y29.3031
G01 X28.0599 Y29.2775
G01 X28.0929 Y29.2502
G01 X28.1246 Y29.2214
G01 X28.1549 Y29.1911
G01 X28.1837 Y29.1594
G01 X28.2110 Y29.1264
G01 X28.2367 Y29.0921
G01 X28.2607 Y29.0566
G01 X28.2830 Y29.0200
G01 X28.3035 Y28.9824
G01 X28.3222 Y28.9439
G01 X28.3391 Y28.9045
G01 X28.3541 Y28.8644
G01 X28.3671 Y28.8236
G01 X28.3782 Y28.7822
G01 X28.3873 Y28.7403
G01 X28.3944 Y28.6981
G01 X28.3995 Y28.6556
G01 X28.4025 Y28.6128
G01 X28.4036 Y28.5700
G01 X28.4111 Y28.5390 F1100
G01 X28.4176 Y28.5077
G01 X28.4229 Y28.4762
G01 X28.4272 Y28.4445
G01 X28.4304 Y28.4127
G01 X28.4325 Y28.3808
G01 X28.4334 Y28.3489
G01 X28.4333 Y28.3169
G01 X28.4320 Y28.2850
G01 X28.4297 Y28.2531
G01 X28.4262 Y28.2214
G01 X28.4217 Y28.1897
G01 X28.4120 Y28.1382
G01 X28.3996 Y28.0873
G01 X28.3847 Y28.0371
G01 X28.3672 Y27.9877
G01 X28.3472 Y27.9392
G01 X28.3247 Y27.8919
G01 X28.2998 Y27.8458
G01 X28.2725 Y27.8010
G01 X28.2405 Y27.7540
G01 X28.2061 Y27.7087
G01 X28.1695 Y27.6652
G01 X28.1306 Y27.6236
G01 X28.0897 Y27.5840
G01 X28.0468 Y27.5467
G01 X28.0021 Y27.5115
G01 X27.9556 Y27.4787
G01 X27.9037 Y27.4459
G01 X27.8502 Y27.4157
G01 X27.7952 Y27.3883
G01 X27.7390 Y27.3638
G01 X27.6815 Y27.3421
G01 X27.6230 Y27.3234
G01 X27.5636 Y27.3077
G01 X27.5036 Y27.2950
G01 X27.4384 Y27.2847
G01 X27.3729 Y27.2777
G01 X27.3071 Y27.2740
G01 X27.2411 Y27.2736
G01 X27.1753 Y27.2766
G01 X27.1096 Y27.2829
G01 X27.0444 Y27.2925
G01 X26.9798 Y27.3055
G01 X26.9114 Y27.3227
G01 X26.8441 Y27.3434
G01 X26.7779 Y27.3675
G01 X26.7129 Y27.3948
G01 X26.6495 Y27.4254
G01 X26.5876 Y27.4592
G01 X26.5275 Y27.4960
G01 X26.4694 Y27.5359
G01 X26.4159 Y27.5853
G01 X26.3649 Y27.6373
G01 X26.3165 Y27.6918
G01 X26.2708 Y27.7485
G01 X26.2280 Y27.8075
G01 X26.1882 Y27.8685
G01 X26.1514 Y27.9314
G01 X26.1178 Y27.9960
G01 X26.0913 Y28.0647
G01 X26.0682 Y28.1346
G01 X26.0485 Y28.2055
G01 X26.0324 Y28.2774
G01 X26.0198 Y28.3499
G01 X26.0108 Y28.4230
G01 X26.0054 Y28.4964
G01 X26.0036 Y28.5700
G01 X26.0054 Y28.6436
G01 X26.0108 Y28.7170
G01 X26.0198 Y28.7901
G01 X26.0324 Y28.8626
G01 X26.0485 Y28.9345
G01 X26.0682 Y29.0054
G01 X26.0913 Y29.0753
G01 X26.1178 Y29.1440
G01 X26.1476 Y29.2113
G01 X26.1807 Y29.2771
G01 X26.2170 Y29.3412
G01 X26.2564 Y29.4034
G01 X26.2988 Y29.4636
G01 X26.3441 Y29.5216
G01 X26.3921 Y29.5773
G01 X26.4429 Y29.6307
G01 X26.4962 Y29.6814
G01 X26.5520 Y29.7295
G01 X26.6100 Y29.7748
G01 X26.6702 Y29.8172
G01 X26.7324 Y29.8566
G01 X26.7965 Y29.8929
G01 X26.8622 Y29.9260
G01 X26.9295 Y29.9558
G01 X26.9982 Y29.9823
G01 X27.0681 Y30.0054
G01 X27.1391 Y30.0250
G01 X27.2109 Y30.0412
G01 X27.2835 Y30.0538
G01 X27.3565 Y30.0628
G01 X27.4300 Y30.0682
G01 X27.5036 Y30.0700
G01 X27.5772 Y30.0682
G01 X27.6506 Y30.0628
G01 X27.7236 Y30.0538
G01 X27.7962 Y30.0412
G01 X27.8680 Y30.0250
G01 X27.9390 Y30.0054
G01 X28.0089 Y29.9823
G01 X28.0776 Y29.9558
G01 X28.1449 Y29.9260
G01 X28.2106 Y29.8929
G01 X28.2747 Y29.8566
G01 X28.3369 Y29.8172
G01 X28.3971 Y29.7748
G01 X28.4551 Y29.7295
G01 X28.5109 Y29.6814
G01 X28.5642 Y29.6307
G01 X28.6150 Y29.5773
G01 X28.6631 Y29.5216
G01 X28.7084 Y29.4636
G01 X28.7507 Y29.4034
G01 X28.7901 Y29.3412
G01 X28.8264 Y29.2771
G01 X28.8595 Y29.2113
G01 X28.8894 Y29.1440
G01 X28.9159 Y29.0753
G01 X28.9389 Y29.0054
G01 X28.9586 Y28.9345
G01 X28.9747 Y28.8626
G01 X28.9873 Y28.7901
G01 X28.9963 Y28.7170
G01 X29.0017 Y28.6436
G01 X29.0035 Y28.5700
G01 X28.9993 Y28.4579
G01 X28.9868 Y28.3465
G01 X28.9659 Y28.2362
G01 X28.9369 Y28.1279
G01 X28.8998 Y28.0220
G01 X28.8550 Y27.9192
G01 X28.8026 Y27.8200
G01 X28.7429 Y27.7250
G01 X28.6763 Y27.6348
G01 X28.6031 Y27.5498
G01 X28.5238 Y27.4705
G01 X28.4388 Y27.3973
G01 X28.3485 Y27.3307
G01 X28.2535 Y27.2710
G01 X28.1544 Y27.2186
G01 X28.0516 Y27.1737
G01 X27.9457 Y27.1367
G01 X27.8373 Y27.1076
G01 X27.7271 Y27.0868
G01 X27.6156 Y27.0742
G01 X27.5036 Y27.0700
G01 X27.3915 Y27.0742
G01 X27.2800 Y27.0868
G01 X27.1698 Y27.1076
G01 X27.0614 Y27.1367
G01 X26.9556 Y27.1737
G01 X26.8527 Y27.2186
G01 X26.7536 Y27.2710
G01 X26.6586 Y27.3307
G01 X26.5683 Y27.3973
G01 X26.4833 Y27.4705
G01 X26.4040 Y27.5498
G01 X26.3308 Y27.6348
G01 X26.2642 Y27.7250
G01 X26.2045 Y27.8200
G01 X26.1521 Y27.9192
G01 X26.1073 Y28.0220
G01 X26.0702 Y28.1279
G01 X26.0412 Y28.2362
G01 X26.0203 Y28.3465
G01 X26.0078 Y28.4579
G01 X26.0036 Y28.5700
G01 X26.0078 Y28.6821
G01 X26.0203 Y28.7936
G01 X26.0412 Y28.9038
G01 X26.0702 Y29.0121
G01 X26.1073 Y29.1180
G01 X26.1521 Y29.2208
G01 X26.2045 Y29.3200
G01 X26.2642 Y29.4150
G01 X26.3308 Y29.5052
G01 X26.4040 Y29.5903
G01 X26.4833 Y29.6696
G01 X26.5683 Y29.7427
G01 X26.6586 Y29.8094
G01 X26.7536 Y29.8690
G01 X26.8527 Y29.9215
G01 X26.9556 Y29.9663
G01 X27.0614 Y30.0034
G01 X27.1698 Y30.0324
G01 X27.2800 Y30.0532
G01 X27.3915 Y30.0658
G01 X27.5036 Y30.0700
G01 X27.6156 Y30.0658
G01 X27.7271 Y30.0532
G01 X27.8373 Y30.0324
G01 X27.9457 Y30.0034
G01 X28.0516 Y29.9663
G01 X28.1544 Y29.9215
G01 X28.2535 Y29.8690
G01 X28.3485 Y29.8094
G01 X28.4388 Y29.7427
G01 X28.5238 Y29.6696
G01 X28.6031 Y29.5903
G01 X28.6763 Y29.5052
G01 X28.7429 Y29.4150
G01 X28.8026 Y29.3200
G01 X28.8550 Y29.2208
G01 X28.8998 Y29.1180
G01 X28.9369 Y29.0121
G01 X28.9659 Y28.9038
G01 X28.9868 Y28.7936
G01 X28.9993 Y28.6821
G01 X29.0035 Y28.5700
G01 X29.0005 Y28.4916 Z-5.9750 F400
G01 X28.9912 Y28.4136 Z-5.9500
G01 X28.9759 Y28.3366 Z-5.9250
G01 X28.9546 Y28.2610 Z-5.9000
G01 X28.9274 Y28.1873 Z-5.8750
G01 X28.8945 Y28.1160 Z-5.8500
G01 X28.8562 Y28.0475 Z-5.8250
G01 X28.8126 Y27.9822 Z-5.8000
G01 X28.7639 Y27.9206 Z-5.7750
G01 X28.7106 Y27.8629 Z-5.7500
G01 X28.6530 Y27.8096 Z-5.7250
G01 X28.5913 Y27.7610 Z-5.7000
G01 X28.5260 Y27.7174 Z-5.6750
G01 X28.4575 Y27.6790 Z-5.6500
G01 X28.3862 Y27.6461 Z-5.6250
G01 X28.3126 Y27.6190 Z-5.6000
G01 X28.2370 Y27.5976 Z-5.5750
G01 X28.1600 Y27.5823 Z-5.5500
G01 X28.0820 Y27.5731 Z-5.5250
G01 X28.0035 Y27.5700 Z-5.5000
G00 Z5.0000


;No. 2: Hole 25
G00 X35.7030 Y44.9090 Z5.0000
G00 Z0.5000
G01 Z0.0000 F400
G01 Z-1.2000
G01 X38.8542 F1100
G01 Y46.4090
G01 X35.7030
G01 Y47.9090
G01 X38.8542
G01 X35.7030 Y49.4090
G01 X44.3356
G01 X48.2502 Y50.9090
G01 X35.7030
G01 Y52.4090
G01 X38.8564
G01 X38.8542 Y53.9090
G01 X35.7030
G01 Y55.4090
G01 X38.8542
G01 Y56.9090
G01 X35.7030
G01 Y58.4090
G01 X39.0458
G01 X35.7030 Y59.9090
G01 X48.0371
G01 X49.4477 Y58.4090
G01 X45.1737
G01 X46.6647
G01 Y56.9090
G01 X50.0473
G01 X50.2139 Y55.4090
G01 X47.0545
G01 X46.8906 Y53.9090
G01 X50.0736
G01 X49.5242 Y52.4090
G01 X49.7081 Y52.3286
G01 X49.5200 Y52.0250
G01 X49.3136 Y51.7335
G01 X49.0898 Y51.4553
G01 X48.8494 Y51.1912
G01 X48.5932 Y50.9424
G01 X48.3223 Y50.7097
G01 X48.0377 Y50.4940
G01 X47.7404 Y50.2962
G01 X47.4315 Y50.1170
G01 X47.1123 Y49.9570
G01 X46.7838 Y49.8168
G01 X46.4474 Y49.6971
G01 X46.0052 Y49.5563
G01 X45.5574 Y49.4347
G01 X45.1047 Y49.3325
G01 X44.6481 Y49.2498
G01 X44.1884 Y49.1868
G01 X43.7264 Y49.1436
G01 X43.2629 Y49.1203
G01 X42.7989 Y49.1169
G01 X40.0542
G01 X40.0106 Y49.1159
G01 X39.9670 Y49.1131
G01 X39.9237 Y49.1083
G01 X39.8805 Y49.1017
G01 X39.8378 Y49.0932
G01 X39.7954 Y49.0828
G01 X39.7535 Y49.0706
G01 X39.7122 Y49.0566
G01 X39.6715 Y49.0408
G01 X39.6316 Y49.0232
G01 X39.5924 Y49.0039
G01 X39.5542 Y48.9829
G01 X39.5169 Y48.9603
G01 X39.4806 Y48.9360
G01 X39.4454 Y48.9102
G01 X39.4114 Y48.8829
G01 X39.3786 Y48.8542
G01 X39.3471 Y48.8240
G01 X39.3169 Y48.7925
G01 X39.2882 Y48.7597
G01 X39.2608 Y48.7256
G01 X39.2350 Y48.6905
G01 X39.2108 Y48.6542
G01 X39.1882 Y48.6169
G01 X39.1672 Y48.5786
G01 X39.1479 Y48.5395
G01 X39.1303 Y48.4996
G01 X39.1145 Y48.4589
G01 X39.1005 Y48.4176
G01 X39.0883 Y48.3757
G01 X39.0779 Y48.3333
G01 X39.0694 Y48.2905
G01 X39.0628 Y48.2474
G01 X39.0580 Y48.2040
G01 X39.0551 Y48.1605
G01 X39.0542 Y48.1169
G01 Y43.3940
G01 X35.5030
G01 Y61.4241
G01 X37.4564 Y61.4418
G01 X39.4099 Y61.4474
G01 X41.3634 Y61.4408
G01 X43.3168 Y61.4220
G01 X43.8849 Y61.4116
G01 X44.4512 Y61.3658
G01 X45.0136 Y61.2847
G01 X45.5698 Y61.1687
G01 X46.1177 Y61.0183
G01 X46.6552 Y60.8339
G01 X47.1801 Y60.6164
G01 X47.6904 Y60.3666
G01 X47.9756 Y60.1953
G01 X48.2494 Y60.0064
G01 X48.5108 Y59.8006
G01 X48.7587 Y59.5787
G01 X48.9921 Y59.3417
G01 X49.2101 Y59.0904
G01 X49.4118 Y58.8259
G01 X49.5964 Y58.5492
G01 X49.7633 Y58.2614
G01 X49.9117 Y57.9636
G01 X50.0410 Y57.6571
G01 X50.1507 Y57.3431
G01 X50.2405 Y57.0227
G01 X50.3099 Y56.6974
G01 X50.3586 Y56.3683
G01 X50.3865 Y56.0368
G01 X50.4219 Y55.5602
G01 X50.4225 Y55.0824
G01 X50.3884 Y54.6057
G01 X50.3196 Y54.1329
G01 X50.2165 Y53.6662
G01 X50.0797 Y53.2084
G01 X49.9100 Y52.7617
G01 X49.7081 Y52.3286
G01 X49.5242 Y52.4090
G01 X45.9552
G01 X45.8537 Y52.5895
G01 X46.0412 Y52.7953
G01 X46.2121 Y53.0151
G01 X46.3652 Y53.2475
G01 X46.4996 Y53.4913
G01 X46.6146 Y53.7448
G01 X46.7095 Y54.0065
G01 X46.7835 Y54.2748
G01 X46.8363 Y54.5482
G01 X46.8676 Y54.8248
G01 X46.8772 Y55.1030
G01 X46.8650 Y55.3811
G01 X46.8311 Y55.6573
G01 X46.7780 Y55.9916
G01 X46.6913 Y56.3188
G01 X46.5719 Y56.6356
G01 X46.4211 Y56.9386
G01 X46.2403 Y57.2247
G01 X46.0314 Y57.4910
G01 X45.7966 Y57.7349
G01 X45.5383 Y57.9536
G01 X45.2592 Y58.1451
G01 X44.9621 Y58.3073
G01 X44.6501 Y58.4386
G01 X44.3265 Y58.5375
G01 X43.9175 Y58.6371
G01 X43.5026 Y58.7076
G01 X43.0837 Y58.7486
G01 X42.6630 Y58.7599
G01 X40.0542
G01 X40.0106 Y58.7590
G01 X39.9670 Y58.7561
G01 X39.9237 Y58.7514
G01 X39.8805 Y58.7447
G01 X39.8378 Y58.7362
G01 X39.7954 Y58.7259
G01 X39.7535 Y58.7137
G01 X39.7122 Y58.6996
G01 X39.6715 Y58.6838
G01 X39.6316 Y58.6662
G01 X39.5924 Y58.6470
G01 X39.5542 Y58.6260
G01 X39.5169 Y58.6033
G01 X39.4806 Y58.5791
G01 X39.4454 Y58.5533
G01 X39.4114 Y58.5260
G01 X39.3786 Y58.4972
G01 X39.3471 Y58.4670
G01 X39.3169 Y58.4355
G01 X39.2882 Y58.4027
G01 X39.2608 Y58.3687
G01 X39.2350 Y58.3335
G01 X39.2108 Y58.2972
G01 X39.1882 Y58.2599
G01 X39.1672 Y58.2217
G01 X39.1479 Y58.1826
G01 X39.1303 Y58.1426
G01 X39.1145 Y58.1020
G01 X39.1005 Y58.0606
G01 X39.0883 Y58.0188
G01 X39.0779 Y57.9764
G01 X39.0694 Y57.9336
G01 X39.0628 Y57.8905
G01 X39.0580 Y57.8471
G01 X39.0551 Y57.8036
G01 X39.0542 Y57.7599
G01 Y52.4663
G01 X39.0573 Y52.3878
G01 X39.0665 Y52.3098
G01 X39.0818 Y52.2328
G01 X39.1031 Y52.1573
G01 X39.1303 Y52.0836
G01 X39.1632 Y52.0123
G01 X39.2016 Y51.9438
G01 X39.2452 Y51.8785
G01 X39.2938 Y51.8168
G01 X39.3471 Y51.7592
G01 X39.4048 Y51.7059
G01 X39.4664 Y51.6572
G01 X39.5317 Y51.6136
G01 X39.6002 Y51.5753
G01 X39.6715 Y51.5424
G01 X39.7452 Y51.5152
G01 X39.8208 Y51.4939
G01 X39.8978 Y51.4786
G01 X39.9757 Y51.4694
G01 X40.0542 Y51.4663
G01 X40.8094 Y51.4461
G01 X41.5648 Y51.4414
G01 X42.3202 Y51.4521
G01 X43.0752 Y51.4783
G01 X43.4563 Y51.5046
G01 X43.8335 Y51.5647
G01 X44.2038 Y51.6580
G01 X44.5644 Y51.7840
G01 X44.9124 Y51.9414
G01 X45.2450 Y52.1292
G01 X45.5596 Y52.3458
G01 X45.8537 Y52.5895
G01 X45.9552 Y52.4090
G00 Z5.0000


;No. 3: Hole 26
G00 X54.4532 Y49.4806 Z5.0000
G00 Z0.5000
G01 Z0.0000 F400
G01 Z-1.2000
G01 X58.1705 F1100
G01 X58.0365
G01 Y50.9806
G01 X55.0873
G01 X55.7213 Y52.4806
G01 X58.6320
G01 X59.2274 Y53.9806
G01 X56.3554
G01 X56.9894 Y55.4806
G01 X59.8229
G01 Y56.9806
G01 X60.6436
G01 X57.6235
G01 X58.2575 Y58.4806
G01 X64.4575
G01 X65.0916 Y56.9806
G01 X61.9852
G01 X62.8015
G01 Y55.4806
G01 X65.7256
G01 X66.3597 Y53.9806
G01 X63.3895
G01 X63.9774 Y52.4806
G01 X66.9937
G01 X67.6278 Y50.9806
G01 X64.5654
G01 Y49.4806
G01 X64.4301
G01 X64.2969 Y49.6318
G01 X64.3263 Y49.6667
G01 X64.3541 Y49.7029
G01 X64.3802 Y49.7403
G01 X64.4045 Y49.7789
G01 X64.4271 Y49.8185
G01 X64.4478 Y49.8591
G01 X64.4666 Y49.9006
G01 X64.4836 Y49.9430
G01 X64.4985 Y49.9861
G01 X64.5115 Y50.0298
G01 X64.5225 Y50.0740
G01 X64.5314 Y50.1188
G01 X64.5383 Y50.1638
G01 X64.5431 Y50.2092
G01 X64.5459 Y50.2547
G01 X64.5465 Y50.3003
G01 X64.5451 Y50.3459
G01 X64.5416 Y50.3914
G01 X64.5360 Y50.4366
G01 X64.5284 Y50.4816
G01 X64.5187 Y50.5261
G01 X64.5070 Y50.5702
G01 X64.4933 Y50.6137
G01 X64.4776 Y50.6565
G01 X62.2456 Y56.3508
G01 X62.2279 Y56.3932
G01 X62.2082 Y56.4347
G01 X62.1866 Y56.4753
G01 X62.1632 Y56.5148
G01 X62.1380 Y56.5533
G01 X62.1111 Y56.5905
G01 X62.0825 Y56.6265
G01 X62.0522 Y56.6611
G01 X62.0204 Y56.6942
G01 X61.9871 Y56.7259
G01 X61.9524 Y56.7560
G01 X61.9163 Y56.7845
G01 X61.8790 Y56.8113
G01 X61.8405 Y56.8364
G01 X61.8008 Y56.8597
G01 X61.7602 Y56.8811
G01 X61.7186 Y56.9006
G01 X61.6761 Y56.9182
G01 X61.6329 Y56.9338
G01 X61.5890 Y56.9475
G01 X61.5445 Y56.9590
G01 X61.4996 Y56.9686
G01 X61.4542 Y56.9760
G01 X61.4086 Y56.9814
G01 X61.3627 Y56.9847
G01 X61.3168 Y56.9858
G01 X61.2708 Y56.9849
G01 X61.2250 Y56.9818
G01 X61.1793 Y56.9766
G01 X61.1339 Y56.9694
G01 X61.0889 Y56.9600
G01 X61.0444 Y56.9486
G01 X61.0004 Y56.9352
G01 X60.9572 Y56.9198
G01 X60.9146 Y56.9024
G01 X60.8729 Y56.8830
G01 X60.8322 Y56.8618
G01 X60.7924 Y56.8387
G01 X60.7538 Y56.8138
G01 X60.7163 Y56.7871
G01 X60.6802 Y56.7588
G01 X60.6453 Y56.7288
G01 X60.6119 Y56.6973
G01 X60.5799 Y56.6643
G01 X60.5495 Y56.6298
G01 X60.5208 Y56.5940
G01 X60.4937 Y56.5568
G01 X60.4683 Y56.5185
G01 X60.4447 Y56.4791
G01 X60.4230 Y56.4386
G01 X60.4031 Y56.3971
G01 X60.3852 Y56.3548
G01 X58.1246 Y50.6606
G01 X58.0978 Y50.5840
G01 X58.0772 Y50.5054
G01 X58.0631 Y50.4255
G01 X58.0555 Y50.3447
G01 X58.0545 Y50.2635
G01 X58.0600 Y50.1825
G01 X58.0721 Y50.1023
G01 X58.0907 Y50.0232
G01 X58.1157 Y49.9460
G01 X58.1468 Y49.8710
G01 X58.1839 Y49.7988
G01 X58.2267 Y49.7299
G01 X58.2750 Y49.6646
G01 X58.3284 Y49.6035
G01 X58.3866 Y49.5469
G01 X58.4492 Y49.4952
G01 X58.5158 Y49.4488
G01 X58.5859 Y49.4079
G01 X58.6591 Y49.3729
G01 X58.7350 Y49.3439
G01 X58.8129 Y49.3211
G01 X58.8924 Y49.3047
G01 X58.9730 Y49.2949
G01 X59.0541 Y49.2916
G01 X63.5465
G01 X63.5890 Y49.2924
G01 X63.6314 Y49.2951
G01 X63.6736 Y49.2996
G01 X63.7156 Y49.3058
G01 X63.7573 Y49.3139
G01 X63.7987 Y49.3237
G01 X63.8395 Y49.3353
G01 X63.8798 Y49.3486
G01 X63.9196 Y49.3636
G01 X63.9586 Y49.3804
G01 X63.9969 Y49.3987
G01 X64.0344 Y49.4187
G01 X64.0710 Y49.4403
G01 X64.1066 Y49.4634
G01 X64.1413 Y49.4880
G01 X64.1748 Y49.5140
G01 X64.2072 Y49.5415
G01 X64.2384 Y49.5703
G01 X64.2683 Y49.6005
G01 X64.2969 Y49.6318
G01 X64.4301 Y49.4806
G01 X68.2618
G01 X68.8958 Y47.9806
G01 X53.8192
G01 X53.1852 Y46.4806
G01 X56.3373
G01 X55.7345 Y44.9806
G01 X52.5511
G00 Z5.0000
G00 X66.2345 Y47.9806
G00 Z0.5000
G01 Z-1.2000 F400
G01 Y46.4806 F1100
G01 X69.5299
G01 X70.1639 Y44.9806
G01 X66.8490
G00 Z5.0000
G00 X63.8235 Y58.4806
G00 Z0.5000
G01 Z-1.2000 F400
G01 Y59.9806 F1100
G01 X58.8915
G01 X58.7030 Y60.0483
G01 X59.3451 Y61.5672
G01 X63.3700
G01 X71.0517 Y43.3940
G01 X67.2803
G01 X66.0748 Y46.3486
G01 X66.0444 Y46.4160
G01 X66.0090 Y46.4809
G01 X65.9690 Y46.5431
G01 X65.9245 Y46.6021
G01 X65.8757 Y46.6577
G01 X65.8229 Y46.7095
G01 X65.7665 Y46.7573
G01 X65.7067 Y46.8008
G01 X65.6439 Y46.8397
G01 X65.5783 Y46.8739
G01 X65.5104 Y46.9032
G01 X65.4405 Y46.9274
G01 X65.3690 Y46.9463
G01 X65.2963 Y46.9599
G01 X65.2228 Y46.9681
G01 X65.1489 Y46.9708
G01 X57.4230
G01 X57.3487 Y46.9680
G01 X57.2748 Y46.9598
G01 X57.2017 Y46.9460
G01 X57.1298 Y46.9269
G01 X57.0596 Y46.9024
G01 X56.9914 Y46.8728
G01 X56.9255 Y46.8382
G01 X56.8624 Y46.7989
G01 X56.8024 Y46.7549
G01 X56.7459 Y46.7066
G01 X56.6930 Y46.6542
G01 X56.6443 Y46.5981
G01 X56.5998 Y46.5385
G01 X56.5599 Y46.4757
G01 X56.5247 Y46.4102
G01 X56.4946 Y46.3422
G01 X55.3153 Y43.3940
G01 X51.6633
G01 X58.7030 Y60.0483
G01 X58.8915 Y59.9806
G00 Z5.0000


;No. 4: Hole 27
G00 X75.7058 Y59.9090 Z5.0000
G00 Z0.5000
G01 Z0.0000 F400
G01 Z-1.2000
G01 X89.0681 F1100
G01 X90.4212 Y58.4090
G01 X85.8744
G01 X87.5136
G01 Y56.9090
G01 X90.9574
G01 X91.0737 Y55.4090
G01 X87.8918
G01 X87.6732 Y53.9090
G01 X90.8719
G01 X90.1793 Y52.4090
G01 X86.5295
G01 X88.5336 Y50.9090
G01 X75.7058
G01 Y49.4090
G01 X79.3237
G01 X78.8570
G01 Y47.9090
G01 X75.7058
G01 Y46.4090
G01 X78.8570
G01 Y44.9090
G01 X75.7058
G00 Z5.0000
G00 Y50.9090
G00 Z0.5000
G01 Z-1.2000 F400
G01 Y52.4090 F1100
G01 X78.9267
G01 X78.8570 Y53.9090
G01 X75.7058
G01 Y55.4090
G01 X78.8570
G01 Y56.9090
G01 X75.7058
G01 Y58.4090
G01 X79.1564
G01 X79.3225 Y58.2943
G01 X79.2916 Y58.2595
G01 X79.2625 Y58.2232
G01 X79.2350 Y58.1856
G01 X79.2093 Y58.1468
G01 X79.1855 Y58.1068
G01 X79.1636 Y58.0657
G01 X79.1436 Y58.0237
G01 X79.1256 Y57.9807
G01 X79.1096 Y57.9370
G01 X79.0957 Y57.8926
G01 X79.0839 Y57.8476
G01 X79.0742 Y57.8020
G01 X79.0667 Y57.7561
G01 X79.0613 Y57.7098
G01 X79.0580 Y57.6634
G01 X79.0570 Y57.6169
G01 Y52.8096
G01 X79.0601 Y52.7312
G01 X79.0693 Y52.6532
G01 X79.0846 Y52.5762
G01 X79.1059 Y52.5006
G01 X79.1331 Y52.4270
G01 X79.1660 Y52.3556
G01 X79.2043 Y52.2871
G01 X79.2480 Y52.2219
G01 X79.2966 Y52.1602
G01 X79.3499 Y52.1025
G01 X79.4075 Y52.0492
G01 X79.4692 Y52.0006
G01 X79.5345 Y51.9570
G01 X79.6030 Y51.9186
G01 X79.6743 Y51.8858
G01 X79.7480 Y51.8586
G01 X79.8235 Y51.8373
G01 X79.9006 Y51.8219
G01 X79.9785 Y51.8127
G01 X80.0570 Y51.8096
G01 X81.0320 Y51.7907
G01 X82.0071 Y51.7852
G01 X82.9822 Y51.7930
G01 X83.9572 Y51.8142
G01 X84.3346 Y51.8282
G01 X84.7093 Y51.8762
G01 X85.0782 Y51.9577
G01 X85.4381 Y52.0723
G01 X85.7863 Y52.2188
G01 X86.1198 Y52.3961
G01 X86.4360 Y52.6028
G01 X86.7323 Y52.8372
G01 X86.9164 Y53.0377
G01 X87.0836 Y53.2526
G01 X87.2329 Y53.4802
G01 X87.3633 Y53.7192
G01 X87.4738 Y53.9680
G01 X87.5639 Y54.2249
G01 X87.6329 Y54.4883
G01 X87.6803 Y54.7564
G01 X87.7058 Y55.0275
G01 X87.7093 Y55.2997
G01 X87.6908 Y55.5713
G01 X87.6503 Y55.8405
G01 X87.5872 Y56.1459
G01 X87.4942 Y56.4436
G01 X87.3721 Y56.7306
G01 X87.2222 Y57.0040
G01 X87.0458 Y57.2612
G01 X86.8449 Y57.4997
G01 X86.6213 Y57.7171
G01 X86.3772 Y57.9113
G01 X86.1151 Y58.0803
G01 X85.8376 Y58.2224
G01 X85.5473 Y58.3364
G01 X85.2471 Y58.4210
G01 X84.8652 Y58.5089
G01 X84.4782 Y58.5711
G01 X84.0879 Y58.6071
G01 X83.6960 Y58.6169
G01 X80.0570
G01 X80.0157 Y58.6161
G01 X79.9745 Y58.6135
G01 X79.9334 Y58.6093
G01 X79.8926 Y58.6034
G01 X79.8520 Y58.5958
G01 X79.8118 Y58.5865
G01 X79.7720 Y58.5755
G01 X79.7327 Y58.5629
G01 X79.6939 Y58.5487
G01 X79.6558 Y58.5329
G01 X79.6183 Y58.5155
G01 X79.5816 Y58.4966
G01 X79.5458 Y58.4762
G01 X79.5108 Y58.4543
G01 X79.4767 Y58.4310
G01 X79.4437 Y58.4063
G01 X79.4116 Y58.3802
G01 X79.3808 Y58.3528
G01 X79.3510 Y58.3242
G01 X79.3225 Y58.2943
G01 X79.1564 Y58.4090
G00 Z5.0000
G00 X83.2237 Y50.9090
G00 Z0.5000
G01 Z-1.2000 F400
G01 Y49.4090 F1100
G01 X86.9561
G01 Y47.9090
G01 X87.7047
G01 X84.2970
G01 X85.2946 Y46.4090
G01 X88.7313
G01 X89.7580 Y44.9090
G01 X86.2923
G01 X86.1214 Y44.8048
G01 X83.3219 Y49.0140
G01 X83.2737 Y49.0804
G01 X83.2203 Y49.1425
G01 X83.1620 Y49.2001
G01 X83.0991 Y49.2527
G01 X83.0321 Y49.3000
G01 X82.9615 Y49.3417
G01 X82.8878 Y49.3774
G01 X82.8113 Y49.4070
G01 X82.7327 Y49.4302
G01 X82.6525 Y49.4468
G01 X82.5711 Y49.4569
G01 X82.4892 Y49.4603
G01 X80.0570
G01 X79.9785 Y49.4572
G01 X79.9005 Y49.4479
G01 X79.8235 Y49.4326
G01 X79.7480 Y49.4113
G01 X79.6743 Y49.3841
G01 X79.6030 Y49.3513
G01 X79.5345 Y49.3129
G01 X79.4692 Y49.2693
G01 X79.4075 Y49.2207
G01 X79.3499 Y49.1674
G01 X79.2966 Y49.1097
G01 X79.2480 Y49.0480
G01 X79.2043 Y48.9827
G01 X79.1660 Y48.9142
G01 X79.1331 Y48.8429
G01 X79.1059 Y48.7693
G01 X79.0846 Y48.6937
G01 X79.0693 Y48.6167
G01 X79.0601 Y48.5387
G01 X79.0570 Y48.4603
G01 Y43.3940
G01 X75.5058
G01 Y61.4241
G01 X77.6858 Y61.4375
G01 X79.8658 Y61.4416
G01 X82.0458 Y61.4365
G01 X84.2258 Y61.4220
G01 X84.7573 Y61.4164
G01 X85.2878 Y61.3816
G01 X85.8155 Y61.3178
G01 X86.3389 Y61.2251
G01 X86.8565 Y61.1039
G01 X87.3666 Y60.9545
G01 X87.8678 Y60.7773
G01 X88.3585 Y60.5729
G01 X88.6650 Y60.4163
G01 X88.9600 Y60.2391
G01 X89.2423 Y60.0421
G01 X89.5104 Y59.8263
G01 X89.7632 Y59.5927
G01 X89.9994 Y59.3423
G01 X90.2179 Y59.0764
G01 X90.4178 Y58.7962
G01 X90.5980 Y58.5030
G01 X90.7577 Y58.1981
G01 X90.8963 Y57.8830
G01 X91.0130 Y57.5592
G01 X91.1072 Y57.2282
G01 X91.1786 Y56.8915
G01 X91.2269 Y56.5507
G01 X91.2517 Y56.2074
G01 X91.2852 Y55.7619
G01 X91.2862 Y55.3151
G01 X91.2545 Y54.8695
G01 X91.1904 Y54.4273
G01 X91.0942 Y53.9910
G01 X90.9665 Y53.5629
G01 X90.8078 Y53.1452
G01 X90.6191 Y52.7403
G01 X90.4463 Y52.4626
G01 X90.2580 Y52.1952
G01 X90.0548 Y51.9389
G01 X89.8374 Y51.6946
G01 X89.6065 Y51.4630
G01 X89.3628 Y51.2449
G01 X89.1071 Y51.0409
G01 X88.8403 Y50.8519
G01 X88.5631 Y50.6782
G01 X88.2765 Y50.5206
G01 X87.9815 Y50.3795
G01 X87.6789 Y50.2554
G01 X87.6070 Y50.2125
G01 X87.5389 Y50.1637
G01 X87.4752 Y50.1095
G01 X87.4162 Y50.0500
G01 X87.3624 Y49.9859
G01 X87.3142 Y49.9175
G01 X87.2718 Y49.8452
G01 X87.2357 Y49.7697
G01 X87.2059 Y49.6915
G01 X87.1829 Y49.6110
G01 X87.1666 Y49.5288
G01 X87.1573 Y49.4456
G01 X87.1550 Y49.3620
G01 X87.1596 Y49.2784
G01 X87.1713 Y49.1955
G01 X87.1898 Y49.1138
G01 X87.2151 Y49.0340
G01 X87.2470 Y48.9566
G01 X87.2853 Y48.8821
G01 X87.3296 Y48.8111
G01 X91.0372 Y43.3940
G01 X87.0597
G01 X86.1214 Y44.8048
G01 X86.2923 Y44.9090
G00 Z5.0000


;No. 5: Hole 16
G00 X96.2795 Y44.9090 Z5.0000
G00 Z0.5000
G01 Z0.0000 F400
G01 Z-1.2000
G01 X99.4307 F1100
G01 Y46.4090
G01 X96.2795
G01 Y47.9090
G01 X99.4792
G01 X100.6672 Y49.4090
G01 X96.2795
G01 Y50.9090
G01 X102.1298
G01 X106.0324 Y52.4090
G01 X96.2795
G01 Y53.9090
G01 X99.4962
G01 X99.4307 Y55.4090
G01 X96.2795
G01 Y56.9090
G01 X99.4307
G01 Y58.4090
G01 X96.2795
G01 Y59.9090
G01 X99.4307
G00 Z5.0000
G00 X101.8748 Y52.4090
G00 Z0.5000
G01 Z-1.2000 F400
G01 Y53.9090 F1100
G01 X105.3301
G01 Y55.4090
G01 X106.3333
G01 X103.1477
G01 X104.4206 Y56.9090
G01 X107.6539
G01 X108.9745 Y58.4090
G01 X105.6935
G01 X106.9664 Y59.9090
G01 X110.2951
G00 Z5.0000
G00 X103.1940 Y52.4090
G00 Z0.5000
G01 Z-1.2000 F400
G01 Y50.9090 F1100
G01 X107.0625
G01 X108.0926 Y49.4090
G01 X104.3989
G01 X105.4143 Y47.9090
G01 X109.1227
G01 X110.1527 Y46.4090
G01 X106.4297
G01 X107.4451 Y44.9090
G01 X111.1828
G01 X111.3431 Y45.0289
G01 X112.4658 Y43.3940
G01 X108.2291
G01 X103.4905 Y50.3943
G01 X103.4363 Y50.4670
G01 X103.3757 Y50.5345
G01 X103.3093 Y50.5963
G01 X103.2376 Y50.6518
G01 X103.1611 Y50.7005
G01 X103.0805 Y50.7421
G01 X102.9965 Y50.7763
G01 X102.9097 Y50.8027
G01 X102.8209 Y50.8211
G01 X102.7308 Y50.8314
G01 X102.6402 Y50.8335
G01 X102.5497 Y50.8274
G01 X102.4601 Y50.8131
G01 X102.3722 Y50.7907
G01 X102.2867 Y50.7605
G01 X102.2043 Y50.7227
G01 X102.1257 Y50.6775
G01 X102.0514 Y50.6254
G01 X101.9822 Y50.5668
G01 X101.9186 Y50.5022
G01 X99.8870 Y48.2417
G01 X99.8572 Y48.2069
G01 X99.8290 Y48.1709
G01 X99.8025 Y48.1336
G01 X99.7777 Y48.0951
G01 X99.7547 Y48.0556
G01 X99.7336 Y48.0150
G01 X99.7143 Y47.9735
G01 X99.6970 Y47.9311
G01 X99.6816 Y47.8881
G01 X99.6682 Y47.8443
G01 X99.6568 Y47.8000
G01 X99.6474 Y47.7552
G01 X99.6401 Y47.7101
G01 X99.6349 Y47.6646
G01 X99.6318 Y47.6190
G01 X99.6307 Y47.5732
G01 Y43.3940
G01 X96.0795
G01 Y61.4241
G01 X99.6307
G01 Y54.2976
G01 X99.6318 Y54.2507
G01 X99.6351 Y54.2040
G01 X99.6406 Y54.1574
G01 X99.6483 Y54.1112
G01 X99.6581 Y54.0653
G01 X99.6700 Y54.0200
G01 X99.6841 Y53.9753
G01 X99.7002 Y53.9313
G01 X99.7184 Y53.8881
G01 X99.7386 Y53.8457
G01 X99.7608 Y53.8044
G01 X99.7849 Y53.7642
G01 X99.8108 Y53.7251
G01 X99.8385 Y53.6874
G01 X99.8680 Y53.6509
G01 X99.8991 Y53.6159
G01 X99.9319 Y53.5823
G01 X99.9662 Y53.5504
G01 X100.0019 Y53.5200
G01 X100.0391 Y53.4914
G01 X100.0775 Y53.4646
G01 X100.1171 Y53.4396
G01 X100.1579 Y53.4164
G01 X100.1997 Y53.3952
G01 X100.2425 Y53.3760
G01 X100.2861 Y53.3588
G01 X100.3305 Y53.3437
G01 X100.3755 Y53.3307
G01 X100.4211 Y53.3198
G01 X100.4672 Y53.3111
G01 X100.5136 Y53.3045
G01 X100.5602 Y53.3001
G01 X100.6071 Y53.2979
G01 X100.6540
G01 X100.7008 Y53.3000
G01 X100.7475 Y53.3044
G01 X100.7939 Y53.3110
G01 X100.8399 Y53.3197
G01 X100.8855 Y53.3306
G01 X100.9306 Y53.3436
G01 X100.9749 Y53.3587
G01 X101.0186 Y53.3759
G01 X101.0613 Y53.3951
G01 X101.1032 Y53.4162
G01 X101.1440 Y53.4393
G01 X101.1836 Y53.4643
G01 X101.2221 Y53.4912
G01 X101.2592 Y53.5198
G01 X101.2950 Y53.5501
G01 X101.3293 Y53.5820
G01 X101.3620 Y53.6155
G01 X101.3932 Y53.6506
G01 X107.9897 Y61.4241
G01 X111.8954
G01 X105.7747 Y54.4719
G01 X105.7227 Y54.4077
G01 X105.6762 Y54.3393
G01 X105.6354 Y54.2673
G01 X105.6008 Y54.1922
G01 X105.5724 Y54.1145
G01 X105.5506 Y54.0348
G01 X105.5355 Y53.9535
G01 X105.5271 Y53.8712
G01 X105.5256 Y53.7885
G01 X105.5308 Y53.7060
G01 X105.5429 Y53.6241
G01 X105.5618 Y53.5436
G01 X105.5872 Y53.4649
G01 X105.6190 Y53.3886
G01 X105.6570 Y53.3151
G01 X105.7010 Y53.2451
G01 X111.3431 Y45.0289
G01 X111.1828 Y44.9090
G00 Z5.0000


;No. 6: Hole 17
G00 X117.2825 Y44.9090 Z5.0000
G00 Z0.5000
G01 Z0.0000 F400
G01 Z-1.2000
G01 X120.4623 F1100
G01 Y46.4090
G01 X117.2825
G01 Y47.9090
G01 X120.4623
G01 Y49.4090
G01 X117.2825
G01 Y50.9090
G01 X120.4623
G01 Y52.4090
G01 X117.2825
G01 Y53.9090
G01 X120.4623
G01 Y55.4090
G01 X117.2825
G01 Y56.9090
G01 X120.4623
G01 Y58.4090
G01 X117.2825
G01 Y59.9090
G01 X120.4623
G01 X120.6623 Y59.8971
G01 Y43.3940
G01 X117.0825
G01 Y61.4241
G01 X120.6623
G01 Y59.8971
G01 X120.4623 Y59.9090
G00 Z5.0000


;No. 7: Hole 18
G00 X126.5249 Y59.9090 Z5.0000
G00 Z0.5000
G01 Z0.0000 F400
G01 Z-1.2000
G01 X130.9411 F1100
G01 X132.1087 Y58.4090
G01 X126.5249
G01 Y56.9090
G01 X133.2763
G01 X134.4438 Y55.4090
G01 X126.5249
G01 Y53.9090
G01 X129.7413
G01 X129.6189 Y52.4090
G01 X126.5249
G01 Y50.9090
G01 X129.6189
G01 Y49.4090
G01 X126.5249
G01 Y47.9090
G01 X129.6189
G01 Y46.4090
G01 X126.5249
G01 Y44.9090
G01 X129.6189
G00 Z5.0000
G00 X131.9293 Y55.4090
G00 Z0.5000
G01 Z-1.2000 F400
G01 Y53.9090 F1100
G01 X135.6114
G01 X136.7790 Y52.4090
G01 X133.0973
G01 X134.2653 Y50.9090
G01 X137.9846
G01 X135.4332 Y49.4090
G01 X143.0391
G01 Y47.9090
G01 X136.6012
G01 X137.7692 Y46.4090
G01 X143.0391
G01 Y44.9090
G01 X138.9372
G00 Z5.0000
G00 X139.5049 Y49.4090
G00 Z0.5000
G01 Z-1.2000 F400
G01 Y50.9090 F1100
G01 X143.0391
G01 Y52.4090
G01 X139.9451
G01 Y53.9090
G01 X143.0391
G01 Y55.4090
G01 X139.9451
G01 Y56.9090
G01 X143.0391
G01 Y58.4090
G01 X139.9451
G01 Y59.9090
G01 X143.0391
G01 X143.2391 Y59.8971
G01 Y43.3940
G01 X139.8634
G01 X131.6079 Y53.9963
G01 X131.5505 Y54.0637
G01 X131.4873 Y54.1257
G01 X131.4189 Y54.1819
G01 X131.3458 Y54.2319
G01 X131.2685 Y54.2751
G01 X131.1878 Y54.3114
G01 X131.1041 Y54.3404
G01 X131.0182 Y54.3619
G01 X130.9307 Y54.3757
G01 X130.8424 Y54.3817
G01 X130.7539 Y54.3798
G01 X130.6659 Y54.3701
G01 X130.5790 Y54.3527
G01 X130.4941 Y54.3277
G01 X130.4117 Y54.2953
G01 X130.3325 Y54.2557
G01 X130.2571 Y54.2092
G01 X130.1862 Y54.1563
G01 X130.1201 Y54.0973
G01 X130.0596 Y54.0327
G01 X130.0050 Y53.9630
G01 X129.9568 Y53.8887
G01 X129.9154 Y53.8105
G01 X129.8810 Y53.7289
G01 X129.8540 Y53.6445
G01 X129.8345 Y53.5581
G01 X129.8228 Y53.4704
G01 X129.8189 Y53.3819
G01 Y43.3940
G01 X126.3249
G01 Y61.4241
G01 X130.0153
G01 X137.9560 Y51.2225
G01 X138.0134 Y51.1551
G01 X138.0766 Y51.0931
G01 X138.1450 Y51.0368
G01 X138.2181 Y50.9869
G01 X138.2953 Y50.9436
G01 X138.3761 Y50.9073
G01 X138.4598 Y50.8783
G01 X138.5457 Y50.8568
G01 X138.6331 Y50.8430
G01 X138.7215 Y50.8370
G01 X138.8100 Y50.8389
G01 X138.8980 Y50.8485
G01 X138.9849 Y50.8659
G01 X139.0698 Y50.8909
G01 X139.1522 Y50.9234
G01 X139.2314 Y50.9630
G01 X139.3068 Y51.0094
G01 X139.3778 Y51.0623
G01 X139.4438 Y51.1213
G01 X139.5043 Y51.1860
G01 X139.5589 Y51.2557
G01 X139.6072 Y51.3300
G01 X139.6486 Y51.4082
G01 X139.6830 Y51.4898
G01 X139.7100 Y51.5741
G01 X139.7294 Y51.6605
G01 X139.7412 Y51.7483
G01 X139.7451 Y51.8368
G01 Y61.4241
G01 X143.2391
G01 Y59.8971
G01 X143.0391 Y59.9090
G00 Z5.0000


;No. 8: Hole 19
G00 X149.0730 Y56.1590 Z5.0000
G00 Z0.5000
G01 Z0.0000 F400
G01 Z-1.2000
G01 X152.6728 F1100
G01 X151.9602 Y54.6590
G01 X148.5667
G01 X148.3292 Y53.1590
G01 X151.6361
G01 X151.6228 Y51.6590
G01 X148.3239
G01 X148.5418 Y50.1590
G01 X151.9062
G01 X152.5678 Y48.6590
G01 X149.0250
G01 X149.8453 Y47.1590
G01 X153.8213
G01 X151.1573 Y45.6590
G01 X157.0957
G01 X153.4320 Y44.1590
G01 X162.8770
G01 X165.4920 Y45.6590
G01 X159.5167
G01 X162.5505
G01 Y47.1590
G01 X165.5014
G01 Y48.6590
G01 X162.6363
G01 X162.6290 Y50.1590
G01 X165.5014
G01 Y51.6590
G01 X158.6875
G00 Z5.0000
G00 X149.9133 Y56.1590
G00 Z0.5000
G01 Z-1.2000 F400
G01 Y57.6590 F1100
G01 X153.9922
G01 X151.2294 Y59.1590
G01 X163.8322
G01 X162.6980 Y60.6590
G01 X153.4693
G01 X153.3771 Y60.8366
G01 X153.8513 Y61.0390
G01 X154.3343 Y61.2192
G01 X154.8250 Y61.3769
G01 X155.3226 Y61.5119
G01 X155.8258 Y61.6237
G01 X156.3337 Y61.7122
G01 X156.8451 Y61.7771
G01 X157.3590 Y61.8184
G01 X157.8742 Y61.8359
G01 X158.3897 Y61.8297
G01 X158.9043 Y61.7996
G01 X159.4170 Y61.7458
G01 X159.8816 Y61.6920
G01 X160.3432 Y61.6170
G01 X160.8010 Y61.5212
G01 X161.2539 Y61.4045
G01 X161.7010 Y61.2675
G01 X162.1415 Y61.1102
G01 X162.5743 Y60.9330
G01 X162.9986 Y60.7363
G01 X163.4135 Y60.5205
G01 X163.8182 Y60.2860
G01 X164.2118 Y60.0334
G01 X164.5935 Y59.7631
G01 X162.6236 Y57.3942
G01 X162.5225 Y57.4380
G01 X162.4248 Y57.4888
G01 X162.3309 Y57.5462
G01 X162.2412 Y57.6102
G01 X161.8178 Y57.8702
G01 X161.3784 Y58.1020
G01 X160.9247 Y58.3046
G01 X160.4588 Y58.4772
G01 X159.9826 Y58.6189
G01 X159.4981 Y58.7292
G01 X159.0075 Y58.8075
G01 X158.5128 Y58.8537
G01 X158.0161 Y58.8674
G01 X157.5196 Y58.8487
G01 X157.0254 Y58.7975
G01 X156.5356 Y58.7142
G01 X156.0937 Y58.5835
G01 X155.6626 Y58.4208
G01 X155.2447 Y58.2268
G01 X154.8421 Y58.0026
G01 X154.4571 Y57.7494
G01 X154.0918 Y57.4686
G01 X153.7480 Y57.1617
G01 X153.4278 Y56.8303
G01 X153.1328 Y56.4764
G01 X152.8646 Y56.1017
G01 X152.6247 Y55.7083
G01 X152.4143 Y55.2983
G01 X152.2347 Y54.8740
G01 X152.0867 Y54.4376
G01 X151.9712 Y53.9915
G01 X151.8888 Y53.5382
G01 X151.8201 Y53.0593
G01 X151.7849 Y52.5768
G01 X151.7833 Y52.0930
G01 X151.8154 Y51.6103
G01 X151.8808 Y51.1310
G01 X151.9795 Y50.6573
G01 X152.1107 Y50.1917
G01 X152.2741 Y49.7363
G01 X152.4686 Y49.2934
G01 X152.6935 Y48.8651
G01 X152.9476 Y48.4534
G01 X153.2296 Y48.0603
G01 X153.4769 Y47.7803
G01 X153.7401 Y47.5153
G01 X154.0184 Y47.2661
G01 X154.3109 Y47.0337
G01 X154.6165 Y46.8188
G01 X154.9341 Y46.6222
G01 X155.2627 Y46.4445
G01 X155.6011 Y46.2864
G01 X155.9483 Y46.1484
G01 X156.3029 Y46.0310
G01 X156.6638 Y45.9346
G01 X157.0297 Y45.8595
G01 X157.3994 Y45.8059
G01 X157.7717 Y45.7741
G01 X158.1451 Y45.7642
G01 X158.5185 Y45.7762
G01 X158.9939 Y45.7905
G01 X159.4668 Y45.8404
G01 X159.9347 Y45.9258
G01 X160.3949 Y46.0461
G01 X160.8447 Y46.2006
G01 X161.2816 Y46.3885
G01 X161.7032 Y46.6088
G01 X162.1070 Y46.8601
G01 X162.1570 Y46.9085
G01 X162.2035 Y46.9604
G01 X162.2463 Y47.0153
G01 X162.2851 Y47.0731
G01 X162.3198 Y47.1334
G01 X162.3503 Y47.1960
G01 X162.3763 Y47.2606
G01 X162.3978 Y47.3269
G01 X162.4146 Y47.3944
G01 X162.4266 Y47.4630
G01 X162.4339 Y47.5322
G01 X162.4363 Y47.6018
G01 Y50.0341
G01 X162.4332 Y50.1125
G01 X162.4240 Y50.1905
G01 X162.4087 Y50.2675
G01 X162.3874 Y50.3431
G01 X162.3602 Y50.4167
G01 X162.3273 Y50.4880
G01 X162.2890 Y50.5565
G01 X162.2453 Y50.6218
G01 X162.1967 Y50.6835
G01 X162.1434 Y50.7412
G01 X162.0858 Y50.7945
G01 X162.0241 Y50.8431
G01 X161.9588 Y50.8867
G01 X161.8903 Y50.9251
G01 X161.8190 Y50.9579
G01 X161.7453 Y50.9851
G01 X161.6698 Y51.0064
G01 X161.5927 Y51.0217
G01 X161.5148 Y51.0310
G01 X161.4363 Y51.0341
G01 X158.4875
G01 Y53.0973
G01 X165.7014
G01 Y45.5738
G01 X165.2237 Y45.2255
G01 X164.7302 Y44.9002
G01 X164.2218 Y44.5985
G01 X163.6997 Y44.3213
G01 X163.1651 Y44.0690
G01 X162.6192 Y43.8424
G01 X162.0631 Y43.6417
G01 X161.4982 Y43.4676
G01 X160.9257 Y43.3204
G01 X160.3469 Y43.2005
G01 X159.7630 Y43.1080
G01 X159.1755 Y43.0432
G01 X158.5855 Y43.0063
G01 X157.9944 Y42.9974
G01 X157.4036 Y43.0163
G01 X156.8143 Y43.0632
G01 X156.2279 Y43.1380
G01 X155.6457 Y43.2403
G01 X155.0690 Y43.3701
G01 X154.4991 Y43.5270
G01 X153.9868 Y43.6985
G01 X153.4857 Y43.9005
G01 X152.9977 Y44.1323
G01 X152.5245 Y44.3931
G01 X152.0679 Y44.6819
G01 X151.6295 Y44.9977
G01 X151.2109 Y45.3393
G01 X150.8137 Y45.7054
G01 X150.4391 Y46.0948
G01 X150.0888 Y46.5061
G01 X149.7638 Y46.9377
G01 X149.4653 Y47.3880
G01 X149.1945 Y47.8556
G01 X148.9524 Y48.3385
G01 X148.7398 Y48.8352
G01 X148.5574 Y49.3438
G01 X148.4026 Y49.8751
G01 X148.2781 Y50.4143
G01 X148.1845 Y50.9597
G01 X148.1221 Y51.5096
G01 X148.0910 Y52.0621
G01 X148.0913 Y52.6155
G01 X148.1231 Y53.1679
G01 X148.1863 Y53.7177
G01 X148.2806 Y54.2630
G01 X148.4057 Y54.8021
G01 X148.5612 Y55.3331
G01 X148.7467 Y55.8545
G01 X148.9615 Y56.3645
G01 X149.2049 Y56.8615
G01 X149.4762 Y57.3438
G01 X149.7745 Y57.8099
G01 X150.0100 Y58.1288
G01 X150.2590 Y58.4373
G01 X150.5210 Y58.7349
G01 X150.7955 Y59.0209
G01 X151.0820 Y59.2949
G01 X151.3800 Y59.5564
G01 X151.6889 Y59.8048
G01 X152.0082 Y60.0398
G01 X152.3373 Y60.2608
G01 X152.6756 Y60.4676
G01 X153.0224 Y60.6596
G01 X153.3771 Y60.8366
G01 X153.4693 Y60.6590
G00 Z5.0000


;No. 9: Hole 28
G00 X178.5077 Y54.6590 Z5.0000
G00 Z0.5000
G01 Z0.0000 F400
G01 Z-1.2000
G01 X181.8680 F1100
G01 X181.5585 Y53.1590
G01 X178.2611
G01 X178.2566 Y51.6590
G01 X181.5650
G01 X181.8915 Y50.1590
G01 X178.4907
G01 X178.9984 Y48.6590
G01 X182.6123
G01 X183.9552 Y47.1590
G01 X179.8417
G01 X181.1602 Y45.6590
G01 X194.4171
G01 X195.7501 Y47.1590
G01 X191.7665
G01 X193.0957 Y48.6590
G01 X196.6082
G01 X197.1297 Y50.1590
G01 X193.7976
G01 X194.1075 Y51.6590
G01 X197.3763
G01 X197.3808 Y53.1590
G01 X194.1012
G01 X193.7740 Y54.6590
G01 X197.1468
G01 X196.6390 Y56.1590
G01 X193.0520
G01 X191.7047 Y57.6590
G01 X195.7957
G01 X194.4772 Y59.1590
G01 X181.2204
G01 X179.8873 Y57.6590
G01 X183.8935
G01 X182.5687 Y56.1590
G01 X182.7599 Y56.0867
G01 X182.5448 Y55.7158
G01 X182.3533 Y55.3322
G01 X182.1860 Y54.9374
G01 X182.0437 Y54.5329
G01 X181.9269 Y54.1204
G01 X181.8360 Y53.7013
G01 X181.7714 Y53.2775
G01 X181.7334 Y52.8504
G01 X181.7220 Y52.4218
G01 X181.7374 Y51.9933
G01 X181.7795 Y51.5666
G01 X181.8481 Y51.1433
G01 X181.9429 Y50.7252
G01 X182.0636 Y50.3138
G01 X182.2098 Y49.9107
G01 X182.3807 Y49.5175
G01 X182.5759 Y49.1357
G01 X182.7945 Y48.7668
G01 X183.0356 Y48.4123
G01 X183.2984 Y48.0735
G01 X183.5867 Y47.7656
G01 X183.8958 Y47.4785
G01 X184.2241 Y47.2136
G01 X184.5701 Y46.9723
G01 X184.9320 Y46.7556
G01 X185.3081 Y46.5646
G01 X185.6966 Y46.4003
G01 X186.0956 Y46.2635
G01 X186.5031 Y46.1547
G01 X186.9173 Y46.0746
G01 X187.3360 Y46.0235
G01 X187.7573 Y46.0017
G01 X188.1790 Y46.0093
G01 X188.5992 Y46.0462
G01 X189.0158 Y46.1123
G01 X189.4268 Y46.2072
G01 X189.8302 Y46.3305
G01 X190.2241 Y46.4816
G01 X190.6064 Y46.6598
G01 X190.9754 Y46.8641
G01 X191.3293 Y47.0936
G01 X191.6664 Y47.3472
G01 X191.9850 Y47.6237
G01 X192.2836 Y47.9217
G01 X192.5432 Y48.2389
G01 X192.7833 Y48.5712
G01 X193.0029 Y48.9174
G01 X193.2012 Y49.2762
G01 X193.3774 Y49.6463
G01 X193.5310 Y50.0264
G01 X193.6614 Y50.4150
G01 X193.7681 Y50.8109
G01 X193.8508 Y51.2124
G01 X193.9090 Y51.6182
G01 X193.9427 Y52.0268
G01 X193.9516 Y52.4366
G01 X193.9358 Y52.8462
G01 X193.8953 Y53.2542
G01 X193.8303 Y53.6589
G01 X193.7409 Y54.0590
G01 X193.6202 Y54.5131
G01 X193.4648 Y54.9566
G01 X193.2758 Y55.3868
G01 X193.0542 Y55.8011
G01 X192.8014 Y56.1972
G01 X192.5189 Y56.5726
G01 X192.2083 Y56.9252
G01 X191.8714 Y57.2528
G01 X191.5104 Y57.5535
G01 X191.1273 Y57.8255
G01 X190.7243 Y58.0672
G01 X190.3040 Y58.2772
G01 X189.8687 Y58.4542
G01 X189.4211 Y58.5972
G01 X188.9639 Y58.7053
G01 X188.4996 Y58.7778
G01 X188.0833 Y58.8164
G01 X187.6653 Y58.8255
G01 X187.2477 Y58.8050
G01 X186.8326 Y58.7550
G01 X186.4220 Y58.6757
G01 X186.0181 Y58.5676
G01 X185.6229 Y58.4313
G01 X185.2383 Y58.2673
G01 X184.8662 Y58.0765
G01 X184.5086 Y57.8599
G01 X184.1672 Y57.6185
G01 X183.8437 Y57.3536
G01 X183.5398 Y57.0665
G01 X183.2569 Y56.7586
G01 X182.9965 Y56.4314
G01 X182.7599 Y56.0867
G01 X182.5687 Y56.1590
G01 X179.0292
G00 Z5.0000
G00 X183.4673 Y59.1590
G00 Z0.5000
G01 Z-1.2000 F400
G01 Y60.6590 F1100
G01 X192.2399
G00 Z5.0000
G00 X192.1701 Y45.6590
G00 Z0.5000
G01 Z-1.2000 F400
G01 Y44.1590 F1100
G01 X183.3975
G01 X183.3056 Y43.9813
G01 X182.8698 Y44.2015
G01 X182.4463 Y44.4444
G01 X182.0362 Y44.7093
G01 X181.6407 Y44.9956
G01 X181.2608 Y45.3023
G01 X180.8977 Y45.6288
G01 X180.5524 Y45.9739
G01 X180.2258 Y46.3368
G01 X179.9189 Y46.7165
G01 X179.6324 Y47.1119
G01 X179.3673 Y47.5219
G01 X179.1242 Y47.9453
G01 X178.9038 Y48.3810
G01 X178.7068 Y48.8277
G01 X178.5336 Y49.2842
G01 X178.3849 Y49.7493
G01 X178.2609 Y50.2215
G01 X178.1621 Y50.6996
G01 X178.0887 Y51.1823
G01 X178.0409 Y51.6682
G01 X178.0188 Y52.1560
G01 X178.0226 Y52.6442
G01 X178.0522 Y53.1315
G01 X178.1075 Y53.6166
G01 X178.2023 Y54.1912
G01 X178.3325 Y54.7587
G01 X178.4977 Y55.3171
G01 X178.6971 Y55.8642
G01 X178.9301 Y56.3979
G01 X179.1957 Y56.9161
G01 X179.4928 Y57.4169
G01 X179.8205 Y57.8983
G01 X180.1773 Y58.3584
G01 X180.5620 Y58.7956
G01 X180.9730 Y59.2081
G01 X181.4088 Y59.5943
G01 X181.8677 Y59.9528
G01 X182.3479 Y60.2822
G01 X182.8476 Y60.5811
G01 X183.3649 Y60.8485
G01 X183.8977 Y61.0834
G01 X184.4441 Y61.2848
G01 X185.0019 Y61.4519
G01 X185.5690 Y61.5842
G01 X186.1090 Y61.6911
G01 X186.6540 Y61.7693
G01 X187.2023 Y61.8184
G01 X187.7525 Y61.8383
G01 X188.3029 Y61.8290
G01 X188.8521 Y61.7905
G01 X189.3984 Y61.7229
G01 X189.9404 Y61.6263
G01 X190.4765 Y61.5012
G01 X191.0052 Y61.3477
G01 X191.5250 Y61.1664
G01 X192.0344 Y60.9578
G01 X192.5321 Y60.7224
G01 X193.0165 Y60.4609
G01 X193.4864 Y60.1741
G01 X193.9404 Y59.8628
G01 X194.3364 Y59.5465
G01 X194.7144 Y59.2091
G01 X195.0734 Y58.8515
G01 X195.4123 Y58.4748
G01 X195.7301 Y58.0802
G01 X196.0259 Y57.6687
G01 X196.2986 Y57.2417
G01 X196.5476 Y56.8003
G01 X196.7721 Y56.3460
G01 X196.9714 Y55.8802
G01 X197.1449 Y55.4041
G01 X197.2921 Y54.9192
G01 X197.4125 Y54.4270
G01 X197.5059 Y53.9290
G01 X197.5718 Y53.4266
G01 X197.6102 Y52.9213
G01 X197.6208 Y52.4147
G01 X197.6038 Y51.9083
G01 X197.5590 Y51.4035
G01 X197.4867 Y50.9020
G01 X197.3765 Y50.3456
G01 X197.2329 Y49.7969
G01 X197.0564 Y49.2579
G01 X196.8478 Y48.7305
G01 X196.6078 Y48.2166
G01 X196.3372 Y47.7181
G01 X196.0371 Y47.2369
G01 X195.7085 Y46.7746
G01 X195.3526 Y46.3330
G01 X194.9707 Y45.9137
G01 X194.5642 Y45.5181
G01 X194.1346 Y45.1478
G01 X193.6835 Y44.8041
G01 X193.2124 Y44.4881
G01 X192.7232 Y44.2012
G01 X192.2176 Y43.9443
G01 X191.6973 Y43.7183
G01 X191.1644 Y43.5242
G01 X190.6208 Y43.3625
G01 X190.0684 Y43.2339
G01 X189.5015 Y43.1261
G01 X188.9296 Y43.0491
G01 X188.3544 Y43.0032
G01 X187.7776 Y42.9886
G01 X187.2008 Y43.0052
G01 X186.6257 Y43.0530
G01 X186.0541 Y43.1319
G01 X185.4876 Y43.2417
G01 X184.9278 Y43.3819
G01 X184.3765 Y43.5523
G01 X183.8352 Y43.7523
G01 X183.3056 Y43.9813
G01 X183.3975 Y44.1590
G00 Z5.0000


;No. 10: Hole 20
G00 X202.6964 Y44.9090 Z5.0000
G00 Z0.5000
G01 Z0.0000 F400
G01 Z-1.2000
G01 X205.7903 F1100
G01 Y46.4090
G01 X202.6964
G01 Y47.9090
G01 X205.7903
G01 Y49.4090
G01 X202.6964
G01 Y50.9090
G01 X205.7903
G01 Y52.4090
G01 X202.6964
G01 Y53.9090
G01 X205.9128
G01 X202.6964 Y55.4090
G01 X210.6153
G01 X209.4477 Y56.9090
G01 X202.6964
G01 Y58.4090
G01 X208.2801
G01 X207.1126 Y59.9090
G01 X202.6964
G00 Z5.0000
G00 X208.1008 Y55.4090
G00 Z0.5000
G01 Z-1.2000 F400
G01 Y53.9090 F1100
G01 X211.7828
G01 X212.9504 Y52.4090
G01 X209.2688
G01 X210.4367 Y50.9090
G01 X214.1560
G01 X211.6047 Y49.4090
G01 X219.2105
G01 Y47.9090
G01 X212.7727
G01 X213.9406 Y46.4090
G01 X219.2105
G01 Y44.9090
G01 X215.1086
G00 Z5.0000
G00 X215.6763 Y49.4090
G00 Z0.5000
G01 Z-1.2000 F400
G01 Y50.9090 F1100
G01 X219.2105
G01 Y52.4090
G01 X216.1165
G01 Y53.9090
G01 X219.2105
G01 Y55.4090
G01 X216.1165
G01 Y56.9090
G01 X219.2105
G01 Y58.4090
G01 X216.1165
G01 Y59.9090
G01 X219.2105
G01 X219.4105 Y59.8971
G01 Y43.3940
G01 X216.0348
G01 X207.7794 Y53.9963
G01 X207.7492 Y54.0332
G01 X207.7173 Y54.0687
G01 X207.6837 Y54.1025
G01 X207.6486 Y54.1348
G01 X207.6119 Y54.1653
G01 X207.5739 Y54.1940
G01 X207.5345 Y54.2209
G01 X207.4939 Y54.2459
G01 X207.4521 Y54.2689
G01 X207.4093 Y54.2899
G01 X207.3655 Y54.3089
G01 X207.3209 Y54.3257
G01 X207.2755 Y54.3404
G01 X207.2295 Y54.3529
G01 X207.1830 Y54.3632
G01 X207.1360 Y54.3713
G01 X207.0886 Y54.3771
G01 X207.0411 Y54.3806
G01 X206.9934 Y54.3819
G01 X206.9457 Y54.3809
G01 X206.8981 Y54.3777
G01 X206.8508 Y54.3721
G01 X206.8037 Y54.3644
G01 X206.7571 Y54.3543
G01 X206.7110 Y54.3421
G01 X206.6655 Y54.3277
G01 X206.6208 Y54.3112
G01 X206.5769 Y54.2925
G01 X206.5340 Y54.2717
G01 X206.4921 Y54.2490
G01 X206.4513 Y54.2242
G01 X206.4118 Y54.1976
G01 X206.3736 Y54.1691
G01 X206.3367 Y54.1388
G01 X206.3014 Y54.1067
G01 X206.2676 Y54.0731
G01 X206.2355 Y54.0378
G01 X206.2051 Y54.0011
G01 X206.1765 Y53.9630
G01 X206.1497 Y53.9235
G01 X206.1248 Y53.8828
G01 X206.1019 Y53.8410
G01 X206.0811 Y53.7981
G01 X206.0622 Y53.7543
G01 X206.0456 Y53.7096
G01 X206.0310 Y53.6642
G01 X206.0186 Y53.6181
G01 X206.0085 Y53.5715
G01 X206.0006 Y53.5245
G01 X205.9949 Y53.4772
G01 X205.9915 Y53.4296
G01 X205.9903 Y53.3819
G01 Y43.3940
G01 X202.4964
G01 Y61.4241
G01 X206.1867
G01 X214.1274 Y51.2225
G01 X214.1848 Y51.1551
G01 X214.2480 Y51.0931
G01 X214.3164 Y51.0368
G01 X214.3895 Y50.9869
G01 X214.4668 Y50.9436
G01 X214.5475 Y50.9073
G01 X214.6312 Y50.8783
G01 X214.7171 Y50.8568
G01 X214.8046 Y50.8430
G01 X214.8929 Y50.8370
G01 X214.9815 Y50.8389
G01 X215.0695 Y50.8485
G01 X215.1563 Y50.8659
G01 X215.2412 Y50.8909
G01 X215.3236 Y50.9234
G01 X215.4028 Y50.9630
G01 X215.4782 Y51.0094
G01 X215.5492 Y51.0623
G01 X215.6152 Y51.1213
G01 X215.6758 Y51.1860
G01 X215.7304 Y51.2557
G01 X215.7786 Y51.3300
G01 X215.8200 Y51.4082
G01 X215.8544 Y51.4898
G01 X215.8814 Y51.5741
G01 X215.9009 Y51.6605
G01 X215.9126 Y51.7483
G01 X215.9165 Y51.8368
G01 Y61.4241
G01 X219.4105
G01 Y59.8971
G01 X219.2105 Y59.9090
G00 Z5.0000


;No. 11: Hole 21
G00 X225.1587 Y59.9090 Z5.0000
G00 Z0.5000
G01 Z0.0000 F400
G01 Z-1.2000
G01 X228.3099 F1100
G01 Y58.4090
G01 X225.1587
G01 Y56.9090
G01 X228.3099
G01 Y55.4090
G01 X225.1587
G01 Y53.9090
G01 X228.3099
G01 Y52.4090
G01 X225.1587
G01 Y50.9090
G01 X228.3099
G01 Y49.4090
G01 X225.1587
G01 Y47.9090
G01 X228.3099
G01 Y46.4090
G01 X228.6623
G01 X225.1587
G01 Y44.9090
G01 X238.0102
G01 X238.2102 Y44.9075
G01 Y43.3940
G01 X224.9587
G01 Y61.4241
G01 X228.5099
G01 Y47.2585
G01 X228.5108 Y47.2148
G01 X228.5137 Y47.1713
G01 X228.5184 Y47.1279
G01 X228.5251 Y47.0848
G01 X228.5336 Y47.0420
G01 X228.5440 Y46.9996
G01 X228.5562 Y46.9577
G01 X228.5702 Y46.9164
G01 X228.5860 Y46.8758
G01 X228.6036 Y46.8358
G01 X228.6229 Y46.7967
G01 X228.6439 Y46.7585
G01 X228.6665 Y46.7212
G01 X228.6907 Y46.6849
G01 X228.7165 Y46.6497
G01 X228.7438 Y46.6157
G01 X228.7726 Y46.5829
G01 X228.8028 Y46.5513
G01 X228.8343 Y46.5212
G01 X228.8671 Y46.4924
G01 X228.9011 Y46.4651
G01 X228.9363 Y46.4393
G01 X228.9726 Y46.4151
G01 X229.0099 Y46.3924
G01 X229.0481 Y46.3714
G01 X229.0873 Y46.3521
G01 X229.1272 Y46.3346
G01 X229.1679 Y46.3188
G01 X229.2092 Y46.3047
G01 X229.2511 Y46.2925
G01 X229.2934 Y46.2822
G01 X229.3362 Y46.2736
G01 X229.3794 Y46.2670
G01 X229.4227 Y46.2623
G01 X229.4663 Y46.2594
G01 X229.5099 Y46.2585
G01 X238.2102
G01 Y44.9075
G01 X238.0102 Y44.9090
G00 Z5.0000


;No. 12: Hole 22
G00 X244.8453 Y44.9090 Z5.0000
G00 Z0.5000
G01 Z0.0000 F400
G01 Z-1.2000
G01 X248.0252 F1100
G01 Y46.4090
G01 X244.8453
G01 Y47.9090
G01 X248.0252
G01 Y49.4090
G01 X244.8453
G01 Y50.9090
G01 X244.4310
G01 X248.3886
G01 X249.3059 Y52.4090
G01 X243.5201
G01 X242.6091 Y53.9090
G01 X250.2231
G01 X251.1403 Y55.4090
G01 X248.0187
G01 X248.8717 Y56.9090
G01 X252.0576
G01 X252.9748 Y58.4090
G01 X249.7246
G01 X250.5776 Y59.9090
G01 X253.8921
G00 Z5.0000
G00 X244.9410 Y53.9090
G00 Z0.5000
G01 Z-1.2000 F400
G01 Y55.4090 F1100
G01 X241.6981
G01 X240.7872 Y56.9090
G01 X244.0939
G01 X243.2469 Y58.4090
G01 X239.8762
G01 X238.9653 Y59.9090
G01 X242.3998
G01 X242.5784 Y59.9996
G01 X245.6074 Y54.6357
G01 X245.6540 Y54.5611
G01 X245.7069 Y54.4909
G01 X245.7658 Y54.4256
G01 X245.8301 Y54.3658
G01 X245.8995 Y54.3118
G01 X245.9734 Y54.2642
G01 X246.0512 Y54.2232
G01 X246.1322 Y54.1892
G01 X246.2160 Y54.1624
G01 X246.3017 Y54.1431
G01 X246.3889 Y54.1314
G01 X246.4767 Y54.1274
G01 X246.5645 Y54.1311
G01 X246.6517 Y54.1426
G01 X246.7375 Y54.1616
G01 X246.8213 Y54.1881
G01 X246.9025 Y54.2219
G01 X246.9804 Y54.2627
G01 X247.0544 Y54.3101
G01 X247.1239 Y54.3639
G01 X247.1885 Y54.4235
G01 X247.2476 Y54.4886
G01 X247.3007 Y54.5587
G01 X247.3474 Y54.6331
G01 X251.2090 Y61.4241
G01 X255.0529
G01 X248.3720 Y50.4985
G01 X248.3383 Y50.4388
G01 X248.3087 Y50.3769
G01 X248.2834 Y50.3132
G01 X248.2626 Y50.2478
G01 X248.2463 Y50.1812
G01 X248.2345 Y50.1136
G01 X248.2275 Y50.0454
G01 X248.2252 Y49.9768
G01 Y43.3940
G01 X244.6453
G01 Y49.8910
G01 X244.6443 Y49.9364
G01 X244.6412 Y49.9818
G01 X244.6360 Y50.0270
G01 X244.6288 Y50.0719
G01 X244.6196 Y50.1164
G01 X244.6083 Y50.1605
G01 X244.5951 Y50.2040
G01 X244.5799 Y50.2468
G01 X244.5627 Y50.2890
G01 X244.5437 Y50.3303
G01 X244.5228 Y50.3707
G01 X244.5001 Y50.4100
G01 X237.8112 Y61.4241
G01 X241.7740
G01 X242.5784 Y59.9996
G01 X242.3998 Y59.9090
G00 Z5.0000


;No. 13: Hole 23
G00 X259.5245 Y60.1711 Z5.0000
G00 Z0.5000
G01 Z0.0000 F400
G01 Z-1.2000
G01 X263.3052 F1100
G01 X263.0939 Y58.6711
G01 X259.7359
G01 X259.9607 Y57.1711
G01 X262.8691
G01 X262.6443 Y55.6711
G01 X260.1855
G01 X260.4103 Y54.1711
G01 X262.4195
G01 X262.1947 Y52.6711
G01 X260.6351
G01 X260.8599 Y51.1711
G01 X261.9698
G01 X262.1697 Y51.1551
G01 X261.9843 Y49.9181
G01 X260.8454
G01 X259.3245 Y60.0664
G01 Y61.4241
G01 X263.5052
G01 Y60.0664
G01 X262.1697 Y51.1551
G01 X261.9698 Y51.1711
G00 Z5.0000


;No. 14: Hole 24
G00 X263.0477 Y44.8262 Z5.0000
G00 Z0.5000
G01 Z0.0000 F400
G01 Z-1.2000
G01 X259.5821 F1100
G01 Y46.2585
G01 X263.2477
G01 Y43.3940
G01 X259.5821
G01 Y44.8262
G01 X259.7821
G00 Z5.0000


;No. 15: Helical drill 3
G00 X273.4027 Y28.5700 Z5.0000
G00 Z0.5000
G01 X273.4017 Y28.5272 Z0.4836 F400
G01 X273.3987 Y28.4844 Z0.4672
G01 X273.3936 Y28.4419 Z0.4508
G01 X273.3865 Y28.3997 Z0.4343
G01 X273.3774 Y28.3578 Z0.4179
G01 X273.3663 Y28.3164 Z0.4015
G01 X273.3532 Y28.2756 Z0.3851
G01 X273.3383 Y28.2355 Z0.3687
G01 X273.3214 Y28.1961 Z0.3523
G01 X273.3027 Y28.1576 Z0.3359
G01 X273.2822 Y28.1200 Z0.3194
G01 X273.2599 Y28.0834 Z0.3030
G01 X273.2358 Y28.0479 Z0.2866
G01 X273.2102 Y28.0136 Z0.2702
G01 X273.1829 Y27.9806 Z0.2538
G01 X273.1541 Y27.9489 Z0.2374
G01 X273.1238 Y27.9186 Z0.2210
G01 X273.0921 Y27.8898 Z0.2045
G01 X273.0591 Y27.8625 Z0.1881
G01 X273.0248 Y27.8369 Z0.1717
G01 X272.9893 Y27.8129 Z0.1553
G01 X272.9527 Y27.7906 Z0.1389
G01 X272.9151 Y27.7700 Z0.1225
G01 X272.8766 Y27.7513 Z0.1061
G01 X272.8372 Y27.7345 Z0.0896
G01 X272.7971 Y27.7195 Z0.0732
G01 X272.7563 Y27.7064 Z0.0568
G01 X272.7149 Y27.6954 Z0.0404
G01 X272.6731 Y27.6862 Z0.0240
G01 X272.6308 Y27.6791 Z0.0076
G01 X272.5883 Y27.6741 Z-0.0088
G01 X272.5456 Y27.6710 Z-0.0253
G01 X272.5027 Y27.6700 Z-0.0417
G01 X272.4599 Y27.6710 Z-0.0581
G01 X272.4172 Y27.6741 Z-0.0745
G01 X272.3746 Y27.6791 Z-0.0909
G01 X272.3324 Y27.6862 Z-0.1073
G01 X272.2905 Y27.6954 Z-0.1237
G01 X272.2492 Y27.7064 Z-0.1402
G01 X272.2084 Y27.7195 Z-0.1566
G01 X272.1682 Y27.7345 Z-0.1730
G01 X272.1289 Y27.7513 Z-0.1894
G01 X272.0903 Y27.7700 Z-0.2058
G01 X272.0527 Y27.7906 Z-0.2222
G01 X272.0162 Y27.8129 Z-0.2386
G01 X271.9807 Y27.8369 Z-0.2551
G01 X271.9464 Y27.8625 Z-0.2715
G01 X271.9134 Y27.8898 Z-0.2879
G01 X271.8817 Y27.9186 Z-0.3043
G01 X271.8514 Y27.9489 Z-0.3207
G01 X271.8226 Y27.9806 Z-0.3371
G01 X271.7953 Y28.0136 Z-0.3535
G01 X271.7696 Y28.0479 Z-0.3699
G01 X271.7456 Y28.0834 Z-0.3864
G01 X271.7233 Y28.1200 Z-0.4028
G01 X271.7028 Y28.1576 Z-0.4192
G01 X271.6841 Y28.1961 Z-0.4356
G01 X271.6672 Y28.2355 Z-0.4520
G01 X271.6522 Y28.2756 Z-0.4684
G01 X271.6392 Y28.3164 Z-0.4848
G01 X271.6281 Y28.3578 Z-0.5013
G01 X271.6190 Y28.3997 Z-0.5177
G01 X271.6119 Y28.4419 Z-0.5341
G01 X271.6068 Y28.4844 Z-0.5505
G01 X271.6037 Y28.5272 Z-0.5669
G01 X271.6027 Y28.5700 Z-0.5833
G01 X271.6037 Y28.6128 Z-0.5997
G01 X271.6068 Y28.6555 Z-0.6162
G01 X271.6119 Y28.6981 Z-0.6326
G01 X271.6190 Y28.7403 Z-0.6490
G01 X271.6281 Y28.7822 Z-0.6654
G01 X271.6392 Y28.8235 Z-0.6818
G01 X271.6522 Y28.8643 Z-0.6982
G01 X271.6672 Y28.9045 Z-0.7146
G01 X271.6841 Y28.9439 Z-0.7311
G01 X271.7028 Y28.9824 Z-0.7475
G01 X271.7233 Y29.0200 Z-0.7639
G01 X271.7456 Y29.0566 Z-0.7803
G01 X271.7696 Y29.0920 Z-0.7967
G01 X271.7953 Y29.1263 Z-0.8131
G01 X271.8226 Y29.1594 Z-0.8295
G01 X271.8514 Y29.1911 Z-0.8460
G01 X271.8817 Y29.2213 Z-0.8624
G01 X271.9134 Y29.2502 Z-0.8788
G01 X271.9464 Y29.2774 Z-0.8952
G01 X271.9807 Y29.3031 Z-0.9116
G01 X272.0162 Y29.3271 Z-0.9280
G01 X272.0527 Y29.3494 Z-0.9444
G01 X272.0903 Y29.3699 Z-0.9609
G01 X272.1289 Y29.3887 Z-0.9773
G01 X272.1682 Y29.4055 Z-0.9937
G01 X272.2084 Y29.4205 Z-1.0101
G01 X272.2492 Y29.4335 Z-1.0265
G01 X272.2905 Y29.4446 Z-1.0429
G01 X272.3324 Y29.4537 Z-1.0593
G01 X272.3746 Y29.4608 Z-1.0758
G01 X272.4172 Y29.4659 Z-1.0922
G01 X272.4599 Y29.4690 Z-1.1086
G01 X272.5027 Y29.4700 Z-1.1250
G01 X272.5456 Y29.4690 Z-1.1414
G01 X272.5883 Y29.4659 Z-1.1578
G01 X272.6308 Y29.4608 Z-1.1742
G01 X272.6731 Y29.4537 Z-1.1907
G01 X272.7149 Y29.4446 Z-1.2071
G01 X272.7563 Y29.4335 Z-1.2235
G01 X272.7971 Y29.4205 Z-1.2399
G01 X272.8372 Y29.4055 Z-1.2563
G01 X272.8766 Y29.3887 Z-1.2727
G01 X272.9151 Y29.3699 Z-1.2891
G01 X272.9527 Y29.3494 Z-1.3056
G01 X272.9893 Y29.3271 Z-1.3220
G01 X273.0248 Y29.3031 Z-1.3384
G01 X273.0591 Y29.2774 Z-1.3548
G01 X273.0921 Y29.2502 Z-1.3712
G01 X273.1238 Y29.2213 Z-1.3876
G01 X273.1541 Y29.1911 Z-1.4040
G01 X273.1829 Y29.1594 Z-1.4205
G01 X273.2102 Y29.1263 Z-1.4369
G01 X273.2358 Y29.0920 Z-1.4533
G01 X273.2599 Y29.0566 Z-1.4697
G01 X273.2822 Y29.0200 Z-1.4861
G01 X273.3027 Y28.9824 Z-1.5025
G01 X273.3214 Y28.9439 Z-1.5189
G01 X273.3383 Y28.9045 Z-1.5354
G01 X273.3532 Y28.8643 Z-1.5518
G01 X273.3663 Y28.8235 Z-1.5682
G01 X273.3774 Y28.7822 Z-1.5846
G01 X273.3865 Y28.7403 Z-1.6010
G01 X273.3936 Y28.6981 Z-1.6174
G01 X273.3987 Y28.6555 Z-1.6338
G01 X273.4017 Y28.6128 Z-1.6503
G01 X273.4027 Y28.5700 Z-1.6667
G01 X273.4017 Y28.5272
G01 X273.3987 Y28.4844
G01 X273.3936 Y28.4419
G01 X273.3865 Y28.3997
G01 X273.3774 Y28.3578
G01 X273.3663 Y28.3164
G01 X273.3532 Y28.2756
G01 X273.3383 Y28.2355
G01 X273.3214 Y28.1961
G01 X273.3027 Y28.1576
G01 X273.2822 Y28.1200
G01 X273.2599 Y28.0834
G01 X273.2358 Y28.0479
G01 X273.2102 Y28.0136
G01 X273.1829 Y27.9806
G01 X273.1541 Y27.9489
G01 X273.1238 Y27.9186
G01 X273.0921 Y27.8898
G01 X273.0591 Y27.8625
G01 X273.0248 Y27.8369
G01 X272.9893 Y27.8129
G01 X272.9527 Y27.7906
G01 X272.9151 Y27.7700
G01 X272.8766 Y27.7513
G01 X272.8372 Y27.7345
G01 X272.7971 Y27.7195
G01 X272.7563 Y27.7064
G01 X272.7149 Y27.6954
G01 X272.6731 Y27.6862
G01 X272.6308 Y27.6791
G01 X272.5883 Y27.6741
G01 X272.5456 Y27.6710
G01 X272.5027 Y27.6700
G01 X272.4599 Y27.6710
G01 X272.4172 Y27.6741
G01 X272.3746 Y27.6791
G01 X272.3324 Y27.6862
G01 X272.2905 Y27.6954
G01 X272.2492 Y27.7064
G01 X272.2084 Y27.7195
G01 X272.1682 Y27.7345
G01 X272.1289 Y27.7513
G01 X272.0903 Y27.7700
G01 X272.0527 Y27.7906
G01 X272.0162 Y27.8129
G01 X271.9807 Y27.8369
G01 X271.9464 Y27.8625
G01 X271.9134 Y27.8898
G01 X271.8817 Y27.9186
G01 X271.8514 Y27.9489
G01 X271.8226 Y27.9806
G01 X271.7953 Y28.0136
G01 X271.7696 Y28.0479
G01 X271.7456 Y28.0834
G01 X271.7233 Y28.1200
G01 X271.7028 Y28.1576
G01 X271.6841 Y28.1961
G01 X271.6672 Y28.2355
G01 X271.6522 Y28.2756
G01 X271.6392 Y28.3164
G01 X271.6281 Y28.3578
G01 X271.6190 Y28.3997
G01 X271.6119 Y28.4419
G01 X271.6068 Y28.4844
G01 X271.6037 Y28.5272
G01 X271.6027 Y28.5700
G01 X271.6037 Y28.6128
G01 X271.6068 Y28.6555
G01 X271.6119 Y28.6981
G01 X271.6190 Y28.7403
G01 X271.6281 Y28.7822
G01 X271.6392 Y28.8235
G01 X271.6522 Y28.8643
G01 X271.6672 Y28.9045
G01 X271.6841 Y28.9439
G01 X271.7028 Y28.9824
G01 X271.7233 Y29.0200
G01 X271.7456 Y29.0566
G01 X271.7696 Y29.0920
G01 X271.7953 Y29.1263
G01 X271.8226 Y29.1594
G01 X271.8514 Y29.1911
G01 X271.8817 Y29.2213
G01 X271.9134 Y29.2502
G01 X271.9464 Y29.2774
G01 X271.9807 Y29.3031
G01 X272.0162 Y29.3271
G01 X272.0527 Y29.3494
G01 X272.0903 Y29.3699
G01 X272.1289 Y29.3887
G01 X272.1682 Y29.4055
G01 X272.2084 Y29.4205
G01 X272.2492 Y29.4335
G01 X272.2905 Y29.4446
G01 X272.3324 Y29.4537
G01 X272.3746 Y29.4608
G01 X272.4172 Y29.4659
G01 X272.4599 Y29.4690
G01 X272.5027 Y29.4700
G01 X272.5456 Y29.4690
G01 X272.5883 Y29.4659
G01 X272.6308 Y29.4608
G01 X272.6731 Y29.4537
G01 X272.7149 Y29.4446
G01 X272.7563 Y29.4335
G01 X272.7971 Y29.4205
G01 X272.8372 Y29.4055
G01 X272.8766 Y29.3887
G01 X272.9151 Y29.3699
G01 X272.9527 Y29.3494
G01 X272.9893 Y29.3271
G01 X273.0248 Y29.3031
G01 X273.0591 Y29.2774
G01 X273.0921 Y29.2502
G01 X273.1238 Y29.2213
G01 X273.1541 Y29.1911
G01 X273.1829 Y29.1594
G01 X273.2102 Y29.1263
G01 X273.2358 Y29.0920
G01 X273.2599 Y29.0566
G01 X273.2822 Y29.0200
G01 X273.3027 Y28.9824
G01 X273.3214 Y28.9439
G01 X273.3383 Y28.9045
G01 X273.3532 Y28.8643
G01 X273.3663 Y28.8235
G01 X273.3774 Y28.7822
G01 X273.3865 Y28.7403
G01 X273.3936 Y28.6981
G01 X273.3987 Y28.6555
G01 X273.4017 Y28.6128
G01 X273.4027 Y28.5700
G01 X273.4103 Y28.5389 F1100
G01 X273.4167 Y28.5076
G01 X273.4221 Y28.4761
G01 X273.4264 Y28.4445
G01 X273.4296 Y28.4127
G01 X273.4316 Y28.3808
G01 X273.4326 Y28.3488
G01 X273.4325 Y28.3169
G01 X273.4312 Y28.2850
G01 X273.4289 Y28.2531
G01 X273.4254 Y28.2213
G01 X273.4208 Y28.1897
G01 X273.4111 Y28.1382
G01 X273.3988 Y28.0873
G01 X273.3839 Y28.0370
G01 X273.3664 Y27.9876
G01 X273.3463 Y27.9392
G01 X273.3239 Y27.8919
G01 X273.2990 Y27.8458
G01 X273.2717 Y27.8010
G01 X273.2397 Y27.7540
G01 X273.2053 Y27.7086
G01 X273.1686 Y27.6651
G01 X273.1298 Y27.6236
G01 X273.0889 Y27.5840
G01 X273.0460 Y27.5466
G01 X273.0013 Y27.5115
G01 X272.9548 Y27.4787
G01 X272.9029 Y27.4458
G01 X272.8494 Y27.4157
G01 X272.7944 Y27.3883
G01 X272.7381 Y27.3637
G01 X272.6807 Y27.3421
G01 X272.6222 Y27.3234
G01 X272.5628 Y27.3077
G01 X272.5027 Y27.2950
G01 X272.4376 Y27.2847
G01 X272.3721 Y27.2776
G01 X272.3062 Y27.2739
G01 X272.2403 Y27.2736
G01 X272.1744 Y27.2766
G01 X272.1088 Y27.2829
G01 X272.0436 Y27.2925
G01 X271.9789 Y27.3054
G01 X271.9106 Y27.3227
G01 X271.8433 Y27.3434
G01 X271.7770 Y27.3674
G01 X271.7121 Y27.3948
G01 X271.6486 Y27.4254
G01 X271.5868 Y27.4592
G01 X271.5267 Y27.4960
G01 X271.4686 Y27.5358
G01 X271.4151 Y27.5853
G01 X271.3641 Y27.6373
G01 X271.3158 Y27.6918
G01 X271.2702 Y27.7486
G01 X271.2274 Y27.8076
G01 X271.1877 Y27.8686
G01 X271.1509 Y27.9315
G01 X271.1173 Y27.9961
G01 X271.0908 Y28.0648
G01 X271.0678 Y28.1347
G01 X271.0481 Y28.2056
G01 X271.0320 Y28.2774
G01 X271.0194 Y28.3500
G01 X271.0104 Y28.4230
G01 X271.0050 Y28.4964
G01 X271.0032 Y28.5700
G01 X271.0050 Y28.6436
G01 X271.0104 Y28.7170
G01 X271.0194 Y28.7900
G01 X271.0320 Y28.8625
G01 X271.0481 Y28.9343
G01 X271.0678 Y29.0053
G01 X271.0908 Y29.0752
G01 X271.1173 Y29.1438
G01 X271.1472 Y29.2111
G01 X271.1802 Y29.2769
G01 X271.2165 Y29.3409
G01 X271.2559 Y29.4031
G01 X271.2983 Y29.4633
G01 X271.3436 Y29.5213
G01 X271.3916 Y29.5770
G01 X271.4424 Y29.6303
G01 X271.4957 Y29.6811
G01 X271.5514 Y29.7291
G01 X271.6094 Y29.7744
G01 X271.6696 Y29.8168
G01 X271.7318 Y29.8562
G01 X271.7958 Y29.8925
G01 X271.8616 Y29.9256
G01 X271.9289 Y29.9554
G01 X271.9975 Y29.9819
G01 X272.0674 Y30.0050
G01 X272.1384 Y30.0246
G01 X272.2102 Y30.0407
G01 X272.2827 Y30.0533
G01 X272.3557 Y30.0623
G01 X272.4291 Y30.0677
G01 X272.5027 Y30.0695
G01 X272.5763 Y30.0677
G01 X272.6497 Y30.0623
G01 X272.7228 Y30.0533
G01 X272.7953 Y30.0407
G01 X272.8671 Y30.0246
G01 X272.9380 Y30.0050
G01 X273.0079 Y29.9819
G01 X273.0766 Y29.9554
G01 X273.1439 Y29.9256
G01 X273.2096 Y29.8925
G01 X273.2736 Y29.8562
G01 X273.3358 Y29.8168
G01 X273.3960 Y29.7744
G01 X273.4540 Y29.7291
G01 X273.5098 Y29.6811
G01 X273.5631 Y29.6303
G01 X273.6138 Y29.5770
G01 X273.6619 Y29.5213
G01 X273.7072 Y29.4633
G01 X273.7496 Y29.4031
G01 X273.7889 Y29.3409
G01 X273.8252 Y29.2769
G01 X273.8583 Y29.2111
G01 X273.8881 Y29.1438
G01 X273.9146 Y29.0752
G01 X273.9377 Y29.0053
G01 X273.9573 Y28.9343
G01 X273.9735 Y28.8625
G01 X273.9860 Y28.7900
G01 X273.9951 Y28.7170
G01 X274.0005 Y28.6436
G01 X274.0023 Y28.5700
G01 X273.9981 Y28.4579
G01 X273.9855 Y28.3465
G01 X273.9647 Y28.2363
G01 X273.9357 Y28.1280
G01 X273.8986 Y28.0221
G01 X273.8538 Y27.9194
G01 X273.8014 Y27.8202
G01 X273.7417 Y27.7253
G01 X273.6751 Y27.6350
G01 X273.6020 Y27.5500
G01 X273.5227 Y27.4707
G01 X273.4377 Y27.3976
G01 X273.3475 Y27.3310
G01 X273.2525 Y27.2713
G01 X273.1534 Y27.2189
G01 X273.0506 Y27.1741
G01 X272.9447 Y27.1371
G01 X272.8364 Y27.1080
G01 X272.7262 Y27.0872
G01 X272.6148 Y27.0746
G01 X272.5027 Y27.0704
G01 X272.3907 Y27.0746
G01 X272.2792 Y27.0872
G01 X272.1690 Y27.1080
G01 X272.0607 Y27.1371
G01 X271.9549 Y27.1741
G01 X271.8521 Y27.2189
G01 X271.7530 Y27.2713
G01 X271.6580 Y27.3310
G01 X271.5678 Y27.3976
G01 X271.4828 Y27.4707
G01 X271.4035 Y27.5500
G01 X271.3303 Y27.6350
G01 X271.2637 Y27.7253
G01 X271.2041 Y27.8202
G01 X271.1517 Y27.9194
G01 X271.1068 Y28.0221
G01 X271.0698 Y28.1280
G01 X271.0408 Y28.2363
G01 X271.0199 Y28.3465
G01 X271.0074 Y28.4579
G01 X271.0032 Y28.5700
G01 X271.0074 Y28.6820
G01 X271.0199 Y28.7935
G01 X271.0408 Y28.9037
G01 X271.0698 Y29.0120
G01 X271.1068 Y29.1178
G01 X271.1517 Y29.2206
G01 X271.2041 Y29.3198
G01 X271.2637 Y29.4147
G01 X271.3303 Y29.5049
G01 X271.4035 Y29.5899
G01 X271.4828 Y29.6692
G01 X271.5678 Y29.7424
G01 X271.6580 Y29.8090
G01 X271.7530 Y29.8686
G01 X271.8521 Y29.9210
G01 X271.9549 Y29.9659
G01 X272.0607 Y30.0029
G01 X272.1690 Y30.0319
G01 X272.2792 Y30.0528
G01 X272.3907 Y30.0653
G01 X272.5027 Y30.0695
G01 X272.6148 Y30.0653
G01 X272.7262 Y30.0528
G01 X272.8364 Y30.0319
G01 X272.9447 Y30.0029
G01 X273.0506 Y29.9659
G01 X273.1534 Y29.9210
G01 X273.2525 Y29.8686
G01 X273.3475 Y29.8090
G01 X273.4377 Y29.7424
G01 X273.5227 Y29.6692
G01 X273.6020 Y29.5899
G01 X273.6751 Y29.5049
G01 X273.7417 Y29.4147
G01 X273.8014 Y29.3198
G01 X273.8538 Y29.2206
G01 X273.8986 Y29.1178
G01 X273.9357 Y29.0120
G01 X273.9647 Y28.9037
G01 X273.9855 Y28.7935
G01 X273.9981 Y28.6820
G01 X274.0023 Y28.5700
G01 X273.9977 Y28.4654
G01 X273.9840 Y28.3616
G01 X273.9614 Y28.2595
G01 X273.9299 Y28.1596
G01 X273.8899 Y28.0629
G01 X273.8415 Y27.9701
G01 X273.7853 Y27.8818
G01 X273.7216 Y27.7988
G01 X273.6509 Y27.7216
G01 X273.5737 Y27.6509
G01 X273.4907 Y27.5872
G01 X273.4024 Y27.5309
G01 X273.3095 Y27.4826
G01 X273.2128 Y27.4426
G01 X273.1130 Y27.4111
G01 X273.0108 Y27.3884
G01 X272.9071 Y27.3748
G01 X272.8025 Y27.3702
G01 X272.6979 Y27.3748
G01 X272.5942 Y27.3884
G01 X272.4920 Y27.4111
G01 X272.3922 Y27.4426
G01 X272.2955 Y27.4826
G01 X272.2026 Y27.5309
G01 X272.1143 Y27.5872
G01 X272.0313 Y27.6509
G01 X271.9541 Y27.7216
G01 X271.8834 Y27.7988
G01 X271.8197 Y27.8818
G01 X271.7635 Y27.9701
G01 X271.7151 Y28.0629
G01 X271.6751 Y28.1596
G01 X271.6436 Y28.2595
G01 X271.6210 Y28.3616
G01 X271.6073 Y28.4654
G01 X271.6027 Y28.5700
G01 X271.6038 Y28.6141
G01 X271.6071 Y28.6582
G01 X271.6125 Y28.7020
G01 X271.6200 Y28.7456
G01 X271.6297 Y28.7887
G01 X271.6415 Y28.8312
G01 X271.6553 Y28.8732
G01 X271.6712 Y28.9144
G01 X271.6891 Y28.9548
G01 X271.7090 Y28.9942
G01 X271.7308 Y29.0327
G01 X271.7544 Y29.0700
G01 X271.7798 Y29.1061
G01 X271.8070 Y29.1409
G01 X271.8359 Y29.1744
G01 X271.8663 Y29.2064
G01 X271.8983 Y29.2368
G01 X271.9318 Y29.2657
G01 X271.9666 Y29.2929
G01 X272.0027 Y29.3183
G01 X272.0400 Y29.3419
G01 X272.0785 Y29.3637
G01 X272.1179 Y29.3836
G01 X272.1583 Y29.4015
G01 X272.1995 Y29.4174
G01 X272.2415 Y29.4312
G01 X272.2840 Y29.4430
G01 X272.3271 Y29.4527
G01 X272.3707 Y29.4602
G01 X272.4145 Y29.4656
G01 X272.4586 Y29.4689
G01 X272.5027 Y29.4700
G01 X272.5469 Y29.4689
G01 X272.5909 Y29.4656
G01 X272.6348 Y29.4602
G01 X272.6783 Y29.4527
G01 X272.7214 Y29.4430
G01 X272.7640 Y29.4312
G01 X272.8059 Y29.4174
G01 X272.8471 Y29.4015
G01 X272.8875 Y29.3836
G01 X272.9270 Y29.3637
G01 X272.9654 Y29.3419
G01 X273.0027 Y29.3183
G01 X273.0389 Y29.2929
G01 X273.0737 Y29.2657
G01 X273.1071 Y29.2368
G01 X273.1391 Y29.2064
G01 X273.1696 Y29.1744
G01 X273.1984 Y29.1409
G01 X273.2256 Y29.1061
G01 X273.2511 Y29.0700
G01 X273.2747 Y29.0327
G01 X273.2965 Y28.9942
G01 X273.3163 Y28.9548
G01 X273.3342 Y28.9144
G01 X273.3501 Y28.8732
G01 X273.3640 Y28.8312
G01 X273.3758 Y28.7887
G01 X273.3854 Y28.7456
G01 X273.3930 Y28.7020
G01 X273.3984 Y28.6582
G01 X273.4016 Y28.6141
G01 X273.4027 Y28.5700
G01 X273.4017 Y28.5272 Z-1.6831 F400
G01 X273.3987 Y28.4844 Z-1.6995
G01 X273.3936 Y28.4419 Z-1.7159
G01 X273.3865 Y28.3997 Z-1.7323
G01 X273.3774 Y28.3578 Z-1.7487
G01 X273.3663 Y28.3164 Z-1.7652
G01 X273.3532 Y28.2756 Z-1.7816
G01 X273.3383 Y28.2355 Z-1.7980
G01 X273.3214 Y28.1961 Z-1.8144
G01 X273.3027 Y28.1576 Z-1.8308
G01 X273.2822 Y28.1200 Z-1.8472
G01 X273.2599 Y28.0834 Z-1.8636
G01 X273.2358 Y28.0479 Z-1.8801
G01 X273.2102 Y28.0136 Z-1.8965
G01 X273.1829 Y27.9806 Z-1.9129
G01 X273.1541 Y27.9489 Z-1.9293
G01 X273.1238 Y27.9186 Z-1.9457
G01 X273.0921 Y27.8898 Z-1.9621
G01 X273.0591 Y27.8625 Z-1.9785
G01 X273.0248 Y27.8369 Z-1.9949
G01 X272.9893 Y27.8129 Z-2.0114
G01 X272.9527 Y27.7906 Z-2.0278
G01 X272.9151 Y27.7700 Z-2.0442
G01 X272.8766 Y27.7513 Z-2.0606
G01 X272.8372 Y27.7345 Z-2.0770
G01 X272.7971 Y27.7195 Z-2.0934
G01 X272.7563 Y27.7064 Z-2.1098
G01 X272.7149 Y27.6954 Z-2.1263
G01 X272.6731 Y27.6862 Z-2.1427
G01 X272.6308 Y27.6791 Z-2.1591
G01 X272.5883 Y27.6741 Z-2.1755
G01 X272.5456 Y27.6710 Z-2.1919
G01 X272.5027 Y27.6700 Z-2.2083
G01 X272.4599 Y27.6710 Z-2.2247
G01 X272.4172 Y27.6741 Z-2.2412
G01 X272.3746 Y27.6791 Z-2.2576
G01 X272.3324 Y27.6862 Z-2.2740
G01 X272.2905 Y27.6954 Z-2.2904
G01 X272.2492 Y27.7064 Z-2.3068
G01 X272.2084 Y27.7195 Z-2.3232
G01 X272.1682 Y27.7345 Z-2.3396
G01 X272.1289 Y27.7513 Z-2.3561
G01 X272.0903 Y27.7700 Z-2.3725
G01 X272.0527 Y27.7906 Z-2.3889
G01 X272.0162 Y27.8129 Z-2.4053
G01 X271.9807 Y27.8369 Z-2.4217
G01 X271.9464 Y27.8625 Z-2.4381
G01 X271.9134 Y27.8898 Z-2.4545
G01 X271.8817 Y27.9186 Z-2.4710
G01 X271.8514 Y27.9489 Z-2.4874
G01 X271.8226 Y27.9806 Z-2.5038
G01 X271.7953 Y28.0136 Z-2.5202
G01 X271.7696 Y28.0479 Z-2.5366
G01 X271.7456 Y28.0834 Z-2.5530
G01 X271.7233 Y28.1200 Z-2.5694
G01 X271.7028 Y28.1576 Z-2.5859
G01 X271.6841 Y28.1961 Z-2.6023
G01 X271.6672 Y28.2355 Z-2.6187
G01 X271.6522 Y28.2756 Z-2.6351
G01 X271.6392 Y28.3164 Z-2.6515
G01 X271.6281 Y28.3578 Z-2.6679
G01 X271.6190 Y28.3997 Z-2.6843
G01 X271.6119 Y28.4419 Z-2.7008
G01 X271.6068 Y28.4844 Z-2.7172
G01 X271.6037 Y28.5272 Z-2.7336
G01 X271.6027 Y28.5700 Z-2.7500
G01 X271.6037 Y28.6128 Z-2.7664
G01 X271.6068 Y28.6555 Z-2.7828
G01 X271.6119 Y28.6981 Z-2.7992
G01 X271.6190 Y28.7403 Z-2.8157
G01 X271.6281 Y28.7822 Z-2.8321
G01 X271.6392 Y28.8235 Z-2.8485
G01 X271.6522 Y28.8643 Z-2.8649
G01 X271.6672 Y28.9045 Z-2.8813
G01 X271.6841 Y28.9439 Z-2.8977
G01 X271.7028 Y28.9824 Z-2.9141
G01 X271.7233 Y29.0200 Z-2.9306
G01 X271.7456 Y29.0566 Z-2.9470
G01 X271.7696 Y29.0920 Z-2.9634
G01 X271.7953 Y29.1263 Z-2.9798
G01 X271.8226 Y29.1594 Z-2.9962
G01 X271.8514 Y29.1911 Z-3.0126
G01 X271.8817 Y29.2213 Z-3.0290
G01 X271.9134 Y29.2502 Z-3.0455
G01 X271.9464 Y29.2774 Z-3.0619
G01 X271.9807 Y29.3031 Z-3.0783
G01 X272.0162 Y29.3271 Z-3.0947
G01 X272.0527 Y29.3494 Z-3.1111
G01 X272.0903 Y29.3699 Z-3.1275
G01 X272.1289 Y29.3887 Z-3.1439
G01 X272.1682 Y29.4055 Z-3.1604
G01 X272.2084 Y29.4205 Z-3.1768
G01 X272.2492 Y29.4335 Z-3.1932
G01 X272.2905 Y29.4446 Z-3.2096
G01 X272.3324 Y29.4537 Z-3.2260
G01 X272.3746 Y29.4608 Z-3.2424
G01 X272.4172 Y29.4659 Z-3.2588
G01 X272.4599 Y29.4690 Z-3.2753
G01 X272.5027 Y29.4700 Z-3.2917
G01 X272.5456 Y29.4690 Z-3.3081
G01 X272.5883 Y29.4659 Z-3.3245
G01 X272.6308 Y29.4608 Z-3.3409
G01 X272.6731 Y29.4537 Z-3.3573
G01 X272.7149 Y29.4446 Z-3.3737
G01 X272.7563 Y29.4335 Z-3.3902
G01 X272.7971 Y29.4205 Z-3.4066
G01 X272.8372 Y29.4055 Z-3.4230
G01 X272.8766 Y29.3887 Z-3.4394
G01 X272.9151 Y29.3699 Z-3.4558
G01 X272.9527 Y29.3494 Z-3.4722
G01 X272.9893 Y29.3271 Z-3.4886
G01 X273.0248 Y29.3031 Z-3.5051
G01 X273.0591 Y29.2774 Z-3.5215
G01 X273.0921 Y29.2502 Z-3.5379
G01 X273.1238 Y29.2213 Z-3.5543
G01 X273.1541 Y29.1911 Z-3.5707
G01 X273.1829 Y29.1594 Z-3.5871
G01 X273.2102 Y29.1263 Z-3.6035
G01 X273.2358 Y29.0920 Z-3.6199
G01 X273.2599 Y29.0566 Z-3.6364
G01 X273.2822 Y29.0200 Z-3.6528
G01 X273.3027 Y28.9824 Z-3.6692
G01 X273.3214 Y28.9439 Z-3.6856
G01 X273.3383 Y28.9045 Z-3.7020
G01 X273.3532 Y28.8643 Z-3.7184
G01 X273.3663 Y28.8235 Z-3.7348
G01 X273.3774 Y28.7822 Z-3.7513
G01 X273.3865 Y28.7403 Z-3.7677
G01 X273.3936 Y28.6981 Z-3.7841
G01 X273.3987 Y28.6555 Z-3.8005
G01 X273.4017 Y28.6128 Z-3.8169
G01 X273.4027 Y28.5700 Z-3.8333
G01 X273.4017 Y28.5272
G01 X273.3987 Y28.4844
G01 X273.3936 Y28.4419
G01 X273.3865 Y28.3997
G01 X273.3774 Y28.3578
G01 X273.3663 Y28.3164
G01 X273.3532 Y28.2756
G01 X273.3383 Y28.2355
G01 X273.3214 Y28.1961
G01 X273.3027 Y28.1576
G01 X273.2822 Y28.1200
G01 X273.2599 Y28.0834
G01 X273.2358 Y28.0479
G01 X273.2102 Y28.0136
G01 X273.1829 Y27.9806
G01 X273.1541 Y27.9489
G01 X273.1238 Y27.9186
G01 X273.0921 Y27.8898
G01 X273.0591 Y27.8625
G01 X273.0248 Y27.8369
G01 X272.9893 Y27.8129
G01 X272.9527 Y27.7906
G01 X272.9151 Y27.7700
G01 X272.8766 Y27.7513
G01 X272.8372 Y27.7345
G01 X272.7971 Y27.7195
G01 X272.7563 Y27.7064
G01 X272.7149 Y27.6954
G01 X272.6731 Y27.6862
G01 X272.6308 Y27.6791
G01 X272.5883 Y27.6741
G01 X272.5456 Y27.6710
G01 X272.5027 Y27.6700
G01 X272.4599 Y27.6710
G01 X272.4172 Y27.6741
G01 X272.3746 Y27.6791
G01 X272.3324 Y27.6862
G01 X272.2905 Y27.6954
G01 X272.2492 Y27.7064
G01 X272.2084 Y27.7195
G01 X272.1682 Y27.7345
G01 X272.1289 Y27.7513
G01 X272.0903 Y27.7700
G01 X272.0527 Y27.7906
G01 X272.0162 Y27.8129
G01 X271.9807 Y27.8369
G01 X271.9464 Y27.8625
G01 X271.9134 Y27.8898
G01 X271.8817 Y27.9186
G01 X271.8514 Y27.9489
G01 X271.8226 Y27.9806
G01 X271.7953 Y28.0136
G01 X271.7696 Y28.0479
G01 X271.7456 Y28.0834
G01 X271.7233 Y28.1200
G01 X271.7028 Y28.1576
G01 X271.6841 Y28.1961
