;Project TeslaSentryModeIsWatchingV1
;Created by Estlcam version 11 build 11,231
;Machining time about 00:36:33 hours

G90
M03 S18000
G00 X0.0000 Y0.0000 Z0.0000
G00 Z2.0000


;No. 1: Helical drill 4
G00 X34.2687 Y26.9969
G00 Z0.5000
M106 S240
G01 X34.2649 Y26.9098 Z0.4722 F400 S18000
G01 X34.2535 Y26.8233 Z0.4444
G01 X34.2347 Y26.7381 Z0.4167
G01 X34.2084 Y26.6549 Z0.3889
G01 X34.1750 Y26.5743 Z0.3611
G01 X34.1348 Y26.4969 Z0.3333
G01 X34.0879 Y26.4233 Z0.3056
G01 X34.0348 Y26.3541 Z0.2778
G01 X33.9758 Y26.2898 Z0.2500
G01 X33.9115 Y26.2309 Z0.2222
G01 X33.8423 Y26.1778 Z0.1944
G01 X33.7687 Y26.1309 Z0.1667
G01 X33.6913 Y26.0906 Z0.1389
G01 X33.6107 Y26.0572 Z0.1111
G01 X33.5275 Y26.0310 Z0.0833
G01 X33.4424 Y26.0121 Z0.0556
G01 X33.3559 Y26.0007 Z0.0278
G01 X33.2687 Y25.9969 Z0.0000
G01 X33.1816 Y26.0007 Z-0.0278
G01 X33.0951 Y26.0121 Z-0.0556
G01 X33.0099 Y26.0310 Z-0.0833
G01 X32.9267 Y26.0572 Z-0.1111
G01 X32.8461 Y26.0906 Z-0.1389
G01 X32.7687 Y26.1309 Z-0.1667
G01 X32.7281 Y26.1557 Z-0.1818
G01 X32.6887 Y26.1823 Z-0.1970
G01 X32.6506 Y26.2109 Z-0.2121
G01 X32.6139 Y26.2412 Z-0.2273
G01 X32.5786 Y26.2732 Z-0.2424
G01 X32.5450 Y26.3068 Z-0.2576
G01 X32.5130 Y26.3421 Z-0.2727
G01 X32.4827 Y26.3788 Z-0.2879
G01 X32.4541 Y26.4169 Z-0.3030
G01 X32.4275 Y26.4563 Z-0.3182
G01 X32.4027 Y26.4969 Z-0.3333
G01 X32.3799 Y26.5387 Z-0.3485
G01 X32.3591 Y26.5815 Z-0.3636
G01 X32.3404 Y26.6253 Z-0.3788
G01 X32.3237 Y26.6698 Z-0.3939
G01 X32.3092 Y26.7152 Z-0.4091
G01 X32.2969 Y26.7612 Z-0.4242
G01 X32.2868 Y26.8077 Z-0.4394
G01 X32.2789 Y26.8546 Z-0.4545
G01 X32.2733 Y26.9019 Z-0.4697
G01 X32.2699 Y26.9493 Z-0.4848
G01 X32.2687 Y26.9969 Z-0.5000
G01 X32.2699 Y27.0445 Z-0.5152
G01 X32.2733 Y27.0920 Z-0.5303
G01 X32.2789 Y27.1392 Z-0.5455
G01 X32.2868 Y27.1862 Z-0.5606
G01 X32.2969 Y27.2327 Z-0.5758
G01 X32.3092 Y27.2786 Z-0.5909
G01 X32.3237 Y27.3240 Z-0.6061
G01 X32.3404 Y27.3686 Z-0.6212
G01 X32.3591 Y27.4123 Z-0.6364
G01 X32.3799 Y27.4551 Z-0.6515
G01 X32.4027 Y27.4969 Z-0.6667
G01 X32.4275 Y27.5376 Z-0.6818
G01 X32.4541 Y27.5770 Z-0.6970
G01 X32.4827 Y27.6151 Z-0.7121
G01 X32.5130 Y27.6518 Z-0.7273
G01 X32.5450 Y27.6870 Z-0.7424
G01 X32.5786 Y27.7206 Z-0.7576
G01 X32.6139 Y27.7527 Z-0.7727
G01 X32.6506 Y27.7830 Z-0.7879
G01 X32.6887 Y27.8115 Z-0.8030
G01 X32.7281 Y27.8382 Z-0.8182
G01 X32.7687 Y27.8629 Z-0.8333
G01 X32.8105 Y27.8857 Z-0.8485
G01 X32.8533 Y27.9065 Z-0.8636
G01 X32.8971 Y27.9253 Z-0.8788
G01 X32.9417 Y27.9419 Z-0.8939
G01 X32.9870 Y27.9564 Z-0.9091
G01 X33.0330 Y27.9687 Z-0.9242
G01 X33.0795 Y27.9788 Z-0.9394
G01 X33.1264 Y27.9867 Z-0.9545
G01 X33.1737 Y27.9924 Z-0.9697
G01 X33.2211 Y27.9958 Z-0.9848
G01 X33.2687 Y27.9969 Z-1.0000
G01 X33.3163 Y27.9958 Z-1.0152
G01 X33.3638 Y27.9924 Z-1.0303
G01 X33.4110 Y27.9867 Z-1.0455
G01 X33.4580 Y27.9788 Z-1.0606
G01 X33.5045 Y27.9687 Z-1.0758
G01 X33.5505 Y27.9564 Z-1.0909
G01 X33.5958 Y27.9419 Z-1.1061
G01 X33.6404 Y27.9253 Z-1.1212
G01 X33.6841 Y27.9065 Z-1.1364
G01 X33.7270 Y27.8857 Z-1.1515
G01 X33.7687 Y27.8629 Z-1.1667
G01 X33.8094 Y27.8382 Z-1.1818
G01 X33.8488 Y27.8115 Z-1.1970
G01 X33.8869 Y27.7830 Z-1.2121
G01 X33.9236 Y27.7527 Z-1.2273
G01 X33.9588 Y27.7206 Z-1.2424
G01 X33.9925 Y27.6870 Z-1.2576
G01 X34.0245 Y27.6518 Z-1.2727
G01 X34.0548 Y27.6151 Z-1.2879
G01 X34.0833 Y27.5770 Z-1.3030
G01 X34.1100 Y27.5376 Z-1.3182
G01 X34.1348 Y27.4969 Z-1.3333
G01 X34.1576 Y27.4551 Z-1.3485
G01 X34.1784 Y27.4123 Z-1.3636
G01 X34.1971 Y27.3686 Z-1.3788
G01 X34.2137 Y27.3240 Z-1.3939
G01 X34.2282 Y27.2786 Z-1.4091
G01 X34.2405 Y27.2327 Z-1.4242
G01 X34.2507 Y27.1862 Z-1.4394
G01 X34.2585 Y27.1392 Z-1.4545
G01 X34.2642 Y27.0920 Z-1.4697
G01 X34.2676 Y27.0445 Z-1.4848
G01 X34.2687 Y26.9969 Z-1.5000
G01 X34.2649 Y26.9098
G01 X34.2535 Y26.8233
G01 X34.2347 Y26.7381
G01 X34.2084 Y26.6549
G01 X34.1750 Y26.5743
G01 X34.1348 Y26.4969
G01 X34.0879 Y26.4233
G01 X34.0348 Y26.3541
G01 X33.9758 Y26.2898
G01 X33.9115 Y26.2309
G01 X33.8423 Y26.1778
G01 X33.7687 Y26.1309
G01 X33.6913 Y26.0906
G01 X33.6107 Y26.0572
G01 X33.5275 Y26.0310
G01 X33.4424 Y26.0121
G01 X33.3559 Y26.0007
G01 X33.2687 Y25.9969
G01 X33.1816 Y26.0007
G01 X33.0951 Y26.0121
G01 X33.0099 Y26.0310
G01 X32.9267 Y26.0572
G01 X32.8461 Y26.0906
G01 X32.7687 Y26.1309
G01 X32.7281 Y26.1557
G01 X32.6887 Y26.1823
G01 X32.6506 Y26.2109
G01 X32.6139 Y26.2412
G01 X32.5786 Y26.2732
G01 X32.5450 Y26.3068
G01 X32.5130 Y26.3421
G01 X32.4827 Y26.3788
G01 X32.4541 Y26.4169
G01 X32.4275 Y26.4563
G01 X32.4027 Y26.4969
G01 X32.3799 Y26.5387
G01 X32.3591 Y26.5815
G01 X32.3404 Y26.6253
G01 X32.3237 Y26.6698
G01 X32.3092 Y26.7152
G01 X32.2969 Y26.7612
G01 X32.2868 Y26.8077
G01 X32.2789 Y26.8546
G01 X32.2733 Y26.9019
G01 X32.2699 Y26.9493
G01 X32.2687 Y26.9969
G01 X32.2699 Y27.0445
G01 X32.2733 Y27.0920
G01 X32.2789 Y27.1392
G01 X32.2868 Y27.1862
G01 X32.2969 Y27.2327
G01 X32.3092 Y27.2786
G01 X32.3237 Y27.3240
G01 X32.3404 Y27.3686
G01 X32.3591 Y27.4123
G01 X32.3799 Y27.4551
G01 X32.4027 Y27.4969
G01 X32.4275 Y27.5376
G01 X32.4541 Y27.5770
G01 X32.4827 Y27.6151
G01 X32.5130 Y27.6518
G01 X32.5450 Y27.6870
G01 X32.5786 Y27.7206
G01 X32.6139 Y27.7527
G01 X32.6506 Y27.7830
G01 X32.6887 Y27.8115
G01 X32.7281 Y27.8382
G01 X32.7687 Y27.8629
G01 X32.8105 Y27.8857
G01 X32.8533 Y27.9065
G01 X32.8971 Y27.9253
G01 X32.9417 Y27.9419
G01 X32.9870 Y27.9564
G01 X33.0330 Y27.9687
G01 X33.0795 Y27.9788
G01 X33.1264 Y27.9867
G01 X33.1737 Y27.9924
G01 X33.2211 Y27.9958
G01 X33.2687 Y27.9969
G01 X33.3163 Y27.9958
G01 X33.3638 Y27.9924
G01 X33.4110 Y27.9867
G01 X33.4580 Y27.9788
G01 X33.5045 Y27.9687
G01 X33.5505 Y27.9564
G01 X33.5958 Y27.9419
G01 X33.6404 Y27.9253
G01 X33.6841 Y27.9065
G01 X33.7270 Y27.8857
G01 X33.7687 Y27.8629
G01 X33.8094 Y27.8382
G01 X33.8488 Y27.8115
G01 X33.8869 Y27.7830
G01 X33.9236 Y27.7527
G01 X33.9588 Y27.7206
G01 X33.9925 Y27.6870
G01 X34.0245 Y27.6518
G01 X34.0548 Y27.6151
G01 X34.0833 Y27.5770
G01 X34.1100 Y27.5376
G01 X34.1348 Y27.4969
G01 X34.1576 Y27.4551
G01 X34.1784 Y27.4123
G01 X34.1971 Y27.3686
G01 X34.2137 Y27.3240
G01 X34.2282 Y27.2786
G01 X34.2405 Y27.2327
G01 X34.2507 Y27.1862
G01 X34.2585 Y27.1392
G01 X34.2642 Y27.0920
G01 X34.2676 Y27.0445
G01 X34.2687 Y26.9969
G01 X34.2795 Y26.9453 F1000
G01 X34.2875 Y26.8932
G01 X34.2929 Y26.8408
G01 X34.2956 Y26.7882
G01 Y26.7355
G01 X34.2928 Y26.6828
G01 X34.2874 Y26.6304
G01 X34.2792 Y26.5784
G01 X34.2675 Y26.5224
G01 X34.2529 Y26.4671
G01 X34.2356 Y26.4126
G01 X34.2154 Y26.3590
G01 X34.1926 Y26.3066
G01 X34.1671 Y26.2554
G01 X34.1390 Y26.2056
G01 X34.1084 Y26.1572
G01 X34.0728 Y26.1068
G01 X34.0347 Y26.0583
G01 X33.9941 Y26.0118
G01 X33.9513 Y25.9674
G01 X33.9062 Y25.9252
G01 X33.8591 Y25.8854
G01 X33.8100 Y25.8480
G01 X33.7590 Y25.8132
G01 X33.7025 Y25.7786
G01 X33.6444 Y25.7470
G01 X33.5847 Y25.7183
G01 X33.5236 Y25.6926
G01 X33.4613 Y25.6701
G01 X33.3980 Y25.6508
G01 X33.3337 Y25.6347
G01 X33.2687 Y25.6219
G01 X33.1987 Y25.6117
G01 X33.1282 Y25.6051
G01 X33.0575 Y25.6020
G01 X32.9868 Y25.6025
G01 X32.9161 Y25.6066
G01 X32.8458 Y25.6142
G01 X32.7759 Y25.6253
G01 X32.7067 Y25.6400
G01 X32.6339 Y25.6592
G01 X32.5621 Y25.6822
G01 X32.4916 Y25.7086
G01 X32.4225 Y25.7386
G01 X32.3551 Y25.7721
G01 X32.2894 Y25.8088
G01 X32.2256 Y25.8489
G01 X32.1639 Y25.8921
G01 X32.1008 Y25.9411
G01 X32.0403 Y25.9932
G01 X31.9825 Y26.0483
G01 X31.9275 Y26.1062
G01 X31.8755 Y26.1668
G01 X31.8266 Y26.2299
G01 X31.7809 Y26.2954
G01 X31.7385 Y26.3631
G01 X31.6974 Y26.4368
G01 X31.6600 Y26.5125
G01 X31.6265 Y26.5899
G01 X31.5968 Y26.6690
G01 X31.5712 Y26.7494
G01 X31.5496 Y26.8310
G01 X31.5321 Y26.9136
G01 X31.5187 Y26.9969
G01 X31.5091 Y27.0854
G01 X31.5038 Y27.1742
G01 X31.5030 Y27.2631
G01 X31.5067 Y27.3520
G01 X31.5148 Y27.4406
G01 X31.5272 Y27.5287
G01 X31.5441 Y27.6161
G01 X31.5653 Y27.7025
G01 X31.5974 Y27.7884
G01 X31.6337 Y27.8727
G01 X31.6741 Y27.9551
G01 X31.7185 Y28.0354
G01 X31.7668 Y28.1134
G01 X31.8188 Y28.1889
G01 X31.8746 Y28.2618
G01 X31.9338 Y28.3318
G01 X32.0009 Y28.3957
G01 X32.0711 Y28.4562
G01 X32.1441 Y28.5132
G01 X32.2199 Y28.5666
G01 X32.2982 Y28.6162
G01 X32.3788 Y28.6618
G01 X32.4616 Y28.7035
G01 X32.5463 Y28.7410
G01 X32.6327 Y28.7744
G01 X32.7207 Y28.8035
G01 X32.8100 Y28.8282
G01 X32.9004 Y28.8485
G01 X32.9917 Y28.8643
G01 X33.0837 Y28.8757
G01 X33.1761 Y28.8825
G01 X33.2687 Y28.8847
G01 X33.3614 Y28.8825
G01 X33.4538 Y28.8757
G01 X33.5457 Y28.8643
G01 X33.6370 Y28.8485
G01 X33.7274 Y28.8282
G01 X33.8167 Y28.8035
G01 X33.9047 Y28.7744
G01 X33.9912 Y28.7410
G01 X34.0759 Y28.7035
G01 X34.1586 Y28.6618
G01 X34.2393 Y28.6162
G01 X34.3175 Y28.5666
G01 X34.3933 Y28.5132
G01 X34.4664 Y28.4562
G01 X34.5365 Y28.3957
G01 X34.6036 Y28.3318
G01 X34.6675 Y28.2647
G01 X34.7280 Y28.1945
G01 X34.7850 Y28.1215
G01 X34.8384 Y28.0457
G01 X34.8880 Y27.9675
G01 X34.9336 Y27.8868
G01 X34.9753 Y27.8041
G01 X35.0129 Y27.7194
G01 X35.0462 Y27.6329
G01 X35.0753 Y27.5449
G01 X35.1000 Y27.4556
G01 X35.1203 Y27.3652
G01 X35.1361 Y27.2739
G01 X35.1475 Y27.1820
G01 X35.1543 Y27.0895
G01 X35.1566 Y26.9969
G01 X35.1525 Y26.8734
G01 X35.1404 Y26.7505
G01 X35.1203 Y26.6286
G01 X35.0922 Y26.5083
G01 X35.0564 Y26.3901
G01 X35.0129 Y26.2745
G01 X34.9619 Y26.1619
G01 X34.9036 Y26.0530
G01 X34.8384 Y25.9481
G01 X34.7664 Y25.8477
G01 X34.6881 Y25.7522
G01 X34.6036 Y25.6620
G01 X34.5135 Y25.5776
G01 X34.4180 Y25.4992
G01 X34.3175 Y25.4272
G01 X34.2126 Y25.3620
G01 X34.1037 Y25.3038
G01 X33.9912 Y25.2528
G01 X33.8755 Y25.2093
G01 X33.7573 Y25.1734
G01 X33.6370 Y25.1454
G01 X33.5151 Y25.1252
G01 X33.3922 Y25.1131
G01 X33.2687 Y25.1091
G01 X33.1453 Y25.1131
G01 X33.0223 Y25.1252
G01 X32.9004 Y25.1454
G01 X32.7801 Y25.1734
G01 X32.6619 Y25.2093
G01 X32.5463 Y25.2528
G01 X32.4338 Y25.3038
G01 X32.3248 Y25.3620
G01 X32.2199 Y25.4272
G01 X32.1195 Y25.4992
G01 X32.0240 Y25.5776
G01 X31.9338 Y25.6620
G01 X31.8494 Y25.7522
G01 X31.7710 Y25.8477
G01 X31.6991 Y25.9481
G01 X31.6338 Y26.0530
G01 X31.5756 Y26.1619
G01 X31.5246 Y26.2745
G01 X31.4811 Y26.3901
G01 X31.4452 Y26.5083
G01 X31.4172 Y26.6286
G01 X31.3970 Y26.7505
G01 X31.3849 Y26.8734
G01 X31.3809 Y26.9969
G01 X31.3849 Y27.1204
G01 X31.3970 Y27.2433
G01 X31.4172 Y27.3652
G01 X31.4452 Y27.4855
G01 X31.4811 Y27.6037
G01 X31.5246 Y27.7194
G01 X31.5756 Y27.8319
G01 X31.6338 Y27.9408
G01 X31.6991 Y28.0457
G01 X31.7710 Y28.1462
G01 X31.8494 Y28.2416
G01 X31.9338 Y28.3318
G01 X32.0240 Y28.4163
G01 X32.1195 Y28.4946
G01 X32.2199 Y28.5666
G01 X32.3248 Y28.6318
G01 X32.4338 Y28.6901
G01 X32.5463 Y28.7410
G01 X32.6619 Y28.7846
G01 X32.7801 Y28.8204
G01 X32.9004 Y28.8485
G01 X33.0223 Y28.8686
G01 X33.1453 Y28.8807
G01 X33.2687 Y28.8847
G01 X33.3922 Y28.8807
G01 X33.5151 Y28.8686
G01 X33.6370 Y28.8485
G01 X33.7573 Y28.8204
G01 X33.8755 Y28.7846
G01 X33.9912 Y28.7410
G01 X34.1037 Y28.6901
G01 X34.2126 Y28.6318
G01 X34.3175 Y28.5666
G01 X34.4180 Y28.4946
G01 X34.5135 Y28.4163
G01 X34.6036 Y28.3318
G01 X34.6881 Y28.2416
G01 X34.7664 Y28.1462
G01 X34.8384 Y28.0457
G01 X34.9036 Y27.9408
G01 X34.9619 Y27.8319
G01 X35.0129 Y27.7194
G01 X35.0564 Y27.6037
G01 X35.0922 Y27.4855
G01 X35.1203 Y27.3652
G01 X35.1404 Y27.2433
G01 X35.1525 Y27.1204
G01 X35.1566 Y26.9969
G01 X35.1521 Y26.8836
G01 X35.1388 Y26.7710
G01 X35.1167 Y26.6598
G01 X35.0859 Y26.5507
G01 X35.0466 Y26.4444
G01 X34.9992 Y26.3414
G01 X34.9438 Y26.2425
G01 X34.8808 Y26.1482
G01 X34.8106 Y26.0592
G01 X34.7336 Y25.9759
G01 X34.6504 Y25.8990
G01 X34.5614 Y25.8288
G01 X34.4671 Y25.7658
G01 X34.3682 Y25.7104
G01 X34.2652 Y25.6629
G01 X34.1588 Y25.6237
G01 X34.0497 Y25.5929
G01 X33.9385 Y25.5708
G01 X33.8259 Y25.5574
G01 X33.7126 Y25.5530
G01 X33.5994 Y25.5574
G01 X33.4868 Y25.5708
G01 X33.3756 Y25.5929
G01 X33.2664 Y25.6237
G01 X33.1601 Y25.6629
G01 X33.0571 Y25.7104
G01 X32.9582 Y25.7658
G01 X32.8639 Y25.8288
G01 X32.7749 Y25.8990
G01 X32.6916 Y25.9759
G01 X32.6147 Y26.0592
G01 X32.5445 Y26.1482
G01 X32.4815 Y26.2425
G01 X32.4261 Y26.3414
G01 X32.3786 Y26.4444
G01 X32.3394 Y26.5507
G01 X32.3086 Y26.6598
G01 X32.2865 Y26.7710
G01 X32.2732 Y26.8836
G01 X32.2687 Y26.9969
G01 X32.2698 Y27.0431
G01 X32.2730 Y27.0892
G01 X32.2783 Y27.1351
G01 X32.2858 Y27.1807
G01 X32.2953 Y27.2259
G01 X32.3069 Y27.2706
G01 X32.3206 Y27.3147
G01 X32.3363 Y27.3582
G01 X32.3539 Y27.4008
G01 X32.3736 Y27.4427
G01 X32.3951 Y27.4835
G01 X32.4185 Y27.5233
G01 X32.4437 Y27.5620
G01 X32.4707 Y27.5995
G01 X32.4994 Y27.6358
G01 X32.5297 Y27.6706
G01 X32.5616 Y27.7040
G01 X32.5950 Y27.7359
G01 X32.6299 Y27.7662
G01 X32.6661 Y27.7949
G01 X32.7036 Y27.8219
G01 X32.7423 Y27.8471
G01 X32.7821 Y27.8705
G01 X32.8230 Y27.8921
G01 X32.8648 Y27.9117
G01 X32.9075 Y27.9294
G01 X32.9509 Y27.9451
G01 X32.9951 Y27.9587
G01 X33.0398 Y27.9704
G01 X33.0850 Y27.9799
G01 X33.1306 Y27.9873
G01 X33.1765 Y27.9926
G01 X33.2225 Y27.9958
G01 X33.2687 Y27.9969
G01 X33.3149 Y27.9958
G01 X33.3610 Y27.9926
G01 X33.4069 Y27.9873
G01 X33.4525 Y27.9799
G01 X33.4977 Y27.9704
G01 X33.5424 Y27.9587
G01 X33.5865 Y27.9451
G01 X33.6300 Y27.9294
G01 X33.6726 Y27.9117
G01 X33.7145 Y27.8921
G01 X33.7553 Y27.8705
G01 X33.7952 Y27.8471
G01 X33.8339 Y27.8219
G01 X33.8714 Y27.7949
G01 X33.9076 Y27.7662
G01 X33.9424 Y27.7359
G01 X33.9758 Y27.7040
G01 X34.0077 Y27.6706
G01 X34.0381 Y27.6358
G01 X34.0667 Y27.5995
G01 X34.0937 Y27.5620
G01 X34.1189 Y27.5233
G01 X34.1423 Y27.4835
G01 X34.1639 Y27.4427
G01 X34.1835 Y27.4008
G01 X34.2012 Y27.3582
G01 X34.2169 Y27.3147
G01 X34.2306 Y27.2706
G01 X34.2422 Y27.2259
G01 X34.2517 Y27.1807
G01 X34.2591 Y27.1351
G01 X34.2645 Y27.0892
G01 X34.2677 Y27.0431
G01 X34.2687 Y26.9969
M107
M106 S240
G01 X34.2649 Y26.9098 Z-1.5278 F400
G01 X34.2535 Y26.8233 Z-1.5556
G01 X34.2347 Y26.7381 Z-1.5833
G01 X34.2084 Y26.6549 Z-1.6111
G01 X34.1750 Y26.5743 Z-1.6389
G01 X34.1348 Y26.4969 Z-1.6667
G01 X34.0879 Y26.4233 Z-1.6944
G01 X34.0348 Y26.3541 Z-1.7222
G01 X33.9758 Y26.2898 Z-1.7500
G01 X33.9115 Y26.2309 Z-1.7778
G01 X33.8423 Y26.1778 Z-1.8056
G01 X33.7687 Y26.1309 Z-1.8333
G01 X33.6913 Y26.0906 Z-1.8611
G01 X33.6107 Y26.0572 Z-1.8889
G01 X33.5275 Y26.0310 Z-1.9167
G01 X33.4424 Y26.0121 Z-1.9444
G01 X33.3559 Y26.0007 Z-1.9722
G01 X33.2687 Y25.9969 Z-2.0000
G01 X33.1816 Y26.0007 Z-2.0278
G01 X33.0951 Y26.0121 Z-2.0556
G01 X33.0099 Y26.0310 Z-2.0833
G01 X32.9267 Y26.0572 Z-2.1111
G01 X32.8461 Y26.0906 Z-2.1389
G01 X32.7687 Y26.1309 Z-2.1667
G01 X32.7281 Y26.1557 Z-2.1818
G01 X32.6887 Y26.1823 Z-2.1970
G01 X32.6506 Y26.2109 Z-2.2121
G01 X32.6139 Y26.2412 Z-2.2273
G01 X32.5786 Y26.2732 Z-2.2424
G01 X32.5450 Y26.3068 Z-2.2576
G01 X32.5130 Y26.3421 Z-2.2727
G01 X32.4827 Y26.3788 Z-2.2879
G01 X32.4541 Y26.4169 Z-2.3030
G01 X32.4275 Y26.4563 Z-2.3182
G01 X32.4027 Y26.4969 Z-2.3333
G01 X32.3799 Y26.5387 Z-2.3485
G01 X32.3591 Y26.5815 Z-2.3636
G01 X32.3404 Y26.6253 Z-2.3788
G01 X32.3237 Y26.6698 Z-2.3939
G01 X32.3092 Y26.7152 Z-2.4091
G01 X32.2969 Y26.7612 Z-2.4242
G01 X32.2868 Y26.8077 Z-2.4394
G01 X32.2789 Y26.8546 Z-2.4545
G01 X32.2733 Y26.9019 Z-2.4697
G01 X32.2699 Y26.9493 Z-2.4848
G01 X32.2687 Y26.9969 Z-2.5000
G01 X32.2699 Y27.0445 Z-2.5152
G01 X32.2733 Y27.0920 Z-2.5303
G01 X32.2789 Y27.1392 Z-2.5455
G01 X32.2868 Y27.1862 Z-2.5606
G01 X32.2969 Y27.2327 Z-2.5758
G01 X32.3092 Y27.2786 Z-2.5909
G01 X32.3237 Y27.3240 Z-2.6061
G01 X32.3404 Y27.3686 Z-2.6212
G01 X32.3591 Y27.4123 Z-2.6364
G01 X32.3799 Y27.4551 Z-2.6515
G01 X32.4027 Y27.4969 Z-2.6667
G01 X32.4275 Y27.5376 Z-2.6818
G01 X32.4541 Y27.5770 Z-2.6970
G01 X32.4827 Y27.6151 Z-2.7121
G01 X32.5130 Y27.6518 Z-2.7273
G01 X32.5450 Y27.6870 Z-2.7424
G01 X32.5786 Y27.7206 Z-2.7576
G01 X32.6139 Y27.7527 Z-2.7727
G01 X32.6506 Y27.7830 Z-2.7879
G01 X32.6887 Y27.8115 Z-2.8030
G01 X32.7281 Y27.8382 Z-2.8182
G01 X32.7687 Y27.8629 Z-2.8333
G01 X32.8105 Y27.8857 Z-2.8485
G01 X32.8533 Y27.9065 Z-2.8636
G01 X32.8971 Y27.9253 Z-2.8788
G01 X32.9417 Y27.9419 Z-2.8939
G01 X32.9870 Y27.9564 Z-2.9091
G01 X33.0330 Y27.9687 Z-2.9242
G01 X33.0795 Y27.9788 Z-2.9394
G01 X33.1264 Y27.9867 Z-2.9545
G01 X33.1737 Y27.9924 Z-2.9697
G01 X33.2211 Y27.9958 Z-2.9848
G01 X33.2687 Y27.9969 Z-3.0000
G01 X33.3163 Y27.9958 Z-3.0152
G01 X33.3638 Y27.9924 Z-3.0303
G01 X33.4110 Y27.9867 Z-3.0455
G01 X33.4580 Y27.9788 Z-3.0606
G01 X33.5045 Y27.9687 Z-3.0758
G01 X33.5505 Y27.9564 Z-3.0909
G01 X33.5958 Y27.9419 Z-3.1061
G01 X33.6404 Y27.9253 Z-3.1212
G01 X33.6841 Y27.9065 Z-3.1364
G01 X33.7270 Y27.8857 Z-3.1515
G01 X33.7687 Y27.8629 Z-3.1667
G01 X33.8094 Y27.8382 Z-3.1818
G01 X33.8488 Y27.8115 Z-3.1970
G01 X33.8869 Y27.7830 Z-3.2121
G01 X33.9236 Y27.7527 Z-3.2273
G01 X33.9588 Y27.7206 Z-3.2424
G01 X33.9925 Y27.6870 Z-3.2576
G01 X34.0245 Y27.6518 Z-3.2727
G01 X34.0548 Y27.6151 Z-3.2879
G01 X34.0833 Y27.5770 Z-3.3030
G01 X34.1100 Y27.5376 Z-3.3182
G01 X34.1348 Y27.4969 Z-3.3333
G01 X34.1576 Y27.4551 Z-3.3485
G01 X34.1784 Y27.4123 Z-3.3636
G01 X34.1971 Y27.3686 Z-3.3788
G01 X34.2137 Y27.3240 Z-3.3939
G01 X34.2282 Y27.2786 Z-3.4091
G01 X34.2405 Y27.2327 Z-3.4242
G01 X34.2507 Y27.1862 Z-3.4394
G01 X34.2585 Y27.1392 Z-3.4545
G01 X34.2642 Y27.0920 Z-3.4697
G01 X34.2676 Y27.0445 Z-3.4848
G01 X34.2687 Y26.9969 Z-3.5000
G01 X34.2649 Y26.9098
G01 X34.2535 Y26.8233
G01 X34.2347 Y26.7381
G01 X34.2084 Y26.6549
G01 X34.1750 Y26.5743
G01 X34.1348 Y26.4969
G01 X34.0879 Y26.4233
G01 X34.0348 Y26.3541
G01 X33.9758 Y26.2898
G01 X33.9115 Y26.2309
G01 X33.8423 Y26.1778
G01 X33.7687 Y26.1309
G01 X33.6913 Y26.0906
G01 X33.6107 Y26.0572
G01 X33.5275 Y26.0310
G01 X33.4424 Y26.0121
G01 X33.3559 Y26.0007
G01 X33.2687 Y25.9969
G01 X33.1816 Y26.0007
G01 X33.0951 Y26.0121
G01 X33.0099 Y26.0310
G01 X32.9267 Y26.0572
G01 X32.8461 Y26.0906
G01 X32.7687 Y26.1309
G01 X32.7281 Y26.1557
G01 X32.6887 Y26.1823
G01 X32.6506 Y26.2109
G01 X32.6139 Y26.2412
G01 X32.5786 Y26.2732
G01 X32.5450 Y26.3068
G01 X32.5130 Y26.3421
G01 X32.4827 Y26.3788
G01 X32.4541 Y26.4169
G01 X32.4275 Y26.4563
G01 X32.4027 Y26.4969
G01 X32.3799 Y26.5387
G01 X32.3591 Y26.5815
G01 X32.3404 Y26.6253
G01 X32.3237 Y26.6698
G01 X32.3092 Y26.7152
G01 X32.2969 Y26.7612
G01 X32.2868 Y26.8077
G01 X32.2789 Y26.8546
G01 X32.2733 Y26.9019
G01 X32.2699 Y26.9493
G01 X32.2687 Y26.9969
G01 X32.2699 Y27.0445
G01 X32.2733 Y27.0920
G01 X32.2789 Y27.1392
G01 X32.2868 Y27.1862
G01 X32.2969 Y27.2327
G01 X32.3092 Y27.2786
G01 X32.3237 Y27.3240
G01 X32.3404 Y27.3686
G01 X32.3591 Y27.4123
G01 X32.3799 Y27.4551
G01 X32.4027 Y27.4969
G01 X32.4275 Y27.5376
G01 X32.4541 Y27.5770
G01 X32.4827 Y27.6151
G01 X32.5130 Y27.6518
G01 X32.5450 Y27.6870
G01 X32.5786 Y27.7206
G01 X32.6139 Y27.7527
G01 X32.6506 Y27.7830
G01 X32.6887 Y27.8115
G01 X32.7281 Y27.8382
G01 X32.7687 Y27.8629
G01 X32.8105 Y27.8857
G01 X32.8533 Y27.9065
G01 X32.8971 Y27.9253
G01 X32.9417 Y27.9419
G01 X32.9870 Y27.9564
G01 X33.0330 Y27.9687
G01 X33.0795 Y27.9788
G01 X33.1264 Y27.9867
G01 X33.1737 Y27.9924
G01 X33.2211 Y27.9958
G01 X33.2687 Y27.9969
G01 X33.3163 Y27.9958
G01 X33.3638 Y27.9924
G01 X33.4110 Y27.9867
G01 X33.4580 Y27.9788
G01 X33.5045 Y27.9687
G01 X33.5505 Y27.9564
G01 X33.5958 Y27.9419
G01 X33.6404 Y27.9253
G01 X33.6841 Y27.9065
G01 X33.7270 Y27.8857
G01 X33.7687 Y27.8629
G01 X33.8094 Y27.8382
G01 X33.8488 Y27.8115
G01 X33.8869 Y27.7830
G01 X33.9236 Y27.7527
G01 X33.9588 Y27.7206
G01 X33.9925 Y27.6870
G01 X34.0245 Y27.6518
G01 X34.0548 Y27.6151
G01 X34.0833 Y27.5770
G01 X34.1100 Y27.5376
G01 X34.1348 Y27.4969
G01 X34.1576 Y27.4551
G01 X34.1784 Y27.4123
G01 X34.1971 Y27.3686
G01 X34.2137 Y27.3240
G01 X34.2282 Y27.2786
G01 X34.2405 Y27.2327
G01 X34.2507 Y27.1862
G01 X34.2585 Y27.1392
G01 X34.2642 Y27.0920
G01 X34.2676 Y27.0445
G01 X34.2687 Y26.9969
G01 X34.2795 Y26.9453 F1000
G01 X34.2875 Y26.8932
G01 X34.2929 Y26.8408
G01 X34.2956 Y26.7882
G01 Y26.7355
G01 X34.2928 Y26.6828
G01 X34.2874 Y26.6304
G01 X34.2792 Y26.5784
G01 X34.2675 Y26.5224
G01 X34.2529 Y26.4671
G01 X34.2356 Y26.4126
G01 X34.2154 Y26.3590
G01 X34.1926 Y26.3066
G01 X34.1671 Y26.2554
G01 X34.1390 Y26.2056
G01 X34.1084 Y26.1572
G01 X34.0728 Y26.1068
G01 X34.0347 Y26.0583
G01 X33.9941 Y26.0118
G01 X33.9513 Y25.9674
G01 X33.9062 Y25.9252
G01 X33.8591 Y25.8854
G01 X33.8100 Y25.8480
G01 X33.7590 Y25.8132
G01 X33.7025 Y25.7786
G01 X33.6444 Y25.7470
G01 X33.5847 Y25.7183
G01 X33.5236 Y25.6926
G01 X33.4613 Y25.6701
G01 X33.3980 Y25.6508
G01 X33.3337 Y25.6347
G01 X33.2687 Y25.6219
G01 X33.1987 Y25.6117
G01 X33.1282 Y25.6051
G01 X33.0575 Y25.6020
G01 X32.9868 Y25.6025
G01 X32.9161 Y25.6066
G01 X32.8458 Y25.6142
G01 X32.7759 Y25.6253
G01 X32.7067 Y25.6400
G01 X32.6339 Y25.6592
G01 X32.5621 Y25.6822
G01 X32.4916 Y25.7086
G01 X32.4225 Y25.7386
G01 X32.3551 Y25.7721
G01 X32.2894 Y25.8088
G01 X32.2256 Y25.8489
G01 X32.1639 Y25.8921
G01 X32.1008 Y25.9411
G01 X32.0403 Y25.9932
G01 X31.9825 Y26.0483
G01 X31.9275 Y26.1062
G01 X31.8755 Y26.1668
G01 X31.8266 Y26.2299
G01 X31.7809 Y26.2954
G01 X31.7385 Y26.3631
G01 X31.6974 Y26.4368
G01 X31.6600 Y26.5125
G01 X31.6265 Y26.5899
G01 X31.5968 Y26.6690
G01 X31.5712 Y26.7494
G01 X31.5496 Y26.8310
G01 X31.5321 Y26.9136
G01 X31.5187 Y26.9969
G01 X31.5091 Y27.0854
G01 X31.5038 Y27.1742
G01 X31.5030 Y27.2631
G01 X31.5067 Y27.3520
G01 X31.5148 Y27.4406
G01 X31.5272 Y27.5287
G01 X31.5441 Y27.6161
G01 X31.5653 Y27.7025
G01 X31.5974 Y27.7884
G01 X31.6337 Y27.8727
G01 X31.6741 Y27.9551
G01 X31.7185 Y28.0354
G01 X31.7668 Y28.1134
G01 X31.8188 Y28.1889
G01 X31.8746 Y28.2618
G01 X31.9338 Y28.3318
G01 X32.0009 Y28.3957
G01 X32.0711 Y28.4562
G01 X32.1441 Y28.5132
G01 X32.2199 Y28.5666
G01 X32.2982 Y28.6162
G01 X32.3788 Y28.6618
G01 X32.4616 Y28.7035
G01 X32.5463 Y28.7410
G01 X32.6327 Y28.7744
G01 X32.7207 Y28.8035
G01 X32.8100 Y28.8282
G01 X32.9004 Y28.8485
G01 X32.9917 Y28.8643
G01 X33.0837 Y28.8757
G01 X33.1761 Y28.8825
G01 X33.2687 Y28.8847
G01 X33.3614 Y28.8825
G01 X33.4538 Y28.8757
G01 X33.5457 Y28.8643
G01 X33.6370 Y28.8485
G01 X33.7274 Y28.8282
G01 X33.8167 Y28.8035
G01 X33.9047 Y28.7744
G01 X33.9912 Y28.7410
G01 X34.0759 Y28.7035
G01 X34.1586 Y28.6618
G01 X34.2393 Y28.6162
G01 X34.3175 Y28.5666
G01 X34.3933 Y28.5132
G01 X34.4664 Y28.4562
G01 X34.5365 Y28.3957
G01 X34.6036 Y28.3318
G01 X34.6675 Y28.2647
G01 X34.7280 Y28.1945
G01 X34.7850 Y28.1215
G01 X34.8384 Y28.0457
G01 X34.8880 Y27.9675
G01 X34.9336 Y27.8868
G01 X34.9753 Y27.8041
G01 X35.0129 Y27.7194
G01 X35.0462 Y27.6329
G01 X35.0753 Y27.5449
G01 X35.1000 Y27.4556
G01 X35.1203 Y27.3652
G01 X35.1361 Y27.2739
G01 X35.1475 Y27.1820
G01 X35.1543 Y27.0895
G01 X35.1566 Y26.9969
G01 X35.1525 Y26.8734
G01 X35.1404 Y26.7505
G01 X35.1203 Y26.6286
G01 X35.0922 Y26.5083
G01 X35.0564 Y26.3901
G01 X35.0129 Y26.2745
G01 X34.9619 Y26.1619
G01 X34.9036 Y26.0530
G01 X34.8384 Y25.9481
G01 X34.7664 Y25.8477
G01 X34.6881 Y25.7522
G01 X34.6036 Y25.6620
G01 X34.5135 Y25.5776
G01 X34.4180 Y25.4992
G01 X34.3175 Y25.4272
G01 X34.2126 Y25.3620
G01 X34.1037 Y25.3038
G01 X33.9912 Y25.2528
G01 X33.8755 Y25.2093
G01 X33.7573 Y25.1734
G01 X33.6370 Y25.1454
G01 X33.5151 Y25.1252
G01 X33.3922 Y25.1131
G01 X33.2687 Y25.1091
G01 X33.1453 Y25.1131
G01 X33.0223 Y25.1252
G01 X32.9004 Y25.1454
G01 X32.7801 Y25.1734
G01 X32.6619 Y25.2093
G01 X32.5463 Y25.2528
G01 X32.4338 Y25.3038
G01 X32.3248 Y25.3620
G01 X32.2199 Y25.4272
G01 X32.1195 Y25.4992
G01 X32.0240 Y25.5776
G01 X31.9338 Y25.6620
G01 X31.8494 Y25.7522
G01 X31.7710 Y25.8477
G01 X31.6991 Y25.9481
G01 X31.6338 Y26.0530
G01 X31.5756 Y26.1619
G01 X31.5246 Y26.2745
G01 X31.4811 Y26.3901
G01 X31.4452 Y26.5083
G01 X31.4172 Y26.6286
G01 X31.3970 Y26.7505
G01 X31.3849 Y26.8734
G01 X31.3809 Y26.9969
G01 X31.3849 Y27.1204
G01 X31.3970 Y27.2433
G01 X31.4172 Y27.3652
G01 X31.4452 Y27.4855
G01 X31.4811 Y27.6037
G01 X31.5246 Y27.7194
G01 X31.5756 Y27.8319
G01 X31.6338 Y27.9408
G01 X31.6991 Y28.0457
G01 X31.7710 Y28.1462
G01 X31.8494 Y28.2416
G01 X31.9338 Y28.3318
G01 X32.0240 Y28.4163
G01 X32.1195 Y28.4946
G01 X32.2199 Y28.5666
G01 X32.3248 Y28.6318
G01 X32.4338 Y28.6901
G01 X32.5463 Y28.7410
G01 X32.6619 Y28.7846
G01 X32.7801 Y28.8204
G01 X32.9004 Y28.8485
G01 X33.0223 Y28.8686
G01 X33.1453 Y28.8807
G01 X33.2687 Y28.8847
G01 X33.3922 Y28.8807
G01 X33.5151 Y28.8686
G01 X33.6370 Y28.8485
G01 X33.7573 Y28.8204
G01 X33.8755 Y28.7846
G01 X33.9912 Y28.7410
G01 X34.1037 Y28.6901
G01 X34.2126 Y28.6318
G01 X34.3175 Y28.5666
G01 X34.4180 Y28.4946
G01 X34.5135 Y28.4163
G01 X34.6036 Y28.3318
G01 X34.6881 Y28.2416
G01 X34.7664 Y28.1462
G01 X34.8384 Y28.0457
G01 X34.9036 Y27.9408
G01 X34.9619 Y27.8319
G01 X35.0129 Y27.7194
G01 X35.0564 Y27.6037
G01 X35.0922 Y27.4855
G01 X35.1203 Y27.3652
G01 X35.1404 Y27.2433
G01 X35.1525 Y27.1204
G01 X35.1566 Y26.9969
G01 X35.1521 Y26.8836
G01 X35.1388 Y26.7710
G01 X35.1167 Y26.6598
G01 X35.0859 Y26.5507
G01 X35.0466 Y26.4444
G01 X34.9992 Y26.3414
G01 X34.9438 Y26.2425
G01 X34.8808 Y26.1482
G01 X34.8106 Y26.0592
G01 X34.7336 Y25.9759
G01 X34.6504 Y25.8990
G01 X34.5614 Y25.8288
G01 X34.4671 Y25.7658
G01 X34.3682 Y25.7104
G01 X34.2652 Y25.6629
G01 X34.1588 Y25.6237
G01 X34.0497 Y25.5929
G01 X33.9385 Y25.5708
G01 X33.8259 Y25.5574
G01 X33.7126 Y25.5530
G01 X33.5994 Y25.5574
G01 X33.4868 Y25.5708
G01 X33.3756 Y25.5929
G01 X33.2664 Y25.6237
G01 X33.1601 Y25.6629
G01 X33.0571 Y25.7104
G01 X32.9582 Y25.7658
G01 X32.8639 Y25.8288
G01 X32.7749 Y25.8990
G01 X32.6916 Y25.9759
G01 X32.6147 Y26.0592
G01 X32.5445 Y26.1482
G01 X32.4815 Y26.2425
G01 X32.4261 Y26.3414
G01 X32.3786 Y26.4444
G01 X32.3394 Y26.5507
G01 X32.3086 Y26.6598
G01 X32.2865 Y26.7710
G01 X32.2732 Y26.8836
G01 X32.2687 Y26.9969
G01 X32.2698 Y27.0431
G01 X32.2730 Y27.0892
G01 X32.2783 Y27.1351
G01 X32.2858 Y27.1807
G01 X32.2953 Y27.2259
G01 X32.3069 Y27.2706
G01 X32.3206 Y27.3147
G01 X32.3363 Y27.3582
G01 X32.3539 Y27.4008
G01 X32.3736 Y27.4427
G01 X32.3951 Y27.4835
G01 X32.4185 Y27.5233
G01 X32.4437 Y27.5620
G01 X32.4707 Y27.5995
G01 X32.4994 Y27.6358
G01 X32.5297 Y27.6706
G01 X32.5616 Y27.7040
G01 X32.5950 Y27.7359
G01 X32.6299 Y27.7662
G01 X32.6661 Y27.7949
G01 X32.7036 Y27.8219
G01 X32.7423 Y27.8471
G01 X32.7821 Y27.8705
G01 X32.8230 Y27.8921
G01 X32.8648 Y27.9117
G01 X32.9075 Y27.9294
G01 X32.9509 Y27.9451
G01 X32.9951 Y27.9587
G01 X33.0398 Y27.9704
G01 X33.0850 Y27.9799
G01 X33.1306 Y27.9873
G01 X33.1765 Y27.9926
G01 X33.2225 Y27.9958
G01 X33.2687 Y27.9969
G01 X33.3149 Y27.9958
G01 X33.3610 Y27.9926
G01 X33.4069 Y27.9873
G01 X33.4525 Y27.9799
G01 X33.4977 Y27.9704
G01 X33.5424 Y27.9587
G01 X33.5865 Y27.9451
G01 X33.6300 Y27.9294
G01 X33.6726 Y27.9117
G01 X33.7145 Y27.8921
G01 X33.7553 Y27.8705
G01 X33.7952 Y27.8471
G01 X33.8339 Y27.8219
G01 X33.8714 Y27.7949
G01 X33.9076 Y27.7662
G01 X33.9424 Y27.7359
G01 X33.9758 Y27.7040
G01 X34.0077 Y27.6706
G01 X34.0381 Y27.6358
G01 X34.0667 Y27.5995
G01 X34.0937 Y27.5620
G01 X34.1189 Y27.5233
G01 X34.1423 Y27.4835
G01 X34.1639 Y27.4427
G01 X34.1835 Y27.4008
G01 X34.2012 Y27.3582
G01 X34.2169 Y27.3147
G01 X34.2306 Y27.2706
G01 X34.2422 Y27.2259
G01 X34.2517 Y27.1807
G01 X34.2591 Y27.1351
G01 X34.2645 Y27.0892
G01 X34.2677 Y27.0431
G01 X34.2687 Y26.9969
M107
M106 S240
G01 X34.2649 Y26.9098 Z-3.5278 F400
G01 X34.2535 Y26.8233 Z-3.5556
G01 X34.2347 Y26.7381 Z-3.5833
G01 X34.2084 Y26.6549 Z-3.6111
G01 X34.1750 Y26.5743 Z-3.6389
G01 X34.1348 Y26.4969 Z-3.6667
G01 X34.0879 Y26.4233 Z-3.6944
G01 X34.0348 Y26.3541 Z-3.7222
G01 X33.9758 Y26.2898 Z-3.7500
G01 X33.9115 Y26.2309 Z-3.7778
G01 X33.8423 Y26.1778 Z-3.8056
G01 X33.7687 Y26.1309 Z-3.8333
G01 X33.6913 Y26.0906 Z-3.8611
G01 X33.6107 Y26.0572 Z-3.8889
G01 X33.5275 Y26.0310 Z-3.9167
G01 X33.4424 Y26.0121 Z-3.9444
G01 X33.3559 Y26.0007 Z-3.9722
G01 X33.2687 Y25.9969 Z-4.0000
G01 X33.1816 Y26.0007 Z-4.0278
G01 X33.0951 Y26.0121 Z-4.0556
G01 X33.0099 Y26.0310 Z-4.0833
G01 X32.9267 Y26.0572 Z-4.1111
G01 X32.8461 Y26.0906 Z-4.1389
G01 X32.7687 Y26.1309 Z-4.1667
G01 X32.7281 Y26.1557 Z-4.1818
G01 X32.6887 Y26.1823 Z-4.1970
G01 X32.6506 Y26.2109 Z-4.2121
G01 X32.6139 Y26.2412 Z-4.2273
G01 X32.5786 Y26.2732 Z-4.2424
G01 X32.5450 Y26.3068 Z-4.2576
G01 X32.5130 Y26.3421 Z-4.2727
G01 X32.4827 Y26.3788 Z-4.2879
G01 X32.4541 Y26.4169 Z-4.3030
G01 X32.4275 Y26.4563 Z-4.3182
G01 X32.4027 Y26.4969 Z-4.3333
G01 X32.3799 Y26.5387 Z-4.3485
G01 X32.3591 Y26.5815 Z-4.3636
G01 X32.3404 Y26.6253 Z-4.3788
G01 X32.3237 Y26.6698 Z-4.3939
G01 X32.3092 Y26.7152 Z-4.4091
G01 X32.2969 Y26.7612 Z-4.4242
G01 X32.2868 Y26.8077 Z-4.4394
G01 X32.2789 Y26.8546 Z-4.4545
G01 X32.2733 Y26.9019 Z-4.4697
G01 X32.2699 Y26.9493 Z-4.4848
G01 X32.2687 Y26.9969 Z-4.5000
G01 X32.2699 Y27.0445 Z-4.5152
G01 X32.2733 Y27.0920 Z-4.5303
G01 X32.2789 Y27.1392 Z-4.5455
G01 X32.2868 Y27.1862 Z-4.5606
G01 X32.2969 Y27.2327 Z-4.5758
G01 X32.3092 Y27.2786 Z-4.5909
G01 X32.3237 Y27.3240 Z-4.6061
G01 X32.3404 Y27.3686 Z-4.6212
G01 X32.3591 Y27.4123 Z-4.6364
G01 X32.3799 Y27.4551 Z-4.6515
G01 X32.4027 Y27.4969 Z-4.6667
G01 X32.4275 Y27.5376 Z-4.6818
G01 X32.4541 Y27.5770 Z-4.6970
G01 X32.4827 Y27.6151 Z-4.7121
G01 X32.5130 Y27.6518 Z-4.7273
G01 X32.5450 Y27.6870 Z-4.7424
G01 X32.5786 Y27.7206 Z-4.7576
G01 X32.6139 Y27.7527 Z-4.7727
G01 X32.6506 Y27.7830 Z-4.7879
G01 X32.6887 Y27.8115 Z-4.8030
G01 X32.7281 Y27.8382 Z-4.8182
G01 X32.7687 Y27.8629 Z-4.8333
G01 X32.8105 Y27.8857 Z-4.8485
G01 X32.8533 Y27.9065 Z-4.8636
G01 X32.8971 Y27.9253 Z-4.8788
G01 X32.9417 Y27.9419 Z-4.8939
G01 X32.9870 Y27.9564 Z-4.9091
G01 X33.0330 Y27.9687 Z-4.9242
G01 X33.0795 Y27.9788 Z-4.9394
G01 X33.1264 Y27.9867 Z-4.9545
G01 X33.1737 Y27.9924 Z-4.9697
G01 X33.2211 Y27.9958 Z-4.9848
G01 X33.2687 Y27.9969 Z-5.0000
G01 X33.3163 Y27.9958 Z-5.0152
G01 X33.3638 Y27.9924 Z-5.0303
G01 X33.4110 Y27.9867 Z-5.0455
G01 X33.4580 Y27.9788 Z-5.0606
G01 X33.5045 Y27.9687 Z-5.0758
G01 X33.5505 Y27.9564 Z-5.0909
G01 X33.5958 Y27.9419 Z-5.1061
G01 X33.6404 Y27.9253 Z-5.1212
G01 X33.6841 Y27.9065 Z-5.1364
G01 X33.7270 Y27.8857 Z-5.1515
G01 X33.7687 Y27.8629 Z-5.1667
G01 X33.8094 Y27.8382 Z-5.1818
G01 X33.8488 Y27.8115 Z-5.1970
G01 X33.8869 Y27.7830 Z-5.2121
G01 X33.9236 Y27.7527 Z-5.2273
G01 X33.9588 Y27.7206 Z-5.2424
G01 X33.9925 Y27.6870 Z-5.2576
G01 X34.0245 Y27.6518 Z-5.2727
G01 X34.0548 Y27.6151 Z-5.2879
G01 X34.0833 Y27.5770 Z-5.3030
G01 X34.1100 Y27.5376 Z-5.3182
G01 X34.1348 Y27.4969 Z-5.3333
G01 X34.1576 Y27.4551 Z-5.3485
G01 X34.1784 Y27.4123 Z-5.3636
G01 X34.1971 Y27.3686 Z-5.3788
G01 X34.2137 Y27.3240 Z-5.3939
G01 X34.2282 Y27.2786 Z-5.4091
G01 X34.2405 Y27.2327 Z-5.4242
G01 X34.2507 Y27.1862 Z-5.4394
G01 X34.2585 Y27.1392 Z-5.4545
G01 X34.2642 Y27.0920 Z-5.4697
G01 X34.2676 Y27.0445 Z-5.4848
G01 X34.2687 Y26.9969 Z-5.5000
G01 X34.2649 Y26.9098
G01 X34.2535 Y26.8233
G01 X34.2347 Y26.7381
G01 X34.2084 Y26.6549
G01 X34.1750 Y26.5743
G01 X34.1348 Y26.4969
G01 X34.0879 Y26.4233
G01 X34.0348 Y26.3541
G01 X33.9758 Y26.2898
G01 X33.9115 Y26.2309
G01 X33.8423 Y26.1778
G01 X33.7687 Y26.1309
G01 X33.6913 Y26.0906
G01 X33.6107 Y26.0572
G01 X33.5275 Y26.0310
G01 X33.4424 Y26.0121
G01 X33.3559 Y26.0007
G01 X33.2687 Y25.9969
G01 X33.1816 Y26.0007
G01 X33.0951 Y26.0121
G01 X33.0099 Y26.0310
G01 X32.9267 Y26.0572
G01 X32.8461 Y26.0906
G01 X32.7687 Y26.1309
G01 X32.7281 Y26.1557
G01 X32.6887 Y26.1823
G01 X32.6506 Y26.2109
G01 X32.6139 Y26.2412
G01 X32.5786 Y26.2732
G01 X32.5450 Y26.3068
G01 X32.5130 Y26.3421
G01 X32.4827 Y26.3788
G01 X32.4541 Y26.4169
G01 X32.4275 Y26.4563
G01 X32.4027 Y26.4969
G01 X32.3799 Y26.5387
G01 X32.3591 Y26.5815
G01 X32.3404 Y26.6253
G01 X32.3237 Y26.6698
G01 X32.3092 Y26.7152
G01 X32.2969 Y26.7612
G01 X32.2868 Y26.8077
G01 X32.2789 Y26.8546
G01 X32.2733 Y26.9019
G01 X32.2699 Y26.9493
G01 X32.2687 Y26.9969
G01 X32.2699 Y27.0445
G01 X32.2733 Y27.0920
G01 X32.2789 Y27.1392
G01 X32.2868 Y27.1862
G01 X32.2969 Y27.2327
G01 X32.3092 Y27.2786
G01 X32.3237 Y27.3240
G01 X32.3404 Y27.3686
G01 X32.3591 Y27.4123
G01 X32.3799 Y27.4551
G01 X32.4027 Y27.4969
G01 X32.4275 Y27.5376
G01 X32.4541 Y27.5770
G01 X32.4827 Y27.6151
G01 X32.5130 Y27.6518
G01 X32.5450 Y27.6870
G01 X32.5786 Y27.7206
G01 X32.6139 Y27.7527
G01 X32.6506 Y27.7830
G01 X32.6887 Y27.8115
G01 X32.7281 Y27.8382
G01 X32.7687 Y27.8629
G01 X32.8105 Y27.8857
G01 X32.8533 Y27.9065
G01 X32.8971 Y27.9253
G01 X32.9417 Y27.9419
G01 X32.9870 Y27.9564
G01 X33.0330 Y27.9687
G01 X33.0795 Y27.9788
G01 X33.1264 Y27.9867
G01 X33.1737 Y27.9924
G01 X33.2211 Y27.9958
G01 X33.2687 Y27.9969
G01 X33.3163 Y27.9958
G01 X33.3638 Y27.9924
G01 X33.4110 Y27.9867
G01 X33.4580 Y27.9788
G01 X33.5045 Y27.9687
G01 X33.5505 Y27.9564
G01 X33.5958 Y27.9419
G01 X33.6404 Y27.9253
G01 X33.6841 Y27.9065
G01 X33.7270 Y27.8857
G01 X33.7687 Y27.8629
G01 X33.8094 Y27.8382
G01 X33.8488 Y27.8115
G01 X33.8869 Y27.7830
G01 X33.9236 Y27.7527
G01 X33.9588 Y27.7206
G01 X33.9925 Y27.6870
G01 X34.0245 Y27.6518
G01 X34.0548 Y27.6151
G01 X34.0833 Y27.5770
G01 X34.1100 Y27.5376
G01 X34.1348 Y27.4969
G01 X34.1576 Y27.4551
G01 X34.1784 Y27.4123
G01 X34.1971 Y27.3686
G01 X34.2137 Y27.3240
G01 X34.2282 Y27.2786
G01 X34.2405 Y27.2327
G01 X34.2507 Y27.1862
G01 X34.2585 Y27.1392
G01 X34.2642 Y27.0920
G01 X34.2676 Y27.0445
G01 X34.2687 Y26.9969
G01 X34.2795 Y26.9453 F1000
G01 X34.2875 Y26.8932
G01 X34.2929 Y26.8408
G01 X34.2956 Y26.7882
G01 Y26.7355
G01 X34.2928 Y26.6828
G01 X34.2874 Y26.6304
G01 X34.2792 Y26.5784
G01 X34.2675 Y26.5224
G01 X34.2529 Y26.4671
G01 X34.2356 Y26.4126
G01 X34.2154 Y26.3590
G01 X34.1926 Y26.3066
G01 X34.1671 Y26.2554
G01 X34.1390 Y26.2056
G01 X34.1084 Y26.1572
G01 X34.0728 Y26.1068
G01 X34.0347 Y26.0583
G01 X33.9941 Y26.0118
G01 X33.9513 Y25.9674
G01 X33.9062 Y25.9252
G01 X33.8591 Y25.8854
G01 X33.8100 Y25.8480
G01 X33.7590 Y25.8132
G01 X33.7025 Y25.7786
G01 X33.6444 Y25.7470
G01 X33.5847 Y25.7183
G01 X33.5236 Y25.6926
G01 X33.4613 Y25.6701
G01 X33.3980 Y25.6508
G01 X33.3337 Y25.6347
G01 X33.2687 Y25.6219
G01 X33.1987 Y25.6117
G01 X33.1282 Y25.6051
G01 X33.0575 Y25.6020
G01 X32.9868 Y25.6025
G01 X32.9161 Y25.6066
G01 X32.8458 Y25.6142
G01 X32.7759 Y25.6253
G01 X32.7067 Y25.6400
G01 X32.6339 Y25.6592
G01 X32.5621 Y25.6822
G01 X32.4916 Y25.7086
G01 X32.4225 Y25.7386
G01 X32.3551 Y25.7721
G01 X32.2894 Y25.8088
G01 X32.2256 Y25.8489
G01 X32.1639 Y25.8921
G01 X32.1008 Y25.9411
G01 X32.0403 Y25.9932
G01 X31.9825 Y26.0483
G01 X31.9275 Y26.1062
G01 X31.8755 Y26.1668
G01 X31.8266 Y26.2299
G01 X31.7809 Y26.2954
G01 X31.7385 Y26.3631
G01 X31.6974 Y26.4368
G01 X31.6600 Y26.5125
G01 X31.6265 Y26.5899
G01 X31.5968 Y26.6690
G01 X31.5712 Y26.7494
G01 X31.5496 Y26.8310
G01 X31.5321 Y26.9136
G01 X31.5187 Y26.9969
G01 X31.5091 Y27.0854
G01 X31.5038 Y27.1742
G01 X31.5030 Y27.2631
G01 X31.5067 Y27.3520
G01 X31.5148 Y27.4406
G01 X31.5272 Y27.5287
G01 X31.5441 Y27.6161
G01 X31.5653 Y27.7025
G01 X31.5974 Y27.7884
G01 X31.6337 Y27.8727
G01 X31.6741 Y27.9551
G01 X31.7185 Y28.0354
G01 X31.7668 Y28.1134
G01 X31.8188 Y28.1889
G01 X31.8746 Y28.2618
G01 X31.9338 Y28.3318
G01 X32.0009 Y28.3957
G01 X32.0711 Y28.4562
G01 X32.1441 Y28.5132
G01 X32.2199 Y28.5666
G01 X32.2982 Y28.6162
G01 X32.3788 Y28.6618
G01 X32.4616 Y28.7035
G01 X32.5463 Y28.7410
G01 X32.6327 Y28.7744
G01 X32.7207 Y28.8035
G01 X32.8100 Y28.8282
G01 X32.9004 Y28.8485
G01 X32.9917 Y28.8643
G01 X33.0837 Y28.8757
G01 X33.1761 Y28.8825
G01 X33.2687 Y28.8847
G01 X33.3614 Y28.8825
G01 X33.4538 Y28.8757
G01 X33.5457 Y28.8643
G01 X33.6370 Y28.8485
G01 X33.7274 Y28.8282
G01 X33.8167 Y28.8035
G01 X33.9047 Y28.7744
G01 X33.9912 Y28.7410
G01 X34.0759 Y28.7035
G01 X34.1586 Y28.6618
G01 X34.2393 Y28.6162
G01 X34.3175 Y28.5666
G01 X34.3933 Y28.5132
G01 X34.4664 Y28.4562
G01 X34.5365 Y28.3957
G01 X34.6036 Y28.3318
G01 X34.6675 Y28.2647
G01 X34.7280 Y28.1945
G01 X34.7850 Y28.1215
G01 X34.8384 Y28.0457
G01 X34.8880 Y27.9675
G01 X34.9336 Y27.8868
G01 X34.9753 Y27.8041
G01 X35.0129 Y27.7194
G01 X35.0462 Y27.6329
G01 X35.0753 Y27.5449
G01 X35.1000 Y27.4556
G01 X35.1203 Y27.3652
G01 X35.1361 Y27.2739
G01 X35.1475 Y27.1820
G01 X35.1543 Y27.0895
G01 X35.1566 Y26.9969
G01 X35.1525 Y26.8734
G01 X35.1404 Y26.7505
G01 X35.1203 Y26.6286
G01 X35.0922 Y26.5083
G01 X35.0564 Y26.3901
G01 X35.0129 Y26.2745
G01 X34.9619 Y26.1619
G01 X34.9036 Y26.0530
G01 X34.8384 Y25.9481
G01 X34.7664 Y25.8477
G01 X34.6881 Y25.7522
G01 X34.6036 Y25.6620
G01 X34.5135 Y25.5776
G01 X34.4180 Y25.4992
G01 X34.3175 Y25.4272
G01 X34.2126 Y25.3620
G01 X34.1037 Y25.3038
G01 X33.9912 Y25.2528
G01 X33.8755 Y25.2093
G01 X33.7573 Y25.1734
G01 X33.6370 Y25.1454
G01 X33.5151 Y25.1252
G01 X33.3922 Y25.1131
G01 X33.2687 Y25.1091
G01 X33.1453 Y25.1131
G01 X33.0223 Y25.1252
G01 X32.9004 Y25.1454
G01 X32.7801 Y25.1734
G01 X32.6619 Y25.2093
G01 X32.5463 Y25.2528
G01 X32.4338 Y25.3038
G01 X32.3248 Y25.3620
G01 X32.2199 Y25.4272
G01 X32.1195 Y25.4992
G01 X32.0240 Y25.5776
G01 X31.9338 Y25.6620
G01 X31.8494 Y25.7522
G01 X31.7710 Y25.8477
G01 X31.6991 Y25.9481
G01 X31.6338 Y26.0530
G01 X31.5756 Y26.1619
G01 X31.5246 Y26.2745
G01 X31.4811 Y26.3901
G01 X31.4452 Y26.5083
G01 X31.4172 Y26.6286
G01 X31.3970 Y26.7505
G01 X31.3849 Y26.8734
G01 X31.3809 Y26.9969
G01 X31.3849 Y27.1204
G01 X31.3970 Y27.2433
G01 X31.4172 Y27.3652
G01 X31.4452 Y27.4855
G01 X31.4811 Y27.6037
G01 X31.5246 Y27.7194
G01 X31.5756 Y27.8319
G01 X31.6338 Y27.9408
G01 X31.6991 Y28.0457
G01 X31.7710 Y28.1462
G01 X31.8494 Y28.2416
G01 X31.9338 Y28.3318
G01 X32.0240 Y28.4163
G01 X32.1195 Y28.4946
G01 X32.2199 Y28.5666
G01 X32.3248 Y28.6318
G01 X32.4338 Y28.6901
G01 X32.5463 Y28.7410
G01 X32.6619 Y28.7846
G01 X32.7801 Y28.8204
G01 X32.9004 Y28.8485
G01 X33.0223 Y28.8686
G01 X33.1453 Y28.8807
G01 X33.2687 Y28.8847
G01 X33.3922 Y28.8807
G01 X33.5151 Y28.8686
G01 X33.6370 Y28.8485
G01 X33.7573 Y28.8204
G01 X33.8755 Y28.7846
G01 X33.9912 Y28.7410
G01 X34.1037 Y28.6901
G01 X34.2126 Y28.6318
G01 X34.3175 Y28.5666
G01 X34.4180 Y28.4946
G01 X34.5135 Y28.4163
G01 X34.6036 Y28.3318
G01 X34.6881 Y28.2416
G01 X34.7664 Y28.1462
G01 X34.8384 Y28.0457
G01 X34.9036 Y27.9408
G01 X34.9619 Y27.8319
G01 X35.0129 Y27.7194
G01 X35.0564 Y27.6037
G01 X35.0922 Y27.4855
G01 X35.1203 Y27.3652
G01 X35.1404 Y27.2433
G01 X35.1525 Y27.1204
G01 X35.1566 Y26.9969
M107
M106 S240
G01 X35.1535 Y26.9185 Z-5.4750 F400
M107
M106 S240
G01 X35.1442 Y26.8405 Z-5.4500
M107
M106 S240
G01 X35.1289 Y26.7635 Z-5.4250
M107
M106 S240
G01 X35.1076 Y26.6879 Z-5.4000
M107
M106 S240
G01 X35.0804 Y26.6142 Z-5.3750
M107
M106 S240
G01 X35.0476 Y26.5429 Z-5.3500
M107
M106 S240
G01 X35.0092 Y26.4744 Z-5.3250
M107
M106 S240
G01 X34.9656 Y26.4091 Z-5.3000
M107
M106 S240
G01 X34.9170 Y26.3475 Z-5.2750
M107
M106 S240
G01 X34.8637 Y26.2898 Z-5.2500
M107
M106 S240
G01 X34.8060 Y26.2365 Z-5.2250
M107
M106 S240
G01 X34.7443 Y26.1879 Z-5.2000
M107
M106 S240
G01 X34.6791 Y26.1443 Z-5.1750
M107
M106 S240
G01 X34.6105 Y26.1059 Z-5.1500
M107
M106 S240
G01 X34.5392 Y26.0730 Z-5.1250
M107
M106 S240
G01 X34.4656 Y26.0459 Z-5.1000
M107
M106 S240
G01 X34.3900 Y26.0245 Z-5.0750
M107
M106 S240
G01 X34.3130 Y26.0092 Z-5.0500
M107
M106 S240
G01 X34.2350 Y26.0000 Z-5.0250
M107
M106 S240
G01 X34.1566 Y25.9969 Z-5.0000
M107
G00 Z2.0000


;No. 2: Hole 40
G00 X84.8661 Y42.7620 Z2.0000
G00 Z0.5000
G01 Z0.0000 F400
G01 Z-1.2000
M106 S240
G01 X86.4434 F1000
G01 X85.8988 Y41.2620
G01 X87.4042
G01 X86.9316 Y39.7620
G01 X88.3649
G01 X87.9643 Y38.2620
G01 X89.3257
G01 X88.9971 Y36.7620
G01 X90.2869
G01 X90.0298 Y35.2620
G01 X92.5563
G01 X92.2992 Y36.7620
G01 X93.5890
G01 X93.2604 Y38.2620
G01 X94.6218
G01 X94.2212 Y39.7620
G01 X95.6545
G01 X95.1819 Y41.2620
G01 X96.6873
G01 X96.1427 Y42.7620
G01 X97.7200
M107
G00 Z2.0000
G00 X91.6572 Y35.2620
G00 Z0.5000
G01 Z-1.2000 F400
M106 S240
G01 Y33.7620 F1000
G01 X90.9289
G01 X90.9474 Y32.2620
G01 X91.6387
G01 Y30.7620
G01 X90.9474
G01 Y29.2620
G01 X91.6387
G01 X91.8387 Y29.2746
G01 Y28.1111
G01 X90.7474
G01 Y33.5562
G01 X90.7467 Y33.5938
G01 X90.7446 Y33.6315
G01 X90.7410 Y33.6690
G01 X90.7361 Y33.7063
G01 X90.7297 Y33.7435
G01 X90.7219 Y33.7804
G01 X90.7128 Y33.8169
G01 X90.7023 Y33.8531
G01 X90.6904 Y33.8889
G01 X90.6772 Y33.9242
G01 X90.6627 Y33.9589
G01 X90.6469 Y33.9931
G01 X90.6298 Y34.0267
G01 X90.6114 Y34.0596
G01 X90.5918 Y34.0918
G01 X90.5710 Y34.1233
G01 X83.8309 Y43.9129
G01 X85.9438
G01 X90.4510 Y36.8760
G01 X90.4988 Y36.8077
G01 X90.5522 Y36.7437
G01 X90.6108 Y36.6843
G01 X90.6741 Y36.6300
G01 X90.7417 Y36.5811
G01 X90.8131 Y36.5381
G01 X90.8879 Y36.5011
G01 X90.9655 Y36.4706
G01 X91.0454 Y36.4465
G01 X91.1270 Y36.4293
G01 X91.2097 Y36.4189
G01 X91.2931 Y36.4154
G01 X91.3764 Y36.4189
G01 X91.4591 Y36.4293
G01 X91.5407 Y36.4465
G01 X91.6206 Y36.4706
G01 X91.6982 Y36.5011
G01 X91.7730 Y36.5381
G01 X91.8444 Y36.5811
G01 X91.9120 Y36.6300
G01 X91.9753 Y36.6843
G01 X92.0339 Y36.7437
G01 X92.0873 Y36.8077
G01 X92.1351 Y36.8760
G01 X96.6423 Y43.9129
G01 X98.7552
G01 X92.0151 Y34.1233
G01 X91.9943 Y34.0918
G01 X91.9747 Y34.0596
G01 X91.9563 Y34.0267
G01 X91.9392 Y33.9931
G01 X91.9234 Y33.9589
G01 X91.9089 Y33.9242
G01 X91.8957 Y33.8889
G01 X91.8838 Y33.8531
G01 X91.8733 Y33.8169
G01 X91.8642 Y33.7804
G01 X91.8564 Y33.7435
G01 X91.8501 Y33.7063
G01 X91.8451 Y33.6690
G01 X91.8416 Y33.6315
G01 X91.8394 Y33.5938
G01 X91.8387 Y33.5562
G01 Y29.2746
G01 X91.6387 Y29.2620
M107
G00 Z2.0000


;No. 3: Hole 39
G00 X102.5453 Y31.0403 Z2.0000
G00 Z0.5000
G01 Z0.0000 F400
G01 Z-1.2000
M106 S240
G01 X103.7171 F1000
G01 X103.1589 Y32.5403
G01 X102.4243
G01 Y34.0403
G01 X103.1159
G01 Y35.5403
G01 X102.4243
G01 Y37.0403
G01 X103.1573
G01 X103.7254 Y38.5403
G01 X102.5454
G01 X103.1231 Y40.0403
G01 X108.4746
M107
G00 Z2.0000
G00 X103.1230 Y31.0403
G00 Z0.5000
G01 Z-1.2000 F400
M106 S240
G01 Y29.5403 F1000
G01 X108.4746
G01 X108.6746 Y29.5184
G01 Y28.1139
G01 X107.7011 Y28.0979
G01 X106.7275 Y28.0926
G01 X105.7539 Y28.0978
G01 X104.7805 Y28.1137
G01 X104.6662 Y28.1261
G01 X104.5528 Y28.1450
G01 X104.4406 Y28.1702
G01 X104.3301 Y28.2016
G01 X104.2214 Y28.2392
G01 X104.1151 Y28.2828
G01 X104.0113 Y28.3324
G01 X103.9106 Y28.3877
G01 X103.8131 Y28.4485
G01 X103.7191 Y28.5148
G01 X103.6290 Y28.5862
G01 X103.5431 Y28.6626
G01 X103.4616 Y28.7436
G01 X103.3848 Y28.8292
G01 X103.3129 Y28.9188
G01 X103.2462 Y29.0124
G01 X103.0783 Y29.2530
G01 X102.9241 Y29.5026
G01 X102.7843 Y29.7605
G01 X102.6591 Y30.0259
G01 X102.5491 Y30.2978
G01 X102.4544 Y30.5755
G01 X102.3756 Y30.8581
G01 X102.3127 Y31.1446
G01 X102.2660 Y31.4343
G01 X102.2357 Y31.7261
G01 X102.2218 Y32.0191
G01 X102.2243 Y32.3125
G01 X102.2066 Y33.6156
G01 X102.2014 Y34.9189
G01 X102.2088 Y36.2221
G01 X102.2287 Y37.5252
G01 X102.2363 Y37.8306
G01 X102.2628 Y38.1349
G01 X102.3082 Y38.4370
G01 X102.3723 Y38.7357
G01 X102.4548 Y39.0298
G01 X102.5554 Y39.3182
G01 X102.6738 Y39.5998
G01 X102.8094 Y39.8736
G01 X102.9618 Y40.1383
G01 X103.1303 Y40.3931
G01 X103.3143 Y40.6370
G01 X103.5131 Y40.8689
G01 X103.6022 Y40.9599
G01 X103.6973 Y41.0446
G01 X103.7980 Y41.1225
G01 X103.9039 Y41.1932
G01 X104.0145 Y41.2565
G01 X104.1291 Y41.3119
G01 X104.2473 Y41.3593
G01 X104.3685 Y41.3983
G01 X104.4921 Y41.4289
G01 X104.6176 Y41.4509
G01 X104.7442 Y41.4641
G01 X104.8715 Y41.4686
G01 X108.6746 Y41.4637
G01 Y39.5139
G01 X105.7485 Y39.5050
G01 X105.6070 Y39.4986
G01 X105.4662 Y39.4832
G01 X105.3267 Y39.4587
G01 X105.1891 Y39.4252
G01 X105.0539 Y39.3829
G01 X104.9217 Y39.3319
G01 X104.7932 Y39.2725
G01 X104.6687 Y39.2049
G01 X104.5488 Y39.1295
G01 X104.4341 Y39.0464
G01 X104.3250 Y38.9561
G01 X104.2220 Y38.8589
G01 X104.1254 Y38.7553
G01 X104.0358 Y38.6456
G01 X103.9534 Y38.5304
G01 X103.8787 Y38.4101
G01 X103.7445 Y38.1866
G01 X103.6274 Y37.9537
G01 X103.5282 Y37.7126
G01 X103.4474 Y37.4648
G01 X103.3855 Y37.2115
G01 X103.3428 Y36.9544
G01 X103.3196 Y36.6947
G01 X103.3159 Y36.4341
G01 X103.3002 Y35.5619
G01 X103.2958 Y34.6896
G01 X103.3028 Y33.8174
G01 X103.3210 Y32.9453
G01 X103.3319 Y32.7076
G01 X103.3605 Y32.4714
G01 X103.4068 Y32.2380
G01 X103.4704 Y32.0088
G01 X103.5511 Y31.7850
G01 X103.6482 Y31.5678
G01 X103.7614 Y31.3585
G01 X103.8899 Y31.1583
G01 X104.0331 Y30.9683
G01 X104.1901 Y30.7895
G01 X104.3600 Y30.6231
G01 X104.5420 Y30.4698
G01 X104.6334 Y30.4085
G01 X104.7279 Y30.3521
G01 X104.8251 Y30.3005
G01 X104.9248 Y30.2540
G01 X105.0268 Y30.2126
G01 X105.1307 Y30.1765
G01 X105.2364 Y30.1457
G01 X105.3435 Y30.1205
G01 X105.4518 Y30.1007
G01 X105.5609 Y30.0865
G01 X105.6706 Y30.0779
G01 X105.7806 Y30.0749
G01 X108.6746 Y30.0758
G01 Y29.5184
G01 X108.4746 Y29.5403
M107
G00 Z2.0000


;No. 4: Hole 34
G00 X111.2488 Y33.2899 Z2.0000
G00 Z0.5000
G01 Z0.0000 F400
G01 Z-1.2000
M106 S240
G01 X113.4334 F1000
G01 X113.4333 Y34.7899
G01 X111.2488
G01 Y36.2899
G01 X113.4333
G01 X113.6333 Y36.1890
G01 X113.6555 Y35.3874
G01 X113.6617 Y34.5854
G01 X113.6520 Y33.7835
G01 X113.6263 Y32.9820
G01 X113.6239 Y32.8999
G01 X113.6157 Y32.8183
G01 X113.6017 Y32.7374
G01 X113.5821 Y32.6577
G01 X113.5568 Y32.5796
G01 X113.5261 Y32.5035
G01 X113.4901 Y32.4298
G01 X113.4489 Y32.3588
G01 X113.4028 Y32.2909
G01 X113.3520 Y32.2265
G01 X113.2968 Y32.1658
G01 X113.2374 Y32.1091
G01 X113.2258 Y32.1028
G01 X113.2140 Y32.0970
G01 X113.2019 Y32.0918
G01 X113.1896 Y32.0872
G01 X113.1771 Y32.0832
G01 X113.1644 Y32.0798
G01 X113.1515 Y32.0770
G01 X113.1385 Y32.0748
G01 X111.0488 Y32.0760
G01 Y37.4976
G01 X111.5989 Y37.4901
G01 X112.1491 Y37.4888
G01 X112.6992 Y37.4938
G01 X113.2493 Y37.5050
G01 X113.3152 Y37.4312
G01 X113.3757 Y37.3529
G01 X113.4305 Y37.2706
G01 X113.4794 Y37.1846
G01 X113.5221 Y37.0953
G01 X113.5583 Y37.0033
G01 X113.5880 Y36.9089
G01 X113.6109 Y36.8127
G01 X113.6269 Y36.7150
G01 X113.6360 Y36.6165
G01 X113.6381 Y36.5176
G01 X113.6333 Y36.4188
G01 Y36.1890
G01 X113.4333 Y36.2899
M107
G00 Z2.0000


;No. 5: Helical drill 3
G00 X187.9023 Y26.9969 Z2.0000
G00 Z0.5000
M106 S240
G01 X187.8985 Y26.9098 Z0.4722 F400
G01 X187.8872 Y26.8233 Z0.4444
G01 X187.8683 Y26.7381 Z0.4167
G01 X187.8420 Y26.6549 Z0.3889
G01 X187.8087 Y26.5743 Z0.3611
G01 X187.7684 Y26.4969 Z0.3333
G01 X187.7215 Y26.4233 Z0.3056
G01 X187.6684 Y26.3541 Z0.2778
G01 X187.6095 Y26.2898 Z0.2500
G01 X187.5451 Y26.2309 Z0.2222
G01 X187.4759 Y26.1778 Z0.1944
G01 X187.4023 Y26.1309 Z0.1667
G01 X187.3250 Y26.0906 Z0.1389
G01 X187.2444 Y26.0572 Z0.1111
G01 X187.1612 Y26.0310 Z0.0833
G01 X187.0760 Y26.0121 Z0.0556
G01 X186.9895 Y26.0007 Z0.0278
G01 X186.9023 Y25.9969 Z0.0000
G01 X186.8152 Y26.0007 Z-0.0278
G01 X186.7287 Y26.0121 Z-0.0556
G01 X186.6435 Y26.0310 Z-0.0833
G01 X186.5603 Y26.0572 Z-0.1111
G01 X186.4797 Y26.0906 Z-0.1389
G01 X186.4023 Y26.1309 Z-0.1667
G01 X186.3617 Y26.1557 Z-0.1818
G01 X186.3223 Y26.1823 Z-0.1970
G01 X186.2842 Y26.2109 Z-0.2121
G01 X186.2475 Y26.2412 Z-0.2273
G01 X186.2123 Y26.2732 Z-0.2424
G01 X186.1786 Y26.3068 Z-0.2576
G01 X186.1466 Y26.3421 Z-0.2727
G01 X186.1163 Y26.3788 Z-0.2879
G01 X186.0878 Y26.4169 Z-0.3030
G01 X186.0611 Y26.4563 Z-0.3182
G01 X186.0363 Y26.4969 Z-0.3333
G01 X186.0135 Y26.5387 Z-0.3485
G01 X185.9927 Y26.5815 Z-0.3636
G01 X185.9740 Y26.6253 Z-0.3788
G01 X185.9573 Y26.6699 Z-0.3939
G01 X185.9429 Y26.7152 Z-0.4091
G01 X185.9305 Y26.7612 Z-0.4242
G01 X185.9204 Y26.8077 Z-0.4394
G01 X185.9125 Y26.8546 Z-0.4545
G01 X185.9069 Y26.9019 Z-0.4697
G01 X185.9035 Y26.9493 Z-0.4848
G01 X185.9023 Y26.9969 Z-0.5000
G01 X185.9035 Y27.0445 Z-0.5152
G01 X185.9069 Y27.0920 Z-0.5303
G01 X185.9125 Y27.1392 Z-0.5455
G01 X185.9204 Y27.1862 Z-0.5606
G01 X185.9305 Y27.2327 Z-0.5758
G01 X185.9429 Y27.2787 Z-0.5909
G01 X185.9573 Y27.3240 Z-0.6061
G01 X185.9740 Y27.3686 Z-0.6212
G01 X185.9927 Y27.4123 Z-0.6364
G01 X186.0135 Y27.4552 Z-0.6515
G01 X186.0363 Y27.4969 Z-0.6667
G01 X186.0611 Y27.5376 Z-0.6818
G01 X186.0878 Y27.5770 Z-0.6970
G01 X186.1163 Y27.6151 Z-0.7121
G01 X186.1466 Y27.6518 Z-0.7273
G01 X186.1786 Y27.6870 Z-0.7424
G01 X186.2123 Y27.7207 Z-0.7576
G01 X186.2475 Y27.7527 Z-0.7727
G01 X186.2842 Y27.7830 Z-0.7879
G01 X186.3223 Y27.8115 Z-0.8030
G01 X186.3617 Y27.8382 Z-0.8182
G01 X186.4023 Y27.8630 Z-0.8333
G01 X186.4441 Y27.8858 Z-0.8485
G01 X186.4869 Y27.9066 Z-0.8636
G01 X186.5307 Y27.9253 Z-0.8788
G01 X186.5753 Y27.9419 Z-0.8939
G01 X186.6206 Y27.9564 Z-0.9091
G01 X186.6666 Y27.9687 Z-0.9242
G01 X186.7131 Y27.9789 Z-0.9394
G01 X186.7600 Y27.9867 Z-0.9545
G01 X186.8073 Y27.9924 Z-0.9697
G01 X186.8548 Y27.9958 Z-0.9848
G01 X186.9023 Y27.9969 Z-1.0000
G01 X186.9499 Y27.9958 Z-1.0152
G01 X186.9974 Y27.9924 Z-1.0303
G01 X187.0447 Y27.9867 Z-1.0455
G01 X187.0916 Y27.9789 Z-1.0606
G01 X187.1381 Y27.9687 Z-1.0758
G01 X187.1841 Y27.9564 Z-1.0909
G01 X187.2294 Y27.9419 Z-1.1061
G01 X187.2740 Y27.9253 Z-1.1212
G01 X187.3178 Y27.9066 Z-1.1364
G01 X187.3606 Y27.8858 Z-1.1515
G01 X187.4023 Y27.8630 Z-1.1667
G01 X187.4430 Y27.8382 Z-1.1818
G01 X187.4824 Y27.8115 Z-1.1970
G01 X187.5205 Y27.7830 Z-1.2121
G01 X187.5572 Y27.7527 Z-1.2273
G01 X187.5924 Y27.7207 Z-1.2424
G01 X187.6261 Y27.6870 Z-1.2576
G01 X187.6581 Y27.6518 Z-1.2727
G01 X187.6884 Y27.6151 Z-1.2879
G01 X187.7169 Y27.5770 Z-1.3030
G01 X187.7436 Y27.5376 Z-1.3182
G01 X187.7684 Y27.4969 Z-1.3333
G01 X187.7912 Y27.4552 Z-1.3485
G01 X187.8120 Y27.4123 Z-1.3636
G01 X187.8307 Y27.3686 Z-1.3788
G01 X187.8473 Y27.3240 Z-1.3939
G01 X187.8618 Y27.2787 Z-1.4091
G01 X187.8742 Y27.2327 Z-1.4242
G01 X187.8843 Y27.1862 Z-1.4394
G01 X187.8922 Y27.1392 Z-1.4545
G01 X187.8978 Y27.0920 Z-1.4697
G01 X187.9012 Y27.0445 Z-1.4848
G01 X187.9023 Y26.9969 Z-1.5000
G01 X187.8985 Y26.9098
G01 X187.8872 Y26.8233
G01 X187.8683 Y26.7381
G01 X187.8420 Y26.6549
G01 X187.8087 Y26.5743
G01 X187.7684 Y26.4969
G01 X187.7215 Y26.4233
G01 X187.6684 Y26.3541
G01 X187.6095 Y26.2898
G01 X187.5451 Y26.2309
G01 X187.4759 Y26.1778
G01 X187.4023 Y26.1309
G01 X187.3250 Y26.0906
G01 X187.2444 Y26.0572
G01 X187.1612 Y26.0310
G01 X187.0760 Y26.0121
G01 X186.9895 Y26.0007
G01 X186.9023 Y25.9969
G01 X186.8152 Y26.0007
G01 X186.7287 Y26.0121
G01 X186.6435 Y26.0310
G01 X186.5603 Y26.0572
G01 X186.4797 Y26.0906
G01 X186.4023 Y26.1309
G01 X186.3617 Y26.1557
G01 X186.3223 Y26.1823
G01 X186.2842 Y26.2109
G01 X186.2475 Y26.2412
G01 X186.2123 Y26.2732
G01 X186.1786 Y26.3068
G01 X186.1466 Y26.3421
G01 X186.1163 Y26.3788
G01 X186.0878 Y26.4169
G01 X186.0611 Y26.4563
G01 X186.0363 Y26.4969
G01 X186.0135 Y26.5387
G01 X185.9927 Y26.5815
G01 X185.9740 Y26.6253
G01 X185.9573 Y26.6699
G01 X185.9429 Y26.7152
G01 X185.9305 Y26.7612
G01 X185.9204 Y26.8077
G01 X185.9125 Y26.8546
G01 X185.9069 Y26.9019
G01 X185.9035 Y26.9493
G01 X185.9023 Y26.9969
G01 X185.9035 Y27.0445
G01 X185.9069 Y27.0920
G01 X185.9125 Y27.1392
G01 X185.9204 Y27.1862
G01 X185.9305 Y27.2327
G01 X185.9429 Y27.2787
G01 X185.9573 Y27.3240
G01 X185.9740 Y27.3686
G01 X185.9927 Y27.4123
G01 X186.0135 Y27.4552
G01 X186.0363 Y27.4969
G01 X186.0611 Y27.5376
G01 X186.0878 Y27.5770
G01 X186.1163 Y27.6151
G01 X186.1466 Y27.6518
G01 X186.1786 Y27.6870
G01 X186.2123 Y27.7207
G01 X186.2475 Y27.7527
G01 X186.2842 Y27.7830
G01 X186.3223 Y27.8115
G01 X186.3617 Y27.8382
G01 X186.4023 Y27.8630
G01 X186.4441 Y27.8858
G01 X186.4869 Y27.9066
G01 X186.5307 Y27.9253
G01 X186.5753 Y27.9419
G01 X186.6206 Y27.9564
G01 X186.6666 Y27.9687
G01 X186.7131 Y27.9789
G01 X186.7600 Y27.9867
G01 X186.8073 Y27.9924
G01 X186.8548 Y27.9958
G01 X186.9023 Y27.9969
G01 X186.9499 Y27.9958
G01 X186.9974 Y27.9924
G01 X187.0447 Y27.9867
G01 X187.0916 Y27.9789
G01 X187.1381 Y27.9687
G01 X187.1841 Y27.9564
G01 X187.2294 Y27.9419
G01 X187.2740 Y27.9253
G01 X187.3178 Y27.9066
G01 X187.3606 Y27.8858
G01 X187.4023 Y27.8630
G01 X187.4430 Y27.8382
G01 X187.4824 Y27.8115
G01 X187.5205 Y27.7830
G01 X187.5572 Y27.7527
G01 X187.5924 Y27.7207
G01 X187.6261 Y27.6870
G01 X187.6581 Y27.6518
G01 X187.6884 Y27.6151
G01 X187.7169 Y27.5770
G01 X187.7436 Y27.5376
G01 X187.7684 Y27.4969
G01 X187.7912 Y27.4552
G01 X187.8120 Y27.4123
G01 X187.8307 Y27.3686
G01 X187.8473 Y27.3240
G01 X187.8618 Y27.2787
G01 X187.8742 Y27.2327
G01 X187.8843 Y27.1862
G01 X187.8922 Y27.1392
G01 X187.8978 Y27.0920
G01 X187.9012 Y27.0445
G01 X187.9023 Y26.9969
G01 X187.9131 Y26.9453 F1000
G01 X187.9212 Y26.8932
G01 X187.9266 Y26.8408
G01 X187.9292 Y26.7882
G01 Y26.7355
G01 X187.9264 Y26.6829
G01 X187.9210 Y26.6304
G01 X187.9128 Y26.5784
G01 X187.9011 Y26.5224
G01 X187.8866 Y26.4671
G01 X187.8692 Y26.4126
G01 X187.8491 Y26.3590
G01 X187.8262 Y26.3066
G01 X187.8007 Y26.2554
G01 X187.7726 Y26.2056
G01 X187.7420 Y26.1572
G01 X187.7064 Y26.1068
G01 X187.6683 Y26.0583
G01 X187.6278 Y26.0118
G01 X187.5849 Y25.9674
G01 X187.5398 Y25.9252
G01 X187.4927 Y25.8854
G01 X187.4436 Y25.8480
G01 X187.3927 Y25.8132
G01 X187.3362 Y25.7786
G01 X187.2780 Y25.7470
G01 X187.2183 Y25.7183
G01 X187.1572 Y25.6927
G01 X187.0949 Y25.6702
G01 X187.0316 Y25.6508
G01 X186.9673 Y25.6347
G01 X186.9023 Y25.6219
G01 X186.8323 Y25.6117
G01 X186.7619 Y25.6051
G01 X186.6912 Y25.6020
G01 X186.6204 Y25.6025
G01 X186.5498 Y25.6066
G01 X186.4794 Y25.6142
G01 X186.4095 Y25.6253
G01 X186.3403 Y25.6400
G01 X186.2675 Y25.6593
G01 X186.1957 Y25.6822
G01 X186.1252 Y25.7086
G01 X186.0562 Y25.7386
G01 X185.9887 Y25.7721
G01 X185.9230 Y25.8089
G01 X185.8592 Y25.8489
G01 X185.7975 Y25.8921
G01 X185.7345 Y25.9411
G01 X185.6739 Y25.9932
G01 X185.6161 Y26.0483
G01 X185.5611 Y26.1062
G01 X185.5091 Y26.1668
G01 X185.4602 Y26.2299
G01 X185.4145 Y26.2954
G01 X185.3722 Y26.3631
G01 X185.3310 Y26.4368
G01 X185.2937 Y26.5125
G01 X185.2601 Y26.5899
G01 X185.2304 Y26.6690
G01 X185.2048 Y26.7494
G01 X185.1832 Y26.8310
G01 X185.1657 Y26.9136
G01 X185.1523 Y26.9969
G01 X185.1427 Y27.0854
G01 X185.1374 Y27.1742
G01 X185.1367 Y27.2632
G01 X185.1403 Y27.3520
G01 X185.1484 Y27.4406
G01 X185.1609 Y27.5287
G01 X185.1777 Y27.6161
G01 X185.1989 Y27.7025
G01 X185.2310 Y27.7884
G01 X185.2673 Y27.8727
G01 X185.3077 Y27.9551
G01 X185.3521 Y28.0354
G01 X185.4004 Y28.1134
G01 X185.4525 Y28.1889
G01 X185.5082 Y28.2618
G01 X185.5675 Y28.3318
G01 X185.6346 Y28.3957
G01 X185.7047 Y28.4562
G01 X185.7778 Y28.5132
G01 X185.8535 Y28.5666
G01 X185.9318 Y28.6162
G01 X186.0124 Y28.6618
G01 X186.0952 Y28.7035
G01 X186.1799 Y28.7410
G01 X186.2664 Y28.7744
G01 X186.3543 Y28.8035
G01 X186.4436 Y28.8282
G01 X186.5341 Y28.8485
G01 X186.6253 Y28.8643
G01 X186.7173 Y28.8757
G01 X186.8097 Y28.8825
G01 X186.9023 Y28.8847
G01 X186.9950 Y28.8825
G01 X187.0874 Y28.8757
G01 X187.1793 Y28.8643
G01 X187.2706 Y28.8485
G01 X187.3611 Y28.8282
G01 X187.4504 Y28.8035
G01 X187.5383 Y28.7744
G01 X187.6248 Y28.7410
G01 X187.7095 Y28.7035
G01 X187.7923 Y28.6618
G01 X187.8729 Y28.6162
G01 X187.9512 Y28.5666
G01 X188.0269 Y28.5132
G01 X188.1000 Y28.4562
G01 X188.1701 Y28.3957
G01 X188.2372 Y28.3318
G01 X188.3011 Y28.2647
G01 X188.3617 Y28.1945
G01 X188.4187 Y28.1215
G01 X188.4720 Y28.0457
G01 X188.5216 Y27.9675
G01 X188.5673 Y27.8868
G01 X188.6089 Y27.8041
G01 X188.6465 Y27.7194
G01 X188.6798 Y27.6329
G01 X188.7089 Y27.5449
G01 X188.7336 Y27.4556
G01 X188.7539 Y27.3652
G01 X188.7697 Y27.2739
G01 X188.7811 Y27.1820
G01 X188.7879 Y27.0896
G01 X188.7902 Y26.9969
G01 X188.7861 Y26.8735
G01 X188.7740 Y26.7505
G01 X188.7539 Y26.6286
G01 X188.7258 Y26.5083
G01 X188.6900 Y26.3901
G01 X188.6465 Y26.2745
G01 X188.5955 Y26.1620
G01 X188.5372 Y26.0530
G01 X188.4720 Y25.9481
G01 X188.4001 Y25.8477
G01 X188.3217 Y25.7522
G01 X188.2372 Y25.6620
G01 X188.1471 Y25.5776
G01 X188.0516 Y25.4992
G01 X187.9512 Y25.4273
G01 X187.8463 Y25.3620
G01 X187.7373 Y25.3038
G01 X187.6248 Y25.2528
G01 X187.5092 Y25.2093
G01 X187.3910 Y25.1734
G01 X187.2706 Y25.1454
G01 X187.1488 Y25.1253
G01 X187.0258 Y25.1131
G01 X186.9023 Y25.1091
G01 X186.7789 Y25.1131
G01 X186.6559 Y25.1253
G01 X186.5341 Y25.1454
G01 X186.4137 Y25.1734
G01 X186.2955 Y25.2093
G01 X186.1799 Y25.2528
G01 X186.0674 Y25.3038
G01 X185.9584 Y25.3620
G01 X185.8535 Y25.4273
G01 X185.7531 Y25.4992
G01 X185.6576 Y25.5776
G01 X185.5675 Y25.6620
G01 X185.4830 Y25.7522
G01 X185.4046 Y25.8477
G01 X185.3327 Y25.9481
G01 X185.2674 Y26.0530
G01 X185.2092 Y26.1620
G01 X185.1582 Y26.2745
G01 X185.1147 Y26.3901
G01 X185.0789 Y26.5083
G01 X185.0508 Y26.6286
G01 X185.0307 Y26.7505
G01 X185.0186 Y26.8735
G01 X185.0145 Y26.9969
G01 X185.0186 Y27.1204
G01 X185.0307 Y27.2433
G01 X185.0508 Y27.3652
G01 X185.0789 Y27.4855
G01 X185.1147 Y27.6037
G01 X185.1582 Y27.7194
G01 X185.2092 Y27.8319
G01 X185.2674 Y27.9408
G01 X185.3327 Y28.0457
G01 X185.4046 Y28.1462
G01 X185.4830 Y28.2417
G01 X185.5675 Y28.3318
G01 X185.6576 Y28.4163
G01 X185.7531 Y28.4946
G01 X185.8535 Y28.5666
G01 X185.9584 Y28.6318
G01 X186.0674 Y28.6901
G01 X186.1799 Y28.7410
G01 X186.2955 Y28.7846
G01 X186.4137 Y28.8204
G01 X186.5341 Y28.8485
G01 X186.6559 Y28.8686
G01 X186.7789 Y28.8807
G01 X186.9023 Y28.8847
G01 X187.0258 Y28.8807
G01 X187.1488 Y28.8686
G01 X187.2706 Y28.8485
G01 X187.3910 Y28.8204
G01 X187.5092 Y28.7846
G01 X187.6248 Y28.7410
G01 X187.7373 Y28.6901
G01 X187.8463 Y28.6318
G01 X187.9512 Y28.5666
G01 X188.0516 Y28.4946
G01 X188.1471 Y28.4163
G01 X188.2372 Y28.3318
G01 X188.3217 Y28.2417
G01 X188.4001 Y28.1462
G01 X188.4720 Y28.0457
G01 X188.5372 Y27.9408
G01 X188.5955 Y27.8319
G01 X188.6465 Y27.7194
G01 X188.6900 Y27.6037
G01 X188.7258 Y27.4855
G01 X188.7539 Y27.3652
G01 X188.7740 Y27.2433
G01 X188.7861 Y27.1204
G01 X188.7902 Y26.9969
G01 X188.7857 Y26.8836
G01 X188.7724 Y26.7710
G01 X188.7503 Y26.6599
G01 X188.7195 Y26.5507
G01 X188.6803 Y26.4444
G01 X188.6328 Y26.3414
G01 X188.5774 Y26.2425
G01 X188.5144 Y26.1482
G01 X188.4442 Y26.0592
G01 X188.3673 Y25.9759
G01 X188.2840 Y25.8990
G01 X188.1950 Y25.8288
G01 X188.1007 Y25.7658
G01 X188.0018 Y25.7104
G01 X187.8988 Y25.6629
G01 X187.7925 Y25.6237
G01 X187.6833 Y25.5929
G01 X187.5721 Y25.5708
G01 X187.4595 Y25.5575
G01 X187.3463 Y25.5530
G01 X187.2330 Y25.5575
G01 X187.1204 Y25.5708
G01 X187.0092 Y25.5929
G01 X186.9001 Y25.6237
G01 X186.7937 Y25.6629
G01 X186.6907 Y25.7104
G01 X186.5918 Y25.7658
G01 X186.4975 Y25.8288
G01 X186.4085 Y25.8990
G01 X186.3253 Y25.9759
G01 X186.2483 Y26.0592
G01 X186.1781 Y26.1482
G01 X186.1151 Y26.2425
G01 X186.0597 Y26.3414
G01 X186.0123 Y26.4444
G01 X185.9730 Y26.5507
G01 X185.9422 Y26.6599
G01 X185.9201 Y26.7710
G01 X185.9068 Y26.8836
G01 X185.9023 Y26.9969
G01 X185.9062 Y27.0841
G01 X185.9175 Y27.1706
G01 X185.9364 Y27.2557
G01 X185.9627 Y27.3389
G01 X185.9960 Y27.4195
G01 X186.0363 Y27.4969
G01 X186.0832 Y27.5705
G01 X186.1363 Y27.6397
G01 X186.1952 Y27.7040
G01 X186.2596 Y27.7630
G01 X186.3288 Y27.8161
G01 X186.4023 Y27.8630
G01 X186.4797 Y27.9032
G01 X186.5603 Y27.9366
G01 X186.6435 Y27.9629
G01 X186.7287 Y27.9817
G01 X186.8152 Y27.9931
G01 X186.9023 Y27.9969
G01 X186.9895 Y27.9931
G01 X187.0760 Y27.9817
G01 X187.1612 Y27.9629
G01 X187.2444 Y27.9366
G01 X187.3250 Y27.9032
G01 X187.4023 Y27.8630
G01 X187.4759 Y27.8161
G01 X187.5451 Y27.7630
G01 X187.6095 Y27.7040
G01 X187.6684 Y27.6397
G01 X187.7215 Y27.5705
G01 X187.7684 Y27.4969
G01 X187.8087 Y27.4195
G01 X187.8420 Y27.3389
G01 X187.8683 Y27.2557
G01 X187.8872 Y27.1706
G01 X187.8985 Y27.0841
G01 X187.9023 Y26.9969
M107
M106 S240
G01 X187.8985 Y26.9098 Z-1.5278 F400
G01 X187.8872 Y26.8233 Z-1.5556
G01 X187.8683 Y26.7381 Z-1.5833
G01 X187.8420 Y26.6549 Z-1.6111
G01 X187.8087 Y26.5743 Z-1.6389
G01 X187.7684 Y26.4969 Z-1.6667
G01 X187.7215 Y26.4233 Z-1.6944
G01 X187.6684 Y26.3541 Z-1.7222
G01 X187.6095 Y26.2898 Z-1.7500
G01 X187.5451 Y26.2309 Z-1.7778
G01 X187.4759 Y26.1778 Z-1.8056
G01 X187.4023 Y26.1309 Z-1.8333
G01 X187.3250 Y26.0906 Z-1.8611
G01 X187.2444 Y26.0572 Z-1.8889
G01 X187.1612 Y26.0310 Z-1.9167
G01 X187.0760 Y26.0121 Z-1.9444
G01 X186.9895 Y26.0007 Z-1.9722
G01 X186.9023 Y25.9969 Z-2.0000
G01 X186.8152 Y26.0007 Z-2.0278
G01 X186.7287 Y26.0121 Z-2.0556
G01 X186.6435 Y26.0310 Z-2.0833
G01 X186.5603 Y26.0572 Z-2.1111
G01 X186.4797 Y26.0906 Z-2.1389
G01 X186.4023 Y26.1309 Z-2.1667
G01 X186.3617 Y26.1557 Z-2.1818
G01 X186.3223 Y26.1823 Z-2.1970
G01 X186.2842 Y26.2109 Z-2.2121
G01 X186.2475 Y26.2412 Z-2.2273
G01 X186.2123 Y26.2732 Z-2.2424
G01 X186.1786 Y26.3068 Z-2.2576
G01 X186.1466 Y26.3421 Z-2.2727
G01 X186.1163 Y26.3788 Z-2.2879
G01 X186.0878 Y26.4169 Z-2.3030
G01 X186.0611 Y26.4563 Z-2.3182
G01 X186.0363 Y26.4969 Z-2.3333
G01 X186.0135 Y26.5387 Z-2.3485
G01 X185.9927 Y26.5815 Z-2.3636
G01 X185.9740 Y26.6253 Z-2.3788
G01 X185.9573 Y26.6699 Z-2.3939
G01 X185.9429 Y26.7152 Z-2.4091
G01 X185.9305 Y26.7612 Z-2.4242
G01 X185.9204 Y26.8077 Z-2.4394
G01 X185.9125 Y26.8546 Z-2.4545
G01 X185.9069 Y26.9019 Z-2.4697
G01 X185.9035 Y26.9493 Z-2.4848
G01 X185.9023 Y26.9969 Z-2.5000
G01 X185.9035 Y27.0445 Z-2.5152
G01 X185.9069 Y27.0920 Z-2.5303
G01 X185.9125 Y27.1392 Z-2.5455
G01 X185.9204 Y27.1862 Z-2.5606
G01 X185.9305 Y27.2327 Z-2.5758
G01 X185.9429 Y27.2787 Z-2.5909
G01 X185.9573 Y27.3240 Z-2.6061
G01 X185.9740 Y27.3686 Z-2.6212
G01 X185.9927 Y27.4123 Z-2.6364
G01 X186.0135 Y27.4552 Z-2.6515
G01 X186.0363 Y27.4969 Z-2.6667
G01 X186.0611 Y27.5376 Z-2.6818
G01 X186.0878 Y27.5770 Z-2.6970
G01 X186.1163 Y27.6151 Z-2.7121
G01 X186.1466 Y27.6518 Z-2.7273
G01 X186.1786 Y27.6870 Z-2.7424
G01 X186.2123 Y27.7207 Z-2.7576
G01 X186.2475 Y27.7527 Z-2.7727
G01 X186.2842 Y27.7830 Z-2.7879
G01 X186.3223 Y27.8115 Z-2.8030
G01 X186.3617 Y27.8382 Z-2.8182
G01 X186.4023 Y27.8630 Z-2.8333
G01 X186.4441 Y27.8858 Z-2.8485
G01 X186.4869 Y27.9066 Z-2.8636
G01 X186.5307 Y27.9253 Z-2.8788
G01 X186.5753 Y27.9419 Z-2.8939
G01 X186.6206 Y27.9564 Z-2.9091
G01 X186.6666 Y27.9687 Z-2.9242
G01 X186.7131 Y27.9789 Z-2.9394
G01 X186.7600 Y27.9867 Z-2.9545
G01 X186.8073 Y27.9924 Z-2.9697
G01 X186.8548 Y27.9958 Z-2.9848
G01 X186.9023 Y27.9969 Z-3.0000
G01 X186.9499 Y27.9958 Z-3.0152
G01 X186.9974 Y27.9924 Z-3.0303
G01 X187.0447 Y27.9867 Z-3.0455
G01 X187.0916 Y27.9789 Z-3.0606
G01 X187.1381 Y27.9687 Z-3.0758
G01 X187.1841 Y27.9564 Z-3.0909
G01 X187.2294 Y27.9419 Z-3.1061
G01 X187.2740 Y27.9253 Z-3.1212
G01 X187.3178 Y27.9066 Z-3.1364
G01 X187.3606 Y27.8858 Z-3.1515
G01 X187.4023 Y27.8630 Z-3.1667
G01 X187.4430 Y27.8382 Z-3.1818
G01 X187.4824 Y27.8115 Z-3.1970
G01 X187.5205 Y27.7830 Z-3.2121
G01 X187.5572 Y27.7527 Z-3.2273
G01 X187.5924 Y27.7207 Z-3.2424
G01 X187.6261 Y27.6870 Z-3.2576
G01 X187.6581 Y27.6518 Z-3.2727
G01 X187.6884 Y27.6151 Z-3.2879
G01 X187.7169 Y27.5770 Z-3.3030
G01 X187.7436 Y27.5376 Z-3.3182
G01 X187.7684 Y27.4969 Z-3.3333
G01 X187.7912 Y27.4552 Z-3.3485
G01 X187.8120 Y27.4123 Z-3.3636
G01 X187.8307 Y27.3686 Z-3.3788
G01 X187.8473 Y27.3240 Z-3.3939
G01 X187.8618 Y27.2787 Z-3.4091
G01 X187.8742 Y27.2327 Z-3.4242
G01 X187.8843 Y27.1862 Z-3.4394
G01 X187.8922 Y27.1392 Z-3.4545
G01 X187.8978 Y27.0920 Z-3.4697
G01 X187.9012 Y27.0445 Z-3.4848
G01 X187.9023 Y26.9969 Z-3.5000
G01 X187.8985 Y26.9098
G01 X187.8872 Y26.8233
G01 X187.8683 Y26.7381
G01 X187.8420 Y26.6549
G01 X187.8087 Y26.5743
G01 X187.7684 Y26.4969
G01 X187.7215 Y26.4233
G01 X187.6684 Y26.3541
G01 X187.6095 Y26.2898
G01 X187.5451 Y26.2309
G01 X187.4759 Y26.1778
G01 X187.4023 Y26.1309
G01 X187.3250 Y26.0906
G01 X187.2444 Y26.0572
G01 X187.1612 Y26.0310
G01 X187.0760 Y26.0121
G01 X186.9895 Y26.0007
G01 X186.9023 Y25.9969
G01 X186.8152 Y26.0007
G01 X186.7287 Y26.0121
G01 X186.6435 Y26.0310
G01 X186.5603 Y26.0572
G01 X186.4797 Y26.0906
G01 X186.4023 Y26.1309
G01 X186.3617 Y26.1557
G01 X186.3223 Y26.1823
G01 X186.2842 Y26.2109
G01 X186.2475 Y26.2412
G01 X186.2123 Y26.2732
G01 X186.1786 Y26.3068
G01 X186.1466 Y26.3421
G01 X186.1163 Y26.3788
G01 X186.0878 Y26.4169
G01 X186.0611 Y26.4563
G01 X186.0363 Y26.4969
G01 X186.0135 Y26.5387
G01 X185.9927 Y26.5815
G01 X185.9740 Y26.6253
G01 X185.9573 Y26.6699
G01 X185.9429 Y26.7152
G01 X185.9305 Y26.7612
G01 X185.9204 Y26.8077
G01 X185.9125 Y26.8546
G01 X185.9069 Y26.9019
G01 X185.9035 Y26.9493
G01 X185.9023 Y26.9969
G01 X185.9035 Y27.0445
G01 X185.9069 Y27.0920
G01 X185.9125 Y27.1392
G01 X185.9204 Y27.1862
G01 X185.9305 Y27.2327
G01 X185.9429 Y27.2787
G01 X185.9573 Y27.3240
G01 X185.9740 Y27.3686
G01 X185.9927 Y27.4123
G01 X186.0135 Y27.4552
G01 X186.0363 Y27.4969
G01 X186.0611 Y27.5376
G01 X186.0878 Y27.5770
G01 X186.1163 Y27.6151
G01 X186.1466 Y27.6518
G01 X186.1786 Y27.6870
G01 X186.2123 Y27.7207
G01 X186.2475 Y27.7527
G01 X186.2842 Y27.7830
G01 X186.3223 Y27.8115
G01 X186.3617 Y27.8382
G01 X186.4023 Y27.8630
G01 X186.4441 Y27.8858
G01 X186.4869 Y27.9066
G01 X186.5307 Y27.9253
G01 X186.5753 Y27.9419
G01 X186.6206 Y27.9564
G01 X186.6666 Y27.9687
G01 X186.7131 Y27.9789
G01 X186.7600 Y27.9867
G01 X186.8073 Y27.9924
G01 X186.8548 Y27.9958
G01 X186.9023 Y27.9969
G01 X186.9499 Y27.9958
G01 X186.9974 Y27.9924
G01 X187.0447 Y27.9867
G01 X187.0916 Y27.9789
G01 X187.1381 Y27.9687
G01 X187.1841 Y27.9564
G01 X187.2294 Y27.9419
G01 X187.2740 Y27.9253
G01 X187.3178 Y27.9066
G01 X187.3606 Y27.8858
G01 X187.4023 Y27.8630
G01 X187.4430 Y27.8382
G01 X187.4824 Y27.8115
G01 X187.5205 Y27.7830
G01 X187.5572 Y27.7527
G01 X187.5924 Y27.7207
G01 X187.6261 Y27.6870
G01 X187.6581 Y27.6518
G01 X187.6884 Y27.6151
G01 X187.7169 Y27.5770
G01 X187.7436 Y27.5376
G01 X187.7684 Y27.4969
G01 X187.7912 Y27.4552
G01 X187.8120 Y27.4123
G01 X187.8307 Y27.3686
G01 X187.8473 Y27.3240
G01 X187.8618 Y27.2787
G01 X187.8742 Y27.2327
G01 X187.8843 Y27.1862
G01 X187.8922 Y27.1392
G01 X187.8978 Y27.0920
G01 X187.9012 Y27.0445
G01 X187.9023 Y26.9969
G01 X187.9131 Y26.9453 F1000
G01 X187.9212 Y26.8932
G01 X187.9266 Y26.8408
G01 X187.9292 Y26.7882
G01 Y26.7355
G01 X187.9264 Y26.6829
G01 X187.9210 Y26.6304
G01 X187.9128 Y26.5784
G01 X187.9011 Y26.5224
G01 X187.8866 Y26.4671
G01 X187.8692 Y26.4126
G01 X187.8491 Y26.3590
G01 X187.8262 Y26.3066
G01 X187.8007 Y26.2554
G01 X187.7726 Y26.2056
G01 X187.7420 Y26.1572
G01 X187.7064 Y26.1068
G01 X187.6683 Y26.0583
G01 X187.6278 Y26.0118
G01 X187.5849 Y25.9674
G01 X187.5398 Y25.9252
G01 X187.4927 Y25.8854
G01 X187.4436 Y25.8480
G01 X187.3927 Y25.8132
G01 X187.3362 Y25.7786
G01 X187.2780 Y25.7470
G01 X187.2183 Y25.7183
G01 X187.1572 Y25.6927
G01 X187.0949 Y25.6702
G01 X187.0316 Y25.6508
G01 X186.9673 Y25.6347
G01 X186.9023 Y25.6219
G01 X186.8323 Y25.6117
G01 X186.7619 Y25.6051
G01 X186.6912 Y25.6020
G01 X186.6204 Y25.6025
G01 X186.5498 Y25.6066
G01 X186.4794 Y25.6142
G01 X186.4095 Y25.6253
G01 X186.3403 Y25.6400
G01 X186.2675 Y25.6593
G01 X186.1957 Y25.6822
G01 X186.1252 Y25.7086
G01 X186.0562 Y25.7386
G01 X185.9887 Y25.7721
G01 X185.9230 Y25.8089
G01 X185.8592 Y25.8489
G01 X185.7975 Y25.8921
G01 X185.7345 Y25.9411
G01 X185.6739 Y25.9932
G01 X185.6161 Y26.0483
G01 X185.5611 Y26.1062
G01 X185.5091 Y26.1668
G01 X185.4602 Y26.2299
G01 X185.4145 Y26.2954
G01 X185.3722 Y26.3631
G01 X185.3310 Y26.4368
G01 X185.2937 Y26.5125
G01 X185.2601 Y26.5899
G01 X185.2304 Y26.6690
G01 X185.2048 Y26.7494
G01 X185.1832 Y26.8310
G01 X185.1657 Y26.9136
G01 X185.1523 Y26.9969
G01 X185.1427 Y27.0854
G01 X185.1374 Y27.1742
G01 X185.1367 Y27.2632
G01 X185.1403 Y27.3520
G01 X185.1484 Y27.4406
G01 X185.1609 Y27.5287
G01 X185.1777 Y27.6161
G01 X185.1989 Y27.7025
G01 X185.2310 Y27.7884
G01 X185.2673 Y27.8727
G01 X185.3077 Y27.9551
G01 X185.3521 Y28.0354
G01 X185.4004 Y28.1134
G01 X185.4525 Y28.1889
G01 X185.5082 Y28.2618
G01 X185.5675 Y28.3318
G01 X185.6346 Y28.3957
G01 X185.7047 Y28.4562
G01 X185.7778 Y28.5132
G01 X185.8535 Y28.5666
G01 X185.9318 Y28.6162
G01 X186.0124 Y28.6618
G01 X186.0952 Y28.7035
G01 X186.1799 Y28.7410
G01 X186.2664 Y28.7744
G01 X186.3543 Y28.8035
G01 X186.4436 Y28.8282
G01 X186.5341 Y28.8485
G01 X186.6253 Y28.8643
G01 X186.7173 Y28.8757
G01 X186.8097 Y28.8825
G01 X186.9023 Y28.8847
G01 X186.9950 Y28.8825
G01 X187.0874 Y28.8757
G01 X187.1793 Y28.8643
G01 X187.2706 Y28.8485
G01 X187.3611 Y28.8282
G01 X187.4504 Y28.8035
G01 X187.5383 Y28.7744
G01 X187.6248 Y28.7410
G01 X187.7095 Y28.7035
G01 X187.7923 Y28.6618
G01 X187.8729 Y28.6162
G01 X187.9512 Y28.5666
G01 X188.0269 Y28.5132
G01 X188.1000 Y28.4562
G01 X188.1701 Y28.3957
G01 X188.2372 Y28.3318
G01 X188.3011 Y28.2647
G01 X188.3617 Y28.1945
G01 X188.4187 Y28.1215
G01 X188.4720 Y28.0457
G01 X188.5216 Y27.9675
G01 X188.5673 Y27.8868
G01 X188.6089 Y27.8041
G01 X188.6465 Y27.7194
G01 X188.6798 Y27.6329
G01 X188.7089 Y27.5449
G01 X188.7336 Y27.4556
G01 X188.7539 Y27.3652
G01 X188.7697 Y27.2739
G01 X188.7811 Y27.1820
G01 X188.7879 Y27.0896
G01 X188.7902 Y26.9969
G01 X188.7861 Y26.8735
G01 X188.7740 Y26.7505
G01 X188.7539 Y26.6286
G01 X188.7258 Y26.5083
G01 X188.6900 Y26.3901
G01 X188.6465 Y26.2745
G01 X188.5955 Y26.1620
G01 X188.5372 Y26.0530
G01 X188.4720 Y25.9481
G01 X188.4001 Y25.8477
G01 X188.3217 Y25.7522
G01 X188.2372 Y25.6620
G01 X188.1471 Y25.5776
G01 X188.0516 Y25.4992
G01 X187.9512 Y25.4273
G01 X187.8463 Y25.3620
G01 X187.7373 Y25.3038
G01 X187.6248 Y25.2528
G01 X187.5092 Y25.2093
G01 X187.3910 Y25.1734
G01 X187.2706 Y25.1454
G01 X187.1488 Y25.1253
G01 X187.0258 Y25.1131
G01 X186.9023 Y25.1091
G01 X186.7789 Y25.1131
G01 X186.6559 Y25.1253
G01 X186.5341 Y25.1454
G01 X186.4137 Y25.1734
G01 X186.2955 Y25.2093
G01 X186.1799 Y25.2528
G01 X186.0674 Y25.3038
G01 X185.9584 Y25.3620
G01 X185.8535 Y25.4273
G01 X185.7531 Y25.4992
G01 X185.6576 Y25.5776
G01 X185.5675 Y25.6620
G01 X185.4830 Y25.7522
G01 X185.4046 Y25.8477
G01 X185.3327 Y25.9481
G01 X185.2674 Y26.0530
G01 X185.2092 Y26.1620
G01 X185.1582 Y26.2745
G01 X185.1147 Y26.3901
G01 X185.0789 Y26.5083
G01 X185.0508 Y26.6286
G01 X185.0307 Y26.7505
G01 X185.0186 Y26.8735
G01 X185.0145 Y26.9969
G01 X185.0186 Y27.1204
G01 X185.0307 Y27.2433
G01 X185.0508 Y27.3652
G01 X185.0789 Y27.4855
G01 X185.1147 Y27.6037
G01 X185.1582 Y27.7194
G01 X185.2092 Y27.8319
G01 X185.2674 Y27.9408
G01 X185.3327 Y28.0457
G01 X185.4046 Y28.1462
G01 X185.4830 Y28.2417
G01 X185.5675 Y28.3318
G01 X185.6576 Y28.4163
G01 X185.7531 Y28.4946
G01 X185.8535 Y28.5666
G01 X185.9584 Y28.6318
G01 X186.0674 Y28.6901
G01 X186.1799 Y28.7410
G01 X186.2955 Y28.7846
G01 X186.4137 Y28.8204
G01 X186.5341 Y28.8485
G01 X186.6559 Y28.8686
G01 X186.7789 Y28.8807
G01 X186.9023 Y28.8847
G01 X187.0258 Y28.8807
G01 X187.1488 Y28.8686
G01 X187.2706 Y28.8485
G01 X187.3910 Y28.8204
G01 X187.5092 Y28.7846
G01 X187.6248 Y28.7410
G01 X187.7373 Y28.6901
G01 X187.8463 Y28.6318
G01 X187.9512 Y28.5666
G01 X188.0516 Y28.4946
G01 X188.1471 Y28.4163
G01 X188.2372 Y28.3318
G01 X188.3217 Y28.2417
G01 X188.4001 Y28.1462
G01 X188.4720 Y28.0457
G01 X188.5372 Y27.9408
G01 X188.5955 Y27.8319
G01 X188.6465 Y27.7194
G01 X188.6900 Y27.6037
G01 X188.7258 Y27.4855
G01 X188.7539 Y27.3652
G01 X188.7740 Y27.2433
G01 X188.7861 Y27.1204
G01 X188.7902 Y26.9969
G01 X188.7857 Y26.8836
G01 X188.7724 Y26.7710
G01 X188.7503 Y26.6599
G01 X188.7195 Y26.5507
G01 X188.6803 Y26.4444
G01 X188.6328 Y26.3414
G01 X188.5774 Y26.2425
G01 X188.5144 Y26.1482
G01 X188.4442 Y26.0592
G01 X188.3673 Y25.9759
G01 X188.2840 Y25.8990
G01 X188.1950 Y25.8288
G01 X188.1007 Y25.7658
G01 X188.0018 Y25.7104
G01 X187.8988 Y25.6629
G01 X187.7925 Y25.6237
G01 X187.6833 Y25.5929
G01 X187.5721 Y25.5708
G01 X187.4595 Y25.5575
G01 X187.3463 Y25.5530
G01 X187.2330 Y25.5575
G01 X187.1204 Y25.5708
G01 X187.0092 Y25.5929
G01 X186.9001 Y25.6237
G01 X186.7937 Y25.6629
G01 X186.6907 Y25.7104
G01 X186.5918 Y25.7658
G01 X186.4975 Y25.8288
G01 X186.4085 Y25.8990
G01 X186.3253 Y25.9759
G01 X186.2483 Y26.0592
G01 X186.1781 Y26.1482
G01 X186.1151 Y26.2425
G01 X186.0597 Y26.3414
G01 X186.0123 Y26.4444
G01 X185.9730 Y26.5507
G01 X185.9422 Y26.6599
G01 X185.9201 Y26.7710
G01 X185.9068 Y26.8836
G01 X185.9023 Y26.9969
G01 X185.9062 Y27.0841
G01 X185.9175 Y27.1706
G01 X185.9364 Y27.2557
G01 X185.9627 Y27.3389
G01 X185.9960 Y27.4195
G01 X186.0363 Y27.4969
G01 X186.0832 Y27.5705
G01 X186.1363 Y27.6397
G01 X186.1952 Y27.7040
G01 X186.2596 Y27.7630
G01 X186.3288 Y27.8161
G01 X186.4023 Y27.8630
G01 X186.4797 Y27.9032
G01 X186.5603 Y27.9366
G01 X186.6435 Y27.9629
G01 X186.7287 Y27.9817
G01 X186.8152 Y27.9931
G01 X186.9023 Y27.9969
G01 X186.9895 Y27.9931
G01 X187.0760 Y27.9817
G01 X187.1612 Y27.9629
G01 X187.2444 Y27.9366
G01 X187.3250 Y27.9032
G01 X187.4023 Y27.8630
G01 X187.4759 Y27.8161
G01 X187.5451 Y27.7630
G01 X187.6095 Y27.7040
G01 X187.6684 Y27.6397
G01 X187.7215 Y27.5705
G01 X187.7684 Y27.4969
G01 X187.8087 Y27.4195
G01 X187.8420 Y27.3389
G01 X187.8683 Y27.2557
G01 X187.8872 Y27.1706
G01 X187.8985 Y27.0841
G01 X187.9023 Y26.9969
M107
M106 S240
G01 X187.8985 Y26.9098 Z-3.5278 F400
G01 X187.8872 Y26.8233 Z-3.5556
G01 X187.8683 Y26.7381 Z-3.5833
G01 X187.8420 Y26.6549 Z-3.6111
G01 X187.8087 Y26.5743 Z-3.6389
G01 X187.7684 Y26.4969 Z-3.6667
G01 X187.7215 Y26.4233 Z-3.6944
G01 X187.6684 Y26.3541 Z-3.7222
G01 X187.6095 Y26.2898 Z-3.7500
G01 X187.5451 Y26.2309 Z-3.7778
G01 X187.4759 Y26.1778 Z-3.8056
G01 X187.4023 Y26.1309 Z-3.8333
G01 X187.3250 Y26.0906 Z-3.8611
G01 X187.2444 Y26.0572 Z-3.8889
G01 X187.1612 Y26.0310 Z-3.9167
G01 X187.0760 Y26.0121 Z-3.9444
G01 X186.9895 Y26.0007 Z-3.9722
G01 X186.9023 Y25.9969 Z-4.0000
G01 X186.8152 Y26.0007 Z-4.0278
G01 X186.7287 Y26.0121 Z-4.0556
G01 X186.6435 Y26.0310 Z-4.0833
G01 X186.5603 Y26.0572 Z-4.1111
G01 X186.4797 Y26.0906 Z-4.1389
G01 X186.4023 Y26.1309 Z-4.1667
G01 X186.3617 Y26.1557 Z-4.1818
G01 X186.3223 Y26.1823 Z-4.1970
G01 X186.2842 Y26.2109 Z-4.2121
G01 X186.2475 Y26.2412 Z-4.2273
G01 X186.2123 Y26.2732 Z-4.2424
G01 X186.1786 Y26.3068 Z-4.2576
G01 X186.1466 Y26.3421 Z-4.2727
G01 X186.1163 Y26.3788 Z-4.2879
G01 X186.0878 Y26.4169 Z-4.3030
G01 X186.0611 Y26.4563 Z-4.3182
G01 X186.0363 Y26.4969 Z-4.3333
G01 X186.0135 Y26.5387 Z-4.3485
G01 X185.9927 Y26.5815 Z-4.3636
G01 X185.9740 Y26.6253 Z-4.3788
G01 X185.9573 Y26.6699 Z-4.3939
G01 X185.9429 Y26.7152 Z-4.4091
G01 X185.9305 Y26.7612 Z-4.4242
G01 X185.9204 Y26.8077 Z-4.4394
G01 X185.9125 Y26.8546 Z-4.4545
G01 X185.9069 Y26.9019 Z-4.4697
G01 X185.9035 Y26.9493 Z-4.4848
G01 X185.9023 Y26.9969 Z-4.5000
G01 X185.9035 Y27.0445 Z-4.5152
G01 X185.9069 Y27.0920 Z-4.5303
G01 X185.9125 Y27.1392 Z-4.5455
G01 X185.9204 Y27.1862 Z-4.5606
G01 X185.9305 Y27.2327 Z-4.5758
G01 X185.9429 Y27.2787 Z-4.5909
G01 X185.9573 Y27.3240 Z-4.6061
G01 X185.9740 Y27.3686 Z-4.6212
G01 X185.9927 Y27.4123 Z-4.6364
G01 X186.0135 Y27.4552 Z-4.6515
G01 X186.0363 Y27.4969 Z-4.6667
G01 X186.0611 Y27.5376 Z-4.6818
G01 X186.0878 Y27.5770 Z-4.6970
G01 X186.1163 Y27.6151 Z-4.7121
G01 X186.1466 Y27.6518 Z-4.7273
G01 X186.1786 Y27.6870 Z-4.7424
G01 X186.2123 Y27.7207 Z-4.7576
G01 X186.2475 Y27.7527 Z-4.7727
G01 X186.2842 Y27.7830 Z-4.7879
G01 X186.3223 Y27.8115 Z-4.8030
G01 X186.3617 Y27.8382 Z-4.8182
G01 X186.4023 Y27.8630 Z-4.8333
G01 X186.4441 Y27.8858 Z-4.8485
G01 X186.4869 Y27.9066 Z-4.8636
G01 X186.5307 Y27.9253 Z-4.8788
G01 X186.5753 Y27.9419 Z-4.8939
G01 X186.6206 Y27.9564 Z-4.9091
G01 X186.6666 Y27.9687 Z-4.9242
G01 X186.7131 Y27.9789 Z-4.9394
G01 X186.7600 Y27.9867 Z-4.9545
G01 X186.8073 Y27.9924 Z-4.9697
G01 X186.8548 Y27.9958 Z-4.9848
G01 X186.9023 Y27.9969 Z-5.0000
G01 X186.9499 Y27.9958 Z-5.0152
G01 X186.9974 Y27.9924 Z-5.0303
G01 X187.0447 Y27.9867 Z-5.0455
G01 X187.0916 Y27.9789 Z-5.0606
G01 X187.1381 Y27.9687 Z-5.0758
G01 X187.1841 Y27.9564 Z-5.0909
G01 X187.2294 Y27.9419 Z-5.1061
G01 X187.2740 Y27.9253 Z-5.1212
G01 X187.3178 Y27.9066 Z-5.1364
G01 X187.3606 Y27.8858 Z-5.1515
G01 X187.4023 Y27.8630 Z-5.1667
G01 X187.4430 Y27.8382 Z-5.1818
G01 X187.4824 Y27.8115 Z-5.1970
G01 X187.5205 Y27.7830 Z-5.2121
G01 X187.5572 Y27.7527 Z-5.2273
G01 X187.5924 Y27.7207 Z-5.2424
G01 X187.6261 Y27.6870 Z-5.2576
G01 X187.6581 Y27.6518 Z-5.2727
G01 X187.6884 Y27.6151 Z-5.2879
G01 X187.7169 Y27.5770 Z-5.3030
G01 X187.7436 Y27.5376 Z-5.3182
G01 X187.7684 Y27.4969 Z-5.3333
G01 X187.7912 Y27.4552 Z-5.3485
G01 X187.8120 Y27.4123 Z-5.3636
G01 X187.8307 Y27.3686 Z-5.3788
G01 X187.8473 Y27.3240 Z-5.3939
G01 X187.8618 Y27.2787 Z-5.4091
G01 X187.8742 Y27.2327 Z-5.4242
G01 X187.8843 Y27.1862 Z-5.4394
G01 X187.8922 Y27.1392 Z-5.4545
G01 X187.8978 Y27.0920 Z-5.4697
G01 X187.9012 Y27.0445 Z-5.4848
G01 X187.9023 Y26.9969 Z-5.5000
G01 X187.8985 Y26.9098
G01 X187.8872 Y26.8233
G01 X187.8683 Y26.7381
G01 X187.8420 Y26.6549
G01 X187.8087 Y26.5743
G01 X187.7684 Y26.4969
G01 X187.7215 Y26.4233
G01 X187.6684 Y26.3541
G01 X187.6095 Y26.2898
G01 X187.5451 Y26.2309
G01 X187.4759 Y26.1778
G01 X187.4023 Y26.1309
G01 X187.3250 Y26.0906
G01 X187.2444 Y26.0572
G01 X187.1612 Y26.0310
G01 X187.0760 Y26.0121
G01 X186.9895 Y26.0007
G01 X186.9023 Y25.9969
G01 X186.8152 Y26.0007
G01 X186.7287 Y26.0121
G01 X186.6435 Y26.0310
G01 X186.5603 Y26.0572
G01 X186.4797 Y26.0906
G01 X186.4023 Y26.1309
G01 X186.3617 Y26.1557
G01 X186.3223 Y26.1823
G01 X186.2842 Y26.2109
G01 X186.2475 Y26.2412
G01 X186.2123 Y26.2732
G01 X186.1786 Y26.3068
G01 X186.1466 Y26.3421
G01 X186.1163 Y26.3788
G01 X186.0878 Y26.4169
G01 X186.0611 Y26.4563
G01 X186.0363 Y26.4969
G01 X186.0135 Y26.5387
G01 X185.9927 Y26.5815
G01 X185.9740 Y26.6253
G01 X185.9573 Y26.6699
G01 X185.9429 Y26.7152
G01 X185.9305 Y26.7612
G01 X185.9204 Y26.8077
G01 X185.9125 Y26.8546
G01 X185.9069 Y26.9019
G01 X185.9035 Y26.9493
G01 X185.9023 Y26.9969
G01 X185.9035 Y27.0445
G01 X185.9069 Y27.0920
G01 X185.9125 Y27.1392
G01 X185.9204 Y27.1862
G01 X185.9305 Y27.2327
G01 X185.9429 Y27.2787
G01 X185.9573 Y27.3240
G01 X185.9740 Y27.3686
G01 X185.9927 Y27.4123
G01 X186.0135 Y27.4552
G01 X186.0363 Y27.4969
G01 X186.0611 Y27.5376
G01 X186.0878 Y27.5770
G01 X186.1163 Y27.6151
G01 X186.1466 Y27.6518
G01 X186.1786 Y27.6870
G01 X186.2123 Y27.7207
G01 X186.2475 Y27.7527
G01 X186.2842 Y27.7830
G01 X186.3223 Y27.8115
G01 X186.3617 Y27.8382
G01 X186.4023 Y27.8630
G01 X186.4441 Y27.8858
G01 X186.4869 Y27.9066
G01 X186.5307 Y27.9253
G01 X186.5753 Y27.9419
G01 X186.6206 Y27.9564
G01 X186.6666 Y27.9687
G01 X186.7131 Y27.9789
G01 X186.7600 Y27.9867
G01 X186.8073 Y27.9924
G01 X186.8548 Y27.9958
G01 X186.9023 Y27.9969
G01 X186.9499 Y27.9958
G01 X186.9974 Y27.9924
G01 X187.0447 Y27.9867
G01 X187.0916 Y27.9789
G01 X187.1381 Y27.9687
G01 X187.1841 Y27.9564
G01 X187.2294 Y27.9419
G01 X187.2740 Y27.9253
G01 X187.3178 Y27.9066
G01 X187.3606 Y27.8858
G01 X187.4023 Y27.8630
G01 X187.4430 Y27.8382
G01 X187.4824 Y27.8115
G01 X187.5205 Y27.7830
G01 X187.5572 Y27.7527
G01 X187.5924 Y27.7207
G01 X187.6261 Y27.6870
G01 X187.6581 Y27.6518
G01 X187.6884 Y27.6151
G01 X187.7169 Y27.5770
G01 X187.7436 Y27.5376
G01 X187.7684 Y27.4969
G01 X187.7912 Y27.4552
G01 X187.8120 Y27.4123
G01 X187.8307 Y27.3686
G01 X187.8473 Y27.3240
G01 X187.8618 Y27.2787
G01 X187.8742 Y27.2327
G01 X187.8843 Y27.1862
G01 X187.8922 Y27.1392
G01 X187.8978 Y27.0920
G01 X187.9012 Y27.0445
G01 X187.9023 Y26.9969
G01 X187.9131 Y26.9453 F1000
G01 X187.9212 Y26.8932
G01 X187.9266 Y26.8408
G01 X187.9292 Y26.7882
G01 Y26.7355
G01 X187.9264 Y26.6829
G01 X187.9210 Y26.6304
G01 X187.9128 Y26.5784
G01 X187.9011 Y26.5224
G01 X187.8866 Y26.4671
G01 X187.8692 Y26.4126
G01 X187.8491 Y26.3590
G01 X187.8262 Y26.3066
G01 X187.8007 Y26.2554
G01 X187.7726 Y26.2056
G01 X187.7420 Y26.1572
G01 X187.7064 Y26.1068
G01 X187.6683 Y26.0583
G01 X187.6278 Y26.0118
G01 X187.5849 Y25.9674
G01 X187.5398 Y25.9252
G01 X187.4927 Y25.8854
G01 X187.4436 Y25.8480
G01 X187.3927 Y25.8132
G01 X187.3362 Y25.7786
G01 X187.2780 Y25.7470
G01 X187.2183 Y25.7183
G01 X187.1572 Y25.6927
G01 X187.0949 Y25.6702
G01 X187.0316 Y25.6508
G01 X186.9673 Y25.6347
G01 X186.9023 Y25.6219
G01 X186.8323 Y25.6117
G01 X186.7619 Y25.6051
G01 X186.6912 Y25.6020
G01 X186.6204 Y25.6025
G01 X186.5498 Y25.6066
G01 X186.4794 Y25.6142
G01 X186.4095 Y25.6253
G01 X186.3403 Y25.6400
G01 X186.2675 Y25.6593
G01 X186.1957 Y25.6822
G01 X186.1252 Y25.7086
G01 X186.0562 Y25.7386
G01 X185.9887 Y25.7721
G01 X185.9230 Y25.8089
G01 X185.8592 Y25.8489
G01 X185.7975 Y25.8921
G01 X185.7345 Y25.9411
G01 X185.6739 Y25.9932
G01 X185.6161 Y26.0483
G01 X185.5611 Y26.1062
G01 X185.5091 Y26.1668
G01 X185.4602 Y26.2299
G01 X185.4145 Y26.2954
G01 X185.3722 Y26.3631
G01 X185.3310 Y26.4368
G01 X185.2937 Y26.5125
G01 X185.2601 Y26.5899
G01 X185.2304 Y26.6690
G01 X185.2048 Y26.7494
G01 X185.1832 Y26.8310
G01 X185.1657 Y26.9136
G01 X185.1523 Y26.9969
G01 X185.1427 Y27.0854
G01 X185.1374 Y27.1742
G01 X185.1367 Y27.2632
G01 X185.1403 Y27.3520
G01 X185.1484 Y27.4406
G01 X185.1609 Y27.5287
G01 X185.1777 Y27.6161
G01 X185.1989 Y27.7025
G01 X185.2310 Y27.7884
G01 X185.2673 Y27.8727
G01 X185.3077 Y27.9551
G01 X185.3521 Y28.0354
G01 X185.4004 Y28.1134
G01 X185.4525 Y28.1889
G01 X185.5082 Y28.2618
G01 X185.5675 Y28.3318
G01 X185.6346 Y28.3957
G01 X185.7047 Y28.4562
G01 X185.7778 Y28.5132
G01 X185.8535 Y28.5666
G01 X185.9318 Y28.6162
G01 X186.0124 Y28.6618
G01 X186.0952 Y28.7035
G01 X186.1799 Y28.7410
G01 X186.2664 Y28.7744
G01 X186.3543 Y28.8035
G01 X186.4436 Y28.8282
G01 X186.5341 Y28.8485
G01 X186.6253 Y28.8643
G01 X186.7173 Y28.8757
G01 X186.8097 Y28.8825
G01 X186.9023 Y28.8847
G01 X186.9950 Y28.8825
G01 X187.0874 Y28.8757
G01 X187.1793 Y28.8643
G01 X187.2706 Y28.8485
G01 X187.3611 Y28.8282
G01 X187.4504 Y28.8035
G01 X187.5383 Y28.7744
G01 X187.6248 Y28.7410
G01 X187.7095 Y28.7035
G01 X187.7923 Y28.6618
G01 X187.8729 Y28.6162
G01 X187.9512 Y28.5666
G01 X188.0269 Y28.5132
G01 X188.1000 Y28.4562
G01 X188.1701 Y28.3957
G01 X188.2372 Y28.3318
G01 X188.3011 Y28.2647
G01 X188.3617 Y28.1945
G01 X188.4187 Y28.1215
G01 X188.4720 Y28.0457
G01 X188.5216 Y27.9675
G01 X188.5673 Y27.8868
G01 X188.6089 Y27.8041
G01 X188.6465 Y27.7194
G01 X188.6798 Y27.6329
G01 X188.7089 Y27.5449
G01 X188.7336 Y27.4556
G01 X188.7539 Y27.3652
G01 X188.7697 Y27.2739
G01 X188.7811 Y27.1820
G01 X188.7879 Y27.0896
G01 X188.7902 Y26.9969
G01 X188.7861 Y26.8735
G01 X188.7740 Y26.7505
G01 X188.7539 Y26.6286
G01 X188.7258 Y26.5083
G01 X188.6900 Y26.3901
G01 X188.6465 Y26.2745
G01 X188.5955 Y26.1620
G01 X188.5372 Y26.0530
G01 X188.4720 Y25.9481
G01 X188.4001 Y25.8477
G01 X188.3217 Y25.7522
G01 X188.2372 Y25.6620
G01 X188.1471 Y25.5776
G01 X188.0516 Y25.4992
G01 X187.9512 Y25.4273
G01 X187.8463 Y25.3620
G01 X187.7373 Y25.3038
G01 X187.6248 Y25.2528
G01 X187.5092 Y25.2093
G01 X187.3910 Y25.1734
G01 X187.2706 Y25.1454
G01 X187.1488 Y25.1253
G01 X187.0258 Y25.1131
G01 X186.9023 Y25.1091
G01 X186.7789 Y25.1131
G01 X186.6559 Y25.1253
G01 X186.5341 Y25.1454
G01 X186.4137 Y25.1734
G01 X186.2955 Y25.2093
G01 X186.1799 Y25.2528
G01 X186.0674 Y25.3038
G01 X185.9584 Y25.3620
G01 X185.8535 Y25.4273
G01 X185.7531 Y25.4992
G01 X185.6576 Y25.5776
G01 X185.5675 Y25.6620
G01 X185.4830 Y25.7522
G01 X185.4046 Y25.8477
G01 X185.3327 Y25.9481
G01 X185.2674 Y26.0530
G01 X185.2092 Y26.1620
G01 X185.1582 Y26.2745
G01 X185.1147 Y26.3901
G01 X185.0789 Y26.5083
G01 X185.0508 Y26.6286
G01 X185.0307 Y26.7505
G01 X185.0186 Y26.8735
G01 X185.0145 Y26.9969
G01 X185.0186 Y27.1204
G01 X185.0307 Y27.2433
G01 X185.0508 Y27.3652
G01 X185.0789 Y27.4855
G01 X185.1147 Y27.6037
G01 X185.1582 Y27.7194
G01 X185.2092 Y27.8319
G01 X185.2674 Y27.9408
G01 X185.3327 Y28.0457
G01 X185.4046 Y28.1462
G01 X185.4830 Y28.2417
G01 X185.5675 Y28.3318
G01 X185.6576 Y28.4163
G01 X185.7531 Y28.4946
G01 X185.8535 Y28.5666
G01 X185.9584 Y28.6318
G01 X186.0674 Y28.6901
G01 X186.1799 Y28.7410
G01 X186.2955 Y28.7846
G01 X186.4137 Y28.8204
G01 X186.5341 Y28.8485
G01 X186.6559 Y28.8686
G01 X186.7789 Y28.8807
G01 X186.9023 Y28.8847
G01 X187.0258 Y28.8807
G01 X187.1488 Y28.8686
G01 X187.2706 Y28.8485
G01 X187.3910 Y28.8204
G01 X187.5092 Y28.7846
G01 X187.6248 Y28.7410
G01 X187.7373 Y28.6901
G01 X187.8463 Y28.6318
G01 X187.9512 Y28.5666
G01 X188.0516 Y28.4946
G01 X188.1471 Y28.4163
G01 X188.2372 Y28.3318
G01 X188.3217 Y28.2417
G01 X188.4001 Y28.1462
G01 X188.4720 Y28.0457
G01 X188.5372 Y27.9408
G01 X188.5955 Y27.8319
G01 X188.6465 Y27.7194
G01 X188.6900 Y27.6037
G01 X188.7258 Y27.4855
G01 X188.7539 Y27.3652
G01 X188.7740 Y27.2433
G01 X188.7861 Y27.1204
G01 X188.7902 Y26.9969
M107
M106 S240
G01 X188.7871 Y26.9185 Z-5.4750 F400
M107
M106 S240
G01 X188.7779 Y26.8405 Z-5.4500
M107
M106 S240
G01 X188.7625 Y26.7635 Z-5.4250
M107
M106 S240
G01 X188.7412 Y26.6879 Z-5.4000
M107
M106 S240
G01 X188.7140 Y26.6142 Z-5.3750
M107
M106 S240
G01 X188.6812 Y26.5429 Z-5.3500
M107
M106 S240
G01 X188.6428 Y26.4744 Z-5.3250
M107
M106 S240
G01 X188.5992 Y26.4091 Z-5.3000
M107
M106 S240
G01 X188.5506 Y26.3475 Z-5.2750
M107
M106 S240
G01 X188.4973 Y26.2898 Z-5.2500
M107
M106 S240
G01 X188.4396 Y26.2365 Z-5.2250
M107
M106 S240
G01 X188.3780 Y26.1879 Z-5.2000
M107
M106 S240
G01 X188.3127 Y26.1443 Z-5.1750
M107
M106 S240
G01 X188.2442 Y26.1059 Z-5.1500
M107
M106 S240
G01 X188.1729 Y26.0730 Z-5.1250
M107
M106 S240
G01 X188.0992 Y26.0459 Z-5.1000
M107
M106 S240
G01 X188.0236 Y26.0246 Z-5.0750
M107
M106 S240
G01 X187.9466 Y26.0092 Z-5.0500
M107
M106 S240
G01 X187.8686 Y26.0000 Z-5.0250
M107
M106 S240
G01 X187.7902 Y25.9969 Z-5.0000
M107
G00 Z2.0000


;No. 6: Hole 33
G00 X177.8631 Y78.6678 Z2.0000
G00 Z0.5000
G01 Z0.0000 F400
G01 Z-1.2000
M106 S240
G01 X172.2868 F1000
G01 Y80.1678
G01 X177.8631
G01 Y81.6678
G01 X172.2868
G01 X172.0868 Y81.6589
G01 Y83.1569
G01 X177.9017
G01 X177.9233 Y83.1259
G01 X177.9434 Y83.0939
G01 X177.9621 Y83.0611
G01 X177.9794 Y83.0275
G01 X177.9951 Y82.9931
G01 X178.0094 Y82.9581
G01 X178.0220 Y82.9225
G01 X178.0331 Y82.8864
G01 X178.0426 Y82.8498
G01 X178.0505 Y82.8129
G01 X178.0567 Y82.7756
G01 X178.0613 Y82.7381
G01 X178.0643 Y82.7004
G01 X178.0655 Y82.6626
G01 X178.0651 Y82.6249
G01 X178.0631 Y82.5871
G01 X178.0791 Y81.3448
G01 X178.0841 Y80.1024
G01 X178.0780 Y78.8600
G01 X178.0607 Y77.6176
G01 X178.0608 Y77.5877
G01 X178.0594 Y77.5578
G01 X178.0566 Y77.5280
G01 X178.0523 Y77.4984
G01 X178.0466 Y77.4690
G01 X178.0394 Y77.4399
G01 X178.0309 Y77.4112
G01 X178.0209 Y77.3830
G01 X178.0096 Y77.3553
G01 X177.9969 Y77.3281
G01 X177.9830 Y77.3017
G01 X177.9677 Y77.2759
G01 X177.9512 Y77.2509
G01 X177.9335 Y77.2268
G01 X177.9147 Y77.2035
G01 X177.8948 Y77.1812
G01 X177.9041 Y77.1874
G01 X177.8918 Y77.1782
G01 X172.0868 Y77.1788
G01 Y81.6589
G01 X172.2868 Y81.6678
M107
G00 Z2.0000


;No. 7: Hole 32
G00 X160.7727 Y81.6678 Z2.0000
G00 Z0.5000
G01 Z0.0000 F400
G01 Z-1.2000
M106 S240
G01 X155.0064 F1000
G01 X155.0065 Y80.1678
G01 X160.7727
G01 Y78.6678
G01 X155.0066
G01 X154.8067 Y78.6842
G01 Y82.5803
G01 X154.8029 Y82.6185
G01 X154.8010 Y82.6569
G01 Y82.6953
G01 X154.8029 Y82.7336
G01 X154.8067 Y82.7718
G01 X154.8124 Y82.8098
G01 X154.8200 Y82.8474
G01 X154.8293 Y82.8846
G01 X154.8405 Y82.9214
G01 X154.8536 Y82.9575
G01 X154.8683 Y82.9929
G01 X154.8848 Y83.0276
G01 X154.9030 Y83.0614
G01 X154.9228 Y83.0943
G01 X154.9443 Y83.1261
G01 X154.9672 Y83.1569
G01 X160.8114 Y83.1570
G01 X160.8329 Y83.1259
G01 X160.8531 Y83.0939
G01 X160.8718 Y83.0611
G01 X160.8890 Y83.0275
G01 X160.9048 Y82.9932
G01 X160.9190 Y82.9581
G01 X160.9317 Y82.9225
G01 X160.9428 Y82.8864
G01 X160.9523 Y82.8498
G01 X160.9602 Y82.8129
G01 X160.9664 Y82.7756
G01 X160.9710 Y82.7381
G01 X160.9739 Y82.7004
G01 X160.9752 Y82.6627
G01 X160.9748 Y82.6249
G01 X160.9727 Y82.5871
G01 X160.9888 Y81.3448
G01 X160.9937 Y80.1023
G01 X160.9876 Y78.8599
G01 X160.9704 Y77.6176
G01 X160.9694 Y77.5783
G01 X160.9660 Y77.5390
G01 X160.9604 Y77.5001
G01 X160.9526 Y77.4616
G01 X160.9425 Y77.4235
G01 X160.9302 Y77.3861
G01 X160.9158 Y77.3495
G01 X160.8992 Y77.3138
G01 X160.8807 Y77.2791
G01 X160.8601 Y77.2456
G01 X160.8376 Y77.2133
G01 X160.8133 Y77.1824
G01 X160.8220 Y77.1893
G01 X160.8119 Y77.1812
G01 X160.8016 Y77.1788
G01 X154.9846 Y77.1789
G01 X154.9611 Y77.2091
G01 X154.9390 Y77.2403
G01 X154.9185 Y77.2726
G01 X154.8995 Y77.3058
G01 X154.8821 Y77.3399
G01 X154.8665 Y77.3748
G01 X154.8525 Y77.4104
G01 X154.8402 Y77.4466
G01 X154.8297 Y77.4834
G01 X154.8209 Y77.5206
G01 X154.8140 Y77.5582
G01 X154.8089 Y77.5961
G01 X154.8056 Y77.6342
G01 X154.8041 Y77.6725
G01 X154.8045 Y77.7107
G01 X154.8067 Y77.7489
G01 Y78.6842
G01 X155.0066 Y78.6678
M107
G00 Z2.0000


;No. 8: Hole 38
G00 X108.4673 Y63.1215 Z2.0000
G00 Z0.5000
G01 Z0.0000 F400
G01 Z-1.2000
M106 S240
G01 X102.0453 F1000
G01 X107.0375
G01 Y61.6215
G01 X107.5469
G01 Y60.1215
G01 X107.0375
G01 Y58.6215
G01 X107.5469
G01 Y57.1215
G01 X107.0375
G01 Y55.6215
G01 X107.5469
G01 Y54.1215
G01 X107.0375
G01 Y52.6215
G01 X107.5469
G01 X107.7469 Y52.6324
G01 Y51.1012
G01 X106.8375
G01 Y61.8609
G01 X106.8365 Y61.9045
G01 X106.8336 Y61.9480
G01 X106.8289 Y61.9914
G01 X106.8223 Y62.0345
G01 X106.8138 Y62.0773
G01 X106.8034 Y62.1197
G01 X106.7912 Y62.1616
G01 X106.7771 Y62.2029
G01 X106.7613 Y62.2435
G01 X106.7438 Y62.2835
G01 X106.7245 Y62.3226
G01 X106.7035 Y62.3609
G01 X106.6808 Y62.3982
G01 X106.6566 Y62.4344
G01 X106.6308 Y62.4696
G01 X106.6035 Y62.5036
G01 X106.5747 Y62.5364
G01 X106.5446 Y62.5680
G01 X106.5130 Y62.5981
G01 X106.4802 Y62.6269
G01 X106.4462 Y62.6542
G01 X106.4110 Y62.6800
G01 X106.3748 Y62.7042
G01 X106.3375 Y62.7269
G01 X106.2992 Y62.7479
G01 X106.2601 Y62.7672
G01 X106.2201 Y62.7847
G01 X106.1795 Y62.8005
G01 X106.1382 Y62.8146
G01 X106.0963 Y62.8268
G01 X106.0539 Y62.8372
G01 X106.0111 Y62.8457
G01 X105.9680 Y62.8523
G01 X105.9246 Y62.8570
G01 X105.8811 Y62.8599
G01 X105.8375 Y62.8609
G01 X101.8453
G01 Y64.6418
G01 X108.6746 Y64.6354
G01 X108.6685 Y62.8578
G01 X108.5760 Y62.8461
G01 X108.4849 Y62.8259
G01 X108.3962 Y62.7973
G01 X108.3105 Y62.7606
G01 X108.2286 Y62.7160
G01 X108.1512 Y62.6641
G01 X108.0790 Y62.6051
G01 X108.0126 Y62.5397
G01 X107.9526 Y62.4683
G01 X107.8995 Y62.3917
G01 X107.8537 Y62.3105
G01 X107.8157 Y62.2253
G01 X107.7858 Y62.1370
G01 X107.7643 Y62.0463
G01 X107.7513 Y61.9540
G01 X107.7469 Y61.8609
G01 Y52.6324
G01 X107.5469 Y52.6215
M107
G00 Z2.0000


;No. 9: Hole 49
G00 X99.6102 Y52.6215 Z2.0000
G00 Z0.5000
G01 Z0.0000 F400
G01 Z-1.2000
M106 S240
G01 X99.0468 F1000
G01 X98.4038 Y54.1215
G01 X99.0039
G01 X98.3976 Y55.6215
G01 X90.1198
G01 X90.1264 Y54.1215
G01 X89.5127
G01 X88.9056 Y52.6215
G01 X89.4775
G01 X90.7269 Y57.1215
G01 X91.3546
G01 X91.3340 Y58.6215
G01 X91.9022
G01 X91.9411 Y60.1215
G01 X92.5109
G01 X92.5482 Y61.6215
G01 X93.1196
G01 X93.1553 Y63.1215
G01 X95.3661
G01 X95.4188 Y61.6215
G01 X95.9724
G01 X96.0246 Y60.1215
G01 X96.5787
G01 X96.6303 Y58.6215
G01 X97.1850
G01 X97.1757 Y57.1215
G01 X96.9746 Y57.1244
G01 X96.9707 Y57.1600
G01 X96.9656 Y57.1953
G01 X96.9591 Y57.2305
G01 X96.9514 Y57.2654
G01 X96.9423 Y57.3000
G01 X96.9319 Y57.3342
G01 X96.9203 Y57.3680
G01 X96.9074 Y57.4013
G01 X95.1966 Y61.6378
G01 X95.1616 Y61.7149
G01 X95.1201 Y61.7888
G01 X95.0726 Y61.8589
G01 X95.0193 Y61.9247
G01 X94.9607 Y61.9858
G01 X94.8971 Y62.0417
G01 X94.8289 Y62.0921
G01 X94.7568 Y62.1365
G01 X94.6812 Y62.1746
G01 X94.6026 Y62.2062
G01 X94.5216 Y62.2310
G01 X94.4388 Y62.2488
G01 X94.3548 Y62.2597
G01 X94.2702 Y62.2633
G01 X94.1855 Y62.2598
G01 X94.1015 Y62.2491
G01 X94.0187 Y62.2314
G01 X93.9377 Y62.2067
G01 X93.8590 Y62.1753
G01 X93.7833 Y62.1373
G01 X93.7111 Y62.0930
G01 X93.6429 Y62.0428
G01 X93.5792 Y61.9870
G01 X93.5204 Y61.9260
G01 X93.4670 Y61.8602
G01 X93.4194 Y61.7902
G01 X93.3779 Y61.7164
G01 X93.3427 Y61.6393
G01 X91.6235 Y57.4029
G01 X91.5960 Y57.3262
G01 X91.5748 Y57.2475
G01 X91.5601 Y57.1673
G01 X91.5519 Y57.0863
G01 X91.5504 Y57.0048
G01 X91.5555 Y56.9235
G01 X91.5672 Y56.8428
G01 X91.5855 Y56.7634
G01 X91.6101 Y56.6857
G01 X91.6410 Y56.6103
G01 X91.6780 Y56.5377
G01 X91.7207 Y56.4683
G01 X91.7689 Y56.4026
G01 X91.8223 Y56.3411
G01 X91.8806 Y56.2841
G01 X91.9433 Y56.2320
G01 X92.0100 Y56.1853
G01 X92.0803 Y56.1441
G01 X92.1538 Y56.1088
G01 X92.2298 Y56.0795
G01 X92.3080 Y56.0566
G01 X92.3878 Y56.0401
G01 X92.4687 Y56.0302
G01 X92.5501 Y56.0268
G01 X95.9802
G01 X96.0265 Y56.0279
G01 X96.0727 Y56.0311
G01 X96.1188 Y56.0364
G01 X96.1645 Y56.0439
G01 X96.2098 Y56.0535
G01 X96.2547 Y56.0651
G01 X96.2989 Y56.0789
G01 X96.3425 Y56.0946
G01 X96.3853 Y56.1124
G01 X96.4272 Y56.1322
G01 X96.4682 Y56.1539
G01 X96.5081 Y56.1774
G01 X96.5469 Y56.2028
G01 X96.5844 Y56.2299
G01 X96.6207 Y56.2588
G01 X96.6556 Y56.2893
G01 X96.6890 Y56.3214
G01 X96.7209 Y56.3550
G01 X96.7512 Y56.3901
G01 X96.7799 Y56.4265
G01 X96.8068 Y56.4642
G01 X96.8319 Y56.5031
G01 X96.8553 Y56.5432
G01 X96.8767 Y56.5842
G01 X96.8962 Y56.6263
G01 X96.9137 Y56.6692
G01 X96.9293 Y56.7128
G01 X96.9427 Y56.7572
G01 X96.9542 Y56.8021
G01 X96.9635 Y56.8475
G01 X96.9707 Y56.8933
G01 X96.9757 Y56.9393
G01 X96.9787 Y56.9856
G01 X96.9794 Y57.0319
G01 X96.9781 Y57.0782
G01 X96.9746 Y57.1244
G01 X97.1757 Y57.1215
G01 X97.7913
G01 X97.9765 Y57.1970
G01 X100.4405 Y51.1012
G01 X99.4420
G01 X98.3628 Y53.7876
G01 X98.3326 Y53.8554
G01 X98.2974 Y53.9208
G01 X98.2574 Y53.9835
G01 X98.2130 Y54.0430
G01 X98.1642 Y54.0990
G01 X98.1114 Y54.1512
G01 X98.0548 Y54.1994
G01 X97.9949 Y54.2433
G01 X97.9318 Y54.2826
G01 X97.8661 Y54.3171
G01 X97.7979 Y54.3466
G01 X97.7277 Y54.3709
G01 X97.6559 Y54.3900
G01 X97.5829 Y54.4038
G01 X97.5091 Y54.4120
G01 X97.4349 Y54.4148
G01 X91.0954
G01 X91.0214 Y54.4120
G01 X90.9479 Y54.4038
G01 X90.8751 Y54.3902
G01 X90.8036 Y54.3713
G01 X90.7336 Y54.3470
G01 X90.6656 Y54.3177
G01 X90.6000 Y54.2835
G01 X90.5371 Y54.2444
G01 X90.4773 Y54.2009
G01 X90.4208 Y54.1530
G01 X90.3681 Y54.1011
G01 X90.3193 Y54.0454
G01 X90.2748 Y53.9863
G01 X90.2348 Y53.9240
G01 X90.1994 Y53.8589
G01 X90.1690 Y53.7914
G01 X89.0752 Y51.1012
G01 X88.0745
G01 X93.5549 Y64.6418
G01 X94.9673
G01 X97.9765 Y57.1970
G01 X97.7913 Y57.1215
M107
G00 Z2.0000


;No. 10: Hole 41
G00 X83.8774 Y61.6215 Z2.0000
G00 Z0.5000
G01 Z0.0000 F400
G01 Z-1.2000
M106 S240
G01 X83.2190 F1000
G01 X83.4530 Y60.1215
G01 X82.7965
G01 X83.0286 Y58.6215
G01 X82.3739
G01 X82.6042 Y57.1215
G01 X81.9514
G01 X82.1798 Y55.6215
G01 X81.5289
G01 X81.7554 Y54.1215
G01 X79.1161
G01 X79.1756 Y55.6215
G01 X78.6756
G01 X78.7506 Y57.1215
G01 X78.2350
G01 X78.3255 Y58.6215
G01 X77.7945
G01 X77.9005 Y60.1215
G01 X77.3538
G01 X77.4754 Y61.6215
G01 X74.9359
G01 X75.0522 Y60.1215
G01 X74.5095
G01 X74.6116 Y58.6215
G01 X74.0832
G01 X74.1710 Y57.1215
G01 X73.6568
G01 X73.7305 Y55.6215
G01 X73.2305
G01 X73.2899 Y54.1215
G01 X70.6507
G01 X70.8772 Y55.6215
G01 X70.2263
G01 X70.4546 Y57.1215
G01 X69.8019
G01 X70.0321 Y58.6215
G01 X69.3775
G01 X69.6096 Y60.1215
G01 X68.9531
G01 X69.1870 Y61.6215
G01 X68.5287
G01 X68.7645 Y63.1215
G01 X68.1042
M107
G00 Z2.0000
G00 X75.3622 Y61.6215
G00 Z0.5000
G01 Z-1.2000 F400
M106 S240
G01 Y63.1215 F1000
G01 X77.0504
M107
G00 Z2.0000
G00 X83.6416 Y61.6215
G00 Z0.5000
G01 Z-1.2000 F400
M106 S240
G01 Y63.1215 F1000
G01 X84.3018
M107
G00 Z2.0000
G00 X81.3310 Y54.1215
G00 Z0.5000
G01 Z-1.2000 F400
M106 S240
G01 Y52.6215 F1000
G01 X79.5567
M107
G00 Z2.0000
G00 X72.8493 Y54.1215
G00 Z0.5000
G01 Z-1.2000 F400
M106 S240
G01 Y52.6215 F1000
G01 X71.0751
G01 X70.8795 Y52.5781
G01 X67.4662 Y64.6418
G01 X68.5440
G01 X71.0912 Y55.5994
G01 X71.1047 Y55.5552
G01 X71.1203 Y55.5117
G01 X71.1379 Y55.4689
G01 X71.1575 Y55.4270
G01 X71.1789 Y55.3860
G01 X71.2023 Y55.3461
G01 X71.2274 Y55.3073
G01 X71.2544 Y55.2697
G01 X71.2830 Y55.2334
G01 X71.3133 Y55.1984
G01 X71.3452 Y55.1649
G01 X71.3785 Y55.1329
G01 X71.4134 Y55.1025
G01 X71.4496 Y55.0737
G01 X71.4870 Y55.0466
G01 X71.5257 Y55.0213
G01 X71.5656 Y54.9978
G01 X71.6065 Y54.9762
G01 X71.6483 Y54.9564
G01 X71.6910 Y54.9387
G01 X71.7345 Y54.9229
G01 X71.7786 Y54.9092
G01 X71.8234 Y54.8975
G01 X71.8686 Y54.8879
G01 X71.9142 Y54.8803
G01 X71.9602 Y54.8750
G01 X72.0063 Y54.8717
G01 X72.0525 Y54.8706
G01 X72.0988 Y54.8716
G01 X72.1449 Y54.8747
G01 X72.1909 Y54.8800
G01 X72.2365 Y54.8874
G01 X72.2818 Y54.8969
G01 X72.3265 Y54.9085
G01 X72.3707 Y54.9222
G01 X72.4142 Y54.9378
G01 X72.4570 Y54.9555
G01 X72.4989 Y54.9751
G01 X72.5398 Y54.9967
G01 X72.5797 Y55.0201
G01 X72.6184 Y55.0453
G01 X72.6560 Y55.0723
G01 X72.6922 Y55.1010
G01 X72.7271 Y55.1313
G01 X72.7606 Y55.1633
G01 X72.7925 Y55.1967
G01 X72.8229 Y55.2316
G01 X72.8516 Y55.2678
G01 X72.8787 Y55.3054
G01 X72.9039 Y55.3441
G01 X72.9273 Y55.3840
G01 X72.9489 Y55.4249
G01 X72.9685 Y55.4668
G01 X72.9862 Y55.5095
G01 X73.0019 Y55.5530
G01 X73.0156 Y55.5972
G01 X75.5532 Y64.5248
G01 X76.8606
G01 X79.3902 Y55.5979
G01 X79.4195 Y55.5102
G01 X79.4568 Y55.4256
G01 X79.5017 Y55.3447
G01 X79.5540 Y55.2684
G01 X79.6130 Y55.1972
G01 X79.6784 Y55.1318
G01 X79.7496 Y55.0726
G01 X79.8259 Y55.0204
G01 X79.9067 Y54.9754
G01 X79.9913 Y54.9380
G01 X80.0790 Y54.9086
G01 X80.1691 Y54.8875
G01 X80.2607 Y54.8748
G01 X80.3531 Y54.8706
G01 X80.4455 Y54.8749
G01 X80.5371 Y54.8878
G01 X80.6271 Y54.9091
G01 X80.7148 Y54.9386
G01 X80.7993 Y54.9761
G01 X80.8801 Y55.0212
G01 X80.9563 Y55.0736
G01 X81.0274 Y55.1328
G01 X81.0926 Y55.1983
G01 X81.1516 Y55.2696
G01 X81.2037 Y55.3460
G01 X81.2485 Y55.4269
G01 X81.2857 Y55.5117
G01 X81.3149 Y55.5994
G01 X83.8620 Y64.6418
G01 X84.9398
G01 X81.1087 Y51.1012
G01 X79.7948
G01 X77.1625 Y60.0635
G01 X77.1486 Y60.1072
G01 X77.1326 Y60.1503
G01 X77.1147 Y60.1925
G01 X77.0949 Y60.2339
G01 X77.0732 Y60.2744
G01 X77.0497 Y60.3138
G01 X77.0244 Y60.3521
G01 X76.9974 Y60.3892
G01 X76.9687 Y60.4250
G01 X76.9384 Y60.4594
G01 X76.9065 Y60.4924
G01 X76.8731 Y60.5240
G01 X76.8384 Y60.5539
G01 X76.8023 Y60.5823
G01 X76.7649 Y60.6089
G01 X76.7264 Y60.6338
G01 X76.6867 Y60.6570
G01 X76.6461 Y60.6782
G01 X76.6045 Y60.6976
G01 X76.5620 Y60.7151
G01 X76.5188 Y60.7305
G01 X76.4749 Y60.7440
G01 X76.4305 Y60.7555
G01 X76.3856 Y60.7649
G01 X76.3403 Y60.7723
G01 X76.2947 Y60.7775
G01 X76.2489 Y60.7807
G01 X76.2030 Y60.7817
G01 X76.1571 Y60.7807
G01 X76.1114 Y60.7775
G01 X76.0658 Y60.7723
G01 X76.0205 Y60.7649
G01 X75.9756 Y60.7555
G01 X75.9311 Y60.7440
G01 X75.8872 Y60.7305
G01 X75.8440 Y60.7151
G01 X75.8016 Y60.6976
G01 X75.7600 Y60.6782
G01 X75.7193 Y60.6570
G01 X75.6797 Y60.6338
G01 X75.6411 Y60.6089
G01 X75.6038 Y60.5823
G01 X75.5677 Y60.5539
G01 X75.5329 Y60.5240
G01 X75.4996 Y60.4925
G01 X75.4677 Y60.4594
G01 X75.4374 Y60.4250
G01 X75.4087 Y60.3892
G01 X75.3816 Y60.3521
G01 X75.3563 Y60.3138
G01 X75.3328 Y60.2744
G01 X75.3111 Y60.2339
G01 X75.2913 Y60.1925
G01 X75.2734 Y60.1503
G01 X75.2575 Y60.1072
G01 X75.2436 Y60.0635
G01 X72.6113 Y51.1012
G01 X71.2974
G01 X70.8795 Y52.5781
G01 X71.0751 Y52.6215
M107
G00 Z2.0000


;No. 11: Hole 42
G00 X54.4240 Y54.1215 Z2.0000
G00 Z0.5000
G01 Z0.0000 F400
G01 Z-1.2000
M106 S240
G01 X53.8768 F1000
G01 X53.9213 Y55.6215
G01 X54.4531
G01 X54.0754 Y57.1215
G01 X52.8095
G01 X52.7550 Y58.6215
G01 X44.1809
G01 X44.5248 Y60.1215
G01 X43.7316
G01 X43.7288 Y61.6215
G01 X44.5269
G01 X44.1923 Y63.1215
G01 X53.5666
M107
G00 Z2.0000
G00 X53.9442 Y54.1215
G00 Z0.5000
G01 Z-1.2000 F400
M106 S240
G01 Y52.6215 F1000
G01 X44.1968
G01 X44.0198 Y52.5284
G01 X43.8461 Y52.8978
G01 X43.7049 Y53.2807
G01 X43.5972 Y53.6744
G01 X43.5239 Y54.0759
G01 X44.2112 Y54.0778
G01 X44.3994 Y54.0157
G01 X44.4363 Y53.9185
G01 X44.4790 Y53.8238
G01 X44.5272 Y53.7317
G01 X44.5809 Y53.6427
G01 X44.6397 Y53.5570
G01 X44.7035 Y53.4749
G01 X44.7721 Y53.3969
G01 X44.8452 Y53.3230
G01 X44.9226 Y53.2536
G01 X45.0040 Y53.1889
G01 X45.0890 Y53.1292
G01 X45.1775 Y53.0747
G01 X45.2691 Y53.0255
G01 X45.3634 Y52.9818
G01 X45.4602 Y52.9439
G01 X45.5590 Y52.9117
G01 X45.6596 Y52.8855
G01 X45.7615 Y52.8654
G01 X45.8645 Y52.8513
G01 X45.9681 Y52.8434
G01 X52.0401
G01 X52.1437 Y52.8503
G01 X52.2467 Y52.8635
G01 X52.3488 Y52.8827
G01 X52.4496 Y52.9079
G01 X52.5487 Y52.9391
G01 X52.6457 Y52.9761
G01 X52.7404 Y53.0188
G01 X52.8324 Y53.0670
G01 X52.9213 Y53.1206
G01 X53.0069 Y53.1795
G01 X53.0889 Y53.2433
G01 X53.1669 Y53.3118
G01 X53.2408 Y53.3849
G01 X53.3101 Y53.4622
G01 X53.3748 Y53.5435
G01 X53.4344 Y53.6285
G01 X53.4890 Y53.7169
G01 X53.5382 Y53.8084
G01 X53.5818 Y53.9026
G01 X53.6198 Y53.9993
G01 X53.6661 Y54.1177
G01 X53.7061 Y54.2383
G01 X53.7399 Y54.3608
G01 X53.7672 Y54.4850
G01 X53.7880 Y54.6103
G01 X53.8023 Y54.7366
G01 X53.8100 Y54.8635
G01 X53.8110 Y54.9906
G01 X53.8055 Y55.1176
G01 X53.7934 Y55.2441
G01 X53.7747 Y55.3698
G01 X53.7496 Y55.4944
G01 X53.7180 Y55.6175
G01 X53.6800 Y55.7388
G01 X53.6358 Y55.8579
G01 X53.5854 Y55.9746
G01 X53.5290 Y56.0885
G01 X53.4669 Y56.1994
G01 X53.3990 Y56.3068
G01 X53.3256 Y56.4106
G01 X53.2470 Y56.5104
G01 X53.1632 Y56.6060
G01 X53.0746 Y56.6971
G01 X52.9814 Y56.7835
G01 X52.9098 Y56.8357
G01 X52.8352 Y56.8835
G01 X52.7579 Y56.9268
G01 X52.6781 Y56.9654
G01 X52.5962 Y56.9991
G01 X52.5123 Y57.0278
G01 X52.4270 Y57.0515
G01 X52.3403 Y57.0700
G01 X52.2527 Y57.0833
G01 X52.1645 Y57.0913
G01 X52.0759 Y57.0940
G01 X51.9873 Y57.0914
G01 X45.8284
G01 X45.7238 Y57.0986
G01 X45.6199 Y57.1119
G01 X45.5169 Y57.1313
G01 X45.4152 Y57.1567
G01 X45.3152 Y57.1881
G01 X45.2173 Y57.2254
G01 X45.1217 Y57.2683
G01 X45.0288 Y57.3168
G01 X44.9389 Y57.3707
G01 X44.8524 Y57.4299
G01 X44.7695 Y57.4940
G01 X44.6905 Y57.5629
G01 X44.6157 Y57.6363
G01 X44.5454 Y57.7140
G01 X44.4798 Y57.7957
G01 X44.4191 Y57.8812
G01 X44.2521 Y58.1249
G01 X44.0999 Y58.3781
G01 X43.9633 Y58.6401
G01 X43.8427 Y58.9098
G01 X43.7384 Y59.1862
G01 X43.6510 Y59.4684
G01 X43.5807 Y59.7554
G01 X43.5278 Y60.0460
G01 X43.4924 Y60.3393
G01 X43.4747 Y60.6342
G01 X43.4748 Y60.9297
G01 X43.4926 Y61.2246
G01 X43.5047 Y61.5080
G01 X43.5361 Y61.7900
G01 X43.5867 Y62.0691
G01 X43.6562 Y62.3442
G01 X43.7444 Y62.6138
G01 X43.8508 Y62.8768
G01 X43.9749 Y63.1319
G01 X44.1161 Y63.3779
G01 X44.2739 Y63.6137
G01 X44.4474 Y63.8382
G01 X44.6358 Y64.0503
G01 X44.8383 Y64.2490
G01 X44.9074 Y64.3045
G01 X44.9793 Y64.3564
G01 X45.0540 Y64.4043
G01 X45.1310 Y64.4482
G01 X45.2103 Y64.4879
