;Project TeslaSexyCars01
;Created by Estlcam version 11 build 11,227
;Machining time about 00:18:59 hours

G90
M03 S18000
G00 X0.0000 Y0.0000 Z0.0000
G00 Z2.0000


;No. 1: Helical drill 1
G00 X28.1473 Y262.9649
G00 Z0.5000
M106 S240
G01 X28.1435 Y262.8778 Z0.4774 F400 S18000
G01 X28.1321 Y262.7913 Z0.4549
G01 X28.1132 Y262.7061 Z0.4323
G01 X28.0870 Y262.6229 Z0.4097
G01 X28.0536 Y262.5423 Z0.3872
G01 X28.0133 Y262.4649 Z0.3646
G01 X27.9664 Y262.3914 Z0.3420
G01 X27.9133 Y262.3222 Z0.3194
G01 X27.8544 Y262.2578 Z0.2969
G01 X27.7900 Y262.1989 Z0.2743
G01 X27.7208 Y262.1458 Z0.2517
G01 X27.6473 Y262.0989 Z0.2292
G01 X27.5699 Y262.0586 Z0.2066
G01 X27.4893 Y262.0252 Z0.1840
G01 X27.4061 Y261.9990 Z0.1615
G01 X27.3209 Y261.9801 Z0.1389
G01 X27.2344 Y261.9687 Z0.1163
G01 X27.1473 Y261.9649 Z0.0938
G01 X27.0601 Y261.9687 Z0.0712
G01 X26.9736 Y261.9801 Z0.0486
G01 X26.8884 Y261.9990 Z0.0260
G01 X26.8052 Y262.0252 Z0.0035
G01 X26.7246 Y262.0586 Z-0.0191
G01 X26.6473 Y262.0989 Z-0.0417
G01 X26.6066 Y262.1237 Z-0.0540
G01 X26.5672 Y262.1504 Z-0.0663
G01 X26.5291 Y262.1789 Z-0.0786
G01 X26.4924 Y262.2092 Z-0.0909
G01 X26.4572 Y262.2412 Z-0.1032
G01 X26.4235 Y262.2749 Z-0.1155
G01 X26.3915 Y262.3101 Z-0.1278
G01 X26.3612 Y262.3468 Z-0.1402
G01 X26.3327 Y262.3849 Z-0.1525
G01 X26.3060 Y262.4243 Z-0.1648
G01 X26.2812 Y262.4649 Z-0.1771
G01 X26.2584 Y262.5067 Z-0.1894
G01 X26.2376 Y262.5495 Z-0.2017
G01 X26.2189 Y262.5933 Z-0.2140
G01 X26.2023 Y262.6379 Z-0.2263
G01 X26.1878 Y262.6832 Z-0.2386
G01 X26.1755 Y262.7292 Z-0.2509
G01 X26.1653 Y262.7757 Z-0.2633
G01 X26.1574 Y262.8226 Z-0.2756
G01 X26.1518 Y262.8699 Z-0.2879
G01 X26.1484 Y262.9174 Z-0.3002
G01 X26.1473 Y262.9649 Z-0.3125
G01 X26.1484 Y263.0125 Z-0.3248
G01 X26.1518 Y263.0600 Z-0.3371
G01 X26.1574 Y263.1073 Z-0.3494
G01 X26.1653 Y263.1542 Z-0.3617
G01 X26.1755 Y263.2007 Z-0.3741
G01 X26.1878 Y263.2467 Z-0.3864
G01 X26.2023 Y263.2920 Z-0.3987
G01 X26.2189 Y263.3366 Z-0.4110
G01 X26.2376 Y263.3804 Z-0.4233
G01 X26.2584 Y263.4232 Z-0.4356
G01 X26.2812 Y263.4649 Z-0.4479
G01 X26.3060 Y263.5056 Z-0.4602
G01 X26.3327 Y263.5450 Z-0.4725
G01 X26.3612 Y263.5831 Z-0.4848
G01 X26.3915 Y263.6198 Z-0.4972
G01 X26.4235 Y263.6550 Z-0.5095
G01 X26.4572 Y263.6887 Z-0.5218
G01 X26.4924 Y263.7207 Z-0.5341
G01 X26.5291 Y263.7510 Z-0.5464
G01 X26.5672 Y263.7795 Z-0.5587
G01 X26.6066 Y263.8062 Z-0.5710
G01 X26.6473 Y263.8310 Z-0.5833
G01 X26.6890 Y263.8538 Z-0.5956
G01 X26.7318 Y263.8746 Z-0.6080
G01 X26.7756 Y263.8933 Z-0.6203
G01 X26.8202 Y263.9099 Z-0.6326
G01 X26.8655 Y263.9244 Z-0.6449
G01 X26.9115 Y263.9368 Z-0.6572
G01 X26.9580 Y263.9469 Z-0.6695
G01 X27.0049 Y263.9548 Z-0.6818
G01 X27.0522 Y263.9604 Z-0.6941
G01 X27.0997 Y263.9638 Z-0.7064
G01 X27.1473 Y263.9649 Z-0.7188
G01 X27.1948 Y263.9638 Z-0.7311
G01 X27.2423 Y263.9604 Z-0.7434
G01 X27.2896 Y263.9548 Z-0.7557
G01 X27.3365 Y263.9469 Z-0.7680
G01 X27.3830 Y263.9368 Z-0.7803
G01 X27.4290 Y263.9244 Z-0.7926
G01 X27.4743 Y263.9099 Z-0.8049
G01 X27.5189 Y263.8933 Z-0.8172
G01 X27.5627 Y263.8746 Z-0.8295
G01 X27.6055 Y263.8538 Z-0.8419
G01 X27.6473 Y263.8310 Z-0.8542
G01 X27.6879 Y263.8062 Z-0.8665
G01 X27.7273 Y263.7795 Z-0.8788
G01 X27.7654 Y263.7510 Z-0.8911
G01 X27.8021 Y263.7207 Z-0.9034
G01 X27.8373 Y263.6887 Z-0.9157
G01 X27.8710 Y263.6550 Z-0.9280
G01 X27.9030 Y263.6198 Z-0.9403
G01 X27.9333 Y263.5831 Z-0.9527
G01 X27.9618 Y263.5450 Z-0.9650
G01 X27.9885 Y263.5056 Z-0.9773
G01 X28.0133 Y263.4649 Z-0.9896
G01 X28.0361 Y263.4232 Z-1.0019
G01 X28.0569 Y263.3804 Z-1.0142
G01 X28.0756 Y263.3366 Z-1.0265
G01 X28.0923 Y263.2920 Z-1.0388
G01 X28.1068 Y263.2467 Z-1.0511
G01 X28.1191 Y263.2007 Z-1.0634
G01 X28.1292 Y263.1542 Z-1.0758
G01 X28.1371 Y263.1073 Z-1.0881
G01 X28.1427 Y263.0600 Z-1.1004
G01 X28.1461 Y263.0125 Z-1.1127
G01 X28.1473 Y262.9649 Z-1.1250
G01 X28.1435 Y262.8778
G01 X28.1321 Y262.7913
G01 X28.1132 Y262.7061
G01 X28.0870 Y262.6229
G01 X28.0536 Y262.5423
G01 X28.0133 Y262.4649
G01 X27.9664 Y262.3914
G01 X27.9133 Y262.3222
G01 X27.8544 Y262.2578
G01 X27.7900 Y262.1989
G01 X27.7208 Y262.1458
G01 X27.6473 Y262.0989
G01 X27.5699 Y262.0586
G01 X27.4893 Y262.0252
G01 X27.4061 Y261.9990
G01 X27.3209 Y261.9801
G01 X27.2344 Y261.9687
G01 X27.1473 Y261.9649
G01 X27.0601 Y261.9687
G01 X26.9736 Y261.9801
G01 X26.8884 Y261.9990
G01 X26.8052 Y262.0252
G01 X26.7246 Y262.0586
G01 X26.6473 Y262.0989
G01 X26.6066 Y262.1237
G01 X26.5672 Y262.1504
G01 X26.5291 Y262.1789
G01 X26.4924 Y262.2092
G01 X26.4572 Y262.2412
G01 X26.4235 Y262.2749
G01 X26.3915 Y262.3101
G01 X26.3612 Y262.3468
G01 X26.3327 Y262.3849
G01 X26.3060 Y262.4243
G01 X26.2812 Y262.4649
G01 X26.2584 Y262.5067
G01 X26.2376 Y262.5495
G01 X26.2189 Y262.5933
G01 X26.2023 Y262.6379
G01 X26.1878 Y262.6832
G01 X26.1755 Y262.7292
G01 X26.1653 Y262.7757
G01 X26.1574 Y262.8226
G01 X26.1518 Y262.8699
G01 X26.1484 Y262.9174
G01 X26.1473 Y262.9649
G01 X26.1484 Y263.0125
G01 X26.1518 Y263.0600
G01 X26.1574 Y263.1073
G01 X26.1653 Y263.1542
G01 X26.1755 Y263.2007
G01 X26.1878 Y263.2467
G01 X26.2023 Y263.2920
G01 X26.2189 Y263.3366
G01 X26.2376 Y263.3804
G01 X26.2584 Y263.4232
G01 X26.2812 Y263.4649
G01 X26.3060 Y263.5056
G01 X26.3327 Y263.5450
G01 X26.3612 Y263.5831
G01 X26.3915 Y263.6198
G01 X26.4235 Y263.6550
G01 X26.4572 Y263.6887
G01 X26.4924 Y263.7207
G01 X26.5291 Y263.7510
G01 X26.5672 Y263.7795
G01 X26.6066 Y263.8062
G01 X26.6473 Y263.8310
G01 X26.6890 Y263.8538
G01 X26.7318 Y263.8746
G01 X26.7756 Y263.8933
G01 X26.8202 Y263.9099
G01 X26.8655 Y263.9244
G01 X26.9115 Y263.9368
G01 X26.9580 Y263.9469
G01 X27.0049 Y263.9548
G01 X27.0522 Y263.9604
G01 X27.0997 Y263.9638
G01 X27.1473 Y263.9649
G01 X27.1948 Y263.9638
G01 X27.2423 Y263.9604
G01 X27.2896 Y263.9548
G01 X27.3365 Y263.9469
G01 X27.3830 Y263.9368
G01 X27.4290 Y263.9244
G01 X27.4743 Y263.9099
G01 X27.5189 Y263.8933
G01 X27.5627 Y263.8746
G01 X27.6055 Y263.8538
G01 X27.6473 Y263.8310
G01 X27.6879 Y263.8062
G01 X27.7273 Y263.7795
G01 X27.7654 Y263.7510
G01 X27.8021 Y263.7207
G01 X27.8373 Y263.6887
G01 X27.8710 Y263.6550
G01 X27.9030 Y263.6198
G01 X27.9333 Y263.5831
G01 X27.9618 Y263.5450
G01 X27.9885 Y263.5056
G01 X28.0133 Y263.4649
G01 X28.0361 Y263.4232
G01 X28.0569 Y263.3804
G01 X28.0756 Y263.3366
G01 X28.0923 Y263.2920
G01 X28.1068 Y263.2467
G01 X28.1191 Y263.2007
G01 X28.1292 Y263.1542
G01 X28.1371 Y263.1073
G01 X28.1427 Y263.0600
G01 X28.1461 Y263.0125
G01 X28.1473 Y262.9649
G01 X28.1580 Y262.9133 F1000
G01 X28.1661 Y262.8613
G01 X28.1715 Y262.8088
G01 X28.1741 Y262.7562
G01 Y262.7035
G01 X28.1714 Y262.6509
G01 X28.1659 Y262.5985
G01 X28.1578 Y262.5464
G01 X28.1460 Y262.4904
G01 X28.1315 Y262.4351
G01 X28.1141 Y262.3806
G01 X28.0940 Y262.3271
G01 X28.0711 Y262.2746
G01 X28.0456 Y262.2234
G01 X28.0175 Y262.1736
G01 X27.9870 Y262.1253
G01 X27.9513 Y262.0749
G01 X27.9132 Y262.0263
G01 X27.8727 Y261.9798
G01 X27.8298 Y261.9354
G01 X27.7848 Y261.8932
G01 X27.7376 Y261.8534
G01 X27.6885 Y261.8160
G01 X27.6376 Y261.7812
G01 X27.5811 Y261.7467
G01 X27.5229 Y261.7150
G01 X27.4632 Y261.6863
G01 X27.4021 Y261.6607
G01 X27.3398 Y261.6382
G01 X27.2765 Y261.6189
G01 X27.2122 Y261.6028
G01 X27.1473 Y261.5899
G01 X27.0772 Y261.5798
G01 X27.0068 Y261.5731
G01 X26.9361 Y261.5700
G01 X26.8653 Y261.5705
G01 X26.7947 Y261.5746
G01 X26.7243 Y261.5822
G01 X26.6544 Y261.5933
G01 X26.5852 Y261.6080
G01 X26.5170 Y261.6339
G01 X26.4502 Y261.6632
G01 X26.3849 Y261.6958
G01 X26.3212 Y261.7315
G01 X26.2594 Y261.7703
G01 X26.1996 Y261.8120
G01 X26.1419 Y261.8567
G01 X26.0865 Y261.9042
G01 X26.0357 Y261.9575
G01 X25.9876 Y262.0133
G01 X25.9423 Y262.0713
G01 X25.8999 Y262.1315
G01 X25.8606 Y262.1937
G01 X25.8243 Y262.2578
G01 X25.7912 Y262.3236
G01 X25.7613 Y262.3909
G01 X25.7348 Y262.4596
G01 X25.7117 Y262.5295
G01 X25.6921 Y262.6004
G01 X25.6760 Y262.6723
G01 X25.6634 Y262.7448
G01 X25.6544 Y262.8179
G01 X25.6489 Y262.8913
G01 X25.6471 Y262.9649
G01 X25.6489 Y263.0385
G01 X25.6544 Y263.1120
G01 X25.6634 Y263.1851
G01 X25.6760 Y263.2576
G01 X25.6921 Y263.3294
G01 X25.7117 Y263.4004
G01 X25.7348 Y263.4703
G01 X25.7613 Y263.5390
G01 X25.7912 Y263.6063
G01 X25.8243 Y263.6721
G01 X25.8606 Y263.7362
G01 X25.8999 Y263.7984
G01 X25.9423 Y263.8586
G01 X25.9876 Y263.9166
G01 X26.0357 Y263.9724
G01 X26.0865 Y264.0257
G01 X26.1398 Y264.0765
G01 X26.1956 Y264.1246
G01 X26.2536 Y264.1699
G01 X26.3138 Y264.2123
G01 X26.3760 Y264.2516
G01 X26.4401 Y264.2879
G01 X26.5059 Y264.3210
G01 X26.5732 Y264.3509
G01 X26.6419 Y264.3774
G01 X26.7118 Y264.4005
G01 X26.7828 Y264.4201
G01 X26.8546 Y264.4362
G01 X26.9271 Y264.4488
G01 X27.0002 Y264.4578
G01 X27.0737 Y264.4633
G01 X27.1473 Y264.4651
G01 X27.2209 Y264.4633
G01 X27.2943 Y264.4578
G01 X27.3674 Y264.4488
G01 X27.4399 Y264.4362
G01 X27.5118 Y264.4201
G01 X27.5827 Y264.4005
G01 X27.6526 Y264.3774
G01 X27.7213 Y264.3509
G01 X27.7886 Y264.3210
G01 X27.8544 Y264.2879
G01 X27.9185 Y264.2516
G01 X27.9807 Y264.2123
G01 X28.0409 Y264.1699
G01 X28.0989 Y264.1246
G01 X28.1547 Y264.0765
G01 X28.2080 Y264.0257
G01 X28.2588 Y263.9724
G01 X28.3069 Y263.9166
G01 X28.3522 Y263.8586
G01 X28.3946 Y263.7984
G01 X28.4340 Y263.7362
G01 X28.4703 Y263.6721
G01 X28.5034 Y263.6063
G01 X28.5332 Y263.5390
G01 X28.5597 Y263.4703
G01 X28.5828 Y263.4004
G01 X28.6024 Y263.3294
G01 X28.6186 Y263.2576
G01 X28.6312 Y263.1851
G01 X28.6402 Y263.1120
G01 X28.6456 Y263.0385
G01 X28.6474 Y262.9649
G01 X28.6432 Y262.8528
G01 X28.6306 Y262.7414
G01 X28.6098 Y262.6311
G01 X28.5807 Y262.5228
G01 X28.5437 Y262.4169
G01 X28.4988 Y262.3141
G01 X28.4464 Y262.2149
G01 X28.3867 Y262.1199
G01 X28.3201 Y262.0296
G01 X28.2469 Y261.9446
G01 X28.1676 Y261.8653
G01 X28.0826 Y261.7921
G01 X27.9923 Y261.7255
G01 X27.8973 Y261.6658
G01 X27.7981 Y261.6134
G01 X27.6953 Y261.5685
G01 X27.5894 Y261.5315
G01 X27.4811 Y261.5024
G01 X27.3708 Y261.4816
G01 X27.2594 Y261.4690
G01 X27.1473 Y261.4648
G01 X27.0352 Y261.4690
G01 X26.9237 Y261.4816
G01 X26.8135 Y261.5024
G01 X26.7051 Y261.5315
G01 X26.5992 Y261.5685
G01 X26.4964 Y261.6134
G01 X26.3972 Y261.6658
G01 X26.3022 Y261.7255
G01 X26.2119 Y261.7921
G01 X26.1269 Y261.8653
G01 X26.0476 Y261.9446
G01 X25.9744 Y262.0296
G01 X25.9078 Y262.1199
G01 X25.8481 Y262.2149
G01 X25.7957 Y262.3141
G01 X25.7508 Y262.4169
G01 X25.7138 Y262.5228
G01 X25.6847 Y262.6311
G01 X25.6639 Y262.7414
G01 X25.6513 Y262.8528
G01 X25.6471 Y262.9649
G01 X25.6513 Y263.0770
G01 X25.6639 Y263.1885
G01 X25.6847 Y263.2988
G01 X25.7138 Y263.4071
G01 X25.7508 Y263.5130
G01 X25.7957 Y263.6158
G01 X25.8481 Y263.7150
G01 X25.9078 Y263.8100
G01 X25.9744 Y263.9003
G01 X26.0476 Y263.9853
G01 X26.1269 Y264.0646
G01 X26.2119 Y264.1378
G01 X26.3022 Y264.2044
G01 X26.3972 Y264.2641
G01 X26.4964 Y264.3165
G01 X26.5992 Y264.3614
G01 X26.7051 Y264.3984
G01 X26.8135 Y264.4275
G01 X26.9237 Y264.4483
G01 X27.0352 Y264.4609
G01 X27.1473 Y264.4651
G01 X27.2594 Y264.4609
G01 X27.3708 Y264.4483
G01 X27.4811 Y264.4275
G01 X27.5894 Y264.3984
G01 X27.6953 Y264.3614
G01 X27.7981 Y264.3165
G01 X27.8973 Y264.2641
G01 X27.9923 Y264.2044
G01 X28.0826 Y264.1378
G01 X28.1676 Y264.0646
G01 X28.2469 Y263.9853
G01 X28.3201 Y263.9003
G01 X28.3867 Y263.8100
G01 X28.4464 Y263.7150
G01 X28.4988 Y263.6158
G01 X28.5437 Y263.5130
G01 X28.5807 Y263.4071
G01 X28.6098 Y263.2988
G01 X28.6306 Y263.1885
G01 X28.6432 Y263.0770
G01 X28.6474 Y262.9649
G01 X28.6435 Y262.8669
G01 X28.6320 Y262.7694
G01 X28.6129 Y262.6731
G01 X28.5862 Y262.5787
G01 X28.5522 Y262.4866
G01 X28.5111 Y262.3974
G01 X28.4632 Y262.3118
G01 X28.4086 Y262.2302
G01 X28.3479 Y262.1531
G01 X28.2813 Y262.0810
G01 X28.2092 Y262.0144
G01 X28.1321 Y261.9536
G01 X28.0505 Y261.8991
G01 X27.9648 Y261.8511
G01 X27.8757 Y261.8100
G01 X27.7836 Y261.7761
G01 X27.6891 Y261.7494
G01 X27.5929 Y261.7303
G01 X27.4954 Y261.7187
G01 X27.3973 Y261.7149
G01 X27.2992 Y261.7187
G01 X27.2018 Y261.7303
G01 X27.1055 Y261.7494
G01 X27.0110 Y261.7761
G01 X26.9189 Y261.8100
G01 X26.8298 Y261.8511
G01 X26.7442 Y261.8991
G01 X26.6626 Y261.9536
G01 X26.5855 Y262.0144
G01 X26.5134 Y262.0810
G01 X26.4468 Y262.1531
G01 X26.3860 Y262.2302
G01 X26.3315 Y262.3118
G01 X26.2835 Y262.3974
G01 X26.2424 Y262.4866
G01 X26.2084 Y262.5787
G01 X26.1818 Y262.6731
G01 X26.1627 Y262.7694
G01 X26.1511 Y262.8669
G01 X26.1473 Y262.9649
G01 X26.1511 Y263.0521
G01 X26.1625 Y263.1386
G01 X26.1813 Y263.2238
G01 X26.2076 Y263.3070
G01 X26.2410 Y263.3876
G01 X26.2812 Y263.4649
G01 X26.3281 Y263.5385
G01 X26.3812 Y263.6077
G01 X26.4402 Y263.6720
G01 X26.5045 Y263.7310
G01 X26.5737 Y263.7841
G01 X26.6473 Y263.8310
G01 X26.7246 Y263.8712
G01 X26.8052 Y263.9046
G01 X26.8884 Y263.9309
G01 X26.9736 Y263.9497
G01 X27.0601 Y263.9611
G01 X27.1473 Y263.9649
G01 X27.2344 Y263.9611
G01 X27.3209 Y263.9497
G01 X27.4061 Y263.9309
G01 X27.4893 Y263.9046
G01 X27.5699 Y263.8712
G01 X27.6473 Y263.8310
G01 X27.7208 Y263.7841
G01 X27.7900 Y263.7310
G01 X27.8544 Y263.6720
G01 X27.9133 Y263.6077
G01 X27.9664 Y263.5385
G01 X28.0133 Y263.4649
G01 X28.0536 Y263.3876
G01 X28.0870 Y263.3070
G01 X28.1132 Y263.2238
G01 X28.1321 Y263.1386
G01 X28.1435 Y263.0521
G01 X28.1473 Y262.9649
M107
M106 S240
G01 X28.1435 Y262.8778 Z-1.1476 F400
G01 X28.1321 Y262.7913 Z-1.1701
G01 X28.1132 Y262.7061 Z-1.1927
G01 X28.0870 Y262.6229 Z-1.2153
G01 X28.0536 Y262.5423 Z-1.2378
G01 X28.0133 Y262.4649 Z-1.2604
G01 X27.9664 Y262.3914 Z-1.2830
G01 X27.9133 Y262.3222 Z-1.3056
G01 X27.8544 Y262.2578 Z-1.3281
G01 X27.7900 Y262.1989 Z-1.3507
G01 X27.7208 Y262.1458 Z-1.3733
G01 X27.6473 Y262.0989 Z-1.3958
G01 X27.5699 Y262.0586 Z-1.4184
G01 X27.4893 Y262.0252 Z-1.4410
G01 X27.4061 Y261.9990 Z-1.4635
G01 X27.3209 Y261.9801 Z-1.4861
G01 X27.2344 Y261.9687 Z-1.5087
G01 X27.1473 Y261.9649 Z-1.5313
G01 X27.0601 Y261.9687 Z-1.5538
G01 X26.9736 Y261.9801 Z-1.5764
G01 X26.8884 Y261.9990 Z-1.5990
G01 X26.8052 Y262.0252 Z-1.6215
G01 X26.7246 Y262.0586 Z-1.6441
G01 X26.6473 Y262.0989 Z-1.6667
G01 X26.6066 Y262.1237 Z-1.6790
G01 X26.5672 Y262.1504 Z-1.6913
G01 X26.5291 Y262.1789 Z-1.7036
G01 X26.4924 Y262.2092 Z-1.7159
G01 X26.4572 Y262.2412 Z-1.7282
G01 X26.4235 Y262.2749 Z-1.7405
G01 X26.3915 Y262.3101 Z-1.7528
G01 X26.3612 Y262.3468 Z-1.7652
G01 X26.3327 Y262.3849 Z-1.7775
G01 X26.3060 Y262.4243 Z-1.7898
G01 X26.2812 Y262.4649 Z-1.8021
G01 X26.2584 Y262.5067 Z-1.8144
G01 X26.2376 Y262.5495 Z-1.8267
G01 X26.2189 Y262.5933 Z-1.8390
G01 X26.2023 Y262.6379 Z-1.8513
G01 X26.1878 Y262.6832 Z-1.8636
G01 X26.1755 Y262.7292 Z-1.8759
G01 X26.1653 Y262.7757 Z-1.8883
G01 X26.1574 Y262.8226 Z-1.9006
G01 X26.1518 Y262.8699 Z-1.9129
G01 X26.1484 Y262.9174 Z-1.9252
G01 X26.1473 Y262.9649 Z-1.9375
G01 X26.1484 Y263.0125 Z-1.9498
G01 X26.1518 Y263.0600 Z-1.9621
G01 X26.1574 Y263.1073 Z-1.9744
G01 X26.1653 Y263.1542 Z-1.9867
G01 X26.1755 Y263.2007 Z-1.9991
G01 X26.1878 Y263.2467 Z-2.0114
G01 X26.2023 Y263.2920 Z-2.0237
G01 X26.2189 Y263.3366 Z-2.0360
G01 X26.2376 Y263.3804 Z-2.0483
G01 X26.2584 Y263.4232 Z-2.0606
G01 X26.2812 Y263.4649 Z-2.0729
G01 X26.3060 Y263.5056 Z-2.0852
G01 X26.3327 Y263.5450 Z-2.0975
G01 X26.3612 Y263.5831 Z-2.1098
G01 X26.3915 Y263.6198 Z-2.1222
G01 X26.4235 Y263.6550 Z-2.1345
G01 X26.4572 Y263.6887 Z-2.1468
G01 X26.4924 Y263.7207 Z-2.1591
G01 X26.5291 Y263.7510 Z-2.1714
G01 X26.5672 Y263.7795 Z-2.1837
G01 X26.6066 Y263.8062 Z-2.1960
G01 X26.6473 Y263.8310 Z-2.2083
G01 X26.6890 Y263.8538 Z-2.2206
G01 X26.7318 Y263.8746 Z-2.2330
G01 X26.7756 Y263.8933 Z-2.2453
G01 X26.8202 Y263.9099 Z-2.2576
G01 X26.8655 Y263.9244 Z-2.2699
G01 X26.9115 Y263.9368 Z-2.2822
G01 X26.9580 Y263.9469 Z-2.2945
G01 X27.0049 Y263.9548 Z-2.3068
G01 X27.0522 Y263.9604 Z-2.3191
G01 X27.0997 Y263.9638 Z-2.3314
G01 X27.1473 Y263.9649 Z-2.3438
G01 X27.1948 Y263.9638 Z-2.3561
G01 X27.2423 Y263.9604 Z-2.3684
G01 X27.2896 Y263.9548 Z-2.3807
G01 X27.3365 Y263.9469 Z-2.3930
G01 X27.3830 Y263.9368 Z-2.4053
G01 X27.4290 Y263.9244 Z-2.4176
G01 X27.4743 Y263.9099 Z-2.4299
G01 X27.5189 Y263.8933 Z-2.4422
G01 X27.5627 Y263.8746 Z-2.4545
G01 X27.6055 Y263.8538 Z-2.4669
G01 X27.6473 Y263.8310 Z-2.4792
G01 X27.6879 Y263.8062 Z-2.4915
G01 X27.7273 Y263.7795 Z-2.5038
G01 X27.7654 Y263.7510 Z-2.5161
G01 X27.8021 Y263.7207 Z-2.5284
G01 X27.8373 Y263.6887 Z-2.5407
G01 X27.8710 Y263.6550 Z-2.5530
G01 X27.9030 Y263.6198 Z-2.5653
G01 X27.9333 Y263.5831 Z-2.5777
G01 X27.9618 Y263.5450 Z-2.5900
G01 X27.9885 Y263.5056 Z-2.6023
G01 X28.0133 Y263.4649 Z-2.6146
G01 X28.0361 Y263.4232 Z-2.6269
G01 X28.0569 Y263.3804 Z-2.6392
G01 X28.0756 Y263.3366 Z-2.6515
G01 X28.0923 Y263.2920 Z-2.6638
G01 X28.1068 Y263.2467 Z-2.6761
G01 X28.1191 Y263.2007 Z-2.6884
G01 X28.1292 Y263.1542 Z-2.7008
G01 X28.1371 Y263.1073 Z-2.7131
G01 X28.1427 Y263.0600 Z-2.7254
G01 X28.1461 Y263.0125 Z-2.7377
G01 X28.1473 Y262.9649 Z-2.7500
G01 X28.1435 Y262.8778
G01 X28.1321 Y262.7913
G01 X28.1132 Y262.7061
G01 X28.0870 Y262.6229
G01 X28.0536 Y262.5423
G01 X28.0133 Y262.4649
G01 X27.9664 Y262.3914
G01 X27.9133 Y262.3222
G01 X27.8544 Y262.2578
G01 X27.7900 Y262.1989
G01 X27.7208 Y262.1458
G01 X27.6473 Y262.0989
G01 X27.5699 Y262.0586
G01 X27.4893 Y262.0252
G01 X27.4061 Y261.9990
G01 X27.3209 Y261.9801
G01 X27.2344 Y261.9687
G01 X27.1473 Y261.9649
G01 X27.0601 Y261.9687
G01 X26.9736 Y261.9801
G01 X26.8884 Y261.9990
G01 X26.8052 Y262.0252
G01 X26.7246 Y262.0586
G01 X26.6473 Y262.0989
G01 X26.6066 Y262.1237
G01 X26.5672 Y262.1504
G01 X26.5291 Y262.1789
G01 X26.4924 Y262.2092
G01 X26.4572 Y262.2412
G01 X26.4235 Y262.2749
G01 X26.3915 Y262.3101
G01 X26.3612 Y262.3468
G01 X26.3327 Y262.3849
G01 X26.3060 Y262.4243
G01 X26.2812 Y262.4649
G01 X26.2584 Y262.5067
G01 X26.2376 Y262.5495
G01 X26.2189 Y262.5933
G01 X26.2023 Y262.6379
G01 X26.1878 Y262.6832
G01 X26.1755 Y262.7292
G01 X26.1653 Y262.7757
G01 X26.1574 Y262.8226
G01 X26.1518 Y262.8699
G01 X26.1484 Y262.9174
G01 X26.1473 Y262.9649
G01 X26.1484 Y263.0125
G01 X26.1518 Y263.0600
G01 X26.1574 Y263.1073
G01 X26.1653 Y263.1542
G01 X26.1755 Y263.2007
G01 X26.1878 Y263.2467
G01 X26.2023 Y263.2920
G01 X26.2189 Y263.3366
G01 X26.2376 Y263.3804
G01 X26.2584 Y263.4232
G01 X26.2812 Y263.4649
G01 X26.3060 Y263.5056
G01 X26.3327 Y263.5450
G01 X26.3612 Y263.5831
G01 X26.3915 Y263.6198
G01 X26.4235 Y263.6550
G01 X26.4572 Y263.6887
G01 X26.4924 Y263.7207
G01 X26.5291 Y263.7510
G01 X26.5672 Y263.7795
G01 X26.6066 Y263.8062
G01 X26.6473 Y263.8310
G01 X26.6890 Y263.8538
G01 X26.7318 Y263.8746
G01 X26.7756 Y263.8933
G01 X26.8202 Y263.9099
G01 X26.8655 Y263.9244
G01 X26.9115 Y263.9368
G01 X26.9580 Y263.9469
G01 X27.0049 Y263.9548
G01 X27.0522 Y263.9604
G01 X27.0997 Y263.9638
G01 X27.1473 Y263.9649
G01 X27.1948 Y263.9638
G01 X27.2423 Y263.9604
G01 X27.2896 Y263.9548
G01 X27.3365 Y263.9469
G01 X27.3830 Y263.9368
G01 X27.4290 Y263.9244
G01 X27.4743 Y263.9099
G01 X27.5189 Y263.8933
G01 X27.5627 Y263.8746
G01 X27.6055 Y263.8538
G01 X27.6473 Y263.8310
G01 X27.6879 Y263.8062
G01 X27.7273 Y263.7795
G01 X27.7654 Y263.7510
G01 X27.8021 Y263.7207
G01 X27.8373 Y263.6887
G01 X27.8710 Y263.6550
G01 X27.9030 Y263.6198
G01 X27.9333 Y263.5831
G01 X27.9618 Y263.5450
G01 X27.9885 Y263.5056
G01 X28.0133 Y263.4649
G01 X28.0361 Y263.4232
G01 X28.0569 Y263.3804
G01 X28.0756 Y263.3366
G01 X28.0923 Y263.2920
G01 X28.1068 Y263.2467
G01 X28.1191 Y263.2007
G01 X28.1292 Y263.1542
G01 X28.1371 Y263.1073
G01 X28.1427 Y263.0600
G01 X28.1461 Y263.0125
G01 X28.1473 Y262.9649
G01 X28.1580 Y262.9133 F1000
G01 X28.1661 Y262.8613
G01 X28.1715 Y262.8088
G01 X28.1741 Y262.7562
G01 Y262.7035
G01 X28.1714 Y262.6509
G01 X28.1659 Y262.5985
G01 X28.1578 Y262.5464
G01 X28.1460 Y262.4904
G01 X28.1315 Y262.4351
G01 X28.1141 Y262.3806
G01 X28.0940 Y262.3271
G01 X28.0711 Y262.2746
G01 X28.0456 Y262.2234
G01 X28.0175 Y262.1736
G01 X27.9870 Y262.1253
G01 X27.9513 Y262.0749
G01 X27.9132 Y262.0263
G01 X27.8727 Y261.9798
G01 X27.8298 Y261.9354
G01 X27.7848 Y261.8932
G01 X27.7376 Y261.8534
G01 X27.6885 Y261.8160
G01 X27.6376 Y261.7812
G01 X27.5811 Y261.7467
G01 X27.5229 Y261.7150
G01 X27.4632 Y261.6863
G01 X27.4021 Y261.6607
G01 X27.3398 Y261.6382
G01 X27.2765 Y261.6189
G01 X27.2122 Y261.6028
G01 X27.1473 Y261.5899
G01 X27.0772 Y261.5798
G01 X27.0068 Y261.5731
G01 X26.9361 Y261.5700
G01 X26.8653 Y261.5705
G01 X26.7947 Y261.5746
G01 X26.7243 Y261.5822
G01 X26.6544 Y261.5933
G01 X26.5852 Y261.6080
G01 X26.5170 Y261.6339
G01 X26.4502 Y261.6632
G01 X26.3849 Y261.6958
G01 X26.3212 Y261.7315
G01 X26.2594 Y261.7703
G01 X26.1996 Y261.8120
G01 X26.1419 Y261.8567
G01 X26.0865 Y261.9042
G01 X26.0357 Y261.9575
G01 X25.9876 Y262.0133
G01 X25.9423 Y262.0713
G01 X25.8999 Y262.1315
G01 X25.8606 Y262.1937
G01 X25.8243 Y262.2578
G01 X25.7912 Y262.3236
G01 X25.7613 Y262.3909
G01 X25.7348 Y262.4596
G01 X25.7117 Y262.5295
G01 X25.6921 Y262.6004
G01 X25.6760 Y262.6723
G01 X25.6634 Y262.7448
G01 X25.6544 Y262.8179
G01 X25.6489 Y262.8913
G01 X25.6471 Y262.9649
G01 X25.6489 Y263.0385
G01 X25.6544 Y263.1120
G01 X25.6634 Y263.1851
G01 X25.6760 Y263.2576
G01 X25.6921 Y263.3294
G01 X25.7117 Y263.4004
G01 X25.7348 Y263.4703
G01 X25.7613 Y263.5390
G01 X25.7912 Y263.6063
G01 X25.8243 Y263.6721
G01 X25.8606 Y263.7362
G01 X25.8999 Y263.7984
G01 X25.9423 Y263.8586
G01 X25.9876 Y263.9166
G01 X26.0357 Y263.9724
G01 X26.0865 Y264.0257
G01 X26.1398 Y264.0765
G01 X26.1956 Y264.1246
G01 X26.2536 Y264.1699
G01 X26.3138 Y264.2123
G01 X26.3760 Y264.2516
G01 X26.4401 Y264.2879
G01 X26.5059 Y264.3210
G01 X26.5732 Y264.3509
G01 X26.6419 Y264.3774
G01 X26.7118 Y264.4005
G01 X26.7828 Y264.4201
G01 X26.8546 Y264.4362
G01 X26.9271 Y264.4488
G01 X27.0002 Y264.4578
G01 X27.0737 Y264.4633
G01 X27.1473 Y264.4651
G01 X27.2209 Y264.4633
G01 X27.2943 Y264.4578
G01 X27.3674 Y264.4488
G01 X27.4399 Y264.4362
G01 X27.5118 Y264.4201
G01 X27.5827 Y264.4005
G01 X27.6526 Y264.3774
G01 X27.7213 Y264.3509
G01 X27.7886 Y264.3210
G01 X27.8544 Y264.2879
G01 X27.9185 Y264.2516
G01 X27.9807 Y264.2123
G01 X28.0409 Y264.1699
G01 X28.0989 Y264.1246
G01 X28.1547 Y264.0765
G01 X28.2080 Y264.0257
G01 X28.2588 Y263.9724
G01 X28.3069 Y263.9166
G01 X28.3522 Y263.8586
G01 X28.3946 Y263.7984
G01 X28.4340 Y263.7362
G01 X28.4703 Y263.6721
G01 X28.5034 Y263.6063
G01 X28.5332 Y263.5390
G01 X28.5597 Y263.4703
G01 X28.5828 Y263.4004
G01 X28.6024 Y263.3294
G01 X28.6186 Y263.2576
G01 X28.6312 Y263.1851
G01 X28.6402 Y263.1120
G01 X28.6456 Y263.0385
G01 X28.6474 Y262.9649
G01 X28.6432 Y262.8528
G01 X28.6306 Y262.7414
G01 X28.6098 Y262.6311
G01 X28.5807 Y262.5228
G01 X28.5437 Y262.4169
G01 X28.4988 Y262.3141
G01 X28.4464 Y262.2149
G01 X28.3867 Y262.1199
G01 X28.3201 Y262.0296
G01 X28.2469 Y261.9446
G01 X28.1676 Y261.8653
G01 X28.0826 Y261.7921
G01 X27.9923 Y261.7255
G01 X27.8973 Y261.6658
G01 X27.7981 Y261.6134
G01 X27.6953 Y261.5685
G01 X27.5894 Y261.5315
G01 X27.4811 Y261.5024
G01 X27.3708 Y261.4816
G01 X27.2594 Y261.4690
G01 X27.1473 Y261.4648
G01 X27.0352 Y261.4690
G01 X26.9237 Y261.4816
G01 X26.8135 Y261.5024
G01 X26.7051 Y261.5315
G01 X26.5992 Y261.5685
G01 X26.4964 Y261.6134
G01 X26.3972 Y261.6658
G01 X26.3022 Y261.7255
G01 X26.2119 Y261.7921
G01 X26.1269 Y261.8653
G01 X26.0476 Y261.9446
G01 X25.9744 Y262.0296
G01 X25.9078 Y262.1199
G01 X25.8481 Y262.2149
G01 X25.7957 Y262.3141
G01 X25.7508 Y262.4169
G01 X25.7138 Y262.5228
G01 X25.6847 Y262.6311
G01 X25.6639 Y262.7414
G01 X25.6513 Y262.8528
G01 X25.6471 Y262.9649
G01 X25.6513 Y263.0770
G01 X25.6639 Y263.1885
G01 X25.6847 Y263.2988
G01 X25.7138 Y263.4071
G01 X25.7508 Y263.5130
G01 X25.7957 Y263.6158
G01 X25.8481 Y263.7150
G01 X25.9078 Y263.8100
G01 X25.9744 Y263.9003
G01 X26.0476 Y263.9853
G01 X26.1269 Y264.0646
G01 X26.2119 Y264.1378
G01 X26.3022 Y264.2044
G01 X26.3972 Y264.2641
G01 X26.4964 Y264.3165
G01 X26.5992 Y264.3614
G01 X26.7051 Y264.3984
G01 X26.8135 Y264.4275
G01 X26.9237 Y264.4483
G01 X27.0352 Y264.4609
G01 X27.1473 Y264.4651
G01 X27.2594 Y264.4609
G01 X27.3708 Y264.4483
G01 X27.4811 Y264.4275
G01 X27.5894 Y264.3984
G01 X27.6953 Y264.3614
G01 X27.7981 Y264.3165
G01 X27.8973 Y264.2641
G01 X27.9923 Y264.2044
G01 X28.0826 Y264.1378
G01 X28.1676 Y264.0646
G01 X28.2469 Y263.9853
G01 X28.3201 Y263.9003
G01 X28.3867 Y263.8100
G01 X28.4464 Y263.7150
G01 X28.4988 Y263.6158
G01 X28.5437 Y263.5130
G01 X28.5807 Y263.4071
G01 X28.6098 Y263.2988
G01 X28.6306 Y263.1885
G01 X28.6432 Y263.0770
G01 X28.6474 Y262.9649
G01 X28.6435 Y262.8669
G01 X28.6320 Y262.7694
G01 X28.6129 Y262.6731
G01 X28.5862 Y262.5787
G01 X28.5522 Y262.4866
G01 X28.5111 Y262.3974
G01 X28.4632 Y262.3118
G01 X28.4086 Y262.2302
G01 X28.3479 Y262.1531
G01 X28.2813 Y262.0810
G01 X28.2092 Y262.0144
G01 X28.1321 Y261.9536
G01 X28.0505 Y261.8991
G01 X27.9648 Y261.8511
G01 X27.8757 Y261.8100
G01 X27.7836 Y261.7761
G01 X27.6891 Y261.7494
G01 X27.5929 Y261.7303
G01 X27.4954 Y261.7187
G01 X27.3973 Y261.7149
G01 X27.2992 Y261.7187
G01 X27.2018 Y261.7303
G01 X27.1055 Y261.7494
G01 X27.0110 Y261.7761
G01 X26.9189 Y261.8100
G01 X26.8298 Y261.8511
G01 X26.7442 Y261.8991
G01 X26.6626 Y261.9536
G01 X26.5855 Y262.0144
G01 X26.5134 Y262.0810
G01 X26.4468 Y262.1531
G01 X26.3860 Y262.2302
G01 X26.3315 Y262.3118
G01 X26.2835 Y262.3974
G01 X26.2424 Y262.4866
G01 X26.2084 Y262.5787
G01 X26.1818 Y262.6731
G01 X26.1627 Y262.7694
G01 X26.1511 Y262.8669
G01 X26.1473 Y262.9649
G01 X26.1511 Y263.0521
G01 X26.1625 Y263.1386
G01 X26.1813 Y263.2238
G01 X26.2076 Y263.3070
G01 X26.2410 Y263.3876
G01 X26.2812 Y263.4649
G01 X26.3281 Y263.5385
G01 X26.3812 Y263.6077
G01 X26.4402 Y263.6720
G01 X26.5045 Y263.7310
G01 X26.5737 Y263.7841
G01 X26.6473 Y263.8310
G01 X26.7246 Y263.8712
G01 X26.8052 Y263.9046
G01 X26.8884 Y263.9309
G01 X26.9736 Y263.9497
G01 X27.0601 Y263.9611
G01 X27.1473 Y263.9649
G01 X27.2344 Y263.9611
G01 X27.3209 Y263.9497
G01 X27.4061 Y263.9309
G01 X27.4893 Y263.9046
G01 X27.5699 Y263.8712
G01 X27.6473 Y263.8310
G01 X27.7208 Y263.7841
G01 X27.7900 Y263.7310
G01 X27.8544 Y263.6720
G01 X27.9133 Y263.6077
G01 X27.9664 Y263.5385
G01 X28.0133 Y263.4649
G01 X28.0536 Y263.3876
G01 X28.0870 Y263.3070
G01 X28.1132 Y263.2238
G01 X28.1321 Y263.1386
G01 X28.1435 Y263.0521
G01 X28.1473 Y262.9649
M107
M106 S240
G01 X28.1435 Y262.8778 Z-2.7726 F400
G01 X28.1321 Y262.7913 Z-2.7951
G01 X28.1132 Y262.7061 Z-2.8177
G01 X28.0870 Y262.6229 Z-2.8403
G01 X28.0536 Y262.5423 Z-2.8628
G01 X28.0133 Y262.4649 Z-2.8854
G01 X27.9664 Y262.3914 Z-2.9080
G01 X27.9133 Y262.3222 Z-2.9306
G01 X27.8544 Y262.2578 Z-2.9531
G01 X27.7900 Y262.1989 Z-2.9757
G01 X27.7208 Y262.1458 Z-2.9983
G01 X27.6473 Y262.0989 Z-3.0208
G01 X27.5699 Y262.0586 Z-3.0434
G01 X27.4893 Y262.0252 Z-3.0660
G01 X27.4061 Y261.9990 Z-3.0885
G01 X27.3209 Y261.9801 Z-3.1111
G01 X27.2344 Y261.9687 Z-3.1337
G01 X27.1473 Y261.9649 Z-3.1563
G01 X27.0601 Y261.9687 Z-3.1788
G01 X26.9736 Y261.9801 Z-3.2014
G01 X26.8884 Y261.9990 Z-3.2240
G01 X26.8052 Y262.0252 Z-3.2465
G01 X26.7246 Y262.0586 Z-3.2691
G01 X26.6473 Y262.0989 Z-3.2917
G01 X26.6066 Y262.1237 Z-3.3040
G01 X26.5672 Y262.1504 Z-3.3163
G01 X26.5291 Y262.1789 Z-3.3286
G01 X26.4924 Y262.2092 Z-3.3409
G01 X26.4572 Y262.2412 Z-3.3532
G01 X26.4235 Y262.2749 Z-3.3655
G01 X26.3915 Y262.3101 Z-3.3778
G01 X26.3612 Y262.3468 Z-3.3902
G01 X26.3327 Y262.3849 Z-3.4025
G01 X26.3060 Y262.4243 Z-3.4148
G01 X26.2812 Y262.4649 Z-3.4271
G01 X26.2584 Y262.5067 Z-3.4394
G01 X26.2376 Y262.5495 Z-3.4517
G01 X26.2189 Y262.5933 Z-3.4640
G01 X26.2023 Y262.6379 Z-3.4763
G01 X26.1878 Y262.6832 Z-3.4886
G01 X26.1755 Y262.7292 Z-3.5009
G01 X26.1653 Y262.7757 Z-3.5133
G01 X26.1574 Y262.8226 Z-3.5256
G01 X26.1518 Y262.8699 Z-3.5379
G01 X26.1484 Y262.9174 Z-3.5502
G01 X26.1473 Y262.9649 Z-3.5625
G01 X26.1484 Y263.0125 Z-3.5748
G01 X26.1518 Y263.0600 Z-3.5871
G01 X26.1574 Y263.1073 Z-3.5994
G01 X26.1653 Y263.1542 Z-3.6117
G01 X26.1755 Y263.2007 Z-3.6241
G01 X26.1878 Y263.2467 Z-3.6364
G01 X26.2023 Y263.2920 Z-3.6487
G01 X26.2189 Y263.3366 Z-3.6610
G01 X26.2376 Y263.3804 Z-3.6733
G01 X26.2584 Y263.4232 Z-3.6856
G01 X26.2812 Y263.4649 Z-3.6979
G01 X26.3060 Y263.5056 Z-3.7102
G01 X26.3327 Y263.5450 Z-3.7225
G01 X26.3612 Y263.5831 Z-3.7348
G01 X26.3915 Y263.6198 Z-3.7472
G01 X26.4235 Y263.6550 Z-3.7595
G01 X26.4572 Y263.6887 Z-3.7718
G01 X26.4924 Y263.7207 Z-3.7841
G01 X26.5291 Y263.7510 Z-3.7964
G01 X26.5672 Y263.7795 Z-3.8087
G01 X26.6066 Y263.8062 Z-3.8210
G01 X26.6473 Y263.8310 Z-3.8333
G01 X26.6890 Y263.8538 Z-3.8456
G01 X26.7318 Y263.8746 Z-3.8580
G01 X26.7756 Y263.8933 Z-3.8703
G01 X26.8202 Y263.9099 Z-3.8826
G01 X26.8655 Y263.9244 Z-3.8949
G01 X26.9115 Y263.9368 Z-3.9072
G01 X26.9580 Y263.9469 Z-3.9195
G01 X27.0049 Y263.9548 Z-3.9318
G01 X27.0522 Y263.9604 Z-3.9441
G01 X27.0997 Y263.9638 Z-3.9564
G01 X27.1473 Y263.9649 Z-3.9688
G01 X27.1948 Y263.9638 Z-3.9811
G01 X27.2423 Y263.9604 Z-3.9934
G01 X27.2896 Y263.9548 Z-4.0057
G01 X27.3365 Y263.9469 Z-4.0180
G01 X27.3830 Y263.9368 Z-4.0303
G01 X27.4290 Y263.9244 Z-4.0426
G01 X27.4743 Y263.9099 Z-4.0549
G01 X27.5189 Y263.8933 Z-4.0672
G01 X27.5627 Y263.8746 Z-4.0795
G01 X27.6055 Y263.8538 Z-4.0919
G01 X27.6473 Y263.8310 Z-4.1042
G01 X27.6879 Y263.8062 Z-4.1165
G01 X27.7273 Y263.7795 Z-4.1288
G01 X27.7654 Y263.7510 Z-4.1411
G01 X27.8021 Y263.7207 Z-4.1534
G01 X27.8373 Y263.6887 Z-4.1657
G01 X27.8710 Y263.6550 Z-4.1780
G01 X27.9030 Y263.6198 Z-4.1903
G01 X27.9333 Y263.5831 Z-4.2027
G01 X27.9618 Y263.5450 Z-4.2150
G01 X27.9885 Y263.5056 Z-4.2273
G01 X28.0133 Y263.4649 Z-4.2396
G01 X28.0361 Y263.4232 Z-4.2519
G01 X28.0569 Y263.3804 Z-4.2642
G01 X28.0756 Y263.3366 Z-4.2765
G01 X28.0923 Y263.2920 Z-4.2888
G01 X28.1068 Y263.2467 Z-4.3011
G01 X28.1191 Y263.2007 Z-4.3134
G01 X28.1292 Y263.1542 Z-4.3258
G01 X28.1371 Y263.1073 Z-4.3381
G01 X28.1427 Y263.0600 Z-4.3504
G01 X28.1461 Y263.0125 Z-4.3627
G01 X28.1473 Y262.9649 Z-4.3750
G01 X28.1435 Y262.8778
G01 X28.1321 Y262.7913
G01 X28.1132 Y262.7061
G01 X28.0870 Y262.6229
G01 X28.0536 Y262.5423
G01 X28.0133 Y262.4649
G01 X27.9664 Y262.3914
G01 X27.9133 Y262.3222
G01 X27.8544 Y262.2578
G01 X27.7900 Y262.1989
G01 X27.7208 Y262.1458
G01 X27.6473 Y262.0989
G01 X27.5699 Y262.0586
G01 X27.4893 Y262.0252
G01 X27.4061 Y261.9990
G01 X27.3209 Y261.9801
G01 X27.2344 Y261.9687
G01 X27.1473 Y261.9649
G01 X27.0601 Y261.9687
G01 X26.9736 Y261.9801
G01 X26.8884 Y261.9990
G01 X26.8052 Y262.0252
G01 X26.7246 Y262.0586
G01 X26.6473 Y262.0989
G01 X26.6066 Y262.1237
G01 X26.5672 Y262.1504
G01 X26.5291 Y262.1789
G01 X26.4924 Y262.2092
G01 X26.4572 Y262.2412
G01 X26.4235 Y262.2749
G01 X26.3915 Y262.3101
G01 X26.3612 Y262.3468
G01 X26.3327 Y262.3849
G01 X26.3060 Y262.4243
G01 X26.2812 Y262.4649
G01 X26.2584 Y262.5067
G01 X26.2376 Y262.5495
G01 X26.2189 Y262.5933
G01 X26.2023 Y262.6379
G01 X26.1878 Y262.6832
G01 X26.1755 Y262.7292
G01 X26.1653 Y262.7757
G01 X26.1574 Y262.8226
G01 X26.1518 Y262.8699
G01 X26.1484 Y262.9174
G01 X26.1473 Y262.9649
G01 X26.1484 Y263.0125
G01 X26.1518 Y263.0600
G01 X26.1574 Y263.1073
G01 X26.1653 Y263.1542
G01 X26.1755 Y263.2007
G01 X26.1878 Y263.2467
G01 X26.2023 Y263.2920
G01 X26.2189 Y263.3366
G01 X26.2376 Y263.3804
G01 X26.2584 Y263.4232
G01 X26.2812 Y263.4649
G01 X26.3060 Y263.5056
G01 X26.3327 Y263.5450
G01 X26.3612 Y263.5831
G01 X26.3915 Y263.6198
G01 X26.4235 Y263.6550
G01 X26.4572 Y263.6887
G01 X26.4924 Y263.7207
G01 X26.5291 Y263.7510
G01 X26.5672 Y263.7795
G01 X26.6066 Y263.8062
G01 X26.6473 Y263.8310
G01 X26.6890 Y263.8538
G01 X26.7318 Y263.8746
G01 X26.7756 Y263.8933
G01 X26.8202 Y263.9099
G01 X26.8655 Y263.9244
G01 X26.9115 Y263.9368
G01 X26.9580 Y263.9469
G01 X27.0049 Y263.9548
G01 X27.0522 Y263.9604
G01 X27.0997 Y263.9638
G01 X27.1473 Y263.9649
G01 X27.1948 Y263.9638
G01 X27.2423 Y263.9604
G01 X27.2896 Y263.9548
G01 X27.3365 Y263.9469
G01 X27.3830 Y263.9368
G01 X27.4290 Y263.9244
G01 X27.4743 Y263.9099
G01 X27.5189 Y263.8933
G01 X27.5627 Y263.8746
G01 X27.6055 Y263.8538
G01 X27.6473 Y263.8310
G01 X27.6879 Y263.8062
G01 X27.7273 Y263.7795
G01 X27.7654 Y263.7510
G01 X27.8021 Y263.7207
G01 X27.8373 Y263.6887
G01 X27.8710 Y263.6550
G01 X27.9030 Y263.6198
G01 X27.9333 Y263.5831
G01 X27.9618 Y263.5450
G01 X27.9885 Y263.5056
G01 X28.0133 Y263.4649
G01 X28.0361 Y263.4232
G01 X28.0569 Y263.3804
G01 X28.0756 Y263.3366
G01 X28.0923 Y263.2920
G01 X28.1068 Y263.2467
G01 X28.1191 Y263.2007
G01 X28.1292 Y263.1542
G01 X28.1371 Y263.1073
G01 X28.1427 Y263.0600
G01 X28.1461 Y263.0125
G01 X28.1473 Y262.9649
G01 X28.1580 Y262.9133 F1000
G01 X28.1661 Y262.8613
G01 X28.1715 Y262.8088
G01 X28.1741 Y262.7562
G01 Y262.7035
G01 X28.1714 Y262.6509
G01 X28.1659 Y262.5985
G01 X28.1578 Y262.5464
G01 X28.1460 Y262.4904
G01 X28.1315 Y262.4351
G01 X28.1141 Y262.3806
G01 X28.0940 Y262.3271
G01 X28.0711 Y262.2746
G01 X28.0456 Y262.2234
G01 X28.0175 Y262.1736
G01 X27.9870 Y262.1253
G01 X27.9513 Y262.0749
G01 X27.9132 Y262.0263
G01 X27.8727 Y261.9798
G01 X27.8298 Y261.9354
G01 X27.7848 Y261.8932
G01 X27.7376 Y261.8534
G01 X27.6885 Y261.8160
G01 X27.6376 Y261.7812
G01 X27.5811 Y261.7467
G01 X27.5229 Y261.7150
G01 X27.4632 Y261.6863
G01 X27.4021 Y261.6607
G01 X27.3398 Y261.6382
G01 X27.2765 Y261.6189
G01 X27.2122 Y261.6028
G01 X27.1473 Y261.5899
G01 X27.0772 Y261.5798
G01 X27.0068 Y261.5731
G01 X26.9361 Y261.5700
G01 X26.8653 Y261.5705
G01 X26.7947 Y261.5746
G01 X26.7243 Y261.5822
G01 X26.6544 Y261.5933
G01 X26.5852 Y261.6080
G01 X26.5170 Y261.6339
G01 X26.4502 Y261.6632
G01 X26.3849 Y261.6958
G01 X26.3212 Y261.7315
G01 X26.2594 Y261.7703
G01 X26.1996 Y261.8120
G01 X26.1419 Y261.8567
G01 X26.0865 Y261.9042
G01 X26.0357 Y261.9575
G01 X25.9876 Y262.0133
G01 X25.9423 Y262.0713
G01 X25.8999 Y262.1315
G01 X25.8606 Y262.1937
G01 X25.8243 Y262.2578
G01 X25.7912 Y262.3236
G01 X25.7613 Y262.3909
G01 X25.7348 Y262.4596
G01 X25.7117 Y262.5295
G01 X25.6921 Y262.6004
G01 X25.6760 Y262.6723
G01 X25.6634 Y262.7448
G01 X25.6544 Y262.8179
G01 X25.6489 Y262.8913
G01 X25.6471 Y262.9649
G01 X25.6489 Y263.0385
G01 X25.6544 Y263.1120
G01 X25.6634 Y263.1851
G01 X25.6760 Y263.2576
G01 X25.6921 Y263.3294
G01 X25.7117 Y263.4004
G01 X25.7348 Y263.4703
G01 X25.7613 Y263.5390
G01 X25.7912 Y263.6063
G01 X25.8243 Y263.6721
G01 X25.8606 Y263.7362
G01 X25.8999 Y263.7984
G01 X25.9423 Y263.8586
G01 X25.9876 Y263.9166
G01 X26.0357 Y263.9724
G01 X26.0865 Y264.0257
G01 X26.1398 Y264.0765
G01 X26.1956 Y264.1246
G01 X26.2536 Y264.1699
G01 X26.3138 Y264.2123
G01 X26.3760 Y264.2516
G01 X26.4401 Y264.2879
G01 X26.5059 Y264.3210
G01 X26.5732 Y264.3509
G01 X26.6419 Y264.3774
G01 X26.7118 Y264.4005
G01 X26.7828 Y264.4201
G01 X26.8546 Y264.4362
G01 X26.9271 Y264.4488
G01 X27.0002 Y264.4578
G01 X27.0737 Y264.4633
G01 X27.1473 Y264.4651
G01 X27.2209 Y264.4633
G01 X27.2943 Y264.4578
G01 X27.3674 Y264.4488
G01 X27.4399 Y264.4362
G01 X27.5118 Y264.4201
G01 X27.5827 Y264.4005
G01 X27.6526 Y264.3774
G01 X27.7213 Y264.3509
G01 X27.7886 Y264.3210
G01 X27.8544 Y264.2879
G01 X27.9185 Y264.2516
G01 X27.9807 Y264.2123
G01 X28.0409 Y264.1699
G01 X28.0989 Y264.1246
G01 X28.1547 Y264.0765
G01 X28.2080 Y264.0257
G01 X28.2588 Y263.9724
G01 X28.3069 Y263.9166
G01 X28.3522 Y263.8586
G01 X28.3946 Y263.7984
G01 X28.4340 Y263.7362
G01 X28.4703 Y263.6721
G01 X28.5034 Y263.6063
G01 X28.5332 Y263.5390
G01 X28.5597 Y263.4703
G01 X28.5828 Y263.4004
G01 X28.6024 Y263.3294
G01 X28.6186 Y263.2576
G01 X28.6312 Y263.1851
G01 X28.6402 Y263.1120
G01 X28.6456 Y263.0385
G01 X28.6474 Y262.9649
G01 X28.6432 Y262.8528
G01 X28.6306 Y262.7414
G01 X28.6098 Y262.6311
G01 X28.5807 Y262.5228
G01 X28.5437 Y262.4169
G01 X28.4988 Y262.3141
G01 X28.4464 Y262.2149
G01 X28.3867 Y262.1199
G01 X28.3201 Y262.0296
G01 X28.2469 Y261.9446
G01 X28.1676 Y261.8653
G01 X28.0826 Y261.7921
G01 X27.9923 Y261.7255
G01 X27.8973 Y261.6658
G01 X27.7981 Y261.6134
G01 X27.6953 Y261.5685
G01 X27.5894 Y261.5315
G01 X27.4811 Y261.5024
G01 X27.3708 Y261.4816
G01 X27.2594 Y261.4690
G01 X27.1473 Y261.4648
G01 X27.0352 Y261.4690
G01 X26.9237 Y261.4816
G01 X26.8135 Y261.5024
G01 X26.7051 Y261.5315
G01 X26.5992 Y261.5685
G01 X26.4964 Y261.6134
G01 X26.3972 Y261.6658
G01 X26.3022 Y261.7255
G01 X26.2119 Y261.7921
G01 X26.1269 Y261.8653
G01 X26.0476 Y261.9446
G01 X25.9744 Y262.0296
G01 X25.9078 Y262.1199
G01 X25.8481 Y262.2149
G01 X25.7957 Y262.3141
G01 X25.7508 Y262.4169
G01 X25.7138 Y262.5228
G01 X25.6847 Y262.6311
G01 X25.6639 Y262.7414
G01 X25.6513 Y262.8528
G01 X25.6471 Y262.9649
G01 X25.6513 Y263.0770
G01 X25.6639 Y263.1885
G01 X25.6847 Y263.2988
G01 X25.7138 Y263.4071
G01 X25.7508 Y263.5130
G01 X25.7957 Y263.6158
G01 X25.8481 Y263.7150
G01 X25.9078 Y263.8100
G01 X25.9744 Y263.9003
G01 X26.0476 Y263.9853
G01 X26.1269 Y264.0646
G01 X26.2119 Y264.1378
G01 X26.3022 Y264.2044
G01 X26.3972 Y264.2641
G01 X26.4964 Y264.3165
G01 X26.5992 Y264.3614
G01 X26.7051 Y264.3984
G01 X26.8135 Y264.4275
G01 X26.9237 Y264.4483
G01 X27.0352 Y264.4609
G01 X27.1473 Y264.4651
G01 X27.2594 Y264.4609
G01 X27.3708 Y264.4483
G01 X27.4811 Y264.4275
G01 X27.5894 Y264.3984
G01 X27.6953 Y264.3614
G01 X27.7981 Y264.3165
G01 X27.8973 Y264.2641
G01 X27.9923 Y264.2044
G01 X28.0826 Y264.1378
G01 X28.1676 Y264.0646
G01 X28.2469 Y263.9853
G01 X28.3201 Y263.9003
G01 X28.3867 Y263.8100
G01 X28.4464 Y263.7150
G01 X28.4988 Y263.6158
G01 X28.5437 Y263.5130
G01 X28.5807 Y263.4071
G01 X28.6098 Y263.2988
G01 X28.6306 Y263.1885
G01 X28.6432 Y263.0770
G01 X28.6474 Y262.9649
G01 X28.6435 Y262.8669
G01 X28.6320 Y262.7694
G01 X28.6129 Y262.6731
G01 X28.5862 Y262.5787
G01 X28.5522 Y262.4866
G01 X28.5111 Y262.3974
G01 X28.4632 Y262.3118
G01 X28.4086 Y262.2302
G01 X28.3479 Y262.1531
G01 X28.2813 Y262.0810
G01 X28.2092 Y262.0144
G01 X28.1321 Y261.9536
G01 X28.0505 Y261.8991
G01 X27.9648 Y261.8511
G01 X27.8757 Y261.8100
G01 X27.7836 Y261.7761
G01 X27.6891 Y261.7494
G01 X27.5929 Y261.7303
G01 X27.4954 Y261.7187
G01 X27.3973 Y261.7149
G01 X27.2992 Y261.7187
G01 X27.2018 Y261.7303
G01 X27.1055 Y261.7494
G01 X27.0110 Y261.7761
G01 X26.9189 Y261.8100
G01 X26.8298 Y261.8511
G01 X26.7442 Y261.8991
G01 X26.6626 Y261.9536
G01 X26.5855 Y262.0144
G01 X26.5134 Y262.0810
G01 X26.4468 Y262.1531
G01 X26.3860 Y262.2302
G01 X26.3315 Y262.3118
G01 X26.2835 Y262.3974
G01 X26.2424 Y262.4866
G01 X26.2084 Y262.5787
G01 X26.1818 Y262.6731
G01 X26.1627 Y262.7694
G01 X26.1511 Y262.8669
G01 X26.1473 Y262.9649
G01 X26.1511 Y263.0521
G01 X26.1625 Y263.1386
G01 X26.1813 Y263.2238
G01 X26.2076 Y263.3070
G01 X26.2410 Y263.3876
G01 X26.2812 Y263.4649
G01 X26.3281 Y263.5385
G01 X26.3812 Y263.6077
G01 X26.4402 Y263.6720
G01 X26.5045 Y263.7310
G01 X26.5737 Y263.7841
G01 X26.6473 Y263.8310
G01 X26.7246 Y263.8712
G01 X26.8052 Y263.9046
G01 X26.8884 Y263.9309
G01 X26.9736 Y263.9497
G01 X27.0601 Y263.9611
G01 X27.1473 Y263.9649
G01 X27.2344 Y263.9611
G01 X27.3209 Y263.9497
G01 X27.4061 Y263.9309
G01 X27.4893 Y263.9046
G01 X27.5699 Y263.8712
G01 X27.6473 Y263.8310
G01 X27.7208 Y263.7841
G01 X27.7900 Y263.7310
G01 X27.8544 Y263.6720
G01 X27.9133 Y263.6077
G01 X27.9664 Y263.5385
G01 X28.0133 Y263.4649
G01 X28.0536 Y263.3876
G01 X28.0870 Y263.3070
G01 X28.1132 Y263.2238
G01 X28.1321 Y263.1386
G01 X28.1435 Y263.0521
G01 X28.1473 Y262.9649
M107
M106 S240
G01 X28.1435 Y262.8778 Z-4.3976 F400
G01 X28.1321 Y262.7913 Z-4.4201
G01 X28.1132 Y262.7061 Z-4.4427
G01 X28.0870 Y262.6229 Z-4.4653
G01 X28.0536 Y262.5423 Z-4.4878
G01 X28.0133 Y262.4649 Z-4.5104
G01 X27.9664 Y262.3914 Z-4.5330
G01 X27.9133 Y262.3222 Z-4.5556
G01 X27.8544 Y262.2578 Z-4.5781
G01 X27.7900 Y262.1989 Z-4.6007
G01 X27.7208 Y262.1458 Z-4.6233
G01 X27.6473 Y262.0989 Z-4.6458
G01 X27.5699 Y262.0586 Z-4.6684
G01 X27.4893 Y262.0252 Z-4.6910
G01 X27.4061 Y261.9990 Z-4.7135
G01 X27.3209 Y261.9801 Z-4.7361
G01 X27.2344 Y261.9687 Z-4.7587
G01 X27.1473 Y261.9649 Z-4.7813
G01 X27.0601 Y261.9687 Z-4.8038
G01 X26.9736 Y261.9801 Z-4.8264
G01 X26.8884 Y261.9990 Z-4.8490
G01 X26.8052 Y262.0252 Z-4.8715
G01 X26.7246 Y262.0586 Z-4.8941
G01 X26.6473 Y262.0989 Z-4.9167
G01 X26.6066 Y262.1237 Z-4.9290
G01 X26.5672 Y262.1504 Z-4.9413
G01 X26.5291 Y262.1789 Z-4.9536
G01 X26.4924 Y262.2092 Z-4.9659
G01 X26.4572 Y262.2412 Z-4.9782
G01 X26.4235 Y262.2749 Z-4.9905
G01 X26.3915 Y262.3101 Z-5.0028
G01 X26.3612 Y262.3468 Z-5.0152
G01 X26.3327 Y262.3849 Z-5.0275
G01 X26.3060 Y262.4243 Z-5.0398
G01 X26.2812 Y262.4649 Z-5.0521
G01 X26.2584 Y262.5067 Z-5.0644
G01 X26.2376 Y262.5495 Z-5.0767
G01 X26.2189 Y262.5933 Z-5.0890
G01 X26.2023 Y262.6379 Z-5.1013
G01 X26.1878 Y262.6832 Z-5.1136
G01 X26.1755 Y262.7292 Z-5.1259
G01 X26.1653 Y262.7757 Z-5.1383
G01 X26.1574 Y262.8226 Z-5.1506
G01 X26.1518 Y262.8699 Z-5.1629
G01 X26.1484 Y262.9174 Z-5.1752
G01 X26.1473 Y262.9649 Z-5.1875
G01 X26.1484 Y263.0125 Z-5.1998
G01 X26.1518 Y263.0600 Z-5.2121
G01 X26.1574 Y263.1073 Z-5.2244
G01 X26.1653 Y263.1542 Z-5.2367
G01 X26.1755 Y263.2007 Z-5.2491
G01 X26.1878 Y263.2467 Z-5.2614
G01 X26.2023 Y263.2920 Z-5.2737
G01 X26.2189 Y263.3366 Z-5.2860
G01 X26.2376 Y263.3804 Z-5.2983
G01 X26.2584 Y263.4232 Z-5.3106
G01 X26.2812 Y263.4649 Z-5.3229
G01 X26.3060 Y263.5056 Z-5.3352
G01 X26.3327 Y263.5450 Z-5.3475
G01 X26.3612 Y263.5831 Z-5.3598
G01 X26.3915 Y263.6198 Z-5.3722
G01 X26.4235 Y263.6550 Z-5.3845
G01 X26.4572 Y263.6887 Z-5.3968
G01 X26.4924 Y263.7207 Z-5.4091
G01 X26.5291 Y263.7510 Z-5.4214
G01 X26.5672 Y263.7795 Z-5.4337
G01 X26.6066 Y263.8062 Z-5.4460
G01 X26.6473 Y263.8310 Z-5.4583
G01 X26.6890 Y263.8538 Z-5.4706
G01 X26.7318 Y263.8746 Z-5.4830
G01 X26.7756 Y263.8933 Z-5.4953
G01 X26.8202 Y263.9099 Z-5.5076
G01 X26.8655 Y263.9244 Z-5.5199
G01 X26.9115 Y263.9368 Z-5.5322
G01 X26.9580 Y263.9469 Z-5.5445
G01 X27.0049 Y263.9548 Z-5.5568
G01 X27.0522 Y263.9604 Z-5.5691
G01 X27.0997 Y263.9638 Z-5.5814
G01 X27.1473 Y263.9649 Z-5.5938
G01 X27.1948 Y263.9638 Z-5.6061
G01 X27.2423 Y263.9604 Z-5.6184
G01 X27.2896 Y263.9548 Z-5.6307
G01 X27.3365 Y263.9469 Z-5.6430
G01 X27.3830 Y263.9368 Z-5.6553
G01 X27.4290 Y263.9244 Z-5.6676
G01 X27.4743 Y263.9099 Z-5.6799
G01 X27.5189 Y263.8933 Z-5.6922
G01 X27.5627 Y263.8746 Z-5.7045
G01 X27.6055 Y263.8538 Z-5.7169
G01 X27.6473 Y263.8310 Z-5.7292
G01 X27.6879 Y263.8062 Z-5.7415
G01 X27.7273 Y263.7795 Z-5.7538
G01 X27.7654 Y263.7510 Z-5.7661
G01 X27.8021 Y263.7207 Z-5.7784
G01 X27.8373 Y263.6887 Z-5.7907
G01 X27.8710 Y263.6550 Z-5.8030
G01 X27.9030 Y263.6198 Z-5.8153
G01 X27.9333 Y263.5831 Z-5.8277
G01 X27.9618 Y263.5450 Z-5.8400
G01 X27.9885 Y263.5056 Z-5.8523
G01 X28.0133 Y263.4649 Z-5.8646
G01 X28.0361 Y263.4232 Z-5.8769
G01 X28.0569 Y263.3804 Z-5.8892
G01 X28.0756 Y263.3366 Z-5.9015
G01 X28.0923 Y263.2920 Z-5.9138
G01 X28.1068 Y263.2467 Z-5.9261
G01 X28.1191 Y263.2007 Z-5.9384
G01 X28.1292 Y263.1542 Z-5.9508
G01 X28.1371 Y263.1073 Z-5.9631
G01 X28.1427 Y263.0600 Z-5.9754
G01 X28.1461 Y263.0125 Z-5.9877
G01 X28.1473 Y262.9649 Z-6.0000
G01 X28.1435 Y262.8778
G01 X28.1321 Y262.7913
G01 X28.1132 Y262.7061
G01 X28.0870 Y262.6229
G01 X28.0536 Y262.5423
G01 X28.0133 Y262.4649
G01 X27.9664 Y262.3914
G01 X27.9133 Y262.3222
G01 X27.8544 Y262.2578
G01 X27.7900 Y262.1989
G01 X27.7208 Y262.1458
G01 X27.6473 Y262.0989
G01 X27.5699 Y262.0586
G01 X27.4893 Y262.0252
G01 X27.4061 Y261.9990
G01 X27.3209 Y261.9801
G01 X27.2344 Y261.9687
G01 X27.1473 Y261.9649
G01 X27.0601 Y261.9687
G01 X26.9736 Y261.9801
G01 X26.8884 Y261.9990
G01 X26.8052 Y262.0252
G01 X26.7246 Y262.0586
G01 X26.6473 Y262.0989
G01 X26.6066 Y262.1237
G01 X26.5672 Y262.1504
G01 X26.5291 Y262.1789
G01 X26.4924 Y262.2092
G01 X26.4572 Y262.2412
G01 X26.4235 Y262.2749
G01 X26.3915 Y262.3101
G01 X26.3612 Y262.3468
G01 X26.3327 Y262.3849
G01 X26.3060 Y262.4243
G01 X26.2812 Y262.4649
G01 X26.2584 Y262.5067
G01 X26.2376 Y262.5495
G01 X26.2189 Y262.5933
G01 X26.2023 Y262.6379
G01 X26.1878 Y262.6832
G01 X26.1755 Y262.7292
G01 X26.1653 Y262.7757
G01 X26.1574 Y262.8226
G01 X26.1518 Y262.8699
G01 X26.1484 Y262.9174
G01 X26.1473 Y262.9649
G01 X26.1484 Y263.0125
G01 X26.1518 Y263.0600
G01 X26.1574 Y263.1073
G01 X26.1653 Y263.1542
G01 X26.1755 Y263.2007
G01 X26.1878 Y263.2467
G01 X26.2023 Y263.2920
G01 X26.2189 Y263.3366
G01 X26.2376 Y263.3804
G01 X26.2584 Y263.4232
G01 X26.2812 Y263.4649
G01 X26.3060 Y263.5056
G01 X26.3327 Y263.5450
G01 X26.3612 Y263.5831
G01 X26.3915 Y263.6198
G01 X26.4235 Y263.6550
G01 X26.4572 Y263.6887
G01 X26.4924 Y263.7207
G01 X26.5291 Y263.7510
G01 X26.5672 Y263.7795
G01 X26.6066 Y263.8062
G01 X26.6473 Y263.8310
G01 X26.6890 Y263.8538
G01 X26.7318 Y263.8746
G01 X26.7756 Y263.8933
G01 X26.8202 Y263.9099
G01 X26.8655 Y263.9244
G01 X26.9115 Y263.9368
G01 X26.9580 Y263.9469
G01 X27.0049 Y263.9548
G01 X27.0522 Y263.9604
G01 X27.0997 Y263.9638
G01 X27.1473 Y263.9649
G01 X27.1948 Y263.9638
G01 X27.2423 Y263.9604
G01 X27.2896 Y263.9548
G01 X27.3365 Y263.9469
G01 X27.3830 Y263.9368
G01 X27.4290 Y263.9244
G01 X27.4743 Y263.9099
G01 X27.5189 Y263.8933
G01 X27.5627 Y263.8746
G01 X27.6055 Y263.8538
G01 X27.6473 Y263.8310
G01 X27.6879 Y263.8062
G01 X27.7273 Y263.7795
G01 X27.7654 Y263.7510
G01 X27.8021 Y263.7207
G01 X27.8373 Y263.6887
G01 X27.8710 Y263.6550
G01 X27.9030 Y263.6198
G01 X27.9333 Y263.5831
G01 X27.9618 Y263.5450
G01 X27.9885 Y263.5056
G01 X28.0133 Y263.4649
G01 X28.0361 Y263.4232
G01 X28.0569 Y263.3804
G01 X28.0756 Y263.3366
G01 X28.0923 Y263.2920
G01 X28.1068 Y263.2467
G01 X28.1191 Y263.2007
G01 X28.1292 Y263.1542
G01 X28.1371 Y263.1073
G01 X28.1427 Y263.0600
G01 X28.1461 Y263.0125
G01 X28.1473 Y262.9649
G01 X28.1580 Y262.9133 F1000
G01 X28.1661 Y262.8613
G01 X28.1715 Y262.8088
G01 X28.1741 Y262.7562
G01 Y262.7035
G01 X28.1714 Y262.6509
G01 X28.1659 Y262.5985
G01 X28.1578 Y262.5464
G01 X28.1460 Y262.4904
G01 X28.1315 Y262.4351
G01 X28.1141 Y262.3806
G01 X28.0940 Y262.3271
G01 X28.0711 Y262.2746
G01 X28.0456 Y262.2234
G01 X28.0175 Y262.1736
G01 X27.9870 Y262.1253
G01 X27.9513 Y262.0749
G01 X27.9132 Y262.0263
G01 X27.8727 Y261.9798
G01 X27.8298 Y261.9354
G01 X27.7848 Y261.8932
G01 X27.7376 Y261.8534
G01 X27.6885 Y261.8160
G01 X27.6376 Y261.7812
G01 X27.5811 Y261.7467
G01 X27.5229 Y261.7150
G01 X27.4632 Y261.6863
G01 X27.4021 Y261.6607
G01 X27.3398 Y261.6382
G01 X27.2765 Y261.6189
G01 X27.2122 Y261.6028
G01 X27.1473 Y261.5899
G01 X27.0772 Y261.5798
G01 X27.0068 Y261.5731
G01 X26.9361 Y261.5700
G01 X26.8653 Y261.5705
G01 X26.7947 Y261.5746
G01 X26.7243 Y261.5822
G01 X26.6544 Y261.5933
G01 X26.5852 Y261.6080
G01 X26.5170 Y261.6339
G01 X26.4502 Y261.6632
G01 X26.3849 Y261.6958
G01 X26.3212 Y261.7315
G01 X26.2594 Y261.7703
G01 X26.1996 Y261.8120
G01 X26.1419 Y261.8567
G01 X26.0865 Y261.9042
G01 X26.0357 Y261.9575
G01 X25.9876 Y262.0133
G01 X25.9423 Y262.0713
G01 X25.8999 Y262.1315
G01 X25.8606 Y262.1937
G01 X25.8243 Y262.2578
G01 X25.7912 Y262.3236
G01 X25.7613 Y262.3909
G01 X25.7348 Y262.4596
G01 X25.7117 Y262.5295
G01 X25.6921 Y262.6004
G01 X25.6760 Y262.6723
G01 X25.6634 Y262.7448
G01 X25.6544 Y262.8179
G01 X25.6489 Y262.8913
G01 X25.6471 Y262.9649
G01 X25.6489 Y263.0385
G01 X25.6544 Y263.1120
G01 X25.6634 Y263.1851
G01 X25.6760 Y263.2576
G01 X25.6921 Y263.3294
G01 X25.7117 Y263.4004
G01 X25.7348 Y263.4703
G01 X25.7613 Y263.5390
G01 X25.7912 Y263.6063
G01 X25.8243 Y263.6721
G01 X25.8606 Y263.7362
G01 X25.8999 Y263.7984
G01 X25.9423 Y263.8586
G01 X25.9876 Y263.9166
G01 X26.0357 Y263.9724
G01 X26.0865 Y264.0257
G01 X26.1398 Y264.0765
G01 X26.1956 Y264.1246
G01 X26.2536 Y264.1699
G01 X26.3138 Y264.2123
G01 X26.3760 Y264.2516
G01 X26.4401 Y264.2879
G01 X26.5059 Y264.3210
G01 X26.5732 Y264.3509
G01 X26.6419 Y264.3774
G01 X26.7118 Y264.4005
G01 X26.7828 Y264.4201
G01 X26.8546 Y264.4362
G01 X26.9271 Y264.4488
G01 X27.0002 Y264.4578
G01 X27.0737 Y264.4633
G01 X27.1473 Y264.4651
G01 X27.2209 Y264.4633
G01 X27.2943 Y264.4578
G01 X27.3674 Y264.4488
G01 X27.4399 Y264.4362
G01 X27.5118 Y264.4201
G01 X27.5827 Y264.4005
G01 X27.6526 Y264.3774
G01 X27.7213 Y264.3509
G01 X27.7886 Y264.3210
G01 X27.8544 Y264.2879
G01 X27.9185 Y264.2516
G01 X27.9807 Y264.2123
G01 X28.0409 Y264.1699
G01 X28.0989 Y264.1246
G01 X28.1547 Y264.0765
G01 X28.2080 Y264.0257
G01 X28.2588 Y263.9724
G01 X28.3069 Y263.9166
G01 X28.3522 Y263.8586
G01 X28.3946 Y263.7984
G01 X28.4340 Y263.7362
G01 X28.4703 Y263.6721
G01 X28.5034 Y263.6063
G01 X28.5332 Y263.5390
G01 X28.5597 Y263.4703
G01 X28.5828 Y263.4004
G01 X28.6024 Y263.3294
G01 X28.6186 Y263.2576
G01 X28.6312 Y263.1851
G01 X28.6402 Y263.1120
G01 X28.6456 Y263.0385
G01 X28.6474 Y262.9649
G01 X28.6432 Y262.8528
G01 X28.6306 Y262.7414
G01 X28.6098 Y262.6311
G01 X28.5807 Y262.5228
G01 X28.5437 Y262.4169
G01 X28.4988 Y262.3141
G01 X28.4464 Y262.2149
G01 X28.3867 Y262.1199
G01 X28.3201 Y262.0296
G01 X28.2469 Y261.9446
G01 X28.1676 Y261.8653
G01 X28.0826 Y261.7921
G01 X27.9923 Y261.7255
G01 X27.8973 Y261.6658
G01 X27.7981 Y261.6134
G01 X27.6953 Y261.5685
G01 X27.5894 Y261.5315
G01 X27.4811 Y261.5024
G01 X27.3708 Y261.4816
G01 X27.2594 Y261.4690
G01 X27.1473 Y261.4648
G01 X27.0352 Y261.4690
G01 X26.9237 Y261.4816
G01 X26.8135 Y261.5024
G01 X26.7051 Y261.5315
G01 X26.5992 Y261.5685
G01 X26.4964 Y261.6134
G01 X26.3972 Y261.6658
G01 X26.3022 Y261.7255
G01 X26.2119 Y261.7921
G01 X26.1269 Y261.8653
G01 X26.0476 Y261.9446
G01 X25.9744 Y262.0296
G01 X25.9078 Y262.1199
G01 X25.8481 Y262.2149
G01 X25.7957 Y262.3141
G01 X25.7508 Y262.4169
G01 X25.7138 Y262.5228
G01 X25.6847 Y262.6311
G01 X25.6639 Y262.7414
G01 X25.6513 Y262.8528
G01 X25.6471 Y262.9649
G01 X25.6513 Y263.0770
G01 X25.6639 Y263.1885
G01 X25.6847 Y263.2988
G01 X25.7138 Y263.4071
G01 X25.7508 Y263.5130
G01 X25.7957 Y263.6158
G01 X25.8481 Y263.7150
G01 X25.9078 Y263.8100
G01 X25.9744 Y263.9003
G01 X26.0476 Y263.9853
G01 X26.1269 Y264.0646
G01 X26.2119 Y264.1378
G01 X26.3022 Y264.2044
G01 X26.3972 Y264.2641
G01 X26.4964 Y264.3165
G01 X26.5992 Y264.3614
G01 X26.7051 Y264.3984
G01 X26.8135 Y264.4275
G01 X26.9237 Y264.4483
G01 X27.0352 Y264.4609
G01 X27.1473 Y264.4651
G01 X27.2594 Y264.4609
G01 X27.3708 Y264.4483
G01 X27.4811 Y264.4275
G01 X27.5894 Y264.3984
G01 X27.6953 Y264.3614
G01 X27.7981 Y264.3165
G01 X27.8973 Y264.2641
G01 X27.9923 Y264.2044
G01 X28.0826 Y264.1378
G01 X28.1676 Y264.0646
G01 X28.2469 Y263.9853
G01 X28.3201 Y263.9003
G01 X28.3867 Y263.8100
G01 X28.4464 Y263.7150
G01 X28.4988 Y263.6158
G01 X28.5437 Y263.5130
G01 X28.5807 Y263.4071
G01 X28.6098 Y263.2988
G01 X28.6306 Y263.1885
G01 X28.6432 Y263.0770
G01 X28.6474 Y262.9649
M107
M106 S240
G01 X28.6443 Y262.8865 Z-5.9750 F400
M107
M106 S240
G01 X28.6351 Y262.8085 Z-5.9500
M107
M106 S240
G01 X28.6198 Y262.7315 Z-5.9250
M107
M106 S240
G01 X28.5984 Y262.6559 Z-5.9000
M107
M106 S240
G01 X28.5713 Y262.5823 Z-5.8750
M107
M106 S240
G01 X28.5384 Y262.5110 Z-5.8500
M107
M106 S240
G01 X28.5000 Y262.4424 Z-5.8250
M107
M106 S240
G01 X28.4564 Y262.3772 Z-5.8000
M107
M106 S240
G01 X28.4078 Y262.3155 Z-5.7750
M107
M106 S240
G01 X28.3545 Y262.2578 Z-5.7500
M107
M106 S240
G01 X28.2968 Y262.2045 Z-5.7250
M107
M106 S240
G01 X28.2352 Y262.1559 Z-5.7000
M107
M106 S240
G01 X28.1699 Y262.1123 Z-5.6750
M107
M106 S240
G01 X28.1014 Y262.0739 Z-5.6500
M107
M106 S240
G01 X28.0301 Y262.0411 Z-5.6250
M107
M106 S240
G01 X27.9564 Y262.0139 Z-5.6000
M107
M106 S240
G01 X27.8808 Y261.9926 Z-5.5750
M107
M106 S240
G01 X27.8038 Y261.9773 Z-5.5500
M107
M106 S240
G01 X27.7259 Y261.9680 Z-5.5250
M107
M106 S240
G01 X27.6474 Y261.9649 Z-5.5000
M107
G00 Z2.0000


;No. 2: Hole 2
G00 X27.3002 Y252.9132 Z2.0000
G00 Z0.5000
G01 Z0.0000 F400
G01 Z-1.8000
M106 S240
G01 X58.3219 F1000
G01 X57.3742 Y251.4132
G01 X27.3002
G01 Y249.9132
G01 X54.3556
G01 X31.2400
G01 Y248.4132
G01 X27.3002
G01 Y246.9132
G01 X31.2400
G01 Y245.4132
G01 X27.3002
G01 Y243.9132
G01 X31.2528
G01 X27.3002 Y242.4132
G01 X58.6170
G01 Y240.9132
G01 X27.3002
G01 Y239.4132
G01 X58.6170
G01 Y237.9132
G01 X54.6624
G01 X54.6752 Y236.4132
G01 X58.6170
G01 Y234.9132
G01 X54.6752
G01 Y233.4132
G01 X58.6170
G01 Y231.9132
G01 X31.5592
G01 X28.5423 Y230.4132
G01 X58.6170
G01 Y228.9132
G01 X27.5965
G01 X27.4121 Y228.9911
G01 X27.5595 Y229.3303
G01 X27.7318 Y229.6575
G01 X27.9281 Y229.9709
G01 X28.1474 Y230.2688
G01 X28.3883 Y230.5494
G01 X28.6495 Y230.8111
G01 X28.9296 Y231.0527
G01 X29.2270 Y231.2725
G01 X29.5400 Y231.4695
G01 X29.8668 Y231.6426
G01 X30.2057 Y231.7906
G01 X30.5547 Y231.9129
G01 X30.9119 Y232.0088
G01 X31.2753 Y232.0776
G01 X31.6428 Y232.1191
G01 X32.0123 Y232.1330
G01 X53.4752
G01 X53.5188 Y232.1339
G01 X53.5623 Y232.1368
G01 X53.6057 Y232.1415
G01 X53.6488 Y232.1482
G01 X53.6916 Y232.1567
G01 X53.7340 Y232.1670
G01 X53.7759 Y232.1792
G01 X53.8172 Y232.1933
G01 X53.8578 Y232.2091
G01 X53.8978 Y232.2267
G01 X53.9369 Y232.2459
G01 X53.9752 Y232.2669
G01 X54.0125 Y232.2896
G01 X54.0487 Y232.3138
G01 X54.0839 Y232.3396
G01 X54.1179 Y232.3669
G01 X54.1507 Y232.3957
G01 X54.1823 Y232.4259
G01 X54.2124 Y232.4574
G01 X54.2412 Y232.4902
G01 X54.2685 Y232.5242
G01 X54.2943 Y232.5594
G01 X54.3185 Y232.5957
G01 X54.3412 Y232.6330
G01 X54.3622 Y232.6712
G01 X54.3815 Y232.7103
G01 X54.3990 Y232.7503
G01 X54.4148 Y232.7909
G01 X54.4289 Y232.8323
G01 X54.4411 Y232.8741
G01 X54.4515 Y232.9165
G01 X54.4600 Y232.9593
G01 X54.4666 Y233.0024
G01 X54.4714 Y233.0458
G01 X54.4742 Y233.0893
G01 X54.4752 Y233.1330
G01 Y237.7423
G01 X54.4742 Y237.7860
G01 X54.4714 Y237.8295
G01 X54.4666 Y237.8729
G01 X54.4600 Y237.9160
G01 X54.4515 Y237.9588
G01 X54.4411 Y238.0012
G01 X54.4289 Y238.0430
G01 X54.4148 Y238.0844
G01 X54.3990 Y238.1250
G01 X54.3815 Y238.1650
G01 X54.3622 Y238.2041
G01 X54.3412 Y238.2423
G01 X54.3185 Y238.2796
G01 X54.2943 Y238.3159
G01 X54.2685 Y238.3511
G01 X54.2412 Y238.3851
G01 X54.2124 Y238.4179
G01 X54.1823 Y238.4494
G01 X54.1507 Y238.4796
G01 X54.1179 Y238.5084
G01 X54.0839 Y238.5357
G01 X54.0487 Y238.5615
G01 X54.0125 Y238.5857
G01 X53.9752 Y238.6084
G01 X53.9369 Y238.6293
G01 X53.8978 Y238.6486
G01 X53.8578 Y238.6662
G01 X53.8172 Y238.6820
G01 X53.7759 Y238.6961
G01 X53.7340 Y238.7083
G01 X53.6916 Y238.7186
G01 X53.6488 Y238.7271
G01 X53.6057 Y238.7338
G01 X53.5623 Y238.7385
G01 X53.5188 Y238.7414
G01 X53.4752 Y238.7423
G01 X27.1002
G01 Y254.0334
G01 X58.7866 Y254.0239
G01 X58.7313 Y253.6707
G01 X58.6506 Y253.3224
G01 X58.5449 Y252.9809
G01 X58.4146 Y252.6479
G01 X58.2605 Y252.3252
G01 X58.0835 Y252.0146
G01 X57.8843 Y251.7177
G01 X57.6642 Y251.4360
G01 X57.4242 Y251.1710
G01 X57.1656 Y250.9241
G01 X56.8897 Y250.6966
G01 X56.5981 Y250.4897
G01 X56.2923 Y250.3045
G01 X55.9738 Y250.1420
G01 X55.6444 Y250.0030
G01 X55.3058 Y249.8883
G01 X54.9616 Y249.8022
G01 X54.6122 Y249.7408
G01 X54.2593 Y249.7045
G01 X53.9048 Y249.6935
G01 X32.4400
G01 X32.3615 Y249.6904
G01 X32.2836 Y249.6812
G01 X32.2066 Y249.6659
G01 X32.1310 Y249.6446
G01 X32.0573 Y249.6174
G01 X31.9860 Y249.5845
G01 X31.9175 Y249.5461
G01 X31.8522 Y249.5025
G01 X31.7906 Y249.4539
G01 X31.7329 Y249.4006
G01 X31.6796 Y249.3430
G01 X31.6310 Y249.2813
G01 X31.5874 Y249.2160
G01 X31.5490 Y249.1475
G01 X31.5161 Y249.0762
G01 X31.4889 Y249.0025
G01 X31.4676 Y248.9270
G01 X31.4523 Y248.8499
G01 X31.4431 Y248.7720
G01 X31.4400 Y248.6935
G01 Y244.0841
G01 X31.4410 Y244.0405
G01 X31.4438 Y243.9970
G01 X31.4486 Y243.9536
G01 X31.4552 Y243.9105
G01 X31.4637 Y243.8677
G01 X31.4741 Y243.8253
G01 X31.4863 Y243.7834
G01 X31.5003 Y243.7421
G01 X31.5161 Y243.7014
G01 X31.5337 Y243.6615
G01 X31.5530 Y243.6224
G01 X31.5740 Y243.5841
G01 X31.5966 Y243.5468
G01 X31.6208 Y243.5106
G01 X31.6466 Y243.4754
G01 X31.6740 Y243.4413
G01 X31.7027 Y243.4085
G01 X31.7329 Y243.3770
G01 X31.7644 Y243.3469
G01 X31.7972 Y243.3181
G01 X31.8312 Y243.2908
G01 X31.8664 Y243.2650
G01 X31.9027 Y243.2407
G01 X31.9400 Y243.2181
G01 X31.9783 Y243.1971
G01 X32.0174 Y243.1778
G01 X32.0573 Y243.1603
G01 X32.0980 Y243.1444
G01 X32.1393 Y243.1304
G01 X32.1812 Y243.1182
G01 X32.2236 Y243.1078
G01 X32.2664 Y243.0993
G01 X32.3095 Y243.0927
G01 X32.3528 Y243.0879
G01 X32.3964 Y243.0851
G01 X32.4400 Y243.0841
G01 X58.8170
G01 Y227.7931
G01 X27.1302
G01 X27.1712 Y228.0989
G01 X27.2321 Y228.4013
G01 X27.3125 Y228.6991
G01 X27.4121 Y228.9911
G01 X27.5965 Y228.9132
M107
G00 Z2.0000


;No. 3: Hole 3
G00 X68.5917 Y252.6130 Z2.0000
G00 Z0.5000
G01 Z0.0000 F400
G01 Z-1.8000
M106 S240
G01 X99.0699 F1000
G01 X97.9416 Y251.1130
G01 X69.6765
G01 X69.5428 Y250.9643
G01 X69.3335 Y251.1685
G01 X69.1370 Y251.3850
G01 X68.9540 Y251.6131
G01 X68.7851 Y251.8518
G01 X68.6309 Y252.1002
G01 X68.4921 Y252.3576
G01 X68.3691 Y252.6229
G01 X68.2624 Y252.8951
G01 X68.1723 Y253.1733
G01 X68.0993 Y253.4564
G01 X68.0435 Y253.7435
G01 X68.0052 Y254.0333
G01 X99.6598 Y254.0242
G01 X99.6048 Y253.6708
G01 X99.5244 Y253.3223
G01 X99.4188 Y252.9807
G01 X99.2887 Y252.6476
G01 X99.1348 Y252.3248
G01 X98.9578 Y252.0140
G01 X98.7587 Y251.7170
G01 X98.5385 Y251.4352
G01 X98.2985 Y251.1701
G01 X98.0398 Y250.9232
G01 X97.7638 Y250.6957
G01 X97.4721 Y250.4888
G01 X97.1661 Y250.3037
G01 X96.8475 Y250.1414
G01 X96.5179 Y250.0026
G01 X96.1791 Y249.8881
G01 X95.8349 Y249.8020
G01 X95.4854 Y249.7407
G01 X95.1325 Y249.7044
G01 X94.7778 Y249.6934
G01 X72.8874
G01 X72.5818 Y249.6965
G01 X72.2771 Y249.7191
G01 X71.9744 Y249.7613
G01 X71.6750 Y249.8228
G01 X71.3802 Y249.9034
G01 X71.0912 Y250.0027
G01 X70.8091 Y250.1204
G01 X70.5352 Y250.2559
G01 X70.2706 Y250.4087
G01 X70.0162 Y250.5782
G01 X69.7733 Y250.7636
G01 X69.5428 Y250.9643
G01 X69.6765 Y251.1130
M107
G00 Z2.0000


;No. 4: Hole 4
G00 X68.5916 Y241.6632 Z2.0000
G00 Z0.5000
G01 Z0.0000 F400
G01 Z-1.8000
M106 S240
G01 X99.0705 F1000
G01 X97.9431 Y240.1632
G01 X69.6772
G01 X69.5429 Y240.0150
G01 X69.3336 Y240.2192
G01 X69.1371 Y240.4357
G01 X68.9541 Y240.6638
G01 X68.7851 Y240.9025
G01 X68.6310 Y241.1510
G01 X68.4921 Y241.4083
G01 X68.3691 Y241.6736
G01 X68.2624 Y241.9458
G01 X68.1723 Y242.2240
G01 X68.0993 Y242.5072
G01 X68.0435 Y242.7942
G01 X68.0052 Y243.0841
G01 X99.6600 Y243.0840
G01 X99.6040 Y242.7197
G01 X99.5209 Y242.3607
G01 X99.4111 Y242.0088
G01 X99.2752 Y241.6662
G01 X99.1141 Y241.3347
G01 X98.9285 Y241.0163
G01 X98.7196 Y240.7126
G01 X98.4885 Y240.4255
G01 X98.2366 Y240.1565
G01 X97.9651 Y239.9072
G01 X97.6758 Y239.6788
G01 X97.3701 Y239.4729
G01 X97.0499 Y239.2904
G01 X96.7169 Y239.1324
G01 X96.3730 Y238.9999
G01 X96.0201 Y238.8935
G01 X95.7137 Y238.8266
G01 X95.4037 Y238.7790
G01 X95.0913 Y238.7509
G01 X94.7778 Y238.7422
G01 X72.8875
G01 X72.5818 Y238.7455
G01 X72.2770 Y238.7683
G01 X71.9743 Y238.8106
G01 X71.6749 Y238.8722
G01 X71.3801 Y238.9530
G01 X71.0911 Y239.0525
G01 X70.8090 Y239.1703
G01 X70.5351 Y239.3060
G01 X70.2705 Y239.4589
G01 X70.0162 Y239.6286
G01 X69.7733 Y239.8142
G01 X69.5429 Y240.0150
G01 X69.6772 Y240.1632
M107
G00 Z2.0000


;No. 5: Hole 5
G00 X68.5915 Y230.7130 Z2.0000
G00 Z0.5000
G01 Z0.0000 F400
G01 Z-1.8000
M106 S240
G01 X99.0701 F1000
G01 X97.9420 Y229.2130
G01 X69.6761
G01 X69.5428 Y229.0639
G01 X69.3335 Y229.2681
G01 X69.1370 Y229.4847
G01 X68.9540 Y229.7127
G01 X68.7851 Y229.9514
G01 X68.6309 Y230.1999
G01 X68.4921 Y230.4572
G01 X68.3691 Y230.7225
G01 X68.2624 Y230.9947
G01 X68.1723 Y231.2729
G01 X68.0993 Y231.5560
G01 X68.0435 Y231.8431
G01 X68.0052 Y232.1330
G01 X99.6598 Y232.1238
G01 X99.6048 Y231.7704
G01 X99.5244 Y231.4220
G01 X99.4188 Y231.0803
G01 X99.2887 Y230.7472
G01 X99.1348 Y230.4244
G01 X98.9578 Y230.1136
G01 X98.7587 Y229.8166
G01 X98.5385 Y229.5348
G01 X98.2985 Y229.2697
G01 X98.0398 Y229.0228
G01 X97.7638 Y228.7953
G01 X97.4721 Y228.5885
G01 X97.1661 Y228.4034
G01 X96.8475 Y228.2410
G01 X96.5179 Y228.1022
G01 X96.1791 Y227.9877
G01 X95.8349 Y227.9016
G01 X95.4854 Y227.8403
G01 X95.1325 Y227.8040
G01 X94.7778 Y227.7930
G01 X72.8874
G01 X72.5818 Y227.7961
G01 X72.2771 Y227.8187
G01 X71.9744 Y227.8609
G01 X71.6750 Y227.9224
G01 X71.3802 Y228.0030
G01 X71.0912 Y228.1023
G01 X70.8091 Y228.2200
G01 X70.5352 Y228.3555
G01 X70.2705 Y228.5083
G01 X70.0162 Y228.6778
G01 X69.7733 Y228.8632
G01 X69.5428 Y229.0639
G01 X69.6761 Y229.2130
M107
G00 Z2.0000


;No. 6: Hole 6
G00 X109.0482 Y228.9132 Z2.0000
G00 Z0.5000
G01 Z0.0000 F400
G01 Z-1.8000
M106 S240
G01 X112.9880 F1000
G01 Y230.4132
G01 X113.1674
G01 X109.0482
G01 Y231.9132
G01 X114.8926
G01 X116.7108 Y233.4132
G01 X110.0798
G01 X111.5801 Y234.9132
G01 X118.5290
G01 Y236.4132
G01 X120.3471
G01 X113.0805
G01 X114.5809 Y237.9132
G01 X122.1653
G01 X123.9834 Y239.4132
G01 X116.0812
G01 X117.0833
G01 Y240.9132
G01 X132.3280
G01 Y242.4132
G01 X133.3179
G01 X125.4316
G01 X127.2494 Y243.9132
G01 X134.7950
G01 X136.3337 Y245.4132
G01 X129.0673
G01 X130.8851
G01 Y246.9132
G01 X137.8337
G01 X139.3337 Y248.4132
G01 X132.7030
G01 X134.5208 Y249.9132
G01 X140.3650
G01 Y251.4132
G01 X136.2458
G01 X136.4251
G01 Y252.9132
G01 X140.3650
M107
G00 Z2.0000
G00 X127.2923 Y240.9132
G00 Z0.5000
G01 Z-1.8000 F400
M106 S240
G01 Y239.4132 F1000
G01 X133.3338
G01 X134.8338 Y237.9132
G01 X128.7923
G01 X130.2923 Y236.4132
G01 X136.3338
G01 X137.8338 Y234.9132
G01 X131.7923
G01 X133.2923 Y233.4132
G01 X139.3338
G01 X140.3650 Y231.9132
G01 X134.7923
G01 X136.2458 Y230.4132
G01 X140.3650
G01 Y228.9132
G01 X136.4252
M107
G00 Z2.0000
G00 X122.1225 Y240.9132
G00 Z0.5000
G01 Z-1.8000 F400
M106 S240
G01 Y242.4132 F1000
G01 X116.0794
G01 X114.5794 Y243.9132
G01 X120.6222
G01 X119.1219 Y245.4132
G01 X113.0794
G01 X111.5794 Y246.9132
G01 X117.6217
G01 X116.1214 Y248.4132
G01 X110.0794
G01 X109.0482 Y249.9132
G01 X114.6211
G01 X113.1674 Y251.4132
G01 X109.0482
G01 Y252.9132
G01 X112.9880
G01 X113.1880 Y252.9182
G01 X113.1689 Y252.6604
G01 X113.1646 Y252.4021
G01 X113.1751 Y252.1439
G01 X113.2004 Y251.8867
G01 X113.2160 Y251.8084
G01 X113.2378 Y251.7317
G01 X113.2656 Y251.6569
G01 X113.2993 Y251.5846
G01 X113.3387 Y251.5152
G01 X113.3835 Y251.4492
G01 X113.4334 Y251.3870
G01 X113.4881 Y251.3289
G01 X123.9015 Y240.9174
G01 X135.9322 Y251.3360
G01 X135.9770 Y251.3838
G01 X136.0185 Y251.4344
G01 X136.0566 Y251.4875
G01 X136.0912 Y251.5431
G01 X136.1220 Y251.6008
G01 X136.1490 Y251.6604
G01 X136.1721 Y251.7217
G01 X136.1911 Y251.7843
G01 X136.2059 Y251.8480
G01 X136.2166 Y251.9126
G01 X136.2230 Y251.9777
G01 X136.2251 Y252.0431
G01 Y254.0334
G01 X140.5650
G01 Y249.3616
G01 X135.4223 Y244.2189
G01 X135.3365 Y244.1454
G01 X135.2513 Y244.0711
G01 X135.1668 Y243.9962
G01 X135.0829 Y243.9205
G01 X132.8154 Y241.6178
G01 X132.7628 Y241.5600
G01 X132.7148 Y241.4983
G01 X132.6718 Y241.4331
G01 X132.6341 Y241.3647
G01 X132.6018 Y241.2935
G01 X132.5752 Y241.2201
G01 X132.5544 Y241.1447
G01 X132.5395 Y241.0680
G01 X132.5306 Y240.9904
G01 X132.5279 Y240.9123
G01 X132.5312 Y240.8343
G01 X132.5407 Y240.7567
G01 X132.5561 Y240.6801
G01 X132.5775 Y240.6050
G01 X132.6047 Y240.5317
G01 X132.6376 Y240.4608
G01 X132.6758 Y240.3927
G01 X132.7193 Y240.3278
G01 X132.7677 Y240.2664
G01 X132.8208 Y240.2091
G01 X140.5650 Y232.4648
G01 Y227.7931
G01 X136.2252
G01 X136.2471 Y228.3101
G01 X136.2539 Y228.8275
G01 X136.2455 Y229.3449
G01 X136.2221 Y229.8618
G01 X136.2110 Y229.9507
G01 X136.1921 Y230.0383
G01 X136.1654 Y230.1238
G01 X136.1312 Y230.2065
G01 X136.0897 Y230.2859
G01 X136.0413 Y230.3613
G01 X135.9863 Y230.4320
G01 X135.9252 Y230.4975
G01 X125.5137 Y240.9090
G01 X113.4810 Y230.4905
G01 X113.4538 Y230.4622
G01 X113.4277 Y230.4329
G01 X113.4028 Y230.4025
G01 X113.3791 Y230.3712
G01 X113.3566 Y230.3390
G01 X113.3354 Y230.3059
G01 X113.3156 Y230.2720
G01 X113.2971 Y230.2374
G01 X113.2799 Y230.2021
G01 X113.2642 Y230.1661
G01 X113.2499 Y230.1295
G01 X113.2370 Y230.0924
G01 X113.2256 Y230.0548
G01 X113.2157 Y230.0168
G01 X113.2073 Y229.9785
G01 X113.2004 Y229.9398
G01 X113.1950 Y229.9009
G01 X113.1911 Y229.8618
G01 X113.1888 Y229.8226
G01 X113.1880 Y229.7834
G01 Y227.7931
G01 X108.8482
G01 Y232.4648
G01 X116.5904 Y240.2051
G01 X116.6437 Y240.2627
G01 X116.6923 Y240.3244
G01 X116.7359 Y240.3897
G01 X116.7743 Y240.4582
G01 X116.8072 Y240.5295
G01 X116.8344 Y240.6032
G01 X116.8557 Y240.6787
G01 X116.8710 Y240.7558
G01 X116.8803 Y240.8337
G01 X116.8834 Y240.9122
G01 X116.8803 Y240.9907
G01 X116.8711 Y241.0686
G01 X116.8557 Y241.1457
G01 X116.8344 Y241.2212
G01 X116.8072 Y241.2949
G01 X116.7744 Y241.3662
G01 X116.7360 Y241.4347
G01 X116.6924 Y241.5000
G01 X116.6438 Y241.5617
G01 X116.5905 Y241.6194
G01 X114.1569 Y244.0530
G01 X108.8482 Y249.3616
G01 Y254.0334
G01 X113.1880
G01 Y252.9182
G01 X112.9880 Y252.9132
M107
G00 Z2.0000


;No. 7: Helical drill 2
G00 X183.1472 Y262.9650 Z2.0000
G00 Z0.5000
M106 S240
G01 X183.1434 Y262.8778 Z0.4774 F400
G01 X183.1320 Y262.7913 Z0.4549
G01 X183.1131 Y262.7062 Z0.4323
G01 X183.0869 Y262.6230 Z0.4097
G01 X183.0535 Y262.5424 Z0.3872
G01 X183.0132 Y262.4650 Z0.3646
G01 X182.9663 Y262.3914 Z0.3420
G01 X182.9132 Y262.3222 Z0.3194
G01 X182.8543 Y262.2579 Z0.2969
G01 X182.7900 Y262.1989 Z0.2743
G01 X182.7208 Y262.1458 Z0.2517
G01 X182.6472 Y262.0990 Z0.2292
G01 X182.5698 Y262.0587 Z0.2066
G01 X182.4892 Y262.0253 Z0.1840
G01 X182.4060 Y261.9991 Z0.1615
G01 X182.3208 Y261.9802 Z0.1389
G01 X182.2343 Y261.9688 Z0.1163
G01 X182.1472 Y261.9650 Z0.0938
G01 X182.0600 Y261.9688 Z0.0712
G01 X181.9735 Y261.9802 Z0.0486
G01 X181.8884 Y261.9991 Z0.0260
G01 X181.8052 Y262.0253 Z0.0035
G01 X181.7246 Y262.0587 Z-0.0191
G01 X181.6472 Y262.0990 Z-0.0417
G01 X181.6065 Y262.1237 Z-0.0540
G01 X181.5671 Y262.1504 Z-0.0663
G01 X181.5290 Y262.1789 Z-0.0786
G01 X181.4923 Y262.2092 Z-0.0909
G01 X181.4571 Y262.2413 Z-0.1032
G01 X181.4234 Y262.2749 Z-0.1155
G01 X181.3914 Y262.3101 Z-0.1278
G01 X181.3611 Y262.3468 Z-0.1402
G01 X181.3326 Y262.3849 Z-0.1525
G01 X181.3059 Y262.4244 Z-0.1648
G01 X181.2812 Y262.4650 Z-0.1771
G01 X181.2583 Y262.5068 Z-0.1894
G01 X181.2375 Y262.5496 Z-0.2017
G01 X181.2188 Y262.5933 Z-0.2140
G01 X181.2022 Y262.6379 Z-0.2263
G01 X181.1877 Y262.6833 Z-0.2386
G01 X181.1754 Y262.7292 Z-0.2509
G01 X181.1652 Y262.7757 Z-0.2633
G01 X181.1574 Y262.8227 Z-0.2756
G01 X181.1517 Y262.8699 Z-0.2879
G01 X181.1483 Y262.9174 Z-0.3002
G01 X181.1472 Y262.9650 Z-0.3125
G01 X181.1483 Y263.0126 Z-0.3248
G01 X181.1517 Y263.0600 Z-0.3371
G01 X181.1574 Y263.1073 Z-0.3494
G01 X181.1652 Y263.1542 Z-0.3617
G01 X181.1754 Y263.2008 Z-0.3741
G01 X181.1877 Y263.2467 Z-0.3864
G01 X181.2022 Y263.2921 Z-0.3987
G01 X181.2188 Y263.3367 Z-0.4110
G01 X181.2375 Y263.3804 Z-0.4233
G01 X181.2583 Y263.4232 Z-0.4356
G01 X181.2812 Y263.4650 Z-0.4479
G01 X181.3059 Y263.5056 Z-0.4602
G01 X181.3326 Y263.5451 Z-0.4725
G01 X181.3611 Y263.5832 Z-0.4848
G01 X181.3914 Y263.6199 Z-0.4972
G01 X181.4234 Y263.6551 Z-0.5095
G01 X181.4571 Y263.6887 Z-0.5218
G01 X181.4923 Y263.7207 Z-0.5341
G01 X181.5290 Y263.7510 Z-0.5464
G01 X181.5671 Y263.7796 Z-0.5587
G01 X181.6065 Y263.8062 Z-0.5710
G01 X181.6472 Y263.8310 Z-0.5833
G01 X181.6889 Y263.8538 Z-0.5956
G01 X181.7318 Y263.8746 Z-0.6080
G01 X181.7755 Y263.8934 Z-0.6203
G01 X181.8201 Y263.9100 Z-0.6326
G01 X181.8654 Y263.9245 Z-0.6449
G01 X181.9114 Y263.9368 Z-0.6572
G01 X181.9579 Y263.9469 Z-0.6695
G01 X182.0049 Y263.9548 Z-0.6818
G01 X182.0521 Y263.9605 Z-0.6941
G01 X182.0996 Y263.9639 Z-0.7064
G01 X182.1472 Y263.9650 Z-0.7188
G01 X182.1948 Y263.9639 Z-0.7311
G01 X182.2422 Y263.9605 Z-0.7434
G01 X182.2895 Y263.9548 Z-0.7557
G01 X182.3364 Y263.9469 Z-0.7680
G01 X182.3829 Y263.9368 Z-0.7803
G01 X182.4289 Y263.9245 Z-0.7926
G01 X182.4742 Y263.9100 Z-0.8049
G01 X182.5188 Y263.8934 Z-0.8172
G01 X182.5626 Y263.8746 Z-0.8295
G01 X182.6054 Y263.8538 Z-0.8419
G01 X182.6472 Y263.8310 Z-0.8542
G01 X182.6878 Y263.8062 Z-0.8665
G01 X182.7272 Y263.7796 Z-0.8788
G01 X182.7653 Y263.7510 Z-0.8911
G01 X182.8020 Y263.7207 Z-0.9034
G01 X182.8373 Y263.6887 Z-0.9157
G01 X182.8709 Y263.6551 Z-0.9280
G01 X182.9029 Y263.6199 Z-0.9403
G01 X182.9332 Y263.5832 Z-0.9527
G01 X182.9618 Y263.5451 Z-0.9650
G01 X182.9884 Y263.5056 Z-0.9773
G01 X183.0132 Y263.4650 Z-0.9896
G01 X183.0360 Y263.4232 Z-1.0019
G01 X183.0568 Y263.3804 Z-1.0142
G01 X183.0755 Y263.3367 Z-1.0265
G01 X183.0922 Y263.2921 Z-1.0388
G01 X183.1067 Y263.2467 Z-1.0511
G01 X183.1190 Y263.2008 Z-1.0634
G01 X183.1291 Y263.1542 Z-1.0758
G01 X183.1370 Y263.1073 Z-1.0881
G01 X183.1426 Y263.0600 Z-1.1004
G01 X183.1460 Y263.0126 Z-1.1127
G01 X183.1472 Y262.9650 Z-1.1250
G01 X183.1434 Y262.8778
G01 X183.1320 Y262.7913
G01 X183.1131 Y262.7062
G01 X183.0869 Y262.6230
G01 X183.0535 Y262.5424
G01 X183.0132 Y262.4650
G01 X182.9663 Y262.3914
G01 X182.9132 Y262.3222
G01 X182.8543 Y262.2579
G01 X182.7900 Y262.1989
G01 X182.7208 Y262.1458
G01 X182.6472 Y262.0990
G01 X182.5698 Y262.0587
G01 X182.4892 Y262.0253
G01 X182.4060 Y261.9991
G01 X182.3208 Y261.9802
G01 X182.2343 Y261.9688
G01 X182.1472 Y261.9650
G01 X182.0600 Y261.9688
G01 X181.9735 Y261.9802
G01 X181.8884 Y261.9991
G01 X181.8052 Y262.0253
G01 X181.7246 Y262.0587
G01 X181.6472 Y262.0990
G01 X181.6065 Y262.1237
G01 X181.5671 Y262.1504
G01 X181.5290 Y262.1789
G01 X181.4923 Y262.2092
G01 X181.4571 Y262.2413
G01 X181.4234 Y262.2749
G01 X181.3914 Y262.3101
G01 X181.3611 Y262.3468
G01 X181.3326 Y262.3849
G01 X181.3059 Y262.4244
G01 X181.2812 Y262.4650
G01 X181.2583 Y262.5068
G01 X181.2375 Y262.5496
G01 X181.2188 Y262.5933
G01 X181.2022 Y262.6379
G01 X181.1877 Y262.6833
G01 X181.1754 Y262.7292
G01 X181.1652 Y262.7757
G01 X181.1574 Y262.8227
G01 X181.1517 Y262.8699
G01 X181.1483 Y262.9174
G01 X181.1472 Y262.9650
G01 X181.1483 Y263.0126
G01 X181.1517 Y263.0600
G01 X181.1574 Y263.1073
G01 X181.1652 Y263.1542
G01 X181.1754 Y263.2008
G01 X181.1877 Y263.2467
G01 X181.2022 Y263.2921
G01 X181.2188 Y263.3367
G01 X181.2375 Y263.3804
G01 X181.2583 Y263.4232
G01 X181.2812 Y263.4650
G01 X181.3059 Y263.5056
G01 X181.3326 Y263.5451
G01 X181.3611 Y263.5832
G01 X181.3914 Y263.6199
G01 X181.4234 Y263.6551
G01 X181.4571 Y263.6887
G01 X181.4923 Y263.7207
G01 X181.5290 Y263.7510
G01 X181.5671 Y263.7796
G01 X181.6065 Y263.8062
G01 X181.6472 Y263.8310
G01 X181.6889 Y263.8538
G01 X181.7318 Y263.8746
G01 X181.7755 Y263.8934
G01 X181.8201 Y263.9100
G01 X181.8654 Y263.9245
G01 X181.9114 Y263.9368
G01 X181.9579 Y263.9469
G01 X182.0049 Y263.9548
G01 X182.0521 Y263.9605
G01 X182.0996 Y263.9639
G01 X182.1472 Y263.9650
G01 X182.1948 Y263.9639
G01 X182.2422 Y263.9605
G01 X182.2895 Y263.9548
G01 X182.3364 Y263.9469
G01 X182.3829 Y263.9368
G01 X182.4289 Y263.9245
G01 X182.4742 Y263.9100
G01 X182.5188 Y263.8934
G01 X182.5626 Y263.8746
G01 X182.6054 Y263.8538
G01 X182.6472 Y263.8310
G01 X182.6878 Y263.8062
G01 X182.7272 Y263.7796
G01 X182.7653 Y263.7510
G01 X182.8020 Y263.7207
G01 X182.8373 Y263.6887
G01 X182.8709 Y263.6551
G01 X182.9029 Y263.6199
G01 X182.9332 Y263.5832
G01 X182.9618 Y263.5451
G01 X182.9884 Y263.5056
G01 X183.0132 Y263.4650
G01 X183.0360 Y263.4232
G01 X183.0568 Y263.3804
G01 X183.0755 Y263.3367
G01 X183.0922 Y263.2921
G01 X183.1067 Y263.2467
G01 X183.1190 Y263.2008
G01 X183.1291 Y263.1542
G01 X183.1370 Y263.1073
G01 X183.1426 Y263.0600
G01 X183.1460 Y263.0126
G01 X183.1472 Y262.9650
G01 X183.1579 Y262.9134 F1000
G01 X183.1660 Y262.8613
G01 X183.1714 Y262.8089
G01 X183.1741 Y262.7563
G01 X183.1740 Y262.7036
G01 X183.1713 Y262.6509
G01 X183.1658 Y262.5985
G01 X183.1577 Y262.5464
G01 X183.1460 Y262.4904
G01 X183.1314 Y262.4351
G01 X183.1140 Y262.3806
G01 X183.0939 Y262.3271
G01 X183.0710 Y262.2747
G01 X183.0455 Y262.2235
G01 X183.0175 Y262.1736
G01 X182.9869 Y262.1253
G01 X182.9513 Y262.0749
G01 X182.9131 Y262.0264
G01 X182.8726 Y261.9799
G01 X182.8297 Y261.9355
G01 X182.7847 Y261.8933
G01 X182.7375 Y261.8535
G01 X182.6884 Y261.8161
G01 X182.6375 Y261.7813
G01 X182.5810 Y261.7467
G01 X182.5228 Y261.7150
G01 X182.4631 Y261.6864
G01 X182.4020 Y261.6607
G01 X182.3398 Y261.6382
G01 X182.2764 Y261.6189
G01 X182.2122 Y261.6028
G01 X182.1472 Y261.5900
G01 X182.0771 Y261.5798
G01 X182.0067 Y261.5732
G01 X181.9360 Y261.5701
G01 X181.8652 Y261.5706
G01 X181.7946 Y261.5746
G01 X181.7242 Y261.5822
G01 X181.6543 Y261.5934
G01 X181.5851 Y261.6080
G01 X181.5169 Y261.6340
G01 X181.4501 Y261.6633
G01 X181.3848 Y261.6958
G01 X181.3211 Y261.7315
G01 X181.2594 Y261.7703
G01 X181.1995 Y261.8121
G01 X181.1419 Y261.8568
G01 X181.0864 Y261.9043
G01 X181.0357 Y261.9576
G01 X180.9876 Y262.0133
G01 X180.9423 Y262.0714
G01 X180.8999 Y262.1316
G01 X180.8605 Y262.1938
G01 X180.8242 Y262.2579
G01 X180.7911 Y262.3236
G01 X180.7613 Y262.3909
G01 X180.7348 Y262.4596
G01 X180.7117 Y262.5295
G01 X180.6920 Y262.6005
G01 X180.6759 Y262.6723
G01 X180.6633 Y262.7449
G01 X180.6543 Y262.8180
G01 X180.6489 Y262.8914
G01 X180.6471 Y262.9650
G01 X180.6489 Y263.0386
G01 X180.6543 Y263.1120
G01 X180.6633 Y263.1851
G01 X180.6759 Y263.2576
G01 X180.6920 Y263.3295
G01 X180.7117 Y263.4004
G01 X180.7348 Y263.4704
G01 X180.7613 Y263.5391
G01 X180.7911 Y263.6064
G01 X180.8242 Y263.6721
G01 X180.8605 Y263.7362
G01 X180.8999 Y263.7984
G01 X180.9423 Y263.8586
G01 X180.9876 Y263.9166
G01 X181.0357 Y263.9724
G01 X181.0864 Y264.0257
G01 X181.1398 Y264.0765
G01 X181.1955 Y264.1246
G01 X181.2536 Y264.1699
G01 X181.3138 Y264.2123
G01 X181.3760 Y264.2517
G01 X181.4400 Y264.2880
G01 X181.5058 Y264.3211
G01 X181.5731 Y264.3509
G01 X181.6418 Y264.3774
G01 X181.7117 Y264.4005
G01 X181.7827 Y264.4201
G01 X181.8545 Y264.4363
G01 X181.9271 Y264.4489
G01 X182.0001 Y264.4579
G01 X182.0736 Y264.4633
G01 X182.1472 Y264.4651
G01 X182.2208 Y264.4633
G01 X182.2942 Y264.4579
G01 X182.3673 Y264.4489
G01 X182.4398 Y264.4363
G01 X182.5117 Y264.4201
G01 X182.5826 Y264.4005
G01 X182.6525 Y264.3774
G01 X182.7212 Y264.3509
G01 X182.7886 Y264.3211
G01 X182.8543 Y264.2880
G01 X182.9184 Y264.2517
G01 X182.9806 Y264.2123
G01 X183.0408 Y264.1699
G01 X183.0988 Y264.1246
G01 X183.1546 Y264.0765
G01 X183.2079 Y264.0257
G01 X183.2587 Y263.9724
G01 X183.3068 Y263.9166
G01 X183.3521 Y263.8586
G01 X183.3945 Y263.7984
G01 X183.4339 Y263.7362
G01 X183.4701 Y263.6721
G01 X183.5033 Y263.6064
G01 X183.5331 Y263.5391
G01 X183.5596 Y263.4704
G01 X183.5827 Y263.4004
G01 X183.6023 Y263.3295
G01 X183.6185 Y263.2576
G01 X183.6310 Y263.1851
G01 X183.6401 Y263.1120
G01 X183.6455 Y263.0386
G01 X183.6473 Y262.9650
G01 X183.6431 Y262.8529
G01 X183.6305 Y262.7414
G01 X183.6097 Y262.6312
G01 X183.5806 Y262.5228
G01 X183.5436 Y262.4169
G01 X183.4987 Y262.3141
G01 X183.4463 Y262.2149
G01 X183.3866 Y262.1200
G01 X183.3200 Y262.0297
G01 X183.2468 Y261.9447
G01 X183.1675 Y261.8653
G01 X183.0825 Y261.7922
G01 X182.9922 Y261.7256
G01 X182.8972 Y261.6659
G01 X182.7980 Y261.6134
G01 X182.6952 Y261.5686
G01 X182.5893 Y261.5315
G01 X182.4810 Y261.5025
G01 X182.3708 Y261.4816
G01 X182.2593 Y261.4691
G01 X182.1472 Y261.4649
G01 X182.0351 Y261.4691
G01 X181.9236 Y261.4816
G01 X181.8134 Y261.5025
G01 X181.7050 Y261.5315
G01 X181.5991 Y261.5686
G01 X181.4963 Y261.6134
G01 X181.3971 Y261.6659
G01 X181.3021 Y261.7256
G01 X181.2119 Y261.7922
G01 X181.1268 Y261.8653
G01 X181.0475 Y261.9447
G01 X180.9744 Y262.0297
G01 X180.9077 Y262.1200
G01 X180.8481 Y262.2149
G01 X180.7956 Y262.3141
G01 X180.7508 Y262.4169
G01 X180.7137 Y262.5228
G01 X180.6847 Y262.6312
G01 X180.6638 Y262.7414
G01 X180.6513 Y262.8529
G01 X180.6471 Y262.9650
G01 X180.6513 Y263.0771
G01 X180.6638 Y263.1886
G01 X180.6847 Y263.2988
G01 X180.7137 Y263.4072
G01 X180.7508 Y263.5130
G01 X180.7956 Y263.6159
G01 X180.8481 Y263.7150
G01 X180.9077 Y263.8100
G01 X180.9744 Y263.9003
G01 X181.0475 Y263.9853
G01 X181.1268 Y264.0646
G01 X181.2119 Y264.1378
G01 X181.3021 Y264.2044
G01 X181.3971 Y264.2641
G01 X181.4963 Y264.3165
G01 X181.5991 Y264.3614
G01 X181.7050 Y264.3984
G01 X181.8134 Y264.4275
G01 X181.9236 Y264.4483
G01 X182.0351 Y264.4609
G01 X182.1472 Y264.4651
G01 X182.2593 Y264.4609
G01 X182.3708 Y264.4483
G01 X182.4810 Y264.4275
G01 X182.5893 Y264.3984
G01 X182.6952 Y264.3614
G01 X182.7980 Y264.3165
G01 X182.8972 Y264.2641
G01 X182.9922 Y264.2044
G01 X183.0825 Y264.1378
G01 X183.1675 Y264.0646
G01 X183.2468 Y263.9853
G01 X183.3200 Y263.9003
G01 X183.3866 Y263.8100
G01 X183.4463 Y263.7150
G01 X183.4987 Y263.6159
G01 X183.5436 Y263.5130
G01 X183.5806 Y263.4072
G01 X183.6097 Y263.2988
G01 X183.6305 Y263.1886
G01 X183.6431 Y263.0771
G01 X183.6473 Y262.9650
G01 X183.6434 Y262.8669
G01 X183.6319 Y262.7694
G01 X183.6127 Y262.6732
G01 X183.5861 Y262.5787
G01 X183.5521 Y262.4866
G01 X183.5110 Y262.3975
G01 X183.4631 Y262.3118
G01 X183.4085 Y262.2302
G01 X183.3478 Y262.1532
G01 X183.2811 Y262.0811
G01 X183.2091 Y262.0144
G01 X183.1320 Y261.9537
G01 X183.0504 Y261.8992
G01 X182.9647 Y261.8512
G01 X182.8756 Y261.8101
G01 X182.7835 Y261.7761
G01 X182.6890 Y261.7495
G01 X182.5928 Y261.7303
G01 X182.4953 Y261.7188
G01 X182.3972 Y261.7149
G01 X182.2991 Y261.7188
G01 X182.2017 Y261.7303
G01 X182.1054 Y261.7495
G01 X182.0109 Y261.7761
G01 X181.9189 Y261.8101
G01 X181.8297 Y261.8512
G01 X181.7441 Y261.8992
G01 X181.6625 Y261.9537
G01 X181.5854 Y262.0144
G01 X181.5133 Y262.0811
G01 X181.4467 Y262.1532
G01 X181.3859 Y262.2302
G01 X181.3314 Y262.3118
G01 X181.2834 Y262.3975
G01 X181.2423 Y262.4866
G01 X181.2084 Y262.5787
G01 X181.1817 Y262.6732
G01 X181.1626 Y262.7694
G01 X181.1510 Y262.8669
G01 X181.1472 Y262.9650
G01 X181.1510 Y263.0521
G01 X181.1624 Y263.1386
G01 X181.1813 Y263.2238
G01 X181.2075 Y263.3070
G01 X181.2409 Y263.3876
G01 X181.2812 Y263.4650
G01 X181.3280 Y263.5386
G01 X181.3811 Y263.6078
G01 X181.4401 Y263.6721
G01 X181.5044 Y263.7310
G01 X181.5736 Y263.7841
G01 X181.6472 Y263.8310
G01 X181.7246 Y263.8713
G01 X181.8052 Y263.9047
G01 X181.8884 Y263.9309
G01 X181.9735 Y263.9498
G01 X182.0600 Y263.9612
G01 X182.1472 Y263.9650
G01 X182.2343 Y263.9612
G01 X182.3208 Y263.9498
G01 X182.4060 Y263.9309
G01 X182.4892 Y263.9047
G01 X182.5698 Y263.8713
G01 X182.6472 Y263.8310
G01 X182.7208 Y263.7841
G01 X182.7900 Y263.7310
G01 X182.8543 Y263.6721
G01 X182.9132 Y263.6078
G01 X182.9663 Y263.5386
G01 X183.0132 Y263.4650
G01 X183.0535 Y263.3876
G01 X183.0869 Y263.3070
G01 X183.1131 Y263.2238
G01 X183.1320 Y263.1386
G01 X183.1434 Y263.0521
G01 X183.1472 Y262.9650
M107
M106 S240
G01 X183.1434 Y262.8778 Z-1.1476 F400
G01 X183.1320 Y262.7913 Z-1.1701
G01 X183.1131 Y262.7062 Z-1.1927
G01 X183.0869 Y262.6230 Z-1.2153
G01 X183.0535 Y262.5424 Z-1.2378
G01 X183.0132 Y262.4650 Z-1.2604
G01 X182.9663 Y262.3914 Z-1.2830
G01 X182.9132 Y262.3222 Z-1.3056
G01 X182.8543 Y262.2579 Z-1.3281
G01 X182.7900 Y262.1989 Z-1.3507
G01 X182.7208 Y262.1458 Z-1.3733
G01 X182.6472 Y262.0990 Z-1.3958
G01 X182.5698 Y262.0587 Z-1.4184
G01 X182.4892 Y262.0253 Z-1.4410
G01 X182.4060 Y261.9991 Z-1.4635
G01 X182.3208 Y261.9802 Z-1.4861
G01 X182.2343 Y261.9688 Z-1.5087
G01 X182.1472 Y261.9650 Z-1.5313
G01 X182.0600 Y261.9688 Z-1.5538
G01 X181.9735 Y261.9802 Z-1.5764
G01 X181.8884 Y261.9991 Z-1.5990
G01 X181.8052 Y262.0253 Z-1.6215
G01 X181.7246 Y262.0587 Z-1.6441
G01 X181.6472 Y262.0990 Z-1.6667
G01 X181.6065 Y262.1237 Z-1.6790
G01 X181.5671 Y262.1504 Z-1.6913
G01 X181.5290 Y262.1789 Z-1.7036
G01 X181.4923 Y262.2092 Z-1.7159
G01 X181.4571 Y262.2413 Z-1.7282
G01 X181.4234 Y262.2749 Z-1.7405
G01 X181.3914 Y262.3101 Z-1.7528
G01 X181.3611 Y262.3468 Z-1.7652
G01 X181.3326 Y262.3849 Z-1.7775
G01 X181.3059 Y262.4244 Z-1.7898
G01 X181.2812 Y262.4650 Z-1.8021
G01 X181.2583 Y262.5068 Z-1.8144
G01 X181.2375 Y262.5496 Z-1.8267
G01 X181.2188 Y262.5933 Z-1.8390
G01 X181.2022 Y262.6379 Z-1.8513
G01 X181.1877 Y262.6833 Z-1.8636
G01 X181.1754 Y262.7292 Z-1.8759
G01 X181.1652 Y262.7757 Z-1.8883
G01 X181.1574 Y262.8227 Z-1.9006
G01 X181.1517 Y262.8699 Z-1.9129
G01 X181.1483 Y262.9174 Z-1.9252
G01 X181.1472 Y262.9650 Z-1.9375
G01 X181.1483 Y263.0126 Z-1.9498
G01 X181.1517 Y263.0600 Z-1.9621
G01 X181.1574 Y263.1073 Z-1.9744
G01 X181.1652 Y263.1542 Z-1.9867
G01 X181.1754 Y263.2008 Z-1.9991
G01 X181.1877 Y263.2467 Z-2.0114
G01 X181.2022 Y263.2921 Z-2.0237
G01 X181.2188 Y263.3367 Z-2.0360
G01 X181.2375 Y263.3804 Z-2.0483
G01 X181.2583 Y263.4232 Z-2.0606
G01 X181.2812 Y263.4650 Z-2.0729
G01 X181.3059 Y263.5056 Z-2.0852
G01 X181.3326 Y263.5451 Z-2.0975
G01 X181.3611 Y263.5832 Z-2.1098
G01 X181.3914 Y263.6199 Z-2.1222
G01 X181.4234 Y263.6551 Z-2.1345
G01 X181.4571 Y263.6887 Z-2.1468
G01 X181.4923 Y263.7207 Z-2.1591
G01 X181.5290 Y263.7510 Z-2.1714
G01 X181.5671 Y263.7796 Z-2.1837
G01 X181.6065 Y263.8062 Z-2.1960
G01 X181.6472 Y263.8310 Z-2.2083
G01 X181.6889 Y263.8538 Z-2.2206
G01 X181.7318 Y263.8746 Z-2.2330
G01 X181.7755 Y263.8934 Z-2.2453
G01 X181.8201 Y263.9100 Z-2.2576
G01 X181.8654 Y263.9245 Z-2.2699
G01 X181.9114 Y263.9368 Z-2.2822
G01 X181.9579 Y263.9469 Z-2.2945
G01 X182.0049 Y263.9548 Z-2.3068
G01 X182.0521 Y263.9605 Z-2.3191
G01 X182.0996 Y263.9639 Z-2.3314
G01 X182.1472 Y263.9650 Z-2.3438
G01 X182.1948 Y263.9639 Z-2.3561
G01 X182.2422 Y263.9605 Z-2.3684
G01 X182.2895 Y263.9548 Z-2.3807
G01 X182.3364 Y263.9469 Z-2.3930
G01 X182.3829 Y263.9368 Z-2.4053
G01 X182.4289 Y263.9245 Z-2.4176
G01 X182.4742 Y263.9100 Z-2.4299
G01 X182.5188 Y263.8934 Z-2.4422
G01 X182.5626 Y263.8746 Z-2.4545
G01 X182.6054 Y263.8538 Z-2.4669
G01 X182.6472 Y263.8310 Z-2.4792
G01 X182.6878 Y263.8062 Z-2.4915
G01 X182.7272 Y263.7796 Z-2.5038
G01 X182.7653 Y263.7510 Z-2.5161
G01 X182.8020 Y263.7207 Z-2.5284
G01 X182.8373 Y263.6887 Z-2.5407
G01 X182.8709 Y263.6551 Z-2.5530
G01 X182.9029 Y263.6199 Z-2.5653
G01 X182.9332 Y263.5832 Z-2.5777
G01 X182.9618 Y263.5451 Z-2.5900
G01 X182.9884 Y263.5056 Z-2.6023
G01 X183.0132 Y263.4650 Z-2.6146
G01 X183.0360 Y263.4232 Z-2.6269
G01 X183.0568 Y263.3804 Z-2.6392
G01 X183.0755 Y263.3367 Z-2.6515
G01 X183.0922 Y263.2921 Z-2.6638
G01 X183.1067 Y263.2467 Z-2.6761
G01 X183.1190 Y263.2008 Z-2.6884
G01 X183.1291 Y263.1542 Z-2.7008
G01 X183.1370 Y263.1073 Z-2.7131
G01 X183.1426 Y263.0600 Z-2.7254
G01 X183.1460 Y263.0126 Z-2.7377
G01 X183.1472 Y262.9650 Z-2.7500
G01 X183.1434 Y262.8778
G01 X183.1320 Y262.7913
G01 X183.1131 Y262.7062
G01 X183.0869 Y262.6230
G01 X183.0535 Y262.5424
G01 X183.0132 Y262.4650
G01 X182.9663 Y262.3914
G01 X182.9132 Y262.3222
G01 X182.8543 Y262.2579
G01 X182.7900 Y262.1989
G01 X182.7208 Y262.1458
G01 X182.6472 Y262.0990
G01 X182.5698 Y262.0587
G01 X182.4892 Y262.0253
G01 X182.4060 Y261.9991
G01 X182.3208 Y261.9802
G01 X182.2343 Y261.9688
G01 X182.1472 Y261.9650
G01 X182.0600 Y261.9688
G01 X181.9735 Y261.9802
G01 X181.8884 Y261.9991
G01 X181.8052 Y262.0253
G01 X181.7246 Y262.0587
G01 X181.6472 Y262.0990
G01 X181.6065 Y262.1237
G01 X181.5671 Y262.1504
G01 X181.5290 Y262.1789
G01 X181.4923 Y262.2092
G01 X181.4571 Y262.2413
G01 X181.4234 Y262.2749
G01 X181.3914 Y262.3101
G01 X181.3611 Y262.3468
G01 X181.3326 Y262.3849
G01 X181.3059 Y262.4244
G01 X181.2812 Y262.4650
G01 X181.2583 Y262.5068
G01 X181.2375 Y262.5496
G01 X181.2188 Y262.5933
G01 X181.2022 Y262.6379
G01 X181.1877 Y262.6833
G01 X181.1754 Y262.7292
G01 X181.1652 Y262.7757
G01 X181.1574 Y262.8227
G01 X181.1517 Y262.8699
G01 X181.1483 Y262.9174
G01 X181.1472 Y262.9650
G01 X181.1483 Y263.0126
G01 X181.1517 Y263.0600
G01 X181.1574 Y263.1073
G01 X181.1652 Y263.1542
G01 X181.1754 Y263.2008
G01 X181.1877 Y263.2467
G01 X181.2022 Y263.2921
G01 X181.2188 Y263.3367
G01 X181.2375 Y263.3804
G01 X181.2583 Y263.4232
G01 X181.2812 Y263.4650
G01 X181.3059 Y263.5056
G01 X181.3326 Y263.5451
G01 X181.3611 Y263.5832
G01 X181.3914 Y263.6199
G01 X181.4234 Y263.6551
G01 X181.4571 Y263.6887
G01 X181.4923 Y263.7207
G01 X181.5290 Y263.7510
G01 X181.5671 Y263.7796
G01 X181.6065 Y263.8062
G01 X181.6472 Y263.8310
G01 X181.6889 Y263.8538
G01 X181.7318 Y263.8746
G01 X181.7755 Y263.8934
G01 X181.8201 Y263.9100
G01 X181.8654 Y263.9245
G01 X181.9114 Y263.9368
G01 X181.9579 Y263.9469
G01 X182.0049 Y263.9548
G01 X182.0521 Y263.9605
G01 X182.0996 Y263.9639
G01 X182.1472 Y263.9650
G01 X182.1948 Y263.9639
G01 X182.2422 Y263.9605
G01 X182.2895 Y263.9548
G01 X182.3364 Y263.9469
G01 X182.3829 Y263.9368
G01 X182.4289 Y263.9245
G01 X182.4742 Y263.9100
G01 X182.5188 Y263.8934
G01 X182.5626 Y263.8746
G01 X182.6054 Y263.8538
G01 X182.6472 Y263.8310
G01 X182.6878 Y263.8062
G01 X182.7272 Y263.7796
G01 X182.7653 Y263.7510
G01 X182.8020 Y263.7207
G01 X182.8373 Y263.6887
G01 X182.8709 Y263.6551
G01 X182.9029 Y263.6199
G01 X182.9332 Y263.5832
G01 X182.9618 Y263.5451
G01 X182.9884 Y263.5056
G01 X183.0132 Y263.4650
G01 X183.0360 Y263.4232
G01 X183.0568 Y263.3804
G01 X183.0755 Y263.3367
G01 X183.0922 Y263.2921
G01 X183.1067 Y263.2467
G01 X183.1190 Y263.2008
G01 X183.1291 Y263.1542
G01 X183.1370 Y263.1073
G01 X183.1426 Y263.0600
G01 X183.1460 Y263.0126
G01 X183.1472 Y262.9650
G01 X183.1579 Y262.9134 F1000
G01 X183.1660 Y262.8613
G01 X183.1714 Y262.8089
G01 X183.1741 Y262.7563
G01 X183.1740 Y262.7036
G01 X183.1713 Y262.6509
G01 X183.1658 Y262.5985
G01 X183.1577 Y262.5464
G01 X183.1460 Y262.4904
G01 X183.1314 Y262.4351
G01 X183.1140 Y262.3806
G01 X183.0939 Y262.3271
G01 X183.0710 Y262.2747
G01 X183.0455 Y262.2235
G01 X183.0175 Y262.1736
G01 X182.9869 Y262.1253
G01 X182.9513 Y262.0749
G01 X182.9131 Y262.0264
G01 X182.8726 Y261.9799
G01 X182.8297 Y261.9355
G01 X182.7847 Y261.8933
G01 X182.7375 Y261.8535
G01 X182.6884 Y261.8161
G01 X182.6375 Y261.7813
G01 X182.5810 Y261.7467
G01 X182.5228 Y261.7150
G01 X182.4631 Y261.6864
G01 X182.4020 Y261.6607
G01 X182.3398 Y261.6382
G01 X182.2764 Y261.6189
G01 X182.2122 Y261.6028
G01 X182.1472 Y261.5900
G01 X182.0771 Y261.5798
G01 X182.0067 Y261.5732
G01 X181.9360 Y261.5701
G01 X181.8652 Y261.5706
G01 X181.7946 Y261.5746
G01 X181.7242 Y261.5822
G01 X181.6543 Y261.5934
G01 X181.5851 Y261.6080
G01 X181.5169 Y261.6340
G01 X181.4501 Y261.6633
G01 X181.3848 Y261.6958
G01 X181.3211 Y261.7315
G01 X181.2594 Y261.7703
G01 X181.1995 Y261.8121
G01 X181.1419 Y261.8568
G01 X181.0864 Y261.9043
G01 X181.0357 Y261.9576
G01 X180.9876 Y262.0133
G01 X180.9423 Y262.0714
G01 X180.8999 Y262.1316
G01 X180.8605 Y262.1938
G01 X180.8242 Y262.2579
G01 X180.7911 Y262.3236
G01 X180.7613 Y262.3909
G01 X180.7348 Y262.4596
G01 X180.7117 Y262.5295
G01 X180.6920 Y262.6005
G01 X180.6759 Y262.6723
G01 X180.6633 Y262.7449
G01 X180.6543 Y262.8180
G01 X180.6489 Y262.8914
G01 X180.6471 Y262.9650
G01 X180.6489 Y263.0386
G01 X180.6543 Y263.1120
G01 X180.6633 Y263.1851
G01 X180.6759 Y263.2576
G01 X180.6920 Y263.3295
G01 X180.7117 Y263.4004
G01 X180.7348 Y263.4704
G01 X180.7613 Y263.5391
G01 X180.7911 Y263.6064
G01 X180.8242 Y263.6721
G01 X180.8605 Y263.7362
G01 X180.8999 Y263.7984
G01 X180.9423 Y263.8586
G01 X180.9876 Y263.9166
G01 X181.0357 Y263.9724
G01 X181.0864 Y264.0257
G01 X181.1398 Y264.0765
G01 X181.1955 Y264.1246
G01 X181.2536 Y264.1699
G01 X181.3138 Y264.2123
G01 X181.3760 Y264.2517
G01 X181.4400 Y264.2880
G01 X181.5058 Y264.3211
G01 X181.5731 Y264.3509
G01 X181.6418 Y264.3774
G01 X181.7117 Y264.4005
G01 X181.7827 Y264.4201
G01 X181.8545 Y264.4363
G01 X181.9271 Y264.4489
G01 X182.0001 Y264.4579
G01 X182.0736 Y264.4633
G01 X182.1472 Y264.4651
G01 X182.2208 Y264.4633
G01 X182.2942 Y264.4579
G01 X182.3673 Y264.4489
G01 X182.4398 Y264.4363
G01 X182.5117 Y264.4201
G01 X182.5826 Y264.4005
G01 X182.6525 Y264.3774
G01 X182.7212 Y264.3509
G01 X182.7886 Y264.3211
G01 X182.8543 Y264.2880
G01 X182.9184 Y264.2517
G01 X182.9806 Y264.2123
G01 X183.0408 Y264.1699
G01 X183.0988 Y264.1246
G01 X183.1546 Y264.0765
G01 X183.2079 Y264.0257
G01 X183.2587 Y263.9724
G01 X183.3068 Y263.9166
G01 X183.3521 Y263.8586
G01 X183.3945 Y263.7984
G01 X183.4339 Y263.7362
G01 X183.4701 Y263.6721
G01 X183.5033 Y263.6064
G01 X183.5331 Y263.5391
G01 X183.5596 Y263.4704
G01 X183.5827 Y263.4004
G01 X183.6023 Y263.3295
G01 X183.6185 Y263.2576
G01 X183.6310 Y263.1851
G01 X183.6401 Y263.1120
G01 X183.6455 Y263.0386
G01 X183.6473 Y262.9650
G01 X183.6431 Y262.8529
G01 X183.6305 Y262.7414
G01 X183.6097 Y262.6312
G01 X183.5806 Y262.5228
G01 X183.5436 Y262.4169
G01 X183.4987 Y262.3141
G01 X183.4463 Y262.2149
G01 X183.3866 Y262.1200
G01 X183.3200 Y262.0297
G01 X183.2468 Y261.9447
G01 X183.1675 Y261.8653
G01 X183.0825 Y261.7922
G01 X182.9922 Y261.7256
G01 X182.8972 Y261.6659
G01 X182.7980 Y261.6134
G01 X182.6952 Y261.5686
G01 X182.5893 Y261.5315
G01 X182.4810 Y261.5025
G01 X182.3708 Y261.4816
G01 X182.2593 Y261.4691
G01 X182.1472 Y261.4649
G01 X182.0351 Y261.4691
G01 X181.9236 Y261.4816
G01 X181.8134 Y261.5025
G01 X181.7050 Y261.5315
G01 X181.5991 Y261.5686
G01 X181.4963 Y261.6134
G01 X181.3971 Y261.6659
G01 X181.3021 Y261.7256
G01 X181.2119 Y261.7922
G01 X181.1268 Y261.8653
G01 X181.0475 Y261.9447
G01 X180.9744 Y262.0297
G01 X180.9077 Y262.1200
G01 X180.8481 Y262.2149
G01 X180.7956 Y262.3141
G01 X180.7508 Y262.4169
G01 X180.7137 Y262.5228
G01 X180.6847 Y262.6312
G01 X180.6638 Y262.7414
G01 X180.6513 Y262.8529
G01 X180.6471 Y262.9650
G01 X180.6513 Y263.0771
G01 X180.6638 Y263.1886
G01 X180.6847 Y263.2988
G01 X180.7137 Y263.4072
G01 X180.7508 Y263.5130
G01 X180.7956 Y263.6159
G01 X180.8481 Y263.7150
G01 X180.9077 Y263.8100
G01 X180.9744 Y263.9003
G01 X181.0475 Y263.9853
G01 X181.1268 Y264.0646
G01 X181.2119 Y264.1378
G01 X181.3021 Y264.2044
G01 X181.3971 Y264.2641
G01 X181.4963 Y264.3165
G01 X181.5991 Y264.3614
G01 X181.7050 Y264.3984
G01 X181.8134 Y264.4275
G01 X181.9236 Y264.4483
G01 X182.0351 Y264.4609
G01 X182.1472 Y264.4651
G01 X182.2593 Y264.4609
G01 X182.3708 Y264.4483
G01 X182.4810 Y264.4275
G01 X182.5893 Y264.3984
G01 X182.6952 Y264.3614
G01 X182.7980 Y264.3165
G01 X182.8972 Y264.2641
G01 X182.9922 Y264.2044
G01 X183.0825 Y264.1378
G01 X183.1675 Y264.0646
G01 X183.2468 Y263.9853
G01 X183.3200 Y263.9003
G01 X183.3866 Y263.8100
G01 X183.4463 Y263.7150
G01 X183.4987 Y263.6159
G01 X183.5436 Y263.5130
G01 X183.5806 Y263.4072
G01 X183.6097 Y263.2988
G01 X183.6305 Y263.1886
G01 X183.6431 Y263.0771
G01 X183.6473 Y262.9650
G01 X183.6434 Y262.8669
G01 X183.6319 Y262.7694
G01 X183.6127 Y262.6732
G01 X183.5861 Y262.5787
G01 X183.5521 Y262.4866
G01 X183.5110 Y262.3975
G01 X183.4631 Y262.3118
G01 X183.4085 Y262.2302
G01 X183.3478 Y262.1532
G01 X183.2811 Y262.0811
G01 X183.2091 Y262.0144
G01 X183.1320 Y261.9537
G01 X183.0504 Y261.8992
G01 X182.9647 Y261.8512
G01 X182.8756 Y261.8101
G01 X182.7835 Y261.7761
G01 X182.6890 Y261.7495
G01 X182.5928 Y261.7303
G01 X182.4953 Y261.7188
G01 X182.3972 Y261.7149
G01 X182.2991 Y261.7188
G01 X182.2017 Y261.7303
G01 X182.1054 Y261.7495
G01 X182.0109 Y261.7761
G01 X181.9189 Y261.8101
G01 X181.8297 Y261.8512
G01 X181.7441 Y261.8992
G01 X181.6625 Y261.9537
G01 X181.5854 Y262.0144
G01 X181.5133 Y262.0811
G01 X181.4467 Y262.1532
G01 X181.3859 Y262.2302
G01 X181.3314 Y262.3118
G01 X181.2834 Y262.3975
G01 X181.2423 Y262.4866
G01 X181.2084 Y262.5787
G01 X181.1817 Y262.6732
G01 X181.1626 Y262.7694
G01 X181.1510 Y262.8669
G01 X181.1472 Y262.9650
G01 X181.1510 Y263.0521
G01 X181.1624 Y263.1386
G01 X181.1813 Y263.2238
G01 X181.2075 Y263.3070
G01 X181.2409 Y263.3876
G01 X181.2812 Y263.4650
G01 X181.3280 Y263.5386
G01 X181.3811 Y263.6078
G01 X181.4401 Y263.6721
G01 X181.5044 Y263.7310
G01 X181.5736 Y263.7841
G01 X181.6472 Y263.8310
G01 X181.7246 Y263.8713
G01 X181.8052 Y263.9047
G01 X181.8884 Y263.9309
G01 X181.9735 Y263.9498
G01 X182.0600 Y263.9612
G01 X182.1472 Y263.9650
G01 X182.2343 Y263.9612
G01 X182.3208 Y263.9498
G01 X182.4060 Y263.9309
G01 X182.4892 Y263.9047
G01 X182.5698 Y263.8713
G01 X182.6472 Y263.8310
G01 X182.7208 Y263.7841
G01 X182.7900 Y263.7310
G01 X182.8543 Y263.6721
G01 X182.9132 Y263.6078
G01 X182.9663 Y263.5386
G01 X183.0132 Y263.4650
G01 X183.0535 Y263.3876
G01 X183.0869 Y263.3070
G01 X183.1131 Y263.2238
G01 X183.1320 Y263.1386
G01 X183.1434 Y263.0521
G01 X183.1472 Y262.9650
M107
M106 S240
G01 X183.1434 Y262.8778 Z-2.7726 F400
G01 X183.1320 Y262.7913 Z-2.7951
G01 X183.1131 Y262.7062 Z-2.8177
G01 X183.0869 Y262.6230 Z-2.8403
G01 X183.0535 Y262.5424 Z-2.8628
G01 X183.0132 Y262.4650 Z-2.8854
G01 X182.9663 Y262.3914 Z-2.9080
G01 X182.9132 Y262.3222 Z-2.9306
G01 X182.8543 Y262.2579 Z-2.9531
G01 X182.7900 Y262.1989 Z-2.9757
G01 X182.7208 Y262.1458 Z-2.9983
G01 X182.6472 Y262.0990 Z-3.0208
G01 X182.5698 Y262.0587 Z-3.0434
G01 X182.4892 Y262.0253 Z-3.0660
G01 X182.4060 Y261.9991 Z-3.0885
G01 X182.3208 Y261.9802 Z-3.1111
G01 X182.2343 Y261.9688 Z-3.1337
G01 X182.1472 Y261.9650 Z-3.1563
G01 X182.0600 Y261.9688 Z-3.1788
G01 X181.9735 Y261.9802 Z-3.2014
G01 X181.8884 Y261.9991 Z-3.2240
G01 X181.8052 Y262.0253 Z-3.2465
G01 X181.7246 Y262.0587 Z-3.2691
G01 X181.6472 Y262.0990 Z-3.2917
G01 X181.6065 Y262.1237 Z-3.3040
G01 X181.5671 Y262.1504 Z-3.3163
G01 X181.5290 Y262.1789 Z-3.3286
G01 X181.4923 Y262.2092 Z-3.3409
G01 X181.4571 Y262.2413 Z-3.3532
G01 X181.4234 Y262.2749 Z-3.3655
G01 X181.3914 Y262.3101 Z-3.3778
G01 X181.3611 Y262.3468 Z-3.3902
G01 X181.3326 Y262.3849 Z-3.4025
G01 X181.3059 Y262.4244 Z-3.4148
G01 X181.2812 Y262.4650 Z-3.4271
G01 X181.2583 Y262.5068 Z-3.4394
G01 X181.2375 Y262.5496 Z-3.4517
G01 X181.2188 Y262.5933 Z-3.4640
G01 X181.2022 Y262.6379 Z-3.4763
G01 X181.1877 Y262.6833 Z-3.4886
G01 X181.1754 Y262.7292 Z-3.5009
G01 X181.1652 Y262.7757 Z-3.5133
G01 X181.1574 Y262.8227 Z-3.5256
G01 X181.1517 Y262.8699 Z-3.5379
G01 X181.1483 Y262.9174 Z-3.5502
G01 X181.1472 Y262.9650 Z-3.5625
G01 X181.1483 Y263.0126 Z-3.5748
G01 X181.1517 Y263.0600 Z-3.5871
G01 X181.1574 Y263.1073 Z-3.5994
G01 X181.1652 Y263.1542 Z-3.6117
G01 X181.1754 Y263.2008 Z-3.6241
G01 X181.1877 Y263.2467 Z-3.6364
G01 X181.2022 Y263.2921 Z-3.6487
G01 X181.2188 Y263.3367 Z-3.6610
G01 X181.2375 Y263.3804 Z-3.6733
G01 X181.2583 Y263.4232 Z-3.6856
G01 X181.2812 Y263.4650 Z-3.6979
G01 X181.3059 Y263.5056 Z-3.7102
G01 X181.3326 Y263.5451 Z-3.7225
G01 X181.3611 Y263.5832 Z-3.7348
G01 X181.3914 Y263.6199 Z-3.7472
G01 X181.4234 Y263.6551 Z-3.7595
G01 X181.4571 Y263.6887 Z-3.7718
G01 X181.4923 Y263.7207 Z-3.7841
G01 X181.5290 Y263.7510 Z-3.7964
G01 X181.5671 Y263.7796 Z-3.8087
G01 X181.6065 Y263.8062 Z-3.8210
G01 X181.6472 Y263.8310 Z-3.8333
G01 X181.6889 Y263.8538 Z-3.8456
G01 X181.7318 Y263.8746 Z-3.8580
G01 X181.7755 Y263.8934 Z-3.8703
G01 X181.8201 Y263.9100 Z-3.8826
G01 X181.8654 Y263.9245 Z-3.8949
G01 X181.9114 Y263.9368 Z-3.9072
G01 X181.9579 Y263.9469 Z-3.9195
G01 X182.0049 Y263.9548 Z-3.9318
G01 X182.0521 Y263.9605 Z-3.9441
G01 X182.0996 Y263.9639 Z-3.9564
G01 X182.1472 Y263.9650 Z-3.9688
G01 X182.1948 Y263.9639 Z-3.9811
G01 X182.2422 Y263.9605 Z-3.9934
G01 X182.2895 Y263.9548 Z-4.0057
G01 X182.3364 Y263.9469 Z-4.0180
G01 X182.3829 Y263.9368 Z-4.0303
G01 X182.4289 Y263.9245 Z-4.0426
G01 X182.4742 Y263.9100 Z-4.0549
G01 X182.5188 Y263.8934 Z-4.0672
G01 X182.5626 Y263.8746 Z-4.0795
G01 X182.6054 Y263.8538 Z-4.0919
G01 X182.6472 Y263.8310 Z-4.1042
G01 X182.6878 Y263.8062 Z-4.1165
G01 X182.7272 Y263.7796 Z-4.1288
G01 X182.7653 Y263.7510 Z-4.1411
G01 X182.8020 Y263.7207 Z-4.1534
G01 X182.8373 Y263.6887 Z-4.1657
G01 X182.8709 Y263.6551 Z-4.1780
G01 X182.9029 Y263.6199 Z-4.1903
G01 X182.9332 Y263.5832 Z-4.2027
G01 X182.9618 Y263.5451 Z-4.2150
G01 X182.9884 Y263.5056 Z-4.2273
G01 X183.0132 Y263.4650 Z-4.2396
G01 X183.0360 Y263.4232 Z-4.2519
G01 X183.0568 Y263.3804 Z-4.2642
G01 X183.0755 Y263.3367 Z-4.2765
G01 X183.0922 Y263.2921 Z-4.2888
G01 X183.1067 Y263.2467 Z-4.3011
G01 X183.1190 Y263.2008 Z-4.3134
G01 X183.1291 Y263.1542 Z-4.3258
G01 X183.1370 Y263.1073 Z-4.3381
G01 X183.1426 Y263.0600 Z-4.3504
G01 X183.1460 Y263.0126 Z-4.3627
G01 X183.1472 Y262.9650 Z-4.3750
G01 X183.1434 Y262.8778
G01 X183.1320 Y262.7913
G01 X183.1131 Y262.7062
G01 X183.0869 Y262.6230
G01 X183.0535 Y262.5424
G01 X183.0132 Y262.4650
G01 X182.9663 Y262.3914
G01 X182.9132 Y262.3222
G01 X182.8543 Y262.2579
G01 X182.7900 Y262.1989
G01 X182.7208 Y262.1458
G01 X182.6472 Y262.0990
G01 X182.5698 Y262.0587
G01 X182.4892 Y262.0253
G01 X182.4060 Y261.9991
G01 X182.3208 Y261.9802
G01 X182.2343 Y261.9688
G01 X182.1472 Y261.9650
G01 X182.0600 Y261.9688
G01 X181.9735 Y261.9802
G01 X181.8884 Y261.9991
G01 X181.8052 Y262.0253
G01 X181.7246 Y262.0587
G01 X181.6472 Y262.0990
G01 X181.6065 Y262.1237
G01 X181.5671 Y262.1504
G01 X181.5290 Y262.1789
G01 X181.4923 Y262.2092
G01 X181.4571 Y262.2413
G01 X181.4234 Y262.2749
G01 X181.3914 Y262.3101
G01 X181.3611 Y262.3468
G01 X181.3326 Y262.3849
G01 X181.3059 Y262.4244
G01 X181.2812 Y262.4650
G01 X181.2583 Y262.5068
G01 X181.2375 Y262.5496
G01 X181.2188 Y262.5933
G01 X181.2022 Y262.6379
G01 X181.1877 Y262.6833
G01 X181.1754 Y262.7292
G01 X181.1652 Y262.7757
G01 X181.1574 Y262.8227
G01 X181.1517 Y262.8699
G01 X181.1483 Y262.9174
G01 X181.1472 Y262.9650
G01 X181.1483 Y263.0126
G01 X181.1517 Y263.0600
G01 X181.1574 Y263.1073
G01 X181.1652 Y263.1542
G01 X181.1754 Y263.2008
G01 X181.1877 Y263.2467
G01 X181.2022 Y263.2921
G01 X181.2188 Y263.3367
G01 X181.2375 Y263.3804
G01 X181.2583 Y263.4232
G01 X181.2812 Y263.4650
G01 X181.3059 Y263.5056
G01 X181.3326 Y263.5451
G01 X181.3611 Y263.5832
G01 X181.3914 Y263.6199
G01 X181.4234 Y263.6551
G01 X181.4571 Y263.6887
G01 X181.4923 Y263.7207
G01 X181.5290 Y263.7510
G01 X181.5671 Y263.7796
G01 X181.6065 Y263.8062
G01 X181.6472 Y263.8310
G01 X181.6889 Y263.8538
G01 X181.7318 Y263.8746
G01 X181.7755 Y263.8934
G01 X181.8201 Y263.9100
G01 X181.8654 Y263.9245
G01 X181.9114 Y263.9368
G01 X181.9579 Y263.9469
G01 X182.0049 Y263.9548
G01 X182.0521 Y263.9605
G01 X182.0996 Y263.9639
G01 X182.1472 Y263.9650
G01 X182.1948 Y263.9639
G01 X182.2422 Y263.9605
G01 X182.2895 Y263.9548
G01 X182.3364 Y263.9469
G01 X182.3829 Y263.9368
G01 X182.4289 Y263.9245
G01 X182.4742 Y263.9100
G01 X182.5188 Y263.8934
G01 X182.5626 Y263.8746
G01 X182.6054 Y263.8538
G01 X182.6472 Y263.8310
G01 X182.6878 Y263.8062
G01 X182.7272 Y263.7796
G01 X182.7653 Y263.7510
G01 X182.8020 Y263.7207
G01 X182.8373 Y263.6887
G01 X182.8709 Y263.6551
G01 X182.9029 Y263.6199
G01 X182.9332 Y263.5832
G01 X182.9618 Y263.5451
G01 X182.9884 Y263.5056
G01 X183.0132 Y263.4650
G01 X183.0360 Y263.4232
G01 X183.0568 Y263.3804
G01 X183.0755 Y263.3367
G01 X183.0922 Y263.2921
G01 X183.1067 Y263.2467
G01 X183.1190 Y263.2008
G01 X183.1291 Y263.1542
G01 X183.1370 Y263.1073
G01 X183.1426 Y263.0600
G01 X183.1460 Y263.0126
G01 X183.1472 Y262.9650
G01 X183.1579 Y262.9134 F1000
G01 X183.1660 Y262.8613
G01 X183.1714 Y262.8089
G01 X183.1741 Y262.7563
G01 X183.1740 Y262.7036
G01 X183.1713 Y262.6509
G01 X183.1658 Y262.5985
G01 X183.1577 Y262.5464
G01 X183.1460 Y262.4904
G01 X183.1314 Y262.4351
G01 X183.1140 Y262.3806
G01 X183.0939 Y262.3271
G01 X183.0710 Y262.2747
G01 X183.0455 Y262.2235
G01 X183.0175 Y262.1736
G01 X182.9869 Y262.1253
G01 X182.9513 Y262.0749
G01 X182.9131 Y262.0264
G01 X182.8726 Y261.9799
G01 X182.8297 Y261.9355
G01 X182.7847 Y261.8933
G01 X182.7375 Y261.8535
G01 X182.6884 Y261.8161
G01 X182.6375 Y261.7813
G01 X182.5810 Y261.7467
G01 X182.5228 Y261.7150
G01 X182.4631 Y261.6864
G01 X182.4020 Y261.6607
G01 X182.3398 Y261.6382
G01 X182.2764 Y261.6189
G01 X182.2122 Y261.6028
G01 X182.1472 Y261.5900
G01 X182.0771 Y261.5798
G01 X182.0067 Y261.5732
G01 X181.9360 Y261.5701
G01 X181.8652 Y261.5706
G01 X181.7946 Y261.5746
G01 X181.7242 Y261.5822
G01 X181.6543 Y261.5934
G01 X181.5851 Y261.6080
G01 X181.5169 Y261.6340
G01 X181.4501 Y261.6633
G01 X181.3848 Y261.6958
G01 X181.3211 Y261.7315
G01 X181.2594 Y261.7703
G01 X181.1995 Y261.8121
G01 X181.1419 Y261.8568
G01 X181.0864 Y261.9043
G01 X181.0357 Y261.9576
G01 X180.9876 Y262.0133
G01 X180.9423 Y262.0714
G01 X180.8999 Y262.1316
G01 X180.8605 Y262.1938
G01 X180.8242 Y262.2579
G01 X180.7911 Y262.3236
G01 X180.7613 Y262.3909
G01 X180.7348 Y262.4596
G01 X180.7117 Y262.5295
G01 X180.6920 Y262.6005
G01 X180.6759 Y262.6723
G01 X180.6633 Y262.7449
G01 X180.6543 Y262.8180
G01 X180.6489 Y262.8914
G01 X180.6471 Y262.9650
G01 X180.6489 Y263.0386
G01 X180.6543 Y263.1120
G01 X180.6633 Y263.1851
G01 X180.6759 Y263.2576
G01 X180.6920 Y263.3295
G01 X180.7117 Y263.4004
G01 X180.7348 Y263.4704
G01 X180.7613 Y263.5391
G01 X180.7911 Y263.6064
G01 X180.8242 Y263.6721
G01 X180.8605 Y263.7362
G01 X180.8999 Y263.7984
G01 X180.9423 Y263.8586
G01 X180.9876 Y263.9166
G01 X181.0357 Y263.9724
G01 X181.0864 Y264.0257
G01 X181.1398 Y264.0765
G01 X181.1955 Y264.1246
G01 X181.2536 Y264.1699
G01 X181.3138 Y264.2123
G01 X181.3760 Y264.2517
G01 X181.4400 Y264.2880
G01 X181.5058 Y264.3211
G01 X181.5731 Y264.3509
G01 X181.6418 Y264.3774
G01 X181.7117 Y264.4005
G01 X181.7827 Y264.4201
G01 X181.8545 Y264.4363
G01 X181.9271 Y264.4489
G01 X182.0001 Y264.4579
G01 X182.0736 Y264.4633
G01 X182.1472 Y264.4651
G01 X182.2208 Y264.4633
G01 X182.2942 Y264.4579
G01 X182.3673 Y264.4489
G01 X182.4398 Y264.4363
G01 X182.5117 Y264.4201
G01 X182.5826 Y264.4005
G01 X182.6525 Y264.3774
G01 X182.7212 Y264.3509
G01 X182.7886 Y264.3211
G01 X182.8543 Y264.2880
G01 X182.9184 Y264.2517
G01 X182.9806 Y264.2123
G01 X183.0408 Y264.1699
G01 X183.0988 Y264.1246
G01 X183.1546 Y264.0765
G01 X183.2079 Y264.0257
G01 X183.2587 Y263.9724
G01 X183.3068 Y263.9166
G01 X183.3521 Y263.8586
G01 X183.3945 Y263.7984
G01 X183.4339 Y263.7362
G01 X183.4701 Y263.6721
G01 X183.5033 Y263.6064
G01 X183.5331 Y263.5391
G01 X183.5596 Y263.4704
G01 X183.5827 Y263.4004
G01 X183.6023 Y263.3295
G01 X183.6185 Y263.2576
G01 X183.6310 Y263.1851
G01 X183.6401 Y263.1120
G01 X183.6455 Y263.0386
G01 X183.6473 Y262.9650
G01 X183.6431 Y262.8529
G01 X183.6305 Y262.7414
G01 X183.6097 Y262.6312
G01 X183.5806 Y262.5228
G01 X183.5436 Y262.4169
G01 X183.4987 Y262.3141
G01 X183.4463 Y262.2149
G01 X183.3866 Y262.1200
G01 X183.3200 Y262.0297
G01 X183.2468 Y261.9447
G01 X183.1675 Y261.8653
G01 X183.0825 Y261.7922
G01 X182.9922 Y261.7256
G01 X182.8972 Y261.6659
G01 X182.7980 Y261.6134
G01 X182.6952 Y261.5686
