;Project TeslaParkingV3_SteingrauDelta
;Created by Estlcam version 11 build 11,227
;Machining time about 00:05:24 hours

G90
M03 S18000
G00 X0.0000 Y0.0000 Z0.0000
G00 Z2.0000


;No. 1: Helical drill 1
G00 X31.2925 Y235.3142
G00 Z0.5000
M106 S240
G01 X31.2887 Y235.2271 Z0.4722 F400 S18000
G01 X31.2773 Y235.1406 Z0.4444
G01 X31.2584 Y235.0554 Z0.4167
G01 X31.2322 Y234.9722 Z0.3889
G01 X31.1988 Y234.8916 Z0.3611
G01 X31.1585 Y234.8142 Z0.3333
G01 X31.1117 Y234.7407 Z0.3056
G01 X31.0586 Y234.6714 Z0.2778
G01 X30.9996 Y234.6071 Z0.2500
G01 X30.9353 Y234.5482 Z0.2222
G01 X30.8661 Y234.4951 Z0.1944
G01 X30.7925 Y234.4482 Z0.1667
G01 X30.7151 Y234.4079 Z0.1389
G01 X30.6345 Y234.3745 Z0.1111
G01 X30.5513 Y234.3483 Z0.0833
G01 X30.4662 Y234.3294 Z0.0556
G01 X30.3797 Y234.3180 Z0.0278
G01 X30.2925 Y234.3142 Z0.0000
G01 X30.2054 Y234.3180 Z-0.0278
G01 X30.1189 Y234.3294 Z-0.0556
G01 X30.0337 Y234.3483 Z-0.0833
G01 X29.9505 Y234.3745 Z-0.1111
G01 X29.8699 Y234.4079 Z-0.1389
G01 X29.7925 Y234.4482 Z-0.1667
G01 X29.7189 Y234.4951 Z-0.1944
G01 X29.6497 Y234.5482 Z-0.2222
G01 X29.5854 Y234.6071 Z-0.2500
G01 X29.5265 Y234.6714 Z-0.2778
G01 X29.4734 Y234.7407 Z-0.3056
G01 X29.4265 Y234.8142 Z-0.3333
G01 X29.3862 Y234.8916 Z-0.3611
G01 X29.3528 Y234.9722 Z-0.3889
G01 X29.3266 Y235.0554 Z-0.4167
G01 X29.3077 Y235.1406 Z-0.4444
G01 X29.2963 Y235.2271 Z-0.4722
G01 X29.2925 Y235.3142 Z-0.5000
G01 X29.2963 Y235.4014 Z-0.5278
G01 X29.3077 Y235.4879 Z-0.5556
G01 X29.3266 Y235.5730 Z-0.5833
G01 X29.3528 Y235.6562 Z-0.6111
G01 X29.3862 Y235.7368 Z-0.6389
G01 X29.4265 Y235.8142 Z-0.6667
G01 X29.4734 Y235.8878 Z-0.6944
G01 X29.5265 Y235.9570 Z-0.7222
G01 X29.5854 Y236.0213 Z-0.7500
G01 X29.6497 Y236.0803 Z-0.7778
G01 X29.7189 Y236.1334 Z-0.8056
G01 X29.7925 Y236.1803 Z-0.8333
G01 X29.8699 Y236.2205 Z-0.8611
G01 X29.9505 Y236.2539 Z-0.8889
G01 X30.0337 Y236.2802 Z-0.9167
G01 X30.1189 Y236.2990 Z-0.9444
G01 X30.2054 Y236.3104 Z-0.9722
G01 X30.2925 Y236.3142 Z-1.0000
G01 X30.3797 Y236.3104 Z-1.0278
G01 X30.4662 Y236.2990 Z-1.0556
G01 X30.5513 Y236.2802 Z-1.0833
G01 X30.6345 Y236.2539 Z-1.1111
G01 X30.7151 Y236.2205 Z-1.1389
G01 X30.7925 Y236.1803 Z-1.1667
G01 X30.8661 Y236.1334 Z-1.1944
G01 X30.9353 Y236.0803 Z-1.2222
G01 X30.9996 Y236.0213 Z-1.2500
G01 X31.0586 Y235.9570 Z-1.2778
G01 X31.1117 Y235.8878 Z-1.3056
G01 X31.1585 Y235.8142 Z-1.3333
G01 X31.1988 Y235.7368 Z-1.3611
G01 X31.2322 Y235.6562 Z-1.3889
G01 X31.2584 Y235.5730 Z-1.4167
G01 X31.2773 Y235.4879 Z-1.4444
G01 X31.2887 Y235.4014 Z-1.4722
G01 X31.2925 Y235.3142 Z-1.5000
G01 X31.2887 Y235.2271
G01 X31.2773 Y235.1406
G01 X31.2584 Y235.0554
G01 X31.2322 Y234.9722
G01 X31.1988 Y234.8916
G01 X31.1585 Y234.8142
G01 X31.1117 Y234.7407
G01 X31.0586 Y234.6714
G01 X30.9996 Y234.6071
G01 X30.9353 Y234.5482
G01 X30.8661 Y234.4951
G01 X30.7925 Y234.4482
G01 X30.7151 Y234.4079
G01 X30.6345 Y234.3745
G01 X30.5513 Y234.3483
G01 X30.4662 Y234.3294
G01 X30.3797 Y234.3180
G01 X30.2925 Y234.3142
G01 X30.2054 Y234.3180
G01 X30.1189 Y234.3294
G01 X30.0337 Y234.3483
G01 X29.9505 Y234.3745
G01 X29.8699 Y234.4079
G01 X29.7925 Y234.4482
G01 X29.7189 Y234.4951
G01 X29.6497 Y234.5482
G01 X29.5854 Y234.6071
G01 X29.5265 Y234.6714
G01 X29.4734 Y234.7407
G01 X29.4265 Y234.8142
G01 X29.3862 Y234.8916
G01 X29.3528 Y234.9722
G01 X29.3266 Y235.0554
G01 X29.3077 Y235.1406
G01 X29.2963 Y235.2271
G01 X29.2925 Y235.3142
G01 X29.2963 Y235.4014
G01 X29.3077 Y235.4879
G01 X29.3266 Y235.5730
G01 X29.3528 Y235.6562
G01 X29.3862 Y235.7368
G01 X29.4265 Y235.8142
G01 X29.4734 Y235.8878
G01 X29.5265 Y235.9570
G01 X29.5854 Y236.0213
G01 X29.6497 Y236.0803
G01 X29.7189 Y236.1334
G01 X29.7925 Y236.1803
G01 X29.8699 Y236.2205
G01 X29.9505 Y236.2539
G01 X30.0337 Y236.2802
G01 X30.1189 Y236.2990
G01 X30.2054 Y236.3104
G01 X30.2925 Y236.3142
G01 X30.3797 Y236.3104
G01 X30.4662 Y236.2990
G01 X30.5513 Y236.2802
G01 X30.6345 Y236.2539
G01 X30.7151 Y236.2205
G01 X30.7925 Y236.1803
G01 X30.8661 Y236.1334
G01 X30.9353 Y236.0803
G01 X30.9996 Y236.0213
G01 X31.0586 Y235.9570
G01 X31.1117 Y235.8878
G01 X31.1585 Y235.8142
G01 X31.1988 Y235.7368
G01 X31.2322 Y235.6562
G01 X31.2584 Y235.5730
G01 X31.2773 Y235.4879
G01 X31.2887 Y235.4014
G01 X31.2925 Y235.3142
G01 X31.3033 Y235.2626 F1000
G01 X31.3113 Y235.2106
G01 X31.3167 Y235.1581
G01 X31.3194 Y235.1055
G01 Y235.0528
G01 X31.3166 Y235.0002
G01 X31.3112 Y234.9477
G01 X31.3030 Y234.8957
G01 X31.2903 Y234.8403
G01 X31.2748 Y234.7857
G01 X31.2566 Y234.7320
G01 X31.2356 Y234.6792
G01 X31.2120 Y234.6276
G01 X31.1858 Y234.5772
G01 X31.1571 Y234.5282
G01 X31.1260 Y234.4808
G01 X31.0841 Y234.4409
G01 X31.0403 Y234.4031
G01 X30.9947 Y234.3675
G01 X30.9474 Y234.3342
G01 X30.8985 Y234.3032
G01 X30.8481 Y234.2747
G01 X30.7965 Y234.2487
G01 X30.7436 Y234.2253
G01 X30.6896 Y234.2045
G01 X30.6347 Y234.1863
G01 X30.5789 Y234.1709
G01 X30.5225 Y234.1582
G01 X30.4655 Y234.1483
G01 X30.4080 Y234.1412
G01 X30.3504 Y234.1370
G01 X30.2925 Y234.1356
G01 X30.2347 Y234.1370
G01 X30.1770 Y234.1412
G01 X30.1196 Y234.1483
G01 X30.0626 Y234.1582
G01 X30.0061 Y234.1709
G01 X29.9504 Y234.1863
G01 X29.8954 Y234.2045
G01 X29.8415 Y234.2253
G01 X29.7886 Y234.2487
G01 X29.7369 Y234.2747
G01 X29.6866 Y234.3032
G01 X29.6377 Y234.3342
G01 X29.5904 Y234.3675
G01 X29.5448 Y234.4031
G01 X29.5010 Y234.4409
G01 X29.4591 Y234.4808
G01 X29.4192 Y234.5227
G01 X29.3814 Y234.5665
G01 X29.3458 Y234.6121
G01 X29.3125 Y234.6594
G01 X29.2815 Y234.7083
G01 X29.2530 Y234.7586
G01 X29.2270 Y234.8103
G01 X29.2036 Y234.8632
G01 X29.1827 Y234.9171
G01 X29.1646 Y234.9721
G01 X29.1492 Y235.0278
G01 X29.1365 Y235.0843
G01 X29.1266 Y235.1413
G01 X29.1195 Y235.1987
G01 X29.1153 Y235.2564
G01 X29.1138 Y235.3142
G01 X29.1153 Y235.3721
G01 X29.1195 Y235.4298
G01 X29.1266 Y235.4872
G01 X29.1365 Y235.5442
G01 X29.1492 Y235.6006
G01 X29.1646 Y235.6564
G01 X29.1827 Y235.7113
G01 X29.2036 Y235.7653
G01 X29.2270 Y235.8182
G01 X29.2530 Y235.8699
G01 X29.2815 Y235.9202
G01 X29.3125 Y235.9691
G01 X29.3458 Y236.0164
G01 X29.3814 Y236.0620
G01 X29.4192 Y236.1058
G01 X29.4591 Y236.1477
G01 X29.5010 Y236.1876
G01 X29.5448 Y236.2254
G01 X29.5904 Y236.2609
G01 X29.6377 Y236.2943
G01 X29.6866 Y236.3252
G01 X29.7369 Y236.3537
G01 X29.7886 Y236.3797
G01 X29.8415 Y236.4032
G01 X29.8954 Y236.4240
G01 X29.9504 Y236.4422
G01 X30.0061 Y236.4576
G01 X30.0626 Y236.4703
G01 X30.1196 Y236.4801
G01 X30.1770 Y236.4872
G01 X30.2347 Y236.4915
G01 X30.2925 Y236.4929
G01 X30.3504 Y236.4915
G01 X30.4080 Y236.4872
G01 X30.4655 Y236.4801
G01 X30.5225 Y236.4703
G01 X30.5789 Y236.4576
G01 X30.6347 Y236.4422
G01 X30.6896 Y236.4240
G01 X30.7436 Y236.4032
G01 X30.7965 Y236.3797
G01 X30.8481 Y236.3537
G01 X30.8985 Y236.3252
G01 X30.9474 Y236.2943
G01 X30.9947 Y236.2609
G01 X31.0403 Y236.2254
G01 X31.0841 Y236.1876
G01 X31.1260 Y236.1477
G01 X31.1659 Y236.1058
G01 X31.2036 Y236.0620
G01 X31.2392 Y236.0164
G01 X31.2726 Y235.9691
G01 X31.3035 Y235.9202
G01 X31.3320 Y235.8699
G01 X31.3580 Y235.8182
G01 X31.3815 Y235.7653
G01 X31.4023 Y235.7113
G01 X31.4204 Y235.6564
G01 X31.4359 Y235.6006
G01 X31.4485 Y235.5442
G01 X31.4584 Y235.4872
G01 X31.4655 Y235.4298
G01 X31.4698 Y235.3721
G01 X31.4712 Y235.3142
G01 X31.4667 Y235.2115
G01 X31.4533 Y235.1096
G01 X31.4310 Y235.0092
G01 X31.4001 Y234.9111
G01 X31.3608 Y234.8161
G01 X31.3133 Y234.7249
G01 X31.2580 Y234.6382
G01 X31.1954 Y234.5566
G01 X31.1260 Y234.4808
G01 X31.0502 Y234.4113
G01 X30.9686 Y234.3487
G01 X30.8819 Y234.2935
G01 X30.7906 Y234.2460
G01 X30.6956 Y234.2066
G01 X30.5976 Y234.1757
G01 X30.4972 Y234.1535
G01 X30.3952 Y234.1400
G01 X30.2925 Y234.1356
G01 X30.1898 Y234.1400
G01 X30.0878 Y234.1535
G01 X29.9875 Y234.1757
G01 X29.8894 Y234.2066
G01 X29.7944 Y234.2460
G01 X29.7032 Y234.2935
G01 X29.6165 Y234.3487
G01 X29.5349 Y234.4113
G01 X29.4591 Y234.4808
G01 X29.3896 Y234.5566
G01 X29.3270 Y234.6382
G01 X29.2718 Y234.7249
G01 X29.2243 Y234.8161
G01 X29.1849 Y234.9111
G01 X29.1540 Y235.0092
G01 X29.1317 Y235.1096
G01 X29.1183 Y235.2115
G01 X29.1138 Y235.3142
G01 X29.1183 Y235.4170
G01 X29.1317 Y235.5189
G01 X29.1540 Y235.6193
G01 X29.1849 Y235.7174
G01 X29.2243 Y235.8124
G01 X29.2718 Y235.9036
G01 X29.3270 Y235.9903
G01 X29.3896 Y236.0719
G01 X29.4591 Y236.1477
G01 X29.5349 Y236.2171
G01 X29.6165 Y236.2797
G01 X29.7032 Y236.3350
G01 X29.7944 Y236.3825
G01 X29.8894 Y236.4218
G01 X29.9875 Y236.4527
G01 X30.0878 Y236.4750
G01 X30.1898 Y236.4884
G01 X30.2925 Y236.4929
G01 X30.3952 Y236.4884
G01 X30.4972 Y236.4750
G01 X30.5976 Y236.4527
G01 X30.6956 Y236.4218
G01 X30.7906 Y236.3825
G01 X30.8819 Y236.3350
G01 X30.9686 Y236.2797
G01 X31.0502 Y236.2171
G01 X31.1260 Y236.1477
G01 X31.1954 Y236.0719
G01 X31.2580 Y235.9903
G01 X31.3133 Y235.9036
G01 X31.3608 Y235.8124
G01 X31.4001 Y235.7174
G01 X31.4310 Y235.6193
G01 X31.4533 Y235.5189
G01 X31.4667 Y235.4170
G01 X31.4712 Y235.3142
G01 X31.4670 Y235.2193
G01 X31.4546 Y235.1251
G01 X31.4341 Y235.0323
G01 X31.4055 Y234.9417
G01 X31.3691 Y234.8539
G01 X31.3253 Y234.7696
G01 X31.2742 Y234.6894
G01 X31.2163 Y234.6140
G01 X31.1521 Y234.5439
G01 X31.0821 Y234.4797
G01 X31.0067 Y234.4219
G01 X30.9265 Y234.3708
G01 X30.8422 Y234.3270
G01 X30.7544 Y234.2906
G01 X30.6638 Y234.2620
G01 X30.5710 Y234.2414
G01 X30.4768 Y234.2290
G01 X30.3819 Y234.2249
G01 X30.2869 Y234.2290
G01 X30.1927 Y234.2414
G01 X30.0999 Y234.2620
G01 X30.0093 Y234.2906
G01 X29.9215 Y234.3270
G01 X29.8372 Y234.3708
G01 X29.7570 Y234.4219
G01 X29.6816 Y234.4797
G01 X29.6116 Y234.5439
G01 X29.5474 Y234.6140
G01 X29.4895 Y234.6894
G01 X29.4385 Y234.7696
G01 X29.3946 Y234.8539
G01 X29.3582 Y234.9417
G01 X29.3296 Y235.0323
G01 X29.3091 Y235.1251
G01 X29.2967 Y235.2193
G01 X29.2925 Y235.3142
G01 X29.2963 Y235.4014
G01 X29.3077 Y235.4879
G01 X29.3266 Y235.5730
G01 X29.3528 Y235.6562
G01 X29.3862 Y235.7368
G01 X29.4265 Y235.8142
G01 X29.4734 Y235.8878
G01 X29.5265 Y235.9570
G01 X29.5854 Y236.0213
G01 X29.6497 Y236.0803
G01 X29.7189 Y236.1334
G01 X29.7925 Y236.1803
G01 X29.8699 Y236.2205
G01 X29.9505 Y236.2539
G01 X30.0337 Y236.2802
G01 X30.1189 Y236.2990
G01 X30.2054 Y236.3104
G01 X30.2925 Y236.3142
G01 X30.3797 Y236.3104
G01 X30.4662 Y236.2990
G01 X30.5513 Y236.2802
G01 X30.6345 Y236.2539
G01 X30.7151 Y236.2205
G01 X30.7925 Y236.1803
G01 X30.8661 Y236.1334
G01 X30.9353 Y236.0803
G01 X30.9996 Y236.0213
G01 X31.0586 Y235.9570
G01 X31.1117 Y235.8878
G01 X31.1585 Y235.8142
G01 X31.1988 Y235.7368
G01 X31.2322 Y235.6562
G01 X31.2584 Y235.5730
G01 X31.2773 Y235.4879
G01 X31.2887 Y235.4014
G01 X31.2925 Y235.3142
M107
M106 S240
G01 X31.2887 Y235.2271 Z-1.5278 F400
G01 X31.2773 Y235.1406 Z-1.5556
G01 X31.2584 Y235.0554 Z-1.5833
G01 X31.2322 Y234.9722 Z-1.6111
G01 X31.1988 Y234.8916 Z-1.6389
G01 X31.1585 Y234.8142 Z-1.6667
G01 X31.1117 Y234.7407 Z-1.6944
G01 X31.0586 Y234.6714 Z-1.7222
G01 X30.9996 Y234.6071 Z-1.7500
G01 X30.9353 Y234.5482 Z-1.7778
G01 X30.8661 Y234.4951 Z-1.8056
G01 X30.7925 Y234.4482 Z-1.8333
G01 X30.7151 Y234.4079 Z-1.8611
G01 X30.6345 Y234.3745 Z-1.8889
G01 X30.5513 Y234.3483 Z-1.9167
G01 X30.4662 Y234.3294 Z-1.9444
G01 X30.3797 Y234.3180 Z-1.9722
G01 X30.2925 Y234.3142 Z-2.0000
G01 X30.2054 Y234.3180 Z-2.0278
G01 X30.1189 Y234.3294 Z-2.0556
G01 X30.0337 Y234.3483 Z-2.0833
G01 X29.9505 Y234.3745 Z-2.1111
G01 X29.8699 Y234.4079 Z-2.1389
G01 X29.7925 Y234.4482 Z-2.1667
G01 X29.7189 Y234.4951 Z-2.1944
G01 X29.6497 Y234.5482 Z-2.2222
G01 X29.5854 Y234.6071 Z-2.2500
G01 X29.5265 Y234.6714 Z-2.2778
G01 X29.4734 Y234.7407 Z-2.3056
G01 X29.4265 Y234.8142 Z-2.3333
G01 X29.3862 Y234.8916 Z-2.3611
G01 X29.3528 Y234.9722 Z-2.3889
G01 X29.3266 Y235.0554 Z-2.4167
G01 X29.3077 Y235.1406 Z-2.4444
G01 X29.2963 Y235.2271 Z-2.4722
G01 X29.2925 Y235.3142 Z-2.5000
G01 X29.2963 Y235.4014 Z-2.5278
G01 X29.3077 Y235.4879 Z-2.5556
G01 X29.3266 Y235.5730 Z-2.5833
G01 X29.3528 Y235.6562 Z-2.6111
G01 X29.3862 Y235.7368 Z-2.6389
G01 X29.4265 Y235.8142 Z-2.6667
G01 X29.4734 Y235.8878 Z-2.6944
G01 X29.5265 Y235.9570 Z-2.7222
G01 X29.5854 Y236.0213 Z-2.7500
G01 X29.6497 Y236.0803 Z-2.7778
G01 X29.7189 Y236.1334 Z-2.8056
G01 X29.7925 Y236.1803 Z-2.8333
G01 X29.8699 Y236.2205 Z-2.8611
G01 X29.9505 Y236.2539 Z-2.8889
G01 X30.0337 Y236.2802 Z-2.9167
G01 X30.1189 Y236.2990 Z-2.9444
G01 X30.2054 Y236.3104 Z-2.9722
G01 X30.2925 Y236.3142 Z-3.0000
G01 X30.3797 Y236.3104 Z-3.0278
G01 X30.4662 Y236.2990 Z-3.0556
G01 X30.5513 Y236.2802 Z-3.0833
G01 X30.6345 Y236.2539 Z-3.1111
G01 X30.7151 Y236.2205 Z-3.1389
G01 X30.7925 Y236.1803 Z-3.1667
G01 X30.8661 Y236.1334 Z-3.1944
G01 X30.9353 Y236.0803 Z-3.2222
G01 X30.9996 Y236.0213 Z-3.2500
G01 X31.0586 Y235.9570 Z-3.2778
G01 X31.1117 Y235.8878 Z-3.3056
G01 X31.1585 Y235.8142 Z-3.3333
G01 X31.1988 Y235.7368 Z-3.3611
G01 X31.2322 Y235.6562 Z-3.3889
G01 X31.2584 Y235.5730 Z-3.4167
G01 X31.2773 Y235.4879 Z-3.4444
G01 X31.2887 Y235.4014 Z-3.4722
G01 X31.2925 Y235.3142 Z-3.5000
G01 X31.2887 Y235.2271
G01 X31.2773 Y235.1406
G01 X31.2584 Y235.0554
G01 X31.2322 Y234.9722
G01 X31.1988 Y234.8916
G01 X31.1585 Y234.8142
G01 X31.1117 Y234.7407
G01 X31.0586 Y234.6714
G01 X30.9996 Y234.6071
G01 X30.9353 Y234.5482
G01 X30.8661 Y234.4951
G01 X30.7925 Y234.4482
G01 X30.7151 Y234.4079
G01 X30.6345 Y234.3745
G01 X30.5513 Y234.3483
G01 X30.4662 Y234.3294
G01 X30.3797 Y234.3180
G01 X30.2925 Y234.3142
G01 X30.2054 Y234.3180
G01 X30.1189 Y234.3294
G01 X30.0337 Y234.3483
G01 X29.9505 Y234.3745
G01 X29.8699 Y234.4079
G01 X29.7925 Y234.4482
G01 X29.7189 Y234.4951
G01 X29.6497 Y234.5482
G01 X29.5854 Y234.6071
G01 X29.5265 Y234.6714
G01 X29.4734 Y234.7407
G01 X29.4265 Y234.8142
G01 X29.3862 Y234.8916
G01 X29.3528 Y234.9722
G01 X29.3266 Y235.0554
G01 X29.3077 Y235.1406
G01 X29.2963 Y235.2271
G01 X29.2925 Y235.3142
G01 X29.2963 Y235.4014
G01 X29.3077 Y235.4879
G01 X29.3266 Y235.5730
G01 X29.3528 Y235.6562
G01 X29.3862 Y235.7368
G01 X29.4265 Y235.8142
G01 X29.4734 Y235.8878
G01 X29.5265 Y235.9570
G01 X29.5854 Y236.0213
G01 X29.6497 Y236.0803
G01 X29.7189 Y236.1334
G01 X29.7925 Y236.1803
G01 X29.8699 Y236.2205
G01 X29.9505 Y236.2539
G01 X30.0337 Y236.2802
G01 X30.1189 Y236.2990
G01 X30.2054 Y236.3104
G01 X30.2925 Y236.3142
G01 X30.3797 Y236.3104
G01 X30.4662 Y236.2990
G01 X30.5513 Y236.2802
G01 X30.6345 Y236.2539
G01 X30.7151 Y236.2205
G01 X30.7925 Y236.1803
G01 X30.8661 Y236.1334
G01 X30.9353 Y236.0803
G01 X30.9996 Y236.0213
G01 X31.0586 Y235.9570
G01 X31.1117 Y235.8878
G01 X31.1585 Y235.8142
G01 X31.1988 Y235.7368
G01 X31.2322 Y235.6562
G01 X31.2584 Y235.5730
G01 X31.2773 Y235.4879
G01 X31.2887 Y235.4014
G01 X31.2925 Y235.3142
G01 X31.3033 Y235.2626 F1000
G01 X31.3113 Y235.2106
G01 X31.3167 Y235.1581
G01 X31.3194 Y235.1055
G01 Y235.0528
G01 X31.3166 Y235.0002
G01 X31.3112 Y234.9477
G01 X31.3030 Y234.8957
G01 X31.2903 Y234.8403
G01 X31.2748 Y234.7857
G01 X31.2566 Y234.7320
G01 X31.2356 Y234.6792
G01 X31.2120 Y234.6276
G01 X31.1858 Y234.5772
G01 X31.1571 Y234.5282
G01 X31.1260 Y234.4808
G01 X31.0841 Y234.4409
G01 X31.0403 Y234.4031
G01 X30.9947 Y234.3675
G01 X30.9474 Y234.3342
G01 X30.8985 Y234.3032
G01 X30.8481 Y234.2747
G01 X30.7965 Y234.2487
G01 X30.7436 Y234.2253
G01 X30.6896 Y234.2045
G01 X30.6347 Y234.1863
G01 X30.5789 Y234.1709
G01 X30.5225 Y234.1582
G01 X30.4655 Y234.1483
G01 X30.4080 Y234.1412
G01 X30.3504 Y234.1370
G01 X30.2925 Y234.1356
G01 X30.2347 Y234.1370
G01 X30.1770 Y234.1412
G01 X30.1196 Y234.1483
G01 X30.0626 Y234.1582
G01 X30.0061 Y234.1709
G01 X29.9504 Y234.1863
G01 X29.8954 Y234.2045
G01 X29.8415 Y234.2253
G01 X29.7886 Y234.2487
G01 X29.7369 Y234.2747
G01 X29.6866 Y234.3032
G01 X29.6377 Y234.3342
G01 X29.5904 Y234.3675
G01 X29.5448 Y234.4031
G01 X29.5010 Y234.4409
G01 X29.4591 Y234.4808
G01 X29.4192 Y234.5227
G01 X29.3814 Y234.5665
G01 X29.3458 Y234.6121
G01 X29.3125 Y234.6594
G01 X29.2815 Y234.7083
G01 X29.2530 Y234.7586
G01 X29.2270 Y234.8103
G01 X29.2036 Y234.8632
G01 X29.1827 Y234.9171
G01 X29.1646 Y234.9721
G01 X29.1492 Y235.0278
G01 X29.1365 Y235.0843
G01 X29.1266 Y235.1413
G01 X29.1195 Y235.1987
G01 X29.1153 Y235.2564
G01 X29.1138 Y235.3142
G01 X29.1153 Y235.3721
G01 X29.1195 Y235.4298
G01 X29.1266 Y235.4872
G01 X29.1365 Y235.5442
G01 X29.1492 Y235.6006
G01 X29.1646 Y235.6564
G01 X29.1827 Y235.7113
G01 X29.2036 Y235.7653
G01 X29.2270 Y235.8182
G01 X29.2530 Y235.8699
G01 X29.2815 Y235.9202
G01 X29.3125 Y235.9691
G01 X29.3458 Y236.0164
G01 X29.3814 Y236.0620
G01 X29.4192 Y236.1058
G01 X29.4591 Y236.1477
G01 X29.5010 Y236.1876
G01 X29.5448 Y236.2254
G01 X29.5904 Y236.2609
G01 X29.6377 Y236.2943
G01 X29.6866 Y236.3252
G01 X29.7369 Y236.3537
G01 X29.7886 Y236.3797
G01 X29.8415 Y236.4032
G01 X29.8954 Y236.4240
G01 X29.9504 Y236.4422
G01 X30.0061 Y236.4576
G01 X30.0626 Y236.4703
G01 X30.1196 Y236.4801
G01 X30.1770 Y236.4872
G01 X30.2347 Y236.4915
G01 X30.2925 Y236.4929
G01 X30.3504 Y236.4915
G01 X30.4080 Y236.4872
G01 X30.4655 Y236.4801
G01 X30.5225 Y236.4703
G01 X30.5789 Y236.4576
G01 X30.6347 Y236.4422
G01 X30.6896 Y236.4240
G01 X30.7436 Y236.4032
G01 X30.7965 Y236.3797
G01 X30.8481 Y236.3537
G01 X30.8985 Y236.3252
G01 X30.9474 Y236.2943
G01 X30.9947 Y236.2609
G01 X31.0403 Y236.2254
G01 X31.0841 Y236.1876
G01 X31.1260 Y236.1477
G01 X31.1659 Y236.1058
G01 X31.2036 Y236.0620
G01 X31.2392 Y236.0164
G01 X31.2726 Y235.9691
G01 X31.3035 Y235.9202
G01 X31.3320 Y235.8699
G01 X31.3580 Y235.8182
G01 X31.3815 Y235.7653
G01 X31.4023 Y235.7113
G01 X31.4204 Y235.6564
G01 X31.4359 Y235.6006
G01 X31.4485 Y235.5442
G01 X31.4584 Y235.4872
G01 X31.4655 Y235.4298
G01 X31.4698 Y235.3721
G01 X31.4712 Y235.3142
G01 X31.4667 Y235.2115
G01 X31.4533 Y235.1096
G01 X31.4310 Y235.0092
G01 X31.4001 Y234.9111
G01 X31.3608 Y234.8161
G01 X31.3133 Y234.7249
G01 X31.2580 Y234.6382
G01 X31.1954 Y234.5566
G01 X31.1260 Y234.4808
G01 X31.0502 Y234.4113
G01 X30.9686 Y234.3487
G01 X30.8819 Y234.2935
G01 X30.7906 Y234.2460
G01 X30.6956 Y234.2066
G01 X30.5976 Y234.1757
G01 X30.4972 Y234.1535
G01 X30.3952 Y234.1400
G01 X30.2925 Y234.1356
G01 X30.1898 Y234.1400
G01 X30.0878 Y234.1535
G01 X29.9875 Y234.1757
G01 X29.8894 Y234.2066
G01 X29.7944 Y234.2460
G01 X29.7032 Y234.2935
G01 X29.6165 Y234.3487
G01 X29.5349 Y234.4113
G01 X29.4591 Y234.4808
G01 X29.3896 Y234.5566
G01 X29.3270 Y234.6382
G01 X29.2718 Y234.7249
G01 X29.2243 Y234.8161
G01 X29.1849 Y234.9111
G01 X29.1540 Y235.0092
G01 X29.1317 Y235.1096
G01 X29.1183 Y235.2115
G01 X29.1138 Y235.3142
G01 X29.1183 Y235.4170
G01 X29.1317 Y235.5189
G01 X29.1540 Y235.6193
G01 X29.1849 Y235.7174
G01 X29.2243 Y235.8124
G01 X29.2718 Y235.9036
G01 X29.3270 Y235.9903
G01 X29.3896 Y236.0719
G01 X29.4591 Y236.1477
G01 X29.5349 Y236.2171
G01 X29.6165 Y236.2797
G01 X29.7032 Y236.3350
G01 X29.7944 Y236.3825
G01 X29.8894 Y236.4218
G01 X29.9875 Y236.4527
G01 X30.0878 Y236.4750
G01 X30.1898 Y236.4884
G01 X30.2925 Y236.4929
G01 X30.3952 Y236.4884
G01 X30.4972 Y236.4750
G01 X30.5976 Y236.4527
G01 X30.6956 Y236.4218
G01 X30.7906 Y236.3825
G01 X30.8819 Y236.3350
G01 X30.9686 Y236.2797
G01 X31.0502 Y236.2171
G01 X31.1260 Y236.1477
G01 X31.1954 Y236.0719
G01 X31.2580 Y235.9903
G01 X31.3133 Y235.9036
G01 X31.3608 Y235.8124
G01 X31.4001 Y235.7174
G01 X31.4310 Y235.6193
G01 X31.4533 Y235.5189
G01 X31.4667 Y235.4170
G01 X31.4712 Y235.3142
G01 X31.4670 Y235.2193
G01 X31.4546 Y235.1251
G01 X31.4341 Y235.0323
G01 X31.4055 Y234.9417
G01 X31.3691 Y234.8539
G01 X31.3253 Y234.7696
G01 X31.2742 Y234.6894
G01 X31.2163 Y234.6140
G01 X31.1521 Y234.5439
G01 X31.0821 Y234.4797
G01 X31.0067 Y234.4219
G01 X30.9265 Y234.3708
G01 X30.8422 Y234.3270
G01 X30.7544 Y234.2906
G01 X30.6638 Y234.2620
G01 X30.5710 Y234.2414
G01 X30.4768 Y234.2290
G01 X30.3819 Y234.2249
G01 X30.2869 Y234.2290
G01 X30.1927 Y234.2414
G01 X30.0999 Y234.2620
G01 X30.0093 Y234.2906
G01 X29.9215 Y234.3270
G01 X29.8372 Y234.3708
G01 X29.7570 Y234.4219
G01 X29.6816 Y234.4797
G01 X29.6116 Y234.5439
G01 X29.5474 Y234.6140
G01 X29.4895 Y234.6894
G01 X29.4385 Y234.7696
G01 X29.3946 Y234.8539
G01 X29.3582 Y234.9417
G01 X29.3296 Y235.0323
G01 X29.3091 Y235.1251
G01 X29.2967 Y235.2193
G01 X29.2925 Y235.3142
G01 X29.2963 Y235.4014
G01 X29.3077 Y235.4879
G01 X29.3266 Y235.5730
G01 X29.3528 Y235.6562
G01 X29.3862 Y235.7368
G01 X29.4265 Y235.8142
G01 X29.4734 Y235.8878
G01 X29.5265 Y235.9570
G01 X29.5854 Y236.0213
G01 X29.6497 Y236.0803
G01 X29.7189 Y236.1334
G01 X29.7925 Y236.1803
G01 X29.8699 Y236.2205
G01 X29.9505 Y236.2539
G01 X30.0337 Y236.2802
G01 X30.1189 Y236.2990
G01 X30.2054 Y236.3104
G01 X30.2925 Y236.3142
G01 X30.3797 Y236.3104
G01 X30.4662 Y236.2990
G01 X30.5513 Y236.2802
G01 X30.6345 Y236.2539
G01 X30.7151 Y236.2205
G01 X30.7925 Y236.1803
G01 X30.8661 Y236.1334
G01 X30.9353 Y236.0803
G01 X30.9996 Y236.0213
G01 X31.0586 Y235.9570
G01 X31.1117 Y235.8878
G01 X31.1585 Y235.8142
G01 X31.1988 Y235.7368
G01 X31.2322 Y235.6562
G01 X31.2584 Y235.5730
G01 X31.2773 Y235.4879
G01 X31.2887 Y235.4014
G01 X31.2925 Y235.3142
M107
M106 S240
G01 X31.2887 Y235.2271 Z-3.5278 F400
G01 X31.2773 Y235.1406 Z-3.5556
G01 X31.2584 Y235.0554 Z-3.5833
G01 X31.2322 Y234.9722 Z-3.6111
G01 X31.1988 Y234.8916 Z-3.6389
G01 X31.1585 Y234.8142 Z-3.6667
G01 X31.1117 Y234.7407 Z-3.6944
G01 X31.0586 Y234.6714 Z-3.7222
G01 X30.9996 Y234.6071 Z-3.7500
G01 X30.9353 Y234.5482 Z-3.7778
G01 X30.8661 Y234.4951 Z-3.8056
G01 X30.7925 Y234.4482 Z-3.8333
G01 X30.7151 Y234.4079 Z-3.8611
G01 X30.6345 Y234.3745 Z-3.8889
G01 X30.5513 Y234.3483 Z-3.9167
G01 X30.4662 Y234.3294 Z-3.9444
G01 X30.3797 Y234.3180 Z-3.9722
G01 X30.2925 Y234.3142 Z-4.0000
G01 X30.2054 Y234.3180 Z-4.0278
G01 X30.1189 Y234.3294 Z-4.0556
G01 X30.0337 Y234.3483 Z-4.0833
G01 X29.9505 Y234.3745 Z-4.1111
G01 X29.8699 Y234.4079 Z-4.1389
G01 X29.7925 Y234.4482 Z-4.1667
G01 X29.7189 Y234.4951 Z-4.1944
G01 X29.6497 Y234.5482 Z-4.2222
G01 X29.5854 Y234.6071 Z-4.2500
G01 X29.5265 Y234.6714 Z-4.2778
G01 X29.4734 Y234.7407 Z-4.3056
G01 X29.4265 Y234.8142 Z-4.3333
G01 X29.3862 Y234.8916 Z-4.3611
G01 X29.3528 Y234.9722 Z-4.3889
G01 X29.3266 Y235.0554 Z-4.4167
G01 X29.3077 Y235.1406 Z-4.4444
G01 X29.2963 Y235.2271 Z-4.4722
G01 X29.2925 Y235.3142 Z-4.5000
G01 X29.2963 Y235.4014 Z-4.5278
G01 X29.3077 Y235.4879 Z-4.5556
G01 X29.3266 Y235.5730 Z-4.5833
G01 X29.3528 Y235.6562 Z-4.6111
G01 X29.3862 Y235.7368 Z-4.6389
G01 X29.4265 Y235.8142 Z-4.6667
G01 X29.4734 Y235.8878 Z-4.6944
G01 X29.5265 Y235.9570 Z-4.7222
G01 X29.5854 Y236.0213 Z-4.7500
G01 X29.6497 Y236.0803 Z-4.7778
G01 X29.7189 Y236.1334 Z-4.8056
G01 X29.7925 Y236.1803 Z-4.8333
G01 X29.8699 Y236.2205 Z-4.8611
G01 X29.9505 Y236.2539 Z-4.8889
G01 X30.0337 Y236.2802 Z-4.9167
G01 X30.1189 Y236.2990 Z-4.9444
G01 X30.2054 Y236.3104 Z-4.9722
G01 X30.2925 Y236.3142 Z-5.0000
G01 X30.3797 Y236.3104 Z-5.0278
G01 X30.4662 Y236.2990 Z-5.0556
G01 X30.5513 Y236.2802 Z-5.0833
G01 X30.6345 Y236.2539 Z-5.1111
G01 X30.7151 Y236.2205 Z-5.1389
G01 X30.7925 Y236.1803 Z-5.1667
G01 X30.8661 Y236.1334 Z-5.1944
G01 X30.9353 Y236.0803 Z-5.2222
G01 X30.9996 Y236.0213 Z-5.2500
G01 X31.0586 Y235.9570 Z-5.2778
G01 X31.1117 Y235.8878 Z-5.3056
G01 X31.1585 Y235.8142 Z-5.3333
G01 X31.1988 Y235.7368 Z-5.3611
G01 X31.2322 Y235.6562 Z-5.3889
G01 X31.2584 Y235.5730 Z-5.4167
G01 X31.2773 Y235.4879 Z-5.4444
G01 X31.2887 Y235.4014 Z-5.4722
G01 X31.2925 Y235.3142 Z-5.5000
G01 X31.2887 Y235.2271
G01 X31.2773 Y235.1406
G01 X31.2584 Y235.0554
G01 X31.2322 Y234.9722
G01 X31.1988 Y234.8916
G01 X31.1585 Y234.8142
G01 X31.1117 Y234.7407
G01 X31.0586 Y234.6714
G01 X30.9996 Y234.6071
G01 X30.9353 Y234.5482
G01 X30.8661 Y234.4951
G01 X30.7925 Y234.4482
G01 X30.7151 Y234.4079
G01 X30.6345 Y234.3745
G01 X30.5513 Y234.3483
G01 X30.4662 Y234.3294
G01 X30.3797 Y234.3180
G01 X30.2925 Y234.3142
G01 X30.2054 Y234.3180
G01 X30.1189 Y234.3294
G01 X30.0337 Y234.3483
G01 X29.9505 Y234.3745
G01 X29.8699 Y234.4079
G01 X29.7925 Y234.4482
G01 X29.7189 Y234.4951
G01 X29.6497 Y234.5482
G01 X29.5854 Y234.6071
G01 X29.5265 Y234.6714
G01 X29.4734 Y234.7407
G01 X29.4265 Y234.8142
G01 X29.3862 Y234.8916
G01 X29.3528 Y234.9722
G01 X29.3266 Y235.0554
G01 X29.3077 Y235.1406
G01 X29.2963 Y235.2271
G01 X29.2925 Y235.3142
G01 X29.2963 Y235.4014
G01 X29.3077 Y235.4879
G01 X29.3266 Y235.5730
G01 X29.3528 Y235.6562
G01 X29.3862 Y235.7368
G01 X29.4265 Y235.8142
G01 X29.4734 Y235.8878
G01 X29.5265 Y235.9570
G01 X29.5854 Y236.0213
G01 X29.6497 Y236.0803
G01 X29.7189 Y236.1334
G01 X29.7925 Y236.1803
G01 X29.8699 Y236.2205
G01 X29.9505 Y236.2539
G01 X30.0337 Y236.2802
G01 X30.1189 Y236.2990
G01 X30.2054 Y236.3104
G01 X30.2925 Y236.3142
G01 X30.3797 Y236.3104
G01 X30.4662 Y236.2990
G01 X30.5513 Y236.2802
G01 X30.6345 Y236.2539
G01 X30.7151 Y236.2205
G01 X30.7925 Y236.1803
G01 X30.8661 Y236.1334
G01 X30.9353 Y236.0803
G01 X30.9996 Y236.0213
G01 X31.0586 Y235.9570
G01 X31.1117 Y235.8878
G01 X31.1585 Y235.8142
G01 X31.1988 Y235.7368
G01 X31.2322 Y235.6562
G01 X31.2584 Y235.5730
G01 X31.2773 Y235.4879
G01 X31.2887 Y235.4014
G01 X31.2925 Y235.3142
G01 X31.3033 Y235.2626 F1000
G01 X31.3113 Y235.2106
G01 X31.3167 Y235.1581
G01 X31.3194 Y235.1055
G01 Y235.0528
G01 X31.3166 Y235.0002
G01 X31.3112 Y234.9477
G01 X31.3030 Y234.8957
G01 X31.2903 Y234.8403
G01 X31.2748 Y234.7857
G01 X31.2566 Y234.7320
G01 X31.2356 Y234.6792
G01 X31.2120 Y234.6276
G01 X31.1858 Y234.5772
G01 X31.1571 Y234.5282
G01 X31.1260 Y234.4808
G01 X31.0841 Y234.4409
G01 X31.0403 Y234.4031
G01 X30.9947 Y234.3675
G01 X30.9474 Y234.3342
G01 X30.8985 Y234.3032
G01 X30.8481 Y234.2747
G01 X30.7965 Y234.2487
G01 X30.7436 Y234.2253
G01 X30.6896 Y234.2045
G01 X30.6347 Y234.1863
G01 X30.5789 Y234.1709
G01 X30.5225 Y234.1582
G01 X30.4655 Y234.1483
G01 X30.4080 Y234.1412
G01 X30.3504 Y234.1370
G01 X30.2925 Y234.1356
G01 X30.2347 Y234.1370
G01 X30.1770 Y234.1412
G01 X30.1196 Y234.1483
G01 X30.0626 Y234.1582
G01 X30.0061 Y234.1709
G01 X29.9504 Y234.1863
G01 X29.8954 Y234.2045
G01 X29.8415 Y234.2253
G01 X29.7886 Y234.2487
G01 X29.7369 Y234.2747
G01 X29.6866 Y234.3032
G01 X29.6377 Y234.3342
G01 X29.5904 Y234.3675
G01 X29.5448 Y234.4031
G01 X29.5010 Y234.4409
G01 X29.4591 Y234.4808
G01 X29.4192 Y234.5227
G01 X29.3814 Y234.5665
G01 X29.3458 Y234.6121
G01 X29.3125 Y234.6594
G01 X29.2815 Y234.7083
G01 X29.2530 Y234.7586
G01 X29.2270 Y234.8103
G01 X29.2036 Y234.8632
G01 X29.1827 Y234.9171
G01 X29.1646 Y234.9721
G01 X29.1492 Y235.0278
G01 X29.1365 Y235.0843
G01 X29.1266 Y235.1413
G01 X29.1195 Y235.1987
G01 X29.1153 Y235.2564
G01 X29.1138 Y235.3142
G01 X29.1153 Y235.3721
G01 X29.1195 Y235.4298
G01 X29.1266 Y235.4872
G01 X29.1365 Y235.5442
G01 X29.1492 Y235.6006
G01 X29.1646 Y235.6564
G01 X29.1827 Y235.7113
G01 X29.2036 Y235.7653
G01 X29.2270 Y235.8182
G01 X29.2530 Y235.8699
G01 X29.2815 Y235.9202
G01 X29.3125 Y235.9691
G01 X29.3458 Y236.0164
G01 X29.3814 Y236.0620
G01 X29.4192 Y236.1058
G01 X29.4591 Y236.1477
G01 X29.5010 Y236.1876
G01 X29.5448 Y236.2254
G01 X29.5904 Y236.2609
G01 X29.6377 Y236.2943
G01 X29.6866 Y236.3252
G01 X29.7369 Y236.3537
G01 X29.7886 Y236.3797
G01 X29.8415 Y236.4032
G01 X29.8954 Y236.4240
G01 X29.9504 Y236.4422
G01 X30.0061 Y236.4576
G01 X30.0626 Y236.4703
G01 X30.1196 Y236.4801
G01 X30.1770 Y236.4872
G01 X30.2347 Y236.4915
G01 X30.2925 Y236.4929
G01 X30.3504 Y236.4915
G01 X30.4080 Y236.4872
G01 X30.4655 Y236.4801
G01 X30.5225 Y236.4703
G01 X30.5789 Y236.4576
G01 X30.6347 Y236.4422
G01 X30.6896 Y236.4240
G01 X30.7436 Y236.4032
G01 X30.7965 Y236.3797
G01 X30.8481 Y236.3537
G01 X30.8985 Y236.3252
G01 X30.9474 Y236.2943
G01 X30.9947 Y236.2609
G01 X31.0403 Y236.2254
G01 X31.0841 Y236.1876
G01 X31.1260 Y236.1477
G01 X31.1659 Y236.1058
G01 X31.2036 Y236.0620
G01 X31.2392 Y236.0164
G01 X31.2726 Y235.9691
G01 X31.3035 Y235.9202
G01 X31.3320 Y235.8699
G01 X31.3580 Y235.8182
G01 X31.3815 Y235.7653
G01 X31.4023 Y235.7113
G01 X31.4204 Y235.6564
G01 X31.4359 Y235.6006
G01 X31.4485 Y235.5442
G01 X31.4584 Y235.4872
G01 X31.4655 Y235.4298
G01 X31.4698 Y235.3721
G01 X31.4712 Y235.3142
G01 X31.4667 Y235.2115
G01 X31.4533 Y235.1096
G01 X31.4310 Y235.0092
G01 X31.4001 Y234.9111
G01 X31.3608 Y234.8161
G01 X31.3133 Y234.7249
G01 X31.2580 Y234.6382
G01 X31.1954 Y234.5566
G01 X31.1260 Y234.4808
G01 X31.0502 Y234.4113
G01 X30.9686 Y234.3487
G01 X30.8819 Y234.2935
G01 X30.7906 Y234.2460
G01 X30.6956 Y234.2066
G01 X30.5976 Y234.1757
G01 X30.4972 Y234.1535
G01 X30.3952 Y234.1400
G01 X30.2925 Y234.1356
G01 X30.1898 Y234.1400
G01 X30.0878 Y234.1535
G01 X29.9875 Y234.1757
G01 X29.8894 Y234.2066
G01 X29.7944 Y234.2460
G01 X29.7032 Y234.2935
G01 X29.6165 Y234.3487
G01 X29.5349 Y234.4113
G01 X29.4591 Y234.4808
G01 X29.3896 Y234.5566
G01 X29.3270 Y234.6382
G01 X29.2718 Y234.7249
G01 X29.2243 Y234.8161
G01 X29.1849 Y234.9111
G01 X29.1540 Y235.0092
G01 X29.1317 Y235.1096
G01 X29.1183 Y235.2115
G01 X29.1138 Y235.3142
G01 X29.1183 Y235.4170
G01 X29.1317 Y235.5189
G01 X29.1540 Y235.6193
G01 X29.1849 Y235.7174
G01 X29.2243 Y235.8124
G01 X29.2718 Y235.9036
G01 X29.3270 Y235.9903
G01 X29.3896 Y236.0719
G01 X29.4591 Y236.1477
G01 X29.5349 Y236.2171
G01 X29.6165 Y236.2797
G01 X29.7032 Y236.3350
G01 X29.7944 Y236.3825
G01 X29.8894 Y236.4218
G01 X29.9875 Y236.4527
G01 X30.0878 Y236.4750
G01 X30.1898 Y236.4884
G01 X30.2925 Y236.4929
G01 X30.3952 Y236.4884
G01 X30.4972 Y236.4750
G01 X30.5976 Y236.4527
G01 X30.6956 Y236.4218
G01 X30.7906 Y236.3825
G01 X30.8819 Y236.3350
G01 X30.9686 Y236.2797
G01 X31.0502 Y236.2171
G01 X31.1260 Y236.1477
G01 X31.1954 Y236.0719
G01 X31.2580 Y235.9903
G01 X31.3133 Y235.9036
G01 X31.3608 Y235.8124
G01 X31.4001 Y235.7174
G01 X31.4310 Y235.6193
G01 X31.4533 Y235.5189
G01 X31.4667 Y235.4170
G01 X31.4712 Y235.3142
M107
M106 S240
G01 X31.4681 Y235.2358 Z-5.4750 F400
M107
M106 S240
G01 X31.4589 Y235.1578 Z-5.4500
M107
M106 S240
G01 X31.4436 Y235.0808 Z-5.4250
M107
M106 S240
G01 X31.4223 Y235.0052 Z-5.4000
M107
M106 S240
G01 X31.3951 Y234.9315 Z-5.3750
M107
M106 S240
G01 X31.3622 Y234.8602 Z-5.3500
M107
M106 S240
G01 X31.3238 Y234.7917 Z-5.3250
M107
M106 S240
G01 X31.2802 Y234.7264 Z-5.3000
M107
M106 S240
G01 X31.2316 Y234.6648 Z-5.2750
M107
M106 S240
G01 X31.1783 Y234.6071 Z-5.2500
M107
M106 S240
G01 X31.1206 Y234.5538 Z-5.2250
M107
M106 S240
G01 X31.0590 Y234.5052 Z-5.2000
M107
M106 S240
G01 X30.9937 Y234.4616 Z-5.1750
M107
M106 S240
G01 X30.9252 Y234.4232 Z-5.1500
M107
M106 S240
G01 X30.8539 Y234.3903 Z-5.1250
M107
M106 S240
G01 X30.7802 Y234.3632 Z-5.1000
M107
M106 S240
G01 X30.7046 Y234.3419 Z-5.0750
M107
M106 S240
G01 X30.6276 Y234.3265 Z-5.0500
M107
M106 S240
G01 X30.5497 Y234.3173 Z-5.0250
M107
M106 S240
G01 X30.4712 Y234.3142 Z-5.0000
M107
G00 Z2.0000


;No. 2: Helical drill 2
G00 X166.3661 Y235.3141 Z2.0000
G00 Z0.5000
M106 S240
G01 X166.3623 Y235.2269 Z0.4722 F400
G01 X166.3509 Y235.1404 Z0.4444
G01 X166.3321 Y235.0552 Z0.4167
G01 X166.3058 Y234.9720 Z0.3889
G01 X166.2724 Y234.8914 Z0.3611
G01 X166.2322 Y234.8141 Z0.3333
G01 X166.1853 Y234.7405 Z0.3056
G01 X166.1322 Y234.6713 Z0.2778
G01 X166.0732 Y234.6070 Z0.2500
G01 X166.0089 Y234.5480 Z0.2222
G01 X165.9397 Y234.4949 Z0.1944
G01 X165.8661 Y234.4480 Z0.1667
G01 X165.7888 Y234.4077 Z0.1389
G01 X165.7082 Y234.3744 Z0.1111
G01 X165.6250 Y234.3481 Z0.0833
G01 X165.5398 Y234.3292 Z0.0556
G01 X165.4533 Y234.3179 Z0.0278
G01 X165.3661 Y234.3141 Z0.0000
G01 X165.2790 Y234.3179 Z-0.0278
G01 X165.1925 Y234.3292 Z-0.0556
G01 X165.1073 Y234.3481 Z-0.0833
G01 X165.0241 Y234.3744 Z-0.1111
G01 X164.9435 Y234.4077 Z-0.1389
G01 X164.8661 Y234.4480 Z-0.1667
G01 X164.7926 Y234.4949 Z-0.1944
G01 X164.7233 Y234.5480 Z-0.2222
G01 X164.6590 Y234.6070 Z-0.2500
G01 X164.6001 Y234.6713 Z-0.2778
G01 X164.5470 Y234.7405 Z-0.3056
G01 X164.5001 Y234.8141 Z-0.3333
G01 X164.4598 Y234.8914 Z-0.3611
G01 X164.4264 Y234.9720 Z-0.3889
G01 X164.4002 Y235.0552 Z-0.4167
G01 X164.3813 Y235.1404 Z-0.4444
G01 X164.3699 Y235.2269 Z-0.4722
G01 X164.3661 Y235.3141 Z-0.5000
G01 X164.3699 Y235.4012 Z-0.5278
G01 X164.3813 Y235.4877 Z-0.5556
G01 X164.4002 Y235.5729 Z-0.5833
G01 X164.4264 Y235.6561 Z-0.6111
G01 X164.4598 Y235.7367 Z-0.6389
G01 X164.5001 Y235.8141 Z-0.6667
G01 X164.5470 Y235.8876 Z-0.6944
G01 X164.6001 Y235.9568 Z-0.7222
G01 X164.6590 Y236.0212 Z-0.7500
G01 X164.7233 Y236.0801 Z-0.7778
G01 X164.7926 Y236.1332 Z-0.8056
G01 X164.8661 Y236.1801 Z-0.8333
G01 X164.9435 Y236.2204 Z-0.8611
G01 X165.0241 Y236.2537 Z-0.8889
G01 X165.1073 Y236.2800 Z-0.9167
G01 X165.1925 Y236.2989 Z-0.9444
G01 X165.2790 Y236.3103 Z-0.9722
G01 X165.3661 Y236.3141 Z-1.0000
G01 X165.4533 Y236.3103 Z-1.0278
G01 X165.5398 Y236.2989 Z-1.0556
G01 X165.6250 Y236.2800 Z-1.0833
G01 X165.7082 Y236.2537 Z-1.1111
G01 X165.7888 Y236.2204 Z-1.1389
G01 X165.8661 Y236.1801 Z-1.1667
G01 X165.9397 Y236.1332 Z-1.1944
G01 X166.0089 Y236.0801 Z-1.2222
G01 X166.0732 Y236.0212 Z-1.2500
G01 X166.1322 Y235.9568 Z-1.2778
G01 X166.1853 Y235.8876 Z-1.3056
G01 X166.2322 Y235.8141 Z-1.3333
G01 X166.2724 Y235.7367 Z-1.3611
G01 X166.3058 Y235.6561 Z-1.3889
G01 X166.3321 Y235.5729 Z-1.4167
G01 X166.3509 Y235.4877 Z-1.4444
G01 X166.3623 Y235.4012 Z-1.4722
G01 X166.3661 Y235.3141 Z-1.5000
G01 X166.3623 Y235.2269
G01 X166.3509 Y235.1404
G01 X166.3321 Y235.0552
G01 X166.3058 Y234.9720
G01 X166.2724 Y234.8914
G01 X166.2322 Y234.8141
G01 X166.1853 Y234.7405
G01 X166.1322 Y234.6713
G01 X166.0732 Y234.6070
G01 X166.0089 Y234.5480
G01 X165.9397 Y234.4949
G01 X165.8661 Y234.4480
G01 X165.7888 Y234.4077
G01 X165.7082 Y234.3744
G01 X165.6250 Y234.3481
G01 X165.5398 Y234.3292
G01 X165.4533 Y234.3179
G01 X165.3661 Y234.3141
G01 X165.2790 Y234.3179
G01 X165.1925 Y234.3292
G01 X165.1073 Y234.3481
G01 X165.0241 Y234.3744
G01 X164.9435 Y234.4077
G01 X164.8661 Y234.4480
G01 X164.7926 Y234.4949
G01 X164.7233 Y234.5480
G01 X164.6590 Y234.6070
G01 X164.6001 Y234.6713
G01 X164.5470 Y234.7405
G01 X164.5001 Y234.8141
G01 X164.4598 Y234.8914
G01 X164.4264 Y234.9720
G01 X164.4002 Y235.0552
G01 X164.3813 Y235.1404
G01 X164.3699 Y235.2269
G01 X164.3661 Y235.3141
G01 X164.3699 Y235.4012
G01 X164.3813 Y235.4877
G01 X164.4002 Y235.5729
G01 X164.4264 Y235.6561
G01 X164.4598 Y235.7367
G01 X164.5001 Y235.8141
G01 X164.5470 Y235.8876
G01 X164.6001 Y235.9568
G01 X164.6590 Y236.0212
G01 X164.7233 Y236.0801
G01 X164.7926 Y236.1332
G01 X164.8661 Y236.1801
G01 X164.9435 Y236.2204
G01 X165.0241 Y236.2537
G01 X165.1073 Y236.2800
G01 X165.1925 Y236.2989
G01 X165.2790 Y236.3103
G01 X165.3661 Y236.3141
G01 X165.4533 Y236.3103
G01 X165.5398 Y236.2989
G01 X165.6250 Y236.2800
G01 X165.7082 Y236.2537
G01 X165.7888 Y236.2204
G01 X165.8661 Y236.1801
G01 X165.9397 Y236.1332
G01 X166.0089 Y236.0801
G01 X166.0732 Y236.0212
G01 X166.1322 Y235.9568
G01 X166.1853 Y235.8876
G01 X166.2322 Y235.8141
G01 X166.2724 Y235.7367
G01 X166.3058 Y235.6561
G01 X166.3321 Y235.5729
G01 X166.3509 Y235.4877
G01 X166.3623 Y235.4012
G01 X166.3661 Y235.3141
G01 X166.3769 Y235.2625 F1000
G01 X166.3850 Y235.2104
G01 X166.3903 Y235.1580
G01 X166.3930 Y235.1053
G01 Y235.0526
G01 X166.3902 Y235.0000
G01 X166.3848 Y234.9476
G01 X166.3766 Y234.8955
G01 X166.3639 Y234.8402
G01 X166.3484 Y234.7855
G01 X166.3302 Y234.7318
G01 X166.3093 Y234.6790
G01 X166.2857 Y234.6274
G01 X166.2595 Y234.5770
G01 X166.2307 Y234.5281
G01 X166.1996 Y234.4806
G01 X166.1577 Y234.4407
G01 X166.1139 Y234.4029
G01 X166.0683 Y234.3673
G01 X166.0210 Y234.3340
G01 X165.9721 Y234.3031
G01 X165.9218 Y234.2746
G01 X165.8701 Y234.2485
G01 X165.8172 Y234.2251
G01 X165.7632 Y234.2043
G01 X165.7083 Y234.1861
G01 X165.6525 Y234.1707
G01 X165.5961 Y234.1580
G01 X165.5391 Y234.1481
G01 X165.4817 Y234.1411
G01 X165.4240 Y234.1368
G01 X165.3661 Y234.1354
G01 X165.3083 Y234.1368
G01 X165.2506 Y234.1411
G01 X165.1932 Y234.1481
G01 X165.1362 Y234.1580
G01 X165.0797 Y234.1707
G01 X165.0240 Y234.1861
G01 X164.9690 Y234.2043
G01 X164.9151 Y234.2251
G01 X164.8622 Y234.2485
G01 X164.8105 Y234.2746
G01 X164.7602 Y234.3031
G01 X164.7113 Y234.3340
G01 X164.6640 Y234.3673
G01 X164.6184 Y234.4029
G01 X164.5746 Y234.4407
G01 X164.5327 Y234.4806
G01 X164.4928 Y234.5225
G01 X164.4550 Y234.5663
G01 X164.4194 Y234.6119
G01 X164.3861 Y234.6592
G01 X164.3551 Y234.7081
G01 X164.3266 Y234.7584
G01 X164.3006 Y234.8101
G01 X164.2772 Y234.8630
G01 X164.2564 Y234.9170
G01 X164.2382 Y234.9719
G01 X164.2228 Y235.0277
G01 X164.2101 Y235.0841
G01 X164.2002 Y235.1411
G01 X164.1931 Y235.1985
G01 X164.1889 Y235.2562
G01 X164.1875 Y235.3141
G01 X164.1889 Y235.3719
G01 X164.1931 Y235.4296
G01 X164.2002 Y235.4870
G01 X164.2101 Y235.5440
G01 X164.2228 Y235.6005
G01 X164.2382 Y235.6562
G01 X164.2564 Y235.7111
G01 X164.2772 Y235.7651
G01 X164.3006 Y235.8180
G01 X164.3266 Y235.8697
G01 X164.3551 Y235.9200
G01 X164.3861 Y235.9689
G01 X164.4194 Y236.0162
G01 X164.4550 Y236.0618
G01 X164.4928 Y236.1056
G01 X164.5327 Y236.1475
G01 X164.5746 Y236.1874
G01 X164.6184 Y236.2252
G01 X164.6640 Y236.2608
G01 X164.7113 Y236.2941
G01 X164.7602 Y236.3250
G01 X164.8105 Y236.3536
G01 X164.8622 Y236.3796
G01 X164.9151 Y236.4030
G01 X164.9690 Y236.4238
G01 X165.0240 Y236.4420
G01 X165.0797 Y236.4574
G01 X165.1362 Y236.4701
G01 X165.1932 Y236.4800
G01 X165.2506 Y236.4871
G01 X165.3083 Y236.4913
G01 X165.3661 Y236.4927
G01 X165.4240 Y236.4913
G01 X165.4817 Y236.4871
G01 X165.5391 Y236.4800
G01 X165.5961 Y236.4701
G01 X165.6525 Y236.4574
G01 X165.7083 Y236.4420
G01 X165.7632 Y236.4238
G01 X165.8172 Y236.4030
G01 X165.8701 Y236.3796
G01 X165.9218 Y236.3536
G01 X165.9721 Y236.3250
G01 X166.0210 Y236.2941
G01 X166.0683 Y236.2608
G01 X166.1139 Y236.2252
G01 X166.1577 Y236.1874
G01 X166.1996 Y236.1475
G01 X166.2395 Y236.1056
G01 X166.2773 Y236.0618
G01 X166.3129 Y236.0162
G01 X166.3462 Y235.9689
G01 X166.3771 Y235.9200
G01 X166.4056 Y235.8697
G01 X166.4316 Y235.8180
G01 X166.4551 Y235.7651
G01 X166.4759 Y235.7111
G01 X166.4941 Y235.6562
G01 X166.5095 Y235.6005
G01 X166.5222 Y235.5440
G01 X166.5321 Y235.4870
G01 X166.5391 Y235.4296
G01 X166.5434 Y235.3719
G01 X166.5448 Y235.3141
G01 X166.5403 Y235.2113
G01 X166.5269 Y235.1094
G01 X166.5046 Y235.0090
G01 X166.4737 Y234.9109
G01 X166.4344 Y234.8159
G01 X166.3869 Y234.7247
G01 X166.3317 Y234.6380
G01 X166.2691 Y234.5564
G01 X166.1996 Y234.4806
G01 X166.1238 Y234.4111
G01 X166.0422 Y234.3485
G01 X165.9555 Y234.2933
G01 X165.8643 Y234.2458
G01 X165.7693 Y234.2065
G01 X165.6712 Y234.1755
G01 X165.5708 Y234.1533
G01 X165.4689 Y234.1399
G01 X165.3661 Y234.1354
G01 X165.2634 Y234.1399
G01 X165.1615 Y234.1533
G01 X165.0611 Y234.1755
G01 X164.9630 Y234.2065
G01 X164.8680 Y234.2458
G01 X164.7768 Y234.2933
G01 X164.6901 Y234.3485
G01 X164.6085 Y234.4111
G01 X164.5327 Y234.4806
G01 X164.4632 Y234.5564
G01 X164.4006 Y234.6380
G01 X164.3454 Y234.7247
G01 X164.2979 Y234.8159
G01 X164.2585 Y234.9109
G01 X164.2276 Y235.0090
G01 X164.2054 Y235.1094
G01 X164.1919 Y235.2113
G01 X164.1875 Y235.3141
G01 X164.1919 Y235.4168
G01 X164.2054 Y235.5187
G01 X164.2276 Y235.6191
G01 X164.2585 Y235.7172
G01 X164.2979 Y235.8122
G01 X164.3454 Y235.9034
G01 X164.4006 Y235.9901
G01 X164.4632 Y236.0717
G01 X164.5327 Y236.1475
G01 X164.6085 Y236.2170
G01 X164.6901 Y236.2796
G01 X164.7768 Y236.3348
G01 X164.8680 Y236.3823
G01 X164.9630 Y236.4217
G01 X165.0611 Y236.4526
G01 X165.1615 Y236.4748
G01 X165.2634 Y236.4883
G01 X165.3661 Y236.4927
G01 X165.4689 Y236.4883
G01 X165.5708 Y236.4748
G01 X165.6712 Y236.4526
G01 X165.7693 Y236.4217
G01 X165.8643 Y236.3823
G01 X165.9555 Y236.3348
G01 X166.0422 Y236.2796
G01 X166.1238 Y236.2170
G01 X166.1996 Y236.1475
G01 X166.2691 Y236.0717
G01 X166.3317 Y235.9901
G01 X166.3869 Y235.9034
G01 X166.4344 Y235.8122
G01 X166.4737 Y235.7172
G01 X166.5046 Y235.6191
G01 X166.5269 Y235.5187
G01 X166.5403 Y235.4168
G01 X166.5448 Y235.3141
G01 X166.5407 Y235.2191
G01 X166.5283 Y235.1249
G01 X166.5077 Y235.0321
G01 X166.4791 Y234.9415
G01 X166.4427 Y234.8537
G01 X166.3989 Y234.7694
G01 X166.3478 Y234.6892
G01 X166.2900 Y234.6138
G01 X166.2258 Y234.5438
G01 X166.1557 Y234.4796
G01 X166.0803 Y234.4217
G01 X166.0001 Y234.3707
G01 X165.9158 Y234.3268
G01 X165.8280 Y234.2904
G01 X165.7374 Y234.2618
G01 X165.6446 Y234.2413
G01 X165.5504 Y234.2289
G01 X165.4555 Y234.2247
G01 X165.3605 Y234.2289
G01 X165.2663 Y234.2413
G01 X165.1735 Y234.2618
G01 X165.0829 Y234.2904
G01 X164.9951 Y234.3268
G01 X164.9108 Y234.3707
G01 X164.8307 Y234.4217
G01 X164.7553 Y234.4796
G01 X164.6852 Y234.5438
G01 X164.6210 Y234.6138
G01 X164.5631 Y234.6892
G01 X164.5121 Y234.7694
G01 X164.4682 Y234.8537
G01 X164.4318 Y234.9415
G01 X164.4033 Y235.0321
G01 X164.3827 Y235.1249
G01 X164.3703 Y235.2191
G01 X164.3661 Y235.3141
G01 X164.3699 Y235.4012
G01 X164.3813 Y235.4877
G01 X164.4002 Y235.5729
G01 X164.4264 Y235.6561
G01 X164.4598 Y235.7367
G01 X164.5001 Y235.8141
G01 X164.5470 Y235.8876
G01 X164.6001 Y235.9568
G01 X164.6590 Y236.0212
G01 X164.7233 Y236.0801
G01 X164.7926 Y236.1332
G01 X164.8661 Y236.1801
G01 X164.9435 Y236.2204
G01 X165.0241 Y236.2537
G01 X165.1073 Y236.2800
G01 X165.1925 Y236.2989
G01 X165.2790 Y236.3103
G01 X165.3661 Y236.3141
G01 X165.4533 Y236.3103
G01 X165.5398 Y236.2989
G01 X165.6250 Y236.2800
G01 X165.7082 Y236.2537
G01 X165.7888 Y236.2204
G01 X165.8661 Y236.1801
G01 X165.9397 Y236.1332
G01 X166.0089 Y236.0801
G01 X166.0732 Y236.0212
G01 X166.1322 Y235.9568
G01 X166.1853 Y235.8876
G01 X166.2322 Y235.8141
G01 X166.2724 Y235.7367
G01 X166.3058 Y235.6561
G01 X166.3321 Y235.5729
G01 X166.3509 Y235.4877
G01 X166.3623 Y235.4012
G01 X166.3661 Y235.3141
M107
M106 S240
G01 X166.3623 Y235.2269 Z-1.5278 F400
G01 X166.3509 Y235.1404 Z-1.5556
G01 X166.3321 Y235.0552 Z-1.5833
G01 X166.3058 Y234.9720 Z-1.6111
G01 X166.2724 Y234.8914 Z-1.6389
G01 X166.2322 Y234.8141 Z-1.6667
G01 X166.1853 Y234.7405 Z-1.6944
G01 X166.1322 Y234.6713 Z-1.7222
G01 X166.0732 Y234.6070 Z-1.7500
G01 X166.0089 Y234.5480 Z-1.7778
G01 X165.9397 Y234.4949 Z-1.8056
G01 X165.8661 Y234.4480 Z-1.8333
G01 X165.7888 Y234.4077 Z-1.8611
G01 X165.7082 Y234.3744 Z-1.8889
G01 X165.6250 Y234.3481 Z-1.9167
G01 X165.5398 Y234.3292 Z-1.9444
G01 X165.4533 Y234.3179 Z-1.9722
G01 X165.3661 Y234.3141 Z-2.0000
G01 X165.2790 Y234.3179 Z-2.0278
G01 X165.1925 Y234.3292 Z-2.0556
G01 X165.1073 Y234.3481 Z-2.0833
G01 X165.0241 Y234.3744 Z-2.1111
G01 X164.9435 Y234.4077 Z-2.1389
G01 X164.8661 Y234.4480 Z-2.1667
G01 X164.7926 Y234.4949 Z-2.1944
G01 X164.7233 Y234.5480 Z-2.2222
G01 X164.6590 Y234.6070 Z-2.2500
G01 X164.6001 Y234.6713 Z-2.2778
G01 X164.5470 Y234.7405 Z-2.3056
G01 X164.5001 Y234.8141 Z-2.3333
G01 X164.4598 Y234.8914 Z-2.3611
G01 X164.4264 Y234.9720 Z-2.3889
G01 X164.4002 Y235.0552 Z-2.4167
G01 X164.3813 Y235.1404 Z-2.4444
G01 X164.3699 Y235.2269 Z-2.4722
G01 X164.3661 Y235.3141 Z-2.5000
G01 X164.3699 Y235.4012 Z-2.5278
G01 X164.3813 Y235.4877 Z-2.5556
G01 X164.4002 Y235.5729 Z-2.5833
G01 X164.4264 Y235.6561 Z-2.6111
G01 X164.4598 Y235.7367 Z-2.6389
G01 X164.5001 Y235.8141 Z-2.6667
G01 X164.5470 Y235.8876 Z-2.6944
G01 X164.6001 Y235.9568 Z-2.7222
G01 X164.6590 Y236.0212 Z-2.7500
G01 X164.7233 Y236.0801 Z-2.7778
G01 X164.7926 Y236.1332 Z-2.8056
G01 X164.8661 Y236.1801 Z-2.8333
G01 X164.9435 Y236.2204 Z-2.8611
G01 X165.0241 Y236.2537 Z-2.8889
G01 X165.1073 Y236.2800 Z-2.9167
G01 X165.1925 Y236.2989 Z-2.9444
G01 X165.2790 Y236.3103 Z-2.9722
G01 X165.3661 Y236.3141 Z-3.0000
G01 X165.4533 Y236.3103 Z-3.0278
G01 X165.5398 Y236.2989 Z-3.0556
G01 X165.6250 Y236.2800 Z-3.0833
G01 X165.7082 Y236.2537 Z-3.1111
G01 X165.7888 Y236.2204 Z-3.1389
G01 X165.8661 Y236.1801 Z-3.1667
G01 X165.9397 Y236.1332 Z-3.1944
G01 X166.0089 Y236.0801 Z-3.2222
G01 X166.0732 Y236.0212 Z-3.2500
G01 X166.1322 Y235.9568 Z-3.2778
G01 X166.1853 Y235.8876 Z-3.3056
G01 X166.2322 Y235.8141 Z-3.3333
G01 X166.2724 Y235.7367 Z-3.3611
G01 X166.3058 Y235.6561 Z-3.3889
G01 X166.3321 Y235.5729 Z-3.4167
G01 X166.3509 Y235.4877 Z-3.4444
G01 X166.3623 Y235.4012 Z-3.4722
G01 X166.3661 Y235.3141 Z-3.5000
G01 X166.3623 Y235.2269
G01 X166.3509 Y235.1404
G01 X166.3321 Y235.0552
G01 X166.3058 Y234.9720
G01 X166.2724 Y234.8914
G01 X166.2322 Y234.8141
G01 X166.1853 Y234.7405
G01 X166.1322 Y234.6713
G01 X166.0732 Y234.6070
G01 X166.0089 Y234.5480
G01 X165.9397 Y234.4949
G01 X165.8661 Y234.4480
G01 X165.7888 Y234.4077
G01 X165.7082 Y234.3744
G01 X165.6250 Y234.3481
G01 X165.5398 Y234.3292
G01 X165.4533 Y234.3179
G01 X165.3661 Y234.3141
G01 X165.2790 Y234.3179
G01 X165.1925 Y234.3292
G01 X165.1073 Y234.3481
G01 X165.0241 Y234.3744
G01 X164.9435 Y234.4077
G01 X164.8661 Y234.4480
G01 X164.7926 Y234.4949
G01 X164.7233 Y234.5480
G01 X164.6590 Y234.6070
G01 X164.6001 Y234.6713
G01 X164.5470 Y234.7405
G01 X164.5001 Y234.8141
G01 X164.4598 Y234.8914
G01 X164.4264 Y234.9720
G01 X164.4002 Y235.0552
G01 X164.3813 Y235.1404
G01 X164.3699 Y235.2269
G01 X164.3661 Y235.3141
G01 X164.3699 Y235.4012
G01 X164.3813 Y235.4877
G01 X164.4002 Y235.5729
G01 X164.4264 Y235.6561
G01 X164.4598 Y235.7367
G01 X164.5001 Y235.8141
G01 X164.5470 Y235.8876
G01 X164.6001 Y235.9568
G01 X164.6590 Y236.0212
G01 X164.7233 Y236.0801
G01 X164.7926 Y236.1332
G01 X164.8661 Y236.1801
G01 X164.9435 Y236.2204
G01 X165.0241 Y236.2537
G01 X165.1073 Y236.2800
G01 X165.1925 Y236.2989
G01 X165.2790 Y236.3103
G01 X165.3661 Y236.3141
G01 X165.4533 Y236.3103
G01 X165.5398 Y236.2989
G01 X165.6250 Y236.2800
G01 X165.7082 Y236.2537
G01 X165.7888 Y236.2204
G01 X165.8661 Y236.1801
G01 X165.9397 Y236.1332
G01 X166.0089 Y236.0801
G01 X166.0732 Y236.0212
G01 X166.1322 Y235.9568
G01 X166.1853 Y235.8876
G01 X166.2322 Y235.8141
G01 X166.2724 Y235.7367
G01 X166.3058 Y235.6561
G01 X166.3321 Y235.5729
G01 X166.3509 Y235.4877
G01 X166.3623 Y235.4012
G01 X166.3661 Y235.3141
G01 X166.3769 Y235.2625 F1000
G01 X166.3850 Y235.2104
G01 X166.3903 Y235.1580
G01 X166.3930 Y235.1053
G01 Y235.0526
G01 X166.3902 Y235.0000
G01 X166.3848 Y234.9476
G01 X166.3766 Y234.8955
G01 X166.3639 Y234.8402
G01 X166.3484 Y234.7855
G01 X166.3302 Y234.7318
G01 X166.3093 Y234.6790
G01 X166.2857 Y234.6274
G01 X166.2595 Y234.5770
G01 X166.2307 Y234.5281
G01 X166.1996 Y234.4806
G01 X166.1577 Y234.4407
G01 X166.1139 Y234.4029
G01 X166.0683 Y234.3673
G01 X166.0210 Y234.3340
G01 X165.9721 Y234.3031
G01 X165.9218 Y234.2746
G01 X165.8701 Y234.2485
G01 X165.8172 Y234.2251
G01 X165.7632 Y234.2043
G01 X165.7083 Y234.1861
G01 X165.6525 Y234.1707
G01 X165.5961 Y234.1580
G01 X165.5391 Y234.1481
G01 X165.4817 Y234.1411
G01 X165.4240 Y234.1368
G01 X165.3661 Y234.1354
G01 X165.3083 Y234.1368
G01 X165.2506 Y234.1411
G01 X165.1932 Y234.1481
G01 X165.1362 Y234.1580
G01 X165.0797 Y234.1707
G01 X165.0240 Y234.1861
G01 X164.9690 Y234.2043
G01 X164.9151 Y234.2251
G01 X164.8622 Y234.2485
G01 X164.8105 Y234.2746
G01 X164.7602 Y234.3031
G01 X164.7113 Y234.3340
G01 X164.6640 Y234.3673
G01 X164.6184 Y234.4029
G01 X164.5746 Y234.4407
G01 X164.5327 Y234.4806
G01 X164.4928 Y234.5225
G01 X164.4550 Y234.5663
G01 X164.4194 Y234.6119
G01 X164.3861 Y234.6592
G01 X164.3551 Y234.7081
G01 X164.3266 Y234.7584
G01 X164.3006 Y234.8101
G01 X164.2772 Y234.8630
G01 X164.2564 Y234.9170
G01 X164.2382 Y234.9719
G01 X164.2228 Y235.0277
G01 X164.2101 Y235.0841
G01 X164.2002 Y235.1411
G01 X164.1931 Y235.1985
G01 X164.1889 Y235.2562
G01 X164.1875 Y235.3141
G01 X164.1889 Y235.3719
G01 X164.1931 Y235.4296
G01 X164.2002 Y235.4870
G01 X164.2101 Y235.5440
G01 X164.2228 Y235.6005
G01 X164.2382 Y235.6562
G01 X164.2564 Y235.7111
G01 X164.2772 Y235.7651
G01 X164.3006 Y235.8180
G01 X164.3266 Y235.8697
G01 X164.3551 Y235.9200
G01 X164.3861 Y235.9689
G01 X164.4194 Y236.0162
G01 X164.4550 Y236.0618
G01 X164.4928 Y236.1056
G01 X164.5327 Y236.1475
G01 X164.5746 Y236.1874
G01 X164.6184 Y236.2252
G01 X164.6640 Y236.2608
G01 X164.7113 Y236.2941
G01 X164.7602 Y236.3250
G01 X164.8105 Y236.3536
G01 X164.8622 Y236.3796
G01 X164.9151 Y236.4030
G01 X164.9690 Y236.4238
G01 X165.0240 Y236.4420
G01 X165.0797 Y236.4574
G01 X165.1362 Y236.4701
G01 X165.1932 Y236.4800
G01 X165.2506 Y236.4871
G01 X165.3083 Y236.4913
G01 X165.3661 Y236.4927
G01 X165.4240 Y236.4913
G01 X165.4817 Y236.4871
G01 X165.5391 Y236.4800
G01 X165.5961 Y236.4701
G01 X165.6525 Y236.4574
G01 X165.7083 Y236.4420
G01 X165.7632 Y236.4238
G01 X165.8172 Y236.4030
G01 X165.8701 Y236.3796
G01 X165.9218 Y236.3536
G01 X165.9721 Y236.3250
G01 X166.0210 Y236.2941
G01 X166.0683 Y236.2608
G01 X166.1139 Y236.2252
G01 X166.1577 Y236.1874
G01 X166.1996 Y236.1475
G01 X166.2395 Y236.1056
G01 X166.2773 Y236.0618
G01 X166.3129 Y236.0162
G01 X166.3462 Y235.9689
G01 X166.3771 Y235.9200
G01 X166.4056 Y235.8697
G01 X166.4316 Y235.8180
G01 X166.4551 Y235.7651
G01 X166.4759 Y235.7111
G01 X166.4941 Y235.6562
G01 X166.5095 Y235.6005
G01 X166.5222 Y235.5440
G01 X166.5321 Y235.4870
G01 X166.5391 Y235.4296
G01 X166.5434 Y235.3719
G01 X166.5448 Y235.3141
G01 X166.5403 Y235.2113
G01 X166.5269 Y235.1094
G01 X166.5046 Y235.0090
G01 X166.4737 Y234.9109
G01 X166.4344 Y234.8159
G01 X166.3869 Y234.7247
G01 X166.3317 Y234.6380
G01 X166.2691 Y234.5564
G01 X166.1996 Y234.4806
G01 X166.1238 Y234.4111
G01 X166.0422 Y234.3485
G01 X165.9555 Y234.2933
G01 X165.8643 Y234.2458
G01 X165.7693 Y234.2065
G01 X165.6712 Y234.1755
G01 X165.5708 Y234.1533
G01 X165.4689 Y234.1399
G01 X165.3661 Y234.1354
G01 X165.2634 Y234.1399
G01 X165.1615 Y234.1533
G01 X165.0611 Y234.1755
G01 X164.9630 Y234.2065
G01 X164.8680 Y234.2458
G01 X164.7768 Y234.2933
G01 X164.6901 Y234.3485
G01 X164.6085 Y234.4111
G01 X164.5327 Y234.4806
G01 X164.4632 Y234.5564
G01 X164.4006 Y234.6380
G01 X164.3454 Y234.7247
G01 X164.2979 Y234.8159
G01 X164.2585 Y234.9109
G01 X164.2276 Y235.0090
G01 X164.2054 Y235.1094
G01 X164.1919 Y235.2113
G01 X164.1875 Y235.3141
G01 X164.1919 Y235.4168
G01 X164.2054 Y235.5187
G01 X164.2276 Y235.6191
G01 X164.2585 Y235.7172
G01 X164.2979 Y235.8122
G01 X164.3454 Y235.9034
G01 X164.4006 Y235.9901
G01 X164.4632 Y236.0717
G01 X164.5327 Y236.1475
G01 X164.6085 Y236.2170
G01 X164.6901 Y236.2796
G01 X164.7768 Y236.3348
G01 X164.8680 Y236.3823
G01 X164.9630 Y236.4217
G01 X165.0611 Y236.4526
G01 X165.1615 Y236.4748
G01 X165.2634 Y236.4883
G01 X165.3661 Y236.4927
G01 X165.4689 Y236.4883
G01 X165.5708 Y236.4748
G01 X165.6712 Y236.4526
G01 X165.7693 Y236.4217
G01 X165.8643 Y236.3823
G01 X165.9555 Y236.3348
G01 X166.0422 Y236.2796
G01 X166.1238 Y236.2170
G01 X166.1996 Y236.1475
G01 X166.2691 Y236.0717
G01 X166.3317 Y235.9901
G01 X166.3869 Y235.9034
G01 X166.4344 Y235.8122
G01 X166.4737 Y235.7172
G01 X166.5046 Y235.6191
G01 X166.5269 Y235.5187
G01 X166.5403 Y235.4168
G01 X166.5448 Y235.3141
G01 X166.5407 Y235.2191
G01 X166.5283 Y235.1249
G01 X166.5077 Y235.0321
G01 X166.4791 Y234.9415
G01 X166.4427 Y234.8537
G01 X166.3989 Y234.7694
G01 X166.3478 Y234.6892
G01 X166.2900 Y234.6138
G01 X166.2258 Y234.5438
G01 X166.1557 Y234.4796
G01 X166.0803 Y234.4217
G01 X166.0001 Y234.3707
G01 X165.9158 Y234.3268
G01 X165.8280 Y234.2904
G01 X165.7374 Y234.2618
G01 X165.6446 Y234.2413
G01 X165.5504 Y234.2289
G01 X165.4555 Y234.2247
G01 X165.3605 Y234.2289
G01 X165.2663 Y234.2413
G01 X165.1735 Y234.2618
G01 X165.0829 Y234.2904
G01 X164.9951 Y234.3268
G01 X164.9108 Y234.3707
G01 X164.8307 Y234.4217
G01 X164.7553 Y234.4796
G01 X164.6852 Y234.5438
G01 X164.6210 Y234.6138
G01 X164.5631 Y234.6892
G01 X164.5121 Y234.7694
G01 X164.4682 Y234.8537
G01 X164.4318 Y234.9415
G01 X164.4033 Y235.0321
G01 X164.3827 Y235.1249
G01 X164.3703 Y235.2191
G01 X164.3661 Y235.3141
G01 X164.3699 Y235.4012
G01 X164.3813 Y235.4877
G01 X164.4002 Y235.5729
G01 X164.4264 Y235.6561
G01 X164.4598 Y235.7367
G01 X164.5001 Y235.8141
G01 X164.5470 Y235.8876
G01 X164.6001 Y235.9568
G01 X164.6590 Y236.0212
G01 X164.7233 Y236.0801
G01 X164.7926 Y236.1332
G01 X164.8661 Y236.1801
G01 X164.9435 Y236.2204
G01 X165.0241 Y236.2537
G01 X165.1073 Y236.2800
G01 X165.1925 Y236.2989
G01 X165.2790 Y236.3103
G01 X165.3661 Y236.3141
G01 X165.4533 Y236.3103
G01 X165.5398 Y236.2989
G01 X165.6250 Y236.2800
G01 X165.7082 Y236.2537
G01 X165.7888 Y236.2204
G01 X165.8661 Y236.1801
G01 X165.9397 Y236.1332
G01 X166.0089 Y236.0801
G01 X166.0732 Y236.0212
G01 X166.1322 Y235.9568
G01 X166.1853 Y235.8876
G01 X166.2322 Y235.8141
G01 X166.2724 Y235.7367
G01 X166.3058 Y235.6561
G01 X166.3321 Y235.5729
G01 X166.3509 Y235.4877
G01 X166.3623 Y235.4012
G01 X166.3661 Y235.3141
M107
M106 S240
G01 X166.3623 Y235.2269 Z-3.5278 F400
G01 X166.3509 Y235.1404 Z-3.5556
G01 X166.3321 Y235.0552 Z-3.5833
G01 X166.3058 Y234.9720 Z-3.6111
G01 X166.2724 Y234.8914 Z-3.6389
G01 X166.2322 Y234.8141 Z-3.6667
G01 X166.1853 Y234.7405 Z-3.6944
G01 X166.1322 Y234.6713 Z-3.7222
G01 X166.0732 Y234.6070 Z-3.7500
G01 X166.0089 Y234.5480 Z-3.7778
G01 X165.9397 Y234.4949 Z-3.8056
G01 X165.8661 Y234.4480 Z-3.8333
G01 X165.7888 Y234.4077 Z-3.8611
G01 X165.7082 Y234.3744 Z-3.8889
G01 X165.6250 Y234.3481 Z-3.9167
G01 X165.5398 Y234.3292 Z-3.9444
G01 X165.4533 Y234.3179 Z-3.9722
G01 X165.3661 Y234.3141 Z-4.0000
G01 X165.2790 Y234.3179 Z-4.0278
G01 X165.1925 Y234.3292 Z-4.0556
G01 X165.1073 Y234.3481 Z-4.0833
G01 X165.0241 Y234.3744 Z-4.1111
G01 X164.9435 Y234.4077 Z-4.1389
G01 X164.8661 Y234.4480 Z-4.1667
G01 X164.7926 Y234.4949 Z-4.1944
G01 X164.7233 Y234.5480 Z-4.2222
G01 X164.6590 Y234.6070 Z-4.2500
G01 X164.6001 Y234.6713 Z-4.2778
G01 X164.5470 Y234.7405 Z-4.3056
G01 X164.5001 Y234.8141 Z-4.3333
G01 X164.4598 Y234.8914 Z-4.3611
G01 X164.4264 Y234.9720 Z-4.3889
G01 X164.4002 Y235.0552 Z-4.4167
G01 X164.3813 Y235.1404 Z-4.4444
G01 X164.3699 Y235.2269 Z-4.4722
G01 X164.3661 Y235.3141 Z-4.5000
G01 X164.3699 Y235.4012 Z-4.5278
G01 X164.3813 Y235.4877 Z-4.5556
G01 X164.4002 Y235.5729 Z-4.5833
G01 X164.4264 Y235.6561 Z-4.6111
G01 X164.4598 Y235.7367 Z-4.6389
G01 X164.5001 Y235.8141 Z-4.6667
G01 X164.5470 Y235.8876 Z-4.6944
G01 X164.6001 Y235.9568 Z-4.7222
G01 X164.6590 Y236.0212 Z-4.7500
G01 X164.7233 Y236.0801 Z-4.7778
G01 X164.7926 Y236.1332 Z-4.8056
G01 X164.8661 Y236.1801 Z-4.8333
G01 X164.9435 Y236.2204 Z-4.8611
G01 X165.0241 Y236.2537 Z-4.8889
G01 X165.1073 Y236.2800 Z-4.9167
G01 X165.1925 Y236.2989 Z-4.9444
G01 X165.2790 Y236.3103 Z-4.9722
G01 X165.3661 Y236.3141 Z-5.0000
G01 X165.4533 Y236.3103 Z-5.0278
G01 X165.5398 Y236.2989 Z-5.0556
G01 X165.6250 Y236.2800 Z-5.0833
G01 X165.7082 Y236.2537 Z-5.1111
G01 X165.7888 Y236.2204 Z-5.1389
G01 X165.8661 Y236.1801 Z-5.1667
G01 X165.9397 Y236.1332 Z-5.1944
G01 X166.0089 Y236.0801 Z-5.2222
G01 X166.0732 Y236.0212 Z-5.2500
G01 X166.1322 Y235.9568 Z-5.2778
G01 X166.1853 Y235.8876 Z-5.3056
G01 X166.2322 Y235.8141 Z-5.3333
G01 X166.2724 Y235.7367 Z-5.3611
G01 X166.3058 Y235.6561 Z-5.3889
G01 X166.3321 Y235.5729 Z-5.4167
G01 X166.3509 Y235.4877 Z-5.4444
G01 X166.3623 Y235.4012 Z-5.4722
G01 X166.3661 Y235.3141 Z-5.5000
G01 X166.3623 Y235.2269
G01 X166.3509 Y235.1404
G01 X166.3321 Y235.0552
G01 X166.3058 Y234.9720
G01 X166.2724 Y234.8914
G01 X166.2322 Y234.8141
G01 X166.1853 Y234.7405
G01 X166.1322 Y234.6713
G01 X166.0732 Y234.6070
G01 X166.0089 Y234.5480
G01 X165.9397 Y234.4949
G01 X165.8661 Y234.4480
G01 X165.7888 Y234.4077
G01 X165.7082 Y234.3744
G01 X165.6250 Y234.3481
G01 X165.5398 Y234.3292
G01 X165.4533 Y234.3179
G01 X165.3661 Y234.3141
G01 X165.2790 Y234.3179
G01 X165.1925 Y234.3292
G01 X165.1073 Y234.3481
G01 X165.0241 Y234.3744
G01 X164.9435 Y234.4077
G01 X164.8661 Y234.4480
G01 X164.7926 Y234.4949
G01 X164.7233 Y234.5480
G01 X164.6590 Y234.6070
G01 X164.6001 Y234.6713
G01 X164.5470 Y234.7405
G01 X164.5001 Y234.8141
G01 X164.4598 Y234.8914
G01 X164.4264 Y234.9720
G01 X164.4002 Y235.0552
G01 X164.3813 Y235.1404
G01 X164.3699 Y235.2269
G01 X164.3661 Y235.3141
G01 X164.3699 Y235.4012
G01 X164.3813 Y235.4877
G01 X164.4002 Y235.5729
G01 X164.4264 Y235.6561
G01 X164.4598 Y235.7367
G01 X164.5001 Y235.8141
G01 X164.5470 Y235.8876
G01 X164.6001 Y235.9568
G01 X164.6590 Y236.0212
G01 X164.7233 Y236.0801
G01 X164.7926 Y236.1332
G01 X164.8661 Y236.1801
G01 X164.9435 Y236.2204
G01 X165.0241 Y236.2537
G01 X165.1073 Y236.2800
G01 X165.1925 Y236.2989
G01 X165.2790 Y236.3103
G01 X165.3661 Y236.3141
G01 X165.4533 Y236.3103
G01 X165.5398 Y236.2989
G01 X165.6250 Y236.2800
G01 X165.7082 Y236.2537
G01 X165.7888 Y236.2204
G01 X165.8661 Y236.1801
G01 X165.9397 Y236.1332
G01 X166.0089 Y236.0801
G01 X166.0732 Y236.0212
G01 X166.1322 Y235.9568
G01 X166.1853 Y235.8876
G01 X166.2322 Y235.8141
G01 X166.2724 Y235.7367
G01 X166.3058 Y235.6561
G01 X166.3321 Y235.5729
G01 X166.3509 Y235.4877
G01 X166.3623 Y235.4012
G01 X166.3661 Y235.3141
G01 X166.3769 Y235.2625 F1000
G01 X166.3850 Y235.2104
G01 X166.3903 Y235.1580
G01 X166.3930 Y235.1053
G01 Y235.0526
G01 X166.3902 Y235.0000
G01 X166.3848 Y234.9476
G01 X166.3766 Y234.8955
G01 X166.3639 Y234.8402
G01 X166.3484 Y234.7855
G01 X166.3302 Y234.7318
G01 X166.3093 Y234.6790
G01 X166.2857 Y234.6274
G01 X166.2595 Y234.5770
G01 X166.2307 Y234.5281
G01 X166.1996 Y234.4806
G01 X166.1577 Y234.4407
G01 X166.1139 Y234.4029
G01 X166.0683 Y234.3673
G01 X166.0210 Y234.3340
G01 X165.9721 Y234.3031
G01 X165.9218 Y234.2746
G01 X165.8701 Y234.2485
G01 X165.8172 Y234.2251
G01 X165.7632 Y234.2043
G01 X165.7083 Y234.1861
G01 X165.6525 Y234.1707
G01 X165.5961 Y234.1580
G01 X165.5391 Y234.1481
G01 X165.4817 Y234.1411
G01 X165.4240 Y234.1368
G01 X165.3661 Y234.1354
G01 X165.3083 Y234.1368
G01 X165.2506 Y234.1411
G01 X165.1932 Y234.1481
G01 X165.1362 Y234.1580
G01 X165.0797 Y234.1707
G01 X165.0240 Y234.1861
G01 X164.9690 Y234.2043
G01 X164.9151 Y234.2251
G01 X164.8622 Y234.2485
G01 X164.8105 Y234.2746
G01 X164.7602 Y234.3031
G01 X164.7113 Y234.3340
G01 X164.6640 Y234.3673
G01 X164.6184 Y234.4029
G01 X164.5746 Y234.4407
G01 X164.5327 Y234.4806
G01 X164.4928 Y234.5225
G01 X164.4550 Y234.5663
G01 X164.4194 Y234.6119
G01 X164.3861 Y234.6592
G01 X164.3551 Y234.7081
G01 X164.3266 Y234.7584
G01 X164.3006 Y234.8101
G01 X164.2772 Y234.8630
G01 X164.2564 Y234.9170
G01 X164.2382 Y234.9719
G01 X164.2228 Y235.0277
G01 X164.2101 Y235.0841
G01 X164.2002 Y235.1411
G01 X164.1931 Y235.1985
G01 X164.1889 Y235.2562
G01 X164.1875 Y235.3141
G01 X164.1889 Y235.3719
G01 X164.1931 Y235.4296
G01 X164.2002 Y235.4870
G01 X164.2101 Y235.5440
G01 X164.2228 Y235.6005
G01 X164.2382 Y235.6562
G01 X164.2564 Y235.7111
G01 X164.2772 Y235.7651
G01 X164.3006 Y235.8180
G01 X164.3266 Y235.8697
G01 X164.3551 Y235.9200
G01 X164.3861 Y235.9689
G01 X164.4194 Y236.0162
G01 X164.4550 Y236.0618
G01 X164.4928 Y236.1056
G01 X164.5327 Y236.1475
G01 X164.5746 Y236.1874
G01 X164.6184 Y236.2252
G01 X164.6640 Y236.2608
G01 X164.7113 Y236.2941
G01 X164.7602 Y236.3250
G01 X164.8105 Y236.3536
G01 X164.8622 Y236.3796
G01 X164.9151 Y236.4030
G01 X164.9690 Y236.4238
G01 X165.0240 Y236.4420
G01 X165.0797 Y236.4574
G01 X165.1362 Y236.4701
G01 X165.1932 Y236.4800
G01 X165.2506 Y236.4871
G01 X165.3083 Y236.4913
G01 X165.3661 Y236.4927
G01 X165.4240 Y236.4913
G01 X165.4817 Y236.4871
G01 X165.5391 Y236.4800
G01 X165.5961 Y236.4701
G01 X165.6525 Y236.4574
G01 X165.7083 Y236.4420
G01 X165.7632 Y236.4238
G01 X165.8172 Y236.4030
G01 X165.8701 Y236.3796
G01 X165.9218 Y236.3536
G01 X165.9721 Y236.3250
G01 X166.0210 Y236.2941
G01 X166.0683 Y236.2608
G01 X166.1139 Y236.2252
G01 X166.1577 Y236.1874
G01 X166.1996 Y236.1475
G01 X166.2395 Y236.1056
G01 X166.2773 Y236.0618
G01 X166.3129 Y236.0162
G01 X166.3462 Y235.9689
G01 X166.3771 Y235.9200
G01 X166.4056 Y235.8697
G01 X166.4316 Y235.8180
G01 X166.4551 Y235.7651
G01 X166.4759 Y235.7111
G01 X166.4941 Y235.6562
G01 X166.5095 Y235.6005
G01 X166.5222 Y235.5440
G01 X166.5321 Y235.4870
G01 X166.5391 Y235.4296
G01 X166.5434 Y235.3719
G01 X166.5448 Y235.3141
G01 X166.5403 Y235.2113
G01 X166.5269 Y235.1094
G01 X166.5046 Y235.0090
G01 X166.4737 Y234.9109
G01 X166.4344 Y234.8159
G01 X166.3869 Y234.7247
G01 X166.3317 Y234.6380
G01 X166.2691 Y234.5564
G01 X166.1996 Y234.4806
G01 X166.1238 Y234.4111
G01 X166.0422 Y234.3485
G01 X165.9555 Y234.2933
G01 X165.8643 Y234.2458
G01 X165.7693 Y234.2065
G01 X165.6712 Y234.1755
G01 X165.5708 Y234.1533
G01 X165.4689 Y234.1399
G01 X165.3661 Y234.1354
G01 X165.2634 Y234.1399
G01 X165.1615 Y234.1533
G01 X165.0611 Y234.1755
G01 X164.9630 Y234.2065
G01 X164.8680 Y234.2458
G01 X164.7768 Y234.2933
G01 X164.6901 Y234.3485
G01 X164.6085 Y234.4111
G01 X164.5327 Y234.4806
G01 X164.4632 Y234.5564
G01 X164.4006 Y234.6380
G01 X164.3454 Y234.7247
G01 X164.2979 Y234.8159
G01 X164.2585 Y234.9109
G01 X164.2276 Y235.0090
G01 X164.2054 Y235.1094
G01 X164.1919 Y235.2113
G01 X164.1875 Y235.3141
G01 X164.1919 Y235.4168
G01 X164.2054 Y235.5187
G01 X164.2276 Y235.6191
G01 X164.2585 Y235.7172
G01 X164.2979 Y235.8122
G01 X164.3454 Y235.9034
G01 X164.4006 Y235.9901
G01 X164.4632 Y236.0717
G01 X164.5327 Y236.1475
G01 X164.6085 Y236.2170
G01 X164.6901 Y236.2796
G01 X164.7768 Y236.3348
G01 X164.8680 Y236.3823
G01 X164.9630 Y236.4217
G01 X165.0611 Y236.4526
G01 X165.1615 Y236.4748
G01 X165.2634 Y236.4883
G01 X165.3661 Y236.4927
G01 X165.4689 Y236.4883
G01 X165.5708 Y236.4748
G01 X165.6712 Y236.4526
G01 X165.7693 Y236.4217
G01 X165.8643 Y236.3823
G01 X165.9555 Y236.3348
G01 X166.0422 Y236.2796
G01 X166.1238 Y236.2170
G01 X166.1996 Y236.1475
G01 X166.2691 Y236.0717
G01 X166.3317 Y235.9901
G01 X166.3869 Y235.9034
G01 X166.4344 Y235.8122
G01 X166.4737 Y235.7172
G01 X166.5046 Y235.6191
G01 X166.5269 Y235.5187
G01 X166.5403 Y235.4168
G01 X166.5448 Y235.3141
M107
M106 S240
G01 X166.5417 Y235.2356 Z-5.4750 F400
M107
M106 S240
G01 X166.5325 Y235.1576 Z-5.4500
M107
M106 S240
G01 X166.5172 Y235.0806 Z-5.4250
M107
M106 S240
G01 X166.4959 Y235.0050 Z-5.4000
M107
M106 S240
G01 X166.4687 Y234.9314 Z-5.3750
M107
M106 S240
G01 X166.4358 Y234.8601 Z-5.3500
M107
M106 S240
G01 X166.3975 Y234.7916 Z-5.3250
M107
M106 S240
G01 X166.3538 Y234.7263 Z-5.3000
M107
M106 S240
G01 X166.3052 Y234.6646 Z-5.2750
M107
M106 S240
G01 X166.2519 Y234.6070 Z-5.2500
M107
M106 S240
G01 X166.1943 Y234.5537 Z-5.2250
M107
M106 S240
G01 X166.1326 Y234.5050 Z-5.2000
M107
M106 S240
G01 X166.0673 Y234.4614 Z-5.1750
M107
M106 S240
G01 X165.9988 Y234.4231 Z-5.1500
M107
M106 S240
G01 X165.9275 Y234.3902 Z-5.1250
M107
M106 S240
G01 X165.8538 Y234.3630 Z-5.1000
M107
M106 S240
G01 X165.7783 Y234.3417 Z-5.0750
M107
M106 S240
G01 X165.7012 Y234.3264 Z-5.0500
M107
M106 S240
G01 X165.6233 Y234.3171 Z-5.0250
M107
M106 S240
G01 X165.5448 Y234.3141 Z-5.0000
M107
G00 Z2.0000


;No. 3: Helical drill 4
G00 X31.0385 Y30.1959 Z2.0000
G00 Z0.5000
M106 S240
G01 X31.0347 Y30.1088 Z0.4722 F400
G01 X31.0233 Y30.0223 Z0.4444
G01 X31.0044 Y29.9371 Z0.4167
G01 X30.9782 Y29.8539 Z0.3889
G01 X30.9448 Y29.7733 Z0.3611
G01 X30.9045 Y29.6959 Z0.3333
G01 X30.8576 Y29.6224 Z0.3056
G01 X30.8045 Y29.5531 Z0.2778
G01 X30.7456 Y29.4888 Z0.2500
G01 X30.6813 Y29.4299 Z0.2222
G01 X30.6121 Y29.3768 Z0.1944
G01 X30.5385 Y29.3299 Z0.1667
G01 X30.4611 Y29.2896 Z0.1389
G01 X30.3805 Y29.2562 Z0.1111
G01 X30.2973 Y29.2300 Z0.0833
G01 X30.2121 Y29.2111 Z0.0556
G01 X30.1256 Y29.1997 Z0.0278
G01 X30.0385 Y29.1959 Z0.0000
G01 X29.9513 Y29.1997 Z-0.0278
G01 X29.8648 Y29.2111 Z-0.0556
G01 X29.7797 Y29.2300 Z-0.0833
G01 X29.6965 Y29.2562 Z-0.1111
G01 X29.6159 Y29.2896 Z-0.1389
G01 X29.5385 Y29.3299 Z-0.1667
G01 X29.4978 Y29.3547 Z-0.1818
G01 X29.4584 Y29.3814 Z-0.1970
G01 X29.4203 Y29.4099 Z-0.2121
G01 X29.3836 Y29.4402 Z-0.2273
G01 X29.3484 Y29.4722 Z-0.2424
G01 X29.3147 Y29.5059 Z-0.2576
G01 X29.2827 Y29.5411 Z-0.2727
G01 X29.2524 Y29.5778 Z-0.2879
G01 X29.2239 Y29.6159 Z-0.3030
G01 X29.1972 Y29.6553 Z-0.3182
G01 X29.1725 Y29.6959 Z-0.3333
G01 X29.1496 Y29.7377 Z-0.3485
G01 X29.1289 Y29.7805 Z-0.3636
G01 X29.1101 Y29.8243 Z-0.3788
G01 X29.0935 Y29.8689 Z-0.3939
G01 X29.0790 Y29.9142 Z-0.4091
G01 X29.0667 Y29.9602 Z-0.4242
G01 X29.0566 Y30.0067 Z-0.4394
G01 X29.0487 Y30.0536 Z-0.4545
G01 X29.0430 Y30.1009 Z-0.4697
G01 X29.0396 Y30.1484 Z-0.4848
G01 X29.0385 Y30.1959 Z-0.5000
G01 X29.0396 Y30.2435 Z-0.5152
G01 X29.0430 Y30.2910 Z-0.5303
G01 X29.0487 Y30.3382 Z-0.5455
G01 X29.0566 Y30.3852 Z-0.5606
G01 X29.0667 Y30.4317 Z-0.5758
G01 X29.0790 Y30.4777 Z-0.5909
G01 X29.0935 Y30.5230 Z-0.6061
G01 X29.1101 Y30.5676 Z-0.6212
G01 X29.1289 Y30.6113 Z-0.6364
G01 X29.1496 Y30.6542 Z-0.6515
G01 X29.1725 Y30.6959 Z-0.6667
G01 X29.1972 Y30.7366 Z-0.6818
G01 X29.2239 Y30.7760 Z-0.6970
G01 X29.2524 Y30.8141 Z-0.7121
G01 X29.2827 Y30.8508 Z-0.7273
G01 X29.3147 Y30.8860 Z-0.7424
G01 X29.3484 Y30.9197 Z-0.7576
G01 X29.3836 Y30.9517 Z-0.7727
G01 X29.4203 Y30.9820 Z-0.7879
G01 X29.4584 Y31.0105 Z-0.8030
G01 X29.4978 Y31.0372 Z-0.8182
G01 X29.5385 Y31.0620 Z-0.8333
G01 X29.5803 Y31.0848 Z-0.8485
G01 X29.6231 Y31.1056 Z-0.8636
G01 X29.6668 Y31.1243 Z-0.8788
G01 X29.7114 Y31.1409 Z-0.8939
G01 X29.7568 Y31.1554 Z-0.9091
G01 X29.8027 Y31.1677 Z-0.9242
G01 X29.8492 Y31.1779 Z-0.9394
G01 X29.8962 Y31.1858 Z-0.9545
G01 X29.9434 Y31.1914 Z-0.9697
G01 X29.9909 Y31.1948 Z-0.9848
G01 X30.0385 Y31.1959 Z-1.0000
G01 X30.0861 Y31.1948 Z-1.0152
G01 X30.1335 Y31.1914 Z-1.0303
G01 X30.1808 Y31.1858 Z-1.0455
G01 X30.2277 Y31.1779 Z-1.0606
G01 X30.2742 Y31.1677 Z-1.0758
G01 X30.3202 Y31.1554 Z-1.0909
G01 X30.3656 Y31.1409 Z-1.1061
G01 X30.4101 Y31.1243 Z-1.1212
G01 X30.4539 Y31.1056 Z-1.1364
G01 X30.4967 Y31.0848 Z-1.1515
G01 X30.5385 Y31.0620 Z-1.1667
G01 X30.5791 Y31.0372 Z-1.1818
G01 X30.6185 Y31.0105 Z-1.1970
G01 X30.6566 Y30.9820 Z-1.2121
G01 X30.6933 Y30.9517 Z-1.2273
G01 X30.7286 Y30.9197 Z-1.2424
G01 X30.7622 Y30.8860 Z-1.2576
G01 X30.7942 Y30.8508 Z-1.2727
G01 X30.8245 Y30.8141 Z-1.2879
G01 X30.8531 Y30.7760 Z-1.3030
G01 X30.8797 Y30.7366 Z-1.3182
G01 X30.9045 Y30.6959 Z-1.3333
G01 X30.9273 Y30.6542 Z-1.3485
G01 X30.9481 Y30.6113 Z-1.3636
G01 X30.9669 Y30.5676 Z-1.3788
G01 X30.9835 Y30.5230 Z-1.3939
G01 X30.9980 Y30.4777 Z-1.4091
G01 X31.0103 Y30.4317 Z-1.4242
G01 X31.0204 Y30.3852 Z-1.4394
G01 X31.0283 Y30.3382 Z-1.4545
G01 X31.0340 Y30.2910 Z-1.4697
G01 X31.0374 Y30.2435 Z-1.4848
G01 X31.0385 Y30.1959 Z-1.5000
G01 X31.0347 Y30.1088
G01 X31.0233 Y30.0223
G01 X31.0044 Y29.9371
G01 X30.9782 Y29.8539
G01 X30.9448 Y29.7733
G01 X30.9045 Y29.6959
G01 X30.8576 Y29.6224
G01 X30.8045 Y29.5531
G01 X30.7456 Y29.4888
G01 X30.6813 Y29.4299
G01 X30.6121 Y29.3768
G01 X30.5385 Y29.3299
G01 X30.4611 Y29.2896
G01 X30.3805 Y29.2562
G01 X30.2973 Y29.2300
G01 X30.2121 Y29.2111
G01 X30.1256 Y29.1997
G01 X30.0385 Y29.1959
G01 X29.9513 Y29.1997
G01 X29.8648 Y29.2111
G01 X29.7797 Y29.2300
G01 X29.6965 Y29.2562
G01 X29.6159 Y29.2896
G01 X29.5385 Y29.3299
G01 X29.4978 Y29.3547
G01 X29.4584 Y29.3814
G01 X29.4203 Y29.4099
G01 X29.3836 Y29.4402
G01 X29.3484 Y29.4722
G01 X29.3147 Y29.5059
G01 X29.2827 Y29.5411
G01 X29.2524 Y29.5778
G01 X29.2239 Y29.6159
G01 X29.1972 Y29.6553
G01 X29.1725 Y29.6959
G01 X29.1496 Y29.7377
G01 X29.1289 Y29.7805
G01 X29.1101 Y29.8243
G01 X29.0935 Y29.8689
G01 X29.0790 Y29.9142
G01 X29.0667 Y29.9602
G01 X29.0566 Y30.0067
G01 X29.0487 Y30.0536
G01 X29.0430 Y30.1009
G01 X29.0396 Y30.1484
G01 X29.0385 Y30.1959
G01 X29.0396 Y30.2435
G01 X29.0430 Y30.2910
G01 X29.0487 Y30.3382
G01 X29.0566 Y30.3852
G01 X29.0667 Y30.4317
G01 X29.0790 Y30.4777
G01 X29.0935 Y30.5230
G01 X29.1101 Y30.5676
G01 X29.1289 Y30.6113
G01 X29.1496 Y30.6542
G01 X29.1725 Y30.6959
G01 X29.1972 Y30.7366
G01 X29.2239 Y30.7760
G01 X29.2524 Y30.8141
G01 X29.2827 Y30.8508
G01 X29.3147 Y30.8860
G01 X29.3484 Y30.9197
G01 X29.3836 Y30.9517
G01 X29.4203 Y30.9820
G01 X29.4584 Y31.0105
G01 X29.4978 Y31.0372
G01 X29.5385 Y31.0620
G01 X29.5803 Y31.0848
G01 X29.6231 Y31.1056
G01 X29.6668 Y31.1243
G01 X29.7114 Y31.1409
G01 X29.7568 Y31.1554
G01 X29.8027 Y31.1677
G01 X29.8492 Y31.1779
G01 X29.8962 Y31.1858
G01 X29.9434 Y31.1914
G01 X29.9909 Y31.1948
G01 X30.0385 Y31.1959
G01 X30.0861 Y31.1948
G01 X30.1335 Y31.1914
G01 X30.1808 Y31.1858
G01 X30.2277 Y31.1779
G01 X30.2742 Y31.1677
G01 X30.3202 Y31.1554
G01 X30.3656 Y31.1409
G01 X30.4101 Y31.1243
G01 X30.4539 Y31.1056
G01 X30.4967 Y31.0848
G01 X30.5385 Y31.0620
G01 X30.5791 Y31.0372
G01 X30.6185 Y31.0105
G01 X30.6566 Y30.9820
G01 X30.6933 Y30.9517
G01 X30.7286 Y30.9197
G01 X30.7622 Y30.8860
G01 X30.7942 Y30.8508
G01 X30.8245 Y30.8141
G01 X30.8531 Y30.7760
G01 X30.8797 Y30.7366
G01 X30.9045 Y30.6959
G01 X30.9273 Y30.6542
G01 X30.9481 Y30.6113
G01 X30.9669 Y30.5676
G01 X30.9835 Y30.5230
G01 X30.9980 Y30.4777
G01 X31.0103 Y30.4317
G01 X31.0204 Y30.3852
G01 X31.0283 Y30.3382
G01 X31.0340 Y30.2910
G01 X31.0374 Y30.2435
G01 X31.0385 Y30.1959
G01 X31.0492 Y30.1443 F1000
G01 X31.0573 Y30.0923
G01 X31.0627 Y30.0398
G01 X31.0654 Y29.9872
G01 X31.0653 Y29.9345
G01 X31.0626 Y29.8819
G01 X31.0571 Y29.8294
G01 X31.0490 Y29.7774
G01 X31.0363 Y29.7220
G01 X31.0208 Y29.6674
G01 X31.0026 Y29.6137
G01 X30.9816 Y29.5609
G01 X30.9580 Y29.5093
G01 X30.9318 Y29.4589
G01 X30.9031 Y29.4099
G01 X30.8720 Y29.3625
G01 X30.8301 Y29.3226
G01 X30.7862 Y29.2848
G01 X30.7406 Y29.2492
G01 X30.6933 Y29.2159
G01 X30.6445 Y29.1849
G01 X30.5941 Y29.1564
G01 X30.5424 Y29.1304
G01 X30.4896 Y29.1069
G01 X30.4356 Y29.0861
G01 X30.3806 Y29.0680
G01 X30.3249 Y29.0525
G01 X30.2684 Y29.0399
G01 X30.2114 Y29.0300
G01 X30.1540 Y29.0229
G01 X30.0963 Y29.0186
G01 X30.0385 Y29.0172
G01 X29.9806 Y29.0186
G01 X29.9230 Y29.0229
G01 X29.8655 Y29.0300
G01 X29.8085 Y29.0399
G01 X29.7521 Y29.0525
G01 X29.6963 Y29.0680
G01 X29.6414 Y29.0861
G01 X29.5874 Y29.1069
G01 X29.5345 Y29.1304
G01 X29.4828 Y29.1564
G01 X29.4325 Y29.1849
G01 X29.3836 Y29.2159
G01 X29.3363 Y29.2492
G01 X29.2907 Y29.2848
G01 X29.2469 Y29.3226
G01 X29.2050 Y29.3625
G01 X29.1651 Y29.4044
G01 X29.1273 Y29.4482
G01 X29.0917 Y29.4938
G01 X29.0584 Y29.5411
G01 X29.0275 Y29.5900
G01 X28.9990 Y29.6403
G01 X28.9729 Y29.6920
G01 X28.9495 Y29.7449
G01 X28.9287 Y29.7988
G01 X28.9105 Y29.8538
G01 X28.8951 Y29.9095
G01 X28.8824 Y29.9660
G01 X28.8725 Y30.0230
G01 X28.8655 Y30.0804
G01 X28.8612 Y30.1381
G01 X28.8598 Y30.1959
G01 X28.8612 Y30.2538
G01 X28.8655 Y30.3115
G01 X28.8725 Y30.3689
G01 X28.8824 Y30.4259
G01 X28.8951 Y30.4823
G01 X28.9105 Y30.5381
G01 X28.9287 Y30.5930
G01 X28.9495 Y30.6470
G01 X28.9729 Y30.6999
G01 X28.9990 Y30.7516
G01 X29.0275 Y30.8019
G01 X29.0584 Y30.8508
G01 X29.0917 Y30.8981
G01 X29.1273 Y30.9437
G01 X29.1651 Y30.9875
G01 X29.2050 Y31.0294
G01 X29.2469 Y31.0693
G01 X29.2907 Y31.1071
G01 X29.3363 Y31.1427
G01 X29.3836 Y31.1760
G01 X29.4325 Y31.2069
G01 X29.4828 Y31.2355
G01 X29.5345 Y31.2615
G01 X29.5874 Y31.2849
G01 X29.6414 Y31.3057
G01 X29.6963 Y31.3239
G01 X29.7521 Y31.3393
G01 X29.8085 Y31.3520
G01 X29.8655 Y31.3619
G01 X29.9230 Y31.3690
G01 X29.9806 Y31.3732
G01 X30.0385 Y31.3746
G01 X30.0963 Y31.3732
G01 X30.1540 Y31.3690
G01 X30.2114 Y31.3619
G01 X30.2684 Y31.3520
G01 X30.3249 Y31.3393
G01 X30.3806 Y31.3239
G01 X30.4356 Y31.3057
G01 X30.4896 Y31.2849
G01 X30.5424 Y31.2615
G01 X30.5941 Y31.2355
G01 X30.6445 Y31.2069
G01 X30.6933 Y31.1760
G01 X30.7406 Y31.1427
G01 X30.7862 Y31.1071
G01 X30.8301 Y31.0693
G01 X30.8720 Y31.0294
G01 X30.9118 Y30.9875
G01 X30.9496 Y30.9437
G01 X30.9852 Y30.8981
G01 X31.0185 Y30.8508
G01 X31.0495 Y30.8019
G01 X31.0780 Y30.7516
G01 X31.1040 Y30.6999
G01 X31.1275 Y30.6470
G01 X31.1483 Y30.5930
G01 X31.1664 Y30.5381
G01 X31.1819 Y30.4823
G01 X31.1945 Y30.4259
G01 X31.2044 Y30.3689
G01 X31.2115 Y30.3115
G01 X31.2158 Y30.2538
G01 X31.2172 Y30.1959
G01 X31.2127 Y30.0932
G01 X31.1993 Y29.9913
G01 X31.1770 Y29.8909
G01 X31.1461 Y29.7928
G01 X31.1068 Y29.6978
G01 X31.0593 Y29.6066
G01 X31.0040 Y29.5199
G01 X30.9414 Y29.4383
G01 X30.8720 Y29.3625
G01 X30.7961 Y29.2930
G01 X30.7146 Y29.2304
G01 X30.6278 Y29.1751
G01 X30.5366 Y29.1277
G01 X30.4416 Y29.0883
G01 X30.3436 Y29.0574
G01 X30.2432 Y29.0351
G01 X30.1412 Y29.0217
G01 X30.0385 Y29.0172
G01 X29.9358 Y29.0217
G01 X29.8338 Y29.0351
G01 X29.7334 Y29.0574
G01 X29.6353 Y29.0883
G01 X29.5403 Y29.1277
G01 X29.4491 Y29.1751
G01 X29.3624 Y29.2304
G01 X29.2808 Y29.2930
G01 X29.2050 Y29.3625
G01 X29.1355 Y29.4383
G01 X29.0729 Y29.5199
G01 X29.0177 Y29.6066
G01 X28.9702 Y29.6978
G01 X28.9309 Y29.7928
G01 X28.8999 Y29.8909
G01 X28.8777 Y29.9913
G01 X28.8643 Y30.0932
G01 X28.8598 Y30.1959
G01 X28.8643 Y30.2987
G01 X28.8777 Y30.4006
G01 X28.8999 Y30.5010
G01 X28.9309 Y30.5991
G01 X28.9702 Y30.6941
G01 X29.0177 Y30.7853
G01 X29.0729 Y30.8720
G01 X29.1355 Y30.9536
G01 X29.2050 Y31.0294
G01 X29.2808 Y31.0989
G01 X29.3624 Y31.1615
G01 X29.4491 Y31.2167
G01 X29.5403 Y31.2642
G01 X29.6353 Y31.3036
G01 X29.7334 Y31.3345
G01 X29.8338 Y31.3567
G01 X29.9358 Y31.3702
G01 X30.0385 Y31.3746
G01 X30.1412 Y31.3702
G01 X30.2432 Y31.3567
G01 X30.3436 Y31.3345
G01 X30.4416 Y31.3036
G01 X30.5366 Y31.2642
G01 X30.6278 Y31.2167
G01 X30.7146 Y31.1615
G01 X30.7961 Y31.0989
G01 X30.8720 Y31.0294
G01 X30.9414 Y30.9536
G01 X31.0040 Y30.8720
G01 X31.0593 Y30.7853
G01 X31.1068 Y30.6941
G01 X31.1461 Y30.5991
G01 X31.1770 Y30.5010
G01 X31.1993 Y30.4006
G01 X31.2127 Y30.2987
G01 X31.2172 Y30.1959
G01 X31.2130 Y30.1010
G01 X31.2006 Y30.0068
G01 X31.1801 Y29.9140
G01 X31.1515 Y29.8234
G01 X31.1151 Y29.7356
G01 X31.0712 Y29.6513
G01 X31.0202 Y29.5711
G01 X30.9623 Y29.4957
G01 X30.8981 Y29.4256
G01 X30.8281 Y29.3614
G01 X30.7527 Y29.3036
G01 X30.6725 Y29.2525
G01 X30.5882 Y29.2086
G01 X30.5004 Y29.1723
G01 X30.4098 Y29.1437
G01 X30.3170 Y29.1231
G01 X30.2228 Y29.1107
G01 X30.1278 Y29.1066
G01 X30.0329 Y29.1107
G01 X29.9387 Y29.1231
G01 X29.8459 Y29.1437
G01 X29.7553 Y29.1723
G01 X29.6675 Y29.2086
G01 X29.5832 Y29.2525
G01 X29.5030 Y29.3036
G01 X29.4276 Y29.3614
G01 X29.3575 Y29.4256
G01 X29.2933 Y29.4957
G01 X29.2355 Y29.5711
G01 X29.1844 Y29.6513
G01 X29.1405 Y29.7356
G01 X29.1042 Y29.8234
G01 X29.0756 Y29.9140
G01 X29.0550 Y30.0068
G01 X29.0426 Y30.1010
G01 X29.0385 Y30.1959
G01 X29.0396 Y30.2421
G01 X29.0427 Y30.2882
G01 X29.0481 Y30.3341
G01 X29.0555 Y30.3797
G01 X29.0650 Y30.4249
G01 X29.0767 Y30.4696
G01 X29.0903 Y30.5137
G01 X29.1060 Y30.5572
G01 X29.1237 Y30.5999
G01 X29.1433 Y30.6417
G01 X29.1649 Y30.6825
G01 X29.1883 Y30.7224
G01 X29.2135 Y30.7611
G01 X29.2405 Y30.7986
G01 X29.2691 Y30.8348
G01 X29.2995 Y30.8696
G01 X29.3314 Y30.9030
G01 X29.3648 Y30.9349
G01 X29.3996 Y30.9653
G01 X29.4358 Y30.9939
G01 X29.4733 Y31.0209
G01 X29.5121 Y31.0461
G01 X29.5519 Y31.0696
G01 X29.5927 Y31.0911
G01 X29.6346 Y31.1107
G01 X29.6772 Y31.1284
G01 X29.7207 Y31.1441
G01 X29.7648 Y31.1578
G01 X29.8095 Y31.1694
G01 X29.8547 Y31.1789
G01 X29.9003 Y31.1863
G01 X29.9462 Y31.1917
G01 X29.9923 Y31.1949
G01 X30.0385 Y31.1959
G01 X30.0847 Y31.1949
G01 X30.1308 Y31.1917
G01 X30.1766 Y31.1863
G01 X30.2222 Y31.1789
G01 X30.2674 Y31.1694
G01 X30.3121 Y31.1578
G01 X30.3563 Y31.1441
G01 X30.3997 Y31.1284
G01 X30.4424 Y31.1107
G01 X30.4842 Y31.0911
G01 X30.5251 Y31.0696
G01 X30.5649 Y31.0461
G01 X30.6036 Y31.0209
G01 X30.6411 Y30.9939
G01 X30.6773 Y30.9653
G01 X30.7122 Y30.9349
G01 X30.7456 Y30.9030
G01 X30.7775 Y30.8696
G01 X30.8078 Y30.8348
G01 X30.8365 Y30.7986
G01 X30.8635 Y30.7611
G01 X30.8887 Y30.7224
G01 X30.9121 Y30.6825
G01 X30.9336 Y30.6417
G01 X30.9533 Y30.5999
G01 X30.9710 Y30.5572
G01 X30.9866 Y30.5137
G01 X31.0003 Y30.4696
G01 X31.0119 Y30.4249
G01 X31.0215 Y30.3797
G01 X31.0289 Y30.3341
G01 X31.0342 Y30.2882
G01 X31.0374 Y30.2421
G01 X31.0385 Y30.1959
M107
M106 S240
G01 X31.0347 Y30.1088 Z-1.5278 F400
G01 X31.0233 Y30.0223 Z-1.5556
G01 X31.0044 Y29.9371 Z-1.5833
G01 X30.9782 Y29.8539 Z-1.6111
G01 X30.9448 Y29.7733 Z-1.6389
G01 X30.9045 Y29.6959 Z-1.6667
G01 X30.8576 Y29.6224 Z-1.6944
G01 X30.8045 Y29.5531 Z-1.7222
G01 X30.7456 Y29.4888 Z-1.7500
G01 X30.6813 Y29.4299 Z-1.7778
G01 X30.6121 Y29.3768 Z-1.8056
G01 X30.5385 Y29.3299 Z-1.8333
G01 X30.4611 Y29.2896 Z-1.8611
G01 X30.3805 Y29.2562 Z-1.8889
G01 X30.2973 Y29.2300 Z-1.9167
G01 X30.2121 Y29.2111 Z-1.9444
G01 X30.1256 Y29.1997 Z-1.9722
G01 X30.0385 Y29.1959 Z-2.0000
G01 X29.9513 Y29.1997 Z-2.0278
G01 X29.8648 Y29.2111 Z-2.0556
G01 X29.7797 Y29.2300 Z-2.0833
G01 X29.6965 Y29.2562 Z-2.1111
G01 X29.6159 Y29.2896 Z-2.1389
G01 X29.5385 Y29.3299 Z-2.1667
G01 X29.4978 Y29.3547 Z-2.1818
G01 X29.4584 Y29.3814 Z-2.1970
G01 X29.4203 Y29.4099 Z-2.2121
G01 X29.3836 Y29.4402 Z-2.2273
G01 X29.3484 Y29.4722 Z-2.2424
G01 X29.3147 Y29.5059 Z-2.2576
G01 X29.2827 Y29.5411 Z-2.2727
G01 X29.2524 Y29.5778 Z-2.2879
G01 X29.2239 Y29.6159 Z-2.3030
G01 X29.1972 Y29.6553 Z-2.3182
G01 X29.1725 Y29.6959 Z-2.3333
G01 X29.1496 Y29.7377 Z-2.3485
G01 X29.1289 Y29.7805 Z-2.3636
G01 X29.1101 Y29.8243 Z-2.3788
G01 X29.0935 Y29.8689 Z-2.3939
G01 X29.0790 Y29.9142 Z-2.4091
G01 X29.0667 Y29.9602 Z-2.4242
G01 X29.0566 Y30.0067 Z-2.4394
G01 X29.0487 Y30.0536 Z-2.4545
G01 X29.0430 Y30.1009 Z-2.4697
G01 X29.0396 Y30.1484 Z-2.4848
G01 X29.0385 Y30.1959 Z-2.5000
G01 X29.0396 Y30.2435 Z-2.5152
G01 X29.0430 Y30.2910 Z-2.5303
G01 X29.0487 Y30.3382 Z-2.5455
G01 X29.0566 Y30.3852 Z-2.5606
G01 X29.0667 Y30.4317 Z-2.5758
G01 X29.0790 Y30.4777 Z-2.5909
G01 X29.0935 Y30.5230 Z-2.6061
G01 X29.1101 Y30.5676 Z-2.6212
G01 X29.1289 Y30.6113 Z-2.6364
G01 X29.1496 Y30.6542 Z-2.6515
G01 X29.1725 Y30.6959 Z-2.6667
G01 X29.1972 Y30.7366 Z-2.6818
G01 X29.2239 Y30.7760 Z-2.6970
G01 X29.2524 Y30.8141 Z-2.7121
G01 X29.2827 Y30.8508 Z-2.7273
G01 X29.3147 Y30.8860 Z-2.7424
G01 X29.3484 Y30.9197 Z-2.7576
G01 X29.3836 Y30.9517 Z-2.7727
G01 X29.4203 Y30.9820 Z-2.7879
G01 X29.4584 Y31.0105 Z-2.8030
G01 X29.4978 Y31.0372 Z-2.8182
G01 X29.5385 Y31.0620 Z-2.8333
G01 X29.5803 Y31.0848 Z-2.8485
G01 X29.6231 Y31.1056 Z-2.8636
G01 X29.6668 Y31.1243 Z-2.8788
G01 X29.7114 Y31.1409 Z-2.8939
G01 X29.7568 Y31.1554 Z-2.9091
G01 X29.8027 Y31.1677 Z-2.9242
G01 X29.8492 Y31.1779 Z-2.9394
G01 X29.8962 Y31.1858 Z-2.9545
G01 X29.9434 Y31.1914 Z-2.9697
G01 X29.9909 Y31.1948 Z-2.9848
G01 X30.0385 Y31.1959 Z-3.0000
G01 X30.0861 Y31.1948 Z-3.0152
G01 X30.1335 Y31.1914 Z-3.0303
G01 X30.1808 Y31.1858 Z-3.0455
G01 X30.2277 Y31.1779 Z-3.0606
G01 X30.2742 Y31.1677 Z-3.0758
G01 X30.3202 Y31.1554 Z-3.0909
G01 X30.3656 Y31.1409 Z-3.1061
G01 X30.4101 Y31.1243 Z-3.1212
G01 X30.4539 Y31.1056 Z-3.1364
G01 X30.4967 Y31.0848 Z-3.1515
G01 X30.5385 Y31.0620 Z-3.1667
G01 X30.5791 Y31.0372 Z-3.1818
G01 X30.6185 Y31.0105 Z-3.1970
G01 X30.6566 Y30.9820 Z-3.2121
G01 X30.6933 Y30.9517 Z-3.2273
G01 X30.7286 Y30.9197 Z-3.2424
G01 X30.7622 Y30.8860 Z-3.2576
G01 X30.7942 Y30.8508 Z-3.2727
G01 X30.8245 Y30.8141 Z-3.2879
G01 X30.8531 Y30.7760 Z-3.3030
G01 X30.8797 Y30.7366 Z-3.3182
G01 X30.9045 Y30.6959 Z-3.3333
G01 X30.9273 Y30.6542 Z-3.3485
G01 X30.9481 Y30.6113 Z-3.3636
G01 X30.9669 Y30.5676 Z-3.3788
G01 X30.9835 Y30.5230 Z-3.3939
G01 X30.9980 Y30.4777 Z-3.4091
G01 X31.0103 Y30.4317 Z-3.4242
G01 X31.0204 Y30.3852 Z-3.4394
G01 X31.0283 Y30.3382 Z-3.4545
G01 X31.0340 Y30.2910 Z-3.4697
G01 X31.0374 Y30.2435 Z-3.4848
G01 X31.0385 Y30.1959 Z-3.5000
G01 X31.0347 Y30.1088
G01 X31.0233 Y30.0223
G01 X31.0044 Y29.9371
G01 X30.9782 Y29.8539
G01 X30.9448 Y29.7733
G01 X30.9045 Y29.6959
G01 X30.8576 Y29.6224
G01 X30.8045 Y29.5531
G01 X30.7456 Y29.4888
G01 X30.6813 Y29.4299
G01 X30.6121 Y29.3768
G01 X30.5385 Y29.3299
G01 X30.4611 Y29.2896
G01 X30.3805 Y29.2562
G01 X30.2973 Y29.2300
G01 X30.2121 Y29.2111
G01 X30.1256 Y29.1997
G01 X30.0385 Y29.1959
G01 X29.9513 Y29.1997
G01 X29.8648 Y29.2111
G01 X29.7797 Y29.2300
G01 X29.6965 Y29.2562
G01 X29.6159 Y29.2896
G01 X29.5385 Y29.3299
G01 X29.4978 Y29.3547
G01 X29.4584 Y29.3814
G01 X29.4203 Y29.4099
G01 X29.3836 Y29.4402
G01 X29.3484 Y29.4722
G01 X29.3147 Y29.5059
G01 X29.2827 Y29.5411
G01 X29.2524 Y29.5778
G01 X29.2239 Y29.6159
G01 X29.1972 Y29.6553
G01 X29.1725 Y29.6959
G01 X29.1496 Y29.7377
G01 X29.1289 Y29.7805
G01 X29.1101 Y29.8243
G01 X29.0935 Y29.8689
G01 X29.0790 Y29.9142
G01 X29.0667 Y29.9602
G01 X29.0566 Y30.0067
G01 X29.0487 Y30.0536
G01 X29.0430 Y30.1009
G01 X29.0396 Y30.1484
G01 X29.0385 Y30.1959
G01 X29.0396 Y30.2435
G01 X29.0430 Y30.2910
G01 X29.0487 Y30.3382
G01 X29.0566 Y30.3852
G01 X29.0667 Y30.4317
G01 X29.0790 Y30.4777
G01 X29.0935 Y30.5230
G01 X29.1101 Y30.5676
G01 X29.1289 Y30.6113
G01 X29.1496 Y30.6542
G01 X29.1725 Y30.6959
G01 X29.1972 Y30.7366
G01 X29.2239 Y30.7760
G01 X29.2524 Y30.8141
G01 X29.2827 Y30.8508
G01 X29.3147 Y30.8860
G01 X29.3484 Y30.9197
G01 X29.3836 Y30.9517
G01 X29.4203 Y30.9820
G01 X29.4584 Y31.0105
G01 X29.4978 Y31.0372
G01 X29.5385 Y31.0620
G01 X29.5803 Y31.0848
G01 X29.6231 Y31.1056
G01 X29.6668 Y31.1243
G01 X29.7114 Y31.1409
G01 X29.7568 Y31.1554
G01 X29.8027 Y31.1677
G01 X29.8492 Y31.1779
G01 X29.8962 Y31.1858
G01 X29.9434 Y31.1914
G01 X29.9909 Y31.1948
G01 X30.0385 Y31.1959
G01 X30.0861 Y31.1948
G01 X30.1335 Y31.1914
G01 X30.1808 Y31.1858
G01 X30.2277 Y31.1779
G01 X30.2742 Y31.1677
G01 X30.3202 Y31.1554
G01 X30.3656 Y31.1409
G01 X30.4101 Y31.1243
G01 X30.4539 Y31.1056
G01 X30.4967 Y31.0848
G01 X30.5385 Y31.0620
G01 X30.5791 Y31.0372
G01 X30.6185 Y31.0105
G01 X30.6566 Y30.9820
G01 X30.6933 Y30.9517
G01 X30.7286 Y30.9197
G01 X30.7622 Y30.8860
G01 X30.7942 Y30.8508
G01 X30.8245 Y30.8141
G01 X30.8531 Y30.7760
G01 X30.8797 Y30.7366
G01 X30.9045 Y30.6959
G01 X30.9273 Y30.6542
G01 X30.9481 Y30.6113
G01 X30.9669 Y30.5676
G01 X30.9835 Y30.5230
G01 X30.9980 Y30.4777
G01 X31.0103 Y30.4317
G01 X31.0204 Y30.3852
G01 X31.0283 Y30.3382
G01 X31.0340 Y30.2910
G01 X31.0374 Y30.2435
G01 X31.0385 Y30.1959
G01 X31.0492 Y30.1443 F1000
G01 X31.0573 Y30.0923
G01 X31.0627 Y30.0398
G01 X31.0654 Y29.9872
G01 X31.0653 Y29.9345
G01 X31.0626 Y29.8819
G01 X31.0571 Y29.8294
G01 X31.0490 Y29.7774
G01 X31.0363 Y29.7220
G01 X31.0208 Y29.6674
G01 X31.0026 Y29.6137
G01 X30.9816 Y29.5609
G01 X30.9580 Y29.5093
G01 X30.9318 Y29.4589
G01 X30.9031 Y29.4099
G01 X30.8720 Y29.3625
G01 X30.8301 Y29.3226
G01 X30.7862 Y29.2848
G01 X30.7406 Y29.2492
G01 X30.6933 Y29.2159
G01 X30.6445 Y29.1849
G01 X30.5941 Y29.1564
G01 X30.5424 Y29.1304
G01 X30.4896 Y29.1069
G01 X30.4356 Y29.0861
G01 X30.3806 Y29.0680
G01 X30.3249 Y29.0525
G01 X30.2684 Y29.0399
G01 X30.2114 Y29.0300
G01 X30.1540 Y29.0229
G01 X30.0963 Y29.0186
G01 X30.0385 Y29.0172
G01 X29.9806 Y29.0186
G01 X29.9230 Y29.0229
G01 X29.8655 Y29.0300
G01 X29.8085 Y29.0399
G01 X29.7521 Y29.0525
G01 X29.6963 Y29.0680
G01 X29.6414 Y29.0861
G01 X29.5874 Y29.1069
G01 X29.5345 Y29.1304
G01 X29.4828 Y29.1564
G01 X29.4325 Y29.1849
G01 X29.3836 Y29.2159
G01 X29.3363 Y29.2492
G01 X29.2907 Y29.2848
G01 X29.2469 Y29.3226
G01 X29.2050 Y29.3625
G01 X29.1651 Y29.4044
G01 X29.1273 Y29.4482
G01 X29.0917 Y29.4938
G01 X29.0584 Y29.5411
G01 X29.0275 Y29.5900
G01 X28.9990 Y29.6403
G01 X28.9729 Y29.6920
G01 X28.9495 Y29.7449
G01 X28.9287 Y29.7988
G01 X28.9105 Y29.8538
G01 X28.8951 Y29.9095
G01 X28.8824 Y29.9660
G01 X28.8725 Y30.0230
G01 X28.8655 Y30.0804
G01 X28.8612 Y30.1381
G01 X28.8598 Y30.1959
G01 X28.8612 Y30.2538
G01 X28.8655 Y30.3115
G01 X28.8725 Y30.3689
G01 X28.8824 Y30.4259
G01 X28.8951 Y30.4823
G01 X28.9105 Y30.5381
G01 X28.9287 Y30.5930
G01 X28.9495 Y30.6470
G01 X28.9729 Y30.6999
G01 X28.9990 Y30.7516
G01 X29.0275 Y30.8019
G01 X29.0584 Y30.8508
G01 X29.0917 Y30.8981
G01 X29.1273 Y30.9437
G01 X29.1651 Y30.9875
G01 X29.2050 Y31.0294
G01 X29.2469 Y31.0693
G01 X29.2907 Y31.1071
G01 X29.3363 Y31.1427
G01 X29.3836 Y31.1760
G01 X29.4325 Y31.2069
G01 X29.4828 Y31.2355
G01 X29.5345 Y31.2615
G01 X29.5874 Y31.2849
G01 X29.6414 Y31.3057
G01 X29.6963 Y31.3239
G01 X29.7521 Y31.3393
G01 X29.8085 Y31.3520
G01 X29.8655 Y31.3619
G01 X29.9230 Y31.3690
G01 X29.9806 Y31.3732
G01 X30.0385 Y31.3746
G01 X30.0963 Y31.3732
G01 X30.1540 Y31.3690
G01 X30.2114 Y31.3619
G01 X30.2684 Y31.3520
G01 X30.3249 Y31.3393
G01 X30.3806 Y31.3239
G01 X30.4356 Y31.3057
G01 X30.4896 Y31.2849
G01 X30.5424 Y31.2615
G01 X30.5941 Y31.2355
G01 X30.6445 Y31.2069
G01 X30.6933 Y31.1760
G01 X30.7406 Y31.1427
G01 X30.7862 Y31.1071
G01 X30.8301 Y31.0693
G01 X30.8720 Y31.0294
G01 X30.9118 Y30.9875
G01 X30.9496 Y30.9437
G01 X30.9852 Y30.8981
G01 X31.0185 Y30.8508
G01 X31.0495 Y30.8019
G01 X31.0780 Y30.7516
G01 X31.1040 Y30.6999
G01 X31.1275 Y30.6470
G01 X31.1483 Y30.5930
G01 X31.1664 Y30.5381
G01 X31.1819 Y30.4823
G01 X31.1945 Y30.4259
G01 X31.2044 Y30.3689
G01 X31.2115 Y30.3115
G01 X31.2158 Y30.2538
G01 X31.2172 Y30.1959
G01 X31.2127 Y30.0932
G01 X31.1993 Y29.9913
G01 X31.1770 Y29.8909
G01 X31.1461 Y29.7928
G01 X31.1068 Y29.6978
G01 X31.0593 Y29.6066
G01 X31.0040 Y29.5199
G01 X30.9414 Y29.4383
G01 X30.8720 Y29.3625
G01 X30.7961 Y29.2930
G01 X30.7146 Y29.2304
G01 X30.6278 Y29.1751
G01 X30.5366 Y29.1277
G01 X30.4416 Y29.0883
G01 X30.3436 Y29.0574
G01 X30.2432 Y29.0351
G01 X30.1412 Y29.0217
G01 X30.0385 Y29.0172
G01 X29.9358 Y29.0217
G01 X29.8338 Y29.0351
G01 X29.7334 Y29.0574
G01 X29.6353 Y29.0883
G01 X29.5403 Y29.1277
G01 X29.4491 Y29.1751
G01 X29.3624 Y29.2304
G01 X29.2808 Y29.2930
G01 X29.2050 Y29.3625
G01 X29.1355 Y29.4383
G01 X29.0729 Y29.5199
G01 X29.0177 Y29.6066
G01 X28.9702 Y29.6978
G01 X28.9309 Y29.7928
G01 X28.8999 Y29.8909
G01 X28.8777 Y29.9913
G01 X28.8643 Y30.0932
G01 X28.8598 Y30.1959
G01 X28.8643 Y30.2987
G01 X28.8777 Y30.4006
G01 X28.8999 Y30.5010
G01 X28.9309 Y30.5991
G01 X28.9702 Y30.6941
G01 X29.0177 Y30.7853
G01 X29.0729 Y30.8720
G01 X29.1355 Y30.9536
G01 X29.2050 Y31.0294
G01 X29.2808 Y31.0989
G01 X29.3624 Y31.1615
G01 X29.4491 Y31.2167
G01 X29.5403 Y31.2642
G01 X29.6353 Y31.3036
G01 X29.7334 Y31.3345
G01 X29.8338 Y31.3567
G01 X29.9358 Y31.3702
G01 X30.0385 Y31.3746
G01 X30.1412 Y31.3702
G01 X30.2432 Y31.3567
G01 X30.3436 Y31.3345
G01 X30.4416 Y31.3036
G01 X30.5366 Y31.2642
G01 X30.6278 Y31.2167
G01 X30.7146 Y31.1615
G01 X30.7961 Y31.0989
G01 X30.8720 Y31.0294
G01 X30.9414 Y30.9536
G01 X31.0040 Y30.8720
G01 X31.0593 Y30.7853
G01 X31.1068 Y30.6941
G01 X31.1461 Y30.5991
G01 X31.1770 Y30.5010
G01 X31.1993 Y30.4006
G01 X31.2127 Y30.2987
G01 X31.2172 Y30.1959
G01 X31.2130 Y30.1010
G01 X31.2006 Y30.0068
G01 X31.1801 Y29.9140
G01 X31.1515 Y29.8234
G01 X31.1151 Y29.7356
G01 X31.0712 Y29.6513
G01 X31.0202 Y29.5711
G01 X30.9623 Y29.4957
G01 X30.8981 Y29.4256
G01 X30.8281 Y29.3614
G01 X30.7527 Y29.3036
G01 X30.6725 Y29.2525
G01 X30.5882 Y29.2086
G01 X30.5004 Y29.1723
G01 X30.4098 Y29.1437
G01 X30.3170 Y29.1231
G01 X30.2228 Y29.1107
G01 X30.1278 Y29.1066
G01 X30.0329 Y29.1107
G01 X29.9387 Y29.1231
G01 X29.8459 Y29.1437
G01 X29.7553 Y29.1723
G01 X29.6675 Y29.2086
G01 X29.5832 Y29.2525
G01 X29.5030 Y29.3036
G01 X29.4276 Y29.3614
G01 X29.3575 Y29.4256
G01 X29.2933 Y29.4957
G01 X29.2355 Y29.5711
G01 X29.1844 Y29.6513
G01 X29.1405 Y29.7356
G01 X29.1042 Y29.8234
G01 X29.0756 Y29.9140
G01 X29.0550 Y30.0068
G01 X29.0426 Y30.1010
G01 X29.0385 Y30.1959
G01 X29.0396 Y30.2421
G01 X29.0427 Y30.2882
G01 X29.0481 Y30.3341
G01 X29.0555 Y30.3797
G01 X29.0650 Y30.4249
G01 X29.0767 Y30.4696
G01 X29.0903 Y30.5137
G01 X29.1060 Y30.5572
G01 X29.1237 Y30.5999
G01 X29.1433 Y30.6417
G01 X29.1649 Y30.6825
G01 X29.1883 Y30.7224
G01 X29.2135 Y30.7611
G01 X29.2405 Y30.7986
G01 X29.2691 Y30.8348
G01 X29.2995 Y30.8696
G01 X29.3314 Y30.9030
G01 X29.3648 Y30.9349
G01 X29.3996 Y30.9653
G01 X29.4358 Y30.9939
G01 X29.4733 Y31.0209
G01 X29.5121 Y31.0461
G01 X29.5519 Y31.0696
G01 X29.5927 Y31.0911
G01 X29.6346 Y31.1107
G01 X29.6772 Y31.1284
G01 X29.7207 Y31.1441
G01 X29.7648 Y31.1578
G01 X29.8095 Y31.1694
G01 X29.8547 Y31.1789
G01 X29.9003 Y31.1863
G01 X29.9462 Y31.1917
G01 X29.9923 Y31.1949
G01 X30.0385 Y31.1959
G01 X30.0847 Y31.1949
G01 X30.1308 Y31.1917
G01 X30.1766 Y31.1863
G01 X30.2222 Y31.1789
G01 X30.2674 Y31.1694
G01 X30.3121 Y31.1578
G01 X30.3563 Y31.1441
G01 X30.3997 Y31.1284
G01 X30.4424 Y31.1107
G01 X30.4842 Y31.0911
G01 X30.5251 Y31.0696
G01 X30.5649 Y31.0461
G01 X30.6036 Y31.0209
G01 X30.6411 Y30.9939
G01 X30.6773 Y30.9653
G01 X30.7122 Y30.9349
G01 X30.7456 Y30.9030
G01 X30.7775 Y30.8696
G01 X30.8078 Y30.8348
G01 X30.8365 Y30.7986
G01 X30.8635 Y30.7611
G01 X30.8887 Y30.7224
G01 X30.9121 Y30.6825
G01 X30.9336 Y30.6417
G01 X30.9533 Y30.5999
G01 X30.9710 Y30.5572
G01 X30.9866 Y30.5137
G01 X31.0003 Y30.4696
G01 X31.0119 Y30.4249
G01 X31.0215 Y30.3797
G01 X31.0289 Y30.3341
G01 X31.0342 Y30.2882
G01 X31.0374 Y30.2421
G01 X31.0385 Y30.1959
M107
M106 S240
G01 X31.0347 Y30.1088 Z-3.5278 F400
G01 X31.0233 Y30.0223 Z-3.5556
G01 X31.0044 Y29.9371 Z-3.5833
G01 X30.9782 Y29.8539 Z-3.6111
G01 X30.9448 Y29.7733 Z-3.6389
G01 X30.9045 Y29.6959 Z-3.6667
G01 X30.8576 Y29.6224 Z-3.6944
G01 X30.8045 Y29.5531 Z-3.7222
G01 X30.7456 Y29.4888 Z-3.7500
G01 X30.6813 Y29.4299 Z-3.7778
G01 X30.6121 Y29.3768 Z-3.8056
G01 X30.5385 Y29.3299 Z-3.8333
G01 X30.4611 Y29.2896 Z-3.8611
G01 X30.3805 Y29.2562 Z-3.8889
G01 X30.2973 Y29.2300 Z-3.9167
G01 X30.2121 Y29.2111 Z-3.9444
G01 X30.1256 Y29.1997 Z-3.9722
G01 X30.0385 Y29.1959 Z-4.0000
G01 X29.9513 Y29.1997 Z-4.0278
G01 X29.8648 Y29.2111 Z-4.0556
G01 X29.7797 Y29.2300 Z-4.0833
G01 X29.6965 Y29.2562 Z-4.1111
G01 X29.6159 Y29.2896 Z-4.1389
G01 X29.5385 Y29.3299 Z-4.1667
G01 X29.4978 Y29.3547 Z-4.1818
G01 X29.4584 Y29.3814 Z-4.1970
G01 X29.4203 Y29.4099 Z-4.2121
G01 X29.3836 Y29.4402 Z-4.2273
G01 X29.3484 Y29.4722 Z-4.2424
G01 X29.3147 Y29.5059 Z-4.2576
G01 X29.2827 Y29.5411 Z-4.2727
G01 X29.2524 Y29.5778 Z-4.2879
G01 X29.2239 Y29.6159 Z-4.3030
G01 X29.1972 Y29.6553 Z-4.3182
G01 X29.1725 Y29.6959 Z-4.3333
G01 X29.1496 Y29.7377 Z-4.3485
G01 X29.1289 Y29.7805 Z-4.3636
G01 X29.1101 Y29.8243 Z-4.3788
G01 X29.0935 Y29.8689 Z-4.3939
G01 X29.0790 Y29.9142 Z-4.4091
G01 X29.0667 Y29.9602 Z-4.4242
G01 X29.0566 Y30.0067 Z-4.4394
G01 X29.0487 Y30.0536 Z-4.4545
G01 X29.0430 Y30.1009 Z-4.4697
G01 X29.0396 Y30.1484 Z-4.4848
G01 X29.0385 Y30.1959 Z-4.5000
G01 X29.0396 Y30.2435 Z-4.5152
G01 X29.0430 Y30.2910 Z-4.5303
G01 X29.0487 Y30.3382 Z-4.5455
G01 X29.0566 Y30.3852 Z-4.5606
G01 X29.0667 Y30.4317 Z-4.5758
G01 X29.0790 Y30.4777 Z-4.5909
G01 X29.0935 Y30.5230 Z-4.6061
G01 X29.1101 Y30.5676 Z-4.6212
G01 X29.1289 Y30.6113 Z-4.6364
G01 X29.1496 Y30.6542 Z-4.6515
G01 X29.1725 Y30.6959 Z-4.6667
G01 X29.1972 Y30.7366 Z-4.6818
G01 X29.2239 Y30.7760 Z-4.6970
G01 X29.2524 Y30.8141 Z-4.7121
G01 X29.2827 Y30.8508 Z-4.7273
G01 X29.3147 Y30.8860 Z-4.7424
G01 X29.3484 Y30.9197 Z-4.7576
G01 X29.3836 Y30.9517 Z-4.7727
G01 X29.4203 Y30.9820 Z-4.7879
G01 X29.4584 Y31.0105 Z-4.8030
G01 X29.4978 Y31.0372 Z-4.8182
G01 X29.5385 Y31.0620 Z-4.8333
G01 X29.5803 Y31.0848 Z-4.8485
G01 X29.6231 Y31.1056 Z-4.8636
G01 X29.6668 Y31.1243 Z-4.8788
G01 X29.7114 Y31.1409 Z-4.8939
G01 X29.7568 Y31.1554 Z-4.9091
G01 X29.8027 Y31.1677 Z-4.9242
G01 X29.8492 Y31.1779 Z-4.9394
G01 X29.8962 Y31.1858 Z-4.9545
G01 X29.9434 Y31.1914 Z-4.9697
G01 X29.9909 Y31.1948 Z-4.9848
G01 X30.0385 Y31.1959 Z-5.0000
G01 X30.0861 Y31.1948 Z-5.0152
G01 X30.1335 Y31.1914 Z-5.0303
G01 X30.1808 Y31.1858 Z-5.0455
G01 X30.2277 Y31.1779 Z-5.0606
G01 X30.2742 Y31.1677 Z-5.0758
G01 X30.3202 Y31.1554 Z-5.0909
G01 X30.3656 Y31.1409 Z-5.1061
G01 X30.4101 Y31.1243 Z-5.1212
G01 X30.4539 Y31.1056 Z-5.1364
G01 X30.4967 Y31.0848 Z-5.1515
G01 X30.5385 Y31.0620 Z-5.1667
G01 X30.5791 Y31.0372 Z-5.1818
G01 X30.6185 Y31.0105 Z-5.1970
G01 X30.6566 Y30.9820 Z-5.2121
G01 X30.6933 Y30.9517 Z-5.2273
G01 X30.7286 Y30.9197 Z-5.2424
G01 X30.7622 Y30.8860 Z-5.2576
G01 X30.7942 Y30.8508 Z-5.2727
G01 X30.8245 Y30.8141 Z-5.2879
G01 X30.8531 Y30.7760 Z-5.3030
G01 X30.8797 Y30.7366 Z-5.3182
G01 X30.9045 Y30.6959 Z-5.3333
G01 X30.9273 Y30.6542 Z-5.3485
G01 X30.9481 Y30.6113 Z-5.3636
G01 X30.9669 Y30.5676 Z-5.3788
G01 X30.9835 Y30.5230 Z-5.3939
G01 X30.9980 Y30.4777 Z-5.4091
G01 X31.0103 Y30.4317 Z-5.4242
G01 X31.0204 Y30.3852 Z-5.4394
G01 X31.0283 Y30.3382 Z-5.4545
G01 X31.0340 Y30.2910 Z-5.4697
G01 X31.0374 Y30.2435 Z-5.4848
G01 X31.0385 Y30.1959 Z-5.5000
G01 X31.0347 Y30.1088
G01 X31.0233 Y30.0223
G01 X31.0044 Y29.9371
G01 X30.9782 Y29.8539
G01 X30.9448 Y29.7733
G01 X30.9045 Y29.6959
G01 X30.8576 Y29.6224
G01 X30.8045 Y29.5531
G01 X30.7456 Y29.4888
G01 X30.6813 Y29.4299
G01 X30.6121 Y29.3768
G01 X30.5385 Y29.3299
G01 X30.4611 Y29.2896
G01 X30.3805 Y29.2562
G01 X30.2973 Y29.2300
G01 X30.2121 Y29.2111
G01 X30.1256 Y29.1997
G01 X30.0385 Y29.1959
G01 X29.9513 Y29.1997
G01 X29.8648 Y29.2111
G01 X29.7797 Y29.2300
G01 X29.6965 Y29.2562
G01 X29.6159 Y29.2896
G01 X29.5385 Y29.3299
G01 X29.4978 Y29.3547
G01 X29.4584 Y29.3814
G01 X29.4203 Y29.4099
G01 X29.3836 Y29.4402
G01 X29.3484 Y29.4722
G01 X29.3147 Y29.5059
G01 X29.2827 Y29.5411
G01 X29.2524 Y29.5778
G01 X29.2239 Y29.6159
G01 X29.1972 Y29.6553
G01 X29.1725 Y29.6959
G01 X29.1496 Y29.7377
G01 X29.1289 Y29.7805
G01 X29.1101 Y29.8243
G01 X29.0935 Y29.8689
G01 X29.0790 Y29.9142
G01 X29.0667 Y29.9602
G01 X29.0566 Y30.0067
G01 X29.0487 Y30.0536
G01 X29.0430 Y30.1009
G01 X29.0396 Y30.1484
G01 X29.0385 Y30.1959
G01 X29.0396 Y30.2435
G01 X29.0430 Y30.2910
G01 X29.0487 Y30.3382
G01 X29.0566 Y30.3852
G01 X29.0667 Y30.4317
G01 X29.0790 Y30.4777
G01 X29.0935 Y30.5230
G01 X29.1101 Y30.5676
G01 X29.1289 Y30.6113
G01 X29.1496 Y30.6542
G01 X29.1725 Y30.6959
G01 X29.1972 Y30.7366
G01 X29.2239 Y30.7760
G01 X29.2524 Y30.8141
G01 X29.2827 Y30.8508
G01 X29.3147 Y30.8860
G01 X29.3484 Y30.9197
G01 X29.3836 Y30.9517
G01 X29.4203 Y30.9820
G01 X29.4584 Y31.0105
G01 X29.4978 Y31.0372
G01 X29.5385 Y31.0620
G01 X29.5803 Y31.0848
G01 X29.6231 Y31.1056
G01 X29.6668 Y31.1243
G01 X29.7114 Y31.1409
G01 X29.7568 Y31.1554
G01 X29.8027 Y31.1677
G01 X29.8492 Y31.1779
G01 X29.8962 Y31.1858
G01 X29.9434 Y31.1914
G01 X29.9909 Y31.1948
G01 X30.0385 Y31.1959
G01 X30.0861 Y31.1948
G01 X30.1335 Y31.1914
G01 X30.1808 Y31.1858
G01 X30.2277 Y31.1779
G01 X30.2742 Y31.1677
G01 X30.3202 Y31.1554
G01 X30.3656 Y31.1409
G01 X30.4101 Y31.1243
G01 X30.4539 Y31.1056
G01 X30.4967 Y31.0848
G01 X30.5385 Y31.0620
G01 X30.5791 Y31.0372
G01 X30.6185 Y31.0105
G01 X30.6566 Y30.9820
G01 X30.6933 Y30.9517
G01 X30.7286 Y30.9197
G01 X30.7622 Y30.8860
G01 X30.7942 Y30.8508
G01 X30.8245 Y30.8141
G01 X30.8531 Y30.7760
G01 X30.8797 Y30.7366
G01 X30.9045 Y30.6959
G01 X30.9273 Y30.6542
G01 X30.9481 Y30.6113
G01 X30.9669 Y30.5676
G01 X30.9835 Y30.5230
G01 X30.9980 Y30.4777
G01 X31.0103 Y30.4317
G01 X31.0204 Y30.3852
G01 X31.0283 Y30.3382
G01 X31.0340 Y30.2910
G01 X31.0374 Y30.2435
G01 X31.0385 Y30.1959
G01 X31.0492 Y30.1443 F1000
G01 X31.0573 Y30.0923
G01 X31.0627 Y30.0398
G01 X31.0654 Y29.9872
G01 X31.0653 Y29.9345
G01 X31.0626 Y29.8819
G01 X31.0571 Y29.8294
G01 X31.0490 Y29.7774
G01 X31.0363 Y29.7220
G01 X31.0208 Y29.6674
G01 X31.0026 Y29.6137
G01 X30.9816 Y29.5609
G01 X30.9580 Y29.5093
G01 X30.9318 Y29.4589
G01 X30.9031 Y29.4099
G01 X30.8720 Y29.3625
G01 X30.8301 Y29.3226
G01 X30.7862 Y29.2848
G01 X30.7406 Y29.2492
G01 X30.6933 Y29.2159
G01 X30.6445 Y29.1849
G01 X30.5941 Y29.1564
G01 X30.5424 Y29.1304
G01 X30.4896 Y29.1069
G01 X30.4356 Y29.0861
G01 X30.3806 Y29.0680
G01 X30.3249 Y29.0525
G01 X30.2684 Y29.0399
G01 X30.2114 Y29.0300
G01 X30.1540 Y29.0229
G01 X30.0963 Y29.0186
G01 X30.0385 Y29.0172
G01 X29.9806 Y29.0186
G01 X29.9230 Y29.0229
G01 X29.8655 Y29.0300
G01 X29.8085 Y29.0399
G01 X29.7521 Y29.0525
G01 X29.6963 Y29.0680
G01 X29.6414 Y29.0861
G01 X29.5874 Y29.1069
G01 X29.5345 Y29.1304
G01 X29.4828 Y29.1564
G01 X29.4325 Y29.1849
G01 X29.3836 Y29.2159
G01 X29.3363 Y29.2492
G01 X29.2907 Y29.2848
G01 X29.2469 Y29.3226
G01 X29.2050 Y29.3625
G01 X29.1651 Y29.4044
G01 X29.1273 Y29.4482
G01 X29.0917 Y29.4938
G01 X29.0584 Y29.5411
G01 X29.0275 Y29.5900
G01 X28.9990 Y29.6403
G01 X28.9729 Y29.6920
G01 X28.9495 Y29.7449
G01 X28.9287 Y29.7988
G01 X28.9105 Y29.8538
G01 X28.8951 Y29.9095
G01 X28.8824 Y29.9660
G01 X28.8725 Y30.0230
G01 X28.8655 Y30.0804
G01 X28.8612 Y30.1381
G01 X28.8598 Y30.1959
G01 X28.8612 Y30.2538
G01 X28.8655 Y30.3115
G01 X28.8725 Y30.3689
G01 X28.8824 Y30.4259
G01 X28.8951 Y30.4823
G01 X28.9105 Y30.5381
G01 X28.9287 Y30.5930
G01 X28.9495 Y30.6470
G01 X28.9729 Y30.6999
G01 X28.9990 Y30.7516
G01 X29.0275 Y30.8019
G01 X29.0584 Y30.8508
G01 X29.0917 Y30.8981
G01 X29.1273 Y30.9437
G01 X29.1651 Y30.9875
G01 X29.2050 Y31.0294
G01 X29.2469 Y31.0693
G01 X29.2907 Y31.1071
G01 X29.3363 Y31.1427
G01 X29.3836 Y31.1760
G01 X29.4325 Y31.2069
G01 X29.4828 Y31.2355
G01 X29.5345 Y31.2615
G01 X29.5874 Y31.2849
G01 X29.6414 Y31.3057
G01 X29.6963 Y31.3239
G01 X29.7521 Y31.3393
G01 X29.8085 Y31.3520
G01 X29.8655 Y31.3619
G01 X29.9230 Y31.3690
G01 X29.9806 Y31.3732
G01 X30.0385 Y31.3746
G01 X30.0963 Y31.3732
G01 X30.1540 Y31.3690
G01 X30.2114 Y31.3619
G01 X30.2684 Y31.3520
G01 X30.3249 Y31.3393
G01 X30.3806 Y31.3239
G01 X30.4356 Y31.3057
G01 X30.4896 Y31.2849
G01 X30.5424 Y31.2615
G01 X30.5941 Y31.2355
G01 X30.6445 Y31.2069
G01 X30.6933 Y31.1760
G01 X30.7406 Y31.1427
G01 X30.7862 Y31.1071
G01 X30.8301 Y31.0693
G01 X30.8720 Y31.0294
G01 X30.9118 Y30.9875
G01 X30.9496 Y30.9437
G01 X30.9852 Y30.8981
G01 X31.0185 Y30.8508
G01 X31.0495 Y30.8019
G01 X31.0780 Y30.7516
G01 X31.1040 Y30.6999
G01 X31.1275 Y30.6470
G01 X31.1483 Y30.5930
G01 X31.1664 Y30.5381
G01 X31.1819 Y30.4823
G01 X31.1945 Y30.4259
G01 X31.2044 Y30.3689
G01 X31.2115 Y30.3115
G01 X31.2158 Y30.2538
G01 X31.2172 Y30.1959
G01 X31.2127 Y30.0932
G01 X31.1993 Y29.9913
G01 X31.1770 Y29.8909
G01 X31.1461 Y29.7928
G01 X31.1068 Y29.6978
G01 X31.0593 Y29.6066
G01 X31.0040 Y29.5199
G01 X30.9414 Y29.4383
G01 X30.8720 Y29.3625
G01 X30.7961 Y29.2930
G01 X30.7146 Y29.2304
G01 X30.6278 Y29.1751
G01 X30.5366 Y29.1277
G01 X30.4416 Y29.0883
G01 X30.3436 Y29.0574
G01 X30.2432 Y29.0351
G01 X30.1412 Y29.0217
G01 X30.0385 Y29.0172
G01 X29.9358 Y29.0217
G01 X29.8338 Y29.0351
G01 X29.7334 Y29.0574
G01 X29.6353 Y29.0883
G01 X29.5403 Y29.1277
G01 X29.4491 Y29.1751
G01 X29.3624 Y29.2304
G01 X29.2808 Y29.2930
G01 X29.2050 Y29.3625
G01 X29.1355 Y29.4383
G01 X29.0729 Y29.5199
G01 X29.0177 Y29.6066
G01 X28.9702 Y29.6978
G01 X28.9309 Y29.7928
G01 X28.8999 Y29.8909
G01 X28.8777 Y29.9913
G01 X28.8643 Y30.0932
G01 X28.8598 Y30.1959
G01 X28.8643 Y30.2987
G01 X28.8777 Y30.4006
G01 X28.8999 Y30.5010
G01 X28.9309 Y30.5991
G01 X28.9702 Y30.6941
G01 X29.0177 Y30.7853
G01 X29.0729 Y30.8720
G01 X29.1355 Y30.9536
G01 X29.2050 Y31.0294
G01 X29.2808 Y31.0989
G01 X29.3624 Y31.1615
G01 X29.4491 Y31.2167
G01 X29.5403 Y31.2642
G01 X29.6353 Y31.3036
G01 X29.7334 Y31.3345
G01 X29.8338 Y31.3567
G01 X29.9358 Y31.3702
G01 X30.0385 Y31.3746
G01 X30.1412 Y31.3702
G01 X30.2432 Y31.3567
G01 X30.3436 Y31.3345
G01 X30.4416 Y31.3036
G01 X30.5366 Y31.2642
G01 X30.6278 Y31.2167
G01 X30.7146 Y31.1615
G01 X30.7961 Y31.0989
G01 X30.8720 Y31.0294
G01 X30.9414 Y30.9536
G01 X31.0040 Y30.8720
G01 X31.0593 Y30.7853
G01 X31.1068 Y30.6941
G01 X31.1461 Y30.5991
G01 X31.1770 Y30.5010
G01 X31.1993 Y30.4006
G01 X31.2127 Y30.2987
G01 X31.2172 Y30.1959
M107
M106 S240
G01 X31.2141 Y30.1175 Z-5.4750 F400
M107
M106 S240
G01 X31.2049 Y30.0395 Z-5.4500
M107
M106 S240
G01 X31.1896 Y29.9625 Z-5.4250
M107
M106 S240
G01 X31.1682 Y29.8869 Z-5.4000
M107
M106 S240
G01 X31.1411 Y29.8132 Z-5.3750
M107
M106 S240
G01 X31.1082 Y29.7419 Z-5.3500
M107
M106 S240
G01 X31.0698 Y29.6734 Z-5.3250
M107
M106 S240
G01 X31.0262 Y29.6081 Z-5.3000
M107
M106 S240
G01 X30.9776 Y29.5465 Z-5.2750
M107
M106 S240
G01 X30.9243 Y29.4888 Z-5.2500
M107
M106 S240
G01 X30.8666 Y29.4355 Z-5.2250
M107
M106 S240
G01 X30.8050 Y29.3869 Z-5.2000
M107
M106 S240
G01 X30.7397 Y29.3433 Z-5.1750
M107
M106 S240
G01 X30.6712 Y29.3049 Z-5.1500
M107
M106 S240
G01 X30.5999 Y29.2721 Z-5.1250
M107
M106 S240
G01 X30.5262 Y29.2449 Z-5.1000
M107
M106 S240
G01 X30.4506 Y29.2236 Z-5.0750
M107
M106 S240
G01 X30.3736 Y29.2082 Z-5.0500
M107
M106 S240
G01 X30.2957 Y29.1990 Z-5.0250
M107
M106 S240
G01 X30.2172 Y29.1959 Z-5.0000
M107
G00 Z2.0000


;No. 4: Helical drill 3
G00 X166.0368 Y30.4504 Z2.0000
G00 Z0.5000
M106 S240
G01 X166.0330 Y30.3632 Z0.4722 F400
G01 X166.0216 Y30.2767 Z0.4444
G01 X166.0027 Y30.1916 Z0.4167
G01 X165.9765 Y30.1084 Z0.3889
G01 X165.9431 Y30.0278 Z0.3611
G01 X165.9028 Y29.9504 Z0.3333
G01 X165.8560 Y29.8768 Z0.3056
G01 X165.8028 Y29.8076 Z0.2778
G01 X165.7439 Y29.7433 Z0.2500
G01 X165.6796 Y29.6843 Z0.2222
G01 X165.6104 Y29.6312 Z0.1944
G01 X165.5368 Y29.5844 Z0.1667
G01 X165.4594 Y29.5441 Z0.1389
G01 X165.3788 Y29.5107 Z0.1111
G01 X165.2956 Y29.4845 Z0.0833
G01 X165.2105 Y29.4656 Z0.0556
G01 X165.1240 Y29.4542 Z0.0278
G01 X165.0368 Y29.4504 Z0.0000
G01 X164.9496 Y29.4542 Z-0.0278
G01 X164.8632 Y29.4656 Z-0.0556
G01 X164.7780 Y29.4845 Z-0.0833
G01 X164.6948 Y29.5107 Z-0.1111
G01 X164.6142 Y29.5441 Z-0.1389
G01 X164.5368 Y29.5844 Z-0.1667
G01 X164.4962 Y29.6091 Z-0.1818
G01 X164.4567 Y29.6358 Z-0.1970
G01 X164.4186 Y29.6643 Z-0.2121
G01 X164.3819 Y29.6946 Z-0.2273
G01 X164.3467 Y29.7267 Z-0.2424
G01 X164.3131 Y29.7603 Z-0.2576
G01 X164.2811 Y29.7955 Z-0.2727
G01 X164.2507 Y29.8322 Z-0.2879
G01 X164.2222 Y29.8703 Z-0.3030
G01 X164.1955 Y29.9097 Z-0.3182
G01 X164.1708 Y29.9504 Z-0.3333
G01 X164.1480 Y29.9922 Z-0.3485
G01 X164.1272 Y30.0350 Z-0.3636
G01 X164.1084 Y30.0787 Z-0.3788
G01 X164.0918 Y30.1233 Z-0.3939
G01 X164.0773 Y30.1687 Z-0.4091
G01 X164.0650 Y30.2146 Z-0.4242
G01 X164.0549 Y30.2611 Z-0.4394
G01 X164.0470 Y30.3081 Z-0.4545
G01 X164.0413 Y30.3553 Z-0.4697
G01 X164.0379 Y30.4028 Z-0.4848
G01 X164.0368 Y30.4504 Z-0.5000
G01 X164.0379 Y30.4980 Z-0.5152
G01 X164.0413 Y30.5454 Z-0.5303
G01 X164.0470 Y30.5927 Z-0.5455
G01 X164.0549 Y30.6396 Z-0.5606
G01 X164.0650 Y30.6861 Z-0.5758
G01 X164.0773 Y30.7321 Z-0.5909
G01 X164.0918 Y30.7775 Z-0.6061
G01 X164.1084 Y30.8221 Z-0.6212
G01 X164.1272 Y30.8658 Z-0.6364
G01 X164.1480 Y30.9086 Z-0.6515
