;Project TeslaSexyCars02_Steingrau
;Created by Estlcam version 11 build 11,227
;Machining time about 00:34:22 hours

G90
M03 S18000
G00 X0.0000 Y0.0000 Z0.0000
G00 Z2.0000


;No. 1: Helical drill 1
G00 X31.3975 Y244.0372
G00 Z0.5000
M106 S240
G01 X31.3937 Y243.9501 Z0.4774 F400 S18000
G01 X31.3823 Y243.8636 Z0.4549
G01 X31.3634 Y243.7784 Z0.4323
G01 X31.3372 Y243.6952 Z0.4097
G01 X31.3038 Y243.6146 Z0.3872
G01 X31.2635 Y243.5372 Z0.3646
G01 X31.2166 Y243.4637 Z0.3420
G01 X31.1635 Y243.3944 Z0.3194
G01 X31.1046 Y243.3301 Z0.2969
G01 X31.0403 Y243.2712 Z0.2743
G01 X30.9710 Y243.2181 Z0.2517
G01 X30.8975 Y243.1712 Z0.2292
G01 X30.8201 Y243.1309 Z0.2066
G01 X30.7395 Y243.0975 Z0.1840
G01 X30.6563 Y243.0713 Z0.1615
G01 X30.5711 Y243.0524 Z0.1389
G01 X30.4846 Y243.0410 Z0.1163
G01 X30.3975 Y243.0372 Z0.0938
G01 X30.3103 Y243.0410 Z0.0712
G01 X30.2238 Y243.0524 Z0.0486
G01 X30.1387 Y243.0713 Z0.0260
G01 X30.0555 Y243.0975 Z0.0035
G01 X29.9749 Y243.1309 Z-0.0191
G01 X29.8975 Y243.1712 Z-0.0417
G01 X29.8239 Y243.2181 Z-0.0642
G01 X29.7547 Y243.2712 Z-0.0868
G01 X29.6904 Y243.3301 Z-0.1094
G01 X29.6314 Y243.3944 Z-0.1319
G01 X29.5783 Y243.4637 Z-0.1545
G01 X29.5314 Y243.5372 Z-0.1771
G01 X29.4912 Y243.6146 Z-0.1997
G01 X29.4578 Y243.6952 Z-0.2222
G01 X29.4315 Y243.7784 Z-0.2448
G01 X29.4127 Y243.8636 Z-0.2674
G01 X29.4013 Y243.9501 Z-0.2899
G01 X29.3975 Y244.0372 Z-0.3125
G01 X29.4013 Y244.1244 Z-0.3351
G01 X29.4127 Y244.2109 Z-0.3576
G01 X29.4315 Y244.2961 Z-0.3802
G01 X29.4578 Y244.3793 Z-0.4028
G01 X29.4912 Y244.4598 Z-0.4253
G01 X29.5314 Y244.5372 Z-0.4479
G01 X29.5783 Y244.6108 Z-0.4705
G01 X29.6314 Y244.6800 Z-0.4931
G01 X29.6904 Y244.7443 Z-0.5156
G01 X29.7547 Y244.8033 Z-0.5382
G01 X29.8239 Y244.8564 Z-0.5608
G01 X29.8975 Y244.9033 Z-0.5833
G01 X29.9749 Y244.9435 Z-0.6059
G01 X30.0555 Y244.9769 Z-0.6285
G01 X30.1387 Y245.0032 Z-0.6510
G01 X30.2238 Y245.0220 Z-0.6736
G01 X30.3103 Y245.0334 Z-0.6962
G01 X30.3975 Y245.0372 Z-0.7188
G01 X30.4846 Y245.0334 Z-0.7413
G01 X30.5711 Y245.0220 Z-0.7639
G01 X30.6563 Y245.0032 Z-0.7865
G01 X30.7395 Y244.9769 Z-0.8090
G01 X30.8201 Y244.9435 Z-0.8316
G01 X30.8975 Y244.9033 Z-0.8542
G01 X30.9710 Y244.8564 Z-0.8767
G01 X31.0403 Y244.8033 Z-0.8993
G01 X31.1046 Y244.7443 Z-0.9219
G01 X31.1635 Y244.6800 Z-0.9444
G01 X31.2166 Y244.6108 Z-0.9670
G01 X31.2635 Y244.5372 Z-0.9896
G01 X31.3038 Y244.4598 Z-1.0122
G01 X31.3372 Y244.3793 Z-1.0347
G01 X31.3634 Y244.2961 Z-1.0573
G01 X31.3823 Y244.2109 Z-1.0799
G01 X31.3937 Y244.1244 Z-1.1024
G01 X31.3975 Y244.0372 Z-1.1250
G01 X31.3937 Y243.9501
G01 X31.3823 Y243.8636
G01 X31.3634 Y243.7784
G01 X31.3372 Y243.6952
G01 X31.3038 Y243.6146
G01 X31.2635 Y243.5372
G01 X31.2166 Y243.4637
G01 X31.1635 Y243.3944
G01 X31.1046 Y243.3301
G01 X31.0403 Y243.2712
G01 X30.9710 Y243.2181
G01 X30.8975 Y243.1712
G01 X30.8201 Y243.1309
G01 X30.7395 Y243.0975
G01 X30.6563 Y243.0713
G01 X30.5711 Y243.0524
G01 X30.4846 Y243.0410
G01 X30.3975 Y243.0372
G01 X30.3103 Y243.0410
G01 X30.2238 Y243.0524
G01 X30.1387 Y243.0713
G01 X30.0555 Y243.0975
G01 X29.9749 Y243.1309
G01 X29.8975 Y243.1712
G01 X29.8239 Y243.2181
G01 X29.7547 Y243.2712
G01 X29.6904 Y243.3301
G01 X29.6314 Y243.3944
G01 X29.5783 Y243.4637
G01 X29.5314 Y243.5372
G01 X29.4912 Y243.6146
G01 X29.4578 Y243.6952
G01 X29.4315 Y243.7784
G01 X29.4127 Y243.8636
G01 X29.4013 Y243.9501
G01 X29.3975 Y244.0372
G01 X29.4013 Y244.1244
G01 X29.4127 Y244.2109
G01 X29.4315 Y244.2961
G01 X29.4578 Y244.3793
G01 X29.4912 Y244.4598
G01 X29.5314 Y244.5372
G01 X29.5783 Y244.6108
G01 X29.6314 Y244.6800
G01 X29.6904 Y244.7443
G01 X29.7547 Y244.8033
G01 X29.8239 Y244.8564
G01 X29.8975 Y244.9033
G01 X29.9749 Y244.9435
G01 X30.0555 Y244.9769
G01 X30.1387 Y245.0032
G01 X30.2238 Y245.0220
G01 X30.3103 Y245.0334
G01 X30.3975 Y245.0372
G01 X30.4846 Y245.0334
G01 X30.5711 Y245.0220
G01 X30.6563 Y245.0032
G01 X30.7395 Y244.9769
G01 X30.8201 Y244.9435
G01 X30.8975 Y244.9033
G01 X30.9710 Y244.8564
G01 X31.0403 Y244.8033
G01 X31.1046 Y244.7443
G01 X31.1635 Y244.6800
G01 X31.2166 Y244.6108
G01 X31.2635 Y244.5372
G01 X31.3038 Y244.4598
G01 X31.3372 Y244.3793
G01 X31.3634 Y244.2961
G01 X31.3823 Y244.2109
G01 X31.3937 Y244.1244
G01 X31.3975 Y244.0372
G01 X31.4082 Y243.9856 F1000
G01 X31.4163 Y243.9336
G01 X31.4217 Y243.8811
G01 X31.4244 Y243.8285
G01 X31.4243 Y243.7758
G01 X31.4216 Y243.7232
G01 X31.4161 Y243.6707
G01 X31.4080 Y243.6187
G01 X31.3962 Y243.5627
G01 X31.3817 Y243.5074
G01 X31.3643 Y243.4529
G01 X31.3442 Y243.3993
G01 X31.3213 Y243.3469
G01 X31.2958 Y243.2957
G01 X31.2678 Y243.2459
G01 X31.2372 Y243.1975
G01 X31.1961 Y243.1555
G01 X31.1531 Y243.1155
G01 X31.1081 Y243.0777
G01 X31.0613 Y243.0421
G01 X31.0129 Y243.0089
G01 X30.9629 Y242.9781
G01 X30.9114 Y242.9498
G01 X30.8586 Y242.9241
G01 X30.8034 Y242.9028
G01 X30.7472 Y242.8842
G01 X30.6902 Y242.8684
G01 X30.6325 Y242.8555
G01 X30.5743 Y242.8454
G01 X30.5156 Y242.8381
G01 X30.4566 Y242.8338
G01 X30.3975 Y242.8323
G01 X30.3384 Y242.8338
G01 X30.2794 Y242.8381
G01 X30.2207 Y242.8454
G01 X30.1624 Y242.8555
G01 X30.1047 Y242.8684
G01 X30.0477 Y242.8842
G01 X29.9916 Y242.9028
G01 X29.9364 Y242.9241
G01 X29.8823 Y242.9480
G01 X29.8295 Y242.9746
G01 X29.7780 Y243.0038
G01 X29.7281 Y243.0354
G01 X29.6797 Y243.0695
G01 X29.6331 Y243.1058
G01 X29.5883 Y243.1445
G01 X29.5455 Y243.1852
G01 X29.5047 Y243.2281
G01 X29.4661 Y243.2729
G01 X29.4297 Y243.3195
G01 X29.3956 Y243.3678
G01 X29.3640 Y243.4178
G01 X29.3349 Y243.4692
G01 X29.3083 Y243.5221
G01 X29.2843 Y243.5761
G01 X29.2630 Y243.6313
G01 X29.2445 Y243.6875
G01 X29.2287 Y243.7445
G01 X29.2157 Y243.8022
G01 X29.2056 Y243.8604
G01 X29.1984 Y243.9191
G01 X29.1940 Y243.9781
G01 X29.1926 Y244.0372
G01 X29.1940 Y244.0964
G01 X29.1984 Y244.1553
G01 X29.2056 Y244.2140
G01 X29.2157 Y244.2723
G01 X29.2287 Y244.3300
G01 X29.2445 Y244.3870
G01 X29.2630 Y244.4431
G01 X29.2843 Y244.4983
G01 X29.3083 Y244.5524
G01 X29.3349 Y244.6052
G01 X29.3640 Y244.6567
G01 X29.3956 Y244.7066
G01 X29.4297 Y244.7550
G01 X29.4661 Y244.8016
G01 X29.5047 Y244.8464
G01 X29.5455 Y244.8892
G01 X29.5883 Y244.9300
G01 X29.6331 Y244.9686
G01 X29.6797 Y245.0050
G01 X29.7281 Y245.0391
G01 X29.7780 Y245.0707
G01 X29.8295 Y245.0999
G01 X29.8823 Y245.1264
G01 X29.9364 Y245.1504
G01 X29.9916 Y245.1717
G01 X30.0477 Y245.1902
G01 X30.1047 Y245.2060
G01 X30.1624 Y245.2190
G01 X30.2207 Y245.2291
G01 X30.2794 Y245.2363
G01 X30.3384 Y245.2407
G01 X30.3975 Y245.2421
G01 X30.4566 Y245.2407
G01 X30.5156 Y245.2363
G01 X30.5743 Y245.2291
G01 X30.6325 Y245.2190
G01 X30.6902 Y245.2060
G01 X30.7472 Y245.1902
G01 X30.8034 Y245.1717
G01 X30.8586 Y245.1504
G01 X30.9126 Y245.1264
G01 X30.9655 Y245.0999
G01 X31.0169 Y245.0707
G01 X31.0669 Y245.0391
G01 X31.1152 Y245.0050
G01 X31.1618 Y244.9686
G01 X31.2066 Y244.9300
G01 X31.2495 Y244.8892
G01 X31.2902 Y244.8464
G01 X31.3289 Y244.8016
G01 X31.3653 Y244.7550
G01 X31.3993 Y244.7066
G01 X31.4309 Y244.6567
G01 X31.4601 Y244.6052
G01 X31.4867 Y244.5524
G01 X31.5106 Y244.4983
G01 X31.5319 Y244.4431
G01 X31.5505 Y244.3870
G01 X31.5663 Y244.3300
G01 X31.5792 Y244.2723
G01 X31.5893 Y244.2140
G01 X31.5966 Y244.1553
G01 X31.6009 Y244.0964
G01 X31.6024 Y244.0372
G01 X31.5978 Y243.9322
G01 X31.5841 Y243.8280
G01 X31.5613 Y243.7254
G01 X31.5297 Y243.6251
G01 X31.4895 Y243.5280
G01 X31.4409 Y243.4348
G01 X31.3845 Y243.3461
G01 X31.3205 Y243.2627
G01 X31.2495 Y243.1852
G01 X31.1720 Y243.1142
G01 X31.0886 Y243.0502
G01 X30.9999 Y242.9938
G01 X30.9067 Y242.9452
G01 X30.8096 Y242.9050
G01 X30.7093 Y242.8734
G01 X30.6067 Y242.8506
G01 X30.5025 Y242.8369
G01 X30.3975 Y242.8323
G01 X30.2925 Y242.8369
G01 X30.1882 Y242.8506
G01 X30.0856 Y242.8734
G01 X29.9854 Y242.9050
G01 X29.8883 Y242.9452
G01 X29.7950 Y242.9938
G01 X29.7064 Y243.0502
G01 X29.6230 Y243.1142
G01 X29.5455 Y243.1852
G01 X29.4745 Y243.2627
G01 X29.4105 Y243.3461
G01 X29.3540 Y243.4348
G01 X29.3055 Y243.5280
G01 X29.2652 Y243.6251
G01 X29.2336 Y243.7254
G01 X29.2109 Y243.8280
G01 X29.1972 Y243.9322
G01 X29.1926 Y244.0372
G01 X29.1972 Y244.1422
G01 X29.2109 Y244.2465
G01 X29.2336 Y244.3491
G01 X29.2652 Y244.4493
G01 X29.3055 Y244.5464
G01 X29.3540 Y244.6397
G01 X29.4105 Y244.7283
G01 X29.4745 Y244.8117
G01 X29.5455 Y244.8892
G01 X29.6230 Y244.9602
G01 X29.7064 Y245.0242
G01 X29.7950 Y245.0807
G01 X29.8883 Y245.1292
G01 X29.9854 Y245.1695
G01 X30.0856 Y245.2011
G01 X30.1882 Y245.2238
G01 X30.2925 Y245.2375
G01 X30.3975 Y245.2421
G01 X30.5025 Y245.2375
G01 X30.6067 Y245.2238
G01 X30.7093 Y245.2011
G01 X30.8096 Y245.1695
G01 X30.9067 Y245.1292
G01 X30.9999 Y245.0807
G01 X31.0886 Y245.0242
G01 X31.1720 Y244.9602
G01 X31.2495 Y244.8892
G01 X31.3205 Y244.8117
G01 X31.3845 Y244.7283
G01 X31.4409 Y244.6397
G01 X31.4895 Y244.5464
G01 X31.5297 Y244.4493
G01 X31.5613 Y244.3491
G01 X31.5841 Y244.2465
G01 X31.5978 Y244.1422
G01 X31.6024 Y244.0372
G01 X31.5982 Y243.9411
G01 X31.5856 Y243.8458
G01 X31.5648 Y243.7519
G01 X31.5359 Y243.6602
G01 X31.4991 Y243.5713
G01 X31.4547 Y243.4860
G01 X31.4030 Y243.4049
G01 X31.3444 Y243.3286
G01 X31.2795 Y243.2577
G01 X31.2086 Y243.1927
G01 X31.1323 Y243.1342
G01 X31.0511 Y243.0825
G01 X30.9658 Y243.0381
G01 X30.8770 Y243.0013
G01 X30.7853 Y242.9723
G01 X30.6914 Y242.9515
G01 X30.5960 Y242.9390
G01 X30.4999 Y242.9348
G01 X30.4038 Y242.9390
G01 X30.3085 Y242.9515
G01 X30.2146 Y242.9723
G01 X30.1229 Y243.0013
G01 X30.0340 Y243.0381
G01 X29.9487 Y243.0825
G01 X29.8676 Y243.1342
G01 X29.7913 Y243.1927
G01 X29.7204 Y243.2577
G01 X29.6554 Y243.3286
G01 X29.5968 Y243.4049
G01 X29.5452 Y243.4860
G01 X29.5008 Y243.5713
G01 X29.4640 Y243.6602
G01 X29.4350 Y243.7519
G01 X29.4142 Y243.8458
G01 X29.4017 Y243.9411
G01 X29.3975 Y244.0372
G01 X29.3985 Y244.0834
G01 X29.4017 Y244.1295
G01 X29.4071 Y244.1754
G01 X29.4145 Y244.2210
G01 X29.4240 Y244.2662
G01 X29.4356 Y244.3109
G01 X29.4493 Y244.3550
G01 X29.4650 Y244.3985
G01 X29.4827 Y244.4412
G01 X29.5023 Y244.4830
G01 X29.5238 Y244.5238
G01 X29.5473 Y244.5637
G01 X29.5725 Y244.6024
G01 X29.5995 Y244.6399
G01 X29.6281 Y244.6761
G01 X29.6585 Y244.7109
G01 X29.6904 Y244.7443
G01 X29.7238 Y244.7762
G01 X29.7586 Y244.8066
G01 X29.7948 Y244.8352
G01 X29.8323 Y244.8622
G01 X29.8710 Y244.8874
G01 X29.9109 Y244.9109
G01 X29.9517 Y244.9324
G01 X29.9936 Y244.9520
G01 X30.0362 Y244.9697
G01 X30.0797 Y244.9854
G01 X30.1238 Y244.9991
G01 X30.1685 Y245.0107
G01 X30.2137 Y245.0202
G01 X30.2593 Y245.0276
G01 X30.3052 Y245.0330
G01 X30.3513 Y245.0362
G01 X30.3975 Y245.0372
G01 X30.4437 Y245.0362
G01 X30.4897 Y245.0330
G01 X30.5356 Y245.0276
G01 X30.5812 Y245.0202
G01 X30.6264 Y245.0107
G01 X30.6711 Y244.9991
G01 X30.7153 Y244.9854
G01 X30.7587 Y244.9697
G01 X30.8014 Y244.9520
G01 X30.8432 Y244.9324
G01 X30.8841 Y244.9109
G01 X30.9239 Y244.8874
G01 X30.9626 Y244.8622
G01 X31.0001 Y244.8352
G01 X31.0363 Y244.8066
G01 X31.0712 Y244.7762
G01 X31.1046 Y244.7443
G01 X31.1365 Y244.7109
G01 X31.1668 Y244.6761
G01 X31.1955 Y244.6399
G01 X31.2225 Y244.6024
G01 X31.2477 Y244.5637
G01 X31.2711 Y244.5238
G01 X31.2926 Y244.4830
G01 X31.3123 Y244.4412
G01 X31.3299 Y244.3985
G01 X31.3456 Y244.3550
G01 X31.3593 Y244.3109
G01 X31.3709 Y244.2662
G01 X31.3804 Y244.2210
G01 X31.3879 Y244.1754
G01 X31.3932 Y244.1295
G01 X31.3964 Y244.0834
G01 X31.3975 Y244.0372
M107
M106 S240
G01 X31.3937 Y243.9501 Z-1.1476 F400
G01 X31.3823 Y243.8636 Z-1.1701
G01 X31.3634 Y243.7784 Z-1.1927
G01 X31.3372 Y243.6952 Z-1.2153
G01 X31.3038 Y243.6146 Z-1.2378
G01 X31.2635 Y243.5372 Z-1.2604
G01 X31.2166 Y243.4637 Z-1.2830
G01 X31.1635 Y243.3944 Z-1.3056
G01 X31.1046 Y243.3301 Z-1.3281
G01 X31.0403 Y243.2712 Z-1.3507
G01 X30.9710 Y243.2181 Z-1.3733
G01 X30.8975 Y243.1712 Z-1.3958
G01 X30.8201 Y243.1309 Z-1.4184
G01 X30.7395 Y243.0975 Z-1.4410
G01 X30.6563 Y243.0713 Z-1.4635
G01 X30.5711 Y243.0524 Z-1.4861
G01 X30.4846 Y243.0410 Z-1.5087
G01 X30.3975 Y243.0372 Z-1.5313
G01 X30.3103 Y243.0410 Z-1.5538
G01 X30.2238 Y243.0524 Z-1.5764
G01 X30.1387 Y243.0713 Z-1.5990
G01 X30.0555 Y243.0975 Z-1.6215
G01 X29.9749 Y243.1309 Z-1.6441
G01 X29.8975 Y243.1712 Z-1.6667
G01 X29.8239 Y243.2181 Z-1.6892
G01 X29.7547 Y243.2712 Z-1.7118
G01 X29.6904 Y243.3301 Z-1.7344
G01 X29.6314 Y243.3944 Z-1.7569
G01 X29.5783 Y243.4637 Z-1.7795
G01 X29.5314 Y243.5372 Z-1.8021
G01 X29.4912 Y243.6146 Z-1.8247
G01 X29.4578 Y243.6952 Z-1.8472
G01 X29.4315 Y243.7784 Z-1.8698
G01 X29.4127 Y243.8636 Z-1.8924
G01 X29.4013 Y243.9501 Z-1.9149
G01 X29.3975 Y244.0372 Z-1.9375
G01 X29.4013 Y244.1244 Z-1.9601
G01 X29.4127 Y244.2109 Z-1.9826
G01 X29.4315 Y244.2961 Z-2.0052
G01 X29.4578 Y244.3793 Z-2.0278
G01 X29.4912 Y244.4598 Z-2.0503
G01 X29.5314 Y244.5372 Z-2.0729
G01 X29.5783 Y244.6108 Z-2.0955
G01 X29.6314 Y244.6800 Z-2.1181
G01 X29.6904 Y244.7443 Z-2.1406
G01 X29.7547 Y244.8033 Z-2.1632
G01 X29.8239 Y244.8564 Z-2.1858
G01 X29.8975 Y244.9033 Z-2.2083
G01 X29.9749 Y244.9435 Z-2.2309
G01 X30.0555 Y244.9769 Z-2.2535
G01 X30.1387 Y245.0032 Z-2.2760
G01 X30.2238 Y245.0220 Z-2.2986
G01 X30.3103 Y245.0334 Z-2.3212
G01 X30.3975 Y245.0372 Z-2.3438
G01 X30.4846 Y245.0334 Z-2.3663
G01 X30.5711 Y245.0220 Z-2.3889
G01 X30.6563 Y245.0032 Z-2.4115
G01 X30.7395 Y244.9769 Z-2.4340
G01 X30.8201 Y244.9435 Z-2.4566
G01 X30.8975 Y244.9033 Z-2.4792
G01 X30.9710 Y244.8564 Z-2.5017
G01 X31.0403 Y244.8033 Z-2.5243
G01 X31.1046 Y244.7443 Z-2.5469
G01 X31.1635 Y244.6800 Z-2.5694
G01 X31.2166 Y244.6108 Z-2.5920
G01 X31.2635 Y244.5372 Z-2.6146
G01 X31.3038 Y244.4598 Z-2.6372
G01 X31.3372 Y244.3793 Z-2.6597
G01 X31.3634 Y244.2961 Z-2.6823
G01 X31.3823 Y244.2109 Z-2.7049
G01 X31.3937 Y244.1244 Z-2.7274
G01 X31.3975 Y244.0372 Z-2.7500
G01 X31.3937 Y243.9501
G01 X31.3823 Y243.8636
G01 X31.3634 Y243.7784
G01 X31.3372 Y243.6952
G01 X31.3038 Y243.6146
G01 X31.2635 Y243.5372
G01 X31.2166 Y243.4637
G01 X31.1635 Y243.3944
G01 X31.1046 Y243.3301
G01 X31.0403 Y243.2712
G01 X30.9710 Y243.2181
G01 X30.8975 Y243.1712
G01 X30.8201 Y243.1309
G01 X30.7395 Y243.0975
G01 X30.6563 Y243.0713
G01 X30.5711 Y243.0524
G01 X30.4846 Y243.0410
G01 X30.3975 Y243.0372
G01 X30.3103 Y243.0410
G01 X30.2238 Y243.0524
G01 X30.1387 Y243.0713
G01 X30.0555 Y243.0975
G01 X29.9749 Y243.1309
G01 X29.8975 Y243.1712
G01 X29.8239 Y243.2181
G01 X29.7547 Y243.2712
G01 X29.6904 Y243.3301
G01 X29.6314 Y243.3944
G01 X29.5783 Y243.4637
G01 X29.5314 Y243.5372
G01 X29.4912 Y243.6146
G01 X29.4578 Y243.6952
G01 X29.4315 Y243.7784
G01 X29.4127 Y243.8636
G01 X29.4013 Y243.9501
G01 X29.3975 Y244.0372
G01 X29.4013 Y244.1244
G01 X29.4127 Y244.2109
G01 X29.4315 Y244.2961
G01 X29.4578 Y244.3793
G01 X29.4912 Y244.4598
G01 X29.5314 Y244.5372
G01 X29.5783 Y244.6108
G01 X29.6314 Y244.6800
G01 X29.6904 Y244.7443
G01 X29.7547 Y244.8033
G01 X29.8239 Y244.8564
G01 X29.8975 Y244.9033
G01 X29.9749 Y244.9435
G01 X30.0555 Y244.9769
G01 X30.1387 Y245.0032
G01 X30.2238 Y245.0220
G01 X30.3103 Y245.0334
G01 X30.3975 Y245.0372
G01 X30.4846 Y245.0334
G01 X30.5711 Y245.0220
G01 X30.6563 Y245.0032
G01 X30.7395 Y244.9769
G01 X30.8201 Y244.9435
G01 X30.8975 Y244.9033
G01 X30.9710 Y244.8564
G01 X31.0403 Y244.8033
G01 X31.1046 Y244.7443
G01 X31.1635 Y244.6800
G01 X31.2166 Y244.6108
G01 X31.2635 Y244.5372
G01 X31.3038 Y244.4598
G01 X31.3372 Y244.3793
G01 X31.3634 Y244.2961
G01 X31.3823 Y244.2109
G01 X31.3937 Y244.1244
G01 X31.3975 Y244.0372
G01 X31.4082 Y243.9856 F1000
G01 X31.4163 Y243.9336
G01 X31.4217 Y243.8811
G01 X31.4244 Y243.8285
G01 X31.4243 Y243.7758
G01 X31.4216 Y243.7232
G01 X31.4161 Y243.6707
G01 X31.4080 Y243.6187
G01 X31.3962 Y243.5627
G01 X31.3817 Y243.5074
G01 X31.3643 Y243.4529
G01 X31.3442 Y243.3993
G01 X31.3213 Y243.3469
G01 X31.2958 Y243.2957
G01 X31.2678 Y243.2459
G01 X31.2372 Y243.1975
G01 X31.1961 Y243.1555
G01 X31.1531 Y243.1155
G01 X31.1081 Y243.0777
G01 X31.0613 Y243.0421
G01 X31.0129 Y243.0089
G01 X30.9629 Y242.9781
G01 X30.9114 Y242.9498
G01 X30.8586 Y242.9241
G01 X30.8034 Y242.9028
G01 X30.7472 Y242.8842
G01 X30.6902 Y242.8684
G01 X30.6325 Y242.8555
G01 X30.5743 Y242.8454
G01 X30.5156 Y242.8381
G01 X30.4566 Y242.8338
G01 X30.3975 Y242.8323
G01 X30.3384 Y242.8338
G01 X30.2794 Y242.8381
G01 X30.2207 Y242.8454
G01 X30.1624 Y242.8555
G01 X30.1047 Y242.8684
G01 X30.0477 Y242.8842
G01 X29.9916 Y242.9028
G01 X29.9364 Y242.9241
G01 X29.8823 Y242.9480
G01 X29.8295 Y242.9746
G01 X29.7780 Y243.0038
G01 X29.7281 Y243.0354
G01 X29.6797 Y243.0695
G01 X29.6331 Y243.1058
G01 X29.5883 Y243.1445
G01 X29.5455 Y243.1852
G01 X29.5047 Y243.2281
G01 X29.4661 Y243.2729
G01 X29.4297 Y243.3195
G01 X29.3956 Y243.3678
G01 X29.3640 Y243.4178
G01 X29.3349 Y243.4692
G01 X29.3083 Y243.5221
G01 X29.2843 Y243.5761
G01 X29.2630 Y243.6313
G01 X29.2445 Y243.6875
G01 X29.2287 Y243.7445
G01 X29.2157 Y243.8022
G01 X29.2056 Y243.8604
G01 X29.1984 Y243.9191
G01 X29.1940 Y243.9781
G01 X29.1926 Y244.0372
G01 X29.1940 Y244.0964
G01 X29.1984 Y244.1553
G01 X29.2056 Y244.2140
G01 X29.2157 Y244.2723
G01 X29.2287 Y244.3300
G01 X29.2445 Y244.3870
G01 X29.2630 Y244.4431
G01 X29.2843 Y244.4983
G01 X29.3083 Y244.5524
G01 X29.3349 Y244.6052
G01 X29.3640 Y244.6567
G01 X29.3956 Y244.7066
G01 X29.4297 Y244.7550
G01 X29.4661 Y244.8016
G01 X29.5047 Y244.8464
G01 X29.5455 Y244.8892
G01 X29.5883 Y244.9300
G01 X29.6331 Y244.9686
G01 X29.6797 Y245.0050
G01 X29.7281 Y245.0391
G01 X29.7780 Y245.0707
G01 X29.8295 Y245.0999
G01 X29.8823 Y245.1264
G01 X29.9364 Y245.1504
G01 X29.9916 Y245.1717
G01 X30.0477 Y245.1902
G01 X30.1047 Y245.2060
G01 X30.1624 Y245.2190
G01 X30.2207 Y245.2291
G01 X30.2794 Y245.2363
G01 X30.3384 Y245.2407
G01 X30.3975 Y245.2421
G01 X30.4566 Y245.2407
G01 X30.5156 Y245.2363
G01 X30.5743 Y245.2291
G01 X30.6325 Y245.2190
G01 X30.6902 Y245.2060
G01 X30.7472 Y245.1902
G01 X30.8034 Y245.1717
G01 X30.8586 Y245.1504
G01 X30.9126 Y245.1264
G01 X30.9655 Y245.0999
G01 X31.0169 Y245.0707
G01 X31.0669 Y245.0391
G01 X31.1152 Y245.0050
G01 X31.1618 Y244.9686
G01 X31.2066 Y244.9300
G01 X31.2495 Y244.8892
G01 X31.2902 Y244.8464
G01 X31.3289 Y244.8016
G01 X31.3653 Y244.7550
G01 X31.3993 Y244.7066
G01 X31.4309 Y244.6567
G01 X31.4601 Y244.6052
G01 X31.4867 Y244.5524
G01 X31.5106 Y244.4983
G01 X31.5319 Y244.4431
G01 X31.5505 Y244.3870
G01 X31.5663 Y244.3300
G01 X31.5792 Y244.2723
G01 X31.5893 Y244.2140
G01 X31.5966 Y244.1553
G01 X31.6009 Y244.0964
G01 X31.6024 Y244.0372
G01 X31.5978 Y243.9322
G01 X31.5841 Y243.8280
G01 X31.5613 Y243.7254
G01 X31.5297 Y243.6251
G01 X31.4895 Y243.5280
G01 X31.4409 Y243.4348
G01 X31.3845 Y243.3461
G01 X31.3205 Y243.2627
G01 X31.2495 Y243.1852
G01 X31.1720 Y243.1142
G01 X31.0886 Y243.0502
G01 X30.9999 Y242.9938
G01 X30.9067 Y242.9452
G01 X30.8096 Y242.9050
G01 X30.7093 Y242.8734
G01 X30.6067 Y242.8506
G01 X30.5025 Y242.8369
G01 X30.3975 Y242.8323
G01 X30.2925 Y242.8369
G01 X30.1882 Y242.8506
G01 X30.0856 Y242.8734
G01 X29.9854 Y242.9050
G01 X29.8883 Y242.9452
G01 X29.7950 Y242.9938
G01 X29.7064 Y243.0502
G01 X29.6230 Y243.1142
G01 X29.5455 Y243.1852
G01 X29.4745 Y243.2627
G01 X29.4105 Y243.3461
G01 X29.3540 Y243.4348
G01 X29.3055 Y243.5280
G01 X29.2652 Y243.6251
G01 X29.2336 Y243.7254
G01 X29.2109 Y243.8280
G01 X29.1972 Y243.9322
G01 X29.1926 Y244.0372
G01 X29.1972 Y244.1422
G01 X29.2109 Y244.2465
G01 X29.2336 Y244.3491
G01 X29.2652 Y244.4493
G01 X29.3055 Y244.5464
G01 X29.3540 Y244.6397
G01 X29.4105 Y244.7283
G01 X29.4745 Y244.8117
G01 X29.5455 Y244.8892
G01 X29.6230 Y244.9602
G01 X29.7064 Y245.0242
G01 X29.7950 Y245.0807
G01 X29.8883 Y245.1292
G01 X29.9854 Y245.1695
G01 X30.0856 Y245.2011
G01 X30.1882 Y245.2238
G01 X30.2925 Y245.2375
G01 X30.3975 Y245.2421
G01 X30.5025 Y245.2375
G01 X30.6067 Y245.2238
G01 X30.7093 Y245.2011
G01 X30.8096 Y245.1695
G01 X30.9067 Y245.1292
G01 X30.9999 Y245.0807
G01 X31.0886 Y245.0242
G01 X31.1720 Y244.9602
G01 X31.2495 Y244.8892
G01 X31.3205 Y244.8117
G01 X31.3845 Y244.7283
G01 X31.4409 Y244.6397
G01 X31.4895 Y244.5464
G01 X31.5297 Y244.4493
G01 X31.5613 Y244.3491
G01 X31.5841 Y244.2465
G01 X31.5978 Y244.1422
G01 X31.6024 Y244.0372
G01 X31.5982 Y243.9411
G01 X31.5856 Y243.8458
G01 X31.5648 Y243.7519
G01 X31.5359 Y243.6602
G01 X31.4991 Y243.5713
G01 X31.4547 Y243.4860
G01 X31.4030 Y243.4049
G01 X31.3444 Y243.3286
G01 X31.2795 Y243.2577
G01 X31.2086 Y243.1927
G01 X31.1323 Y243.1342
G01 X31.0511 Y243.0825
G01 X30.9658 Y243.0381
G01 X30.8770 Y243.0013
G01 X30.7853 Y242.9723
G01 X30.6914 Y242.9515
G01 X30.5960 Y242.9390
G01 X30.4999 Y242.9348
G01 X30.4038 Y242.9390
G01 X30.3085 Y242.9515
G01 X30.2146 Y242.9723
G01 X30.1229 Y243.0013
G01 X30.0340 Y243.0381
G01 X29.9487 Y243.0825
G01 X29.8676 Y243.1342
G01 X29.7913 Y243.1927
G01 X29.7204 Y243.2577
G01 X29.6554 Y243.3286
G01 X29.5968 Y243.4049
G01 X29.5452 Y243.4860
G01 X29.5008 Y243.5713
G01 X29.4640 Y243.6602
G01 X29.4350 Y243.7519
G01 X29.4142 Y243.8458
G01 X29.4017 Y243.9411
G01 X29.3975 Y244.0372
G01 X29.3985 Y244.0834
G01 X29.4017 Y244.1295
G01 X29.4071 Y244.1754
G01 X29.4145 Y244.2210
G01 X29.4240 Y244.2662
G01 X29.4356 Y244.3109
G01 X29.4493 Y244.3550
G01 X29.4650 Y244.3985
G01 X29.4827 Y244.4412
G01 X29.5023 Y244.4830
G01 X29.5238 Y244.5238
G01 X29.5473 Y244.5637
G01 X29.5725 Y244.6024
G01 X29.5995 Y244.6399
G01 X29.6281 Y244.6761
G01 X29.6585 Y244.7109
G01 X29.6904 Y244.7443
G01 X29.7238 Y244.7762
G01 X29.7586 Y244.8066
G01 X29.7948 Y244.8352
G01 X29.8323 Y244.8622
G01 X29.8710 Y244.8874
G01 X29.9109 Y244.9109
G01 X29.9517 Y244.9324
G01 X29.9936 Y244.9520
G01 X30.0362 Y244.9697
G01 X30.0797 Y244.9854
G01 X30.1238 Y244.9991
G01 X30.1685 Y245.0107
G01 X30.2137 Y245.0202
G01 X30.2593 Y245.0276
G01 X30.3052 Y245.0330
G01 X30.3513 Y245.0362
G01 X30.3975 Y245.0372
G01 X30.4437 Y245.0362
G01 X30.4897 Y245.0330
G01 X30.5356 Y245.0276
G01 X30.5812 Y245.0202
G01 X30.6264 Y245.0107
G01 X30.6711 Y244.9991
G01 X30.7153 Y244.9854
G01 X30.7587 Y244.9697
G01 X30.8014 Y244.9520
G01 X30.8432 Y244.9324
G01 X30.8841 Y244.9109
G01 X30.9239 Y244.8874
G01 X30.9626 Y244.8622
G01 X31.0001 Y244.8352
G01 X31.0363 Y244.8066
G01 X31.0712 Y244.7762
G01 X31.1046 Y244.7443
G01 X31.1365 Y244.7109
G01 X31.1668 Y244.6761
G01 X31.1955 Y244.6399
G01 X31.2225 Y244.6024
G01 X31.2477 Y244.5637
G01 X31.2711 Y244.5238
G01 X31.2926 Y244.4830
G01 X31.3123 Y244.4412
G01 X31.3299 Y244.3985
G01 X31.3456 Y244.3550
G01 X31.3593 Y244.3109
G01 X31.3709 Y244.2662
G01 X31.3804 Y244.2210
G01 X31.3879 Y244.1754
G01 X31.3932 Y244.1295
G01 X31.3964 Y244.0834
G01 X31.3975 Y244.0372
M107
M106 S240
G01 X31.3937 Y243.9501 Z-2.7726 F400
G01 X31.3823 Y243.8636 Z-2.7951
G01 X31.3634 Y243.7784 Z-2.8177
G01 X31.3372 Y243.6952 Z-2.8403
G01 X31.3038 Y243.6146 Z-2.8628
G01 X31.2635 Y243.5372 Z-2.8854
G01 X31.2166 Y243.4637 Z-2.9080
G01 X31.1635 Y243.3944 Z-2.9306
G01 X31.1046 Y243.3301 Z-2.9531
G01 X31.0403 Y243.2712 Z-2.9757
G01 X30.9710 Y243.2181 Z-2.9983
G01 X30.8975 Y243.1712 Z-3.0208
G01 X30.8201 Y243.1309 Z-3.0434
G01 X30.7395 Y243.0975 Z-3.0660
G01 X30.6563 Y243.0713 Z-3.0885
G01 X30.5711 Y243.0524 Z-3.1111
G01 X30.4846 Y243.0410 Z-3.1337
G01 X30.3975 Y243.0372 Z-3.1563
G01 X30.3103 Y243.0410 Z-3.1788
G01 X30.2238 Y243.0524 Z-3.2014
G01 X30.1387 Y243.0713 Z-3.2240
G01 X30.0555 Y243.0975 Z-3.2465
G01 X29.9749 Y243.1309 Z-3.2691
G01 X29.8975 Y243.1712 Z-3.2917
G01 X29.8239 Y243.2181 Z-3.3142
G01 X29.7547 Y243.2712 Z-3.3368
G01 X29.6904 Y243.3301 Z-3.3594
G01 X29.6314 Y243.3944 Z-3.3819
G01 X29.5783 Y243.4637 Z-3.4045
G01 X29.5314 Y243.5372 Z-3.4271
G01 X29.4912 Y243.6146 Z-3.4497
G01 X29.4578 Y243.6952 Z-3.4722
G01 X29.4315 Y243.7784 Z-3.4948
G01 X29.4127 Y243.8636 Z-3.5174
G01 X29.4013 Y243.9501 Z-3.5399
G01 X29.3975 Y244.0372 Z-3.5625
G01 X29.4013 Y244.1244 Z-3.5851
G01 X29.4127 Y244.2109 Z-3.6076
G01 X29.4315 Y244.2961 Z-3.6302
G01 X29.4578 Y244.3793 Z-3.6528
G01 X29.4912 Y244.4598 Z-3.6753
G01 X29.5314 Y244.5372 Z-3.6979
G01 X29.5783 Y244.6108 Z-3.7205
G01 X29.6314 Y244.6800 Z-3.7431
G01 X29.6904 Y244.7443 Z-3.7656
G01 X29.7547 Y244.8033 Z-3.7882
G01 X29.8239 Y244.8564 Z-3.8108
G01 X29.8975 Y244.9033 Z-3.8333
G01 X29.9749 Y244.9435 Z-3.8559
G01 X30.0555 Y244.9769 Z-3.8785
G01 X30.1387 Y245.0032 Z-3.9010
G01 X30.2238 Y245.0220 Z-3.9236
G01 X30.3103 Y245.0334 Z-3.9462
G01 X30.3975 Y245.0372 Z-3.9688
G01 X30.4846 Y245.0334 Z-3.9913
G01 X30.5711 Y245.0220 Z-4.0139
G01 X30.6563 Y245.0032 Z-4.0365
G01 X30.7395 Y244.9769 Z-4.0590
G01 X30.8201 Y244.9435 Z-4.0816
G01 X30.8975 Y244.9033 Z-4.1042
G01 X30.9710 Y244.8564 Z-4.1267
G01 X31.0403 Y244.8033 Z-4.1493
G01 X31.1046 Y244.7443 Z-4.1719
G01 X31.1635 Y244.6800 Z-4.1944
G01 X31.2166 Y244.6108 Z-4.2170
G01 X31.2635 Y244.5372 Z-4.2396
G01 X31.3038 Y244.4598 Z-4.2622
G01 X31.3372 Y244.3793 Z-4.2847
G01 X31.3634 Y244.2961 Z-4.3073
G01 X31.3823 Y244.2109 Z-4.3299
G01 X31.3937 Y244.1244 Z-4.3524
G01 X31.3975 Y244.0372 Z-4.3750
G01 X31.3937 Y243.9501
G01 X31.3823 Y243.8636
G01 X31.3634 Y243.7784
G01 X31.3372 Y243.6952
G01 X31.3038 Y243.6146
G01 X31.2635 Y243.5372
G01 X31.2166 Y243.4637
G01 X31.1635 Y243.3944
G01 X31.1046 Y243.3301
G01 X31.0403 Y243.2712
G01 X30.9710 Y243.2181
G01 X30.8975 Y243.1712
G01 X30.8201 Y243.1309
G01 X30.7395 Y243.0975
G01 X30.6563 Y243.0713
G01 X30.5711 Y243.0524
G01 X30.4846 Y243.0410
G01 X30.3975 Y243.0372
G01 X30.3103 Y243.0410
G01 X30.2238 Y243.0524
G01 X30.1387 Y243.0713
G01 X30.0555 Y243.0975
G01 X29.9749 Y243.1309
G01 X29.8975 Y243.1712
G01 X29.8239 Y243.2181
G01 X29.7547 Y243.2712
G01 X29.6904 Y243.3301
G01 X29.6314 Y243.3944
G01 X29.5783 Y243.4637
G01 X29.5314 Y243.5372
G01 X29.4912 Y243.6146
G01 X29.4578 Y243.6952
G01 X29.4315 Y243.7784
G01 X29.4127 Y243.8636
G01 X29.4013 Y243.9501
G01 X29.3975 Y244.0372
G01 X29.4013 Y244.1244
G01 X29.4127 Y244.2109
G01 X29.4315 Y244.2961
G01 X29.4578 Y244.3793
G01 X29.4912 Y244.4598
G01 X29.5314 Y244.5372
G01 X29.5783 Y244.6108
G01 X29.6314 Y244.6800
G01 X29.6904 Y244.7443
G01 X29.7547 Y244.8033
G01 X29.8239 Y244.8564
G01 X29.8975 Y244.9033
G01 X29.9749 Y244.9435
G01 X30.0555 Y244.9769
G01 X30.1387 Y245.0032
G01 X30.2238 Y245.0220
G01 X30.3103 Y245.0334
G01 X30.3975 Y245.0372
G01 X30.4846 Y245.0334
G01 X30.5711 Y245.0220
G01 X30.6563 Y245.0032
G01 X30.7395 Y244.9769
G01 X30.8201 Y244.9435
G01 X30.8975 Y244.9033
G01 X30.9710 Y244.8564
G01 X31.0403 Y244.8033
G01 X31.1046 Y244.7443
G01 X31.1635 Y244.6800
G01 X31.2166 Y244.6108
G01 X31.2635 Y244.5372
G01 X31.3038 Y244.4598
G01 X31.3372 Y244.3793
G01 X31.3634 Y244.2961
G01 X31.3823 Y244.2109
G01 X31.3937 Y244.1244
G01 X31.3975 Y244.0372
G01 X31.4082 Y243.9856 F1000
G01 X31.4163 Y243.9336
G01 X31.4217 Y243.8811
G01 X31.4244 Y243.8285
G01 X31.4243 Y243.7758
G01 X31.4216 Y243.7232
G01 X31.4161 Y243.6707
G01 X31.4080 Y243.6187
G01 X31.3962 Y243.5627
G01 X31.3817 Y243.5074
G01 X31.3643 Y243.4529
G01 X31.3442 Y243.3993
G01 X31.3213 Y243.3469
G01 X31.2958 Y243.2957
G01 X31.2678 Y243.2459
G01 X31.2372 Y243.1975
G01 X31.1961 Y243.1555
G01 X31.1531 Y243.1155
G01 X31.1081 Y243.0777
G01 X31.0613 Y243.0421
G01 X31.0129 Y243.0089
G01 X30.9629 Y242.9781
G01 X30.9114 Y242.9498
G01 X30.8586 Y242.9241
G01 X30.8034 Y242.9028
G01 X30.7472 Y242.8842
G01 X30.6902 Y242.8684
G01 X30.6325 Y242.8555
G01 X30.5743 Y242.8454
G01 X30.5156 Y242.8381
G01 X30.4566 Y242.8338
G01 X30.3975 Y242.8323
G01 X30.3384 Y242.8338
G01 X30.2794 Y242.8381
G01 X30.2207 Y242.8454
G01 X30.1624 Y242.8555
G01 X30.1047 Y242.8684
G01 X30.0477 Y242.8842
G01 X29.9916 Y242.9028
G01 X29.9364 Y242.9241
G01 X29.8823 Y242.9480
G01 X29.8295 Y242.9746
G01 X29.7780 Y243.0038
G01 X29.7281 Y243.0354
G01 X29.6797 Y243.0695
G01 X29.6331 Y243.1058
G01 X29.5883 Y243.1445
G01 X29.5455 Y243.1852
G01 X29.5047 Y243.2281
G01 X29.4661 Y243.2729
G01 X29.4297 Y243.3195
G01 X29.3956 Y243.3678
G01 X29.3640 Y243.4178
G01 X29.3349 Y243.4692
G01 X29.3083 Y243.5221
G01 X29.2843 Y243.5761
G01 X29.2630 Y243.6313
G01 X29.2445 Y243.6875
G01 X29.2287 Y243.7445
G01 X29.2157 Y243.8022
G01 X29.2056 Y243.8604
G01 X29.1984 Y243.9191
G01 X29.1940 Y243.9781
G01 X29.1926 Y244.0372
G01 X29.1940 Y244.0964
G01 X29.1984 Y244.1553
G01 X29.2056 Y244.2140
G01 X29.2157 Y244.2723
G01 X29.2287 Y244.3300
G01 X29.2445 Y244.3870
G01 X29.2630 Y244.4431
G01 X29.2843 Y244.4983
G01 X29.3083 Y244.5524
G01 X29.3349 Y244.6052
G01 X29.3640 Y244.6567
G01 X29.3956 Y244.7066
G01 X29.4297 Y244.7550
G01 X29.4661 Y244.8016
G01 X29.5047 Y244.8464
G01 X29.5455 Y244.8892
G01 X29.5883 Y244.9300
G01 X29.6331 Y244.9686
G01 X29.6797 Y245.0050
G01 X29.7281 Y245.0391
G01 X29.7780 Y245.0707
G01 X29.8295 Y245.0999
G01 X29.8823 Y245.1264
G01 X29.9364 Y245.1504
G01 X29.9916 Y245.1717
G01 X30.0477 Y245.1902
G01 X30.1047 Y245.2060
G01 X30.1624 Y245.2190
G01 X30.2207 Y245.2291
G01 X30.2794 Y245.2363
G01 X30.3384 Y245.2407
G01 X30.3975 Y245.2421
G01 X30.4566 Y245.2407
G01 X30.5156 Y245.2363
G01 X30.5743 Y245.2291
G01 X30.6325 Y245.2190
G01 X30.6902 Y245.2060
G01 X30.7472 Y245.1902
G01 X30.8034 Y245.1717
G01 X30.8586 Y245.1504
G01 X30.9126 Y245.1264
G01 X30.9655 Y245.0999
G01 X31.0169 Y245.0707
G01 X31.0669 Y245.0391
G01 X31.1152 Y245.0050
G01 X31.1618 Y244.9686
G01 X31.2066 Y244.9300
G01 X31.2495 Y244.8892
G01 X31.2902 Y244.8464
G01 X31.3289 Y244.8016
G01 X31.3653 Y244.7550
G01 X31.3993 Y244.7066
G01 X31.4309 Y244.6567
G01 X31.4601 Y244.6052
G01 X31.4867 Y244.5524
G01 X31.5106 Y244.4983
G01 X31.5319 Y244.4431
G01 X31.5505 Y244.3870
G01 X31.5663 Y244.3300
G01 X31.5792 Y244.2723
G01 X31.5893 Y244.2140
G01 X31.5966 Y244.1553
G01 X31.6009 Y244.0964
G01 X31.6024 Y244.0372
G01 X31.5978 Y243.9322
G01 X31.5841 Y243.8280
G01 X31.5613 Y243.7254
G01 X31.5297 Y243.6251
G01 X31.4895 Y243.5280
G01 X31.4409 Y243.4348
G01 X31.3845 Y243.3461
G01 X31.3205 Y243.2627
G01 X31.2495 Y243.1852
G01 X31.1720 Y243.1142
G01 X31.0886 Y243.0502
G01 X30.9999 Y242.9938
G01 X30.9067 Y242.9452
G01 X30.8096 Y242.9050
G01 X30.7093 Y242.8734
G01 X30.6067 Y242.8506
G01 X30.5025 Y242.8369
G01 X30.3975 Y242.8323
G01 X30.2925 Y242.8369
G01 X30.1882 Y242.8506
G01 X30.0856 Y242.8734
G01 X29.9854 Y242.9050
G01 X29.8883 Y242.9452
G01 X29.7950 Y242.9938
G01 X29.7064 Y243.0502
G01 X29.6230 Y243.1142
G01 X29.5455 Y243.1852
G01 X29.4745 Y243.2627
G01 X29.4105 Y243.3461
G01 X29.3540 Y243.4348
G01 X29.3055 Y243.5280
G01 X29.2652 Y243.6251
G01 X29.2336 Y243.7254
G01 X29.2109 Y243.8280
G01 X29.1972 Y243.9322
G01 X29.1926 Y244.0372
G01 X29.1972 Y244.1422
G01 X29.2109 Y244.2465
G01 X29.2336 Y244.3491
G01 X29.2652 Y244.4493
G01 X29.3055 Y244.5464
G01 X29.3540 Y244.6397
G01 X29.4105 Y244.7283
G01 X29.4745 Y244.8117
G01 X29.5455 Y244.8892
G01 X29.6230 Y244.9602
G01 X29.7064 Y245.0242
G01 X29.7950 Y245.0807
G01 X29.8883 Y245.1292
G01 X29.9854 Y245.1695
G01 X30.0856 Y245.2011
G01 X30.1882 Y245.2238
G01 X30.2925 Y245.2375
G01 X30.3975 Y245.2421
G01 X30.5025 Y245.2375
G01 X30.6067 Y245.2238
G01 X30.7093 Y245.2011
G01 X30.8096 Y245.1695
G01 X30.9067 Y245.1292
G01 X30.9999 Y245.0807
G01 X31.0886 Y245.0242
G01 X31.1720 Y244.9602
G01 X31.2495 Y244.8892
G01 X31.3205 Y244.8117
G01 X31.3845 Y244.7283
G01 X31.4409 Y244.6397
G01 X31.4895 Y244.5464
G01 X31.5297 Y244.4493
G01 X31.5613 Y244.3491
G01 X31.5841 Y244.2465
G01 X31.5978 Y244.1422
G01 X31.6024 Y244.0372
G01 X31.5982 Y243.9411
G01 X31.5856 Y243.8458
G01 X31.5648 Y243.7519
G01 X31.5359 Y243.6602
G01 X31.4991 Y243.5713
G01 X31.4547 Y243.4860
G01 X31.4030 Y243.4049
G01 X31.3444 Y243.3286
G01 X31.2795 Y243.2577
G01 X31.2086 Y243.1927
G01 X31.1323 Y243.1342
G01 X31.0511 Y243.0825
G01 X30.9658 Y243.0381
G01 X30.8770 Y243.0013
G01 X30.7853 Y242.9723
G01 X30.6914 Y242.9515
G01 X30.5960 Y242.9390
G01 X30.4999 Y242.9348
G01 X30.4038 Y242.9390
G01 X30.3085 Y242.9515
G01 X30.2146 Y242.9723
G01 X30.1229 Y243.0013
G01 X30.0340 Y243.0381
G01 X29.9487 Y243.0825
G01 X29.8676 Y243.1342
G01 X29.7913 Y243.1927
G01 X29.7204 Y243.2577
G01 X29.6554 Y243.3286
G01 X29.5968 Y243.4049
G01 X29.5452 Y243.4860
G01 X29.5008 Y243.5713
G01 X29.4640 Y243.6602
G01 X29.4350 Y243.7519
G01 X29.4142 Y243.8458
G01 X29.4017 Y243.9411
G01 X29.3975 Y244.0372
G01 X29.3985 Y244.0834
G01 X29.4017 Y244.1295
G01 X29.4071 Y244.1754
G01 X29.4145 Y244.2210
G01 X29.4240 Y244.2662
G01 X29.4356 Y244.3109
G01 X29.4493 Y244.3550
G01 X29.4650 Y244.3985
G01 X29.4827 Y244.4412
G01 X29.5023 Y244.4830
G01 X29.5238 Y244.5238
G01 X29.5473 Y244.5637
G01 X29.5725 Y244.6024
G01 X29.5995 Y244.6399
G01 X29.6281 Y244.6761
G01 X29.6585 Y244.7109
G01 X29.6904 Y244.7443
G01 X29.7238 Y244.7762
G01 X29.7586 Y244.8066
G01 X29.7948 Y244.8352
G01 X29.8323 Y244.8622
G01 X29.8710 Y244.8874
G01 X29.9109 Y244.9109
G01 X29.9517 Y244.9324
G01 X29.9936 Y244.9520
G01 X30.0362 Y244.9697
G01 X30.0797 Y244.9854
G01 X30.1238 Y244.9991
G01 X30.1685 Y245.0107
G01 X30.2137 Y245.0202
G01 X30.2593 Y245.0276
G01 X30.3052 Y245.0330
G01 X30.3513 Y245.0362
G01 X30.3975 Y245.0372
G01 X30.4437 Y245.0362
G01 X30.4897 Y245.0330
G01 X30.5356 Y245.0276
G01 X30.5812 Y245.0202
G01 X30.6264 Y245.0107
G01 X30.6711 Y244.9991
G01 X30.7153 Y244.9854
G01 X30.7587 Y244.9697
G01 X30.8014 Y244.9520
G01 X30.8432 Y244.9324
G01 X30.8841 Y244.9109
G01 X30.9239 Y244.8874
G01 X30.9626 Y244.8622
G01 X31.0001 Y244.8352
G01 X31.0363 Y244.8066
G01 X31.0712 Y244.7762
G01 X31.1046 Y244.7443
G01 X31.1365 Y244.7109
G01 X31.1668 Y244.6761
G01 X31.1955 Y244.6399
G01 X31.2225 Y244.6024
G01 X31.2477 Y244.5637
G01 X31.2711 Y244.5238
G01 X31.2926 Y244.4830
G01 X31.3123 Y244.4412
G01 X31.3299 Y244.3985
G01 X31.3456 Y244.3550
G01 X31.3593 Y244.3109
G01 X31.3709 Y244.2662
G01 X31.3804 Y244.2210
G01 X31.3879 Y244.1754
G01 X31.3932 Y244.1295
G01 X31.3964 Y244.0834
G01 X31.3975 Y244.0372
M107
M106 S240
G01 X31.3937 Y243.9501 Z-4.3976 F400
G01 X31.3823 Y243.8636 Z-4.4201
G01 X31.3634 Y243.7784 Z-4.4427
G01 X31.3372 Y243.6952 Z-4.4653
G01 X31.3038 Y243.6146 Z-4.4878
G01 X31.2635 Y243.5372 Z-4.5104
G01 X31.2166 Y243.4637 Z-4.5330
G01 X31.1635 Y243.3944 Z-4.5556
G01 X31.1046 Y243.3301 Z-4.5781
G01 X31.0403 Y243.2712 Z-4.6007
G01 X30.9710 Y243.2181 Z-4.6233
G01 X30.8975 Y243.1712 Z-4.6458
G01 X30.8201 Y243.1309 Z-4.6684
G01 X30.7395 Y243.0975 Z-4.6910
G01 X30.6563 Y243.0713 Z-4.7135
G01 X30.5711 Y243.0524 Z-4.7361
G01 X30.4846 Y243.0410 Z-4.7587
G01 X30.3975 Y243.0372 Z-4.7813
G01 X30.3103 Y243.0410 Z-4.8038
G01 X30.2238 Y243.0524 Z-4.8264
G01 X30.1387 Y243.0713 Z-4.8490
G01 X30.0555 Y243.0975 Z-4.8715
G01 X29.9749 Y243.1309 Z-4.8941
G01 X29.8975 Y243.1712 Z-4.9167
G01 X29.8239 Y243.2181 Z-4.9392
G01 X29.7547 Y243.2712 Z-4.9618
G01 X29.6904 Y243.3301 Z-4.9844
G01 X29.6314 Y243.3944 Z-5.0069
G01 X29.5783 Y243.4637 Z-5.0295
G01 X29.5314 Y243.5372 Z-5.0521
G01 X29.4912 Y243.6146 Z-5.0747
G01 X29.4578 Y243.6952 Z-5.0972
G01 X29.4315 Y243.7784 Z-5.1198
G01 X29.4127 Y243.8636 Z-5.1424
G01 X29.4013 Y243.9501 Z-5.1649
G01 X29.3975 Y244.0372 Z-5.1875
G01 X29.4013 Y244.1244 Z-5.2101
G01 X29.4127 Y244.2109 Z-5.2326
G01 X29.4315 Y244.2961 Z-5.2552
G01 X29.4578 Y244.3793 Z-5.2778
G01 X29.4912 Y244.4598 Z-5.3003
G01 X29.5314 Y244.5372 Z-5.3229
G01 X29.5783 Y244.6108 Z-5.3455
G01 X29.6314 Y244.6800 Z-5.3681
G01 X29.6904 Y244.7443 Z-5.3906
G01 X29.7547 Y244.8033 Z-5.4132
G01 X29.8239 Y244.8564 Z-5.4358
G01 X29.8975 Y244.9033 Z-5.4583
G01 X29.9749 Y244.9435 Z-5.4809
G01 X30.0555 Y244.9769 Z-5.5035
G01 X30.1387 Y245.0032 Z-5.5260
G01 X30.2238 Y245.0220 Z-5.5486
G01 X30.3103 Y245.0334 Z-5.5712
G01 X30.3975 Y245.0372 Z-5.5938
G01 X30.4846 Y245.0334 Z-5.6163
G01 X30.5711 Y245.0220 Z-5.6389
G01 X30.6563 Y245.0032 Z-5.6615
G01 X30.7395 Y244.9769 Z-5.6840
G01 X30.8201 Y244.9435 Z-5.7066
G01 X30.8975 Y244.9033 Z-5.7292
G01 X30.9710 Y244.8564 Z-5.7517
G01 X31.0403 Y244.8033 Z-5.7743
G01 X31.1046 Y244.7443 Z-5.7969
G01 X31.1635 Y244.6800 Z-5.8194
G01 X31.2166 Y244.6108 Z-5.8420
G01 X31.2635 Y244.5372 Z-5.8646
G01 X31.3038 Y244.4598 Z-5.8872
G01 X31.3372 Y244.3793 Z-5.9097
G01 X31.3634 Y244.2961 Z-5.9323
G01 X31.3823 Y244.2109 Z-5.9549
G01 X31.3937 Y244.1244 Z-5.9774
G01 X31.3975 Y244.0372 Z-6.0000
G01 X31.3937 Y243.9501
G01 X31.3823 Y243.8636
G01 X31.3634 Y243.7784
G01 X31.3372 Y243.6952
G01 X31.3038 Y243.6146
G01 X31.2635 Y243.5372
G01 X31.2166 Y243.4637
G01 X31.1635 Y243.3944
G01 X31.1046 Y243.3301
G01 X31.0403 Y243.2712
G01 X30.9710 Y243.2181
G01 X30.8975 Y243.1712
G01 X30.8201 Y243.1309
G01 X30.7395 Y243.0975
G01 X30.6563 Y243.0713
G01 X30.5711 Y243.0524
G01 X30.4846 Y243.0410
G01 X30.3975 Y243.0372
G01 X30.3103 Y243.0410
G01 X30.2238 Y243.0524
G01 X30.1387 Y243.0713
G01 X30.0555 Y243.0975
G01 X29.9749 Y243.1309
G01 X29.8975 Y243.1712
G01 X29.8239 Y243.2181
G01 X29.7547 Y243.2712
G01 X29.6904 Y243.3301
G01 X29.6314 Y243.3944
G01 X29.5783 Y243.4637
G01 X29.5314 Y243.5372
G01 X29.4912 Y243.6146
G01 X29.4578 Y243.6952
G01 X29.4315 Y243.7784
G01 X29.4127 Y243.8636
G01 X29.4013 Y243.9501
G01 X29.3975 Y244.0372
G01 X29.4013 Y244.1244
G01 X29.4127 Y244.2109
G01 X29.4315 Y244.2961
G01 X29.4578 Y244.3793
G01 X29.4912 Y244.4598
G01 X29.5314 Y244.5372
G01 X29.5783 Y244.6108
G01 X29.6314 Y244.6800
G01 X29.6904 Y244.7443
G01 X29.7547 Y244.8033
G01 X29.8239 Y244.8564
G01 X29.8975 Y244.9033
G01 X29.9749 Y244.9435
G01 X30.0555 Y244.9769
G01 X30.1387 Y245.0032
G01 X30.2238 Y245.0220
G01 X30.3103 Y245.0334
G01 X30.3975 Y245.0372
G01 X30.4846 Y245.0334
G01 X30.5711 Y245.0220
G01 X30.6563 Y245.0032
G01 X30.7395 Y244.9769
G01 X30.8201 Y244.9435
G01 X30.8975 Y244.9033
G01 X30.9710 Y244.8564
G01 X31.0403 Y244.8033
G01 X31.1046 Y244.7443
G01 X31.1635 Y244.6800
G01 X31.2166 Y244.6108
G01 X31.2635 Y244.5372
G01 X31.3038 Y244.4598
G01 X31.3372 Y244.3793
G01 X31.3634 Y244.2961
G01 X31.3823 Y244.2109
G01 X31.3937 Y244.1244
G01 X31.3975 Y244.0372
G01 X31.4082 Y243.9856 F1000
G01 X31.4163 Y243.9336
G01 X31.4217 Y243.8811
G01 X31.4244 Y243.8285
G01 X31.4243 Y243.7758
G01 X31.4216 Y243.7232
G01 X31.4161 Y243.6707
G01 X31.4080 Y243.6187
G01 X31.3962 Y243.5627
G01 X31.3817 Y243.5074
G01 X31.3643 Y243.4529
G01 X31.3442 Y243.3993
G01 X31.3213 Y243.3469
G01 X31.2958 Y243.2957
G01 X31.2678 Y243.2459
G01 X31.2372 Y243.1975
G01 X31.1961 Y243.1555
G01 X31.1531 Y243.1155
G01 X31.1081 Y243.0777
G01 X31.0613 Y243.0421
G01 X31.0129 Y243.0089
G01 X30.9629 Y242.9781
G01 X30.9114 Y242.9498
G01 X30.8586 Y242.9241
G01 X30.8034 Y242.9028
G01 X30.7472 Y242.8842
G01 X30.6902 Y242.8684
G01 X30.6325 Y242.8555
G01 X30.5743 Y242.8454
G01 X30.5156 Y242.8381
G01 X30.4566 Y242.8338
G01 X30.3975 Y242.8323
G01 X30.3384 Y242.8338
G01 X30.2794 Y242.8381
G01 X30.2207 Y242.8454
G01 X30.1624 Y242.8555
G01 X30.1047 Y242.8684
G01 X30.0477 Y242.8842
G01 X29.9916 Y242.9028
G01 X29.9364 Y242.9241
G01 X29.8823 Y242.9480
G01 X29.8295 Y242.9746
G01 X29.7780 Y243.0038
G01 X29.7281 Y243.0354
G01 X29.6797 Y243.0695
G01 X29.6331 Y243.1058
G01 X29.5883 Y243.1445
G01 X29.5455 Y243.1852
G01 X29.5047 Y243.2281
G01 X29.4661 Y243.2729
G01 X29.4297 Y243.3195
G01 X29.3956 Y243.3678
G01 X29.3640 Y243.4178
G01 X29.3349 Y243.4692
G01 X29.3083 Y243.5221
G01 X29.2843 Y243.5761
G01 X29.2630 Y243.6313
G01 X29.2445 Y243.6875
G01 X29.2287 Y243.7445
G01 X29.2157 Y243.8022
G01 X29.2056 Y243.8604
G01 X29.1984 Y243.9191
G01 X29.1940 Y243.9781
G01 X29.1926 Y244.0372
G01 X29.1940 Y244.0964
G01 X29.1984 Y244.1553
G01 X29.2056 Y244.2140
G01 X29.2157 Y244.2723
G01 X29.2287 Y244.3300
G01 X29.2445 Y244.3870
G01 X29.2630 Y244.4431
G01 X29.2843 Y244.4983
G01 X29.3083 Y244.5524
G01 X29.3349 Y244.6052
G01 X29.3640 Y244.6567
G01 X29.3956 Y244.7066
G01 X29.4297 Y244.7550
G01 X29.4661 Y244.8016
G01 X29.5047 Y244.8464
G01 X29.5455 Y244.8892
G01 X29.5883 Y244.9300
G01 X29.6331 Y244.9686
G01 X29.6797 Y245.0050
G01 X29.7281 Y245.0391
G01 X29.7780 Y245.0707
G01 X29.8295 Y245.0999
G01 X29.8823 Y245.1264
G01 X29.9364 Y245.1504
G01 X29.9916 Y245.1717
G01 X30.0477 Y245.1902
G01 X30.1047 Y245.2060
G01 X30.1624 Y245.2190
G01 X30.2207 Y245.2291
G01 X30.2794 Y245.2363
G01 X30.3384 Y245.2407
G01 X30.3975 Y245.2421
G01 X30.4566 Y245.2407
G01 X30.5156 Y245.2363
G01 X30.5743 Y245.2291
G01 X30.6325 Y245.2190
G01 X30.6902 Y245.2060
G01 X30.7472 Y245.1902
G01 X30.8034 Y245.1717
G01 X30.8586 Y245.1504
G01 X30.9126 Y245.1264
G01 X30.9655 Y245.0999
G01 X31.0169 Y245.0707
G01 X31.0669 Y245.0391
G01 X31.1152 Y245.0050
G01 X31.1618 Y244.9686
G01 X31.2066 Y244.9300
G01 X31.2495 Y244.8892
G01 X31.2902 Y244.8464
G01 X31.3289 Y244.8016
G01 X31.3653 Y244.7550
G01 X31.3993 Y244.7066
G01 X31.4309 Y244.6567
G01 X31.4601 Y244.6052
G01 X31.4867 Y244.5524
G01 X31.5106 Y244.4983
G01 X31.5319 Y244.4431
G01 X31.5505 Y244.3870
G01 X31.5663 Y244.3300
G01 X31.5792 Y244.2723
G01 X31.5893 Y244.2140
G01 X31.5966 Y244.1553
G01 X31.6009 Y244.0964
G01 X31.6024 Y244.0372
G01 X31.5978 Y243.9322
G01 X31.5841 Y243.8280
G01 X31.5613 Y243.7254
G01 X31.5297 Y243.6251
G01 X31.4895 Y243.5280
G01 X31.4409 Y243.4348
G01 X31.3845 Y243.3461
G01 X31.3205 Y243.2627
G01 X31.2495 Y243.1852
G01 X31.1720 Y243.1142
G01 X31.0886 Y243.0502
G01 X30.9999 Y242.9938
G01 X30.9067 Y242.9452
G01 X30.8096 Y242.9050
G01 X30.7093 Y242.8734
G01 X30.6067 Y242.8506
G01 X30.5025 Y242.8369
G01 X30.3975 Y242.8323
G01 X30.2925 Y242.8369
G01 X30.1882 Y242.8506
G01 X30.0856 Y242.8734
G01 X29.9854 Y242.9050
G01 X29.8883 Y242.9452
G01 X29.7950 Y242.9938
G01 X29.7064 Y243.0502
G01 X29.6230 Y243.1142
G01 X29.5455 Y243.1852
G01 X29.4745 Y243.2627
G01 X29.4105 Y243.3461
G01 X29.3540 Y243.4348
G01 X29.3055 Y243.5280
G01 X29.2652 Y243.6251
G01 X29.2336 Y243.7254
G01 X29.2109 Y243.8280
G01 X29.1972 Y243.9322
G01 X29.1926 Y244.0372
G01 X29.1972 Y244.1422
G01 X29.2109 Y244.2465
G01 X29.2336 Y244.3491
G01 X29.2652 Y244.4493
G01 X29.3055 Y244.5464
G01 X29.3540 Y244.6397
G01 X29.4105 Y244.7283
G01 X29.4745 Y244.8117
G01 X29.5455 Y244.8892
G01 X29.6230 Y244.9602
G01 X29.7064 Y245.0242
G01 X29.7950 Y245.0807
G01 X29.8883 Y245.1292
G01 X29.9854 Y245.1695
G01 X30.0856 Y245.2011
G01 X30.1882 Y245.2238
G01 X30.2925 Y245.2375
G01 X30.3975 Y245.2421
G01 X30.5025 Y245.2375
G01 X30.6067 Y245.2238
G01 X30.7093 Y245.2011
G01 X30.8096 Y245.1695
G01 X30.9067 Y245.1292
G01 X30.9999 Y245.0807
G01 X31.0886 Y245.0242
G01 X31.1720 Y244.9602
G01 X31.2495 Y244.8892
G01 X31.3205 Y244.8117
G01 X31.3845 Y244.7283
G01 X31.4409 Y244.6397
G01 X31.4895 Y244.5464
G01 X31.5297 Y244.4493
G01 X31.5613 Y244.3491
G01 X31.5841 Y244.2465
G01 X31.5978 Y244.1422
G01 X31.6024 Y244.0372
M107
M106 S240
G01 X31.5993 Y243.9588 Z-5.9750 F400
M107
M106 S240
G01 X31.5901 Y243.8808 Z-5.9500
M107
M106 S240
G01 X31.5747 Y243.8038 Z-5.9250
M107
M106 S240
G01 X31.5534 Y243.7282 Z-5.9000
M107
M106 S240
G01 X31.5262 Y243.6545 Z-5.8750
M107
M106 S240
G01 X31.4934 Y243.5832 Z-5.8500
M107
M106 S240
G01 X31.4550 Y243.5147 Z-5.8250
M107
M106 S240
G01 X31.4114 Y243.4494 Z-5.8000
M107
M106 S240
G01 X31.3628 Y243.3878 Z-5.7750
M107
M106 S240
G01 X31.3095 Y243.3301 Z-5.7500
M107
M106 S240
G01 X31.2518 Y243.2768 Z-5.7250
M107
M106 S240
G01 X31.1901 Y243.2282 Z-5.7000
M107
M106 S240
G01 X31.1249 Y243.1846 Z-5.6750
M107
M106 S240
G01 X31.0564 Y243.1462 Z-5.6500
M107
M106 S240
G01 X30.9850 Y243.1134 Z-5.6250
M107
M106 S240
G01 X30.9114 Y243.0862 Z-5.6000
M107
M106 S240
G01 X30.8358 Y243.0649 Z-5.5750
M107
M106 S240
G01 X30.7588 Y243.0495 Z-5.5500
M107
M106 S240
G01 X30.6808 Y243.0403 Z-5.5250
M107
M106 S240
G01 X30.6024 Y243.0372 Z-5.5000
M107
G00 Z2.0000


;No. 2: Hole 3
G00 X30.0747 Y235.8350 Z2.0000
G00 Z0.5000
G01 Z0.0000 F400
G01 Z-1.8000
M106 S240
G01 X58.3496 F1000
G01 X57.4401 Y234.3350
G01 X30.0747
G01 Y232.8350
G01 X54.6132
G01 X34.4660
G01 Y231.3350
G01 X30.0747
G01 Y229.8350
G01 X34.4660
G01 Y228.3350
G01 X30.0747
G01 Y226.8350
G01 X58.6107
G01 Y225.3350
G01 X30.0747
G01 Y223.8350
G01 X58.6107
G01 Y222.3350
G01 X54.2176
G01 Y220.8350
G01 X58.6107
G01 Y219.3350
G01 X54.2176
G01 X58.6107 Y217.8350
G01 X34.0693
G01 X31.2453 Y216.3350
G01 X58.6107
G01 Y214.8350
G01 X30.3368
G01 X30.2464 Y214.8791
G01 X30.3839 Y215.2118
G01 X30.5464 Y215.5330
G01 X30.7328 Y215.8410
G01 X30.9420 Y216.1340
G01 X31.1729 Y216.4102
G01 X31.4240 Y216.6681
G01 X31.6941 Y216.9062
G01 X31.9814 Y217.1231
G01 X32.2844 Y217.3175
G01 X32.6013 Y217.4884
G01 X32.9303 Y217.6346
G01 X33.2694 Y217.7555
G01 X33.6167 Y217.8503
G01 X33.9702 Y217.9184
G01 X34.3279 Y217.9595
G01 X34.6876 Y217.9733
G01 X53.6176
G01 X53.6503 Y217.9744
G01 X53.6829 Y217.9776
G01 X53.7152 Y217.9829
G01 X53.7470 Y217.9903
G01 X53.7783 Y217.9998
G01 X53.8090 Y218.0114
G01 X53.8388 Y218.0249
G01 X53.8676 Y218.0403
G01 X53.8954 Y218.0576
G01 X53.9220 Y218.0766
G01 X53.9473 Y218.0974
G01 X53.9712 Y218.1197
G01 X53.9935 Y218.1436
G01 X54.0143 Y218.1689
G01 X54.0334 Y218.1955
G01 X54.0506 Y218.2233
G01 X54.0661 Y218.2522
G01 X54.0796 Y218.2820
G01 X54.0911 Y218.3126
G01 X54.1006 Y218.3439
G01 X54.1080 Y218.3757
G01 X54.1133 Y218.4080
G01 X54.1166 Y218.4406
G01 X54.1176 Y218.4733
G01 Y222.5385
G01 X54.1166 Y222.5712
G01 X54.1133 Y222.6037
G01 X54.1080 Y222.6360
G01 X54.1006 Y222.6679
G01 X54.0911 Y222.6992
G01 X54.0796 Y222.7298
G01 X54.0661 Y222.7596
G01 X54.0506 Y222.7885
G01 X54.0334 Y222.8162
G01 X54.0143 Y222.8428
G01 X53.9935 Y222.8681
G01 X53.9712 Y222.8920
G01 X53.9473 Y222.9144
G01 X53.9220 Y222.9351
G01 X53.8954 Y222.9542
G01 X53.8676 Y222.9715
G01 X53.8388 Y222.9869
G01 X53.8090 Y223.0004
G01 X53.7783 Y223.0119
G01 X53.7470 Y223.0214
G01 X53.7152 Y223.0288
G01 X53.6829 Y223.0342
G01 X53.6503 Y223.0374
G01 X53.6176 Y223.0385
G01 X29.9747
G01 Y237.2880
G01 X58.7092 Y237.2859
G01 X58.6810 Y236.8774
G01 X58.6174 Y236.4729
G01 X58.5190 Y236.0754
G01 X58.3864 Y235.6879
G01 X58.2207 Y235.3134
G01 X58.0231 Y234.9548
G01 X57.7952 Y234.6146
G01 X57.5385 Y234.2955
G01 X57.2552 Y233.9999
G01 X56.9472 Y233.7300
G01 X56.6170 Y233.4878
G01 X56.2670 Y233.2752
G01 X55.8998 Y233.0938
G01 X55.5184 Y232.9450
G01 X55.1254 Y232.8298
G01 X54.7239 Y232.7492
G01 X54.5432 Y232.7260
G01 X54.3618 Y232.7096
G01 X54.1799 Y232.6998
G01 X53.9978 Y232.6967
G01 X35.0660
G01 X35.0333 Y232.6956
G01 X35.0008 Y232.6924
G01 X34.9685 Y232.6870
G01 X34.9366 Y232.6796
G01 X34.9053 Y232.6701
G01 X34.8747 Y232.6586
G01 X34.8449 Y232.6451
G01 X34.8160 Y232.6297
G01 X34.7882 Y232.6124
G01 X34.7616 Y232.5933
G01 X34.7364 Y232.5726
G01 X34.7125 Y232.5502
G01 X34.6901 Y232.5263
G01 X34.6693 Y232.5010
G01 X34.6503 Y232.4744
G01 X34.6330 Y232.4467
G01 X34.6176 Y232.4178
G01 X34.6041 Y232.3880
G01 X34.5926 Y232.3574
G01 X34.5831 Y232.3261
G01 X34.5756 Y232.2942
G01 X34.5703 Y232.2619
G01 X34.5671 Y232.2294
G01 X34.5660 Y232.1967
G01 Y228.1315
G01 X34.5671 Y228.0988
G01 X34.5703 Y228.0662
G01 X34.5756 Y228.0339
G01 X34.5831 Y228.0021
G01 X34.5926 Y227.9708
G01 X34.6041 Y227.9402
G01 X34.6176 Y227.9104
G01 X34.6330 Y227.8815
G01 X34.6503 Y227.8537
G01 X34.6693 Y227.8271
G01 X34.6901 Y227.8018
G01 X34.7125 Y227.7779
G01 X34.7364 Y227.7556
G01 X34.7616 Y227.7348
G01 X34.7882 Y227.7158
G01 X34.8160 Y227.6985
G01 X34.8449 Y227.6831
G01 X34.8747 Y227.6696
G01 X34.9053 Y227.6580
G01 X34.9366 Y227.6485
G01 X34.9685 Y227.6411
G01 X35.0008 Y227.6358
G01 X35.0333 Y227.6326
G01 X35.0660 Y227.6315
G01 X58.7107
G01 Y213.3820
G01 X29.9847
G01 X30.0014 Y213.7633
G01 X30.0508 Y214.1418
G01 X30.1327 Y214.5147
G01 X30.2464 Y214.8791
G01 X30.3368 Y214.8350
M107
G00 Z2.0000


;No. 3: Hole 5
G00 X66.4165 Y235.7423 Z2.0000
G00 Z0.5000
G01 Z0.0000 F400
G01 Z-1.8000
M106 S240
G01 X94.3637 F1000
G01 X93.4020 Y234.2423
G01 X67.3481
G01 X67.3036 Y234.1435
G01 X67.1111 Y234.3589
G01 X66.9324 Y234.5859
G01 X66.7681 Y234.8235
G01 X66.6189 Y235.0709
G01 X66.4854 Y235.3271
G01 X66.3682 Y235.5911
G01 X66.2675 Y235.8619
G01 X66.1839 Y236.1384
G01 X66.1177 Y236.4196
G01 X66.0691 Y236.7044
G01 X66.0383 Y236.9916
G01 X66.0255 Y237.2802
G01 X66.0337 Y237.2880
G01 X94.7565 Y237.2864
G01 X94.7280 Y236.8721
G01 X94.6632 Y236.4620
G01 X94.5624 Y236.0592
G01 X94.4265 Y235.6668
G01 X94.2566 Y235.2879
G01 X94.0540 Y234.9255
G01 X93.8202 Y234.5823
G01 X93.5570 Y234.2610
G01 X93.2666 Y233.9642
G01 X92.9512 Y233.6942
G01 X92.6132 Y233.4530
G01 X92.2552 Y233.2425
G01 X91.8801 Y233.0644
G01 X91.4908 Y232.9200
G01 X91.0903 Y232.8105
G01 X90.6816 Y232.7367
G01 X90.5230 Y232.7190
G01 X90.3640 Y232.7065
G01 X90.2046 Y232.6990
G01 X90.0451 Y232.6966
G01 X70.7286
G01 X70.4096 Y232.7016
G01 X70.0918 Y232.7288
G01 X69.7766 Y232.7781
G01 X69.4656 Y232.8494
G01 X69.1603 Y232.9421
G01 X68.8623 Y233.0559
G01 X68.5729 Y233.1903
G01 X68.2936 Y233.3445
G01 X68.0258 Y233.5178
G01 X67.7707 Y233.7094
G01 X67.5296 Y233.9183
G01 X67.3036 Y234.1435
G01 X67.3481 Y234.2423
M107
G00 Z2.0000


;No. 4: Hole 4
G00 X66.4165 Y226.0849 Z2.0000
G00 Z0.5000
G01 Z0.0000 F400
G01 Z-1.8000
M106 S240
G01 X94.3640 F1000
G01 X93.4029 Y224.5849
G01 X67.3489
G01 X67.2920 Y224.4995
G01 X67.1002 Y224.7144
G01 X66.9224 Y224.9410
G01 X66.7592 Y225.1783
G01 X66.6112 Y225.4255
G01 X66.4791 Y225.6814
G01 X66.3634 Y225.9452
G01 X66.2645 Y226.2157
G01 X66.1828 Y226.4919
G01 X66.1187 Y226.7727
G01 X66.0723 Y227.0570
G01 X66.0440 Y227.3436
G01 X66.0337 Y227.6315
G01 X94.7565 Y227.6282
G01 X94.7286 Y227.2196
G01 X94.6653 Y226.8149
G01 X94.5671 Y226.4172
G01 X94.4347 Y226.0296
G01 X94.2691 Y225.6550
G01 X94.0716 Y225.2961
G01 X93.8436 Y224.9558
G01 X93.5870 Y224.6366
G01 X93.3035 Y224.3409
G01 X92.9955 Y224.0709
G01 X92.6651 Y223.8288
G01 X92.3150 Y223.6162
G01 X91.9477 Y223.4349
G01 X91.5660 Y223.2862
G01 X91.1729 Y223.1713
G01 X90.7712 Y223.0909
G01 X90.5905 Y223.0677
G01 X90.4091 Y223.0513
G01 X90.2272 Y223.0415
G01 X90.0451 Y223.0384
G01 X70.7280
G01 X70.4076 Y223.0437
G01 X70.0884 Y223.0714
G01 X69.7718 Y223.1214
G01 X69.4596 Y223.1934
G01 X69.1531 Y223.2872
G01 X68.8540 Y223.4021
G01 X68.5637 Y223.5378
G01 X68.2836 Y223.6935
G01 X68.0151 Y223.8684
G01 X67.7595 Y224.0616
G01 X67.5180 Y224.2724
G01 X67.2920 Y224.4995
G01 X67.3489 Y224.5849
M107
G00 Z2.0000


;No. 5: Hole 6
G00 X66.4165 Y216.4276 Z2.0000
G00 Z0.5000
G01 Z0.0000 F400
G01 Z-1.8000
M106 S240
G01 X94.3637 F1000
G01 X93.4020 Y214.9276
G01 X67.3481
G01 X67.3112 Y214.8209
G01 X67.1176 Y215.0365
G01 X66.9378 Y215.2638
G01 X66.7726 Y215.5019
G01 X66.6225 Y215.7498
G01 X66.4882 Y216.0066
G01 X66.3702 Y216.2713
G01 X66.2690 Y216.5429
G01 X66.1849 Y216.8202
G01 X66.1183 Y217.1022
G01 X66.0694 Y217.3879
G01 X66.0384 Y217.6760
G01 X66.0255 Y217.9656
G01 X66.0337 Y217.9733
G01 X94.7565 Y217.9717
G01 X94.7286 Y217.5631
G01 X94.6653 Y217.1584
G01 X94.5671 Y216.7607
G01 X94.4347 Y216.3731
G01 X94.2691 Y215.9985
G01 X94.0716 Y215.6397
G01 X93.8436 Y215.2993
G01 X93.5870 Y214.9801
G01 X93.3035 Y214.6844
G01 X92.9955 Y214.4145
G01 X92.6651 Y214.1723
G01 X92.3150 Y213.9598
G01 X91.9477 Y213.7785
G01 X91.5660 Y213.6298
G01 X91.1729 Y213.5148
G01 X90.7712 Y213.4344
G01 X90.5905 Y213.4113
G01 X90.4091 Y213.3948
G01 X90.2272 Y213.3850
G01 X90.0451 Y213.3819
G01 X70.7286 Y213.3820
G01 X70.4106 Y213.3869
G01 X70.0936 Y213.4139
G01 X69.7793 Y213.4630
G01 X69.4691 Y213.5337
G01 X69.1647 Y213.6259
G01 X68.8674 Y213.7391
G01 X68.5786 Y213.8727
G01 X68.2999 Y214.0260
G01 X68.0326 Y214.1984
G01 X67.7778 Y214.3890
G01 X67.5370 Y214.5968
G01 X67.3112 Y214.8209
G01 X67.3481 Y214.9276
M107
G00 Z2.0000


;No. 6: Hole 7
G00 X102.1710 Y214.8350 Z2.0000
G00 Z0.5000
G01 Z0.0000 F400
G01 Z-1.8000
M106 S240
G01 X106.5623 F1000
G01 Y216.3350
G01 X107.1297
G01 X102.1710
G01 Y217.8350
G01 X108.6300
G01 X110.1302 Y219.3350
G01 X103.5055
G01 X105.0059 Y220.8350
G01 X111.6305
G01 X113.1308 Y222.3350
G01 X106.5062
G01 X108.0066 Y223.8350
G01 X114.6311
G01 Y225.3350
G01 X109.2575
G01 X123.6188
G01 Y226.8350
G01 X124.8512
G01 X118.2484
G01 X119.7484 Y228.3350
G01 X126.3728
G01 X127.8728 Y229.8350
G01 X121.2484
G01 X122.7484 Y231.3350
G01 X129.3728
G01 X130.7069 Y232.8350
G01 X124.2484
G01 X125.7483 Y234.3350
G01 X130.7069
G01 Y235.8350
G01 X126.3156
M107
G00 Z2.0000
G00 X118.2484 Y225.3350
G00 Z0.5000
G01 Z-1.8000 F400
M106 S240
G01 Y223.8350 F1000
G01 X124.8728
G01 X126.3728 Y222.3350
G01 X119.7484
G01 X121.2484 Y220.8350
G01 X127.8728
G01 X129.3728 Y219.3350
G01 X122.7484
G01 X124.2484 Y217.8350
G01 X130.7070
G01 Y216.3350
G01 X125.7484
G01 X126.3156
G01 Y214.8350
G01 X130.7070
M107
G00 Z2.0000
G00 X114.6311 Y225.3350
G00 Z0.5000
G01 Z-1.8000 F400
M106 S240
G01 Y226.8350 F1000
G01 X108.0051
G01 X106.5051 Y228.3350
G01 X113.1308
G01 X111.6305 Y229.8350
G01 X105.0051
G01 X103.5051 Y231.3350
G01 X110.1302
G01 X108.6300 Y232.8350
G01 X102.1710
G01 Y234.3350
G01 X107.1297
G01 X106.5623
G01 Y235.8350
G01 X102.1710
G01 X102.0710 Y235.8331
G01 Y237.2880
G01 X106.6623
G01 Y235.1508
G01 X106.6634 Y235.1181
G01 X106.6666 Y235.0855
G01 X106.6719 Y235.0532
G01 X106.6794 Y235.0214
G01 X106.6889 Y234.9900
G01 X106.7004 Y234.9594
G01 X106.7139 Y234.9296
G01 X106.7293 Y234.9008
G01 X106.7466 Y234.8730
G01 X106.7657 Y234.8464
G01 X106.7864 Y234.8211
G01 X106.8088 Y234.7972
G01 X116.0863 Y225.5214
G01 X116.1102 Y225.4990
G01 X116.1355 Y225.4783
G01 X116.1621 Y225.4592
G01 X116.1899 Y225.4420
G01 X116.2187 Y225.4265
G01 X116.2485 Y225.4130
G01 X116.2792 Y225.4015
G01 X116.3105 Y225.3920
G01 X116.3423 Y225.3846
G01 X116.3746 Y225.3793
G01 X116.4072 Y225.3761
G01 X116.4399 Y225.3750
G01 X116.4726 Y225.3761
G01 X116.5051 Y225.3793
G01 X116.5374 Y225.3846
G01 X116.5693 Y225.3920
G01 X116.6006 Y225.4015
G01 X116.6312 Y225.4131
G01 X116.6610 Y225.4266
G01 X116.6899 Y225.4420
G01 X116.7176 Y225.4593
G01 X116.7442 Y225.4783
G01 X116.7695 Y225.4991
G01 X116.7934 Y225.5214
G01 X126.0692 Y234.7972
G01 X126.0916 Y234.8211
G01 X126.1123 Y234.8464
G01 X126.1314 Y234.8730
G01 X126.1486 Y234.9008
G01 X126.1641 Y234.9296
G01 X126.1776 Y234.9594
G01 X126.1891 Y234.9901
G01 X126.1986 Y235.0214
G01 X126.2060 Y235.0532
G01 X126.2114 Y235.0855
G01 X126.2146 Y235.1181
G01 X126.2156 Y235.1508
G01 Y237.2880
G01 X130.8069
G01 Y232.6277
G01 X126.0477 Y227.8684
G01 X125.9995 Y227.8335
G01 X125.9525 Y227.7970
G01 X125.9068 Y227.7589
G01 X125.8624 Y227.7192
G01 X123.8625 Y225.6884
G01 X123.8404 Y225.6645
G01 X123.8200 Y225.6391
G01 X123.8012 Y225.6125
G01 X123.7842 Y225.5848
G01 X123.7690 Y225.5560
G01 X123.7557 Y225.5262
G01 X123.7444 Y225.4957
G01 X123.7351 Y225.4645
G01 X123.7279 Y225.4327
G01 X123.7228 Y225.4006
G01 X123.7197 Y225.3682
G01 X123.7188 Y225.3356
G01 X123.7200 Y225.3031
G01 X123.7233 Y225.2707
G01 X123.7287 Y225.2386
G01 X123.7361 Y225.2069
G01 X123.7457 Y225.1758
G01 X123.7572 Y225.1453
G01 X123.7707 Y225.1157
G01 X123.7861 Y225.0870
G01 X123.8033 Y225.0594
G01 X123.8223 Y225.0329
G01 X123.8430 Y225.0078
G01 X123.8652 Y224.9840
G01 X130.8070 Y218.0423
G01 Y213.3820
G01 X126.2156
G01 Y215.5192
G01 X126.2146 Y215.5519
G01 X126.2114 Y215.5844
G01 X126.2060 Y215.6167
G01 X126.1986 Y215.6486
G01 X126.1891 Y215.6799
G01 X126.1776 Y215.7105
G01 X126.1641 Y215.7403
G01 X126.1487 Y215.7692
G01 X126.1314 Y215.7970
G01 X126.1123 Y215.8235
G01 X126.0916 Y215.8488
G01 X126.0692 Y215.8727
G01 X116.7934 Y225.1485
G01 X116.7695 Y225.1709
G01 X116.7442 Y225.1916
G01 X116.7176 Y225.2107
G01 X116.6899 Y225.2280
G01 X116.6610 Y225.2434
G01 X116.6312 Y225.2569
G01 X116.6006 Y225.2684
G01 X116.5693 Y225.2779
G01 X116.5374 Y225.2854
G01 X116.5051 Y225.2907
G01 X116.4726 Y225.2939
G01 X116.4399 Y225.2950
G01 X116.4072 Y225.2939
G01 X116.3746 Y225.2907
G01 X116.3423 Y225.2854
G01 X116.3105 Y225.2779
G01 X116.2792 Y225.2684
G01 X116.2485 Y225.2569
G01 X116.2187 Y225.2434
G01 X116.1899 Y225.2280
G01 X116.1621 Y225.2107
G01 X116.1355 Y225.1917
G01 X116.1102 Y225.1709
G01 X116.0863 Y225.1486
G01 X106.8088 Y215.8728
G01 X106.7864 Y215.8489
G01 X106.7657 Y215.8236
G01 X106.7466 Y215.7970
G01 X106.7293 Y215.7692
G01 X106.7139 Y215.7403
G01 X106.7004 Y215.7105
G01 X106.6889 Y215.6799
G01 X106.6794 Y215.6486
G01 X106.6719 Y215.6167
G01 X106.6666 Y215.5844
G01 X106.6634 Y215.5519
G01 X106.6623 Y215.5192
G01 Y213.3820
G01 X102.0710
G01 Y218.0422
G01 X109.0110 Y224.9805
G01 X109.0334 Y225.0044
G01 X109.0541 Y225.0297
G01 X109.0732 Y225.0563
G01 X109.0905 Y225.0841
G01 X109.1059 Y225.1129
G01 X109.1194 Y225.1427
G01 X109.1309 Y225.1734
G01 X109.1404 Y225.2047
G01 X109.1479 Y225.2365
G01 X109.1532 Y225.2688
G01 X109.1564 Y225.3014
G01 X109.1575 Y225.3341
G01 X109.1564 Y225.3668
G01 X109.1532 Y225.3994
G01 X109.1479 Y225.4316
G01 X109.1404 Y225.4635
G01 X109.1309 Y225.4948
G01 X109.1194 Y225.5254
G01 X109.1059 Y225.5552
G01 X109.0905 Y225.5841
G01 X109.0732 Y225.6119
G01 X109.0542 Y225.6385
G01 X109.0334 Y225.6638
G01 X109.0110 Y225.6877
G01 X106.8648 Y227.8339
G01 X102.0710 Y232.6277
G01 Y235.8331
G01 X102.1710 Y235.8350
M107
G00 Z2.0000


;No. 7: Hole 8
G00 X138.2200 Y235.8350 Z2.0000
G00 Z0.5000
G01 Z0.0000 F400
G01 Z-1.8000
M106 S240
G01 X142.6113 F1000
G01 Y234.3350
G01 X143.1786
G01 X138.2200
G01 Y232.8350
G01 X144.6786
G01 X146.1786 Y231.3350
G01 X139.5539
G01 X141.0537 Y229.8350
G01 X147.6786
G01 X149.1786 Y228.3350
G01 X142.5535
G01 X144.0533 Y226.8350
G01 X150.6786
G01 X152.2257 Y225.3350
G01 X145.5531
G01 X147.0529 Y223.8350
G01 X157.9214
G01 X156.4216 Y222.3350
G01 X148.5527
G01 X150.0524 Y220.8350
G01 X154.9218
G01 X154.6828
G01 Y219.3350
G01 X150.2915
G01 Y217.8350
G01 X154.6828
G01 Y216.3350
G01 X150.2915
G01 Y214.8350
G01 X154.6828
M107
G00 Z2.0000
G00 X152.7486 Y223.8350
G00 Z0.5000
G01 Z-1.8000 F400
M106 S240
G01 Y225.3350 F1000
G01 X159.4212
G01 X160.9210 Y226.8350
G01 X154.2957
G01 X155.7957 Y228.3350
G01 X162.4208
G01 X163.9205 Y229.8350
G01 X157.2957
G01 X158.7957 Y231.3350
G01 X165.4203
G01 X166.7543 Y232.8350
G01 X160.2957
G01 X161.7957 Y234.3350
G01 X166.7543
G01 Y235.8350
G01 X162.3629
G01 X162.2629 Y235.8388
G01 Y237.2880
G01 X166.8543
G01 Y232.6277
G01 X154.9292 Y220.7009
G01 X154.9069 Y220.6771
G01 X154.8861 Y220.6518
G01 X154.8670 Y220.6252
G01 X154.8498 Y220.5974
G01 X154.8344 Y220.5685
G01 X154.8208 Y220.5387
G01 X154.8093 Y220.5081
G01 X154.7998 Y220.4768
G01 X154.7924 Y220.4449
G01 X154.7871 Y220.4127
G01 X154.7839 Y220.3801
G01 X154.7828 Y220.3474
G01 Y213.3820
G01 X150.1915
G01 Y220.3474
G01 X150.1904 Y220.3801
G01 X150.1872 Y220.4127
G01 X150.1819 Y220.4449
G01 X150.1744 Y220.4768
G01 X150.1650 Y220.5081
G01 X150.1534 Y220.5387
G01 X150.1399 Y220.5685
G01 X150.1245 Y220.5974
G01 X150.1072 Y220.6252
G01 X150.0882 Y220.6518
G01 X150.0674 Y220.6771
G01 X150.0451 Y220.7009
G01 X138.1200 Y232.6277
G01 Y237.2880
G01 X142.7113
G01 Y235.1508
G01 X142.7124 Y235.1181
G01 X142.7156 Y235.0855
G01 X142.7209 Y235.0532
G01 X142.7284 Y235.0214
G01 X142.7379 Y234.9901
G01 X142.7494 Y234.9594
G01 X142.7629 Y234.9296
G01 X142.7783 Y234.9008
G01 X142.7956 Y234.8730
G01 X142.8147 Y234.8464
G01 X142.8354 Y234.8211
G01 X142.8578 Y234.7972
G01 X152.1336 Y225.5214
G01 X152.1575 Y225.4991
G01 X152.1828 Y225.4783
G01 X152.2094 Y225.4593
G01 X152.2371 Y225.4420
G01 X152.2660 Y225.4266
G01 X152.2958 Y225.4130
G01 X152.3264 Y225.4015
G01 X152.3577 Y225.3920
G01 X152.3896 Y225.3846
G01 X152.4219 Y225.3793
G01 X152.4544 Y225.3761
G01 X152.4871 Y225.3750
G01 X152.5198 Y225.3761
G01 X152.5524 Y225.3793
G01 X152.5847 Y225.3846
G01 X152.6165 Y225.3920
G01 X152.6479 Y225.4015
G01 X152.6785 Y225.4130
G01 X152.7083 Y225.4266
G01 X152.7371 Y225.4420
G01 X152.7649 Y225.4593
G01 X152.7915 Y225.4783
G01 X152.8168 Y225.4991
G01 X152.8407 Y225.5214
G01 X162.1165 Y234.7972
G01 X162.1389 Y234.8211
G01 X162.1596 Y234.8464
G01 X162.1787 Y234.8730
G01 X162.1960 Y234.9008
G01 X162.2114 Y234.9296
G01 X162.2249 Y234.9594
G01 X162.2364 Y234.9901
G01 X162.2459 Y235.0214
G01 X162.2533 Y235.0532
G01 X162.2587 Y235.0855
G01 X162.2619 Y235.1181
G01 X162.2629 Y235.1508
G01 Y235.8388
G01 X162.3629 Y235.8350
M107
G00 Z2.0000


;No. 8: Helical drill 2
G00 X168.0973 Y244.0373 Z2.0000
G00 Z0.5000
M106 S240
G01 X168.0935 Y243.9501 Z0.4774 F400
G01 X168.0821 Y243.8636 Z0.4549
G01 X168.0632 Y243.7785 Z0.4323
G01 X168.0370 Y243.6953 Z0.4097
G01 X168.0036 Y243.6147 Z0.3872
G01 X167.9633 Y243.5373 Z0.3646
G01 X167.9164 Y243.4637 Z0.3420
G01 X167.8633 Y243.3945 Z0.3194
G01 X167.8044 Y243.3302 Z0.2969
G01 X167.7401 Y243.2713 Z0.2743
G01 X167.6709 Y243.2181 Z0.2517
G01 X167.5973 Y243.1713 Z0.2292
G01 X167.5199 Y243.1310 Z0.2066
G01 X167.4393 Y243.0976 Z0.1840
G01 X167.3561 Y243.0714 Z0.1615
G01 X167.2709 Y243.0525 Z0.1389
G01 X167.1844 Y243.0411 Z0.1163
G01 X167.0973 Y243.0373 Z0.0938
G01 X167.0101 Y243.0411 Z0.0712
G01 X166.9236 Y243.0525 Z0.0486
G01 X166.8385 Y243.0714 Z0.0260
G01 X166.7553 Y243.0976 Z0.0035
G01 X166.6747 Y243.1310 Z-0.0191
G01 X166.5973 Y243.1713 Z-0.0417
G01 X166.5237 Y243.2181 Z-0.0642
G01 X166.4545 Y243.2713 Z-0.0868
G01 X166.3902 Y243.3302 Z-0.1094
G01 X166.3312 Y243.3945 Z-0.1319
G01 X166.2781 Y243.4637 Z-0.1545
G01 X166.2313 Y243.5373 Z-0.1771
G01 X166.1910 Y243.6147 Z-0.1997
G01 X166.1576 Y243.6953 Z-0.2222
G01 X166.1314 Y243.7785 Z-0.2448
G01 X166.1125 Y243.8636 Z-0.2674
G01 X166.1011 Y243.9501 Z-0.2899
G01 X166.0973 Y244.0373 Z-0.3125
G01 X166.1011 Y244.1245 Z-0.3351
G01 X166.1125 Y244.2109 Z-0.3576
G01 X166.1314 Y244.2961 Z-0.3802
G01 X166.1576 Y244.3793 Z-0.4028
G01 X166.1910 Y244.4599 Z-0.4253
G01 X166.2313 Y244.5373 Z-0.4479
G01 X166.2781 Y244.6109 Z-0.4705
G01 X166.3312 Y244.6801 Z-0.4931
G01 X166.3902 Y244.7444 Z-0.5156
G01 X166.4545 Y244.8033 Z-0.5382
G01 X166.5237 Y244.8564 Z-0.5608
G01 X166.5973 Y244.9033 Z-0.5833
G01 X166.6747 Y244.9436 Z-0.6059
G01 X166.7553 Y244.9770 Z-0.6285
G01 X166.8385 Y245.0032 Z-0.6510
G01 X166.9236 Y245.0221 Z-0.6736
G01 X167.0101 Y245.0335 Z-0.6962
G01 X167.0973 Y245.0373 Z-0.7188
G01 X167.1844 Y245.0335 Z-0.7413
G01 X167.2709 Y245.0221 Z-0.7639
G01 X167.3561 Y245.0032 Z-0.7865
G01 X167.4393 Y244.9770 Z-0.8090
G01 X167.5199 Y244.9436 Z-0.8316
G01 X167.5973 Y244.9033 Z-0.8542
G01 X167.6709 Y244.8564 Z-0.8767
G01 X167.7401 Y244.8033 Z-0.8993
G01 X167.8044 Y244.7444 Z-0.9219
G01 X167.8633 Y244.6801 Z-0.9444
G01 X167.9164 Y244.6109 Z-0.9670
G01 X167.9633 Y244.5373 Z-0.9896
G01 X168.0036 Y244.4599 Z-1.0122
G01 X168.0370 Y244.3793 Z-1.0347
G01 X168.0632 Y244.2961 Z-1.0573
G01 X168.0821 Y244.2109 Z-1.0799
G01 X168.0935 Y244.1245 Z-1.1024
G01 X168.0973 Y244.0373 Z-1.1250
G01 X168.0935 Y243.9501
G01 X168.0821 Y243.8636
G01 X168.0632 Y243.7785
G01 X168.0370 Y243.6953
G01 X168.0036 Y243.6147
G01 X167.9633 Y243.5373
G01 X167.9164 Y243.4637
G01 X167.8633 Y243.3945
G01 X167.8044 Y243.3302
G01 X167.7401 Y243.2713
G01 X167.6709 Y243.2181
G01 X167.5973 Y243.1713
G01 X167.5199 Y243.1310
G01 X167.4393 Y243.0976
G01 X167.3561 Y243.0714
G01 X167.2709 Y243.0525
G01 X167.1844 Y243.0411
G01 X167.0973 Y243.0373
G01 X167.0101 Y243.0411
G01 X166.9236 Y243.0525
G01 X166.8385 Y243.0714
G01 X166.7553 Y243.0976
G01 X166.6747 Y243.1310
G01 X166.5973 Y243.1713
G01 X166.5237 Y243.2181
G01 X166.4545 Y243.2713
G01 X166.3902 Y243.3302
G01 X166.3312 Y243.3945
G01 X166.2781 Y243.4637
G01 X166.2313 Y243.5373
G01 X166.1910 Y243.6147
G01 X166.1576 Y243.6953
G01 X166.1314 Y243.7785
G01 X166.1125 Y243.8636
G01 X166.1011 Y243.9501
G01 X166.0973 Y244.0373
G01 X166.1011 Y244.1245
G01 X166.1125 Y244.2109
G01 X166.1314 Y244.2961
G01 X166.1576 Y244.3793
G01 X166.1910 Y244.4599
G01 X166.2313 Y244.5373
G01 X166.2781 Y244.6109
G01 X166.3312 Y244.6801
G01 X166.3902 Y244.7444
G01 X166.4545 Y244.8033
G01 X166.5237 Y244.8564
G01 X166.5973 Y244.9033
G01 X166.6747 Y244.9436
G01 X166.7553 Y244.9770
G01 X166.8385 Y245.0032
G01 X166.9236 Y245.0221
G01 X167.0101 Y245.0335
G01 X167.0973 Y245.0373
G01 X167.1844 Y245.0335
G01 X167.2709 Y245.0221
G01 X167.3561 Y245.0032
G01 X167.4393 Y244.9770
G01 X167.5199 Y244.9436
G01 X167.5973 Y244.9033
G01 X167.6709 Y244.8564
G01 X167.7401 Y244.8033
G01 X167.8044 Y244.7444
G01 X167.8633 Y244.6801
G01 X167.9164 Y244.6109
G01 X167.9633 Y244.5373
G01 X168.0036 Y244.4599
G01 X168.0370 Y244.3793
G01 X168.0632 Y244.2961
G01 X168.0821 Y244.2109
G01 X168.0935 Y244.1245
G01 X168.0973 Y244.0373
G01 X168.1080 Y243.9857 F1000
G01 X168.1161 Y243.9336
G01 X168.1215 Y243.8812
G01 X168.1242 Y243.8286
G01 X168.1241 Y243.7759
G01 X168.1214 Y243.7232
G01 X168.1159 Y243.6708
G01 X168.1078 Y243.6187
G01 X168.0961 Y243.5628
G01 X168.0815 Y243.5074
G01 X168.0641 Y243.4529
G01 X168.0440 Y243.3994
G01 X168.0212 Y243.3470
G01 X167.9957 Y243.2958
G01 X167.9676 Y243.2459
G01 X167.9370 Y243.1976
G01 X167.8959 Y243.1556
G01 X167.8529 Y243.1156
G01 X167.8079 Y243.0778
G01 X167.7612 Y243.0422
G01 X167.7127 Y243.0090
G01 X167.6627 Y242.9782
G01 X167.6112 Y242.9499
G01 X167.5584 Y242.9242
G01 X167.5032 Y242.9029
G01 X167.4470 Y242.8844
G01 X167.3900 Y242.8686
G01 X167.3323 Y242.8556
G01 X167.2741 Y242.8455
G01 X167.2154 Y242.8383
G01 X167.1564 Y242.8339
G01 X167.0973 Y242.8325
G01 X167.0382 Y242.8339
G01 X166.9792 Y242.8383
G01 X166.9205 Y242.8455
G01 X166.8622 Y242.8556
G01 X166.8045 Y242.8686
G01 X166.7476 Y242.8844
G01 X166.6914 Y242.9029
G01 X166.6362 Y242.9242
G01 X166.5822 Y242.9482
G01 X166.5293 Y242.9747
G01 X166.4779 Y243.0039
G01 X166.4279 Y243.0355
G01 X166.3796 Y243.0696
G01 X166.3330 Y243.1060
G01 X166.2882 Y243.1446
G01 X166.2454 Y243.1854
G01 X166.2046 Y243.2282
G01 X166.1660 Y243.2730
G01 X166.1296 Y243.3196
G01 X166.0955 Y243.3679
G01 X166.0639 Y243.4179
G01 X166.0347 Y243.4693
G01 X166.0082 Y243.5222
G01 X165.9842 Y243.5762
G01 X165.9629 Y243.6314
G01 X165.9444 Y243.6876
G01 X165.9286 Y243.7446
G01 X165.9156 Y243.8022
G01 X165.9055 Y243.8605
G01 X165.8983 Y243.9192
G01 X165.8939 Y243.9782
G01 X165.8925 Y244.0373
G01 X165.8939 Y244.0964
G01 X165.8983 Y244.1554
G01 X165.9055 Y244.2141
G01 X165.9156 Y244.2723
G01 X165.9286 Y244.3300
G01 X165.9444 Y244.3870
G01 X165.9629 Y244.4432
G01 X165.9842 Y244.4984
G01 X166.0082 Y244.5524
G01 X166.0347 Y244.6052
G01 X166.0639 Y244.6567
G01 X166.0955 Y244.7067
G01 X166.1296 Y244.7550
G01 X166.1660 Y244.8016
G01 X166.2046 Y244.8464
G01 X166.2454 Y244.8892
G01 X166.2882 Y244.9300
G01 X166.3330 Y244.9686
G01 X166.3796 Y245.0050
G01 X166.4279 Y245.0391
G01 X166.4779 Y245.0707
G01 X166.5293 Y245.0999
G01 X166.5822 Y245.1264
G01 X166.6362 Y245.1504
G01 X166.6914 Y245.1717
G01 X166.7476 Y245.1902
G01 X166.8045 Y245.2060
G01 X166.8622 Y245.2190
G01 X166.9205 Y245.2291
G01 X166.9792 Y245.2363
G01 X167.0382 Y245.2407
G01 X167.0973 Y245.2421
G01 X167.1564 Y245.2407
G01 X167.2154 Y245.2363
G01 X167.2741 Y245.2291
G01 X167.3323 Y245.2190
G01 X167.3900 Y245.2060
G01 X167.4470 Y245.1902
G01 X167.5032 Y245.1717
G01 X167.5584 Y245.1504
G01 X167.6124 Y245.1264
G01 X167.6652 Y245.0999
G01 X167.7167 Y245.0707
G01 X167.7667 Y245.0391
G01 X167.8150 Y245.0050
G01 X167.8616 Y244.9686
G01 X167.9064 Y244.9300
G01 X167.9492 Y244.8892
G01 X167.9900 Y244.8464
G01 X168.0286 Y244.8016
G01 X168.0650 Y244.7550
G01 X168.0991 Y244.7067
G01 X168.1307 Y244.6567
G01 X168.1598 Y244.6052
G01 X168.1864 Y244.5524
G01 X168.2104 Y244.4984
G01 X168.2317 Y244.4432
G01 X168.2502 Y244.3870
G01 X168.2660 Y244.3300
G01 X168.2790 Y244.2723
G01 X168.2891 Y244.2141
G01 X168.2963 Y244.1554
G01 X168.3007 Y244.0964
G01 X168.3021 Y244.0373
G01 X168.2975 Y243.9323
G01 X168.2838 Y243.8281
G01 X168.2611 Y243.7255
G01 X168.2295 Y243.6252
G01 X168.1892 Y243.5281
G01 X168.1407 Y243.4349
G01 X168.0842 Y243.3462
G01 X168.0202 Y243.2629
G01 X167.9492 Y243.1854
G01 X167.8717 Y243.1144
G01 X167.7883 Y243.0504
G01 X167.6997 Y242.9939
G01 X167.6065 Y242.9454
G01 X167.5094 Y242.9051
G01 X167.4091 Y242.8735
G01 X167.3065 Y242.8508
G01 X167.2023 Y242.8371
G01 X167.0973 Y242.8325
G01 X166.9923 Y242.8371
G01 X166.8881 Y242.8508
G01 X166.7855 Y242.8735
G01 X166.6852 Y242.9051
G01 X166.5881 Y242.9454
G01 X166.4949 Y242.9939
G01 X166.4062 Y243.0504
G01 X166.3229 Y243.1144
G01 X166.2454 Y243.1854
G01 X166.1743 Y243.2629
G01 X166.1104 Y243.3462
G01 X166.0539 Y243.4349
G01 X166.0054 Y243.5281
G01 X165.9651 Y243.6252
G01 X165.9335 Y243.7255
G01 X165.9108 Y243.8281
G01 X165.8971 Y243.9323
G01 X165.8925 Y244.0373
G01 X165.8971 Y244.1423
G01 X165.9108 Y244.2465
G01 X165.9335 Y244.3491
G01 X165.9651 Y244.4494
G01 X166.0054 Y244.5465
G01 X166.0539 Y244.6397
G01 X166.1104 Y244.7284
G01 X166.1743 Y244.8117
G01 X166.2454 Y244.8892
G01 X166.3229 Y244.9602
G01 X166.4062 Y245.0242
G01 X166.4949 Y245.0807
G01 X166.5881 Y245.1292
G01 X166.6852 Y245.1695
G01 X166.7855 Y245.2011
G01 X166.8881 Y245.2238
G01 X166.9923 Y245.2375
G01 X167.0973 Y245.2421
G01 X167.2023 Y245.2375
G01 X167.3065 Y245.2238
G01 X167.4091 Y245.2011
G01 X167.5094 Y245.1695
G01 X167.6065 Y245.1292
G01 X167.6997 Y245.0807
G01 X167.7883 Y245.0242
G01 X167.8717 Y244.9602
G01 X167.9492 Y244.8892
G01 X168.0202 Y244.8117
G01 X168.0842 Y244.7284
G01 X168.1407 Y244.6397
G01 X168.1892 Y244.5465
G01 X168.2295 Y244.4494
G01 X168.2611 Y244.3491
G01 X168.2838 Y244.2465
G01 X168.2975 Y244.1423
G01 X168.3021 Y244.0373
G01 X168.2979 Y243.9412
G01 X168.2854 Y243.8459
G01 X168.2645 Y243.7520
G01 X168.2356 Y243.6603
G01 X168.1988 Y243.5714
G01 X168.1544 Y243.4861
G01 X168.1027 Y243.4050
G01 X168.0442 Y243.3287
G01 X167.9792 Y243.2578
G01 X167.9083 Y243.1928
G01 X167.8320 Y243.1343
G01 X167.7509 Y243.0826
G01 X167.6656 Y243.0382
G01 X167.5767 Y243.0014
G01 X167.4850 Y242.9725
G01 X167.3911 Y242.9516
G01 X167.2958 Y242.9391
G01 X167.1997 Y242.9349
G01 X167.1036 Y242.9391
G01 X167.0083 Y242.9516
G01 X166.9144 Y242.9725
G01 X166.8227 Y243.0014
G01 X166.7338 Y243.0382
G01 X166.6485 Y243.0826
G01 X166.5674 Y243.1343
G01 X166.4911 Y243.1928
G01 X166.4202 Y243.2578
G01 X166.3552 Y243.3287
G01 X166.2967 Y243.4050
G01 X166.2450 Y243.4861
G01 X166.2006 Y243.5714
G01 X166.1638 Y243.6603
G01 X166.1349 Y243.7520
G01 X166.1140 Y243.8459
G01 X166.1015 Y243.9412
G01 X166.0973 Y244.0373
G01 X166.1011 Y244.1245
G01 X166.1125 Y244.2109
G01 X166.1314 Y244.2961
G01 X166.1576 Y244.3793
G01 X166.1910 Y244.4599
G01 X166.2313 Y244.5373
G01 X166.2781 Y244.6109
G01 X166.3312 Y244.6801
G01 X166.3902 Y244.7444
G01 X166.4545 Y244.8033
G01 X166.5237 Y244.8564
G01 X166.5973 Y244.9033
G01 X166.6747 Y244.9436
G01 X166.7553 Y244.9770
G01 X166.8385 Y245.0032
G01 X166.9236 Y245.0221
G01 X167.0101 Y245.0335
G01 X167.0973 Y245.0373
G01 X167.1844 Y245.0335
G01 X167.2709 Y245.0221
G01 X167.3561 Y245.0032
G01 X167.4393 Y244.9770
G01 X167.5199 Y244.9436
G01 X167.5973 Y244.9033
G01 X167.6709 Y244.8564
G01 X167.7401 Y244.8033
G01 X167.8044 Y244.7444
G01 X167.8633 Y244.6801
G01 X167.9164 Y244.6109
G01 X167.9633 Y244.5373
G01 X168.0036 Y244.4599
G01 X168.0370 Y244.3793
G01 X168.0632 Y244.2961
G01 X168.0821 Y244.2109
G01 X168.0935 Y244.1245
G01 X168.0973 Y244.0373
M107
M106 S240
G01 X168.0935 Y243.9501 Z-1.1476 F400
G01 X168.0821 Y243.8636 Z-1.1701
G01 X168.0632 Y243.7785 Z-1.1927
G01 X168.0370 Y243.6953 Z-1.2153
G01 X168.0036 Y243.6147 Z-1.2378
G01 X167.9633 Y243.5373 Z-1.2604
G01 X167.9164 Y243.4637 Z-1.2830
G01 X167.8633 Y243.3945 Z-1.3056
G01 X167.8044 Y243.3302 Z-1.3281
G01 X167.7401 Y243.2713 Z-1.3507
G01 X167.6709 Y243.2181 Z-1.3733
G01 X167.5973 Y243.1713 Z-1.3958
G01 X167.5199 Y243.1310 Z-1.4184
G01 X167.4393 Y243.0976 Z-1.4410
G01 X167.3561 Y243.0714 Z-1.4635
G01 X167.2709 Y243.0525 Z-1.4861
G01 X167.1844 Y243.0411 Z-1.5087
G01 X167.0973 Y243.0373 Z-1.5313
G01 X167.0101 Y243.0411 Z-1.5538
G01 X166.9236 Y243.0525 Z-1.5764
G01 X166.8385 Y243.0714 Z-1.5990
G01 X166.7553 Y243.0976 Z-1.6215
G01 X166.6747 Y243.1310 Z-1.6441
G01 X166.5973 Y243.1713 Z-1.6667
G01 X166.5237 Y243.2181 Z-1.6892
G01 X166.4545 Y243.2713 Z-1.7118
G01 X166.3902 Y243.3302 Z-1.7344
G01 X166.3312 Y243.3945 Z-1.7569
G01 X166.2781 Y243.4637 Z-1.7795
G01 X166.2313 Y243.5373 Z-1.8021
G01 X166.1910 Y243.6147 Z-1.8247
G01 X166.1576 Y243.6953 Z-1.8472
G01 X166.1314 Y243.7785 Z-1.8698
G01 X166.1125 Y243.8636 Z-1.8924
G01 X166.1011 Y243.9501 Z-1.9149
G01 X166.0973 Y244.0373 Z-1.9375
G01 X166.1011 Y244.1245 Z-1.9601
G01 X166.1125 Y244.2109 Z-1.9826
G01 X166.1314 Y244.2961 Z-2.0052
G01 X166.1576 Y244.3793 Z-2.0278
G01 X166.1910 Y244.4599 Z-2.0503
G01 X166.2313 Y244.5373 Z-2.0729
G01 X166.2781 Y244.6109 Z-2.0955
G01 X166.3312 Y244.6801 Z-2.1181
G01 X166.3902 Y244.7444 Z-2.1406
G01 X166.4545 Y244.8033 Z-2.1632
G01 X166.5237 Y244.8564 Z-2.1858
G01 X166.5973 Y244.9033 Z-2.2083
G01 X166.6747 Y244.9436 Z-2.2309
G01 X166.7553 Y244.9770 Z-2.2535
G01 X166.8385 Y245.0032 Z-2.2760
G01 X166.9236 Y245.0221 Z-2.2986
G01 X167.0101 Y245.0335 Z-2.3212
G01 X167.0973 Y245.0373 Z-2.3438
G01 X167.1844 Y245.0335 Z-2.3663
G01 X167.2709 Y245.0221 Z-2.3889
G01 X167.3561 Y245.0032 Z-2.4115
G01 X167.4393 Y244.9770 Z-2.4340
G01 X167.5199 Y244.9436 Z-2.4566
G01 X167.5973 Y244.9033 Z-2.4792
G01 X167.6709 Y244.8564 Z-2.5017
G01 X167.7401 Y244.8033 Z-2.5243
G01 X167.8044 Y244.7444 Z-2.5469
G01 X167.8633 Y244.6801 Z-2.5694
G01 X167.9164 Y244.6109 Z-2.5920
G01 X167.9633 Y244.5373 Z-2.6146
G01 X168.0036 Y244.4599 Z-2.6372
G01 X168.0370 Y244.3793 Z-2.6597
G01 X168.0632 Y244.2961 Z-2.6823
G01 X168.0821 Y244.2109 Z-2.7049
G01 X168.0935 Y244.1245 Z-2.7274
G01 X168.0973 Y244.0373 Z-2.7500
G01 X168.0935 Y243.9501
G01 X168.0821 Y243.8636
G01 X168.0632 Y243.7785
G01 X168.0370 Y243.6953
G01 X168.0036 Y243.6147
G01 X167.9633 Y243.5373
G01 X167.9164 Y243.4637
G01 X167.8633 Y243.3945
G01 X167.8044 Y243.3302
G01 X167.7401 Y243.2713
G01 X167.6709 Y243.2181
G01 X167.5973 Y243.1713
G01 X167.5199 Y243.1310
G01 X167.4393 Y243.0976
G01 X167.3561 Y243.0714
G01 X167.2709 Y243.0525
G01 X167.1844 Y243.0411
G01 X167.0973 Y243.0373
G01 X167.0101 Y243.0411
G01 X166.9236 Y243.0525
G01 X166.8385 Y243.0714
G01 X166.7553 Y243.0976
G01 X166.6747 Y243.1310
G01 X166.5973 Y243.1713
G01 X166.5237 Y243.2181
G01 X166.4545 Y243.2713
G01 X166.3902 Y243.3302
G01 X166.3312 Y243.3945
G01 X166.2781 Y243.4637
G01 X166.2313 Y243.5373
G01 X166.1910 Y243.6147
G01 X166.1576 Y243.6953
G01 X166.1314 Y243.7785
G01 X166.1125 Y243.8636
G01 X166.1011 Y243.9501
G01 X166.0973 Y244.0373
G01 X166.1011 Y244.1245
G01 X166.1125 Y244.2109
G01 X166.1314 Y244.2961
G01 X166.1576 Y244.3793
G01 X166.1910 Y244.4599
G01 X166.2313 Y244.5373
G01 X166.2781 Y244.6109
G01 X166.3312 Y244.6801
G01 X166.3902 Y244.7444
G01 X166.4545 Y244.8033
G01 X166.5237 Y244.8564
G01 X166.5973 Y244.9033
G01 X166.6747 Y244.9436
G01 X166.7553 Y244.9770
G01 X166.8385 Y245.0032
G01 X166.9236 Y245.0221
G01 X167.0101 Y245.0335
G01 X167.0973 Y245.0373
G01 X167.1844 Y245.0335
G01 X167.2709 Y245.0221
G01 X167.3561 Y245.0032
G01 X167.4393 Y244.9770
G01 X167.5199 Y244.9436
G01 X167.5973 Y244.9033
G01 X167.6709 Y244.8564
G01 X167.7401 Y244.8033
G01 X167.8044 Y244.7444
G01 X167.8633 Y244.6801
G01 X167.9164 Y244.6109
G01 X167.9633 Y244.5373
G01 X168.0036 Y244.4599
G01 X168.0370 Y244.3793
G01 X168.0632 Y244.2961
G01 X168.0821 Y244.2109
G01 X168.0935 Y244.1245
G01 X168.0973 Y244.0373
G01 X168.1080 Y243.9857 F1000
G01 X168.1161 Y243.9336
G01 X168.1215 Y243.8812
G01 X168.1242 Y243.8286
G01 X168.1241 Y243.7759
G01 X168.1214 Y243.7232
G01 X168.1159 Y243.6708
G01 X168.1078 Y243.6187
G01 X168.0961 Y243.5628
G01 X168.0815 Y243.5074
G01 X168.0641 Y243.4529
G01 X168.0440 Y243.3994
G01 X168.0212 Y243.3470
G01 X167.9957 Y243.2958
G01 X167.9676 Y243.2459
G01 X167.9370 Y243.1976
G01 X167.8959 Y243.1556
G01 X167.8529 Y243.1156
G01 X167.8079 Y243.0778
G01 X167.7612 Y243.0422
G01 X167.7127 Y243.0090
G01 X167.6627 Y242.9782
G01 X167.6112 Y242.9499
G01 X167.5584 Y242.9242
G01 X167.5032 Y242.9029
G01 X167.4470 Y242.8844
G01 X167.3900 Y242.8686
G01 X167.3323 Y242.8556
G01 X167.2741 Y242.8455
G01 X167.2154 Y242.8383
G01 X167.1564 Y242.8339
G01 X167.0973 Y242.8325
G01 X167.0382 Y242.8339
G01 X166.9792 Y242.8383
G01 X166.9205 Y242.8455
G01 X166.8622 Y242.8556
G01 X166.8045 Y242.8686
G01 X166.7476 Y242.8844
G01 X166.6914 Y242.9029
G01 X166.6362 Y242.9242
G01 X166.5822 Y242.9482
G01 X166.5293 Y242.9747
G01 X166.4779 Y243.0039
G01 X166.4279 Y243.0355
G01 X166.3796 Y243.0696
G01 X166.3330 Y243.1060
G01 X166.2882 Y243.1446
G01 X166.2454 Y243.1854
G01 X166.2046 Y243.2282
G01 X166.1660 Y243.2730
G01 X166.1296 Y243.3196
G01 X166.0955 Y243.3679
G01 X166.0639 Y243.4179
G01 X166.0347 Y243.4693
G01 X166.0082 Y243.5222
G01 X165.9842 Y243.5762
G01 X165.9629 Y243.6314
G01 X165.9444 Y243.6876
G01 X165.9286 Y243.7446
G01 X165.9156 Y243.8022
G01 X165.9055 Y243.8605
G01 X165.8983 Y243.9192
G01 X165.8939 Y243.9782
G01 X165.8925 Y244.0373
G01 X165.8939 Y244.0964
G01 X165.8983 Y244.1554
G01 X165.9055 Y244.2141
G01 X165.9156 Y244.2723
G01 X165.9286 Y244.3300
G01 X165.9444 Y244.3870
G01 X165.9629 Y244.4432
G01 X165.9842 Y244.4984
G01 X166.0082 Y244.5524
G01 X166.0347 Y244.6052
G01 X166.0639 Y244.6567
G01 X166.0955 Y244.7067
G01 X166.1296 Y244.7550
G01 X166.1660 Y244.8016
G01 X166.2046 Y244.8464
G01 X166.2454 Y244.8892
G01 X166.2882 Y244.9300
G01 X166.3330 Y244.9686
G01 X166.3796 Y245.0050
G01 X166.4279 Y245.0391
G01 X166.4779 Y245.0707
G01 X166.5293 Y245.0999
G01 X166.5822 Y245.1264
G01 X166.6362 Y245.1504
G01 X166.6914 Y245.1717
G01 X166.7476 Y245.1902
G01 X166.8045 Y245.2060
G01 X166.8622 Y245.2190
G01 X166.9205 Y245.2291
G01 X166.9792 Y245.2363
G01 X167.0382 Y245.2407
G01 X167.0973 Y245.2421
G01 X167.1564 Y245.2407
G01 X167.2154 Y245.2363
G01 X167.2741 Y245.2291
G01 X167.3323 Y245.2190
G01 X167.3900 Y245.2060
G01 X167.4470 Y245.1902
G01 X167.5032 Y245.1717
G01 X167.5584 Y245.1504
G01 X167.6124 Y245.1264
G01 X167.6652 Y245.0999
G01 X167.7167 Y245.0707
G01 X167.7667 Y245.0391
G01 X167.8150 Y245.0050
G01 X167.8616 Y244.9686
G01 X167.9064 Y244.9300
G01 X167.9492 Y244.8892
G01 X167.9900 Y244.8464
G01 X168.0286 Y244.8016
G01 X168.0650 Y244.7550
G01 X168.0991 Y244.7067
G01 X168.1307 Y244.6567
G01 X168.1598 Y244.6052
G01 X168.1864 Y244.5524
G01 X168.2104 Y244.4984
G01 X168.2317 Y244.4432
G01 X168.2502 Y244.3870
G01 X168.2660 Y244.3300
G01 X168.2790 Y244.2723
G01 X168.2891 Y244.2141
G01 X168.2963 Y244.1554
G01 X168.3007 Y244.0964
G01 X168.3021 Y244.0373
G01 X168.2975 Y243.9323
G01 X168.2838 Y243.8281
G01 X168.2611 Y243.7255
G01 X168.2295 Y243.6252
G01 X168.1892 Y243.5281
G01 X168.1407 Y243.4349
G01 X168.0842 Y243.3462
G01 X168.0202 Y243.2629
G01 X167.9492 Y243.1854
G01 X167.8717 Y243.1144
G01 X167.7883 Y243.0504
G01 X167.6997 Y242.9939
G01 X167.6065 Y242.9454
G01 X167.5094 Y242.9051
G01 X167.4091 Y242.8735
G01 X167.3065 Y242.8508
G01 X167.2023 Y242.8371
G01 X167.0973 Y242.8325
G01 X166.9923 Y242.8371
G01 X166.8881 Y242.8508
G01 X166.7855 Y242.8735
G01 X166.6852 Y242.9051
G01 X166.5881 Y242.9454
G01 X166.4949 Y242.9939
G01 X166.4062 Y243.0504
G01 X166.3229 Y243.1144
G01 X166.2454 Y243.1854
G01 X166.1743 Y243.2629
G01 X166.1104 Y243.3462
G01 X166.0539 Y243.4349
G01 X166.0054 Y243.5281
G01 X165.9651 Y243.6252
G01 X165.9335 Y243.7255
G01 X165.9108 Y243.8281
G01 X165.8971 Y243.9323
G01 X165.8925 Y244.0373
G01 X165.8971 Y244.1423
G01 X165.9108 Y244.2465
G01 X165.9335 Y244.3491
G01 X165.9651 Y244.4494
G01 X166.0054 Y244.5465
G01 X166.0539 Y244.6397
G01 X166.1104 Y244.7284
G01 X166.1743 Y244.8117
G01 X166.2454 Y244.8892
G01 X166.3229 Y244.9602
G01 X166.4062 Y245.0242
G01 X166.4949 Y245.0807
G01 X166.5881 Y245.1292
G01 X166.6852 Y245.1695
G01 X166.7855 Y245.2011
G01 X166.8881 Y245.2238
G01 X166.9923 Y245.2375
G01 X167.0973 Y245.2421
G01 X167.2023 Y245.2375
G01 X167.3065 Y245.2238
G01 X167.4091 Y245.2011
G01 X167.5094 Y245.1695
G01 X167.6065 Y245.1292
G01 X167.6997 Y245.0807
G01 X167.7883 Y245.0242
G01 X167.8717 Y244.9602
G01 X167.9492 Y244.8892
G01 X168.0202 Y244.8117
G01 X168.0842 Y244.7284
G01 X168.1407 Y244.6397
G01 X168.1892 Y244.5465
G01 X168.2295 Y244.4494
G01 X168.2611 Y244.3491
G01 X168.2838 Y244.2465
G01 X168.2975 Y244.1423
G01 X168.3021 Y244.0373
G01 X168.2979 Y243.9412
G01 X168.2854 Y243.8459
G01 X168.2645 Y243.7520
G01 X168.2356 Y243.6603
G01 X168.1988 Y243.5714
G01 X168.1544 Y243.4861
G01 X168.1027 Y243.4050
G01 X168.0442 Y243.3287
G01 X167.9792 Y243.2578
G01 X167.9083 Y243.1928
G01 X167.8320 Y243.1343
G01 X167.7509 Y243.0826
G01 X167.6656 Y243.0382
G01 X167.5767 Y243.0014
G01 X167.4850 Y242.9725
G01 X167.3911 Y242.9516
G01 X167.2958 Y242.9391
G01 X167.1997 Y242.9349
G01 X167.1036 Y242.9391
G01 X167.0083 Y242.9516
G01 X166.9144 Y242.9725
G01 X166.8227 Y243.0014
G01 X166.7338 Y243.0382
G01 X166.6485 Y243.0826
G01 X166.5674 Y243.1343
G01 X166.4911 Y243.1928
G01 X166.4202 Y243.2578
G01 X166.3552 Y243.3287
G01 X166.2967 Y243.4050
G01 X166.2450 Y243.4861
G01 X166.2006 Y243.5714
G01 X166.1638 Y243.6603
G01 X166.1349 Y243.7520
G01 X166.1140 Y243.8459
G01 X166.1015 Y243.9412
G01 X166.0973 Y244.0373
G01 X166.1011 Y244.1245
G01 X166.1125 Y244.2109
G01 X166.1314 Y244.2961
G01 X166.1576 Y244.3793
G01 X166.1910 Y244.4599
G01 X166.2313 Y244.5373
G01 X166.2781 Y244.6109
G01 X166.3312 Y244.6801
G01 X166.3902 Y244.7444
G01 X166.4545 Y244.8033
G01 X166.5237 Y244.8564
G01 X166.5973 Y244.9033
G01 X166.6747 Y244.9436
G01 X166.7553 Y244.9770
G01 X166.8385 Y245.0032
G01 X166.9236 Y245.0221
G01 X167.0101 Y245.0335
G01 X167.0973 Y245.0373
G01 X167.1844 Y245.0335
G01 X167.2709 Y245.0221
G01 X167.3561 Y245.0032
G01 X167.4393 Y244.9770
G01 X167.5199 Y244.9436
G01 X167.5973 Y244.9033
G01 X167.6709 Y244.8564
G01 X167.7401 Y244.8033
G01 X167.8044 Y244.7444
G01 X167.8633 Y244.6801
G01 X167.9164 Y244.6109
G01 X167.9633 Y244.5373
G01 X168.0036 Y244.4599
G01 X168.0370 Y244.3793
G01 X168.0632 Y244.2961
G01 X168.0821 Y244.2109
G01 X168.0935 Y244.1245
G01 X168.0973 Y244.0373
M107
M106 S240
G01 X168.0935 Y243.9501 Z-2.7726 F400
G01 X168.0821 Y243.8636 Z-2.7951
G01 X168.0632 Y243.7785 Z-2.8177
G01 X168.0370 Y243.6953 Z-2.8403
G01 X168.0036 Y243.6147 Z-2.8628
G01 X167.9633 Y243.5373 Z-2.8854
G01 X167.9164 Y243.4637 Z-2.9080
G01 X167.8633 Y243.3945 Z-2.9306
G01 X167.8044 Y243.3302 Z-2.9531
G01 X167.7401 Y243.2713 Z-2.9757
G01 X167.6709 Y243.2181 Z-2.9983
G01 X167.5973 Y243.1713 Z-3.0208
G01 X167.5199 Y243.1310 Z-3.0434
G01 X167.4393 Y243.0976 Z-3.0660
G01 X167.3561 Y243.0714 Z-3.0885
G01 X167.2709 Y243.0525 Z-3.1111
G01 X167.1844 Y243.0411 Z-3.1337
G01 X167.0973 Y243.0373 Z-3.1563
G01 X167.0101 Y243.0411 Z-3.1788
G01 X166.9236 Y243.0525 Z-3.2014
G01 X166.8385 Y243.0714 Z-3.2240
G01 X166.7553 Y243.0976 Z-3.2465
G01 X166.6747 Y243.1310 Z-3.2691
G01 X166.5973 Y243.1713 Z-3.2917
G01 X166.5237 Y243.2181 Z-3.3142
G01 X166.4545 Y243.2713 Z-3.3368
G01 X166.3902 Y243.3302 Z-3.3594
G01 X166.3312 Y243.3945 Z-3.3819
G01 X166.2781 Y243.4637 Z-3.4045
G01 X166.2313 Y243.5373 Z-3.4271
G01 X166.1910 Y243.6147 Z-3.4497
G01 X166.1576 Y243.6953 Z-3.4722
G01 X166.1314 Y243.7785 Z-3.4948
G01 X166.1125 Y243.8636 Z-3.5174
G01 X166.1011 Y243.9501 Z-3.5399
G01 X166.0973 Y244.0373 Z-3.5625
G01 X166.1011 Y244.1245 Z-3.5851
G01 X166.1125 Y244.2109 Z-3.6076
G01 X166.1314 Y244.2961 Z-3.6302
G01 X166.1576 Y244.3793 Z-3.6528
G01 X166.1910 Y244.4599 Z-3.6753
G01 X166.2313 Y244.5373 Z-3.6979
G01 X166.2781 Y244.6109 Z-3.7205
G01 X166.3312 Y244.6801 Z-3.7431
G01 X166.3902 Y244.7444 Z-3.7656
G01 X166.4545 Y244.8033 Z-3.7882
G01 X166.5237 Y244.8564 Z-3.8108
G01 X166.5973 Y244.9033 Z-3.8333
G01 X166.6747 Y244.9436 Z-3.8559
G01 X166.7553 Y244.9770 Z-3.8785
G01 X166.8385 Y245.0032 Z-3.9010
G01 X166.9236 Y245.0221 Z-3.9236
G01 X167.0101 Y245.0335 Z-3.9462
G01 X167.0973 Y245.0373 Z-3.9688
G01 X167.1844 Y245.0335 Z-3.9913
G01 X167.2709 Y245.0221 Z-4.0139
G01 X167.3561 Y245.0032 Z-4.0365
G01 X167.4393 Y244.9770 Z-4.0590
G01 X167.5199 Y244.9436 Z-4.0816
G01 X167.5973 Y244.9033 Z-4.1042
G01 X167.6709 Y244.8564 Z-4.1267
G01 X167.7401 Y244.8033 Z-4.1493
G01 X167.8044 Y244.7444 Z-4.1719
G01 X167.8633 Y244.6801 Z-4.1944
G01 X167.9164 Y244.6109 Z-4.2170
G01 X167.9633 Y244.5373 Z-4.2396
G01 X168.0036 Y244.4599 Z-4.2622
G01 X168.0370 Y244.3793 Z-4.2847
G01 X168.0632 Y244.2961 Z-4.3073
G01 X168.0821 Y244.2109 Z-4.3299
G01 X168.0935 Y244.1245 Z-4.3524
G01 X168.0973 Y244.0373 Z-4.3750
G01 X168.0935 Y243.9501
G01 X168.0821 Y243.8636
G01 X168.0632 Y243.7785
G01 X168.0370 Y243.6953
G01 X168.0036 Y243.6147
G01 X167.9633 Y243.5373
G01 X167.9164 Y243.4637
G01 X167.8633 Y243.3945
G01 X167.8044 Y243.3302
G01 X167.7401 Y243.2713
G01 X167.6709 Y243.2181
G01 X167.5973 Y243.1713
G01 X167.5199 Y243.1310
G01 X167.4393 Y243.0976
G01 X167.3561 Y243.0714
G01 X167.2709 Y243.0525
G01 X167.1844 Y243.0411
G01 X167.0973 Y243.0373
G01 X167.0101 Y243.0411
G01 X166.9236 Y243.0525
G01 X166.8385 Y243.0714
G01 X166.7553 Y243.0976
G01 X166.6747 Y243.1310
G01 X166.5973 Y243.1713
G01 X166.5237 Y243.2181
G01 X166.4545 Y243.2713
G01 X166.3902 Y243.3302
G01 X166.3312 Y243.3945
G01 X166.2781 Y243.4637
G01 X166.2313 Y243.5373
G01 X166.1910 Y243.6147
G01 X166.1576 Y243.6953
G01 X166.1314 Y243.7785
G01 X166.1125 Y243.8636
G01 X166.1011 Y243.9501
G01 X166.0973 Y244.0373
G01 X166.1011 Y244.1245
G01 X166.1125 Y244.2109
G01 X166.1314 Y244.2961
G01 X166.1576 Y244.3793
G01 X166.1910 Y244.4599
G01 X166.2313 Y244.5373
G01 X166.2781 Y244.6109
G01 X166.3312 Y244.6801
G01 X166.3902 Y244.7444
G01 X166.4545 Y244.8033
G01 X166.5237 Y244.8564
G01 X166.5973 Y244.9033
G01 X166.6747 Y244.9436
G01 X166.7553 Y244.9770
G01 X166.8385 Y245.0032
G01 X166.9236 Y245.0221
G01 X167.0101 Y245.0335
G01 X167.0973 Y245.0373
G01 X167.1844 Y245.0335
G01 X167.2709 Y245.0221
G01 X167.3561 Y245.0032
G01 X167.4393 Y244.9770
G01 X167.5199 Y244.9436
G01 X167.5973 Y244.9033
G01 X167.6709 Y244.8564
G01 X167.7401 Y244.8033
G01 X167.8044 Y244.7444
G01 X167.8633 Y244.6801
G01 X167.9164 Y244.6109
G01 X167.9633 Y244.5373
G01 X168.0036 Y244.4599
G01 X168.0370 Y244.3793
G01 X168.0632 Y244.2961
G01 X168.0821 Y244.2109
G01 X168.0935 Y244.1245
G01 X168.0973 Y244.0373
G01 X168.1080 Y243.9857 F1000
G01 X168.1161 Y243.9336
G01 X168.1215 Y243.8812
G01 X168.1242 Y243.8286
G01 X168.1241 Y243.7759
G01 X168.1214 Y243.7232
G01 X168.1159 Y243.6708
G01 X168.1078 Y243.6187
G01 X168.0961 Y243.5628
G01 X168.0815 Y243.5074
G01 X168.0641 Y243.4529
G01 X168.0440 Y243.3994
G01 X168.0212 Y243.3470
G01 X167.9957 Y243.2958
G01 X167.9676 Y243.2459
G01 X167.9370 Y243.1976
G01 X167.8959 Y243.1556
G01 X167.8529 Y243.1156
G01 X167.8079 Y243.0778
G01 X167.7612 Y243.0422
G01 X167.7127 Y243.0090
G01 X167.6627 Y242.9782
G01 X167.6112 Y242.9499
G01 X167.5584 Y242.9242
G01 X167.5032 Y242.9029
G01 X167.4470 Y242.8844
G01 X167.3900 Y242.8686
G01 X167.3323 Y242.8556
G01 X167.2741 Y242.8455
G01 X167.2154 Y242.8383
G01 X167.1564 Y242.8339
G01 X167.0973 Y242.8325
G01 X167.0382 Y242.8339
G01 X166.9792 Y242.8383
G01 X166.9205 Y242.8455
G01 X166.8622 Y242.8556
G01 X166.8045 Y242.8686
G01 X166.7476 Y242.8844
G01 X166.6914 Y242.9029
G01 X166.6362 Y242.9242
G01 X166.5822 Y242.9482
G01 X166.5293 Y242.9747
G01 X166.4779 Y243.0039
G01 X166.4279 Y243.0355
G01 X166.3796 Y243.0696
G01 X166.3330 Y243.1060
G01 X166.2882 Y243.1446
G01 X166.2454 Y243.1854
G01 X166.2046 Y243.2282
G01 X166.1660 Y243.2730
G01 X166.1296 Y243.3196
G01 X166.0955 Y243.3679
G01 X166.0639 Y243.4179
G01 X166.0347 Y243.4693
G01 X166.0082 Y243.5222
G01 X165.9842 Y243.5762
G01 X165.9629 Y243.6314
G01 X165.9444 Y243.6876
G01 X165.9286 Y243.7446
G01 X165.9156 Y243.8022
G01 X165.9055 Y243.8605
G01 X165.8983 Y243.9192
G01 X165.8939 Y243.9782
G01 X165.8925 Y244.0373
G01 X165.8939 Y244.0964
G01 X165.8983 Y244.1554
G01 X165.9055 Y244.2141
G01 X165.9156 Y244.2723
G01 X165.9286 Y244.3300
G01 X165.9444 Y244.3870
G01 X165.9629 Y244.4432
G01 X165.9842 Y244.4984
G01 X166.0082 Y244.5524
G01 X166.0347 Y244.6052
G01 X166.0639 Y244.6567
G01 X166.0955 Y244.7067
G01 X166.1296 Y244.7550
G01 X166.1660 Y244.8016
G01 X166.2046 Y244.8464
G01 X166.2454 Y244.8892
G01 X166.2882 Y244.9300
G01 X166.3330 Y244.9686
G01 X166.3796 Y245.0050
G01 X166.4279 Y245.0391
G01 X166.4779 Y245.0707
G01 X166.5293 Y245.0999
G01 X166.5822 Y245.1264
G01 X166.6362 Y245.1504
G01 X166.6914 Y245.1717
G01 X166.7476 Y245.1902
G01 X166.8045 Y245.2060
G01 X166.8622 Y245.2190
G01 X166.9205 Y245.2291
G01 X166.9792 Y245.2363
G01 X167.0382 Y245.2407
G01 X167.0973 Y245.2421
G01 X167.1564 Y245.2407
G01 X167.2154 Y245.2363
G01 X167.2741 Y245.2291
G01 X167.3323 Y245.2190
G01 X167.3900 Y245.2060
G01 X167.4470 Y245.1902
G01 X167.5032 Y245.1717
G01 X167.5584 Y245.1504
G01 X167.6124 Y245.1264
G01 X167.6652 Y245.0999
G01 X167.7167 Y245.0707
G01 X167.7667 Y245.0391
G01 X167.8150 Y245.0050
G01 X167.8616 Y244.9686
G01 X167.9064 Y244.9300
G01 X167.9492 Y244.8892
G01 X167.9900 Y244.8464
G01 X168.0286 Y244.8016
G01 X168.0650 Y244.7550
G01 X168.0991 Y244.7067
G01 X168.1307 Y244.6567
G01 X168.1598 Y244.6052
G01 X168.1864 Y244.5524
G01 X168.2104 Y244.4984
G01 X168.2317 Y244.4432
G01 X168.2502 Y244.3870
G01 X168.2660 Y244.3300
G01 X168.2790 Y244.2723
G01 X168.2891 Y244.2141
G01 X168.2963 Y244.1554
G01 X168.3007 Y244.0964
G01 X168.3021 Y244.0373
G01 X168.2975 Y243.9323
G01 X168.2838 Y243.8281
G01 X168.2611 Y243.7255
G01 X168.2295 Y243.6252
G01 X168.1892 Y243.5281
G01 X168.1407 Y243.4349
G01 X168.0842 Y243.3462
G01 X168.0202 Y243.2629
G01 X167.9492 Y243.1854
G01 X167.8717 Y243.1144
G01 X167.7883 Y243.0504
G01 X167.6997 Y242.9939
G01 X167.6065 Y242.9454
G01 X167.5094 Y242.9051
G01 X167.4091 Y242.8735
G01 X167.3065 Y242.8508
G01 X167.2023 Y242.8371
G01 X167.0973 Y242.8325
G01 X166.9923 Y242.8371
G01 X166.8881 Y242.8508
G01 X166.7855 Y242.8735
G01 X166.6852 Y242.9051
G01 X166.5881 Y242.9454
G01 X166.4949 Y242.9939
G01 X166.4062 Y243.0504
G01 X166.3229 Y243.1144
G01 X166.2454 Y243.1854
G01 X166.1743 Y243.2629
G01 X166.1104 Y243.3462
G01 X166.0539 Y243.4349
G01 X166.0054 Y243.5281
G01 X165.9651 Y243.6252
G01 X165.9335 Y243.7255
G01 X165.9108 Y243.8281
G01 X165.8971 Y243.9323
G01 X165.8925 Y244.0373
G01 X165.8971 Y244.1423
G01 X165.9108 Y244.2465
G01 X165.9335 Y244.3491
G01 X165.9651 Y244.4494
G01 X166.0054 Y244.5465
G01 X166.0539 Y244.6397
G01 X166.1104 Y244.7284
G01 X166.1743 Y244.8117
G01 X166.2454 Y244.8892
G01 X166.3229 Y244.9602
G01 X166.4062 Y245.0242
G01 X166.4949 Y245.0807
G01 X166.5881 Y245.1292
G01 X166.6852 Y245.1695
G01 X166.7855 Y245.2011
G01 X166.8881 Y245.2238
G01 X166.9923 Y245.2375
G01 X167.0973 Y245.2421
G01 X167.2023 Y245.2375
G01 X167.3065 Y245.2238
G01 X167.4091 Y245.2011
G01 X167.5094 Y245.1695
G01 X167.6065 Y245.1292
G01 X167.6997 Y245.0807
G01 X167.7883 Y245.0242
G01 X167.8717 Y244.9602
G01 X167.9492 Y244.8892
G01 X168.0202 Y244.8117
G01 X168.0842 Y244.7284
G01 X168.1407 Y244.6397
G01 X168.1892 Y244.5465
G01 X168.2295 Y244.4494
G01 X168.2611 Y244.3491
G01 X168.2838 Y244.2465
G01 X168.2975 Y244.1423
G01 X168.3021 Y244.0373
G01 X168.2979 Y243.9412
G01 X168.2854 Y243.8459
G01 X168.2645 Y243.7520
G01 X168.2356 Y243.6603
G01 X168.1988 Y243.5714
G01 X168.1544 Y243.4861
G01 X168.1027 Y243.4050
G01 X168.0442 Y243.3287
G01 X167.9792 Y243.2578
G01 X167.9083 Y243.1928
G01 X167.8320 Y243.1343
G01 X167.7509 Y243.0826
G01 X167.6656 Y243.0382
G01 X167.5767 Y243.0014
G01 X167.4850 Y242.9725
G01 X167.3911 Y242.9516
G01 X167.2958 Y242.9391
G01 X167.1997 Y242.9349
G01 X167.1036 Y242.9391
G01 X167.0083 Y242.9516
G01 X166.9144 Y242.9725
G01 X166.8227 Y243.0014
G01 X166.7338 Y243.0382
G01 X166.6485 Y243.0826
G01 X166.5674 Y243.1343
G01 X166.4911 Y243.1928
G01 X166.4202 Y243.2578
G01 X166.3552 Y243.3287
G01 X166.2967 Y243.4050
G01 X166.2450 Y243.4861
G01 X166.2006 Y243.5714
G01 X166.1638 Y243.6603
G01 X166.1349 Y243.7520
G01 X166.1140 Y243.8459
G01 X166.1015 Y243.9412
G01 X166.0973 Y244.0373
G01 X166.1011 Y244.1245
G01 X166.1125 Y244.2109
G01 X166.1314 Y244.2961
G01 X166.1576 Y244.3793
G01 X166.1910 Y244.4599
G01 X166.2313 Y244.5373
G01 X166.2781 Y244.6109
G01 X166.3312 Y244.6801
G01 X166.3902 Y244.7444
G01 X166.4545 Y244.8033
G01 X166.5237 Y244.8564
G01 X166.5973 Y244.9033
G01 X166.6747 Y244.9436
G01 X166.7553 Y244.9770
G01 X166.8385 Y245.0032
G01 X166.9236 Y245.0221
G01 X167.0101 Y245.0335
G01 X167.0973 Y245.0373
G01 X167.1844 Y245.0335
G01 X167.2709 Y245.0221
G01 X167.3561 Y245.0032
G01 X167.4393 Y244.9770
G01 X167.5199 Y244.9436
G01 X167.5973 Y244.9033
G01 X167.6709 Y244.8564
G01 X167.7401 Y244.8033
G01 X167.8044 Y244.7444
G01 X167.8633 Y244.6801
G01 X167.9164 Y244.6109
G01 X167.9633 Y244.5373
G01 X168.0036 Y244.4599
G01 X168.0370 Y244.3793
G01 X168.0632 Y244.2961
G01 X168.0821 Y244.2109
G01 X168.0935 Y244.1245
G01 X168.0973 Y244.0373
M107
M106 S240
G01 X168.0935 Y243.9501 Z-4.3976 F400
G01 X168.0821 Y243.8636 Z-4.4201
G01 X168.0632 Y243.7785 Z-4.4427
G01 X168.0370 Y243.6953 Z-4.4653
G01 X168.0036 Y243.6147 Z-4.4878
G01 X167.9633 Y243.5373 Z-4.5104
G01 X167.9164 Y243.4637 Z-4.5330
G01 X167.8633 Y243.3945 Z-4.5556
G01 X167.8044 Y243.3302 Z-4.5781
G01 X167.7401 Y243.2713 Z-4.6007
G01 X167.6709 Y243.2181 Z-4.6233
G01 X167.5973 Y243.1713 Z-4.6458
G01 X167.5199 Y243.1310 Z-4.6684
G01 X167.4393 Y243.0976 Z-4.6910
G01 X167.3561 Y243.0714 Z-4.7135
G01 X167.2709 Y243.0525 Z-4.7361
G01 X167.1844 Y243.0411 Z-4.7587
G01 X167.0973 Y243.0373 Z-4.7813
G01 X167.0101 Y243.0411 Z-4.8038
G01 X166.9236 Y243.0525 Z-4.8264
G01 X166.8385 Y243.0714 Z-4.8490
G01 X166.7553 Y243.0976 Z-4.8715
G01 X166.6747 Y243.1310 Z-4.8941
G01 X166.5973 Y243.1713 Z-4.9167
G01 X166.5237 Y243.2181 Z-4.9392
G01 X166.4545 Y243.2713 Z-4.9618
G01 X166.3902 Y243.3302 Z-4.9844
G01 X166.3312 Y243.3945 Z-5.0069
G01 X166.2781 Y243.4637 Z-5.0295
G01 X166.2313 Y243.5373 Z-5.0521
G01 X166.1910 Y243.6147 Z-5.0747
G01 X166.1576 Y243.6953 Z-5.0972
G01 X166.1314 Y243.7785 Z-5.1198
G01 X166.1125 Y243.8636 Z-5.1424
G01 X166.1011 Y243.9501 Z-5.1649
G01 X166.0973 Y244.0373 Z-5.1875
G01 X166.1011 Y244.1245 Z-5.2101
G01 X166.1125 Y244.2109 Z-5.2326
G01 X166.1314 Y244.2961 Z-5.2552
G01 X166.1576 Y244.3793 Z-5.2778
G01 X166.1910 Y244.4599 Z-5.3003
G01 X166.2313 Y244.5373 Z-5.3229
G01 X166.2781 Y244.6109 Z-5.3455
G01 X166.3312 Y244.6801 Z-5.3681
G01 X166.3902 Y244.7444 Z-5.3906
G01 X166.4545 Y244.8033 Z-5.4132
G01 X166.5237 Y244.8564 Z-5.4358
G01 X166.5973 Y244.9033 Z-5.4583
G01 X166.6747 Y244.9436 Z-5.4809
G01 X166.7553 Y244.9770 Z-5.5035
G01 X166.8385 Y245.0032 Z-5.5260
G01 X166.9236 Y245.0221 Z-5.5486
G01 X167.0101 Y245.0335 Z-5.5712
G01 X167.0973 Y245.0373 Z-5.5938
G01 X167.1844 Y245.0335 Z-5.6163
G01 X167.2709 Y245.0221 Z-5.6389
G01 X167.3561 Y245.0032 Z-5.6615
G01 X167.4393 Y244.9770 Z-5.6840
G01 X167.5199 Y244.9436 Z-5.7066
G01 X167.5973 Y244.9033 Z-5.7292
G01 X167.6709 Y244.8564 Z-5.7517
G01 X167.7401 Y244.8033 Z-5.7743
G01 X167.8044 Y244.7444 Z-5.7969
G01 X167.8633 Y244.6801 Z-5.8194
G01 X167.9164 Y244.6109 Z-5.8420
G01 X167.9633 Y244.5373 Z-5.8646
G01 X168.0036 Y244.4599 Z-5.8872
G01 X168.0370 Y244.3793 Z-5.9097
G01 X168.0632 Y244.2961 Z-5.9323
G01 X168.0821 Y244.2109 Z-5.9549
G01 X168.0935 Y244.1245 Z-5.9774
G01 X168.0973 Y244.0373 Z-6.0000
G01 X168.0935 Y243.9501
G01 X168.0821 Y243.8636
G01 X168.0632 Y243.7785
G01 X168.0370 Y243.6953
G01 X168.0036 Y243.6147
G01 X167.9633 Y243.5373
G01 X167.9164 Y243.4637
G01 X167.8633 Y243.3945
G01 X167.8044 Y243.3302
G01 X167.7401 Y243.2713
G01 X167.6709 Y243.2181
G01 X167.5973 Y243.1713
G01 X167.5199 Y243.1310
G01 X167.4393 Y243.0976
G01 X167.3561 Y243.0714
G01 X167.2709 Y243.0525
G01 X167.1844 Y243.0411
G01 X167.0973 Y243.0373
G01 X167.0101 Y243.0411
G01 X166.9236 Y243.0525
G01 X166.8385 Y243.0714
G01 X166.7553 Y243.0976
G01 X166.6747 Y243.1310
G01 X166.5973 Y243.1713
G01 X166.5237 Y243.2181
G01 X166.4545 Y243.2713
G01 X166.3902 Y243.3302
G01 X166.3312 Y243.3945
G01 X166.2781 Y243.4637
G01 X166.2313 Y243.5373
G01 X166.1910 Y243.6147
G01 X166.1576 Y243.6953
G01 X166.1314 Y243.7785
G01 X166.1125 Y243.8636
G01 X166.1011 Y243.9501
G01 X166.0973 Y244.0373
G01 X166.1011 Y244.1245
G01 X166.1125 Y244.2109
G01 X166.1314 Y244.2961
G01 X166.1576 Y244.3793
G01 X166.1910 Y244.4599
G01 X166.2313 Y244.5373
G01 X166.2781 Y244.6109
G01 X166.3312 Y244.6801
G01 X166.3902 Y244.7444
G01 X166.4545 Y244.8033
G01 X166.5237 Y244.8564
G01 X166.5973 Y244.9033
G01 X166.6747 Y244.9436
G01 X166.7553 Y244.9770
G01 X166.8385 Y245.0032
G01 X166.9236 Y245.0221
G01 X167.0101 Y245.0335
G01 X167.0973 Y245.0373
G01 X167.1844 Y245.0335
G01 X167.2709 Y245.0221
G01 X167.3561 Y245.0032
G01 X167.4393 Y244.9770
G01 X167.5199 Y244.9436
G01 X167.5973 Y244.9033
G01 X167.6709 Y244.8564
G01 X167.7401 Y244.8033
G01 X167.8044 Y244.7444
G01 X167.8633 Y244.6801
G01 X167.9164 Y244.6109
G01 X167.9633 Y244.5373
G01 X168.0036 Y244.4599
G01 X168.0370 Y244.3793
G01 X168.0632 Y244.2961
G01 X168.0821 Y244.2109
G01 X168.0935 Y244.1245
G01 X168.0973 Y244.0373
G01 X168.1080 Y243.9857 F1000
G01 X168.1161 Y243.9336
G01 X168.1215 Y243.8812
G01 X168.1242 Y243.8286
G01 X168.1241 Y243.7759
G01 X168.1214 Y243.7232
G01 X168.1159 Y243.6708
G01 X168.1078 Y243.6187
G01 X168.0961 Y243.5628
G01 X168.0815 Y243.5074
G01 X168.0641 Y243.4529
G01 X168.0440 Y243.3994
G01 X168.0212 Y243.3470
G01 X167.9957 Y243.2958
G01 X167.9676 Y243.2459
G01 X167.9370 Y243.1976
G01 X167.8959 Y243.1556
G01 X167.8529 Y243.1156
G01 X167.8079 Y243.0778
G01 X167.7612 Y243.0422
G01 X167.7127 Y243.0090
G01 X167.6627 Y242.9782
G01 X167.6112 Y242.9499
G01 X167.5584 Y242.9242
G01 X167.5032 Y242.9029
G01 X167.4470 Y242.8844
G01 X167.3900 Y242.8686
G01 X167.3323 Y242.8556
G01 X167.2741 Y242.8455
G01 X167.2154 Y242.8383
G01 X167.1564 Y242.8339
G01 X167.0973 Y242.8325
G01 X167.0382 Y242.8339
G01 X166.9792 Y242.8383
G01 X166.9205 Y242.8455
G01 X166.8622 Y242.8556
G01 X166.8045 Y242.8686
G01 X166.7476 Y242.8844
G01 X166.6914 Y242.9029
G01 X166.6362 Y242.9242
G01 X166.5822 Y242.9482
G01 X166.5293 Y242.9747
G01 X166.4779 Y243.0039
G01 X166.4279 Y243.0355
G01 X166.3796 Y243.0696
G01 X166.3330 Y243.1060
G01 X166.2882 Y243.1446
G01 X166.2454 Y243.1854
G01 X166.2046 Y243.2282
G01 X166.1660 Y243.2730
G01 X166.1296 Y243.3196
G01 X166.0955 Y243.3679
G01 X166.0639 Y243.4179
G01 X166.0347 Y243.4693
G01 X166.0082 Y243.5222
G01 X165.9842 Y243.5762
G01 X165.9629 Y243.6314
G01 X165.9444 Y243.6876
G01 X165.9286 Y243.7446
G01 X165.9156 Y243.8022
G01 X165.9055 Y243.8605
G01 X165.8983 Y243.9192
G01 X165.8939 Y243.9782
G01 X165.8925 Y244.0373
G01 X165.8939 Y244.0964
G01 X165.8983 Y244.1554
G01 X165.9055 Y244.2141
G01 X165.9156 Y244.2723
G01 X165.9286 Y244.3300
G01 X165.9444 Y244.3870
G01 X165.9629 Y244.4432
G01 X165.9842 Y244.4984
G01 X166.0082 Y244.5524
G01 X166.0347 Y244.6052
G01 X166.0639 Y244.6567
G01 X166.0955 Y244.7067
G01 X166.1296 Y244.7550
G01 X166.1660 Y244.8016
G01 X166.2046 Y244.8464
G01 X166.2454 Y244.8892
G01 X166.2882 Y244.9300
G01 X166.3330 Y244.9686
G01 X166.3796 Y245.0050
G01 X166.4279 Y245.0391
G01 X166.4779 Y245.0707
G01 X166.5293 Y245.0999
G01 X166.5822 Y245.1264
G01 X166.6362 Y245.1504
G01 X166.6914 Y245.1717
G01 X166.7476 Y245.1902
G01 X166.8045 Y245.2060
G01 X166.8622 Y245.2190
G01 X166.9205 Y245.2291
G01 X166.9792 Y245.2363
G01 X167.0382 Y245.2407
G01 X167.0973 Y245.2421
G01 X167.1564 Y245.2407
G01 X167.2154 Y245.2363
G01 X167.2741 Y245.2291
G01 X167.3323 Y245.2190
G01 X167.3900 Y245.2060
G01 X167.4470 Y245.1902
G01 X167.5032 Y245.1717
G01 X167.5584 Y245.1504
G01 X167.6124 Y245.1264
G01 X167.6652 Y245.0999
G01 X167.7167 Y245.0707
G01 X167.7667 Y245.0391
G01 X167.8150 Y245.0050
G01 X167.8616 Y244.9686
G01 X167.9064 Y244.9300
G01 X167.9492 Y244.8892
G01 X167.9900 Y244.8464
G01 X168.0286 Y244.8016
G01 X168.0650 Y244.7550
G01 X168.0991 Y244.7067
G01 X168.1307 Y244.6567
G01 X168.1598 Y244.6052
G01 X168.1864 Y244.5524
G01 X168.2104 Y244.4984
G01 X168.2317 Y244.4432
G01 X168.2502 Y244.3870
G01 X168.2660 Y244.3300
G01 X168.2790 Y244.2723
G01 X168.2891 Y244.2141
G01 X168.2963 Y244.1554
G01 X168.3007 Y244.0964
G01 X168.3021 Y244.0373
G01 X168.2975 Y243.9323
G01 X168.2838 Y243.8281
G01 X168.2611 Y243.7255
G01 X168.2295 Y243.6252
G01 X168.1892 Y243.5281
G01 X168.1407 Y243.4349
G01 X168.0842 Y243.3462
G01 X168.0202 Y243.2629
G01 X167.9492 Y243.1854
G01 X167.8717 Y243.1144
G01 X167.7883 Y243.0504
G01 X167.6997 Y242.9939
G01 X167.6065 Y242.9454
G01 X167.5094 Y242.9051
G01 X167.4091 Y242.8735
G01 X167.3065 Y242.8508
G01 X167.2023 Y242.8371
G01 X167.0973 Y242.8325
G01 X166.9923 Y242.8371
G01 X166.8881 Y242.8508
G01 X166.7855 Y242.8735
G01 X166.6852 Y242.9051
G01 X166.5881 Y242.9454
G01 X166.4949 Y242.9939
G01 X166.4062 Y243.0504
G01 X166.3229 Y243.1144
G01 X166.2454 Y243.1854
G01 X166.1743 Y243.2629
G01 X166.1104 Y243.3462
G01 X166.0539 Y243.4349
G01 X166.0054 Y243.5281
G01 X165.9651 Y243.6252
G01 X165.9335 Y243.7255
G01 X165.9108 Y243.8281
G01 X165.8971 Y243.9323
G01 X165.8925 Y244.0373
G01 X165.8971 Y244.1423
G01 X165.9108 Y244.2465
G01 X165.9335 Y244.3491
G01 X165.9651 Y244.4494
G01 X166.0054 Y244.5465
G01 X166.0539 Y244.6397
G01 X166.1104 Y244.7284
G01 X166.1743 Y244.8117
G01 X166.2454 Y244.8892
G01 X166.3229 Y244.9602
G01 X166.4062 Y245.0242
G01 X166.4949 Y245.0807
G01 X166.5881 Y245.1292
G01 X166.6852 Y245.1695
G01 X166.7855 Y245.2011
G01 X166.8881 Y245.2238
G01 X166.9923 Y245.2375
G01 X167.0973 Y245.2421
G01 X167.2023 Y245.2375
G01 X167.3065 Y245.2238
G01 X167.4091 Y245.2011
G01 X167.5094 Y245.1695
G01 X167.6065 Y245.1292
G01 X167.6997 Y245.0807
G01 X167.7883 Y245.0242
G01 X167.8717 Y244.9602
G01 X167.9492 Y244.8892
G01 X168.0202 Y244.8117
G01 X168.0842 Y244.7284
G01 X168.1407 Y244.6397
G01 X168.1892 Y244.5465
G01 X168.2295 Y244.4494
G01 X168.2611 Y244.3491
G01 X168.2838 Y244.2465
G01 X168.2975 Y244.1423
G01 X168.3021 Y244.0373
M107
M106 S240
G01 X168.2990 Y243.9588 Z-5.9750 F400
M107
M106 S240
G01 X168.2898 Y243.8809 Z-5.9500
M107
M106 S240
G01 X168.2745 Y243.8039 Z-5.9250
M107
M106 S240
G01 X168.2532 Y243.7283 Z-5.9000
M107
M106 S240
G01 X168.2260 Y243.6546 Z-5.8750
M107
