;Project TeslaParkingV3_Schiefer_kleiner
;Created by Estlcam version 11 build 11,227
;Machining time about 00:16:05 hours

G90
M03 S18000
G00 X0.0000 Y0.0000 Z0.0000
G00 Z2.0000


;No. 1: Helical drill 1
G00 X36.6235 Y253.2237
G00 Z0.5000
M106 S240
G01 X36.6197 Y253.1366 Z0.4705 F400 S18000
G01 X36.6084 Y253.0501 Z0.4410
G01 X36.5895 Y252.9649 Z0.4115
G01 X36.5632 Y252.8817 Z0.3819
G01 X36.5299 Y252.8011 Z0.3524
G01 X36.4896 Y252.7237 Z0.3229
G01 X36.4427 Y252.6502 Z0.2934
G01 X36.3896 Y252.5809 Z0.2639
G01 X36.3307 Y252.5166 Z0.2344
G01 X36.2663 Y252.4577 Z0.2049
G01 X36.1971 Y252.4046 Z0.1753
G01 X36.1235 Y252.3577 Z0.1458
G01 X36.0462 Y252.3174 Z0.1163
G01 X35.9656 Y252.2840 Z0.0868
G01 X35.8824 Y252.2578 Z0.0573
G01 X35.7972 Y252.2389 Z0.0278
G01 X35.7107 Y252.2275 Z-0.0017
G01 X35.6235 Y252.2237 Z-0.0313
G01 X35.5364 Y252.2275 Z-0.0608
G01 X35.4499 Y252.2389 Z-0.0903
G01 X35.3647 Y252.2578 Z-0.1198
G01 X35.2815 Y252.2840 Z-0.1493
G01 X35.2009 Y252.3174 Z-0.1788
G01 X35.1235 Y252.3577 Z-0.2083
G01 X35.0500 Y252.4046 Z-0.2378
G01 X34.9808 Y252.4577 Z-0.2674
G01 X34.9164 Y252.5166 Z-0.2969
G01 X34.8575 Y252.5809 Z-0.3264
G01 X34.8044 Y252.6502 Z-0.3559
G01 X34.7575 Y252.7237 Z-0.3854
G01 X34.7172 Y252.8011 Z-0.4149
G01 X34.6839 Y252.8817 Z-0.4444
G01 X34.6576 Y252.9649 Z-0.4740
G01 X34.6387 Y253.0501 Z-0.5035
G01 X34.6274 Y253.1366 Z-0.5330
G01 X34.6235 Y253.2237 Z-0.5625
G01 X34.6274 Y253.3109 Z-0.5920
G01 X34.6387 Y253.3974 Z-0.6215
G01 X34.6576 Y253.4826 Z-0.6510
G01 X34.6839 Y253.5658 Z-0.6806
G01 X34.7172 Y253.6464 Z-0.7101
G01 X34.7575 Y253.7237 Z-0.7396
G01 X34.8044 Y253.7973 Z-0.7691
G01 X34.8575 Y253.8665 Z-0.7986
G01 X34.9164 Y253.9308 Z-0.8281
G01 X34.9808 Y253.9898 Z-0.8576
G01 X35.0500 Y254.0429 Z-0.8872
G01 X35.1235 Y254.0898 Z-0.9167
G01 X35.1653 Y254.1126 Z-0.9328
G01 X35.2081 Y254.1334 Z-0.9489
G01 X35.2519 Y254.1521 Z-0.9650
G01 X35.2965 Y254.1687 Z-0.9811
G01 X35.3418 Y254.1832 Z-0.9972
G01 X35.3878 Y254.1955 Z-1.0133
G01 X35.4343 Y254.2057 Z-1.0294
G01 X35.4812 Y254.2136 Z-1.0455
G01 X35.5285 Y254.2192 Z-1.0616
G01 X35.5760 Y254.2226 Z-1.0777
G01 X35.6235 Y254.2237 Z-1.0938
G01 X35.6711 Y254.2226 Z-1.1098
G01 X35.7186 Y254.2192 Z-1.1259
G01 X35.7659 Y254.2136 Z-1.1420
G01 X35.8128 Y254.2057 Z-1.1581
G01 X35.8593 Y254.1955 Z-1.1742
G01 X35.9053 Y254.1832 Z-1.1903
G01 X35.9506 Y254.1687 Z-1.2064
G01 X35.9952 Y254.1521 Z-1.2225
G01 X36.0390 Y254.1334 Z-1.2386
G01 X36.0818 Y254.1126 Z-1.2547
G01 X36.1235 Y254.0898 Z-1.2708
G01 X36.1642 Y254.0650 Z-1.2869
G01 X36.2036 Y254.0383 Z-1.3030
G01 X36.2417 Y254.0098 Z-1.3191
G01 X36.2784 Y253.9795 Z-1.3352
G01 X36.3136 Y253.9475 Z-1.3513
G01 X36.3473 Y253.9138 Z-1.3674
G01 X36.3793 Y253.8786 Z-1.3835
G01 X36.4096 Y253.8419 Z-1.3996
G01 X36.4381 Y253.8038 Z-1.4157
G01 X36.4648 Y253.7644 Z-1.4318
G01 X36.4896 Y253.7237 Z-1.4479
G01 X36.5124 Y253.6820 Z-1.4640
G01 X36.5332 Y253.6392 Z-1.4801
G01 X36.5519 Y253.5954 Z-1.4962
G01 X36.5686 Y253.5508 Z-1.5123
G01 X36.5830 Y253.5055 Z-1.5284
G01 X36.5954 Y253.4595 Z-1.5445
G01 X36.6055 Y253.4130 Z-1.5606
G01 X36.6134 Y253.3661 Z-1.5767
G01 X36.6190 Y253.3188 Z-1.5928
G01 X36.6224 Y253.2713 Z-1.6089
G01 X36.6235 Y253.2237 Z-1.6250
G01 X36.6197 Y253.1366
G01 X36.6084 Y253.0501
G01 X36.5895 Y252.9649
G01 X36.5632 Y252.8817
G01 X36.5299 Y252.8011
G01 X36.4896 Y252.7237
G01 X36.4427 Y252.6502
G01 X36.3896 Y252.5809
G01 X36.3307 Y252.5166
G01 X36.2663 Y252.4577
G01 X36.1971 Y252.4046
G01 X36.1235 Y252.3577
G01 X36.0462 Y252.3174
G01 X35.9656 Y252.2840
G01 X35.8824 Y252.2578
G01 X35.7972 Y252.2389
G01 X35.7107 Y252.2275
G01 X35.6235 Y252.2237
G01 X35.5364 Y252.2275
G01 X35.4499 Y252.2389
G01 X35.3647 Y252.2578
G01 X35.2815 Y252.2840
G01 X35.2009 Y252.3174
G01 X35.1235 Y252.3577
G01 X35.0500 Y252.4046
G01 X34.9808 Y252.4577
G01 X34.9164 Y252.5166
G01 X34.8575 Y252.5809
G01 X34.8044 Y252.6502
G01 X34.7575 Y252.7237
G01 X34.7172 Y252.8011
G01 X34.6839 Y252.8817
G01 X34.6576 Y252.9649
G01 X34.6387 Y253.0501
G01 X34.6274 Y253.1366
G01 X34.6235 Y253.2237
G01 X34.6274 Y253.3109
G01 X34.6387 Y253.3974
G01 X34.6576 Y253.4826
G01 X34.6839 Y253.5658
G01 X34.7172 Y253.6464
G01 X34.7575 Y253.7237
G01 X34.8044 Y253.7973
G01 X34.8575 Y253.8665
G01 X34.9164 Y253.9308
G01 X34.9808 Y253.9898
G01 X35.0500 Y254.0429
G01 X35.1235 Y254.0898
G01 X35.1653 Y254.1126
G01 X35.2081 Y254.1334
G01 X35.2519 Y254.1521
G01 X35.2965 Y254.1687
G01 X35.3418 Y254.1832
G01 X35.3878 Y254.1955
G01 X35.4343 Y254.2057
G01 X35.4812 Y254.2136
G01 X35.5285 Y254.2192
G01 X35.5760 Y254.2226
G01 X35.6235 Y254.2237
G01 X35.6711 Y254.2226
G01 X35.7186 Y254.2192
G01 X35.7659 Y254.2136
G01 X35.8128 Y254.2057
G01 X35.8593 Y254.1955
G01 X35.9053 Y254.1832
G01 X35.9506 Y254.1687
G01 X35.9952 Y254.1521
G01 X36.0390 Y254.1334
G01 X36.0818 Y254.1126
G01 X36.1235 Y254.0898
G01 X36.1642 Y254.0650
G01 X36.2036 Y254.0383
G01 X36.2417 Y254.0098
G01 X36.2784 Y253.9795
G01 X36.3136 Y253.9475
G01 X36.3473 Y253.9138
G01 X36.3793 Y253.8786
G01 X36.4096 Y253.8419
G01 X36.4381 Y253.8038
G01 X36.4648 Y253.7644
G01 X36.4896 Y253.7237
G01 X36.5124 Y253.6820
G01 X36.5332 Y253.6392
G01 X36.5519 Y253.5954
G01 X36.5686 Y253.5508
G01 X36.5830 Y253.5055
G01 X36.5954 Y253.4595
G01 X36.6055 Y253.4130
G01 X36.6134 Y253.3661
G01 X36.6190 Y253.3188
G01 X36.6224 Y253.2713
G01 X36.6235 Y253.2237
G01 X36.6343 Y253.1721 F1000
G01 X36.6424 Y253.1201
G01 X36.6478 Y253.0676
G01 X36.6504 Y253.0150
G01 Y252.9623
G01 X36.6476 Y252.9097
G01 X36.6422 Y252.8572
G01 X36.6340 Y252.8052
G01 X36.6223 Y252.7492
G01 X36.6078 Y252.6939
G01 X36.5904 Y252.6394
G01 X36.5703 Y252.5858
G01 X36.5474 Y252.5334
G01 X36.5219 Y252.4822
G01 X36.4938 Y252.4324
G01 X36.4632 Y252.3840
G01 X36.4254 Y252.3371
G01 X36.3852 Y252.2921
G01 X36.3428 Y252.2492
G01 X36.2983 Y252.2084
G01 X36.2519 Y252.1699
G01 X36.2036 Y252.1337
G01 X36.1536 Y252.1000
G01 X36.1019 Y252.0689
G01 X36.0447 Y252.0468
G01 X35.9864 Y252.0276
G01 X35.9273 Y252.0112
G01 X35.8674 Y251.9978
G01 X35.8070 Y251.9873
G01 X35.7461 Y251.9798
G01 X35.6849 Y251.9753
G01 X35.6235 Y251.9738
G01 X35.5622 Y251.9753
G01 X35.5010 Y251.9798
G01 X35.4401 Y251.9873
G01 X35.3797 Y251.9978
G01 X35.3198 Y252.0112
G01 X35.2607 Y252.0276
G01 X35.2024 Y252.0468
G01 X35.1452 Y252.0689
G01 X35.0891 Y252.0938
G01 X35.0343 Y252.1213
G01 X34.9809 Y252.1516
G01 X34.9291 Y252.1844
G01 X34.8789 Y252.2197
G01 X34.8306 Y252.2575
G01 X34.7841 Y252.2976
G01 X34.7397 Y252.3399
G01 X34.6974 Y252.3843
G01 X34.6573 Y252.4308
G01 X34.6196 Y252.4791
G01 X34.5842 Y252.5293
G01 X34.5514 Y252.5811
G01 X34.5212 Y252.6345
G01 X34.4936 Y252.6893
G01 X34.4687 Y252.7454
G01 X34.4466 Y252.8026
G01 X34.4274 Y252.8609
G01 X34.4110 Y252.9200
G01 X34.3976 Y252.9799
G01 X34.3871 Y253.0403
G01 X34.3796 Y253.1012
G01 X34.3751 Y253.1624
G01 X34.3736 Y253.2237
G01 X34.3751 Y253.2851
G01 X34.3796 Y253.3463
G01 X34.3871 Y253.4071
G01 X34.3976 Y253.4676
G01 X34.4110 Y253.5275
G01 X34.4274 Y253.5866
G01 X34.4466 Y253.6448
G01 X34.4687 Y253.7021
G01 X34.4936 Y253.7582
G01 X34.5212 Y253.8130
G01 X34.5514 Y253.8664
G01 X34.5842 Y253.9182
G01 X34.6196 Y253.9683
G01 X34.6573 Y254.0167
G01 X34.6974 Y254.0632
G01 X34.7397 Y254.1076
G01 X34.7841 Y254.1499
G01 X34.8306 Y254.1900
G01 X34.8789 Y254.2277
G01 X34.9291 Y254.2631
G01 X34.9809 Y254.2959
G01 X35.0343 Y254.3261
G01 X35.0891 Y254.3537
G01 X35.1452 Y254.3786
G01 X35.2024 Y254.4006
G01 X35.2607 Y254.4199
G01 X35.3198 Y254.4363
G01 X35.3797 Y254.4497
G01 X35.4401 Y254.4602
G01 X35.5010 Y254.4677
G01 X35.5622 Y254.4722
G01 X35.6235 Y254.4737
G01 X35.6849 Y254.4722
G01 X35.7461 Y254.4677
G01 X35.8070 Y254.4602
G01 X35.8674 Y254.4497
G01 X35.9273 Y254.4363
G01 X35.9864 Y254.4199
G01 X36.0447 Y254.4006
G01 X36.1019 Y254.3786
G01 X36.1580 Y254.3537
G01 X36.2128 Y254.3261
G01 X36.2662 Y254.2959
G01 X36.3180 Y254.2631
G01 X36.3682 Y254.2277
G01 X36.4165 Y254.1900
G01 X36.4630 Y254.1499
G01 X36.5074 Y254.1076
G01 X36.5497 Y254.0632
G01 X36.5898 Y254.0167
G01 X36.6275 Y253.9683
G01 X36.6629 Y253.9182
G01 X36.6957 Y253.8664
G01 X36.7259 Y253.8130
G01 X36.7535 Y253.7582
G01 X36.7784 Y253.7021
G01 X36.8005 Y253.6448
G01 X36.8197 Y253.5866
G01 X36.8361 Y253.5275
G01 X36.8495 Y253.4676
G01 X36.8600 Y253.4071
G01 X36.8675 Y253.3463
G01 X36.8720 Y253.2851
G01 X36.8735 Y253.2237
G01 X36.8700 Y253.1303
G01 X36.8596 Y253.0374
G01 X36.8422 Y252.9456
G01 X36.8180 Y252.8553
G01 X36.7871 Y252.7671
G01 X36.7497 Y252.6814
G01 X36.7061 Y252.5987
G01 X36.6563 Y252.5196
G01 X36.6008 Y252.4444
G01 X36.5399 Y252.3735
G01 X36.4738 Y252.3074
G01 X36.4029 Y252.2465
G01 X36.3277 Y252.1910
G01 X36.2485 Y252.1412
G01 X36.1659 Y252.0975
G01 X36.0802 Y252.0602
G01 X35.9920 Y252.0293
G01 X35.9017 Y252.0051
G01 X35.8098 Y251.9877
G01 X35.7170 Y251.9772
G01 X35.6235 Y251.9738
G01 X35.5301 Y251.9772
G01 X35.4372 Y251.9877
G01 X35.3454 Y252.0051
G01 X35.2551 Y252.0293
G01 X35.1669 Y252.0602
G01 X35.0812 Y252.0975
G01 X34.9986 Y252.1412
G01 X34.9194 Y252.1910
G01 X34.8442 Y252.2465
G01 X34.7733 Y252.3074
G01 X34.7072 Y252.3735
G01 X34.6463 Y252.4444
G01 X34.5908 Y252.5196
G01 X34.5410 Y252.5987
G01 X34.4974 Y252.6814
G01 X34.4600 Y252.7671
G01 X34.4291 Y252.8553
G01 X34.4049 Y252.9456
G01 X34.3875 Y253.0374
G01 X34.3771 Y253.1303
G01 X34.3736 Y253.2237
G01 X34.3771 Y253.3171
G01 X34.3875 Y253.4100
G01 X34.4049 Y253.5019
G01 X34.4291 Y253.5922
G01 X34.4600 Y253.6804
G01 X34.4974 Y253.7661
G01 X34.5410 Y253.8487
G01 X34.5908 Y253.9279
G01 X34.6463 Y254.0031
G01 X34.7072 Y254.0739
G01 X34.7733 Y254.1400
G01 X34.8442 Y254.2010
G01 X34.9194 Y254.2565
G01 X34.9986 Y254.3063
G01 X35.0812 Y254.3499
G01 X35.1669 Y254.3873
G01 X35.2551 Y254.4182
G01 X35.3454 Y254.4424
G01 X35.4372 Y254.4598
G01 X35.5301 Y254.4702
G01 X35.6235 Y254.4737
G01 X35.7170 Y254.4702
G01 X35.8098 Y254.4598
G01 X35.9017 Y254.4424
G01 X35.9920 Y254.4182
G01 X36.0802 Y254.3873
G01 X36.1659 Y254.3499
G01 X36.2485 Y254.3063
G01 X36.3277 Y254.2565
G01 X36.4029 Y254.2010
G01 X36.4738 Y254.1400
G01 X36.5399 Y254.0739
G01 X36.6008 Y254.0031
G01 X36.6563 Y253.9279
G01 X36.7061 Y253.8487
G01 X36.7497 Y253.7661
G01 X36.7871 Y253.6804
G01 X36.8180 Y253.5922
G01 X36.8422 Y253.5019
G01 X36.8596 Y253.4100
G01 X36.8700 Y253.3171
G01 X36.8735 Y253.2237
G01 X36.8693 Y253.1257
G01 X36.8564 Y253.0284
G01 X36.8352 Y252.9326
G01 X36.8057 Y252.8390
G01 X36.7681 Y252.7483
G01 X36.7228 Y252.6612
G01 X36.6701 Y252.5785
G01 X36.6103 Y252.5006
G01 X36.5440 Y252.4282
G01 X36.4717 Y252.3619
G01 X36.3938 Y252.3022
G01 X36.3110 Y252.2495
G01 X36.2240 Y252.2041
G01 X36.1333 Y252.1666
G01 X36.0397 Y252.1371
G01 X35.9439 Y252.1158
G01 X35.8466 Y252.1030
G01 X35.7485 Y252.0987
G01 X35.6505 Y252.1030
G01 X35.5532 Y252.1158
G01 X35.4574 Y252.1371
G01 X35.3638 Y252.1666
G01 X35.2731 Y252.2041
G01 X35.1860 Y252.2495
G01 X35.1033 Y252.3022
G01 X35.0254 Y252.3619
G01 X34.9531 Y252.4282
G01 X34.8867 Y252.5006
G01 X34.8270 Y252.5785
G01 X34.7743 Y252.6612
G01 X34.7290 Y252.7483
G01 X34.6914 Y252.8390
G01 X34.6619 Y252.9326
G01 X34.6406 Y253.0284
G01 X34.6278 Y253.1257
G01 X34.6235 Y253.2237
G01 X34.6274 Y253.3109
G01 X34.6387 Y253.3974
G01 X34.6576 Y253.4826
G01 X34.6839 Y253.5658
G01 X34.7172 Y253.6464
G01 X34.7575 Y253.7237
G01 X34.8044 Y253.7973
G01 X34.8575 Y253.8665
G01 X34.9164 Y253.9308
G01 X34.9808 Y253.9898
G01 X35.0500 Y254.0429
G01 X35.1235 Y254.0898
G01 X35.2009 Y254.1300
G01 X35.2815 Y254.1634
G01 X35.3647 Y254.1897
G01 X35.4499 Y254.2085
G01 X35.5364 Y254.2199
G01 X35.6235 Y254.2237
G01 X35.7107 Y254.2199
G01 X35.7972 Y254.2085
G01 X35.8824 Y254.1897
G01 X35.9656 Y254.1634
G01 X36.0462 Y254.1300
G01 X36.1235 Y254.0898
G01 X36.1971 Y254.0429
G01 X36.2663 Y253.9898
G01 X36.3307 Y253.9308
G01 X36.3896 Y253.8665
G01 X36.4427 Y253.7973
G01 X36.4896 Y253.7237
G01 X36.5299 Y253.6464
G01 X36.5632 Y253.5658
G01 X36.5895 Y253.4826
G01 X36.6084 Y253.3974
G01 X36.6197 Y253.3109
G01 X36.6235 Y253.2237
M107
M106 S240
G01 X36.6197 Y253.1366 Z-1.6545 F400
G01 X36.6084 Y253.0501 Z-1.6840
G01 X36.5895 Y252.9649 Z-1.7135
G01 X36.5632 Y252.8817 Z-1.7431
G01 X36.5299 Y252.8011 Z-1.7726
G01 X36.4896 Y252.7237 Z-1.8021
G01 X36.4427 Y252.6502 Z-1.8316
G01 X36.3896 Y252.5809 Z-1.8611
G01 X36.3307 Y252.5166 Z-1.8906
G01 X36.2663 Y252.4577 Z-1.9201
G01 X36.1971 Y252.4046 Z-1.9497
G01 X36.1235 Y252.3577 Z-1.9792
G01 X36.0462 Y252.3174 Z-2.0087
G01 X35.9656 Y252.2840 Z-2.0382
G01 X35.8824 Y252.2578 Z-2.0677
G01 X35.7972 Y252.2389 Z-2.0972
G01 X35.7107 Y252.2275 Z-2.1267
G01 X35.6235 Y252.2237 Z-2.1563
G01 X35.5364 Y252.2275 Z-2.1858
G01 X35.4499 Y252.2389 Z-2.2153
G01 X35.3647 Y252.2578 Z-2.2448
G01 X35.2815 Y252.2840 Z-2.2743
G01 X35.2009 Y252.3174 Z-2.3038
G01 X35.1235 Y252.3577 Z-2.3333
G01 X35.0500 Y252.4046 Z-2.3628
G01 X34.9808 Y252.4577 Z-2.3924
G01 X34.9164 Y252.5166 Z-2.4219
G01 X34.8575 Y252.5809 Z-2.4514
G01 X34.8044 Y252.6502 Z-2.4809
G01 X34.7575 Y252.7237 Z-2.5104
G01 X34.7172 Y252.8011 Z-2.5399
G01 X34.6839 Y252.8817 Z-2.5694
G01 X34.6576 Y252.9649 Z-2.5990
G01 X34.6387 Y253.0501 Z-2.6285
G01 X34.6274 Y253.1366 Z-2.6580
G01 X34.6235 Y253.2237 Z-2.6875
G01 X34.6274 Y253.3109 Z-2.7170
G01 X34.6387 Y253.3974 Z-2.7465
G01 X34.6576 Y253.4826 Z-2.7760
G01 X34.6839 Y253.5658 Z-2.8056
G01 X34.7172 Y253.6464 Z-2.8351
G01 X34.7575 Y253.7237 Z-2.8646
G01 X34.8044 Y253.7973 Z-2.8941
G01 X34.8575 Y253.8665 Z-2.9236
G01 X34.9164 Y253.9308 Z-2.9531
G01 X34.9808 Y253.9898 Z-2.9826
G01 X35.0500 Y254.0429 Z-3.0122
G01 X35.1235 Y254.0898 Z-3.0417
G01 X35.1653 Y254.1126 Z-3.0578
G01 X35.2081 Y254.1334 Z-3.0739
G01 X35.2519 Y254.1521 Z-3.0900
G01 X35.2965 Y254.1687 Z-3.1061
G01 X35.3418 Y254.1832 Z-3.1222
G01 X35.3878 Y254.1955 Z-3.1383
G01 X35.4343 Y254.2057 Z-3.1544
G01 X35.4812 Y254.2136 Z-3.1705
G01 X35.5285 Y254.2192 Z-3.1866
G01 X35.5760 Y254.2226 Z-3.2027
G01 X35.6235 Y254.2237 Z-3.2188
G01 X35.6711 Y254.2226 Z-3.2348
G01 X35.7186 Y254.2192 Z-3.2509
G01 X35.7659 Y254.2136 Z-3.2670
G01 X35.8128 Y254.2057 Z-3.2831
G01 X35.8593 Y254.1955 Z-3.2992
G01 X35.9053 Y254.1832 Z-3.3153
G01 X35.9506 Y254.1687 Z-3.3314
G01 X35.9952 Y254.1521 Z-3.3475
G01 X36.0390 Y254.1334 Z-3.3636
G01 X36.0818 Y254.1126 Z-3.3797
G01 X36.1235 Y254.0898 Z-3.3958
G01 X36.1642 Y254.0650 Z-3.4119
G01 X36.2036 Y254.0383 Z-3.4280
G01 X36.2417 Y254.0098 Z-3.4441
G01 X36.2784 Y253.9795 Z-3.4602
G01 X36.3136 Y253.9475 Z-3.4763
G01 X36.3473 Y253.9138 Z-3.4924
G01 X36.3793 Y253.8786 Z-3.5085
G01 X36.4096 Y253.8419 Z-3.5246
G01 X36.4381 Y253.8038 Z-3.5407
G01 X36.4648 Y253.7644 Z-3.5568
G01 X36.4896 Y253.7237 Z-3.5729
G01 X36.5124 Y253.6820 Z-3.5890
G01 X36.5332 Y253.6392 Z-3.6051
G01 X36.5519 Y253.5954 Z-3.6212
G01 X36.5686 Y253.5508 Z-3.6373
G01 X36.5830 Y253.5055 Z-3.6534
G01 X36.5954 Y253.4595 Z-3.6695
G01 X36.6055 Y253.4130 Z-3.6856
G01 X36.6134 Y253.3661 Z-3.7017
G01 X36.6190 Y253.3188 Z-3.7178
G01 X36.6224 Y253.2713 Z-3.7339
G01 X36.6235 Y253.2237 Z-3.7500
G01 X36.6197 Y253.1366
G01 X36.6084 Y253.0501
G01 X36.5895 Y252.9649
G01 X36.5632 Y252.8817
G01 X36.5299 Y252.8011
G01 X36.4896 Y252.7237
G01 X36.4427 Y252.6502
G01 X36.3896 Y252.5809
G01 X36.3307 Y252.5166
G01 X36.2663 Y252.4577
G01 X36.1971 Y252.4046
G01 X36.1235 Y252.3577
G01 X36.0462 Y252.3174
G01 X35.9656 Y252.2840
G01 X35.8824 Y252.2578
G01 X35.7972 Y252.2389
G01 X35.7107 Y252.2275
G01 X35.6235 Y252.2237
G01 X35.5364 Y252.2275
G01 X35.4499 Y252.2389
G01 X35.3647 Y252.2578
G01 X35.2815 Y252.2840
G01 X35.2009 Y252.3174
G01 X35.1235 Y252.3577
G01 X35.0500 Y252.4046
G01 X34.9808 Y252.4577
G01 X34.9164 Y252.5166
G01 X34.8575 Y252.5809
G01 X34.8044 Y252.6502
G01 X34.7575 Y252.7237
G01 X34.7172 Y252.8011
G01 X34.6839 Y252.8817
G01 X34.6576 Y252.9649
G01 X34.6387 Y253.0501
G01 X34.6274 Y253.1366
G01 X34.6235 Y253.2237
G01 X34.6274 Y253.3109
G01 X34.6387 Y253.3974
G01 X34.6576 Y253.4826
G01 X34.6839 Y253.5658
G01 X34.7172 Y253.6464
G01 X34.7575 Y253.7237
G01 X34.8044 Y253.7973
G01 X34.8575 Y253.8665
G01 X34.9164 Y253.9308
G01 X34.9808 Y253.9898
G01 X35.0500 Y254.0429
G01 X35.1235 Y254.0898
G01 X35.1653 Y254.1126
G01 X35.2081 Y254.1334
G01 X35.2519 Y254.1521
G01 X35.2965 Y254.1687
G01 X35.3418 Y254.1832
G01 X35.3878 Y254.1955
G01 X35.4343 Y254.2057
G01 X35.4812 Y254.2136
G01 X35.5285 Y254.2192
G01 X35.5760 Y254.2226
G01 X35.6235 Y254.2237
G01 X35.6711 Y254.2226
G01 X35.7186 Y254.2192
G01 X35.7659 Y254.2136
G01 X35.8128 Y254.2057
G01 X35.8593 Y254.1955
G01 X35.9053 Y254.1832
G01 X35.9506 Y254.1687
G01 X35.9952 Y254.1521
G01 X36.0390 Y254.1334
G01 X36.0818 Y254.1126
G01 X36.1235 Y254.0898
G01 X36.1642 Y254.0650
G01 X36.2036 Y254.0383
G01 X36.2417 Y254.0098
G01 X36.2784 Y253.9795
G01 X36.3136 Y253.9475
G01 X36.3473 Y253.9138
G01 X36.3793 Y253.8786
G01 X36.4096 Y253.8419
G01 X36.4381 Y253.8038
G01 X36.4648 Y253.7644
G01 X36.4896 Y253.7237
G01 X36.5124 Y253.6820
G01 X36.5332 Y253.6392
G01 X36.5519 Y253.5954
G01 X36.5686 Y253.5508
G01 X36.5830 Y253.5055
G01 X36.5954 Y253.4595
G01 X36.6055 Y253.4130
G01 X36.6134 Y253.3661
G01 X36.6190 Y253.3188
G01 X36.6224 Y253.2713
G01 X36.6235 Y253.2237
G01 X36.6343 Y253.1721 F1000
G01 X36.6424 Y253.1201
G01 X36.6478 Y253.0676
G01 X36.6504 Y253.0150
G01 Y252.9623
G01 X36.6476 Y252.9097
G01 X36.6422 Y252.8572
G01 X36.6340 Y252.8052
G01 X36.6223 Y252.7492
G01 X36.6078 Y252.6939
G01 X36.5904 Y252.6394
G01 X36.5703 Y252.5858
G01 X36.5474 Y252.5334
G01 X36.5219 Y252.4822
G01 X36.4938 Y252.4324
G01 X36.4632 Y252.3840
G01 X36.4254 Y252.3371
G01 X36.3852 Y252.2921
G01 X36.3428 Y252.2492
G01 X36.2983 Y252.2084
G01 X36.2519 Y252.1699
G01 X36.2036 Y252.1337
G01 X36.1536 Y252.1000
G01 X36.1019 Y252.0689
G01 X36.0447 Y252.0468
G01 X35.9864 Y252.0276
G01 X35.9273 Y252.0112
G01 X35.8674 Y251.9978
G01 X35.8070 Y251.9873
G01 X35.7461 Y251.9798
G01 X35.6849 Y251.9753
G01 X35.6235 Y251.9738
G01 X35.5622 Y251.9753
G01 X35.5010 Y251.9798
G01 X35.4401 Y251.9873
G01 X35.3797 Y251.9978
G01 X35.3198 Y252.0112
G01 X35.2607 Y252.0276
G01 X35.2024 Y252.0468
G01 X35.1452 Y252.0689
G01 X35.0891 Y252.0938
G01 X35.0343 Y252.1213
G01 X34.9809 Y252.1516
G01 X34.9291 Y252.1844
G01 X34.8789 Y252.2197
G01 X34.8306 Y252.2575
G01 X34.7841 Y252.2976
G01 X34.7397 Y252.3399
G01 X34.6974 Y252.3843
G01 X34.6573 Y252.4308
G01 X34.6196 Y252.4791
G01 X34.5842 Y252.5293
G01 X34.5514 Y252.5811
G01 X34.5212 Y252.6345
G01 X34.4936 Y252.6893
G01 X34.4687 Y252.7454
G01 X34.4466 Y252.8026
G01 X34.4274 Y252.8609
G01 X34.4110 Y252.9200
G01 X34.3976 Y252.9799
G01 X34.3871 Y253.0403
G01 X34.3796 Y253.1012
G01 X34.3751 Y253.1624
G01 X34.3736 Y253.2237
G01 X34.3751 Y253.2851
G01 X34.3796 Y253.3463
G01 X34.3871 Y253.4071
G01 X34.3976 Y253.4676
G01 X34.4110 Y253.5275
G01 X34.4274 Y253.5866
G01 X34.4466 Y253.6448
G01 X34.4687 Y253.7021
G01 X34.4936 Y253.7582
G01 X34.5212 Y253.8130
G01 X34.5514 Y253.8664
G01 X34.5842 Y253.9182
G01 X34.6196 Y253.9683
G01 X34.6573 Y254.0167
G01 X34.6974 Y254.0632
G01 X34.7397 Y254.1076
G01 X34.7841 Y254.1499
G01 X34.8306 Y254.1900
G01 X34.8789 Y254.2277
G01 X34.9291 Y254.2631
G01 X34.9809 Y254.2959
G01 X35.0343 Y254.3261
G01 X35.0891 Y254.3537
G01 X35.1452 Y254.3786
G01 X35.2024 Y254.4006
G01 X35.2607 Y254.4199
G01 X35.3198 Y254.4363
G01 X35.3797 Y254.4497
G01 X35.4401 Y254.4602
G01 X35.5010 Y254.4677
G01 X35.5622 Y254.4722
G01 X35.6235 Y254.4737
G01 X35.6849 Y254.4722
G01 X35.7461 Y254.4677
G01 X35.8070 Y254.4602
G01 X35.8674 Y254.4497
G01 X35.9273 Y254.4363
G01 X35.9864 Y254.4199
G01 X36.0447 Y254.4006
G01 X36.1019 Y254.3786
G01 X36.1580 Y254.3537
G01 X36.2128 Y254.3261
G01 X36.2662 Y254.2959
G01 X36.3180 Y254.2631
G01 X36.3682 Y254.2277
G01 X36.4165 Y254.1900
G01 X36.4630 Y254.1499
G01 X36.5074 Y254.1076
G01 X36.5497 Y254.0632
G01 X36.5898 Y254.0167
G01 X36.6275 Y253.9683
G01 X36.6629 Y253.9182
G01 X36.6957 Y253.8664
G01 X36.7259 Y253.8130
G01 X36.7535 Y253.7582
G01 X36.7784 Y253.7021
G01 X36.8005 Y253.6448
G01 X36.8197 Y253.5866
G01 X36.8361 Y253.5275
G01 X36.8495 Y253.4676
G01 X36.8600 Y253.4071
G01 X36.8675 Y253.3463
G01 X36.8720 Y253.2851
G01 X36.8735 Y253.2237
G01 X36.8700 Y253.1303
G01 X36.8596 Y253.0374
G01 X36.8422 Y252.9456
G01 X36.8180 Y252.8553
G01 X36.7871 Y252.7671
G01 X36.7497 Y252.6814
G01 X36.7061 Y252.5987
G01 X36.6563 Y252.5196
G01 X36.6008 Y252.4444
G01 X36.5399 Y252.3735
G01 X36.4738 Y252.3074
G01 X36.4029 Y252.2465
G01 X36.3277 Y252.1910
G01 X36.2485 Y252.1412
G01 X36.1659 Y252.0975
G01 X36.0802 Y252.0602
G01 X35.9920 Y252.0293
G01 X35.9017 Y252.0051
G01 X35.8098 Y251.9877
G01 X35.7170 Y251.9772
G01 X35.6235 Y251.9738
G01 X35.5301 Y251.9772
G01 X35.4372 Y251.9877
G01 X35.3454 Y252.0051
G01 X35.2551 Y252.0293
G01 X35.1669 Y252.0602
G01 X35.0812 Y252.0975
G01 X34.9986 Y252.1412
G01 X34.9194 Y252.1910
G01 X34.8442 Y252.2465
G01 X34.7733 Y252.3074
G01 X34.7072 Y252.3735
G01 X34.6463 Y252.4444
G01 X34.5908 Y252.5196
G01 X34.5410 Y252.5987
G01 X34.4974 Y252.6814
G01 X34.4600 Y252.7671
G01 X34.4291 Y252.8553
G01 X34.4049 Y252.9456
G01 X34.3875 Y253.0374
G01 X34.3771 Y253.1303
G01 X34.3736 Y253.2237
G01 X34.3771 Y253.3171
G01 X34.3875 Y253.4100
G01 X34.4049 Y253.5019
G01 X34.4291 Y253.5922
G01 X34.4600 Y253.6804
G01 X34.4974 Y253.7661
G01 X34.5410 Y253.8487
G01 X34.5908 Y253.9279
G01 X34.6463 Y254.0031
G01 X34.7072 Y254.0739
G01 X34.7733 Y254.1400
G01 X34.8442 Y254.2010
G01 X34.9194 Y254.2565
G01 X34.9986 Y254.3063
G01 X35.0812 Y254.3499
G01 X35.1669 Y254.3873
G01 X35.2551 Y254.4182
G01 X35.3454 Y254.4424
G01 X35.4372 Y254.4598
G01 X35.5301 Y254.4702
G01 X35.6235 Y254.4737
G01 X35.7170 Y254.4702
G01 X35.8098 Y254.4598
G01 X35.9017 Y254.4424
G01 X35.9920 Y254.4182
G01 X36.0802 Y254.3873
G01 X36.1659 Y254.3499
G01 X36.2485 Y254.3063
G01 X36.3277 Y254.2565
G01 X36.4029 Y254.2010
G01 X36.4738 Y254.1400
G01 X36.5399 Y254.0739
G01 X36.6008 Y254.0031
G01 X36.6563 Y253.9279
G01 X36.7061 Y253.8487
G01 X36.7497 Y253.7661
G01 X36.7871 Y253.6804
G01 X36.8180 Y253.5922
G01 X36.8422 Y253.5019
G01 X36.8596 Y253.4100
G01 X36.8700 Y253.3171
G01 X36.8735 Y253.2237
G01 X36.8693 Y253.1257
G01 X36.8564 Y253.0284
G01 X36.8352 Y252.9326
G01 X36.8057 Y252.8390
G01 X36.7681 Y252.7483
G01 X36.7228 Y252.6612
G01 X36.6701 Y252.5785
G01 X36.6103 Y252.5006
G01 X36.5440 Y252.4282
G01 X36.4717 Y252.3619
G01 X36.3938 Y252.3022
G01 X36.3110 Y252.2495
G01 X36.2240 Y252.2041
G01 X36.1333 Y252.1666
G01 X36.0397 Y252.1371
G01 X35.9439 Y252.1158
G01 X35.8466 Y252.1030
G01 X35.7485 Y252.0987
G01 X35.6505 Y252.1030
G01 X35.5532 Y252.1158
G01 X35.4574 Y252.1371
G01 X35.3638 Y252.1666
G01 X35.2731 Y252.2041
G01 X35.1860 Y252.2495
G01 X35.1033 Y252.3022
G01 X35.0254 Y252.3619
G01 X34.9531 Y252.4282
G01 X34.8867 Y252.5006
G01 X34.8270 Y252.5785
G01 X34.7743 Y252.6612
G01 X34.7290 Y252.7483
G01 X34.6914 Y252.8390
G01 X34.6619 Y252.9326
G01 X34.6406 Y253.0284
G01 X34.6278 Y253.1257
G01 X34.6235 Y253.2237
G01 X34.6274 Y253.3109
G01 X34.6387 Y253.3974
G01 X34.6576 Y253.4826
G01 X34.6839 Y253.5658
G01 X34.7172 Y253.6464
G01 X34.7575 Y253.7237
G01 X34.8044 Y253.7973
G01 X34.8575 Y253.8665
G01 X34.9164 Y253.9308
G01 X34.9808 Y253.9898
G01 X35.0500 Y254.0429
G01 X35.1235 Y254.0898
G01 X35.2009 Y254.1300
G01 X35.2815 Y254.1634
G01 X35.3647 Y254.1897
G01 X35.4499 Y254.2085
G01 X35.5364 Y254.2199
G01 X35.6235 Y254.2237
G01 X35.7107 Y254.2199
G01 X35.7972 Y254.2085
G01 X35.8824 Y254.1897
G01 X35.9656 Y254.1634
G01 X36.0462 Y254.1300
G01 X36.1235 Y254.0898
G01 X36.1971 Y254.0429
G01 X36.2663 Y253.9898
G01 X36.3307 Y253.9308
G01 X36.3896 Y253.8665
G01 X36.4427 Y253.7973
G01 X36.4896 Y253.7237
G01 X36.5299 Y253.6464
G01 X36.5632 Y253.5658
G01 X36.5895 Y253.4826
G01 X36.6084 Y253.3974
G01 X36.6197 Y253.3109
G01 X36.6235 Y253.2237
M107
M106 S240
G01 X36.6197 Y253.1366 Z-3.7795 F400
G01 X36.6084 Y253.0501 Z-3.8090
G01 X36.5895 Y252.9649 Z-3.8385
G01 X36.5632 Y252.8817 Z-3.8681
G01 X36.5299 Y252.8011 Z-3.8976
G01 X36.4896 Y252.7237 Z-3.9271
G01 X36.4427 Y252.6502 Z-3.9566
G01 X36.3896 Y252.5809 Z-3.9861
G01 X36.3307 Y252.5166 Z-4.0156
G01 X36.2663 Y252.4577 Z-4.0451
G01 X36.1971 Y252.4046 Z-4.0747
G01 X36.1235 Y252.3577 Z-4.1042
G01 X36.0462 Y252.3174 Z-4.1337
G01 X35.9656 Y252.2840 Z-4.1632
G01 X35.8824 Y252.2578 Z-4.1927
G01 X35.7972 Y252.2389 Z-4.2222
G01 X35.7107 Y252.2275 Z-4.2517
G01 X35.6235 Y252.2237 Z-4.2813
G01 X35.5364 Y252.2275 Z-4.3108
G01 X35.4499 Y252.2389 Z-4.3403
G01 X35.3647 Y252.2578 Z-4.3698
G01 X35.2815 Y252.2840 Z-4.3993
G01 X35.2009 Y252.3174 Z-4.4288
G01 X35.1235 Y252.3577 Z-4.4583
G01 X35.0500 Y252.4046 Z-4.4878
G01 X34.9808 Y252.4577 Z-4.5174
G01 X34.9164 Y252.5166 Z-4.5469
G01 X34.8575 Y252.5809 Z-4.5764
G01 X34.8044 Y252.6502 Z-4.6059
G01 X34.7575 Y252.7237 Z-4.6354
G01 X34.7172 Y252.8011 Z-4.6649
G01 X34.6839 Y252.8817 Z-4.6944
G01 X34.6576 Y252.9649 Z-4.7240
G01 X34.6387 Y253.0501 Z-4.7535
G01 X34.6274 Y253.1366 Z-4.7830
G01 X34.6235 Y253.2237 Z-4.8125
G01 X34.6274 Y253.3109 Z-4.8420
G01 X34.6387 Y253.3974 Z-4.8715
G01 X34.6576 Y253.4826 Z-4.9010
G01 X34.6839 Y253.5658 Z-4.9306
G01 X34.7172 Y253.6464 Z-4.9601
G01 X34.7575 Y253.7237 Z-4.9896
G01 X34.8044 Y253.7973 Z-5.0191
G01 X34.8575 Y253.8665 Z-5.0486
G01 X34.9164 Y253.9308 Z-5.0781
G01 X34.9808 Y253.9898 Z-5.1076
G01 X35.0500 Y254.0429 Z-5.1372
G01 X35.1235 Y254.0898 Z-5.1667
G01 X35.1653 Y254.1126 Z-5.1828
G01 X35.2081 Y254.1334 Z-5.1989
G01 X35.2519 Y254.1521 Z-5.2150
G01 X35.2965 Y254.1687 Z-5.2311
G01 X35.3418 Y254.1832 Z-5.2472
G01 X35.3878 Y254.1955 Z-5.2633
G01 X35.4343 Y254.2057 Z-5.2794
G01 X35.4812 Y254.2136 Z-5.2955
G01 X35.5285 Y254.2192 Z-5.3116
G01 X35.5760 Y254.2226 Z-5.3277
G01 X35.6235 Y254.2237 Z-5.3438
G01 X35.6711 Y254.2226 Z-5.3598
G01 X35.7186 Y254.2192 Z-5.3759
G01 X35.7659 Y254.2136 Z-5.3920
G01 X35.8128 Y254.2057 Z-5.4081
G01 X35.8593 Y254.1955 Z-5.4242
G01 X35.9053 Y254.1832 Z-5.4403
G01 X35.9506 Y254.1687 Z-5.4564
G01 X35.9952 Y254.1521 Z-5.4725
G01 X36.0390 Y254.1334 Z-5.4886
G01 X36.0818 Y254.1126 Z-5.5047
G01 X36.1235 Y254.0898 Z-5.5208
G01 X36.1642 Y254.0650 Z-5.5369
G01 X36.2036 Y254.0383 Z-5.5530
G01 X36.2417 Y254.0098 Z-5.5691
G01 X36.2784 Y253.9795 Z-5.5852
G01 X36.3136 Y253.9475 Z-5.6013
G01 X36.3473 Y253.9138 Z-5.6174
G01 X36.3793 Y253.8786 Z-5.6335
G01 X36.4096 Y253.8419 Z-5.6496
G01 X36.4381 Y253.8038 Z-5.6657
G01 X36.4648 Y253.7644 Z-5.6818
G01 X36.4896 Y253.7237 Z-5.6979
G01 X36.5124 Y253.6820 Z-5.7140
G01 X36.5332 Y253.6392 Z-5.7301
G01 X36.5519 Y253.5954 Z-5.7462
G01 X36.5686 Y253.5508 Z-5.7623
G01 X36.5830 Y253.5055 Z-5.7784
G01 X36.5954 Y253.4595 Z-5.7945
G01 X36.6055 Y253.4130 Z-5.8106
G01 X36.6134 Y253.3661 Z-5.8267
G01 X36.6190 Y253.3188 Z-5.8428
G01 X36.6224 Y253.2713 Z-5.8589
G01 X36.6235 Y253.2237 Z-5.8750
G01 X36.6197 Y253.1366
G01 X36.6084 Y253.0501
G01 X36.5895 Y252.9649
G01 X36.5632 Y252.8817
G01 X36.5299 Y252.8011
G01 X36.4896 Y252.7237
G01 X36.4427 Y252.6502
G01 X36.3896 Y252.5809
G01 X36.3307 Y252.5166
G01 X36.2663 Y252.4577
G01 X36.1971 Y252.4046
G01 X36.1235 Y252.3577
G01 X36.0462 Y252.3174
G01 X35.9656 Y252.2840
G01 X35.8824 Y252.2578
G01 X35.7972 Y252.2389
G01 X35.7107 Y252.2275
G01 X35.6235 Y252.2237
G01 X35.5364 Y252.2275
G01 X35.4499 Y252.2389
G01 X35.3647 Y252.2578
G01 X35.2815 Y252.2840
G01 X35.2009 Y252.3174
G01 X35.1235 Y252.3577
G01 X35.0500 Y252.4046
G01 X34.9808 Y252.4577
G01 X34.9164 Y252.5166
G01 X34.8575 Y252.5809
G01 X34.8044 Y252.6502
G01 X34.7575 Y252.7237
G01 X34.7172 Y252.8011
G01 X34.6839 Y252.8817
G01 X34.6576 Y252.9649
G01 X34.6387 Y253.0501
G01 X34.6274 Y253.1366
G01 X34.6235 Y253.2237
G01 X34.6274 Y253.3109
G01 X34.6387 Y253.3974
G01 X34.6576 Y253.4826
G01 X34.6839 Y253.5658
G01 X34.7172 Y253.6464
G01 X34.7575 Y253.7237
G01 X34.8044 Y253.7973
G01 X34.8575 Y253.8665
G01 X34.9164 Y253.9308
G01 X34.9808 Y253.9898
G01 X35.0500 Y254.0429
G01 X35.1235 Y254.0898
G01 X35.1653 Y254.1126
G01 X35.2081 Y254.1334
G01 X35.2519 Y254.1521
G01 X35.2965 Y254.1687
G01 X35.3418 Y254.1832
G01 X35.3878 Y254.1955
G01 X35.4343 Y254.2057
G01 X35.4812 Y254.2136
G01 X35.5285 Y254.2192
G01 X35.5760 Y254.2226
G01 X35.6235 Y254.2237
G01 X35.6711 Y254.2226
G01 X35.7186 Y254.2192
G01 X35.7659 Y254.2136
G01 X35.8128 Y254.2057
G01 X35.8593 Y254.1955
G01 X35.9053 Y254.1832
G01 X35.9506 Y254.1687
G01 X35.9952 Y254.1521
G01 X36.0390 Y254.1334
G01 X36.0818 Y254.1126
G01 X36.1235 Y254.0898
G01 X36.1642 Y254.0650
G01 X36.2036 Y254.0383
G01 X36.2417 Y254.0098
G01 X36.2784 Y253.9795
G01 X36.3136 Y253.9475
G01 X36.3473 Y253.9138
G01 X36.3793 Y253.8786
G01 X36.4096 Y253.8419
G01 X36.4381 Y253.8038
G01 X36.4648 Y253.7644
G01 X36.4896 Y253.7237
G01 X36.5124 Y253.6820
G01 X36.5332 Y253.6392
G01 X36.5519 Y253.5954
G01 X36.5686 Y253.5508
G01 X36.5830 Y253.5055
G01 X36.5954 Y253.4595
G01 X36.6055 Y253.4130
G01 X36.6134 Y253.3661
G01 X36.6190 Y253.3188
G01 X36.6224 Y253.2713
G01 X36.6235 Y253.2237
G01 X36.6343 Y253.1721 F1000
G01 X36.6424 Y253.1201
G01 X36.6478 Y253.0676
G01 X36.6504 Y253.0150
G01 Y252.9623
G01 X36.6476 Y252.9097
G01 X36.6422 Y252.8572
G01 X36.6340 Y252.8052
G01 X36.6223 Y252.7492
G01 X36.6078 Y252.6939
G01 X36.5904 Y252.6394
G01 X36.5703 Y252.5858
G01 X36.5474 Y252.5334
G01 X36.5219 Y252.4822
G01 X36.4938 Y252.4324
G01 X36.4632 Y252.3840
G01 X36.4254 Y252.3371
G01 X36.3852 Y252.2921
G01 X36.3428 Y252.2492
G01 X36.2983 Y252.2084
G01 X36.2519 Y252.1699
G01 X36.2036 Y252.1337
G01 X36.1536 Y252.1000
G01 X36.1019 Y252.0689
G01 X36.0447 Y252.0468
G01 X35.9864 Y252.0276
G01 X35.9273 Y252.0112
G01 X35.8674 Y251.9978
G01 X35.8070 Y251.9873
G01 X35.7461 Y251.9798
G01 X35.6849 Y251.9753
G01 X35.6235 Y251.9738
G01 X35.5622 Y251.9753
G01 X35.5010 Y251.9798
G01 X35.4401 Y251.9873
G01 X35.3797 Y251.9978
G01 X35.3198 Y252.0112
G01 X35.2607 Y252.0276
G01 X35.2024 Y252.0468
G01 X35.1452 Y252.0689
G01 X35.0891 Y252.0938
G01 X35.0343 Y252.1213
G01 X34.9809 Y252.1516
G01 X34.9291 Y252.1844
G01 X34.8789 Y252.2197
G01 X34.8306 Y252.2575
G01 X34.7841 Y252.2976
G01 X34.7397 Y252.3399
G01 X34.6974 Y252.3843
G01 X34.6573 Y252.4308
G01 X34.6196 Y252.4791
G01 X34.5842 Y252.5293
G01 X34.5514 Y252.5811
G01 X34.5212 Y252.6345
G01 X34.4936 Y252.6893
G01 X34.4687 Y252.7454
G01 X34.4466 Y252.8026
G01 X34.4274 Y252.8609
G01 X34.4110 Y252.9200
G01 X34.3976 Y252.9799
G01 X34.3871 Y253.0403
G01 X34.3796 Y253.1012
G01 X34.3751 Y253.1624
G01 X34.3736 Y253.2237
G01 X34.3751 Y253.2851
G01 X34.3796 Y253.3463
G01 X34.3871 Y253.4071
G01 X34.3976 Y253.4676
G01 X34.4110 Y253.5275
G01 X34.4274 Y253.5866
G01 X34.4466 Y253.6448
G01 X34.4687 Y253.7021
G01 X34.4936 Y253.7582
G01 X34.5212 Y253.8130
G01 X34.5514 Y253.8664
G01 X34.5842 Y253.9182
G01 X34.6196 Y253.9683
G01 X34.6573 Y254.0167
G01 X34.6974 Y254.0632
G01 X34.7397 Y254.1076
G01 X34.7841 Y254.1499
G01 X34.8306 Y254.1900
G01 X34.8789 Y254.2277
G01 X34.9291 Y254.2631
G01 X34.9809 Y254.2959
G01 X35.0343 Y254.3261
G01 X35.0891 Y254.3537
G01 X35.1452 Y254.3786
G01 X35.2024 Y254.4006
G01 X35.2607 Y254.4199
G01 X35.3198 Y254.4363
G01 X35.3797 Y254.4497
G01 X35.4401 Y254.4602
G01 X35.5010 Y254.4677
G01 X35.5622 Y254.4722
G01 X35.6235 Y254.4737
G01 X35.6849 Y254.4722
G01 X35.7461 Y254.4677
G01 X35.8070 Y254.4602
G01 X35.8674 Y254.4497
G01 X35.9273 Y254.4363
G01 X35.9864 Y254.4199
G01 X36.0447 Y254.4006
G01 X36.1019 Y254.3786
G01 X36.1580 Y254.3537
G01 X36.2128 Y254.3261
G01 X36.2662 Y254.2959
G01 X36.3180 Y254.2631
G01 X36.3682 Y254.2277
G01 X36.4165 Y254.1900
G01 X36.4630 Y254.1499
G01 X36.5074 Y254.1076
G01 X36.5497 Y254.0632
G01 X36.5898 Y254.0167
G01 X36.6275 Y253.9683
G01 X36.6629 Y253.9182
G01 X36.6957 Y253.8664
G01 X36.7259 Y253.8130
G01 X36.7535 Y253.7582
G01 X36.7784 Y253.7021
G01 X36.8005 Y253.6448
G01 X36.8197 Y253.5866
G01 X36.8361 Y253.5275
G01 X36.8495 Y253.4676
G01 X36.8600 Y253.4071
G01 X36.8675 Y253.3463
G01 X36.8720 Y253.2851
G01 X36.8735 Y253.2237
G01 X36.8700 Y253.1303
G01 X36.8596 Y253.0374
G01 X36.8422 Y252.9456
G01 X36.8180 Y252.8553
G01 X36.7871 Y252.7671
G01 X36.7497 Y252.6814
G01 X36.7061 Y252.5987
G01 X36.6563 Y252.5196
G01 X36.6008 Y252.4444
G01 X36.5399 Y252.3735
G01 X36.4738 Y252.3074
G01 X36.4029 Y252.2465
G01 X36.3277 Y252.1910
G01 X36.2485 Y252.1412
G01 X36.1659 Y252.0975
G01 X36.0802 Y252.0602
G01 X35.9920 Y252.0293
G01 X35.9017 Y252.0051
G01 X35.8098 Y251.9877
G01 X35.7170 Y251.9772
G01 X35.6235 Y251.9738
G01 X35.5301 Y251.9772
G01 X35.4372 Y251.9877
G01 X35.3454 Y252.0051
G01 X35.2551 Y252.0293
G01 X35.1669 Y252.0602
G01 X35.0812 Y252.0975
G01 X34.9986 Y252.1412
G01 X34.9194 Y252.1910
G01 X34.8442 Y252.2465
G01 X34.7733 Y252.3074
G01 X34.7072 Y252.3735
G01 X34.6463 Y252.4444
G01 X34.5908 Y252.5196
G01 X34.5410 Y252.5987
G01 X34.4974 Y252.6814
G01 X34.4600 Y252.7671
G01 X34.4291 Y252.8553
G01 X34.4049 Y252.9456
G01 X34.3875 Y253.0374
G01 X34.3771 Y253.1303
G01 X34.3736 Y253.2237
G01 X34.3771 Y253.3171
G01 X34.3875 Y253.4100
G01 X34.4049 Y253.5019
G01 X34.4291 Y253.5922
G01 X34.4600 Y253.6804
G01 X34.4974 Y253.7661
G01 X34.5410 Y253.8487
G01 X34.5908 Y253.9279
G01 X34.6463 Y254.0031
G01 X34.7072 Y254.0739
G01 X34.7733 Y254.1400
G01 X34.8442 Y254.2010
G01 X34.9194 Y254.2565
G01 X34.9986 Y254.3063
G01 X35.0812 Y254.3499
G01 X35.1669 Y254.3873
G01 X35.2551 Y254.4182
G01 X35.3454 Y254.4424
G01 X35.4372 Y254.4598
G01 X35.5301 Y254.4702
G01 X35.6235 Y254.4737
G01 X35.7170 Y254.4702
G01 X35.8098 Y254.4598
G01 X35.9017 Y254.4424
G01 X35.9920 Y254.4182
G01 X36.0802 Y254.3873
G01 X36.1659 Y254.3499
G01 X36.2485 Y254.3063
G01 X36.3277 Y254.2565
G01 X36.4029 Y254.2010
G01 X36.4738 Y254.1400
G01 X36.5399 Y254.0739
G01 X36.6008 Y254.0031
G01 X36.6563 Y253.9279
G01 X36.7061 Y253.8487
G01 X36.7497 Y253.7661
G01 X36.7871 Y253.6804
G01 X36.8180 Y253.5922
G01 X36.8422 Y253.5019
G01 X36.8596 Y253.4100
G01 X36.8700 Y253.3171
G01 X36.8735 Y253.2237
G01 X36.8693 Y253.1257
G01 X36.8564 Y253.0284
G01 X36.8352 Y252.9326
G01 X36.8057 Y252.8390
G01 X36.7681 Y252.7483
G01 X36.7228 Y252.6612
G01 X36.6701 Y252.5785
G01 X36.6103 Y252.5006
G01 X36.5440 Y252.4282
G01 X36.4717 Y252.3619
G01 X36.3938 Y252.3022
G01 X36.3110 Y252.2495
G01 X36.2240 Y252.2041
G01 X36.1333 Y252.1666
G01 X36.0397 Y252.1371
G01 X35.9439 Y252.1158
G01 X35.8466 Y252.1030
G01 X35.7485 Y252.0987
G01 X35.6505 Y252.1030
G01 X35.5532 Y252.1158
G01 X35.4574 Y252.1371
G01 X35.3638 Y252.1666
G01 X35.2731 Y252.2041
G01 X35.1860 Y252.2495
G01 X35.1033 Y252.3022
G01 X35.0254 Y252.3619
G01 X34.9531 Y252.4282
G01 X34.8867 Y252.5006
G01 X34.8270 Y252.5785
G01 X34.7743 Y252.6612
G01 X34.7290 Y252.7483
G01 X34.6914 Y252.8390
G01 X34.6619 Y252.9326
G01 X34.6406 Y253.0284
G01 X34.6278 Y253.1257
G01 X34.6235 Y253.2237
G01 X34.6274 Y253.3109
G01 X34.6387 Y253.3974
G01 X34.6576 Y253.4826
G01 X34.6839 Y253.5658
G01 X34.7172 Y253.6464
G01 X34.7575 Y253.7237
G01 X34.8044 Y253.7973
G01 X34.8575 Y253.8665
G01 X34.9164 Y253.9308
G01 X34.9808 Y253.9898
G01 X35.0500 Y254.0429
G01 X35.1235 Y254.0898
G01 X35.2009 Y254.1300
G01 X35.2815 Y254.1634
G01 X35.3647 Y254.1897
G01 X35.4499 Y254.2085
G01 X35.5364 Y254.2199
G01 X35.6235 Y254.2237
G01 X35.7107 Y254.2199
G01 X35.7972 Y254.2085
G01 X35.8824 Y254.1897
G01 X35.9656 Y254.1634
G01 X36.0462 Y254.1300
G01 X36.1235 Y254.0898
G01 X36.1971 Y254.0429
G01 X36.2663 Y253.9898
G01 X36.3307 Y253.9308
G01 X36.3896 Y253.8665
G01 X36.4427 Y253.7973
G01 X36.4896 Y253.7237
G01 X36.5299 Y253.6464
G01 X36.5632 Y253.5658
G01 X36.5895 Y253.4826
G01 X36.6084 Y253.3974
G01 X36.6197 Y253.3109
G01 X36.6235 Y253.2237
M107
M106 S240
G01 X36.6197 Y253.1366 Z-5.9045 F400
G01 X36.6084 Y253.0501 Z-5.9340
G01 X36.5895 Y252.9649 Z-5.9635
G01 X36.5632 Y252.8817 Z-5.9931
G01 X36.5299 Y252.8011 Z-6.0226
G01 X36.4896 Y252.7237 Z-6.0521
G01 X36.4427 Y252.6502 Z-6.0816
G01 X36.3896 Y252.5809 Z-6.1111
G01 X36.3307 Y252.5166 Z-6.1406
G01 X36.2663 Y252.4577 Z-6.1701
G01 X36.1971 Y252.4046 Z-6.1997
G01 X36.1235 Y252.3577 Z-6.2292
G01 X36.0462 Y252.3174 Z-6.2587
G01 X35.9656 Y252.2840 Z-6.2882
G01 X35.8824 Y252.2578 Z-6.3177
G01 X35.7972 Y252.2389 Z-6.3472
G01 X35.7107 Y252.2275 Z-6.3767
G01 X35.6235 Y252.2237 Z-6.4063
G01 X35.5364 Y252.2275 Z-6.4358
G01 X35.4499 Y252.2389 Z-6.4653
G01 X35.3647 Y252.2578 Z-6.4948
G01 X35.2815 Y252.2840 Z-6.5243
G01 X35.2009 Y252.3174 Z-6.5538
G01 X35.1235 Y252.3577 Z-6.5833
G01 X35.0500 Y252.4046 Z-6.6128
G01 X34.9808 Y252.4577 Z-6.6424
G01 X34.9164 Y252.5166 Z-6.6719
G01 X34.8575 Y252.5809 Z-6.7014
G01 X34.8044 Y252.6502 Z-6.7309
G01 X34.7575 Y252.7237 Z-6.7604
G01 X34.7172 Y252.8011 Z-6.7899
G01 X34.6839 Y252.8817 Z-6.8194
G01 X34.6576 Y252.9649 Z-6.8490
G01 X34.6387 Y253.0501 Z-6.8785
G01 X34.6274 Y253.1366 Z-6.9080
G01 X34.6235 Y253.2237 Z-6.9375
G01 X34.6274 Y253.3109 Z-6.9670
G01 X34.6387 Y253.3974 Z-6.9965
G01 X34.6576 Y253.4826 Z-7.0260
G01 X34.6839 Y253.5658 Z-7.0556
G01 X34.7172 Y253.6464 Z-7.0851
G01 X34.7575 Y253.7237 Z-7.1146
G01 X34.8044 Y253.7973 Z-7.1441
G01 X34.8575 Y253.8665 Z-7.1736
G01 X34.9164 Y253.9308 Z-7.2031
G01 X34.9808 Y253.9898 Z-7.2326
G01 X35.0500 Y254.0429 Z-7.2622
G01 X35.1235 Y254.0898 Z-7.2917
G01 X35.1653 Y254.1126 Z-7.3078
G01 X35.2081 Y254.1334 Z-7.3239
G01 X35.2519 Y254.1521 Z-7.3400
G01 X35.2965 Y254.1687 Z-7.3561
G01 X35.3418 Y254.1832 Z-7.3722
G01 X35.3878 Y254.1955 Z-7.3883
G01 X35.4343 Y254.2057 Z-7.4044
G01 X35.4812 Y254.2136 Z-7.4205
G01 X35.5285 Y254.2192 Z-7.4366
G01 X35.5760 Y254.2226 Z-7.4527
G01 X35.6235 Y254.2237 Z-7.4688
G01 X35.6711 Y254.2226 Z-7.4848
G01 X35.7186 Y254.2192 Z-7.5009
G01 X35.7659 Y254.2136 Z-7.5170
G01 X35.8128 Y254.2057 Z-7.5331
G01 X35.8593 Y254.1955 Z-7.5492
G01 X35.9053 Y254.1832 Z-7.5653
G01 X35.9506 Y254.1687 Z-7.5814
G01 X35.9952 Y254.1521 Z-7.5975
G01 X36.0390 Y254.1334 Z-7.6136
G01 X36.0818 Y254.1126 Z-7.6297
G01 X36.1235 Y254.0898 Z-7.6458
G01 X36.1642 Y254.0650 Z-7.6619
G01 X36.2036 Y254.0383 Z-7.6780
G01 X36.2417 Y254.0098 Z-7.6941
G01 X36.2784 Y253.9795 Z-7.7102
G01 X36.3136 Y253.9475 Z-7.7263
G01 X36.3473 Y253.9138 Z-7.7424
G01 X36.3793 Y253.8786 Z-7.7585
G01 X36.4096 Y253.8419 Z-7.7746
G01 X36.4381 Y253.8038 Z-7.7907
G01 X36.4648 Y253.7644 Z-7.8068
G01 X36.4896 Y253.7237 Z-7.8229
G01 X36.5124 Y253.6820 Z-7.8390
G01 X36.5332 Y253.6392 Z-7.8551
G01 X36.5519 Y253.5954 Z-7.8712
G01 X36.5686 Y253.5508 Z-7.8873
G01 X36.5830 Y253.5055 Z-7.9034
G01 X36.5954 Y253.4595 Z-7.9195
G01 X36.6055 Y253.4130 Z-7.9356
G01 X36.6134 Y253.3661 Z-7.9517
G01 X36.6190 Y253.3188 Z-7.9678
G01 X36.6224 Y253.2713 Z-7.9839
G01 X36.6235 Y253.2237 Z-8.0000
G01 X36.6197 Y253.1366
G01 X36.6084 Y253.0501
G01 X36.5895 Y252.9649
G01 X36.5632 Y252.8817
G01 X36.5299 Y252.8011
G01 X36.4896 Y252.7237
G01 X36.4427 Y252.6502
G01 X36.3896 Y252.5809
G01 X36.3307 Y252.5166
G01 X36.2663 Y252.4577
G01 X36.1971 Y252.4046
G01 X36.1235 Y252.3577
G01 X36.0462 Y252.3174
G01 X35.9656 Y252.2840
G01 X35.8824 Y252.2578
G01 X35.7972 Y252.2389
G01 X35.7107 Y252.2275
G01 X35.6235 Y252.2237
G01 X35.5364 Y252.2275
G01 X35.4499 Y252.2389
G01 X35.3647 Y252.2578
G01 X35.2815 Y252.2840
G01 X35.2009 Y252.3174
G01 X35.1235 Y252.3577
G01 X35.0500 Y252.4046
G01 X34.9808 Y252.4577
G01 X34.9164 Y252.5166
G01 X34.8575 Y252.5809
G01 X34.8044 Y252.6502
G01 X34.7575 Y252.7237
G01 X34.7172 Y252.8011
G01 X34.6839 Y252.8817
G01 X34.6576 Y252.9649
G01 X34.6387 Y253.0501
G01 X34.6274 Y253.1366
G01 X34.6235 Y253.2237
G01 X34.6274 Y253.3109
G01 X34.6387 Y253.3974
G01 X34.6576 Y253.4826
G01 X34.6839 Y253.5658
G01 X34.7172 Y253.6464
G01 X34.7575 Y253.7237
G01 X34.8044 Y253.7973
G01 X34.8575 Y253.8665
G01 X34.9164 Y253.9308
G01 X34.9808 Y253.9898
G01 X35.0500 Y254.0429
G01 X35.1235 Y254.0898
G01 X35.1653 Y254.1126
G01 X35.2081 Y254.1334
G01 X35.2519 Y254.1521
G01 X35.2965 Y254.1687
G01 X35.3418 Y254.1832
G01 X35.3878 Y254.1955
G01 X35.4343 Y254.2057
G01 X35.4812 Y254.2136
G01 X35.5285 Y254.2192
G01 X35.5760 Y254.2226
G01 X35.6235 Y254.2237
G01 X35.6711 Y254.2226
G01 X35.7186 Y254.2192
G01 X35.7659 Y254.2136
G01 X35.8128 Y254.2057
G01 X35.8593 Y254.1955
G01 X35.9053 Y254.1832
G01 X35.9506 Y254.1687
G01 X35.9952 Y254.1521
G01 X36.0390 Y254.1334
G01 X36.0818 Y254.1126
G01 X36.1235 Y254.0898
G01 X36.1642 Y254.0650
G01 X36.2036 Y254.0383
G01 X36.2417 Y254.0098
G01 X36.2784 Y253.9795
G01 X36.3136 Y253.9475
G01 X36.3473 Y253.9138
G01 X36.3793 Y253.8786
G01 X36.4096 Y253.8419
G01 X36.4381 Y253.8038
G01 X36.4648 Y253.7644
G01 X36.4896 Y253.7237
G01 X36.5124 Y253.6820
G01 X36.5332 Y253.6392
G01 X36.5519 Y253.5954
G01 X36.5686 Y253.5508
G01 X36.5830 Y253.5055
G01 X36.5954 Y253.4595
G01 X36.6055 Y253.4130
G01 X36.6134 Y253.3661
G01 X36.6190 Y253.3188
G01 X36.6224 Y253.2713
G01 X36.6235 Y253.2237
G01 X36.6343 Y253.1721 F1000
G01 X36.6424 Y253.1201
G01 X36.6478 Y253.0676
G01 X36.6504 Y253.0150
G01 Y252.9623
G01 X36.6476 Y252.9097
G01 X36.6422 Y252.8572
G01 X36.6340 Y252.8052
G01 X36.6223 Y252.7492
G01 X36.6078 Y252.6939
G01 X36.5904 Y252.6394
G01 X36.5703 Y252.5858
G01 X36.5474 Y252.5334
G01 X36.5219 Y252.4822
G01 X36.4938 Y252.4324
G01 X36.4632 Y252.3840
G01 X36.4254 Y252.3371
G01 X36.3852 Y252.2921
G01 X36.3428 Y252.2492
G01 X36.2983 Y252.2084
G01 X36.2519 Y252.1699
G01 X36.2036 Y252.1337
G01 X36.1536 Y252.1000
G01 X36.1019 Y252.0689
G01 X36.0447 Y252.0468
G01 X35.9864 Y252.0276
G01 X35.9273 Y252.0112
G01 X35.8674 Y251.9978
G01 X35.8070 Y251.9873
G01 X35.7461 Y251.9798
G01 X35.6849 Y251.9753
G01 X35.6235 Y251.9738
G01 X35.5622 Y251.9753
G01 X35.5010 Y251.9798
G01 X35.4401 Y251.9873
G01 X35.3797 Y251.9978
G01 X35.3198 Y252.0112
G01 X35.2607 Y252.0276
G01 X35.2024 Y252.0468
G01 X35.1452 Y252.0689
G01 X35.0891 Y252.0938
G01 X35.0343 Y252.1213
G01 X34.9809 Y252.1516
G01 X34.9291 Y252.1844
G01 X34.8789 Y252.2197
G01 X34.8306 Y252.2575
G01 X34.7841 Y252.2976
G01 X34.7397 Y252.3399
G01 X34.6974 Y252.3843
G01 X34.6573 Y252.4308
G01 X34.6196 Y252.4791
G01 X34.5842 Y252.5293
G01 X34.5514 Y252.5811
G01 X34.5212 Y252.6345
G01 X34.4936 Y252.6893
G01 X34.4687 Y252.7454
G01 X34.4466 Y252.8026
G01 X34.4274 Y252.8609
G01 X34.4110 Y252.9200
G01 X34.3976 Y252.9799
G01 X34.3871 Y253.0403
G01 X34.3796 Y253.1012
G01 X34.3751 Y253.1624
G01 X34.3736 Y253.2237
G01 X34.3751 Y253.2851
G01 X34.3796 Y253.3463
G01 X34.3871 Y253.4071
G01 X34.3976 Y253.4676
G01 X34.4110 Y253.5275
G01 X34.4274 Y253.5866
G01 X34.4466 Y253.6448
G01 X34.4687 Y253.7021
G01 X34.4936 Y253.7582
G01 X34.5212 Y253.8130
G01 X34.5514 Y253.8664
G01 X34.5842 Y253.9182
G01 X34.6196 Y253.9683
G01 X34.6573 Y254.0167
G01 X34.6974 Y254.0632
G01 X34.7397 Y254.1076
G01 X34.7841 Y254.1499
G01 X34.8306 Y254.1900
G01 X34.8789 Y254.2277
G01 X34.9291 Y254.2631
G01 X34.9809 Y254.2959
G01 X35.0343 Y254.3261
G01 X35.0891 Y254.3537
G01 X35.1452 Y254.3786
G01 X35.2024 Y254.4006
G01 X35.2607 Y254.4199
G01 X35.3198 Y254.4363
G01 X35.3797 Y254.4497
G01 X35.4401 Y254.4602
G01 X35.5010 Y254.4677
G01 X35.5622 Y254.4722
G01 X35.6235 Y254.4737
G01 X35.6849 Y254.4722
G01 X35.7461 Y254.4677
G01 X35.8070 Y254.4602
G01 X35.8674 Y254.4497
G01 X35.9273 Y254.4363
G01 X35.9864 Y254.4199
G01 X36.0447 Y254.4006
G01 X36.1019 Y254.3786
G01 X36.1580 Y254.3537
G01 X36.2128 Y254.3261
G01 X36.2662 Y254.2959
G01 X36.3180 Y254.2631
G01 X36.3682 Y254.2277
G01 X36.4165 Y254.1900
G01 X36.4630 Y254.1499
G01 X36.5074 Y254.1076
G01 X36.5497 Y254.0632
G01 X36.5898 Y254.0167
G01 X36.6275 Y253.9683
G01 X36.6629 Y253.9182
G01 X36.6957 Y253.8664
G01 X36.7259 Y253.8130
G01 X36.7535 Y253.7582
G01 X36.7784 Y253.7021
G01 X36.8005 Y253.6448
G01 X36.8197 Y253.5866
G01 X36.8361 Y253.5275
G01 X36.8495 Y253.4676
G01 X36.8600 Y253.4071
G01 X36.8675 Y253.3463
G01 X36.8720 Y253.2851
G01 X36.8735 Y253.2237
G01 X36.8700 Y253.1303
G01 X36.8596 Y253.0374
G01 X36.8422 Y252.9456
G01 X36.8180 Y252.8553
G01 X36.7871 Y252.7671
G01 X36.7497 Y252.6814
G01 X36.7061 Y252.5987
G01 X36.6563 Y252.5196
G01 X36.6008 Y252.4444
G01 X36.5399 Y252.3735
G01 X36.4738 Y252.3074
G01 X36.4029 Y252.2465
G01 X36.3277 Y252.1910
G01 X36.2485 Y252.1412
G01 X36.1659 Y252.0975
G01 X36.0802 Y252.0602
G01 X35.9920 Y252.0293
G01 X35.9017 Y252.0051
G01 X35.8098 Y251.9877
G01 X35.7170 Y251.9772
G01 X35.6235 Y251.9738
G01 X35.5301 Y251.9772
G01 X35.4372 Y251.9877
G01 X35.3454 Y252.0051
G01 X35.2551 Y252.0293
G01 X35.1669 Y252.0602
G01 X35.0812 Y252.0975
G01 X34.9986 Y252.1412
G01 X34.9194 Y252.1910
G01 X34.8442 Y252.2465
G01 X34.7733 Y252.3074
G01 X34.7072 Y252.3735
G01 X34.6463 Y252.4444
G01 X34.5908 Y252.5196
G01 X34.5410 Y252.5987
G01 X34.4974 Y252.6814
G01 X34.4600 Y252.7671
G01 X34.4291 Y252.8553
G01 X34.4049 Y252.9456
G01 X34.3875 Y253.0374
G01 X34.3771 Y253.1303
G01 X34.3736 Y253.2237
G01 X34.3771 Y253.3171
G01 X34.3875 Y253.4100
G01 X34.4049 Y253.5019
G01 X34.4291 Y253.5922
G01 X34.4600 Y253.6804
G01 X34.4974 Y253.7661
G01 X34.5410 Y253.8487
G01 X34.5908 Y253.9279
G01 X34.6463 Y254.0031
G01 X34.7072 Y254.0739
G01 X34.7733 Y254.1400
G01 X34.8442 Y254.2010
G01 X34.9194 Y254.2565
G01 X34.9986 Y254.3063
G01 X35.0812 Y254.3499
G01 X35.1669 Y254.3873
G01 X35.2551 Y254.4182
G01 X35.3454 Y254.4424
G01 X35.4372 Y254.4598
G01 X35.5301 Y254.4702
G01 X35.6235 Y254.4737
G01 X35.7170 Y254.4702
G01 X35.8098 Y254.4598
G01 X35.9017 Y254.4424
G01 X35.9920 Y254.4182
G01 X36.0802 Y254.3873
G01 X36.1659 Y254.3499
G01 X36.2485 Y254.3063
G01 X36.3277 Y254.2565
G01 X36.4029 Y254.2010
G01 X36.4738 Y254.1400
G01 X36.5399 Y254.0739
G01 X36.6008 Y254.0031
G01 X36.6563 Y253.9279
G01 X36.7061 Y253.8487
G01 X36.7497 Y253.7661
G01 X36.7871 Y253.6804
G01 X36.8180 Y253.5922
G01 X36.8422 Y253.5019
G01 X36.8596 Y253.4100
G01 X36.8700 Y253.3171
G01 X36.8735 Y253.2237
M107
M106 S240
G01 X36.8704 Y253.1453 Z-7.9750 F400
M107
M106 S240
G01 X36.8612 Y253.0673 Z-7.9500
M107
M106 S240
G01 X36.8459 Y252.9903 Z-7.9250
M107
M106 S240
G01 X36.8246 Y252.9147 Z-7.9000
M107
M106 S240
G01 X36.7974 Y252.8411 Z-7.8750
M107
M106 S240
G01 X36.7645 Y252.7697 Z-7.8500
M107
M106 S240
G01 X36.7262 Y252.7012 Z-7.8250
M107
M106 S240
G01 X36.6825 Y252.6360 Z-7.8000
M107
M106 S240
G01 X36.6339 Y252.5743 Z-7.7750
M107
M106 S240
G01 X36.5806 Y252.5166 Z-7.7500
M107
M106 S240
G01 X36.5230 Y252.4633 Z-7.7250
M107
M106 S240
G01 X36.4613 Y252.4147 Z-7.7000
M107
M106 S240
G01 X36.3960 Y252.3711 Z-7.6750
M107
M106 S240
G01 X36.3275 Y252.3327 Z-7.6500
M107
M106 S240
G01 X36.2562 Y252.2999 Z-7.6250
M107
M106 S240
G01 X36.1825 Y252.2727 Z-7.6000
M107
M106 S240
G01 X36.1070 Y252.2514 Z-7.5750
M107
M106 S240
G01 X36.0300 Y252.2360 Z-7.5500
M107
M106 S240
G01 X35.9520 Y252.2268 Z-7.5250
M107
M106 S240
G01 X35.8735 Y252.2237 Z-7.5000
M107
G00 Z2.0000


;No. 2: Hole 29
G00 X35.3749 Y241.8589 Z2.0000
G00 Z0.5000
G01 Z0.0000 F400
G01 Z-2.5000
M106 S240
G01 X55.3277 F1000
G01 X46.7447
G01 Y240.3589
G01 X43.9835
G01 X44.1858
G01 Y238.8589
G01 X46.5425
G01 Y237.3589
G01 X44.1858
G01 Y235.8589
G01 X46.5425
G01 Y234.3589
G01 X44.1858
G01 Y232.8589
G01 X46.5425
G01 Y231.3589
G01 X44.1858
G01 Y229.8589
G01 X46.5425
G01 Y228.3589
G01 X44.1858
G01 Y226.8589
G01 X46.5425
G01 X46.7425 Y226.8699
G01 Y225.2673
G01 X43.9858
G01 Y239.6938
G01 X43.9849 Y239.7374
G01 X43.9820 Y239.7809
G01 X43.9773 Y239.8243
G01 X43.9707 Y239.8674
G01 X43.9621 Y239.9102
G01 X43.9518 Y239.9526
G01 X43.9396 Y239.9945
G01 X43.9255 Y240.0358
G01 X43.9097 Y240.0765
G01 X43.8922 Y240.1164
G01 X43.8729 Y240.1555
G01 X43.8519 Y240.1938
G01 X43.8292 Y240.2311
G01 X43.8050 Y240.2674
G01 X43.7792 Y240.3025
G01 X43.7519 Y240.3366
G01 X43.7231 Y240.3694
G01 X43.6930 Y240.4009
G01 X43.6614 Y240.4311
G01 X43.6286 Y240.4598
G01 X43.5946 Y240.4871
G01 X43.5594 Y240.5129
G01 X43.5231 Y240.5372
G01 X43.4858 Y240.5598
G01 X43.4476 Y240.5808
G01 X43.4085 Y240.6001
G01 X43.3685 Y240.6177
G01 X43.3279 Y240.6335
G01 X43.2866 Y240.6475
G01 X43.2447 Y240.6597
G01 X43.2023 Y240.6701
G01 X43.1595 Y240.6786
G01 X43.1164 Y240.6852
G01 X43.0730 Y240.6900
G01 X43.0295 Y240.6928
G01 X42.9858 Y240.6938
G01 X41.6206 Y240.6776
G01 X40.2552 Y240.6726
G01 X38.8899 Y240.6787
G01 X37.5246 Y240.6960
G01 X37.2426 Y240.7146
G01 X36.9631 Y240.7576
G01 X36.6885 Y240.8248
G01 X36.4208 Y240.9156
G01 X36.1620 Y241.0293
G01 X35.9140 Y241.1651
G01 X35.6788 Y241.3219
G01 X35.4581 Y241.4986
G01 X35.2537 Y241.6938
G01 X35.0669 Y241.9061
G01 X34.8993 Y242.1338
G01 X34.7522 Y242.3752
G01 X34.6266 Y242.6284
G01 X34.5235 Y242.8916
G01 X34.4436 Y243.1628
G01 X34.3877 Y243.4400
G01 X34.3942 Y243.4505
G01 X56.3413 Y243.4444
G01 X56.2790 Y243.1613
G01 X56.1923 Y242.8846
G01 X56.0818 Y242.6166
G01 X55.9483 Y242.3592
G01 X55.7929 Y242.1145
G01 X55.6167 Y241.8842
G01 X55.4212 Y241.6702
G01 X55.2077 Y241.4740
G01 X54.9779 Y241.2972
G01 X54.7336 Y241.1411
G01 X54.4766 Y241.0069
G01 X54.2089 Y240.8956
G01 X53.9325 Y240.8081
G01 X53.6495 Y240.7450
G01 X53.3621 Y240.7068
G01 X53.0725 Y240.6939
G01 X47.7425
G01 X47.6640 Y240.6908
G01 X47.5860 Y240.6816
G01 X47.5090 Y240.6662
G01 X47.4335 Y240.6449
G01 X47.3598 Y240.6178
G01 X47.2885 Y240.5849
G01 X47.2200 Y240.5465
G01 X47.1547 Y240.5029
G01 X47.0930 Y240.4543
G01 X47.0354 Y240.4010
G01 X46.9821 Y240.3433
G01 X46.9335 Y240.2817
G01 X46.8898 Y240.2164
G01 X46.8515 Y240.1479
G01 X46.8186 Y240.0766
G01 X46.7914 Y240.0029
G01 X46.7701 Y239.9273
G01 X46.7548 Y239.8503
G01 X46.7456 Y239.7723
G01 X46.7425 Y239.6939
G01 Y226.8699
G01 X46.5425 Y226.8589
M107
G00 Z2.0000


;No. 3: Hole 30
G00 X65.1616 Y242.0721 Z2.0000
G00 Z0.5000
G01 Z0.0000 F400
G01 Z-2.5000
M106 S240
G01 X85.4869 F1000
G01 X85.6335 Y241.9356
G01 X85.4719 Y241.7476
G01 X85.2965 Y241.5723
G01 X85.1085 Y241.4107
G01 X84.9088 Y241.2637
G01 X84.6987 Y241.1321
G01 X84.4793 Y241.0167
G01 X84.2517 Y240.9181
G01 X84.0175 Y240.8370
G01 X83.7778 Y240.7736
G01 X83.5340 Y240.7285
G01 X83.2875 Y240.7018
G01 X83.0396 Y240.6938
G01 X67.6245
G01 X67.3336 Y240.7017
G01 X67.0445 Y240.7355
G01 X66.7596 Y240.7950
G01 X66.4812 Y240.8798
G01 X66.2115 Y240.9892
G01 X65.9526 Y241.1222
G01 X65.7067 Y241.2779
G01 X65.4757 Y241.4549
G01 X65.2614 Y241.6518
G01 X65.0656 Y241.8672
G01 X64.8899 Y242.0992
G01 X64.7356 Y242.3460
G01 X64.6040 Y242.6055
G01 X64.4961 Y242.8759
G01 X64.4128 Y243.1547
G01 X64.3549 Y243.4400
G01 X64.3613 Y243.4505
G01 X86.3087 Y243.4443
G01 X86.2704 Y243.2388
G01 X86.2183 Y243.0363
G01 X86.1526 Y242.8377
G01 X86.0737 Y242.6441
G01 X85.9819 Y242.4562
G01 X85.8776 Y242.2750
G01 X85.7613 Y242.1012
G01 X85.6335 Y241.9356
G01 X85.4869 Y242.0721
M107
G00 Z2.0000


;No. 4: Hole 31
G00 X85.4869 Y234.3589 Z2.0000
G00 Z0.5000
G01 Z0.0000 F400
G01 Z-2.5000
M106 S240
G01 X65.1616 F1000
G01 X64.9891 Y234.2552
G01 X64.8703 Y234.4191
G01 X64.7621 Y234.5901
G01 X64.6648 Y234.7676
G01 X64.5789 Y234.9508
G01 X64.5046 Y235.1391
G01 X64.4424 Y235.3317
G01 X64.3924 Y235.5278
G01 X64.3549 Y235.7267
G01 X64.3613 Y235.7372
G01 X86.3087 Y235.7311
G01 X86.2466 Y235.4479
G01 X86.1600 Y235.1711
G01 X86.0496 Y234.9030
G01 X85.9162 Y234.6455
G01 X85.7608 Y234.4006
G01 X85.5846 Y234.1703
G01 X85.3891 Y233.9562
G01 X85.1755 Y233.7600
G01 X84.9457 Y233.5831
G01 X84.7013 Y233.4270
G01 X84.4442 Y233.2929
G01 X84.1764 Y233.1817
G01 X83.8999 Y233.0943
G01 X83.6168 Y233.0313
G01 X83.3293 Y232.9933
G01 X83.0396 Y232.9806
G01 X67.6262
G01 X67.3728 Y232.9844
G01 X67.1205 Y233.0083
G01 X66.8709 Y233.0520
G01 X66.6255 Y233.1153
G01 X66.3859 Y233.1978
G01 X66.1535 Y233.2990
G01 X65.9299 Y233.4182
G01 X65.7164 Y233.5547
G01 X65.5143 Y233.7077
G01 X65.3250 Y233.8761
G01 X65.1495 Y234.0590
G01 X64.9891 Y234.2552
G01 X65.1616 Y234.3589
M107
G00 Z2.0000


;No. 5: Hole 32
G00 X65.1616 Y226.6456 Z2.0000
G00 Z0.5000
G01 Z0.0000 F400
G01 Z-2.5000
M106 S240
G01 X85.4869 F1000
G01 X85.6335 Y226.5091
G01 X85.4718 Y226.3212
G01 X85.2964 Y226.1460
G01 X85.1083 Y225.9845
G01 X84.9086 Y225.8376
G01 X84.6985 Y225.7060
G01 X84.4790 Y225.5906
G01 X84.2516 Y225.4921
G01 X84.0173 Y225.4108
G01 X83.7777 Y225.3475
G01 X83.5339 Y225.3022
G01 X83.2874 Y225.2755
G01 X83.0396 Y225.2673
G01 X67.6262
G01 X67.3351 Y225.2747
G01 X67.0458 Y225.3082
G01 X66.7607 Y225.3674
G01 X66.4820 Y225.4520
G01 X66.2120 Y225.5612
G01 X65.9529 Y225.6941
G01 X65.7068 Y225.8497
G01 X65.4755 Y226.0268
G01 X65.2611 Y226.2239
G01 X65.0652 Y226.4393
G01 X64.8894 Y226.6715
G01 X64.7350 Y226.9185
G01 X64.6035 Y227.1783
G01 X64.4957 Y227.4488
G01 X64.4126 Y227.7280
G01 X64.3549 Y228.0134
G01 X64.3613 Y228.0239
G01 X86.3087 Y228.0178
G01 X86.2704 Y227.8123
G01 X86.2183 Y227.6098
G01 X86.1526 Y227.4112
G01 X86.0737 Y227.2176
G01 X85.9819 Y227.0297
G01 X85.8776 Y226.8484
G01 X85.7613 Y226.6747
G01 X85.6335 Y226.5091
G01 X85.4869 Y226.6456
M107
G00 Z2.0000


;No. 6: Hole 33
G00 X95.3357 Y226.8589 Z2.0000
G00 Z0.5000
G01 Z0.0000 F400
G01 Z-2.5000
M106 S240
G01 X116.1201 F1000
G01 Y228.3589
G01 X113.5612
G01 X113.7635
G01 Y229.8589
G01 X116.1201
G01 Y231.3589
G01 X113.7635
G01 Y232.8589
G01 X113.3798
G01 X116.1201
G01 Y234.3589
G01 X94.4803
G01 Y235.8589
G01 X97.2206
G01 X96.8369
G01 Y237.3589
G01 X94.4803
G01 Y238.8589
G01 X96.8369
G01 Y240.3589
G01 X97.0392
G01 X94.4803
G01 Y241.8589
G01 X115.2638
G01 X115.4149 Y241.7275
G01 X115.1725 Y241.4938
G01 X114.9073 Y241.2864
G01 X114.6221 Y241.1074
G01 X114.3200 Y240.9587
G01 X114.0041 Y240.8419
G01 X113.6780 Y240.7583
G01 X113.3449 Y240.7088
G01 X113.0085 Y240.6939
G01 X98.0369
G01 X97.9933 Y240.6929
G01 X97.9498 Y240.6901
G01 X97.9064 Y240.6853
G01 X97.8633 Y240.6787
G01 X97.8205 Y240.6702
G01 X97.7781 Y240.6598
G01 X97.7362 Y240.6476
G01 X97.6949 Y240.6336
G01 X97.6542 Y240.6178
G01 X97.6143 Y240.6002
G01 X97.5752 Y240.5809
G01 X97.5369 Y240.5599
G01 X97.4996 Y240.5373
G01 X97.4634 Y240.5130
G01 X97.4282 Y240.4872
G01 X97.3941 Y240.4599
G01 X97.3613 Y240.4311
G01 X97.3298 Y240.4010
G01 X97.2997 Y240.3695
G01 X97.2709 Y240.3367
G01 X97.2436 Y240.3026
G01 X97.2178 Y240.2674
G01 X97.1935 Y240.2312
G01 X97.1709 Y240.1939
G01 X97.1499 Y240.1556
G01 X97.1306 Y240.1165
G01 X97.1131 Y240.0766
G01 X97.0972 Y240.0359
G01 X97.0832 Y239.9946
G01 X97.0710 Y239.9527
G01 X97.0606 Y239.9103
G01 X97.0521 Y239.8675
G01 X97.0455 Y239.8244
G01 X97.0407 Y239.7810
G01 X97.0379 Y239.7375
G01 X97.0369 Y239.6939
G01 Y236.7372
G01 X97.0400 Y236.6588
G01 X97.0492 Y236.5808
G01 X97.0646 Y236.5038
G01 X97.0859 Y236.4282
G01 X97.1131 Y236.3545
G01 X97.1459 Y236.2832
G01 X97.1843 Y236.2147
G01 X97.2279 Y236.1494
G01 X97.2765 Y236.0878
G01 X97.3298 Y236.0301
G01 X97.3875 Y235.9768
G01 X97.4491 Y235.9282
G01 X97.5144 Y235.8846
G01 X97.5829 Y235.8462
G01 X97.6542 Y235.8134
G01 X97.7279 Y235.7862
G01 X97.8035 Y235.7649
G01 X97.8805 Y235.7495
G01 X97.9585 Y235.7403
G01 X98.0369 Y235.7372
G01 X116.3201
G01 Y225.2673
G01 X94.3303
G01 X94.3906 Y225.5512
G01 X94.4755 Y225.8287
G01 X94.5845 Y226.0976
G01 X94.7168 Y226.3559
G01 X94.8712 Y226.6016
G01 X95.0466 Y226.8328
G01 X95.2417 Y227.0477
G01 X95.4549 Y227.2446
G01 X95.6845 Y227.4220
G01 X95.9289 Y227.5785
G01 X96.1861 Y227.7129
G01 X96.4541 Y227.8243
G01 X96.7308 Y227.9116
G01 X97.0142 Y227.9743
G01 X97.3019 Y228.0118
G01 X97.5919 Y228.0239
G01 X112.5635
G01 X112.6420 Y228.0270
G01 X112.7199 Y228.0363
G01 X112.7969 Y228.0516
G01 X112.8725 Y228.0729
G01 X112.9462 Y228.1001
G01 X113.0175 Y228.1329
G01 X113.0860 Y228.1713
G01 X113.1513 Y228.2149
G01 X113.2129 Y228.2635
G01 X113.2706 Y228.3168
G01 X113.3239 Y228.3745
G01 X113.3725 Y228.4362
G01 X113.4161 Y228.5015
G01 X113.4545 Y228.5700
G01 X113.4874 Y228.6413
G01 X113.5146 Y228.7149
G01 X113.5359 Y228.7905
G01 X113.5512 Y228.8675
G01 X113.5604 Y228.9455
G01 X113.5635 Y229.0239
G01 Y231.9806
G01 X113.5604 Y232.0590
G01 X113.5512 Y232.1370
G01 X113.5359 Y232.2140
G01 X113.5146 Y232.2896
G01 X113.4874 Y232.3633
G01 X113.4545 Y232.4346
G01 X113.4161 Y232.5031
G01 X113.3725 Y232.5684
G01 X113.3239 Y232.6300
G01 X113.2706 Y232.6877
G01 X113.2129 Y232.7410
G01 X113.1513 Y232.7896
G01 X113.0860 Y232.8332
G01 X113.0175 Y232.8716
G01 X112.9462 Y232.9045
G01 X112.8725 Y232.9316
G01 X112.7969 Y232.9530
G01 X112.7199 Y232.9683
G01 X112.6420 Y232.9775
G01 X112.5635 Y232.9806
G01 X94.2803
G01 Y243.4505
G01 X116.2774 Y243.4444
G01 X116.2308 Y243.2048
G01 X116.1657 Y242.9696
G01 X116.0824 Y242.7402
G01 X115.9815 Y242.5180
G01 X115.8635 Y242.3043
G01 X115.7292 Y242.1006
G01 X115.5793 Y241.9079
G01 X115.4149 Y241.7275
G01 X115.2638 Y241.8589
M107
G00 Z2.0000


;No. 7: Hole 34
G00 X124.4475 Y241.8589 Z2.0000
G00 Z0.5000
G01 Z0.0000 F400
G01 Z-2.5000
M106 S240
G01 X126.8041 F1000
G01 Y240.3589
G01 X124.4475
G01 Y238.8589
G01 X126.8041
G01 Y237.3589
G01 X124.4475
G01 Y235.8589
G01 X126.8041
G01 Y234.3589
G01 X124.4475
G01 Y232.8589
G01 X126.8041
G01 Y231.3589
G01 X124.4475
G01 Y229.8589
G01 X126.8041
G01 Y228.3589
G01 X127.0064
G01 X124.4475
G01 Y226.8589
G01 X145.5816
G01 X145.7350 Y226.7290
G01 X145.5743 Y226.5110
G01 X145.3964 Y226.3069
G01 X145.2025 Y226.1179
G01 X144.9938 Y225.9453
G01 X144.7717 Y225.7903
G01 X144.5378 Y225.6538
G01 X144.2935 Y225.5369
G01 X144.0405 Y225.4403
G01 X143.7805 Y225.3646
G01 X143.5152 Y225.3103
G01 X143.2463 Y225.2778
G01 X142.9757 Y225.2673
G01 X124.2475
G01 Y243.4505
G01 X127.0041
G01 Y229.0239
G01 X127.0072 Y228.9450
G01 X127.0166 Y228.8665
G01 X127.0321 Y228.7890
G01 X127.0537 Y228.7130
G01 X127.0812 Y228.6390
G01 X127.1145 Y228.5673
G01 X127.1533 Y228.4985
G01 X127.1975 Y228.4329
G01 X127.2467 Y228.3711
G01 X127.3006 Y228.3133
G01 X127.3589 Y228.2600
G01 X127.4212 Y228.2114
G01 X127.4872 Y228.1679
G01 X127.5564 Y228.1298
G01 X127.6284 Y228.0972
G01 X127.7027 Y228.0704
G01 X127.7790 Y228.0496
G01 X127.8566 Y228.0349
G01 X127.9351 Y228.0263
G01 X128.0141 Y228.0239
G01 X146.2447 Y228.0179
G01 X146.2137 Y227.8459
G01 X146.1730 Y227.6761
G01 X146.1227 Y227.5087
G01 X146.0631 Y227.3445
G01 X145.9942 Y227.1839
G01 X145.9165 Y227.0275
G01 X145.8300 Y226.8757
G01 X145.7350 Y226.7290
G01 X145.5816 Y226.8589
M107
G00 Z2.0000


;No. 8: Hole 35
G00 X154.4164 Y226.7523 Z2.0000
G00 Z0.5000
G01 Z0.0000 F400
G01 Z-2.5000
M106 S240
G01 X156.7731 F1000
G01 Y228.2523
G01 X154.4164
G01 Y229.7523
G01 X156.7731
G01 Y231.2523
G01 X154.4164
G01 Y232.7523
G01 X157.0545
G01 X154.4164 Y234.2523
G01 X176.0563
G01 Y232.7523
G01 X173.4182
G01 X173.6996
G01 Y231.2523
G01 X176.0563
G01 Y229.7523
G01 X173.6996
G01 Y228.2523
G01 X176.0563
G01 Y226.7523
G01 X173.6996
G01 X173.4996 Y226.7618
G01 Y231.9806
G01 X173.4965 Y232.0590
G01 X173.4873 Y232.1370
G01 X173.4720 Y232.2140
G01 X173.4507 Y232.2896
G01 X173.4235 Y232.3633
G01 X173.3906 Y232.4346
G01 X173.3523 Y232.5031
G01 X173.3086 Y232.5684
G01 X173.2600 Y232.6300
G01 X173.2067 Y232.6877
G01 X173.1491 Y232.7410
G01 X173.0874 Y232.7896
G01 X173.0221 Y232.8332
G01 X172.9536 Y232.8716
G01 X172.8823 Y232.9045
G01 X172.8086 Y232.9316
G01 X172.7331 Y232.9530
G01 X172.6561 Y232.9683
G01 X172.5781 Y232.9775
G01 X172.4996 Y232.9806
G01 X157.9731
G01 X157.9294 Y232.9796
G01 X157.8859 Y232.9768
G01 X157.8425 Y232.9720
G01 X157.7994 Y232.9654
G01 X157.7566 Y232.9569
G01 X157.7142 Y232.9465
G01 X157.6724 Y232.9343
G01 X157.6310 Y232.9203
G01 X157.5904 Y232.9045
G01 X157.5504 Y232.8869
G01 X157.5113 Y232.8676
G01 X157.4731 Y232.8466
G01 X157.4358 Y232.8240
G01 X157.3995 Y232.7997
G01 X157.3643 Y232.7739
G01 X157.3303 Y232.7466
G01 X157.2975 Y232.7179
G01 X157.2660 Y232.6877
G01 X157.2358 Y232.6562
G01 X157.2070 Y232.6234
G01 X157.1797 Y232.5894
G01 X157.1539 Y232.5542
G01 X157.1297 Y232.5179
G01 X157.1070 Y232.4806
G01 X157.0861 Y232.4423
G01 X157.0668 Y232.4032
G01 X157.0492 Y232.3633
G01 X157.0334 Y232.3226
G01 X157.0193 Y232.2813
G01 X157.0071 Y232.2394
G01 X156.9968 Y232.1970
G01 X156.9883 Y232.1542
G01 X156.9816 Y232.1111
G01 X156.9769 Y232.0677
G01 X156.9740 Y232.0242
G01 X156.9731 Y231.9806
G01 Y225.2673
G01 X154.2164
G01 Y235.7372
G01 X176.2563
G01 Y225.2673
G01 X173.4996
G01 Y226.7618
G01 X173.6996 Y226.7523
M107
G00 Z2.0000


;No. 9: Helical drill 2
G00 X176.1235 Y253.2237 Z2.0000
G00 Z0.5000
M106 S240
G01 X176.1197 Y253.1366 Z0.4705 F400
G01 X176.1083 Y253.0501 Z0.4410
G01 X176.0894 Y252.9649 Z0.4115
G01 X176.0632 Y252.8817 Z0.3819
G01 X176.0298 Y252.8011 Z0.3524
G01 X175.9895 Y252.7237 Z0.3229
G01 X175.9427 Y252.6502 Z0.2934
G01 X175.8896 Y252.5809 Z0.2639
G01 X175.8306 Y252.5166 Z0.2344
G01 X175.7663 Y252.4577 Z0.2049
G01 X175.6971 Y252.4046 Z0.1753
G01 X175.6235 Y252.3577 Z0.1458
G01 X175.5461 Y252.3174 Z0.1163
G01 X175.4655 Y252.2840 Z0.0868
G01 X175.3823 Y252.2578 Z0.0573
G01 X175.2972 Y252.2389 Z0.0278
G01 X175.2107 Y252.2275 Z-0.0017
G01 X175.1235 Y252.2237 Z-0.0313
G01 X175.0364 Y252.2275 Z-0.0608
G01 X174.9499 Y252.2389 Z-0.0903
G01 X174.8647 Y252.2578 Z-0.1198
G01 X174.7815 Y252.2840 Z-0.1493
G01 X174.7009 Y252.3174 Z-0.1788
G01 X174.6235 Y252.3577 Z-0.2083
G01 X174.5499 Y252.4046 Z-0.2378
G01 X174.4807 Y252.4577 Z-0.2674
G01 X174.4164 Y252.5166 Z-0.2969
G01 X174.3575 Y252.5809 Z-0.3264
G01 X174.3044 Y252.6502 Z-0.3559
G01 X174.2575 Y252.7237 Z-0.3854
G01 X174.2172 Y252.8011 Z-0.4149
G01 X174.1838 Y252.8817 Z-0.4444
G01 X174.1576 Y252.9649 Z-0.4740
G01 X174.1387 Y253.0501 Z-0.5035
G01 X174.1273 Y253.1366 Z-0.5330
G01 X174.1235 Y253.2237 Z-0.5625
G01 X174.1273 Y253.3109 Z-0.5920
G01 X174.1387 Y253.3974 Z-0.6215
G01 X174.1576 Y253.4825 Z-0.6510
G01 X174.1838 Y253.5657 Z-0.6806
G01 X174.2172 Y253.6463 Z-0.7101
G01 X174.2575 Y253.7237 Z-0.7396
G01 X174.3044 Y253.7973 Z-0.7691
G01 X174.3575 Y253.8665 Z-0.7986
G01 X174.4164 Y253.9308 Z-0.8281
G01 X174.4807 Y253.9898 Z-0.8576
G01 X174.5499 Y254.0429 Z-0.8872
G01 X174.6235 Y254.0898 Z-0.9167
G01 X174.6653 Y254.1126 Z-0.9328
G01 X174.7081 Y254.1334 Z-0.9489
G01 X174.7518 Y254.1521 Z-0.9650
G01 X174.7964 Y254.1687 Z-0.9811
G01 X174.8418 Y254.1832 Z-0.9972
G01 X174.8877 Y254.1955 Z-1.0133
G01 X174.9343 Y254.2057 Z-1.0294
G01 X174.9812 Y254.2136 Z-1.0455
G01 X175.0285 Y254.2192 Z-1.0616
G01 X175.0759 Y254.2226 Z-1.0777
G01 X175.1235 Y254.2237 Z-1.0938
G01 X175.1711 Y254.2226 Z-1.1098
G01 X175.2186 Y254.2192 Z-1.1259
G01 X175.2658 Y254.2136 Z-1.1420
G01 X175.3128 Y254.2057 Z-1.1581
G01 X175.3593 Y254.1955 Z-1.1742
G01 X175.4052 Y254.1832 Z-1.1903
G01 X175.4506 Y254.1687 Z-1.2064
G01 X175.4952 Y254.1521 Z-1.2225
G01 X175.5389 Y254.1334 Z-1.2386
G01 X175.5817 Y254.1126 Z-1.2547
G01 X175.6235 Y254.0898 Z-1.2708
G01 X175.6641 Y254.0650 Z-1.2869
G01 X175.7036 Y254.0383 Z-1.3030
G01 X175.7417 Y254.0098 Z-1.3191
G01 X175.7784 Y253.9795 Z-1.3352
G01 X175.8136 Y253.9475 Z-1.3513
G01 X175.8472 Y253.9138 Z-1.3674
G01 X175.8793 Y253.8786 Z-1.3835
G01 X175.9096 Y253.8419 Z-1.3996
G01 X175.9381 Y253.8038 Z-1.4157
G01 X175.9648 Y253.7644 Z-1.4318
G01 X175.9895 Y253.7237 Z-1.4479
G01 X176.0123 Y253.6820 Z-1.4640
G01 X176.0331 Y253.6391 Z-1.4801
G01 X176.0519 Y253.5954 Z-1.4962
G01 X176.0685 Y253.5508 Z-1.5123
G01 X176.0830 Y253.5055 Z-1.5284
G01 X176.0953 Y253.4595 Z-1.5445
G01 X176.1054 Y253.4130 Z-1.5606
G01 X176.1133 Y253.3660 Z-1.5767
G01 X176.1190 Y253.3188 Z-1.5928
G01 X176.1224 Y253.2713 Z-1.6089
G01 X176.1235 Y253.2237 Z-1.6250
G01 X176.1197 Y253.1366
G01 X176.1083 Y253.0501
G01 X176.0894 Y252.9649
G01 X176.0632 Y252.8817
G01 X176.0298 Y252.8011
G01 X175.9895 Y252.7237
G01 X175.9427 Y252.6502
G01 X175.8896 Y252.5809
G01 X175.8306 Y252.5166
G01 X175.7663 Y252.4577
G01 X175.6971 Y252.4046
G01 X175.6235 Y252.3577
G01 X175.5461 Y252.3174
G01 X175.4655 Y252.2840
G01 X175.3823 Y252.2578
G01 X175.2972 Y252.2389
G01 X175.2107 Y252.2275
G01 X175.1235 Y252.2237
G01 X175.0364 Y252.2275
G01 X174.9499 Y252.2389
G01 X174.8647 Y252.2578
G01 X174.7815 Y252.2840
G01 X174.7009 Y252.3174
G01 X174.6235 Y252.3577
G01 X174.5499 Y252.4046
G01 X174.4807 Y252.4577
G01 X174.4164 Y252.5166
G01 X174.3575 Y252.5809
G01 X174.3044 Y252.6502
G01 X174.2575 Y252.7237
G01 X174.2172 Y252.8011
G01 X174.1838 Y252.8817
G01 X174.1576 Y252.9649
G01 X174.1387 Y253.0501
G01 X174.1273 Y253.1366
G01 X174.1235 Y253.2237
G01 X174.1273 Y253.3109
G01 X174.1387 Y253.3974
G01 X174.1576 Y253.4825
G01 X174.1838 Y253.5657
G01 X174.2172 Y253.6463
G01 X174.2575 Y253.7237
G01 X174.3044 Y253.7973
G01 X174.3575 Y253.8665
G01 X174.4164 Y253.9308
G01 X174.4807 Y253.9898
G01 X174.5499 Y254.0429
G01 X174.6235 Y254.0898
G01 X174.6653 Y254.1126
G01 X174.7081 Y254.1334
G01 X174.7518 Y254.1521
G01 X174.7964 Y254.1687
G01 X174.8418 Y254.1832
G01 X174.8877 Y254.1955
G01 X174.9343 Y254.2057
G01 X174.9812 Y254.2136
G01 X175.0285 Y254.2192
G01 X175.0759 Y254.2226
G01 X175.1235 Y254.2237
G01 X175.1711 Y254.2226
G01 X175.2186 Y254.2192
G01 X175.2658 Y254.2136
G01 X175.3128 Y254.2057
G01 X175.3593 Y254.1955
G01 X175.4052 Y254.1832
G01 X175.4506 Y254.1687
G01 X175.4952 Y254.1521
G01 X175.5389 Y254.1334
G01 X175.5817 Y254.1126
G01 X175.6235 Y254.0898
G01 X175.6641 Y254.0650
G01 X175.7036 Y254.0383
G01 X175.7417 Y254.0098
G01 X175.7784 Y253.9795
G01 X175.8136 Y253.9475
G01 X175.8472 Y253.9138
G01 X175.8793 Y253.8786
G01 X175.9096 Y253.8419
G01 X175.9381 Y253.8038
G01 X175.9648 Y253.7644
G01 X175.9895 Y253.7237
G01 X176.0123 Y253.6820
G01 X176.0331 Y253.6391
G01 X176.0519 Y253.5954
G01 X176.0685 Y253.5508
G01 X176.0830 Y253.5055
G01 X176.0953 Y253.4595
G01 X176.1054 Y253.4130
G01 X176.1133 Y253.3660
G01 X176.1190 Y253.3188
G01 X176.1224 Y253.2713
G01 X176.1235 Y253.2237
G01 X176.1343 Y253.1721 F1000
G01 X176.1423 Y253.1201
G01 X176.1477 Y253.0676
G01 X176.1504 Y253.0150
G01 Y252.9623
G01 X176.1476 Y252.9097
G01 X176.1421 Y252.8572
G01 X176.1340 Y252.8052
G01 X176.1223 Y252.7492
G01 X176.1077 Y252.6939
G01 X176.0903 Y252.6394
G01 X176.0702 Y252.5858
G01 X176.0474 Y252.5334
G01 X176.0219 Y252.4822
G01 X175.9938 Y252.4324
G01 X175.9632 Y252.3840
G01 X175.9253 Y252.3371
G01 X175.8851 Y252.2921
G01 X175.8428 Y252.2491
G01 X175.7983 Y252.2084
G01 X175.7519 Y252.1699
G01 X175.7036 Y252.1337
G01 X175.6535 Y252.1000
G01 X175.6019 Y252.0689
G01 X175.5446 Y252.0468
G01 X175.4864 Y252.0276
G01 X175.4272 Y252.0112
G01 X175.3674 Y251.9978
G01 X175.3069 Y251.9873
G01 X175.2460 Y251.9798
G01 X175.1848 Y251.9753
G01 X175.1235 Y251.9738
G01 X175.0622 Y251.9753
G01 X175.0010 Y251.9798
G01 X174.9401 Y251.9873
G01 X174.8797 Y251.9978
G01 X174.8198 Y252.0112
G01 X174.7607 Y252.0276
G01 X174.7024 Y252.0468
G01 X174.6452 Y252.0689
G01 X174.5891 Y252.0938
G01 X174.5343 Y252.1213
G01 X174.4809 Y252.1516
G01 X174.4291 Y252.1844
G01 X174.3789 Y252.2197
G01 X174.3305 Y252.2575
G01 X174.2841 Y252.2976
G01 X174.2396 Y252.3399
G01 X174.1973 Y252.3843
G01 X174.1573 Y252.4308
G01 X174.1195 Y252.4791
G01 X174.0842 Y252.5293
G01 X174.0514 Y252.5811
G01 X174.0211 Y252.6345
G01 X173.9935 Y252.6893
G01 X173.9687 Y252.7454
G01 X173.9466 Y252.8026
G01 X173.9274 Y252.8609
G01 X173.9110 Y252.9200
G01 X173.8975 Y252.9799
G01 X173.8871 Y253.0403
G01 X173.8795 Y253.1012
G01 X173.8750 Y253.1624
G01 X173.8735 Y253.2237
G01 X173.8750 Y253.2851
G01 X173.8795 Y253.3462
G01 X173.8871 Y253.4071
G01 X173.8975 Y253.4676
G01 X173.9110 Y253.5274
G01 X173.9274 Y253.5866
G01 X173.9466 Y253.6448
G01 X173.9687 Y253.7021
G01 X173.9935 Y253.7582
G01 X174.0211 Y253.8130
G01 X174.0514 Y253.8663
G01 X174.0842 Y253.9182
G01 X174.1195 Y253.9683
G01 X174.1573 Y254.0167
G01 X174.1973 Y254.0632
G01 X174.2396 Y254.1076
G01 X174.2841 Y254.1499
G01 X174.3305 Y254.1900
G01 X174.3789 Y254.2277
G01 X174.4291 Y254.2630
G01 X174.4809 Y254.2959
G01 X174.5343 Y254.3261
G01 X174.5891 Y254.3537
G01 X174.6452 Y254.3786
G01 X174.7024 Y254.4006
G01 X174.7607 Y254.4199
G01 X174.8198 Y254.4362
G01 X174.8797 Y254.4497
G01 X174.9401 Y254.4602
G01 X175.0010 Y254.4677
G01 X175.0622 Y254.4722
G01 X175.1235 Y254.4737
G01 X175.1848 Y254.4722
G01 X175.2460 Y254.4677
G01 X175.3069 Y254.4602
G01 X175.3674 Y254.4497
G01 X175.4272 Y254.4362
G01 X175.4864 Y254.4199
G01 X175.5446 Y254.4006
G01 X175.6019 Y254.3786
G01 X175.6579 Y254.3537
G01 X175.7127 Y254.3261
G01 X175.7661 Y254.2959
G01 X175.8180 Y254.2630
G01 X175.8681 Y254.2277
G01 X175.9165 Y254.1900
G01 X175.9629 Y254.1499
G01 X176.0074 Y254.1076
G01 X176.0497 Y254.0632
G01 X176.0898 Y254.0167
G01 X176.1275 Y253.9683
G01 X176.1628 Y253.9182
G01 X176.1957 Y253.8663
G01 X176.2259 Y253.8130
G01 X176.2535 Y253.7582
G01 X176.2783 Y253.7021
G01 X176.3004 Y253.6448
G01 X176.3197 Y253.5866
G01 X176.3360 Y253.5274
G01 X176.3495 Y253.4676
G01 X176.3600 Y253.4071
G01 X176.3675 Y253.3462
G01 X176.3720 Y253.2851
G01 X176.3735 Y253.2237
G01 X176.3700 Y253.1303
G01 X176.3595 Y253.0374
G01 X176.3421 Y252.9456
G01 X176.3180 Y252.8553
G01 X176.2871 Y252.7671
G01 X176.2497 Y252.6814
G01 X176.2060 Y252.5987
G01 X176.1563 Y252.5196
G01 X176.1008 Y252.4444
G01 X176.0398 Y252.3735
G01 X175.9737 Y252.3074
G01 X175.9029 Y252.2465
G01 X175.8276 Y252.1909
G01 X175.7485 Y252.1412
G01 X175.6659 Y252.0975
G01 X175.5802 Y252.0602
G01 X175.4919 Y252.0293
G01 X175.4017 Y252.0051
G01 X175.3098 Y251.9877
G01 X175.2169 Y251.9772
G01 X175.1235 Y251.9738
G01 X175.0301 Y251.9772
G01 X174.9372 Y251.9877
G01 X174.8454 Y252.0051
G01 X174.7551 Y252.0293
G01 X174.6668 Y252.0602
G01 X174.5812 Y252.0975
G01 X174.4985 Y252.1412
G01 X174.4194 Y252.1909
G01 X174.3442 Y252.2465
G01 X174.2733 Y252.3074
G01 X174.2072 Y252.3735
G01 X174.1462 Y252.4444
G01 X174.0907 Y252.5196
G01 X174.0410 Y252.5987
G01 X173.9973 Y252.6814
G01 X173.9599 Y252.7671
G01 X173.9291 Y252.8553
G01 X173.9049 Y252.9456
G01 X173.8875 Y253.0374
G01 X173.8770 Y253.1303
G01 X173.8735 Y253.2237
G01 X173.8770 Y253.3171
G01 X173.8875 Y253.4100
G01 X173.9049 Y253.5019
G01 X173.9291 Y253.5922
G01 X173.9599 Y253.6804
G01 X173.9973 Y253.7661
G01 X174.0410 Y253.8487
G01 X174.0907 Y253.9279
G01 X174.1462 Y254.0031
G01 X174.2072 Y254.0739
G01 X174.2733 Y254.1400
G01 X174.3442 Y254.2010
G01 X174.4194 Y254.2565
G01 X174.4985 Y254.3062
G01 X174.5812 Y254.3499
G01 X174.6668 Y254.3873
G01 X174.7551 Y254.4182
G01 X174.8454 Y254.4424
G01 X174.9372 Y254.4597
G01 X175.0301 Y254.4702
G01 X175.1235 Y254.4737
G01 X175.2169 Y254.4702
G01 X175.3098 Y254.4597
G01 X175.4017 Y254.4424
G01 X175.4919 Y254.4182
G01 X175.5802 Y254.3873
G01 X175.6659 Y254.3499
G01 X175.7485 Y254.3062
G01 X175.8276 Y254.2565
G01 X175.9029 Y254.2010
G01 X175.9737 Y254.1400
G01 X176.0398 Y254.0739
G01 X176.1008 Y254.0031
G01 X176.1563 Y253.9279
G01 X176.2060 Y253.8487
G01 X176.2497 Y253.7661
G01 X176.2871 Y253.6804
G01 X176.3180 Y253.5922
G01 X176.3421 Y253.5019
G01 X176.3595 Y253.4100
G01 X176.3700 Y253.3171
G01 X176.3735 Y253.2237
G01 X176.3692 Y253.1257
G01 X176.3564 Y253.0284
G01 X176.3352 Y252.9326
G01 X176.3056 Y252.8390
G01 X176.2681 Y252.7483
G01 X176.2228 Y252.6612
G01 X176.1700 Y252.5785
G01 X176.1103 Y252.5006
G01 X176.0440 Y252.4282
G01 X175.9716 Y252.3619
G01 X175.8938 Y252.3022
G01 X175.8110 Y252.2495
G01 X175.7239 Y252.2041
G01 X175.6333 Y252.1666
G01 X175.5397 Y252.1371
G01 X175.4439 Y252.1158
G01 X175.3465 Y252.1030
G01 X175.2485 Y252.0987
G01 X175.1504 Y252.1030
G01 X175.0531 Y252.1158
G01 X174.9573 Y252.1371
G01 X174.8637 Y252.1666
G01 X174.7731 Y252.2041
G01 X174.6860 Y252.2495
G01 X174.6032 Y252.3022
G01 X174.5254 Y252.3619
G01 X174.4530 Y252.4282
G01 X174.3867 Y252.5006
G01 X174.3270 Y252.5785
G01 X174.2742 Y252.6612
G01 X174.2289 Y252.7483
G01 X174.1914 Y252.8390
G01 X174.1618 Y252.9326
G01 X174.1406 Y253.0284
G01 X174.1278 Y253.1257
G01 X174.1235 Y253.2237
G01 X174.1246 Y253.2699
G01 X174.1278 Y253.3160
G01 X174.1331 Y253.3619
G01 X174.1405 Y253.4075
G01 X174.1501 Y253.4527
G01 X174.1617 Y253.4974
G01 X174.1753 Y253.5415
G01 X174.1910 Y253.5850
G01 X174.2087 Y253.6277
G01 X174.2283 Y253.6695
G01 X174.2499 Y253.7103
G01 X174.2733 Y253.7502
G01 X174.2985 Y253.7889
G01 X174.3255 Y253.8264
G01 X174.3542 Y253.8626
G01 X174.3845 Y253.8974
G01 X174.4164 Y253.9308
G01 X174.4498 Y253.9627
G01 X174.4847 Y253.9931
G01 X174.5209 Y254.0217
G01 X174.5584 Y254.0487
G01 X174.5971 Y254.0739
G01 X174.6369 Y254.0974
G01 X174.6778 Y254.1189
G01 X174.7196 Y254.1385
G01 X174.7623 Y254.1562
G01 X174.8057 Y254.1719
G01 X174.8498 Y254.1856
G01 X174.8946 Y254.1972
G01 X174.9398 Y254.2067
G01 X174.9854 Y254.2141
G01 X175.0312 Y254.2195
G01 X175.0773 Y254.2227
G01 X175.1235 Y254.2237
G01 X175.1697 Y254.2227
G01 X175.2158 Y254.2195
G01 X175.2617 Y254.2141
G01 X175.3073 Y254.2067
G01 X175.3525 Y254.1972
G01 X175.3972 Y254.1856
G01 X175.4413 Y254.1719
G01 X175.4848 Y254.1562
G01 X175.5274 Y254.1385
G01 X175.5692 Y254.1189
G01 X175.6101 Y254.0974
G01 X175.6499 Y254.0739
G01 X175.6886 Y254.0487
G01 X175.7261 Y254.0217
G01 X175.7624 Y253.9931
G01 X175.7972 Y253.9627
G01 X175.8306 Y253.9308
G01 X175.8625 Y253.8974
G01 X175.8928 Y253.8626
G01 X175.9215 Y253.8264
G01 X175.9485 Y253.7889
G01 X175.9737 Y253.7502
G01 X175.9971 Y253.7103
G01 X176.0187 Y253.6695
G01 X176.0383 Y253.6277
G01 X176.0560 Y253.5850
G01 X176.0717 Y253.5415
G01 X176.0853 Y253.4974
G01 X176.0969 Y253.4527
G01 X176.1065 Y253.4075
G01 X176.1139 Y253.3619
G01 X176.1192 Y253.3160
G01 X176.1224 Y253.2699
G01 X176.1235 Y253.2237
M107
M106 S240
G01 X176.1197 Y253.1366 Z-1.6545 F400
G01 X176.1083 Y253.0501 Z-1.6840
G01 X176.0894 Y252.9649 Z-1.7135
G01 X176.0632 Y252.8817 Z-1.7431
G01 X176.0298 Y252.8011 Z-1.7726
G01 X175.9895 Y252.7237 Z-1.8021
G01 X175.9427 Y252.6502 Z-1.8316
G01 X175.8896 Y252.5809 Z-1.8611
G01 X175.8306 Y252.5166 Z-1.8906
G01 X175.7663 Y252.4577 Z-1.9201
G01 X175.6971 Y252.4046 Z-1.9497
G01 X175.6235 Y252.3577 Z-1.9792
G01 X175.5461 Y252.3174 Z-2.0087
G01 X175.4655 Y252.2840 Z-2.0382
G01 X175.3823 Y252.2578 Z-2.0677
G01 X175.2972 Y252.2389 Z-2.0972
G01 X175.2107 Y252.2275 Z-2.1267
G01 X175.1235 Y252.2237 Z-2.1563
G01 X175.0364 Y252.2275 Z-2.1858
G01 X174.9499 Y252.2389 Z-2.2153
G01 X174.8647 Y252.2578 Z-2.2448
G01 X174.7815 Y252.2840 Z-2.2743
G01 X174.7009 Y252.3174 Z-2.3038
G01 X174.6235 Y252.3577 Z-2.3333
G01 X174.5499 Y252.4046 Z-2.3628
G01 X174.4807 Y252.4577 Z-2.3924
G01 X174.4164 Y252.5166 Z-2.4219
G01 X174.3575 Y252.5809 Z-2.4514
G01 X174.3044 Y252.6502 Z-2.4809
G01 X174.2575 Y252.7237 Z-2.5104
G01 X174.2172 Y252.8011 Z-2.5399
G01 X174.1838 Y252.8817 Z-2.5694
G01 X174.1576 Y252.9649 Z-2.5990
G01 X174.1387 Y253.0501 Z-2.6285
G01 X174.1273 Y253.1366 Z-2.6580
G01 X174.1235 Y253.2237 Z-2.6875
G01 X174.1273 Y253.3109 Z-2.7170
G01 X174.1387 Y253.3974 Z-2.7465
G01 X174.1576 Y253.4825 Z-2.7760
G01 X174.1838 Y253.5657 Z-2.8056
G01 X174.2172 Y253.6463 Z-2.8351
G01 X174.2575 Y253.7237 Z-2.8646
G01 X174.3044 Y253.7973 Z-2.8941
G01 X174.3575 Y253.8665 Z-2.9236
G01 X174.4164 Y253.9308 Z-2.9531
G01 X174.4807 Y253.9898 Z-2.9826
G01 X174.5499 Y254.0429 Z-3.0122
G01 X174.6235 Y254.0898 Z-3.0417
G01 X174.6653 Y254.1126 Z-3.0578
G01 X174.7081 Y254.1334 Z-3.0739
G01 X174.7518 Y254.1521 Z-3.0900
G01 X174.7964 Y254.1687 Z-3.1061
G01 X174.8418 Y254.1832 Z-3.1222
G01 X174.8877 Y254.1955 Z-3.1383
G01 X174.9343 Y254.2057 Z-3.1544
G01 X174.9812 Y254.2136 Z-3.1705
G01 X175.0285 Y254.2192 Z-3.1866
G01 X175.0759 Y254.2226 Z-3.2027
G01 X175.1235 Y254.2237 Z-3.2188
G01 X175.1711 Y254.2226 Z-3.2348
G01 X175.2186 Y254.2192 Z-3.2509
G01 X175.2658 Y254.2136 Z-3.2670
G01 X175.3128 Y254.2057 Z-3.2831
G01 X175.3593 Y254.1955 Z-3.2992
G01 X175.4052 Y254.1832 Z-3.3153
G01 X175.4506 Y254.1687 Z-3.3314
G01 X175.4952 Y254.1521 Z-3.3475
G01 X175.5389 Y254.1334 Z-3.3636
G01 X175.5817 Y254.1126 Z-3.3797
G01 X175.6235 Y254.0898 Z-3.3958
G01 X175.6641 Y254.0650 Z-3.4119
G01 X175.7036 Y254.0383 Z-3.4280
G01 X175.7417 Y254.0098 Z-3.4441
G01 X175.7784 Y253.9795 Z-3.4602
G01 X175.8136 Y253.9475 Z-3.4763
G01 X175.8472 Y253.9138 Z-3.4924
G01 X175.8793 Y253.8786 Z-3.5085
G01 X175.9096 Y253.8419 Z-3.5246
G01 X175.9381 Y253.8038 Z-3.5407
G01 X175.9648 Y253.7644 Z-3.5568
G01 X175.9895 Y253.7237 Z-3.5729
G01 X176.0123 Y253.6820 Z-3.5890
G01 X176.0331 Y253.6391 Z-3.6051
G01 X176.0519 Y253.5954 Z-3.6212
G01 X176.0685 Y253.5508 Z-3.6373
G01 X176.0830 Y253.5055 Z-3.6534
G01 X176.0953 Y253.4595 Z-3.6695
G01 X176.1054 Y253.4130 Z-3.6856
G01 X176.1133 Y253.3660 Z-3.7017
G01 X176.1190 Y253.3188 Z-3.7178
G01 X176.1224 Y253.2713 Z-3.7339
G01 X176.1235 Y253.2237 Z-3.7500
G01 X176.1197 Y253.1366
G01 X176.1083 Y253.0501
G01 X176.0894 Y252.9649
G01 X176.0632 Y252.8817
G01 X176.0298 Y252.8011
G01 X175.9895 Y252.7237
G01 X175.9427 Y252.6502
G01 X175.8896 Y252.5809
G01 X175.8306 Y252.5166
G01 X175.7663 Y252.4577
G01 X175.6971 Y252.4046
G01 X175.6235 Y252.3577
G01 X175.5461 Y252.3174
G01 X175.4655 Y252.2840
G01 X175.3823 Y252.2578
G01 X175.2972 Y252.2389
G01 X175.2107 Y252.2275
G01 X175.1235 Y252.2237
G01 X175.0364 Y252.2275
G01 X174.9499 Y252.2389
G01 X174.8647 Y252.2578
G01 X174.7815 Y252.2840
G01 X174.7009 Y252.3174
G01 X174.6235 Y252.3577
G01 X174.5499 Y252.4046
G01 X174.4807 Y252.4577
G01 X174.4164 Y252.5166
G01 X174.3575 Y252.5809
G01 X174.3044 Y252.6502
G01 X174.2575 Y252.7237
G01 X174.2172 Y252.8011
G01 X174.1838 Y252.8817
G01 X174.1576 Y252.9649
G01 X174.1387 Y253.0501
G01 X174.1273 Y253.1366
G01 X174.1235 Y253.2237
G01 X174.1273 Y253.3109
G01 X174.1387 Y253.3974
G01 X174.1576 Y253.4825
G01 X174.1838 Y253.5657
G01 X174.2172 Y253.6463
G01 X174.2575 Y253.7237
G01 X174.3044 Y253.7973
G01 X174.3575 Y253.8665
G01 X174.4164 Y253.9308
G01 X174.4807 Y253.9898
G01 X174.5499 Y254.0429
G01 X174.6235 Y254.0898
G01 X174.6653 Y254.1126
G01 X174.7081 Y254.1334
G01 X174.7518 Y254.1521
G01 X174.7964 Y254.1687
G01 X174.8418 Y254.1832
G01 X174.8877 Y254.1955
G01 X174.9343 Y254.2057
G01 X174.9812 Y254.2136
G01 X175.0285 Y254.2192
G01 X175.0759 Y254.2226
G01 X175.1235 Y254.2237
G01 X175.1711 Y254.2226
G01 X175.2186 Y254.2192
G01 X175.2658 Y254.2136
G01 X175.3128 Y254.2057
G01 X175.3593 Y254.1955
G01 X175.4052 Y254.1832
G01 X175.4506 Y254.1687
G01 X175.4952 Y254.1521
G01 X175.5389 Y254.1334
G01 X175.5817 Y254.1126
G01 X175.6235 Y254.0898
G01 X175.6641 Y254.0650
G01 X175.7036 Y254.0383
G01 X175.7417 Y254.0098
G01 X175.7784 Y253.9795
G01 X175.8136 Y253.9475
G01 X175.8472 Y253.9138
G01 X175.8793 Y253.8786
G01 X175.9096 Y253.8419
G01 X175.9381 Y253.8038
G01 X175.9648 Y253.7644
G01 X175.9895 Y253.7237
G01 X176.0123 Y253.6820
G01 X176.0331 Y253.6391
G01 X176.0519 Y253.5954
G01 X176.0685 Y253.5508
G01 X176.0830 Y253.5055
G01 X176.0953 Y253.4595
G01 X176.1054 Y253.4130
G01 X176.1133 Y253.3660
G01 X176.1190 Y253.3188
G01 X176.1224 Y253.2713
G01 X176.1235 Y253.2237
G01 X176.1343 Y253.1721 F1000
G01 X176.1423 Y253.1201
G01 X176.1477 Y253.0676
G01 X176.1504 Y253.0150
G01 Y252.9623
G01 X176.1476 Y252.9097
G01 X176.1421 Y252.8572
G01 X176.1340 Y252.8052
G01 X176.1223 Y252.7492
G01 X176.1077 Y252.6939
G01 X176.0903 Y252.6394
G01 X176.0702 Y252.5858
G01 X176.0474 Y252.5334
G01 X176.0219 Y252.4822
G01 X175.9938 Y252.4324
G01 X175.9632 Y252.3840
G01 X175.9253 Y252.3371
G01 X175.8851 Y252.2921
G01 X175.8428 Y252.2491
G01 X175.7983 Y252.2084
G01 X175.7519 Y252.1699
G01 X175.7036 Y252.1337
G01 X175.6535 Y252.1000
G01 X175.6019 Y252.0689
G01 X175.5446 Y252.0468
G01 X175.4864 Y252.0276
G01 X175.4272 Y252.0112
G01 X175.3674 Y251.9978
G01 X175.3069 Y251.9873
G01 X175.2460 Y251.9798
G01 X175.1848 Y251.9753
G01 X175.1235 Y251.9738
G01 X175.0622 Y251.9753
G01 X175.0010 Y251.9798
G01 X174.9401 Y251.9873
G01 X174.8797 Y251.9978
G01 X174.8198 Y252.0112
G01 X174.7607 Y252.0276
G01 X174.7024 Y252.0468
G01 X174.6452 Y252.0689
G01 X174.5891 Y252.0938
G01 X174.5343 Y252.1213
G01 X174.4809 Y252.1516
G01 X174.4291 Y252.1844
G01 X174.3789 Y252.2197
G01 X174.3305 Y252.2575
G01 X174.2841 Y252.2976
G01 X174.2396 Y252.3399
G01 X174.1973 Y252.3843
G01 X174.1573 Y252.4308
G01 X174.1195 Y252.4791
G01 X174.0842 Y252.5293
G01 X174.0514 Y252.5811
G01 X174.0211 Y252.6345
G01 X173.9935 Y252.6893
G01 X173.9687 Y252.7454
G01 X173.9466 Y252.8026
G01 X173.9274 Y252.8609
G01 X173.9110 Y252.9200
G01 X173.8975 Y252.9799
G01 X173.8871 Y253.0403
G01 X173.8795 Y253.1012
G01 X173.8750 Y253.1624
G01 X173.8735 Y253.2237
G01 X173.8750 Y253.2851
G01 X173.8795 Y253.3462
G01 X173.8871 Y253.4071
G01 X173.8975 Y253.4676
G01 X173.9110 Y253.5274
G01 X173.9274 Y253.5866
G01 X173.9466 Y253.6448
G01 X173.9687 Y253.7021
G01 X173.9935 Y253.7582
G01 X174.0211 Y253.8130
G01 X174.0514 Y253.8663
G01 X174.0842 Y253.9182
G01 X174.1195 Y253.9683
G01 X174.1573 Y254.0167
G01 X174.1973 Y254.0632
G01 X174.2396 Y254.1076
G01 X174.2841 Y254.1499
G01 X174.3305 Y254.1900
G01 X174.3789 Y254.2277
G01 X174.4291 Y254.2630
G01 X174.4809 Y254.2959
G01 X174.5343 Y254.3261
G01 X174.5891 Y254.3537
G01 X174.6452 Y254.3786
G01 X174.7024 Y254.4006
G01 X174.7607 Y254.4199
G01 X174.8198 Y254.4362
G01 X174.8797 Y254.4497
G01 X174.9401 Y254.4602
G01 X175.0010 Y254.4677
G01 X175.0622 Y254.4722
G01 X175.1235 Y254.4737
G01 X175.1848 Y254.4722
G01 X175.2460 Y254.4677
G01 X175.3069 Y254.4602
G01 X175.3674 Y254.4497
G01 X175.4272 Y254.4362
G01 X175.4864 Y254.4199
G01 X175.5446 Y254.4006
G01 X175.6019 Y254.3786
G01 X175.6579 Y254.3537
G01 X175.7127 Y254.3261
G01 X175.7661 Y254.2959
G01 X175.8180 Y254.2630
G01 X175.8681 Y254.2277
G01 X175.9165 Y254.1900
G01 X175.9629 Y254.1499
G01 X176.0074 Y254.1076
G01 X176.0497 Y254.0632
G01 X176.0898 Y254.0167
G01 X176.1275 Y253.9683
G01 X176.1628 Y253.9182
G01 X176.1957 Y253.8663
G01 X176.2259 Y253.8130
G01 X176.2535 Y253.7582
G01 X176.2783 Y253.7021
G01 X176.3004 Y253.6448
G01 X176.3197 Y253.5866
G01 X176.3360 Y253.5274
G01 X176.3495 Y253.4676
G01 X176.3600 Y253.4071
G01 X176.3675 Y253.3462
G01 X176.3720 Y253.2851
G01 X176.3735 Y253.2237
G01 X176.3700 Y253.1303
G01 X176.3595 Y253.0374
G01 X176.3421 Y252.9456
G01 X176.3180 Y252.8553
G01 X176.2871 Y252.7671
G01 X176.2497 Y252.6814
G01 X176.2060 Y252.5987
G01 X176.1563 Y252.5196
G01 X176.1008 Y252.4444
G01 X176.0398 Y252.3735
G01 X175.9737 Y252.3074
G01 X175.9029 Y252.2465
G01 X175.8276 Y252.1909
G01 X175.7485 Y252.1412
G01 X175.6659 Y252.0975
G01 X175.5802 Y252.0602
G01 X175.4919 Y252.0293
G01 X175.4017 Y252.0051
G01 X175.3098 Y251.9877
G01 X175.2169 Y251.9772
G01 X175.1235 Y251.9738
G01 X175.0301 Y251.9772
G01 X174.9372 Y251.9877
G01 X174.8454 Y252.0051
G01 X174.7551 Y252.0293
G01 X174.6668 Y252.0602
G01 X174.5812 Y252.0975
G01 X174.4985 Y252.1412
G01 X174.4194 Y252.1909
G01 X174.3442 Y252.2465
G01 X174.2733 Y252.3074
G01 X174.2072 Y252.3735
G01 X174.1462 Y252.4444
G01 X174.0907 Y252.5196
G01 X174.0410 Y252.5987
G01 X173.9973 Y252.6814
G01 X173.9599 Y252.7671
G01 X173.9291 Y252.8553
G01 X173.9049 Y252.9456
G01 X173.8875 Y253.0374
G01 X173.8770 Y253.1303
G01 X173.8735 Y253.2237
G01 X173.8770 Y253.3171
G01 X173.8875 Y253.4100
G01 X173.9049 Y253.5019
G01 X173.9291 Y253.5922
G01 X173.9599 Y253.6804
G01 X173.9973 Y253.7661
G01 X174.0410 Y253.8487
G01 X174.0907 Y253.9279
G01 X174.1462 Y254.0031
G01 X174.2072 Y254.0739
G01 X174.2733 Y254.1400
G01 X174.3442 Y254.2010
G01 X174.4194 Y254.2565
G01 X174.4985 Y254.3062
G01 X174.5812 Y254.3499
G01 X174.6668 Y254.3873
G01 X174.7551 Y254.4182
G01 X174.8454 Y254.4424
G01 X174.9372 Y254.4597
G01 X175.0301 Y254.4702
G01 X175.1235 Y254.4737
G01 X175.2169 Y254.4702
G01 X175.3098 Y254.4597
G01 X175.4017 Y254.4424
G01 X175.4919 Y254.4182
G01 X175.5802 Y254.3873
G01 X175.6659 Y254.3499
G01 X175.7485 Y254.3062
G01 X175.8276 Y254.2565
G01 X175.9029 Y254.2010
G01 X175.9737 Y254.1400
G01 X176.0398 Y254.0739
G01 X176.1008 Y254.0031
G01 X176.1563 Y253.9279
G01 X176.2060 Y253.8487
G01 X176.2497 Y253.7661
G01 X176.2871 Y253.6804
G01 X176.3180 Y253.5922
G01 X176.3421 Y253.5019
G01 X176.3595 Y253.4100
G01 X176.3700 Y253.3171
G01 X176.3735 Y253.2237
G01 X176.3692 Y253.1257
G01 X176.3564 Y253.0284
G01 X176.3352 Y252.9326
G01 X176.3056 Y252.8390
G01 X176.2681 Y252.7483
G01 X176.2228 Y252.6612
G01 X176.1700 Y252.5785
G01 X176.1103 Y252.5006
G01 X176.0440 Y252.4282
G01 X175.9716 Y252.3619
G01 X175.8938 Y252.3022
G01 X175.8110 Y252.2495
G01 X175.7239 Y252.2041
G01 X175.6333 Y252.1666
G01 X175.5397 Y252.1371
G01 X175.4439 Y252.1158
G01 X175.3465 Y252.1030
G01 X175.2485 Y252.0987
G01 X175.1504 Y252.1030
G01 X175.0531 Y252.1158
G01 X174.9573 Y252.1371
G01 X174.8637 Y252.1666
G01 X174.7731 Y252.2041
G01 X174.6860 Y252.2495
G01 X174.6032 Y252.3022
G01 X174.5254 Y252.3619
G01 X174.4530 Y252.4282
G01 X174.3867 Y252.5006
G01 X174.3270 Y252.5785
G01 X174.2742 Y252.6612
G01 X174.2289 Y252.7483
G01 X174.1914 Y252.8390
G01 X174.1618 Y252.9326
G01 X174.1406 Y253.0284
G01 X174.1278 Y253.1257
G01 X174.1235 Y253.2237
G01 X174.1246 Y253.2699
G01 X174.1278 Y253.3160
G01 X174.1331 Y253.3619
G01 X174.1405 Y253.4075
G01 X174.1501 Y253.4527
G01 X174.1617 Y253.4974
G01 X174.1753 Y253.5415
G01 X174.1910 Y253.5850
G01 X174.2087 Y253.6277
G01 X174.2283 Y253.6695
G01 X174.2499 Y253.7103
G01 X174.2733 Y253.7502
G01 X174.2985 Y253.7889
G01 X174.3255 Y253.8264
G01 X174.3542 Y253.8626
G01 X174.3845 Y253.8974
G01 X174.4164 Y253.9308
G01 X174.4498 Y253.9627
G01 X174.4847 Y253.9931
G01 X174.5209 Y254.0217
G01 X174.5584 Y254.0487
G01 X174.5971 Y254.0739
G01 X174.6369 Y254.0974
G01 X174.6778 Y254.1189
G01 X174.7196 Y254.1385
G01 X174.7623 Y254.1562
G01 X174.8057 Y254.1719
G01 X174.8498 Y254.1856
G01 X174.8946 Y254.1972
G01 X174.9398 Y254.2067
G01 X174.9854 Y254.2141
G01 X175.0312 Y254.2195
G01 X175.0773 Y254.2227
G01 X175.1235 Y254.2237
G01 X175.1697 Y254.2227
G01 X175.2158 Y254.2195
G01 X175.2617 Y254.2141
G01 X175.3073 Y254.2067
G01 X175.3525 Y254.1972
G01 X175.3972 Y254.1856
G01 X175.4413 Y254.1719
G01 X175.4848 Y254.1562
G01 X175.5274 Y254.1385
G01 X175.5692 Y254.1189
G01 X175.6101 Y254.0974
G01 X175.6499 Y254.0739
G01 X175.6886 Y254.0487
G01 X175.7261 Y254.0217
G01 X175.7624 Y253.9931
G01 X175.7972 Y253.9627
G01 X175.8306 Y253.9308
G01 X175.8625 Y253.8974
G01 X175.8928 Y253.8626
G01 X175.9215 Y253.8264
G01 X175.9485 Y253.7889
G01 X175.9737 Y253.7502
G01 X175.9971 Y253.7103
G01 X176.0187 Y253.6695
G01 X176.0383 Y253.6277
G01 X176.0560 Y253.5850
G01 X176.0717 Y253.5415
G01 X176.0853 Y253.4974
G01 X176.0969 Y253.4527
G01 X176.1065 Y253.4075
G01 X176.1139 Y253.3619
G01 X176.1192 Y253.3160
G01 X176.1224 Y253.2699
G01 X176.1235 Y253.2237
M107
M106 S240
G01 X176.1197 Y253.1366 Z-3.7795 F400
G01 X176.1083 Y253.0501 Z-3.8090
G01 X176.0894 Y252.9649 Z-3.8385
G01 X176.0632 Y252.8817 Z-3.8681
G01 X176.0298 Y252.8011 Z-3.8976
G01 X175.9895 Y252.7237 Z-3.9271
G01 X175.9427 Y252.6502 Z-3.9566
G01 X175.8896 Y252.5809 Z-3.9861
G01 X175.8306 Y252.5166 Z-4.0156
G01 X175.7663 Y252.4577 Z-4.0451
G01 X175.6971 Y252.4046 Z-4.0747
G01 X175.6235 Y252.3577 Z-4.1042
G01 X175.5461 Y252.3174 Z-4.1337
G01 X175.4655 Y252.2840 Z-4.1632
G01 X175.3823 Y252.2578 Z-4.1927
G01 X175.2972 Y252.2389 Z-4.2222
G01 X175.2107 Y252.2275 Z-4.2517
G01 X175.1235 Y252.2237 Z-4.2813
G01 X175.0364 Y252.2275 Z-4.3108
G01 X174.9499 Y252.2389 Z-4.3403
G01 X174.8647 Y252.2578 Z-4.3698
G01 X174.7815 Y252.2840 Z-4.3993
G01 X174.7009 Y252.3174 Z-4.4288
G01 X174.6235 Y252.3577 Z-4.4583
G01 X174.5499 Y252.4046 Z-4.4878
G01 X174.4807 Y252.4577 Z-4.5174
G01 X174.4164 Y252.5166 Z-4.5469
G01 X174.3575 Y252.5809 Z-4.5764
G01 X174.3044 Y252.6502 Z-4.6059
G01 X174.2575 Y252.7237 Z-4.6354
G01 X174.2172 Y252.8011 Z-4.6649
G01 X174.1838 Y252.8817 Z-4.6944
G01 X174.1576 Y252.9649 Z-4.7240
G01 X174.1387 Y253.0501 Z-4.7535
G01 X174.1273 Y253.1366 Z-4.7830
G01 X174.1235 Y253.2237 Z-4.8125
G01 X174.1273 Y253.3109 Z-4.8420
G01 X174.1387 Y253.3974 Z-4.8715
G01 X174.1576 Y253.4825 Z-4.9010
G01 X174.1838 Y253.5657 Z-4.9306
G01 X174.2172 Y253.6463 Z-4.9601
G01 X174.2575 Y253.7237 Z-4.9896
G01 X174.3044 Y253.7973 Z-5.0191
G01 X174.3575 Y253.8665 Z-5.0486
G01 X174.4164 Y253.9308 Z-5.0781
G01 X174.4807 Y253.9898 Z-5.1076
G01 X174.5499 Y254.0429 Z-5.1372
G01 X174.6235 Y254.0898 Z-5.1667
G01 X174.6653 Y254.1126 Z-5.1828
G01 X174.7081 Y254.1334 Z-5.1989
G01 X174.7518 Y254.1521 Z-5.2150
G01 X174.7964 Y254.1687 Z-5.2311
G01 X174.8418 Y254.1832 Z-5.2472
G01 X174.8877 Y254.1955 Z-5.2633
G01 X174.9343 Y254.2057 Z-5.2794
G01 X174.9812 Y254.2136 Z-5.2955
G01 X175.0285 Y254.2192 Z-5.3116
G01 X175.0759 Y254.2226 Z-5.3277
G01 X175.1235 Y254.2237 Z-5.3438
G01 X175.1711 Y254.2226 Z-5.3598
G01 X175.2186 Y254.2192 Z-5.3759
G01 X175.2658 Y254.2136 Z-5.3920
G01 X175.3128 Y254.2057 Z-5.4081
G01 X175.3593 Y254.1955 Z-5.4242
G01 X175.4052 Y254.1832 Z-5.4403
G01 X175.4506 Y254.1687 Z-5.4564
G01 X175.4952 Y254.1521 Z-5.4725
G01 X175.5389 Y254.1334 Z-5.4886
G01 X175.5817 Y254.1126 Z-5.5047
G01 X175.6235 Y254.0898 Z-5.5208
G01 X175.6641 Y254.0650 Z-5.5369
G01 X175.7036 Y254.0383 Z-5.5530
G01 X175.7417 Y254.0098 Z-5.5691
G01 X175.7784 Y253.9795 Z-5.5852
G01 X175.8136 Y253.9475 Z-5.6013
G01 X175.8472 Y253.9138 Z-5.6174
G01 X175.8793 Y253.8786 Z-5.6335
G01 X175.9096 Y253.8419 Z-5.6496
G01 X175.9381 Y253.8038 Z-5.6657
G01 X175.9648 Y253.7644 Z-5.6818
G01 X175.9895 Y253.7237 Z-5.6979
G01 X176.0123 Y253.6820 Z-5.7140
G01 X176.0331 Y253.6391 Z-5.7301
G01 X176.0519 Y253.5954 Z-5.7462
G01 X176.0685 Y253.5508 Z-5.7623
G01 X176.0830 Y253.5055 Z-5.7784
G01 X176.0953 Y253.4595 Z-5.7945
G01 X176.1054 Y253.4130 Z-5.8106
G01 X176.1133 Y253.3660 Z-5.8267
G01 X176.1190 Y253.3188 Z-5.8428
G01 X176.1224 Y253.2713 Z-5.8589
G01 X176.1235 Y253.2237 Z-5.8750
G01 X176.1197 Y253.1366
G01 X176.1083 Y253.0501
G01 X176.0894 Y252.9649
G01 X176.0632 Y252.8817
G01 X176.0298 Y252.8011
G01 X175.9895 Y252.7237
G01 X175.9427 Y252.6502
G01 X175.8896 Y252.5809
G01 X175.8306 Y252.5166
G01 X175.7663 Y252.4577
G01 X175.6971 Y252.4046
G01 X175.6235 Y252.3577
G01 X175.5461 Y252.3174
G01 X175.4655 Y252.2840
G01 X175.3823 Y252.2578
G01 X175.2972 Y252.2389
G01 X175.2107 Y252.2275
G01 X175.1235 Y252.2237
G01 X175.0364 Y252.2275
G01 X174.9499 Y252.2389
G01 X174.8647 Y252.2578
G01 X174.7815 Y252.2840
G01 X174.7009 Y252.3174
G01 X174.6235 Y252.3577
G01 X174.5499 Y252.4046
G01 X174.4807 Y252.4577
G01 X174.4164 Y252.5166
G01 X174.3575 Y252.5809
G01 X174.3044 Y252.6502
G01 X174.2575 Y252.7237
G01 X174.2172 Y252.8011
G01 X174.1838 Y252.8817
G01 X174.1576 Y252.9649
G01 X174.1387 Y253.0501
G01 X174.1273 Y253.1366
G01 X174.1235 Y253.2237
G01 X174.1273 Y253.3109
G01 X174.1387 Y253.3974
G01 X174.1576 Y253.4825
G01 X174.1838 Y253.5657
G01 X174.2172 Y253.6463
G01 X174.2575 Y253.7237
G01 X174.3044 Y253.7973
G01 X174.3575 Y253.8665
G01 X174.4164 Y253.9308
G01 X174.4807 Y253.9898
G01 X174.5499 Y254.0429
G01 X174.6235 Y254.0898
G01 X174.6653 Y254.1126
G01 X174.7081 Y254.1334
G01 X174.7518 Y254.1521
G01 X174.7964 Y254.1687
G01 X174.8418 Y254.1832
G01 X174.8877 Y254.1955
G01 X174.9343 Y254.2057
G01 X174.9812 Y254.2136
G01 X175.0285 Y254.2192
G01 X175.0759 Y254.2226
G01 X175.1235 Y254.2237
G01 X175.1711 Y254.2226
G01 X175.2186 Y254.2192
G01 X175.2658 Y254.2136
G01 X175.3128 Y254.2057
G01 X175.3593 Y254.1955
G01 X175.4052 Y254.1832
G01 X175.4506 Y254.1687
G01 X175.4952 Y254.1521
G01 X175.5389 Y254.1334
G01 X175.5817 Y254.1126
G01 X175.6235 Y254.0898
G01 X175.6641 Y254.0650
G01 X175.7036 Y254.0383
G01 X175.7417 Y254.0098
G01 X175.7784 Y253.9795
G01 X175.8136 Y253.9475
G01 X175.8472 Y253.9138
G01 X175.8793 Y253.8786
G01 X175.9096 Y253.8419
G01 X175.9381 Y253.8038
G01 X175.9648 Y253.7644
G01 X175.9895 Y253.7237
G01 X176.0123 Y253.6820
G01 X176.0331 Y253.6391
G01 X176.0519 Y253.5954
G01 X176.0685 Y253.5508
G01 X176.0830 Y253.5055
G01 X176.0953 Y253.4595
G01 X176.1054 Y253.4130
G01 X176.1133 Y253.3660
G01 X176.1190 Y253.3188
G01 X176.1224 Y253.2713
G01 X176.1235 Y253.2237
G01 X176.1343 Y253.1721 F1000
G01 X176.1423 Y253.1201
G01 X176.1477 Y253.0676
G01 X176.1504 Y253.0150
G01 Y252.9623
G01 X176.1476 Y252.9097
G01 X176.1421 Y252.8572
G01 X176.1340 Y252.8052
G01 X176.1223 Y252.7492
G01 X176.1077 Y252.6939
G01 X176.0903 Y252.6394
G01 X176.0702 Y252.5858
G01 X176.0474 Y252.5334
G01 X176.0219 Y252.4822
G01 X175.9938 Y252.4324
G01 X175.9632 Y252.3840
G01 X175.9253 Y252.3371
G01 X175.8851 Y252.2921
G01 X175.8428 Y252.2491
G01 X175.7983 Y252.2084
G01 X175.7519 Y252.1699
G01 X175.7036 Y252.1337
G01 X175.6535 Y252.1000
G01 X175.6019 Y252.0689
G01 X175.5446 Y252.0468
G01 X175.4864 Y252.0276
G01 X175.4272 Y252.0112
G01 X175.3674 Y251.9978
G01 X175.3069 Y251.9873
G01 X175.2460 Y251.9798
G01 X175.1848 Y251.9753
G01 X175.1235 Y251.9738
G01 X175.0622 Y251.9753
G01 X175.0010 Y251.9798
G01 X174.9401 Y251.9873
G01 X174.8797 Y251.9978
G01 X174.8198 Y252.0112
G01 X174.7607 Y252.0276
G01 X174.7024 Y252.0468
G01 X174.6452 Y252.0689
G01 X174.5891 Y252.0938
G01 X174.5343 Y252.1213
G01 X174.4809 Y252.1516
G01 X174.4291 Y252.1844
G01 X174.3789 Y252.2197
G01 X174.3305 Y252.2575
G01 X174.2841 Y252.2976
G01 X174.2396 Y252.3399
G01 X174.1973 Y252.3843
G01 X174.1573 Y252.4308
G01 X174.1195 Y252.4791
G01 X174.0842 Y252.5293
G01 X174.0514 Y252.5811
G01 X174.0211 Y252.6345
G01 X173.9935 Y252.6893
G01 X173.9687 Y252.7454
G01 X173.9466 Y252.8026
G01 X173.9274 Y252.8609
G01 X173.9110 Y252.9200
G01 X173.8975 Y252.9799
G01 X173.8871 Y253.0403
G01 X173.8795 Y253.1012
G01 X173.8750 Y253.1624
G01 X173.8735 Y253.2237
G01 X173.8750 Y253.2851
G01 X173.8795 Y253.3462
G01 X173.8871 Y253.4071
G01 X173.8975 Y253.4676
G01 X173.9110 Y253.5274
G01 X173.9274 Y253.5866
G01 X173.9466 Y253.6448
G01 X173.9687 Y253.7021
G01 X173.9935 Y253.7582
G01 X174.0211 Y253.8130
G01 X174.0514 Y253.8663
G01 X174.0842 Y253.9182
G01 X174.1195 Y253.9683
G01 X174.1573 Y254.0167
G01 X174.1973 Y254.0632
G01 X174.2396 Y254.1076
G01 X174.2841 Y254.1499
G01 X174.3305 Y254.1900
G01 X174.3789 Y254.2277
G01 X174.4291 Y254.2630
G01 X174.4809 Y254.2959
G01 X174.5343 Y254.3261
G01 X174.5891 Y254.3537
G01 X174.6452 Y254.3786
G01 X174.7024 Y254.4006
G01 X174.7607 Y254.4199
G01 X174.8198 Y254.4362
G01 X174.8797 Y254.4497
G01 X174.9401 Y254.4602
G01 X175.0010 Y254.4677
G01 X175.0622 Y254.4722
G01 X175.1235 Y254.4737
G01 X175.1848 Y254.4722
G01 X175.2460 Y254.4677
G01 X175.3069 Y254.4602
G01 X175.3674 Y254.4497
G01 X175.4272 Y254.4362
G01 X175.4864 Y254.4199
G01 X175.5446 Y254.4006
G01 X175.6019 Y254.3786
G01 X175.6579 Y254.3537
G01 X175.7127 Y254.3261
G01 X175.7661 Y254.2959
G01 X175.8180 Y254.2630
G01 X175.8681 Y254.2277
G01 X175.9165 Y254.1900
G01 X175.9629 Y254.1499
G01 X176.0074 Y254.1076
G01 X176.0497 Y254.0632
G01 X176.0898 Y254.0167
G01 X176.1275 Y253.9683
G01 X176.1628 Y253.9182
G01 X176.1957 Y253.8663
G01 X176.2259 Y253.8130
G01 X176.2535 Y253.7582
G01 X176.2783 Y253.7021
G01 X176.3004 Y253.6448
G01 X176.3197 Y253.5866
G01 X176.3360 Y253.5274
G01 X176.3495 Y253.4676
G01 X176.3600 Y253.4071
G01 X176.3675 Y253.3462
G01 X176.3720 Y253.2851
G01 X176.3735 Y253.2237
G01 X176.3700 Y253.1303
G01 X176.3595 Y253.0374
G01 X176.3421 Y252.9456
G01 X176.3180 Y252.8553
G01 X176.2871 Y252.7671
G01 X176.2497 Y252.6814
G01 X176.2060 Y252.5987
G01 X176.1563 Y252.5196
G01 X176.1008 Y252.4444
G01 X176.0398 Y252.3735
G01 X175.9737 Y252.3074
G01 X175.9029 Y252.2465
G01 X175.8276 Y252.1909
G01 X175.7485 Y252.1412
G01 X175.6659 Y252.0975
G01 X175.5802 Y252.0602
G01 X175.4919 Y252.0293
G01 X175.4017 Y252.0051
G01 X175.3098 Y251.9877
G01 X175.2169 Y251.9772
G01 X175.1235 Y251.9738
G01 X175.0301 Y251.9772
G01 X174.9372 Y251.9877
G01 X174.8454 Y252.0051
G01 X174.7551 Y252.0293
G01 X174.6668 Y252.0602
G01 X174.5812 Y252.0975
G01 X174.4985 Y252.1412
G01 X174.4194 Y252.1909
G01 X174.3442 Y252.2465
G01 X174.2733 Y252.3074
G01 X174.2072 Y252.3735
G01 X174.1462 Y252.4444
G01 X174.0907 Y252.5196
G01 X174.0410 Y252.5987
G01 X173.9973 Y252.6814
G01 X173.9599 Y252.7671
G01 X173.9291 Y252.8553
G01 X173.9049 Y252.9456
G01 X173.8875 Y253.0374
G01 X173.8770 Y253.1303
G01 X173.8735 Y253.2237
G01 X173.8770 Y253.3171
G01 X173.8875 Y253.4100
G01 X173.9049 Y253.5019
G01 X173.9291 Y253.5922
G01 X173.9599 Y253.6804
G01 X173.9973 Y253.7661
G01 X174.0410 Y253.8487
G01 X174.0907 Y253.9279
G01 X174.1462 Y254.0031
G01 X174.2072 Y254.0739
G01 X174.2733 Y254.1400
G01 X174.3442 Y254.2010
G01 X174.4194 Y254.2565
G01 X174.4985 Y254.3062
G01 X174.5812 Y254.3499
G01 X174.6668 Y254.3873
G01 X174.7551 Y254.4182
G01 X174.8454 Y254.4424
G01 X174.9372 Y254.4597
G01 X175.0301 Y254.4702
G01 X175.1235 Y254.4737
G01 X175.2169 Y254.4702
G01 X175.3098 Y254.4597
G01 X175.4017 Y254.4424
G01 X175.4919 Y254.4182
G01 X175.5802 Y254.3873
G01 X175.6659 Y254.3499
G01 X175.7485 Y254.3062
G01 X175.8276 Y254.2565
G01 X175.9029 Y254.2010
G01 X175.9737 Y254.1400
G01 X176.0398 Y254.0739
G01 X176.1008 Y254.0031
G01 X176.1563 Y253.9279
G01 X176.2060 Y253.8487
G01 X176.2497 Y253.7661
G01 X176.2871 Y253.6804
G01 X176.3180 Y253.5922
G01 X176.3421 Y253.5019
G01 X176.3595 Y253.4100
G01 X176.3700 Y253.3171
G01 X176.3735 Y253.2237
G01 X176.3692 Y253.1257
G01 X176.3564 Y253.0284
G01 X176.3352 Y252.9326
G01 X176.3056 Y252.8390
G01 X176.2681 Y252.7483
G01 X176.2228 Y252.6612
G01 X176.1700 Y252.5785
G01 X176.1103 Y252.5006
G01 X176.0440 Y252.4282
G01 X175.9716 Y252.3619
G01 X175.8938 Y252.3022
G01 X175.8110 Y252.2495
G01 X175.7239 Y252.2041
G01 X175.6333 Y252.1666
G01 X175.5397 Y252.1371
G01 X175.4439 Y252.1158
G01 X175.3465 Y252.1030
G01 X175.2485 Y252.0987
G01 X175.1504 Y252.1030
G01 X175.0531 Y252.1158
G01 X174.9573 Y252.1371
G01 X174.8637 Y252.1666
G01 X174.7731 Y252.2041
G01 X174.6860 Y252.2495
G01 X174.6032 Y252.3022
G01 X174.5254 Y252.3619
G01 X174.4530 Y252.4282
G01 X174.3867 Y252.5006
G01 X174.3270 Y252.5785
G01 X174.2742 Y252.6612
G01 X174.2289 Y252.7483
G01 X174.1914 Y252.8390
G01 X174.1618 Y252.9326
G01 X174.1406 Y253.0284
G01 X174.1278 Y253.1257
G01 X174.1235 Y253.2237
G01 X174.1246 Y253.2699
G01 X174.1278 Y253.3160
G01 X174.1331 Y253.3619
G01 X174.1405 Y253.4075
G01 X174.1501 Y253.4527
G01 X174.1617 Y253.4974
G01 X174.1753 Y253.5415
G01 X174.1910 Y253.5850
G01 X174.2087 Y253.6277
G01 X174.2283 Y253.6695
G01 X174.2499 Y253.7103
G01 X174.2733 Y253.7502
G01 X174.2985 Y253.7889
G01 X174.3255 Y253.8264
G01 X174.3542 Y253.8626
G01 X174.3845 Y253.8974
G01 X174.4164 Y253.9308
G01 X174.4498 Y253.9627
G01 X174.4847 Y253.9931
G01 X174.5209 Y254.0217
G01 X174.5584 Y254.0487
G01 X174.5971 Y254.0739
G01 X174.6369 Y254.0974
G01 X174.6778 Y254.1189
G01 X174.7196 Y254.1385
G01 X174.7623 Y254.1562
G01 X174.8057 Y254.1719
G01 X174.8498 Y254.1856
G01 X174.8946 Y254.1972
G01 X174.9398 Y254.2067
G01 X174.9854 Y254.2141
G01 X175.0312 Y254.2195
G01 X175.0773 Y254.2227
G01 X175.1235 Y254.2237
G01 X175.1697 Y254.2227
G01 X175.2158 Y254.2195
G01 X175.2617 Y254.2141
G01 X175.3073 Y254.2067
G01 X175.3525 Y254.1972
G01 X175.3972 Y254.1856
G01 X175.4413 Y254.1719
G01 X175.4848 Y254.1562
G01 X175.5274 Y254.1385
G01 X175.5692 Y254.1189
G01 X175.6101 Y254.0974
G01 X175.6499 Y254.0739
G01 X175.6886 Y254.0487
G01 X175.7261 Y254.0217
G01 X175.7624 Y253.9931
G01 X175.7972 Y253.9627
G01 X175.8306 Y253.9308
G01 X175.8625 Y253.8974
G01 X175.8928 Y253.8626
G01 X175.9215 Y253.8264
G01 X175.9485 Y253.7889
G01 X175.9737 Y253.7502
G01 X175.9971 Y253.7103
G01 X176.0187 Y253.6695
G01 X176.0383 Y253.6277
G01 X176.0560 Y253.5850
G01 X176.0717 Y253.5415
G01 X176.0853 Y253.4974
G01 X176.0969 Y253.4527
G01 X176.1065 Y253.4075
G01 X176.1139 Y253.3619
G01 X176.1192 Y253.3160
G01 X176.1224 Y253.2699
G01 X176.1235 Y253.2237
M107
M106 S240
G01 X176.1197 Y253.1366 Z-5.9045 F400
G01 X176.1083 Y253.0501 Z-5.9340
G01 X176.0894 Y252.9649 Z-5.9635
G01 X176.0632 Y252.8817 Z-5.9931
G01 X176.0298 Y252.8011 Z-6.0226
G01 X175.9895 Y252.7237 Z-6.0521
G01 X175.9427 Y252.6502 Z-6.0816
G01 X175.8896 Y252.5809 Z-6.1111
G01 X175.8306 Y252.5166 Z-6.1406
G01 X175.7663 Y252.4577 Z-6.1701
G01 X175.6971 Y252.4046 Z-6.1997
G01 X175.6235 Y252.3577 Z-6.2292
G01 X175.5461 Y252.3174 Z-6.2587
G01 X175.4655 Y252.2840 Z-6.2882
G01 X175.3823 Y252.2578 Z-6.3177
G01 X175.2972 Y252.2389 Z-6.3472
G01 X175.2107 Y252.2275 Z-6.3767
G01 X175.1235 Y252.2237 Z-6.4063
G01 X175.0364 Y252.2275 Z-6.4358
G01 X174.9499 Y252.2389 Z-6.4653
G01 X174.8647 Y252.2578 Z-6.4948
G01 X174.7815 Y252.2840 Z-6.5243
G01 X174.7009 Y252.3174 Z-6.5538
G01 X174.6235 Y252.3577 Z-6.5833
G01 X174.5499 Y252.4046 Z-6.6128
G01 X174.4807 Y252.4577 Z-6.6424
G01 X174.4164 Y252.5166 Z-6.6719
G01 X174.3575 Y252.5809 Z-6.7014
G01 X174.3044 Y252.6502 Z-6.7309
G01 X174.2575 Y252.7237 Z-6.7604
G01 X174.2172 Y252.8011 Z-6.7899
G01 X174.1838 Y252.8817 Z-6.8194
G01 X174.1576 Y252.9649 Z-6.8490
G01 X174.1387 Y253.0501 Z-6.8785
G01 X174.1273 Y253.1366 Z-6.9080
G01 X174.1235 Y253.2237 Z-6.9375
G01 X174.1273 Y253.3109 Z-6.9670
G01 X174.1387 Y253.3974 Z-6.9965
G01 X174.1576 Y253.4825 Z-7.0260
G01 X174.1838 Y253.5657 Z-7.0556
G01 X174.2172 Y253.6463 Z-7.0851
G01 X174.2575 Y253.7237 Z-7.1146
G01 X174.3044 Y253.7973 Z-7.1441
G01 X174.3575 Y253.8665 Z-7.1736
G01 X174.4164 Y253.9308 Z-7.2031
G01 X174.4807 Y253.9898 Z-7.2326
G01 X174.5499 Y254.0429 Z-7.2622
G01 X174.6235 Y254.0898 Z-7.2917
G01 X174.6653 Y254.1126 Z-7.3078
G01 X174.7081 Y254.1334 Z-7.3239
G01 X174.7518 Y254.1521 Z-7.3400
G01 X174.7964 Y254.1687 Z-7.3561
G01 X174.8418 Y254.1832 Z-7.3722
G01 X174.8877 Y254.1955 Z-7.3883
G01 X174.9343 Y254.2057 Z-7.4044
G01 X174.9812 Y254.2136 Z-7.4205
G01 X175.0285 Y254.2192 Z-7.4366
G01 X175.0759 Y254.2226 Z-7.4527
G01 X175.1235 Y254.2237 Z-7.4688
G01 X175.1711 Y254.2226 Z-7.4848
G01 X175.2186 Y254.2192 Z-7.5009
G01 X175.2658 Y254.2136 Z-7.5170
G01 X175.3128 Y254.2057 Z-7.5331
G01 X175.3593 Y254.1955 Z-7.5492
G01 X175.4052 Y254.1832 Z-7.5653
G01 X175.4506 Y254.1687 Z-7.5814
G01 X175.4952 Y254.1521 Z-7.5975
G01 X175.5389 Y254.1334 Z-7.6136
G01 X175.5817 Y254.1126 Z-7.6297
G01 X175.6235 Y254.0898 Z-7.6458
G01 X175.6641 Y254.0650 Z-7.6619
