;Project TeslaCoasterQuadrat
;Created by Estlcam version 11 build 11,227
;Machining time about 00:15:26 hours

G90
M03 S18000
G00 X0.0000 Y0.0000 Z0.0000
G00 Z2.0000


;No. 1: Hole 12
G00 X75.5681 Y28.4112
G00 Z0.5000
G01 Z0.0000 F400 S18000
G01 Z-1.0000
M106 S240
G01 X76.3721 F1000
G01 X76.6386 Y29.9112
G01 X75.2994
G01 X75.0307 Y31.4112
G01 X76.9051
G01 X77.1715 Y32.9112
G01 X74.7620
G01 X74.4933 Y34.4112
G01 X77.4380
G01 X77.7045 Y35.9112
G01 X74.2246
G01 X73.9559 Y37.4112
G01 X77.9710
G01 X78.2374 Y38.9112
G01 X73.6873
G01 X73.4186 Y40.4112
G01 X78.5039
G01 X78.7704 Y41.9112
G01 X73.1499
G01 X72.8812 Y43.4112
G01 X79.0369
G01 X79.3033 Y44.9112
G01 X72.6125
G01 X72.3438 Y46.4112
G01 X79.5698
G01 X79.8363 Y47.9112
G01 X72.0751
G01 X71.8064 Y49.4112
G01 X80.1028
G01 X80.3692 Y50.9112
G01 X71.5378
G01 X71.2691 Y52.4112
G01 X80.6357
G01 X80.9022 Y53.9112
G01 X71.0004
G01 X70.8069 Y53.8572
G01 X70.6264 Y54.8648
G01 X81.2736 Y54.8582
G01 X75.9728 Y25.0198
G01 X70.8069 Y53.8572
G01 X71.0004 Y53.9112
M107
G00 Z2.0000


;No. 2: Hole 4
G00 X38.0279 Y73.7179 Z2.0000
G00 Z0.5000
G01 Z0.0000 F400
G01 Z-1.0000
M106 S240
G01 X20.1302 F1000
G01 X27.9384
G01 Y72.2179
G01 X30.2467
G01 X30.1284 Y70.7179
G01 X28.0566
G01 Y69.2179
G01 X30.1284
G01 Y67.7179
G01 X28.0566
G01 Y66.2179
G01 X30.1284
G01 Y64.7179
G01 X28.0566
G01 Y63.2179
G01 X30.1284
G01 Y61.7179
G01 X28.0566
G01 Y60.2179
G01 X30.1284
G01 X30.3284 Y60.2299
G01 Y58.7636
G01 X27.8566
G01 Y71.7003
G01 X27.8536 Y71.7788
G01 X27.8443 Y71.8567
G01 X27.8290 Y71.9337
G01 X27.8077 Y72.0093
G01 X27.7805 Y72.0830
G01 X27.7477 Y72.1543
G01 X27.7093 Y72.2228
G01 X27.6657 Y72.2881
G01 X27.6171 Y72.3498
G01 X27.5638 Y72.4074
G01 X27.5061 Y72.4607
G01 X27.4444 Y72.5093
G01 X27.3791 Y72.5529
G01 X27.3106 Y72.5913
G01 X27.2393 Y72.6242
G01 X27.1657 Y72.6514
G01 X27.0901 Y72.6727
G01 X27.0131 Y72.6880
G01 X26.9351 Y72.6972
G01 X26.8566 Y72.7003
G01 X25.6285 Y72.6773
G01 X24.4001 Y72.6704
G01 X23.1718 Y72.6797
G01 X21.9437 Y72.7051
G01 X21.8009 Y72.7148
G01 X21.6588 Y72.7315
G01 X21.5177 Y72.7551
G01 X21.3779 Y72.7856
G01 X21.2398 Y72.8229
G01 X21.1037 Y72.8669
G01 X20.9699 Y72.9176
G01 X20.8388 Y72.9748
G01 X20.7106 Y73.0384
G01 X20.5857 Y73.1081
G01 X20.4643 Y73.1839
G01 X20.3468 Y73.2656
G01 X20.2335 Y73.3529
G01 X20.1246 Y73.4457
G01 X20.0204 Y73.5437
G01 X19.9211 Y73.6468
G01 X19.8270 Y73.7545
G01 X19.7383 Y73.8668
G01 X19.6552 Y73.9833
G01 X19.5779 Y74.1037
G01 X19.5066 Y74.2277
G01 X19.4415 Y74.3551
G01 X19.3828 Y74.4856
G01 X19.3305 Y74.6187
G01 X19.2847 Y74.7543
G01 X19.2457 Y74.8920
G01 X19.2135 Y75.0314
G01 X19.1882 Y75.1722
G01 X38.9995 Y75.1721
G01 X38.9699 Y75.0259
G01 X38.9331 Y74.8815
G01 X38.8891 Y74.7390
G01 X38.8380 Y74.5989
G01 X38.7801 Y74.4616
G01 X38.7154 Y74.3273
G01 X38.6440 Y74.1963
G01 X38.5663 Y74.0691
G01 X38.4823 Y73.9460
G01 X38.3923 Y73.8271
G01 X38.2964 Y73.7129
G01 X38.1950 Y73.6036
G01 X38.0883 Y73.4995
G01 X37.9765 Y73.4008
G01 X37.8600 Y73.3079
G01 X37.7390 Y73.2208
G01 X37.6137 Y73.1399
G01 X37.4846 Y73.0653
G01 X37.3520 Y72.9972
G01 X37.2161 Y72.9358
G01 X37.0774 Y72.8813
G01 X36.9361 Y72.8337
G01 X36.7926 Y72.7933
G01 X36.6472 Y72.7600
G01 X36.5004 Y72.7340
G01 X36.3525 Y72.7154
G01 X36.2038 Y72.7041
G01 X36.0548 Y72.7003
G01 X31.3284
G01 X31.2848 Y72.6994
G01 X31.2412 Y72.6965
G01 X31.1979 Y72.6917
G01 X31.1547 Y72.6851
G01 X31.1120 Y72.6766
G01 X31.0696 Y72.6662
G01 X31.0277 Y72.6540
G01 X30.9864 Y72.6400
G01 X30.9457 Y72.6242
G01 X30.9058 Y72.6066
G01 X30.8666 Y72.5873
G01 X30.8284 Y72.5663
G01 X30.7911 Y72.5437
G01 X30.7548 Y72.5195
G01 X30.7196 Y72.4937
G01 X30.6856 Y72.4663
G01 X30.6528 Y72.4376
G01 X30.6213 Y72.4074
G01 X30.5911 Y72.3759
G01 X30.5624 Y72.3431
G01 X30.5350 Y72.3091
G01 X30.5092 Y72.2739
G01 X30.4850 Y72.2376
G01 X30.4624 Y72.2003
G01 X30.4414 Y72.1621
G01 X30.4221 Y72.1229
G01 X30.4045 Y72.0830
G01 X30.3887 Y72.0423
G01 X30.3747 Y72.0010
G01 X30.3625 Y71.9591
G01 X30.3521 Y71.9167
G01 X30.3436 Y71.8740
G01 X30.3370 Y71.8308
G01 X30.3322 Y71.7875
G01 X30.3293 Y71.7439
G01 X30.3284 Y71.7003
G01 Y60.2299
G01 X30.1284 Y60.2179
M107
G00 Z2.0000


;No. 3: Hole 5
G00 X43.3875 Y73.9362 Z2.0000
G00 Z0.5000
G01 Z0.0000 F400
G01 Z-1.0000
M106 S240
G01 X61.6725 F1000
G01 X61.8312 Y73.8144
G01 X61.7455 Y73.7119
G01 X61.6553 Y73.6134
G01 X61.5607 Y73.5191
G01 X61.4620 Y73.4291
G01 X61.3593 Y73.3437
G01 X61.2529 Y73.2630
G01 X61.1429 Y73.1871
G01 X61.0297 Y73.1163
G01 X60.9133 Y73.0507
G01 X60.7942 Y72.9904
G01 X60.6724 Y72.9355
G01 X60.5483 Y72.8861
G01 X60.4221 Y72.8424
G01 X60.2940 Y72.8044
G01 X60.1644 Y72.7722
G01 X60.0334 Y72.7459
G01 X59.9014 Y72.7255
G01 X59.7686 Y72.7111
G01 X59.6353 Y72.7027
G01 X59.5017 Y72.7003
G01 X45.5788
G01 X45.4316 Y72.7009
G01 X45.2846 Y72.7089
G01 X45.1382 Y72.7244
G01 X44.9927 Y72.7472
G01 X44.8486 Y72.7774
G01 X44.7062 Y72.8148
G01 X44.5659 Y72.8594
G01 X44.4280 Y72.9110
G01 X44.2929 Y72.9695
G01 X44.1609 Y73.0348
G01 X44.0324 Y73.1067
G01 X43.9077 Y73.1849
G01 X43.7872 Y73.2694
G01 X43.6710 Y73.3599
G01 X43.5596 Y73.4562
G01 X43.4532 Y73.5579
G01 X43.4683 Y73.5419
G01 X43.3611 Y73.6542
G01 X43.2600 Y73.7719
G01 X43.1651 Y73.8947
G01 X43.0768 Y74.0224
G01 X42.9954 Y74.1545
G01 X42.9210 Y74.2907
G01 X42.8538 Y74.4306
G01 X42.7940 Y74.5739
G01 X42.7419 Y74.7201
G01 X42.6975 Y74.8688
G01 X42.6609 Y75.0196
G01 X42.6323 Y75.1722
G01 X62.4436 Y75.1721
G01 X62.4215 Y75.0484
G01 X62.3938 Y74.9259
G01 X62.3606 Y74.8047
G01 X62.3221 Y74.6852
G01 X62.2783 Y74.5675
G01 X62.2292 Y74.4518
G01 X62.1750 Y74.3385
G01 X62.1158 Y74.2277
G01 X62.0516 Y74.1197
G01 X61.9827 Y74.0147
G01 X61.9092 Y73.9128
G01 X61.8312 Y73.8144
G01 X61.6725 Y73.9362
M107
G00 Z2.0000


;No. 4: Hole 6
G00 X61.6724 Y66.9679 Z2.0000
G00 Z0.5000
G01 Z0.0000 F400
G01 Z-1.0000
M106 S240
G01 X43.3875 F1000
G01 X43.2179 Y66.8602
G01 X43.1438 Y66.9589
G01 X43.0739 Y67.0607
G01 X43.0084 Y67.1653
G01 X42.9473 Y67.2727
G01 X42.8909 Y67.3825
G01 X42.8392 Y67.4946
G01 X42.7923 Y67.6088
G01 X42.7502 Y67.7249
G01 X42.7132 Y67.8426
G01 X42.6811 Y67.9619
G01 X42.6542 Y68.0823
G01 X42.6323 Y68.2038
G01 X62.4436
G01 X62.4141 Y68.0578
G01 X62.3772 Y67.9134
G01 X62.3333 Y67.7710
G01 X62.2823 Y67.6310
G01 X62.2244 Y67.4938
G01 X62.1598 Y67.3595
G01 X62.0885 Y67.2287
G01 X62.0108 Y67.1015
G01 X61.9269 Y66.9784
G01 X61.8370 Y66.8596
G01 X61.7413 Y66.7455
G01 X61.6400 Y66.6362
G01 X61.5334 Y66.5321
G01 X61.4217 Y66.4335
G01 X61.3053 Y66.3405
G01 X61.1844 Y66.2534
G01 X61.0593 Y66.1725
G01 X60.9304 Y66.0979
G01 X60.7979 Y66.0298
G01 X60.6621 Y65.9683
G01 X60.5235 Y65.9137
G01 X60.3823 Y65.8661
G01 X60.2389 Y65.8256
G01 X60.0937 Y65.7922
G01 X59.9470 Y65.7661
G01 X59.7992 Y65.7474
G01 X59.6507 Y65.7360
G01 X59.5017 Y65.7320
G01 X45.5789
G01 X45.4432 Y65.7323
G01 X45.3077 Y65.7390
G01 X45.1726 Y65.7519
G01 X45.0383 Y65.7711
G01 X44.9050 Y65.7966
G01 X44.7730 Y65.8283
G01 X44.6427 Y65.8661
G01 X44.5143 Y65.9099
G01 X44.3880 Y65.9597
G01 X44.2643 Y66.0154
G01 X44.1432 Y66.0767
G01 X44.0252 Y66.1436
G01 X43.9104 Y66.2160
G01 X43.7991 Y66.2937
G01 X43.6916 Y66.3764
G01 X43.5880 Y66.4641
G01 X43.4886 Y66.5565
G01 X43.3937 Y66.6535
G01 X43.3034 Y66.7548
G01 X43.2179 Y66.8602
G01 X43.3875 Y66.9679
M107
G00 Z2.0000


;No. 5: Hole 7
G00 X43.3875 Y59.9996 Z2.0000
G00 Z0.5000
G01 Z0.0000 F400
G01 Z-1.0000
M106 S240
G01 X61.6724 F1000
G01 X61.8312 Y59.8778
G01 X61.7454 Y59.7754
G01 X61.6551 Y59.6770
G01 X61.5605 Y59.5827
G01 X61.4618 Y59.4928
G01 X61.3591 Y59.4074
G01 X61.2526 Y59.3267
G01 X61.1427 Y59.2509
G01 X61.0294 Y59.1801
G01 X60.9131 Y59.1145
G01 X60.7939 Y59.0542
G01 X60.6722 Y58.9993
G01 X60.5481 Y58.9499
G01 X60.4219 Y58.9062
G01 X60.2939 Y58.8682
G01 X60.1642 Y58.8360
G01 X60.0333 Y58.8096
G01 X59.9013 Y58.7892
G01 X59.7686 Y58.7747
G01 X59.6353 Y58.7662
G01 X59.5017 Y58.7637
G01 X45.5690 Y58.7639
G01 X45.4218 Y58.7651
G01 X45.2749 Y58.7738
G01 X45.1286 Y58.7898
G01 X44.9833 Y58.8132
G01 X44.8393 Y58.8439
G01 X44.6971 Y58.8819
G01 X44.5570 Y58.9269
G01 X44.4193 Y58.9790
G01 X44.2844 Y59.0379
G01 X44.1527 Y59.1036
G01 X44.0245 Y59.1758
G01 X43.9000 Y59.2544
G01 X43.7797 Y59.3392
G01 X43.6638 Y59.4299
G01 X43.5527 Y59.5264
G01 X43.4465 Y59.6283
G01 X43.4547 Y59.6197
G01 X43.3493 Y59.7313
G01 X43.2498 Y59.8483
G01 X43.1565 Y59.9703
G01 X43.0697 Y60.0969
G01 X42.9896 Y60.2279
G01 X42.9165 Y60.3629
G01 X42.8504 Y60.5015
G01 X42.7916 Y60.6434
G01 X42.7403 Y60.7881
G01 X42.6966 Y60.9353
G01 X42.6605 Y61.0846
G01 X42.6323 Y61.2355
G01 X62.4436
G01 X62.4215 Y61.1118
G01 X62.3938 Y60.9893
G01 X62.3606 Y60.8681
G01 X62.3221 Y60.7486
G01 X62.2783 Y60.6308
G01 X62.2292 Y60.5152
G01 X62.1750 Y60.4019
G01 X62.1158 Y60.2911
G01 X62.0516 Y60.1831
G01 X61.9827 Y60.0781
G01 X61.9092 Y59.9762
G01 X61.8312 Y59.8778
G01 X61.6724 Y59.9996
M107
G00 Z2.0000


;No. 6: Hole 8
G00 X67.0487 Y60.2180 Z2.0000
G00 Z0.5000
G01 Z0.0000 F400
G01 Z-1.0000
M106 S240
G01 X85.7276 F1000
G01 Y61.7180
G01 X83.5405
G01 X83.6587 Y63.2180
G01 X85.7276
G01 Y64.7180
G01 X83.6587
G01 X85.7276 Y66.2180
G01 X66.2393
G01 Y67.7180
G01 X85.7276
G01 X68.3082
G01 Y69.2180
G01 X66.2393
G01 Y70.7180
G01 X68.3082
G01 X68.4264 Y72.2180
G01 X66.2393
G01 Y73.7180
G01 X84.9187
G01 X85.0764 Y73.5928
G01 X84.9705 Y73.4890
G01 X84.8594 Y73.3906
G01 X84.7435 Y73.2980
G01 X84.6231 Y73.2114
G01 X84.4984 Y73.1309
G01 X84.3699 Y73.0568
G01 X84.2378 Y72.9893
G01 X84.1024 Y72.9286
G01 X83.9641 Y72.8747
G01 X83.8234 Y72.8279
G01 X83.6804 Y72.7883
G01 X83.5356 Y72.7559
G01 X83.3894 Y72.7309
G01 X83.2421 Y72.7133
G01 X83.0940 Y72.7031
G01 X82.9457 Y72.7004
G01 X69.5082
G01 X69.4645 Y72.6995
G01 X69.4210 Y72.6966
G01 X69.3776 Y72.6919
G01 X69.3345 Y72.6852
G01 X69.2917 Y72.6767
G01 X69.2493 Y72.6664
G01 X69.2075 Y72.6541
G01 X69.1661 Y72.6401
G01 X69.1255 Y72.6243
G01 X69.0855 Y72.6067
G01 X69.0464 Y72.5874
G01 X69.0082 Y72.5665
G01 X68.9709 Y72.5438
G01 X68.9346 Y72.5196
G01 X68.8994 Y72.4938
G01 X68.8654 Y72.4665
G01 X68.8326 Y72.4377
G01 X68.8011 Y72.4075
G01 X68.7709 Y72.3760
G01 X68.7421 Y72.3432
G01 X68.7148 Y72.3092
G01 X68.6890 Y72.2740
G01 X68.6648 Y72.2377
G01 X68.6421 Y72.2004
G01 X68.6212 Y72.1622
G01 X68.6019 Y72.1231
G01 X68.5843 Y72.0831
G01 X68.5685 Y72.0425
G01 X68.5544 Y72.0011
G01 X68.5422 Y71.9593
G01 X68.5319 Y71.9169
G01 X68.5234 Y71.8741
G01 X68.5167 Y71.8310
G01 X68.5120 Y71.7876
G01 X68.5091 Y71.7441
G01 X68.5082 Y71.7004
G01 Y69.2039
G01 X68.5091 Y69.1602
G01 X68.5120 Y69.1167
G01 X68.5167 Y69.0733
G01 X68.5234 Y69.0302
G01 X68.5319 Y68.9874
G01 X68.5422 Y68.9450
G01 X68.5544 Y68.9031
G01 X68.5685 Y68.8618
G01 X68.5843 Y68.8212
G01 X68.6019 Y68.7812
G01 X68.6212 Y68.7421
G01 X68.6421 Y68.7039
G01 X68.6648 Y68.6666
G01 X68.6890 Y68.6303
G01 X68.7148 Y68.5951
G01 X68.7421 Y68.5611
G01 X68.7709 Y68.5283
G01 X68.8011 Y68.4967
G01 X68.8326 Y68.4666
G01 X68.8654 Y68.4378
G01 X68.8994 Y68.4105
G01 X68.9346 Y68.3847
G01 X68.9709 Y68.3605
G01 X69.0082 Y68.3378
G01 X69.0464 Y68.3168
G01 X69.0855 Y68.2975
G01 X69.1255 Y68.2800
G01 X69.1661 Y68.2642
G01 X69.2075 Y68.2501
G01 X69.2493 Y68.2379
G01 X69.2917 Y68.2276
G01 X69.3345 Y68.2190
G01 X69.3776 Y68.2124
G01 X69.4210 Y68.2077
G01 X69.4645 Y68.2048
G01 X69.5082 Y68.2039
G01 X85.9276
G01 Y58.7638
G01 X66.0823
G01 X66.1113 Y58.9099
G01 X66.1476 Y59.0545
G01 X66.1911 Y59.1970
G01 X66.2417 Y59.3372
G01 X66.2992 Y59.4747
G01 X66.3635 Y59.6092
G01 X66.4344 Y59.7402
G01 X66.5118 Y59.8675
G01 X66.5955 Y59.9909
G01 X66.6853 Y60.1098
G01 X66.7808 Y60.2242
G01 X66.8820 Y60.3336
G01 X66.9886 Y60.4378
G01 X67.1002 Y60.5365
G01 X67.2166 Y60.6296
G01 X67.3375 Y60.7167
G01 X67.4626 Y60.7976
G01 X67.5917 Y60.8722
G01 X67.7242 Y60.9402
G01 X67.8601 Y61.0015
G01 X67.9988 Y61.0560
G01 X68.1401 Y61.1034
G01 X68.2835 Y61.1437
G01 X68.4288 Y61.1768
G01 X68.5756 Y61.2026
G01 X68.7235 Y61.2210
G01 X68.8721 Y61.2320
G01 X69.0211 Y61.2355
G01 X82.4587
G01 X82.5371 Y61.2386
G01 X82.6151 Y61.2478
G01 X82.6921 Y61.2632
G01 X82.7677 Y61.2845
G01 X82.8414 Y61.3116
G01 X82.9127 Y61.3445
G01 X82.9812 Y61.3829
G01 X83.0465 Y61.4265
G01 X83.1081 Y61.4751
G01 X83.1658 Y61.5284
G01 X83.2191 Y61.5861
G01 X83.2677 Y61.6477
G01 X83.3113 Y61.7130
G01 X83.3497 Y61.7815
G01 X83.3826 Y61.8528
G01 X83.4097 Y61.9265
G01 X83.4311 Y62.0021
G01 X83.4464 Y62.0791
G01 X83.4556 Y62.1571
G01 X83.4587 Y62.2355
G01 Y64.7321
G01 X83.4556 Y64.8106
G01 X83.4464 Y64.8885
G01 X83.4311 Y64.9655
G01 X83.4097 Y65.0411
G01 X83.3826 Y65.1148
G01 X83.3497 Y65.1861
G01 X83.3113 Y65.2546
G01 X83.2677 Y65.3199
G01 X83.2191 Y65.3816
G01 X83.1658 Y65.4392
G01 X83.1081 Y65.4925
G01 X83.0465 Y65.5411
G01 X82.9812 Y65.5847
G01 X82.9127 Y65.6231
G01 X82.8414 Y65.6560
G01 X82.7677 Y65.6832
G01 X82.6921 Y65.7045
G01 X82.6151 Y65.7198
G01 X82.5371 Y65.7290
G01 X82.4587 Y65.7321
G01 X66.0393
G01 Y75.1722
G01 X85.8876
G01 X85.8605 Y75.0241
G01 X85.8256 Y74.8778
G01 X85.7829 Y74.7334
G01 X85.7326 Y74.5916
G01 X85.6748 Y74.4526
G01 X85.6096 Y74.3170
G01 X85.5373 Y74.1850
G01 X85.4581 Y74.0570
G01 X85.3721 Y73.9335
G01 X85.2797 Y73.8147
G01 X85.1810 Y73.7011
G01 X85.0764 Y73.5928
G01 X84.9187 Y73.7180
M107
G00 Z2.0000


;No. 7: Hole 9
G00 X89.6834 Y73.7180 Z2.0000
G00 Z0.5000
G01 Z0.0000 F400
G01 Z-1.0000
M106 S240
G01 X91.7551 F1000
G01 Y72.2180
G01 X89.6834
G01 Y70.7180
G01 X91.7551
G01 Y69.2180
G01 X89.6834
G01 Y67.7180
G01 X91.7551
G01 Y66.2180
G01 X89.6834
G01 Y64.7180
G01 X91.7551
G01 Y63.2180
G01 X89.6834
G01 Y61.7180
G01 X91.8733
G01 X89.6834 Y60.2180
G01 X108.7264
G01 X108.8993 Y60.1168
G01 X108.8148 Y59.9947
G01 X108.7243 Y59.8769
G01 X108.6281 Y59.7637
G01 X108.5264 Y59.6554
G01 X108.4195 Y59.5523
G01 X108.3075 Y59.4546
G01 X108.1909 Y59.3626
G01 X108.0699 Y59.2765
G01 X107.9447 Y59.1965
G01 X107.8158 Y59.1227
G01 X107.6833 Y59.0555
G01 X107.5477 Y58.9949
G01 X107.4092 Y58.9411
G01 X107.2682 Y58.8943
G01 X107.1251 Y58.8544
G01 X106.9802 Y58.8218
G01 X106.8339 Y58.7963
G01 X106.6865 Y58.7781
G01 X106.5383 Y58.7673
G01 X106.3898 Y58.7638
G01 X89.4834
G01 Y75.1722
G01 X91.9551
G01 Y62.2355
G01 X91.9582 Y62.1571
G01 X91.9674 Y62.0791
G01 X91.9827 Y62.0021
G01 X92.0040 Y61.9265
G01 X92.0312 Y61.8528
G01 X92.0641 Y61.7815
G01 X92.1025 Y61.7130
G01 X92.1461 Y61.6477
G01 X92.1947 Y61.5861
G01 X92.2480 Y61.5284
G01 X92.3057 Y61.4751
G01 X92.3673 Y61.4265
G01 X92.4326 Y61.3829
G01 X92.5011 Y61.3445
G01 X92.5724 Y61.3116
G01 X92.6461 Y61.2845
G01 X92.7217 Y61.2632
G01 X92.7987 Y61.2478
G01 X92.8766 Y61.2386
G01 X92.9551 Y61.2355
G01 X109.3345
G01 X109.3072 Y61.0868
G01 X109.2718 Y60.9398
G01 X109.2286 Y60.7949
G01 X109.1776 Y60.6526
G01 X109.1190 Y60.5132
G01 X109.0529 Y60.3772
G01 X108.9796 Y60.2449
G01 X108.8993 Y60.1168
G01 X108.7264 Y60.2180
M107
G00 Z2.0000


;No. 8: Hole 10
G00 X113.1303 Y59.7338 Z2.0000
G00 Z0.5000
G01 Z0.0000 F400
G01 Z-1.0000
M106 S240
G01 X115.1992 F1000
G01 Y61.2338
G01 X113.1303
G01 Y62.7338
G01 X115.1992
G01 Y64.2338
G01 X113.1303
G01 Y65.7338
G01 X115.7401
G01 X113.1303 Y67.2338
G01 X132.6186
G01 Y65.7338
G01 X130.0088
G01 X130.5497
G01 Y64.2338
G01 X132.6186
G01 Y62.7338
G01 X130.5497
G01 Y61.2338
G01 X132.6186
G01 Y59.7338
G01 X130.5497
G01 X130.3497 Y59.7502
G01 Y64.7321
G01 X130.3488 Y64.7757
G01 X130.3459 Y64.8193
G01 X130.3412 Y64.8626
G01 X130.3345 Y64.9058
G01 X130.3260 Y64.9485
G01 X130.3156 Y64.9909
G01 X130.3034 Y65.0328
G01 X130.2894 Y65.0741
G01 X130.2736 Y65.1148
G01 X130.2560 Y65.1547
G01 X130.2367 Y65.1939
G01 X130.2157 Y65.2321
G01 X130.1931 Y65.2694
G01 X130.1689 Y65.3057
G01 X130.1431 Y65.3409
G01 X130.1158 Y65.3749
G01 X130.0870 Y65.4077
G01 X130.0568 Y65.4392
G01 X130.0253 Y65.4694
G01 X129.9925 Y65.4981
G01 X129.9585 Y65.5255
G01 X129.9233 Y65.5513
G01 X129.8870 Y65.5755
G01 X129.8497 Y65.5981
G01 X129.8115 Y65.6191
G01 X129.7723 Y65.6384
G01 X129.7324 Y65.6560
G01 X129.6917 Y65.6718
G01 X129.6504 Y65.6858
G01 X129.6085 Y65.6980
G01 X129.5662 Y65.7084
G01 X129.5234 Y65.7169
G01 X129.4802 Y65.7235
G01 X129.4369 Y65.7283
G01 X129.3933 Y65.7312
G01 X129.3497 Y65.7321
G01 X116.3992
G01 X116.3556 Y65.7312
G01 X116.3120 Y65.7283
G01 X116.2687 Y65.7235
G01 X116.2255 Y65.7169
G01 X116.1828 Y65.7084
G01 X116.1404 Y65.6980
G01 X116.0985 Y65.6858
G01 X116.0572 Y65.6718
G01 X116.0165 Y65.6560
G01 X115.9766 Y65.6384
G01 X115.9374 Y65.6191
G01 X115.8992 Y65.5981
G01 X115.8619 Y65.5755
G01 X115.8256 Y65.5513
G01 X115.7904 Y65.5255
G01 X115.7564 Y65.4981
G01 X115.7236 Y65.4694
G01 X115.6921 Y65.4392
G01 X115.6619 Y65.4077
G01 X115.6332 Y65.3749
G01 X115.6058 Y65.3409
G01 X115.5800 Y65.3057
G01 X115.5558 Y65.2694
G01 X115.5332 Y65.2321
G01 X115.5122 Y65.1939
G01 X115.4929 Y65.1547
G01 X115.4753 Y65.1148
G01 X115.4595 Y65.0741
G01 X115.4455 Y65.0328
G01 X115.4333 Y64.9909
G01 X115.4229 Y64.9485
G01 X115.4144 Y64.9058
G01 X115.4078 Y64.8626
G01 X115.4030 Y64.8193
G01 X115.4001 Y64.7757
G01 X115.3992 Y64.7321
G01 Y58.7638
G01 X112.9303
G01 Y68.2039
G01 X132.8186
G01 Y58.7638
G01 X130.3497
G01 Y59.7502
G01 X130.5497 Y59.7338
M107
G00 Z2.0000


;No. 9: Hole 11
G00 X132.0103 Y73.9362 Z2.0000
G00 Z0.5000
G01 Z0.0000 F400
G01 Z-1.0000
M106 S240
G01 X113.7228 F1000
G01 X113.5540 Y73.8276
G01 X113.4799 Y73.9264
G01 X113.4100 Y74.0282
G01 X113.3446 Y74.1329
G01 X113.2837 Y74.2403
G01 X113.2274 Y74.3502
G01 X113.1758 Y74.4624
G01 X113.1291 Y74.5767
G01 X113.0872 Y74.6929
G01 X113.0504 Y74.8107
G01 X113.0186 Y74.9300
G01 X112.9918 Y75.0506
G01 X112.9703 Y75.1722
G01 X132.7788 Y75.1721
G01 X132.7494 Y75.0259
G01 X132.7128 Y74.8815
G01 X132.6690 Y74.7390
G01 X132.6182 Y74.5989
G01 X132.5604 Y74.4615
G01 X132.4959 Y74.3271
G01 X132.4247 Y74.1961
G01 X132.3471 Y74.0689
G01 X132.2633 Y73.9457
G01 X132.1734 Y73.8268
G01 X132.0776 Y73.7125
G01 X131.9764 Y73.6032
G01 X131.8697 Y73.4990
G01 X131.7580 Y73.4003
G01 X131.6416 Y73.3073
G01 X131.5206 Y73.2203
G01 X131.3954 Y73.1393
G01 X131.2664 Y73.0647
G01 X131.1338 Y72.9967
G01 X130.9979 Y72.9353
G01 X130.8592 Y72.8808
G01 X130.7180 Y72.8333
G01 X130.5745 Y72.7929
G01 X130.4292 Y72.7597
G01 X130.2824 Y72.7338
G01 X130.1345 Y72.7152
G01 X129.9859 Y72.7040
G01 X129.8369 Y72.7003
G01 X115.9140
G01 X115.7783
G01 X115.6427 Y72.7067
G01 X115.5077 Y72.7194
G01 X115.3733 Y72.7384
G01 X115.2400 Y72.7637
G01 X115.1081 Y72.7953
G01 X114.9777 Y72.8329
G01 X114.8493 Y72.8767
G01 X114.7231 Y72.9264
G01 X114.5993 Y72.9820
G01 X114.4783 Y73.0434
G01 X114.3603 Y73.1103
G01 X114.2455 Y73.1827
G01 X114.1343 Y73.2604
G01 X114.0268 Y73.3432
G01 X113.9234 Y73.4310
G01 X113.8241 Y73.5235
G01 X113.7294 Y73.6206
G01 X113.6392 Y73.7220
G01 X113.5540 Y73.8276
G01 X113.7228 Y73.9362
M107
G00 Z2.0000


;No. 10: Hole 3
G00 X113.3413 Y98.2441 Z2.0000
G00 Z0.5000
G01 Z0.0000 F400
G01 Z-1.0000
M106 S240
G01 X111.0954 F1000
G01 X110.3963 Y99.7441
G01 X115.9743
G01 X118.1485 Y101.2441
G01 X109.1787
G01 Y102.7441
G01 X106.9102
G01 X120.0074
G01 X121.5868 Y104.2441
G01 X101.0010
G01 Y105.7441
G01 X80.6381
G01 X122.9040
G01 X119.5556 Y107.2441
G01 X81.8705
G01 X83.1025 Y108.7441
G01 X115.4658
G01 X110.6788
G01 Y110.2441
G01 X84.3362
G01 X85.5730 Y111.7441
G01 X104.8330
G01 X96.8697
G01 Y113.2441
G01 X86.8147
M107
G00 Z2.0000
G00 X90.0661 Y105.7441
G00 Z0.5000
G01 Z-1.0000 F400
M106 S240
G01 Y104.2441 F1000
G01 X79.4056
G01 X78.1731 Y102.7441
G01 X89.6273
G01 X89.3587 Y101.2441
G01 X76.9386
G01 Y99.7441
G01 X89.0900
G01 X62.7908
G01 X63.0595 Y98.2441
G01 X88.8213
G01 X88.5527 Y96.7441
G01 X63.3282
G01 X63.5968 Y95.2441
G01 X88.2840
G01 X88.0153 Y93.7441
G01 X63.8655
G01 X64.1341 Y92.2441
G01 X87.7467
G01 X87.4780 Y90.7441
G01 X64.4028
G01 X64.6715 Y89.2441
G01 X87.2093
G01 X86.9406 Y87.7441
G01 X64.9401
G01 X65.2088 Y86.2441
G01 X86.6720
G01 X86.4033 Y84.7441
G01 X65.4775
G01 X65.7461 Y83.2441
G01 X86.1346
G01 X85.8660 Y81.7441
G01 X66.0148
G01 X66.2834 Y80.2441
G01 X85.5973
M107
G00 Z2.0000
G00 X75.1270 Y99.7441
G00 Z0.5000
G01 Z-1.0000 F400
M106 S240
G01 Y101.2441 F1000
G01 X62.5222
G01 X62.2535 Y102.7441
G01 X73.8138
G01 X72.5538 Y104.2441
G01 X61.8431
G01 Y105.7441
G01 X71.3070
G01 X29.0372
G01 X30.3521 Y104.2441
G01 X50.9367
G01 X45.0097
G01 Y102.7441
G01 X31.9235
G01 X33.7810 Y101.2441
G01 X42.7531
G01 X41.5392 Y99.7441
G01 X35.9664
G01 X38.5540 Y98.2441
G01 X40.8210
M107
G00 Z2.0000
G00 X32.3496 Y105.7441
G00 Z0.5000
G01 Z-1.0000 F400
M106 S240
G01 Y107.2441 F1000
G01 X70.0689
G01 X68.8372 Y108.7441
G01 X36.4391
G01 X41.2541
G01 Y110.2441
G01 X67.6063
G01 X66.3754 Y111.7441
G01 X47.1371
G01 X55.0839
G01 Y113.2441
G01 X65.1445
G01 X65.3064 Y113.3619
G01 X69.6486 Y108.0705
G01 X71.0246 Y106.3924
G01 X72.4134 Y104.7249
G01 X73.8147 Y103.0679
G01 X75.2287 Y101.4217
G01 X75.2879 Y101.3533
G01 X75.3530 Y101.2904
G01 X75.4234 Y101.2335
G01 X75.4986 Y101.1831
G01 X75.5780 Y101.1396
G01 X75.6609 Y101.1032
G01 X75.7467 Y101.0744
G01 X75.8347 Y101.0533
G01 X75.9242 Y101.0401
G01 X76.0146 Y101.0349
G01 X76.1051 Y101.0377
G01 X76.1949 Y101.0485
G01 X76.2835 Y101.0673
G01 X76.3700 Y101.0938
G01 X76.4539 Y101.1279
G01 X76.5344 Y101.1693
G01 X76.6109 Y101.2177
G01 X76.6827 Y101.2727
G01 X76.7495 Y101.3339
G01 X76.8105 Y101.4007
G01 X78.2425 Y103.1423
G01 X79.6741 Y104.8843
G01 X81.1053 Y106.6267
G01 X82.5360 Y108.3693
G01 X83.7776 Y109.8816
G01 X85.0224 Y111.3913
G01 X86.2704 Y112.8984
G01 X87.5215 Y114.4029
G01 X89.2332 Y114.2996
G01 X90.9428 Y114.1657
G01 X92.6498 Y114.0011
G01 X94.3535 Y113.8061
G01 X96.0534 Y113.5806
G01 X97.7491 Y113.3247
G01 X99.4399 Y113.0385
G01 X101.1253 Y112.7221
G01 X102.9857 Y112.3584
G01 X104.8389 Y111.9601
G01 X106.6845 Y111.5273
G01 X108.5216 Y111.0602
G01 X110.3497 Y110.5589
G01 X112.1682 Y110.0237
G01 X113.9763 Y109.4546
G01 X115.7736 Y108.8519
G01 X117.5593 Y108.2158
G01 X119.3328 Y107.5466
G01 X121.0935 Y106.8444
G01 X122.8409 Y106.1095
G01 X122.9513 Y106.0617
G01 X123.0616 Y106.0137
G01 X123.1718 Y105.9654
G01 X123.2819 Y105.9168
G01 X122.7408 Y105.2497
G01 X122.1771 Y104.6017
G01 X121.5916 Y103.9733
G01 X120.9848 Y103.3654
G01 X120.3575 Y102.7787
G01 X119.7104 Y102.2139
G01 X119.0443 Y101.6717
G01 X118.3600 Y101.1526
G01 X117.6484 Y100.6284
G01 X116.9233 Y100.1228
G01 X116.1854 Y99.6363
G01 X115.4350 Y99.1692
G01 X114.6727 Y98.7218
G01 X113.8990 Y98.2944
G01 X113.1145 Y97.8873
G01 X112.3196 Y97.5008
G01 X112.0530 Y97.3681
G01 X111.7858 Y97.2366
G01 X111.5180 Y97.1063
G01 X111.2497 Y96.9771
G01 X111.1412 Y97.4487
G01 X111.0052 Y97.9131
G01 X110.8420 Y98.3687
G01 X110.6523 Y98.8139
G01 X110.4367 Y99.2472
G01 X110.1960 Y99.6670
G01 X109.9310 Y100.0720
G01 X109.6427 Y100.4606
G01 X109.2661 Y100.8640
G01 X108.8642 Y101.2423
G01 X108.4387 Y101.5937
G01 X107.9913 Y101.9169
G01 X107.5240 Y102.2104
G01 X107.0386 Y102.4731
G01 X106.5373 Y102.7038
G01 X106.0221 Y102.9017
G01 X105.3542 Y103.1227
G01 X104.6799 Y103.3236
G01 X104.0000 Y103.5043
G01 X103.3149 Y103.6646
G01 X102.6254 Y103.8043
G01 X101.9320 Y103.9233
G01 X101.2353 Y104.0216
G01 X100.5361 Y104.0990
G01 X99.1803 Y104.2223
G01 X97.8222 Y104.3169
G01 X96.4625 Y104.3827
G01 X95.1016 Y104.4197
G01 X94.0860 Y104.4501
G01 X93.0700 Y104.4695
G01 X92.0539 Y104.4777
G01 X91.0378 Y104.4749
G01 X90.9466 Y104.4741
G01 X90.8557 Y104.4652
G01 X90.7661 Y104.4483
G01 X90.6782 Y104.4235
G01 X90.5929 Y104.3911
G01 X90.5109 Y104.3512
G01 X90.4327 Y104.3041
G01 X90.3589 Y104.2504
G01 X90.2903 Y104.1903
G01 X90.2272 Y104.1243
G01 X90.1702 Y104.0530
G01 X90.1198 Y103.9770
G01 X90.0763 Y103.8968
G01 X90.0401 Y103.8130
G01 X90.0114 Y103.7264
G01 X89.9906 Y103.6375
G01 X85.5894 Y79.0658
G01 X66.2913
G01 X61.8823 Y103.6822
G01 X61.8644 Y103.7620
G01 X61.8401 Y103.8402
G01 X61.8095 Y103.9161
G01 X61.7729 Y103.9892
G01 X61.7304 Y104.0592
G01 X61.6824 Y104.1255
G01 X61.6292 Y104.1877
G01 X61.5712 Y104.2453
G01 X61.5086 Y104.2981
G01 X61.4420 Y104.3456
G01 X61.3717 Y104.3876
G01 X61.2983 Y104.4237
G01 X61.2222 Y104.4537
G01 X61.1439 Y104.4775
G01 X61.0639 Y104.4949
G01 X60.9828 Y104.5057
G01 X60.2068 Y104.5193
G01 X59.4308 Y104.5205
G01 X58.6548 Y104.5093
G01 X57.8791 Y104.4857
G01 X56.9100 Y104.4643
G01 X55.9414 Y104.4293
G01 X54.9733 Y104.3808
G01 X54.0060 Y104.3187
G01 X53.0397 Y104.2432
G01 X52.0745 Y104.1541
G01 X51.1106 Y104.0515
G01 X50.1483 Y103.9355
G01 X49.5038 Y103.8441
G01 X48.8630 Y103.7301
G01 X48.2265 Y103.5938
G01 X47.5952 Y103.4352
G01 X46.9698 Y103.2546
G01 X46.3511 Y103.0522
G01 X45.7400 Y102.8282
G01 X45.1370 Y102.5829
G01 X44.7209 Y102.3905
G01 X44.3174 Y102.1730
G01 X43.9279 Y101.9313
G01 X43.5539 Y101.6662
G01 X43.1968 Y101.3788
G01 X42.8579 Y101.0701
G01 X42.5385 Y100.7413
G01 X42.2398 Y100.3935
G01 X41.9628 Y100.0282
G01 X41.7088 Y99.6467
G01 X41.4785 Y99.2503
G01 X41.2728 Y98.8406
G01 X41.0907 Y98.3859
G01 X40.9316 Y97.9228
G01 X40.7957 Y97.4522
G01 X40.6834 Y96.9755
G01 X39.8586 Y97.3557
G01 X39.0434 Y97.7563
G01 X38.2385 Y98.1771
G01 X37.4443 Y98.6177
G01 X36.6612 Y99.0779
G01 X35.8899 Y99.5575
G01 X35.1307 Y100.0560
G01 X34.3842 Y100.5733
G01 X33.6507 Y101.1090
G01 X32.9308 Y101.6628
G01 X32.2249 Y102.2343
G01 X31.5334 Y102.8232
G01 X31.1434 Y103.1792
G01 X30.7616 Y103.5441
G01 X30.3882 Y103.9176
G01 X30.0236 Y104.2996
G01 X29.6677 Y104.6899
G01 X29.3209 Y105.0882
G01 X28.9833 Y105.4943
G01 X28.6552 Y105.9081
G01 X30.2085 Y106.5754
G01 X31.7730 Y107.2161
G01 X33.3482 Y107.8301
G01 X34.9336 Y108.4172
G01 X36.5287 Y108.9771
G01 X38.1332 Y109.5098
G01 X39.7466 Y110.0150
G01 X41.3683 Y110.4927
G01 X42.9979 Y110.9427
G01 X44.6350 Y111.3648
G01 X46.2790 Y111.7590
G01 X47.9295 Y112.1251
G01 X49.2887 Y112.4156
G01 X50.6516 Y112.6883
G01 X52.0179 Y112.9431
G01 X53.3875 Y113.1801
G01 X54.7600 Y113.3992
G01 X56.1353 Y113.6003
G01 X57.5131 Y113.7834
G01 X58.8932 Y113.9485
G01 X60.2753 Y114.0956
G01 X61.6592 Y114.2245
G01 X63.0447 Y114.3354
G01 X64.4315 Y114.4282
G01 X65.3064 Y113.3619
G01 X65.1445 Y113.2441
M107
G00 Z2.0000


;No. 11: Hole 2
G00 X55.8156 Y119.1977 Z2.0000
G00 Z0.5000
G01 Z0.0000 F400
G01 Z-1.0000
M106 S240
G01 X37.4247 F1000
G01 Y117.6977
G01 X32.4199
G01 X47.5929
G01 X41.4663
G01 Y116.1977
G01 X27.9702
G01 X24.0046 Y114.6977
G01 X36.4043
G01 X32.0118 Y113.1977
G01 X24.7152
G01 X25.4578 Y111.6977
G01 X28.0898
M107
G00 Z2.0000
G00 X43.2251 Y119.1977
G00 Z0.5000
G01 Z-1.0000 F400
M106 S240
G01 Y120.6977 F1000
G01 X108.7442
G01 Y119.1977
G01 X114.5133
G01 X96.1342
G01 X104.2954
G01 Y117.6977
G01 X119.4988
G01 X123.9546 Y116.1977
G01 X110.4405
G01 X115.5356
G01 Y114.6977
G01 X127.9282
G01 X127.2375 Y113.1977
G01 X119.9448
G01 X123.8551 Y111.6977
G01 X126.5091
M107
G00 Z2.0000
G00 X101.6543 Y120.6977
G00 Z0.5000
G01 Z-1.0000 F400
M106 S240
G01 Y122.1977 F1000
G01 X50.3333
G01 X60.3763
G01 Y123.6977
G01 X91.5788
G01 X91.7018 Y123.8849
G01 X93.5738 Y123.6582
G01 X95.4427 Y123.4074
G01 X97.3082 Y123.1326
G01 X99.1700 Y122.8336
G01 X101.0277 Y122.5107
G01 X102.8812 Y122.1639
G01 X104.7300 Y121.7931
G01 X106.5739 Y121.3986
G01 X108.4126 Y120.9803
G01 X110.2457 Y120.5383
G01 X112.0730 Y120.0726
G01 X113.8941 Y119.5835
G01 X115.7087 Y119.0709
G01 X117.5165 Y118.5349
G01 X119.3173 Y117.9756
G01 X121.1108 Y117.3932
G01 X122.8966 Y116.7877
G01 X124.6744 Y116.1592
G01 X126.4439 Y115.5078
G01 X128.2049 Y114.8336
G01 X127.7148 Y113.7496
G01 X127.2082 Y112.6732
G01 X126.6853 Y111.6046
G01 X126.1461 Y110.5441
G01 X125.1662 Y110.9374
G01 X124.1869 Y111.3323
G01 X123.2083 Y111.7288
G01 X122.2303 Y112.1269
G01 X120.3852 Y112.8171
G01 X118.5294 Y113.4780
G01 X116.6634 Y114.1095
G01 X114.7876 Y114.7114
G01 X112.9026 Y115.2836
G01 X111.0087 Y115.8259
G01 X109.1065 Y116.3381
G01 X107.1964 Y116.8202
G01 X105.2789 Y117.2721
G01 X103.3545 Y117.6935
G01 X101.4237 Y118.0845
G01 X99.4870 Y118.4448
G01 X97.5448 Y118.7745
G01 X95.5976 Y119.0735
G01 X93.6460 Y119.3416
G01 X91.6903 Y119.5788
G01 X89.7312 Y119.7850
G01 X87.7690 Y119.9602
G01 X85.8043 Y120.1044
G01 X83.8375 Y120.2174
G01 X81.9713 Y120.2845
G01 X80.1044 Y120.3345
G01 X78.2372 Y120.3673
G01 X76.3698 Y120.3829
G01 X74.5023 Y120.3814
G01 X72.6348 Y120.3627
G01 X70.7677 Y120.3269
G01 X68.9009 Y120.2739
G01 X66.8162 Y120.1638
G01 X64.7336 Y120.0190
G01 X62.6537 Y119.8396
G01 X60.5770 Y119.6257
G01 X58.5042 Y119.3773
G01 X56.4358 Y119.0945
G01 X54.3724 Y118.7774
G01 X52.3145 Y118.4260
G01 X50.2628 Y118.0405
G01 X48.2178 Y117.6210
G01 X46.1800 Y117.1675
G01 X44.1500 Y116.6802
G01 X42.1284 Y116.1593
G01 X40.1157 Y115.6048
G01 X38.1126 Y115.0170
G01 X36.1194 Y114.3960
G01 X34.8170 Y113.9606
G01 X33.5189 Y113.5127
G01 X32.2251 Y113.0524
G01 X30.9357 Y112.5797
G01 X29.6510 Y112.0947
G01 X28.3709 Y111.5974
G01 X27.0957 Y111.0879
G01 X25.8254 Y110.5662
G01 X25.2776 Y111.6195
G01 X24.7454 Y112.6808
G01 X24.2287 Y113.7497
G01 X23.7277 Y114.8261
G01 X25.7289 Y115.5905
G01 X27.7410 Y116.3254
G01 X29.7638 Y117.0307
G01 X31.7967 Y117.7061
G01 X33.8393 Y118.3516
G01 X35.8912 Y118.9670
G01 X37.9519 Y119.5522
G01 X40.0210 Y120.1070
G01 X42.0980 Y120.6313
G01 X44.1825 Y121.1251
G01 X46.2741 Y121.5882
G01 X48.3722 Y122.0204
G01 X50.4764 Y122.4218
G01 X52.5864 Y122.7922
G01 X54.7015 Y123.1316
G01 X56.8214 Y123.4398
G01 X58.9456 Y123.7168
G01 X61.0736 Y123.9626
G01 X63.2051 Y124.1771
G01 X65.3394 Y124.3602
G01 X67.4762 Y124.5119
G01 X69.6150 Y124.6323
G01 X71.7554 Y124.7211
G01 X73.8968 Y124.7785
G01 X75.3834 Y124.7944
G01 X76.8701 Y124.7939
G01 X78.3567 Y124.7769
G01 X79.8430 Y124.7435
G01 X81.3289 Y124.6936
G01 X82.8141 Y124.6273
G01 X84.2985 Y124.5445
G01 X85.7819 Y124.4454
G01 X87.2641 Y124.3298
G01 X88.7450 Y124.1979
G01 X90.2242 Y124.0496
G01 X91.7018 Y123.8849
G01 X91.5788 Y123.6977
M107
G00 Z2.0000


;No. 12: Hole 1
G00 X121.4972 Y134.4513 Z2.0000
G00 Z0.5000
G01 Z0.0000 F400
G01 Z-1.0000
M106 S240
G01 X129.1808 F1000
G01 X131.1999 Y132.9513
G01 X125.3404
G01 X127.8391 Y131.4513
G01 X132.8548
G01 X134.2451 Y129.9513
G01 X129.7377
G01 X131.2618 Y128.4513
G01 X135.4251
G01 X136.4306 Y126.9513
G01 X132.5136
G01 X133.5516 Y125.4513
G01 X137.2852
G01 X138.0065 Y123.9513
G01 X134.4103
G01 X135.1147 Y122.4513
G01 X138.6068
G01 X139.0944 Y120.9513
G01 X135.6813
G01 X136.1219 Y119.4513
G01 X139.4766
G01 X139.7588 Y117.9513
G01 X136.4443
G01 X136.6565 Y116.4513
G01 X139.9449
G01 X140.0377 Y114.9513
G01 X136.7613
G01 X136.7755 Y113.4513
G01 X140.0499
G01 Y111.9513
G01 X136.7755
G01 Y110.4513
G01 X140.0499
G01 Y108.9513
G01 X136.7755
G01 Y107.4513
G01 X140.0499
G01 Y105.9513
G01 X136.7755
G01 Y104.4513
G01 X140.0499
G01 Y102.9513
G01 X136.7755
G01 Y101.4513
G01 X140.0499
G01 Y99.9513
G01 X136.7755
G01 Y98.4513
G01 X140.0499
G01 Y96.9513
G01 X136.7755
G01 Y95.4513
G01 X140.0499
G01 Y93.9513
G01 X136.7755
G01 Y92.4513
G01 X140.0499
G01 Y90.9513
G01 X136.7755
G01 Y89.4513
G01 X140.0499
G01 Y87.9513
G01 X136.7755
G01 Y86.4513
G01 X140.0499
G01 Y84.9513
G01 X136.7755
G01 Y83.4513
G01 X140.0499
G01 Y81.9513
G01 X136.7755
G01 Y80.4513
G01 X140.0499
G01 Y78.9513
G01 X136.7755
G01 Y77.4513
G01 X140.0499
G01 Y75.9513
G01 X136.7755
G01 Y74.4513
G01 X140.0499
G01 Y72.9513
G01 X136.7755
G01 Y71.4513
G01 X140.0499
G01 Y69.9513
G01 X136.7755
G01 Y68.4513
G01 X140.0499
G01 Y66.9513
G01 X136.7755
G01 Y65.4513
G01 X140.0499
G01 Y63.9513
G01 X136.7755
G01 Y62.4513
G01 X140.0499
G01 Y60.9513
G01 X136.7755
G01 Y59.4513
G01 X140.0499
G01 Y57.9513
G01 X136.7755
G01 Y56.4513
G01 X140.0499
G01 Y54.9513
G01 X136.7755
G01 Y53.4513
G01 X140.0499
G01 Y51.9513
G01 X136.7755
G01 Y50.4513
G01 X140.0499
G01 Y48.9513
G01 X136.7755
G01 Y47.4513
G01 X140.0499
G01 Y45.9513
G01 X136.7755
G01 Y44.4513
G01 X140.0499
G01 Y42.9513
G01 X136.7755
G01 Y41.4513
G01 X140.0499
G01 Y39.9513
G01 X136.7755
G01 Y38.4513
G01 X140.0499
G01 Y36.9513
G01 X136.7755
G01 Y35.4513
G01 X140.0499
G01 X140.0377 Y33.9513
G01 X136.7613
G01 X136.6565 Y32.4513
G01 X139.9450
G01 X139.7588 Y30.9513
G01 X136.4444
G01 X136.1218 Y29.4513
G01 X139.4766
G01 X139.0944 Y27.9513
G01 X135.6814
G01 X135.1147 Y26.4513
G01 X138.6068
G01 X138.0065 Y24.9513
G01 X134.4102
G01 X133.5515 Y23.4513
G01 X137.2852
G01 X136.4306 Y21.9513
G01 X132.5136
G01 X131.2617 Y20.4513
G01 X135.4251
G01 X134.2451 Y18.9513
G01 X129.7378
G01 X127.8390 Y17.4513
G01 X132.8548
G01 X131.1999 Y15.9513
G01 X125.3405
G01 X129.1808 Y14.4513
G01 X121.4973
G01 Y12.9513
G01 X126.5983
G01 X25.3687
G01 X22.7862 Y14.4513
G01 X30.4698
G01 X26.6266
G01 Y15.9513
G01 X20.7671
G01 X19.1122 Y17.4513
G01 X24.1279
G01 X22.2293 Y18.9513
G01 X17.7219
G01 X16.5419 Y20.4513
G01 X20.7052
G01 X19.4534 Y21.9513
G01 X15.5364
G01 X14.6818 Y23.4513
G01 X18.4154
G01 X17.5567 Y24.9513
G01 X13.9605
G01 X13.3602 Y26.4513
G01 X16.8523
G01 X16.2857 Y27.9513
G01 X12.8726
G01 X12.4904 Y29.4513
G01 X15.8451
G01 X15.5226 Y30.9513
G01 X12.2082
G01 X12.0220 Y32.4513
G01 X15.3105
G01 X15.2057 Y33.9513
G01 X11.9293
G01 X11.9171 Y35.4513
G01 X15.1915
G01 Y36.9513
G01 X11.9171
G01 Y38.4513
G01 X15.1915
G01 Y39.9513
G01 X11.9171
G01 Y41.4513
G01 X15.1915
G01 Y42.9513
G01 X11.9171
G01 Y44.4513
G01 X15.1915
G01 Y45.9513
G01 X11.9171
G01 Y47.4513
G01 X15.1915
G01 Y48.9513
G01 X11.9171
G01 Y50.4513
G01 X15.1915
G01 Y51.9513
G01 X11.9171
G01 Y53.4513
G01 X15.1915
G01 Y54.9513
G01 X11.9171
G01 Y56.4513
G01 X15.1915
G01 Y57.9513
G01 X11.9171
G01 Y59.4513
G01 X15.1915
G01 Y60.9513
G01 X11.9171
G01 Y62.4513
G01 X15.1915
G01 Y63.9513
G01 X11.9171
G01 Y65.4513
G01 X15.1915
G01 Y66.9513
G01 X11.9171
G01 Y68.4513
G01 X15.1915
G01 Y69.9513
G01 X11.9171
G01 Y71.4513
G01 X15.1915
G01 Y72.9513
G01 X11.9171
G01 Y74.4513
G01 X15.1915
G01 Y75.9513
G01 X11.9171
G01 Y77.4513
G01 X15.1915
G01 Y78.9513
G01 X11.9171
G01 Y80.4513
G01 X15.1915
G01 Y81.9513
G01 X11.9171
G01 Y83.4513
G01 X15.1915
G01 Y84.9513
G01 X11.9171
G01 Y86.4513
G01 X15.1915
G01 Y87.9513
G01 X11.9171
G01 Y89.4513
G01 X15.1915
G01 Y90.9513
G01 X11.9171
G01 Y92.4513
G01 X15.1915
G01 Y93.9513
G01 X11.9171
G01 Y95.4513
G01 X15.1915
G01 Y96.9513
G01 X11.9171
G01 Y98.4513
G01 X15.1915
G01 Y99.9513
G01 X11.9171
G01 Y101.4513
G01 X15.1915
G01 Y102.9513
G01 X11.9171
G01 Y104.4513
G01 X15.1915
G01 Y105.9513
G01 X11.9171
G01 Y107.4513
G01 X15.1915
G01 Y108.9513
G01 X11.9171
G01 Y110.4513
G01 X15.1915
G01 Y111.9513
G01 X11.9171
G01 Y113.4513
G01 X15.1915
G01 X15.2056 Y114.9513
G01 X11.9293
G01 X12.0220 Y116.4513
G01 X15.3105
G01 X15.5226 Y117.9513
G01 X12.2082
G01 X12.4904 Y119.4513
G01 X15.8451
G01 X16.2856 Y120.9513
G01 X12.8726
G01 X13.3602 Y122.4513
G01 X16.8523
G01 X17.5568 Y123.9513
G01 X13.9605
G01 X14.6818 Y125.4513
G01 X18.4155
G01 X19.4534 Y126.9513
G01 X15.5364
G01 X16.5418 Y128.4513
G01 X20.7052
G01 X22.2292 Y129.9513
G01 X17.7219
G01 X19.1122 Y131.4513
G01 X24.1280
G01 X26.6265 Y132.9513
G01 X20.7671
G01 X22.7862 Y134.4513
G01 X30.4697
G01 X30.5618 Y134.2693
G01 X29.7525 Y134.0257
G01 X28.9538 Y133.7494
G01 X28.1670 Y133.4407
G01 X27.3934 Y133.1003
G01 X26.6343 Y132.7286
G01 X25.8910 Y132.3263
G01 X25.1647 Y131.8940
G01 X24.4567 Y131.4326
G01 X23.7680 Y130.9426
G01 X23.0998 Y130.4250
G01 X22.4533 Y129.8806
G01 X21.8295 Y129.3104
G01 X21.2294 Y128.7152
G01 X20.6541 Y128.0960
G01 X20.1045 Y127.4539
G01 X19.5815 Y126.7900
G01 X19.0859 Y126.1053
G01 X18.6187 Y125.4010
G01 X18.1806 Y124.6783
G01 X17.7722 Y123.9383
G01 X17.3944 Y123.1822
G01 X17.0477 Y122.4114
G01 X16.7326 Y121.6272
G01 X16.4498 Y120.8307
G01 X16.1996 Y120.0234
G01 X15.9826 Y119.2066
G01 X15.7989 Y118.3816
G01 X15.6491 Y117.5498
G01 X15.5333 Y116.7125
G01 X15.4516 Y115.8713
G01 X15.4043 Y115.0275
G01 X15.3915 Y114.1824
G01 Y34.7202
G01 X15.4036 Y33.9001
G01 X15.4482 Y33.0811
G01 X15.5251 Y32.2645
G01 X15.6341 Y31.4515
G01 X15.7753 Y30.6436
G01 X15.9482 Y29.8418
G01 X16.1526 Y29.0474
G01 X16.3883 Y28.2618
G01 X16.6549 Y27.4861
G01 X16.9518 Y26.7216
G01 X17.2788 Y25.9693
G01 X17.6352 Y25.2306
G01 X18.0205 Y24.5065
G01 X18.4341 Y23.7982
G01 X18.8754 Y23.1068
G01 X19.3436 Y22.4334
G01 X19.8381 Y21.7790
G01 X20.3581 Y21.1446
G01 X20.9027 Y20.5313
G01 X21.4711 Y19.9400
G01 X22.0624 Y19.3716
G01 X22.6757 Y18.8270
G01 X23.3101 Y18.3070
G01 X23.9645 Y17.8125
G01 X24.6379 Y17.3443
G01 X25.3293 Y16.9030
G01 X26.0376 Y16.4894
G01 X26.7617 Y16.1041
G01 X27.5004 Y15.7477
G01 X28.2527 Y15.4208
G01 X29.0172 Y15.1238
G01 X29.7929 Y14.8573
G01 X30.5786 Y14.6216
G01 X31.3729 Y14.4171
G01 X32.1747 Y14.2442
G01 X32.9827 Y14.1031
G01 X33.7956 Y13.9940
G01 X34.6122 Y13.9171
G01 X35.4312 Y13.8726
G01 X36.2513 Y13.8604
G01 X115.7158
G01 X116.5359 Y13.8726
G01 X117.3549 Y13.9172
G01 X118.1715 Y13.9940
G01 X118.9844 Y14.1031
G01 X119.7924 Y14.2442
G01 X120.5942 Y14.4171
G01 X121.3885 Y14.6216
G01 X122.1741 Y14.8573
G01 X122.9498 Y15.1238
G01 X123.7144 Y15.4208
G01 X124.4666 Y15.7477
G01 X125.2054 Y16.1041
G01 X125.9295 Y16.4895
G01 X126.6377 Y16.9031
G01 X127.3291 Y17.3444
G01 X128.0026 Y17.8126
G01 X128.6570 Y18.3071
G01 X129.2913 Y18.8270
G01 X129.9046 Y19.3716
G01 X130.4960 Y19.9400
G01 X131.0644 Y20.5314
G01 X131.6090 Y21.1447
G01 X132.1289 Y21.7791
G01 X132.6234 Y22.4335
G01 X133.0916 Y23.1069
G01 X133.5329 Y23.7983
G01 X133.9465 Y24.5066
G01 X134.3318 Y25.2307
G01 X134.6882 Y25.9694
G01 X135.0152 Y26.7216
G01 X135.3121 Y27.4862
G01 X135.5787 Y28.2619
G01 X135.8144 Y29.0475
G01 X136.0188 Y29.8418
G01 X136.1917 Y30.6436
G01 X136.3328 Y31.4516
G01 X136.4419 Y32.2645
G01 X136.5188 Y33.0812
G01 X136.5634 Y33.9002
G01 X136.5755 Y34.7203
G01 Y114.1824
G01 X136.5633 Y115.0026
G01 X136.5188 Y115.8216
G01 X136.4419 Y116.6382
G01 X136.3328 Y117.4511
G01 X136.1917 Y118.2591
G01 X136.0188 Y119.0609
G01 X135.8143 Y119.8552
G01 X135.5787 Y120.6408
G01 X135.3121 Y121.4165
G01 X135.0151 Y122.1811
G01 X134.6882 Y122.9333
G01 X134.3318 Y123.6721
G01 X133.9465 Y124.3961
G01 X133.5329 Y125.1044
G01 X133.0916 Y125.7958
G01 X132.6233 Y126.4693
G01 X132.1289 Y127.1237
G01 X131.6089 Y127.7580
G01 X131.0643 Y128.3713
G01 X130.4959 Y128.9626
G01 X129.9046 Y129.5311
G01 X129.2913 Y130.0757
G01 X128.6569 Y130.5956
G01 X128.0025 Y131.0901
G01 X127.3291 Y131.5583
G01 X126.6377 Y131.9996
G01 X125.9294 Y132.4132
G01 X125.2053 Y132.7985
G01 X124.4666 Y133.1549
G01 X123.7143 Y133.4819
G01 X122.9498 Y133.7788
G01 X122.1741 Y134.0454
G01 X121.3884 Y134.2811
G01 X120.5941 Y134.4855
G01 X119.7923 Y134.6584
G01 X118.9843 Y134.7995
G01 X118.1714 Y134.9086
G01 X117.3548 Y134.9855
G01 X116.5358 Y135.0301
G01 X115.7157 Y135.0422
G01 X36.2512
G01 X35.5314 Y135.0309
G01 X34.8124 Y134.9950
G01 X34.0951 Y134.9346
G01 X33.3802 Y134.8499
G01 X32.6686 Y134.7409
G01 X31.9611 Y134.6076
G01 X31.2586 Y134.4504
G01 X30.5618 Y134.2693
G01 X30.4697 Y134.4513
G01 Y135.9513
G01 X25.3686
G01 X126.5983
G01 X122.8598 Y137.4513
G01 X29.1072
M107
G00 Z2.0000
G00 Y12.9513
G00 Z0.5000
G01 Z-1.0000 F400
M106 S240
G01 Y11.4513 F1000
G01 X122.8598
G01 X122.8103 Y11.2278
G01 X121.9435 Y10.9836
G01 X121.0683 Y10.7714
G01 X120.1860 Y10.5915
G01 X119.2976 Y10.4442
G01 X118.4044 Y10.3297
G01 X117.5076 Y10.2480
G01 X116.6084 Y10.1994
G01 X115.7080 Y10.1838
G01 X36.2590
G01 X35.3830 Y10.1996
G01 X34.5082 Y10.2466
G01 X33.6356 Y10.3248
G01 X32.7663 Y10.4342
G01 X31.9015 Y10.5744
G01 X31.0423 Y10.7455
G01 X30.1897 Y10.9471
G01 X29.3448 Y11.1790
G01 X28.5088 Y11.4408
G01 X27.6826 Y11.7324
G01 X26.8673 Y12.0533
G01 X26.0641 Y12.4030
G01 X25.2738 Y12.7812
G01 X24.4975 Y13.1874
G01 X23.7362 Y13.6210
G01 X22.9909 Y14.0815
G01 X22.2625 Y14.5682
G01 X21.5519 Y15.0807
G01 X20.8601 Y15.6182
G01 X20.1878 Y16.1801
G01 X19.5361 Y16.7656
G01 X18.9057 Y17.3740
G01 X18.2974 Y18.0045
G01 X17.7119 Y18.6562
G01 X17.1501 Y19.3285
G01 X16.6127 Y20.0204
G01 X16.1003 Y20.7310
G01 X15.6135 Y21.4595
G01 X15.1531 Y22.2049
G01 X14.7196 Y22.9662
G01 X14.3135 Y23.7425
G01 X13.9354 Y24.5328
G01 X13.5857 Y25.3361
G01 X13.2649 Y26.1514
G01 X12.9734 Y26.9776
G01 X12.7116 Y27.8137
G01 X12.4798 Y28.6585
G01 X12.2783 Y29.5112
G01 X12.1073 Y30.3704
G01 X11.9671 Y31.2353
G01 X11.8579 Y32.1045
G01 X11.7798 Y32.9771
G01 X11.7328 Y33.8520
G01 X11.7171 Y34.7280
G01 Y114.1747
G01 X11.7328 Y115.0506
G01 X11.7798 Y115.9255
G01 X11.8579 Y116.7981
G01 X11.9671 Y117.6674
G01 X12.1073 Y118.5322
G01 X12.2783 Y119.3915
G01 X12.4798 Y120.2441
G01 X12.7116 Y121.0890
G01 X12.9734 Y121.9250
G01 X13.2649 Y122.7512
G01 X13.5857 Y123.5665
G01 X13.9354 Y124.3698
G01 X14.3135 Y125.1601
G01 X14.7196 Y125.9364
G01 X15.1531 Y126.6978
G01 X15.6135 Y127.4431
G01 X16.1003 Y128.1716
G01 X16.6127 Y128.8822
G01 X17.1501 Y129.5741
G01 X17.7119 Y130.2464
G01 X18.2974 Y130.8982
G01 X18.9057 Y131.5287
G01 X19.5361 Y132.1370
G01 X20.1878 Y132.7225
G01 X20.8601 Y133.2844
G01 X21.5519 Y133.8219
G01 X22.2625 Y134.3344
G01 X22.9909 Y134.8212
G01 X23.7362 Y135.2817
G01 X24.4975 Y135.7153
G01 X25.2738 Y136.1214
G01 X26.0641 Y136.4996
G01 X26.8673 Y136.8494
G01 X27.6826 Y137.1702
G01 X28.5087 Y137.4618
G01 X29.3448 Y137.7237
G01 X30.1897 Y137.9556
G01 X31.0423 Y138.1572
G01 X31.9015 Y138.3282
G01 X32.7663 Y138.4685
G01 X33.6356 Y138.5778
G01 X34.5082 Y138.6560
G01 X35.3830 Y138.7030
G01 X36.2590 Y138.7188
G01 X115.7080
G01 X116.5840 Y138.7030
G01 X117.4588 Y138.6560
G01 X118.3314 Y138.5778
G01 X119.2007 Y138.4685
G01 X120.0655 Y138.3282
G01 X120.9247 Y138.1572
G01 X121.7773 Y137.9556
G01 X122.6222 Y137.7237
G01 X123.4582 Y137.4618
G01 X124.2844 Y137.1702
G01 X125.0996 Y136.8494
G01 X125.9029 Y136.4996
G01 X126.6932 Y136.1214
G01 X127.4695 Y135.7153
G01 X128.2308 Y135.2817
G01 X128.9761 Y134.8212
G01 X129.7045 Y134.3344
G01 X130.4151 Y133.8219
G01 X131.1069 Y133.2844
G01 X131.7791 Y132.7225
G01 X132.4309 Y132.1370
G01 X133.0613 Y131.5287
G01 X133.6696 Y130.8982
G01 X134.2551 Y130.2464
G01 X134.8169 Y129.5741
G01 X135.3543 Y128.8822
G01 X135.8667 Y128.1716
G01 X136.3535 Y127.4431
G01 X136.8139 Y126.6978
G01 X137.2474 Y125.9364
G01 X137.6535 Y125.1601
G01 X138.0316 Y124.3698
G01 X138.3813 Y123.5665
G01 X138.7021 Y122.7512
G01 X138.9936 Y121.9251
G01 X139.2554 Y121.0890
G01 X139.4872 Y120.2441
G01 X139.6887 Y119.3915
G01 X139.8597 Y118.5322
G01 X139.9999 Y117.6674
G01 X140.1091 Y116.7981
G01 X140.1872 Y115.9255
G01 X140.2342 Y115.0507
G01 X140.2499 Y114.1747
G01 Y34.7280
G01 X140.2343 Y33.8573
G01 X140.1878 Y32.9878
G01 X140.1106 Y32.1204
G01 X140.0026 Y31.2564
G01 X139.8641 Y30.3967
G01 X139.6952 Y29.5424
G01 X139.4961 Y28.6947
G01 X139.2671 Y27.8546
G01 X139.0085 Y27.0231
G01 X138.7205 Y26.2013
G01 X138.4036 Y25.3902
G01 X138.0582 Y24.5909
G01 X137.6846 Y23.8043
G01 X137.2833 Y23.0315
G01 X136.8550 Y22.2734
G01 X136.4000 Y21.5309
G01 X135.9190 Y20.8050
G01 X135.4125 Y20.0967
G01 X134.8813 Y19.4067
G01 X134.3259 Y18.7360
G01 X133.7471 Y18.0855
G01 X133.1456 Y17.4558
G01 X132.5221 Y16.8479
G01 X131.8775 Y16.2624
G01 X131.2126 Y15.7002
G01 X130.5281 Y15.1619
G01 X129.8250 Y14.6482
G01 X129.1041 Y14.1597
G01 X128.3664 Y13.6971
G01 X127.6127 Y13.2610
G01 X126.8440 Y12.8518
G01 X126.0613 Y12.4702
G01 X125.2656 Y12.1165
G01 X124.4578 Y11.7913
G01 X123.6390 Y11.4949
G01 X122.8103 Y11.2278
G01 X122.8598 Y11.4513
M107
G00 Z2.0000


;No. 13: Hole 12
G00 X76.3721 Y168.4112 Z2.0000
G00 Z0.5000
G01 Z0.0000 F400
G01 Z-1.0000
M106 S240
G01 X75.5681 F1000
G01 X75.2994 Y169.9112
G01 X76.6386
G01 X76.9051 Y171.4112
G01 X75.0307
G01 X74.7620 Y172.9112
G01 X77.1715
G01 X77.4380 Y174.4112
G01 X74.4933
G01 X74.2246 Y175.9112
G01 X77.7045
G01 X77.9710 Y177.4112
G01 X73.9559
G01 X73.6873 Y178.9112
G01 X78.2374
G01 X78.5039 Y180.4112
G01 X73.4186
G01 X73.1499 Y181.9112
G01 X78.7704
G01 X79.0369 Y183.4112
G01 X72.8812
G01 X72.6125 Y184.9112
G01 X79.3033
G01 X79.5698 Y186.4112
G01 X72.3438
G01 X72.0751 Y187.9112
G01 X79.8363
G01 X80.1028 Y189.4112
G01 X71.8064
G01 X71.5378 Y190.9112
G01 X80.3692
G01 X80.6357 Y192.4112
G01 X71.2691
G01 X71.0004 Y193.9112
G01 X80.9022
G01 X81.0957 Y193.8573
G01 X75.9728 Y165.0198
G01 X70.6264 Y194.8648
G01 X81.2736 Y194.8582
G01 X81.0957 Y193.8573
G01 X80.9022 Y193.9112
M107
G00 Z2.0000


;No. 14: Hole 4
G00 X38.0279 Y213.7179 Z2.0000
G00 Z0.5000
G01 Z0.0000 F400
G01 Z-1.0000
M106 S240
G01 X20.1302 F1000
G01 X27.9384
G01 Y212.2179
G01 X30.2467
G01 X30.1284 Y210.7179
G01 X28.0566
G01 Y209.2179
G01 X30.1284
G01 Y207.7179
G01 X28.0566
G01 Y206.2179
G01 X30.1284
G01 Y204.7179
G01 X28.0566
G01 Y203.2179
G01 X30.1284
G01 Y201.7179
G01 X28.0566
G01 Y200.2179
G01 X30.1284
G01 X30.3284 Y200.2299
G01 Y198.7636
G01 X27.8566
G01 Y211.7003
G01 X27.8536 Y211.7788
G01 X27.8443 Y211.8567
G01 X27.8290 Y211.9337
G01 X27.8077 Y212.0093
G01 X27.7805 Y212.0830
G01 X27.7477 Y212.1543
G01 X27.7093 Y212.2228
G01 X27.6657 Y212.2881
G01 X27.6171 Y212.3498
G01 X27.5638 Y212.4074
G01 X27.5061 Y212.4607
G01 X27.4444 Y212.5093
G01 X27.3791 Y212.5529
G01 X27.3106 Y212.5913
G01 X27.2393 Y212.6242
G01 X27.1657 Y212.6514
G01 X27.0901 Y212.6727
G01 X27.0131 Y212.6880
G01 X26.9351 Y212.6972
G01 X26.8566 Y212.7003
G01 X25.6285 Y212.6773
G01 X24.4001 Y212.6704
G01 X23.1718 Y212.6797
G01 X21.9437 Y212.7051
G01 X21.8009 Y212.7148
G01 X21.6588 Y212.7315
G01 X21.5177 Y212.7551
G01 X21.3779 Y212.7856
G01 X21.2398 Y212.8229
G01 X21.1037 Y212.8669
G01 X20.9699 Y212.9176
G01 X20.8388 Y212.9748
G01 X20.7106 Y213.0384
G01 X20.5857 Y213.1081
G01 X20.4643 Y213.1839
G01 X20.3468 Y213.2656
G01 X20.2335 Y213.3529
G01 X20.1246 Y213.4457
G01 X20.0204 Y213.5437
G01 X19.9211 Y213.6468
G01 X19.8270 Y213.7545
G01 X19.7383 Y213.8668
G01 X19.6552 Y213.9833
G01 X19.5779 Y214.1037
G01 X19.5066 Y214.2277
G01 X19.4415 Y214.3551
G01 X19.3828 Y214.4856
G01 X19.3305 Y214.6187
G01 X19.2847 Y214.7543
G01 X19.2457 Y214.8920
G01 X19.2135 Y215.0314
G01 X19.1882 Y215.1722
G01 X38.9995 Y215.1721
G01 X38.9699 Y215.0259
G01 X38.9331 Y214.8815
G01 X38.8891 Y214.7390
G01 X38.8380 Y214.5989
G01 X38.7801 Y214.4616
G01 X38.7154 Y214.3273
G01 X38.6440 Y214.1963
G01 X38.5663 Y214.0691
G01 X38.4823 Y213.9460
G01 X38.3923 Y213.8271
G01 X38.2964 Y213.7129
G01 X38.1950 Y213.6036
G01 X38.0883 Y213.4995
G01 X37.9765 Y213.4008
G01 X37.8600 Y213.3079
G01 X37.7390 Y213.2208
G01 X37.6137 Y213.1399
G01 X37.4846 Y213.0653
G01 X37.3520 Y212.9972
G01 X37.2161 Y212.9358
G01 X37.0774 Y212.8813
G01 X36.9361 Y212.8337
G01 X36.7926 Y212.7933
G01 X36.6472 Y212.7600
G01 X36.5004 Y212.7340
G01 X36.3525 Y212.7154
G01 X36.2038 Y212.7041
G01 X36.0548 Y212.7003
G01 X31.3284
G01 X31.2499 Y212.6972
G01 X31.1720 Y212.6880
G01 X31.0950 Y212.6727
G01 X31.0194 Y212.6514
G01 X30.9457 Y212.6242
G01 X30.8744 Y212.5913
G01 X30.8059 Y212.5529
G01 X30.7406 Y212.5093
G01 X30.6789 Y212.4607
G01 X30.6213 Y212.4074
G01 X30.5680 Y212.3498
G01 X30.5194 Y212.2881
G01 X30.4758 Y212.2228
G01 X30.4374 Y212.1543
G01 X30.4045 Y212.0830
G01 X30.3773 Y212.0093
G01 X30.3560 Y211.9337
G01 X30.3407 Y211.8567
G01 X30.3315 Y211.7788
G01 X30.3284 Y211.7003
G01 Y200.2299
G01 X30.1284 Y200.2179
M107
G00 Z2.0000


;No. 15: Hole 7
G00 X43.3875 Y199.9996 Z2.0000
G00 Z0.5000
G01 Z0.0000 F400
G01 Z-1.0000
M106 S240
G01 X61.6724 F1000
G01 X61.8312 Y199.8778
G01 X61.7454 Y199.7754
G01 X61.6551 Y199.6770
G01 X61.5605 Y199.5827
G01 X61.4618 Y199.4928
G01 X61.3591 Y199.4074
G01 X61.2526 Y199.3267
G01 X61.1427 Y199.2509
G01 X61.0294 Y199.1801
G01 X60.9131 Y199.1145
G01 X60.7939 Y199.0542
G01 X60.6722 Y198.9993
G01 X60.5481 Y198.9499
G01 X60.4219 Y198.9062
G01 X60.2939 Y198.8682
G01 X60.1642 Y198.8360
G01 X60.0333 Y198.8096
G01 X59.9013 Y198.7892
G01 X59.7686 Y198.7747
G01 X59.6353 Y198.7662
G01 X59.5017 Y198.7637
G01 X45.5690 Y198.7639
G01 X45.4218 Y198.7651
G01 X45.2749 Y198.7738
G01 X45.1286 Y198.7898
G01 X44.9833 Y198.8132
G01 X44.8393 Y198.8439
G01 X44.6971 Y198.8819
G01 X44.5570 Y198.9269
G01 X44.4193 Y198.9790
G01 X44.2844 Y199.0379
G01 X44.1527 Y199.1036
G01 X44.0245 Y199.1758
G01 X43.9000 Y199.2544
G01 X43.7797 Y199.3392
G01 X43.6638 Y199.4299
G01 X43.5527 Y199.5264
G01 X43.4465 Y199.6283
G01 X43.4547 Y199.6197
G01 X43.3493 Y199.7313
G01 X43.2498 Y199.8483
G01 X43.1565 Y199.9703
G01 X43.0697 Y200.0969
G01 X42.9896 Y200.2279
G01 X42.9165 Y200.3629
G01 X42.8504 Y200.5015
G01 X42.7916 Y200.6434
G01 X42.7403 Y200.7881
G01 X42.6966 Y200.9353
G01 X42.6605 Y201.0846
G01 X42.6323 Y201.2355
G01 X62.4436
G01 X62.4215 Y201.1118
G01 X62.3938 Y200.9893
G01 X62.3606 Y200.8681
G01 X62.3221 Y200.7486
G01 X62.2783 Y200.6308
G01 X62.2292 Y200.5152
G01 X62.1750 Y200.4019
G01 X62.1158 Y200.2911
G01 X62.0516 Y200.1831
G01 X61.9827 Y200.0781
G01 X61.9092 Y199.9762
G01 X61.8312 Y199.8778
G01 X61.6724 Y199.9996
M107
G00 Z2.0000


;No. 16: Hole 6
G00 X61.6724 Y206.9679 Z2.0000
G00 Z0.5000
G01 Z0.0000 F400
G01 Z-1.0000
M106 S240
G01 X43.3875 F1000
G01 X43.2179 Y206.8602
G01 X43.1438 Y206.9589
G01 X43.0739 Y207.0607
G01 X43.0084 Y207.1653
G01 X42.9473 Y207.2727
G01 X42.8909 Y207.3825
G01 X42.8392 Y207.4946
G01 X42.7923 Y207.6088
G01 X42.7502 Y207.7249
G01 X42.7132 Y207.8426
G01 X42.6811 Y207.9619
G01 X42.6542 Y208.0823
G01 X42.6323 Y208.2038
G01 X62.4436
G01 X62.4141 Y208.0578
G01 X62.3772 Y207.9134
G01 X62.3333 Y207.7710
G01 X62.2823 Y207.6310
G01 X62.2244 Y207.4938
G01 X62.1598 Y207.3595
G01 X62.0885 Y207.2287
G01 X62.0108 Y207.1015
G01 X61.9269 Y206.9784
G01 X61.8370 Y206.8596
G01 X61.7413 Y206.7455
G01 X61.6400 Y206.6362
G01 X61.5334 Y206.5321
G01 X61.4217 Y206.4335
G01 X61.3053 Y206.3405
G01 X61.1844 Y206.2534
G01 X61.0593 Y206.1725
G01 X60.9304 Y206.0979
G01 X60.7979 Y206.0298
G01 X60.6621 Y205.9683
G01 X60.5235 Y205.9137
G01 X60.3823 Y205.8661
G01 X60.2389 Y205.8256
G01 X60.0937 Y205.7922
G01 X59.9470 Y205.7661
G01 X59.7992 Y205.7474
G01 X59.6507 Y205.7360
G01 X59.5017 Y205.7320
G01 X45.5789
G01 X45.4432 Y205.7323
G01 X45.3077 Y205.7390
G01 X45.1726 Y205.7519
G01 X45.0383 Y205.7711
G01 X44.9050 Y205.7966
G01 X44.7730 Y205.8283
G01 X44.6427 Y205.8661
G01 X44.5143 Y205.9099
G01 X44.3880 Y205.9597
G01 X44.2643 Y206.0154
G01 X44.1432 Y206.0767
G01 X44.0252 Y206.1436
G01 X43.9104 Y206.2160
G01 X43.7991 Y206.2937
G01 X43.6916 Y206.3764
G01 X43.5880 Y206.4641
G01 X43.4886 Y206.5565
G01 X43.3937 Y206.6535
G01 X43.3034 Y206.7548
G01 X43.2179 Y206.8602
G01 X43.3875 Y206.9679
M107
G00 Z2.0000


;No. 17: Hole 5
G00 X43.3875 Y213.9362 Z2.0000
G00 Z0.5000
G01 Z0.0000 F400
G01 Z-1.0000
M106 S240
G01 X61.6725 F1000
G01 X61.8312 Y213.8144
G01 X61.7455 Y213.7119
G01 X61.6553 Y213.6134
G01 X61.5607 Y213.5191
G01 X61.4620 Y213.4291
G01 X61.3593 Y213.3437
G01 X61.2529 Y213.2630
G01 X61.1429 Y213.1871
G01 X61.0297 Y213.1163
G01 X60.9133 Y213.0507
G01 X60.7942 Y212.9904
G01 X60.6724 Y212.9355
G01 X60.5483 Y212.8861
G01 X60.4221 Y212.8424
G01 X60.2940 Y212.8044
G01 X60.1644 Y212.7722
G01 X60.0334 Y212.7459
G01 X59.9014 Y212.7255
G01 X59.7686 Y212.7111
G01 X59.6353 Y212.7027
G01 X59.5017 Y212.7003
G01 X45.5788
G01 X45.4316 Y212.7009
G01 X45.2846 Y212.7089
G01 X45.1382 Y212.7244
G01 X44.9927 Y212.7472
G01 X44.8486 Y212.7774
G01 X44.7062 Y212.8148
G01 X44.5659 Y212.8594
G01 X44.4280 Y212.9110
G01 X44.2929 Y212.9695
G01 X44.1609 Y213.0348
G01 X44.0324 Y213.1067
G01 X43.9077 Y213.1849
G01 X43.7872 Y213.2694
G01 X43.6710 Y213.3599
G01 X43.5596 Y213.4562
G01 X43.4532 Y213.5579
G01 X43.4683 Y213.5419
G01 X43.3611 Y213.6542
G01 X43.2600 Y213.7719
G01 X43.1651 Y213.8947
G01 X43.0768 Y214.0224
G01 X42.9954 Y214.1545
G01 X42.9210 Y214.2907
G01 X42.8538 Y214.4306
G01 X42.7940 Y214.5739
G01 X42.7419 Y214.7201
G01 X42.6975 Y214.8688
G01 X42.6609 Y215.0196
G01 X42.6323 Y215.1722
G01 X62.4436 Y215.1721
G01 X62.4215 Y215.0484
G01 X62.3938 Y214.9259
G01 X62.3606 Y214.8047
G01 X62.3221 Y214.6852
G01 X62.2783 Y214.5675
G01 X62.2292 Y214.4518
G01 X62.1750 Y214.3385
G01 X62.1158 Y214.2277
G01 X62.0516 Y214.1197
G01 X61.9827 Y214.0147
G01 X61.9092 Y213.9128
G01 X61.8312 Y213.8144
G01 X61.6725 Y213.9362
M107
G00 Z2.0000


;No. 18: Hole 8
G00 X66.2393 Y213.7180 Z2.0000
G00 Z0.5000
G01 Z0.0000 F400
G01 Z-1.0000
M106 S240
G01 X84.9187 F1000
G01 X68.4264
G01 Y212.2180
G01 X66.2393
G01 Y210.7180
G01 X68.3082
G01 Y209.2180
G01 X66.2393
G01 Y207.7180
G01 X85.7276
G01 Y206.2180
G01 X66.2393
G01 X83.6587
G01 Y204.7180
G01 X85.7276
G01 Y203.2180
G01 X83.6587
G01 X83.5405 Y201.7180
G01 X85.7276
G01 Y200.2180
G01 X67.0487
G01 X66.9170 Y200.3688
G01 X67.0223 Y200.4702
G01 X67.1324 Y200.5661
G01 X67.2473 Y200.6564
G01 X67.3665 Y200.7408
G01 X67.4898 Y200.8192
G01 X67.6169 Y200.8913
G01 X67.7474 Y200.9569
G01 X67.8810 Y201.0159
G01 X68.0175 Y201.0681
G01 X68.1563 Y201.1135
G01 X68.2973 Y201.1518
G01 X68.4400 Y201.1830
G01 X68.5841 Y201.2071
G01 X68.7293 Y201.2238
G01 X68.8750 Y201.2333
G01 X69.0211 Y201.2355
G01 X82.4587
G01 X82.5371 Y201.2386
G01 X82.6151 Y201.2478
G01 X82.6921 Y201.2632
G01 X82.7677 Y201.2845
G01 X82.8414 Y201.3116
G01 X82.9127 Y201.3445
G01 X82.9812 Y201.3829
G01 X83.0465 Y201.4265
G01 X83.1081 Y201.4751
G01 X83.1658 Y201.5284
G01 X83.2191 Y201.5861
G01 X83.2677 Y201.6477
G01 X83.3113 Y201.7130
G01 X83.3497 Y201.7815
G01 X83.3826 Y201.8528
G01 X83.4097 Y201.9265
G01 X83.4311 Y202.0021
G01 X83.4464 Y202.0791
G01 X83.4556 Y202.1571
G01 X83.4587 Y202.2355
G01 Y204.7321
G01 X83.4577 Y204.7757
G01 X83.4549 Y204.8193
G01 X83.4501 Y204.8626
G01 X83.4435 Y204.9058
G01 X83.4350 Y204.9485
G01 X83.4246 Y204.9909
G01 X83.4124 Y205.0328
G01 X83.3984 Y205.0741
G01 X83.3826 Y205.1148
G01 X83.3650 Y205.1547
G01 X83.3457 Y205.1939
G01 X83.3247 Y205.2321
G01 X83.3021 Y205.2694
G01 X83.2778 Y205.3057
G01 X83.2520 Y205.3409
G01 X83.2247 Y205.3749
G01 X83.1960 Y205.4077
G01 X83.1658 Y205.4392
G01 X83.1343 Y205.4694
G01 X83.1015 Y205.4981
G01 X83.0674 Y205.5255
G01 X83.0323 Y205.5513
G01 X82.9960 Y205.5755
G01 X82.9587 Y205.5981
G01 X82.9204 Y205.6191
G01 X82.8813 Y205.6384
G01 X82.8414 Y205.6560
G01 X82.8007 Y205.6718
G01 X82.7594 Y205.6858
G01 X82.7175 Y205.6980
G01 X82.6751 Y205.7084
G01 X82.6323 Y205.7169
G01 X82.5892 Y205.7235
G01 X82.5458 Y205.7283
G01 X82.5023 Y205.7312
G01 X82.4587 Y205.7321
G01 X66.0393
G01 Y215.1722
G01 X85.8876
G01 X85.8582 Y215.0261
G01 X85.8216 Y214.8816
G01 X85.7778 Y214.7391
G01 X85.7270 Y214.5990
G01 X85.6693 Y214.4616
G01 X85.6047 Y214.3272
G01 X85.5336 Y214.1963
G01 X85.4559 Y214.0690
G01 X85.3721 Y213.9458
G01 X85.2822 Y213.8269
G01 X85.1865 Y213.7127
G01 X85.0852 Y213.6033
G01 X84.9785 Y213.4992
G01 X84.8669 Y213.4005
G01 X84.7504 Y213.3075
G01 X84.6294 Y213.2204
G01 X84.5043 Y213.1395
G01 X84.3752 Y213.0649
G01 X84.2426 Y212.9968
G01 X84.1068 Y212.9354
G01 X83.9680 Y212.8809
G01 X83.8268 Y212.8334
G01 X83.6833 Y212.7930
G01 X83.5380 Y212.7598
G01 X83.3912 Y212.7339
G01 X83.2433 Y212.7153
G01 X83.0947 Y212.7042
G01 X82.9457 Y212.7004
G01 X69.5082
G01 X69.4297 Y212.6974
G01 X69.3517 Y212.6881
G01 X69.2747 Y212.6728
G01 X69.1991 Y212.6515
G01 X69.1255 Y212.6243
G01 X69.0542 Y212.5914
G01 X68.9857 Y212.5531
G01 X68.9204 Y212.5095
G01 X68.8587 Y212.4608
G01 X68.8011 Y212.4075
G01 X68.7478 Y212.3499
G01 X68.6991 Y212.2882
G01 X68.6555 Y212.2229
G01 X68.6172 Y212.1544
G01 X68.5843 Y212.0831
G01 X68.5571 Y212.0095
G01 X68.5358 Y211.9339
G01 X68.5205 Y211.8569
G01 X68.5112 Y211.7789
G01 X68.5082 Y211.7004
G01 Y209.2039
G01 X68.5091 Y209.1602
G01 X68.5120 Y209.1167
G01 X68.5167 Y209.0733
G01 X68.5234 Y209.0302
G01 X68.5319 Y208.9874
G01 X68.5422 Y208.9450
G01 X68.5544 Y208.9031
G01 X68.5685 Y208.8618
G01 X68.5843 Y208.8212
G01 X68.6019 Y208.7812
G01 X68.6212 Y208.7421
G01 X68.6421 Y208.7039
G01 X68.6648 Y208.6666
G01 X68.6890 Y208.6303
G01 X68.7148 Y208.5951
G01 X68.7421 Y208.5611
G01 X68.7709 Y208.5283
G01 X68.8011 Y208.4967
G01 X68.8326 Y208.4666
G01 X68.8654 Y208.4378
G01 X68.8994 Y208.4105
G01 X68.9346 Y208.3847
G01 X68.9709 Y208.3605
G01 X69.0082 Y208.3378
G01 X69.0464 Y208.3168
G01 X69.0855 Y208.2975
G01 X69.1255 Y208.2800
G01 X69.1661 Y208.2642
G01 X69.2075 Y208.2501
G01 X69.2493 Y208.2379
G01 X69.2917 Y208.2276
G01 X69.3345 Y208.2190
G01 X69.3776 Y208.2124
G01 X69.4210 Y208.2077
G01 X69.4645 Y208.2048
G01 X69.5082 Y208.2039
G01 X85.9276
G01 Y198.7638
G01 X66.0823
G01 X66.1099 Y198.9147
G01 X66.1456 Y199.0640
G01 X66.1894 Y199.2110
G01 X66.2411 Y199.3555
G01 X66.3006 Y199.4969
G01 X66.3677 Y199.6349
G01 X66.4421 Y199.7691
G01 X66.5238 Y199.8990
G01 X66.6124 Y200.0243
G01 X66.7076 Y200.1446
G01 X66.8093 Y200.2596
G01 X66.9170 Y200.3688
G01 X67.0487 Y200.2180
M107
G00 Z2.0000


;No. 19: Hole 9
G00 X89.6834 Y200.2180 Z2.0000
G00 Z0.5000
G01 Z0.0000 F400
G01 Z-1.0000
M106 S240
G01 X108.7264 F1000
G01 X91.8733
G01 Y201.7180
G01 X89.6834
G01 Y203.2180
G01 X91.7551
G01 Y204.7180
G01 X89.6834
G01 Y206.2180
G01 X91.7551
G01 Y207.7180
G01 X89.6834
G01 Y209.2180
G01 X91.7551
G01 Y210.7180
G01 X89.6834
G01 Y212.2180
G01 X91.7551
G01 Y213.7180
G01 X89.6834
G01 X89.4834 Y213.7056
G01 Y215.1722
G01 X91.9551
G01 Y202.2355
G01 X91.9561 Y202.1919
G01 X91.9589 Y202.1484
G01 X91.9637 Y202.1050
G01 X91.9703 Y202.0619
G01 X91.9788 Y202.0191
G01 X91.9892 Y201.9767
G01 X92.0014 Y201.9348
G01 X92.0154 Y201.8935
G01 X92.0312 Y201.8528
G01 X92.0488 Y201.8129
G01 X92.0681 Y201.7738
G01 X92.0891 Y201.7355
G01 X92.1117 Y201.6982
G01 X92.1360 Y201.6619
G01 X92.1617 Y201.6268
G01 X92.1891 Y201.5927
G01 X92.2178 Y201.5599
G01 X92.2480 Y201.5284
G01 X92.2795 Y201.4982
G01 X92.3123 Y201.4695
G01 X92.3463 Y201.4422
G01 X92.3815 Y201.4164
G01 X92.4178 Y201.3921
G01 X92.4551 Y201.3695
G01 X92.4934 Y201.3485
G01 X92.5325 Y201.3292
G01 X92.5724 Y201.3116
G01 X92.6131 Y201.2958
G01 X92.6544 Y201.2818
G01 X92.6963 Y201.2696
G01 X92.7387 Y201.2592
G01 X92.7815 Y201.2507
G01 X92.8246 Y201.2441
G01 X92.8679 Y201.2393
G01 X92.9115 Y201.2365
G01 X92.9551 Y201.2355
G01 X109.3345
G01 X109.3049 Y201.0894
G01 X109.2681 Y200.9449
G01 X109.2241 Y200.8025
G01 X109.1730 Y200.6624
G01 X109.1151 Y200.5250
G01 X109.0504 Y200.3907
G01 X108.9790 Y200.2598
G01 X108.9013 Y200.1326
G01 X108.8173 Y200.0094
G01 X108.7273 Y199.8906
G01 X108.6314 Y199.7764
G01 X108.5300 Y199.6671
G01 X108.4233 Y199.5630
G01 X108.3115 Y199.4643
G01 X108.1950 Y199.3713
G01 X108.0739 Y199.2843
G01 X107.9487 Y199.2033
G01 X107.8196 Y199.1287
G01 X107.6870 Y199.0607
G01 X107.5511 Y198.9993
G01 X107.4124 Y198.9448
G01 X107.2711 Y198.8972
G01 X107.1276 Y198.8568
G01 X106.9822 Y198.8235
G01 X106.8354 Y198.7975
G01 X106.6875 Y198.7789
G01 X106.5388 Y198.7676
G01 X106.3898 Y198.7638
G01 X89.4834
G01 Y213.7056
G01 X89.6834 Y213.7180
M107
G00 Z2.0000


;No. 20: Hole 10
G00 X113.1303 Y207.2338 Z2.0000
G00 Z0.5000
G01 Z0.0000 F400
G01 Z-1.0000
M106 S240
G01 X132.6186 F1000
G01 Y205.7338
G01 X130.0088
G01 X130.5497
G01 Y204.2338
G01 X132.6186
G01 Y202.7338
G01 X130.5497
G01 Y201.2338
G01 X132.6186
G01 Y199.7338
G01 X130.5497
M107
G00 Z2.0000
G00 X115.7401 Y207.2338
G00 Z0.5000
G01 Z-1.0000 F400
M106 S240
G01 Y205.7338 F1000
G01 X113.1303
G01 Y204.2338
G01 X115.1992
G01 Y202.7338
G01 X113.1303
G01 Y201.2338
G01 X115.1992
G01 Y199.7338
G01 X113.1303
G01 X112.9303 Y199.7518
G01 Y208.2039
G01 X132.8186
G01 Y198.7638
G01 X130.3497
G01 Y204.7321
G01 X130.3466 Y204.8106
G01 X130.3374 Y204.8885
G01 X130.3221 Y204.9655
G01 X130.3008 Y205.0411
G01 X130.2736 Y205.1148
G01 X130.2407 Y205.1861
G01 X130.2024 Y205.2546
G01 X130.1587 Y205.3199
G01 X130.1101 Y205.3816
G01 X130.0568 Y205.4392
G01 X129.9992 Y205.4925
G01 X129.9375 Y205.5411
G01 X129.8722 Y205.5847
G01 X129.8037 Y205.6231
G01 X129.7324 Y205.6560
G01 X129.6587 Y205.6832
G01 X129.5832 Y205.7045
G01 X129.5061 Y205.7198
G01 X129.4282 Y205.7290
G01 X129.3497 Y205.7321
G01 X116.3992
G01 X116.3207 Y205.7290
G01 X116.2428 Y205.7198
G01 X116.1658 Y205.7045
G01 X116.0902 Y205.6832
G01 X116.0165 Y205.6560
G01 X115.9452 Y205.6231
G01 X115.8767 Y205.5847
G01 X115.8114 Y205.5411
G01 X115.7497 Y205.4925
G01 X115.6921 Y205.4392
G01 X115.6388 Y205.3816
G01 X115.5902 Y205.3199
G01 X115.5466 Y205.2546
G01 X115.5082 Y205.1861
G01 X115.4753 Y205.1148
G01 X115.4481 Y205.0411
G01 X115.4268 Y204.9655
G01 X115.4115 Y204.8885
G01 X115.4023 Y204.8106
G01 X115.3992 Y204.7321
G01 Y198.7638
G01 X112.9303
G01 Y199.7518
G01 X113.1303 Y199.7338
M107
G00 Z2.0000


;No. 21: Hole 11
G00 X113.7228 Y213.9362 Z2.0000
G00 Z0.5000
G01 Z0.0000 F400
G01 Z-1.0000
M106 S240
G01 X132.0103 F1000
G01 X132.1687 Y213.8141
G01 X132.0828 Y213.7117
G01 X131.9924 Y213.6132
G01 X131.8977 Y213.5190
G01 X131.7988 Y213.4290
G01 X131.6960 Y213.3437
G01 X131.5894 Y213.2630
G01 X131.4793 Y213.1872
G01 X131.3659 Y213.1164
G01 X131.2495 Y213.0508
G01 X131.1302 Y212.9905
G01 X131.0083 Y212.9356
G01 X130.8841 Y212.8863
G01 X130.7578 Y212.8426
G01 X130.6296 Y212.8046
G01 X130.4999 Y212.7724
G01 X130.3689 Y212.7461
G01 X130.2368 Y212.7257
G01 X130.1039 Y212.7112
G01 X129.9705 Y212.7028
G01 X129.8369 Y212.7003
G01 X115.9140
G01 X115.7641 Y212.7011
G01 X115.6145 Y212.7097
G01 X115.4656 Y212.7259
G01 X115.3177 Y212.7497
G01 X115.1712 Y212.7811
G01 X115.0264 Y212.8199
G01 X114.8839 Y212.8661
G01 X114.7440 Y212.9196
G01 X114.6069 Y212.9802
G01 X114.4732 Y213.0477
G01 X114.3431 Y213.1220
G01 X114.2169 Y213.2029
G01 X114.0951 Y213.2901
G01 X113.9780 Y213.3835
G01 X113.8657 Y213.4828
G01 X113.7587 Y213.5876
G01 X113.6573 Y213.6979
G01 X113.5616 Y213.8132
G01 X113.4719 Y213.9332
G01 X113.3886 Y214.0577
G01 X113.3117 Y214.1864
G01 X113.2416 Y214.3187
G01 X113.1783 Y214.4545
G01 X113.1220 Y214.5934
G01 X113.0730 Y214.7350
G01 X113.0313 Y214.8789
G01 X112.9970 Y215.0248
G01 X112.9703 Y215.1722
G01 X132.7788 Y215.1721
G01 X132.7569 Y215.0484
G01 X132.7295 Y214.9259
G01 X132.6966 Y214.8047
G01 X132.6583 Y214.6851
G01 X132.6147 Y214.5674
G01 X132.5658 Y214.4517
G01 X132.5118 Y214.3384
G01 X132.4528 Y214.2275
G01 X132.3888 Y214.1195
G01 X132.3200 Y214.0144
G01 X132.2466 Y213.9125
G01 X132.1687 Y213.8141
G01 X132.0103 Y213.9362
M107
G00 Z2.0000


;No. 22: Hole 3
G00 X115.9743 Y239.7441 Z2.0000
G00 Z0.5000
G01 Z0.0000 F400
G01 Z-1.0000
M106 S240
G01 X110.3963 F1000
G01 X111.0954 Y238.2441
G01 X113.3413
G01 X109.1787 Y241.2441
G01 X118.1485
G01 X120.0074 Y242.7441
G01 X106.9102
G01 Y244.2441
G01 X101.0010
G01 X121.5868
G01 X122.9040 Y245.7441
G01 X80.6381
G01 X79.4056 Y244.2441
G01 X90.0661
G01 X89.6273
G01 Y242.7441
G01 X78.1731
G01 X76.9386 Y241.2441
G01 X89.3587
G01 X89.0900 Y239.7441
G01 X62.7908
G01 X63.0595 Y238.2441
G01 X88.8213
G01 X88.5527 Y236.7441
G01 X63.3282
G01 X63.5968 Y235.2441
G01 X88.2840
G01 X88.0153 Y233.7441
G01 X63.8655
G01 X64.1341 Y232.2441
G01 X87.7467
G01 X87.4780 Y230.7441
G01 X64.4028
G01 X64.6715 Y229.2441
G01 X87.2093
G01 X86.9406 Y227.7441
G01 X64.9401
G01 X65.2088 Y226.2441
G01 X86.6720
G01 X86.4033 Y224.7441
G01 X65.4775
G01 X65.7461 Y223.2441
G01 X86.1346
G01 X85.8660 Y221.7441
G01 X66.0148
G01 X66.2834 Y220.2441
G01 X85.5973
M107
G00 Z2.0000
G00 X75.1270 Y239.7441
G00 Z0.5000
G01 Z-1.0000 F400
M106 S240
G01 Y241.2441 F1000
G01 X62.5222
G01 X62.2535 Y242.7441
G01 X73.8138
G01 X72.5538 Y244.2441
G01 X61.8431
G01 Y245.7441
G01 X71.3070
G01 X29.0372
G01 X30.3521 Y244.2441
G01 X50.9367
G01 X45.0097
G01 Y242.7441
G01 X31.9235
G01 X33.7810 Y241.2441
G01 X42.7531
G01 X41.5392 Y239.7441
G01 X35.9664
G01 X38.5540 Y238.2441
G01 X40.8210
M107
G00 Z2.0000
G00 X32.3496 Y245.7441
G00 Z0.5000
G01 Z-1.0000 F400
M106 S240
G01 Y247.2441 F1000
G01 X70.0689
G01 X68.8372 Y248.7441
G01 X36.4391
G01 X41.2541
G01 Y250.2441
G01 X67.6063
G01 X66.3754 Y251.7441
G01 X47.1371
G01 X55.0839
G01 Y253.2441
G01 X65.1445
M107
G00 Z2.0000
G00 X81.8705 Y245.7441
G00 Z0.5000
G01 Z-1.0000 F400
M106 S240
G01 Y247.2441 F1000
G01 X119.5556
G01 X115.4658 Y248.7441
G01 X83.1025
G01 X84.3362 Y250.2441
G01 X110.6788
G01 X104.8330
G01 Y251.7441
G01 X85.5730
G01 X86.8147 Y253.2441
G01 X96.8697
G01 X96.9524 Y253.4338
G01 X98.5639 Y253.1844
G01 X100.1713 Y252.9097
G01 X101.7741 Y252.6097
G01 X103.3721 Y252.2846
G01 X104.9647 Y251.9344
G01 X106.5517 Y251.5593
G01 X108.1326 Y251.1592
G01 X109.7069 Y250.7344
G01 X111.2744 Y250.2849
G01 X112.8347 Y249.8108
G01 X114.3873 Y249.3122
G01 X115.9319 Y248.7893
G01 X117.4681 Y248.2422
G01 X118.9954 Y247.6711
G01 X120.5137 Y247.0760
G01 X122.0224 Y246.4571
G01 X122.3383 Y246.3244
G01 X122.6535 Y246.1901
G01 X122.9680 Y246.0542
G01 X123.2819 Y245.9168
G01 X122.7408 Y245.2497
G01 X122.1771 Y244.6017
G01 X121.5916 Y243.9733
G01 X120.9848 Y243.3654
G01 X120.3575 Y242.7787
G01 X119.7104 Y242.2139
G01 X119.0443 Y241.6717
G01 X118.3600 Y241.1526
G01 X117.6484 Y240.6284
G01 X116.9233 Y240.1228
G01 X116.1854 Y239.6363
G01 X115.4350 Y239.1692
G01 X114.6727 Y238.7218
G01 X113.8990 Y238.2944
G01 X113.1145 Y237.8873
G01 X112.3196 Y237.5008
G01 X112.0530 Y237.3681
G01 X111.7858 Y237.2366
G01 X111.5180 Y237.1063
G01 X111.2497 Y236.9771
G01 X111.1412 Y237.4487
G01 X111.0052 Y237.9131
G01 X110.8420 Y238.3687
G01 X110.6523 Y238.8139
G01 X110.4367 Y239.2472
G01 X110.1960 Y239.6670
G01 X109.9310 Y240.0720
G01 X109.6427 Y240.4606
G01 X109.2661 Y240.8640
G01 X108.8642 Y241.2423
G01 X108.4387 Y241.5937
G01 X107.9913 Y241.9169
G01 X107.5240 Y242.2104
G01 X107.0386 Y242.4731
G01 X106.5373 Y242.7038
G01 X106.0221 Y242.9017
G01 X105.3542 Y243.1227
G01 X104.6799 Y243.3236
G01 X104.0000 Y243.5043
G01 X103.3149 Y243.6646
G01 X102.6254 Y243.8043
G01 X101.9320 Y243.9233
G01 X101.2353 Y244.0216
G01 X100.5361 Y244.0990
G01 X99.1803 Y244.2223
G01 X97.8222 Y244.3169
G01 X96.4625 Y244.3827
G01 X95.1016 Y244.4197
G01 X94.0860 Y244.4501
G01 X93.0700 Y244.4695
G01 X92.0539 Y244.4777
G01 X91.0378 Y244.4749
G01 X90.9466 Y244.4741
G01 X90.8557 Y244.4652
G01 X90.7661 Y244.4483
G01 X90.6782 Y244.4235
G01 X90.5929 Y244.3911
G01 X90.5109 Y244.3512
G01 X90.4327 Y244.3041
G01 X90.3589 Y244.2504
G01 X90.2903 Y244.1903
G01 X90.2272 Y244.1243
G01 X90.1702 Y244.0530
G01 X90.1198 Y243.9770
G01 X90.0763 Y243.8968
G01 X90.0401 Y243.8130
G01 X90.0114 Y243.7264
G01 X89.9906 Y243.6375
G01 X85.5894 Y219.0658
G01 X66.2913
G01 X61.8823 Y243.6822
G01 X61.8644 Y243.7620
G01 X61.8401 Y243.8402
G01 X61.8095 Y243.9161
G01 X61.7729 Y243.9892
G01 X61.7304 Y244.0592
G01 X61.6824 Y244.1255
G01 X61.6292 Y244.1877
G01 X61.5712 Y244.2453
G01 X61.5086 Y244.2981
G01 X61.4420 Y244.3456
G01 X61.3717 Y244.3876
G01 X61.2983 Y244.4237
G01 X61.2222 Y244.4537
G01 X61.1439 Y244.4775
G01 X61.0639 Y244.4949
G01 X60.9828 Y244.5057
G01 X60.2068 Y244.5193
G01 X59.4308 Y244.5205
G01 X58.6548 Y244.5093
G01 X57.8791 Y244.4857
G01 X56.9100 Y244.4643
G01 X55.9414 Y244.4293
G01 X54.9733 Y244.3808
G01 X54.0060 Y244.3187
G01 X53.0397 Y244.2432
G01 X52.0745 Y244.1541
G01 X51.1106 Y244.0515
G01 X50.1483 Y243.9355
G01 X49.5038 Y243.8441
G01 X48.8630 Y243.7301
G01 X48.2265 Y243.5938
G01 X47.5952 Y243.4352
G01 X46.9698 Y243.2546
G01 X46.3511 Y243.0522
G01 X45.7400 Y242.8282
G01 X45.1370 Y242.5829
G01 X44.7209 Y242.3905
G01 X44.3174 Y242.1730
G01 X43.9279 Y241.9313
G01 X43.5539 Y241.6662
G01 X43.1968 Y241.3788
G01 X42.8579 Y241.0701
G01 X42.5385 Y240.7413
G01 X42.2398 Y240.3935
G01 X41.9628 Y240.0282
G01 X41.7088 Y239.6467
G01 X41.4785 Y239.2503
G01 X41.2728 Y238.8406
G01 X41.0907 Y238.3859
G01 X40.9316 Y237.9228
G01 X40.7957 Y237.4522
G01 X40.6834 Y236.9755
G01 X39.8586 Y237.3557
G01 X39.0434 Y237.7563
G01 X38.2385 Y238.1771
G01 X37.4443 Y238.6177
G01 X36.6612 Y239.0779
G01 X35.8899 Y239.5575
G01 X35.1307 Y240.0560
G01 X34.3842 Y240.5733
G01 X33.6507 Y241.1090
G01 X32.9308 Y241.6628
G01 X32.2249 Y242.2343
G01 X31.5334 Y242.8232
G01 X31.1434 Y243.1792
G01 X30.7616 Y243.5441
G01 X30.3882 Y243.9176
G01 X30.0236 Y244.2996
G01 X29.6677 Y244.6899
G01 X29.3209 Y245.0882
G01 X28.9833 Y245.4943
G01 X28.6552 Y245.9081
G01 X30.2085 Y246.5754
G01 X31.7730 Y247.2161
G01 X33.3482 Y247.8301
G01 X34.9336 Y248.4172
G01 X36.5287 Y248.9771
G01 X38.1332 Y249.5098
G01 X39.7466 Y250.0150
G01 X41.3683 Y250.4927
G01 X42.9979 Y250.9427
G01 X44.6350 Y251.3648
G01 X46.2790 Y251.7590
G01 X47.9295 Y252.1251
G01 X49.2887 Y252.4156
G01 X50.6516 Y252.6883
G01 X52.0179 Y252.9431
G01 X53.3875 Y253.1801
G01 X54.7600 Y253.3992
G01 X56.1353 Y253.6003
G01 X57.5131 Y253.7834
G01 X58.8932 Y253.9485
G01 X60.2753 Y254.0956
G01 X61.6592 Y254.2245
G01 X63.0447 Y254.3354
G01 X64.4315 Y254.4282
G01 X69.6486 Y248.0705
G01 X71.0246 Y246.3924
G01 X72.4134 Y244.7249
G01 X73.8147 Y243.0679
G01 X75.2287 Y241.4217
G01 X75.2879 Y241.3533
G01 X75.3530 Y241.2904
G01 X75.4234 Y241.2335
G01 X75.4986 Y241.1831
G01 X75.5780 Y241.1396
G01 X75.6609 Y241.1032
G01 X75.7467 Y241.0744
G01 X75.8347 Y241.0533
G01 X75.9242 Y241.0401
G01 X76.0146 Y241.0349
G01 X76.1051 Y241.0377
G01 X76.1949 Y241.0485
G01 X76.2835 Y241.0673
G01 X76.3700 Y241.0938
G01 X76.4539 Y241.1279
G01 X76.5344 Y241.1693
G01 X76.6109 Y241.2177
G01 X76.6827 Y241.2727
G01 X76.7495 Y241.3339
G01 X76.8105 Y241.4007
G01 X78.2425 Y243.1423
G01 X79.6741 Y244.8843
G01 X81.1053 Y246.6267
G01 X82.5360 Y248.3693
G01 X83.7776 Y249.8816
G01 X85.0224 Y251.3913
G01 X86.2704 Y252.8984
G01 X87.5215 Y254.4029
G01 X88.7053 Y254.3371
G01 X89.8881 Y254.2555
G01 X91.0697 Y254.1580
G01 X92.2499 Y254.0447
G01 X93.4285 Y253.9156
G01 X94.6052 Y253.7707
G01 X95.7800 Y253.6101
G01 X96.9524 Y253.4338
G01 X96.8697 Y253.2441
M107
G00 Z2.0000


;No. 23: Hole 2
G00 X96.1342 Y259.1977 Z2.0000
G00 Z0.5000
G01 Z0.0000 F400
G01 Z-1.0000
M106 S240
G01 X114.5133 F1000
G01 Y257.6977
G01 X119.4988
G01 X104.2954
G01 X110.4405
G01 Y256.1977
G01 X123.9546
G01 X127.9282 Y254.6977
G01 X115.5356
G01 X119.9448 Y253.1977
G01 X127.2375
G01 X126.5091 Y251.6977
G01 X123.8551
M107
G00 Z2.0000
G00 X108.7442 Y259.1977
G00 Z0.5000
G01 Z-1.0000 F400
M106 S240
G01 Y260.6977 F1000
G01 X43.2251
G01 Y259.1977
G01 X37.4247
G01 X55.8156
G01 X47.5929
G01 Y257.6977
G01 X32.4199
G01 X27.9702 Y256.1977
G01 X41.4663
G01 X36.4043
G01 Y254.6977
G01 X24.0046
G01 X24.7152 Y253.1977
G01 X32.0118
G01 X28.0898 Y251.6977
G01 X25.4578
M107
G00 Z2.0000
G00 X50.3333 Y260.6977
G00 Z0.5000
G01 Z-1.0000 F400
M106 S240
G01 Y262.1977 F1000
G01 X101.6543
G01 X91.5788
G01 Y263.6977
G01 X60.3763
G01 X60.3197 Y263.8925
G01 X62.1710 Y264.0934
G01 X64.0249 Y264.2691
G01 X65.8810 Y264.4196
G01 X67.7390 Y264.5449
G01 X69.5985 Y264.6450
G01 X71.4592 Y264.7198
G01 X73.3208 Y264.7693
G01 X75.1828 Y264.7936
G01 X77.0451 Y264.7925
G01 X78.9071 Y264.7662
G01 X80.7686 Y264.7146
G01 X82.6292 Y264.6377
G01 X84.4886 Y264.5356
G01 X86.3464 Y264.4082
G01 X88.2024 Y264.2556
G01 X90.0561 Y264.0779
G01 X91.9072 Y263.8749
G01 X93.7554 Y263.6469
G01 X95.6003 Y263.3937
G01 X97.4416 Y263.1156
G01 X99.4108 Y262.7952
G01 X101.3755 Y262.4482
G01 X103.3352 Y262.0746
G01 X105.2897 Y261.6744
G01 X107.2386 Y261.2477
G01 X109.1816 Y260.7947
G01 X111.1182 Y260.3153
G01 X113.0481 Y259.8098
G01 X114.9710 Y259.2781
G01 X116.8866 Y258.7204
G01 X118.7943 Y258.1367
G01 X120.6940 Y257.5273
G01 X122.5853 Y256.8921
G01 X124.4677 Y256.2314
G01 X126.3411 Y255.5451
G01 X128.2049 Y254.8336
G01 X127.7148 Y253.7496
G01 X127.2082 Y252.6732
G01 X126.6853 Y251.6046
G01 X126.1461 Y250.5441
G01 X125.1662 Y250.9374
G01 X124.1869 Y251.3323
G01 X123.2083 Y251.7288
G01 X122.2303 Y252.1269
G01 X120.3852 Y252.8171
G01 X118.5294 Y253.4780
G01 X116.6634 Y254.1095
G01 X114.7876 Y254.7114
G01 X112.9026 Y255.2836
G01 X111.0087 Y255.8259
G01 X109.1065 Y256.3381
G01 X107.1964 Y256.8202
G01 X105.2789 Y257.2721
G01 X103.3545 Y257.6935
G01 X101.4237 Y258.0845
G01 X99.4870 Y258.4448
G01 X97.5448 Y258.7745
G01 X95.5976 Y259.0735
G01 X93.6460 Y259.3416
G01 X91.6903 Y259.5788
G01 X89.7312 Y259.7850
G01 X87.7690 Y259.9602
G01 X85.8043 Y260.1044
G01 X83.8375 Y260.2174
G01 X81.9713 Y260.2845
G01 X80.1044 Y260.3345
G01 X78.2372 Y260.3673
G01 X76.3698 Y260.3829
G01 X74.5023 Y260.3814
G01 X72.6348 Y260.3627
G01 X70.7677 Y260.3269
G01 X68.9009 Y260.2739
G01 X66.8162 Y260.1638
G01 X64.7336 Y260.0190
G01 X62.6537 Y259.8396
G01 X60.5770 Y259.6257
G01 X58.5042 Y259.3773
G01 X56.4358 Y259.0945
G01 X54.3724 Y258.7774
G01 X52.3145 Y258.4260
G01 X50.2628 Y258.0405
G01 X48.2178 Y257.6210
G01 X46.1800 Y257.1675
G01 X44.1500 Y256.6802
G01 X42.1284 Y256.1593
G01 X40.1157 Y255.6048
G01 X38.1126 Y255.0170
G01 X36.1194 Y254.3960
G01 X34.8170 Y253.9606
G01 X33.5189 Y253.5127
G01 X32.2251 Y253.0524
G01 X30.9357 Y252.5797
G01 X29.6510 Y252.0947
G01 X28.3709 Y251.5974
G01 X27.0957 Y251.0879
G01 X25.8254 Y250.5662
G01 X25.2776 Y251.6195
G01 X24.7454 Y252.6808
G01 X24.2287 Y253.7497
G01 X23.7277 Y254.8261
G01 X25.4928 Y255.5021
G01 X27.2666 Y256.1553
G01 X29.0486 Y256.7855
G01 X30.8386 Y257.3925
G01 X32.6364 Y257.9764
G01 X34.4415 Y258.5369
G01 X36.2538 Y259.0741
G01 X38.0728 Y259.5878
G01 X39.8984 Y260.0779
G01 X41.7301 Y260.5443
G01 X43.5677 Y260.9870
G01 X45.4108 Y261.4059
G01 X47.2593 Y261.8009
G01 X49.1127 Y262.1720
G01 X50.9707 Y262.5191
G01 X52.8331 Y262.8421
G01 X54.6995 Y263.1410
G01 X56.5696 Y263.4157
G01 X58.4431 Y263.6662
G01 X60.3197 Y263.8925
G01 X60.3763 Y263.6977
M107
G00 Z2.0000


;No. 24: Hole 1
G00 X30.4697 Y274.4513 Z2.0000
G00 Z0.5000
G01 Z0.0000 F400
G01 Z-1.0000
M106 S240
G01 X22.7862 F1000
G01 X20.7671 Y272.9513
G01 X26.6265
G01 X24.1280 Y271.4513
G01 X19.1122
G01 X17.7219 Y269.9513
G01 X22.2292
G01 X20.7052 Y268.4513
G01 X16.5418
G01 X15.5364 Y266.9513
G01 X19.4534
G01 X18.4155 Y265.4513
G01 X14.6818
G01 X13.9605 Y263.9513
G01 X17.5568
G01 X16.8523 Y262.4513
G01 X13.3602
G01 X12.8726 Y260.9513
G01 X16.2856
G01 X15.8451 Y259.4513
G01 X12.4904
G01 X12.2082 Y257.9513
G01 X15.5226
G01 X15.3105 Y256.4513
G01 X12.0220
G01 X11.9293 Y254.9513
G01 X15.2056
G01 X15.1915 Y253.4513
G01 X11.9171
G01 Y251.9513
G01 X15.1915
G01 Y250.4513
G01 X11.9171
G01 Y248.9513
G01 X15.1915
G01 Y247.4513
G01 X11.9171
G01 Y245.9513
G01 X15.1915
G01 Y244.4513
G01 X11.9171
G01 Y242.9513
G01 X15.1915
G01 Y241.4513
G01 X11.9171
G01 Y239.9513
G01 X15.1915
G01 Y238.4513
G01 X11.9171
G01 Y236.9513
G01 X15.1915
G01 Y235.4513
G01 X11.9171
G01 Y233.9513
G01 X15.1915
G01 Y232.4513
G01 X11.9171
G01 Y230.9513
G01 X15.1915
G01 Y229.4513
G01 X11.9171
G01 Y227.9513
G01 X15.1915
G01 Y226.4513
G01 X11.9171
G01 Y224.9513
G01 X15.1915
G01 Y223.4513
G01 X11.9171
G01 Y221.9513
G01 X15.1915
G01 Y220.4513
G01 X11.9171
G01 Y218.9513
G01 X15.1915
G01 Y217.4513
G01 X11.9171
G01 Y215.9513
G01 X15.1915
G01 Y214.4513
G01 X11.9171
G01 Y212.9513
G01 X15.1915
G01 Y211.4513
G01 X11.9171
G01 Y209.9513
G01 X15.1915
G01 Y208.4513
G01 X11.9171
G01 Y206.9513
G01 X15.1915
G01 Y205.4513
G01 X11.9171
G01 Y203.9513
G01 X15.1915
G01 Y202.4513
G01 X11.9171
G01 Y200.9513
G01 X15.1915
G01 Y199.4513
G01 X11.9171
G01 Y197.9513
G01 X15.1915
G01 Y196.4513
G01 X11.9171
G01 Y194.9513
G01 X15.1915
G01 Y193.4513
G01 X11.9171
G01 Y191.9513
G01 X15.1915
G01 Y190.4513
G01 X11.9171
G01 Y188.9513
G01 X15.1915
G01 Y187.4513
G01 X11.9171
G01 Y185.9513
G01 X15.1915
G01 Y184.4513
G01 X11.9171
G01 Y182.9513
G01 X15.1915
G01 Y181.4513
G01 X11.9171
G01 Y179.9513
G01 X15.1915
G01 Y178.4513
G01 X11.9171
G01 Y176.9513
G01 X15.1915
G01 Y175.4513
G01 X11.9171
G01 X11.9293 Y173.9513
G01 X15.2057
G01 X15.3105 Y172.4513
G01 X12.0220
G01 X12.2082 Y170.9513
G01 X15.5226
G01 X15.8451 Y169.4513
G01 X12.4904
G01 X12.8726 Y167.9513
G01 X16.2857
G01 X16.8523 Y166.4513
G01 X13.3602
G01 X13.9605 Y164.9513
G01 X17.5567
G01 X18.4154 Y163.4513
G01 X14.6818
G01 X15.5364 Y161.9513
G01 X19.4534
G01 X20.7052 Y160.4513
G01 X16.5419
G01 X17.7219 Y158.9513
G01 X22.2293
G01 X24.1279 Y157.4513
G01 X19.1122
G01 X20.7671 Y155.9513
G01 X26.6266
G01 X22.7862 Y154.4513
G01 X30.4698
G01 Y152.9513
G01 X25.3687
G01 X126.5983
G01 X129.1808 Y154.4513
G01 X121.4973
G01 X125.3405
G01 Y155.9513
G01 X131.1999
G01 X132.8548 Y157.4513
G01 X127.8390
G01 X129.7378 Y158.9513
G01 X134.2451
G01 X135.4251 Y160.4513
G01 X131.2617
G01 X132.5136 Y161.9513
G01 X136.4306
G01 X137.2852 Y163.4513
G01 X133.5515
G01 X134.4102 Y164.9513
G01 X138.0065
G01 X138.6068 Y166.4513
G01 X135.1147
G01 X135.6814 Y167.9513
G01 X139.0944
G01 X139.4766 Y169.4513
G01 X136.1218
G01 X136.4444 Y170.9513
G01 X139.7588
G01 X139.9450 Y172.4513
G01 X136.6565
G01 X136.7613 Y173.9513
G01 X140.0377
G01 X140.0499 Y175.4513
G01 X136.7755
G01 Y176.9513
G01 X140.0499
G01 Y178.4513
G01 X136.7755
G01 Y179.9513
G01 X140.0499
G01 Y181.4513
G01 X136.7755
G01 Y182.9513
G01 X140.0499
G01 Y184.4513
G01 X136.7755
G01 Y185.9513
G01 X140.0499
G01 Y187.4513
G01 X136.7755
G01 Y188.9513
G01 X140.0499
G01 Y190.4513
G01 X136.7755
G01 Y191.9513
G01 X140.0499
G01 Y193.4513
G01 X136.7755
G01 Y194.9513
G01 X140.0499
G01 Y196.4513
G01 X136.7755
G01 Y197.9513
G01 X140.0499
G01 Y199.4513
G01 X136.7755
G01 Y200.9513
G01 X140.0499
G01 Y202.4513
G01 X136.7755
G01 Y203.9513
G01 X140.0499
G01 Y205.4513
G01 X136.7755
G01 Y206.9513
G01 X140.0499
G01 Y208.4513
G01 X136.7755
G01 Y209.9513
G01 X140.0499
G01 Y211.4513
G01 X136.7755
G01 Y212.9513
G01 X140.0499
G01 Y214.4513
G01 X136.7755
G01 Y215.9513
G01 X140.0499
G01 Y217.4513
G01 X136.7755
G01 Y218.9513
G01 X140.0499
G01 Y220.4513
G01 X136.7755
G01 Y221.9513
G01 X140.0499
G01 Y223.4513
G01 X136.7755
G01 Y224.9513
G01 X140.0499
G01 Y226.4513
G01 X136.7755
G01 Y227.9513
G01 X140.0499
G01 Y229.4513
G01 X136.7755
G01 Y230.9513
G01 X140.0499
G01 Y232.4513
G01 X136.7755
G01 Y233.9513
G01 X140.0499
G01 Y235.4513
G01 X136.7755
G01 Y236.9513
G01 X140.0499
G01 Y238.4513
G01 X136.7755
G01 Y239.9513
G01 X140.0499
G01 Y241.4513
G01 X136.7755
G01 Y242.9513
G01 X140.0499
G01 Y244.4513
G01 X136.7755
G01 Y245.9513
G01 X140.0499
G01 Y247.4513
G01 X136.7755
G01 Y248.9513
G01 X140.0499
G01 Y250.4513
G01 X136.7755
G01 Y251.9513
G01 X140.0499
G01 Y253.4513
G01 X136.7755
G01 X136.7613 Y254.9513
G01 X140.0377
G01 X139.9449 Y256.4513
G01 X136.6565
G01 X136.4443 Y257.9513
G01 X139.7588
G01 X139.4766 Y259.4513
G01 X136.1219
G01 X135.6813 Y260.9513
G01 X139.0944
G01 X138.6068 Y262.4513
G01 X135.1147
G01 X134.4103 Y263.9513
G01 X138.0065
G01 X137.2852 Y265.4513
G01 X133.5516
G01 X132.5136 Y266.9513
G01 X136.4306
G01 X135.4251 Y268.4513
G01 X131.2618
G01 X129.7377 Y269.9513
G01 X134.2451
G01 X132.8548 Y271.4513
G01 X127.8391
G01 X125.3404 Y272.9513
G01 X131.1999
G01 X129.1808 Y274.4513
G01 X121.4972
G01 X121.4051 Y274.2693
G01 X120.7083 Y274.4502
G01 X120.0058 Y274.6074
G01 X119.2983 Y274.7405
G01 X118.5867 Y274.8495
G01 X117.8718 Y274.9343
G01 X117.1545 Y274.9947
G01 X116.4355 Y275.0307
G01 X115.7157 Y275.0422
G01 X36.2512
G01 X35.4311 Y275.0301
G01 X34.6121 Y274.9855
G01 X33.7955 Y274.9086
G01 X32.9826 Y274.7995
G01 X32.1746 Y274.6584
G01 X31.3728 Y274.4855
G01 X30.5785 Y274.2810
G01 X29.7929 Y274.0454
G01 X29.0172 Y273.7788
G01 X28.2526 Y273.4818
G01 X27.5003 Y273.1549
G01 X26.7616 Y272.7985
G01 X26.0375 Y272.4132
G01 X25.3292 Y271.9996
G01 X24.6378 Y271.5583
G01 X23.9644 Y271.0900
G01 X23.3100 Y270.5956
G01 X22.6757 Y270.0756
G01 X22.0624 Y269.5310
G01 X21.4710 Y268.9626
G01 X20.9026 Y268.3713
G01 X20.3580 Y267.7579
G01 X19.8381 Y267.1236
G01 X19.3436 Y266.4692
G01 X18.8753 Y265.7958
G01 X18.4341 Y265.1044
G01 X18.0205 Y264.3961
G01 X17.6351 Y263.6720
G01 X17.2787 Y262.9333
G01 X16.9518 Y262.1810
G01 X16.6548 Y261.4165
G01 X16.3883 Y260.6407
G01 X16.1526 Y259.8551
G01 X15.9482 Y259.0608
G01 X15.7752 Y258.2590
G01 X15.6341 Y257.4510
G01 X15.5251 Y256.6381
G01 X15.4482 Y255.8215
G01 X15.4036 Y255.0025
G01 X15.3915 Y254.1824
G01 Y174.7202
G01 X15.4036 Y173.9001
G01 X15.4482 Y173.0811
G01 X15.5251 Y172.2645
G01 X15.6341 Y171.4515
G01 X15.7753 Y170.6436
G01 X15.9482 Y169.8418
G01 X16.1526 Y169.0474
G01 X16.3883 Y168.2618
G01 X16.6549 Y167.4861
G01 X16.9518 Y166.7216
G01 X17.2788 Y165.9693
G01 X17.6352 Y165.2306
G01 X18.0205 Y164.5065
G01 X18.4341 Y163.7982
G01 X18.8754 Y163.1068
G01 X19.3436 Y162.4334
G01 X19.8381 Y161.7790
G01 X20.3581 Y161.1446
G01 X20.9027 Y160.5313
G01 X21.4711 Y159.9400
G01 X22.0624 Y159.3716
G01 X22.6757 Y158.8270
G01 X23.3101 Y158.3070
G01 X23.9645 Y157.8125
G01 X24.6379 Y157.3443
G01 X25.3293 Y156.9030
G01 X26.0376 Y156.4894
G01 X26.7617 Y156.1041
G01 X27.5004 Y155.7477
G01 X28.2527 Y155.4208
G01 X29.0172 Y155.1238
G01 X29.7929 Y154.8573
G01 X30.5786 Y154.6216
G01 X31.3729 Y154.4171
G01 X32.1747 Y154.2442
G01 X32.9827 Y154.1031
G01 X33.7956 Y153.9940
G01 X34.6122 Y153.9171
G01 X35.4312 Y153.8726
G01 X36.2513 Y153.8604
G01 X115.7158
G01 X116.5359 Y153.8726
G01 X117.3549 Y153.9172
G01 X118.1715 Y153.9940
G01 X118.9844 Y154.1031
G01 X119.7924 Y154.2442
G01 X120.5942 Y154.4171
G01 X121.3885 Y154.6216
G01 X122.1741 Y154.8573
G01 X122.9498 Y155.1238
G01 X123.7144 Y155.4208
G01 X124.4666 Y155.7477
G01 X125.2054 Y156.1041
G01 X125.9295 Y156.4895
G01 X126.6377 Y156.9031
G01 X127.3291 Y157.3444
G01 X128.0026 Y157.8126
G01 X128.6570 Y158.3071
G01 X129.2913 Y158.8270
G01 X129.9046 Y159.3716
G01 X130.4960 Y159.9400
G01 X131.0644 Y160.5314
G01 X131.6090 Y161.1447
G01 X132.1289 Y161.7791
G01 X132.6234 Y162.4335
G01 X133.0916 Y163.1069
G01 X133.5329 Y163.7983
G01 X133.9465 Y164.5066
G01 X134.3318 Y165.2307
G01 X134.6882 Y165.9694
G01 X135.0152 Y166.7216
G01 X135.3121 Y167.4862
G01 X135.5787 Y168.2619
G01 X135.8144 Y169.0475
G01 X136.0188 Y169.8418
G01 X136.1917 Y170.6436
G01 X136.3328 Y171.4516
G01 X136.4419 Y172.2645
G01 X136.5188 Y173.0812
G01 X136.5634 Y173.9002
G01 X136.5755 Y174.7203
G01 Y254.1824
G01 X136.5627 Y255.0275
G01 X136.5154 Y255.8714
G01 X136.4338 Y256.7126
G01 X136.3179 Y257.5499
G01 X136.1681 Y258.3817
G01 X135.9845 Y259.2067
G01 X135.7675 Y260.0235
G01 X135.5173 Y260.8308
G01 X135.2345 Y261.6273
G01 X134.9194 Y262.4116
G01 X134.5727 Y263.1824
G01 X134.1949 Y263.9384
G01 X133.7865 Y264.6784
G01 X133.3484 Y265.4012
G01 X132.8812 Y266.1055
G01 X132.3856 Y266.7902
G01 X131.8626 Y267.4541
G01 X131.3130 Y268.0962
G01 X130.7377 Y268.7153
G01 X130.1376 Y269.3105
G01 X129.5138 Y269.8808
G01 X128.8673 Y270.4252
G01 X128.1991 Y270.9428
G01 X127.5104 Y271.4327
G01 X126.8023 Y271.8941
G01 X126.0760 Y272.3264
G01 X125.3327 Y272.7287
G01 X124.5736 Y273.1003
G01 X123.8000 Y273.4408
G01 X123.0132 Y273.7494
G01 X122.2144 Y274.0258
G01 X121.4051 Y274.2693
G01 X121.4972 Y274.4513
G01 Y275.9513
G01 X126.5983
G01 X25.3686
G01 X29.1072 Y277.4513
G01 X122.8598
M107
G00 Z2.0000
G00 Y152.9513
G00 Z0.5000
G01 Z-1.0000 F400
M106 S240
G01 Y151.4513 F1000
G01 X29.1072
G01 X29.1567 Y151.2278
G01 X28.3279 Y151.4949
G01 X27.5091 Y151.7912
G01 X26.7013 Y152.1163
G01 X25.9055 Y152.4699
G01 X25.1227 Y152.8515
G01 X24.3540 Y153.2606
G01 X23.6003 Y153.6968
G01 X22.8625 Y154.1593
G01 X22.1416 Y154.6477
G01 X21.4384 Y155.1614
G01 X20.7539 Y155.6997
G01 X20.0889 Y156.2619
G01 X19.4443 Y156.8474
G01 X18.8208 Y157.4553
G01 X18.2193 Y158.0849
G01 X17.6405 Y158.7355
G01 X17.0851 Y159.4062
G01 X16.5538 Y160.0962
G01 X16.0474 Y160.8046
G01 X15.5664 Y161.5305
G01 X15.1114 Y162.2729
G01 X14.6830 Y163.0311
G01 X14.2818 Y163.8040
G01 X13.9082 Y164.5906
G01 X13.5628 Y165.3899
G01 X13.2459 Y166.2010
G01 X12.9580 Y167.0228
G01 X12.6993 Y167.8543
G01 X12.4704 Y168.6945
G01 X12.2714 Y169.5423
G01 X12.1025 Y170.3965
G01 X11.9641 Y171.2563
G01 X11.8562 Y172.1204
G01 X11.7790 Y172.9877
G01 X11.7326 Y173.8573
G01 X11.7171 Y174.7280
G01 Y254.1747
G01 X11.7328 Y255.0506
G01 X11.7798 Y255.9255
G01 X11.8579 Y256.7981
G01 X11.9671 Y257.6674
G01 X12.1073 Y258.5322
G01 X12.2783 Y259.3915
G01 X12.4798 Y260.2441
G01 X12.7116 Y261.0890
G01 X12.9734 Y261.9250
G01 X13.2649 Y262.7512
G01 X13.5857 Y263.5665
G01 X13.9354 Y264.3698
G01 X14.3135 Y265.1601
G01 X14.7196 Y265.9364
G01 X15.1531 Y266.6978
G01 X15.6135 Y267.4431
G01 X16.1003 Y268.1716
G01 X16.6127 Y268.8822
G01 X17.1501 Y269.5741
G01 X17.7119 Y270.2464
G01 X18.2974 Y270.8982
G01 X18.9057 Y271.5287
G01 X19.5361 Y272.1370
G01 X20.1878 Y272.7225
G01 X20.8601 Y273.2844
G01 X21.5519 Y273.8219
G01 X22.2625 Y274.3344
G01 X22.9909 Y274.8212
G01 X23.7362 Y275.2817
G01 X24.4975 Y275.7153
G01 X25.2738 Y276.1214
G01 X26.0641 Y276.4996
G01 X26.8673 Y276.8494
G01 X27.6826 Y277.1702
G01 X28.5087 Y277.4618
G01 X29.3448 Y277.7237
G01 X30.1897 Y277.9556
G01 X31.0423 Y278.1572
G01 X31.9015 Y278.3282
G01 X32.7663 Y278.4685
G01 X33.6356 Y278.5778
G01 X34.5082 Y278.6560
G01 X35.3830 Y278.7030
G01 X36.2590 Y278.7188
G01 X115.7080
G01 X116.5840 Y278.7030
G01 X117.4588 Y278.6560
G01 X118.3314 Y278.5778
G01 X119.2007 Y278.4685
G01 X120.0655 Y278.3282
G01 X120.9247 Y278.1572
G01 X121.7773 Y277.9556
G01 X122.6222 Y277.7237
G01 X123.4582 Y277.4618
G01 X124.2844 Y277.1702
G01 X125.0996 Y276.8494
G01 X125.9029 Y276.4996
G01 X126.6932 Y276.1214
G01 X127.4695 Y275.7153
G01 X128.2308 Y275.2817
G01 X128.9761 Y274.8212
G01 X129.7045 Y274.3344
G01 X130.4151 Y273.8219
G01 X131.1069 Y273.2844
G01 X131.7791 Y272.7225
G01 X132.4309 Y272.1370
G01 X133.0613 Y271.5287
G01 X133.6696 Y270.8982
G01 X134.2551 Y270.2464
G01 X134.8169 Y269.5741
G01 X135.3543 Y268.8822
G01 X135.8667 Y268.1716
G01 X136.3535 Y267.4431
G01 X136.8139 Y266.6978
G01 X137.2474 Y265.9364
G01 X137.6535 Y265.1601
G01 X138.0316 Y264.3698
G01 X138.3813 Y263.5665
G01 X138.7021 Y262.7512
G01 X138.9936 Y261.9251
G01 X139.2554 Y261.0890
G01 X139.4872 Y260.2441
G01 X139.6887 Y259.3915
G01 X139.8597 Y258.5322
G01 X139.9999 Y257.6674
G01 X140.1091 Y256.7981
G01 X140.1872 Y255.9255
G01 X140.2342 Y255.0507
G01 X140.2499 Y254.1747
G01 Y174.7280
G01 X140.2342 Y173.8520
G01 X140.1872 Y172.9771
G01 X140.1091 Y172.1045
G01 X139.9999 Y171.2353
G01 X139.8597 Y170.3704
G01 X139.6887 Y169.5112
G01 X139.4872 Y168.6586
G01 X139.2554 Y167.8137
G01 X138.9936 Y166.9776
G01 X138.7021 Y166.1514
G01 X138.3813 Y165.3361
G01 X138.0316 Y164.5328
G01 X137.6535 Y163.7425
G01 X137.2474 Y162.9662
G01 X136.8139 Y162.2049
G01 X136.3535 Y161.4595
G01 X135.8667 Y160.7310
G01 X135.3543 Y160.0204
G01 X134.8169 Y159.3285
G01 X134.2551 Y158.6563
G01 X133.6696 Y158.0045
G01 X133.0613 Y157.3740
G01 X132.4309 Y156.7656
G01 X131.7792 Y156.1801
G01 X131.1069 Y155.6182
G01 X130.4151 Y155.0807
G01 X129.7045 Y154.5683
G01 X128.9761 Y154.0815
G01 X128.2308 Y153.6210
G01 X127.4695 Y153.1874
G01 X126.6932 Y152.7812
G01 X125.9029 Y152.4030
G01 X125.0997 Y152.0533
G01 X124.2844 Y151.7324
G01 X123.4582 Y151.4408
G01 X122.6222 Y151.1790
G01 X121.7773 Y150.9471
G01 X120.9247 Y150.7455
G01 X120.0655 Y150.5744
G01 X119.2007 Y150.4342
G01 X118.3314 Y150.3248
G01 X117.4588 Y150.2466
G01 X116.5840 Y150.1996
G01 X115.7080 Y150.1838
G01 X36.2590
G01 X35.3586 Y150.1993
G01 X34.4594 Y150.2479
G01 X33.5626 Y150.3295
G01 X32.6694 Y150.4441
G01 X31.7810 Y150.5914
G01 X30.8986 Y150.7713
G01 X30.0235 Y150.9835
G01 X29.1567 Y151.2278
G01 X29.1072 Y151.4513
M107
G00 Z2.0000


;No. 25: Part 3
G00 X12.6666 Y271.9561 Z2.0000
G00 Z0.5000
G01 Z0.0000 F400
G01 Z-2.0000
M106 S240
G01 X12.1043 Y271.1865 F1000
G01 X11.5672 Y270.3991
G01 X11.0559 Y269.5947
G01 X10.5710 Y268.7741
G01 X10.1128 Y267.9383
G01 X9.6820 Y267.0881
G01 X9.2790 Y266.2244
G01 X8.9041 Y265.3481
G01 X8.5578 Y264.4600
G01 X8.2405 Y263.5613
G01 X7.9524 Y262.6527
G01 X7.6940 Y261.7353
G01 X7.4654 Y260.8100
G01 X7.2668 Y259.8777
G01 X7.0986 Y258.9396
G01 X6.9609 Y257.9964
G01 X6.8538 Y257.0493
G01 X6.7774 Y256.0993
G01 X6.7318 Y255.1472
G01 X6.7171 Y254.1942
G01 Y174.7085
G01 X6.7295 Y173.8338
G01 X6.7679 Y172.9599
G01 X6.8323 Y172.0875
G01 X6.9225 Y171.2174
G01 X7.0386 Y170.3503
G01 X7.1804 Y169.4871
G01 X7.3477 Y168.6285
G01 X7.5405 Y167.7753
G01 X7.7586 Y166.9281
G01 X8.0017 Y166.0878
G01 X8.2698 Y165.2551
G01 X8.5624 Y164.4308
G01 X8.8794 Y163.6154
G01 X9.2205 Y162.8099
G01 X9.5854 Y162.0149
G01 X9.9737 Y161.2310
G01 X10.3852 Y160.4591
G01 X10.8194 Y159.6997
G01 X11.2760 Y158.9535
G01 X11.7545 Y158.2213
G01 X12.2547 Y157.5036
G01 X12.7759 Y156.8010
G01 X13.3177 Y156.1143
G01 X13.8798 Y155.4440
G01 X14.2927 Y154.9748
G01 X14.7154 Y154.5144
G01 X15.1478 Y154.0631
G01 X15.5896 Y153.6211
G01 X16.0406 Y153.1884
G01 X16.5006 Y152.7654
G01 X16.9695 Y152.3522
G01 X17.4471 Y151.9489
G01 X18.2428 Y151.3127
G01 X19.0601 Y150.7043
G01 X19.8980 Y150.1247
G01 X20.7554 Y149.5743
G01 X21.6313 Y149.0540
G01 X22.5248 Y148.5644
G01 X23.4347 Y148.1059
G01 X24.3598 Y147.6792
G01 X25.2993 Y147.2848
G01 X26.2517 Y146.9232
G01 X27.2162 Y146.5948
G01 X28.1914 Y146.2999
G01 X29.1763 Y146.0390
G01 X30.1696 Y145.8123
G01 X31.1701 Y145.6201
G01 X32.1768 Y145.4627
G01 X33.1882 Y145.3403
G01 X34.2033 Y145.2529
G01 X35.2208 Y145.2007
G01 X36.2395 Y145.1838
G01 X115.7275
G01 X116.6022 Y145.1962
G01 X117.4761 Y145.2346
G01 X118.3485 Y145.2990
G01 X119.2187 Y145.3893
G01 X120.0857 Y145.5054
G01 X120.9489 Y145.6472
G01 X121.8076 Y145.8146
G01 X122.6608 Y146.0074
G01 X123.5080 Y146.2256
G01 X124.3483 Y146.4688
G01 X125.1810 Y146.7368
G01 X126.0054 Y147.0295
G01 X126.8207 Y147.3466
G01 X127.6262 Y147.6878
G01 X128.4212 Y148.0528
G01 X129.2051 Y148.4412
G01 X129.9770 Y148.8527
G01 X130.7364 Y149.2871
G01 X131.4825 Y149.7438
G01 X132.2147 Y150.2224
G01 X132.9324 Y150.7226
G01 X133.6348 Y151.2440
G01 X134.3215 Y151.7859
G01 X134.9918 Y152.3481
G01 X135.4609 Y152.7611
G01 X135.9212 Y153.1839
G01 X136.3724 Y153.6163
G01 X136.8145 Y154.0581
G01 X137.2470 Y154.5092
G01 X137.6700 Y154.9693
G01 X138.0832 Y155.4383
G01 X138.4863 Y155.9159
G01 X139.1225 Y156.7117
G01 X139.7307 Y157.5290
G01 X140.3102 Y158.3669
G01 X140.8604 Y159.2244
G01 X141.3806 Y160.1004
G01 X141.8702 Y160.9939
G01 X142.3285 Y161.9038
G01 X142.7551 Y162.8290
G01 X143.1494 Y163.7684
G01 X143.5109 Y164.7209
G01 X143.8393 Y165.6853
G01 X144.1341 Y166.6606
G01 X144.3949 Y167.6454
G01 X144.6216 Y168.6387
G01 X144.8137 Y169.6392
G01 X144.9710 Y170.6458
G01 X145.0935 Y171.6573
G01 X145.1808 Y172.6723
G01 X145.2330 Y173.6898
G01 X145.2499 Y174.7085
G01 Y254.1941
G01 X145.2345 Y255.1665
G01 X145.1871 Y256.1378
G01 X145.1075 Y257.1070
G01 X144.9960 Y258.0730
G01 X144.8526 Y259.0348
G01 X144.6776 Y259.9914
G01 X144.4710 Y260.9417
G01 X144.2331 Y261.8846
G01 X143.9642 Y262.8191
G01 X143.6645 Y263.7443
G01 X143.3345 Y264.6590
G01 X142.9744 Y265.5623
G01 X142.5846 Y266.4533
G01 X142.1656 Y267.3308
G01 X141.7179 Y268.1941
G01 X141.2419 Y269.0420
G01 X140.7381 Y269.8738
G01 X140.2071 Y270.6885
G01 X139.6494 Y271.4852
G01 X139.0658 Y272.2630
G01 X138.6777 Y272.7530
G01 X138.2794 Y273.2346
G01 X137.8710 Y273.7077
G01 X137.4527 Y274.1721
G01 X137.0247 Y274.6275
G01 X136.5872 Y275.0738
G01 X136.1403 Y275.5107
G01 X135.6843 Y275.9381
G01 X135.0028 Y276.5463
G01 X134.3027 Y277.1330
G01 X133.5848 Y277.6978
G01 X132.8497 Y278.2400
G01 X132.0981 Y278.7591
G01 X131.3308 Y279.2547
G01 X130.5485 Y279.7262
G01 X129.7520 Y280.1732
G01 X128.9419 Y280.5953
G01 X128.1191 Y280.9920
G01 X127.2845 Y281.3631
G01 X126.4387 Y281.7080
G01 X125.5826 Y282.0266
G01 X124.7171 Y282.3184
G01 X123.8429 Y282.5833
G01 X122.9609 Y282.8209
G01 X122.0720 Y283.0310
G01 X121.1770 Y283.2134
G01 X120.2767 Y283.3680
G01 X119.3721 Y283.4946
G01 X118.4640 Y283.5930
G01 X117.5533 Y283.6633
G01 X116.6408 Y283.7052
G01 X115.7275 Y283.7188
G01 X36.2395
G01 X35.3101 Y283.7047
G01 X34.3816 Y283.6612
G01 X33.4549 Y283.5884
G01 X32.5310 Y283.4864
G01 X31.6108 Y283.3553
G01 X30.6952 Y283.1952
G01 X29.7850 Y283.0063
G01 X28.8813 Y282.7888
G01 X27.9849 Y282.5429
G01 X27.0968 Y282.2687
G01 X26.2177 Y281.9667
G01 X25.3486 Y281.6371
G01 X24.4903 Y281.2802
G01 X23.6437 Y280.8964
G01 X22.8096 Y280.4861
G01 X21.9890 Y280.0497
G01 X21.1825 Y279.5875
G01 X20.3909 Y279.1002
G01 X19.6152 Y278.5881
G01 X18.8560 Y278.0518
G01 X18.1141 Y277.4917
G01 X17.3903 Y276.9086
G01 X16.6852 Y276.3029
G01 X15.9996 Y275.6752
G01 X15.5493 Y275.2418
G01 X15.1082 Y274.7991
G01 X14.6765 Y274.3471
G01 X14.2545 Y273.8861
G01 X13.8424 Y273.4163
G01 X13.4402 Y272.9379
G01 X13.0482 Y272.4511
G01 X12.6666 Y271.9561
G01 Z-4.0000 F400
G01 X12.1043 Y271.1865 F1000
G01 X11.5672 Y270.3991
G01 X11.0559 Y269.5947
G01 X10.5710 Y268.7741
G01 X10.1128 Y267.9383
G01 X9.6820 Y267.0881
G01 X9.2790 Y266.2244
G01 X8.9041 Y265.3481
G01 X8.5578 Y264.4600
G01 X8.2405 Y263.5613
G01 X7.9524 Y262.6527
G01 X7.6940 Y261.7353
G01 X7.4654 Y260.8100
G01 X7.2668 Y259.8777
G01 X7.0986 Y258.9396
G01 X6.9609 Y257.9964
G01 X6.8538 Y257.0493
G01 X6.7774 Y256.0993
G01 X6.7318 Y255.1472
G01 X6.7171 Y254.1942
G01 Y174.7085
G01 X6.7295 Y173.8338
G01 X6.7679 Y172.9599
G01 X6.8323 Y172.0875
G01 X6.9225 Y171.2174
G01 X7.0386 Y170.3503
G01 X7.1804 Y169.4871
G01 X7.3477 Y168.6285
G01 X7.5405 Y167.7753
G01 X7.7586 Y166.9281
G01 X8.0017 Y166.0878
G01 X8.2698 Y165.2551
G01 X8.5624 Y164.4308
G01 X8.8794 Y163.6154
G01 X9.2205 Y162.8099
G01 X9.5854 Y162.0149
G01 X9.9737 Y161.2310
G01 X10.3852 Y160.4591
G01 X10.8194 Y159.6997
G01 X11.2760 Y158.9535
G01 X11.7545 Y158.2213
G01 X12.2547 Y157.5036
G01 X12.7759 Y156.8010
G01 X13.3177 Y156.1143
G01 X13.8798 Y155.4440
M107
G00 Z-2.0000
M106 S240
G01 X14.2927 Y154.9748
G01 X14.7154 Y154.5144
G01 X15.1478 Y154.0631
G01 X15.5896 Y153.6211
G01 X16.0406 Y153.1884
G01 X16.5006 Y152.7654
G01 X16.9695 Y152.3522
G01 X17.4471 Y151.9489
G01 Z-4.0000 F400
G01 X18.2428 Y151.3127 F1000
G01 X19.0601 Y150.7043
G01 X19.8980 Y150.1247
G01 X20.7554 Y149.5743
G01 X21.6313 Y149.0540
G01 X22.5248 Y148.5644
G01 X23.4347 Y148.1059
G01 X24.3598 Y147.6792
G01 X25.2993 Y147.2848
G01 X26.2517 Y146.9232
G01 X27.2162 Y146.5948
G01 X28.1914 Y146.2999
G01 X29.1763 Y146.0390
G01 X30.1696 Y145.8123
G01 X31.1701 Y145.6201
G01 X32.1768 Y145.4627
G01 X33.1882 Y145.3403
G01 X34.2033 Y145.2529
G01 X35.2208 Y145.2007
G01 X36.2395 Y145.1838
G01 X115.7275
G01 X116.6022 Y145.1962
G01 X117.4761 Y145.2346
G01 X118.3485 Y145.2990
G01 X119.2187 Y145.3893
G01 X120.0857 Y145.5054
G01 X120.9489 Y145.6472
G01 X121.8076 Y145.8146
G01 X122.6608 Y146.0074
G01 X123.5080 Y146.2256
G01 X124.3483 Y146.4688
G01 X125.1810 Y146.7368
G01 X126.0054 Y147.0295
G01 X126.8207 Y147.3466
G01 X127.6262 Y147.6878
G01 X128.4212 Y148.0528
G01 X129.2051 Y148.4412
G01 X129.9770 Y148.8527
G01 X130.7364 Y149.2871
G01 X131.4825 Y149.7438
G01 X132.2147 Y150.2224
G01 X132.9324 Y150.7226
G01 X133.6348 Y151.2440
G01 X134.3215 Y151.7859
G01 X134.9918 Y152.3481
M107
G00 Z-2.0000
M106 S240
G01 X135.4609 Y152.7611
G01 X135.9212 Y153.1839
G01 X136.3724 Y153.6163
G01 X136.8145 Y154.0581
G01 X137.2470 Y154.5092
G01 X137.6700 Y154.9693
G01 X138.0832 Y155.4383
G01 X138.4863 Y155.9159
G01 Z-4.0000 F400
G01 X139.1225 Y156.7117 F1000
G01 X139.7307 Y157.5290
G01 X140.3102 Y158.3669
G01 X140.8604 Y159.2244
G01 X141.3806 Y160.1004
G01 X141.8702 Y160.9939
G01 X142.3285 Y161.9038
G01 X142.7551 Y162.8290
G01 X143.1494 Y163.7684
G01 X143.5109 Y164.7209
G01 X143.8393 Y165.6853
G01 X144.1341 Y166.6606
G01 X144.3949 Y167.6454
G01 X144.6216 Y168.6387
G01 X144.8137 Y169.6392
G01 X144.9710 Y170.6458
G01 X145.0935 Y171.6573
G01 X145.1808 Y172.6723
G01 X145.2330 Y173.6898
G01 X145.2499 Y174.7085
G01 Y254.1941
G01 X145.2345 Y255.1665
G01 X145.1871 Y256.1378
G01 X145.1075 Y257.1070
G01 X144.9960 Y258.0730
G01 X144.8526 Y259.0348
G01 X144.6776 Y259.9914
G01 X144.4710 Y260.9417
G01 X144.2331 Y261.8846
G01 X143.9642 Y262.8191
G01 X143.6645 Y263.7443
G01 X143.3345 Y264.6590
G01 X142.9744 Y265.5623
G01 X142.5846 Y266.4533
G01 X142.1656 Y267.3308
G01 X141.7179 Y268.1941
G01 X141.2419 Y269.0420
G01 X140.7381 Y269.8738
G01 X140.2071 Y270.6885
G01 X139.6494 Y271.4852
G01 X139.0658 Y272.2630
M107
G00 Z-2.0000
M106 S240
G01 X138.6777 Y272.7530
G01 X138.2794 Y273.2346
G01 X137.8710 Y273.7077
G01 X137.4527 Y274.1721
G01 X137.0247 Y274.6275
G01 X136.5872 Y275.0738
G01 X136.1403 Y275.5107
G01 X135.6843 Y275.9381
G01 Z-4.0000 F400
G01 X135.0028 Y276.5463 F1000
G01 X134.3027 Y277.1330
G01 X133.5848 Y277.6978
G01 X132.8497 Y278.2400
G01 X132.0981 Y278.7591
G01 X131.3308 Y279.2547
G01 X130.5485 Y279.7262
G01 X129.7520 Y280.1732
G01 X128.9419 Y280.5953
G01 X128.1191 Y280.9920
G01 X127.2845 Y281.3631
G01 X126.4387 Y281.7080
G01 X125.5826 Y282.0266
G01 X124.7171 Y282.3184
G01 X123.8429 Y282.5833
G01 X122.9609 Y282.8209
G01 X122.0720 Y283.0310
G01 X121.1770 Y283.2134
G01 X120.2767 Y283.3680
G01 X119.3721 Y283.4946
G01 X118.4640 Y283.5930
G01 X117.5533 Y283.6633
G01 X116.6408 Y283.7052
G01 X115.7275 Y283.7188
G01 X36.2395
G01 X35.3101 Y283.7047
G01 X34.3816 Y283.6612
G01 X33.4549 Y283.5884
G01 X32.5310 Y283.4864
G01 X31.6108 Y283.3553
G01 X30.6952 Y283.1952
G01 X29.7850 Y283.0063
G01 X28.8813 Y282.7888
G01 X27.9849 Y282.5429
G01 X27.0968 Y282.2687
G01 X26.2177 Y281.9667
G01 X25.3486 Y281.6371
G01 X24.4903 Y281.2802
G01 X23.6437 Y280.8964
G01 X22.8096 Y280.4861
G01 X21.9890 Y280.0497
G01 X21.1825 Y279.5875
G01 X20.3909 Y279.1002
G01 X19.6152 Y278.5881
G01 X18.8560 Y278.0518
G01 X18.1141 Y277.4917
G01 X17.3903 Y276.9086
G01 X16.6852 Y276.3029
G01 X15.9996 Y275.6752
M107
G00 Z-2.0000
M106 S240
G01 X15.5493 Y275.2418
G01 X15.1082 Y274.7991
G01 X14.6765 Y274.3471
G01 X14.2545 Y273.8861
G01 X13.8424 Y273.4163
G01 X13.4402 Y272.9379
G01 X13.0482 Y272.4511
G01 X12.6666 Y271.9561
M107
G00 Z-3.5000
G01 Z-4.0000 F400
G01 Z-5.0000
M106 S240
G01 X12.1043 Y271.1865 F1000
G01 X11.5672 Y270.3991
G01 X11.0559 Y269.5947
G01 X10.5710 Y268.7741
G01 X10.1128 Y267.9383
G01 X9.6820 Y267.0881
G01 X9.2790 Y266.2244
G01 X8.9041 Y265.3481
G01 X8.5578 Y264.4600
G01 X8.2405 Y263.5613
G01 X7.9524 Y262.6527
G01 X7.6940 Y261.7353
G01 X7.4654 Y260.8100
G01 X7.2668 Y259.8777
G01 X7.0986 Y258.9396
G01 X6.9609 Y257.9964
G01 X6.8538 Y257.0493
G01 X6.7774 Y256.0993
G01 X6.7318 Y255.1472
G01 X6.7171 Y254.1942
G01 Y174.7085
G01 X6.7295 Y173.8338
G01 X6.7679 Y172.9599
G01 X6.8323 Y172.0875
G01 X6.9225 Y171.2174
G01 X7.0386 Y170.3503
G01 X7.1804 Y169.4871
G01 X7.3477 Y168.6285
G01 X7.5405 Y167.7753
G01 X7.7586 Y166.9281
G01 X8.0017 Y166.0878
G01 X8.2698 Y165.2551
G01 X8.5624 Y164.4308
G01 X8.8794 Y163.6154
G01 X9.2205 Y162.8099
G01 X9.5854 Y162.0149
G01 X9.9737 Y161.2310
G01 X10.3852 Y160.4591
G01 X10.8194 Y159.6997
G01 X11.2760 Y158.9535
G01 X11.7545 Y158.2213
G01 X12.2547 Y157.5036
G01 X12.7759 Y156.8010
G01 X13.3177 Y156.1143
G01 X13.8798 Y155.4440
M107
G00 Z-2.0000
M106 S240
G01 X14.2927 Y154.9748
G01 X14.7154 Y154.5144
G01 X15.1478 Y154.0631
G01 X15.5896 Y153.6211
G01 X16.0406 Y153.1884
G01 X16.5006 Y152.7654
G01 X16.9695 Y152.3522
G01 X17.4471 Y151.9489
M107
G00 Z-3.5000
G01 Z-4.0000 F400
G01 Z-5.0000
M106 S240
G01 X18.2428 Y151.3127 F1000
G01 X19.0601 Y150.7043
G01 X19.8980 Y150.1247
G01 X20.7554 Y149.5743
G01 X21.6313 Y149.0540
G01 X22.5248 Y148.5644
G01 X23.4347 Y148.1059
G01 X24.3598 Y147.6792
G01 X25.2993 Y147.2848
G01 X26.2517 Y146.9232
G01 X27.2162 Y146.5948
G01 X28.1914 Y146.2999
G01 X29.1763 Y146.0390
G01 X30.1696 Y145.8123
G01 X31.1701 Y145.6201
G01 X32.1768 Y145.4627
G01 X33.1882 Y145.3403
G01 X34.2033 Y145.2529
G01 X35.2208 Y145.2007
G01 X36.2395 Y145.1838
G01 X115.7275
G01 X116.6022 Y145.1962
G01 X117.4761 Y145.2346
G01 X118.3485 Y145.2990
G01 X119.2187 Y145.3893
G01 X120.0857 Y145.5054
G01 X120.9489 Y145.6472
G01 X121.8076 Y145.8146
G01 X122.6608 Y146.0074
G01 X123.5080 Y146.2256
G01 X124.3483 Y146.4688
G01 X125.1810 Y146.7368
G01 X126.0054 Y147.0295
G01 X126.8207 Y147.3466
G01 X127.6262 Y147.6878
G01 X128.4212 Y148.0528
G01 X129.2051 Y148.4412
G01 X129.9770 Y148.8527
G01 X130.7364 Y149.2871
G01 X131.4825 Y149.7438
G01 X132.2147 Y150.2224
G01 X132.9324 Y150.7226
G01 X133.6348 Y151.2440
G01 X134.3215 Y151.7859
G01 X134.9918 Y152.3481
M107
G00 Z-2.0000
M106 S240
G01 X135.4609 Y152.7611
G01 X135.9212 Y153.1839
G01 X136.3724 Y153.6163
G01 X136.8145 Y154.0581
G01 X137.2470 Y154.5092
G01 X137.6700 Y154.9693
G01 X138.0832 Y155.4383
G01 X138.4863 Y155.9159
M107
G00 Z-3.5000
G01 Z-4.0000 F400
G01 Z-5.0000
M106 S240
G01 X139.1225 Y156.7117 F1000
G01 X139.7307 Y157.5290
G01 X140.3102 Y158.3669
G01 X140.8604 Y159.2244
G01 X141.3806 Y160.1004
G01 X141.8702 Y160.9939
G01 X142.3285 Y161.9038
G01 X142.7551 Y162.8290
G01 X143.1494 Y163.7684
G01 X143.5109 Y164.7209
G01 X143.8393 Y165.6853
G01 X144.1341 Y166.6606
G01 X144.3949 Y167.6454
G01 X144.6216 Y168.6387
G01 X144.8137 Y169.6392
G01 X144.9710 Y170.6458
G01 X145.0935 Y171.6573
G01 X145.1808 Y172.6723
G01 X145.2330 Y173.6898
G01 X145.2499 Y174.7085
G01 Y254.1941
G01 X145.2345 Y255.1665
G01 X145.1871 Y256.1378
G01 X145.1075 Y257.1070
G01 X144.9960 Y258.0730
G01 X144.8526 Y259.0348
G01 X144.6776 Y259.9914
G01 X144.4710 Y260.9417
G01 X144.2331 Y261.8846
G01 X143.9642 Y262.8191
G01 X143.6645 Y263.7443
G01 X143.3345 Y264.6590
G01 X142.9744 Y265.5623
G01 X142.5846 Y266.4533
G01 X142.1656 Y267.3308
G01 X141.7179 Y268.1941
G01 X141.2419 Y269.0420
G01 X140.7381 Y269.8738
G01 X140.2071 Y270.6885
G01 X139.6494 Y271.4852
G01 X139.0658 Y272.2630
M107
G00 Z-2.0000
M106 S240
G01 X138.6777 Y272.7530
G01 X138.2794 Y273.2346
G01 X137.8710 Y273.7077
G01 X137.4527 Y274.1721
G01 X137.0247 Y274.6275
G01 X136.5872 Y275.0738
G01 X136.1403 Y275.5107
G01 X135.6843 Y275.9381
M107
G00 Z-3.5000
G01 Z-4.0000 F400
G01 Z-5.0000
M106 S240
G01 X135.0028 Y276.5463 F1000
G01 X134.3027 Y277.1330
G01 X133.5848 Y277.6978
G01 X132.8497 Y278.2400
G01 X132.0981 Y278.7591
G01 X131.3308 Y279.2547
G01 X130.5485 Y279.7262
G01 X129.7520 Y280.1732
G01 X128.9419 Y280.5953
G01 X128.1191 Y280.9920
G01 X127.2845 Y281.3631
G01 X126.4387 Y281.7080
G01 X125.5826 Y282.0266
G01 X124.7171 Y282.3184
G01 X123.8429 Y282.5833
G01 X122.9609 Y282.8209
G01 X122.0720 Y283.0310
G01 X121.1770 Y283.2134
G01 X120.2767 Y283.3680
G01 X119.3721 Y283.4946
G01 X118.4640 Y283.5930
G01 X117.5533 Y283.6633
G01 X116.6408 Y283.7052
G01 X115.7275 Y283.7188
G01 X36.2395
G01 X35.3101 Y283.7047
G01 X34.3816 Y283.6612
G01 X33.4549 Y283.5884
G01 X32.5310 Y283.4864
G01 X31.6108 Y283.3553
G01 X30.6952 Y283.1952
G01 X29.7850 Y283.0063
G01 X28.8813 Y282.7888
G01 X27.9849 Y282.5429
G01 X27.0968 Y282.2687
G01 X26.2177 Y281.9667
