;Project TeslaParkingV3_2x
;Created by Estlcam version 11 build 11,227
;Machining time about 00:53:48 hours

G90
M03 S18000
G00 X0.0000 Y0.0000 Z0.0000
G00 Z2.0000


;No. 1: Helical drill 16
G00 X35.5583 Y43.1525
G00 Z0.5000
M106 S240
G01 X35.5545 Y43.0653 Z0.4722 F400 S18000
G01 X35.5431 Y42.9788 Z0.4444
G01 X35.5243 Y42.8937 Z0.4167
G01 X35.4980 Y42.8105 Z0.3889
G01 X35.4646 Y42.7299 Z0.3611
G01 X35.4244 Y42.6525 Z0.3333
G01 X35.3775 Y42.5789 Z0.3056
G01 X35.3244 Y42.5097 Z0.2778
G01 X35.2654 Y42.4454 Z0.2500
G01 X35.2011 Y42.3864 Z0.2222
G01 X35.1319 Y42.3333 Z0.1944
G01 X35.0583 Y42.2865 Z0.1667
G01 X34.9810 Y42.2462 Z0.1389
G01 X34.9004 Y42.2128 Z0.1111
G01 X34.8172 Y42.1866 Z0.0833
G01 X34.7320 Y42.1677 Z0.0556
G01 X34.6455 Y42.1563 Z0.0278
G01 X34.5583 Y42.1525 Z0.0000
G01 X34.4712 Y42.1563 Z-0.0278
G01 X34.3847 Y42.1677 Z-0.0556
G01 X34.2995 Y42.1866 Z-0.0833
G01 X34.2163 Y42.2128 Z-0.1111
G01 X34.1357 Y42.2462 Z-0.1389
G01 X34.0583 Y42.2865 Z-0.1667
G01 X33.9848 Y42.3333 Z-0.1944
G01 X33.9155 Y42.3864 Z-0.2222
G01 X33.8512 Y42.4454 Z-0.2500
G01 X33.7923 Y42.5097 Z-0.2778
G01 X33.7392 Y42.5789 Z-0.3056
G01 X33.6923 Y42.6525 Z-0.3333
G01 X33.6520 Y42.7299 Z-0.3611
G01 X33.6186 Y42.8105 Z-0.3889
G01 X33.5924 Y42.8937 Z-0.4167
G01 X33.5735 Y42.9788 Z-0.4444
G01 X33.5621 Y43.0653 Z-0.4722
G01 X33.5583 Y43.1525 Z-0.5000
G01 X33.5621 Y43.2397 Z-0.5278
G01 X33.5735 Y43.3261 Z-0.5556
G01 X33.5924 Y43.4113 Z-0.5833
G01 X33.6186 Y43.4945 Z-0.6111
G01 X33.6520 Y43.5751 Z-0.6389
G01 X33.6923 Y43.6525 Z-0.6667
G01 X33.7392 Y43.7261 Z-0.6944
G01 X33.7923 Y43.7953 Z-0.7222
G01 X33.8512 Y43.8596 Z-0.7500
G01 X33.9155 Y43.9185 Z-0.7778
G01 X33.9848 Y43.9716 Z-0.8056
G01 X34.0583 Y44.0185 Z-0.8333
G01 X34.1357 Y44.0588 Z-0.8611
G01 X34.2163 Y44.0922 Z-0.8889
G01 X34.2995 Y44.1184 Z-0.9167
G01 X34.3847 Y44.1373 Z-0.9444
G01 X34.4712 Y44.1487 Z-0.9722
G01 X34.5583 Y44.1525 Z-1.0000
G01 X34.6455 Y44.1487 Z-1.0278
G01 X34.7320 Y44.1373 Z-1.0556
G01 X34.8172 Y44.1184 Z-1.0833
G01 X34.9004 Y44.0922 Z-1.1111
G01 X34.9810 Y44.0588 Z-1.1389
G01 X35.0583 Y44.0185 Z-1.1667
G01 X35.1319 Y43.9716 Z-1.1944
G01 X35.2011 Y43.9185 Z-1.2222
G01 X35.2654 Y43.8596 Z-1.2500
G01 X35.3244 Y43.7953 Z-1.2778
G01 X35.3775 Y43.7261 Z-1.3056
G01 X35.4244 Y43.6525 Z-1.3333
G01 X35.4646 Y43.5751 Z-1.3611
G01 X35.4980 Y43.4945 Z-1.3889
G01 X35.5243 Y43.4113 Z-1.4167
G01 X35.5431 Y43.3261 Z-1.4444
G01 X35.5545 Y43.2397 Z-1.4722
G01 X35.5583 Y43.1525 Z-1.5000
G01 X35.5545 Y43.0653
G01 X35.5431 Y42.9788
G01 X35.5243 Y42.8937
G01 X35.4980 Y42.8105
G01 X35.4646 Y42.7299
G01 X35.4244 Y42.6525
G01 X35.3775 Y42.5789
G01 X35.3244 Y42.5097
G01 X35.2654 Y42.4454
G01 X35.2011 Y42.3864
G01 X35.1319 Y42.3333
G01 X35.0583 Y42.2865
G01 X34.9810 Y42.2462
G01 X34.9004 Y42.2128
G01 X34.8172 Y42.1866
G01 X34.7320 Y42.1677
G01 X34.6455 Y42.1563
G01 X34.5583 Y42.1525
G01 X34.4712 Y42.1563
G01 X34.3847 Y42.1677
G01 X34.2995 Y42.1866
G01 X34.2163 Y42.2128
G01 X34.1357 Y42.2462
G01 X34.0583 Y42.2865
G01 X33.9848 Y42.3333
G01 X33.9155 Y42.3864
G01 X33.8512 Y42.4454
G01 X33.7923 Y42.5097
G01 X33.7392 Y42.5789
G01 X33.6923 Y42.6525
G01 X33.6520 Y42.7299
G01 X33.6186 Y42.8105
G01 X33.5924 Y42.8937
G01 X33.5735 Y42.9788
G01 X33.5621 Y43.0653
G01 X33.5583 Y43.1525
G01 X33.5621 Y43.2397
G01 X33.5735 Y43.3261
G01 X33.5924 Y43.4113
G01 X33.6186 Y43.4945
G01 X33.6520 Y43.5751
G01 X33.6923 Y43.6525
G01 X33.7392 Y43.7261
G01 X33.7923 Y43.7953
G01 X33.8512 Y43.8596
G01 X33.9155 Y43.9185
G01 X33.9848 Y43.9716
G01 X34.0583 Y44.0185
G01 X34.1357 Y44.0588
G01 X34.2163 Y44.0922
G01 X34.2995 Y44.1184
G01 X34.3847 Y44.1373
G01 X34.4712 Y44.1487
G01 X34.5583 Y44.1525
G01 X34.6455 Y44.1487
G01 X34.7320 Y44.1373
G01 X34.8172 Y44.1184
G01 X34.9004 Y44.0922
G01 X34.9810 Y44.0588
G01 X35.0583 Y44.0185
G01 X35.1319 Y43.9716
G01 X35.2011 Y43.9185
G01 X35.2654 Y43.8596
G01 X35.3244 Y43.7953
G01 X35.3775 Y43.7261
G01 X35.4244 Y43.6525
G01 X35.4646 Y43.5751
G01 X35.4980 Y43.4945
G01 X35.5243 Y43.4113
G01 X35.5431 Y43.3261
G01 X35.5545 Y43.2397
G01 X35.5583 Y43.1525
G01 X35.5691 Y43.1009 F1000
G01 X35.5772 Y43.0488
G01 X35.5825 Y42.9964
G01 X35.5852 Y42.9438
G01 Y42.8911
G01 X35.5824 Y42.8384
G01 X35.5770 Y42.7860
G01 X35.5688 Y42.7339
G01 X35.5571 Y42.6779
G01 X35.5425 Y42.6226
G01 X35.5252 Y42.5681
G01 X35.5050 Y42.5146
G01 X35.4822 Y42.4622
G01 X35.4567 Y42.4110
G01 X35.4286 Y42.3611
G01 X35.3980 Y42.3128
G01 X35.3624 Y42.2624
G01 X35.3243 Y42.2139
G01 X35.2837 Y42.1674
G01 X35.2409 Y42.1230
G01 X35.1958 Y42.0808
G01 X35.1487 Y42.0410
G01 X35.0996 Y42.0036
G01 X35.0486 Y41.9688
G01 X34.9922 Y41.9342
G01 X34.9340 Y41.9025
G01 X34.8743 Y41.8739
G01 X34.8132 Y41.8482
G01 X34.7509 Y41.8257
G01 X34.6876 Y41.8064
G01 X34.6233 Y41.7903
G01 X34.5583 Y41.7775
G01 X34.4883 Y41.7673
G01 X34.4178 Y41.7607
G01 X34.3472 Y41.7576
G01 X34.2764 Y41.7581
G01 X34.2057 Y41.7621
G01 X34.1354 Y41.7697
G01 X34.0655 Y41.7809
G01 X33.9963 Y41.7955
G01 X33.9281 Y41.8215
G01 X33.8613 Y41.8508
G01 X33.7960 Y41.8834
G01 X33.7323 Y41.9191
G01 X33.6706 Y41.9579
G01 X33.6108 Y41.9997
G01 X33.5531 Y42.0444
G01 X33.4977 Y42.0919
G01 X33.4469 Y42.1452
G01 X33.3988 Y42.2009
G01 X33.3535 Y42.2590
G01 X33.3112 Y42.3192
G01 X33.2718 Y42.3814
G01 X33.2355 Y42.4454
G01 X33.2024 Y42.5112
G01 X33.1725 Y42.5785
G01 X33.1460 Y42.6472
G01 X33.1229 Y42.7171
G01 X33.1033 Y42.7880
G01 X33.0872 Y42.8599
G01 X33.0746 Y42.9324
G01 X33.0656 Y43.0055
G01 X33.0602 Y43.0789
G01 X33.0584 Y43.1525
G01 X33.0602 Y43.2261
G01 X33.0656 Y43.2995
G01 X33.0746 Y43.3726
G01 X33.0872 Y43.4451
G01 X33.1033 Y43.5170
G01 X33.1229 Y43.5879
G01 X33.1460 Y43.6578
G01 X33.1725 Y43.7265
G01 X33.2024 Y43.7938
G01 X33.2355 Y43.8596
G01 X33.2718 Y43.9236
G01 X33.3112 Y43.9858
G01 X33.3535 Y44.0460
G01 X33.3988 Y44.1041
G01 X33.4469 Y44.1598
G01 X33.4977 Y44.2131
G01 X33.5510 Y44.2639
G01 X33.6068 Y44.3120
G01 X33.6648 Y44.3573
G01 X33.7250 Y44.3997
G01 X33.7872 Y44.4391
G01 X33.8512 Y44.4754
G01 X33.9170 Y44.5085
G01 X33.9843 Y44.5383
G01 X34.0530 Y44.5648
G01 X34.1229 Y44.5879
G01 X34.1939 Y44.6075
G01 X34.2657 Y44.6236
G01 X34.3382 Y44.6362
G01 X34.4113 Y44.6452
G01 X34.4847 Y44.6507
G01 X34.5583 Y44.6525
G01 X34.6319 Y44.6507
G01 X34.7054 Y44.6452
G01 X34.7784 Y44.6362
G01 X34.8510 Y44.6236
G01 X34.9228 Y44.6075
G01 X34.9938 Y44.5879
G01 X35.0637 Y44.5648
G01 X35.1323 Y44.5383
G01 X35.1997 Y44.5085
G01 X35.2654 Y44.4754
G01 X35.3295 Y44.4391
G01 X35.3917 Y44.3997
G01 X35.4519 Y44.3573
G01 X35.5099 Y44.3120
G01 X35.5657 Y44.2639
G01 X35.6190 Y44.2131
G01 X35.6697 Y44.1598
G01 X35.7178 Y44.1041
G01 X35.7631 Y44.0460
G01 X35.8055 Y43.9858
G01 X35.8449 Y43.9236
G01 X35.8812 Y43.8596
G01 X35.9143 Y43.7938
G01 X35.9441 Y43.7265
G01 X35.9706 Y43.6578
G01 X35.9937 Y43.5879
G01 X36.0134 Y43.5170
G01 X36.0295 Y43.4451
G01 X36.0421 Y43.3726
G01 X36.0511 Y43.2995
G01 X36.0565 Y43.2261
G01 X36.0583 Y43.1525
G01 X36.0541 Y43.0404
G01 X36.0416 Y42.9289
G01 X36.0207 Y42.8187
G01 X35.9917 Y42.7104
G01 X35.9546 Y42.6045
G01 X35.9098 Y42.5017
G01 X35.8573 Y42.4025
G01 X35.7977 Y42.3075
G01 X35.7311 Y42.2173
G01 X35.6579 Y42.1323
G01 X35.5786 Y42.0529
G01 X35.4936 Y41.9798
G01 X35.4033 Y41.9132
G01 X35.3083 Y41.8535
G01 X35.2091 Y41.8011
G01 X35.1063 Y41.7562
G01 X35.0005 Y41.7192
G01 X34.8921 Y41.6901
G01 X34.7819 Y41.6693
G01 X34.6704 Y41.6567
G01 X34.5583 Y41.6525
G01 X34.4462 Y41.6567
G01 X34.3348 Y41.6693
G01 X34.2246 Y41.6901
G01 X34.1162 Y41.7192
G01 X34.0103 Y41.7562
G01 X33.9075 Y41.8011
G01 X33.8083 Y41.8535
G01 X33.7134 Y41.9132
G01 X33.6231 Y41.9798
G01 X33.5381 Y42.0529
G01 X33.4588 Y42.1323
G01 X33.3856 Y42.2173
G01 X33.3190 Y42.3075
G01 X33.2593 Y42.4025
G01 X33.2069 Y42.5017
G01 X33.1620 Y42.6045
G01 X33.1250 Y42.7104
G01 X33.0960 Y42.8187
G01 X33.0751 Y42.9289
G01 X33.0626 Y43.0404
G01 X33.0584 Y43.1525
G01 X33.0626 Y43.2646
G01 X33.0751 Y43.3761
G01 X33.0960 Y43.4863
G01 X33.1250 Y43.5946
G01 X33.1620 Y43.7005
G01 X33.2069 Y43.8033
G01 X33.2593 Y43.9025
G01 X33.3190 Y43.9975
G01 X33.3856 Y44.0877
G01 X33.4588 Y44.1727
G01 X33.5381 Y44.2521
G01 X33.6231 Y44.3252
G01 X33.7134 Y44.3918
G01 X33.8083 Y44.4515
G01 X33.9075 Y44.5039
G01 X34.0103 Y44.5488
G01 X34.1162 Y44.5858
G01 X34.2246 Y44.6149
G01 X34.3348 Y44.6357
G01 X34.4462 Y44.6483
G01 X34.5583 Y44.6525
G01 X34.6704 Y44.6483
G01 X34.7819 Y44.6357
G01 X34.8921 Y44.6149
G01 X35.0005 Y44.5858
G01 X35.1063 Y44.5488
G01 X35.2091 Y44.5039
G01 X35.3083 Y44.4515
G01 X35.4033 Y44.3918
G01 X35.4936 Y44.3252
G01 X35.5786 Y44.2521
G01 X35.6579 Y44.1727
G01 X35.7311 Y44.0877
G01 X35.7977 Y43.9975
G01 X35.8573 Y43.9025
G01 X35.9098 Y43.8033
G01 X35.9546 Y43.7005
G01 X35.9917 Y43.5946
G01 X36.0207 Y43.4863
G01 X36.0416 Y43.3761
G01 X36.0541 Y43.2646
G01 X36.0583 Y43.1525
G01 X36.0545 Y43.0544
G01 X36.0429 Y42.9570
G01 X36.0238 Y42.8607
G01 X35.9971 Y42.7662
G01 X35.9632 Y42.6741
G01 X35.9221 Y42.5850
G01 X35.8741 Y42.4994
G01 X35.8196 Y42.4178
G01 X35.7588 Y42.3407
G01 X35.6922 Y42.2686
G01 X35.6201 Y42.2020
G01 X35.5430 Y42.1412
G01 X35.4614 Y42.0867
G01 X35.3758 Y42.0387
G01 X35.2867 Y41.9977
G01 X35.1946 Y41.9637
G01 X35.1001 Y41.9370
G01 X35.0039 Y41.9179
G01 X34.9064 Y41.9064
G01 X34.8083 Y41.9025
G01 X34.7102 Y41.9064
G01 X34.6128 Y41.9179
G01 X34.5165 Y41.9370
G01 X34.4221 Y41.9637
G01 X34.3300 Y41.9977
G01 X34.2408 Y42.0387
G01 X34.1552 Y42.0867
G01 X34.0736 Y42.1412
G01 X33.9965 Y42.2020
G01 X33.9244 Y42.2686
G01 X33.8578 Y42.3407
G01 X33.7971 Y42.4178
G01 X33.7425 Y42.4994
G01 X33.6946 Y42.5850
G01 X33.6535 Y42.6741
G01 X33.6195 Y42.7662
G01 X33.5929 Y42.8607
G01 X33.5737 Y42.9570
G01 X33.5622 Y43.0544
G01 X33.5583 Y43.1525
G01 X33.5621 Y43.2397
G01 X33.5735 Y43.3261
G01 X33.5924 Y43.4113
G01 X33.6186 Y43.4945
G01 X33.6520 Y43.5751
G01 X33.6923 Y43.6525
G01 X33.7392 Y43.7261
G01 X33.7923 Y43.7953
G01 X33.8512 Y43.8596
G01 X33.9155 Y43.9185
G01 X33.9848 Y43.9716
G01 X34.0583 Y44.0185
G01 X34.1357 Y44.0588
G01 X34.2163 Y44.0922
G01 X34.2995 Y44.1184
G01 X34.3847 Y44.1373
G01 X34.4712 Y44.1487
G01 X34.5583 Y44.1525
G01 X34.6455 Y44.1487
G01 X34.7320 Y44.1373
G01 X34.8172 Y44.1184
G01 X34.9004 Y44.0922
G01 X34.9810 Y44.0588
G01 X35.0583 Y44.0185
G01 X35.1319 Y43.9716
G01 X35.2011 Y43.9185
G01 X35.2654 Y43.8596
G01 X35.3244 Y43.7953
G01 X35.3775 Y43.7261
G01 X35.4244 Y43.6525
G01 X35.4646 Y43.5751
G01 X35.4980 Y43.4945
G01 X35.5243 Y43.4113
G01 X35.5431 Y43.3261
G01 X35.5545 Y43.2397
G01 X35.5583 Y43.1525
M107
M106 S240
G01 X35.5545 Y43.0653 Z-1.5278 F400
G01 X35.5431 Y42.9788 Z-1.5556
G01 X35.5243 Y42.8937 Z-1.5833
G01 X35.4980 Y42.8105 Z-1.6111
G01 X35.4646 Y42.7299 Z-1.6389
G01 X35.4244 Y42.6525 Z-1.6667
G01 X35.3775 Y42.5789 Z-1.6944
G01 X35.3244 Y42.5097 Z-1.7222
G01 X35.2654 Y42.4454 Z-1.7500
G01 X35.2011 Y42.3864 Z-1.7778
G01 X35.1319 Y42.3333 Z-1.8056
G01 X35.0583 Y42.2865 Z-1.8333
G01 X34.9810 Y42.2462 Z-1.8611
G01 X34.9004 Y42.2128 Z-1.8889
G01 X34.8172 Y42.1866 Z-1.9167
G01 X34.7320 Y42.1677 Z-1.9444
G01 X34.6455 Y42.1563 Z-1.9722
G01 X34.5583 Y42.1525 Z-2.0000
G01 X34.4712 Y42.1563 Z-2.0278
G01 X34.3847 Y42.1677 Z-2.0556
G01 X34.2995 Y42.1866 Z-2.0833
G01 X34.2163 Y42.2128 Z-2.1111
G01 X34.1357 Y42.2462 Z-2.1389
G01 X34.0583 Y42.2865 Z-2.1667
G01 X33.9848 Y42.3333 Z-2.1944
G01 X33.9155 Y42.3864 Z-2.2222
G01 X33.8512 Y42.4454 Z-2.2500
G01 X33.7923 Y42.5097 Z-2.2778
G01 X33.7392 Y42.5789 Z-2.3056
G01 X33.6923 Y42.6525 Z-2.3333
G01 X33.6520 Y42.7299 Z-2.3611
G01 X33.6186 Y42.8105 Z-2.3889
G01 X33.5924 Y42.8937 Z-2.4167
G01 X33.5735 Y42.9788 Z-2.4444
G01 X33.5621 Y43.0653 Z-2.4722
G01 X33.5583 Y43.1525 Z-2.5000
G01 X33.5621 Y43.2397 Z-2.5278
G01 X33.5735 Y43.3261 Z-2.5556
G01 X33.5924 Y43.4113 Z-2.5833
G01 X33.6186 Y43.4945 Z-2.6111
G01 X33.6520 Y43.5751 Z-2.6389
G01 X33.6923 Y43.6525 Z-2.6667
G01 X33.7392 Y43.7261 Z-2.6944
G01 X33.7923 Y43.7953 Z-2.7222
G01 X33.8512 Y43.8596 Z-2.7500
G01 X33.9155 Y43.9185 Z-2.7778
G01 X33.9848 Y43.9716 Z-2.8056
G01 X34.0583 Y44.0185 Z-2.8333
G01 X34.1357 Y44.0588 Z-2.8611
G01 X34.2163 Y44.0922 Z-2.8889
G01 X34.2995 Y44.1184 Z-2.9167
G01 X34.3847 Y44.1373 Z-2.9444
G01 X34.4712 Y44.1487 Z-2.9722
G01 X34.5583 Y44.1525 Z-3.0000
G01 X34.6455 Y44.1487 Z-3.0278
G01 X34.7320 Y44.1373 Z-3.0556
G01 X34.8172 Y44.1184 Z-3.0833
G01 X34.9004 Y44.0922 Z-3.1111
G01 X34.9810 Y44.0588 Z-3.1389
G01 X35.0583 Y44.0185 Z-3.1667
G01 X35.1319 Y43.9716 Z-3.1944
G01 X35.2011 Y43.9185 Z-3.2222
G01 X35.2654 Y43.8596 Z-3.2500
G01 X35.3244 Y43.7953 Z-3.2778
G01 X35.3775 Y43.7261 Z-3.3056
G01 X35.4244 Y43.6525 Z-3.3333
G01 X35.4646 Y43.5751 Z-3.3611
G01 X35.4980 Y43.4945 Z-3.3889
G01 X35.5243 Y43.4113 Z-3.4167
G01 X35.5431 Y43.3261 Z-3.4444
G01 X35.5545 Y43.2397 Z-3.4722
G01 X35.5583 Y43.1525 Z-3.5000
G01 X35.5545 Y43.0653
G01 X35.5431 Y42.9788
G01 X35.5243 Y42.8937
G01 X35.4980 Y42.8105
G01 X35.4646 Y42.7299
G01 X35.4244 Y42.6525
G01 X35.3775 Y42.5789
G01 X35.3244 Y42.5097
G01 X35.2654 Y42.4454
G01 X35.2011 Y42.3864
G01 X35.1319 Y42.3333
G01 X35.0583 Y42.2865
G01 X34.9810 Y42.2462
G01 X34.9004 Y42.2128
G01 X34.8172 Y42.1866
G01 X34.7320 Y42.1677
G01 X34.6455 Y42.1563
G01 X34.5583 Y42.1525
G01 X34.4712 Y42.1563
G01 X34.3847 Y42.1677
G01 X34.2995 Y42.1866
G01 X34.2163 Y42.2128
G01 X34.1357 Y42.2462
G01 X34.0583 Y42.2865
G01 X33.9848 Y42.3333
G01 X33.9155 Y42.3864
G01 X33.8512 Y42.4454
G01 X33.7923 Y42.5097
G01 X33.7392 Y42.5789
G01 X33.6923 Y42.6525
G01 X33.6520 Y42.7299
G01 X33.6186 Y42.8105
G01 X33.5924 Y42.8937
G01 X33.5735 Y42.9788
G01 X33.5621 Y43.0653
G01 X33.5583 Y43.1525
G01 X33.5621 Y43.2397
G01 X33.5735 Y43.3261
G01 X33.5924 Y43.4113
G01 X33.6186 Y43.4945
G01 X33.6520 Y43.5751
G01 X33.6923 Y43.6525
G01 X33.7392 Y43.7261
G01 X33.7923 Y43.7953
G01 X33.8512 Y43.8596
G01 X33.9155 Y43.9185
G01 X33.9848 Y43.9716
G01 X34.0583 Y44.0185
G01 X34.1357 Y44.0588
G01 X34.2163 Y44.0922
G01 X34.2995 Y44.1184
G01 X34.3847 Y44.1373
G01 X34.4712 Y44.1487
G01 X34.5583 Y44.1525
G01 X34.6455 Y44.1487
G01 X34.7320 Y44.1373
G01 X34.8172 Y44.1184
G01 X34.9004 Y44.0922
G01 X34.9810 Y44.0588
G01 X35.0583 Y44.0185
G01 X35.1319 Y43.9716
G01 X35.2011 Y43.9185
G01 X35.2654 Y43.8596
G01 X35.3244 Y43.7953
G01 X35.3775 Y43.7261
G01 X35.4244 Y43.6525
G01 X35.4646 Y43.5751
G01 X35.4980 Y43.4945
G01 X35.5243 Y43.4113
G01 X35.5431 Y43.3261
G01 X35.5545 Y43.2397
G01 X35.5583 Y43.1525
G01 X35.5691 Y43.1009 F1000
G01 X35.5772 Y43.0488
G01 X35.5825 Y42.9964
G01 X35.5852 Y42.9438
G01 Y42.8911
G01 X35.5824 Y42.8384
G01 X35.5770 Y42.7860
G01 X35.5688 Y42.7339
G01 X35.5571 Y42.6779
G01 X35.5425 Y42.6226
G01 X35.5252 Y42.5681
G01 X35.5050 Y42.5146
G01 X35.4822 Y42.4622
G01 X35.4567 Y42.4110
G01 X35.4286 Y42.3611
G01 X35.3980 Y42.3128
G01 X35.3624 Y42.2624
G01 X35.3243 Y42.2139
G01 X35.2837 Y42.1674
G01 X35.2409 Y42.1230
G01 X35.1958 Y42.0808
G01 X35.1487 Y42.0410
G01 X35.0996 Y42.0036
G01 X35.0486 Y41.9688
G01 X34.9922 Y41.9342
G01 X34.9340 Y41.9025
G01 X34.8743 Y41.8739
G01 X34.8132 Y41.8482
G01 X34.7509 Y41.8257
G01 X34.6876 Y41.8064
G01 X34.6233 Y41.7903
G01 X34.5583 Y41.7775
G01 X34.4883 Y41.7673
G01 X34.4178 Y41.7607
G01 X34.3472 Y41.7576
G01 X34.2764 Y41.7581
G01 X34.2057 Y41.7621
G01 X34.1354 Y41.7697
G01 X34.0655 Y41.7809
G01 X33.9963 Y41.7955
G01 X33.9281 Y41.8215
G01 X33.8613 Y41.8508
G01 X33.7960 Y41.8834
G01 X33.7323 Y41.9191
G01 X33.6706 Y41.9579
G01 X33.6108 Y41.9997
G01 X33.5531 Y42.0444
G01 X33.4977 Y42.0919
G01 X33.4469 Y42.1452
G01 X33.3988 Y42.2009
G01 X33.3535 Y42.2590
G01 X33.3112 Y42.3192
G01 X33.2718 Y42.3814
G01 X33.2355 Y42.4454
G01 X33.2024 Y42.5112
G01 X33.1725 Y42.5785
G01 X33.1460 Y42.6472
G01 X33.1229 Y42.7171
G01 X33.1033 Y42.7880
G01 X33.0872 Y42.8599
G01 X33.0746 Y42.9324
G01 X33.0656 Y43.0055
G01 X33.0602 Y43.0789
G01 X33.0584 Y43.1525
G01 X33.0602 Y43.2261
G01 X33.0656 Y43.2995
G01 X33.0746 Y43.3726
G01 X33.0872 Y43.4451
G01 X33.1033 Y43.5170
G01 X33.1229 Y43.5879
G01 X33.1460 Y43.6578
G01 X33.1725 Y43.7265
G01 X33.2024 Y43.7938
G01 X33.2355 Y43.8596
G01 X33.2718 Y43.9236
G01 X33.3112 Y43.9858
G01 X33.3535 Y44.0460
G01 X33.3988 Y44.1041
G01 X33.4469 Y44.1598
G01 X33.4977 Y44.2131
G01 X33.5510 Y44.2639
G01 X33.6068 Y44.3120
G01 X33.6648 Y44.3573
G01 X33.7250 Y44.3997
G01 X33.7872 Y44.4391
G01 X33.8512 Y44.4754
G01 X33.9170 Y44.5085
G01 X33.9843 Y44.5383
G01 X34.0530 Y44.5648
G01 X34.1229 Y44.5879
G01 X34.1939 Y44.6075
G01 X34.2657 Y44.6236
G01 X34.3382 Y44.6362
G01 X34.4113 Y44.6452
G01 X34.4847 Y44.6507
G01 X34.5583 Y44.6525
G01 X34.6319 Y44.6507
G01 X34.7054 Y44.6452
G01 X34.7784 Y44.6362
G01 X34.8510 Y44.6236
G01 X34.9228 Y44.6075
G01 X34.9938 Y44.5879
G01 X35.0637 Y44.5648
G01 X35.1323 Y44.5383
G01 X35.1997 Y44.5085
G01 X35.2654 Y44.4754
G01 X35.3295 Y44.4391
G01 X35.3917 Y44.3997
G01 X35.4519 Y44.3573
G01 X35.5099 Y44.3120
G01 X35.5657 Y44.2639
G01 X35.6190 Y44.2131
G01 X35.6697 Y44.1598
G01 X35.7178 Y44.1041
G01 X35.7631 Y44.0460
G01 X35.8055 Y43.9858
G01 X35.8449 Y43.9236
G01 X35.8812 Y43.8596
G01 X35.9143 Y43.7938
G01 X35.9441 Y43.7265
G01 X35.9706 Y43.6578
G01 X35.9937 Y43.5879
G01 X36.0134 Y43.5170
G01 X36.0295 Y43.4451
G01 X36.0421 Y43.3726
G01 X36.0511 Y43.2995
G01 X36.0565 Y43.2261
G01 X36.0583 Y43.1525
G01 X36.0541 Y43.0404
G01 X36.0416 Y42.9289
G01 X36.0207 Y42.8187
G01 X35.9917 Y42.7104
G01 X35.9546 Y42.6045
G01 X35.9098 Y42.5017
G01 X35.8573 Y42.4025
G01 X35.7977 Y42.3075
G01 X35.7311 Y42.2173
G01 X35.6579 Y42.1323
G01 X35.5786 Y42.0529
G01 X35.4936 Y41.9798
G01 X35.4033 Y41.9132
G01 X35.3083 Y41.8535
G01 X35.2091 Y41.8011
G01 X35.1063 Y41.7562
G01 X35.0005 Y41.7192
G01 X34.8921 Y41.6901
G01 X34.7819 Y41.6693
G01 X34.6704 Y41.6567
G01 X34.5583 Y41.6525
G01 X34.4462 Y41.6567
G01 X34.3348 Y41.6693
G01 X34.2246 Y41.6901
G01 X34.1162 Y41.7192
G01 X34.0103 Y41.7562
G01 X33.9075 Y41.8011
G01 X33.8083 Y41.8535
G01 X33.7134 Y41.9132
G01 X33.6231 Y41.9798
G01 X33.5381 Y42.0529
G01 X33.4588 Y42.1323
G01 X33.3856 Y42.2173
G01 X33.3190 Y42.3075
G01 X33.2593 Y42.4025
G01 X33.2069 Y42.5017
G01 X33.1620 Y42.6045
G01 X33.1250 Y42.7104
G01 X33.0960 Y42.8187
G01 X33.0751 Y42.9289
G01 X33.0626 Y43.0404
G01 X33.0584 Y43.1525
G01 X33.0626 Y43.2646
G01 X33.0751 Y43.3761
G01 X33.0960 Y43.4863
G01 X33.1250 Y43.5946
G01 X33.1620 Y43.7005
G01 X33.2069 Y43.8033
G01 X33.2593 Y43.9025
G01 X33.3190 Y43.9975
G01 X33.3856 Y44.0877
G01 X33.4588 Y44.1727
G01 X33.5381 Y44.2521
G01 X33.6231 Y44.3252
G01 X33.7134 Y44.3918
G01 X33.8083 Y44.4515
G01 X33.9075 Y44.5039
G01 X34.0103 Y44.5488
G01 X34.1162 Y44.5858
G01 X34.2246 Y44.6149
G01 X34.3348 Y44.6357
G01 X34.4462 Y44.6483
G01 X34.5583 Y44.6525
G01 X34.6704 Y44.6483
G01 X34.7819 Y44.6357
G01 X34.8921 Y44.6149
G01 X35.0005 Y44.5858
G01 X35.1063 Y44.5488
G01 X35.2091 Y44.5039
G01 X35.3083 Y44.4515
G01 X35.4033 Y44.3918
G01 X35.4936 Y44.3252
G01 X35.5786 Y44.2521
G01 X35.6579 Y44.1727
G01 X35.7311 Y44.0877
G01 X35.7977 Y43.9975
G01 X35.8573 Y43.9025
G01 X35.9098 Y43.8033
G01 X35.9546 Y43.7005
G01 X35.9917 Y43.5946
G01 X36.0207 Y43.4863
G01 X36.0416 Y43.3761
G01 X36.0541 Y43.2646
G01 X36.0583 Y43.1525
G01 X36.0545 Y43.0544
G01 X36.0429 Y42.9570
G01 X36.0238 Y42.8607
G01 X35.9971 Y42.7662
G01 X35.9632 Y42.6741
G01 X35.9221 Y42.5850
G01 X35.8741 Y42.4994
G01 X35.8196 Y42.4178
G01 X35.7588 Y42.3407
G01 X35.6922 Y42.2686
G01 X35.6201 Y42.2020
G01 X35.5430 Y42.1412
G01 X35.4614 Y42.0867
G01 X35.3758 Y42.0387
G01 X35.2867 Y41.9977
G01 X35.1946 Y41.9637
G01 X35.1001 Y41.9370
G01 X35.0039 Y41.9179
G01 X34.9064 Y41.9064
G01 X34.8083 Y41.9025
G01 X34.7102 Y41.9064
G01 X34.6128 Y41.9179
G01 X34.5165 Y41.9370
G01 X34.4221 Y41.9637
G01 X34.3300 Y41.9977
G01 X34.2408 Y42.0387
G01 X34.1552 Y42.0867
G01 X34.0736 Y42.1412
G01 X33.9965 Y42.2020
G01 X33.9244 Y42.2686
G01 X33.8578 Y42.3407
G01 X33.7971 Y42.4178
G01 X33.7425 Y42.4994
G01 X33.6946 Y42.5850
G01 X33.6535 Y42.6741
G01 X33.6195 Y42.7662
G01 X33.5929 Y42.8607
G01 X33.5737 Y42.9570
G01 X33.5622 Y43.0544
G01 X33.5583 Y43.1525
G01 X33.5621 Y43.2397
G01 X33.5735 Y43.3261
G01 X33.5924 Y43.4113
G01 X33.6186 Y43.4945
G01 X33.6520 Y43.5751
G01 X33.6923 Y43.6525
G01 X33.7392 Y43.7261
G01 X33.7923 Y43.7953
G01 X33.8512 Y43.8596
G01 X33.9155 Y43.9185
G01 X33.9848 Y43.9716
G01 X34.0583 Y44.0185
G01 X34.1357 Y44.0588
G01 X34.2163 Y44.0922
G01 X34.2995 Y44.1184
G01 X34.3847 Y44.1373
G01 X34.4712 Y44.1487
G01 X34.5583 Y44.1525
G01 X34.6455 Y44.1487
G01 X34.7320 Y44.1373
G01 X34.8172 Y44.1184
G01 X34.9004 Y44.0922
G01 X34.9810 Y44.0588
G01 X35.0583 Y44.0185
G01 X35.1319 Y43.9716
G01 X35.2011 Y43.9185
G01 X35.2654 Y43.8596
G01 X35.3244 Y43.7953
G01 X35.3775 Y43.7261
G01 X35.4244 Y43.6525
G01 X35.4646 Y43.5751
G01 X35.4980 Y43.4945
G01 X35.5243 Y43.4113
G01 X35.5431 Y43.3261
G01 X35.5545 Y43.2397
G01 X35.5583 Y43.1525
M107
M106 S240
G01 X35.5545 Y43.0653 Z-3.5278 F400
G01 X35.5431 Y42.9788 Z-3.5556
G01 X35.5243 Y42.8937 Z-3.5833
G01 X35.4980 Y42.8105 Z-3.6111
G01 X35.4646 Y42.7299 Z-3.6389
G01 X35.4244 Y42.6525 Z-3.6667
G01 X35.3775 Y42.5789 Z-3.6944
G01 X35.3244 Y42.5097 Z-3.7222
G01 X35.2654 Y42.4454 Z-3.7500
G01 X35.2011 Y42.3864 Z-3.7778
G01 X35.1319 Y42.3333 Z-3.8056
G01 X35.0583 Y42.2865 Z-3.8333
G01 X34.9810 Y42.2462 Z-3.8611
G01 X34.9004 Y42.2128 Z-3.8889
G01 X34.8172 Y42.1866 Z-3.9167
G01 X34.7320 Y42.1677 Z-3.9444
G01 X34.6455 Y42.1563 Z-3.9722
G01 X34.5583 Y42.1525 Z-4.0000
G01 X34.4712 Y42.1563 Z-4.0278
G01 X34.3847 Y42.1677 Z-4.0556
G01 X34.2995 Y42.1866 Z-4.0833
G01 X34.2163 Y42.2128 Z-4.1111
G01 X34.1357 Y42.2462 Z-4.1389
G01 X34.0583 Y42.2865 Z-4.1667
G01 X33.9848 Y42.3333 Z-4.1944
G01 X33.9155 Y42.3864 Z-4.2222
G01 X33.8512 Y42.4454 Z-4.2500
G01 X33.7923 Y42.5097 Z-4.2778
G01 X33.7392 Y42.5789 Z-4.3056
G01 X33.6923 Y42.6525 Z-4.3333
G01 X33.6520 Y42.7299 Z-4.3611
G01 X33.6186 Y42.8105 Z-4.3889
G01 X33.5924 Y42.8937 Z-4.4167
G01 X33.5735 Y42.9788 Z-4.4444
G01 X33.5621 Y43.0653 Z-4.4722
G01 X33.5583 Y43.1525 Z-4.5000
G01 X33.5621 Y43.2397 Z-4.5278
G01 X33.5735 Y43.3261 Z-4.5556
G01 X33.5924 Y43.4113 Z-4.5833
G01 X33.6186 Y43.4945 Z-4.6111
G01 X33.6520 Y43.5751 Z-4.6389
G01 X33.6923 Y43.6525 Z-4.6667
G01 X33.7392 Y43.7261 Z-4.6944
G01 X33.7923 Y43.7953 Z-4.7222
G01 X33.8512 Y43.8596 Z-4.7500
G01 X33.9155 Y43.9185 Z-4.7778
G01 X33.9848 Y43.9716 Z-4.8056
G01 X34.0583 Y44.0185 Z-4.8333
G01 X34.1357 Y44.0588 Z-4.8611
G01 X34.2163 Y44.0922 Z-4.8889
G01 X34.2995 Y44.1184 Z-4.9167
G01 X34.3847 Y44.1373 Z-4.9444
G01 X34.4712 Y44.1487 Z-4.9722
G01 X34.5583 Y44.1525 Z-5.0000
G01 X34.6455 Y44.1487 Z-5.0278
G01 X34.7320 Y44.1373 Z-5.0556
G01 X34.8172 Y44.1184 Z-5.0833
G01 X34.9004 Y44.0922 Z-5.1111
G01 X34.9810 Y44.0588 Z-5.1389
G01 X35.0583 Y44.0185 Z-5.1667
G01 X35.1319 Y43.9716 Z-5.1944
G01 X35.2011 Y43.9185 Z-5.2222
G01 X35.2654 Y43.8596 Z-5.2500
G01 X35.3244 Y43.7953 Z-5.2778
G01 X35.3775 Y43.7261 Z-5.3056
G01 X35.4244 Y43.6525 Z-5.3333
G01 X35.4646 Y43.5751 Z-5.3611
G01 X35.4980 Y43.4945 Z-5.3889
G01 X35.5243 Y43.4113 Z-5.4167
G01 X35.5431 Y43.3261 Z-5.4444
G01 X35.5545 Y43.2397 Z-5.4722
G01 X35.5583 Y43.1525 Z-5.5000
G01 X35.5545 Y43.0653
G01 X35.5431 Y42.9788
G01 X35.5243 Y42.8937
G01 X35.4980 Y42.8105
G01 X35.4646 Y42.7299
G01 X35.4244 Y42.6525
G01 X35.3775 Y42.5789
G01 X35.3244 Y42.5097
G01 X35.2654 Y42.4454
G01 X35.2011 Y42.3864
G01 X35.1319 Y42.3333
G01 X35.0583 Y42.2865
G01 X34.9810 Y42.2462
G01 X34.9004 Y42.2128
G01 X34.8172 Y42.1866
G01 X34.7320 Y42.1677
G01 X34.6455 Y42.1563
G01 X34.5583 Y42.1525
G01 X34.4712 Y42.1563
G01 X34.3847 Y42.1677
G01 X34.2995 Y42.1866
G01 X34.2163 Y42.2128
G01 X34.1357 Y42.2462
G01 X34.0583 Y42.2865
G01 X33.9848 Y42.3333
G01 X33.9155 Y42.3864
G01 X33.8512 Y42.4454
G01 X33.7923 Y42.5097
G01 X33.7392 Y42.5789
G01 X33.6923 Y42.6525
G01 X33.6520 Y42.7299
G01 X33.6186 Y42.8105
G01 X33.5924 Y42.8937
G01 X33.5735 Y42.9788
G01 X33.5621 Y43.0653
G01 X33.5583 Y43.1525
G01 X33.5621 Y43.2397
G01 X33.5735 Y43.3261
G01 X33.5924 Y43.4113
G01 X33.6186 Y43.4945
G01 X33.6520 Y43.5751
G01 X33.6923 Y43.6525
G01 X33.7392 Y43.7261
G01 X33.7923 Y43.7953
G01 X33.8512 Y43.8596
G01 X33.9155 Y43.9185
G01 X33.9848 Y43.9716
G01 X34.0583 Y44.0185
G01 X34.1357 Y44.0588
G01 X34.2163 Y44.0922
G01 X34.2995 Y44.1184
G01 X34.3847 Y44.1373
G01 X34.4712 Y44.1487
G01 X34.5583 Y44.1525
G01 X34.6455 Y44.1487
G01 X34.7320 Y44.1373
G01 X34.8172 Y44.1184
G01 X34.9004 Y44.0922
G01 X34.9810 Y44.0588
G01 X35.0583 Y44.0185
G01 X35.1319 Y43.9716
G01 X35.2011 Y43.9185
G01 X35.2654 Y43.8596
G01 X35.3244 Y43.7953
G01 X35.3775 Y43.7261
G01 X35.4244 Y43.6525
G01 X35.4646 Y43.5751
G01 X35.4980 Y43.4945
G01 X35.5243 Y43.4113
G01 X35.5431 Y43.3261
G01 X35.5545 Y43.2397
G01 X35.5583 Y43.1525
G01 X35.5691 Y43.1009 F1000
G01 X35.5772 Y43.0488
G01 X35.5825 Y42.9964
G01 X35.5852 Y42.9438
G01 Y42.8911
G01 X35.5824 Y42.8384
G01 X35.5770 Y42.7860
G01 X35.5688 Y42.7339
G01 X35.5571 Y42.6779
G01 X35.5425 Y42.6226
G01 X35.5252 Y42.5681
G01 X35.5050 Y42.5146
G01 X35.4822 Y42.4622
G01 X35.4567 Y42.4110
G01 X35.4286 Y42.3611
G01 X35.3980 Y42.3128
G01 X35.3624 Y42.2624
G01 X35.3243 Y42.2139
G01 X35.2837 Y42.1674
G01 X35.2409 Y42.1230
G01 X35.1958 Y42.0808
G01 X35.1487 Y42.0410
G01 X35.0996 Y42.0036
G01 X35.0486 Y41.9688
G01 X34.9922 Y41.9342
G01 X34.9340 Y41.9025
G01 X34.8743 Y41.8739
G01 X34.8132 Y41.8482
G01 X34.7509 Y41.8257
G01 X34.6876 Y41.8064
G01 X34.6233 Y41.7903
G01 X34.5583 Y41.7775
G01 X34.4883 Y41.7673
G01 X34.4178 Y41.7607
G01 X34.3472 Y41.7576
G01 X34.2764 Y41.7581
G01 X34.2057 Y41.7621
G01 X34.1354 Y41.7697
G01 X34.0655 Y41.7809
G01 X33.9963 Y41.7955
G01 X33.9281 Y41.8215
G01 X33.8613 Y41.8508
G01 X33.7960 Y41.8834
G01 X33.7323 Y41.9191
G01 X33.6706 Y41.9579
G01 X33.6108 Y41.9997
G01 X33.5531 Y42.0444
G01 X33.4977 Y42.0919
G01 X33.4469 Y42.1452
G01 X33.3988 Y42.2009
G01 X33.3535 Y42.2590
G01 X33.3112 Y42.3192
G01 X33.2718 Y42.3814
G01 X33.2355 Y42.4454
G01 X33.2024 Y42.5112
G01 X33.1725 Y42.5785
G01 X33.1460 Y42.6472
G01 X33.1229 Y42.7171
G01 X33.1033 Y42.7880
G01 X33.0872 Y42.8599
G01 X33.0746 Y42.9324
G01 X33.0656 Y43.0055
G01 X33.0602 Y43.0789
G01 X33.0584 Y43.1525
G01 X33.0602 Y43.2261
G01 X33.0656 Y43.2995
G01 X33.0746 Y43.3726
G01 X33.0872 Y43.4451
G01 X33.1033 Y43.5170
G01 X33.1229 Y43.5879
G01 X33.1460 Y43.6578
G01 X33.1725 Y43.7265
G01 X33.2024 Y43.7938
G01 X33.2355 Y43.8596
G01 X33.2718 Y43.9236
G01 X33.3112 Y43.9858
G01 X33.3535 Y44.0460
G01 X33.3988 Y44.1041
G01 X33.4469 Y44.1598
G01 X33.4977 Y44.2131
G01 X33.5510 Y44.2639
G01 X33.6068 Y44.3120
G01 X33.6648 Y44.3573
G01 X33.7250 Y44.3997
G01 X33.7872 Y44.4391
G01 X33.8512 Y44.4754
G01 X33.9170 Y44.5085
G01 X33.9843 Y44.5383
G01 X34.0530 Y44.5648
G01 X34.1229 Y44.5879
G01 X34.1939 Y44.6075
G01 X34.2657 Y44.6236
G01 X34.3382 Y44.6362
G01 X34.4113 Y44.6452
G01 X34.4847 Y44.6507
G01 X34.5583 Y44.6525
G01 X34.6319 Y44.6507
G01 X34.7054 Y44.6452
G01 X34.7784 Y44.6362
G01 X34.8510 Y44.6236
G01 X34.9228 Y44.6075
G01 X34.9938 Y44.5879
G01 X35.0637 Y44.5648
G01 X35.1323 Y44.5383
G01 X35.1997 Y44.5085
G01 X35.2654 Y44.4754
G01 X35.3295 Y44.4391
G01 X35.3917 Y44.3997
G01 X35.4519 Y44.3573
G01 X35.5099 Y44.3120
G01 X35.5657 Y44.2639
G01 X35.6190 Y44.2131
G01 X35.6697 Y44.1598
G01 X35.7178 Y44.1041
G01 X35.7631 Y44.0460
G01 X35.8055 Y43.9858
G01 X35.8449 Y43.9236
G01 X35.8812 Y43.8596
G01 X35.9143 Y43.7938
G01 X35.9441 Y43.7265
G01 X35.9706 Y43.6578
G01 X35.9937 Y43.5879
G01 X36.0134 Y43.5170
G01 X36.0295 Y43.4451
G01 X36.0421 Y43.3726
G01 X36.0511 Y43.2995
G01 X36.0565 Y43.2261
G01 X36.0583 Y43.1525
G01 X36.0541 Y43.0404
G01 X36.0416 Y42.9289
G01 X36.0207 Y42.8187
G01 X35.9917 Y42.7104
G01 X35.9546 Y42.6045
G01 X35.9098 Y42.5017
G01 X35.8573 Y42.4025
G01 X35.7977 Y42.3075
G01 X35.7311 Y42.2173
G01 X35.6579 Y42.1323
G01 X35.5786 Y42.0529
G01 X35.4936 Y41.9798
G01 X35.4033 Y41.9132
G01 X35.3083 Y41.8535
G01 X35.2091 Y41.8011
G01 X35.1063 Y41.7562
G01 X35.0005 Y41.7192
G01 X34.8921 Y41.6901
G01 X34.7819 Y41.6693
G01 X34.6704 Y41.6567
G01 X34.5583 Y41.6525
G01 X34.4462 Y41.6567
G01 X34.3348 Y41.6693
G01 X34.2246 Y41.6901
G01 X34.1162 Y41.7192
G01 X34.0103 Y41.7562
G01 X33.9075 Y41.8011
G01 X33.8083 Y41.8535
G01 X33.7134 Y41.9132
G01 X33.6231 Y41.9798
G01 X33.5381 Y42.0529
G01 X33.4588 Y42.1323
G01 X33.3856 Y42.2173
G01 X33.3190 Y42.3075
G01 X33.2593 Y42.4025
G01 X33.2069 Y42.5017
G01 X33.1620 Y42.6045
G01 X33.1250 Y42.7104
G01 X33.0960 Y42.8187
G01 X33.0751 Y42.9289
G01 X33.0626 Y43.0404
G01 X33.0584 Y43.1525
G01 X33.0626 Y43.2646
G01 X33.0751 Y43.3761
G01 X33.0960 Y43.4863
G01 X33.1250 Y43.5946
G01 X33.1620 Y43.7005
G01 X33.2069 Y43.8033
G01 X33.2593 Y43.9025
G01 X33.3190 Y43.9975
G01 X33.3856 Y44.0877
G01 X33.4588 Y44.1727
G01 X33.5381 Y44.2521
G01 X33.6231 Y44.3252
G01 X33.7134 Y44.3918
G01 X33.8083 Y44.4515
G01 X33.9075 Y44.5039
G01 X34.0103 Y44.5488
G01 X34.1162 Y44.5858
G01 X34.2246 Y44.6149
G01 X34.3348 Y44.6357
G01 X34.4462 Y44.6483
G01 X34.5583 Y44.6525
G01 X34.6704 Y44.6483
G01 X34.7819 Y44.6357
G01 X34.8921 Y44.6149
G01 X35.0005 Y44.5858
G01 X35.1063 Y44.5488
G01 X35.2091 Y44.5039
G01 X35.3083 Y44.4515
G01 X35.4033 Y44.3918
G01 X35.4936 Y44.3252
G01 X35.5786 Y44.2521
G01 X35.6579 Y44.1727
G01 X35.7311 Y44.0877
G01 X35.7977 Y43.9975
G01 X35.8573 Y43.9025
G01 X35.9098 Y43.8033
G01 X35.9546 Y43.7005
G01 X35.9917 Y43.5946
G01 X36.0207 Y43.4863
G01 X36.0416 Y43.3761
G01 X36.0541 Y43.2646
G01 X36.0583 Y43.1525
M107
M106 S240
G01 X36.0552 Y43.0740 Z-5.4750 F400
M107
M106 S240
G01 X36.0460 Y42.9961 Z-5.4500
M107
M106 S240
G01 X36.0307 Y42.9190 Z-5.4250
M107
M106 S240
G01 X36.0094 Y42.8435 Z-5.4000
M107
M106 S240
G01 X35.9822 Y42.7698 Z-5.3750
M107
M106 S240
G01 X35.9493 Y42.6985 Z-5.3500
M107
M106 S240
G01 X35.9109 Y42.6300 Z-5.3250
M107
M106 S240
G01 X35.8673 Y42.5647 Z-5.3000
M107
M106 S240
G01 X35.8187 Y42.5030 Z-5.2750
M107
M106 S240
G01 X35.7654 Y42.4454 Z-5.2500
M107
M106 S240
G01 X35.7078 Y42.3921 Z-5.2250
M107
M106 S240
G01 X35.6461 Y42.3435 Z-5.2000
M107
M106 S240
G01 X35.5808 Y42.2999 Z-5.1750
M107
M106 S240
G01 X35.5123 Y42.2615 Z-5.1500
M107
M106 S240
G01 X35.4410 Y42.2286 Z-5.1250
M107
M106 S240
G01 X35.3673 Y42.2014 Z-5.1000
M107
M106 S240
G01 X35.2918 Y42.1801 Z-5.0750
M107
M106 S240
G01 X35.2147 Y42.1648 Z-5.0500
M107
M106 S240
G01 X35.1368 Y42.1556 Z-5.0250
M107
M106 S240
G01 X35.0583 Y42.1525 Z-5.0000
M107
G00 Z2.0000


;No. 2: Hole 86
G00 X56.7442 Y47.9719 Z2.0000
G00 Z0.5000
G01 Z0.0000 F400
G01 Z-1.0000
M106 S240
G01 X74.9562 F1000
G01 Y49.4719
G01 X73.1746
G01 X73.5098
G01 Y50.9719
G01 X74.9562
G01 Y52.4719
G01 X73.5098
G01 Y53.9719
G01 X74.9562
G01 Y55.4719
G01 X73.5098
M107
G00 Z2.0000
G00 X58.5258 Y47.9719
G00 Z0.5000
G01 Z-1.0000 F400
M106 S240
G01 Y49.4719 F1000
G01 X56.7442
G01 Y50.9719
G01 X58.1906
G01 Y52.4719
G01 X56.7442
G01 Y53.9719
G01 X58.1906
G01 Y55.4719
G01 X56.7442
G01 X56.5142 Y55.4488
G01 Y56.4660
G01 X58.4206
G01 Y50.3731
G01 X58.4241 Y50.2829
G01 X58.4347 Y50.1932
G01 X58.4524 Y50.1047
G01 X58.4769 Y50.0178
G01 X58.5081 Y49.9330
G01 X58.5459 Y49.8510
G01 X58.5900 Y49.7722
G01 X58.6402 Y49.6972
G01 X58.6961 Y49.6263
G01 X58.7574 Y49.5599
G01 X58.8237 Y49.4987
G01 X58.8946 Y49.4428
G01 X58.9697 Y49.3926
G01 X59.0485 Y49.3485
G01 X59.1305 Y49.3107
G01 X59.2152 Y49.2794
G01 X59.3021 Y49.2549
G01 X59.3907 Y49.2373
G01 X59.4804 Y49.2267
G01 X59.5706 Y49.2231
G01 X72.1298
G01 X72.2200 Y49.2267
G01 X72.3097 Y49.2373
G01 X72.3983 Y49.2549
G01 X72.4852 Y49.2794
G01 X72.5699 Y49.3107
G01 X72.6519 Y49.3485
G01 X72.7307 Y49.3926
G01 X72.8058 Y49.4428
G01 X72.8767 Y49.4987
G01 X72.9430 Y49.5599
G01 X73.0043 Y49.6263
G01 X73.0602 Y49.6972
G01 X73.1103 Y49.7722
G01 X73.1545 Y49.8510
G01 X73.1923 Y49.9330
G01 X73.2235 Y50.0178
G01 X73.2480 Y50.1047
G01 X73.2656 Y50.1932
G01 X73.2763 Y50.2829
G01 X73.2798 Y50.3731
G01 Y56.4660
G01 X75.1862
G01 Y46.9779
G01 X56.5142
G01 Y55.4488
G01 X56.7442 Y55.4719
M107
G00 Z2.0000


;No. 3: Hole 86
G00 X56.5142 Y46.9779 Z2.0000
G00 Z0.5000
G01 Z-1.0000 F400
M106 S240
G01 X56.3642 Y46.8279 F1000
G01 Y56.6160
G01 X58.5706
G01 Y50.3731
G01 X58.5737 Y50.2947
G01 X58.5829 Y50.2167
G01 X58.5982 Y50.1397
G01 X58.6195 Y50.0641
G01 X58.6467 Y49.9904
G01 X58.6796 Y49.9191
G01 X58.7179 Y49.8506
G01 X58.7616 Y49.7853
G01 X58.8102 Y49.7237
G01 X58.8635 Y49.6660
G01 X58.9211 Y49.6127
G01 X58.9828 Y49.5641
G01 X59.0481 Y49.5205
G01 X59.1166 Y49.4821
G01 X59.1879 Y49.4492
G01 X59.2616 Y49.4221
G01 X59.3371 Y49.4008
G01 X59.4141 Y49.3854
G01 X59.4921 Y49.3762
G01 X59.5706 Y49.3731
G01 X72.1298
G01 X72.1734 Y49.3741
G01 X72.2170 Y49.3769
G01 X72.2603 Y49.3817
G01 X72.3035 Y49.3883
G01 X72.3462 Y49.3968
G01 X72.3886 Y49.4072
G01 X72.4305 Y49.4194
G01 X72.4718 Y49.4334
G01 X72.5125 Y49.4492
G01 X72.5524 Y49.4668
G01 X72.5916 Y49.4861
G01 X72.6298 Y49.5071
G01 X72.6671 Y49.5297
G01 X72.7034 Y49.5540
G01 X72.7386 Y49.5798
G01 X72.7726 Y49.6071
G01 X72.8054 Y49.6358
G01 X72.8369 Y49.6660
G01 X72.8671 Y49.6975
G01 X72.8958 Y49.7303
G01 X72.9232 Y49.7644
G01 X72.9490 Y49.7995
G01 X72.9732 Y49.8358
G01 X72.9958 Y49.8731
G01 X73.0168 Y49.9114
G01 X73.0361 Y49.9505
G01 X73.0537 Y49.9904
G01 X73.0695 Y50.0311
G01 X73.0835 Y50.0724
G01 X73.0957 Y50.1143
G01 X73.1061 Y50.1567
G01 X73.1146 Y50.1995
G01 X73.1212 Y50.2426
G01 X73.1260 Y50.2860
G01 X73.1289 Y50.3295
G01 X73.1298 Y50.3731
G01 Y56.6160
G01 X75.3362
G01 Y46.8279
G01 X56.3642
G01 X56.5142 Y46.9779
M107
G00 Z0.0000
G00 Z2.0000


;No. 4: Hole 87
G00 X57.3448 Y62.5871 Z2.0000
G00 Z0.5000
G01 Z0.0000 F400
G01 Z-1.0000
M106 S240
G01 X74.3392 F1000
G01 X74.4998 Y62.4207
G01 X74.4101 Y62.3126
G01 X74.3145 Y62.2098
G01 X74.2132 Y62.1125
G01 X74.1066 Y62.0210
G01 X73.9950 Y61.9357
G01 X73.8788 Y61.8569
G01 X73.7583 Y61.7847
G01 X73.6340 Y61.7194
G01 X73.5062 Y61.6612
G01 X73.3753 Y61.6103
G01 X73.2417 Y61.5668
G01 X73.1059 Y61.5310
G01 X72.9683 Y61.5029
G01 X72.8293 Y61.4825
G01 X72.6894 Y61.4700
G01 X72.5491 Y61.4654
G01 X59.1531
G01 X59.0231 Y61.4669
G01 X58.8934 Y61.4754
G01 X58.7643 Y61.4908
G01 X58.6362 Y61.5131
G01 X58.5095 Y61.5422
G01 X58.3846 Y61.5780
G01 X58.2617 Y61.6205
G01 X58.1413 Y61.6695
G01 X58.0237 Y61.7249
G01 X57.9092 Y61.7865
G01 X57.7982 Y61.8542
G01 X57.6910 Y61.9277
G01 X57.5878 Y62.0068
G01 X57.4891 Y62.0914
G01 X57.3950 Y62.1811
G01 X57.3058 Y62.2758
G01 X57.3167 Y62.2632
G01 X57.2265 Y62.3660
G01 X57.1411 Y62.4728
G01 X57.0607 Y62.5833
G01 X56.9853 Y62.6975
G01 X56.9153 Y62.8150
G01 X56.8507 Y62.9355
G01 X56.7917 Y63.0589
G01 X56.7384 Y63.1848
G01 X56.6909 Y63.3130
G01 X56.6493 Y63.4433
G01 X56.6137 Y63.5753
G01 X56.5842 Y63.7088
G01 X75.1164 Y63.7089
G01 X75.0910 Y63.5913
G01 X75.0607 Y63.4749
G01 X75.0254 Y63.3599
G01 X74.9852 Y63.2465
G01 X74.9403 Y63.1349
G01 X74.8907 Y63.0253
G01 X74.8364 Y62.9179
G01 X74.7777 Y62.8129
G01 X74.7145 Y62.7105
G01 X74.6471 Y62.6109
G01 X74.5755 Y62.5142
G01 X74.4998 Y62.4207
G01 X74.3392 Y62.5871
M107
G00 Z2.0000


;No. 5: Hole 87
G00 X57.4534 Y62.1282 Z2.0000
G00 Z0.5000
G01 Z-1.0000 F400
M106 S240
G01 X57.3512 Y62.0183 F1000
G01 X57.3110 Y62.0564
G01 X57.2716 Y62.0952
G01 X57.2328 Y62.1347
G01 X57.1948 Y62.1748
G01 X57.2034 Y62.1649
G01 X57.0498 Y62.3462
G01 X56.9101 Y62.5384
G01 X56.7853 Y62.7406
G01 X56.6759 Y62.9515
G01 X56.5826 Y63.1701
G01 X56.5060 Y63.3950
G01 X56.4464 Y63.6250
G01 X56.4042 Y63.8588
G01 X75.2967 Y63.8554
G01 X75.2735 Y63.7090
G01 X75.2431 Y63.5639
G01 X75.2054 Y63.4205
G01 X75.1606 Y63.2792
G01 X75.1088 Y63.1403
G01 X75.0501 Y63.0041
G01 X74.9847 Y62.8711
G01 X74.9127 Y62.7415
G01 X74.8343 Y62.6156
G01 X74.7498 Y62.4938
G01 X74.6593 Y62.3764
G01 X74.5630 Y62.2637
G01 X74.4612 Y62.1559
G01 X74.3541 Y62.0533
G01 X74.2421 Y61.9562
G01 X74.1254 Y61.8648
G01 X74.0042 Y61.7794
G01 X73.8789 Y61.7001
G01 X73.7498 Y61.6272
G01 X73.6173 Y61.5608
G01 X73.4815 Y61.5011
G01 X73.3430 Y61.4483
G01 X73.2020 Y61.4024
G01 X73.0589 Y61.3637
G01 X72.9327 Y61.3423
G01 X72.8057 Y61.3271
G01 X72.6780 Y61.3181
G01 X72.5501 Y61.3154
G01 X59.1520
G01 X59.0281 Y61.3165
G01 X58.9044 Y61.3235
G01 X58.7812 Y61.3366
G01 X58.6587 Y61.3556
G01 X58.5374 Y61.3805
G01 X58.4174 Y61.4112
G01 X58.2990 Y61.4478
G01 X58.1825 Y61.4900
G01 X58.0682 Y61.5378
G01 X57.9564 Y61.5911
G01 X57.8473 Y61.6498
G01 X57.7411 Y61.7137
G01 X57.6382 Y61.7827
G01 X57.5388 Y61.8566
G01 X57.4430 Y61.9352
G01 X57.3512 Y62.0183
G01 X57.4534 Y62.1282
M107
G00 Z0.0000
G00 Z2.0000


;No. 6: Hole 85
G00 X82.6745 Y62.0934 Z2.0000
G00 Z0.5000
G01 Z0.0000 F400
G01 Z-1.0000
M106 S240
G01 X85.1503 F1000
G01 X86.5391 Y60.5934
G01 X83.5696
G01 X83.5699 Y59.0934
G01 X87.9278
G01 X89.3165 Y57.5934
G01 X83.5699
G01 Y56.0934
G01 X85.0182
G01 X85.0163 Y54.5934
G01 X83.5699
G01 Y53.0934
G01 X85.0163
G01 Y51.5934
G01 X83.5699
G01 Y50.0934
G01 X85.0163
G01 Y48.5934
G01 X83.5699
M107
G00 Z2.0000
G00 X88.2294 Y57.5934
G00 Z0.5000
G01 Z-1.0000 F400
M106 S240
G01 Y56.0934 F1000
G01 X90.7053
G01 X89.6181 Y54.5934
G01 X92.0940
G01 X91.0069 Y53.0934
G01 X93.4827
G01 X92.3956 Y51.5934
G01 X95.0003
G01 X93.7843 Y50.0934
G01 X98.4291
G01 Y48.5934
G01 X95.1731
G01 X96.2049 Y51.5934
G01 X98.4291
G01 Y53.0934
G01 X96.9827
G01 Y54.5934
G01 X98.4291
G01 Y56.0934
G01 X96.9827
G01 Y57.5934
G01 X98.4291
G01 Y59.0934
G01 X96.9827
G01 Y60.5934
G01 X98.4291
G01 Y62.0934
G01 X96.9827
G01 X96.7527 Y62.0799
G01 Y63.7088
G01 X98.6591
G01 Y46.9779
G01 X96.3553
G01 X87.2401 Y56.8233
G01 X87.1703 Y56.8926
G01 X87.0948 Y56.9556
G01 X87.0143 Y57.0119
G01 X86.9291 Y57.0612
G01 X86.8402 Y57.1030
G01 X86.7479 Y57.1370
G01 X86.6531 Y57.1630
G01 X86.5564 Y57.1809
G01 X86.4585 Y57.1904
G01 X86.3602 Y57.1915
G01 X86.2622 Y57.1842
G01 X86.1651 Y57.1686
G01 X86.0697 Y57.1447
G01 X85.9767 Y57.1128
G01 X85.8868 Y57.0731
G01 X85.8006 Y57.0258
G01 X85.7187 Y56.9713
G01 X85.6418 Y56.9100
G01 X85.5705 Y56.8424
G01 X85.5051 Y56.7689
G01 X85.4463 Y56.6902
G01 X85.3944 Y56.6066
G01 X85.3498 Y56.5190
G01 X85.3129 Y56.4279
G01 X85.2839 Y56.3339
G01 X85.2631 Y56.2378
G01 X85.2505 Y56.1403
G01 X85.2463 Y56.0421
G01 Y46.9779
G01 X83.3399
G01 Y60.5855
G01 X83.3376 Y60.6570
G01 X83.3310 Y60.7283
G01 X83.3199 Y60.7990
G01 X83.3044 Y60.8689
G01 X83.2846 Y60.9377
G01 X83.2606 Y61.0051
G01 X83.2324 Y61.0709
G01 X83.2002 Y61.1348
G01 X83.1641 Y61.1966
G01 X83.1242 Y61.2560
G01 X83.0807 Y61.3128
G01 X83.0337 Y61.3668
G01 X80.8654 Y63.7088
G01 X83.9681
G01 X94.7588 Y52.0536
G01 X94.8287 Y51.9843
G01 X94.9041 Y51.9213
G01 X94.9847 Y51.8650
G01 X95.0698 Y51.8157
G01 X95.1588 Y51.7739
G01 X95.2511 Y51.7399
G01 X95.3459 Y51.7139
G01 X95.4426 Y51.6960
G01 X95.5404 Y51.6865
G01 X95.6388 Y51.6854
G01 X95.7368 Y51.6927
G01 X95.8339 Y51.7083
G01 X95.9293 Y51.7322
G01 X96.0223 Y51.7641
G01 X96.1122 Y51.8038
G01 X96.1984 Y51.8511
G01 X96.2802 Y51.9056
G01 X96.3571 Y51.9669
G01 X96.4285 Y52.0345
G01 X96.4939 Y52.1080
G01 X96.5527 Y52.1867
G01 X96.6046 Y52.2703
G01 X96.6492 Y52.3579
G01 X96.6861 Y52.4490
G01 X96.7151 Y52.5430
G01 X96.7359 Y52.6391
G01 X96.7485 Y52.7366
G01 X96.7527 Y52.8348
G01 Y62.0799
G01 X96.9827 Y62.0934
M107
G00 Z2.0000


;No. 7: Hole 85
G00 X83.3399 Y46.9779 Z2.0000
G00 Z0.5000
G01 Z-1.0000 F400
M106 S240
G01 X83.1899 Y46.8279 F1000
G01 Y60.5855
G01 X83.1888 Y60.6322
G01 X83.1855 Y60.6787
G01 X83.1801 Y60.7251
G01 X83.1725 Y60.7712
G01 X83.1627 Y60.8168
G01 X83.1509 Y60.8620
G01 X83.1369 Y60.9065
G01 X83.1209 Y60.9503
G01 X83.1029 Y60.9934
G01 X83.0829 Y61.0356
G01 X83.0609 Y61.0767
G01 X83.0370 Y61.1169
G01 X83.0113 Y61.1558
G01 X82.9838 Y61.1935
G01 X82.9546 Y61.2299
G01 X82.9237 Y61.2649
G01 X80.5221 Y63.8588
G01 X84.0337
G01 X94.8689 Y52.1555
G01 X94.9010 Y52.1224
G01 X94.9345 Y52.0908
G01 X94.9695 Y52.0609
G01 X95.0058 Y52.0325
G01 X95.0433 Y52.0059
G01 X95.0821 Y51.9810
G01 X95.1219 Y51.9580
G01 X95.1628 Y51.9368
G01 X95.2046 Y51.9175
G01 X95.2473 Y51.9001
G01 X95.2907 Y51.8848
G01 X95.3347 Y51.8714
G01 X95.3794 Y51.8601
G01 X95.4245 Y51.8508
G01 X95.4700 Y51.8437
G01 X95.5158 Y51.8386
G01 X95.5617 Y51.8357
G01 X95.6077 Y51.8348
G01 X95.6538 Y51.8361
G01 X95.6997 Y51.8395
G01 X95.7454 Y51.8451
G01 X95.7908 Y51.8527
G01 X95.8358 Y51.8624
G01 X95.8804 Y51.8741
G01 X95.9243 Y51.8879
G01 X95.9675 Y51.9038
G01 X96.0100 Y51.9215
G01 X96.0516 Y51.9413
G01 X96.0923 Y51.9629
G01 X96.1319 Y51.9863
G01 X96.1704 Y52.0116
G01 X96.2077 Y52.0386
G01 X96.2437 Y52.0673
G01 X96.2784 Y52.0976
G01 X96.3116 Y52.1295
G01 X96.3433 Y52.1629
G01 X96.3735 Y52.1977
G01 X96.4020 Y52.2338
G01 X96.4288 Y52.2713
G01 X96.4539 Y52.3099
G01 X96.4771 Y52.3496
G01 X96.4985 Y52.3904
G01 X96.5180 Y52.4321
G01 X96.5356 Y52.4747
G01 X96.5512 Y52.5180
G01 X96.5648 Y52.5620
G01 X96.5763 Y52.6066
G01 X96.5858 Y52.6517
G01 X96.5932 Y52.6971
G01 X96.5985 Y52.7429
G01 X96.6016 Y52.7888
G01 X96.6027 Y52.8348
G01 Y63.8588
G01 X98.8091
G01 Y46.8279
G01 X96.2897
G01 X87.1301 Y56.7214
G01 X87.0694 Y56.7816
G01 X87.0037 Y56.8364
G01 X86.9336 Y56.8854
G01 X86.8596 Y56.9282
G01 X86.7823 Y56.9646
G01 X86.7020 Y56.9942
G01 X86.6196 Y57.0168
G01 X86.5355 Y57.0323
G01 X86.4504 Y57.0406
G01 X86.3649 Y57.0416
G01 X86.2797 Y57.0353
G01 X86.1952 Y57.0217
G01 X86.1123 Y57.0009
G01 X86.0314 Y56.9731
G01 X85.9532 Y56.9386
G01 X85.8783 Y56.8975
G01 X85.8071 Y56.8501
G01 X85.7402 Y56.7968
G01 X85.6782 Y56.7380
G01 X85.6213 Y56.6741
G01 X85.5702 Y56.6056
G01 X85.5251 Y56.5330
G01 X85.4863 Y56.4568
G01 X85.4542 Y56.3775
G01 X85.4290 Y56.2958
G01 X85.4109 Y56.2123
G01 X85.3999 Y56.1275
G01 X85.3963 Y56.0421
G01 Y46.8279
G01 X83.1899
G01 X83.3399 Y46.9779
M107
G00 Z0.0000
G00 Z2.0000


;No. 8: Hole 84
G00 X103.6883 Y48.5934 Z2.0000
G00 Z0.5000
G01 Z0.0000 F400
G01 Z-1.0000
M106 S240
G01 X121.6058 F1000
G01 X105.1661
G01 Y50.0934
G01 X103.6883
G01 Y51.5934
G01 X105.1364
G01 Y53.0934
G01 X103.6883
G01 Y54.5934
G01 X105.1364
G01 Y56.0934
G01 X103.6883
G01 Y57.5934
G01 X105.1364
G01 Y59.0934
G01 X103.6883
G01 Y60.5934
G01 X105.1364
G01 Y62.0934
G01 X103.6883
G01 X103.4583 Y62.0788
G01 Y63.7088
G01 X105.3664
G01 Y50.3731
G01 X105.3699 Y50.2829
G01 X105.3805 Y50.1932
G01 X105.3982 Y50.1047
G01 X105.4227 Y50.0178
G01 X105.4539 Y49.9330
G01 X105.4917 Y49.8510
G01 X105.5358 Y49.7722
G01 X105.5860 Y49.6972
G01 X105.6419 Y49.6263
G01 X105.7032 Y49.5599
G01 X105.7695 Y49.4987
G01 X105.8404 Y49.4428
G01 X105.9155 Y49.3926
G01 X105.9943 Y49.3485
G01 X106.0763 Y49.3107
G01 X106.1610 Y49.2794
G01 X106.2479 Y49.2549
G01 X106.3365 Y49.2373
G01 X106.4262 Y49.2267
G01 X106.5164 Y49.2231
G01 X122.0620
G01 X122.0275 Y49.0668
G01 X121.9841 Y48.9126
G01 X121.9320 Y48.7612
G01 X121.8714 Y48.6130
G01 X121.8024 Y48.4685
G01 X121.7253 Y48.3282
G01 X121.6403 Y48.1924
G01 X121.5478 Y48.0618
G01 X121.4479 Y47.9366
G01 X121.3410 Y47.8174
G01 X121.2276 Y47.7044
G01 X121.1079 Y47.5980
G01 X120.9823 Y47.4987
G01 X120.8512 Y47.4067
G01 X120.7151 Y47.3223
G01 X120.5745 Y47.2458
G01 X120.4297 Y47.1774
G01 X120.2812 Y47.1174
G01 X120.1296 Y47.0660
G01 X119.9752 Y47.0233
G01 X119.8561 Y47.0031
G01 X119.7361 Y46.9888
G01 X119.6155 Y46.9804
G01 X119.4947 Y46.9779
G01 X103.4583
G01 Y62.0788
G01 X103.6883 Y62.0934
M107
G00 Z2.0000


;No. 9: Hole 84
G00 X103.4583 Y46.9779 Z2.0000
G00 Z0.5000
G01 Z-1.0000 F400
M106 S240
G01 X103.3083 Y46.8279 F1000
G01 Y63.8588
G01 X105.5164
G01 Y50.3731
G01 X105.5195 Y50.2942
G01 X105.5289 Y50.2157
G01 X105.5444 Y50.1382
G01 X105.5660 Y50.0622
G01 X105.5935 Y49.9881
G01 X105.6268 Y49.9165
G01 X105.6656 Y49.8476
G01 X105.7097 Y49.7821
G01 X105.7589 Y49.7203
G01 X105.8128 Y49.6625
G01 X105.8711 Y49.6091
G01 X105.9335 Y49.5606
G01 X105.9994 Y49.5171
G01 X106.0686 Y49.4789
G01 X106.1406 Y49.4464
G01 X106.2150 Y49.4196
G01 X106.2912 Y49.3988
G01 X106.3688 Y49.3840
G01 X106.4474 Y49.3755
G01 X106.5264 Y49.3731
G01 X122.2420 Y49.3683
G01 X122.2186 Y49.2219
G01 X122.1881 Y49.0768
G01 X122.1503 Y48.9335
G01 X122.1054 Y48.7922
G01 X122.0535 Y48.6534
G01 X121.9948 Y48.5172
G01 X121.9294 Y48.3842
G01 X121.8574 Y48.2547
G01 X121.7790 Y48.1288
G01 X121.6944 Y48.0071
G01 X121.6039 Y47.8897
G01 X121.5077 Y47.7769
G01 X121.4059 Y47.6691
G01 X121.2989 Y47.5665
G01 X121.1869 Y47.4694
G01 X121.0702 Y47.3780
G01 X120.9491 Y47.2925
G01 X120.8239 Y47.2132
G01 X120.6949 Y47.1402
G01 X120.5624 Y47.0737
G01 X120.4267 Y47.0139
G01 X120.2883 Y46.9610
G01 X120.1474 Y46.9150
G01 X120.0043 Y46.8761
G01 X119.8782 Y46.8547
G01 X119.7512 Y46.8395
G01 X119.6236 Y46.8306
G01 X119.4957 Y46.8279
G01 X103.3083
G01 X103.4583 Y46.9779
M107
G00 Z0.0000
G00 Z2.0000


;No. 10: Hole 83
G00 X127.6546 Y60.5934 Z2.0000
G00 Z0.5000
G01 Z0.0000 F400
G01 Z-1.0000
M106 S240
G01 X130.1304 F1000
G01 X129.0433 Y59.0934
G01 X131.5191
G01 X130.4320 Y57.5934
G01 X132.9079
G01 X131.8208 Y56.0934
G01 X134.2966
G01 X133.2095 Y54.5934
G01 X139.3250
G01 X138.2392 Y56.0934
G01 X140.7137
G01 X139.6276 Y57.5934
G01 X142.1024
G01 X141.0160 Y59.0934
G01 X143.4911
G01 X142.4043 Y60.5934
G01 X144.8799
G01 X145.3732 Y62.0934
G01 X143.7438
M107
G00 Z2.0000
G00 X137.9362 Y54.5934
G00 Z0.5000
G01 Z-1.0000 F400
M106 S240
G01 Y53.0934 F1000
G01 X134.5982
G01 X135.5421
G01 Y51.5934
G01 X136.9924
G01 X136.9904 Y50.0934
G01 X135.5440
G01 Y48.5934
G01 X136.9904
M107
G00 Z2.0000
G00 X128.7906 Y60.5934
G00 Z0.5000
G01 Z-1.0000 F400
M106 S240
G01 Y62.0934 F1000
G01 X127.1612
G01 X126.9312 Y62.1017
G01 Y63.7088
G01 X128.8376
G01 X128.8164 Y63.4231
G01 X128.8126 Y63.1365
G01 X128.8264 Y62.8503
G01 X128.8576 Y62.5654
G01 X128.8753 Y62.4869
G01 X128.8985 Y62.4098
G01 X128.9270 Y62.3345
G01 X128.9606 Y62.2614
G01 X128.9994 Y62.1908
G01 X129.0429 Y62.1231
G01 X129.0911 Y62.0586
G01 X129.1437 Y61.9976
G01 X135.4242 Y55.2140
G01 X135.4913 Y55.1472
G01 X135.5638 Y55.0861
G01 X135.6410 Y55.0312
G01 X135.7225 Y54.9829
G01 X135.8076 Y54.9414
G01 X135.8959 Y54.9071
G01 X135.9867 Y54.8802
G01 X136.0795 Y54.8608
G01 X136.1735 Y54.8491
G01 X136.2681 Y54.8453
G01 X136.3628 Y54.8492
G01 X136.4568 Y54.8608
G01 X136.5495 Y54.8802
G01 X136.6403 Y54.9072
G01 X136.7286 Y54.9415
G01 X136.8138 Y54.9830
G01 X136.8952 Y55.0313
G01 X136.9724 Y55.0862
G01 X137.0449 Y55.1473
G01 X137.1120 Y55.2141
G01 X143.3908 Y61.9977
G01 X143.4378 Y62.0517
G01 X143.4812 Y62.1086
G01 X143.5211 Y62.1680
G01 X143.5572 Y62.2297
G01 X143.5894 Y62.2936
G01 X143.6176 Y62.3594
G01 X143.6416 Y62.4268
G01 X143.6614 Y62.4956
G01 X143.6768 Y62.5655
G01 X143.6879 Y62.6361
G01 X143.6946 Y62.7074
G01 X143.6968 Y62.7789
G01 Y63.7088
G01 X145.6032
G01 Y61.0361
G01 X137.5266 Y52.3123
G01 X137.4796 Y52.2583
G01 X137.4361 Y52.2015
G01 X137.3962 Y52.1421
G01 X137.3601 Y52.0803
G01 X137.3279 Y52.0164
G01 X137.2997 Y51.9506
G01 X137.2757 Y51.8832
G01 X137.2559 Y51.8144
G01 X137.2404 Y51.7445
G01 X137.2293 Y51.6738
G01 X137.2227 Y51.6026
G01 X137.2204 Y51.5310
G01 Y46.9779
G01 X135.3140
G01 Y51.5310
G01 X135.3118 Y51.6026
G01 X135.3051 Y51.6738
G01 X135.2940 Y51.7445
G01 X135.2786 Y51.8144
G01 X135.2588 Y51.8832
G01 X135.2347 Y51.9506
G01 X135.2066 Y52.0164
G01 X135.1744 Y52.0803
G01 X135.1382 Y52.1421
G01 X135.0984 Y52.2015
G01 X135.0548 Y52.2583
G01 X135.0079 Y52.3123
G01 X126.9312 Y61.0361
G01 Y62.1017
G01 X127.1612 Y62.0934
M107
G00 Z2.0000


;No. 11: Hole 83
G00 X126.9312 Y61.0361 Z2.0000
G00 Z0.5000
G01 Z-1.0000 F400
M106 S240
G01 X126.7812 Y60.9774 F1000
G01 Y63.8588
G01 X128.9876
G01 X128.9689 Y63.5541
G01 X128.9643 Y63.2489
G01 X128.9738 Y62.9437
G01 X128.9974 Y62.6393
G01 X129.0108 Y62.5647
G01 X129.0299 Y62.4913
G01 X129.0544 Y62.4195
G01 X129.0843 Y62.3498
G01 X129.1195 Y62.2826
G01 X129.1596 Y62.2182
G01 X129.2044 Y62.1571
G01 X129.2538 Y62.0995
G01 X135.5343 Y55.3159
G01 X135.5661 Y55.2830
G01 X135.5994 Y55.2516
G01 X135.6342 Y55.2218
G01 X135.6702 Y55.1936
G01 X135.7075 Y55.1671
G01 X135.7460 Y55.1423
G01 X135.7856 Y55.1193
G01 X135.8262 Y55.0982
G01 X135.8677 Y55.0789
G01 X135.9100 Y55.0615
G01 X135.9531 Y55.0461
G01 X135.9969 Y55.0327
G01 X136.0412 Y55.0213
G01 X136.0860 Y55.0120
G01 X136.1312 Y55.0047
G01 X136.1767 Y54.9994
G01 X136.2224 Y54.9963
G01 X136.2681 Y54.9953
G01 X136.3139 Y54.9963
G01 X136.3595 Y54.9994
G01 X136.4050 Y55.0047
G01 X136.4502 Y55.0120
G01 X136.4950 Y55.0213
G01 X136.5393 Y55.0327
G01 X136.5831 Y55.0462
G01 X136.6262 Y55.0616
G01 X136.6685 Y55.0789
G01 X136.7100 Y55.0982
G01 X136.7506 Y55.1194
G01 X136.7902 Y55.1424
G01 X136.8287 Y55.1672
G01 X136.8660 Y55.1937
G01 X136.9020 Y55.2219
G01 X136.9368 Y55.2517
G01 X136.9701 Y55.2831
G01 X137.0019 Y55.3160
G01 X143.2807 Y62.0996
G01 X143.3408 Y62.1710
G01 X143.3940 Y62.2477
G01 X143.4399 Y62.3289
G01 X143.4779 Y62.4141
G01 X143.5079 Y62.5025
G01 X143.5295 Y62.5933
G01 X143.5425 Y62.6857
G01 X143.5468 Y62.7789
G01 Y63.8588
G01 X145.7532
G01 Y60.9774
G01 X137.6366 Y52.2104
G01 X137.6057 Y52.1754
G01 X137.5765 Y52.1390
G01 X137.5490 Y52.1013
G01 X137.5233 Y52.0624
G01 X137.4994 Y52.0223
G01 X137.4774 Y51.9811
G01 X137.4574 Y51.9389
G01 X137.4394 Y51.8959
G01 X137.4233 Y51.8520
G01 X137.4094 Y51.8075
G01 X137.3975 Y51.7623
G01 X137.3878 Y51.7167
G01 X137.3802 Y51.6706
G01 X137.3748 Y51.6243
G01 X137.3715 Y51.5777
G01 X137.3704 Y51.5310
G01 Y46.8279
G01 X135.1640
G01 Y51.5310
G01 X135.1629 Y51.5777
G01 X135.1597 Y51.6243
G01 X135.1542 Y51.6706
G01 X135.1466 Y51.7167
G01 X135.1369 Y51.7623
G01 X135.1250 Y51.8075
G01 X135.1111 Y51.8520
G01 X135.0951 Y51.8959
G01 X135.0770 Y51.9389
G01 X135.0570 Y51.9811
G01 X135.0350 Y52.0223
G01 X135.0112 Y52.0624
G01 X134.9855 Y52.1013
G01 X134.9579 Y52.1390
G01 X134.9287 Y52.1754
G01 X134.8978 Y52.2104
G01 X126.7812 Y60.9774
G01 X126.9312 Y61.0361
M107
G00 Z0.0000
G00 Z2.0000


;No. 12: Helical drill 15
G00 X168.5583 Y43.1525 Z2.0000
G00 Z0.5000
M106 S240
G01 X168.5545 Y43.0654 Z0.4722 F400
G01 X168.5431 Y42.9789 Z0.4444
G01 X168.5243 Y42.8937 Z0.4167
G01 X168.4980 Y42.8105 Z0.3889
G01 X168.4646 Y42.7299 Z0.3611
G01 X168.4244 Y42.6525 Z0.3333
G01 X168.3775 Y42.5790 Z0.3056
G01 X168.3244 Y42.5097 Z0.2778
G01 X168.2654 Y42.4454 Z0.2500
G01 X168.2011 Y42.3865 Z0.2222
G01 X168.1319 Y42.3334 Z0.1944
G01 X168.0583 Y42.2865 Z0.1667
G01 X167.9810 Y42.2462 Z0.1389
G01 X167.9004 Y42.2128 Z0.1111
G01 X167.8172 Y42.1866 Z0.0833
G01 X167.7320 Y42.1677 Z0.0556
G01 X167.6455 Y42.1563 Z0.0278
G01 X167.5583 Y42.1525 Z0.0000
G01 X167.4712 Y42.1563 Z-0.0278
G01 X167.3847 Y42.1677 Z-0.0556
G01 X167.2995 Y42.1866 Z-0.0833
G01 X167.2163 Y42.2128 Z-0.1111
G01 X167.1357 Y42.2462 Z-0.1389
G01 X167.0583 Y42.2865 Z-0.1667
G01 X166.9848 Y42.3334 Z-0.1944
G01 X166.9156 Y42.3865 Z-0.2222
G01 X166.8512 Y42.4454 Z-0.2500
G01 X166.7923 Y42.5097 Z-0.2778
G01 X166.7392 Y42.5790 Z-0.3056
G01 X166.6923 Y42.6525 Z-0.3333
G01 X166.6520 Y42.7299 Z-0.3611
G01 X166.6186 Y42.8105 Z-0.3889
G01 X166.5924 Y42.8937 Z-0.4167
G01 X166.5735 Y42.9789 Z-0.4444
G01 X166.5621 Y43.0654 Z-0.4722
G01 X166.5583 Y43.1525 Z-0.5000
G01 X166.5621 Y43.2397 Z-0.5278
G01 X166.5735 Y43.3262 Z-0.5556
G01 X166.5924 Y43.4113 Z-0.5833
G01 X166.6186 Y43.4946 Z-0.6111
G01 X166.6520 Y43.5751 Z-0.6389
G01 X166.6923 Y43.6525 Z-0.6667
G01 X166.7392 Y43.7261 Z-0.6944
G01 X166.7923 Y43.7953 Z-0.7222
G01 X166.8512 Y43.8596 Z-0.7500
G01 X166.9156 Y43.9186 Z-0.7778
G01 X166.9848 Y43.9717 Z-0.8056
G01 X167.0583 Y44.0186 Z-0.8333
G01 X167.1357 Y44.0588 Z-0.8611
G01 X167.2163 Y44.0922 Z-0.8889
G01 X167.2995 Y44.1185 Z-0.9167
G01 X167.3847 Y44.1373 Z-0.9444
G01 X167.4712 Y44.1487 Z-0.9722
G01 X167.5583 Y44.1525 Z-1.0000
G01 X167.6455 Y44.1487 Z-1.0278
G01 X167.7320 Y44.1373 Z-1.0556
G01 X167.8172 Y44.1185 Z-1.0833
G01 X167.9004 Y44.0922 Z-1.1111
G01 X167.9810 Y44.0588 Z-1.1389
G01 X168.0583 Y44.0186 Z-1.1667
G01 X168.1319 Y43.9717 Z-1.1944
G01 X168.2011 Y43.9186 Z-1.2222
G01 X168.2654 Y43.8596 Z-1.2500
G01 X168.3244 Y43.7953 Z-1.2778
G01 X168.3775 Y43.7261 Z-1.3056
G01 X168.4244 Y43.6525 Z-1.3333
G01 X168.4646 Y43.5751 Z-1.3611
G01 X168.4980 Y43.4946 Z-1.3889
G01 X168.5243 Y43.4113 Z-1.4167
G01 X168.5431 Y43.3262 Z-1.4444
G01 X168.5545 Y43.2397 Z-1.4722
G01 X168.5583 Y43.1525 Z-1.5000
G01 X168.5545 Y43.0654
G01 X168.5431 Y42.9789
G01 X168.5243 Y42.8937
G01 X168.4980 Y42.8105
G01 X168.4646 Y42.7299
G01 X168.4244 Y42.6525
G01 X168.3775 Y42.5790
G01 X168.3244 Y42.5097
G01 X168.2654 Y42.4454
G01 X168.2011 Y42.3865
G01 X168.1319 Y42.3334
G01 X168.0583 Y42.2865
G01 X167.9810 Y42.2462
G01 X167.9004 Y42.2128
G01 X167.8172 Y42.1866
G01 X167.7320 Y42.1677
G01 X167.6455 Y42.1563
G01 X167.5583 Y42.1525
G01 X167.4712 Y42.1563
G01 X167.3847 Y42.1677
G01 X167.2995 Y42.1866
G01 X167.2163 Y42.2128
G01 X167.1357 Y42.2462
G01 X167.0583 Y42.2865
G01 X166.9848 Y42.3334
G01 X166.9156 Y42.3865
G01 X166.8512 Y42.4454
G01 X166.7923 Y42.5097
G01 X166.7392 Y42.5790
G01 X166.6923 Y42.6525
G01 X166.6520 Y42.7299
G01 X166.6186 Y42.8105
G01 X166.5924 Y42.8937
G01 X166.5735 Y42.9789
G01 X166.5621 Y43.0654
G01 X166.5583 Y43.1525
G01 X166.5621 Y43.2397
G01 X166.5735 Y43.3262
G01 X166.5924 Y43.4113
G01 X166.6186 Y43.4946
G01 X166.6520 Y43.5751
G01 X166.6923 Y43.6525
G01 X166.7392 Y43.7261
G01 X166.7923 Y43.7953
G01 X166.8512 Y43.8596
G01 X166.9156 Y43.9186
G01 X166.9848 Y43.9717
G01 X167.0583 Y44.0186
G01 X167.1357 Y44.0588
G01 X167.2163 Y44.0922
G01 X167.2995 Y44.1185
G01 X167.3847 Y44.1373
G01 X167.4712 Y44.1487
G01 X167.5583 Y44.1525
G01 X167.6455 Y44.1487
G01 X167.7320 Y44.1373
G01 X167.8172 Y44.1185
G01 X167.9004 Y44.0922
G01 X167.9810 Y44.0588
G01 X168.0583 Y44.0186
G01 X168.1319 Y43.9717
G01 X168.2011 Y43.9186
G01 X168.2654 Y43.8596
G01 X168.3244 Y43.7953
G01 X168.3775 Y43.7261
G01 X168.4244 Y43.6525
G01 X168.4646 Y43.5751
G01 X168.4980 Y43.4946
G01 X168.5243 Y43.4113
G01 X168.5431 Y43.3262
G01 X168.5545 Y43.2397
G01 X168.5583 Y43.1525
G01 X168.5691 Y43.1009 F1000
G01 X168.5772 Y43.0489
G01 X168.5825 Y42.9964
G01 X168.5852 Y42.9438
G01 Y42.8911
G01 X168.5824 Y42.8385
G01 X168.5770 Y42.7860
G01 X168.5688 Y42.7340
G01 X168.5571 Y42.6780
G01 X168.5426 Y42.6227
G01 X168.5252 Y42.5682
G01 X168.5050 Y42.5146
G01 X168.4822 Y42.4622
G01 X168.4567 Y42.4110
G01 X168.4286 Y42.3612
G01 X168.3980 Y42.3128
G01 X168.3624 Y42.2624
G01 X168.3243 Y42.2139
G01 X168.2838 Y42.1674
G01 X168.2409 Y42.1230
G01 X168.1958 Y42.0808
G01 X168.1487 Y42.0410
G01 X168.0996 Y42.0036
G01 X168.0487 Y41.9688
G01 X167.9922 Y41.9342
G01 X167.9340 Y41.9026
G01 X167.8743 Y41.8739
G01 X167.8132 Y41.8483
G01 X167.7509 Y41.8258
G01 X167.6876 Y41.8064
G01 X167.6233 Y41.7904
G01 X167.5583 Y41.7775
G01 X167.4883 Y41.7673
G01 X167.4179 Y41.7607
G01 X167.3472 Y41.7576
G01 X167.2764 Y41.7581
G01 X167.2057 Y41.7622
G01 X167.1354 Y41.7698
G01 X167.0655 Y41.7809
G01 X166.9963 Y41.7956
G01 X166.9281 Y41.8216
G01 X166.8613 Y41.8508
G01 X166.7960 Y41.8834
G01 X166.7324 Y41.9191
G01 X166.6706 Y41.9579
G01 X166.6108 Y41.9997
G01 X166.5531 Y42.0444
G01 X166.4977 Y42.0919
G01 X166.4469 Y42.1452
G01 X166.3988 Y42.2010
G01 X166.3535 Y42.2590
G01 X166.3112 Y42.3192
G01 X166.2718 Y42.3814
G01 X166.2355 Y42.4454
G01 X166.2024 Y42.5112
G01 X166.1725 Y42.5785
G01 X166.1460 Y42.6472
G01 X166.1230 Y42.7171
G01 X166.1033 Y42.7881
G01 X166.0872 Y42.8599
G01 X166.0746 Y42.9324
G01 X166.0656 Y43.0055
G01 X166.0602 Y43.0789
G01 X166.0584 Y43.1525
G01 X166.0602 Y43.2261
G01 X166.0656 Y43.2996
G01 X166.0746 Y43.3726
G01 X166.0872 Y43.4452
G01 X166.1033 Y43.5170
G01 X166.1230 Y43.5880
G01 X166.1460 Y43.6579
G01 X166.1725 Y43.7265
G01 X166.2024 Y43.7939
G01 X166.2355 Y43.8596
G01 X166.2718 Y43.9237
G01 X166.3112 Y43.9859
G01 X166.3535 Y44.0461
G01 X166.3988 Y44.1041
G01 X166.4469 Y44.1599
G01 X166.4977 Y44.2132
G01 X166.5510 Y44.2639
G01 X166.6068 Y44.3120
G01 X166.6648 Y44.3573
G01 X166.7250 Y44.3997
G01 X166.7872 Y44.4391
G01 X166.8513 Y44.4754
G01 X166.9170 Y44.5085
G01 X166.9843 Y44.5383
G01 X167.0530 Y44.5648
G01 X167.1229 Y44.5879
G01 X167.1939 Y44.6076
G01 X167.2657 Y44.6237
G01 X167.3382 Y44.6363
G01 X167.4113 Y44.6453
G01 X167.4847 Y44.6507
G01 X167.5583 Y44.6525
G01 X167.6319 Y44.6507
G01 X167.7054 Y44.6453
G01 X167.7784 Y44.6363
G01 X167.8510 Y44.6237
G01 X167.9228 Y44.6076
G01 X167.9938 Y44.5879
G01 X168.0637 Y44.5648
G01 X168.1324 Y44.5383
G01 X168.1997 Y44.5085
G01 X168.2654 Y44.4754
G01 X168.3295 Y44.4391
G01 X168.3917 Y44.3997
G01 X168.4519 Y44.3573
G01 X168.5099 Y44.3120
G01 X168.5657 Y44.2639
G01 X168.6190 Y44.2132
G01 X168.6697 Y44.1599
G01 X168.7178 Y44.1041
G01 X168.7631 Y44.0461
G01 X168.8055 Y43.9859
G01 X168.8449 Y43.9237
G01 X168.8812 Y43.8596
G01 X168.9143 Y43.7939
G01 X168.9441 Y43.7265
G01 X168.9706 Y43.6579
G01 X168.9937 Y43.5880
G01 X169.0134 Y43.5170
G01 X169.0295 Y43.4452
G01 X169.0421 Y43.3726
G01 X169.0511 Y43.2996
G01 X169.0565 Y43.2261
G01 X169.0583 Y43.1525
G01 X169.0541 Y43.0404
G01 X169.0416 Y42.9290
G01 X169.0207 Y42.8188
G01 X168.9917 Y42.7104
G01 X168.9546 Y42.6045
G01 X168.9098 Y42.5017
G01 X168.8574 Y42.4025
G01 X168.7977 Y42.3076
G01 X168.7311 Y42.2173
G01 X168.6579 Y42.1323
G01 X168.5786 Y42.0530
G01 X168.4936 Y41.9798
G01 X168.4033 Y41.9132
G01 X168.3083 Y41.8535
G01 X168.2092 Y41.8011
G01 X168.1063 Y41.7562
G01 X168.0005 Y41.7192
G01 X167.8921 Y41.6902
G01 X167.7819 Y41.6693
G01 X167.6704 Y41.6567
G01 X167.5583 Y41.6526
G01 X167.4462 Y41.6567
G01 X167.3348 Y41.6693
G01 X167.2246 Y41.6902
G01 X167.1162 Y41.7192
G01 X167.0103 Y41.7562
G01 X166.9075 Y41.8011
G01 X166.8084 Y41.8535
G01 X166.7134 Y41.9132
G01 X166.6231 Y41.9798
G01 X166.5381 Y42.0530
G01 X166.4588 Y42.1323
G01 X166.3856 Y42.2173
G01 X166.3190 Y42.3076
G01 X166.2593 Y42.4025
G01 X166.2069 Y42.5017
G01 X166.1621 Y42.6045
G01 X166.1250 Y42.7104
G01 X166.0960 Y42.8188
G01 X166.0751 Y42.9290
G01 X166.0626 Y43.0404
G01 X166.0584 Y43.1525
G01 X166.0626 Y43.2646
G01 X166.0751 Y43.3761
G01 X166.0960 Y43.4863
G01 X166.1250 Y43.5947
G01 X166.1621 Y43.7005
G01 X166.2069 Y43.8033
G01 X166.2593 Y43.9025
G01 X166.3190 Y43.9975
G01 X166.3856 Y44.0878
G01 X166.4588 Y44.1728
G01 X166.5381 Y44.2521
G01 X166.6231 Y44.3253
G01 X166.7134 Y44.3919
G01 X166.8084 Y44.4515
G01 X166.9075 Y44.5040
G01 X167.0103 Y44.5488
G01 X167.1162 Y44.5859
G01 X167.2246 Y44.6149
G01 X167.3348 Y44.6358
G01 X167.4462 Y44.6483
G01 X167.5583 Y44.6525
G01 X167.6704 Y44.6483
G01 X167.7819 Y44.6358
G01 X167.8921 Y44.6149
G01 X168.0005 Y44.5859
G01 X168.1063 Y44.5488
G01 X168.2092 Y44.5040
G01 X168.3083 Y44.4515
G01 X168.4033 Y44.3919
G01 X168.4936 Y44.3253
G01 X168.5786 Y44.2521
G01 X168.6579 Y44.1728
G01 X168.7311 Y44.0878
G01 X168.7977 Y43.9975
G01 X168.8574 Y43.9025
G01 X168.9098 Y43.8033
G01 X168.9546 Y43.7005
G01 X168.9917 Y43.5947
G01 X169.0207 Y43.4863
G01 X169.0416 Y43.3761
G01 X169.0541 Y43.2646
G01 X169.0583 Y43.1525
G01 X169.0545 Y43.0545
G01 X169.0429 Y42.9570
G01 X169.0238 Y42.8607
G01 X168.9971 Y42.7663
G01 X168.9632 Y42.6742
G01 X168.9221 Y42.5850
G01 X168.8741 Y42.4994
G01 X168.8196 Y42.4178
G01 X168.7588 Y42.3407
G01 X168.6922 Y42.2687
G01 X168.6201 Y42.2020
G01 X168.5431 Y42.1413
G01 X168.4614 Y42.0867
G01 X168.3758 Y42.0388
G01 X168.2867 Y41.9977
G01 X168.1946 Y41.9637
G01 X168.1001 Y41.9371
G01 X168.0039 Y41.9179
G01 X167.9064 Y41.9064
G01 X167.8083 Y41.9025
G01 X167.7103 Y41.9064
G01 X167.6128 Y41.9179
G01 X167.5165 Y41.9371
G01 X167.4221 Y41.9637
G01 X167.3300 Y41.9977
G01 X167.2408 Y42.0388
G01 X167.1552 Y42.0867
G01 X167.0736 Y42.1413
G01 X166.9965 Y42.2020
G01 X166.9245 Y42.2687
G01 X166.8578 Y42.3407
G01 X166.7971 Y42.4178
G01 X166.7425 Y42.4994
G01 X166.6946 Y42.5850
G01 X166.6535 Y42.6742
G01 X166.6195 Y42.7663
G01 X166.5929 Y42.8607
G01 X166.5737 Y42.9570
G01 X166.5622 Y43.0545
G01 X166.5583 Y43.1525
G01 X166.5594 Y43.1987
G01 X166.5626 Y43.2448
G01 X166.5679 Y43.2907
G01 X166.5754 Y43.3363
G01 X166.5849 Y43.3815
G01 X166.5965 Y43.4262
G01 X166.6102 Y43.4703
G01 X166.6259 Y43.5138
G01 X166.6435 Y43.5565
G01 X166.6632 Y43.5983
G01 X166.6847 Y43.6391
G01 X166.7081 Y43.6790
G01 X166.7333 Y43.7177
G01 X166.7603 Y43.7552
G01 X166.7890 Y43.7914
G01 X166.8193 Y43.8262
G01 X166.8512 Y43.8596
G01 X166.8846 Y43.8915
G01 X166.9195 Y43.9219
G01 X166.9557 Y43.9505
G01 X166.9932 Y43.9775
G01 X167.0319 Y44.0027
G01 X167.0717 Y44.0262
G01 X167.1126 Y44.0477
G01 X167.1544 Y44.0673
G01 X167.1971 Y44.0850
G01 X167.2405 Y44.1007
G01 X167.2847 Y44.1144
G01 X167.3294 Y44.1260
G01 X167.3746 Y44.1355
G01 X167.4202 Y44.1429
G01 X167.4661 Y44.1483
G01 X167.5122 Y44.1515
G01 X167.5583 Y44.1525
G01 X167.6045 Y44.1515
G01 X167.6506 Y44.1483
G01 X167.6965 Y44.1429
G01 X167.7421 Y44.1355
G01 X167.7873 Y44.1260
G01 X167.8320 Y44.1144
G01 X167.8761 Y44.1007
G01 X167.9196 Y44.0850
G01 X167.9623 Y44.0673
G01 X168.0041 Y44.0477
G01 X168.0449 Y44.0262
G01 X168.0848 Y44.0027
G01 X168.1235 Y43.9775
G01 X168.1610 Y43.9505
G01 X168.1972 Y43.9219
G01 X168.2320 Y43.8915
G01 X168.2654 Y43.8596
G01 X168.2973 Y43.8262
G01 X168.3277 Y43.7914
G01 X168.3564 Y43.7552
G01 X168.3833 Y43.7177
G01 X168.4086 Y43.6790
G01 X168.4320 Y43.6391
G01 X168.4535 Y43.5983
G01 X168.4731 Y43.5565
G01 X168.4908 Y43.5138
G01 X168.5065 Y43.4703
G01 X168.5202 Y43.4262
G01 X168.5318 Y43.3815
G01 X168.5413 Y43.3363
G01 X168.5487 Y43.2907
G01 X168.5541 Y43.2448
G01 X168.5573 Y43.1987
G01 X168.5583 Y43.1525
M107
M106 S240
G01 X168.5545 Y43.0654 Z-1.5278 F400
G01 X168.5431 Y42.9789 Z-1.5556
G01 X168.5243 Y42.8937 Z-1.5833
G01 X168.4980 Y42.8105 Z-1.6111
G01 X168.4646 Y42.7299 Z-1.6389
G01 X168.4244 Y42.6525 Z-1.6667
G01 X168.3775 Y42.5790 Z-1.6944
G01 X168.3244 Y42.5097 Z-1.7222
G01 X168.2654 Y42.4454 Z-1.7500
G01 X168.2011 Y42.3865 Z-1.7778
G01 X168.1319 Y42.3334 Z-1.8056
G01 X168.0583 Y42.2865 Z-1.8333
G01 X167.9810 Y42.2462 Z-1.8611
G01 X167.9004 Y42.2128 Z-1.8889
G01 X167.8172 Y42.1866 Z-1.9167
G01 X167.7320 Y42.1677 Z-1.9444
G01 X167.6455 Y42.1563 Z-1.9722
G01 X167.5583 Y42.1525 Z-2.0000
G01 X167.4712 Y42.1563 Z-2.0278
G01 X167.3847 Y42.1677 Z-2.0556
G01 X167.2995 Y42.1866 Z-2.0833
G01 X167.2163 Y42.2128 Z-2.1111
G01 X167.1357 Y42.2462 Z-2.1389
G01 X167.0583 Y42.2865 Z-2.1667
G01 X166.9848 Y42.3334 Z-2.1944
G01 X166.9156 Y42.3865 Z-2.2222
G01 X166.8512 Y42.4454 Z-2.2500
G01 X166.7923 Y42.5097 Z-2.2778
G01 X166.7392 Y42.5790 Z-2.3056
G01 X166.6923 Y42.6525 Z-2.3333
G01 X166.6520 Y42.7299 Z-2.3611
G01 X166.6186 Y42.8105 Z-2.3889
G01 X166.5924 Y42.8937 Z-2.4167
G01 X166.5735 Y42.9789 Z-2.4444
G01 X166.5621 Y43.0654 Z-2.4722
G01 X166.5583 Y43.1525 Z-2.5000
G01 X166.5621 Y43.2397 Z-2.5278
G01 X166.5735 Y43.3262 Z-2.5556
G01 X166.5924 Y43.4113 Z-2.5833
G01 X166.6186 Y43.4946 Z-2.6111
G01 X166.6520 Y43.5751 Z-2.6389
G01 X166.6923 Y43.6525 Z-2.6667
G01 X166.7392 Y43.7261 Z-2.6944
G01 X166.7923 Y43.7953 Z-2.7222
G01 X166.8512 Y43.8596 Z-2.7500
G01 X166.9156 Y43.9186 Z-2.7778
G01 X166.9848 Y43.9717 Z-2.8056
G01 X167.0583 Y44.0186 Z-2.8333
G01 X167.1357 Y44.0588 Z-2.8611
G01 X167.2163 Y44.0922 Z-2.8889
G01 X167.2995 Y44.1185 Z-2.9167
G01 X167.3847 Y44.1373 Z-2.9444
G01 X167.4712 Y44.1487 Z-2.9722
G01 X167.5583 Y44.1525 Z-3.0000
G01 X167.6455 Y44.1487 Z-3.0278
G01 X167.7320 Y44.1373 Z-3.0556
G01 X167.8172 Y44.1185 Z-3.0833
G01 X167.9004 Y44.0922 Z-3.1111
G01 X167.9810 Y44.0588 Z-3.1389
G01 X168.0583 Y44.0186 Z-3.1667
G01 X168.1319 Y43.9717 Z-3.1944
G01 X168.2011 Y43.9186 Z-3.2222
G01 X168.2654 Y43.8596 Z-3.2500
G01 X168.3244 Y43.7953 Z-3.2778
G01 X168.3775 Y43.7261 Z-3.3056
G01 X168.4244 Y43.6525 Z-3.3333
G01 X168.4646 Y43.5751 Z-3.3611
G01 X168.4980 Y43.4946 Z-3.3889
G01 X168.5243 Y43.4113 Z-3.4167
G01 X168.5431 Y43.3262 Z-3.4444
G01 X168.5545 Y43.2397 Z-3.4722
G01 X168.5583 Y43.1525 Z-3.5000
G01 X168.5545 Y43.0654
G01 X168.5431 Y42.9789
G01 X168.5243 Y42.8937
G01 X168.4980 Y42.8105
G01 X168.4646 Y42.7299
G01 X168.4244 Y42.6525
G01 X168.3775 Y42.5790
G01 X168.3244 Y42.5097
G01 X168.2654 Y42.4454
G01 X168.2011 Y42.3865
G01 X168.1319 Y42.3334
G01 X168.0583 Y42.2865
G01 X167.9810 Y42.2462
G01 X167.9004 Y42.2128
G01 X167.8172 Y42.1866
G01 X167.7320 Y42.1677
G01 X167.6455 Y42.1563
G01 X167.5583 Y42.1525
G01 X167.4712 Y42.1563
G01 X167.3847 Y42.1677
G01 X167.2995 Y42.1866
G01 X167.2163 Y42.2128
G01 X167.1357 Y42.2462
G01 X167.0583 Y42.2865
G01 X166.9848 Y42.3334
G01 X166.9156 Y42.3865
G01 X166.8512 Y42.4454
G01 X166.7923 Y42.5097
G01 X166.7392 Y42.5790
G01 X166.6923 Y42.6525
G01 X166.6520 Y42.7299
G01 X166.6186 Y42.8105
G01 X166.5924 Y42.8937
G01 X166.5735 Y42.9789
G01 X166.5621 Y43.0654
G01 X166.5583 Y43.1525
G01 X166.5621 Y43.2397
G01 X166.5735 Y43.3262
G01 X166.5924 Y43.4113
G01 X166.6186 Y43.4946
G01 X166.6520 Y43.5751
G01 X166.6923 Y43.6525
G01 X166.7392 Y43.7261
G01 X166.7923 Y43.7953
G01 X166.8512 Y43.8596
G01 X166.9156 Y43.9186
G01 X166.9848 Y43.9717
G01 X167.0583 Y44.0186
G01 X167.1357 Y44.0588
G01 X167.2163 Y44.0922
G01 X167.2995 Y44.1185
G01 X167.3847 Y44.1373
G01 X167.4712 Y44.1487
G01 X167.5583 Y44.1525
G01 X167.6455 Y44.1487
G01 X167.7320 Y44.1373
G01 X167.8172 Y44.1185
G01 X167.9004 Y44.0922
G01 X167.9810 Y44.0588
G01 X168.0583 Y44.0186
G01 X168.1319 Y43.9717
G01 X168.2011 Y43.9186
G01 X168.2654 Y43.8596
G01 X168.3244 Y43.7953
G01 X168.3775 Y43.7261
G01 X168.4244 Y43.6525
G01 X168.4646 Y43.5751
G01 X168.4980 Y43.4946
G01 X168.5243 Y43.4113
G01 X168.5431 Y43.3262
G01 X168.5545 Y43.2397
G01 X168.5583 Y43.1525
G01 X168.5691 Y43.1009 F1000
G01 X168.5772 Y43.0489
G01 X168.5825 Y42.9964
G01 X168.5852 Y42.9438
G01 Y42.8911
G01 X168.5824 Y42.8385
G01 X168.5770 Y42.7860
G01 X168.5688 Y42.7340
G01 X168.5571 Y42.6780
G01 X168.5426 Y42.6227
G01 X168.5252 Y42.5682
G01 X168.5050 Y42.5146
G01 X168.4822 Y42.4622
G01 X168.4567 Y42.4110
G01 X168.4286 Y42.3612
G01 X168.3980 Y42.3128
G01 X168.3624 Y42.2624
G01 X168.3243 Y42.2139
G01 X168.2838 Y42.1674
G01 X168.2409 Y42.1230
G01 X168.1958 Y42.0808
G01 X168.1487 Y42.0410
G01 X168.0996 Y42.0036
G01 X168.0487 Y41.9688
G01 X167.9922 Y41.9342
G01 X167.9340 Y41.9026
G01 X167.8743 Y41.8739
G01 X167.8132 Y41.8483
G01 X167.7509 Y41.8258
G01 X167.6876 Y41.8064
G01 X167.6233 Y41.7904
G01 X167.5583 Y41.7775
G01 X167.4883 Y41.7673
G01 X167.4179 Y41.7607
G01 X167.3472 Y41.7576
G01 X167.2764 Y41.7581
G01 X167.2057 Y41.7622
G01 X167.1354 Y41.7698
G01 X167.0655 Y41.7809
G01 X166.9963 Y41.7956
G01 X166.9281 Y41.8216
G01 X166.8613 Y41.8508
G01 X166.7960 Y41.8834
G01 X166.7324 Y41.9191
G01 X166.6706 Y41.9579
G01 X166.6108 Y41.9997
G01 X166.5531 Y42.0444
G01 X166.4977 Y42.0919
G01 X166.4469 Y42.1452
G01 X166.3988 Y42.2010
G01 X166.3535 Y42.2590
G01 X166.3112 Y42.3192
G01 X166.2718 Y42.3814
G01 X166.2355 Y42.4454
G01 X166.2024 Y42.5112
G01 X166.1725 Y42.5785
G01 X166.1460 Y42.6472
G01 X166.1230 Y42.7171
G01 X166.1033 Y42.7881
G01 X166.0872 Y42.8599
G01 X166.0746 Y42.9324
G01 X166.0656 Y43.0055
G01 X166.0602 Y43.0789
G01 X166.0584 Y43.1525
G01 X166.0602 Y43.2261
G01 X166.0656 Y43.2996
G01 X166.0746 Y43.3726
G01 X166.0872 Y43.4452
G01 X166.1033 Y43.5170
G01 X166.1230 Y43.5880
G01 X166.1460 Y43.6579
G01 X166.1725 Y43.7265
G01 X166.2024 Y43.7939
G01 X166.2355 Y43.8596
G01 X166.2718 Y43.9237
G01 X166.3112 Y43.9859
G01 X166.3535 Y44.0461
G01 X166.3988 Y44.1041
G01 X166.4469 Y44.1599
G01 X166.4977 Y44.2132
G01 X166.5510 Y44.2639
G01 X166.6068 Y44.3120
G01 X166.6648 Y44.3573
G01 X166.7250 Y44.3997
G01 X166.7872 Y44.4391
G01 X166.8513 Y44.4754
G01 X166.9170 Y44.5085
G01 X166.9843 Y44.5383
G01 X167.0530 Y44.5648
G01 X167.1229 Y44.5879
G01 X167.1939 Y44.6076
G01 X167.2657 Y44.6237
G01 X167.3382 Y44.6363
G01 X167.4113 Y44.6453
G01 X167.4847 Y44.6507
G01 X167.5583 Y44.6525
G01 X167.6319 Y44.6507
G01 X167.7054 Y44.6453
G01 X167.7784 Y44.6363
G01 X167.8510 Y44.6237
G01 X167.9228 Y44.6076
G01 X167.9938 Y44.5879
G01 X168.0637 Y44.5648
G01 X168.1324 Y44.5383
G01 X168.1997 Y44.5085
G01 X168.2654 Y44.4754
G01 X168.3295 Y44.4391
G01 X168.3917 Y44.3997
G01 X168.4519 Y44.3573
G01 X168.5099 Y44.3120
G01 X168.5657 Y44.2639
G01 X168.6190 Y44.2132
G01 X168.6697 Y44.1599
G01 X168.7178 Y44.1041
G01 X168.7631 Y44.0461
G01 X168.8055 Y43.9859
G01 X168.8449 Y43.9237
G01 X168.8812 Y43.8596
G01 X168.9143 Y43.7939
G01 X168.9441 Y43.7265
G01 X168.9706 Y43.6579
G01 X168.9937 Y43.5880
G01 X169.0134 Y43.5170
G01 X169.0295 Y43.4452
G01 X169.0421 Y43.3726
G01 X169.0511 Y43.2996
G01 X169.0565 Y43.2261
G01 X169.0583 Y43.1525
G01 X169.0541 Y43.0404
G01 X169.0416 Y42.9290
G01 X169.0207 Y42.8188
G01 X168.9917 Y42.7104
G01 X168.9546 Y42.6045
G01 X168.9098 Y42.5017
G01 X168.8574 Y42.4025
G01 X168.7977 Y42.3076
G01 X168.7311 Y42.2173
G01 X168.6579 Y42.1323
G01 X168.5786 Y42.0530
G01 X168.4936 Y41.9798
G01 X168.4033 Y41.9132
G01 X168.3083 Y41.8535
G01 X168.2092 Y41.8011
G01 X168.1063 Y41.7562
G01 X168.0005 Y41.7192
G01 X167.8921 Y41.6902
G01 X167.7819 Y41.6693
G01 X167.6704 Y41.6567
G01 X167.5583 Y41.6526
G01 X167.4462 Y41.6567
G01 X167.3348 Y41.6693
G01 X167.2246 Y41.6902
G01 X167.1162 Y41.7192
G01 X167.0103 Y41.7562
G01 X166.9075 Y41.8011
G01 X166.8084 Y41.8535
G01 X166.7134 Y41.9132
G01 X166.6231 Y41.9798
G01 X166.5381 Y42.0530
G01 X166.4588 Y42.1323
G01 X166.3856 Y42.2173
G01 X166.3190 Y42.3076
G01 X166.2593 Y42.4025
G01 X166.2069 Y42.5017
G01 X166.1621 Y42.6045
G01 X166.1250 Y42.7104
G01 X166.0960 Y42.8188
G01 X166.0751 Y42.9290
G01 X166.0626 Y43.0404
G01 X166.0584 Y43.1525
G01 X166.0626 Y43.2646
G01 X166.0751 Y43.3761
G01 X166.0960 Y43.4863
G01 X166.1250 Y43.5947
G01 X166.1621 Y43.7005
G01 X166.2069 Y43.8033
G01 X166.2593 Y43.9025
G01 X166.3190 Y43.9975
G01 X166.3856 Y44.0878
G01 X166.4588 Y44.1728
G01 X166.5381 Y44.2521
G01 X166.6231 Y44.3253
G01 X166.7134 Y44.3919
G01 X166.8084 Y44.4515
G01 X166.9075 Y44.5040
G01 X167.0103 Y44.5488
G01 X167.1162 Y44.5859
G01 X167.2246 Y44.6149
G01 X167.3348 Y44.6358
G01 X167.4462 Y44.6483
G01 X167.5583 Y44.6525
G01 X167.6704 Y44.6483
G01 X167.7819 Y44.6358
G01 X167.8921 Y44.6149
G01 X168.0005 Y44.5859
G01 X168.1063 Y44.5488
G01 X168.2092 Y44.5040
G01 X168.3083 Y44.4515
G01 X168.4033 Y44.3919
G01 X168.4936 Y44.3253
G01 X168.5786 Y44.2521
G01 X168.6579 Y44.1728
G01 X168.7311 Y44.0878
G01 X168.7977 Y43.9975
G01 X168.8574 Y43.9025
G01 X168.9098 Y43.8033
G01 X168.9546 Y43.7005
G01 X168.9917 Y43.5947
G01 X169.0207 Y43.4863
G01 X169.0416 Y43.3761
G01 X169.0541 Y43.2646
G01 X169.0583 Y43.1525
G01 X169.0545 Y43.0545
G01 X169.0429 Y42.9570
G01 X169.0238 Y42.8607
G01 X168.9971 Y42.7663
G01 X168.9632 Y42.6742
G01 X168.9221 Y42.5850
G01 X168.8741 Y42.4994
G01 X168.8196 Y42.4178
G01 X168.7588 Y42.3407
G01 X168.6922 Y42.2687
G01 X168.6201 Y42.2020
G01 X168.5431 Y42.1413
G01 X168.4614 Y42.0867
G01 X168.3758 Y42.0388
G01 X168.2867 Y41.9977
G01 X168.1946 Y41.9637
G01 X168.1001 Y41.9371
G01 X168.0039 Y41.9179
G01 X167.9064 Y41.9064
G01 X167.8083 Y41.9025
G01 X167.7103 Y41.9064
G01 X167.6128 Y41.9179
G01 X167.5165 Y41.9371
G01 X167.4221 Y41.9637
G01 X167.3300 Y41.9977
G01 X167.2408 Y42.0388
G01 X167.1552 Y42.0867
G01 X167.0736 Y42.1413
G01 X166.9965 Y42.2020
G01 X166.9245 Y42.2687
G01 X166.8578 Y42.3407
G01 X166.7971 Y42.4178
G01 X166.7425 Y42.4994
G01 X166.6946 Y42.5850
G01 X166.6535 Y42.6742
G01 X166.6195 Y42.7663
G01 X166.5929 Y42.8607
G01 X166.5737 Y42.9570
G01 X166.5622 Y43.0545
G01 X166.5583 Y43.1525
G01 X166.5594 Y43.1987
G01 X166.5626 Y43.2448
G01 X166.5679 Y43.2907
G01 X166.5754 Y43.3363
G01 X166.5849 Y43.3815
G01 X166.5965 Y43.4262
G01 X166.6102 Y43.4703
G01 X166.6259 Y43.5138
G01 X166.6435 Y43.5565
G01 X166.6632 Y43.5983
G01 X166.6847 Y43.6391
G01 X166.7081 Y43.6790
G01 X166.7333 Y43.7177
G01 X166.7603 Y43.7552
G01 X166.7890 Y43.7914
G01 X166.8193 Y43.8262
G01 X166.8512 Y43.8596
G01 X166.8846 Y43.8915
G01 X166.9195 Y43.9219
G01 X166.9557 Y43.9505
G01 X166.9932 Y43.9775
G01 X167.0319 Y44.0027
G01 X167.0717 Y44.0262
G01 X167.1126 Y44.0477
G01 X167.1544 Y44.0673
G01 X167.1971 Y44.0850
G01 X167.2405 Y44.1007
G01 X167.2847 Y44.1144
G01 X167.3294 Y44.1260
G01 X167.3746 Y44.1355
G01 X167.4202 Y44.1429
G01 X167.4661 Y44.1483
G01 X167.5122 Y44.1515
G01 X167.5583 Y44.1525
G01 X167.6045 Y44.1515
G01 X167.6506 Y44.1483
G01 X167.6965 Y44.1429
G01 X167.7421 Y44.1355
G01 X167.7873 Y44.1260
G01 X167.8320 Y44.1144
G01 X167.8761 Y44.1007
G01 X167.9196 Y44.0850
G01 X167.9623 Y44.0673
G01 X168.0041 Y44.0477
G01 X168.0449 Y44.0262
G01 X168.0848 Y44.0027
G01 X168.1235 Y43.9775
G01 X168.1610 Y43.9505
G01 X168.1972 Y43.9219
G01 X168.2320 Y43.8915
G01 X168.2654 Y43.8596
G01 X168.2973 Y43.8262
G01 X168.3277 Y43.7914
G01 X168.3564 Y43.7552
G01 X168.3833 Y43.7177
G01 X168.4086 Y43.6790
G01 X168.4320 Y43.6391
G01 X168.4535 Y43.5983
G01 X168.4731 Y43.5565
G01 X168.4908 Y43.5138
G01 X168.5065 Y43.4703
G01 X168.5202 Y43.4262
G01 X168.5318 Y43.3815
G01 X168.5413 Y43.3363
G01 X168.5487 Y43.2907
G01 X168.5541 Y43.2448
G01 X168.5573 Y43.1987
G01 X168.5583 Y43.1525
M107
M106 S240
G01 X168.5545 Y43.0654 Z-3.5278 F400
G01 X168.5431 Y42.9789 Z-3.5556
G01 X168.5243 Y42.8937 Z-3.5833
G01 X168.4980 Y42.8105 Z-3.6111
G01 X168.4646 Y42.7299 Z-3.6389
G01 X168.4244 Y42.6525 Z-3.6667
G01 X168.3775 Y42.5790 Z-3.6944
G01 X168.3244 Y42.5097 Z-3.7222
G01 X168.2654 Y42.4454 Z-3.7500
G01 X168.2011 Y42.3865 Z-3.7778
G01 X168.1319 Y42.3334 Z-3.8056
G01 X168.0583 Y42.2865 Z-3.8333
G01 X167.9810 Y42.2462 Z-3.8611
G01 X167.9004 Y42.2128 Z-3.8889
G01 X167.8172 Y42.1866 Z-3.9167
G01 X167.7320 Y42.1677 Z-3.9444
G01 X167.6455 Y42.1563 Z-3.9722
G01 X167.5583 Y42.1525 Z-4.0000
G01 X167.4712 Y42.1563 Z-4.0278
G01 X167.3847 Y42.1677 Z-4.0556
G01 X167.2995 Y42.1866 Z-4.0833
G01 X167.2163 Y42.2128 Z-4.1111
G01 X167.1357 Y42.2462 Z-4.1389
G01 X167.0583 Y42.2865 Z-4.1667
G01 X166.9848 Y42.3334 Z-4.1944
G01 X166.9156 Y42.3865 Z-4.2222
G01 X166.8512 Y42.4454 Z-4.2500
G01 X166.7923 Y42.5097 Z-4.2778
G01 X166.7392 Y42.5790 Z-4.3056
G01 X166.6923 Y42.6525 Z-4.3333
G01 X166.6520 Y42.7299 Z-4.3611
G01 X166.6186 Y42.8105 Z-4.3889
G01 X166.5924 Y42.8937 Z-4.4167
G01 X166.5735 Y42.9789 Z-4.4444
G01 X166.5621 Y43.0654 Z-4.4722
G01 X166.5583 Y43.1525 Z-4.5000
G01 X166.5621 Y43.2397 Z-4.5278
G01 X166.5735 Y43.3262 Z-4.5556
G01 X166.5924 Y43.4113 Z-4.5833
G01 X166.6186 Y43.4946 Z-4.6111
G01 X166.6520 Y43.5751 Z-4.6389
G01 X166.6923 Y43.6525 Z-4.6667
G01 X166.7392 Y43.7261 Z-4.6944
G01 X166.7923 Y43.7953 Z-4.7222
G01 X166.8512 Y43.8596 Z-4.7500
G01 X166.9156 Y43.9186 Z-4.7778
G01 X166.9848 Y43.9717 Z-4.8056
G01 X167.0583 Y44.0186 Z-4.8333
G01 X167.1357 Y44.0588 Z-4.8611
G01 X167.2163 Y44.0922 Z-4.8889
G01 X167.2995 Y44.1185 Z-4.9167
G01 X167.3847 Y44.1373 Z-4.9444
G01 X167.4712 Y44.1487 Z-4.9722
G01 X167.5583 Y44.1525 Z-5.0000
G01 X167.6455 Y44.1487 Z-5.0278
G01 X167.7320 Y44.1373 Z-5.0556
G01 X167.8172 Y44.1185 Z-5.0833
G01 X167.9004 Y44.0922 Z-5.1111
G01 X167.9810 Y44.0588 Z-5.1389
G01 X168.0583 Y44.0186 Z-5.1667
G01 X168.1319 Y43.9717 Z-5.1944
G01 X168.2011 Y43.9186 Z-5.2222
G01 X168.2654 Y43.8596 Z-5.2500
G01 X168.3244 Y43.7953 Z-5.2778
G01 X168.3775 Y43.7261 Z-5.3056
G01 X168.4244 Y43.6525 Z-5.3333
G01 X168.4646 Y43.5751 Z-5.3611
G01 X168.4980 Y43.4946 Z-5.3889
G01 X168.5243 Y43.4113 Z-5.4167
G01 X168.5431 Y43.3262 Z-5.4444
G01 X168.5545 Y43.2397 Z-5.4722
G01 X168.5583 Y43.1525 Z-5.5000
G01 X168.5545 Y43.0654
G01 X168.5431 Y42.9789
G01 X168.5243 Y42.8937
G01 X168.4980 Y42.8105
G01 X168.4646 Y42.7299
G01 X168.4244 Y42.6525
G01 X168.3775 Y42.5790
G01 X168.3244 Y42.5097
G01 X168.2654 Y42.4454
G01 X168.2011 Y42.3865
G01 X168.1319 Y42.3334
G01 X168.0583 Y42.2865
G01 X167.9810 Y42.2462
G01 X167.9004 Y42.2128
G01 X167.8172 Y42.1866
G01 X167.7320 Y42.1677
G01 X167.6455 Y42.1563
G01 X167.5583 Y42.1525
G01 X167.4712 Y42.1563
G01 X167.3847 Y42.1677
G01 X167.2995 Y42.1866
G01 X167.2163 Y42.2128
G01 X167.1357 Y42.2462
G01 X167.0583 Y42.2865
G01 X166.9848 Y42.3334
G01 X166.9156 Y42.3865
G01 X166.8512 Y42.4454
G01 X166.7923 Y42.5097
G01 X166.7392 Y42.5790
G01 X166.6923 Y42.6525
G01 X166.6520 Y42.7299
G01 X166.6186 Y42.8105
G01 X166.5924 Y42.8937
G01 X166.5735 Y42.9789
G01 X166.5621 Y43.0654
G01 X166.5583 Y43.1525
G01 X166.5621 Y43.2397
G01 X166.5735 Y43.3262
G01 X166.5924 Y43.4113
G01 X166.6186 Y43.4946
G01 X166.6520 Y43.5751
G01 X166.6923 Y43.6525
G01 X166.7392 Y43.7261
G01 X166.7923 Y43.7953
G01 X166.8512 Y43.8596
G01 X166.9156 Y43.9186
G01 X166.9848 Y43.9717
G01 X167.0583 Y44.0186
G01 X167.1357 Y44.0588
G01 X167.2163 Y44.0922
G01 X167.2995 Y44.1185
G01 X167.3847 Y44.1373
G01 X167.4712 Y44.1487
G01 X167.5583 Y44.1525
G01 X167.6455 Y44.1487
G01 X167.7320 Y44.1373
G01 X167.8172 Y44.1185
G01 X167.9004 Y44.0922
G01 X167.9810 Y44.0588
G01 X168.0583 Y44.0186
G01 X168.1319 Y43.9717
G01 X168.2011 Y43.9186
G01 X168.2654 Y43.8596
G01 X168.3244 Y43.7953
G01 X168.3775 Y43.7261
G01 X168.4244 Y43.6525
G01 X168.4646 Y43.5751
G01 X168.4980 Y43.4946
G01 X168.5243 Y43.4113
G01 X168.5431 Y43.3262
G01 X168.5545 Y43.2397
G01 X168.5583 Y43.1525
G01 X168.5691 Y43.1009 F1000
G01 X168.5772 Y43.0489
G01 X168.5825 Y42.9964
G01 X168.5852 Y42.9438
G01 Y42.8911
G01 X168.5824 Y42.8385
G01 X168.5770 Y42.7860
G01 X168.5688 Y42.7340
G01 X168.5571 Y42.6780
G01 X168.5426 Y42.6227
G01 X168.5252 Y42.5682
G01 X168.5050 Y42.5146
G01 X168.4822 Y42.4622
G01 X168.4567 Y42.4110
G01 X168.4286 Y42.3612
G01 X168.3980 Y42.3128
G01 X168.3624 Y42.2624
G01 X168.3243 Y42.2139
G01 X168.2838 Y42.1674
G01 X168.2409 Y42.1230
G01 X168.1958 Y42.0808
G01 X168.1487 Y42.0410
G01 X168.0996 Y42.0036
G01 X168.0487 Y41.9688
G01 X167.9922 Y41.9342
G01 X167.9340 Y41.9026
G01 X167.8743 Y41.8739
G01 X167.8132 Y41.8483
G01 X167.7509 Y41.8258
G01 X167.6876 Y41.8064
G01 X167.6233 Y41.7904
G01 X167.5583 Y41.7775
G01 X167.4883 Y41.7673
G01 X167.4179 Y41.7607
G01 X167.3472 Y41.7576
G01 X167.2764 Y41.7581
G01 X167.2057 Y41.7622
G01 X167.1354 Y41.7698
G01 X167.0655 Y41.7809
G01 X166.9963 Y41.7956
G01 X166.9281 Y41.8216
G01 X166.8613 Y41.8508
G01 X166.7960 Y41.8834
G01 X166.7324 Y41.9191
G01 X166.6706 Y41.9579
G01 X166.6108 Y41.9997
G01 X166.5531 Y42.0444
G01 X166.4977 Y42.0919
G01 X166.4469 Y42.1452
G01 X166.3988 Y42.2010
G01 X166.3535 Y42.2590
G01 X166.3112 Y42.3192
G01 X166.2718 Y42.3814
G01 X166.2355 Y42.4454
G01 X166.2024 Y42.5112
G01 X166.1725 Y42.5785
G01 X166.1460 Y42.6472
G01 X166.1230 Y42.7171
G01 X166.1033 Y42.7881
G01 X166.0872 Y42.8599
G01 X166.0746 Y42.9324
G01 X166.0656 Y43.0055
G01 X166.0602 Y43.0789
G01 X166.0584 Y43.1525
G01 X166.0602 Y43.2261
G01 X166.0656 Y43.2996
G01 X166.0746 Y43.3726
G01 X166.0872 Y43.4452
G01 X166.1033 Y43.5170
G01 X166.1230 Y43.5880
G01 X166.1460 Y43.6579
G01 X166.1725 Y43.7265
G01 X166.2024 Y43.7939
G01 X166.2355 Y43.8596
G01 X166.2718 Y43.9237
G01 X166.3112 Y43.9859
G01 X166.3535 Y44.0461
G01 X166.3988 Y44.1041
G01 X166.4469 Y44.1599
G01 X166.4977 Y44.2132
G01 X166.5510 Y44.2639
G01 X166.6068 Y44.3120
G01 X166.6648 Y44.3573
G01 X166.7250 Y44.3997
G01 X166.7872 Y44.4391
G01 X166.8513 Y44.4754
G01 X166.9170 Y44.5085
G01 X166.9843 Y44.5383
G01 X167.0530 Y44.5648
G01 X167.1229 Y44.5879
G01 X167.1939 Y44.6076
G01 X167.2657 Y44.6237
G01 X167.3382 Y44.6363
G01 X167.4113 Y44.6453
G01 X167.4847 Y44.6507
G01 X167.5583 Y44.6525
G01 X167.6319 Y44.6507
G01 X167.7054 Y44.6453
G01 X167.7784 Y44.6363
G01 X167.8510 Y44.6237
G01 X167.9228 Y44.6076
G01 X167.9938 Y44.5879
G01 X168.0637 Y44.5648
G01 X168.1324 Y44.5383
G01 X168.1997 Y44.5085
G01 X168.2654 Y44.4754
G01 X168.3295 Y44.4391
G01 X168.3917 Y44.3997
G01 X168.4519 Y44.3573
G01 X168.5099 Y44.3120
G01 X168.5657 Y44.2639
G01 X168.6190 Y44.2132
G01 X168.6697 Y44.1599
G01 X168.7178 Y44.1041
G01 X168.7631 Y44.0461
G01 X168.8055 Y43.9859
G01 X168.8449 Y43.9237
G01 X168.8812 Y43.8596
G01 X168.9143 Y43.7939
G01 X168.9441 Y43.7265
G01 X168.9706 Y43.6579
G01 X168.9937 Y43.5880
G01 X169.0134 Y43.5170
G01 X169.0295 Y43.4452
G01 X169.0421 Y43.3726
G01 X169.0511 Y43.2996
G01 X169.0565 Y43.2261
G01 X169.0583 Y43.1525
G01 X169.0541 Y43.0404
G01 X169.0416 Y42.9290
G01 X169.0207 Y42.8188
G01 X168.9917 Y42.7104
G01 X168.9546 Y42.6045
G01 X168.9098 Y42.5017
G01 X168.8574 Y42.4025
G01 X168.7977 Y42.3076
G01 X168.7311 Y42.2173
G01 X168.6579 Y42.1323
G01 X168.5786 Y42.0530
G01 X168.4936 Y41.9798
G01 X168.4033 Y41.9132
G01 X168.3083 Y41.8535
G01 X168.2092 Y41.8011
G01 X168.1063 Y41.7562
G01 X168.0005 Y41.7192
G01 X167.8921 Y41.6902
G01 X167.7819 Y41.6693
G01 X167.6704 Y41.6567
G01 X167.5583 Y41.6526
G01 X167.4462 Y41.6567
G01 X167.3348 Y41.6693
G01 X167.2246 Y41.6902
G01 X167.1162 Y41.7192
G01 X167.0103 Y41.7562
G01 X166.9075 Y41.8011
G01 X166.8084 Y41.8535
G01 X166.7134 Y41.9132
G01 X166.6231 Y41.9798
G01 X166.5381 Y42.0530
G01 X166.4588 Y42.1323
G01 X166.3856 Y42.2173
G01 X166.3190 Y42.3076
G01 X166.2593 Y42.4025
G01 X166.2069 Y42.5017
G01 X166.1621 Y42.6045
G01 X166.1250 Y42.7104
G01 X166.0960 Y42.8188
G01 X166.0751 Y42.9290
G01 X166.0626 Y43.0404
G01 X166.0584 Y43.1525
G01 X166.0626 Y43.2646
G01 X166.0751 Y43.3761
G01 X166.0960 Y43.4863
G01 X166.1250 Y43.5947
G01 X166.1621 Y43.7005
G01 X166.2069 Y43.8033
G01 X166.2593 Y43.9025
G01 X166.3190 Y43.9975
G01 X166.3856 Y44.0878
G01 X166.4588 Y44.1728
G01 X166.5381 Y44.2521
G01 X166.6231 Y44.3253
G01 X166.7134 Y44.3919
G01 X166.8084 Y44.4515
G01 X166.9075 Y44.5040
G01 X167.0103 Y44.5488
G01 X167.1162 Y44.5859
G01 X167.2246 Y44.6149
G01 X167.3348 Y44.6358
G01 X167.4462 Y44.6483
G01 X167.5583 Y44.6525
G01 X167.6704 Y44.6483
G01 X167.7819 Y44.6358
G01 X167.8921 Y44.6149
G01 X168.0005 Y44.5859
G01 X168.1063 Y44.5488
G01 X168.2092 Y44.5040
G01 X168.3083 Y44.4515
G01 X168.4033 Y44.3919
G01 X168.4936 Y44.3253
G01 X168.5786 Y44.2521
G01 X168.6579 Y44.1728
G01 X168.7311 Y44.0878
G01 X168.7977 Y43.9975
G01 X168.8574 Y43.9025
G01 X168.9098 Y43.8033
G01 X168.9546 Y43.7005
G01 X168.9917 Y43.5947
G01 X169.0207 Y43.4863
G01 X169.0416 Y43.3761
G01 X169.0541 Y43.2646
G01 X169.0583 Y43.1525
M107
M106 S240
G01 X169.0552 Y43.0741 Z-5.4750 F400
M107
M106 S240
G01 X169.0460 Y42.9961 Z-5.4500
M107
M106 S240
G01 X169.0307 Y42.9191 Z-5.4250
M107
M106 S240
G01 X169.0094 Y42.8435 Z-5.4000
M107
M106 S240
G01 X168.9822 Y42.7698 Z-5.3750
M107
M106 S240
G01 X168.9493 Y42.6985 Z-5.3500
M107
M106 S240
G01 X168.9110 Y42.6300 Z-5.3250
M107
M106 S240
G01 X168.8673 Y42.5647 Z-5.3000
M107
M106 S240
G01 X168.8187 Y42.5031 Z-5.2750
M107
M106 S240
G01 X168.7654 Y42.4454 Z-5.2500
M107
M106 S240
G01 X168.7078 Y42.3921 Z-5.2250
M107
M106 S240
G01 X168.6461 Y42.3435 Z-5.2000
M107
M106 S240
G01 X168.5808 Y42.2999 Z-5.1750
M107
M106 S240
G01 X168.5123 Y42.2615 Z-5.1500
M107
M106 S240
G01 X168.4410 Y42.2287 Z-5.1250
M107
M106 S240
G01 X168.3673 Y42.2015 Z-5.1000
M107
M106 S240
G01 X168.2918 Y42.1802 Z-5.0750
M107
M106 S240
G01 X168.2147 Y42.1648 Z-5.0500
M107
M106 S240
G01 X168.1368 Y42.1556 Z-5.0250
M107
M106 S240
G01 X168.0583 Y42.1525 Z-5.0000
M107
G00 Z2.0000


;No. 13: Helical drill 14
G00 X213.9230 Y43.1525 Z2.0000
G00 Z0.5000
M106 S240
G01 X213.9192 Y43.0654 Z0.4722 F400
G01 X213.9078 Y42.9789 Z0.4444
G01 X213.8889 Y42.8937 Z0.4167
G01 X213.8627 Y42.8105 Z0.3889
G01 X213.8293 Y42.7299 Z0.3611
G01 X213.7890 Y42.6525 Z0.3333
G01 X213.7422 Y42.5790 Z0.3056
G01 X213.6890 Y42.5097 Z0.2778
G01 X213.6301 Y42.4454 Z0.2500
G01 X213.5658 Y42.3865 Z0.2222
G01 X213.4966 Y42.3334 Z0.1944
G01 X213.4230 Y42.2865 Z0.1667
G01 X213.3456 Y42.2462 Z0.1389
G01 X213.2650 Y42.2128 Z0.1111
G01 X213.1818 Y42.1866 Z0.0833
G01 X213.0967 Y42.1677 Z0.0556
G01 X213.0102 Y42.1563 Z0.0278
G01 X212.9230 Y42.1525 Z0.0000
G01 X212.8358 Y42.1563 Z-0.0278
G01 X212.7494 Y42.1677 Z-0.0556
G01 X212.6642 Y42.1866 Z-0.0833
G01 X212.5810 Y42.2128 Z-0.1111
G01 X212.5004 Y42.2462 Z-0.1389
G01 X212.4230 Y42.2865 Z-0.1667
G01 X212.3494 Y42.3334 Z-0.1944
G01 X212.2802 Y42.3865 Z-0.2222
G01 X212.2159 Y42.4454 Z-0.2500
G01 X212.1570 Y42.5097 Z-0.2778
G01 X212.1039 Y42.5790 Z-0.3056
G01 X212.0570 Y42.6525 Z-0.3333
G01 X212.0167 Y42.7299 Z-0.3611
G01 X211.9833 Y42.8105 Z-0.3889
G01 X211.9571 Y42.8937 Z-0.4167
G01 X211.9382 Y42.9789 Z-0.4444
G01 X211.9268 Y43.0654 Z-0.4722
G01 X211.9230 Y43.1525 Z-0.5000
G01 X211.9268 Y43.2397 Z-0.5278
G01 X211.9382 Y43.3262 Z-0.5556
G01 X211.9571 Y43.4113 Z-0.5833
G01 X211.9833 Y43.4946 Z-0.6111
G01 X212.0167 Y43.5751 Z-0.6389
G01 X212.0570 Y43.6525 Z-0.6667
G01 X212.1039 Y43.7261 Z-0.6944
G01 X212.1570 Y43.7953 Z-0.7222
G01 X212.2159 Y43.8596 Z-0.7500
G01 X212.2802 Y43.9186 Z-0.7778
G01 X212.3494 Y43.9717 Z-0.8056
G01 X212.4230 Y44.0186 Z-0.8333
G01 X212.5004 Y44.0588 Z-0.8611
G01 X212.5810 Y44.0922 Z-0.8889
G01 X212.6642 Y44.1185 Z-0.9167
G01 X212.7494 Y44.1373 Z-0.9444
G01 X212.8358 Y44.1487 Z-0.9722
G01 X212.9230 Y44.1525 Z-1.0000
G01 X213.0102 Y44.1487 Z-1.0278
G01 X213.0967 Y44.1373 Z-1.0556
G01 X213.1818 Y44.1185 Z-1.0833
G01 X213.2650 Y44.0922 Z-1.1111
G01 X213.3456 Y44.0588 Z-1.1389
G01 X213.4230 Y44.0186 Z-1.1667
G01 X213.4966 Y43.9717 Z-1.1944
G01 X213.5658 Y43.9186 Z-1.2222
G01 X213.6301 Y43.8596 Z-1.2500
G01 X213.6890 Y43.7953 Z-1.2778
G01 X213.7422 Y43.7261 Z-1.3056
G01 X213.7890 Y43.6525 Z-1.3333
G01 X213.8293 Y43.5751 Z-1.3611
G01 X213.8627 Y43.4946 Z-1.3889
G01 X213.8889 Y43.4113 Z-1.4167
G01 X213.9078 Y43.3262 Z-1.4444
G01 X213.9192 Y43.2397 Z-1.4722
G01 X213.9230 Y43.1525 Z-1.5000
G01 X213.9192 Y43.0654
G01 X213.9078 Y42.9789
G01 X213.8889 Y42.8937
G01 X213.8627 Y42.8105
G01 X213.8293 Y42.7299
G01 X213.7890 Y42.6525
G01 X213.7422 Y42.5790
G01 X213.6890 Y42.5097
G01 X213.6301 Y42.4454
G01 X213.5658 Y42.3865
G01 X213.4966 Y42.3334
G01 X213.4230 Y42.2865
G01 X213.3456 Y42.2462
G01 X213.2650 Y42.2128
G01 X213.1818 Y42.1866
G01 X213.0967 Y42.1677
G01 X213.0102 Y42.1563
G01 X212.9230 Y42.1525
G01 X212.8358 Y42.1563
G01 X212.7494 Y42.1677
G01 X212.6642 Y42.1866
G01 X212.5810 Y42.2128
G01 X212.5004 Y42.2462
G01 X212.4230 Y42.2865
G01 X212.3494 Y42.3334
G01 X212.2802 Y42.3865
G01 X212.2159 Y42.4454
G01 X212.1570 Y42.5097
G01 X212.1039 Y42.5790
G01 X212.0570 Y42.6525
G01 X212.0167 Y42.7299
G01 X211.9833 Y42.8105
G01 X211.9571 Y42.8937
G01 X211.9382 Y42.9789
G01 X211.9268 Y43.0654
G01 X211.9230 Y43.1525
G01 X211.9268 Y43.2397
G01 X211.9382 Y43.3262
G01 X211.9571 Y43.4113
G01 X211.9833 Y43.4946
G01 X212.0167 Y43.5751
G01 X212.0570 Y43.6525
G01 X212.1039 Y43.7261
G01 X212.1570 Y43.7953
G01 X212.2159 Y43.8596
G01 X212.2802 Y43.9186
G01 X212.3494 Y43.9717
G01 X212.4230 Y44.0186
G01 X212.5004 Y44.0588
G01 X212.5810 Y44.0922
G01 X212.6642 Y44.1185
G01 X212.7494 Y44.1373
G01 X212.8358 Y44.1487
G01 X212.9230 Y44.1525
G01 X213.0102 Y44.1487
G01 X213.0967 Y44.1373
G01 X213.1818 Y44.1185
G01 X213.2650 Y44.0922
G01 X213.3456 Y44.0588
G01 X213.4230 Y44.0186
G01 X213.4966 Y43.9717
G01 X213.5658 Y43.9186
G01 X213.6301 Y43.8596
G01 X213.6890 Y43.7953
G01 X213.7422 Y43.7261
G01 X213.7890 Y43.6525
G01 X213.8293 Y43.5751
G01 X213.8627 Y43.4946
G01 X213.8889 Y43.4113
G01 X213.9078 Y43.3262
G01 X213.9192 Y43.2397
G01 X213.9230 Y43.1525
G01 X213.9338 Y43.1009 F1000
G01 X213.9418 Y43.0489
G01 X213.9472 Y42.9964
G01 X213.9499 Y42.9438
G01 Y42.8911
G01 X213.9471 Y42.8385
G01 X213.9416 Y42.7860
G01 X213.9335 Y42.7340
G01 X213.9218 Y42.6780
G01 X213.9072 Y42.6227
G01 X213.8898 Y42.5682
G01 X213.8697 Y42.5146
G01 X213.8469 Y42.4622
G01 X213.8214 Y42.4110
G01 X213.7933 Y42.3612
G01 X213.7627 Y42.3128
G01 X213.7271 Y42.2624
G01 X213.6890 Y42.2139
G01 X213.6484 Y42.1674
G01 X213.6056 Y42.1230
G01 X213.5605 Y42.0808
G01 X213.5134 Y42.0410
G01 X213.4643 Y42.0036
G01 X213.4133 Y41.9688
G01 X213.3568 Y41.9342
G01 X213.2987 Y41.9026
G01 X213.2390 Y41.8739
G01 X213.1779 Y41.8483
G01 X213.1156 Y41.8258
G01 X213.0522 Y41.8064
G01 X212.9880 Y41.7904
G01 X212.9230 Y41.7775
G01 X212.8530 Y41.7673
G01 X212.7825 Y41.7607
G01 X212.7118 Y41.7576
G01 X212.6411 Y41.7581
G01 X212.5704 Y41.7622
G01 X212.5001 Y41.7698
G01 X212.4302 Y41.7809
G01 X212.3609 Y41.7956
G01 X212.2928 Y41.8216
G01 X212.2259 Y41.8508
G01 X212.1606 Y41.8834
G01 X212.0970 Y41.9191
G01 X212.0352 Y41.9579
G01 X211.9754 Y41.9997
G01 X211.9178 Y42.0444
G01 X211.8624 Y42.0919
G01 X211.8116 Y42.1452
G01 X211.7635 Y42.2010
G01 X211.7182 Y42.2590
G01 X211.6758 Y42.3192
G01 X211.6364 Y42.3814
G01 X211.6001 Y42.4454
G01 X211.5670 Y42.5112
G01 X211.5372 Y42.5785
G01 X211.5107 Y42.6472
G01 X211.4876 Y42.7171
G01 X211.4680 Y42.7881
G01 X211.4519 Y42.8599
G01 X211.4393 Y42.9324
G01 X211.4303 Y43.0055
G01 X211.4248 Y43.0789
G01 X211.4230 Y43.1525
G01 X211.4248 Y43.2261
G01 X211.4303 Y43.2996
G01 X211.4393 Y43.3726
G01 X211.4519 Y43.4452
G01 X211.4680 Y43.5170
G01 X211.4876 Y43.5880
G01 X211.5107 Y43.6579
G01 X211.5372 Y43.7265
G01 X211.5670 Y43.7939
G01 X211.6001 Y43.8596
G01 X211.6364 Y43.9237
G01 X211.6758 Y43.9859
G01 X211.7182 Y44.0461
G01 X211.7635 Y44.1041
G01 X211.8116 Y44.1599
G01 X211.8624 Y44.2132
G01 X211.9157 Y44.2639
G01 X211.9714 Y44.3120
G01 X212.0295 Y44.3573
G01 X212.0897 Y44.3997
G01 X212.1519 Y44.4391
G01 X212.2159 Y44.4754
G01 X212.2817 Y44.5085
G01 X212.3490 Y44.5383
G01 X212.4177 Y44.5648
G01 X212.4876 Y44.5879
G01 X212.5585 Y44.6076
G01 X212.6304 Y44.6237
G01 X212.7029 Y44.6363
G01 X212.7760 Y44.6453
G01 X212.8494 Y44.6507
G01 X212.9230 Y44.6525
G01 X212.9966 Y44.6507
G01 X213.0700 Y44.6453
G01 X213.1431 Y44.6363
G01 X213.2156 Y44.6237
G01 X213.2875 Y44.6076
G01 X213.3584 Y44.5879
G01 X213.4283 Y44.5648
G01 X213.4970 Y44.5383
G01 X213.5643 Y44.5085
G01 X213.6301 Y44.4754
G01 X213.6941 Y44.4391
G01 X213.7563 Y44.3997
G01 X213.8165 Y44.3573
G01 X213.8746 Y44.3120
G01 X213.9303 Y44.2639
G01 X213.9836 Y44.2132
G01 X214.0344 Y44.1599
G01 X214.0825 Y44.1041
G01 X214.1278 Y44.0461
G01 X214.1702 Y43.9859
G01 X214.2096 Y43.9237
G01 X214.2459 Y43.8596
G01 X214.2790 Y43.7939
G01 X214.3088 Y43.7265
G01 X214.3353 Y43.6579
G01 X214.3584 Y43.5880
G01 X214.3780 Y43.5170
G01 X214.3942 Y43.4452
G01 X214.4067 Y43.3726
G01 X214.4158 Y43.2996
G01 X214.4212 Y43.2261
G01 X214.4230 Y43.1525
G01 X214.4188 Y43.0404
G01 X214.4062 Y42.9290
G01 X214.3854 Y42.8188
G01 X214.3563 Y42.7104
G01 X214.3193 Y42.6045
G01 X214.2744 Y42.5017
G01 X214.2220 Y42.4025
G01 X214.1623 Y42.3076
G01 X214.0957 Y42.2173
G01 X214.0226 Y42.1323
G01 X213.9432 Y42.0530
G01 X213.8582 Y41.9798
G01 X213.7680 Y41.9132
G01 X213.6730 Y41.8535
G01 X213.5738 Y41.8011
G01 X213.4710 Y41.7562
G01 X213.3651 Y41.7192
G01 X213.2568 Y41.6902
G01 X213.1466 Y41.6693
G01 X213.0351 Y41.6567
G01 X212.9230 Y41.6526
G01 X212.8109 Y41.6567
G01 X212.6994 Y41.6693
G01 X212.5892 Y41.6902
G01 X212.4809 Y41.7192
G01 X212.3750 Y41.7562
G01 X212.2722 Y41.8011
G01 X212.1730 Y41.8535
G01 X212.0780 Y41.9132
G01 X211.9878 Y41.9798
G01 X211.9028 Y42.0530
G01 X211.8234 Y42.1323
G01 X211.7503 Y42.2173
G01 X211.6837 Y42.3076
G01 X211.6240 Y42.4025
G01 X211.5716 Y42.5017
G01 X211.5267 Y42.6045
G01 X211.4897 Y42.7104
G01 X211.4606 Y42.8188
G01 X211.4398 Y42.9290
G01 X211.4272 Y43.0404
G01 X211.4230 Y43.1525
G01 X211.4272 Y43.2646
G01 X211.4398 Y43.3761
G01 X211.4606 Y43.4863
G01 X211.4897 Y43.5947
G01 X211.5267 Y43.7005
G01 X211.5716 Y43.8033
G01 X211.6240 Y43.9025
G01 X211.6837 Y43.9975
G01 X211.7503 Y44.0878
G01 X211.8234 Y44.1728
G01 X211.9028 Y44.2521
G01 X211.9878 Y44.3253
G01 X212.0780 Y44.3919
G01 X212.1730 Y44.4515
G01 X212.2722 Y44.5040
G01 X212.3750 Y44.5488
G01 X212.4809 Y44.5859
G01 X212.5892 Y44.6149
G01 X212.6994 Y44.6358
G01 X212.8109 Y44.6483
G01 X212.9230 Y44.6525
G01 X213.0351 Y44.6483
G01 X213.1466 Y44.6358
G01 X213.2568 Y44.6149
G01 X213.3651 Y44.5859
G01 X213.4710 Y44.5488
G01 X213.5738 Y44.5040
G01 X213.6730 Y44.4515
G01 X213.7680 Y44.3919
G01 X213.8582 Y44.3253
G01 X213.9432 Y44.2521
G01 X214.0226 Y44.1728
G01 X214.0957 Y44.0878
G01 X214.1623 Y43.9975
G01 X214.2220 Y43.9025
G01 X214.2744 Y43.8033
G01 X214.3193 Y43.7005
G01 X214.3563 Y43.5947
G01 X214.3854 Y43.4863
G01 X214.4062 Y43.3761
G01 X214.4188 Y43.2646
G01 X214.4230 Y43.1525
G01 X214.4191 Y43.0545
G01 X214.4076 Y42.9570
G01 X214.3884 Y42.8607
G01 X214.3618 Y42.7663
G01 X214.3278 Y42.6742
G01 X214.2867 Y42.5850
G01 X214.2388 Y42.4994
G01 X214.1843 Y42.4178
G01 X214.1235 Y42.3407
G01 X214.0569 Y42.2687
G01 X213.9848 Y42.2020
G01 X213.9077 Y42.1413
G01 X213.8261 Y42.0867
G01 X213.7405 Y42.0388
G01 X213.6513 Y41.9977
G01 X213.5593 Y41.9637
G01 X213.4648 Y41.9371
G01 X213.3685 Y41.9179
G01 X213.2711 Y41.9064
G01 X213.1730 Y41.9025
G01 X213.0749 Y41.9064
G01 X212.9775 Y41.9179
G01 X212.8812 Y41.9371
G01 X212.7867 Y41.9637
G01 X212.6946 Y41.9977
G01 X212.6055 Y42.0388
G01 X212.5199 Y42.0867
G01 X212.4383 Y42.1413
G01 X212.3612 Y42.2020
G01 X212.2891 Y42.2687
G01 X212.2225 Y42.3407
G01 X212.1617 Y42.4178
G01 X212.1072 Y42.4994
G01 X212.0592 Y42.5850
G01 X212.0182 Y42.6742
G01 X211.9842 Y42.7663
G01 X211.9575 Y42.8607
G01 X211.9384 Y42.9570
G01 X211.9269 Y43.0545
G01 X211.9230 Y43.1525
G01 X211.9268 Y43.2397
G01 X211.9382 Y43.3262
G01 X211.9571 Y43.4113
G01 X211.9833 Y43.4946
G01 X212.0167 Y43.5751
G01 X212.0570 Y43.6525
G01 X212.1039 Y43.7261
G01 X212.1570 Y43.7953
G01 X212.2159 Y43.8596
G01 X212.2802 Y43.9186
G01 X212.3494 Y43.9717
G01 X212.4230 Y44.0186
G01 X212.5004 Y44.0588
G01 X212.5810 Y44.0922
G01 X212.6642 Y44.1185
G01 X212.7494 Y44.1373
G01 X212.8358 Y44.1487
G01 X212.9230 Y44.1525
G01 X213.0102 Y44.1487
G01 X213.0967 Y44.1373
G01 X213.1818 Y44.1185
G01 X213.2650 Y44.0922
G01 X213.3456 Y44.0588
G01 X213.4230 Y44.0186
G01 X213.4966 Y43.9717
G01 X213.5658 Y43.9186
G01 X213.6301 Y43.8596
G01 X213.6890 Y43.7953
G01 X213.7422 Y43.7261
G01 X213.7890 Y43.6525
G01 X213.8293 Y43.5751
G01 X213.8627 Y43.4946
G01 X213.8889 Y43.4113
G01 X213.9078 Y43.3262
G01 X213.9192 Y43.2397
G01 X213.9230 Y43.1525
M107
M106 S240
G01 X213.9192 Y43.0654 Z-1.5278 F400
G01 X213.9078 Y42.9789 Z-1.5556
G01 X213.8889 Y42.8937 Z-1.5833
G01 X213.8627 Y42.8105 Z-1.6111
G01 X213.8293 Y42.7299 Z-1.6389
G01 X213.7890 Y42.6525 Z-1.6667
G01 X213.7422 Y42.5790 Z-1.6944
G01 X213.6890 Y42.5097 Z-1.7222
G01 X213.6301 Y42.4454 Z-1.7500
G01 X213.5658 Y42.3865 Z-1.7778
G01 X213.4966 Y42.3334 Z-1.8056
G01 X213.4230 Y42.2865 Z-1.8333
G01 X213.3456 Y42.2462 Z-1.8611
G01 X213.2650 Y42.2128 Z-1.8889
G01 X213.1818 Y42.1866 Z-1.9167
G01 X213.0967 Y42.1677 Z-1.9444
G01 X213.0102 Y42.1563 Z-1.9722
G01 X212.9230 Y42.1525 Z-2.0000
G01 X212.8358 Y42.1563 Z-2.0278
G01 X212.7494 Y42.1677 Z-2.0556
G01 X212.6642 Y42.1866 Z-2.0833
G01 X212.5810 Y42.2128 Z-2.1111
G01 X212.5004 Y42.2462 Z-2.1389
G01 X212.4230 Y42.2865 Z-2.1667
G01 X212.3494 Y42.3334 Z-2.1944
G01 X212.2802 Y42.3865 Z-2.2222
G01 X212.2159 Y42.4454 Z-2.2500
G01 X212.1570 Y42.5097 Z-2.2778
G01 X212.1039 Y42.5790 Z-2.3056
G01 X212.0570 Y42.6525 Z-2.3333
G01 X212.0167 Y42.7299 Z-2.3611
G01 X211.9833 Y42.8105 Z-2.3889
G01 X211.9571 Y42.8937 Z-2.4167
G01 X211.9382 Y42.9789 Z-2.4444
G01 X211.9268 Y43.0654 Z-2.4722
G01 X211.9230 Y43.1525 Z-2.5000
G01 X211.9268 Y43.2397 Z-2.5278
G01 X211.9382 Y43.3262 Z-2.5556
G01 X211.9571 Y43.4113 Z-2.5833
G01 X211.9833 Y43.4946 Z-2.6111
G01 X212.0167 Y43.5751 Z-2.6389
G01 X212.0570 Y43.6525 Z-2.6667
G01 X212.1039 Y43.7261 Z-2.6944
G01 X212.1570 Y43.7953 Z-2.7222
G01 X212.2159 Y43.8596 Z-2.7500
G01 X212.2802 Y43.9186 Z-2.7778
G01 X212.3494 Y43.9717 Z-2.8056
G01 X212.4230 Y44.0186 Z-2.8333
G01 X212.5004 Y44.0588 Z-2.8611
G01 X212.5810 Y44.0922 Z-2.8889
G01 X212.6642 Y44.1185 Z-2.9167
G01 X212.7494 Y44.1373 Z-2.9444
G01 X212.8358 Y44.1487 Z-2.9722
G01 X212.9230 Y44.1525 Z-3.0000
G01 X213.0102 Y44.1487 Z-3.0278
G01 X213.0967 Y44.1373 Z-3.0556
G01 X213.1818 Y44.1185 Z-3.0833
G01 X213.2650 Y44.0922 Z-3.1111
G01 X213.3456 Y44.0588 Z-3.1389
G01 X213.4230 Y44.0186 Z-3.1667
G01 X213.4966 Y43.9717 Z-3.1944
G01 X213.5658 Y43.9186 Z-3.2222
G01 X213.6301 Y43.8596 Z-3.2500
G01 X213.6890 Y43.7953 Z-3.2778
G01 X213.7422 Y43.7261 Z-3.3056
G01 X213.7890 Y43.6525 Z-3.3333
G01 X213.8293 Y43.5751 Z-3.3611
G01 X213.8627 Y43.4946 Z-3.3889
G01 X213.8889 Y43.4113 Z-3.4167
G01 X213.9078 Y43.3262 Z-3.4444
G01 X213.9192 Y43.2397 Z-3.4722
G01 X213.9230 Y43.1525 Z-3.5000
G01 X213.9192 Y43.0654
G01 X213.9078 Y42.9789
G01 X213.8889 Y42.8937
G01 X213.8627 Y42.8105
G01 X213.8293 Y42.7299
G01 X213.7890 Y42.6525
G01 X213.7422 Y42.5790
G01 X213.6890 Y42.5097
G01 X213.6301 Y42.4454
G01 X213.5658 Y42.3865
G01 X213.4966 Y42.3334
G01 X213.4230 Y42.2865
G01 X213.3456 Y42.2462
G01 X213.2650 Y42.2128
G01 X213.1818 Y42.1866
G01 X213.0967 Y42.1677
G01 X213.0102 Y42.1563
G01 X212.9230 Y42.1525
G01 X212.8358 Y42.1563
G01 X212.7494 Y42.1677
G01 X212.6642 Y42.1866
G01 X212.5810 Y42.2128
G01 X212.5004 Y42.2462
G01 X212.4230 Y42.2865
G01 X212.3494 Y42.3334
G01 X212.2802 Y42.3865
G01 X212.2159 Y42.4454
G01 X212.1570 Y42.5097
G01 X212.1039 Y42.5790
G01 X212.0570 Y42.6525
G01 X212.0167 Y42.7299
G01 X211.9833 Y42.8105
G01 X211.9571 Y42.8937
G01 X211.9382 Y42.9789
G01 X211.9268 Y43.0654
G01 X211.9230 Y43.1525
G01 X211.9268 Y43.2397
G01 X211.9382 Y43.3262
G01 X211.9571 Y43.4113
G01 X211.9833 Y43.4946
G01 X212.0167 Y43.5751
G01 X212.0570 Y43.6525
G01 X212.1039 Y43.7261
G01 X212.1570 Y43.7953
G01 X212.2159 Y43.8596
G01 X212.2802 Y43.9186
G01 X212.3494 Y43.9717
G01 X212.4230 Y44.0186
G01 X212.5004 Y44.0588
G01 X212.5810 Y44.0922
G01 X212.6642 Y44.1185
G01 X212.7494 Y44.1373
G01 X212.8358 Y44.1487
G01 X212.9230 Y44.1525
G01 X213.0102 Y44.1487
G01 X213.0967 Y44.1373
G01 X213.1818 Y44.1185
G01 X213.2650 Y44.0922
G01 X213.3456 Y44.0588
G01 X213.4230 Y44.0186
G01 X213.4966 Y43.9717
G01 X213.5658 Y43.9186
G01 X213.6301 Y43.8596
G01 X213.6890 Y43.7953
G01 X213.7422 Y43.7261
G01 X213.7890 Y43.6525
G01 X213.8293 Y43.5751
G01 X213.8627 Y43.4946
G01 X213.8889 Y43.4113
G01 X213.9078 Y43.3262
G01 X213.9192 Y43.2397
G01 X213.9230 Y43.1525
G01 X213.9338 Y43.1009 F1000
G01 X213.9418 Y43.0489
G01 X213.9472 Y42.9964
G01 X213.9499 Y42.9438
G01 Y42.8911
G01 X213.9471 Y42.8385
G01 X213.9416 Y42.7860
G01 X213.9335 Y42.7340
G01 X213.9218 Y42.6780
G01 X213.9072 Y42.6227
G01 X213.8898 Y42.5682
G01 X213.8697 Y42.5146
G01 X213.8469 Y42.4622
G01 X213.8214 Y42.4110
G01 X213.7933 Y42.3612
G01 X213.7627 Y42.3128
G01 X213.7271 Y42.2624
G01 X213.6890 Y42.2139
G01 X213.6484 Y42.1674
G01 X213.6056 Y42.1230
G01 X213.5605 Y42.0808
G01 X213.5134 Y42.0410
G01 X213.4643 Y42.0036
G01 X213.4133 Y41.9688
G01 X213.3568 Y41.9342
G01 X213.2987 Y41.9026
G01 X213.2390 Y41.8739
G01 X213.1779 Y41.8483
G01 X213.1156 Y41.8258
G01 X213.0522 Y41.8064
G01 X212.9880 Y41.7904
G01 X212.9230 Y41.7775
G01 X212.8530 Y41.7673
G01 X212.7825 Y41.7607
G01 X212.7118 Y41.7576
G01 X212.6411 Y41.7581
G01 X212.5704 Y41.7622
G01 X212.5001 Y41.7698
G01 X212.4302 Y41.7809
G01 X212.3609 Y41.7956
G01 X212.2928 Y41.8216
G01 X212.2259 Y41.8508
G01 X212.1606 Y41.8834
G01 X212.0970 Y41.9191
G01 X212.0352 Y41.9579
G01 X211.9754 Y41.9997
G01 X211.9178 Y42.0444
G01 X211.8624 Y42.0919
G01 X211.8116 Y42.1452
G01 X211.7635 Y42.2010
G01 X211.7182 Y42.2590
G01 X211.6758 Y42.3192
G01 X211.6364 Y42.3814
G01 X211.6001 Y42.4454
G01 X211.5670 Y42.5112
G01 X211.5372 Y42.5785
G01 X211.5107 Y42.6472
G01 X211.4876 Y42.7171
G01 X211.4680 Y42.7881
G01 X211.4519 Y42.8599
G01 X211.4393 Y42.9324
G01 X211.4303 Y43.0055
G01 X211.4248 Y43.0789
G01 X211.4230 Y43.1525
G01 X211.4248 Y43.2261
G01 X211.4303 Y43.2996
G01 X211.4393 Y43.3726
G01 X211.4519 Y43.4452
G01 X211.4680 Y43.5170
G01 X211.4876 Y43.5880
G01 X211.5107 Y43.6579
G01 X211.5372 Y43.7265
G01 X211.5670 Y43.7939
G01 X211.6001 Y43.8596
G01 X211.6364 Y43.9237
G01 X211.6758 Y43.9859
G01 X211.7182 Y44.0461
G01 X211.7635 Y44.1041
G01 X211.8116 Y44.1599
G01 X211.8624 Y44.2132
G01 X211.9157 Y44.2639
G01 X211.9714 Y44.3120
G01 X212.0295 Y44.3573
G01 X212.0897 Y44.3997
G01 X212.1519 Y44.4391
G01 X212.2159 Y44.4754
G01 X212.2817 Y44.5085
G01 X212.3490 Y44.5383
G01 X212.4177 Y44.5648
G01 X212.4876 Y44.5879
G01 X212.5585 Y44.6076
G01 X212.6304 Y44.6237
G01 X212.7029 Y44.6363
G01 X212.7760 Y44.6453
G01 X212.8494 Y44.6507
G01 X212.9230 Y44.6525
G01 X212.9966 Y44.6507
G01 X213.0700 Y44.6453
G01 X213.1431 Y44.6363
G01 X213.2156 Y44.6237
G01 X213.2875 Y44.6076
G01 X213.3584 Y44.5879
G01 X213.4283 Y44.5648
G01 X213.4970 Y44.5383
G01 X213.5643 Y44.5085
G01 X213.6301 Y44.4754
G01 X213.6941 Y44.4391
G01 X213.7563 Y44.3997
G01 X213.8165 Y44.3573
G01 X213.8746 Y44.3120
G01 X213.9303 Y44.2639
G01 X213.9836 Y44.2132
G01 X214.0344 Y44.1599
G01 X214.0825 Y44.1041
G01 X214.1278 Y44.0461
G01 X214.1702 Y43.9859
G01 X214.2096 Y43.9237
G01 X214.2459 Y43.8596
G01 X214.2790 Y43.7939
G01 X214.3088 Y43.7265
G01 X214.3353 Y43.6579
G01 X214.3584 Y43.5880
G01 X214.3780 Y43.5170
G01 X214.3942 Y43.4452
G01 X214.4067 Y43.3726
G01 X214.4158 Y43.2996
G01 X214.4212 Y43.2261
G01 X214.4230 Y43.1525
G01 X214.4188 Y43.0404
G01 X214.4062 Y42.9290
G01 X214.3854 Y42.8188
G01 X214.3563 Y42.7104
G01 X214.3193 Y42.6045
G01 X214.2744 Y42.5017
G01 X214.2220 Y42.4025
G01 X214.1623 Y42.3076
G01 X214.0957 Y42.2173
G01 X214.0226 Y42.1323
G01 X213.9432 Y42.0530
G01 X213.8582 Y41.9798
G01 X213.7680 Y41.9132
G01 X213.6730 Y41.8535
G01 X213.5738 Y41.8011
G01 X213.4710 Y41.7562
G01 X213.3651 Y41.7192
G01 X213.2568 Y41.6902
G01 X213.1466 Y41.6693
G01 X213.0351 Y41.6567
G01 X212.9230 Y41.6526
G01 X212.8109 Y41.6567
G01 X212.6994 Y41.6693
G01 X212.5892 Y41.6902
G01 X212.4809 Y41.7192
G01 X212.3750 Y41.7562
G01 X212.2722 Y41.8011
G01 X212.1730 Y41.8535
G01 X212.0780 Y41.9132
G01 X211.9878 Y41.9798
G01 X211.9028 Y42.0530
G01 X211.8234 Y42.1323
G01 X211.7503 Y42.2173
G01 X211.6837 Y42.3076
G01 X211.6240 Y42.4025
G01 X211.5716 Y42.5017
G01 X211.5267 Y42.6045
G01 X211.4897 Y42.7104
G01 X211.4606 Y42.8188
G01 X211.4398 Y42.9290
G01 X211.4272 Y43.0404
G01 X211.4230 Y43.1525
