;Project TeslaLogoOnly
;Created by Estlcam version 11 build 11,227
;Machining time about 00:35:31 hours

G90
M03 S18000
G00 X0.0000 Y0.0000 Z0.0000
G00 Z2.0000


;No. 1: Helical drill 1
G00 X20.7092 Y278.0825
G00 Z0.5000
M106 S240
G01 X20.7087 Y278.0688 Z0.4782 F400 S18000
G01 X20.7072 Y278.0552 Z0.4563
G01 X20.7046 Y278.0417 Z0.4345
G01 X20.7011 Y278.0285 Z0.4127
G01 X20.6966 Y278.0156 Z0.3909
G01 X20.6911 Y278.0030 Z0.3690
G01 X20.6847 Y277.9909 Z0.3472
G01 X20.6774 Y277.9793 Z0.3254
G01 X20.6692 Y277.9683 Z0.3036
G01 X20.6603 Y277.9579 Z0.2817
G01 X20.6506 Y277.9482 Z0.2599
G01 X20.6402 Y277.9393 Z0.2381
G01 X20.6292 Y277.9311 Z0.2163
G01 X20.6176 Y277.9238 Z0.1944
G01 X20.6055 Y277.9174 Z0.1726
G01 X20.5929 Y277.9119 Z0.1508
G01 X20.5800 Y277.9074 Z0.1290
G01 X20.5668 Y277.9039 Z0.1071
G01 X20.5533 Y277.9013 Z0.0853
G01 X20.5397 Y277.8998 Z0.0635
G01 X20.5260 Y277.8993 Z0.0417
G01 X20.5123 Y277.8998 Z0.0198
G01 X20.4987 Y277.9013 Z-0.0020
G01 X20.4852 Y277.9039 Z-0.0238
G01 X20.4720 Y277.9074 Z-0.0456
G01 X20.4591 Y277.9119 Z-0.0675
G01 X20.4465 Y277.9174 Z-0.0893
G01 X20.4344 Y277.9238 Z-0.1111
G01 X20.4228 Y277.9311 Z-0.1329
G01 X20.4118 Y277.9393 Z-0.1548
G01 X20.4014 Y277.9482 Z-0.1766
G01 X20.3917 Y277.9579 Z-0.1984
G01 X20.3828 Y277.9683 Z-0.2202
G01 X20.3746 Y277.9793 Z-0.2421
G01 X20.3673 Y277.9909 Z-0.2639
G01 X20.3609 Y278.0030 Z-0.2857
G01 X20.3555 Y278.0156 Z-0.3075
G01 X20.3509 Y278.0285 Z-0.3294
G01 X20.3474 Y278.0417 Z-0.3512
G01 X20.3448 Y278.0552 Z-0.3730
G01 X20.3433 Y278.0688 Z-0.3948
G01 X20.3428 Y278.0825 Z-0.4167
G01 X20.3433 Y278.0962 Z-0.4385
G01 X20.3448 Y278.1098 Z-0.4603
G01 X20.3474 Y278.1233 Z-0.4821
G01 X20.3509 Y278.1365 Z-0.5040
G01 X20.3555 Y278.1494 Z-0.5258
G01 X20.3609 Y278.1620 Z-0.5476
G01 X20.3673 Y278.1741 Z-0.5694
G01 X20.3746 Y278.1857 Z-0.5913
G01 X20.3828 Y278.1967 Z-0.6131
G01 X20.3917 Y278.2071 Z-0.6349
G01 X20.4014 Y278.2168 Z-0.6567
G01 X20.4118 Y278.2257 Z-0.6786
G01 X20.4228 Y278.2339 Z-0.7004
G01 X20.4344 Y278.2412 Z-0.7222
G01 X20.4465 Y278.2476 Z-0.7440
G01 X20.4591 Y278.2530 Z-0.7659
G01 X20.4720 Y278.2576 Z-0.7877
G01 X20.4852 Y278.2611 Z-0.8095
G01 X20.4987 Y278.2637 Z-0.8313
G01 X20.5123 Y278.2652 Z-0.8532
G01 X20.5260 Y278.2657 Z-0.8750
G01 X20.5397 Y278.2652 Z-0.8968
G01 X20.5533 Y278.2637 Z-0.9187
G01 X20.5668 Y278.2611 Z-0.9405
G01 X20.5800 Y278.2576 Z-0.9623
G01 X20.5929 Y278.2530 Z-0.9841
G01 X20.6055 Y278.2476 Z-1.0060
G01 X20.6176 Y278.2412 Z-1.0278
G01 X20.6292 Y278.2339 Z-1.0496
G01 X20.6402 Y278.2257 Z-1.0714
G01 X20.6506 Y278.2168 Z-1.0933
G01 X20.6603 Y278.2071 Z-1.1151
G01 X20.6692 Y278.1967 Z-1.1369
G01 X20.6774 Y278.1857 Z-1.1587
G01 X20.6847 Y278.1741 Z-1.1806
G01 X20.6911 Y278.1620 Z-1.2024
G01 X20.6966 Y278.1494 Z-1.2242
G01 X20.7011 Y278.1365 Z-1.2460
G01 X20.7046 Y278.1233 Z-1.2679
G01 X20.7072 Y278.1098 Z-1.2897
G01 X20.7087 Y278.0962 Z-1.3115
G01 X20.7092 Y278.0825 Z-1.3333
G01 X20.7087 Y278.0688 Z-1.3552
G01 X20.7072 Y278.0552 Z-1.3770
G01 X20.7046 Y278.0417 Z-1.3988
G01 X20.7011 Y278.0285 Z-1.4206
G01 X20.6966 Y278.0156 Z-1.4425
G01 X20.6911 Y278.0030 Z-1.4643
G01 X20.6847 Y277.9909 Z-1.4861
G01 X20.6774 Y277.9793 Z-1.5079
G01 X20.6692 Y277.9683 Z-1.5298
G01 X20.6603 Y277.9579 Z-1.5516
G01 X20.6506 Y277.9482 Z-1.5734
G01 X20.6402 Y277.9393 Z-1.5952
G01 X20.6292 Y277.9311 Z-1.6171
G01 X20.6176 Y277.9238 Z-1.6389
G01 X20.6055 Y277.9174 Z-1.6607
G01 X20.5929 Y277.9119 Z-1.6825
G01 X20.5800 Y277.9074 Z-1.7044
G01 X20.5668 Y277.9039 Z-1.7262
G01 X20.5533 Y277.9013 Z-1.7480
G01 X20.5397 Y277.8998 Z-1.7698
G01 X20.5260 Y277.8993 Z-1.7917
G01 X20.5123 Y277.8998 Z-1.8135
G01 X20.4987 Y277.9013 Z-1.8353
G01 X20.4852 Y277.9039 Z-1.8571
G01 X20.4720 Y277.9074 Z-1.8790
G01 X20.4591 Y277.9119 Z-1.9008
G01 X20.4465 Y277.9174 Z-1.9226
G01 X20.4344 Y277.9238 Z-1.9444
G01 X20.4228 Y277.9311 Z-1.9663
G01 X20.4118 Y277.9393 Z-1.9881
G01 X20.4014 Y277.9482 Z-2.0099
G01 X20.3917 Y277.9579 Z-2.0317
G01 X20.3828 Y277.9683 Z-2.0536
G01 X20.3746 Y277.9793 Z-2.0754
G01 X20.3673 Y277.9909 Z-2.0972
G01 X20.3609 Y278.0030 Z-2.1190
G01 X20.3555 Y278.0156 Z-2.1409
G01 X20.3509 Y278.0285 Z-2.1627
G01 X20.3474 Y278.0417 Z-2.1845
G01 X20.3448 Y278.0552 Z-2.2063
G01 X20.3433 Y278.0688 Z-2.2282
G01 X20.3428 Y278.0825 Z-2.2500
G01 X20.3433 Y278.0962 Z-2.2718
G01 X20.3448 Y278.1098 Z-2.2937
G01 X20.3474 Y278.1233 Z-2.3155
G01 X20.3509 Y278.1365 Z-2.3373
G01 X20.3555 Y278.1494 Z-2.3591
G01 X20.3609 Y278.1620 Z-2.3810
G01 X20.3673 Y278.1741 Z-2.4028
G01 X20.3746 Y278.1857 Z-2.4246
G01 X20.3828 Y278.1967 Z-2.4464
G01 X20.3917 Y278.2071 Z-2.4683
G01 X20.4014 Y278.2168 Z-2.4901
G01 X20.4118 Y278.2257 Z-2.5119
G01 X20.4228 Y278.2339 Z-2.5337
G01 X20.4344 Y278.2412 Z-2.5556
G01 X20.4465 Y278.2476 Z-2.5774
G01 X20.4591 Y278.2530 Z-2.5992
G01 X20.4720 Y278.2576 Z-2.6210
G01 X20.4852 Y278.2611 Z-2.6429
G01 X20.4987 Y278.2637 Z-2.6647
G01 X20.5123 Y278.2652 Z-2.6865
G01 X20.5260 Y278.2657 Z-2.7083
G01 X20.5397 Y278.2652 Z-2.7302
G01 X20.5533 Y278.2637 Z-2.7520
G01 X20.5668 Y278.2611 Z-2.7738
G01 X20.5800 Y278.2576 Z-2.7956
G01 X20.5929 Y278.2530 Z-2.8175
G01 X20.6055 Y278.2476 Z-2.8393
G01 X20.6176 Y278.2412 Z-2.8611
G01 X20.6292 Y278.2339 Z-2.8829
G01 X20.6402 Y278.2257 Z-2.9048
G01 X20.6506 Y278.2168 Z-2.9266
G01 X20.6603 Y278.2071 Z-2.9484
G01 X20.6692 Y278.1967 Z-2.9702
G01 X20.6774 Y278.1857 Z-2.9921
G01 X20.6847 Y278.1741 Z-3.0139
G01 X20.6911 Y278.1620 Z-3.0357
G01 X20.6966 Y278.1494 Z-3.0575
G01 X20.7011 Y278.1365 Z-3.0794
G01 X20.7046 Y278.1233 Z-3.1012
G01 X20.7072 Y278.1098 Z-3.1230
G01 X20.7087 Y278.0962 Z-3.1448
G01 X20.7092 Y278.0825 Z-3.1667
G01 X20.7087 Y278.0688 Z-3.1885
G01 X20.7072 Y278.0552 Z-3.2103
G01 X20.7046 Y278.0417 Z-3.2321
G01 X20.7011 Y278.0285 Z-3.2540
G01 X20.6966 Y278.0156 Z-3.2758
G01 X20.6911 Y278.0030 Z-3.2976
G01 X20.6847 Y277.9909 Z-3.3194
G01 X20.6774 Y277.9793 Z-3.3413
G01 X20.6692 Y277.9683 Z-3.3631
G01 X20.6603 Y277.9579 Z-3.3849
G01 X20.6506 Y277.9482 Z-3.4067
G01 X20.6402 Y277.9393 Z-3.4286
G01 X20.6292 Y277.9311 Z-3.4504
G01 X20.6176 Y277.9238 Z-3.4722
G01 X20.6055 Y277.9174 Z-3.4940
G01 X20.5929 Y277.9119 Z-3.5159
G01 X20.5800 Y277.9074 Z-3.5377
G01 X20.5668 Y277.9039 Z-3.5595
G01 X20.5533 Y277.9013 Z-3.5813
G01 X20.5397 Y277.8998 Z-3.6032
G01 X20.5260 Y277.8993 Z-3.6250
G01 X20.5123 Y277.8998 Z-3.6468
G01 X20.4987 Y277.9013 Z-3.6687
G01 X20.4852 Y277.9039 Z-3.6905
G01 X20.4720 Y277.9074 Z-3.7123
G01 X20.4591 Y277.9119 Z-3.7341
G01 X20.4465 Y277.9174 Z-3.7560
G01 X20.4344 Y277.9238 Z-3.7778
G01 X20.4228 Y277.9311 Z-3.7996
G01 X20.4118 Y277.9393 Z-3.8214
G01 X20.4014 Y277.9482 Z-3.8433
G01 X20.3917 Y277.9579 Z-3.8651
G01 X20.3828 Y277.9683 Z-3.8869
G01 X20.3746 Y277.9793 Z-3.9087
G01 X20.3673 Y277.9909 Z-3.9306
G01 X20.3609 Y278.0030 Z-3.9524
G01 X20.3555 Y278.0156 Z-3.9742
G01 X20.3509 Y278.0285 Z-3.9960
G01 X20.3474 Y278.0417 Z-4.0179
G01 X20.3448 Y278.0552 Z-4.0397
G01 X20.3433 Y278.0688 Z-4.0615
G01 X20.3428 Y278.0825 Z-4.0833
G01 X20.3433 Y278.0962 Z-4.1052
G01 X20.3448 Y278.1098 Z-4.1270
G01 X20.3474 Y278.1233 Z-4.1488
G01 X20.3509 Y278.1365 Z-4.1706
G01 X20.3555 Y278.1494 Z-4.1925
G01 X20.3609 Y278.1620 Z-4.2143
G01 X20.3673 Y278.1741 Z-4.2361
G01 X20.3746 Y278.1857 Z-4.2579
G01 X20.3828 Y278.1967 Z-4.2798
G01 X20.3917 Y278.2071 Z-4.3016
G01 X20.4014 Y278.2168 Z-4.3234
G01 X20.4118 Y278.2257 Z-4.3452
G01 X20.4228 Y278.2339 Z-4.3671
G01 X20.4344 Y278.2412 Z-4.3889
G01 X20.4465 Y278.2476 Z-4.4107
G01 X20.4591 Y278.2530 Z-4.4325
G01 X20.4720 Y278.2576 Z-4.4544
G01 X20.4852 Y278.2611 Z-4.4762
G01 X20.4987 Y278.2637 Z-4.4980
G01 X20.5123 Y278.2652 Z-4.5198
G01 X20.5260 Y278.2657 Z-4.5417
G01 X20.5397 Y278.2652 Z-4.5635
G01 X20.5533 Y278.2637 Z-4.5853
G01 X20.5668 Y278.2611 Z-4.6071
G01 X20.5800 Y278.2576 Z-4.6290
G01 X20.5929 Y278.2530 Z-4.6508
G01 X20.6055 Y278.2476 Z-4.6726
G01 X20.6176 Y278.2412 Z-4.6944
G01 X20.6292 Y278.2339 Z-4.7163
G01 X20.6402 Y278.2257 Z-4.7381
G01 X20.6506 Y278.2168 Z-4.7599
G01 X20.6603 Y278.2071 Z-4.7817
G01 X20.6692 Y278.1967 Z-4.8036
G01 X20.6774 Y278.1857 Z-4.8254
G01 X20.6847 Y278.1741 Z-4.8472
G01 X20.6911 Y278.1620 Z-4.8690
G01 X20.6966 Y278.1494 Z-4.8909
G01 X20.7011 Y278.1365 Z-4.9127
G01 X20.7046 Y278.1233 Z-4.9345
G01 X20.7072 Y278.1098 Z-4.9563
G01 X20.7087 Y278.0962 Z-4.9782
G01 X20.7092 Y278.0825 Z-5.0000
G01 X20.7087 Y278.0688
G01 X20.7072 Y278.0552
G01 X20.7046 Y278.0417
G01 X20.7011 Y278.0285
G01 X20.6966 Y278.0156
G01 X20.6911 Y278.0030
G01 X20.6847 Y277.9909
G01 X20.6774 Y277.9793
G01 X20.6692 Y277.9683
G01 X20.6603 Y277.9579
G01 X20.6506 Y277.9482
G01 X20.6402 Y277.9393
G01 X20.6292 Y277.9311
G01 X20.6176 Y277.9238
G01 X20.6055 Y277.9174
G01 X20.5929 Y277.9119
G01 X20.5800 Y277.9074
G01 X20.5668 Y277.9039
G01 X20.5533 Y277.9013
G01 X20.5397 Y277.8998
G01 X20.5260 Y277.8993
G01 X20.5123 Y277.8998
G01 X20.4987 Y277.9013
G01 X20.4852 Y277.9039
G01 X20.4720 Y277.9074
G01 X20.4591 Y277.9119
G01 X20.4465 Y277.9174
G01 X20.4344 Y277.9238
G01 X20.4228 Y277.9311
G01 X20.4118 Y277.9393
G01 X20.4014 Y277.9482
G01 X20.3917 Y277.9579
G01 X20.3828 Y277.9683
G01 X20.3746 Y277.9793
G01 X20.3673 Y277.9909
G01 X20.3609 Y278.0030
G01 X20.3555 Y278.0156
G01 X20.3509 Y278.0285
G01 X20.3474 Y278.0417
G01 X20.3448 Y278.0552
G01 X20.3433 Y278.0688
G01 X20.3428 Y278.0825
G01 X20.3433 Y278.0962
G01 X20.3448 Y278.1098
G01 X20.3474 Y278.1233
G01 X20.3509 Y278.1365
G01 X20.3555 Y278.1494
G01 X20.3609 Y278.1620
G01 X20.3673 Y278.1741
G01 X20.3746 Y278.1857
G01 X20.3828 Y278.1967
G01 X20.3917 Y278.2071
G01 X20.4014 Y278.2168
G01 X20.4118 Y278.2257
G01 X20.4228 Y278.2339
G01 X20.4344 Y278.2412
G01 X20.4465 Y278.2476
G01 X20.4591 Y278.2530
G01 X20.4720 Y278.2576
G01 X20.4852 Y278.2611
G01 X20.4987 Y278.2637
G01 X20.5123 Y278.2652
G01 X20.5260 Y278.2657
G01 X20.5397 Y278.2652
G01 X20.5533 Y278.2637
G01 X20.5668 Y278.2611
G01 X20.5800 Y278.2576
G01 X20.5929 Y278.2530
G01 X20.6055 Y278.2476
G01 X20.6176 Y278.2412
G01 X20.6292 Y278.2339
G01 X20.6402 Y278.2257
G01 X20.6506 Y278.2168
G01 X20.6603 Y278.2071
G01 X20.6692 Y278.1967
G01 X20.6774 Y278.1857
G01 X20.6847 Y278.1741
G01 X20.6911 Y278.1620
G01 X20.6966 Y278.1494
G01 X20.7011 Y278.1365
G01 X20.7046 Y278.1233
G01 X20.7072 Y278.1098
G01 X20.7087 Y278.0962
G01 X20.7092 Y278.0825
M107
M106 S240
G01 X20.7089 Y278.0753 Z-4.9875
M107
M106 S240
G01 X20.7081 Y278.0682 Z-4.9750
M107
M106 S240
G01 X20.7067 Y278.0611 Z-4.9625
M107
M106 S240
G01 X20.7047 Y278.0542 Z-4.9500
M107
M106 S240
G01 X20.7022 Y278.0474 Z-4.9375
M107
M106 S240
G01 X20.6992 Y278.0409 Z-4.9250
M107
M106 S240
G01 X20.6957 Y278.0346 Z-4.9125
M107
M106 S240
G01 X20.6917 Y278.0287 Z-4.9000
M107
M106 S240
G01 X20.6873 Y278.0230 Z-4.8875
M107
M106 S240
G01 X20.6824 Y278.0177 Z-4.8750
M107
M106 S240
G01 X20.6771 Y278.0128 Z-4.8625
M107
M106 S240
G01 X20.6715 Y278.0084 Z-4.8500
M107
M106 S240
G01 X20.6655 Y278.0044 Z-4.8375
M107
M106 S240
G01 X20.6592 Y278.0009 Z-4.8250
M107
M106 S240
G01 X20.6527 Y277.9979 Z-4.8125
M107
M106 S240
G01 X20.6459 Y277.9954 Z-4.8000
M107
M106 S240
G01 X20.6390 Y277.9934 Z-4.7875
M107
M106 S240
G01 X20.6319 Y277.9920 Z-4.7750
M107
M106 S240
G01 X20.6248 Y277.9912 Z-4.7625
M107
M106 S240
G01 X20.6176 Y277.9909 Z-4.7500
M107
M106 S240
G01 X20.6104 Y277.9912 Z-4.7375
M107
M106 S240
G01 X20.6033 Y277.9920 Z-4.7250
M107
M106 S240
G01 X20.5962 Y277.9934 Z-4.7125
M107
M106 S240
G01 X20.5893 Y277.9954 Z-4.7000
M107
M106 S240
G01 X20.5826 Y277.9979 Z-4.6875
M107
M106 S240
G01 X20.5760 Y278.0009 Z-4.6750
M107
M106 S240
G01 X20.5698 Y278.0044 Z-4.6625
M107
M106 S240
G01 X20.5638 Y278.0084 Z-4.6500
M107
M106 S240
G01 X20.5581 Y278.0128 Z-4.6375
M107
M106 S240
G01 X20.5528 Y278.0177 Z-4.6250
M107
M106 S240
G01 X20.5480 Y278.0230 Z-4.6125
M107
M106 S240
G01 X20.5435 Y278.0287 Z-4.6000
M107
M106 S240
G01 X20.5395 Y278.0346 Z-4.5875
M107
M106 S240
G01 X20.5360 Y278.0409 Z-4.5750
M107
M106 S240
G01 X20.5330 Y278.0474 Z-4.5625
M107
M106 S240
G01 X20.5305 Y278.0542 Z-4.5500
M107
M106 S240
G01 X20.5285 Y278.0611 Z-4.5375
M107
M106 S240
G01 X20.5271 Y278.0682 Z-4.5250
M107
M106 S240
G01 X20.5263 Y278.0753 Z-4.5125
M107
M106 S240
G01 X20.5260 Y278.0825 Z-4.5000
M107
G00 Z2.0000


;No. 2: Hole 2
G00 X23.4013 Y264.8809 Z2.0000
G00 Z0.5000
G01 Z0.0000 F400
G01 Z-1.2000
M106 S240
G01 X31.7156 F1000
G01 X28.2850 Y266.3809
G01 X38.2982
G01 X34.2430 Y267.8809
G01 X50.3191
G01 Y269.3809
G01 X42.4754
G01 X71.8014
G01 Y267.8809
G01 X63.9448
G01 X80.0397
G01 X75.9257 Y266.3809
G01 X85.9677
G01 X82.5128 Y264.8809
G01 X90.8365
G01 X87.5688 Y263.3809
G01 X95.0711
G01 X94.9229 Y261.8809
G01 X91.7688
M107
G00 Z2.0000
G00 X26.6907 Y264.8809
G00 Z0.5000
G01 Z-1.2000 F400
M106 S240
G01 Y263.3809 F1000
G01 X19.1922
G01 X19.3464 Y261.8809
G01 X22.4969
G01 X22.5462 Y261.6855
G01 X21.8564 Y261.4101
G01 X21.1669 Y261.1339
G01 X20.4778 Y260.8569
G01 X19.7889 Y260.5791
G01 X19.4377 Y261.2543
G01 X19.0969 Y261.9348
G01 X18.7667 Y262.6205
G01 X18.4471 Y263.3113
G01 X20.3048 Y264.0113
G01 X22.1749 Y264.6772
G01 X24.0570 Y265.3088
G01 X25.9502 Y265.9059
G01 X27.8541 Y266.4683
G01 X29.7679 Y266.9958
G01 X31.6911 Y267.4882
G01 X33.6229 Y267.9454
G01 X35.5628 Y268.3672
G01 X37.5100 Y268.7535
G01 X39.4640 Y269.1040
G01 X41.4241 Y269.4189
G01 X43.3896 Y269.6978
G01 X45.3599 Y269.9407
G01 X47.3342 Y270.1476
G01 X49.3121 Y270.3184
G01 X51.2927 Y270.4530
G01 X53.2755 Y270.5513
G01 X55.2597 Y270.6134
G01 X57.2447 Y270.6392
G01 X59.2183 Y270.6111
G01 X61.1911 Y270.5470
G01 X63.1623 Y270.4468
G01 X65.1314 Y270.3107
G01 X67.0977 Y270.1386
G01 X69.0605 Y269.9306
G01 X71.0192 Y269.6867
G01 X72.9731 Y269.4071
G01 X74.9216 Y269.0919
G01 X76.8639 Y268.7411
G01 X78.7996 Y268.3549
G01 X80.7278 Y267.9333
G01 X82.6481 Y267.4766
G01 X84.5597 Y266.9849
G01 X86.4619 Y266.4584
G01 X88.3543 Y265.8971
G01 X90.2360 Y265.3014
G01 X92.1066 Y264.6714
G01 X93.9653 Y264.0074
G01 X95.8116 Y263.3095
G01 X95.4945 Y262.6181
G01 X95.1690 Y261.9306
G01 X94.8353 Y261.2471
G01 X94.4933 Y260.5677
G01 X92.9558 Y261.1980
G01 X91.4072 Y261.8008
G01 X89.8482 Y262.3757
G01 X88.2790 Y262.9227
G01 X86.7004 Y263.4415
G01 X85.1127 Y263.9320
G01 X83.5165 Y264.3940
G01 X81.9122 Y264.8274
G01 X80.3005 Y265.2321
G01 X78.6818 Y265.6078
G01 X77.0567 Y265.9545
G01 X75.4256 Y266.2721
G01 X73.7891 Y266.5605
G01 X72.1476 Y266.8196
G01 X70.5019 Y267.0492
G01 X68.8522 Y267.2494
G01 X67.1993 Y267.4201
G01 X65.5436 Y267.5611
G01 X63.8856 Y267.6725
G01 X62.2258 Y267.7543
G01 X60.8867 Y267.7966
G01 X59.5473 Y267.8266
G01 X58.2076 Y267.8444
G01 X56.8679 Y267.8500
G01 X55.5281 Y267.8433
G01 X54.1884 Y267.8243
G01 X52.8490 Y267.7931
G01 X51.5100 Y267.7497
G01 X50.0263 Y267.6686
G01 X48.5441 Y267.5639
G01 X47.0638 Y267.4354
G01 X45.5857 Y267.2833
G01 X44.1102 Y267.1077
G01 X42.6377 Y266.9084
G01 X41.1686 Y266.6857
G01 X39.7033 Y266.4395
G01 X38.2421 Y266.1700
G01 X36.7853 Y265.8771
G01 X35.3335 Y265.5610
G01 X33.8868 Y265.2217
G01 X32.4458 Y264.8594
G01 X31.0107 Y264.4741
G01 X29.5820 Y264.0659
G01 X28.1600 Y263.6349
G01 X26.7450 Y263.1813
G01 X25.3375 Y262.7051
G01 X23.9378 Y262.2065
G01 X22.5462 Y261.6855
G01 X22.4969 Y261.8809
M107
G00 Z2.0000


;No. 3: Helical drill 2
G00 X94.0695 Y278.0825 Z2.0000
G00 Z0.5000
M106 S240
G01 X94.0690 Y278.0688 Z0.4782 F400
G01 X94.0674 Y278.0552 Z0.4563
G01 X94.0649 Y278.0417 Z0.4345
G01 X94.0613 Y278.0285 Z0.4127
G01 X94.0568 Y278.0156 Z0.3909
G01 X94.0513 Y278.0030 Z0.3690
G01 X94.0449 Y277.9909 Z0.3472
G01 X94.0376 Y277.9793 Z0.3254
G01 X94.0295 Y277.9683 Z0.3036
G01 X94.0206 Y277.9579 Z0.2817
G01 X94.0109 Y277.9482 Z0.2599
G01 X94.0005 Y277.9393 Z0.2381
G01 X93.9895 Y277.9311 Z0.2163
G01 X93.9779 Y277.9238 Z0.1944
G01 X93.9658 Y277.9174 Z0.1726
G01 X93.9532 Y277.9120 Z0.1508
G01 X93.9403 Y277.9074 Z0.1290
G01 X93.9270 Y277.9039 Z0.1071
G01 X93.9136 Y277.9013 Z0.0853
G01 X93.9000 Y277.8998 Z0.0635
G01 X93.8863 Y277.8993 Z0.0417
G01 X93.8726 Y277.8998 Z0.0198
G01 X93.8590 Y277.9013 Z-0.0020
G01 X93.8455 Y277.9039 Z-0.0238
G01 X93.8323 Y277.9074 Z-0.0456
G01 X93.8193 Y277.9120 Z-0.0675
G01 X93.8068 Y277.9174 Z-0.0893
G01 X93.7947 Y277.9238 Z-0.1111
G01 X93.7831 Y277.9311 Z-0.1329
G01 X93.7720 Y277.9393 Z-0.1548
G01 X93.7617 Y277.9482 Z-0.1766
G01 X93.7520 Y277.9579 Z-0.1984
G01 X93.7430 Y277.9683 Z-0.2202
G01 X93.7349 Y277.9793 Z-0.2421
G01 X93.7276 Y277.9909 Z-0.2639
G01 X93.7212 Y278.0030 Z-0.2857
G01 X93.7157 Y278.0156 Z-0.3075
G01 X93.7112 Y278.0285 Z-0.3294
G01 X93.7077 Y278.0417 Z-0.3512
G01 X93.7051 Y278.0552 Z-0.3730
G01 X93.7036 Y278.0688 Z-0.3948
G01 X93.7031 Y278.0825 Z-0.4167
G01 X93.7036 Y278.0962 Z-0.4385
G01 X93.7051 Y278.1098 Z-0.4603
G01 X93.7077 Y278.1233 Z-0.4821
G01 X93.7112 Y278.1365 Z-0.5040
G01 X93.7157 Y278.1494 Z-0.5258
G01 X93.7212 Y278.1620 Z-0.5476
G01 X93.7276 Y278.1741 Z-0.5694
G01 X93.7349 Y278.1857 Z-0.5913
G01 X93.7430 Y278.1967 Z-0.6131
G01 X93.7520 Y278.2071 Z-0.6349
G01 X93.7617 Y278.2168 Z-0.6567
G01 X93.7720 Y278.2257 Z-0.6786
G01 X93.7831 Y278.2339 Z-0.7004
G01 X93.7947 Y278.2412 Z-0.7222
G01 X93.8068 Y278.2476 Z-0.7440
G01 X93.8193 Y278.2530 Z-0.7659
G01 X93.8323 Y278.2576 Z-0.7877
G01 X93.8455 Y278.2611 Z-0.8095
G01 X93.8590 Y278.2637 Z-0.8313
G01 X93.8726 Y278.2652 Z-0.8532
G01 X93.8863 Y278.2657 Z-0.8750
G01 X93.9000 Y278.2652 Z-0.8968
G01 X93.9136 Y278.2637 Z-0.9187
G01 X93.9270 Y278.2611 Z-0.9405
G01 X93.9403 Y278.2576 Z-0.9623
G01 X93.9532 Y278.2530 Z-0.9841
G01 X93.9658 Y278.2476 Z-1.0060
G01 X93.9779 Y278.2412 Z-1.0278
G01 X93.9895 Y278.2339 Z-1.0496
G01 X94.0005 Y278.2257 Z-1.0714
G01 X94.0109 Y278.2168 Z-1.0933
G01 X94.0206 Y278.2071 Z-1.1151
G01 X94.0295 Y278.1967 Z-1.1369
G01 X94.0376 Y278.1857 Z-1.1587
G01 X94.0449 Y278.1741 Z-1.1806
G01 X94.0513 Y278.1620 Z-1.2024
G01 X94.0568 Y278.1494 Z-1.2242
G01 X94.0613 Y278.1365 Z-1.2460
G01 X94.0649 Y278.1233 Z-1.2679
G01 X94.0674 Y278.1098 Z-1.2897
G01 X94.0690 Y278.0962 Z-1.3115
G01 X94.0695 Y278.0825 Z-1.3333
G01 X94.0690 Y278.0688 Z-1.3552
G01 X94.0674 Y278.0552 Z-1.3770
G01 X94.0649 Y278.0417 Z-1.3988
G01 X94.0613 Y278.0285 Z-1.4206
G01 X94.0568 Y278.0156 Z-1.4425
G01 X94.0513 Y278.0030 Z-1.4643
G01 X94.0449 Y277.9909 Z-1.4861
G01 X94.0376 Y277.9793 Z-1.5079
G01 X94.0295 Y277.9683 Z-1.5298
G01 X94.0206 Y277.9579 Z-1.5516
G01 X94.0109 Y277.9482 Z-1.5734
G01 X94.0005 Y277.9393 Z-1.5952
G01 X93.9895 Y277.9311 Z-1.6171
G01 X93.9779 Y277.9238 Z-1.6389
G01 X93.9658 Y277.9174 Z-1.6607
G01 X93.9532 Y277.9120 Z-1.6825
G01 X93.9403 Y277.9074 Z-1.7044
G01 X93.9270 Y277.9039 Z-1.7262
G01 X93.9136 Y277.9013 Z-1.7480
G01 X93.9000 Y277.8998 Z-1.7698
G01 X93.8863 Y277.8993 Z-1.7917
G01 X93.8726 Y277.8998 Z-1.8135
G01 X93.8590 Y277.9013 Z-1.8353
G01 X93.8455 Y277.9039 Z-1.8571
G01 X93.8323 Y277.9074 Z-1.8790
G01 X93.8193 Y277.9120 Z-1.9008
G01 X93.8068 Y277.9174 Z-1.9226
G01 X93.7947 Y277.9238 Z-1.9444
G01 X93.7831 Y277.9311 Z-1.9663
G01 X93.7720 Y277.9393 Z-1.9881
G01 X93.7617 Y277.9482 Z-2.0099
G01 X93.7520 Y277.9579 Z-2.0317
G01 X93.7430 Y277.9683 Z-2.0536
G01 X93.7349 Y277.9793 Z-2.0754
G01 X93.7276 Y277.9909 Z-2.0972
G01 X93.7212 Y278.0030 Z-2.1190
G01 X93.7157 Y278.0156 Z-2.1409
G01 X93.7112 Y278.0285 Z-2.1627
G01 X93.7077 Y278.0417 Z-2.1845
G01 X93.7051 Y278.0552 Z-2.2063
G01 X93.7036 Y278.0688 Z-2.2282
G01 X93.7031 Y278.0825 Z-2.2500
G01 X93.7036 Y278.0962 Z-2.2718
G01 X93.7051 Y278.1098 Z-2.2937
G01 X93.7077 Y278.1233 Z-2.3155
G01 X93.7112 Y278.1365 Z-2.3373
G01 X93.7157 Y278.1494 Z-2.3591
G01 X93.7212 Y278.1620 Z-2.3810
G01 X93.7276 Y278.1741 Z-2.4028
G01 X93.7349 Y278.1857 Z-2.4246
G01 X93.7430 Y278.1967 Z-2.4464
G01 X93.7520 Y278.2071 Z-2.4683
G01 X93.7617 Y278.2168 Z-2.4901
G01 X93.7720 Y278.2257 Z-2.5119
G01 X93.7831 Y278.2339 Z-2.5337
G01 X93.7947 Y278.2412 Z-2.5556
G01 X93.8068 Y278.2476 Z-2.5774
G01 X93.8193 Y278.2530 Z-2.5992
G01 X93.8323 Y278.2576 Z-2.6210
G01 X93.8455 Y278.2611 Z-2.6429
G01 X93.8590 Y278.2637 Z-2.6647
G01 X93.8726 Y278.2652 Z-2.6865
G01 X93.8863 Y278.2657 Z-2.7083
G01 X93.9000 Y278.2652 Z-2.7302
G01 X93.9136 Y278.2637 Z-2.7520
G01 X93.9270 Y278.2611 Z-2.7738
G01 X93.9403 Y278.2576 Z-2.7956
G01 X93.9532 Y278.2530 Z-2.8175
G01 X93.9658 Y278.2476 Z-2.8393
G01 X93.9779 Y278.2412 Z-2.8611
G01 X93.9895 Y278.2339 Z-2.8829
G01 X94.0005 Y278.2257 Z-2.9048
G01 X94.0109 Y278.2168 Z-2.9266
G01 X94.0206 Y278.2071 Z-2.9484
G01 X94.0295 Y278.1967 Z-2.9702
G01 X94.0376 Y278.1857 Z-2.9921
G01 X94.0449 Y278.1741 Z-3.0139
G01 X94.0513 Y278.1620 Z-3.0357
G01 X94.0568 Y278.1494 Z-3.0575
G01 X94.0613 Y278.1365 Z-3.0794
G01 X94.0649 Y278.1233 Z-3.1012
G01 X94.0674 Y278.1098 Z-3.1230
G01 X94.0690 Y278.0962 Z-3.1448
G01 X94.0695 Y278.0825 Z-3.1667
G01 X94.0690 Y278.0688 Z-3.1885
G01 X94.0674 Y278.0552 Z-3.2103
G01 X94.0649 Y278.0417 Z-3.2321
G01 X94.0613 Y278.0285 Z-3.2540
G01 X94.0568 Y278.0156 Z-3.2758
G01 X94.0513 Y278.0030 Z-3.2976
G01 X94.0449 Y277.9909 Z-3.3194
G01 X94.0376 Y277.9793 Z-3.3413
G01 X94.0295 Y277.9683 Z-3.3631
G01 X94.0206 Y277.9579 Z-3.3849
G01 X94.0109 Y277.9482 Z-3.4067
G01 X94.0005 Y277.9393 Z-3.4286
G01 X93.9895 Y277.9311 Z-3.4504
G01 X93.9779 Y277.9238 Z-3.4722
G01 X93.9658 Y277.9174 Z-3.4940
G01 X93.9532 Y277.9120 Z-3.5159
G01 X93.9403 Y277.9074 Z-3.5377
G01 X93.9270 Y277.9039 Z-3.5595
G01 X93.9136 Y277.9013 Z-3.5813
G01 X93.9000 Y277.8998 Z-3.6032
G01 X93.8863 Y277.8993 Z-3.6250
G01 X93.8726 Y277.8998 Z-3.6468
G01 X93.8590 Y277.9013 Z-3.6687
G01 X93.8455 Y277.9039 Z-3.6905
G01 X93.8323 Y277.9074 Z-3.7123
G01 X93.8193 Y277.9120 Z-3.7341
G01 X93.8068 Y277.9174 Z-3.7560
G01 X93.7947 Y277.9238 Z-3.7778
G01 X93.7831 Y277.9311 Z-3.7996
G01 X93.7720 Y277.9393 Z-3.8214
G01 X93.7617 Y277.9482 Z-3.8433
G01 X93.7520 Y277.9579 Z-3.8651
G01 X93.7430 Y277.9683 Z-3.8869
G01 X93.7349 Y277.9793 Z-3.9087
G01 X93.7276 Y277.9909 Z-3.9306
G01 X93.7212 Y278.0030 Z-3.9524
G01 X93.7157 Y278.0156 Z-3.9742
G01 X93.7112 Y278.0285 Z-3.9960
G01 X93.7077 Y278.0417 Z-4.0179
G01 X93.7051 Y278.0552 Z-4.0397
G01 X93.7036 Y278.0688 Z-4.0615
G01 X93.7031 Y278.0825 Z-4.0833
G01 X93.7036 Y278.0962 Z-4.1052
G01 X93.7051 Y278.1098 Z-4.1270
G01 X93.7077 Y278.1233 Z-4.1488
G01 X93.7112 Y278.1365 Z-4.1706
G01 X93.7157 Y278.1494 Z-4.1925
G01 X93.7212 Y278.1620 Z-4.2143
G01 X93.7276 Y278.1741 Z-4.2361
G01 X93.7349 Y278.1857 Z-4.2579
G01 X93.7430 Y278.1967 Z-4.2798
G01 X93.7520 Y278.2071 Z-4.3016
G01 X93.7617 Y278.2168 Z-4.3234
G01 X93.7720 Y278.2257 Z-4.3452
G01 X93.7831 Y278.2339 Z-4.3671
G01 X93.7947 Y278.2412 Z-4.3889
G01 X93.8068 Y278.2476 Z-4.4107
G01 X93.8193 Y278.2530 Z-4.4325
G01 X93.8323 Y278.2576 Z-4.4544
G01 X93.8455 Y278.2611 Z-4.4762
G01 X93.8590 Y278.2637 Z-4.4980
G01 X93.8726 Y278.2652 Z-4.5198
G01 X93.8863 Y278.2657 Z-4.5417
G01 X93.9000 Y278.2652 Z-4.5635
G01 X93.9136 Y278.2637 Z-4.5853
G01 X93.9270 Y278.2611 Z-4.6071
G01 X93.9403 Y278.2576 Z-4.6290
G01 X93.9532 Y278.2530 Z-4.6508
G01 X93.9658 Y278.2476 Z-4.6726
G01 X93.9779 Y278.2412 Z-4.6944
G01 X93.9895 Y278.2339 Z-4.7163
G01 X94.0005 Y278.2257 Z-4.7381
G01 X94.0109 Y278.2168 Z-4.7599
G01 X94.0206 Y278.2071 Z-4.7817
G01 X94.0295 Y278.1967 Z-4.8036
G01 X94.0376 Y278.1857 Z-4.8254
G01 X94.0449 Y278.1741 Z-4.8472
G01 X94.0513 Y278.1620 Z-4.8690
G01 X94.0568 Y278.1494 Z-4.8909
G01 X94.0613 Y278.1365 Z-4.9127
G01 X94.0649 Y278.1233 Z-4.9345
G01 X94.0674 Y278.1098 Z-4.9563
G01 X94.0690 Y278.0962 Z-4.9782
G01 X94.0695 Y278.0825 Z-5.0000
G01 X94.0690 Y278.0688
G01 X94.0674 Y278.0552
G01 X94.0649 Y278.0417
G01 X94.0613 Y278.0285
G01 X94.0568 Y278.0156
G01 X94.0513 Y278.0030
G01 X94.0449 Y277.9909
G01 X94.0376 Y277.9793
G01 X94.0295 Y277.9683
G01 X94.0206 Y277.9579
G01 X94.0109 Y277.9482
G01 X94.0005 Y277.9393
G01 X93.9895 Y277.9311
G01 X93.9779 Y277.9238
G01 X93.9658 Y277.9174
G01 X93.9532 Y277.9120
G01 X93.9403 Y277.9074
G01 X93.9270 Y277.9039
G01 X93.9136 Y277.9013
G01 X93.9000 Y277.8998
G01 X93.8863 Y277.8993
G01 X93.8726 Y277.8998
G01 X93.8590 Y277.9013
G01 X93.8455 Y277.9039
G01 X93.8323 Y277.9074
G01 X93.8193 Y277.9120
G01 X93.8068 Y277.9174
G01 X93.7947 Y277.9238
G01 X93.7831 Y277.9311
G01 X93.7720 Y277.9393
G01 X93.7617 Y277.9482
G01 X93.7520 Y277.9579
G01 X93.7430 Y277.9683
G01 X93.7349 Y277.9793
G01 X93.7276 Y277.9909
G01 X93.7212 Y278.0030
G01 X93.7157 Y278.0156
G01 X93.7112 Y278.0285
G01 X93.7077 Y278.0417
G01 X93.7051 Y278.0552
G01 X93.7036 Y278.0688
G01 X93.7031 Y278.0825
G01 X93.7036 Y278.0962
G01 X93.7051 Y278.1098
G01 X93.7077 Y278.1233
G01 X93.7112 Y278.1365
G01 X93.7157 Y278.1494
G01 X93.7212 Y278.1620
G01 X93.7276 Y278.1741
G01 X93.7349 Y278.1857
G01 X93.7430 Y278.1967
G01 X93.7520 Y278.2071
G01 X93.7617 Y278.2168
G01 X93.7720 Y278.2257
G01 X93.7831 Y278.2339
G01 X93.7947 Y278.2412
G01 X93.8068 Y278.2476
G01 X93.8193 Y278.2530
G01 X93.8323 Y278.2576
G01 X93.8455 Y278.2611
G01 X93.8590 Y278.2637
G01 X93.8726 Y278.2652
G01 X93.8863 Y278.2657
G01 X93.9000 Y278.2652
G01 X93.9136 Y278.2637
G01 X93.9270 Y278.2611
G01 X93.9403 Y278.2576
G01 X93.9532 Y278.2530
G01 X93.9658 Y278.2476
G01 X93.9779 Y278.2412
G01 X93.9895 Y278.2339
G01 X94.0005 Y278.2257
G01 X94.0109 Y278.2168
G01 X94.0206 Y278.2071
G01 X94.0295 Y278.1967
G01 X94.0376 Y278.1857
G01 X94.0449 Y278.1741
G01 X94.0513 Y278.1620
G01 X94.0568 Y278.1494
G01 X94.0613 Y278.1365
G01 X94.0649 Y278.1233
G01 X94.0674 Y278.1098
G01 X94.0690 Y278.0962
G01 X94.0695 Y278.0825
M107
M106 S240
G01 X94.0692 Y278.0753 Z-4.9875
M107
M106 S240
G01 X94.0683 Y278.0682 Z-4.9750
M107
M106 S240
G01 X94.0669 Y278.0611 Z-4.9625
M107
M106 S240
G01 X94.0650 Y278.0542 Z-4.9500
M107
M106 S240
G01 X94.0625 Y278.0474 Z-4.9375
M107
M106 S240
G01 X94.0595 Y278.0409 Z-4.9250
M107
M106 S240
G01 X94.0560 Y278.0346 Z-4.9125
M107
M106 S240
G01 X94.0520 Y278.0287 Z-4.9000
M107
M106 S240
G01 X94.0475 Y278.0230 Z-4.8875
M107
M106 S240
G01 X94.0426 Y278.0177 Z-4.8750
M107
M106 S240
G01 X94.0374 Y278.0128 Z-4.8625
M107
M106 S240
G01 X94.0317 Y278.0084 Z-4.8500
M107
M106 S240
G01 X94.0257 Y278.0044 Z-4.8375
M107
M106 S240
G01 X94.0195 Y278.0009 Z-4.8250
M107
M106 S240
G01 X94.0129 Y277.9979 Z-4.8125
M107
M106 S240
G01 X94.0062 Y277.9954 Z-4.8000
M107
M106 S240
G01 X93.9993 Y277.9934 Z-4.7875
M107
M106 S240
G01 X93.9922 Y277.9920 Z-4.7750
M107
M106 S240
G01 X93.9851 Y277.9912 Z-4.7625
M107
M106 S240
G01 X93.9779 Y277.9909 Z-4.7500
M107
M106 S240
G01 X93.9707 Y277.9912 Z-4.7375
M107
M106 S240
G01 X93.9635 Y277.9920 Z-4.7250
M107
M106 S240
G01 X93.9565 Y277.9934 Z-4.7125
M107
M106 S240
G01 X93.9496 Y277.9954 Z-4.7000
M107
M106 S240
G01 X93.9428 Y277.9979 Z-4.6875
M107
M106 S240
G01 X93.9363 Y278.0009 Z-4.6750
M107
M106 S240
G01 X93.9300 Y278.0044 Z-4.6625
M107
M106 S240
G01 X93.9240 Y278.0084 Z-4.6500
M107
M106 S240
G01 X93.9184 Y278.0128 Z-4.6375
M107
M106 S240
G01 X93.9131 Y278.0177 Z-4.6250
M107
M106 S240
G01 X93.9082 Y278.0230 Z-4.6125
M107
M106 S240
G01 X93.9038 Y278.0287 Z-4.6000
M107
M106 S240
G01 X93.8998 Y278.0346 Z-4.5875
M107
M106 S240
G01 X93.8962 Y278.0409 Z-4.5750
M107
M106 S240
G01 X93.8932 Y278.0474 Z-4.5625
M107
M106 S240
G01 X93.8907 Y278.0542 Z-4.5500
M107
M106 S240
G01 X93.8888 Y278.0611 Z-4.5375
M107
M106 S240
G01 X93.8874 Y278.0682 Z-4.5250
M107
M106 S240
G01 X93.8865 Y278.0753 Z-4.5125
M107
M106 S240
G01 X93.8863 Y278.0825 Z-4.5000
M107
G00 Z2.0000


;No. 4: Helical drill 1
G00 X125.7092 Y278.0825 Z2.0000
G00 Z0.5000
M106 S240
G01 X125.7087 Y278.0688 Z0.4782 F400
G01 X125.7072 Y278.0552 Z0.4563
G01 X125.7046 Y278.0417 Z0.4345
G01 X125.7011 Y278.0285 Z0.4127
G01 X125.6966 Y278.0156 Z0.3909
G01 X125.6911 Y278.0030 Z0.3690
G01 X125.6847 Y277.9909 Z0.3472
G01 X125.6774 Y277.9793 Z0.3254
G01 X125.6692 Y277.9683 Z0.3036
G01 X125.6603 Y277.9579 Z0.2817
G01 X125.6506 Y277.9482 Z0.2599
G01 X125.6402 Y277.9393 Z0.2381
G01 X125.6292 Y277.9311 Z0.2163
G01 X125.6176 Y277.9238 Z0.1944
G01 X125.6055 Y277.9174 Z0.1726
G01 X125.5929 Y277.9119 Z0.1508
G01 X125.5800 Y277.9074 Z0.1290
G01 X125.5668 Y277.9039 Z0.1071
G01 X125.5533 Y277.9013 Z0.0853
G01 X125.5397 Y277.8998 Z0.0635
G01 X125.5260 Y277.8993 Z0.0417
G01 X125.5123 Y277.8998 Z0.0198
G01 X125.4987 Y277.9013 Z-0.0020
G01 X125.4852 Y277.9039 Z-0.0238
G01 X125.4720 Y277.9074 Z-0.0456
G01 X125.4591 Y277.9119 Z-0.0675
G01 X125.4465 Y277.9174 Z-0.0893
G01 X125.4344 Y277.9238 Z-0.1111
G01 X125.4228 Y277.9311 Z-0.1329
G01 X125.4118 Y277.9393 Z-0.1548
G01 X125.4014 Y277.9482 Z-0.1766
G01 X125.3917 Y277.9579 Z-0.1984
G01 X125.3828 Y277.9683 Z-0.2202
G01 X125.3746 Y277.9793 Z-0.2421
G01 X125.3673 Y277.9909 Z-0.2639
G01 X125.3609 Y278.0030 Z-0.2857
G01 X125.3555 Y278.0156 Z-0.3075
G01 X125.3509 Y278.0285 Z-0.3294
G01 X125.3474 Y278.0417 Z-0.3512
G01 X125.3448 Y278.0552 Z-0.3730
G01 X125.3433 Y278.0688 Z-0.3948
G01 X125.3428 Y278.0825 Z-0.4167
G01 X125.3433 Y278.0962 Z-0.4385
G01 X125.3448 Y278.1098 Z-0.4603
G01 X125.3474 Y278.1233 Z-0.4821
G01 X125.3509 Y278.1365 Z-0.5040
G01 X125.3555 Y278.1494 Z-0.5258
G01 X125.3609 Y278.1620 Z-0.5476
G01 X125.3673 Y278.1741 Z-0.5694
G01 X125.3746 Y278.1857 Z-0.5913
G01 X125.3828 Y278.1967 Z-0.6131
G01 X125.3917 Y278.2071 Z-0.6349
G01 X125.4014 Y278.2168 Z-0.6567
G01 X125.4118 Y278.2257 Z-0.6786
G01 X125.4228 Y278.2339 Z-0.7004
G01 X125.4344 Y278.2412 Z-0.7222
G01 X125.4465 Y278.2476 Z-0.7440
G01 X125.4591 Y278.2530 Z-0.7659
G01 X125.4720 Y278.2576 Z-0.7877
G01 X125.4852 Y278.2611 Z-0.8095
G01 X125.4987 Y278.2637 Z-0.8313
G01 X125.5123 Y278.2652 Z-0.8532
G01 X125.5260 Y278.2657 Z-0.8750
G01 X125.5397 Y278.2652 Z-0.8968
G01 X125.5533 Y278.2637 Z-0.9187
G01 X125.5668 Y278.2611 Z-0.9405
G01 X125.5800 Y278.2576 Z-0.9623
G01 X125.5929 Y278.2530 Z-0.9841
G01 X125.6055 Y278.2476 Z-1.0060
G01 X125.6176 Y278.2412 Z-1.0278
G01 X125.6292 Y278.2339 Z-1.0496
G01 X125.6402 Y278.2257 Z-1.0714
G01 X125.6506 Y278.2168 Z-1.0933
G01 X125.6603 Y278.2071 Z-1.1151
G01 X125.6692 Y278.1967 Z-1.1369
G01 X125.6774 Y278.1857 Z-1.1587
G01 X125.6847 Y278.1741 Z-1.1806
G01 X125.6911 Y278.1620 Z-1.2024
G01 X125.6966 Y278.1494 Z-1.2242
G01 X125.7011 Y278.1365 Z-1.2460
G01 X125.7046 Y278.1233 Z-1.2679
G01 X125.7072 Y278.1098 Z-1.2897
G01 X125.7087 Y278.0962 Z-1.3115
G01 X125.7092 Y278.0825 Z-1.3333
G01 X125.7087 Y278.0688 Z-1.3552
G01 X125.7072 Y278.0552 Z-1.3770
G01 X125.7046 Y278.0417 Z-1.3988
G01 X125.7011 Y278.0285 Z-1.4206
G01 X125.6966 Y278.0156 Z-1.4425
G01 X125.6911 Y278.0030 Z-1.4643
G01 X125.6847 Y277.9909 Z-1.4861
G01 X125.6774 Y277.9793 Z-1.5079
G01 X125.6692 Y277.9683 Z-1.5298
G01 X125.6603 Y277.9579 Z-1.5516
G01 X125.6506 Y277.9482 Z-1.5734
G01 X125.6402 Y277.9393 Z-1.5952
G01 X125.6292 Y277.9311 Z-1.6171
G01 X125.6176 Y277.9238 Z-1.6389
G01 X125.6055 Y277.9174 Z-1.6607
G01 X125.5929 Y277.9119 Z-1.6825
G01 X125.5800 Y277.9074 Z-1.7044
G01 X125.5668 Y277.9039 Z-1.7262
G01 X125.5533 Y277.9013 Z-1.7480
G01 X125.5397 Y277.8998 Z-1.7698
G01 X125.5260 Y277.8993 Z-1.7917
G01 X125.5123 Y277.8998 Z-1.8135
G01 X125.4987 Y277.9013 Z-1.8353
G01 X125.4852 Y277.9039 Z-1.8571
G01 X125.4720 Y277.9074 Z-1.8790
G01 X125.4591 Y277.9119 Z-1.9008
G01 X125.4465 Y277.9174 Z-1.9226
G01 X125.4344 Y277.9238 Z-1.9444
G01 X125.4228 Y277.9311 Z-1.9663
G01 X125.4118 Y277.9393 Z-1.9881
G01 X125.4014 Y277.9482 Z-2.0099
G01 X125.3917 Y277.9579 Z-2.0317
G01 X125.3828 Y277.9683 Z-2.0536
G01 X125.3746 Y277.9793 Z-2.0754
G01 X125.3673 Y277.9909 Z-2.0972
G01 X125.3609 Y278.0030 Z-2.1190
G01 X125.3555 Y278.0156 Z-2.1409
G01 X125.3509 Y278.0285 Z-2.1627
G01 X125.3474 Y278.0417 Z-2.1845
G01 X125.3448 Y278.0552 Z-2.2063
G01 X125.3433 Y278.0688 Z-2.2282
G01 X125.3428 Y278.0825 Z-2.2500
G01 X125.3433 Y278.0962 Z-2.2718
G01 X125.3448 Y278.1098 Z-2.2937
G01 X125.3474 Y278.1233 Z-2.3155
G01 X125.3509 Y278.1365 Z-2.3373
G01 X125.3555 Y278.1494 Z-2.3591
G01 X125.3609 Y278.1620 Z-2.3810
G01 X125.3673 Y278.1741 Z-2.4028
G01 X125.3746 Y278.1857 Z-2.4246
G01 X125.3828 Y278.1967 Z-2.4464
G01 X125.3917 Y278.2071 Z-2.4683
G01 X125.4014 Y278.2168 Z-2.4901
G01 X125.4118 Y278.2257 Z-2.5119
G01 X125.4228 Y278.2339 Z-2.5337
G01 X125.4344 Y278.2412 Z-2.5556
G01 X125.4465 Y278.2476 Z-2.5774
G01 X125.4591 Y278.2530 Z-2.5992
G01 X125.4720 Y278.2576 Z-2.6210
G01 X125.4852 Y278.2611 Z-2.6429
G01 X125.4987 Y278.2637 Z-2.6647
G01 X125.5123 Y278.2652 Z-2.6865
G01 X125.5260 Y278.2657 Z-2.7083
G01 X125.5397 Y278.2652 Z-2.7302
G01 X125.5533 Y278.2637 Z-2.7520
G01 X125.5668 Y278.2611 Z-2.7738
G01 X125.5800 Y278.2576 Z-2.7956
G01 X125.5929 Y278.2530 Z-2.8175
G01 X125.6055 Y278.2476 Z-2.8393
G01 X125.6176 Y278.2412 Z-2.8611
G01 X125.6292 Y278.2339 Z-2.8829
G01 X125.6402 Y278.2257 Z-2.9048
G01 X125.6506 Y278.2168 Z-2.9266
G01 X125.6603 Y278.2071 Z-2.9484
G01 X125.6692 Y278.1967 Z-2.9702
G01 X125.6774 Y278.1857 Z-2.9921
G01 X125.6847 Y278.1741 Z-3.0139
G01 X125.6911 Y278.1620 Z-3.0357
G01 X125.6966 Y278.1494 Z-3.0575
G01 X125.7011 Y278.1365 Z-3.0794
G01 X125.7046 Y278.1233 Z-3.1012
G01 X125.7072 Y278.1098 Z-3.1230
G01 X125.7087 Y278.0962 Z-3.1448
G01 X125.7092 Y278.0825 Z-3.1667
G01 X125.7087 Y278.0688 Z-3.1885
G01 X125.7072 Y278.0552 Z-3.2103
G01 X125.7046 Y278.0417 Z-3.2321
G01 X125.7011 Y278.0285 Z-3.2540
G01 X125.6966 Y278.0156 Z-3.2758
G01 X125.6911 Y278.0030 Z-3.2976
G01 X125.6847 Y277.9909 Z-3.3194
G01 X125.6774 Y277.9793 Z-3.3413
G01 X125.6692 Y277.9683 Z-3.3631
G01 X125.6603 Y277.9579 Z-3.3849
G01 X125.6506 Y277.9482 Z-3.4067
G01 X125.6402 Y277.9393 Z-3.4286
G01 X125.6292 Y277.9311 Z-3.4504
G01 X125.6176 Y277.9238 Z-3.4722
G01 X125.6055 Y277.9174 Z-3.4940
G01 X125.5929 Y277.9119 Z-3.5159
G01 X125.5800 Y277.9074 Z-3.5377
G01 X125.5668 Y277.9039 Z-3.5595
G01 X125.5533 Y277.9013 Z-3.5813
G01 X125.5397 Y277.8998 Z-3.6032
G01 X125.5260 Y277.8993 Z-3.6250
G01 X125.5123 Y277.8998 Z-3.6468
G01 X125.4987 Y277.9013 Z-3.6687
G01 X125.4852 Y277.9039 Z-3.6905
G01 X125.4720 Y277.9074 Z-3.7123
G01 X125.4591 Y277.9119 Z-3.7341
G01 X125.4465 Y277.9174 Z-3.7560
G01 X125.4344 Y277.9238 Z-3.7778
G01 X125.4228 Y277.9311 Z-3.7996
G01 X125.4118 Y277.9393 Z-3.8214
G01 X125.4014 Y277.9482 Z-3.8433
G01 X125.3917 Y277.9579 Z-3.8651
G01 X125.3828 Y277.9683 Z-3.8869
G01 X125.3746 Y277.9793 Z-3.9087
G01 X125.3673 Y277.9909 Z-3.9306
G01 X125.3609 Y278.0030 Z-3.9524
G01 X125.3555 Y278.0156 Z-3.9742
G01 X125.3509 Y278.0285 Z-3.9960
G01 X125.3474 Y278.0417 Z-4.0179
G01 X125.3448 Y278.0552 Z-4.0397
G01 X125.3433 Y278.0688 Z-4.0615
G01 X125.3428 Y278.0825 Z-4.0833
G01 X125.3433 Y278.0962 Z-4.1052
G01 X125.3448 Y278.1098 Z-4.1270
G01 X125.3474 Y278.1233 Z-4.1488
G01 X125.3509 Y278.1365 Z-4.1706
G01 X125.3555 Y278.1494 Z-4.1925
G01 X125.3609 Y278.1620 Z-4.2143
G01 X125.3673 Y278.1741 Z-4.2361
G01 X125.3746 Y278.1857 Z-4.2579
G01 X125.3828 Y278.1967 Z-4.2798
G01 X125.3917 Y278.2071 Z-4.3016
G01 X125.4014 Y278.2168 Z-4.3234
G01 X125.4118 Y278.2257 Z-4.3452
G01 X125.4228 Y278.2339 Z-4.3671
G01 X125.4344 Y278.2412 Z-4.3889
G01 X125.4465 Y278.2476 Z-4.4107
G01 X125.4591 Y278.2530 Z-4.4325
G01 X125.4720 Y278.2576 Z-4.4544
G01 X125.4852 Y278.2611 Z-4.4762
G01 X125.4987 Y278.2637 Z-4.4980
G01 X125.5123 Y278.2652 Z-4.5198
G01 X125.5260 Y278.2657 Z-4.5417
G01 X125.5397 Y278.2652 Z-4.5635
G01 X125.5533 Y278.2637 Z-4.5853
G01 X125.5668 Y278.2611 Z-4.6071
G01 X125.5800 Y278.2576 Z-4.6290
G01 X125.5929 Y278.2530 Z-4.6508
G01 X125.6055 Y278.2476 Z-4.6726
G01 X125.6176 Y278.2412 Z-4.6944
G01 X125.6292 Y278.2339 Z-4.7163
G01 X125.6402 Y278.2257 Z-4.7381
G01 X125.6506 Y278.2168 Z-4.7599
G01 X125.6603 Y278.2071 Z-4.7817
G01 X125.6692 Y278.1967 Z-4.8036
G01 X125.6774 Y278.1857 Z-4.8254
G01 X125.6847 Y278.1741 Z-4.8472
G01 X125.6911 Y278.1620 Z-4.8690
G01 X125.6966 Y278.1494 Z-4.8909
G01 X125.7011 Y278.1365 Z-4.9127
G01 X125.7046 Y278.1233 Z-4.9345
G01 X125.7072 Y278.1098 Z-4.9563
G01 X125.7087 Y278.0962 Z-4.9782
G01 X125.7092 Y278.0825 Z-5.0000
G01 X125.7087 Y278.0688
G01 X125.7072 Y278.0552
G01 X125.7046 Y278.0417
G01 X125.7011 Y278.0285
G01 X125.6966 Y278.0156
G01 X125.6911 Y278.0030
G01 X125.6847 Y277.9909
G01 X125.6774 Y277.9793
G01 X125.6692 Y277.9683
G01 X125.6603 Y277.9579
G01 X125.6506 Y277.9482
G01 X125.6402 Y277.9393
G01 X125.6292 Y277.9311
G01 X125.6176 Y277.9238
G01 X125.6055 Y277.9174
G01 X125.5929 Y277.9119
G01 X125.5800 Y277.9074
G01 X125.5668 Y277.9039
G01 X125.5533 Y277.9013
G01 X125.5397 Y277.8998
G01 X125.5260 Y277.8993
G01 X125.5123 Y277.8998
G01 X125.4987 Y277.9013
G01 X125.4852 Y277.9039
G01 X125.4720 Y277.9074
G01 X125.4591 Y277.9119
G01 X125.4465 Y277.9174
G01 X125.4344 Y277.9238
G01 X125.4228 Y277.9311
G01 X125.4118 Y277.9393
G01 X125.4014 Y277.9482
G01 X125.3917 Y277.9579
G01 X125.3828 Y277.9683
G01 X125.3746 Y277.9793
G01 X125.3673 Y277.9909
G01 X125.3609 Y278.0030
G01 X125.3555 Y278.0156
G01 X125.3509 Y278.0285
G01 X125.3474 Y278.0417
G01 X125.3448 Y278.0552
G01 X125.3433 Y278.0688
G01 X125.3428 Y278.0825
G01 X125.3433 Y278.0962
G01 X125.3448 Y278.1098
G01 X125.3474 Y278.1233
G01 X125.3509 Y278.1365
G01 X125.3555 Y278.1494
G01 X125.3609 Y278.1620
G01 X125.3673 Y278.1741
G01 X125.3746 Y278.1857
G01 X125.3828 Y278.1967
G01 X125.3917 Y278.2071
G01 X125.4014 Y278.2168
G01 X125.4118 Y278.2257
G01 X125.4228 Y278.2339
G01 X125.4344 Y278.2412
G01 X125.4465 Y278.2476
G01 X125.4591 Y278.2530
G01 X125.4720 Y278.2576
G01 X125.4852 Y278.2611
G01 X125.4987 Y278.2637
G01 X125.5123 Y278.2652
G01 X125.5260 Y278.2657
G01 X125.5397 Y278.2652
G01 X125.5533 Y278.2637
G01 X125.5668 Y278.2611
G01 X125.5800 Y278.2576
G01 X125.5929 Y278.2530
G01 X125.6055 Y278.2476
G01 X125.6176 Y278.2412
G01 X125.6292 Y278.2339
G01 X125.6402 Y278.2257
G01 X125.6506 Y278.2168
G01 X125.6603 Y278.2071
G01 X125.6692 Y278.1967
G01 X125.6774 Y278.1857
G01 X125.6847 Y278.1741
G01 X125.6911 Y278.1620
G01 X125.6966 Y278.1494
G01 X125.7011 Y278.1365
G01 X125.7046 Y278.1233
G01 X125.7072 Y278.1098
G01 X125.7087 Y278.0962
G01 X125.7092 Y278.0825
M107
M106 S240
G01 X125.7089 Y278.0753 Z-4.9875
M107
M106 S240
G01 X125.7081 Y278.0682 Z-4.9750
M107
M106 S240
G01 X125.7067 Y278.0611 Z-4.9625
M107
M106 S240
G01 X125.7047 Y278.0542 Z-4.9500
M107
M106 S240
G01 X125.7022 Y278.0474 Z-4.9375
M107
M106 S240
G01 X125.6992 Y278.0409 Z-4.9250
M107
M106 S240
G01 X125.6957 Y278.0346 Z-4.9125
M107
M106 S240
G01 X125.6917 Y278.0287 Z-4.9000
M107
M106 S240
G01 X125.6873 Y278.0230 Z-4.8875
M107
M106 S240
G01 X125.6824 Y278.0177 Z-4.8750
M107
M106 S240
G01 X125.6771 Y278.0128 Z-4.8625
M107
M106 S240
G01 X125.6715 Y278.0084 Z-4.8500
M107
M106 S240
G01 X125.6655 Y278.0044 Z-4.8375
M107
M106 S240
G01 X125.6592 Y278.0009 Z-4.8250
M107
M106 S240
G01 X125.6527 Y277.9979 Z-4.8125
M107
M106 S240
G01 X125.6459 Y277.9954 Z-4.8000
M107
M106 S240
G01 X125.6390 Y277.9934 Z-4.7875
M107
M106 S240
G01 X125.6319 Y277.9920 Z-4.7750
M107
M106 S240
G01 X125.6248 Y277.9912 Z-4.7625
M107
M106 S240
G01 X125.6176 Y277.9909 Z-4.7500
M107
M106 S240
G01 X125.6104 Y277.9912 Z-4.7375
M107
M106 S240
G01 X125.6033 Y277.9920 Z-4.7250
M107
M106 S240
G01 X125.5962 Y277.9934 Z-4.7125
M107
M106 S240
G01 X125.5893 Y277.9954 Z-4.7000
M107
M106 S240
G01 X125.5826 Y277.9979 Z-4.6875
M107
M106 S240
G01 X125.5760 Y278.0009 Z-4.6750
M107
M106 S240
G01 X125.5698 Y278.0044 Z-4.6625
M107
M106 S240
G01 X125.5638 Y278.0084 Z-4.6500
M107
M106 S240
G01 X125.5581 Y278.0128 Z-4.6375
M107
M106 S240
G01 X125.5528 Y278.0177 Z-4.6250
M107
M106 S240
G01 X125.5480 Y278.0230 Z-4.6125
M107
M106 S240
G01 X125.5435 Y278.0287 Z-4.6000
M107
M106 S240
G01 X125.5395 Y278.0346 Z-4.5875
M107
M106 S240
G01 X125.5360 Y278.0409 Z-4.5750
M107
M106 S240
G01 X125.5330 Y278.0474 Z-4.5625
M107
M106 S240
G01 X125.5305 Y278.0542 Z-4.5500
M107
M106 S240
G01 X125.5285 Y278.0611 Z-4.5375
M107
M106 S240
G01 X125.5271 Y278.0682 Z-4.5250
M107
M106 S240
G01 X125.5263 Y278.0753 Z-4.5125
M107
M106 S240
G01 X125.5260 Y278.0825 Z-4.5000
M107
G00 Z2.0000


;No. 5: Hole 2
G00 X128.4013 Y264.8809 Z2.0000
G00 Z0.5000
G01 Z0.0000 F400
G01 Z-1.2000
M106 S240
G01 X136.7156 F1000
G01 X133.2850 Y266.3809
G01 X143.2982
G01 X139.2430 Y267.8809
G01 X155.3191
G01 Y269.3809
G01 X147.4754
G01 X176.8014
G01 Y267.8809
G01 X168.9448
G01 X185.0397
G01 X180.9257 Y266.3809
G01 X190.9677
G01 X187.5128 Y264.8809
G01 X195.8365
G01 X192.5688 Y263.3809
G01 X200.0711
G01 X199.9229 Y261.8809
G01 X196.7688
M107
G00 Z2.0000
G00 X131.6907 Y264.8809
G00 Z0.5000
G01 Z-1.2000 F400
M106 S240
G01 Y263.3809 F1000
G01 X124.1922
G01 X124.3464 Y261.8809
G01 X127.4969
G01 X127.5462 Y261.6855
G01 X126.8564 Y261.4101
G01 X126.1669 Y261.1339
G01 X125.4778 Y260.8569
G01 X124.7889 Y260.5791
G01 X124.4377 Y261.2543
G01 X124.0969 Y261.9348
G01 X123.7667 Y262.6205
G01 X123.4471 Y263.3113
G01 X125.3048 Y264.0113
G01 X127.1749 Y264.6772
G01 X129.0570 Y265.3088
G01 X130.9502 Y265.9059
G01 X132.8541 Y266.4683
G01 X134.7679 Y266.9958
G01 X136.6911 Y267.4882
G01 X138.6229 Y267.9454
G01 X140.5628 Y268.3672
G01 X142.5100 Y268.7535
G01 X144.4640 Y269.1040
G01 X146.4241 Y269.4189
G01 X148.3896 Y269.6978
G01 X150.3599 Y269.9407
G01 X152.3342 Y270.1476
G01 X154.3121 Y270.3184
G01 X156.2927 Y270.4530
G01 X158.2755 Y270.5513
G01 X160.2597 Y270.6134
G01 X162.2447 Y270.6392
G01 X164.2183 Y270.6111
G01 X166.1911 Y270.5470
G01 X168.1623 Y270.4468
G01 X170.1314 Y270.3107
G01 X172.0977 Y270.1386
G01 X174.0605 Y269.9306
G01 X176.0192 Y269.6867
G01 X177.9731 Y269.4071
G01 X179.9216 Y269.0919
G01 X181.8639 Y268.7411
G01 X183.7996 Y268.3549
G01 X185.7278 Y267.9333
G01 X187.6481 Y267.4766
G01 X189.5597 Y266.9849
G01 X191.4619 Y266.4584
G01 X193.3543 Y265.8971
G01 X195.2360 Y265.3014
G01 X197.1066 Y264.6714
G01 X198.9653 Y264.0074
G01 X200.8116 Y263.3095
G01 X200.4945 Y262.6181
G01 X200.1690 Y261.9306
G01 X199.8353 Y261.2471
G01 X199.4933 Y260.5677
G01 X197.9558 Y261.1980
G01 X196.4072 Y261.8008
G01 X194.8482 Y262.3757
G01 X193.2790 Y262.9227
G01 X191.7004 Y263.4415
G01 X190.1127 Y263.9320
G01 X188.5165 Y264.3940
G01 X186.9122 Y264.8274
G01 X185.3005 Y265.2321
G01 X183.6818 Y265.6078
G01 X182.0567 Y265.9545
G01 X180.4256 Y266.2721
G01 X178.7891 Y266.5605
G01 X177.1476 Y266.8196
G01 X175.5019 Y267.0492
G01 X173.8522 Y267.2494
G01 X172.1993 Y267.4201
G01 X170.5436 Y267.5611
G01 X168.8856 Y267.6725
G01 X167.2258 Y267.7543
G01 X165.8867 Y267.7966
G01 X164.5473 Y267.8266
G01 X163.2076 Y267.8444
G01 X161.8679 Y267.8500
G01 X160.5281 Y267.8433
G01 X159.1884 Y267.8243
G01 X157.8490 Y267.7931
G01 X156.5100 Y267.7497
G01 X155.0263 Y267.6686
G01 X153.5441 Y267.5639
G01 X152.0638 Y267.4354
G01 X150.5857 Y267.2833
G01 X149.1102 Y267.1077
G01 X147.6377 Y266.9084
G01 X146.1686 Y266.6857
G01 X144.7033 Y266.4395
G01 X143.2421 Y266.1700
G01 X141.7853 Y265.8771
G01 X140.3335 Y265.5610
G01 X138.8868 Y265.2217
G01 X137.4458 Y264.8594
G01 X136.0107 Y264.4741
G01 X134.5820 Y264.0659
G01 X133.1600 Y263.6349
G01 X131.7450 Y263.1813
G01 X130.3375 Y262.7051
G01 X128.9378 Y262.2065
G01 X127.5462 Y261.6855
G01 X127.4969 Y261.8809
M107
G00 Z2.0000


;No. 6: Helical drill 2
G00 X199.0695 Y278.0825 Z2.0000
G00 Z0.5000
M106 S240
G01 X199.0690 Y278.0688 Z0.4782 F400
G01 X199.0674 Y278.0552 Z0.4563
G01 X199.0649 Y278.0417 Z0.4345
G01 X199.0613 Y278.0285 Z0.4127
G01 X199.0568 Y278.0156 Z0.3909
G01 X199.0513 Y278.0030 Z0.3690
G01 X199.0449 Y277.9909 Z0.3472
G01 X199.0376 Y277.9793 Z0.3254
G01 X199.0295 Y277.9683 Z0.3036
G01 X199.0206 Y277.9579 Z0.2817
G01 X199.0109 Y277.9482 Z0.2599
G01 X199.0005 Y277.9393 Z0.2381
G01 X198.9895 Y277.9311 Z0.2163
G01 X198.9779 Y277.9238 Z0.1944
G01 X198.9658 Y277.9174 Z0.1726
G01 X198.9532 Y277.9120 Z0.1508
G01 X198.9403 Y277.9074 Z0.1290
G01 X198.9270 Y277.9039 Z0.1071
G01 X198.9136 Y277.9013 Z0.0853
G01 X198.9000 Y277.8998 Z0.0635
G01 X198.8863 Y277.8993 Z0.0417
G01 X198.8726 Y277.8998 Z0.0198
G01 X198.8590 Y277.9013 Z-0.0020
G01 X198.8455 Y277.9039 Z-0.0238
G01 X198.8323 Y277.9074 Z-0.0456
G01 X198.8193 Y277.9120 Z-0.0675
G01 X198.8068 Y277.9174 Z-0.0893
G01 X198.7947 Y277.9238 Z-0.1111
G01 X198.7831 Y277.9311 Z-0.1329
G01 X198.7720 Y277.9393 Z-0.1548
G01 X198.7617 Y277.9482 Z-0.1766
G01 X198.7520 Y277.9579 Z-0.1984
G01 X198.7430 Y277.9683 Z-0.2202
G01 X198.7349 Y277.9793 Z-0.2421
G01 X198.7276 Y277.9909 Z-0.2639
G01 X198.7212 Y278.0030 Z-0.2857
G01 X198.7157 Y278.0156 Z-0.3075
G01 X198.7112 Y278.0285 Z-0.3294
G01 X198.7077 Y278.0417 Z-0.3512
G01 X198.7051 Y278.0552 Z-0.3730
G01 X198.7036 Y278.0688 Z-0.3948
G01 X198.7031 Y278.0825 Z-0.4167
G01 X198.7036 Y278.0962 Z-0.4385
G01 X198.7051 Y278.1098 Z-0.4603
G01 X198.7077 Y278.1233 Z-0.4821
G01 X198.7112 Y278.1365 Z-0.5040
G01 X198.7157 Y278.1494 Z-0.5258
G01 X198.7212 Y278.1620 Z-0.5476
G01 X198.7276 Y278.1741 Z-0.5694
G01 X198.7349 Y278.1857 Z-0.5913
G01 X198.7430 Y278.1967 Z-0.6131
G01 X198.7520 Y278.2071 Z-0.6349
G01 X198.7617 Y278.2168 Z-0.6567
G01 X198.7720 Y278.2257 Z-0.6786
G01 X198.7831 Y278.2339 Z-0.7004
G01 X198.7947 Y278.2412 Z-0.7222
G01 X198.8068 Y278.2476 Z-0.7440
G01 X198.8193 Y278.2530 Z-0.7659
G01 X198.8323 Y278.2576 Z-0.7877
G01 X198.8455 Y278.2611 Z-0.8095
G01 X198.8590 Y278.2637 Z-0.8313
G01 X198.8726 Y278.2652 Z-0.8532
G01 X198.8863 Y278.2657 Z-0.8750
G01 X198.9000 Y278.2652 Z-0.8968
G01 X198.9136 Y278.2637 Z-0.9187
G01 X198.9270 Y278.2611 Z-0.9405
G01 X198.9403 Y278.2576 Z-0.9623
G01 X198.9532 Y278.2530 Z-0.9841
G01 X198.9658 Y278.2476 Z-1.0060
G01 X198.9779 Y278.2412 Z-1.0278
G01 X198.9895 Y278.2339 Z-1.0496
G01 X199.0005 Y278.2257 Z-1.0714
G01 X199.0109 Y278.2168 Z-1.0933
G01 X199.0206 Y278.2071 Z-1.1151
G01 X199.0295 Y278.1967 Z-1.1369
G01 X199.0376 Y278.1857 Z-1.1587
G01 X199.0449 Y278.1741 Z-1.1806
G01 X199.0513 Y278.1620 Z-1.2024
G01 X199.0568 Y278.1494 Z-1.2242
G01 X199.0613 Y278.1365 Z-1.2460
G01 X199.0649 Y278.1233 Z-1.2679
G01 X199.0674 Y278.1098 Z-1.2897
G01 X199.0690 Y278.0962 Z-1.3115
G01 X199.0695 Y278.0825 Z-1.3333
G01 X199.0690 Y278.0688 Z-1.3552
G01 X199.0674 Y278.0552 Z-1.3770
G01 X199.0649 Y278.0417 Z-1.3988
G01 X199.0613 Y278.0285 Z-1.4206
G01 X199.0568 Y278.0156 Z-1.4425
G01 X199.0513 Y278.0030 Z-1.4643
G01 X199.0449 Y277.9909 Z-1.4861
G01 X199.0376 Y277.9793 Z-1.5079
G01 X199.0295 Y277.9683 Z-1.5298
G01 X199.0206 Y277.9579 Z-1.5516
G01 X199.0109 Y277.9482 Z-1.5734
G01 X199.0005 Y277.9393 Z-1.5952
G01 X198.9895 Y277.9311 Z-1.6171
G01 X198.9779 Y277.9238 Z-1.6389
G01 X198.9658 Y277.9174 Z-1.6607
G01 X198.9532 Y277.9120 Z-1.6825
G01 X198.9403 Y277.9074 Z-1.7044
G01 X198.9270 Y277.9039 Z-1.7262
G01 X198.9136 Y277.9013 Z-1.7480
G01 X198.9000 Y277.8998 Z-1.7698
G01 X198.8863 Y277.8993 Z-1.7917
G01 X198.8726 Y277.8998 Z-1.8135
G01 X198.8590 Y277.9013 Z-1.8353
G01 X198.8455 Y277.9039 Z-1.8571
G01 X198.8323 Y277.9074 Z-1.8790
G01 X198.8193 Y277.9120 Z-1.9008
G01 X198.8068 Y277.9174 Z-1.9226
G01 X198.7947 Y277.9238 Z-1.9444
G01 X198.7831 Y277.9311 Z-1.9663
G01 X198.7720 Y277.9393 Z-1.9881
G01 X198.7617 Y277.9482 Z-2.0099
G01 X198.7520 Y277.9579 Z-2.0317
G01 X198.7430 Y277.9683 Z-2.0536
G01 X198.7349 Y277.9793 Z-2.0754
G01 X198.7276 Y277.9909 Z-2.0972
G01 X198.7212 Y278.0030 Z-2.1190
G01 X198.7157 Y278.0156 Z-2.1409
G01 X198.7112 Y278.0285 Z-2.1627
G01 X198.7077 Y278.0417 Z-2.1845
G01 X198.7051 Y278.0552 Z-2.2063
G01 X198.7036 Y278.0688 Z-2.2282
G01 X198.7031 Y278.0825 Z-2.2500
G01 X198.7036 Y278.0962 Z-2.2718
G01 X198.7051 Y278.1098 Z-2.2937
G01 X198.7077 Y278.1233 Z-2.3155
G01 X198.7112 Y278.1365 Z-2.3373
G01 X198.7157 Y278.1494 Z-2.3591
G01 X198.7212 Y278.1620 Z-2.3810
G01 X198.7276 Y278.1741 Z-2.4028
G01 X198.7349 Y278.1857 Z-2.4246
G01 X198.7430 Y278.1967 Z-2.4464
G01 X198.7520 Y278.2071 Z-2.4683
G01 X198.7617 Y278.2168 Z-2.4901
G01 X198.7720 Y278.2257 Z-2.5119
G01 X198.7831 Y278.2339 Z-2.5337
G01 X198.7947 Y278.2412 Z-2.5556
G01 X198.8068 Y278.2476 Z-2.5774
G01 X198.8193 Y278.2530 Z-2.5992
G01 X198.8323 Y278.2576 Z-2.6210
G01 X198.8455 Y278.2611 Z-2.6429
G01 X198.8590 Y278.2637 Z-2.6647
G01 X198.8726 Y278.2652 Z-2.6865
G01 X198.8863 Y278.2657 Z-2.7083
G01 X198.9000 Y278.2652 Z-2.7302
G01 X198.9136 Y278.2637 Z-2.7520
G01 X198.9270 Y278.2611 Z-2.7738
G01 X198.9403 Y278.2576 Z-2.7956
G01 X198.9532 Y278.2530 Z-2.8175
G01 X198.9658 Y278.2476 Z-2.8393
G01 X198.9779 Y278.2412 Z-2.8611
G01 X198.9895 Y278.2339 Z-2.8829
G01 X199.0005 Y278.2257 Z-2.9048
G01 X199.0109 Y278.2168 Z-2.9266
G01 X199.0206 Y278.2071 Z-2.9484
G01 X199.0295 Y278.1967 Z-2.9702
G01 X199.0376 Y278.1857 Z-2.9921
G01 X199.0449 Y278.1741 Z-3.0139
G01 X199.0513 Y278.1620 Z-3.0357
G01 X199.0568 Y278.1494 Z-3.0575
G01 X199.0613 Y278.1365 Z-3.0794
G01 X199.0649 Y278.1233 Z-3.1012
G01 X199.0674 Y278.1098 Z-3.1230
G01 X199.0690 Y278.0962 Z-3.1448
G01 X199.0695 Y278.0825 Z-3.1667
G01 X199.0690 Y278.0688 Z-3.1885
G01 X199.0674 Y278.0552 Z-3.2103
G01 X199.0649 Y278.0417 Z-3.2321
G01 X199.0613 Y278.0285 Z-3.2540
G01 X199.0568 Y278.0156 Z-3.2758
G01 X199.0513 Y278.0030 Z-3.2976
G01 X199.0449 Y277.9909 Z-3.3194
G01 X199.0376 Y277.9793 Z-3.3413
G01 X199.0295 Y277.9683 Z-3.3631
G01 X199.0206 Y277.9579 Z-3.3849
G01 X199.0109 Y277.9482 Z-3.4067
G01 X199.0005 Y277.9393 Z-3.4286
G01 X198.9895 Y277.9311 Z-3.4504
G01 X198.9779 Y277.9238 Z-3.4722
G01 X198.9658 Y277.9174 Z-3.4940
G01 X198.9532 Y277.9120 Z-3.5159
G01 X198.9403 Y277.9074 Z-3.5377
G01 X198.9270 Y277.9039 Z-3.5595
G01 X198.9136 Y277.9013 Z-3.5813
G01 X198.9000 Y277.8998 Z-3.6032
G01 X198.8863 Y277.8993 Z-3.6250
G01 X198.8726 Y277.8998 Z-3.6468
G01 X198.8590 Y277.9013 Z-3.6687
G01 X198.8455 Y277.9039 Z-3.6905
G01 X198.8323 Y277.9074 Z-3.7123
G01 X198.8193 Y277.9120 Z-3.7341
G01 X198.8068 Y277.9174 Z-3.7560
G01 X198.7947 Y277.9238 Z-3.7778
G01 X198.7831 Y277.9311 Z-3.7996
G01 X198.7720 Y277.9393 Z-3.8214
G01 X198.7617 Y277.9482 Z-3.8433
G01 X198.7520 Y277.9579 Z-3.8651
G01 X198.7430 Y277.9683 Z-3.8869
G01 X198.7349 Y277.9793 Z-3.9087
G01 X198.7276 Y277.9909 Z-3.9306
G01 X198.7212 Y278.0030 Z-3.9524
G01 X198.7157 Y278.0156 Z-3.9742
G01 X198.7112 Y278.0285 Z-3.9960
G01 X198.7077 Y278.0417 Z-4.0179
G01 X198.7051 Y278.0552 Z-4.0397
G01 X198.7036 Y278.0688 Z-4.0615
G01 X198.7031 Y278.0825 Z-4.0833
G01 X198.7036 Y278.0962 Z-4.1052
G01 X198.7051 Y278.1098 Z-4.1270
G01 X198.7077 Y278.1233 Z-4.1488
G01 X198.7112 Y278.1365 Z-4.1706
G01 X198.7157 Y278.1494 Z-4.1925
G01 X198.7212 Y278.1620 Z-4.2143
G01 X198.7276 Y278.1741 Z-4.2361
G01 X198.7349 Y278.1857 Z-4.2579
G01 X198.7430 Y278.1967 Z-4.2798
G01 X198.7520 Y278.2071 Z-4.3016
G01 X198.7617 Y278.2168 Z-4.3234
G01 X198.7720 Y278.2257 Z-4.3452
G01 X198.7831 Y278.2339 Z-4.3671
G01 X198.7947 Y278.2412 Z-4.3889
G01 X198.8068 Y278.2476 Z-4.4107
G01 X198.8193 Y278.2530 Z-4.4325
G01 X198.8323 Y278.2576 Z-4.4544
G01 X198.8455 Y278.2611 Z-4.4762
G01 X198.8590 Y278.2637 Z-4.4980
G01 X198.8726 Y278.2652 Z-4.5198
G01 X198.8863 Y278.2657 Z-4.5417
G01 X198.9000 Y278.2652 Z-4.5635
G01 X198.9136 Y278.2637 Z-4.5853
G01 X198.9270 Y278.2611 Z-4.6071
G01 X198.9403 Y278.2576 Z-4.6290
G01 X198.9532 Y278.2530 Z-4.6508
G01 X198.9658 Y278.2476 Z-4.6726
G01 X198.9779 Y278.2412 Z-4.6944
G01 X198.9895 Y278.2339 Z-4.7163
G01 X199.0005 Y278.2257 Z-4.7381
G01 X199.0109 Y278.2168 Z-4.7599
G01 X199.0206 Y278.2071 Z-4.7817
G01 X199.0295 Y278.1967 Z-4.8036
G01 X199.0376 Y278.1857 Z-4.8254
G01 X199.0449 Y278.1741 Z-4.8472
G01 X199.0513 Y278.1620 Z-4.8690
G01 X199.0568 Y278.1494 Z-4.8909
G01 X199.0613 Y278.1365 Z-4.9127
G01 X199.0649 Y278.1233 Z-4.9345
G01 X199.0674 Y278.1098 Z-4.9563
G01 X199.0690 Y278.0962 Z-4.9782
G01 X199.0695 Y278.0825 Z-5.0000
G01 X199.0690 Y278.0688
G01 X199.0674 Y278.0552
G01 X199.0649 Y278.0417
G01 X199.0613 Y278.0285
G01 X199.0568 Y278.0156
G01 X199.0513 Y278.0030
G01 X199.0449 Y277.9909
G01 X199.0376 Y277.9793
G01 X199.0295 Y277.9683
G01 X199.0206 Y277.9579
G01 X199.0109 Y277.9482
G01 X199.0005 Y277.9393
G01 X198.9895 Y277.9311
G01 X198.9779 Y277.9238
G01 X198.9658 Y277.9174
G01 X198.9532 Y277.9120
G01 X198.9403 Y277.9074
G01 X198.9270 Y277.9039
G01 X198.9136 Y277.9013
G01 X198.9000 Y277.8998
G01 X198.8863 Y277.8993
G01 X198.8726 Y277.8998
G01 X198.8590 Y277.9013
G01 X198.8455 Y277.9039
G01 X198.8323 Y277.9074
G01 X198.8193 Y277.9120
G01 X198.8068 Y277.9174
G01 X198.7947 Y277.9238
G01 X198.7831 Y277.9311
G01 X198.7720 Y277.9393
G01 X198.7617 Y277.9482
G01 X198.7520 Y277.9579
G01 X198.7430 Y277.9683
G01 X198.7349 Y277.9793
G01 X198.7276 Y277.9909
G01 X198.7212 Y278.0030
G01 X198.7157 Y278.0156
G01 X198.7112 Y278.0285
G01 X198.7077 Y278.0417
G01 X198.7051 Y278.0552
G01 X198.7036 Y278.0688
G01 X198.7031 Y278.0825
G01 X198.7036 Y278.0962
G01 X198.7051 Y278.1098
G01 X198.7077 Y278.1233
G01 X198.7112 Y278.1365
G01 X198.7157 Y278.1494
G01 X198.7212 Y278.1620
G01 X198.7276 Y278.1741
G01 X198.7349 Y278.1857
G01 X198.7430 Y278.1967
G01 X198.7520 Y278.2071
G01 X198.7617 Y278.2168
G01 X198.7720 Y278.2257
G01 X198.7831 Y278.2339
G01 X198.7947 Y278.2412
G01 X198.8068 Y278.2476
G01 X198.8193 Y278.2530
G01 X198.8323 Y278.2576
G01 X198.8455 Y278.2611
G01 X198.8590 Y278.2637
G01 X198.8726 Y278.2652
G01 X198.8863 Y278.2657
G01 X198.9000 Y278.2652
G01 X198.9136 Y278.2637
G01 X198.9270 Y278.2611
G01 X198.9403 Y278.2576
G01 X198.9532 Y278.2530
G01 X198.9658 Y278.2476
G01 X198.9779 Y278.2412
G01 X198.9895 Y278.2339
G01 X199.0005 Y278.2257
G01 X199.0109 Y278.2168
G01 X199.0206 Y278.2071
G01 X199.0295 Y278.1967
G01 X199.0376 Y278.1857
G01 X199.0449 Y278.1741
G01 X199.0513 Y278.1620
G01 X199.0568 Y278.1494
G01 X199.0613 Y278.1365
G01 X199.0649 Y278.1233
G01 X199.0674 Y278.1098
G01 X199.0690 Y278.0962
G01 X199.0695 Y278.0825
M107
M106 S240
G01 X199.0692 Y278.0753 Z-4.9875
M107
M106 S240
G01 X199.0683 Y278.0682 Z-4.9750
M107
M106 S240
G01 X199.0669 Y278.0611 Z-4.9625
M107
M106 S240
G01 X199.0650 Y278.0542 Z-4.9500
M107
M106 S240
G01 X199.0625 Y278.0474 Z-4.9375
M107
M106 S240
G01 X199.0595 Y278.0409 Z-4.9250
M107
M106 S240
G01 X199.0560 Y278.0346 Z-4.9125
M107
M106 S240
G01 X199.0520 Y278.0287 Z-4.9000
M107
M106 S240
G01 X199.0475 Y278.0230 Z-4.8875
M107
M106 S240
G01 X199.0426 Y278.0177 Z-4.8750
M107
M106 S240
G01 X199.0374 Y278.0128 Z-4.8625
M107
M106 S240
G01 X199.0317 Y278.0084 Z-4.8500
M107
M106 S240
G01 X199.0257 Y278.0044 Z-4.8375
M107
M106 S240
G01 X199.0195 Y278.0009 Z-4.8250
M107
M106 S240
G01 X199.0129 Y277.9979 Z-4.8125
M107
M106 S240
G01 X199.0062 Y277.9954 Z-4.8000
M107
M106 S240
G01 X198.9993 Y277.9934 Z-4.7875
M107
M106 S240
G01 X198.9922 Y277.9920 Z-4.7750
M107
M106 S240
G01 X198.9851 Y277.9912 Z-4.7625
M107
M106 S240
G01 X198.9779 Y277.9909 Z-4.7500
M107
M106 S240
G01 X198.9707 Y277.9912 Z-4.7375
M107
M106 S240
G01 X198.9635 Y277.9920 Z-4.7250
M107
M106 S240
G01 X198.9565 Y277.9934 Z-4.7125
M107
M106 S240
G01 X198.9496 Y277.9954 Z-4.7000
M107
M106 S240
G01 X198.9428 Y277.9979 Z-4.6875
M107
M106 S240
G01 X198.9363 Y278.0009 Z-4.6750
M107
M106 S240
G01 X198.9300 Y278.0044 Z-4.6625
M107
M106 S240
G01 X198.9240 Y278.0084 Z-4.6500
M107
M106 S240
G01 X198.9184 Y278.0128 Z-4.6375
M107
M106 S240
G01 X198.9131 Y278.0177 Z-4.6250
M107
M106 S240
G01 X198.9082 Y278.0230 Z-4.6125
M107
M106 S240
G01 X198.9038 Y278.0287 Z-4.6000
M107
M106 S240
G01 X198.8998 Y278.0346 Z-4.5875
M107
M106 S240
G01 X198.8962 Y278.0409 Z-4.5750
M107
M106 S240
G01 X198.8932 Y278.0474 Z-4.5625
M107
M106 S240
G01 X198.8907 Y278.0542 Z-4.5500
M107
M106 S240
G01 X198.8888 Y278.0611 Z-4.5375
M107
M106 S240
G01 X198.8874 Y278.0682 Z-4.5250
M107
M106 S240
G01 X198.8865 Y278.0753 Z-4.5125
M107
M106 S240
G01 X198.8863 Y278.0825 Z-4.5000
M107
G00 Z2.0000


;No. 7: Helical drill 1
G00 X230.7092 Y278.0825 Z2.0000
G00 Z0.5000
M106 S240
G01 X230.7087 Y278.0688 Z0.4782 F400
G01 X230.7072 Y278.0552 Z0.4563
G01 X230.7046 Y278.0417 Z0.4345
G01 X230.7011 Y278.0285 Z0.4127
G01 X230.6966 Y278.0156 Z0.3909
G01 X230.6911 Y278.0030 Z0.3690
G01 X230.6847 Y277.9909 Z0.3472
G01 X230.6774 Y277.9793 Z0.3254
G01 X230.6692 Y277.9683 Z0.3036
G01 X230.6603 Y277.9579 Z0.2817
G01 X230.6506 Y277.9482 Z0.2599
G01 X230.6402 Y277.9393 Z0.2381
G01 X230.6292 Y277.9311 Z0.2163
G01 X230.6176 Y277.9238 Z0.1944
G01 X230.6055 Y277.9174 Z0.1726
G01 X230.5929 Y277.9119 Z0.1508
G01 X230.5800 Y277.9074 Z0.1290
G01 X230.5668 Y277.9039 Z0.1071
G01 X230.5533 Y277.9013 Z0.0853
G01 X230.5397 Y277.8998 Z0.0635
G01 X230.5260 Y277.8993 Z0.0417
G01 X230.5123 Y277.8998 Z0.0198
G01 X230.4987 Y277.9013 Z-0.0020
G01 X230.4852 Y277.9039 Z-0.0238
G01 X230.4720 Y277.9074 Z-0.0456
G01 X230.4591 Y277.9119 Z-0.0675
G01 X230.4465 Y277.9174 Z-0.0893
G01 X230.4344 Y277.9238 Z-0.1111
G01 X230.4228 Y277.9311 Z-0.1329
G01 X230.4118 Y277.9393 Z-0.1548
G01 X230.4014 Y277.9482 Z-0.1766
G01 X230.3917 Y277.9579 Z-0.1984
G01 X230.3828 Y277.9683 Z-0.2202
G01 X230.3746 Y277.9793 Z-0.2421
G01 X230.3673 Y277.9909 Z-0.2639
G01 X230.3609 Y278.0030 Z-0.2857
G01 X230.3555 Y278.0156 Z-0.3075
G01 X230.3509 Y278.0285 Z-0.3294
G01 X230.3474 Y278.0417 Z-0.3512
G01 X230.3448 Y278.0552 Z-0.3730
G01 X230.3433 Y278.0688 Z-0.3948
G01 X230.3428 Y278.0825 Z-0.4167
G01 X230.3433 Y278.0962 Z-0.4385
G01 X230.3448 Y278.1098 Z-0.4603
G01 X230.3474 Y278.1233 Z-0.4821
G01 X230.3509 Y278.1365 Z-0.5040
G01 X230.3555 Y278.1494 Z-0.5258
G01 X230.3609 Y278.1620 Z-0.5476
G01 X230.3673 Y278.1741 Z-0.5694
G01 X230.3746 Y278.1857 Z-0.5913
G01 X230.3828 Y278.1967 Z-0.6131
G01 X230.3917 Y278.2071 Z-0.6349
G01 X230.4014 Y278.2168 Z-0.6567
G01 X230.4118 Y278.2257 Z-0.6786
G01 X230.4228 Y278.2339 Z-0.7004
G01 X230.4344 Y278.2412 Z-0.7222
G01 X230.4465 Y278.2476 Z-0.7440
G01 X230.4591 Y278.2530 Z-0.7659
G01 X230.4720 Y278.2576 Z-0.7877
G01 X230.4852 Y278.2611 Z-0.8095
G01 X230.4987 Y278.2637 Z-0.8313
G01 X230.5123 Y278.2652 Z-0.8532
G01 X230.5260 Y278.2657 Z-0.8750
G01 X230.5397 Y278.2652 Z-0.8968
G01 X230.5533 Y278.2637 Z-0.9187
G01 X230.5668 Y278.2611 Z-0.9405
G01 X230.5800 Y278.2576 Z-0.9623
G01 X230.5929 Y278.2530 Z-0.9841
G01 X230.6055 Y278.2476 Z-1.0060
G01 X230.6176 Y278.2412 Z-1.0278
G01 X230.6292 Y278.2339 Z-1.0496
G01 X230.6402 Y278.2257 Z-1.0714
G01 X230.6506 Y278.2168 Z-1.0933
G01 X230.6603 Y278.2071 Z-1.1151
G01 X230.6692 Y278.1967 Z-1.1369
G01 X230.6774 Y278.1857 Z-1.1587
G01 X230.6847 Y278.1741 Z-1.1806
G01 X230.6911 Y278.1620 Z-1.2024
G01 X230.6966 Y278.1494 Z-1.2242
G01 X230.7011 Y278.1365 Z-1.2460
G01 X230.7046 Y278.1233 Z-1.2679
G01 X230.7072 Y278.1098 Z-1.2897
G01 X230.7087 Y278.0962 Z-1.3115
G01 X230.7092 Y278.0825 Z-1.3333
G01 X230.7087 Y278.0688 Z-1.3552
G01 X230.7072 Y278.0552 Z-1.3770
G01 X230.7046 Y278.0417 Z-1.3988
G01 X230.7011 Y278.0285 Z-1.4206
G01 X230.6966 Y278.0156 Z-1.4425
G01 X230.6911 Y278.0030 Z-1.4643
G01 X230.6847 Y277.9909 Z-1.4861
G01 X230.6774 Y277.9793 Z-1.5079
G01 X230.6692 Y277.9683 Z-1.5298
G01 X230.6603 Y277.9579 Z-1.5516
G01 X230.6506 Y277.9482 Z-1.5734
G01 X230.6402 Y277.9393 Z-1.5952
G01 X230.6292 Y277.9311 Z-1.6171
G01 X230.6176 Y277.9238 Z-1.6389
G01 X230.6055 Y277.9174 Z-1.6607
G01 X230.5929 Y277.9119 Z-1.6825
G01 X230.5800 Y277.9074 Z-1.7044
G01 X230.5668 Y277.9039 Z-1.7262
G01 X230.5533 Y277.9013 Z-1.7480
G01 X230.5397 Y277.8998 Z-1.7698
G01 X230.5260 Y277.8993 Z-1.7917
G01 X230.5123 Y277.8998 Z-1.8135
G01 X230.4987 Y277.9013 Z-1.8353
G01 X230.4852 Y277.9039 Z-1.8571
G01 X230.4720 Y277.9074 Z-1.8790
G01 X230.4591 Y277.9119 Z-1.9008
G01 X230.4465 Y277.9174 Z-1.9226
G01 X230.4344 Y277.9238 Z-1.9444
G01 X230.4228 Y277.9311 Z-1.9663
G01 X230.4118 Y277.9393 Z-1.9881
G01 X230.4014 Y277.9482 Z-2.0099
G01 X230.3917 Y277.9579 Z-2.0317
G01 X230.3828 Y277.9683 Z-2.0536
G01 X230.3746 Y277.9793 Z-2.0754
G01 X230.3673 Y277.9909 Z-2.0972
G01 X230.3609 Y278.0030 Z-2.1190
G01 X230.3555 Y278.0156 Z-2.1409
G01 X230.3509 Y278.0285 Z-2.1627
G01 X230.3474 Y278.0417 Z-2.1845
G01 X230.3448 Y278.0552 Z-2.2063
G01 X230.3433 Y278.0688 Z-2.2282
G01 X230.3428 Y278.0825 Z-2.2500
G01 X230.3433 Y278.0962 Z-2.2718
G01 X230.3448 Y278.1098 Z-2.2937
G01 X230.3474 Y278.1233 Z-2.3155
G01 X230.3509 Y278.1365 Z-2.3373
G01 X230.3555 Y278.1494 Z-2.3591
G01 X230.3609 Y278.1620 Z-2.3810
G01 X230.3673 Y278.1741 Z-2.4028
G01 X230.3746 Y278.1857 Z-2.4246
G01 X230.3828 Y278.1967 Z-2.4464
G01 X230.3917 Y278.2071 Z-2.4683
G01 X230.4014 Y278.2168 Z-2.4901
G01 X230.4118 Y278.2257 Z-2.5119
G01 X230.4228 Y278.2339 Z-2.5337
G01 X230.4344 Y278.2412 Z-2.5556
G01 X230.4465 Y278.2476 Z-2.5774
G01 X230.4591 Y278.2530 Z-2.5992
G01 X230.4720 Y278.2576 Z-2.6210
G01 X230.4852 Y278.2611 Z-2.6429
G01 X230.4987 Y278.2637 Z-2.6647
G01 X230.5123 Y278.2652 Z-2.6865
G01 X230.5260 Y278.2657 Z-2.7083
G01 X230.5397 Y278.2652 Z-2.7302
G01 X230.5533 Y278.2637 Z-2.7520
G01 X230.5668 Y278.2611 Z-2.7738
G01 X230.5800 Y278.2576 Z-2.7956
G01 X230.5929 Y278.2530 Z-2.8175
G01 X230.6055 Y278.2476 Z-2.8393
G01 X230.6176 Y278.2412 Z-2.8611
G01 X230.6292 Y278.2339 Z-2.8829
G01 X230.6402 Y278.2257 Z-2.9048
G01 X230.6506 Y278.2168 Z-2.9266
G01 X230.6603 Y278.2071 Z-2.9484
G01 X230.6692 Y278.1967 Z-2.9702
G01 X230.6774 Y278.1857 Z-2.9921
G01 X230.6847 Y278.1741 Z-3.0139
G01 X230.6911 Y278.1620 Z-3.0357
G01 X230.6966 Y278.1494 Z-3.0575
G01 X230.7011 Y278.1365 Z-3.0794
G01 X230.7046 Y278.1233 Z-3.1012
G01 X230.7072 Y278.1098 Z-3.1230
G01 X230.7087 Y278.0962 Z-3.1448
G01 X230.7092 Y278.0825 Z-3.1667
G01 X230.7087 Y278.0688 Z-3.1885
G01 X230.7072 Y278.0552 Z-3.2103
G01 X230.7046 Y278.0417 Z-3.2321
G01 X230.7011 Y278.0285 Z-3.2540
G01 X230.6966 Y278.0156 Z-3.2758
G01 X230.6911 Y278.0030 Z-3.2976
G01 X230.6847 Y277.9909 Z-3.3194
G01 X230.6774 Y277.9793 Z-3.3413
G01 X230.6692 Y277.9683 Z-3.3631
G01 X230.6603 Y277.9579 Z-3.3849
G01 X230.6506 Y277.9482 Z-3.4067
G01 X230.6402 Y277.9393 Z-3.4286
G01 X230.6292 Y277.9311 Z-3.4504
G01 X230.6176 Y277.9238 Z-3.4722
G01 X230.6055 Y277.9174 Z-3.4940
G01 X230.5929 Y277.9119 Z-3.5159
G01 X230.5800 Y277.9074 Z-3.5377
G01 X230.5668 Y277.9039 Z-3.5595
G01 X230.5533 Y277.9013 Z-3.5813
G01 X230.5397 Y277.8998 Z-3.6032
G01 X230.5260 Y277.8993 Z-3.6250
G01 X230.5123 Y277.8998 Z-3.6468
G01 X230.4987 Y277.9013 Z-3.6687
G01 X230.4852 Y277.9039 Z-3.6905
G01 X230.4720 Y277.9074 Z-3.7123
G01 X230.4591 Y277.9119 Z-3.7341
G01 X230.4465 Y277.9174 Z-3.7560
G01 X230.4344 Y277.9238 Z-3.7778
G01 X230.4228 Y277.9311 Z-3.7996
G01 X230.4118 Y277.9393 Z-3.8214
G01 X230.4014 Y277.9482 Z-3.8433
G01 X230.3917 Y277.9579 Z-3.8651
G01 X230.3828 Y277.9683 Z-3.8869
G01 X230.3746 Y277.9793 Z-3.9087
G01 X230.3673 Y277.9909 Z-3.9306
G01 X230.3609 Y278.0030 Z-3.9524
G01 X230.3555 Y278.0156 Z-3.9742
G01 X230.3509 Y278.0285 Z-3.9960
G01 X230.3474 Y278.0417 Z-4.0179
G01 X230.3448 Y278.0552 Z-4.0397
G01 X230.3433 Y278.0688 Z-4.0615
G01 X230.3428 Y278.0825 Z-4.0833
G01 X230.3433 Y278.0962 Z-4.1052
G01 X230.3448 Y278.1098 Z-4.1270
G01 X230.3474 Y278.1233 Z-4.1488
G01 X230.3509 Y278.1365 Z-4.1706
G01 X230.3555 Y278.1494 Z-4.1925
G01 X230.3609 Y278.1620 Z-4.2143
G01 X230.3673 Y278.1741 Z-4.2361
G01 X230.3746 Y278.1857 Z-4.2579
G01 X230.3828 Y278.1967 Z-4.2798
G01 X230.3917 Y278.2071 Z-4.3016
G01 X230.4014 Y278.2168 Z-4.3234
G01 X230.4118 Y278.2257 Z-4.3452
G01 X230.4228 Y278.2339 Z-4.3671
G01 X230.4344 Y278.2412 Z-4.3889
G01 X230.4465 Y278.2476 Z-4.4107
G01 X230.4591 Y278.2530 Z-4.4325
G01 X230.4720 Y278.2576 Z-4.4544
G01 X230.4852 Y278.2611 Z-4.4762
G01 X230.4987 Y278.2637 Z-4.4980
G01 X230.5123 Y278.2652 Z-4.5198
G01 X230.5260 Y278.2657 Z-4.5417
G01 X230.5397 Y278.2652 Z-4.5635
G01 X230.5533 Y278.2637 Z-4.5853
G01 X230.5668 Y278.2611 Z-4.6071
G01 X230.5800 Y278.2576 Z-4.6290
G01 X230.5929 Y278.2530 Z-4.6508
G01 X230.6055 Y278.2476 Z-4.6726
G01 X230.6176 Y278.2412 Z-4.6944
G01 X230.6292 Y278.2339 Z-4.7163
G01 X230.6402 Y278.2257 Z-4.7381
G01 X230.6506 Y278.2168 Z-4.7599
G01 X230.6603 Y278.2071 Z-4.7817
G01 X230.6692 Y278.1967 Z-4.8036
G01 X230.6774 Y278.1857 Z-4.8254
G01 X230.6847 Y278.1741 Z-4.8472
G01 X230.6911 Y278.1620 Z-4.8690
G01 X230.6966 Y278.1494 Z-4.8909
G01 X230.7011 Y278.1365 Z-4.9127
G01 X230.7046 Y278.1233 Z-4.9345
G01 X230.7072 Y278.1098 Z-4.9563
G01 X230.7087 Y278.0962 Z-4.9782
G01 X230.7092 Y278.0825 Z-5.0000
G01 X230.7087 Y278.0688
G01 X230.7072 Y278.0552
G01 X230.7046 Y278.0417
G01 X230.7011 Y278.0285
G01 X230.6966 Y278.0156
G01 X230.6911 Y278.0030
G01 X230.6847 Y277.9909
G01 X230.6774 Y277.9793
G01 X230.6692 Y277.9683
G01 X230.6603 Y277.9579
G01 X230.6506 Y277.9482
G01 X230.6402 Y277.9393
G01 X230.6292 Y277.9311
G01 X230.6176 Y277.9238
G01 X230.6055 Y277.9174
G01 X230.5929 Y277.9119
G01 X230.5800 Y277.9074
G01 X230.5668 Y277.9039
G01 X230.5533 Y277.9013
G01 X230.5397 Y277.8998
G01 X230.5260 Y277.8993
G01 X230.5123 Y277.8998
G01 X230.4987 Y277.9013
G01 X230.4852 Y277.9039
G01 X230.4720 Y277.9074
G01 X230.4591 Y277.9119
G01 X230.4465 Y277.9174
G01 X230.4344 Y277.9238
G01 X230.4228 Y277.9311
G01 X230.4118 Y277.9393
G01 X230.4014 Y277.9482
G01 X230.3917 Y277.9579
G01 X230.3828 Y277.9683
G01 X230.3746 Y277.9793
G01 X230.3673 Y277.9909
G01 X230.3609 Y278.0030
G01 X230.3555 Y278.0156
G01 X230.3509 Y278.0285
G01 X230.3474 Y278.0417
G01 X230.3448 Y278.0552
G01 X230.3433 Y278.0688
G01 X230.3428 Y278.0825
G01 X230.3433 Y278.0962
G01 X230.3448 Y278.1098
G01 X230.3474 Y278.1233
G01 X230.3509 Y278.1365
G01 X230.3555 Y278.1494
G01 X230.3609 Y278.1620
G01 X230.3673 Y278.1741
G01 X230.3746 Y278.1857
G01 X230.3828 Y278.1967
G01 X230.3917 Y278.2071
G01 X230.4014 Y278.2168
G01 X230.4118 Y278.2257
G01 X230.4228 Y278.2339
G01 X230.4344 Y278.2412
G01 X230.4465 Y278.2476
G01 X230.4591 Y278.2530
G01 X230.4720 Y278.2576
G01 X230.4852 Y278.2611
G01 X230.4987 Y278.2637
G01 X230.5123 Y278.2652
G01 X230.5260 Y278.2657
G01 X230.5397 Y278.2652
G01 X230.5533 Y278.2637
G01 X230.5668 Y278.2611
G01 X230.5800 Y278.2576
G01 X230.5929 Y278.2530
G01 X230.6055 Y278.2476
G01 X230.6176 Y278.2412
G01 X230.6292 Y278.2339
G01 X230.6402 Y278.2257
G01 X230.6506 Y278.2168
G01 X230.6603 Y278.2071
G01 X230.6692 Y278.1967
G01 X230.6774 Y278.1857
G01 X230.6847 Y278.1741
G01 X230.6911 Y278.1620
G01 X230.6966 Y278.1494
G01 X230.7011 Y278.1365
G01 X230.7046 Y278.1233
G01 X230.7072 Y278.1098
G01 X230.7087 Y278.0962
G01 X230.7092 Y278.0825
M107
M106 S240
G01 X230.7089 Y278.0753 Z-4.9875
M107
M106 S240
G01 X230.7081 Y278.0682 Z-4.9750
M107
M106 S240
G01 X230.7067 Y278.0611 Z-4.9625
M107
M106 S240
G01 X230.7047 Y278.0542 Z-4.9500
M107
M106 S240
G01 X230.7022 Y278.0474 Z-4.9375
M107
M106 S240
G01 X230.6992 Y278.0409 Z-4.9250
M107
M106 S240
G01 X230.6957 Y278.0346 Z-4.9125
M107
M106 S240
G01 X230.6917 Y278.0287 Z-4.9000
M107
M106 S240
G01 X230.6873 Y278.0230 Z-4.8875
M107
M106 S240
G01 X230.6824 Y278.0177 Z-4.8750
M107
M106 S240
G01 X230.6771 Y278.0128 Z-4.8625
M107
M106 S240
G01 X230.6715 Y278.0084 Z-4.8500
M107
M106 S240
G01 X230.6655 Y278.0044 Z-4.8375
M107
M106 S240
G01 X230.6592 Y278.0009 Z-4.8250
M107
M106 S240
G01 X230.6527 Y277.9979 Z-4.8125
M107
M106 S240
G01 X230.6459 Y277.9954 Z-4.8000
M107
M106 S240
G01 X230.6390 Y277.9934 Z-4.7875
M107
M106 S240
G01 X230.6319 Y277.9920 Z-4.7750
M107
M106 S240
G01 X230.6248 Y277.9912 Z-4.7625
M107
M106 S240
G01 X230.6176 Y277.9909 Z-4.7500
M107
M106 S240
G01 X230.6104 Y277.9912 Z-4.7375
M107
M106 S240
G01 X230.6033 Y277.9920 Z-4.7250
M107
M106 S240
G01 X230.5962 Y277.9934 Z-4.7125
M107
M106 S240
G01 X230.5893 Y277.9954 Z-4.7000
M107
M106 S240
G01 X230.5826 Y277.9979 Z-4.6875
M107
M106 S240
G01 X230.5760 Y278.0009 Z-4.6750
M107
M106 S240
G01 X230.5698 Y278.0044 Z-4.6625
M107
M106 S240
G01 X230.5638 Y278.0084 Z-4.6500
M107
M106 S240
G01 X230.5581 Y278.0128 Z-4.6375
M107
M106 S240
G01 X230.5528 Y278.0177 Z-4.6250
M107
M106 S240
G01 X230.5480 Y278.0230 Z-4.6125
M107
M106 S240
G01 X230.5435 Y278.0287 Z-4.6000
M107
M106 S240
G01 X230.5395 Y278.0346 Z-4.5875
M107
M106 S240
G01 X230.5360 Y278.0409 Z-4.5750
M107
M106 S240
G01 X230.5330 Y278.0474 Z-4.5625
M107
M106 S240
G01 X230.5305 Y278.0542 Z-4.5500
M107
M106 S240
G01 X230.5285 Y278.0611 Z-4.5375
M107
M106 S240
G01 X230.5271 Y278.0682 Z-4.5250
M107
M106 S240
G01 X230.5263 Y278.0753 Z-4.5125
M107
M106 S240
G01 X230.5260 Y278.0825 Z-4.5000
M107
G00 Z2.0000


;No. 8: Hole 2
G00 X233.4013 Y264.8809 Z2.0000
G00 Z0.5000
G01 Z0.0000 F400
G01 Z-1.2000
M106 S240
G01 X241.7156 F1000
G01 X238.2850 Y266.3809
G01 X248.2982
G01 X244.2430 Y267.8809
G01 X260.3191
G01 Y269.3809
G01 X252.4754
G01 X281.8014
G01 Y267.8809
G01 X273.9448
G01 X290.0397
G01 X285.9257 Y266.3809
G01 X295.9677
G01 X292.5128 Y264.8809
G01 X300.8365
G01 X297.5688 Y263.3809
G01 X305.0711
G01 X304.9229 Y261.8809
G01 X301.7688
M107
G00 Z2.0000
G00 X236.6907 Y264.8809
G00 Z0.5000
G01 Z-1.2000 F400
M106 S240
G01 Y263.3809 F1000
G01 X229.1922
G01 X229.3464 Y261.8809
G01 X232.4969
G01 X232.5462 Y261.6855
G01 X231.8564 Y261.4101
G01 X231.1669 Y261.1339
G01 X230.4778 Y260.8569
G01 X229.7889 Y260.5791
G01 X229.4377 Y261.2543
G01 X229.0969 Y261.9348
G01 X228.7667 Y262.6205
G01 X228.4471 Y263.3113
G01 X230.3048 Y264.0113
G01 X232.1749 Y264.6772
G01 X234.0570 Y265.3088
G01 X235.9502 Y265.9059
G01 X237.8541 Y266.4683
G01 X239.7679 Y266.9958
G01 X241.6911 Y267.4882
G01 X243.6229 Y267.9454
G01 X245.5628 Y268.3672
G01 X247.5100 Y268.7535
G01 X249.4640 Y269.1040
G01 X251.4241 Y269.4189
G01 X253.3896 Y269.6978
G01 X255.3599 Y269.9407
G01 X257.3342 Y270.1476
G01 X259.3121 Y270.3184
G01 X261.2927 Y270.4530
G01 X263.2755 Y270.5513
G01 X265.2597 Y270.6134
G01 X267.2447 Y270.6392
G01 X269.2183 Y270.6111
G01 X271.1911 Y270.5470
G01 X273.1623 Y270.4468
G01 X275.1314 Y270.3107
G01 X277.0977 Y270.1386
G01 X279.0605 Y269.9306
G01 X281.0192 Y269.6867
G01 X282.9731 Y269.4071
G01 X284.9216 Y269.0919
G01 X286.8639 Y268.7411
G01 X288.7996 Y268.3549
G01 X290.7278 Y267.9333
G01 X292.6481 Y267.4766
G01 X294.5597 Y266.9849
G01 X296.4619 Y266.4584
G01 X298.3543 Y265.8971
G01 X300.2360 Y265.3014
G01 X302.1066 Y264.6714
G01 X303.9653 Y264.0074
G01 X305.8116 Y263.3095
G01 X305.4945 Y262.6181
G01 X305.1690 Y261.9306
G01 X304.8353 Y261.2471
G01 X304.4933 Y260.5677
G01 X302.9558 Y261.1980
G01 X301.4072 Y261.8008
G01 X299.8482 Y262.3757
G01 X298.2790 Y262.9227
G01 X296.7004 Y263.4415
G01 X295.1127 Y263.9320
G01 X293.5165 Y264.3940
G01 X291.9122 Y264.8274
G01 X290.3005 Y265.2321
G01 X288.6818 Y265.6078
G01 X287.0567 Y265.9545
G01 X285.4256 Y266.2721
G01 X283.7891 Y266.5605
G01 X282.1476 Y266.8196
G01 X280.5019 Y267.0492
G01 X278.8522 Y267.2494
G01 X277.1993 Y267.4201
G01 X275.5436 Y267.5611
G01 X273.8856 Y267.6725
G01 X272.2258 Y267.7543
G01 X270.8867 Y267.7966
G01 X269.5473 Y267.8266
G01 X268.2076 Y267.8444
G01 X266.8679 Y267.8500
G01 X265.5281 Y267.8433
G01 X264.1884 Y267.8243
G01 X262.8490 Y267.7931
G01 X261.5100 Y267.7497
G01 X260.0263 Y267.6686
G01 X258.5441 Y267.5639
G01 X257.0638 Y267.4354
G01 X255.5857 Y267.2833
G01 X254.1102 Y267.1077
G01 X252.6377 Y266.9084
G01 X251.1686 Y266.6857
G01 X249.7033 Y266.4395
G01 X248.2421 Y266.1700
G01 X246.7853 Y265.8771
G01 X245.3335 Y265.5610
G01 X243.8868 Y265.2217
G01 X242.4458 Y264.8594
G01 X241.0107 Y264.4741
G01 X239.5820 Y264.0659
G01 X238.1600 Y263.6349
G01 X236.7450 Y263.1813
G01 X235.3375 Y262.7051
G01 X233.9378 Y262.2065
G01 X232.5462 Y261.6855
G01 X232.4969 Y261.8809
M107
G00 Z2.0000


;No. 9: Helical drill 2
G00 X304.0695 Y278.0825 Z2.0000
G00 Z0.5000
M106 S240
G01 X304.0690 Y278.0688 Z0.4782 F400
G01 X304.0674 Y278.0552 Z0.4563
G01 X304.0649 Y278.0417 Z0.4345
G01 X304.0613 Y278.0285 Z0.4127
G01 X304.0568 Y278.0156 Z0.3909
G01 X304.0513 Y278.0030 Z0.3690
G01 X304.0449 Y277.9909 Z0.3472
G01 X304.0376 Y277.9793 Z0.3254
G01 X304.0295 Y277.9683 Z0.3036
G01 X304.0206 Y277.9579 Z0.2817
G01 X304.0109 Y277.9482 Z0.2599
G01 X304.0005 Y277.9393 Z0.2381
G01 X303.9895 Y277.9311 Z0.2163
G01 X303.9779 Y277.9238 Z0.1944
G01 X303.9658 Y277.9174 Z0.1726
G01 X303.9532 Y277.9120 Z0.1508
G01 X303.9403 Y277.9074 Z0.1290
G01 X303.9270 Y277.9039 Z0.1071
G01 X303.9136 Y277.9013 Z0.0853
G01 X303.9000 Y277.8998 Z0.0635
G01 X303.8863 Y277.8993 Z0.0417
G01 X303.8726 Y277.8998 Z0.0198
G01 X303.8590 Y277.9013 Z-0.0020
G01 X303.8455 Y277.9039 Z-0.0238
G01 X303.8323 Y277.9074 Z-0.0456
G01 X303.8193 Y277.9120 Z-0.0675
G01 X303.8068 Y277.9174 Z-0.0893
G01 X303.7947 Y277.9238 Z-0.1111
G01 X303.7831 Y277.9311 Z-0.1329
G01 X303.7720 Y277.9393 Z-0.1548
G01 X303.7617 Y277.9482 Z-0.1766
G01 X303.7520 Y277.9579 Z-0.1984
G01 X303.7430 Y277.9683 Z-0.2202
G01 X303.7349 Y277.9793 Z-0.2421
G01 X303.7276 Y277.9909 Z-0.2639
G01 X303.7212 Y278.0030 Z-0.2857
G01 X303.7157 Y278.0156 Z-0.3075
G01 X303.7112 Y278.0285 Z-0.3294
G01 X303.7077 Y278.0417 Z-0.3512
G01 X303.7051 Y278.0552 Z-0.3730
G01 X303.7036 Y278.0688 Z-0.3948
G01 X303.7031 Y278.0825 Z-0.4167
G01 X303.7036 Y278.0962 Z-0.4385
G01 X303.7051 Y278.1098 Z-0.4603
G01 X303.7077 Y278.1233 Z-0.4821
G01 X303.7112 Y278.1365 Z-0.5040
G01 X303.7157 Y278.1494 Z-0.5258
G01 X303.7212 Y278.1620 Z-0.5476
G01 X303.7276 Y278.1741 Z-0.5694
G01 X303.7349 Y278.1857 Z-0.5913
G01 X303.7430 Y278.1967 Z-0.6131
G01 X303.7520 Y278.2071 Z-0.6349
G01 X303.7617 Y278.2168 Z-0.6567
G01 X303.7720 Y278.2257 Z-0.6786
G01 X303.7831 Y278.2339 Z-0.7004
G01 X303.7947 Y278.2412 Z-0.7222
G01 X303.8068 Y278.2476 Z-0.7440
G01 X303.8193 Y278.2530 Z-0.7659
G01 X303.8323 Y278.2576 Z-0.7877
G01 X303.8455 Y278.2611 Z-0.8095
G01 X303.8590 Y278.2637 Z-0.8313
G01 X303.8726 Y278.2652 Z-0.8532
G01 X303.8863 Y278.2657 Z-0.8750
G01 X303.9000 Y278.2652 Z-0.8968
G01 X303.9136 Y278.2637 Z-0.9187
G01 X303.9270 Y278.2611 Z-0.9405
G01 X303.9403 Y278.2576 Z-0.9623
G01 X303.9532 Y278.2530 Z-0.9841
G01 X303.9658 Y278.2476 Z-1.0060
G01 X303.9779 Y278.2412 Z-1.0278
G01 X303.9895 Y278.2339 Z-1.0496
G01 X304.0005 Y278.2257 Z-1.0714
G01 X304.0109 Y278.2168 Z-1.0933
G01 X304.0206 Y278.2071 Z-1.1151
G01 X304.0295 Y278.1967 Z-1.1369
G01 X304.0376 Y278.1857 Z-1.1587
G01 X304.0449 Y278.1741 Z-1.1806
G01 X304.0513 Y278.1620 Z-1.2024
G01 X304.0568 Y278.1494 Z-1.2242
G01 X304.0613 Y278.1365 Z-1.2460
G01 X304.0649 Y278.1233 Z-1.2679
G01 X304.0674 Y278.1098 Z-1.2897
G01 X304.0690 Y278.0962 Z-1.3115
G01 X304.0695 Y278.0825 Z-1.3333
G01 X304.0690 Y278.0688 Z-1.3552
G01 X304.0674 Y278.0552 Z-1.3770
G01 X304.0649 Y278.0417 Z-1.3988
G01 X304.0613 Y278.0285 Z-1.4206
G01 X304.0568 Y278.0156 Z-1.4425
G01 X304.0513 Y278.0030 Z-1.4643
G01 X304.0449 Y277.9909 Z-1.4861
G01 X304.0376 Y277.9793 Z-1.5079
G01 X304.0295 Y277.9683 Z-1.5298
G01 X304.0206 Y277.9579 Z-1.5516
G01 X304.0109 Y277.9482 Z-1.5734
G01 X304.0005 Y277.9393 Z-1.5952
G01 X303.9895 Y277.9311 Z-1.6171
G01 X303.9779 Y277.9238 Z-1.6389
G01 X303.9658 Y277.9174 Z-1.6607
G01 X303.9532 Y277.9120 Z-1.6825
G01 X303.9403 Y277.9074 Z-1.7044
G01 X303.9270 Y277.9039 Z-1.7262
G01 X303.9136 Y277.9013 Z-1.7480
G01 X303.9000 Y277.8998 Z-1.7698
G01 X303.8863 Y277.8993 Z-1.7917
G01 X303.8726 Y277.8998 Z-1.8135
G01 X303.8590 Y277.9013 Z-1.8353
G01 X303.8455 Y277.9039 Z-1.8571
G01 X303.8323 Y277.9074 Z-1.8790
G01 X303.8193 Y277.9120 Z-1.9008
G01 X303.8068 Y277.9174 Z-1.9226
G01 X303.7947 Y277.9238 Z-1.9444
G01 X303.7831 Y277.9311 Z-1.9663
G01 X303.7720 Y277.9393 Z-1.9881
G01 X303.7617 Y277.9482 Z-2.0099
G01 X303.7520 Y277.9579 Z-2.0317
G01 X303.7430 Y277.9683 Z-2.0536
G01 X303.7349 Y277.9793 Z-2.0754
G01 X303.7276 Y277.9909 Z-2.0972
G01 X303.7212 Y278.0030 Z-2.1190
G01 X303.7157 Y278.0156 Z-2.1409
G01 X303.7112 Y278.0285 Z-2.1627
G01 X303.7077 Y278.0417 Z-2.1845
G01 X303.7051 Y278.0552 Z-2.2063
G01 X303.7036 Y278.0688 Z-2.2282
G01 X303.7031 Y278.0825 Z-2.2500
G01 X303.7036 Y278.0962 Z-2.2718
G01 X303.7051 Y278.1098 Z-2.2937
G01 X303.7077 Y278.1233 Z-2.3155
G01 X303.7112 Y278.1365 Z-2.3373
G01 X303.7157 Y278.1494 Z-2.3591
G01 X303.7212 Y278.1620 Z-2.3810
G01 X303.7276 Y278.1741 Z-2.4028
G01 X303.7349 Y278.1857 Z-2.4246
G01 X303.7430 Y278.1967 Z-2.4464
G01 X303.7520 Y278.2071 Z-2.4683
G01 X303.7617 Y278.2168 Z-2.4901
G01 X303.7720 Y278.2257 Z-2.5119
G01 X303.7831 Y278.2339 Z-2.5337
G01 X303.7947 Y278.2412 Z-2.5556
G01 X303.8068 Y278.2476 Z-2.5774
G01 X303.8193 Y278.2530 Z-2.5992
G01 X303.8323 Y278.2576 Z-2.6210
G01 X303.8455 Y278.2611 Z-2.6429
G01 X303.8590 Y278.2637 Z-2.6647
G01 X303.8726 Y278.2652 Z-2.6865
G01 X303.8863 Y278.2657 Z-2.7083
G01 X303.9000 Y278.2652 Z-2.7302
G01 X303.9136 Y278.2637 Z-2.7520
G01 X303.9270 Y278.2611 Z-2.7738
G01 X303.9403 Y278.2576 Z-2.7956
G01 X303.9532 Y278.2530 Z-2.8175
G01 X303.9658 Y278.2476 Z-2.8393
G01 X303.9779 Y278.2412 Z-2.8611
G01 X303.9895 Y278.2339 Z-2.8829
G01 X304.0005 Y278.2257 Z-2.9048
G01 X304.0109 Y278.2168 Z-2.9266
G01 X304.0206 Y278.2071 Z-2.9484
G01 X304.0295 Y278.1967 Z-2.9702
G01 X304.0376 Y278.1857 Z-2.9921
G01 X304.0449 Y278.1741 Z-3.0139
G01 X304.0513 Y278.1620 Z-3.0357
G01 X304.0568 Y278.1494 Z-3.0575
G01 X304.0613 Y278.1365 Z-3.0794
G01 X304.0649 Y278.1233 Z-3.1012
G01 X304.0674 Y278.1098 Z-3.1230
G01 X304.0690 Y278.0962 Z-3.1448
G01 X304.0695 Y278.0825 Z-3.1667
G01 X304.0690 Y278.0688 Z-3.1885
G01 X304.0674 Y278.0552 Z-3.2103
G01 X304.0649 Y278.0417 Z-3.2321
G01 X304.0613 Y278.0285 Z-3.2540
G01 X304.0568 Y278.0156 Z-3.2758
G01 X304.0513 Y278.0030 Z-3.2976
G01 X304.0449 Y277.9909 Z-3.3194
G01 X304.0376 Y277.9793 Z-3.3413
G01 X304.0295 Y277.9683 Z-3.3631
G01 X304.0206 Y277.9579 Z-3.3849
G01 X304.0109 Y277.9482 Z-3.4067
G01 X304.0005 Y277.9393 Z-3.4286
G01 X303.9895 Y277.9311 Z-3.4504
G01 X303.9779 Y277.9238 Z-3.4722
G01 X303.9658 Y277.9174 Z-3.4940
G01 X303.9532 Y277.9120 Z-3.5159
G01 X303.9403 Y277.9074 Z-3.5377
G01 X303.9270 Y277.9039 Z-3.5595
G01 X303.9136 Y277.9013 Z-3.5813
G01 X303.9000 Y277.8998 Z-3.6032
G01 X303.8863 Y277.8993 Z-3.6250
G01 X303.8726 Y277.8998 Z-3.6468
G01 X303.8590 Y277.9013 Z-3.6687
G01 X303.8455 Y277.9039 Z-3.6905
G01 X303.8323 Y277.9074 Z-3.7123
G01 X303.8193 Y277.9120 Z-3.7341
G01 X303.8068 Y277.9174 Z-3.7560
G01 X303.7947 Y277.9238 Z-3.7778
G01 X303.7831 Y277.9311 Z-3.7996
G01 X303.7720 Y277.9393 Z-3.8214
G01 X303.7617 Y277.9482 Z-3.8433
G01 X303.7520 Y277.9579 Z-3.8651
G01 X303.7430 Y277.9683 Z-3.8869
G01 X303.7349 Y277.9793 Z-3.9087
G01 X303.7276 Y277.9909 Z-3.9306
G01 X303.7212 Y278.0030 Z-3.9524
G01 X303.7157 Y278.0156 Z-3.9742
G01 X303.7112 Y278.0285 Z-3.9960
G01 X303.7077 Y278.0417 Z-4.0179
G01 X303.7051 Y278.0552 Z-4.0397
G01 X303.7036 Y278.0688 Z-4.0615
G01 X303.7031 Y278.0825 Z-4.0833
G01 X303.7036 Y278.0962 Z-4.1052
G01 X303.7051 Y278.1098 Z-4.1270
G01 X303.7077 Y278.1233 Z-4.1488
G01 X303.7112 Y278.1365 Z-4.1706
G01 X303.7157 Y278.1494 Z-4.1925
G01 X303.7212 Y278.1620 Z-4.2143
G01 X303.7276 Y278.1741 Z-4.2361
G01 X303.7349 Y278.1857 Z-4.2579
G01 X303.7430 Y278.1967 Z-4.2798
G01 X303.7520 Y278.2071 Z-4.3016
G01 X303.7617 Y278.2168 Z-4.3234
G01 X303.7720 Y278.2257 Z-4.3452
G01 X303.7831 Y278.2339 Z-4.3671
G01 X303.7947 Y278.2412 Z-4.3889
G01 X303.8068 Y278.2476 Z-4.4107
G01 X303.8193 Y278.2530 Z-4.4325
G01 X303.8323 Y278.2576 Z-4.4544
G01 X303.8455 Y278.2611 Z-4.4762
G01 X303.8590 Y278.2637 Z-4.4980
G01 X303.8726 Y278.2652 Z-4.5198
G01 X303.8863 Y278.2657 Z-4.5417
G01 X303.9000 Y278.2652 Z-4.5635
G01 X303.9136 Y278.2637 Z-4.5853
G01 X303.9270 Y278.2611 Z-4.6071
G01 X303.9403 Y278.2576 Z-4.6290
G01 X303.9532 Y278.2530 Z-4.6508
G01 X303.9658 Y278.2476 Z-4.6726
G01 X303.9779 Y278.2412 Z-4.6944
G01 X303.9895 Y278.2339 Z-4.7163
G01 X304.0005 Y278.2257 Z-4.7381
G01 X304.0109 Y278.2168 Z-4.7599
G01 X304.0206 Y278.2071 Z-4.7817
G01 X304.0295 Y278.1967 Z-4.8036
G01 X304.0376 Y278.1857 Z-4.8254
G01 X304.0449 Y278.1741 Z-4.8472
G01 X304.0513 Y278.1620 Z-4.8690
G01 X304.0568 Y278.1494 Z-4.8909
G01 X304.0613 Y278.1365 Z-4.9127
G01 X304.0649 Y278.1233 Z-4.9345
G01 X304.0674 Y278.1098 Z-4.9563
G01 X304.0690 Y278.0962 Z-4.9782
G01 X304.0695 Y278.0825 Z-5.0000
G01 X304.0690 Y278.0688
G01 X304.0674 Y278.0552
G01 X304.0649 Y278.0417
G01 X304.0613 Y278.0285
G01 X304.0568 Y278.0156
G01 X304.0513 Y278.0030
G01 X304.0449 Y277.9909
G01 X304.0376 Y277.9793
G01 X304.0295 Y277.9683
G01 X304.0206 Y277.9579
G01 X304.0109 Y277.9482
G01 X304.0005 Y277.9393
G01 X303.9895 Y277.9311
G01 X303.9779 Y277.9238
G01 X303.9658 Y277.9174
G01 X303.9532 Y277.9120
G01 X303.9403 Y277.9074
G01 X303.9270 Y277.9039
G01 X303.9136 Y277.9013
G01 X303.9000 Y277.8998
G01 X303.8863 Y277.8993
G01 X303.8726 Y277.8998
G01 X303.8590 Y277.9013
G01 X303.8455 Y277.9039
G01 X303.8323 Y277.9074
G01 X303.8193 Y277.9120
G01 X303.8068 Y277.9174
G01 X303.7947 Y277.9238
G01 X303.7831 Y277.9311
G01 X303.7720 Y277.9393
G01 X303.7617 Y277.9482
G01 X303.7520 Y277.9579
G01 X303.7430 Y277.9683
G01 X303.7349 Y277.9793
G01 X303.7276 Y277.9909
G01 X303.7212 Y278.0030
G01 X303.7157 Y278.0156
G01 X303.7112 Y278.0285
G01 X303.7077 Y278.0417
G01 X303.7051 Y278.0552
G01 X303.7036 Y278.0688
G01 X303.7031 Y278.0825
G01 X303.7036 Y278.0962
G01 X303.7051 Y278.1098
G01 X303.7077 Y278.1233
G01 X303.7112 Y278.1365
G01 X303.7157 Y278.1494
G01 X303.7212 Y278.1620
G01 X303.7276 Y278.1741
G01 X303.7349 Y278.1857
G01 X303.7430 Y278.1967
G01 X303.7520 Y278.2071
G01 X303.7617 Y278.2168
G01 X303.7720 Y278.2257
G01 X303.7831 Y278.2339
G01 X303.7947 Y278.2412
G01 X303.8068 Y278.2476
G01 X303.8193 Y278.2530
G01 X303.8323 Y278.2576
G01 X303.8455 Y278.2611
G01 X303.8590 Y278.2637
G01 X303.8726 Y278.2652
G01 X303.8863 Y278.2657
G01 X303.9000 Y278.2652
G01 X303.9136 Y278.2637
G01 X303.9270 Y278.2611
G01 X303.9403 Y278.2576
G01 X303.9532 Y278.2530
G01 X303.9658 Y278.2476
G01 X303.9779 Y278.2412
G01 X303.9895 Y278.2339
G01 X304.0005 Y278.2257
G01 X304.0109 Y278.2168
G01 X304.0206 Y278.2071
G01 X304.0295 Y278.1967
G01 X304.0376 Y278.1857
G01 X304.0449 Y278.1741
G01 X304.0513 Y278.1620
G01 X304.0568 Y278.1494
G01 X304.0613 Y278.1365
G01 X304.0649 Y278.1233
G01 X304.0674 Y278.1098
G01 X304.0690 Y278.0962
G01 X304.0695 Y278.0825
M107
M106 S240
G01 X304.0692 Y278.0753 Z-4.9875
M107
M106 S240
G01 X304.0683 Y278.0682 Z-4.9750
M107
M106 S240
G01 X304.0669 Y278.0611 Z-4.9625
M107
M106 S240
G01 X304.0650 Y278.0542 Z-4.9500
M107
M106 S240
G01 X304.0625 Y278.0474 Z-4.9375
M107
M106 S240
G01 X304.0595 Y278.0409 Z-4.9250
M107
M106 S240
G01 X304.0560 Y278.0346 Z-4.9125
M107
M106 S240
G01 X304.0520 Y278.0287 Z-4.9000
M107
M106 S240
G01 X304.0475 Y278.0230 Z-4.8875
M107
M106 S240
G01 X304.0426 Y278.0177 Z-4.8750
M107
M106 S240
G01 X304.0374 Y278.0128 Z-4.8625
M107
M106 S240
G01 X304.0317 Y278.0084 Z-4.8500
M107
M106 S240
G01 X304.0257 Y278.0044 Z-4.8375
M107
M106 S240
G01 X304.0195 Y278.0009 Z-4.8250
M107
M106 S240
G01 X304.0129 Y277.9979 Z-4.8125
M107
M106 S240
G01 X304.0062 Y277.9954 Z-4.8000
M107
M106 S240
G01 X303.9993 Y277.9934 Z-4.7875
M107
M106 S240
G01 X303.9922 Y277.9920 Z-4.7750
M107
M106 S240
G01 X303.9851 Y277.9912 Z-4.7625
M107
M106 S240
G01 X303.9779 Y277.9909 Z-4.7500
M107
M106 S240
G01 X303.9707 Y277.9912 Z-4.7375
M107
M106 S240
G01 X303.9635 Y277.9920 Z-4.7250
M107
M106 S240
G01 X303.9565 Y277.9934 Z-4.7125
M107
M106 S240
G01 X303.9496 Y277.9954 Z-4.7000
M107
M106 S240
G01 X303.9428 Y277.9979 Z-4.6875
M107
M106 S240
G01 X303.9363 Y278.0009 Z-4.6750
M107
M106 S240
G01 X303.9300 Y278.0044 Z-4.6625
M107
M106 S240
G01 X303.9240 Y278.0084 Z-4.6500
M107
M106 S240
G01 X303.9184 Y278.0128 Z-4.6375
M107
M106 S240
G01 X303.9131 Y278.0177 Z-4.6250
M107
M106 S240
G01 X303.9082 Y278.0230 Z-4.6125
M107
M106 S240
G01 X303.9038 Y278.0287 Z-4.6000
M107
M106 S240
G01 X303.8998 Y278.0346 Z-4.5875
M107
M106 S240
G01 X303.8962 Y278.0409 Z-4.5750
M107
M106 S240
G01 X303.8932 Y278.0474 Z-4.5625
M107
M106 S240
G01 X303.8907 Y278.0542 Z-4.5500
M107
M106 S240
G01 X303.8888 Y278.0611 Z-4.5375
M107
M106 S240
G01 X303.8874 Y278.0682 Z-4.5250
M107
M106 S240
G01 X303.8865 Y278.0753 Z-4.5125
M107
M106 S240
G01 X303.8863 Y278.0825 Z-4.5000
M107
G00 Z2.0000


;No. 10: Hole 3
G00 X296.6755 Y258.5648 Z2.0000
G00 Z0.5000
G01 Z0.0000 F400
G01 Z-1.2000
M106 S240
G01 X272.5723 F1000
G01 X271.3402 Y257.0648
G01 X300.6527
G01 X300.8050 Y255.5648
G01 X287.5731
G01 X291.4681
G01 Y254.0648
G01 X299.1304
G01 X297.0525 Y252.5648
G01 X292.9573
G01 X293.6848 Y251.0648
G01 X294.3936
M107
G00 Z2.0000
G00 X291.7671 Y258.5648
G00 Z0.5000
G01 Z-1.2000 F400
M106 S240
G01 Y260.0648 F1000
G01 X273.8061
G01 X275.0445 Y261.5648
G01 X285.0945
M107
G00 Z2.0000
G00 X277.3044 Y257.0648
G00 Z0.5000
G01 Z-1.2000 F400
M106 S240
G01 Y255.5648 F1000
G01 X270.1077
G01 X268.8752 Y254.0648
G01 X276.9531
G01 X276.6829 Y252.5648
G01 X257.5212
G01 X257.7899 Y251.0648
G01 X276.4136
G01 X276.1448 Y249.5648
G01 X258.0586
G01 X258.3273 Y248.0648
G01 X275.8762
G01 X275.6079 Y246.5648
G01 X258.5960
G01 X258.8647 Y245.0648
G01 X275.3397
G01 X275.0716 Y243.5648
G01 X259.1334
G01 X259.4021 Y242.0648
G01 X274.8036
G01 X274.5357 Y240.5648
G01 X259.6708
G01 X259.9395 Y239.0648
G01 X274.2679
G01 X274.0001 Y237.5648
G01 X260.2082
G01 X260.4768 Y236.0648
G01 X273.7324
G01 X273.4648 Y234.5648
G01 X260.7455
G01 X261.0142 Y233.0648
G01 X273.1972
G01 X272.9297 Y231.5648
G01 X261.2829
G01 X261.5516 Y230.0648
G01 X272.6622
G01 X272.3948 Y228.5648
G01 X261.8203
G01 X262.0890 Y227.0648
G01 X272.1274
G01 X271.8600 Y225.5648
G01 X262.3577
G01 X262.6264 Y224.0648
G01 X271.5927
G01 X271.3255 Y222.5648
G01 X262.8951
G01 X263.1638 Y221.0648
G01 X271.0583
G01 X270.7911 Y219.5648
G01 X263.4325
G01 X263.7012 Y218.0648
G01 X270.5240
G01 X270.2569 Y216.5648
G01 X263.9699
G01 X264.2386 Y215.0648
G01 X269.9899
G01 X269.7229 Y213.5648
G01 X264.5073
G01 X264.7760 Y212.0648
G01 X269.4560
G01 X269.1892 Y210.5648
G01 X265.0447
G01 X265.3134 Y209.0648
G01 X268.9224
G01 X268.6556 Y207.5648
G01 X265.5821
G01 X265.8508 Y206.0648
G01 X268.3890
G01 X268.1224 Y204.5648
G01 X266.1195
G01 X266.3882 Y203.0648
G01 X267.8559
G01 X267.5895 Y201.5648
G01 X266.6569
M107
G00 Z2.0000
G00 X265.4184 Y252.5648
G00 Z0.5000
G01 Z-1.2000 F400
M106 S240
G01 Y254.0648 F1000
G01 X257.2525
G01 X256.9196 Y255.5648
G01 X264.1585
G01 X262.9151 Y257.0648
G01 X233.5883
G01 X233.4478 Y255.5648
G01 X246.6617
G01 X242.7765
G01 Y254.0648
G01 X235.1158
G01 X237.2011 Y252.5648
G01 X241.2966
G01 X240.5531 Y251.0648
G01 X239.8282
M107
G00 Z2.0000
G00 X237.5517 Y257.0648
G00 Z0.5000
G01 Z-1.2000 F400
M106 S240
G01 Y258.5648 F1000
G01 X261.6817
G01 X260.4508 Y260.0648
G01 X242.4906
G01 X249.1849
G01 Y261.5648
G01 X259.2198
G01 X259.3797 Y261.6852
G01 X261.0828 Y259.5869
G01 X262.8015 Y257.5014
G01 X264.5357 Y255.4288
G01 X266.2853 Y253.3692
G01 X266.3309 Y253.3067
G01 X266.3808 Y253.2477
G01 X266.4347 Y253.1924
G01 X266.4924 Y253.1410
G01 X266.5537 Y253.0939
G01 X266.6182 Y253.0512
G01 X266.6855 Y253.0133
G01 X266.7553 Y252.9802
G01 X266.8274 Y252.9522
G01 X266.9012 Y252.9294
G01 X266.9765 Y252.9119
G01 X267.0528 Y252.8998
G01 X267.1298 Y252.8931
G01 X267.2071 Y252.8919
G01 X267.2842 Y252.8963
G01 X267.3609 Y252.9061
G01 X267.4459 Y252.9258
G01 X267.5290 Y252.9529
G01 X267.6093 Y252.9871
G01 X267.6864 Y253.0282
G01 X267.7596 Y253.0758
G01 X267.8283 Y253.1297
G01 X267.8921 Y253.1894
G01 X267.9505 Y253.2544
G01 X269.0409 Y254.5808
G01 X270.1311 Y255.9075
G01 X271.2211 Y257.2343
G01 X272.3108 Y258.5614
G01 X273.1976 Y259.6412
G01 X274.0865 Y260.7193
G01 X274.9774 Y261.7957
G01 X275.8703 Y262.8704
G01 X277.5572 Y262.7516
G01 X279.2412 Y262.5966
G01 X280.9214 Y262.4053
G01 X282.5971 Y262.1779
G01 X284.2676 Y261.9144
G01 X285.9319 Y261.6151
G01 X287.5895 Y261.2800
G01 X289.2394 Y260.9093
G01 X290.8810 Y260.5031
G01 X292.5135 Y260.0617
G01 X294.1360 Y259.5853
G01 X295.7480 Y259.0740
G01 X297.3485 Y258.5282
G01 X298.9370 Y257.9480
G01 X300.5126 Y257.3337
G01 X302.0746 Y256.6857
G01 X301.5369 Y256.0681
G01 X300.9754 Y255.4719
G01 X300.3911 Y254.8982
G01 X299.7847 Y254.3477
G01 X299.1573 Y253.8214
G01 X298.5098 Y253.3200
G01 X297.8432 Y252.8444
G01 X297.1585 Y252.3951
G01 X296.3064 Y251.8741
G01 X295.4383 Y251.3802
G01 X294.5551 Y250.9139
G01 X293.6576 Y250.4756
G01 X293.6466 Y250.4831
G01 X293.5296 Y250.9212
G01 X293.3784 Y251.3486
G01 X293.1940 Y251.7628
G01 X292.9776 Y252.1611
G01 X292.7304 Y252.5412
G01 X292.4541 Y252.9007
G01 X292.1503 Y253.2372
G01 X291.8210 Y253.5488
G01 X291.4681 Y253.8334
G01 X291.0939 Y254.0894
G01 X290.7007 Y254.3151
G01 X290.2909 Y254.5092
G01 X289.7903 Y254.7117
G01 X289.2826 Y254.8960
G01 X288.7685 Y255.0616
G01 X288.2487 Y255.2084
G01 X287.7239 Y255.3362
G01 X287.1949 Y255.4447
G01 X286.6622 Y255.5340
G01 X286.1266 Y255.6038
G01 X285.4535 Y255.6793
G01 X284.7793 Y255.7453
G01 X284.1043 Y255.8018
G01 X283.4285 Y255.8488
G01 X282.7522 Y255.8864
G01 X282.0754 Y255.9144
G01 X281.3983 Y255.9330
G01 X280.7210 Y255.9420
G01 X280.1310 Y255.9576
G01 X279.5409 Y255.9663
G01 X278.9507 Y255.9681
G01 X278.3606 Y255.9632
G01 X278.2723 Y255.9600
G01 X278.1846 Y255.9492
G01 X278.0981 Y255.9308
G01 X278.0136 Y255.9049
G01 X277.9317 Y255.8719
G01 X277.8529 Y255.8318
G01 X277.7779 Y255.7851
G01 X277.7072 Y255.7321
G01 X277.6414 Y255.6731
G01 X277.5809 Y255.6086
G01 X277.5263 Y255.5392
G01 X277.4779 Y255.4652
G01 X277.4361 Y255.3874
G01 X277.4012 Y255.3062
G01 X277.3734 Y255.2223
G01 X277.3531 Y255.1363
G01 X276.8886 Y252.5575
G01 X276.4247 Y249.9785
G01 X275.9616 Y247.3995
G01 X275.4992 Y244.8203
G01 X275.0376 Y242.2410
G01 X274.5766 Y239.6615
G01 X274.1163 Y237.0820
G01 X273.6568 Y234.5023
G01 X273.5453 Y233.8771
G01 X273.4337 Y233.2519
G01 X273.3222 Y232.6268
G01 X273.2107 Y232.0016
G01 X273.0992 Y231.3764
G01 X272.9877 Y230.7512
G01 X272.8763 Y230.1261
G01 X272.7648 Y229.5009
G01 X272.6533 Y228.8757
G01 X272.5419 Y228.2505
G01 X272.4304 Y227.6254
G01 X272.3190 Y227.0002
G01 X272.2076 Y226.3750
G01 X272.0962 Y225.7498
G01 X271.9847 Y225.1246
G01 X271.8733 Y224.4994
G01 X271.7619 Y223.8743
G01 X271.6505 Y223.2491
G01 X271.5392 Y222.6239
G01 X271.4278 Y221.9987
G01 X271.3164 Y221.3735
G01 X271.2050 Y220.7483
G01 X271.0937 Y220.1231
G01 X270.9823 Y219.4979
G01 X270.8710 Y218.8727
G01 X270.7597 Y218.2475
G01 X270.6483 Y217.6223
G01 X270.5370 Y216.9971
G01 X270.4257 Y216.3719
G01 X270.3144 Y215.7467
G01 X270.2031 Y215.1215
G01 X270.0919 Y214.4963
G01 X269.9806 Y213.8711
G01 X269.8693 Y213.2458
G01 X269.7581 Y212.6206
G01 X269.6468 Y211.9954
G01 X269.5356 Y211.3702
G01 X269.4243 Y210.7450
G01 X269.3131 Y210.1197
G01 X269.2019 Y209.4945
G01 X269.0907 Y208.8693
G01 X268.9795 Y208.2441
G01 X268.8684 Y207.6188
G01 X268.7572 Y206.9936
G01 X268.6461 Y206.3683
G01 X268.5349 Y205.7431
G01 X268.4238 Y205.1179
G01 X268.3127 Y204.4926
G01 X268.2016 Y203.8673
G01 X268.0905 Y203.2421
G01 X267.9795 Y202.6168
G01 X267.8684 Y201.9915
G01 X267.7574 Y201.3663
G01 X267.6464 Y200.7410
G01 X267.5355 Y200.1157
G01 X267.4245 Y199.4904
G01 X267.3686 Y199.1753
G01 X267.3127 Y198.8601
G01 X267.2568 Y198.5450
G01 X267.2009 Y198.2299
G01 X267.1268 Y197.8114
G01 X256.8524 Y255.1638
G01 X256.8339 Y255.2460
G01 X256.8085 Y255.3265
G01 X256.7764 Y255.4045
G01 X256.7380 Y255.4796
G01 X256.6934 Y255.5513
G01 X256.6430 Y255.6189
G01 X256.5871 Y255.6821
G01 X256.5262 Y255.7404
G01 X256.4605 Y255.7934
G01 X256.3907 Y255.8408
G01 X256.3172 Y255.8821
G01 X256.2405 Y255.9172
G01 X256.1611 Y255.9458
G01 X256.0796 Y255.9676
G01 X255.9965 Y255.9825
G01 X255.9125 Y255.9904
G01 X254.9504 Y255.9945
G01 X253.9883 Y255.9841
G01 X253.0265 Y255.9592
G01 X252.0652 Y255.9199
G01 X251.1045 Y255.8661
G01 X250.1448 Y255.7979
G01 X249.1862 Y255.7152
G01 X248.2290 Y255.6182
G01 X247.6824 Y255.5508
G01 X247.1388 Y255.4632
G01 X246.5987 Y255.3557
G01 X246.0630 Y255.2282
G01 X245.5324 Y255.0810
G01 X245.0076 Y254.9143
G01 X244.4893 Y254.7282
G01 X243.9782 Y254.5232
G01 X243.5661 Y254.3278
G01 X243.1706 Y254.1007
G01 X242.7942 Y253.8432
G01 X242.4391 Y253.5570
G01 X242.1076 Y253.2438
G01 X241.8017 Y252.9056
G01 X241.5232 Y252.5444
G01 X241.2740 Y252.1624
G01 X241.0555 Y251.7621
G01 X240.8691 Y251.3458
G01 X240.7160 Y250.9163
G01 X240.5970 Y250.4760
G01 X239.9415 Y250.7819
G01 X239.2949 Y251.1063
G01 X238.6578 Y251.4489
G01 X238.0306 Y251.8094
G01 X237.4138 Y252.1874
G01 X236.8080 Y252.5828
G01 X236.2136 Y252.9952
G01 X235.6312 Y253.4242
G01 X235.0611 Y253.8695
G01 X234.5039 Y254.3308
G01 X233.9599 Y254.8077
G01 X233.4296 Y255.2998
G01 X233.1039 Y255.6311
G01 X232.7877 Y255.9715
G01 X232.4812 Y256.3206
G01 X232.1846 Y256.6783
G01 X233.3988 Y257.1928
G01 X234.6219 Y257.6856
G01 X235.8536 Y258.1568
G01 X237.0934 Y258.6060
G01 X238.3410 Y259.0332
G01 X239.5959 Y259.4383
G01 X240.8579 Y259.8210
G01 X242.1264 Y260.1813
G01 X243.4011 Y260.5190
G01 X244.6816 Y260.8341
G01 X245.9675 Y261.1265
G01 X247.2583 Y261.3960
G01 X248.6371 Y261.6693
G01 X250.0205 Y261.9179
G01 X251.4081 Y262.1417
G01 X252.7995 Y262.3406
G01 X254.1943 Y262.5145
G01 X255.5919 Y262.6635
G01 X256.9920 Y262.7874
G01 X258.3941 Y262.8862
G01 X259.3797 Y261.6852
G01 X259.2198 Y261.5648
M107
G00 Z2.0000


;No. 11: Hole 3
G00 X195.8050 Y255.5648 Z2.0000
G00 Z0.5000
G01 Z0.0000 F400
G01 Z-1.2000
M106 S240
G01 X182.5731 F1000
G01 X186.4681
G01 Y254.0648
G01 X194.1304
G01 X192.0525 Y252.5648
G01 X187.9573
G01 X188.6848 Y251.0648
G01 X189.3936
M107
G00 Z2.0000
G00 X195.6527 Y255.5648
G00 Z0.5000
G01 Z-1.2000 F400
M106 S240
G01 Y257.0648 F1000
G01 X166.3402
G01 X167.5723 Y258.5648
G01 X191.6755
G01 X186.7671
G01 Y260.0648
G01 X168.8061
G01 X170.0445 Y261.5648
G01 X180.0945
M107
G00 Z2.0000
G00 X172.3044 Y257.0648
G00 Z0.5000
G01 Z-1.2000 F400
M106 S240
G01 Y255.5648 F1000
G01 X165.1077
G01 X163.8752 Y254.0648
G01 X171.9531
G01 X171.6829 Y252.5648
G01 X152.5212
G01 X152.2525 Y254.0648
G01 X160.4184
G01 X159.1585 Y255.5648
G01 X151.9196
G01 Y257.0648
G01 X157.9151
G01 X128.5883
G01 X128.4478 Y255.5648
G01 X141.6617
G01 X137.7765
G01 Y254.0648
G01 X130.1158
G01 X132.2011 Y252.5648
G01 X136.2966
G01 X135.5531 Y251.0648
G01 X134.8282
M107
G00 Z2.0000
G00 X132.5517 Y257.0648
G00 Z0.5000
G01 Z-1.2000 F400
M106 S240
G01 Y258.5648 F1000
G01 X156.6817
G01 X155.4508 Y260.0648
G01 X137.4906
G01 X144.1849
G01 Y261.5648
G01 X154.2198
M107
G00 Z2.0000
G00 X152.7899 Y252.5648
G00 Z0.5000
G01 Z-1.2000 F400
M106 S240
G01 Y251.0648 F1000
G01 X171.4136
G01 X171.1448 Y249.5648
G01 X153.0586
G01 X153.3273 Y248.0648
G01 X170.8762
G01 X170.6079 Y246.5648
G01 X153.5960
G01 X153.8647 Y245.0648
G01 X170.3397
G01 X170.0716 Y243.5648
G01 X154.1334
G01 X154.4021 Y242.0648
G01 X169.8036
G01 X169.5357 Y240.5648
G01 X154.6708
G01 X154.9395 Y239.0648
G01 X169.2679
G01 X169.0001 Y237.5648
G01 X155.2082
G01 X155.4768 Y236.0648
G01 X168.7324
G01 X168.4648 Y234.5648
G01 X155.7455
G01 X156.0142 Y233.0648
G01 X168.1972
G01 X167.9297 Y231.5648
G01 X156.2829
G01 X156.5516 Y230.0648
G01 X167.6622
G01 X167.3948 Y228.5648
G01 X156.8203
G01 X157.0890 Y227.0648
G01 X167.1274
G01 X166.8600 Y225.5648
G01 X157.3577
G01 X157.6264 Y224.0648
G01 X166.5927
G01 X166.3255 Y222.5648
G01 X157.8951
G01 X158.1638 Y221.0648
G01 X166.0583
G01 X165.7911 Y219.5648
G01 X158.4325
G01 X158.7012 Y218.0648
G01 X165.5240
G01 X165.2569 Y216.5648
G01 X158.9699
G01 X159.2386 Y215.0648
G01 X164.9899
G01 X164.7229 Y213.5648
G01 X159.5073
G01 X159.7760 Y212.0648
G01 X164.4560
G01 X164.1892 Y210.5648
G01 X160.0447
G01 X160.3134 Y209.0648
G01 X163.9224
G01 X163.6556 Y207.5648
G01 X160.5821
G01 X160.8508 Y206.0648
G01 X163.3890
G01 X163.1224 Y204.5648
G01 X161.1195
G01 X161.3882 Y203.0648
G01 X162.8559
G01 X162.5895 Y201.5648
G01 X161.6569
G01 X161.4598 Y201.5345
G01 X151.8524 Y255.1638
G01 X151.8339 Y255.2460
G01 X151.8085 Y255.3265
G01 X151.7764 Y255.4045
G01 X151.7380 Y255.4796
G01 X151.6934 Y255.5513
G01 X151.6430 Y255.6189
G01 X151.5871 Y255.6821
G01 X151.5262 Y255.7404
G01 X151.4605 Y255.7934
G01 X151.3907 Y255.8408
G01 X151.3172 Y255.8821
G01 X151.2405 Y255.9172
G01 X151.1611 Y255.9458
G01 X151.0796 Y255.9676
G01 X150.9965 Y255.9825
G01 X150.9125 Y255.9904
G01 X149.9504 Y255.9945
G01 X148.9883 Y255.9841
G01 X148.0265 Y255.9592
G01 X147.0652 Y255.9199
G01 X146.1045 Y255.8661
G01 X145.1448 Y255.7979
G01 X144.1862 Y255.7152
G01 X143.2290 Y255.6182
G01 X142.6824 Y255.5508
G01 X142.1388 Y255.4632
G01 X141.5987 Y255.3557
G01 X141.0630 Y255.2282
G01 X140.5324 Y255.0810
G01 X140.0076 Y254.9143
G01 X139.4893 Y254.7282
G01 X138.9782 Y254.5232
G01 X138.5661 Y254.3278
G01 X138.1706 Y254.1007
G01 X137.7942 Y253.8432
G01 X137.4391 Y253.5570
G01 X137.1076 Y253.2438
G01 X136.8017 Y252.9056
G01 X136.5232 Y252.5444
G01 X136.2740 Y252.1624
G01 X136.0555 Y251.7621
G01 X135.8691 Y251.3458
G01 X135.7160 Y250.9163
G01 X135.5970 Y250.4760
G01 X134.9415 Y250.7819
G01 X134.2949 Y251.1063
G01 X133.6578 Y251.4489
G01 X133.0306 Y251.8094
G01 X132.4138 Y252.1874
G01 X131.8080 Y252.5828
G01 X131.2136 Y252.9952
G01 X130.6312 Y253.4242
G01 X130.0611 Y253.8695
G01 X129.5039 Y254.3308
G01 X128.9599 Y254.8077
G01 X128.4296 Y255.2998
G01 X128.1039 Y255.6311
G01 X127.7877 Y255.9715
G01 X127.4812 Y256.3206
G01 X127.1846 Y256.6783
G01 X128.3988 Y257.1928
G01 X129.6219 Y257.6856
G01 X130.8536 Y258.1568
G01 X132.0934 Y258.6060
G01 X133.3410 Y259.0332
G01 X134.5959 Y259.4383
G01 X135.8579 Y259.8210
G01 X137.1264 Y260.1813
G01 X138.4011 Y260.5190
G01 X139.6816 Y260.8341
G01 X140.9675 Y261.1265
G01 X142.2583 Y261.3960
G01 X143.6371 Y261.6693
G01 X145.0205 Y261.9179
G01 X146.4081 Y262.1417
G01 X147.7995 Y262.3406
G01 X149.1943 Y262.5145
G01 X150.5919 Y262.6635
G01 X151.9920 Y262.7874
G01 X153.3941 Y262.8862
G01 X157.2094 Y258.2372
G01 X158.2527 Y256.9626
G01 X159.3075 Y255.6974
G01 X160.3737 Y254.4418
G01 X161.4511 Y253.1959
G01 X161.5124 Y253.1375
G01 X161.5784 Y253.0845
G01 X161.6487 Y253.0372
G01 X161.7226 Y252.9960
G01 X161.7998 Y252.9612
G01 X161.8796 Y252.9330
G01 X161.9615 Y252.9116
G01 X162.0449 Y252.8971
G01 X162.1292 Y252.8897
G01 X162.2139 Y252.8895
G01 X162.2983 Y252.8963
G01 X162.3818 Y252.9103
G01 X162.4638 Y252.9312
G01 X162.5438 Y252.9589
G01 X162.6211 Y252.9932
G01 X162.6954 Y253.0340
G01 X162.7659 Y253.0808
G01 X162.8322 Y253.1334
G01 X162.8939 Y253.1914
G01 X162.9505 Y253.2544
G01 X164.0409 Y254.5808
G01 X165.1311 Y255.9075
G01 X166.2211 Y257.2343
G01 X167.3108 Y258.5614
G01 X168.1976 Y259.6412
G01 X169.0865 Y260.7193
G01 X169.9774 Y261.7957
G01 X170.8703 Y262.8704
G01 X172.5572 Y262.7516
G01 X174.2412 Y262.5966
G01 X175.9214 Y262.4053
G01 X177.5971 Y262.1779
G01 X179.2676 Y261.9144
G01 X180.9319 Y261.6151
G01 X182.5895 Y261.2800
G01 X184.2394 Y260.9093
G01 X185.8810 Y260.5031
G01 X187.5135 Y260.0617
G01 X189.1360 Y259.5853
G01 X190.7480 Y259.0740
G01 X192.3485 Y258.5282
G01 X193.9370 Y257.9480
G01 X195.5126 Y257.3337
G01 X197.0746 Y256.6857
G01 X196.5369 Y256.0681
G01 X195.9754 Y255.4719
G01 X195.3911 Y254.8982
G01 X194.7847 Y254.3477
G01 X194.1573 Y253.8214
G01 X193.5098 Y253.3200
G01 X192.8432 Y252.8444
G01 X192.1585 Y252.3951
G01 X191.3064 Y251.8741
G01 X190.4383 Y251.3802
G01 X189.5551 Y250.9139
G01 X188.6576 Y250.4756
G01 X188.6466 Y250.4831
G01 X188.5296 Y250.9212
G01 X188.3784 Y251.3486
G01 X188.1940 Y251.7628
G01 X187.9776 Y252.1611
G01 X187.7304 Y252.5412
G01 X187.4541 Y252.9007
G01 X187.1503 Y253.2372
G01 X186.8210 Y253.5488
G01 X186.4681 Y253.8334
G01 X186.0939 Y254.0894
G01 X185.7007 Y254.3151
G01 X185.2909 Y254.5092
G01 X184.7903 Y254.7117
G01 X184.2826 Y254.8960
G01 X183.7685 Y255.0616
G01 X183.2487 Y255.2084
G01 X182.7239 Y255.3362
G01 X182.1949 Y255.4447
G01 X181.6622 Y255.5340
G01 X181.1266 Y255.6038
G01 X180.4535 Y255.6793
G01 X179.7793 Y255.7453
G01 X179.1043 Y255.8018
G01 X178.4285 Y255.8488
G01 X177.7522 Y255.8864
G01 X177.0754 Y255.9144
G01 X176.3983 Y255.9330
G01 X175.7210 Y255.9420
G01 X175.1310 Y255.9576
G01 X174.5409 Y255.9663
G01 X173.9507 Y255.9681
G01 X173.3606 Y255.9632
G01 X173.2723 Y255.9600
G01 X173.1846 Y255.9492
G01 X173.0981 Y255.9308
G01 X173.0136 Y255.9049
G01 X172.9317 Y255.8719
G01 X172.8529 Y255.8318
G01 X172.7779 Y255.7851
G01 X172.7072 Y255.7321
G01 X172.6414 Y255.6731
G01 X172.5809 Y255.6086
G01 X172.5263 Y255.5392
G01 X172.4779 Y255.4652
G01 X172.4361 Y255.3874
G01 X172.4012 Y255.3062
G01 X172.3734 Y255.2223
G01 X172.3531 Y255.1363
G01 X171.8886 Y252.5575
G01 X171.4247 Y249.9785
G01 X170.9616 Y247.3995
G01 X170.4992 Y244.8203
G01 X170.0376 Y242.2410
G01 X169.5766 Y239.6615
G01 X169.1163 Y237.0820
G01 X168.6568 Y234.5023
G01 X168.5453 Y233.8771
G01 X168.4337 Y233.2519
G01 X168.3222 Y232.6268
G01 X168.2107 Y232.0016
G01 X168.0992 Y231.3764
G01 X167.9877 Y230.7512
G01 X167.8763 Y230.1261
G01 X167.7648 Y229.5009
G01 X167.6533 Y228.8757
G01 X167.5419 Y228.2505
G01 X167.4304 Y227.6254
G01 X167.3190 Y227.0002
G01 X167.2076 Y226.3750
G01 X167.0962 Y225.7498
G01 X166.9847 Y225.1246
G01 X166.8733 Y224.4994
G01 X166.7619 Y223.8743
G01 X166.6505 Y223.2491
G01 X166.5392 Y222.6239
G01 X166.4278 Y221.9987
G01 X166.3164 Y221.3735
G01 X166.2050 Y220.7483
G01 X166.0937 Y220.1231
G01 X165.9823 Y219.4979
G01 X165.8710 Y218.8727
G01 X165.7597 Y218.2475
G01 X165.6483 Y217.6223
G01 X165.5370 Y216.9971
G01 X165.4257 Y216.3719
G01 X165.3144 Y215.7467
G01 X165.2031 Y215.1215
G01 X165.0919 Y214.4963
G01 X164.9806 Y213.8711
G01 X164.8693 Y213.2458
G01 X164.7581 Y212.6206
G01 X164.6468 Y211.9954
G01 X164.5356 Y211.3702
G01 X164.4243 Y210.7450
G01 X164.3131 Y210.1197
G01 X164.2019 Y209.4945
G01 X164.0907 Y208.8693
G01 X163.9795 Y208.2441
G01 X163.8684 Y207.6188
G01 X163.7572 Y206.9936
G01 X163.6461 Y206.3683
G01 X163.5349 Y205.7431
G01 X163.4238 Y205.1179
G01 X163.3127 Y204.4926
G01 X163.2016 Y203.8673
G01 X163.0905 Y203.2421
G01 X162.9795 Y202.6168
G01 X162.8684 Y201.9915
G01 X162.7574 Y201.3663
G01 X162.6464 Y200.7410
G01 X162.5355 Y200.1157
G01 X162.4245 Y199.4904
G01 X162.3686 Y199.1753
