;Project Tesla100ProzentElectricGothham
;Created by Estlcam version 11 build 11,227
;Machining time about 00:19:19 hours

G90
M03 S18000
G00 X0.0000 Y0.0000 Z0.0000
G00 Z2.0000


;No. 1: Helical drill 1
G00 X30.2457 Y264.6726
G00 Z0.5000
M106 S240
G01 X30.2419 Y264.5854 Z0.4774 F400 S18000
G01 X30.2305 Y264.4989 Z0.4549
G01 X30.2117 Y264.4138 Z0.4323
G01 X30.1854 Y264.3306 Z0.4097
G01 X30.1520 Y264.2500 Z0.3872
G01 X30.1118 Y264.1726 Z0.3646
G01 X30.0649 Y264.0990 Z0.3420
G01 X30.0118 Y264.0298 Z0.3194
G01 X29.9528 Y263.9655 Z0.2969
G01 X29.8885 Y263.9065 Z0.2743
G01 X29.8193 Y263.8534 Z0.2517
G01 X29.7457 Y263.8066 Z0.2292
G01 X29.6684 Y263.7663 Z0.2066
G01 X29.5878 Y263.7329 Z0.1840
G01 X29.5046 Y263.7067 Z0.1615
G01 X29.4194 Y263.6878 Z0.1389
G01 X29.3329 Y263.6764 Z0.1163
G01 X29.2457 Y263.6726 Z0.0938
G01 X29.1586 Y263.6764 Z0.0712
G01 X29.0721 Y263.6878 Z0.0486
G01 X28.9869 Y263.7067 Z0.0260
G01 X28.9037 Y263.7329 Z0.0035
G01 X28.8231 Y263.7663 Z-0.0191
G01 X28.7457 Y263.8066 Z-0.0417
G01 X28.7051 Y263.8313 Z-0.0540
G01 X28.6657 Y263.8580 Z-0.0663
G01 X28.6276 Y263.8865 Z-0.0786
G01 X28.5909 Y263.9168 Z-0.0909
G01 X28.5557 Y263.9488 Z-0.1032
G01 X28.5220 Y263.9825 Z-0.1155
G01 X28.4900 Y264.0177 Z-0.1278
G01 X28.4597 Y264.0544 Z-0.1402
G01 X28.4312 Y264.0925 Z-0.1525
G01 X28.4045 Y264.1319 Z-0.1648
G01 X28.3797 Y264.1726 Z-0.1771
G01 X28.3569 Y264.2144 Z-0.1894
G01 X28.3361 Y264.2572 Z-0.2017
G01 X28.3174 Y264.3009 Z-0.2140
G01 X28.3007 Y264.3455 Z-0.2263
G01 X28.2862 Y264.3908 Z-0.2386
G01 X28.2739 Y264.4368 Z-0.2509
G01 X28.2638 Y264.4833 Z-0.2633
G01 X28.2559 Y264.5303 Z-0.2756
G01 X28.2503 Y264.5775 Z-0.2879
G01 X28.2469 Y264.6250 Z-0.3002
G01 X28.2457 Y264.6726 Z-0.3125
G01 X28.2469 Y264.7202 Z-0.3248
G01 X28.2503 Y264.7676 Z-0.3371
G01 X28.2559 Y264.8149 Z-0.3494
G01 X28.2638 Y264.8618 Z-0.3617
G01 X28.2739 Y264.9083 Z-0.3741
G01 X28.2862 Y264.9543 Z-0.3864
G01 X28.3007 Y264.9996 Z-0.3987
G01 X28.3174 Y265.0442 Z-0.4110
G01 X28.3361 Y265.0880 Z-0.4233
G01 X28.3569 Y265.1308 Z-0.4356
G01 X28.3797 Y265.1726 Z-0.4479
G01 X28.4045 Y265.2132 Z-0.4602
G01 X28.4312 Y265.2526 Z-0.4725
G01 X28.4597 Y265.2907 Z-0.4848
G01 X28.4900 Y265.3274 Z-0.4972
G01 X28.5220 Y265.3627 Z-0.5095
G01 X28.5557 Y265.3963 Z-0.5218
G01 X28.5909 Y265.4283 Z-0.5341
G01 X28.6276 Y265.4586 Z-0.5464
G01 X28.6657 Y265.4872 Z-0.5587
G01 X28.7051 Y265.5138 Z-0.5710
G01 X28.7457 Y265.5386 Z-0.5833
G01 X28.7875 Y265.5614 Z-0.5956
G01 X28.8303 Y265.5822 Z-0.6080
G01 X28.8741 Y265.6009 Z-0.6203
G01 X28.9187 Y265.6176 Z-0.6326
G01 X28.9640 Y265.6321 Z-0.6449
G01 X29.0100 Y265.6444 Z-0.6572
G01 X29.0565 Y265.6545 Z-0.6695
G01 X29.1034 Y265.6624 Z-0.6818
G01 X29.1507 Y265.6681 Z-0.6941
G01 X29.1982 Y265.6714 Z-0.7064
G01 X29.2457 Y265.6726 Z-0.7188
G01 X29.2933 Y265.6714 Z-0.7311
G01 X29.3408 Y265.6681 Z-0.7434
G01 X29.3880 Y265.6624 Z-0.7557
G01 X29.4350 Y265.6545 Z-0.7680
G01 X29.4815 Y265.6444 Z-0.7803
G01 X29.5275 Y265.6321 Z-0.7926
G01 X29.5728 Y265.6176 Z-0.8049
G01 X29.6174 Y265.6009 Z-0.8172
G01 X29.6611 Y265.5822 Z-0.8295
G01 X29.7040 Y265.5614 Z-0.8419
G01 X29.7457 Y265.5386 Z-0.8542
G01 X29.7864 Y265.5138 Z-0.8665
G01 X29.8258 Y265.4872 Z-0.8788
G01 X29.8639 Y265.4586 Z-0.8911
G01 X29.9006 Y265.4283 Z-0.9034
G01 X29.9358 Y265.3963 Z-0.9157
G01 X29.9695 Y265.3627 Z-0.9280
G01 X30.0015 Y265.3274 Z-0.9403
G01 X30.0318 Y265.2907 Z-0.9527
G01 X30.0603 Y265.2526 Z-0.9650
G01 X30.0870 Y265.2132 Z-0.9773
G01 X30.1118 Y265.1726 Z-0.9896
G01 X30.1346 Y265.1308 Z-1.0019
G01 X30.1554 Y265.0880 Z-1.0142
G01 X30.1741 Y265.0442 Z-1.0265
G01 X30.1907 Y264.9996 Z-1.0388
G01 X30.2052 Y264.9543 Z-1.0511
G01 X30.2175 Y264.9083 Z-1.0634
G01 X30.2277 Y264.8618 Z-1.0758
G01 X30.2356 Y264.8149 Z-1.0881
G01 X30.2412 Y264.7676 Z-1.1004
G01 X30.2446 Y264.7202 Z-1.1127
G01 X30.2457 Y264.6726 Z-1.1250
G01 X30.2419 Y264.5854
G01 X30.2305 Y264.4989
G01 X30.2117 Y264.4138
G01 X30.1854 Y264.3306
G01 X30.1520 Y264.2500
G01 X30.1118 Y264.1726
G01 X30.0649 Y264.0990
G01 X30.0118 Y264.0298
G01 X29.9528 Y263.9655
G01 X29.8885 Y263.9065
G01 X29.8193 Y263.8534
G01 X29.7457 Y263.8066
G01 X29.6684 Y263.7663
G01 X29.5878 Y263.7329
G01 X29.5046 Y263.7067
G01 X29.4194 Y263.6878
G01 X29.3329 Y263.6764
G01 X29.2457 Y263.6726
G01 X29.1586 Y263.6764
G01 X29.0721 Y263.6878
G01 X28.9869 Y263.7067
G01 X28.9037 Y263.7329
G01 X28.8231 Y263.7663
G01 X28.7457 Y263.8066
G01 X28.7051 Y263.8313
G01 X28.6657 Y263.8580
G01 X28.6276 Y263.8865
G01 X28.5909 Y263.9168
G01 X28.5557 Y263.9488
G01 X28.5220 Y263.9825
G01 X28.4900 Y264.0177
G01 X28.4597 Y264.0544
G01 X28.4312 Y264.0925
G01 X28.4045 Y264.1319
G01 X28.3797 Y264.1726
G01 X28.3569 Y264.2144
G01 X28.3361 Y264.2572
G01 X28.3174 Y264.3009
G01 X28.3007 Y264.3455
G01 X28.2862 Y264.3908
G01 X28.2739 Y264.4368
G01 X28.2638 Y264.4833
G01 X28.2559 Y264.5303
G01 X28.2503 Y264.5775
G01 X28.2469 Y264.6250
G01 X28.2457 Y264.6726
G01 X28.2469 Y264.7202
G01 X28.2503 Y264.7676
G01 X28.2559 Y264.8149
G01 X28.2638 Y264.8618
G01 X28.2739 Y264.9083
G01 X28.2862 Y264.9543
G01 X28.3007 Y264.9996
G01 X28.3174 Y265.0442
G01 X28.3361 Y265.0880
G01 X28.3569 Y265.1308
G01 X28.3797 Y265.1726
G01 X28.4045 Y265.2132
G01 X28.4312 Y265.2526
G01 X28.4597 Y265.2907
G01 X28.4900 Y265.3274
G01 X28.5220 Y265.3627
G01 X28.5557 Y265.3963
G01 X28.5909 Y265.4283
G01 X28.6276 Y265.4586
G01 X28.6657 Y265.4872
G01 X28.7051 Y265.5138
G01 X28.7457 Y265.5386
G01 X28.7875 Y265.5614
G01 X28.8303 Y265.5822
G01 X28.8741 Y265.6009
G01 X28.9187 Y265.6176
G01 X28.9640 Y265.6321
G01 X29.0100 Y265.6444
G01 X29.0565 Y265.6545
G01 X29.1034 Y265.6624
G01 X29.1507 Y265.6681
G01 X29.1982 Y265.6714
G01 X29.2457 Y265.6726
G01 X29.2933 Y265.6714
G01 X29.3408 Y265.6681
G01 X29.3880 Y265.6624
G01 X29.4350 Y265.6545
G01 X29.4815 Y265.6444
G01 X29.5275 Y265.6321
G01 X29.5728 Y265.6176
G01 X29.6174 Y265.6009
G01 X29.6611 Y265.5822
G01 X29.7040 Y265.5614
G01 X29.7457 Y265.5386
G01 X29.7864 Y265.5138
G01 X29.8258 Y265.4872
G01 X29.8639 Y265.4586
G01 X29.9006 Y265.4283
G01 X29.9358 Y265.3963
G01 X29.9695 Y265.3627
G01 X30.0015 Y265.3274
G01 X30.0318 Y265.2907
G01 X30.0603 Y265.2526
G01 X30.0870 Y265.2132
G01 X30.1118 Y265.1726
G01 X30.1346 Y265.1308
G01 X30.1554 Y265.0880
G01 X30.1741 Y265.0442
G01 X30.1907 Y264.9996
G01 X30.2052 Y264.9543
G01 X30.2175 Y264.9083
G01 X30.2277 Y264.8618
G01 X30.2356 Y264.8149
G01 X30.2412 Y264.7676
G01 X30.2446 Y264.7202
G01 X30.2457 Y264.6726
G01 X30.2565 Y264.6210 F1000
G01 X30.2646 Y264.5689
G01 X30.2699 Y264.5165
G01 X30.2726 Y264.4638
G01 Y264.4111
G01 X30.2698 Y264.3585
G01 X30.2644 Y264.3061
G01 X30.2562 Y264.2540
G01 X30.2445 Y264.1980
G01 X30.2299 Y264.1427
G01 X30.2126 Y264.0882
G01 X30.1924 Y264.0347
G01 X30.1696 Y263.9823
G01 X30.1441 Y263.9310
G01 X30.1160 Y263.8812
G01 X30.0854 Y263.8329
G01 X30.0498 Y263.7825
G01 X30.0117 Y263.7340
G01 X29.9711 Y263.6874
G01 X29.9283 Y263.6430
G01 X29.8832 Y263.6009
G01 X29.8361 Y263.5611
G01 X29.7870 Y263.5237
G01 X29.7360 Y263.4889
G01 X29.6796 Y263.4543
G01 X29.6214 Y263.4226
G01 X29.5617 Y263.3939
G01 X29.5006 Y263.3683
G01 X29.4383 Y263.3458
G01 X29.3750 Y263.3265
G01 X29.3107 Y263.3104
G01 X29.2457 Y263.2976
G01 X29.1757 Y263.2874
G01 X29.1052 Y263.2808
G01 X29.0346 Y263.2777
G01 X28.9638 Y263.2782
G01 X28.8931 Y263.2822
G01 X28.8228 Y263.2898
G01 X28.7529 Y263.3010
G01 X28.6837 Y263.3156
G01 X28.6155 Y263.3416
G01 X28.5487 Y263.3710
G01 X28.4835 Y263.4036
G01 X28.4199 Y263.4393
G01 X28.3581 Y263.4782
G01 X28.2984 Y263.5200
G01 X28.2407 Y263.5647
G01 X28.1854 Y263.6122
G01 X28.1346 Y263.6655
G01 X28.0866 Y263.7213
G01 X28.0413 Y263.7793
G01 X27.9989 Y263.8395
G01 X27.9595 Y263.9017
G01 X27.9232 Y263.9657
G01 X27.8901 Y264.0314
G01 X27.8603 Y264.0987
G01 X27.8338 Y264.1674
G01 X27.8107 Y264.2373
G01 X27.7911 Y264.3082
G01 X27.7750 Y264.3800
G01 X27.7624 Y264.4525
G01 X27.7534 Y264.5256
G01 X27.7480 Y264.5990
G01 X27.7462 Y264.6726
G01 X27.7480 Y264.7462
G01 X27.7534 Y264.8196
G01 X27.7624 Y264.8926
G01 X27.7750 Y264.9651
G01 X27.7911 Y265.0369
G01 X27.8107 Y265.1079
G01 X27.8338 Y265.1778
G01 X27.8603 Y265.2464
G01 X27.8901 Y265.3137
G01 X27.9232 Y265.3795
G01 X27.9595 Y265.4435
G01 X27.9989 Y265.5057
G01 X28.0413 Y265.5659
G01 X28.0866 Y265.6239
G01 X28.1346 Y265.6796
G01 X28.1854 Y265.7329
G01 X28.2387 Y265.7837
G01 X28.2944 Y265.8318
G01 X28.3524 Y265.8770
G01 X28.4126 Y265.9194
G01 X28.4748 Y265.9588
G01 X28.5388 Y265.9951
G01 X28.6046 Y266.0282
G01 X28.6719 Y266.0580
G01 X28.7405 Y266.0845
G01 X28.8104 Y266.1076
G01 X28.8814 Y266.1272
G01 X28.9532 Y266.1433
G01 X29.0257 Y266.1559
G01 X29.0987 Y266.1649
G01 X29.1722 Y266.1703
G01 X29.2457 Y266.1721
G01 X29.3193 Y266.1703
G01 X29.3927 Y266.1649
G01 X29.4658 Y266.1559
G01 X29.5383 Y266.1433
G01 X29.6101 Y266.1272
G01 X29.6810 Y266.1076
G01 X29.7509 Y266.0845
G01 X29.8196 Y266.0580
G01 X29.8869 Y266.0282
G01 X29.9526 Y265.9951
G01 X30.0167 Y265.9588
G01 X30.0788 Y265.9194
G01 X30.1390 Y265.8770
G01 X30.1970 Y265.8318
G01 X30.2528 Y265.7837
G01 X30.3061 Y265.7329
G01 X30.3568 Y265.6796
G01 X30.4049 Y265.6239
G01 X30.4502 Y265.5659
G01 X30.4926 Y265.5057
G01 X30.5319 Y265.4435
G01 X30.5682 Y265.3795
G01 X30.6013 Y265.3137
G01 X30.6311 Y265.2464
G01 X30.6576 Y265.1778
G01 X30.6807 Y265.1079
G01 X30.7004 Y265.0369
G01 X30.7165 Y264.9651
G01 X30.7291 Y264.8926
G01 X30.7381 Y264.8196
G01 X30.7435 Y264.7462
G01 X30.7453 Y264.6726
G01 X30.7411 Y264.5605
G01 X30.7285 Y264.4491
G01 X30.7077 Y264.3389
G01 X30.6787 Y264.2306
G01 X30.6416 Y264.1247
G01 X30.5968 Y264.0219
G01 X30.5444 Y263.9228
G01 X30.4847 Y263.8278
G01 X30.4181 Y263.7376
G01 X30.3450 Y263.6526
G01 X30.2657 Y263.5733
G01 X30.1807 Y263.5002
G01 X30.0905 Y263.4336
G01 X29.9955 Y263.3739
G01 X29.8964 Y263.3215
G01 X29.7936 Y263.2767
G01 X29.6877 Y263.2396
G01 X29.5794 Y263.2106
G01 X29.4692 Y263.1898
G01 X29.3578 Y263.1772
G01 X29.2457 Y263.1730
G01 X29.1337 Y263.1772
G01 X29.0222 Y263.1898
G01 X28.9120 Y263.2106
G01 X28.8037 Y263.2396
G01 X28.6979 Y263.2767
G01 X28.5951 Y263.3215
G01 X28.4960 Y263.3739
G01 X28.4010 Y263.4336
G01 X28.3108 Y263.5002
G01 X28.2258 Y263.5733
G01 X28.1465 Y263.6526
G01 X28.0733 Y263.7376
G01 X28.0067 Y263.8278
G01 X27.9471 Y263.9228
G01 X27.8947 Y264.0219
G01 X27.8498 Y264.1247
G01 X27.8128 Y264.2306
G01 X27.7838 Y264.3389
G01 X27.7629 Y264.4491
G01 X27.7504 Y264.5605
G01 X27.7462 Y264.6726
G01 X27.7504 Y264.7846
G01 X27.7629 Y264.8961
G01 X27.7838 Y265.0063
G01 X27.8128 Y265.1146
G01 X27.8498 Y265.2204
G01 X27.8947 Y265.3232
G01 X27.9471 Y265.4224
G01 X28.0067 Y265.5173
G01 X28.0733 Y265.6075
G01 X28.1465 Y265.6925
G01 X28.2258 Y265.7718
G01 X28.3108 Y265.8450
G01 X28.4010 Y265.9116
G01 X28.4960 Y265.9712
G01 X28.5951 Y266.0236
G01 X28.6979 Y266.0685
G01 X28.8037 Y266.1055
G01 X28.9120 Y266.1345
G01 X29.0222 Y266.1554
G01 X29.1337 Y266.1679
G01 X29.2457 Y266.1721
G01 X29.3578 Y266.1679
G01 X29.4692 Y266.1554
G01 X29.5794 Y266.1345
G01 X29.6877 Y266.1055
G01 X29.7936 Y266.0685
G01 X29.8964 Y266.0236
G01 X29.9955 Y265.9712
G01 X30.0905 Y265.9116
G01 X30.1807 Y265.8450
G01 X30.2657 Y265.7718
G01 X30.3450 Y265.6925
G01 X30.4181 Y265.6075
G01 X30.4847 Y265.5173
G01 X30.5444 Y265.4224
G01 X30.5968 Y265.3232
G01 X30.6416 Y265.2204
G01 X30.6787 Y265.1146
G01 X30.7077 Y265.0063
G01 X30.7285 Y264.8961
G01 X30.7411 Y264.7846
G01 X30.7453 Y264.6726
G01 X30.7414 Y264.5745
G01 X30.7299 Y264.4771
G01 X30.7108 Y264.3808
G01 X30.6841 Y264.2864
G01 X30.6502 Y264.1943
G01 X30.6091 Y264.1052
G01 X30.5611 Y264.0196
G01 X30.5066 Y263.9380
G01 X30.4459 Y263.8609
G01 X30.3792 Y263.7889
G01 X30.3072 Y263.7222
G01 X30.2301 Y263.6615
G01 X30.1485 Y263.6070
G01 X30.0629 Y263.5590
G01 X29.9738 Y263.5179
G01 X29.8817 Y263.4840
G01 X29.7873 Y263.4573
G01 X29.6910 Y263.4382
G01 X29.5936 Y263.4267
G01 X29.4955 Y263.4228
G01 X29.3975 Y263.4267
G01 X29.3000 Y263.4382
G01 X29.2038 Y263.4573
G01 X29.1093 Y263.4840
G01 X29.0172 Y263.5179
G01 X28.9281 Y263.5590
G01 X28.8425 Y263.6070
G01 X28.7609 Y263.6615
G01 X28.6838 Y263.7222
G01 X28.6118 Y263.7889
G01 X28.5452 Y263.8609
G01 X28.4844 Y263.9380
G01 X28.4299 Y264.0196
G01 X28.3820 Y264.1052
G01 X28.3409 Y264.1943
G01 X28.3069 Y264.2864
G01 X28.2803 Y264.3808
G01 X28.2611 Y264.4771
G01 X28.2496 Y264.5745
G01 X28.2457 Y264.6726
G01 X28.2495 Y264.7597
G01 X28.2609 Y264.8462
G01 X28.2798 Y264.9314
G01 X28.3060 Y265.0146
G01 X28.3394 Y265.0952
G01 X28.3797 Y265.1726
G01 X28.4266 Y265.2462
G01 X28.4797 Y265.3154
G01 X28.5386 Y265.3797
G01 X28.6029 Y265.4386
G01 X28.6722 Y265.4917
G01 X28.7457 Y265.5386
G01 X28.8231 Y265.5789
G01 X28.9037 Y265.6123
G01 X28.9869 Y265.6385
G01 X29.0721 Y265.6574
G01 X29.1586 Y265.6688
G01 X29.2457 Y265.6726
G01 X29.3329 Y265.6688
G01 X29.4194 Y265.6574
G01 X29.5046 Y265.6385
G01 X29.5878 Y265.6123
G01 X29.6684 Y265.5789
G01 X29.7457 Y265.5386
G01 X29.8193 Y265.4917
G01 X29.8885 Y265.4386
G01 X29.9528 Y265.3797
G01 X30.0118 Y265.3154
G01 X30.0649 Y265.2462
G01 X30.1118 Y265.1726
G01 X30.1520 Y265.0952
G01 X30.1854 Y265.0146
G01 X30.2117 Y264.9314
G01 X30.2305 Y264.8462
G01 X30.2419 Y264.7597
G01 X30.2457 Y264.6726
M107
M106 S240
G01 X30.2419 Y264.5854 Z-1.1476 F400
G01 X30.2305 Y264.4989 Z-1.1701
G01 X30.2117 Y264.4138 Z-1.1927
G01 X30.1854 Y264.3306 Z-1.2153
G01 X30.1520 Y264.2500 Z-1.2378
G01 X30.1118 Y264.1726 Z-1.2604
G01 X30.0649 Y264.0990 Z-1.2830
G01 X30.0118 Y264.0298 Z-1.3056
G01 X29.9528 Y263.9655 Z-1.3281
G01 X29.8885 Y263.9065 Z-1.3507
G01 X29.8193 Y263.8534 Z-1.3733
G01 X29.7457 Y263.8066 Z-1.3958
G01 X29.6684 Y263.7663 Z-1.4184
G01 X29.5878 Y263.7329 Z-1.4410
G01 X29.5046 Y263.7067 Z-1.4635
G01 X29.4194 Y263.6878 Z-1.4861
G01 X29.3329 Y263.6764 Z-1.5087
G01 X29.2457 Y263.6726 Z-1.5313
G01 X29.1586 Y263.6764 Z-1.5538
G01 X29.0721 Y263.6878 Z-1.5764
G01 X28.9869 Y263.7067 Z-1.5990
G01 X28.9037 Y263.7329 Z-1.6215
G01 X28.8231 Y263.7663 Z-1.6441
G01 X28.7457 Y263.8066 Z-1.6667
G01 X28.7051 Y263.8313 Z-1.6790
G01 X28.6657 Y263.8580 Z-1.6913
G01 X28.6276 Y263.8865 Z-1.7036
G01 X28.5909 Y263.9168 Z-1.7159
G01 X28.5557 Y263.9488 Z-1.7282
G01 X28.5220 Y263.9825 Z-1.7405
G01 X28.4900 Y264.0177 Z-1.7528
G01 X28.4597 Y264.0544 Z-1.7652
G01 X28.4312 Y264.0925 Z-1.7775
G01 X28.4045 Y264.1319 Z-1.7898
G01 X28.3797 Y264.1726 Z-1.8021
G01 X28.3569 Y264.2144 Z-1.8144
G01 X28.3361 Y264.2572 Z-1.8267
G01 X28.3174 Y264.3009 Z-1.8390
G01 X28.3007 Y264.3455 Z-1.8513
G01 X28.2862 Y264.3908 Z-1.8636
G01 X28.2739 Y264.4368 Z-1.8759
G01 X28.2638 Y264.4833 Z-1.8883
G01 X28.2559 Y264.5303 Z-1.9006
G01 X28.2503 Y264.5775 Z-1.9129
G01 X28.2469 Y264.6250 Z-1.9252
G01 X28.2457 Y264.6726 Z-1.9375
G01 X28.2469 Y264.7202 Z-1.9498
G01 X28.2503 Y264.7676 Z-1.9621
G01 X28.2559 Y264.8149 Z-1.9744
G01 X28.2638 Y264.8618 Z-1.9867
G01 X28.2739 Y264.9083 Z-1.9991
G01 X28.2862 Y264.9543 Z-2.0114
G01 X28.3007 Y264.9996 Z-2.0237
G01 X28.3174 Y265.0442 Z-2.0360
G01 X28.3361 Y265.0880 Z-2.0483
G01 X28.3569 Y265.1308 Z-2.0606
G01 X28.3797 Y265.1726 Z-2.0729
G01 X28.4045 Y265.2132 Z-2.0852
G01 X28.4312 Y265.2526 Z-2.0975
G01 X28.4597 Y265.2907 Z-2.1098
G01 X28.4900 Y265.3274 Z-2.1222
G01 X28.5220 Y265.3627 Z-2.1345
G01 X28.5557 Y265.3963 Z-2.1468
G01 X28.5909 Y265.4283 Z-2.1591
G01 X28.6276 Y265.4586 Z-2.1714
G01 X28.6657 Y265.4872 Z-2.1837
G01 X28.7051 Y265.5138 Z-2.1960
G01 X28.7457 Y265.5386 Z-2.2083
G01 X28.7875 Y265.5614 Z-2.2206
G01 X28.8303 Y265.5822 Z-2.2330
G01 X28.8741 Y265.6009 Z-2.2453
G01 X28.9187 Y265.6176 Z-2.2576
G01 X28.9640 Y265.6321 Z-2.2699
G01 X29.0100 Y265.6444 Z-2.2822
G01 X29.0565 Y265.6545 Z-2.2945
G01 X29.1034 Y265.6624 Z-2.3068
G01 X29.1507 Y265.6681 Z-2.3191
G01 X29.1982 Y265.6714 Z-2.3314
G01 X29.2457 Y265.6726 Z-2.3438
G01 X29.2933 Y265.6714 Z-2.3561
G01 X29.3408 Y265.6681 Z-2.3684
G01 X29.3880 Y265.6624 Z-2.3807
G01 X29.4350 Y265.6545 Z-2.3930
G01 X29.4815 Y265.6444 Z-2.4053
G01 X29.5275 Y265.6321 Z-2.4176
G01 X29.5728 Y265.6176 Z-2.4299
G01 X29.6174 Y265.6009 Z-2.4422
G01 X29.6611 Y265.5822 Z-2.4545
G01 X29.7040 Y265.5614 Z-2.4669
G01 X29.7457 Y265.5386 Z-2.4792
G01 X29.7864 Y265.5138 Z-2.4915
G01 X29.8258 Y265.4872 Z-2.5038
G01 X29.8639 Y265.4586 Z-2.5161
G01 X29.9006 Y265.4283 Z-2.5284
G01 X29.9358 Y265.3963 Z-2.5407
G01 X29.9695 Y265.3627 Z-2.5530
G01 X30.0015 Y265.3274 Z-2.5653
G01 X30.0318 Y265.2907 Z-2.5777
G01 X30.0603 Y265.2526 Z-2.5900
G01 X30.0870 Y265.2132 Z-2.6023
G01 X30.1118 Y265.1726 Z-2.6146
G01 X30.1346 Y265.1308 Z-2.6269
G01 X30.1554 Y265.0880 Z-2.6392
G01 X30.1741 Y265.0442 Z-2.6515
G01 X30.1907 Y264.9996 Z-2.6638
G01 X30.2052 Y264.9543 Z-2.6761
G01 X30.2175 Y264.9083 Z-2.6884
G01 X30.2277 Y264.8618 Z-2.7008
G01 X30.2356 Y264.8149 Z-2.7131
G01 X30.2412 Y264.7676 Z-2.7254
G01 X30.2446 Y264.7202 Z-2.7377
G01 X30.2457 Y264.6726 Z-2.7500
G01 X30.2419 Y264.5854
G01 X30.2305 Y264.4989
G01 X30.2117 Y264.4138
G01 X30.1854 Y264.3306
G01 X30.1520 Y264.2500
G01 X30.1118 Y264.1726
G01 X30.0649 Y264.0990
G01 X30.0118 Y264.0298
G01 X29.9528 Y263.9655
G01 X29.8885 Y263.9065
G01 X29.8193 Y263.8534
G01 X29.7457 Y263.8066
G01 X29.6684 Y263.7663
G01 X29.5878 Y263.7329
G01 X29.5046 Y263.7067
G01 X29.4194 Y263.6878
G01 X29.3329 Y263.6764
G01 X29.2457 Y263.6726
G01 X29.1586 Y263.6764
G01 X29.0721 Y263.6878
G01 X28.9869 Y263.7067
G01 X28.9037 Y263.7329
G01 X28.8231 Y263.7663
G01 X28.7457 Y263.8066
G01 X28.7051 Y263.8313
G01 X28.6657 Y263.8580
G01 X28.6276 Y263.8865
G01 X28.5909 Y263.9168
G01 X28.5557 Y263.9488
G01 X28.5220 Y263.9825
G01 X28.4900 Y264.0177
G01 X28.4597 Y264.0544
G01 X28.4312 Y264.0925
G01 X28.4045 Y264.1319
G01 X28.3797 Y264.1726
G01 X28.3569 Y264.2144
G01 X28.3361 Y264.2572
G01 X28.3174 Y264.3009
G01 X28.3007 Y264.3455
G01 X28.2862 Y264.3908
G01 X28.2739 Y264.4368
G01 X28.2638 Y264.4833
G01 X28.2559 Y264.5303
G01 X28.2503 Y264.5775
G01 X28.2469 Y264.6250
G01 X28.2457 Y264.6726
G01 X28.2469 Y264.7202
G01 X28.2503 Y264.7676
G01 X28.2559 Y264.8149
G01 X28.2638 Y264.8618
G01 X28.2739 Y264.9083
G01 X28.2862 Y264.9543
G01 X28.3007 Y264.9996
G01 X28.3174 Y265.0442
G01 X28.3361 Y265.0880
G01 X28.3569 Y265.1308
G01 X28.3797 Y265.1726
G01 X28.4045 Y265.2132
G01 X28.4312 Y265.2526
G01 X28.4597 Y265.2907
G01 X28.4900 Y265.3274
G01 X28.5220 Y265.3627
G01 X28.5557 Y265.3963
G01 X28.5909 Y265.4283
G01 X28.6276 Y265.4586
G01 X28.6657 Y265.4872
G01 X28.7051 Y265.5138
G01 X28.7457 Y265.5386
G01 X28.7875 Y265.5614
G01 X28.8303 Y265.5822
G01 X28.8741 Y265.6009
G01 X28.9187 Y265.6176
G01 X28.9640 Y265.6321
G01 X29.0100 Y265.6444
G01 X29.0565 Y265.6545
G01 X29.1034 Y265.6624
G01 X29.1507 Y265.6681
G01 X29.1982 Y265.6714
G01 X29.2457 Y265.6726
G01 X29.2933 Y265.6714
G01 X29.3408 Y265.6681
G01 X29.3880 Y265.6624
G01 X29.4350 Y265.6545
G01 X29.4815 Y265.6444
G01 X29.5275 Y265.6321
G01 X29.5728 Y265.6176
G01 X29.6174 Y265.6009
G01 X29.6611 Y265.5822
G01 X29.7040 Y265.5614
G01 X29.7457 Y265.5386
G01 X29.7864 Y265.5138
G01 X29.8258 Y265.4872
G01 X29.8639 Y265.4586
G01 X29.9006 Y265.4283
G01 X29.9358 Y265.3963
G01 X29.9695 Y265.3627
G01 X30.0015 Y265.3274
G01 X30.0318 Y265.2907
G01 X30.0603 Y265.2526
G01 X30.0870 Y265.2132
G01 X30.1118 Y265.1726
G01 X30.1346 Y265.1308
G01 X30.1554 Y265.0880
G01 X30.1741 Y265.0442
G01 X30.1907 Y264.9996
G01 X30.2052 Y264.9543
G01 X30.2175 Y264.9083
G01 X30.2277 Y264.8618
G01 X30.2356 Y264.8149
G01 X30.2412 Y264.7676
G01 X30.2446 Y264.7202
G01 X30.2457 Y264.6726
G01 X30.2565 Y264.6210 F1000
G01 X30.2646 Y264.5689
G01 X30.2699 Y264.5165
G01 X30.2726 Y264.4638
G01 Y264.4111
G01 X30.2698 Y264.3585
G01 X30.2644 Y264.3061
G01 X30.2562 Y264.2540
G01 X30.2445 Y264.1980
G01 X30.2299 Y264.1427
G01 X30.2126 Y264.0882
G01 X30.1924 Y264.0347
G01 X30.1696 Y263.9823
G01 X30.1441 Y263.9310
G01 X30.1160 Y263.8812
G01 X30.0854 Y263.8329
G01 X30.0498 Y263.7825
G01 X30.0117 Y263.7340
G01 X29.9711 Y263.6874
G01 X29.9283 Y263.6430
G01 X29.8832 Y263.6009
G01 X29.8361 Y263.5611
G01 X29.7870 Y263.5237
G01 X29.7360 Y263.4889
G01 X29.6796 Y263.4543
G01 X29.6214 Y263.4226
G01 X29.5617 Y263.3939
G01 X29.5006 Y263.3683
G01 X29.4383 Y263.3458
G01 X29.3750 Y263.3265
G01 X29.3107 Y263.3104
G01 X29.2457 Y263.2976
G01 X29.1757 Y263.2874
G01 X29.1052 Y263.2808
G01 X29.0346 Y263.2777
G01 X28.9638 Y263.2782
G01 X28.8931 Y263.2822
G01 X28.8228 Y263.2898
G01 X28.7529 Y263.3010
G01 X28.6837 Y263.3156
G01 X28.6155 Y263.3416
G01 X28.5487 Y263.3710
G01 X28.4835 Y263.4036
G01 X28.4199 Y263.4393
G01 X28.3581 Y263.4782
G01 X28.2984 Y263.5200
G01 X28.2407 Y263.5647
G01 X28.1854 Y263.6122
G01 X28.1346 Y263.6655
G01 X28.0866 Y263.7213
G01 X28.0413 Y263.7793
G01 X27.9989 Y263.8395
G01 X27.9595 Y263.9017
G01 X27.9232 Y263.9657
G01 X27.8901 Y264.0314
G01 X27.8603 Y264.0987
G01 X27.8338 Y264.1674
G01 X27.8107 Y264.2373
G01 X27.7911 Y264.3082
G01 X27.7750 Y264.3800
G01 X27.7624 Y264.4525
G01 X27.7534 Y264.5256
G01 X27.7480 Y264.5990
G01 X27.7462 Y264.6726
G01 X27.7480 Y264.7462
G01 X27.7534 Y264.8196
G01 X27.7624 Y264.8926
G01 X27.7750 Y264.9651
G01 X27.7911 Y265.0369
G01 X27.8107 Y265.1079
G01 X27.8338 Y265.1778
G01 X27.8603 Y265.2464
G01 X27.8901 Y265.3137
G01 X27.9232 Y265.3795
G01 X27.9595 Y265.4435
G01 X27.9989 Y265.5057
G01 X28.0413 Y265.5659
G01 X28.0866 Y265.6239
G01 X28.1346 Y265.6796
G01 X28.1854 Y265.7329
G01 X28.2387 Y265.7837
G01 X28.2944 Y265.8318
G01 X28.3524 Y265.8770
G01 X28.4126 Y265.9194
G01 X28.4748 Y265.9588
G01 X28.5388 Y265.9951
G01 X28.6046 Y266.0282
G01 X28.6719 Y266.0580
G01 X28.7405 Y266.0845
G01 X28.8104 Y266.1076
G01 X28.8814 Y266.1272
G01 X28.9532 Y266.1433
G01 X29.0257 Y266.1559
G01 X29.0987 Y266.1649
G01 X29.1722 Y266.1703
G01 X29.2457 Y266.1721
G01 X29.3193 Y266.1703
G01 X29.3927 Y266.1649
G01 X29.4658 Y266.1559
G01 X29.5383 Y266.1433
G01 X29.6101 Y266.1272
G01 X29.6810 Y266.1076
G01 X29.7509 Y266.0845
G01 X29.8196 Y266.0580
G01 X29.8869 Y266.0282
G01 X29.9526 Y265.9951
G01 X30.0167 Y265.9588
G01 X30.0788 Y265.9194
G01 X30.1390 Y265.8770
G01 X30.1970 Y265.8318
G01 X30.2528 Y265.7837
G01 X30.3061 Y265.7329
G01 X30.3568 Y265.6796
G01 X30.4049 Y265.6239
G01 X30.4502 Y265.5659
G01 X30.4926 Y265.5057
G01 X30.5319 Y265.4435
G01 X30.5682 Y265.3795
G01 X30.6013 Y265.3137
G01 X30.6311 Y265.2464
G01 X30.6576 Y265.1778
G01 X30.6807 Y265.1079
G01 X30.7004 Y265.0369
G01 X30.7165 Y264.9651
G01 X30.7291 Y264.8926
G01 X30.7381 Y264.8196
G01 X30.7435 Y264.7462
G01 X30.7453 Y264.6726
G01 X30.7411 Y264.5605
G01 X30.7285 Y264.4491
G01 X30.7077 Y264.3389
G01 X30.6787 Y264.2306
G01 X30.6416 Y264.1247
G01 X30.5968 Y264.0219
G01 X30.5444 Y263.9228
G01 X30.4847 Y263.8278
G01 X30.4181 Y263.7376
G01 X30.3450 Y263.6526
G01 X30.2657 Y263.5733
G01 X30.1807 Y263.5002
G01 X30.0905 Y263.4336
G01 X29.9955 Y263.3739
G01 X29.8964 Y263.3215
G01 X29.7936 Y263.2767
G01 X29.6877 Y263.2396
G01 X29.5794 Y263.2106
G01 X29.4692 Y263.1898
G01 X29.3578 Y263.1772
G01 X29.2457 Y263.1730
G01 X29.1337 Y263.1772
G01 X29.0222 Y263.1898
G01 X28.9120 Y263.2106
G01 X28.8037 Y263.2396
G01 X28.6979 Y263.2767
G01 X28.5951 Y263.3215
G01 X28.4960 Y263.3739
G01 X28.4010 Y263.4336
G01 X28.3108 Y263.5002
G01 X28.2258 Y263.5733
G01 X28.1465 Y263.6526
G01 X28.0733 Y263.7376
G01 X28.0067 Y263.8278
G01 X27.9471 Y263.9228
G01 X27.8947 Y264.0219
G01 X27.8498 Y264.1247
G01 X27.8128 Y264.2306
G01 X27.7838 Y264.3389
G01 X27.7629 Y264.4491
G01 X27.7504 Y264.5605
G01 X27.7462 Y264.6726
G01 X27.7504 Y264.7846
G01 X27.7629 Y264.8961
G01 X27.7838 Y265.0063
G01 X27.8128 Y265.1146
G01 X27.8498 Y265.2204
G01 X27.8947 Y265.3232
G01 X27.9471 Y265.4224
G01 X28.0067 Y265.5173
G01 X28.0733 Y265.6075
G01 X28.1465 Y265.6925
G01 X28.2258 Y265.7718
G01 X28.3108 Y265.8450
G01 X28.4010 Y265.9116
G01 X28.4960 Y265.9712
G01 X28.5951 Y266.0236
G01 X28.6979 Y266.0685
G01 X28.8037 Y266.1055
G01 X28.9120 Y266.1345
G01 X29.0222 Y266.1554
G01 X29.1337 Y266.1679
G01 X29.2457 Y266.1721
G01 X29.3578 Y266.1679
G01 X29.4692 Y266.1554
G01 X29.5794 Y266.1345
G01 X29.6877 Y266.1055
G01 X29.7936 Y266.0685
G01 X29.8964 Y266.0236
G01 X29.9955 Y265.9712
G01 X30.0905 Y265.9116
G01 X30.1807 Y265.8450
G01 X30.2657 Y265.7718
G01 X30.3450 Y265.6925
G01 X30.4181 Y265.6075
G01 X30.4847 Y265.5173
G01 X30.5444 Y265.4224
G01 X30.5968 Y265.3232
G01 X30.6416 Y265.2204
G01 X30.6787 Y265.1146
G01 X30.7077 Y265.0063
G01 X30.7285 Y264.8961
G01 X30.7411 Y264.7846
G01 X30.7453 Y264.6726
G01 X30.7414 Y264.5745
G01 X30.7299 Y264.4771
G01 X30.7108 Y264.3808
G01 X30.6841 Y264.2864
G01 X30.6502 Y264.1943
G01 X30.6091 Y264.1052
G01 X30.5611 Y264.0196
G01 X30.5066 Y263.9380
G01 X30.4459 Y263.8609
G01 X30.3792 Y263.7889
G01 X30.3072 Y263.7222
G01 X30.2301 Y263.6615
G01 X30.1485 Y263.6070
G01 X30.0629 Y263.5590
G01 X29.9738 Y263.5179
G01 X29.8817 Y263.4840
G01 X29.7873 Y263.4573
G01 X29.6910 Y263.4382
G01 X29.5936 Y263.4267
G01 X29.4955 Y263.4228
G01 X29.3975 Y263.4267
G01 X29.3000 Y263.4382
G01 X29.2038 Y263.4573
G01 X29.1093 Y263.4840
G01 X29.0172 Y263.5179
G01 X28.9281 Y263.5590
G01 X28.8425 Y263.6070
G01 X28.7609 Y263.6615
G01 X28.6838 Y263.7222
G01 X28.6118 Y263.7889
G01 X28.5452 Y263.8609
G01 X28.4844 Y263.9380
G01 X28.4299 Y264.0196
G01 X28.3820 Y264.1052
G01 X28.3409 Y264.1943
G01 X28.3069 Y264.2864
G01 X28.2803 Y264.3808
G01 X28.2611 Y264.4771
G01 X28.2496 Y264.5745
G01 X28.2457 Y264.6726
G01 X28.2495 Y264.7597
G01 X28.2609 Y264.8462
G01 X28.2798 Y264.9314
G01 X28.3060 Y265.0146
G01 X28.3394 Y265.0952
G01 X28.3797 Y265.1726
G01 X28.4266 Y265.2462
G01 X28.4797 Y265.3154
G01 X28.5386 Y265.3797
G01 X28.6029 Y265.4386
G01 X28.6722 Y265.4917
G01 X28.7457 Y265.5386
G01 X28.8231 Y265.5789
G01 X28.9037 Y265.6123
G01 X28.9869 Y265.6385
G01 X29.0721 Y265.6574
G01 X29.1586 Y265.6688
G01 X29.2457 Y265.6726
G01 X29.3329 Y265.6688
G01 X29.4194 Y265.6574
G01 X29.5046 Y265.6385
G01 X29.5878 Y265.6123
G01 X29.6684 Y265.5789
G01 X29.7457 Y265.5386
G01 X29.8193 Y265.4917
G01 X29.8885 Y265.4386
G01 X29.9528 Y265.3797
G01 X30.0118 Y265.3154
G01 X30.0649 Y265.2462
G01 X30.1118 Y265.1726
G01 X30.1520 Y265.0952
G01 X30.1854 Y265.0146
G01 X30.2117 Y264.9314
G01 X30.2305 Y264.8462
G01 X30.2419 Y264.7597
G01 X30.2457 Y264.6726
M107
M106 S240
G01 X30.2419 Y264.5854 Z-2.7726 F400
G01 X30.2305 Y264.4989 Z-2.7951
G01 X30.2117 Y264.4138 Z-2.8177
G01 X30.1854 Y264.3306 Z-2.8403
G01 X30.1520 Y264.2500 Z-2.8628
G01 X30.1118 Y264.1726 Z-2.8854
G01 X30.0649 Y264.0990 Z-2.9080
G01 X30.0118 Y264.0298 Z-2.9306
G01 X29.9528 Y263.9655 Z-2.9531
G01 X29.8885 Y263.9065 Z-2.9757
G01 X29.8193 Y263.8534 Z-2.9983
G01 X29.7457 Y263.8066 Z-3.0208
G01 X29.6684 Y263.7663 Z-3.0434
G01 X29.5878 Y263.7329 Z-3.0660
G01 X29.5046 Y263.7067 Z-3.0885
G01 X29.4194 Y263.6878 Z-3.1111
G01 X29.3329 Y263.6764 Z-3.1337
G01 X29.2457 Y263.6726 Z-3.1563
G01 X29.1586 Y263.6764 Z-3.1788
G01 X29.0721 Y263.6878 Z-3.2014
G01 X28.9869 Y263.7067 Z-3.2240
G01 X28.9037 Y263.7329 Z-3.2465
G01 X28.8231 Y263.7663 Z-3.2691
G01 X28.7457 Y263.8066 Z-3.2917
G01 X28.7051 Y263.8313 Z-3.3040
G01 X28.6657 Y263.8580 Z-3.3163
G01 X28.6276 Y263.8865 Z-3.3286
G01 X28.5909 Y263.9168 Z-3.3409
G01 X28.5557 Y263.9488 Z-3.3532
G01 X28.5220 Y263.9825 Z-3.3655
G01 X28.4900 Y264.0177 Z-3.3778
G01 X28.4597 Y264.0544 Z-3.3902
G01 X28.4312 Y264.0925 Z-3.4025
G01 X28.4045 Y264.1319 Z-3.4148
G01 X28.3797 Y264.1726 Z-3.4271
G01 X28.3569 Y264.2144 Z-3.4394
G01 X28.3361 Y264.2572 Z-3.4517
G01 X28.3174 Y264.3009 Z-3.4640
G01 X28.3007 Y264.3455 Z-3.4763
G01 X28.2862 Y264.3908 Z-3.4886
G01 X28.2739 Y264.4368 Z-3.5009
G01 X28.2638 Y264.4833 Z-3.5133
G01 X28.2559 Y264.5303 Z-3.5256
G01 X28.2503 Y264.5775 Z-3.5379
G01 X28.2469 Y264.6250 Z-3.5502
G01 X28.2457 Y264.6726 Z-3.5625
G01 X28.2469 Y264.7202 Z-3.5748
G01 X28.2503 Y264.7676 Z-3.5871
G01 X28.2559 Y264.8149 Z-3.5994
G01 X28.2638 Y264.8618 Z-3.6117
G01 X28.2739 Y264.9083 Z-3.6241
G01 X28.2862 Y264.9543 Z-3.6364
G01 X28.3007 Y264.9996 Z-3.6487
G01 X28.3174 Y265.0442 Z-3.6610
G01 X28.3361 Y265.0880 Z-3.6733
G01 X28.3569 Y265.1308 Z-3.6856
G01 X28.3797 Y265.1726 Z-3.6979
G01 X28.4045 Y265.2132 Z-3.7102
G01 X28.4312 Y265.2526 Z-3.7225
G01 X28.4597 Y265.2907 Z-3.7348
G01 X28.4900 Y265.3274 Z-3.7472
G01 X28.5220 Y265.3627 Z-3.7595
G01 X28.5557 Y265.3963 Z-3.7718
G01 X28.5909 Y265.4283 Z-3.7841
G01 X28.6276 Y265.4586 Z-3.7964
G01 X28.6657 Y265.4872 Z-3.8087
G01 X28.7051 Y265.5138 Z-3.8210
G01 X28.7457 Y265.5386 Z-3.8333
G01 X28.7875 Y265.5614 Z-3.8456
G01 X28.8303 Y265.5822 Z-3.8580
G01 X28.8741 Y265.6009 Z-3.8703
G01 X28.9187 Y265.6176 Z-3.8826
G01 X28.9640 Y265.6321 Z-3.8949
G01 X29.0100 Y265.6444 Z-3.9072
G01 X29.0565 Y265.6545 Z-3.9195
G01 X29.1034 Y265.6624 Z-3.9318
G01 X29.1507 Y265.6681 Z-3.9441
G01 X29.1982 Y265.6714 Z-3.9564
G01 X29.2457 Y265.6726 Z-3.9688
G01 X29.2933 Y265.6714 Z-3.9811
G01 X29.3408 Y265.6681 Z-3.9934
G01 X29.3880 Y265.6624 Z-4.0057
G01 X29.4350 Y265.6545 Z-4.0180
G01 X29.4815 Y265.6444 Z-4.0303
G01 X29.5275 Y265.6321 Z-4.0426
G01 X29.5728 Y265.6176 Z-4.0549
G01 X29.6174 Y265.6009 Z-4.0672
G01 X29.6611 Y265.5822 Z-4.0795
G01 X29.7040 Y265.5614 Z-4.0919
G01 X29.7457 Y265.5386 Z-4.1042
G01 X29.7864 Y265.5138 Z-4.1165
G01 X29.8258 Y265.4872 Z-4.1288
G01 X29.8639 Y265.4586 Z-4.1411
G01 X29.9006 Y265.4283 Z-4.1534
G01 X29.9358 Y265.3963 Z-4.1657
G01 X29.9695 Y265.3627 Z-4.1780
G01 X30.0015 Y265.3274 Z-4.1903
G01 X30.0318 Y265.2907 Z-4.2027
G01 X30.0603 Y265.2526 Z-4.2150
G01 X30.0870 Y265.2132 Z-4.2273
G01 X30.1118 Y265.1726 Z-4.2396
G01 X30.1346 Y265.1308 Z-4.2519
G01 X30.1554 Y265.0880 Z-4.2642
G01 X30.1741 Y265.0442 Z-4.2765
G01 X30.1907 Y264.9996 Z-4.2888
G01 X30.2052 Y264.9543 Z-4.3011
G01 X30.2175 Y264.9083 Z-4.3134
G01 X30.2277 Y264.8618 Z-4.3258
G01 X30.2356 Y264.8149 Z-4.3381
G01 X30.2412 Y264.7676 Z-4.3504
G01 X30.2446 Y264.7202 Z-4.3627
G01 X30.2457 Y264.6726 Z-4.3750
G01 X30.2419 Y264.5854
G01 X30.2305 Y264.4989
G01 X30.2117 Y264.4138
G01 X30.1854 Y264.3306
G01 X30.1520 Y264.2500
G01 X30.1118 Y264.1726
G01 X30.0649 Y264.0990
G01 X30.0118 Y264.0298
G01 X29.9528 Y263.9655
G01 X29.8885 Y263.9065
G01 X29.8193 Y263.8534
G01 X29.7457 Y263.8066
G01 X29.6684 Y263.7663
G01 X29.5878 Y263.7329
G01 X29.5046 Y263.7067
G01 X29.4194 Y263.6878
G01 X29.3329 Y263.6764
G01 X29.2457 Y263.6726
G01 X29.1586 Y263.6764
G01 X29.0721 Y263.6878
G01 X28.9869 Y263.7067
G01 X28.9037 Y263.7329
G01 X28.8231 Y263.7663
G01 X28.7457 Y263.8066
G01 X28.7051 Y263.8313
G01 X28.6657 Y263.8580
G01 X28.6276 Y263.8865
G01 X28.5909 Y263.9168
G01 X28.5557 Y263.9488
G01 X28.5220 Y263.9825
G01 X28.4900 Y264.0177
G01 X28.4597 Y264.0544
G01 X28.4312 Y264.0925
G01 X28.4045 Y264.1319
G01 X28.3797 Y264.1726
G01 X28.3569 Y264.2144
G01 X28.3361 Y264.2572
G01 X28.3174 Y264.3009
G01 X28.3007 Y264.3455
G01 X28.2862 Y264.3908
G01 X28.2739 Y264.4368
G01 X28.2638 Y264.4833
G01 X28.2559 Y264.5303
G01 X28.2503 Y264.5775
G01 X28.2469 Y264.6250
G01 X28.2457 Y264.6726
G01 X28.2469 Y264.7202
G01 X28.2503 Y264.7676
G01 X28.2559 Y264.8149
G01 X28.2638 Y264.8618
G01 X28.2739 Y264.9083
G01 X28.2862 Y264.9543
G01 X28.3007 Y264.9996
G01 X28.3174 Y265.0442
G01 X28.3361 Y265.0880
G01 X28.3569 Y265.1308
G01 X28.3797 Y265.1726
G01 X28.4045 Y265.2132
G01 X28.4312 Y265.2526
G01 X28.4597 Y265.2907
G01 X28.4900 Y265.3274
G01 X28.5220 Y265.3627
G01 X28.5557 Y265.3963
G01 X28.5909 Y265.4283
G01 X28.6276 Y265.4586
G01 X28.6657 Y265.4872
G01 X28.7051 Y265.5138
G01 X28.7457 Y265.5386
G01 X28.7875 Y265.5614
G01 X28.8303 Y265.5822
G01 X28.8741 Y265.6009
G01 X28.9187 Y265.6176
G01 X28.9640 Y265.6321
G01 X29.0100 Y265.6444
G01 X29.0565 Y265.6545
G01 X29.1034 Y265.6624
G01 X29.1507 Y265.6681
G01 X29.1982 Y265.6714
G01 X29.2457 Y265.6726
G01 X29.2933 Y265.6714
G01 X29.3408 Y265.6681
G01 X29.3880 Y265.6624
G01 X29.4350 Y265.6545
G01 X29.4815 Y265.6444
G01 X29.5275 Y265.6321
G01 X29.5728 Y265.6176
G01 X29.6174 Y265.6009
G01 X29.6611 Y265.5822
G01 X29.7040 Y265.5614
G01 X29.7457 Y265.5386
G01 X29.7864 Y265.5138
G01 X29.8258 Y265.4872
G01 X29.8639 Y265.4586
G01 X29.9006 Y265.4283
G01 X29.9358 Y265.3963
G01 X29.9695 Y265.3627
G01 X30.0015 Y265.3274
G01 X30.0318 Y265.2907
G01 X30.0603 Y265.2526
G01 X30.0870 Y265.2132
G01 X30.1118 Y265.1726
G01 X30.1346 Y265.1308
G01 X30.1554 Y265.0880
G01 X30.1741 Y265.0442
G01 X30.1907 Y264.9996
G01 X30.2052 Y264.9543
G01 X30.2175 Y264.9083
G01 X30.2277 Y264.8618
G01 X30.2356 Y264.8149
G01 X30.2412 Y264.7676
G01 X30.2446 Y264.7202
G01 X30.2457 Y264.6726
G01 X30.2565 Y264.6210 F1000
G01 X30.2646 Y264.5689
G01 X30.2699 Y264.5165
G01 X30.2726 Y264.4638
G01 Y264.4111
G01 X30.2698 Y264.3585
G01 X30.2644 Y264.3061
G01 X30.2562 Y264.2540
G01 X30.2445 Y264.1980
G01 X30.2299 Y264.1427
G01 X30.2126 Y264.0882
G01 X30.1924 Y264.0347
G01 X30.1696 Y263.9823
G01 X30.1441 Y263.9310
G01 X30.1160 Y263.8812
G01 X30.0854 Y263.8329
G01 X30.0498 Y263.7825
G01 X30.0117 Y263.7340
G01 X29.9711 Y263.6874
G01 X29.9283 Y263.6430
G01 X29.8832 Y263.6009
G01 X29.8361 Y263.5611
G01 X29.7870 Y263.5237
G01 X29.7360 Y263.4889
G01 X29.6796 Y263.4543
G01 X29.6214 Y263.4226
G01 X29.5617 Y263.3939
G01 X29.5006 Y263.3683
G01 X29.4383 Y263.3458
G01 X29.3750 Y263.3265
G01 X29.3107 Y263.3104
G01 X29.2457 Y263.2976
G01 X29.1757 Y263.2874
G01 X29.1052 Y263.2808
G01 X29.0346 Y263.2777
G01 X28.9638 Y263.2782
G01 X28.8931 Y263.2822
G01 X28.8228 Y263.2898
G01 X28.7529 Y263.3010
G01 X28.6837 Y263.3156
G01 X28.6155 Y263.3416
G01 X28.5487 Y263.3710
G01 X28.4835 Y263.4036
G01 X28.4199 Y263.4393
G01 X28.3581 Y263.4782
G01 X28.2984 Y263.5200
G01 X28.2407 Y263.5647
G01 X28.1854 Y263.6122
G01 X28.1346 Y263.6655
G01 X28.0866 Y263.7213
G01 X28.0413 Y263.7793
G01 X27.9989 Y263.8395
G01 X27.9595 Y263.9017
G01 X27.9232 Y263.9657
G01 X27.8901 Y264.0314
G01 X27.8603 Y264.0987
G01 X27.8338 Y264.1674
G01 X27.8107 Y264.2373
G01 X27.7911 Y264.3082
G01 X27.7750 Y264.3800
G01 X27.7624 Y264.4525
G01 X27.7534 Y264.5256
G01 X27.7480 Y264.5990
G01 X27.7462 Y264.6726
G01 X27.7480 Y264.7462
G01 X27.7534 Y264.8196
G01 X27.7624 Y264.8926
G01 X27.7750 Y264.9651
G01 X27.7911 Y265.0369
G01 X27.8107 Y265.1079
G01 X27.8338 Y265.1778
G01 X27.8603 Y265.2464
G01 X27.8901 Y265.3137
G01 X27.9232 Y265.3795
G01 X27.9595 Y265.4435
G01 X27.9989 Y265.5057
G01 X28.0413 Y265.5659
G01 X28.0866 Y265.6239
G01 X28.1346 Y265.6796
G01 X28.1854 Y265.7329
G01 X28.2387 Y265.7837
G01 X28.2944 Y265.8318
G01 X28.3524 Y265.8770
G01 X28.4126 Y265.9194
G01 X28.4748 Y265.9588
G01 X28.5388 Y265.9951
G01 X28.6046 Y266.0282
G01 X28.6719 Y266.0580
G01 X28.7405 Y266.0845
G01 X28.8104 Y266.1076
G01 X28.8814 Y266.1272
G01 X28.9532 Y266.1433
G01 X29.0257 Y266.1559
G01 X29.0987 Y266.1649
G01 X29.1722 Y266.1703
G01 X29.2457 Y266.1721
G01 X29.3193 Y266.1703
G01 X29.3927 Y266.1649
G01 X29.4658 Y266.1559
G01 X29.5383 Y266.1433
G01 X29.6101 Y266.1272
G01 X29.6810 Y266.1076
G01 X29.7509 Y266.0845
G01 X29.8196 Y266.0580
G01 X29.8869 Y266.0282
G01 X29.9526 Y265.9951
G01 X30.0167 Y265.9588
G01 X30.0788 Y265.9194
G01 X30.1390 Y265.8770
G01 X30.1970 Y265.8318
G01 X30.2528 Y265.7837
G01 X30.3061 Y265.7329
G01 X30.3568 Y265.6796
G01 X30.4049 Y265.6239
G01 X30.4502 Y265.5659
G01 X30.4926 Y265.5057
G01 X30.5319 Y265.4435
G01 X30.5682 Y265.3795
G01 X30.6013 Y265.3137
G01 X30.6311 Y265.2464
G01 X30.6576 Y265.1778
G01 X30.6807 Y265.1079
G01 X30.7004 Y265.0369
G01 X30.7165 Y264.9651
G01 X30.7291 Y264.8926
G01 X30.7381 Y264.8196
G01 X30.7435 Y264.7462
G01 X30.7453 Y264.6726
G01 X30.7411 Y264.5605
G01 X30.7285 Y264.4491
G01 X30.7077 Y264.3389
G01 X30.6787 Y264.2306
G01 X30.6416 Y264.1247
G01 X30.5968 Y264.0219
G01 X30.5444 Y263.9228
G01 X30.4847 Y263.8278
G01 X30.4181 Y263.7376
G01 X30.3450 Y263.6526
G01 X30.2657 Y263.5733
G01 X30.1807 Y263.5002
G01 X30.0905 Y263.4336
G01 X29.9955 Y263.3739
G01 X29.8964 Y263.3215
G01 X29.7936 Y263.2767
G01 X29.6877 Y263.2396
G01 X29.5794 Y263.2106
G01 X29.4692 Y263.1898
G01 X29.3578 Y263.1772
G01 X29.2457 Y263.1730
G01 X29.1337 Y263.1772
G01 X29.0222 Y263.1898
G01 X28.9120 Y263.2106
G01 X28.8037 Y263.2396
G01 X28.6979 Y263.2767
G01 X28.5951 Y263.3215
G01 X28.4960 Y263.3739
G01 X28.4010 Y263.4336
G01 X28.3108 Y263.5002
G01 X28.2258 Y263.5733
G01 X28.1465 Y263.6526
G01 X28.0733 Y263.7376
G01 X28.0067 Y263.8278
G01 X27.9471 Y263.9228
G01 X27.8947 Y264.0219
G01 X27.8498 Y264.1247
G01 X27.8128 Y264.2306
G01 X27.7838 Y264.3389
G01 X27.7629 Y264.4491
G01 X27.7504 Y264.5605
G01 X27.7462 Y264.6726
G01 X27.7504 Y264.7846
G01 X27.7629 Y264.8961
G01 X27.7838 Y265.0063
G01 X27.8128 Y265.1146
G01 X27.8498 Y265.2204
G01 X27.8947 Y265.3232
G01 X27.9471 Y265.4224
G01 X28.0067 Y265.5173
G01 X28.0733 Y265.6075
G01 X28.1465 Y265.6925
G01 X28.2258 Y265.7718
G01 X28.3108 Y265.8450
G01 X28.4010 Y265.9116
G01 X28.4960 Y265.9712
G01 X28.5951 Y266.0236
G01 X28.6979 Y266.0685
G01 X28.8037 Y266.1055
G01 X28.9120 Y266.1345
G01 X29.0222 Y266.1554
G01 X29.1337 Y266.1679
G01 X29.2457 Y266.1721
G01 X29.3578 Y266.1679
G01 X29.4692 Y266.1554
G01 X29.5794 Y266.1345
G01 X29.6877 Y266.1055
G01 X29.7936 Y266.0685
G01 X29.8964 Y266.0236
G01 X29.9955 Y265.9712
G01 X30.0905 Y265.9116
G01 X30.1807 Y265.8450
G01 X30.2657 Y265.7718
G01 X30.3450 Y265.6925
G01 X30.4181 Y265.6075
G01 X30.4847 Y265.5173
G01 X30.5444 Y265.4224
G01 X30.5968 Y265.3232
G01 X30.6416 Y265.2204
G01 X30.6787 Y265.1146
G01 X30.7077 Y265.0063
G01 X30.7285 Y264.8961
G01 X30.7411 Y264.7846
G01 X30.7453 Y264.6726
G01 X30.7414 Y264.5745
G01 X30.7299 Y264.4771
G01 X30.7108 Y264.3808
G01 X30.6841 Y264.2864
G01 X30.6502 Y264.1943
G01 X30.6091 Y264.1052
G01 X30.5611 Y264.0196
G01 X30.5066 Y263.9380
G01 X30.4459 Y263.8609
G01 X30.3792 Y263.7889
G01 X30.3072 Y263.7222
G01 X30.2301 Y263.6615
G01 X30.1485 Y263.6070
G01 X30.0629 Y263.5590
G01 X29.9738 Y263.5179
G01 X29.8817 Y263.4840
G01 X29.7873 Y263.4573
G01 X29.6910 Y263.4382
G01 X29.5936 Y263.4267
G01 X29.4955 Y263.4228
G01 X29.3975 Y263.4267
G01 X29.3000 Y263.4382
G01 X29.2038 Y263.4573
G01 X29.1093 Y263.4840
G01 X29.0172 Y263.5179
G01 X28.9281 Y263.5590
G01 X28.8425 Y263.6070
G01 X28.7609 Y263.6615
G01 X28.6838 Y263.7222
G01 X28.6118 Y263.7889
G01 X28.5452 Y263.8609
G01 X28.4844 Y263.9380
G01 X28.4299 Y264.0196
G01 X28.3820 Y264.1052
G01 X28.3409 Y264.1943
G01 X28.3069 Y264.2864
G01 X28.2803 Y264.3808
G01 X28.2611 Y264.4771
G01 X28.2496 Y264.5745
G01 X28.2457 Y264.6726
G01 X28.2495 Y264.7597
G01 X28.2609 Y264.8462
G01 X28.2798 Y264.9314
G01 X28.3060 Y265.0146
G01 X28.3394 Y265.0952
G01 X28.3797 Y265.1726
G01 X28.4266 Y265.2462
G01 X28.4797 Y265.3154
G01 X28.5386 Y265.3797
G01 X28.6029 Y265.4386
G01 X28.6722 Y265.4917
G01 X28.7457 Y265.5386
G01 X28.8231 Y265.5789
G01 X28.9037 Y265.6123
G01 X28.9869 Y265.6385
G01 X29.0721 Y265.6574
G01 X29.1586 Y265.6688
G01 X29.2457 Y265.6726
G01 X29.3329 Y265.6688
G01 X29.4194 Y265.6574
G01 X29.5046 Y265.6385
G01 X29.5878 Y265.6123
G01 X29.6684 Y265.5789
G01 X29.7457 Y265.5386
G01 X29.8193 Y265.4917
G01 X29.8885 Y265.4386
G01 X29.9528 Y265.3797
G01 X30.0118 Y265.3154
G01 X30.0649 Y265.2462
G01 X30.1118 Y265.1726
G01 X30.1520 Y265.0952
G01 X30.1854 Y265.0146
G01 X30.2117 Y264.9314
G01 X30.2305 Y264.8462
G01 X30.2419 Y264.7597
G01 X30.2457 Y264.6726
M107
M106 S240
G01 X30.2419 Y264.5854 Z-4.3976 F400
G01 X30.2305 Y264.4989 Z-4.4201
G01 X30.2117 Y264.4138 Z-4.4427
G01 X30.1854 Y264.3306 Z-4.4653
G01 X30.1520 Y264.2500 Z-4.4878
G01 X30.1118 Y264.1726 Z-4.5104
G01 X30.0649 Y264.0990 Z-4.5330
G01 X30.0118 Y264.0298 Z-4.5556
G01 X29.9528 Y263.9655 Z-4.5781
G01 X29.8885 Y263.9065 Z-4.6007
G01 X29.8193 Y263.8534 Z-4.6233
G01 X29.7457 Y263.8066 Z-4.6458
G01 X29.6684 Y263.7663 Z-4.6684
G01 X29.5878 Y263.7329 Z-4.6910
G01 X29.5046 Y263.7067 Z-4.7135
G01 X29.4194 Y263.6878 Z-4.7361
G01 X29.3329 Y263.6764 Z-4.7587
G01 X29.2457 Y263.6726 Z-4.7813
G01 X29.1586 Y263.6764 Z-4.8038
G01 X29.0721 Y263.6878 Z-4.8264
G01 X28.9869 Y263.7067 Z-4.8490
G01 X28.9037 Y263.7329 Z-4.8715
G01 X28.8231 Y263.7663 Z-4.8941
G01 X28.7457 Y263.8066 Z-4.9167
G01 X28.7051 Y263.8313 Z-4.9290
G01 X28.6657 Y263.8580 Z-4.9413
G01 X28.6276 Y263.8865 Z-4.9536
G01 X28.5909 Y263.9168 Z-4.9659
G01 X28.5557 Y263.9488 Z-4.9782
G01 X28.5220 Y263.9825 Z-4.9905
G01 X28.4900 Y264.0177 Z-5.0028
G01 X28.4597 Y264.0544 Z-5.0152
G01 X28.4312 Y264.0925 Z-5.0275
G01 X28.4045 Y264.1319 Z-5.0398
G01 X28.3797 Y264.1726 Z-5.0521
G01 X28.3569 Y264.2144 Z-5.0644
G01 X28.3361 Y264.2572 Z-5.0767
G01 X28.3174 Y264.3009 Z-5.0890
G01 X28.3007 Y264.3455 Z-5.1013
G01 X28.2862 Y264.3908 Z-5.1136
G01 X28.2739 Y264.4368 Z-5.1259
G01 X28.2638 Y264.4833 Z-5.1383
G01 X28.2559 Y264.5303 Z-5.1506
G01 X28.2503 Y264.5775 Z-5.1629
G01 X28.2469 Y264.6250 Z-5.1752
G01 X28.2457 Y264.6726 Z-5.1875
G01 X28.2469 Y264.7202 Z-5.1998
G01 X28.2503 Y264.7676 Z-5.2121
G01 X28.2559 Y264.8149 Z-5.2244
G01 X28.2638 Y264.8618 Z-5.2367
G01 X28.2739 Y264.9083 Z-5.2491
G01 X28.2862 Y264.9543 Z-5.2614
G01 X28.3007 Y264.9996 Z-5.2737
G01 X28.3174 Y265.0442 Z-5.2860
G01 X28.3361 Y265.0880 Z-5.2983
G01 X28.3569 Y265.1308 Z-5.3106
G01 X28.3797 Y265.1726 Z-5.3229
G01 X28.4045 Y265.2132 Z-5.3352
G01 X28.4312 Y265.2526 Z-5.3475
G01 X28.4597 Y265.2907 Z-5.3598
G01 X28.4900 Y265.3274 Z-5.3722
G01 X28.5220 Y265.3627 Z-5.3845
G01 X28.5557 Y265.3963 Z-5.3968
G01 X28.5909 Y265.4283 Z-5.4091
G01 X28.6276 Y265.4586 Z-5.4214
G01 X28.6657 Y265.4872 Z-5.4337
G01 X28.7051 Y265.5138 Z-5.4460
G01 X28.7457 Y265.5386 Z-5.4583
G01 X28.7875 Y265.5614 Z-5.4706
G01 X28.8303 Y265.5822 Z-5.4830
G01 X28.8741 Y265.6009 Z-5.4953
G01 X28.9187 Y265.6176 Z-5.5076
G01 X28.9640 Y265.6321 Z-5.5199
G01 X29.0100 Y265.6444 Z-5.5322
G01 X29.0565 Y265.6545 Z-5.5445
G01 X29.1034 Y265.6624 Z-5.5568
G01 X29.1507 Y265.6681 Z-5.5691
G01 X29.1982 Y265.6714 Z-5.5814
G01 X29.2457 Y265.6726 Z-5.5938
G01 X29.2933 Y265.6714 Z-5.6061
G01 X29.3408 Y265.6681 Z-5.6184
G01 X29.3880 Y265.6624 Z-5.6307
G01 X29.4350 Y265.6545 Z-5.6430
G01 X29.4815 Y265.6444 Z-5.6553
G01 X29.5275 Y265.6321 Z-5.6676
G01 X29.5728 Y265.6176 Z-5.6799
G01 X29.6174 Y265.6009 Z-5.6922
G01 X29.6611 Y265.5822 Z-5.7045
G01 X29.7040 Y265.5614 Z-5.7169
G01 X29.7457 Y265.5386 Z-5.7292
G01 X29.7864 Y265.5138 Z-5.7415
G01 X29.8258 Y265.4872 Z-5.7538
G01 X29.8639 Y265.4586 Z-5.7661
G01 X29.9006 Y265.4283 Z-5.7784
G01 X29.9358 Y265.3963 Z-5.7907
G01 X29.9695 Y265.3627 Z-5.8030
G01 X30.0015 Y265.3274 Z-5.8153
G01 X30.0318 Y265.2907 Z-5.8277
G01 X30.0603 Y265.2526 Z-5.8400
G01 X30.0870 Y265.2132 Z-5.8523
G01 X30.1118 Y265.1726 Z-5.8646
G01 X30.1346 Y265.1308 Z-5.8769
G01 X30.1554 Y265.0880 Z-5.8892
G01 X30.1741 Y265.0442 Z-5.9015
G01 X30.1907 Y264.9996 Z-5.9138
G01 X30.2052 Y264.9543 Z-5.9261
G01 X30.2175 Y264.9083 Z-5.9384
G01 X30.2277 Y264.8618 Z-5.9508
G01 X30.2356 Y264.8149 Z-5.9631
G01 X30.2412 Y264.7676 Z-5.9754
G01 X30.2446 Y264.7202 Z-5.9877
G01 X30.2457 Y264.6726 Z-6.0000
G01 X30.2419 Y264.5854
G01 X30.2305 Y264.4989
G01 X30.2117 Y264.4138
G01 X30.1854 Y264.3306
G01 X30.1520 Y264.2500
G01 X30.1118 Y264.1726
G01 X30.0649 Y264.0990
G01 X30.0118 Y264.0298
G01 X29.9528 Y263.9655
G01 X29.8885 Y263.9065
G01 X29.8193 Y263.8534
G01 X29.7457 Y263.8066
G01 X29.6684 Y263.7663
G01 X29.5878 Y263.7329
G01 X29.5046 Y263.7067
G01 X29.4194 Y263.6878
G01 X29.3329 Y263.6764
G01 X29.2457 Y263.6726
G01 X29.1586 Y263.6764
G01 X29.0721 Y263.6878
G01 X28.9869 Y263.7067
G01 X28.9037 Y263.7329
G01 X28.8231 Y263.7663
G01 X28.7457 Y263.8066
G01 X28.7051 Y263.8313
G01 X28.6657 Y263.8580
G01 X28.6276 Y263.8865
G01 X28.5909 Y263.9168
G01 X28.5557 Y263.9488
G01 X28.5220 Y263.9825
G01 X28.4900 Y264.0177
G01 X28.4597 Y264.0544
G01 X28.4312 Y264.0925
G01 X28.4045 Y264.1319
G01 X28.3797 Y264.1726
G01 X28.3569 Y264.2144
G01 X28.3361 Y264.2572
G01 X28.3174 Y264.3009
G01 X28.3007 Y264.3455
G01 X28.2862 Y264.3908
G01 X28.2739 Y264.4368
G01 X28.2638 Y264.4833
G01 X28.2559 Y264.5303
G01 X28.2503 Y264.5775
G01 X28.2469 Y264.6250
G01 X28.2457 Y264.6726
G01 X28.2469 Y264.7202
G01 X28.2503 Y264.7676
G01 X28.2559 Y264.8149
G01 X28.2638 Y264.8618
G01 X28.2739 Y264.9083
G01 X28.2862 Y264.9543
G01 X28.3007 Y264.9996
G01 X28.3174 Y265.0442
G01 X28.3361 Y265.0880
G01 X28.3569 Y265.1308
G01 X28.3797 Y265.1726
G01 X28.4045 Y265.2132
G01 X28.4312 Y265.2526
G01 X28.4597 Y265.2907
G01 X28.4900 Y265.3274
G01 X28.5220 Y265.3627
G01 X28.5557 Y265.3963
G01 X28.5909 Y265.4283
G01 X28.6276 Y265.4586
G01 X28.6657 Y265.4872
G01 X28.7051 Y265.5138
G01 X28.7457 Y265.5386
G01 X28.7875 Y265.5614
G01 X28.8303 Y265.5822
G01 X28.8741 Y265.6009
G01 X28.9187 Y265.6176
G01 X28.9640 Y265.6321
G01 X29.0100 Y265.6444
G01 X29.0565 Y265.6545
G01 X29.1034 Y265.6624
G01 X29.1507 Y265.6681
G01 X29.1982 Y265.6714
G01 X29.2457 Y265.6726
G01 X29.2933 Y265.6714
G01 X29.3408 Y265.6681
G01 X29.3880 Y265.6624
G01 X29.4350 Y265.6545
G01 X29.4815 Y265.6444
G01 X29.5275 Y265.6321
G01 X29.5728 Y265.6176
G01 X29.6174 Y265.6009
G01 X29.6611 Y265.5822
G01 X29.7040 Y265.5614
G01 X29.7457 Y265.5386
G01 X29.7864 Y265.5138
G01 X29.8258 Y265.4872
G01 X29.8639 Y265.4586
G01 X29.9006 Y265.4283
G01 X29.9358 Y265.3963
G01 X29.9695 Y265.3627
G01 X30.0015 Y265.3274
G01 X30.0318 Y265.2907
G01 X30.0603 Y265.2526
G01 X30.0870 Y265.2132
G01 X30.1118 Y265.1726
G01 X30.1346 Y265.1308
G01 X30.1554 Y265.0880
G01 X30.1741 Y265.0442
G01 X30.1907 Y264.9996
G01 X30.2052 Y264.9543
G01 X30.2175 Y264.9083
G01 X30.2277 Y264.8618
G01 X30.2356 Y264.8149
G01 X30.2412 Y264.7676
G01 X30.2446 Y264.7202
G01 X30.2457 Y264.6726
G01 X30.2565 Y264.6210 F1000
G01 X30.2646 Y264.5689
G01 X30.2699 Y264.5165
G01 X30.2726 Y264.4638
G01 Y264.4111
G01 X30.2698 Y264.3585
G01 X30.2644 Y264.3061
G01 X30.2562 Y264.2540
G01 X30.2445 Y264.1980
G01 X30.2299 Y264.1427
G01 X30.2126 Y264.0882
G01 X30.1924 Y264.0347
G01 X30.1696 Y263.9823
G01 X30.1441 Y263.9310
G01 X30.1160 Y263.8812
G01 X30.0854 Y263.8329
G01 X30.0498 Y263.7825
G01 X30.0117 Y263.7340
G01 X29.9711 Y263.6874
G01 X29.9283 Y263.6430
G01 X29.8832 Y263.6009
G01 X29.8361 Y263.5611
G01 X29.7870 Y263.5237
G01 X29.7360 Y263.4889
G01 X29.6796 Y263.4543
G01 X29.6214 Y263.4226
G01 X29.5617 Y263.3939
G01 X29.5006 Y263.3683
G01 X29.4383 Y263.3458
G01 X29.3750 Y263.3265
G01 X29.3107 Y263.3104
G01 X29.2457 Y263.2976
G01 X29.1757 Y263.2874
G01 X29.1052 Y263.2808
G01 X29.0346 Y263.2777
G01 X28.9638 Y263.2782
G01 X28.8931 Y263.2822
G01 X28.8228 Y263.2898
G01 X28.7529 Y263.3010
G01 X28.6837 Y263.3156
G01 X28.6155 Y263.3416
G01 X28.5487 Y263.3710
G01 X28.4835 Y263.4036
G01 X28.4199 Y263.4393
G01 X28.3581 Y263.4782
G01 X28.2984 Y263.5200
G01 X28.2407 Y263.5647
G01 X28.1854 Y263.6122
G01 X28.1346 Y263.6655
G01 X28.0866 Y263.7213
G01 X28.0413 Y263.7793
G01 X27.9989 Y263.8395
G01 X27.9595 Y263.9017
G01 X27.9232 Y263.9657
G01 X27.8901 Y264.0314
G01 X27.8603 Y264.0987
G01 X27.8338 Y264.1674
G01 X27.8107 Y264.2373
G01 X27.7911 Y264.3082
G01 X27.7750 Y264.3800
G01 X27.7624 Y264.4525
G01 X27.7534 Y264.5256
G01 X27.7480 Y264.5990
G01 X27.7462 Y264.6726
G01 X27.7480 Y264.7462
G01 X27.7534 Y264.8196
G01 X27.7624 Y264.8926
G01 X27.7750 Y264.9651
G01 X27.7911 Y265.0369
G01 X27.8107 Y265.1079
G01 X27.8338 Y265.1778
G01 X27.8603 Y265.2464
G01 X27.8901 Y265.3137
G01 X27.9232 Y265.3795
G01 X27.9595 Y265.4435
G01 X27.9989 Y265.5057
G01 X28.0413 Y265.5659
G01 X28.0866 Y265.6239
G01 X28.1346 Y265.6796
G01 X28.1854 Y265.7329
G01 X28.2387 Y265.7837
G01 X28.2944 Y265.8318
G01 X28.3524 Y265.8770
G01 X28.4126 Y265.9194
G01 X28.4748 Y265.9588
G01 X28.5388 Y265.9951
G01 X28.6046 Y266.0282
G01 X28.6719 Y266.0580
G01 X28.7405 Y266.0845
G01 X28.8104 Y266.1076
G01 X28.8814 Y266.1272
G01 X28.9532 Y266.1433
G01 X29.0257 Y266.1559
G01 X29.0987 Y266.1649
G01 X29.1722 Y266.1703
G01 X29.2457 Y266.1721
G01 X29.3193 Y266.1703
G01 X29.3927 Y266.1649
G01 X29.4658 Y266.1559
G01 X29.5383 Y266.1433
G01 X29.6101 Y266.1272
G01 X29.6810 Y266.1076
G01 X29.7509 Y266.0845
G01 X29.8196 Y266.0580
G01 X29.8869 Y266.0282
G01 X29.9526 Y265.9951
G01 X30.0167 Y265.9588
G01 X30.0788 Y265.9194
G01 X30.1390 Y265.8770
G01 X30.1970 Y265.8318
G01 X30.2528 Y265.7837
G01 X30.3061 Y265.7329
G01 X30.3568 Y265.6796
G01 X30.4049 Y265.6239
G01 X30.4502 Y265.5659
G01 X30.4926 Y265.5057
G01 X30.5319 Y265.4435
G01 X30.5682 Y265.3795
G01 X30.6013 Y265.3137
G01 X30.6311 Y265.2464
G01 X30.6576 Y265.1778
G01 X30.6807 Y265.1079
G01 X30.7004 Y265.0369
G01 X30.7165 Y264.9651
G01 X30.7291 Y264.8926
G01 X30.7381 Y264.8196
G01 X30.7435 Y264.7462
G01 X30.7453 Y264.6726
G01 X30.7411 Y264.5605
G01 X30.7285 Y264.4491
G01 X30.7077 Y264.3389
G01 X30.6787 Y264.2306
G01 X30.6416 Y264.1247
G01 X30.5968 Y264.0219
G01 X30.5444 Y263.9228
G01 X30.4847 Y263.8278
G01 X30.4181 Y263.7376
G01 X30.3450 Y263.6526
G01 X30.2657 Y263.5733
G01 X30.1807 Y263.5002
G01 X30.0905 Y263.4336
G01 X29.9955 Y263.3739
G01 X29.8964 Y263.3215
G01 X29.7936 Y263.2767
G01 X29.6877 Y263.2396
G01 X29.5794 Y263.2106
G01 X29.4692 Y263.1898
G01 X29.3578 Y263.1772
G01 X29.2457 Y263.1730
G01 X29.1337 Y263.1772
G01 X29.0222 Y263.1898
G01 X28.9120 Y263.2106
G01 X28.8037 Y263.2396
G01 X28.6979 Y263.2767
G01 X28.5951 Y263.3215
G01 X28.4960 Y263.3739
G01 X28.4010 Y263.4336
G01 X28.3108 Y263.5002
G01 X28.2258 Y263.5733
G01 X28.1465 Y263.6526
G01 X28.0733 Y263.7376
G01 X28.0067 Y263.8278
G01 X27.9471 Y263.9228
G01 X27.8947 Y264.0219
G01 X27.8498 Y264.1247
G01 X27.8128 Y264.2306
G01 X27.7838 Y264.3389
G01 X27.7629 Y264.4491
G01 X27.7504 Y264.5605
G01 X27.7462 Y264.6726
G01 X27.7504 Y264.7846
G01 X27.7629 Y264.8961
G01 X27.7838 Y265.0063
G01 X27.8128 Y265.1146
G01 X27.8498 Y265.2204
G01 X27.8947 Y265.3232
G01 X27.9471 Y265.4224
G01 X28.0067 Y265.5173
G01 X28.0733 Y265.6075
G01 X28.1465 Y265.6925
G01 X28.2258 Y265.7718
G01 X28.3108 Y265.8450
G01 X28.4010 Y265.9116
G01 X28.4960 Y265.9712
G01 X28.5951 Y266.0236
G01 X28.6979 Y266.0685
G01 X28.8037 Y266.1055
G01 X28.9120 Y266.1345
G01 X29.0222 Y266.1554
G01 X29.1337 Y266.1679
G01 X29.2457 Y266.1721
G01 X29.3578 Y266.1679
G01 X29.4692 Y266.1554
G01 X29.5794 Y266.1345
G01 X29.6877 Y266.1055
G01 X29.7936 Y266.0685
G01 X29.8964 Y266.0236
G01 X29.9955 Y265.9712
G01 X30.0905 Y265.9116
G01 X30.1807 Y265.8450
G01 X30.2657 Y265.7718
G01 X30.3450 Y265.6925
G01 X30.4181 Y265.6075
G01 X30.4847 Y265.5173
G01 X30.5444 Y265.4224
G01 X30.5968 Y265.3232
G01 X30.6416 Y265.2204
G01 X30.6787 Y265.1146
G01 X30.7077 Y265.0063
G01 X30.7285 Y264.8961
G01 X30.7411 Y264.7846
G01 X30.7453 Y264.6726
M107
M106 S240
G01 X30.7422 Y264.5941 Z-5.9750 F400
M107
M106 S240
G01 X30.7330 Y264.5161 Z-5.9500
M107
M106 S240
G01 X30.7177 Y264.4391 Z-5.9250
M107
M106 S240
G01 X30.6963 Y264.3636 Z-5.9000
M107
M106 S240
G01 X30.6692 Y264.2899 Z-5.8750
M107
M106 S240
G01 X30.6363 Y264.2186 Z-5.8500
M107
M106 S240
G01 X30.5979 Y264.1501 Z-5.8250
M107
M106 S240
G01 X30.5543 Y264.0848 Z-5.8000
M107
M106 S240
G01 X30.5057 Y264.0231 Z-5.7750
M107
M106 S240
G01 X30.4524 Y263.9655 Z-5.7500
M107
M106 S240
G01 X30.3947 Y263.9122 Z-5.7250
M107
M106 S240
G01 X30.3331 Y263.8636 Z-5.7000
M107
M106 S240
G01 X30.2678 Y263.8199 Z-5.6750
M107
M106 S240
G01 X30.1993 Y263.7816 Z-5.6500
M107
M106 S240
G01 X30.1280 Y263.7487 Z-5.6250
M107
M106 S240
G01 X30.0543 Y263.7215 Z-5.6000
M107
M106 S240
G01 X29.9787 Y263.7002 Z-5.5750
M107
M106 S240
G01 X29.9017 Y263.6849 Z-5.5500
M107
M106 S240
G01 X29.8238 Y263.6757 Z-5.5250
M107
M106 S240
G01 X29.7453 Y263.6726 Z-5.5000
M107
G00 Z2.0000


;No. 2: Hole 2
G00 X28.2665 Y252.1584 Z2.0000
G00 Z0.5000
G01 Z0.0000 F400
G01 Z-1.8000
M106 S240
G01 X51.7378 F1000
G01 X50.1732 Y250.6584
G01 X29.7933
G01 X38.5593
G01 Y249.1584
G01 X41.4502
G01 X41.4473 Y247.6584
G01 X38.5622
G01 Y246.1584
G01 X41.4473
G01 Y244.6584
G01 X38.5622
G01 Y243.1584
G01 X41.4473
G01 Y241.6584
G01 X38.5622
G01 Y240.1584
G01 X41.4473
G01 Y238.6584
G01 X38.5622
G01 Y237.1584
G01 X41.4473
G01 Y235.6584
G01 X38.5622
G01 Y234.1584
G01 X41.4473
G01 X41.6473 Y234.1735
G01 Y232.9455
G01 X38.3622
G01 Y249.0861
G01 X38.3612 Y249.1297
G01 X38.3584 Y249.1732
G01 X38.3536 Y249.2166
G01 X38.3470 Y249.2597
G01 X38.3385 Y249.3025
G01 X38.3281 Y249.3449
G01 X38.3159 Y249.3868
G01 X38.3019 Y249.4281
G01 X38.2861 Y249.4687
G01 X38.2685 Y249.5087
G01 X38.2492 Y249.5478
G01 X38.2282 Y249.5861
G01 X38.2056 Y249.6234
G01 X38.1813 Y249.6596
G01 X38.1555 Y249.6948
G01 X38.1282 Y249.7289
G01 X38.0995 Y249.7617
G01 X38.0693 Y249.7932
G01 X38.0378 Y249.8233
G01 X38.0050 Y249.8521
G01 X37.9710 Y249.8794
G01 X37.9358 Y249.9052
G01 X37.8995 Y249.9295
G01 X37.8622 Y249.9521
G01 X37.8239 Y249.9731
G01 X37.7848 Y249.9924
G01 X37.7449 Y250.0099
G01 X37.7042 Y250.0258
G01 X37.6629 Y250.0398
G01 X37.6210 Y250.0520
G01 X37.5786 Y250.0624
G01 X37.5358 Y250.0709
G01 X37.4927 Y250.0775
G01 X37.4493 Y250.0823
G01 X37.4058 Y250.0851
G01 X37.3622 Y250.0861
G01 X35.8444 Y250.0681
G01 X34.3266 Y250.0625
G01 X32.8087 Y250.0693
G01 X31.2910 Y250.0886
G01 X30.9592 Y250.1109
G01 X30.6307 Y250.1628
G01 X30.3081 Y250.2438
G01 X29.9941 Y250.3533
G01 X29.6910 Y250.4903
G01 X29.4015 Y250.6539
G01 X29.1277 Y250.8427
G01 X28.8718 Y251.0552
G01 X28.6359 Y251.2896
G01 X28.4219 Y251.5442
G01 X28.2315 Y251.8169
G01 X28.0662 Y252.1055
G01 X27.9273 Y252.4077
G01 X27.8160 Y252.7210
G01 X27.7330 Y253.0431
G01 X27.6792 Y253.3713
G01 X52.3302
G01 X52.2692 Y253.0364
G01 X52.1784 Y252.7084
G01 X52.0586 Y252.3897
G01 X51.9107 Y252.0831
G01 X51.7360 Y251.7909
G01 X51.5359 Y251.5156
G01 X51.3119 Y251.2593
G01 X51.0658 Y251.0241
G01 X50.7997 Y250.8118
G01 X50.5156 Y250.6242
G01 X50.2159 Y250.4628
G01 X49.9029 Y250.3289
G01 X49.5793 Y250.2236
G01 X49.2474 Y250.1476
G01 X48.9101 Y250.1017
G01 X48.5701 Y250.0862
G01 X42.6473
G01 X42.6037 Y250.0852
G01 X42.5602 Y250.0824
G01 X42.5168 Y250.0776
G01 X42.4737 Y250.0710
G01 X42.4309 Y250.0625
G01 X42.3885 Y250.0521
G01 X42.3466 Y250.0399
G01 X42.3053 Y250.0258
G01 X42.2647 Y250.0100
G01 X42.2247 Y249.9925
G01 X42.1856 Y249.9732
G01 X42.1473 Y249.9522
G01 X42.1100 Y249.9295
G01 X42.0738 Y249.9053
G01 X42.0386 Y249.8795
G01 X42.0046 Y249.8522
G01 X41.9718 Y249.8234
G01 X41.9402 Y249.7933
G01 X41.9101 Y249.7617
G01 X41.8813 Y249.7289
G01 X41.8540 Y249.6949
G01 X41.8282 Y249.6597
G01 X41.8040 Y249.6235
G01 X41.7813 Y249.5862
G01 X41.7603 Y249.5479
G01 X41.7410 Y249.5088
G01 X41.7235 Y249.4688
G01 X41.7077 Y249.4282
G01 X41.6936 Y249.3869
G01 X41.6814 Y249.3450
G01 X41.6710 Y249.3026
G01 X41.6625 Y249.2598
G01 X41.6559 Y249.2167
G01 X41.6511 Y249.1733
G01 X41.6483 Y249.1298
G01 X41.6473 Y249.0862
G01 Y234.1735
G01 X41.4473 Y234.1584
M107
G00 Z2.0000


;No. 3: Hole 3
G00 X61.8349 Y251.7287 Z2.0000
G00 Z0.5000
G01 Z0.0000 F400
G01 Z-1.8000
M106 S240
G01 X84.7555 F1000
G01 X84.9311 Y251.6295
G01 X84.7462 Y251.3975
G01 X84.5437 Y251.1808
G01 X84.3248 Y250.9805
G01 X84.0909 Y250.7981
G01 X83.8434 Y250.6345
G01 X83.5839 Y250.4907
G01 X83.3140 Y250.3678
G01 X83.0352 Y250.2663
G01 X82.7493 Y250.1870
G01 X82.4582 Y250.1303
G01 X82.1634 Y250.0966
G01 X81.8670 Y250.0861
G01 X64.7396
G01 X64.3976 Y250.0959
G01 X64.0580 Y250.1371
G01 X63.7236 Y250.2092
G01 X63.3973 Y250.3117
G01 X63.0817 Y250.4437
G01 X62.7795 Y250.6041
G01 X62.4934 Y250.7915
G01 X62.2256 Y251.0044
G01 X61.9785 Y251.2410
G01 X61.7541 Y251.4992
G01 X61.5544 Y251.7769
G01 X61.3810 Y252.0718
G01 X61.2353 Y252.3813
G01 X61.1187 Y252.7029
G01 X61.0320 Y253.0338
G01 X60.9761 Y253.3713
G01 X85.6271 Y253.3712
G01 X85.5924 Y253.1366
G01 X85.5422 Y252.9047
G01 X85.4766 Y252.6768
G01 X85.3959 Y252.4537
G01 X85.3006 Y252.2364
G01 X85.1910 Y252.0261
G01 X85.0677 Y251.8234
G01 X84.9311 Y251.6295
G01 X84.7555 Y251.7287
M107
G00 Z2.0000


;No. 4: Hole 4
G00 X84.7555 Y243.1584 Z2.0000
G00 Z0.5000
G01 Z0.0000 F400
G01 Z-1.8000
M106 S240
G01 X61.8349 F1000
G01 X61.6737 Y243.0401
G01 X61.5376 Y243.2371
G01 X61.4146 Y243.4424
G01 X61.3052 Y243.6554
G01 X61.2098 Y243.8750
G01 X61.1289 Y244.1003
G01 X61.0628 Y244.3304
G01 X61.0118 Y244.5643
G01 X60.9761 Y244.8010
G01 X85.6271
G01 X85.5663 Y244.4660
G01 X85.4757 Y244.1377
G01 X85.3561 Y243.8190
G01 X85.2084 Y243.5122
G01 X85.0337 Y243.2199
G01 X84.8336 Y242.9445
G01 X84.6096 Y242.6881
G01 X84.3635 Y242.4528
G01 X84.0973 Y242.2405
G01 X83.8132 Y242.0529
G01 X83.5133 Y241.8916
G01 X83.2003 Y241.7578
G01 X82.8764 Y241.6525
G01 X82.5445 Y241.5768
G01 X82.2071 Y241.5311
G01 X81.8670 Y241.5158
G01 X64.7395
G01 X64.4428 Y241.5209
G01 X64.1475 Y241.5498
G01 X63.8555 Y241.6026
G01 X63.5687 Y241.6787
G01 X63.2890 Y241.7777
G01 X63.0182 Y241.8990
G01 X62.7580 Y242.0417
G01 X62.5102 Y242.2049
G01 X62.2764 Y242.3877
G01 X62.0581 Y242.5887
G01 X61.8568 Y242.8066
G01 X61.6737 Y243.0401
G01 X61.8349 Y243.1584
M107
G00 Z2.0000


;No. 5: Hole 6
G00 X61.8349 Y234.5881 Z2.0000
G00 Z0.5000
G01 Z0.0000 F400
G01 Z-1.8000
M106 S240
G01 X84.7555 F1000
G01 X84.9311 Y234.4889
G01 X84.7462 Y234.2570
G01 X84.5437 Y234.0402
G01 X84.3248 Y233.8400
G01 X84.0909 Y233.6575
G01 X83.8434 Y233.4939
G01 X83.5839 Y233.3502
G01 X83.3140 Y233.2272
G01 X83.0352 Y233.1257
G01 X82.7493 Y233.0464
G01 X82.4582 Y232.9897
G01 X82.1634 Y232.9560
G01 X81.8670 Y232.9455
G01 X64.7395
G01 X64.3975 Y232.9550
G01 X64.0577 Y232.9958
G01 X63.7232 Y233.0677
G01 X63.3967 Y233.1701
G01 X63.0809 Y233.3020
G01 X62.7787 Y233.4623
G01 X62.4924 Y233.6497
G01 X62.2245 Y233.8626
G01 X61.9774 Y234.0993
G01 X61.7530 Y234.3576
G01 X61.5533 Y234.6355
G01 X61.3800 Y234.9305
G01 X61.2345 Y235.2402
G01 X61.1181 Y235.5620
G01 X61.0317 Y235.8931
G01 X60.9761 Y236.2307
G01 X85.6271 Y236.2306
G01 X85.5924 Y235.9960
G01 X85.5422 Y235.7642
G01 X85.4766 Y235.5362
G01 X85.3959 Y235.3131
G01 X85.3006 Y235.0959
G01 X85.1910 Y234.8855
G01 X85.0677 Y234.6829
G01 X84.9311 Y234.4889
G01 X84.7555 Y234.5881
M107
G00 Z2.0000


;No. 6: Hole 5
G00 X94.8688 Y234.1584 Z2.0000
G00 Z0.5000
G01 Z0.0000 F400
G01 Z-1.8000
M106 S240
G01 X118.7558 F1000
G01 Y235.6584
G01 X96.4261
G01 X115.8679
G01 Y237.1584
G01 X118.7558
G01 Y238.6584
G01 X115.8707
G01 Y240.1584
G01 X118.7558
G01 Y241.6584
G01 X115.0369
G01 X118.7558 Y243.1584
G01 X94.4449
G01 Y244.6584
G01 X98.1639
G01 X97.3301
G01 Y246.1584
G01 X94.4449
G01 Y247.6584
G01 X97.3301
G01 X97.3329 Y249.1584
G01 X94.4449
G01 Y250.6584
G01 X116.7688
G01 X118.3334 Y252.1584
G01 X94.4449
G01 X94.2449 Y252.1439
G01 Y253.3713
G01 X118.9258
G01 X118.8648 Y253.0364
G01 X118.7740 Y252.7084
G01 X118.6542 Y252.3897
G01 X118.5063 Y252.0831
G01 X118.3316 Y251.7909
G01 X118.1315 Y251.5156
G01 X117.9075 Y251.2593
G01 X117.6614 Y251.0241
G01 X117.3953 Y250.8118
G01 X117.1112 Y250.6242
G01 X116.8115 Y250.4628
G01 X116.4986 Y250.3289
G01 X116.1749 Y250.2236
G01 X115.8430 Y250.1476
G01 X115.5057 Y250.1017
G01 X115.1657 Y250.0862
G01 X98.5301
G01 X98.4516 Y250.0831
G01 X98.3736 Y250.0738
G01 X98.2966 Y250.0585
G01 X98.2210 Y250.0372
G01 X98.1474 Y250.0100
G01 X98.0761 Y249.9772
G01 X98.0076 Y249.9388
G01 X97.9423 Y249.8952
G01 X97.8806 Y249.8466
G01 X97.8230 Y249.7933
G01 X97.7697 Y249.7356
G01 X97.7210 Y249.6739
G01 X97.6774 Y249.6087
G01 X97.6391 Y249.5401
G01 X97.6062 Y249.4688
G01 X97.5790 Y249.3952
G01 X97.5577 Y249.3196
G01 X97.5424 Y249.2426
G01 X97.5331 Y249.1646
G01 X97.5301 Y249.0862
G01 Y245.8010
G01 X97.5310 Y245.7574
G01 X97.5339 Y245.7138
G01 X97.5386 Y245.6705
G01 X97.5453 Y245.6274
G01 X97.5538 Y245.5846
G01 X97.5641 Y245.5422
G01 X97.5763 Y245.5003
G01 X97.5904 Y245.4590
G01 X97.6062 Y245.4183
G01 X97.6238 Y245.3784
G01 X97.6431 Y245.3393
G01 X97.6640 Y245.3010
G01 X97.6867 Y245.2637
G01 X97.7109 Y245.2274
G01 X97.7367 Y245.1922
G01 X97.7640 Y245.1582
G01 X97.7928 Y245.1254
G01 X97.8230 Y245.0939
G01 X97.8545 Y245.0637
G01 X97.8873 Y245.0350
G01 X97.9213 Y245.0076
G01 X97.9565 Y244.9818
G01 X97.9928 Y244.9576
G01 X98.0301 Y244.9350
G01 X98.0683 Y244.9140
G01 X98.1074 Y244.8947
G01 X98.1474 Y244.8771
G01 X98.1880 Y244.8613
G01 X98.2294 Y244.8473
G01 X98.2712 Y244.8351
G01 X98.3136 Y244.8247
G01 X98.3564 Y244.8162
G01 X98.3995 Y244.8096
G01 X98.4429 Y244.8048
G01 X98.4864 Y244.8020
G01 X98.5301 Y244.8010
G01 X118.9558
G01 Y232.9455
G01 X94.2749
G01 X94.3355 Y233.2806
G01 X94.4260 Y233.6089
G01 X94.5455 Y233.9278
G01 X94.6932 Y234.2346
G01 X94.8678 Y234.5270
G01 X95.0679 Y234.8025
G01 X95.2919 Y235.0590
G01 X95.5380 Y235.2943
G01 X95.8042 Y235.5066
G01 X96.0884 Y235.6942
G01 X96.3883 Y235.8555
G01 X96.7015 Y235.9892
G01 X97.0254 Y236.0944
G01 X97.3574 Y236.1700
G01 X97.6948 Y236.2156
G01 X98.0350 Y236.2307
G01 X114.6707
G01 X114.7143 Y236.2316
G01 X114.7578 Y236.2345
G01 X114.8012 Y236.2392
G01 X114.8443 Y236.2459
G01 X114.8871 Y236.2544
G01 X114.9295 Y236.2648
G01 X114.9714 Y236.2770
G01 X115.0127 Y236.2910
G01 X115.0534 Y236.3068
G01 X115.0933 Y236.3244
G01 X115.1324 Y236.3437
G01 X115.1707 Y236.3647
G01 X115.2080 Y236.3873
G01 X115.2443 Y236.4115
G01 X115.2795 Y236.4373
G01 X115.3135 Y236.4646
G01 X115.3463 Y236.4934
G01 X115.3778 Y236.5236
G01 X115.4080 Y236.5551
G01 X115.4367 Y236.5879
G01 X115.4640 Y236.6219
G01 X115.4898 Y236.6571
G01 X115.5141 Y236.6934
G01 X115.5367 Y236.7307
G01 X115.5577 Y236.7689
G01 X115.5770 Y236.8081
G01 X115.5946 Y236.8480
G01 X115.6104 Y236.8887
G01 X115.6244 Y236.9300
G01 X115.6366 Y236.9719
G01 X115.6470 Y237.0142
G01 X115.6555 Y237.0570
G01 X115.6621 Y237.1002
G01 X115.6669 Y237.1435
G01 X115.6697 Y237.1871
G01 X115.6707 Y237.2307
G01 Y240.5158
G01 X115.6697 Y240.5595
G01 X115.6669 Y240.6030
G01 X115.6621 Y240.6464
G01 X115.6555 Y240.6895
G01 X115.6470 Y240.7323
G01 X115.6366 Y240.7747
G01 X115.6244 Y240.8165
G01 X115.6104 Y240.8579
G01 X115.5946 Y240.8985
G01 X115.5770 Y240.9385
G01 X115.5577 Y240.9776
G01 X115.5367 Y241.0158
G01 X115.5141 Y241.0531
G01 X115.4898 Y241.0894
G01 X115.4640 Y241.1246
G01 X115.4367 Y241.1586
G01 X115.4080 Y241.1914
G01 X115.3778 Y241.2230
G01 X115.3463 Y241.2531
G01 X115.3135 Y241.2819
G01 X115.2795 Y241.3092
G01 X115.2443 Y241.3350
G01 X115.2080 Y241.3592
G01 X115.1707 Y241.3819
G01 X115.1324 Y241.4029
G01 X115.0933 Y241.4222
G01 X115.0534 Y241.4397
G01 X115.0127 Y241.4555
G01 X114.9714 Y241.4696
G01 X114.9295 Y241.4818
G01 X114.8871 Y241.4921
G01 X114.8443 Y241.5007
G01 X114.8012 Y241.5073
G01 X114.7578 Y241.5120
G01 X114.7143 Y241.5149
G01 X114.6707 Y241.5158
G01 X94.2449
G01 Y252.1439
G01 X94.4449 Y252.1584
M107
G00 Z2.0000


;No. 7: Hole 7
G00 X127.7418 Y252.1584 Z2.0000
G00 Z0.5000
G01 Z0.0000 F400
G01 Z-1.8000
M106 S240
G01 X130.6269 F1000
G01 Y250.6584
G01 X127.7418
G01 Y249.1584
G01 X130.6269
G01 Y247.6584
G01 X127.7418
G01 Y246.1584
G01 X130.6269
G01 Y244.6584
G01 X127.7418
G01 Y243.1584
G01 X130.6269
G01 Y241.6584
G01 X127.7418
G01 Y240.1584
G01 X130.6269
G01 Y238.6584
G01 X127.7418
G01 Y237.1584
G01 X130.6298
G01 X127.7418 Y235.6584
G01 X151.8999
G01 X150.9644 Y234.1584
G01 X127.7418
G01 X127.5418 Y234.1738
G01 Y253.3713
G01 X130.8269
G01 Y237.2307
G01 X130.8301 Y237.1517
G01 X130.8394 Y237.0733
G01 X130.8549 Y236.9958
G01 X130.8765 Y236.9198
G01 X130.9040 Y236.8457
G01 X130.9373 Y236.7740
G01 X130.9761 Y236.7052
G01 X131.0203 Y236.6397
G01 X131.0695 Y236.5778
G01 X131.1234 Y236.5200
G01 X131.1817 Y236.4667
G01 X131.2440 Y236.4181
G01 X131.3100 Y236.3747
G01 X131.3792 Y236.3365
G01 X131.4512 Y236.3039
G01 X131.5255 Y236.2772
G01 X131.6018 Y236.2563
G01 X131.6794 Y236.2416
G01 X131.7580 Y236.2330
G01 X131.8369 Y236.2307
G01 X152.2227
G01 X152.1619 Y235.8957
G01 X152.0713 Y235.5675
G01 X151.9517 Y235.2487
G01 X151.8040 Y234.9419
G01 X151.6294 Y234.6497
G01 X151.4292 Y234.3742
G01 X151.2052 Y234.1178
G01 X150.9591 Y233.8825
G01 X150.6929 Y233.6702
G01 X150.4088 Y233.4827
G01 X150.1089 Y233.3213
G01 X149.7959 Y233.1875
G01 X149.4720 Y233.0823
G01 X149.1401 Y233.0065
G01 X148.8027 Y232.9608
G01 X148.4626 Y232.9455
G01 X127.5418
G01 Y234.1738
G01 X127.7418 Y234.1584
M107
G00 Z2.0000


;No. 8: Hole 9
G00 X161.0406 Y234.3733 Z2.0000
G00 Z0.5000
G01 Z0.0000 F400
G01 Z-1.8000
M106 S240
G01 X163.9258 F1000
G01 Y235.8733
G01 X161.0406
G01 Y237.3733
G01 X163.9258
G01 Y238.8733
G01 X161.0406
G01 Y240.3733
G01 X163.9258
G01 X161.0406 Y241.8733
G01 X185.3516
G01 Y240.3733
G01 X182.4664
G01 Y238.8733
G01 X185.3516
G01 Y237.3733
G01 X182.4664
G01 Y235.8733
G01 X185.3516
G01 Y234.3733
G01 X182.4664
M107
G00 Z2.0000
G00 X185.3516 Y241.8733
G00 Z0.5000
G01 Z-1.8000 F400
M106 S240
G01 Y243.3733 F1000
G01 X161.0406
G01 X160.8406 Y243.3613
G01 Y244.8010
G01 X185.5516
G01 Y232.9455
G01 X182.2664
G01 Y240.5158
G01 X182.2654 Y240.5595
G01 X182.2626 Y240.6030
G01 X182.2578 Y240.6464
G01 X182.2512 Y240.6895
G01 X182.2427 Y240.7323
G01 X182.2323 Y240.7747
G01 X182.2201 Y240.8165
G01 X182.2061 Y240.8579
G01 X182.1903 Y240.8985
G01 X182.1727 Y240.9385
G01 X182.1534 Y240.9776
G01 X182.1324 Y241.0158
G01 X182.1098 Y241.0531
G01 X182.0855 Y241.0894
G01 X182.0597 Y241.1246
G01 X182.0324 Y241.1586
G01 X182.0037 Y241.1914
G01 X181.9735 Y241.2230
G01 X181.9420 Y241.2531
G01 X181.9092 Y241.2819
G01 X181.8752 Y241.3092
G01 X181.8400 Y241.3350
G01 X181.8037 Y241.3592
G01 X181.7664 Y241.3819
G01 X181.7281 Y241.4029
G01 X181.6890 Y241.4222
G01 X181.6491 Y241.4397
G01 X181.6084 Y241.4555
G01 X181.5671 Y241.4696
G01 X181.5252 Y241.4818
G01 X181.4828 Y241.4921
G01 X181.4400 Y241.5007
G01 X181.3969 Y241.5073
G01 X181.3535 Y241.5120
G01 X181.3100 Y241.5149
G01 X181.2664 Y241.5158
G01 X165.1258
G01 X165.0821 Y241.5149
G01 X165.0386 Y241.5120
G01 X164.9952 Y241.5073
G01 X164.9521 Y241.5007
G01 X164.9093 Y241.4921
G01 X164.8669 Y241.4818
G01 X164.8251 Y241.4696
G01 X164.7837 Y241.4555
G01 X164.7431 Y241.4397
G01 X164.7031 Y241.4222
G01 X164.6640 Y241.4029
G01 X164.6258 Y241.3819
G01 X164.5885 Y241.3592
G01 X164.5522 Y241.3350
G01 X164.5170 Y241.3092
G01 X164.4830 Y241.2819
G01 X164.4502 Y241.2531
G01 X164.4187 Y241.2230
G01 X164.3885 Y241.1914
G01 X164.3597 Y241.1586
G01 X164.3324 Y241.1246
G01 X164.3066 Y241.0894
G01 X164.2824 Y241.0531
G01 X164.2597 Y241.0158
G01 X164.2388 Y240.9776
G01 X164.2195 Y240.9385
G01 X164.2019 Y240.8985
G01 X164.1861 Y240.8579
G01 X164.1720 Y240.8165
G01 X164.1598 Y240.7747
G01 X164.1495 Y240.7323
G01 X164.1410 Y240.6895
G01 X164.1343 Y240.6464
G01 X164.1296 Y240.6030
G01 X164.1267 Y240.5595
G01 X164.1258 Y240.5158
G01 Y232.9455
G01 X160.8406
G01 Y243.3613
G01 X161.0406 Y243.3733
M107
G00 Z2.0000


;No. 9: Helical drill 2
G00 X185.2458 Y264.6714 Z2.0000
G00 Z0.5000
M106 S240
G01 X185.2420 Y264.5842 Z0.4774 F400
G01 X185.2306 Y264.4977 Z0.4549
G01 X185.2117 Y264.4126 Z0.4323
G01 X185.1855 Y264.3294 Z0.4097
G01 X185.1521 Y264.2488 Z0.3872
G01 X185.1118 Y264.1714 Z0.3646
G01 X185.0649 Y264.0978 Z0.3420
G01 X185.0118 Y264.0286 Z0.3194
G01 X184.9529 Y263.9643 Z0.2969
G01 X184.8886 Y263.9053 Z0.2743
G01 X184.8194 Y263.8522 Z0.2517
G01 X184.7458 Y263.8054 Z0.2292
G01 X184.6684 Y263.7651 Z0.2066
G01 X184.5878 Y263.7317 Z0.1840
G01 X184.5046 Y263.7055 Z0.1615
G01 X184.4194 Y263.6866 Z0.1389
G01 X184.3329 Y263.6752 Z0.1163
G01 X184.2458 Y263.6714 Z0.0938
G01 X184.1586 Y263.6752 Z0.0712
G01 X184.0721 Y263.6866 Z0.0486
G01 X183.9870 Y263.7055 Z0.0260
G01 X183.9038 Y263.7317 Z0.0035
G01 X183.8232 Y263.7651 Z-0.0191
G01 X183.7458 Y263.8054 Z-0.0417
G01 X183.7051 Y263.8301 Z-0.0540
G01 X183.6657 Y263.8568 Z-0.0663
G01 X183.6276 Y263.8853 Z-0.0786
G01 X183.5909 Y263.9156 Z-0.0909
G01 X183.5557 Y263.9477 Z-0.1032
G01 X183.5220 Y263.9813 Z-0.1155
G01 X183.4900 Y264.0165 Z-0.1278
G01 X183.4597 Y264.0532 Z-0.1402
G01 X183.4312 Y264.0913 Z-0.1525
G01 X183.4045 Y264.1307 Z-0.1648
G01 X183.3797 Y264.1714 Z-0.1771
G01 X183.3569 Y264.2132 Z-0.1894
G01 X183.3361 Y264.2560 Z-0.2017
G01 X183.3174 Y264.2997 Z-0.2140
G01 X183.3008 Y264.3443 Z-0.2263
G01 X183.2863 Y264.3897 Z-0.2386
G01 X183.2740 Y264.4356 Z-0.2509
G01 X183.2638 Y264.4821 Z-0.2633
G01 X183.2560 Y264.5291 Z-0.2756
G01 X183.2503 Y264.5763 Z-0.2879
G01 X183.2469 Y264.6238 Z-0.3002
G01 X183.2458 Y264.6714 Z-0.3125
G01 X183.2469 Y264.7190 Z-0.3248
G01 X183.2503 Y264.7664 Z-0.3371
G01 X183.2560 Y264.8137 Z-0.3494
G01 X183.2638 Y264.8606 Z-0.3617
G01 X183.2740 Y264.9071 Z-0.3741
G01 X183.2863 Y264.9531 Z-0.3864
G01 X183.3008 Y264.9985 Z-0.3987
G01 X183.3174 Y265.0430 Z-0.4110
G01 X183.3361 Y265.0868 Z-0.4233
G01 X183.3569 Y265.1296 Z-0.4356
G01 X183.3797 Y265.1714 Z-0.4479
G01 X183.4045 Y265.2120 Z-0.4602
G01 X183.4312 Y265.2514 Z-0.4725
G01 X183.4597 Y265.2895 Z-0.4848
G01 X183.4900 Y265.3262 Z-0.4972
G01 X183.5220 Y265.3615 Z-0.5095
G01 X183.5557 Y265.3951 Z-0.5218
G01 X183.5909 Y265.4271 Z-0.5341
G01 X183.6276 Y265.4574 Z-0.5464
G01 X183.6657 Y265.4860 Z-0.5587
G01 X183.7051 Y265.5126 Z-0.5710
G01 X183.7458 Y265.5374 Z-0.5833
G01 X183.7875 Y265.5602 Z-0.5956
G01 X183.8304 Y265.5810 Z-0.6080
G01 X183.8741 Y265.5998 Z-0.6203
G01 X183.9187 Y265.6164 Z-0.6326
G01 X183.9640 Y265.6309 Z-0.6449
G01 X184.0100 Y265.6432 Z-0.6572
G01 X184.0565 Y265.6533 Z-0.6695
G01 X184.1035 Y265.6612 Z-0.6818
G01 X184.1507 Y265.6669 Z-0.6941
G01 X184.1982 Y265.6703 Z-0.7064
G01 X184.2458 Y265.6714 Z-0.7188
G01 X184.2934 Y265.6703 Z-0.7311
G01 X184.3408 Y265.6669 Z-0.7434
G01 X184.3881 Y265.6612 Z-0.7557
G01 X184.4350 Y265.6533 Z-0.7680
G01 X184.4815 Y265.6432 Z-0.7803
G01 X184.5275 Y265.6309 Z-0.7926
G01 X184.5728 Y265.6164 Z-0.8049
G01 X184.6174 Y265.5998 Z-0.8172
G01 X184.6612 Y265.5810 Z-0.8295
G01 X184.7040 Y265.5602 Z-0.8419
G01 X184.7458 Y265.5374 Z-0.8542
G01 X184.7864 Y265.5126 Z-0.8665
G01 X184.8258 Y265.4860 Z-0.8788
G01 X184.8639 Y265.4574 Z-0.8911
G01 X184.9006 Y265.4271 Z-0.9034
G01 X184.9359 Y265.3951 Z-0.9157
G01 X184.9695 Y265.3615 Z-0.9280
G01 X185.0015 Y265.3262 Z-0.9403
G01 X185.0318 Y265.2895 Z-0.9527
G01 X185.0604 Y265.2514 Z-0.9650
G01 X185.0870 Y265.2120 Z-0.9773
G01 X185.1118 Y265.1714 Z-0.9896
G01 X185.1346 Y265.1296 Z-1.0019
G01 X185.1554 Y265.0868 Z-1.0142
G01 X185.1741 Y265.0430 Z-1.0265
G01 X185.1908 Y264.9985 Z-1.0388
G01 X185.2053 Y264.9531 Z-1.0511
G01 X185.2176 Y264.9071 Z-1.0634
G01 X185.2277 Y264.8606 Z-1.0758
G01 X185.2356 Y264.8137 Z-1.0881
G01 X185.2412 Y264.7664 Z-1.1004
G01 X185.2446 Y264.7190 Z-1.1127
G01 X185.2458 Y264.6714 Z-1.1250
G01 X185.2420 Y264.5842
G01 X185.2306 Y264.4977
G01 X185.2117 Y264.4126
G01 X185.1855 Y264.3294
G01 X185.1521 Y264.2488
G01 X185.1118 Y264.1714
G01 X185.0649 Y264.0978
G01 X185.0118 Y264.0286
G01 X184.9529 Y263.9643
G01 X184.8886 Y263.9053
G01 X184.8194 Y263.8522
G01 X184.7458 Y263.8054
G01 X184.6684 Y263.7651
G01 X184.5878 Y263.7317
G01 X184.5046 Y263.7055
G01 X184.4194 Y263.6866
G01 X184.3329 Y263.6752
G01 X184.2458 Y263.6714
G01 X184.1586 Y263.6752
G01 X184.0721 Y263.6866
G01 X183.9870 Y263.7055
G01 X183.9038 Y263.7317
G01 X183.8232 Y263.7651
G01 X183.7458 Y263.8054
G01 X183.7051 Y263.8301
G01 X183.6657 Y263.8568
G01 X183.6276 Y263.8853
G01 X183.5909 Y263.9156
G01 X183.5557 Y263.9477
G01 X183.5220 Y263.9813
G01 X183.4900 Y264.0165
G01 X183.4597 Y264.0532
G01 X183.4312 Y264.0913
G01 X183.4045 Y264.1307
G01 X183.3797 Y264.1714
G01 X183.3569 Y264.2132
G01 X183.3361 Y264.2560
G01 X183.3174 Y264.2997
G01 X183.3008 Y264.3443
G01 X183.2863 Y264.3897
G01 X183.2740 Y264.4356
G01 X183.2638 Y264.4821
G01 X183.2560 Y264.5291
G01 X183.2503 Y264.5763
G01 X183.2469 Y264.6238
G01 X183.2458 Y264.6714
G01 X183.2469 Y264.7190
G01 X183.2503 Y264.7664
G01 X183.2560 Y264.8137
G01 X183.2638 Y264.8606
G01 X183.2740 Y264.9071
G01 X183.2863 Y264.9531
G01 X183.3008 Y264.9985
G01 X183.3174 Y265.0430
G01 X183.3361 Y265.0868
G01 X183.3569 Y265.1296
G01 X183.3797 Y265.1714
G01 X183.4045 Y265.2120
G01 X183.4312 Y265.2514
G01 X183.4597 Y265.2895
G01 X183.4900 Y265.3262
G01 X183.5220 Y265.3615
G01 X183.5557 Y265.3951
G01 X183.5909 Y265.4271
G01 X183.6276 Y265.4574
G01 X183.6657 Y265.4860
G01 X183.7051 Y265.5126
G01 X183.7458 Y265.5374
G01 X183.7875 Y265.5602
G01 X183.8304 Y265.5810
G01 X183.8741 Y265.5998
G01 X183.9187 Y265.6164
G01 X183.9640 Y265.6309
G01 X184.0100 Y265.6432
G01 X184.0565 Y265.6533
G01 X184.1035 Y265.6612
G01 X184.1507 Y265.6669
G01 X184.1982 Y265.6703
G01 X184.2458 Y265.6714
G01 X184.2934 Y265.6703
G01 X184.3408 Y265.6669
G01 X184.3881 Y265.6612
G01 X184.4350 Y265.6533
G01 X184.4815 Y265.6432
G01 X184.5275 Y265.6309
G01 X184.5728 Y265.6164
G01 X184.6174 Y265.5998
G01 X184.6612 Y265.5810
G01 X184.7040 Y265.5602
G01 X184.7458 Y265.5374
G01 X184.7864 Y265.5126
G01 X184.8258 Y265.4860
G01 X184.8639 Y265.4574
G01 X184.9006 Y265.4271
G01 X184.9359 Y265.3951
G01 X184.9695 Y265.3615
G01 X185.0015 Y265.3262
G01 X185.0318 Y265.2895
G01 X185.0604 Y265.2514
G01 X185.0870 Y265.2120
G01 X185.1118 Y265.1714
G01 X185.1346 Y265.1296
G01 X185.1554 Y265.0868
G01 X185.1741 Y265.0430
G01 X185.1908 Y264.9985
G01 X185.2053 Y264.9531
G01 X185.2176 Y264.9071
G01 X185.2277 Y264.8606
G01 X185.2356 Y264.8137
G01 X185.2412 Y264.7664
G01 X185.2446 Y264.7190
G01 X185.2458 Y264.6714
G01 X185.2565 Y264.6198 F1000
G01 X185.2646 Y264.5677
G01 X185.2700 Y264.5153
G01 X185.2727 Y264.4626
G01 X185.2726 Y264.4099
G01 X185.2699 Y264.3573
G01 X185.2644 Y264.3049
G01 X185.2563 Y264.2528
G01 X185.2446 Y264.1968
G01 X185.2300 Y264.1415
G01 X185.2126 Y264.0870
G01 X185.1925 Y264.0335
G01 X185.1696 Y263.9811
G01 X185.1441 Y263.9299
G01 X185.1161 Y263.8800
G01 X185.0855 Y263.8317
G01 X185.0499 Y263.7813
G01 X185.0117 Y263.7328
G01 X184.9712 Y263.6863
G01 X184.9283 Y263.6419
G01 X184.8833 Y263.5997
G01 X184.8361 Y263.5599
G01 X184.7870 Y263.5225
G01 X184.7361 Y263.4877
G01 X184.6796 Y263.4531
G01 X184.6214 Y263.4214
G01 X184.5617 Y263.3927
G01 X184.5006 Y263.3671
G01 X184.4384 Y263.3446
G01 X184.3750 Y263.3253
G01 X184.3108 Y263.3092
G01 X184.2458 Y263.2964
G01 X184.1757 Y263.2862
G01 X184.1053 Y263.2796
G01 X184.0346 Y263.2765
G01 X183.9638 Y263.2770
G01 X183.8932 Y263.2810
G01 X183.8228 Y263.2886
G01 X183.7529 Y263.2998
G01 X183.6837 Y263.3144
G01 X183.6156 Y263.3405
G01 X183.5488 Y263.3698
G01 X183.4835 Y263.4024
G01 X183.4199 Y263.4381
G01 X183.3582 Y263.4770
G01 X183.2984 Y263.5188
G01 X183.2408 Y263.5635
G01 X183.1854 Y263.6110
G01 X183.1347 Y263.6643
G01 X183.0866 Y263.7201
G01 X183.0413 Y263.7781
G01 X182.9989 Y263.8383
G01 X182.9596 Y263.9005
G01 X182.9233 Y263.9645
G01 X182.8902 Y264.0302
G01 X182.8604 Y264.0975
G01 X182.8339 Y264.1662
G01 X182.8108 Y264.2361
G01 X182.7912 Y264.3070
G01 X182.7750 Y264.3788
G01 X182.7624 Y264.4514
G01 X182.7534 Y264.5244
G01 X182.7480 Y264.5978
G01 X182.7462 Y264.6714
G01 X182.7480 Y264.7450
G01 X182.7534 Y264.8184
G01 X182.7624 Y264.8914
G01 X182.7750 Y264.9639
G01 X182.7912 Y265.0357
G01 X182.8108 Y265.1067
G01 X182.8339 Y265.1766
G01 X182.8604 Y265.2452
G01 X182.8902 Y265.3125
G01 X182.9233 Y265.3783
G01 X182.9596 Y265.4423
G01 X182.9989 Y265.5045
G01 X183.0413 Y265.5647
G01 X183.0866 Y265.6227
G01 X183.1347 Y265.6784
G01 X183.1854 Y265.7317
G01 X183.2387 Y265.7825
G01 X183.2945 Y265.8306
G01 X183.3525 Y265.8758
G01 X183.4127 Y265.9182
G01 X183.4748 Y265.9576
G01 X183.5389 Y265.9939
G01 X183.6046 Y266.0270
G01 X183.6719 Y266.0568
G01 X183.7406 Y266.0833
G01 X183.8105 Y266.1064
G01 X183.8814 Y266.1260
G01 X183.9532 Y266.1421
G01 X184.0257 Y266.1547
G01 X184.0988 Y266.1637
G01 X184.1722 Y266.1691
G01 X184.2458 Y266.1709
G01 X184.3194 Y266.1691
G01 X184.3928 Y266.1637
G01 X184.4658 Y266.1547
G01 X184.5383 Y266.1421
G01 X184.6101 Y266.1260
G01 X184.6811 Y266.1064
G01 X184.7510 Y266.0833
G01 X184.8196 Y266.0568
G01 X184.8869 Y266.0270
G01 X184.9527 Y265.9939
G01 X185.0167 Y265.9576
G01 X185.0789 Y265.9182
G01 X185.1391 Y265.8758
G01 X185.1971 Y265.8306
G01 X185.2528 Y265.7825
G01 X185.3061 Y265.7317
G01 X185.3569 Y265.6784
G01 X185.4049 Y265.6227
G01 X185.4502 Y265.5647
G01 X185.4926 Y265.5045
G01 X185.5320 Y265.4423
G01 X185.5683 Y265.3783
G01 X185.6014 Y265.3125
G01 X185.6312 Y265.2452
G01 X185.6577 Y265.1766
G01 X185.6808 Y265.1067
G01 X185.7004 Y265.0357
G01 X185.7165 Y264.9639
G01 X185.7291 Y264.8914
G01 X185.7381 Y264.8184
G01 X185.7435 Y264.7450
G01 X185.7453 Y264.6714
G01 X185.7411 Y264.5593
G01 X185.7286 Y264.4479
G01 X185.7077 Y264.3377
G01 X185.6787 Y264.2294
G01 X185.6417 Y264.1235
G01 X185.5968 Y264.0208
G01 X185.5444 Y263.9216
G01 X185.4848 Y263.8267
G01 X185.4182 Y263.7364
G01 X185.3450 Y263.6514
G01 X185.2657 Y263.5721
G01 X185.1807 Y263.4990
G01 X185.0905 Y263.4324
G01 X184.9956 Y263.3727
G01 X184.8964 Y263.3203
G01 X184.7936 Y263.2755
G01 X184.6878 Y263.2384
G01 X184.5795 Y263.2094
G01 X184.4693 Y263.1886
G01 X184.3578 Y263.1760
G01 X184.2458 Y263.1718
G01 X184.1337 Y263.1760
G01 X184.0223 Y263.1886
G01 X183.9121 Y263.2094
G01 X183.8038 Y263.2384
G01 X183.6979 Y263.2755
G01 X183.5951 Y263.3203
G01 X183.4960 Y263.3727
G01 X183.4010 Y263.4324
G01 X183.3108 Y263.4990
G01 X183.2258 Y263.5721
G01 X183.1465 Y263.6514
G01 X183.0734 Y263.7364
G01 X183.0068 Y263.8267
G01 X182.9471 Y263.9216
G01 X182.8947 Y264.0208
G01 X182.8499 Y264.1235
G01 X182.8128 Y264.2294
G01 X182.7838 Y264.3377
G01 X182.7630 Y264.4479
G01 X182.7504 Y264.5593
G01 X182.7462 Y264.6714
G01 X182.7504 Y264.7834
G01 X182.7630 Y264.8949
G01 X182.7838 Y265.0051
G01 X182.8128 Y265.1134
G01 X182.8499 Y265.2192
G01 X182.8947 Y265.3220
G01 X182.9471 Y265.4212
G01 X183.0068 Y265.5161
G01 X183.0734 Y265.6063
G01 X183.1465 Y265.6913
G01 X183.2258 Y265.7706
G01 X183.3108 Y265.8438
G01 X183.4010 Y265.9104
G01 X183.4960 Y265.9700
G01 X183.5951 Y266.0224
G01 X183.6979 Y266.0673
G01 X183.8038 Y266.1043
G01 X183.9121 Y266.1333
G01 X184.0223 Y266.1542
G01 X184.1337 Y266.1668
G01 X184.2458 Y266.1709
G01 X184.3578 Y266.1668
G01 X184.4693 Y266.1542
G01 X184.5795 Y266.1333
G01 X184.6878 Y266.1043
G01 X184.7936 Y266.0673
G01 X184.8964 Y266.0224
G01 X184.9956 Y265.9700
G01 X185.0905 Y265.9104
G01 X185.1807 Y265.8438
G01 X185.2657 Y265.7706
G01 X185.3450 Y265.6913
G01 X185.4182 Y265.6063
G01 X185.4848 Y265.5161
G01 X185.5444 Y265.4212
G01 X185.5968 Y265.3220
G01 X185.6417 Y265.2192
G01 X185.6787 Y265.1134
G01 X185.7077 Y265.0051
G01 X185.7286 Y264.8949
G01 X185.7411 Y264.7834
G01 X185.7453 Y264.6714
G01 X185.7415 Y264.5733
G01 X185.7299 Y264.4759
G01 X185.7108 Y264.3796
G01 X185.6842 Y264.2852
G01 X185.6502 Y264.1931
G01 X185.6091 Y264.1040
G01 X185.5612 Y264.0184
G01 X185.5066 Y263.9368
G01 X185.4459 Y263.8597
G01 X185.3793 Y263.7877
G01 X185.3072 Y263.7210
G01 X185.2302 Y263.6603
G01 X185.1486 Y263.6058
G01 X185.0629 Y263.5578
G01 X184.9738 Y263.5167
G01 X184.8818 Y263.4828
G01 X184.7873 Y263.4561
G01 X184.6911 Y263.4370
G01 X184.5936 Y263.4255
G01 X184.4956 Y263.4216
G01 X184.3975 Y263.4255
G01 X184.3000 Y263.4370
G01 X184.2038 Y263.4561
G01 X184.1094 Y263.4828
G01 X184.0173 Y263.5167
G01 X183.9282 Y263.5578
G01 X183.8425 Y263.6058
G01 X183.7610 Y263.6603
G01 X183.6839 Y263.7210
G01 X183.6118 Y263.7877
G01 X183.5452 Y263.8597
G01 X183.4845 Y263.9368
G01 X183.4299 Y264.0184
G01 X183.3820 Y264.1040
G01 X183.3409 Y264.1931
G01 X183.3069 Y264.2852
G01 X183.2803 Y264.3796
G01 X183.2612 Y264.4759
G01 X183.2496 Y264.5733
G01 X183.2458 Y264.6714
G01 X183.2496 Y264.7585
G01 X183.2610 Y264.8450
G01 X183.2798 Y264.9302
G01 X183.3061 Y265.0134
G01 X183.3395 Y265.0940
G01 X183.3797 Y265.1714
G01 X183.4266 Y265.2450
G01 X183.4797 Y265.3142
G01 X183.5387 Y265.3785
G01 X183.6030 Y265.4374
G01 X183.6722 Y265.4905
G01 X183.7458 Y265.5374
G01 X183.8232 Y265.5777
G01 X183.9038 Y265.6111
G01 X183.9870 Y265.6373
G01 X184.0721 Y265.6562
G01 X184.1586 Y265.6676
G01 X184.2458 Y265.6714
G01 X184.3329 Y265.6676
G01 X184.4194 Y265.6562
G01 X184.5046 Y265.6373
G01 X184.5878 Y265.6111
G01 X184.6684 Y265.5777
G01 X184.7458 Y265.5374
G01 X184.8194 Y265.4905
G01 X184.8886 Y265.4374
G01 X184.9529 Y265.3785
G01 X185.0118 Y265.3142
G01 X185.0649 Y265.2450
G01 X185.1118 Y265.1714
G01 X185.1521 Y265.0940
G01 X185.1855 Y265.0134
G01 X185.2117 Y264.9302
G01 X185.2306 Y264.8450
G01 X185.2420 Y264.7585
G01 X185.2458 Y264.6714
M107
M106 S240
G01 X185.2420 Y264.5842 Z-1.1476 F400
G01 X185.2306 Y264.4977 Z-1.1701
G01 X185.2117 Y264.4126 Z-1.1927
G01 X185.1855 Y264.3294 Z-1.2153
G01 X185.1521 Y264.2488 Z-1.2378
G01 X185.1118 Y264.1714 Z-1.2604
G01 X185.0649 Y264.0978 Z-1.2830
G01 X185.0118 Y264.0286 Z-1.3056
G01 X184.9529 Y263.9643 Z-1.3281
G01 X184.8886 Y263.9053 Z-1.3507
G01 X184.8194 Y263.8522 Z-1.3733
G01 X184.7458 Y263.8054 Z-1.3958
G01 X184.6684 Y263.7651 Z-1.4184
G01 X184.5878 Y263.7317 Z-1.4410
G01 X184.5046 Y263.7055 Z-1.4635
G01 X184.4194 Y263.6866 Z-1.4861
G01 X184.3329 Y263.6752 Z-1.5087
G01 X184.2458 Y263.6714 Z-1.5313
G01 X184.1586 Y263.6752 Z-1.5538
G01 X184.0721 Y263.6866 Z-1.5764
G01 X183.9870 Y263.7055 Z-1.5990
G01 X183.9038 Y263.7317 Z-1.6215
G01 X183.8232 Y263.7651 Z-1.6441
G01 X183.7458 Y263.8054 Z-1.6667
G01 X183.7051 Y263.8301 Z-1.6790
G01 X183.6657 Y263.8568 Z-1.6913
G01 X183.6276 Y263.8853 Z-1.7036
G01 X183.5909 Y263.9156 Z-1.7159
G01 X183.5557 Y263.9477 Z-1.7282
G01 X183.5220 Y263.9813 Z-1.7405
G01 X183.4900 Y264.0165 Z-1.7528
G01 X183.4597 Y264.0532 Z-1.7652
G01 X183.4312 Y264.0913 Z-1.7775
G01 X183.4045 Y264.1307 Z-1.7898
G01 X183.3797 Y264.1714 Z-1.8021
G01 X183.3569 Y264.2132 Z-1.8144
G01 X183.3361 Y264.2560 Z-1.8267
G01 X183.3174 Y264.2997 Z-1.8390
G01 X183.3008 Y264.3443 Z-1.8513
G01 X183.2863 Y264.3897 Z-1.8636
G01 X183.2740 Y264.4356 Z-1.8759
G01 X183.2638 Y264.4821 Z-1.8883
G01 X183.2560 Y264.5291 Z-1.9006
G01 X183.2503 Y264.5763 Z-1.9129
G01 X183.2469 Y264.6238 Z-1.9252
G01 X183.2458 Y264.6714 Z-1.9375
G01 X183.2469 Y264.7190 Z-1.9498
G01 X183.2503 Y264.7664 Z-1.9621
G01 X183.2560 Y264.8137 Z-1.9744
G01 X183.2638 Y264.8606 Z-1.9867
G01 X183.2740 Y264.9071 Z-1.9991
G01 X183.2863 Y264.9531 Z-2.0114
G01 X183.3008 Y264.9985 Z-2.0237
G01 X183.3174 Y265.0430 Z-2.0360
G01 X183.3361 Y265.0868 Z-2.0483
G01 X183.3569 Y265.1296 Z-2.0606
G01 X183.3797 Y265.1714 Z-2.0729
G01 X183.4045 Y265.2120 Z-2.0852
G01 X183.4312 Y265.2514 Z-2.0975
G01 X183.4597 Y265.2895 Z-2.1098
G01 X183.4900 Y265.3262 Z-2.1222
G01 X183.5220 Y265.3615 Z-2.1345
G01 X183.5557 Y265.3951 Z-2.1468
G01 X183.5909 Y265.4271 Z-2.1591
G01 X183.6276 Y265.4574 Z-2.1714
G01 X183.6657 Y265.4860 Z-2.1837
G01 X183.7051 Y265.5126 Z-2.1960
G01 X183.7458 Y265.5374 Z-2.2083
G01 X183.7875 Y265.5602 Z-2.2206
G01 X183.8304 Y265.5810 Z-2.2330
G01 X183.8741 Y265.5998 Z-2.2453
G01 X183.9187 Y265.6164 Z-2.2576
G01 X183.9640 Y265.6309 Z-2.2699
G01 X184.0100 Y265.6432 Z-2.2822
G01 X184.0565 Y265.6533 Z-2.2945
G01 X184.1035 Y265.6612 Z-2.3068
G01 X184.1507 Y265.6669 Z-2.3191
G01 X184.1982 Y265.6703 Z-2.3314
G01 X184.2458 Y265.6714 Z-2.3438
G01 X184.2934 Y265.6703 Z-2.3561
G01 X184.3408 Y265.6669 Z-2.3684
G01 X184.3881 Y265.6612 Z-2.3807
G01 X184.4350 Y265.6533 Z-2.3930
G01 X184.4815 Y265.6432 Z-2.4053
G01 X184.5275 Y265.6309 Z-2.4176
G01 X184.5728 Y265.6164 Z-2.4299
G01 X184.6174 Y265.5998 Z-2.4422
G01 X184.6612 Y265.5810 Z-2.4545
G01 X184.7040 Y265.5602 Z-2.4669
G01 X184.7458 Y265.5374 Z-2.4792
G01 X184.7864 Y265.5126 Z-2.4915
G01 X184.8258 Y265.4860 Z-2.5038
G01 X184.8639 Y265.4574 Z-2.5161
G01 X184.9006 Y265.4271 Z-2.5284
G01 X184.9359 Y265.3951 Z-2.5407
G01 X184.9695 Y265.3615 Z-2.5530
G01 X185.0015 Y265.3262 Z-2.5653
G01 X185.0318 Y265.2895 Z-2.5777
G01 X185.0604 Y265.2514 Z-2.5900
G01 X185.0870 Y265.2120 Z-2.6023
G01 X185.1118 Y265.1714 Z-2.6146
G01 X185.1346 Y265.1296 Z-2.6269
G01 X185.1554 Y265.0868 Z-2.6392
G01 X185.1741 Y265.0430 Z-2.6515
G01 X185.1908 Y264.9985 Z-2.6638
G01 X185.2053 Y264.9531 Z-2.6761
G01 X185.2176 Y264.9071 Z-2.6884
G01 X185.2277 Y264.8606 Z-2.7008
G01 X185.2356 Y264.8137 Z-2.7131
G01 X185.2412 Y264.7664 Z-2.7254
G01 X185.2446 Y264.7190 Z-2.7377
G01 X185.2458 Y264.6714 Z-2.7500
G01 X185.2420 Y264.5842
G01 X185.2306 Y264.4977
G01 X185.2117 Y264.4126
G01 X185.1855 Y264.3294
G01 X185.1521 Y264.2488
G01 X185.1118 Y264.1714
G01 X185.0649 Y264.0978
G01 X185.0118 Y264.0286
G01 X184.9529 Y263.9643
G01 X184.8886 Y263.9053
G01 X184.8194 Y263.8522
G01 X184.7458 Y263.8054
G01 X184.6684 Y263.7651
G01 X184.5878 Y263.7317
G01 X184.5046 Y263.7055
G01 X184.4194 Y263.6866
G01 X184.3329 Y263.6752
G01 X184.2458 Y263.6714
G01 X184.1586 Y263.6752
G01 X184.0721 Y263.6866
G01 X183.9870 Y263.7055
G01 X183.9038 Y263.7317
G01 X183.8232 Y263.7651
G01 X183.7458 Y263.8054
G01 X183.7051 Y263.8301
G01 X183.6657 Y263.8568
G01 X183.6276 Y263.8853
G01 X183.5909 Y263.9156
G01 X183.5557 Y263.9477
G01 X183.5220 Y263.9813
G01 X183.4900 Y264.0165
G01 X183.4597 Y264.0532
G01 X183.4312 Y264.0913
G01 X183.4045 Y264.1307
G01 X183.3797 Y264.1714
G01 X183.3569 Y264.2132
G01 X183.3361 Y264.2560
G01 X183.3174 Y264.2997
G01 X183.3008 Y264.3443
G01 X183.2863 Y264.3897
G01 X183.2740 Y264.4356
G01 X183.2638 Y264.4821
G01 X183.2560 Y264.5291
G01 X183.2503 Y264.5763
G01 X183.2469 Y264.6238
G01 X183.2458 Y264.6714
G01 X183.2469 Y264.7190
G01 X183.2503 Y264.7664
G01 X183.2560 Y264.8137
G01 X183.2638 Y264.8606
G01 X183.2740 Y264.9071
G01 X183.2863 Y264.9531
G01 X183.3008 Y264.9985
G01 X183.3174 Y265.0430
G01 X183.3361 Y265.0868
G01 X183.3569 Y265.1296
G01 X183.3797 Y265.1714
G01 X183.4045 Y265.2120
G01 X183.4312 Y265.2514
G01 X183.4597 Y265.2895
G01 X183.4900 Y265.3262
G01 X183.5220 Y265.3615
G01 X183.5557 Y265.3951
G01 X183.5909 Y265.4271
G01 X183.6276 Y265.4574
G01 X183.6657 Y265.4860
G01 X183.7051 Y265.5126
G01 X183.7458 Y265.5374
G01 X183.7875 Y265.5602
G01 X183.8304 Y265.5810
G01 X183.8741 Y265.5998
G01 X183.9187 Y265.6164
G01 X183.9640 Y265.6309
G01 X184.0100 Y265.6432
G01 X184.0565 Y265.6533
G01 X184.1035 Y265.6612
G01 X184.1507 Y265.6669
G01 X184.1982 Y265.6703
G01 X184.2458 Y265.6714
G01 X184.2934 Y265.6703
G01 X184.3408 Y265.6669
G01 X184.3881 Y265.6612
G01 X184.4350 Y265.6533
G01 X184.4815 Y265.6432
G01 X184.5275 Y265.6309
G01 X184.5728 Y265.6164
G01 X184.6174 Y265.5998
G01 X184.6612 Y265.5810
G01 X184.7040 Y265.5602
G01 X184.7458 Y265.5374
G01 X184.7864 Y265.5126
G01 X184.8258 Y265.4860
G01 X184.8639 Y265.4574
G01 X184.9006 Y265.4271
G01 X184.9359 Y265.3951
G01 X184.9695 Y265.3615
G01 X185.0015 Y265.3262
G01 X185.0318 Y265.2895
G01 X185.0604 Y265.2514
G01 X185.0870 Y265.2120
G01 X185.1118 Y265.1714
G01 X185.1346 Y265.1296
G01 X185.1554 Y265.0868
G01 X185.1741 Y265.0430
G01 X185.1908 Y264.9985
G01 X185.2053 Y264.9531
G01 X185.2176 Y264.9071
G01 X185.2277 Y264.8606
G01 X185.2356 Y264.8137
G01 X185.2412 Y264.7664
G01 X185.2446 Y264.7190
G01 X185.2458 Y264.6714
G01 X185.2565 Y264.6198 F1000
G01 X185.2646 Y264.5677
G01 X185.2700 Y264.5153
G01 X185.2727 Y264.4626
G01 X185.2726 Y264.4099
G01 X185.2699 Y264.3573
G01 X185.2644 Y264.3049
G01 X185.2563 Y264.2528
G01 X185.2446 Y264.1968
G01 X185.2300 Y264.1415
G01 X185.2126 Y264.0870
G01 X185.1925 Y264.0335
G01 X185.1696 Y263.9811
G01 X185.1441 Y263.9299
G01 X185.1161 Y263.8800
G01 X185.0855 Y263.8317
G01 X185.0499 Y263.7813
G01 X185.0117 Y263.7328
G01 X184.9712 Y263.6863
G01 X184.9283 Y263.6419
G01 X184.8833 Y263.5997
G01 X184.8361 Y263.5599
G01 X184.7870 Y263.5225
G01 X184.7361 Y263.4877
G01 X184.6796 Y263.4531
G01 X184.6214 Y263.4214
G01 X184.5617 Y263.3927
G01 X184.5006 Y263.3671
G01 X184.4384 Y263.3446
G01 X184.3750 Y263.3253
G01 X184.3108 Y263.3092
G01 X184.2458 Y263.2964
G01 X184.1757 Y263.2862
G01 X184.1053 Y263.2796
G01 X184.0346 Y263.2765
G01 X183.9638 Y263.2770
G01 X183.8932 Y263.2810
G01 X183.8228 Y263.2886
G01 X183.7529 Y263.2998
G01 X183.6837 Y263.3144
G01 X183.6156 Y263.3405
G01 X183.5488 Y263.3698
G01 X183.4835 Y263.4024
G01 X183.4199 Y263.4381
G01 X183.3582 Y263.4770
G01 X183.2984 Y263.5188
G01 X183.2408 Y263.5635
G01 X183.1854 Y263.6110
G01 X183.1347 Y263.6643
G01 X183.0866 Y263.7201
G01 X183.0413 Y263.7781
G01 X182.9989 Y263.8383
G01 X182.9596 Y263.9005
G01 X182.9233 Y263.9645
G01 X182.8902 Y264.0302
G01 X182.8604 Y264.0975
G01 X182.8339 Y264.1662
G01 X182.8108 Y264.2361
G01 X182.7912 Y264.3070
G01 X182.7750 Y264.3788
G01 X182.7624 Y264.4514
G01 X182.7534 Y264.5244
G01 X182.7480 Y264.5978
G01 X182.7462 Y264.6714
G01 X182.7480 Y264.7450
G01 X182.7534 Y264.8184
G01 X182.7624 Y264.8914
G01 X182.7750 Y264.9639
G01 X182.7912 Y265.0357
G01 X182.8108 Y265.1067
G01 X182.8339 Y265.1766
G01 X182.8604 Y265.2452
G01 X182.8902 Y265.3125
G01 X182.9233 Y265.3783
G01 X182.9596 Y265.4423
G01 X182.9989 Y265.5045
G01 X183.0413 Y265.5647
G01 X183.0866 Y265.6227
G01 X183.1347 Y265.6784
G01 X183.1854 Y265.7317
G01 X183.2387 Y265.7825
G01 X183.2945 Y265.8306
G01 X183.3525 Y265.8758
G01 X183.4127 Y265.9182
G01 X183.4748 Y265.9576
G01 X183.5389 Y265.9939
G01 X183.6046 Y266.0270
G01 X183.6719 Y266.0568
G01 X183.7406 Y266.0833
G01 X183.8105 Y266.1064
G01 X183.8814 Y266.1260
G01 X183.9532 Y266.1421
G01 X184.0257 Y266.1547
G01 X184.0988 Y266.1637
G01 X184.1722 Y266.1691
G01 X184.2458 Y266.1709
G01 X184.3194 Y266.1691
G01 X184.3928 Y266.1637
G01 X184.4658 Y266.1547
G01 X184.5383 Y266.1421
G01 X184.6101 Y266.1260
G01 X184.6811 Y266.1064
G01 X184.7510 Y266.0833
G01 X184.8196 Y266.0568
G01 X184.8869 Y266.0270
G01 X184.9527 Y265.9939
G01 X185.0167 Y265.9576
G01 X185.0789 Y265.9182
G01 X185.1391 Y265.8758
G01 X185.1971 Y265.8306
G01 X185.2528 Y265.7825
G01 X185.3061 Y265.7317
G01 X185.3569 Y265.6784
G01 X185.4049 Y265.6227
G01 X185.4502 Y265.5647
G01 X185.4926 Y265.5045
G01 X185.5320 Y265.4423
G01 X185.5683 Y265.3783
G01 X185.6014 Y265.3125
G01 X185.6312 Y265.2452
G01 X185.6577 Y265.1766
G01 X185.6808 Y265.1067
G01 X185.7004 Y265.0357
G01 X185.7165 Y264.9639
G01 X185.7291 Y264.8914
G01 X185.7381 Y264.8184
G01 X185.7435 Y264.7450
G01 X185.7453 Y264.6714
G01 X185.7411 Y264.5593
G01 X185.7286 Y264.4479
G01 X185.7077 Y264.3377
G01 X185.6787 Y264.2294
G01 X185.6417 Y264.1235
G01 X185.5968 Y264.0208
G01 X185.5444 Y263.9216
G01 X185.4848 Y263.8267
G01 X185.4182 Y263.7364
G01 X185.3450 Y263.6514
G01 X185.2657 Y263.5721
G01 X185.1807 Y263.4990
G01 X185.0905 Y263.4324
G01 X184.9956 Y263.3727
G01 X184.8964 Y263.3203
G01 X184.7936 Y263.2755
G01 X184.6878 Y263.2384
G01 X184.5795 Y263.2094
G01 X184.4693 Y263.1886
G01 X184.3578 Y263.1760
G01 X184.2458 Y263.1718
G01 X184.1337 Y263.1760
G01 X184.0223 Y263.1886
G01 X183.9121 Y263.2094
G01 X183.8038 Y263.2384
G01 X183.6979 Y263.2755
G01 X183.5951 Y263.3203
G01 X183.4960 Y263.3727
G01 X183.4010 Y263.4324
G01 X183.3108 Y263.4990
G01 X183.2258 Y263.5721
G01 X183.1465 Y263.6514
G01 X183.0734 Y263.7364
G01 X183.0068 Y263.8267
G01 X182.9471 Y263.9216
G01 X182.8947 Y264.0208
G01 X182.8499 Y264.1235
G01 X182.8128 Y264.2294
G01 X182.7838 Y264.3377
G01 X182.7630 Y264.4479
G01 X182.7504 Y264.5593
G01 X182.7462 Y264.6714
G01 X182.7504 Y264.7834
G01 X182.7630 Y264.8949
G01 X182.7838 Y265.0051
G01 X182.8128 Y265.1134
G01 X182.8499 Y265.2192
G01 X182.8947 Y265.3220
G01 X182.9471 Y265.4212
G01 X183.0068 Y265.5161
G01 X183.0734 Y265.6063
G01 X183.1465 Y265.6913
G01 X183.2258 Y265.7706
G01 X183.3108 Y265.8438
G01 X183.4010 Y265.9104
G01 X183.4960 Y265.9700
G01 X183.5951 Y266.0224
G01 X183.6979 Y266.0673
G01 X183.8038 Y266.1043
G01 X183.9121 Y266.1333
G01 X184.0223 Y266.1542
G01 X184.1337 Y266.1668
G01 X184.2458 Y266.1709
G01 X184.3578 Y266.1668
G01 X184.4693 Y266.1542
G01 X184.5795 Y266.1333
G01 X184.6878 Y266.1043
G01 X184.7936 Y266.0673
G01 X184.8964 Y266.0224
G01 X184.9956 Y265.9700
G01 X185.0905 Y265.9104
G01 X185.1807 Y265.8438
G01 X185.2657 Y265.7706
G01 X185.3450 Y265.6913
G01 X185.4182 Y265.6063
G01 X185.4848 Y265.5161
G01 X185.5444 Y265.4212
G01 X185.5968 Y265.3220
G01 X185.6417 Y265.2192
G01 X185.6787 Y265.1134
G01 X185.7077 Y265.0051
G01 X185.7286 Y264.8949
G01 X185.7411 Y264.7834
G01 X185.7453 Y264.6714
G01 X185.7415 Y264.5733
G01 X185.7299 Y264.4759
G01 X185.7108 Y264.3796
G01 X185.6842 Y264.2852
G01 X185.6502 Y264.1931
G01 X185.6091 Y264.1040
G01 X185.5612 Y264.0184
G01 X185.5066 Y263.9368
G01 X185.4459 Y263.8597
G01 X185.3793 Y263.7877
G01 X185.3072 Y263.7210
G01 X185.2302 Y263.6603
G01 X185.1486 Y263.6058
G01 X185.0629 Y263.5578
G01 X184.9738 Y263.5167
G01 X184.8818 Y263.4828
G01 X184.7873 Y263.4561
G01 X184.6911 Y263.4370
G01 X184.5936 Y263.4255
G01 X184.4956 Y263.4216
G01 X184.3975 Y263.4255
G01 X184.3000 Y263.4370
G01 X184.2038 Y263.4561
G01 X184.1094 Y263.4828
G01 X184.0173 Y263.5167
G01 X183.9282 Y263.5578
G01 X183.8425 Y263.6058
G01 X183.7610 Y263.6603
G01 X183.6839 Y263.7210
G01 X183.6118 Y263.7877
G01 X183.5452 Y263.8597
G01 X183.4845 Y263.9368
G01 X183.4299 Y264.0184
G01 X183.3820 Y264.1040
G01 X183.3409 Y264.1931
G01 X183.3069 Y264.2852
G01 X183.2803 Y264.3796
G01 X183.2612 Y264.4759
G01 X183.2496 Y264.5733
G01 X183.2458 Y264.6714
G01 X183.2496 Y264.7585
G01 X183.2610 Y264.8450
G01 X183.2798 Y264.9302
G01 X183.3061 Y265.0134
G01 X183.3395 Y265.0940
G01 X183.3797 Y265.1714
G01 X183.4266 Y265.2450
G01 X183.4797 Y265.3142
G01 X183.5387 Y265.3785
G01 X183.6030 Y265.4374
G01 X183.6722 Y265.4905
G01 X183.7458 Y265.5374
G01 X183.8232 Y265.5777
G01 X183.9038 Y265.6111
G01 X183.9870 Y265.6373
G01 X184.0721 Y265.6562
G01 X184.1586 Y265.6676
G01 X184.2458 Y265.6714
G01 X184.3329 Y265.6676
G01 X184.4194 Y265.6562
G01 X184.5046 Y265.6373
G01 X184.5878 Y265.6111
G01 X184.6684 Y265.5777
G01 X184.7458 Y265.5374
G01 X184.8194 Y265.4905
G01 X184.8886 Y265.4374
G01 X184.9529 Y265.3785
G01 X185.0118 Y265.3142
G01 X185.0649 Y265.2450
G01 X185.1118 Y265.1714
G01 X185.1521 Y265.0940
G01 X185.1855 Y265.0134
G01 X185.2117 Y264.9302
G01 X185.2306 Y264.8450
G01 X185.2420 Y264.7585
G01 X185.2458 Y264.6714
M107
M106 S240
G01 X185.2420 Y264.5842 Z-2.7726 F400
G01 X185.2306 Y264.4977 Z-2.7951
G01 X185.2117 Y264.4126 Z-2.8177
G01 X185.1855 Y264.3294 Z-2.8403
G01 X185.1521 Y264.2488 Z-2.8628
G01 X185.1118 Y264.1714 Z-2.8854
G01 X185.0649 Y264.0978 Z-2.9080
G01 X185.0118 Y264.0286 Z-2.9306
G01 X184.9529 Y263.9643 Z-2.9531
G01 X184.8886 Y263.9053 Z-2.9757
G01 X184.8194 Y263.8522 Z-2.9983
G01 X184.7458 Y263.8054 Z-3.0208
G01 X184.6684 Y263.7651 Z-3.0434
G01 X184.5878 Y263.7317 Z-3.0660
G01 X184.5046 Y263.7055 Z-3.0885
G01 X184.4194 Y263.6866 Z-3.1111
G01 X184.3329 Y263.6752 Z-3.1337
G01 X184.2458 Y263.6714 Z-3.1563
G01 X184.1586 Y263.6752 Z-3.1788
G01 X184.0721 Y263.6866 Z-3.2014
G01 X183.9870 Y263.7055 Z-3.2240
G01 X183.9038 Y263.7317 Z-3.2465
G01 X183.8232 Y263.7651 Z-3.2691
G01 X183.7458 Y263.8054 Z-3.2917
G01 X183.7051 Y263.8301 Z-3.3040
G01 X183.6657 Y263.8568 Z-3.3163
G01 X183.6276 Y263.8853 Z-3.3286
G01 X183.5909 Y263.9156 Z-3.3409
G01 X183.5557 Y263.9477 Z-3.3532
G01 X183.5220 Y263.9813 Z-3.3655
G01 X183.4900 Y264.0165 Z-3.3778
G01 X183.4597 Y264.0532 Z-3.3902
G01 X183.4312 Y264.0913 Z-3.4025
G01 X183.4045 Y264.1307 Z-3.4148
G01 X183.3797 Y264.1714 Z-3.4271
G01 X183.3569 Y264.2132 Z-3.4394
G01 X183.3361 Y264.2560 Z-3.4517
G01 X183.3174 Y264.2997 Z-3.4640
G01 X183.3008 Y264.3443 Z-3.4763
G01 X183.2863 Y264.3897 Z-3.4886
G01 X183.2740 Y264.4356 Z-3.5009
G01 X183.2638 Y264.4821 Z-3.5133
G01 X183.2560 Y264.5291 Z-3.5256
G01 X183.2503 Y264.5763 Z-3.5379
G01 X183.2469 Y264.6238 Z-3.5502
G01 X183.2458 Y264.6714 Z-3.5625
G01 X183.2469 Y264.7190 Z-3.5748
G01 X183.2503 Y264.7664 Z-3.5871
G01 X183.2560 Y264.8137 Z-3.5994
G01 X183.2638 Y264.8606 Z-3.6117
G01 X183.2740 Y264.9071 Z-3.6241
G01 X183.2863 Y264.9531 Z-3.6364
G01 X183.3008 Y264.9985 Z-3.6487
G01 X183.3174 Y265.0430 Z-3.6610
G01 X183.3361 Y265.0868 Z-3.6733
G01 X183.3569 Y265.1296 Z-3.6856
G01 X183.3797 Y265.1714 Z-3.6979
G01 X183.4045 Y265.2120 Z-3.7102
G01 X183.4312 Y265.2514 Z-3.7225
G01 X183.4597 Y265.2895 Z-3.7348
G01 X183.4900 Y265.3262 Z-3.7472
G01 X183.5220 Y265.3615 Z-3.7595
G01 X183.5557 Y265.3951 Z-3.7718
G01 X183.5909 Y265.4271 Z-3.7841
G01 X183.6276 Y265.4574 Z-3.7964
G01 X183.6657 Y265.4860 Z-3.8087
G01 X183.7051 Y265.5126 Z-3.8210
G01 X183.7458 Y265.5374 Z-3.8333
G01 X183.7875 Y265.5602 Z-3.8456
G01 X183.8304 Y265.5810 Z-3.8580
G01 X183.8741 Y265.5998 Z-3.8703
G01 X183.9187 Y265.6164 Z-3.8826
G01 X183.9640 Y265.6309 Z-3.8949
G01 X184.0100 Y265.6432 Z-3.9072
G01 X184.0565 Y265.6533 Z-3.9195
G01 X184.1035 Y265.6612 Z-3.9318
G01 X184.1507 Y265.6669 Z-3.9441
G01 X184.1982 Y265.6703 Z-3.9564
G01 X184.2458 Y265.6714 Z-3.9688
G01 X184.2934 Y265.6703 Z-3.9811
G01 X184.3408 Y265.6669 Z-3.9934
G01 X184.3881 Y265.6612 Z-4.0057
G01 X184.4350 Y265.6533 Z-4.0180
G01 X184.4815 Y265.6432 Z-4.0303
G01 X184.5275 Y265.6309 Z-4.0426
G01 X184.5728 Y265.6164 Z-4.0549
G01 X184.6174 Y265.5998 Z-4.0672
G01 X184.6612 Y265.5810 Z-4.0795
G01 X184.7040 Y265.5602 Z-4.0919
G01 X184.7458 Y265.5374 Z-4.1042
G01 X184.7864 Y265.5126 Z-4.1165
G01 X184.8258 Y265.4860 Z-4.1288
G01 X184.8639 Y265.4574 Z-4.1411
G01 X184.9006 Y265.4271 Z-4.1534
G01 X184.9359 Y265.3951 Z-4.1657
G01 X184.9695 Y265.3615 Z-4.1780
G01 X185.0015 Y265.3262 Z-4.1903
G01 X185.0318 Y265.2895 Z-4.2027
G01 X185.0604 Y265.2514 Z-4.2150
G01 X185.0870 Y265.2120 Z-4.2273
G01 X185.1118 Y265.1714 Z-4.2396
G01 X185.1346 Y265.1296 Z-4.2519
G01 X185.1554 Y265.0868 Z-4.2642
G01 X185.1741 Y265.0430 Z-4.2765
G01 X185.1908 Y264.9985 Z-4.2888
G01 X185.2053 Y264.9531 Z-4.3011
G01 X185.2176 Y264.9071 Z-4.3134
G01 X185.2277 Y264.8606 Z-4.3258
G01 X185.2356 Y264.8137 Z-4.3381
G01 X185.2412 Y264.7664 Z-4.3504
G01 X185.2446 Y264.7190 Z-4.3627
G01 X185.2458 Y264.6714 Z-4.3750
G01 X185.2420 Y264.5842
G01 X185.2306 Y264.4977
G01 X185.2117 Y264.4126
G01 X185.1855 Y264.3294
G01 X185.1521 Y264.2488
G01 X185.1118 Y264.1714
G01 X185.0649 Y264.0978
G01 X185.0118 Y264.0286
G01 X184.9529 Y263.9643
G01 X184.8886 Y263.9053
G01 X184.8194 Y263.8522
G01 X184.7458 Y263.8054
G01 X184.6684 Y263.7651
G01 X184.5878 Y263.7317
G01 X184.5046 Y263.7055
G01 X184.4194 Y263.6866
G01 X184.3329 Y263.6752
G01 X184.2458 Y263.6714
G01 X184.1586 Y263.6752
G01 X184.0721 Y263.6866
G01 X183.9870 Y263.7055
G01 X183.9038 Y263.7317
G01 X183.8232 Y263.7651
G01 X183.7458 Y263.8054
G01 X183.7051 Y263.8301
G01 X183.6657 Y263.8568
G01 X183.6276 Y263.8853
G01 X183.5909 Y263.9156
G01 X183.5557 Y263.9477
G01 X183.5220 Y263.9813
G01 X183.4900 Y264.0165
G01 X183.4597 Y264.0532
G01 X183.4312 Y264.0913
G01 X183.4045 Y264.1307
G01 X183.3797 Y264.1714
G01 X183.3569 Y264.2132
G01 X183.3361 Y264.2560
G01 X183.3174 Y264.2997
G01 X183.3008 Y264.3443
G01 X183.2863 Y264.3897
G01 X183.2740 Y264.4356
G01 X183.2638 Y264.4821
G01 X183.2560 Y264.5291
G01 X183.2503 Y264.5763
G01 X183.2469 Y264.6238
G01 X183.2458 Y264.6714
G01 X183.2469 Y264.7190
G01 X183.2503 Y264.7664
G01 X183.2560 Y264.8137
G01 X183.2638 Y264.8606
G01 X183.2740 Y264.9071
G01 X183.2863 Y264.9531
G01 X183.3008 Y264.9985
G01 X183.3174 Y265.0430
G01 X183.3361 Y265.0868
G01 X183.3569 Y265.1296
G01 X183.3797 Y265.1714
G01 X183.4045 Y265.2120
G01 X183.4312 Y265.2514
G01 X183.4597 Y265.2895
G01 X183.4900 Y265.3262
G01 X183.5220 Y265.3615
G01 X183.5557 Y265.3951
G01 X183.5909 Y265.4271
G01 X183.6276 Y265.4574
G01 X183.6657 Y265.4860
G01 X183.7051 Y265.5126
G01 X183.7458 Y265.5374
G01 X183.7875 Y265.5602
G01 X183.8304 Y265.5810
G01 X183.8741 Y265.5998
G01 X183.9187 Y265.6164
G01 X183.9640 Y265.6309
G01 X184.0100 Y265.6432
G01 X184.0565 Y265.6533
G01 X184.1035 Y265.6612
G01 X184.1507 Y265.6669
G01 X184.1982 Y265.6703
G01 X184.2458 Y265.6714
G01 X184.2934 Y265.6703
G01 X184.3408 Y265.6669
G01 X184.3881 Y265.6612
G01 X184.4350 Y265.6533
G01 X184.4815 Y265.6432
G01 X184.5275 Y265.6309
G01 X184.5728 Y265.6164
G01 X184.6174 Y265.5998
G01 X184.6612 Y265.5810
G01 X184.7040 Y265.5602
G01 X184.7458 Y265.5374
G01 X184.7864 Y265.5126
G01 X184.8258 Y265.4860
G01 X184.8639 Y265.4574
G01 X184.9006 Y265.4271
G01 X184.9359 Y265.3951
G01 X184.9695 Y265.3615
G01 X185.0015 Y265.3262
G01 X185.0318 Y265.2895
G01 X185.0604 Y265.2514
G01 X185.0870 Y265.2120
G01 X185.1118 Y265.1714
G01 X185.1346 Y265.1296
G01 X185.1554 Y265.0868
G01 X185.1741 Y265.0430
G01 X185.1908 Y264.9985
G01 X185.2053 Y264.9531
G01 X185.2176 Y264.9071
G01 X185.2277 Y264.8606
G01 X185.2356 Y264.8137
G01 X185.2412 Y264.7664
G01 X185.2446 Y264.7190
G01 X185.2458 Y264.6714
G01 X185.2565 Y264.6198 F1000
G01 X185.2646 Y264.5677
G01 X185.2700 Y264.5153
G01 X185.2727 Y264.4626
G01 X185.2726 Y264.4099
G01 X185.2699 Y264.3573
G01 X185.2644 Y264.3049
G01 X185.2563 Y264.2528
G01 X185.2446 Y264.1968
G01 X185.2300 Y264.1415
G01 X185.2126 Y264.0870
G01 X185.1925 Y264.0335
G01 X185.1696 Y263.9811
G01 X185.1441 Y263.9299
G01 X185.1161 Y263.8800
G01 X185.0855 Y263.8317
G01 X185.0499 Y263.7813
G01 X185.0117 Y263.7328
G01 X184.9712 Y263.6863
G01 X184.9283 Y263.6419
G01 X184.8833 Y263.5997
G01 X184.8361 Y263.5599
G01 X184.7870 Y263.5225
G01 X184.7361 Y263.4877
G01 X184.6796 Y263.4531
G01 X184.6214 Y263.4214
G01 X184.5617 Y263.3927
G01 X184.5006 Y263.3671
G01 X184.4384 Y263.3446
G01 X184.3750 Y263.3253
G01 X184.3108 Y263.3092
G01 X184.2458 Y263.2964
G01 X184.1757 Y263.2862
G01 X184.1053 Y263.2796
G01 X184.0346 Y263.2765
G01 X183.9638 Y263.2770
G01 X183.8932 Y263.2810
G01 X183.8228 Y263.2886
G01 X183.7529 Y263.2998
G01 X183.6837 Y263.3144
G01 X183.6156 Y263.3405
G01 X183.5488 Y263.3698
G01 X183.4835 Y263.4024
G01 X183.4199 Y263.4381
G01 X183.3582 Y263.4770
G01 X183.2984 Y263.5188
G01 X183.2408 Y263.5635
G01 X183.1854 Y263.6110
G01 X183.1347 Y263.6643
G01 X183.0866 Y263.7201
G01 X183.0413 Y263.7781
G01 X182.9989 Y263.8383
G01 X182.9596 Y263.9005
G01 X182.9233 Y263.9645
G01 X182.8902 Y264.0302
G01 X182.8604 Y264.0975
G01 X182.8339 Y264.1662
G01 X182.8108 Y264.2361
G01 X182.7912 Y264.3070
G01 X182.7750 Y264.3788
G01 X182.7624 Y264.4514
G01 X182.7534 Y264.5244
G01 X182.7480 Y264.5978
G01 X182.7462 Y264.6714
G01 X182.7480 Y264.7450
G01 X182.7534 Y264.8184
G01 X182.7624 Y264.8914
