;Project TeslaParkingV3_2xSteingrau
;Created by Estlcam version 11 build 11,235
;Machining time about 00:33:41 hours

G90
M03 S18000
G00 X0.0000 Y0.0000 Z0.0000
G00 Z2.0000


;No. 1: Helical drill 6
G00 X34.7060 Y43.6206
G00 Z0.5000
M106 S240
G01 X34.7022 Y43.5334 Z0.4745 F400 S18000
G01 X34.6908 Y43.4469 Z0.4491
G01 X34.6719 Y43.3618 Z0.4236
G01 X34.6457 Y43.2786 Z0.3981
G01 X34.6123 Y43.1980 Z0.3727
G01 X34.5720 Y43.1206 Z0.3472
G01 X34.5251 Y43.0470 Z0.3218
G01 X34.4720 Y42.9778 Z0.2963
G01 X34.4131 Y42.9135 Z0.2708
G01 X34.3488 Y42.8545 Z0.2454
G01 X34.2796 Y42.8014 Z0.2199
G01 X34.2060 Y42.7545 Z0.1944
G01 X34.1286 Y42.7143 Z0.1690
G01 X34.0480 Y42.6809 Z0.1435
G01 X33.9648 Y42.6546 Z0.1181
G01 X33.8796 Y42.6358 Z0.0926
G01 X33.7931 Y42.6244 Z0.0671
G01 X33.7060 Y42.6206 Z0.0417
G01 X33.6188 Y42.6244 Z0.0162
G01 X33.5323 Y42.6358 Z-0.0093
G01 X33.4472 Y42.6546 Z-0.0347
G01 X33.3640 Y42.6809 Z-0.0602
G01 X33.2834 Y42.7143 Z-0.0856
G01 X33.2060 Y42.7545 Z-0.1111
G01 X33.1324 Y42.8014 Z-0.1366
G01 X33.0632 Y42.8545 Z-0.1620
G01 X32.9989 Y42.9135 Z-0.1875
G01 X32.9399 Y42.9778 Z-0.2130
G01 X32.8868 Y43.0470 Z-0.2384
G01 X32.8400 Y43.1206 Z-0.2639
G01 X32.7997 Y43.1980 Z-0.2894
G01 X32.7663 Y43.2786 Z-0.3148
G01 X32.7401 Y43.3618 Z-0.3403
G01 X32.7212 Y43.4469 Z-0.3657
G01 X32.7098 Y43.5334 Z-0.3912
G01 X32.7060 Y43.6206 Z-0.4167
G01 X32.7098 Y43.7077 Z-0.4421
G01 X32.7212 Y43.7942 Z-0.4676
G01 X32.7401 Y43.8794 Z-0.4931
G01 X32.7663 Y43.9626 Z-0.5185
G01 X32.7997 Y44.0432 Z-0.5440
G01 X32.8400 Y44.1206 Z-0.5694
G01 X32.8868 Y44.1941 Z-0.5949
G01 X32.9399 Y44.2634 Z-0.6204
G01 X32.9989 Y44.3277 Z-0.6458
G01 X33.0632 Y44.3866 Z-0.6713
G01 X33.1324 Y44.4397 Z-0.6968
G01 X33.2060 Y44.4866 Z-0.7222
G01 X33.2834 Y44.5269 Z-0.7477
G01 X33.3640 Y44.5603 Z-0.7731
G01 X33.4472 Y44.5865 Z-0.7986
G01 X33.5323 Y44.6054 Z-0.8241
G01 X33.6188 Y44.6168 Z-0.8495
G01 X33.7060 Y44.6206 Z-0.8750
G01 X33.7931 Y44.6168 Z-0.9005
G01 X33.8796 Y44.6054 Z-0.9259
G01 X33.9648 Y44.5865 Z-0.9514
G01 X34.0480 Y44.5603 Z-0.9769
G01 X34.1286 Y44.5269 Z-1.0023
G01 X34.2060 Y44.4866 Z-1.0278
G01 X34.2796 Y44.4397 Z-1.0532
G01 X34.3488 Y44.3866 Z-1.0787
G01 X34.4131 Y44.3277 Z-1.1042
G01 X34.4720 Y44.2634 Z-1.1296
G01 X34.5251 Y44.1941 Z-1.1551
G01 X34.5720 Y44.1206 Z-1.1806
G01 X34.6123 Y44.0432 Z-1.2060
G01 X34.6457 Y43.9626 Z-1.2315
G01 X34.6719 Y43.8794 Z-1.2569
G01 X34.6908 Y43.7942 Z-1.2824
G01 X34.7022 Y43.7077 Z-1.3079
G01 X34.7060 Y43.6206 Z-1.3333
G01 X34.7022 Y43.5334
G01 X34.6908 Y43.4469
G01 X34.6719 Y43.3618
G01 X34.6457 Y43.2786
G01 X34.6123 Y43.1980
G01 X34.5720 Y43.1206
G01 X34.5251 Y43.0470
G01 X34.4720 Y42.9778
G01 X34.4131 Y42.9135
G01 X34.3488 Y42.8545
G01 X34.2796 Y42.8014
G01 X34.2060 Y42.7545
G01 X34.1286 Y42.7143
G01 X34.0480 Y42.6809
G01 X33.9648 Y42.6546
G01 X33.8796 Y42.6358
G01 X33.7931 Y42.6244
G01 X33.7060 Y42.6206
G01 X33.6188 Y42.6244
G01 X33.5323 Y42.6358
G01 X33.4472 Y42.6546
G01 X33.3640 Y42.6809
G01 X33.2834 Y42.7143
G01 X33.2060 Y42.7545
G01 X33.1324 Y42.8014
G01 X33.0632 Y42.8545
G01 X32.9989 Y42.9135
G01 X32.9399 Y42.9778
G01 X32.8868 Y43.0470
G01 X32.8400 Y43.1206
G01 X32.7997 Y43.1980
G01 X32.7663 Y43.2786
G01 X32.7401 Y43.3618
G01 X32.7212 Y43.4469
G01 X32.7098 Y43.5334
G01 X32.7060 Y43.6206
G01 X32.7098 Y43.7077
G01 X32.7212 Y43.7942
G01 X32.7401 Y43.8794
G01 X32.7663 Y43.9626
G01 X32.7997 Y44.0432
G01 X32.8400 Y44.1206
G01 X32.8868 Y44.1941
G01 X32.9399 Y44.2634
G01 X32.9989 Y44.3277
G01 X33.0632 Y44.3866
G01 X33.1324 Y44.4397
G01 X33.2060 Y44.4866
G01 X33.2834 Y44.5269
G01 X33.3640 Y44.5603
G01 X33.4472 Y44.5865
G01 X33.5323 Y44.6054
G01 X33.6188 Y44.6168
G01 X33.7060 Y44.6206
G01 X33.7931 Y44.6168
G01 X33.8796 Y44.6054
G01 X33.9648 Y44.5865
G01 X34.0480 Y44.5603
G01 X34.1286 Y44.5269
G01 X34.2060 Y44.4866
G01 X34.2796 Y44.4397
G01 X34.3488 Y44.3866
G01 X34.4131 Y44.3277
G01 X34.4720 Y44.2634
G01 X34.5251 Y44.1941
G01 X34.5720 Y44.1206
G01 X34.6123 Y44.0432
G01 X34.6457 Y43.9626
G01 X34.6719 Y43.8794
G01 X34.6908 Y43.7942
G01 X34.7022 Y43.7077
G01 X34.7060 Y43.6206
G01 X34.7167 Y43.5690 F1000
G01 X34.7248 Y43.5169
G01 X34.7302 Y43.4645
G01 X34.7329 Y43.4118
G01 X34.7328 Y43.3591
G01 X34.7301 Y43.3065
G01 X34.7246 Y43.2541
G01 X34.7165 Y43.2020
G01 X34.7048 Y43.1460
G01 X34.6902 Y43.0907
G01 X34.6728 Y43.0362
G01 X34.6527 Y42.9827
G01 X34.6298 Y42.9302
G01 X34.6043 Y42.8790
G01 X34.5763 Y42.8292
G01 X34.5457 Y42.7809
G01 X34.5101 Y42.7305
G01 X34.4719 Y42.6820
G01 X34.4314 Y42.6354
G01 X34.3885 Y42.5910
G01 X34.3435 Y42.5489
G01 X34.2963 Y42.5091
G01 X34.2472 Y42.4717
G01 X34.1963 Y42.4369
G01 X34.1398 Y42.4023
G01 X34.0816 Y42.3706
G01 X34.0219 Y42.3419
G01 X33.9609 Y42.3163
G01 X33.8986 Y42.2938
G01 X33.8352 Y42.2745
G01 X33.7710 Y42.2584
G01 X33.7060 Y42.2456
G01 X33.6360 Y42.2354
G01 X33.5655 Y42.2287
G01 X33.4948 Y42.2257
G01 X33.4240 Y42.2262
G01 X33.3534 Y42.2302
G01 X33.2830 Y42.2378
G01 X33.2131 Y42.2490
G01 X33.1439 Y42.2636
G01 X33.0757 Y42.2896
G01 X33.0089 Y42.3189
G01 X32.9436 Y42.3514
G01 X32.8800 Y42.3872
G01 X32.8182 Y42.4260
G01 X32.7584 Y42.4678
G01 X32.7007 Y42.5125
G01 X32.6453 Y42.5599
G01 X32.5946 Y42.6133
G01 X32.5465 Y42.6690
G01 X32.5012 Y42.7270
G01 X32.4588 Y42.7872
G01 X32.4194 Y42.8494
G01 X32.3831 Y42.9135
G01 X32.3500 Y42.9793
G01 X32.3202 Y43.0466
G01 X32.2937 Y43.1152
G01 X32.2706 Y43.1852
G01 X32.2510 Y43.2561
G01 X32.2348 Y43.3279
G01 X32.2222 Y43.4005
G01 X32.2132 Y43.4735
G01 X32.2078 Y43.5470
G01 X32.2060 Y43.6206
G01 X32.2078 Y43.6942
G01 X32.2132 Y43.7676
G01 X32.2222 Y43.8407
G01 X32.2348 Y43.9132
G01 X32.2510 Y43.9850
G01 X32.2706 Y44.0560
G01 X32.2937 Y44.1259
G01 X32.3202 Y44.1946
G01 X32.3500 Y44.2619
G01 X32.3831 Y44.3277
G01 X32.4194 Y44.3917
G01 X32.4588 Y44.4539
G01 X32.5012 Y44.5141
G01 X32.5465 Y44.5721
G01 X32.5946 Y44.6279
G01 X32.6453 Y44.6812
G01 X32.6987 Y44.7320
G01 X32.7544 Y44.7801
G01 X32.8124 Y44.8254
G01 X32.8726 Y44.8678
G01 X32.9348 Y44.9071
G01 X32.9989 Y44.9434
G01 X33.0647 Y44.9765
G01 X33.1320 Y45.0064
G01 X33.2007 Y45.0329
G01 X33.2706 Y45.0560
G01 X33.3415 Y45.0756
G01 X33.4134 Y45.0917
G01 X33.4859 Y45.1043
G01 X33.5590 Y45.1133
G01 X33.6324 Y45.1187
G01 X33.7060 Y45.1205
G01 X33.7796 Y45.1187
G01 X33.8530 Y45.1133
G01 X33.9261 Y45.1043
G01 X33.9986 Y45.0917
G01 X34.0704 Y45.0756
G01 X34.1414 Y45.0560
G01 X34.2113 Y45.0329
G01 X34.2800 Y45.0064
G01 X34.3473 Y44.9765
G01 X34.4131 Y44.9434
G01 X34.4771 Y44.9071
G01 X34.5393 Y44.8678
G01 X34.5995 Y44.8254
G01 X34.6576 Y44.7801
G01 X34.7133 Y44.7320
G01 X34.7666 Y44.6812
G01 X34.8174 Y44.6279
G01 X34.8655 Y44.5721
G01 X34.9108 Y44.5141
G01 X34.9532 Y44.4539
G01 X34.9926 Y44.3917
G01 X35.0288 Y44.3277
G01 X35.0619 Y44.2619
G01 X35.0918 Y44.1946
G01 X35.1183 Y44.1259
G01 X35.1414 Y44.0560
G01 X35.1610 Y43.9850
G01 X35.1771 Y43.9132
G01 X35.1897 Y43.8407
G01 X35.1987 Y43.7676
G01 X35.2041 Y43.6942
G01 X35.2060 Y43.6206
G01 X35.2018 Y43.5085
G01 X35.1892 Y43.3970
G01 X35.1683 Y43.2868
G01 X35.1393 Y43.1784
G01 X35.1023 Y43.0726
G01 X35.0574 Y42.9698
G01 X35.0050 Y42.8706
G01 X34.9453 Y42.7756
G01 X34.8787 Y42.6854
G01 X34.8055 Y42.6003
G01 X34.7262 Y42.5210
G01 X34.6412 Y42.4478
G01 X34.5509 Y42.3812
G01 X34.4560 Y42.3216
G01 X34.3568 Y42.2691
G01 X34.2540 Y42.2243
G01 X34.1481 Y42.1872
G01 X34.0398 Y42.1582
G01 X33.9295 Y42.1374
G01 X33.8181 Y42.1248
G01 X33.7060 Y42.1206
G01 X33.5939 Y42.1248
G01 X33.4824 Y42.1374
G01 X33.3722 Y42.1582
G01 X33.2639 Y42.1872
G01 X33.1580 Y42.2243
G01 X33.0552 Y42.2691
G01 X32.9560 Y42.3216
G01 X32.8610 Y42.3812
G01 X32.7708 Y42.4478
G01 X32.6857 Y42.5210
G01 X32.6064 Y42.6003
G01 X32.5333 Y42.6854
G01 X32.4666 Y42.7756
G01 X32.4070 Y42.8706
G01 X32.3546 Y42.9698
G01 X32.3097 Y43.0726
G01 X32.2726 Y43.1784
G01 X32.2436 Y43.2868
G01 X32.2228 Y43.3970
G01 X32.2102 Y43.5085
G01 X32.2060 Y43.6206
G01 X32.2102 Y43.7327
G01 X32.2228 Y43.8441
G01 X32.2436 Y43.9543
G01 X32.2726 Y44.0627
G01 X32.3097 Y44.1686
G01 X32.3546 Y44.2714
G01 X32.4070 Y44.3706
G01 X32.4666 Y44.4655
G01 X32.5333 Y44.5558
G01 X32.6064 Y44.6408
G01 X32.6857 Y44.7201
G01 X32.7708 Y44.7933
G01 X32.8610 Y44.8599
G01 X32.9560 Y44.9196
G01 X33.0552 Y44.9720
G01 X33.1580 Y45.0169
G01 X33.2639 Y45.0539
G01 X33.3722 Y45.0829
G01 X33.4824 Y45.1038
G01 X33.5939 Y45.1164
G01 X33.7060 Y45.1205
G01 X33.8181 Y45.1164
G01 X33.9295 Y45.1038
G01 X34.0398 Y45.0829
G01 X34.1481 Y45.0539
G01 X34.2540 Y45.0169
G01 X34.3568 Y44.9720
G01 X34.4560 Y44.9196
G01 X34.5509 Y44.8599
G01 X34.6412 Y44.7933
G01 X34.7262 Y44.7201
G01 X34.8055 Y44.6408
G01 X34.8787 Y44.5558
G01 X34.9453 Y44.4655
G01 X35.0050 Y44.3706
G01 X35.0574 Y44.2714
G01 X35.1023 Y44.1686
G01 X35.1393 Y44.0627
G01 X35.1683 Y43.9543
G01 X35.1892 Y43.8441
G01 X35.2018 Y43.7327
G01 X35.2060 Y43.6206
G01 X35.2021 Y43.5225
G01 X35.1906 Y43.4250
G01 X35.1714 Y43.3288
G01 X35.1448 Y43.2343
G01 X35.1108 Y43.1422
G01 X35.0697 Y43.0531
G01 X35.0218 Y42.9675
G01 X34.9672 Y42.8858
G01 X34.9065 Y42.8088
G01 X34.8398 Y42.7367
G01 X34.7678 Y42.6701
G01 X34.6907 Y42.6093
G01 X34.6091 Y42.5548
G01 X34.5235 Y42.5068
G01 X34.4343 Y42.4657
G01 X34.3422 Y42.4318
G01 X34.2478 Y42.4051
G01 X34.1515 Y42.3860
G01 X34.0540 Y42.3744
G01 X33.9560 Y42.3706
G01 X33.8579 Y42.3744
G01 X33.7604 Y42.3860
G01 X33.6642 Y42.4051
G01 X33.5697 Y42.4318
G01 X33.4776 Y42.4657
G01 X33.3885 Y42.5068
G01 X33.3029 Y42.5548
G01 X33.2212 Y42.6093
G01 X33.1442 Y42.6701
G01 X33.0721 Y42.7367
G01 X33.0055 Y42.8088
G01 X32.9447 Y42.8858
G01 X32.8902 Y42.9675
G01 X32.8422 Y43.0531
G01 X32.8011 Y43.1422
G01 X32.7672 Y43.2343
G01 X32.7405 Y43.3288
G01 X32.7214 Y43.4250
G01 X32.7098 Y43.5225
G01 X32.7060 Y43.6206
G01 X32.7098 Y43.7077
G01 X32.7212 Y43.7942
G01 X32.7401 Y43.8794
G01 X32.7663 Y43.9626
G01 X32.7997 Y44.0432
G01 X32.8400 Y44.1206
G01 X32.8868 Y44.1941
G01 X32.9399 Y44.2634
G01 X32.9989 Y44.3277
G01 X33.0632 Y44.3866
G01 X33.1324 Y44.4397
G01 X33.2060 Y44.4866
G01 X33.2834 Y44.5269
G01 X33.3640 Y44.5603
G01 X33.4472 Y44.5865
G01 X33.5323 Y44.6054
G01 X33.6188 Y44.6168
G01 X33.7060 Y44.6206
G01 X33.7931 Y44.6168
G01 X33.8796 Y44.6054
G01 X33.9648 Y44.5865
G01 X34.0480 Y44.5603
G01 X34.1286 Y44.5269
G01 X34.2060 Y44.4866
G01 X34.2796 Y44.4397
G01 X34.3488 Y44.3866
G01 X34.4131 Y44.3277
G01 X34.4720 Y44.2634
G01 X34.5251 Y44.1941
G01 X34.5720 Y44.1206
G01 X34.6123 Y44.0432
G01 X34.6457 Y43.9626
G01 X34.6719 Y43.8794
G01 X34.6908 Y43.7942
G01 X34.7022 Y43.7077
G01 X34.7060 Y43.6206
M107
M106 S240
G01 X34.7022 Y43.5334 Z-1.3588 F400
G01 X34.6908 Y43.4469 Z-1.3843
G01 X34.6719 Y43.3618 Z-1.4097
G01 X34.6457 Y43.2786 Z-1.4352
G01 X34.6123 Y43.1980 Z-1.4606
G01 X34.5720 Y43.1206 Z-1.4861
G01 X34.5251 Y43.0470 Z-1.5116
G01 X34.4720 Y42.9778 Z-1.5370
G01 X34.4131 Y42.9135 Z-1.5625
G01 X34.3488 Y42.8545 Z-1.5880
G01 X34.2796 Y42.8014 Z-1.6134
G01 X34.2060 Y42.7545 Z-1.6389
G01 X34.1286 Y42.7143 Z-1.6644
G01 X34.0480 Y42.6809 Z-1.6898
G01 X33.9648 Y42.6546 Z-1.7153
G01 X33.8796 Y42.6358 Z-1.7407
G01 X33.7931 Y42.6244 Z-1.7662
G01 X33.7060 Y42.6206 Z-1.7917
G01 X33.6188 Y42.6244 Z-1.8171
G01 X33.5323 Y42.6358 Z-1.8426
G01 X33.4472 Y42.6546 Z-1.8681
G01 X33.3640 Y42.6809 Z-1.8935
G01 X33.2834 Y42.7143 Z-1.9190
G01 X33.2060 Y42.7545 Z-1.9444
G01 X33.1324 Y42.8014 Z-1.9699
G01 X33.0632 Y42.8545 Z-1.9954
G01 X32.9989 Y42.9135 Z-2.0208
G01 X32.9399 Y42.9778 Z-2.0463
G01 X32.8868 Y43.0470 Z-2.0718
G01 X32.8400 Y43.1206 Z-2.0972
G01 X32.7997 Y43.1980 Z-2.1227
G01 X32.7663 Y43.2786 Z-2.1481
G01 X32.7401 Y43.3618 Z-2.1736
G01 X32.7212 Y43.4469 Z-2.1991
G01 X32.7098 Y43.5334 Z-2.2245
G01 X32.7060 Y43.6206 Z-2.2500
G01 X32.7098 Y43.7077 Z-2.2755
G01 X32.7212 Y43.7942 Z-2.3009
G01 X32.7401 Y43.8794 Z-2.3264
G01 X32.7663 Y43.9626 Z-2.3519
G01 X32.7997 Y44.0432 Z-2.3773
G01 X32.8400 Y44.1206 Z-2.4028
G01 X32.8868 Y44.1941 Z-2.4282
G01 X32.9399 Y44.2634 Z-2.4537
G01 X32.9989 Y44.3277 Z-2.4792
G01 X33.0632 Y44.3866 Z-2.5046
G01 X33.1324 Y44.4397 Z-2.5301
G01 X33.2060 Y44.4866 Z-2.5556
G01 X33.2834 Y44.5269 Z-2.5810
G01 X33.3640 Y44.5603 Z-2.6065
G01 X33.4472 Y44.5865 Z-2.6319
G01 X33.5323 Y44.6054 Z-2.6574
G01 X33.6188 Y44.6168 Z-2.6829
G01 X33.7060 Y44.6206 Z-2.7083
G01 X33.7931 Y44.6168 Z-2.7338
G01 X33.8796 Y44.6054 Z-2.7593
G01 X33.9648 Y44.5865 Z-2.7847
G01 X34.0480 Y44.5603 Z-2.8102
G01 X34.1286 Y44.5269 Z-2.8356
G01 X34.2060 Y44.4866 Z-2.8611
G01 X34.2796 Y44.4397 Z-2.8866
G01 X34.3488 Y44.3866 Z-2.9120
G01 X34.4131 Y44.3277 Z-2.9375
G01 X34.4720 Y44.2634 Z-2.9630
G01 X34.5251 Y44.1941 Z-2.9884
G01 X34.5720 Y44.1206 Z-3.0139
G01 X34.6123 Y44.0432 Z-3.0394
G01 X34.6457 Y43.9626 Z-3.0648
G01 X34.6719 Y43.8794 Z-3.0903
G01 X34.6908 Y43.7942 Z-3.1157
G01 X34.7022 Y43.7077 Z-3.1412
G01 X34.7060 Y43.6206 Z-3.1667
G01 X34.7022 Y43.5334
G01 X34.6908 Y43.4469
G01 X34.6719 Y43.3618
G01 X34.6457 Y43.2786
G01 X34.6123 Y43.1980
G01 X34.5720 Y43.1206
G01 X34.5251 Y43.0470
G01 X34.4720 Y42.9778
G01 X34.4131 Y42.9135
G01 X34.3488 Y42.8545
G01 X34.2796 Y42.8014
G01 X34.2060 Y42.7545
G01 X34.1286 Y42.7143
G01 X34.0480 Y42.6809
G01 X33.9648 Y42.6546
G01 X33.8796 Y42.6358
G01 X33.7931 Y42.6244
G01 X33.7060 Y42.6206
G01 X33.6188 Y42.6244
G01 X33.5323 Y42.6358
G01 X33.4472 Y42.6546
G01 X33.3640 Y42.6809
G01 X33.2834 Y42.7143
G01 X33.2060 Y42.7545
G01 X33.1324 Y42.8014
G01 X33.0632 Y42.8545
G01 X32.9989 Y42.9135
G01 X32.9399 Y42.9778
G01 X32.8868 Y43.0470
G01 X32.8400 Y43.1206
G01 X32.7997 Y43.1980
G01 X32.7663 Y43.2786
G01 X32.7401 Y43.3618
G01 X32.7212 Y43.4469
G01 X32.7098 Y43.5334
G01 X32.7060 Y43.6206
G01 X32.7098 Y43.7077
G01 X32.7212 Y43.7942
G01 X32.7401 Y43.8794
G01 X32.7663 Y43.9626
G01 X32.7997 Y44.0432
G01 X32.8400 Y44.1206
G01 X32.8868 Y44.1941
G01 X32.9399 Y44.2634
G01 X32.9989 Y44.3277
G01 X33.0632 Y44.3866
G01 X33.1324 Y44.4397
G01 X33.2060 Y44.4866
G01 X33.2834 Y44.5269
G01 X33.3640 Y44.5603
G01 X33.4472 Y44.5865
G01 X33.5323 Y44.6054
G01 X33.6188 Y44.6168
G01 X33.7060 Y44.6206
G01 X33.7931 Y44.6168
G01 X33.8796 Y44.6054
G01 X33.9648 Y44.5865
G01 X34.0480 Y44.5603
G01 X34.1286 Y44.5269
G01 X34.2060 Y44.4866
G01 X34.2796 Y44.4397
G01 X34.3488 Y44.3866
G01 X34.4131 Y44.3277
G01 X34.4720 Y44.2634
G01 X34.5251 Y44.1941
G01 X34.5720 Y44.1206
G01 X34.6123 Y44.0432
G01 X34.6457 Y43.9626
G01 X34.6719 Y43.8794
G01 X34.6908 Y43.7942
G01 X34.7022 Y43.7077
G01 X34.7060 Y43.6206
G01 X34.7167 Y43.5690 F1000
G01 X34.7248 Y43.5169
G01 X34.7302 Y43.4645
G01 X34.7329 Y43.4118
G01 X34.7328 Y43.3591
G01 X34.7301 Y43.3065
G01 X34.7246 Y43.2541
G01 X34.7165 Y43.2020
G01 X34.7048 Y43.1460
G01 X34.6902 Y43.0907
G01 X34.6728 Y43.0362
G01 X34.6527 Y42.9827
G01 X34.6298 Y42.9302
G01 X34.6043 Y42.8790
G01 X34.5763 Y42.8292
G01 X34.5457 Y42.7809
G01 X34.5101 Y42.7305
G01 X34.4719 Y42.6820
G01 X34.4314 Y42.6354
G01 X34.3885 Y42.5910
G01 X34.3435 Y42.5489
G01 X34.2963 Y42.5091
G01 X34.2472 Y42.4717
G01 X34.1963 Y42.4369
G01 X34.1398 Y42.4023
G01 X34.0816 Y42.3706
G01 X34.0219 Y42.3419
G01 X33.9609 Y42.3163
G01 X33.8986 Y42.2938
G01 X33.8352 Y42.2745
G01 X33.7710 Y42.2584
G01 X33.7060 Y42.2456
G01 X33.6360 Y42.2354
G01 X33.5655 Y42.2287
G01 X33.4948 Y42.2257
G01 X33.4240 Y42.2262
G01 X33.3534 Y42.2302
G01 X33.2830 Y42.2378
G01 X33.2131 Y42.2490
G01 X33.1439 Y42.2636
G01 X33.0757 Y42.2896
G01 X33.0089 Y42.3189
G01 X32.9436 Y42.3514
G01 X32.8800 Y42.3872
G01 X32.8182 Y42.4260
G01 X32.7584 Y42.4678
G01 X32.7007 Y42.5125
G01 X32.6453 Y42.5599
G01 X32.5946 Y42.6133
G01 X32.5465 Y42.6690
G01 X32.5012 Y42.7270
G01 X32.4588 Y42.7872
G01 X32.4194 Y42.8494
G01 X32.3831 Y42.9135
G01 X32.3500 Y42.9793
G01 X32.3202 Y43.0466
G01 X32.2937 Y43.1152
G01 X32.2706 Y43.1852
G01 X32.2510 Y43.2561
G01 X32.2348 Y43.3279
G01 X32.2222 Y43.4005
G01 X32.2132 Y43.4735
G01 X32.2078 Y43.5470
G01 X32.2060 Y43.6206
G01 X32.2078 Y43.6942
G01 X32.2132 Y43.7676
G01 X32.2222 Y43.8407
G01 X32.2348 Y43.9132
G01 X32.2510 Y43.9850
G01 X32.2706 Y44.0560
G01 X32.2937 Y44.1259
G01 X32.3202 Y44.1946
G01 X32.3500 Y44.2619
G01 X32.3831 Y44.3277
G01 X32.4194 Y44.3917
G01 X32.4588 Y44.4539
G01 X32.5012 Y44.5141
G01 X32.5465 Y44.5721
G01 X32.5946 Y44.6279
G01 X32.6453 Y44.6812
G01 X32.6987 Y44.7320
G01 X32.7544 Y44.7801
G01 X32.8124 Y44.8254
G01 X32.8726 Y44.8678
G01 X32.9348 Y44.9071
G01 X32.9989 Y44.9434
G01 X33.0647 Y44.9765
G01 X33.1320 Y45.0064
G01 X33.2007 Y45.0329
G01 X33.2706 Y45.0560
G01 X33.3415 Y45.0756
G01 X33.4134 Y45.0917
G01 X33.4859 Y45.1043
G01 X33.5590 Y45.1133
G01 X33.6324 Y45.1187
G01 X33.7060 Y45.1205
G01 X33.7796 Y45.1187
G01 X33.8530 Y45.1133
G01 X33.9261 Y45.1043
G01 X33.9986 Y45.0917
G01 X34.0704 Y45.0756
G01 X34.1414 Y45.0560
G01 X34.2113 Y45.0329
G01 X34.2800 Y45.0064
G01 X34.3473 Y44.9765
G01 X34.4131 Y44.9434
G01 X34.4771 Y44.9071
G01 X34.5393 Y44.8678
G01 X34.5995 Y44.8254
G01 X34.6576 Y44.7801
G01 X34.7133 Y44.7320
G01 X34.7666 Y44.6812
G01 X34.8174 Y44.6279
G01 X34.8655 Y44.5721
G01 X34.9108 Y44.5141
G01 X34.9532 Y44.4539
G01 X34.9926 Y44.3917
G01 X35.0288 Y44.3277
G01 X35.0619 Y44.2619
G01 X35.0918 Y44.1946
G01 X35.1183 Y44.1259
G01 X35.1414 Y44.0560
G01 X35.1610 Y43.9850
G01 X35.1771 Y43.9132
G01 X35.1897 Y43.8407
G01 X35.1987 Y43.7676
G01 X35.2041 Y43.6942
G01 X35.2060 Y43.6206
G01 X35.2018 Y43.5085
G01 X35.1892 Y43.3970
G01 X35.1683 Y43.2868
G01 X35.1393 Y43.1784
G01 X35.1023 Y43.0726
G01 X35.0574 Y42.9698
G01 X35.0050 Y42.8706
G01 X34.9453 Y42.7756
G01 X34.8787 Y42.6854
G01 X34.8055 Y42.6003
G01 X34.7262 Y42.5210
G01 X34.6412 Y42.4478
G01 X34.5509 Y42.3812
G01 X34.4560 Y42.3216
G01 X34.3568 Y42.2691
G01 X34.2540 Y42.2243
G01 X34.1481 Y42.1872
G01 X34.0398 Y42.1582
G01 X33.9295 Y42.1374
G01 X33.8181 Y42.1248
G01 X33.7060 Y42.1206
G01 X33.5939 Y42.1248
G01 X33.4824 Y42.1374
G01 X33.3722 Y42.1582
G01 X33.2639 Y42.1872
G01 X33.1580 Y42.2243
G01 X33.0552 Y42.2691
G01 X32.9560 Y42.3216
G01 X32.8610 Y42.3812
G01 X32.7708 Y42.4478
G01 X32.6857 Y42.5210
G01 X32.6064 Y42.6003
G01 X32.5333 Y42.6854
G01 X32.4666 Y42.7756
G01 X32.4070 Y42.8706
G01 X32.3546 Y42.9698
G01 X32.3097 Y43.0726
G01 X32.2726 Y43.1784
G01 X32.2436 Y43.2868
G01 X32.2228 Y43.3970
G01 X32.2102 Y43.5085
G01 X32.2060 Y43.6206
G01 X32.2102 Y43.7327
G01 X32.2228 Y43.8441
G01 X32.2436 Y43.9543
G01 X32.2726 Y44.0627
G01 X32.3097 Y44.1686
G01 X32.3546 Y44.2714
G01 X32.4070 Y44.3706
G01 X32.4666 Y44.4655
G01 X32.5333 Y44.5558
G01 X32.6064 Y44.6408
G01 X32.6857 Y44.7201
G01 X32.7708 Y44.7933
G01 X32.8610 Y44.8599
G01 X32.9560 Y44.9196
G01 X33.0552 Y44.9720
G01 X33.1580 Y45.0169
G01 X33.2639 Y45.0539
G01 X33.3722 Y45.0829
G01 X33.4824 Y45.1038
G01 X33.5939 Y45.1164
G01 X33.7060 Y45.1205
G01 X33.8181 Y45.1164
G01 X33.9295 Y45.1038
G01 X34.0398 Y45.0829
G01 X34.1481 Y45.0539
G01 X34.2540 Y45.0169
G01 X34.3568 Y44.9720
G01 X34.4560 Y44.9196
G01 X34.5509 Y44.8599
G01 X34.6412 Y44.7933
G01 X34.7262 Y44.7201
G01 X34.8055 Y44.6408
G01 X34.8787 Y44.5558
G01 X34.9453 Y44.4655
G01 X35.0050 Y44.3706
G01 X35.0574 Y44.2714
G01 X35.1023 Y44.1686
G01 X35.1393 Y44.0627
G01 X35.1683 Y43.9543
G01 X35.1892 Y43.8441
G01 X35.2018 Y43.7327
G01 X35.2060 Y43.6206
G01 X35.2021 Y43.5225
G01 X35.1906 Y43.4250
G01 X35.1714 Y43.3288
G01 X35.1448 Y43.2343
G01 X35.1108 Y43.1422
G01 X35.0697 Y43.0531
G01 X35.0218 Y42.9675
G01 X34.9672 Y42.8858
G01 X34.9065 Y42.8088
G01 X34.8398 Y42.7367
G01 X34.7678 Y42.6701
G01 X34.6907 Y42.6093
G01 X34.6091 Y42.5548
G01 X34.5235 Y42.5068
G01 X34.4343 Y42.4657
G01 X34.3422 Y42.4318
G01 X34.2478 Y42.4051
G01 X34.1515 Y42.3860
G01 X34.0540 Y42.3744
G01 X33.9560 Y42.3706
G01 X33.8579 Y42.3744
G01 X33.7604 Y42.3860
G01 X33.6642 Y42.4051
G01 X33.5697 Y42.4318
G01 X33.4776 Y42.4657
G01 X33.3885 Y42.5068
G01 X33.3029 Y42.5548
G01 X33.2212 Y42.6093
G01 X33.1442 Y42.6701
G01 X33.0721 Y42.7367
G01 X33.0055 Y42.8088
G01 X32.9447 Y42.8858
G01 X32.8902 Y42.9675
G01 X32.8422 Y43.0531
G01 X32.8011 Y43.1422
G01 X32.7672 Y43.2343
G01 X32.7405 Y43.3288
G01 X32.7214 Y43.4250
G01 X32.7098 Y43.5225
G01 X32.7060 Y43.6206
G01 X32.7098 Y43.7077
G01 X32.7212 Y43.7942
G01 X32.7401 Y43.8794
G01 X32.7663 Y43.9626
G01 X32.7997 Y44.0432
G01 X32.8400 Y44.1206
G01 X32.8868 Y44.1941
G01 X32.9399 Y44.2634
G01 X32.9989 Y44.3277
G01 X33.0632 Y44.3866
G01 X33.1324 Y44.4397
G01 X33.2060 Y44.4866
G01 X33.2834 Y44.5269
G01 X33.3640 Y44.5603
G01 X33.4472 Y44.5865
G01 X33.5323 Y44.6054
G01 X33.6188 Y44.6168
G01 X33.7060 Y44.6206
G01 X33.7931 Y44.6168
G01 X33.8796 Y44.6054
G01 X33.9648 Y44.5865
G01 X34.0480 Y44.5603
G01 X34.1286 Y44.5269
G01 X34.2060 Y44.4866
G01 X34.2796 Y44.4397
G01 X34.3488 Y44.3866
G01 X34.4131 Y44.3277
G01 X34.4720 Y44.2634
G01 X34.5251 Y44.1941
G01 X34.5720 Y44.1206
G01 X34.6123 Y44.0432
G01 X34.6457 Y43.9626
G01 X34.6719 Y43.8794
G01 X34.6908 Y43.7942
G01 X34.7022 Y43.7077
G01 X34.7060 Y43.6206
M107
M106 S240
G01 X34.7022 Y43.5334 Z-3.1921 F400
G01 X34.6908 Y43.4469 Z-3.2176
G01 X34.6719 Y43.3618 Z-3.2431
G01 X34.6457 Y43.2786 Z-3.2685
G01 X34.6123 Y43.1980 Z-3.2940
G01 X34.5720 Y43.1206 Z-3.3194
G01 X34.5251 Y43.0470 Z-3.3449
G01 X34.4720 Y42.9778 Z-3.3704
G01 X34.4131 Y42.9135 Z-3.3958
G01 X34.3488 Y42.8545 Z-3.4213
G01 X34.2796 Y42.8014 Z-3.4468
G01 X34.2060 Y42.7545 Z-3.4722
G01 X34.1286 Y42.7143 Z-3.4977
G01 X34.0480 Y42.6809 Z-3.5231
G01 X33.9648 Y42.6546 Z-3.5486
G01 X33.8796 Y42.6358 Z-3.5741
G01 X33.7931 Y42.6244 Z-3.5995
G01 X33.7060 Y42.6206 Z-3.6250
G01 X33.6188 Y42.6244 Z-3.6505
G01 X33.5323 Y42.6358 Z-3.6759
G01 X33.4472 Y42.6546 Z-3.7014
G01 X33.3640 Y42.6809 Z-3.7269
G01 X33.2834 Y42.7143 Z-3.7523
G01 X33.2060 Y42.7545 Z-3.7778
G01 X33.1324 Y42.8014 Z-3.8032
G01 X33.0632 Y42.8545 Z-3.8287
G01 X32.9989 Y42.9135 Z-3.8542
G01 X32.9399 Y42.9778 Z-3.8796
G01 X32.8868 Y43.0470 Z-3.9051
G01 X32.8400 Y43.1206 Z-3.9306
G01 X32.7997 Y43.1980 Z-3.9560
G01 X32.7663 Y43.2786 Z-3.9815
G01 X32.7401 Y43.3618 Z-4.0069
G01 X32.7212 Y43.4469 Z-4.0324
G01 X32.7098 Y43.5334 Z-4.0579
G01 X32.7060 Y43.6206 Z-4.0833
G01 X32.7098 Y43.7077 Z-4.1088
G01 X32.7212 Y43.7942 Z-4.1343
G01 X32.7401 Y43.8794 Z-4.1597
G01 X32.7663 Y43.9626 Z-4.1852
G01 X32.7997 Y44.0432 Z-4.2106
G01 X32.8400 Y44.1206 Z-4.2361
G01 X32.8868 Y44.1941 Z-4.2616
G01 X32.9399 Y44.2634 Z-4.2870
G01 X32.9989 Y44.3277 Z-4.3125
G01 X33.0632 Y44.3866 Z-4.3380
G01 X33.1324 Y44.4397 Z-4.3634
G01 X33.2060 Y44.4866 Z-4.3889
G01 X33.2834 Y44.5269 Z-4.4144
G01 X33.3640 Y44.5603 Z-4.4398
G01 X33.4472 Y44.5865 Z-4.4653
G01 X33.5323 Y44.6054 Z-4.4907
G01 X33.6188 Y44.6168 Z-4.5162
G01 X33.7060 Y44.6206 Z-4.5417
G01 X33.7931 Y44.6168 Z-4.5671
G01 X33.8796 Y44.6054 Z-4.5926
G01 X33.9648 Y44.5865 Z-4.6181
G01 X34.0480 Y44.5603 Z-4.6435
G01 X34.1286 Y44.5269 Z-4.6690
G01 X34.2060 Y44.4866 Z-4.6944
G01 X34.2796 Y44.4397 Z-4.7199
G01 X34.3488 Y44.3866 Z-4.7454
G01 X34.4131 Y44.3277 Z-4.7708
G01 X34.4720 Y44.2634 Z-4.7963
G01 X34.5251 Y44.1941 Z-4.8218
G01 X34.5720 Y44.1206 Z-4.8472
G01 X34.6123 Y44.0432 Z-4.8727
G01 X34.6457 Y43.9626 Z-4.8981
G01 X34.6719 Y43.8794 Z-4.9236
G01 X34.6908 Y43.7942 Z-4.9491
G01 X34.7022 Y43.7077 Z-4.9745
G01 X34.7060 Y43.6206 Z-5.0000
G01 X34.7022 Y43.5334
G01 X34.6908 Y43.4469
G01 X34.6719 Y43.3618
G01 X34.6457 Y43.2786
G01 X34.6123 Y43.1980
G01 X34.5720 Y43.1206
G01 X34.5251 Y43.0470
G01 X34.4720 Y42.9778
G01 X34.4131 Y42.9135
G01 X34.3488 Y42.8545
G01 X34.2796 Y42.8014
G01 X34.2060 Y42.7545
G01 X34.1286 Y42.7143
G01 X34.0480 Y42.6809
G01 X33.9648 Y42.6546
G01 X33.8796 Y42.6358
G01 X33.7931 Y42.6244
G01 X33.7060 Y42.6206
G01 X33.6188 Y42.6244
G01 X33.5323 Y42.6358
G01 X33.4472 Y42.6546
G01 X33.3640 Y42.6809
G01 X33.2834 Y42.7143
G01 X33.2060 Y42.7545
G01 X33.1324 Y42.8014
G01 X33.0632 Y42.8545
G01 X32.9989 Y42.9135
G01 X32.9399 Y42.9778
G01 X32.8868 Y43.0470
G01 X32.8400 Y43.1206
G01 X32.7997 Y43.1980
G01 X32.7663 Y43.2786
G01 X32.7401 Y43.3618
G01 X32.7212 Y43.4469
G01 X32.7098 Y43.5334
G01 X32.7060 Y43.6206
G01 X32.7098 Y43.7077
G01 X32.7212 Y43.7942
G01 X32.7401 Y43.8794
G01 X32.7663 Y43.9626
G01 X32.7997 Y44.0432
G01 X32.8400 Y44.1206
G01 X32.8868 Y44.1941
G01 X32.9399 Y44.2634
G01 X32.9989 Y44.3277
G01 X33.0632 Y44.3866
G01 X33.1324 Y44.4397
G01 X33.2060 Y44.4866
G01 X33.2834 Y44.5269
G01 X33.3640 Y44.5603
G01 X33.4472 Y44.5865
G01 X33.5323 Y44.6054
G01 X33.6188 Y44.6168
G01 X33.7060 Y44.6206
G01 X33.7931 Y44.6168
G01 X33.8796 Y44.6054
G01 X33.9648 Y44.5865
G01 X34.0480 Y44.5603
G01 X34.1286 Y44.5269
G01 X34.2060 Y44.4866
G01 X34.2796 Y44.4397
G01 X34.3488 Y44.3866
G01 X34.4131 Y44.3277
G01 X34.4720 Y44.2634
G01 X34.5251 Y44.1941
G01 X34.5720 Y44.1206
G01 X34.6123 Y44.0432
G01 X34.6457 Y43.9626
G01 X34.6719 Y43.8794
G01 X34.6908 Y43.7942
G01 X34.7022 Y43.7077
G01 X34.7060 Y43.6206
G01 X34.7167 Y43.5690 F1000
G01 X34.7248 Y43.5169
G01 X34.7302 Y43.4645
G01 X34.7329 Y43.4118
G01 X34.7328 Y43.3591
G01 X34.7301 Y43.3065
G01 X34.7246 Y43.2541
G01 X34.7165 Y43.2020
G01 X34.7048 Y43.1460
G01 X34.6902 Y43.0907
G01 X34.6728 Y43.0362
G01 X34.6527 Y42.9827
G01 X34.6298 Y42.9302
G01 X34.6043 Y42.8790
G01 X34.5763 Y42.8292
G01 X34.5457 Y42.7809
G01 X34.5101 Y42.7305
G01 X34.4719 Y42.6820
G01 X34.4314 Y42.6354
G01 X34.3885 Y42.5910
G01 X34.3435 Y42.5489
G01 X34.2963 Y42.5091
G01 X34.2472 Y42.4717
G01 X34.1963 Y42.4369
G01 X34.1398 Y42.4023
G01 X34.0816 Y42.3706
G01 X34.0219 Y42.3419
G01 X33.9609 Y42.3163
G01 X33.8986 Y42.2938
G01 X33.8352 Y42.2745
G01 X33.7710 Y42.2584
G01 X33.7060 Y42.2456
G01 X33.6360 Y42.2354
G01 X33.5655 Y42.2287
G01 X33.4948 Y42.2257
G01 X33.4240 Y42.2262
G01 X33.3534 Y42.2302
G01 X33.2830 Y42.2378
G01 X33.2131 Y42.2490
G01 X33.1439 Y42.2636
G01 X33.0757 Y42.2896
G01 X33.0089 Y42.3189
G01 X32.9436 Y42.3514
G01 X32.8800 Y42.3872
G01 X32.8182 Y42.4260
G01 X32.7584 Y42.4678
G01 X32.7007 Y42.5125
G01 X32.6453 Y42.5599
G01 X32.5946 Y42.6133
G01 X32.5465 Y42.6690
G01 X32.5012 Y42.7270
G01 X32.4588 Y42.7872
G01 X32.4194 Y42.8494
G01 X32.3831 Y42.9135
G01 X32.3500 Y42.9793
G01 X32.3202 Y43.0466
G01 X32.2937 Y43.1152
G01 X32.2706 Y43.1852
G01 X32.2510 Y43.2561
G01 X32.2348 Y43.3279
G01 X32.2222 Y43.4005
G01 X32.2132 Y43.4735
G01 X32.2078 Y43.5470
G01 X32.2060 Y43.6206
G01 X32.2078 Y43.6942
G01 X32.2132 Y43.7676
G01 X32.2222 Y43.8407
G01 X32.2348 Y43.9132
G01 X32.2510 Y43.9850
G01 X32.2706 Y44.0560
G01 X32.2937 Y44.1259
G01 X32.3202 Y44.1946
G01 X32.3500 Y44.2619
G01 X32.3831 Y44.3277
G01 X32.4194 Y44.3917
G01 X32.4588 Y44.4539
G01 X32.5012 Y44.5141
G01 X32.5465 Y44.5721
G01 X32.5946 Y44.6279
G01 X32.6453 Y44.6812
G01 X32.6987 Y44.7320
G01 X32.7544 Y44.7801
G01 X32.8124 Y44.8254
G01 X32.8726 Y44.8678
G01 X32.9348 Y44.9071
G01 X32.9989 Y44.9434
G01 X33.0647 Y44.9765
G01 X33.1320 Y45.0064
G01 X33.2007 Y45.0329
G01 X33.2706 Y45.0560
G01 X33.3415 Y45.0756
G01 X33.4134 Y45.0917
G01 X33.4859 Y45.1043
G01 X33.5590 Y45.1133
G01 X33.6324 Y45.1187
G01 X33.7060 Y45.1205
G01 X33.7796 Y45.1187
G01 X33.8530 Y45.1133
G01 X33.9261 Y45.1043
G01 X33.9986 Y45.0917
G01 X34.0704 Y45.0756
G01 X34.1414 Y45.0560
G01 X34.2113 Y45.0329
G01 X34.2800 Y45.0064
G01 X34.3473 Y44.9765
G01 X34.4131 Y44.9434
G01 X34.4771 Y44.9071
G01 X34.5393 Y44.8678
G01 X34.5995 Y44.8254
G01 X34.6576 Y44.7801
G01 X34.7133 Y44.7320
G01 X34.7666 Y44.6812
G01 X34.8174 Y44.6279
G01 X34.8655 Y44.5721
G01 X34.9108 Y44.5141
G01 X34.9532 Y44.4539
G01 X34.9926 Y44.3917
G01 X35.0288 Y44.3277
G01 X35.0619 Y44.2619
G01 X35.0918 Y44.1946
G01 X35.1183 Y44.1259
G01 X35.1414 Y44.0560
G01 X35.1610 Y43.9850
G01 X35.1771 Y43.9132
G01 X35.1897 Y43.8407
G01 X35.1987 Y43.7676
G01 X35.2041 Y43.6942
G01 X35.2060 Y43.6206
G01 X35.2018 Y43.5085
G01 X35.1892 Y43.3970
G01 X35.1683 Y43.2868
G01 X35.1393 Y43.1784
G01 X35.1023 Y43.0726
G01 X35.0574 Y42.9698
G01 X35.0050 Y42.8706
G01 X34.9453 Y42.7756
G01 X34.8787 Y42.6854
G01 X34.8055 Y42.6003
G01 X34.7262 Y42.5210
G01 X34.6412 Y42.4478
G01 X34.5509 Y42.3812
G01 X34.4560 Y42.3216
G01 X34.3568 Y42.2691
G01 X34.2540 Y42.2243
G01 X34.1481 Y42.1872
G01 X34.0398 Y42.1582
G01 X33.9295 Y42.1374
G01 X33.8181 Y42.1248
G01 X33.7060 Y42.1206
G01 X33.5939 Y42.1248
G01 X33.4824 Y42.1374
G01 X33.3722 Y42.1582
G01 X33.2639 Y42.1872
G01 X33.1580 Y42.2243
G01 X33.0552 Y42.2691
G01 X32.9560 Y42.3216
G01 X32.8610 Y42.3812
G01 X32.7708 Y42.4478
G01 X32.6857 Y42.5210
G01 X32.6064 Y42.6003
G01 X32.5333 Y42.6854
G01 X32.4666 Y42.7756
G01 X32.4070 Y42.8706
G01 X32.3546 Y42.9698
G01 X32.3097 Y43.0726
G01 X32.2726 Y43.1784
G01 X32.2436 Y43.2868
G01 X32.2228 Y43.3970
G01 X32.2102 Y43.5085
G01 X32.2060 Y43.6206
G01 X32.2102 Y43.7327
G01 X32.2228 Y43.8441
G01 X32.2436 Y43.9543
G01 X32.2726 Y44.0627
G01 X32.3097 Y44.1686
G01 X32.3546 Y44.2714
G01 X32.4070 Y44.3706
G01 X32.4666 Y44.4655
G01 X32.5333 Y44.5558
G01 X32.6064 Y44.6408
G01 X32.6857 Y44.7201
G01 X32.7708 Y44.7933
G01 X32.8610 Y44.8599
G01 X32.9560 Y44.9196
G01 X33.0552 Y44.9720
G01 X33.1580 Y45.0169
G01 X33.2639 Y45.0539
G01 X33.3722 Y45.0829
G01 X33.4824 Y45.1038
G01 X33.5939 Y45.1164
G01 X33.7060 Y45.1205
G01 X33.8181 Y45.1164
G01 X33.9295 Y45.1038
G01 X34.0398 Y45.0829
G01 X34.1481 Y45.0539
G01 X34.2540 Y45.0169
G01 X34.3568 Y44.9720
G01 X34.4560 Y44.9196
G01 X34.5509 Y44.8599
G01 X34.6412 Y44.7933
G01 X34.7262 Y44.7201
G01 X34.8055 Y44.6408
G01 X34.8787 Y44.5558
G01 X34.9453 Y44.4655
G01 X35.0050 Y44.3706
G01 X35.0574 Y44.2714
G01 X35.1023 Y44.1686
G01 X35.1393 Y44.0627
G01 X35.1683 Y43.9543
G01 X35.1892 Y43.8441
G01 X35.2018 Y43.7327
G01 X35.2060 Y43.6206
M107
M106 S240
G01 X35.2029 Y43.5421 Z-4.9750 F400
M107
M106 S240
G01 X35.1936 Y43.4641 Z-4.9500
M107
M106 S240
G01 X35.1783 Y43.3871 Z-4.9250
M107
M106 S240
G01 X35.1570 Y43.3116 Z-4.9000
M107
M106 S240
G01 X35.1298 Y43.2379 Z-4.8750
M107
M106 S240
G01 X35.0970 Y43.1666 Z-4.8500
M107
M106 S240
G01 X35.0586 Y43.0981 Z-4.8250
M107
M106 S240
G01 X35.0150 Y43.0328 Z-4.8000
M107
M106 S240
G01 X34.9664 Y42.9711 Z-4.7750
M107
M106 S240
G01 X34.9131 Y42.9135 Z-4.7500
M107
M106 S240
G01 X34.8554 Y42.8602 Z-4.7250
M107
M106 S240
G01 X34.7937 Y42.8116 Z-4.7000
M107
M106 S240
G01 X34.7285 Y42.7679 Z-4.6750
M107
M106 S240
G01 X34.6599 Y42.7296 Z-4.6500
M107
M106 S240
G01 X34.5886 Y42.6967 Z-4.6250
M107
M106 S240
G01 X34.5150 Y42.6695 Z-4.6000
M107
M106 S240
G01 X34.4394 Y42.6482 Z-4.5750
M107
M106 S240
G01 X34.3624 Y42.6329 Z-4.5500
M107
M106 S240
G01 X34.2844 Y42.6237 Z-4.5250
M107
M106 S240
G01 X34.2060 Y42.6206 Z-4.5000
M107
G00 Z2.0000


;No. 2: Hole 22
G00 X55.7118 Y48.4400 Z2.0000
G00 Z0.5000
G01 Z0.0000 F400
G01 Z-1.1000
M106 S240
G01 X74.2839 F1000
G01 Y49.9400
G01 X72.0690
G01 X72.4775
G01 Y51.4400
G01 X74.2839
G01 Y52.9400
G01 X72.4775
G01 Y54.4400
G01 X74.2839
G01 Y55.9400
G01 X72.4775
M107
G00 Z2.0000
G00 X57.9267 Y48.4400
G00 Z0.5000
G01 Z-1.1000 F400
M106 S240
G01 Y49.9400 F1000
G01 X55.7118
G01 Y51.4400
G01 X57.5182
G01 Y52.9400
G01 X55.7118
G01 Y54.4400
G01 X57.5182
G01 Y55.9400
G01 X55.7118
G01 X55.5118 Y55.9250
G01 Y57.0840
G01 X57.7182
G01 Y50.8412
G01 X57.7213 Y50.7627
G01 X57.7306 Y50.6848
G01 X57.7459 Y50.6077
G01 X57.7672 Y50.5322
G01 X57.7944 Y50.4585
G01 X57.8272 Y50.3872
G01 X57.8656 Y50.3187
G01 X57.9092 Y50.2534
G01 X57.9578 Y50.1917
G01 X58.0111 Y50.1341
G01 X58.0688 Y50.0808
G01 X58.1305 Y50.0322
G01 X58.1957 Y49.9885
G01 X58.2643 Y49.9502
G01 X58.3356 Y49.9173
G01 X58.4092 Y49.8901
G01 X58.4848 Y49.8688
G01 X58.5618 Y49.8535
G01 X58.6398 Y49.8443
G01 X58.7182 Y49.8412
G01 X71.2775
G01 X71.3211 Y49.8421
G01 X71.3646 Y49.8450
G01 X71.4080 Y49.8497
G01 X71.4511 Y49.8564
G01 X71.4939 Y49.8649
G01 X71.5363 Y49.8753
G01 X71.5782 Y49.8875
G01 X71.6195 Y49.9015
G01 X71.6602 Y49.9173
G01 X71.7001 Y49.9349
G01 X71.7392 Y49.9542
G01 X71.7775 Y49.9752
G01 X71.8148 Y49.9978
G01 X71.8511 Y50.0220
G01 X71.8862 Y50.0478
G01 X71.9203 Y50.0751
G01 X71.9531 Y50.1039
G01 X71.9846 Y50.1341
G01 X72.0148 Y50.1656
G01 X72.0435 Y50.1984
G01 X72.0708 Y50.2324
G01 X72.0966 Y50.2676
G01 X72.1209 Y50.3039
G01 X72.1435 Y50.3412
G01 X72.1645 Y50.3794
G01 X72.1838 Y50.4186
G01 X72.2014 Y50.4585
G01 X72.2172 Y50.4992
G01 X72.2312 Y50.5405
G01 X72.2434 Y50.5824
G01 X72.2538 Y50.6247
G01 X72.2623 Y50.6675
G01 X72.2689 Y50.7107
G01 X72.2737 Y50.7540
G01 X72.2765 Y50.7976
G01 X72.2775 Y50.8412
G01 Y57.0840
G01 X74.4839
G01 Y47.2959
G01 X55.5118
G01 Y55.9250
G01 X55.7118 Y55.9400
M107
G00 Z2.0000


;No. 3: Hole 21
G00 X56.2680 Y63.0552 Z2.0000
G00 Z0.5000
G01 Z0.0000 F400
G01 Z-1.1000
M106 S240
G01 X73.7157 F1000
G01 X73.8566 Y62.9101
G01 X73.7812 Y62.8086
G01 X73.7011 Y62.7109
G01 X73.6164 Y62.6170
G01 X73.5274 Y62.5272
G01 X73.4341 Y62.4418
G01 X73.3370 Y62.3608
G01 X73.2361 Y62.2846
G01 X73.1317 Y62.2133
G01 X73.0241 Y62.1470
G01 X72.9134 Y62.0858
G01 X72.8000 Y62.0300
G01 X72.6840 Y61.9796
G01 X72.5658 Y61.9348
G01 X72.4455 Y61.8956
G01 X72.3236 Y61.8622
G01 X72.2002 Y61.8346
G01 X72.0756 Y61.8129
G01 X71.9502 Y61.7971
G01 X71.8241 Y61.7873
G01 X71.6978 Y61.7835
G01 X58.3004
G01 X58.1559 Y61.7888
G01 X58.0119 Y61.8016
G01 X57.8688 Y61.8220
G01 X57.7269 Y61.8499
G01 X57.5868 Y61.8852
G01 X57.4486 Y61.9278
G01 X57.3129 Y61.9776
G01 X57.1800 Y62.0345
G01 X57.0502 Y62.0983
G01 X56.9240 Y62.1688
G01 X56.8017 Y62.2458
G01 X56.6835 Y62.3291
G01 X56.5699 Y62.4186
G01 X56.4612 Y62.5139
G01 X56.3576 Y62.6147
G01 X56.2595 Y62.7209
G01 X56.1671 Y62.8321
G01 X56.0806 Y62.9479
G01 X56.0004 Y63.0682
G01 X55.9265 Y63.1925
G01 X55.8594 Y63.3205
G01 X55.7990 Y63.4519
G01 X55.7456 Y63.5862
G01 X55.6993 Y63.7232
G01 X55.6515 Y63.8713
G01 X55.6110 Y64.0215
G01 X55.5777 Y64.1735
G01 X55.5518 Y64.3269
G01 X74.4444 Y64.3235
G01 X74.4114 Y64.1329
G01 X74.3663 Y63.9449
G01 X74.3094 Y63.7601
G01 X74.2408 Y63.5792
G01 X74.1609 Y63.4031
G01 X74.0700 Y63.2325
G01 X73.9685 Y63.0679
G01 X73.8566 Y62.9101
G01 X73.7157 Y63.0552
M107
G00 Z2.0000


;No. 4: Hole 23
G00 X80.8825 Y63.3114 Z2.0000
G00 Z0.5000
G01 Z0.0000 F400
G01 Z-1.1000
M106 S240
G01 X83.8489 F1000
G01 X85.2377 Y61.8114
G01 X82.2679
G01 X82.5375
G01 Y60.3114
G01 X86.6264
G01 X88.0151 Y58.8114
G01 X82.5375
G01 Y57.3114
G01 X84.6521
G01 X84.3439
G01 Y55.8114
G01 X82.5375
G01 Y54.3114
G01 X84.3439
G01 Y52.8114
G01 X82.5375
G01 Y51.3114
G01 X84.3439
G01 Y49.8114
G01 X82.5375
G01 Y48.3114
G01 X84.3439
M107
G00 Z2.0000
G00 X86.4374 Y58.8114
G00 Z0.5000
G01 Z-1.1000 F400
M106 S240
G01 Y57.3114 F1000
G01 X89.4039
G01 X90.7926 Y55.8114
G01 X87.8262
G01 X89.2149 Y54.3114
G01 X92.1813
G01 X93.5701 Y52.8114
G01 X90.6036
G01 X91.9923 Y51.3114
G01 X97.7568
G01 Y49.8114
G01 X93.3811
G01 X94.7698 Y48.3114
G01 X97.7568
G01 X95.8448 Y52.8114
G01 X97.7568
G01 Y54.3114
G01 X95.9504
G01 Y55.8114
G01 X97.7568
G01 Y57.3114
G01 X95.9504
G01 Y58.8114
G01 X97.7568
G01 Y60.3114
G01 X95.9504
G01 Y61.8114
G01 X97.7568
G01 Y63.3114
G01 X95.9504
G01 X95.7504 Y63.2939
G01 Y64.3269
G01 X97.9568
G01 Y47.2959
G01 X95.4374
G01 X86.2777 Y57.1895
G01 X86.2457 Y57.2226
G01 X86.2121 Y57.2541
G01 X86.1772 Y57.2841
G01 X86.1409 Y57.3124
G01 X86.1033 Y57.3391
G01 X86.0646 Y57.3639
G01 X86.0247 Y57.3870
G01 X85.9838 Y57.4082
G01 X85.9420 Y57.4275
G01 X85.8994 Y57.4448
G01 X85.8560 Y57.4602
G01 X85.8119 Y57.4736
G01 X85.7673 Y57.4849
G01 X85.7222 Y57.4941
G01 X85.6767 Y57.5013
G01 X85.6309 Y57.5064
G01 X85.5849 Y57.5093
G01 X85.5389 Y57.5101
G01 X85.4929 Y57.5088
G01 X85.4470 Y57.5054
G01 X85.4012 Y57.4999
G01 X85.3558 Y57.4923
G01 X85.3108 Y57.4826
G01 X85.2663 Y57.4708
G01 X85.2224 Y57.4570
G01 X85.1791 Y57.4412
G01 X85.1366 Y57.4234
G01 X85.0950 Y57.4037
G01 X85.0544 Y57.3821
G01 X85.0147 Y57.3586
G01 X84.9762 Y57.3334
G01 X84.9389 Y57.3064
G01 X84.9029 Y57.2777
G01 X84.8683 Y57.2474
G01 X84.8351 Y57.2155
G01 X84.8033 Y57.1821
G01 X84.7732 Y57.1473
G01 X84.7447 Y57.1111
G01 X84.7179 Y57.0737
G01 X84.6928 Y57.0351
G01 X84.6695 Y56.9953
G01 X84.6481 Y56.9546
G01 X84.6286 Y56.9128
G01 X84.6110 Y56.8703
G01 X84.5955 Y56.8269
G01 X84.5819 Y56.7829
G01 X84.5703 Y56.7384
G01 X84.5609 Y56.6933
G01 X84.5535 Y56.6479
G01 X84.5482 Y56.6021
G01 X84.5450 Y56.5562
G01 X84.5439 Y56.5101
G01 Y47.2959
G01 X82.3375
G01 Y61.0536
G01 X82.3364 Y61.1002
G01 X82.3332 Y61.1468
G01 X82.3277 Y61.1932
G01 X82.3201 Y61.2392
G01 X82.3104 Y61.2849
G01 X82.2986 Y61.3300
G01 X82.2846 Y61.3746
G01 X82.2686 Y61.4184
G01 X82.2506 Y61.4615
G01 X82.2305 Y61.5036
G01 X82.2086 Y61.5448
G01 X82.1847 Y61.5849
G01 X82.1590 Y61.6239
G01 X82.1315 Y61.6616
G01 X82.1022 Y61.6980
G01 X82.0713 Y61.7329
G01 X79.6698 Y64.3269
G01 X83.1813
G01 X94.0166 Y52.6235
G01 X94.0773 Y52.5633
G01 X94.1429 Y52.5085
G01 X94.2130 Y52.4595
G01 X94.2870 Y52.4167
G01 X94.3644 Y52.3804
G01 X94.4446 Y52.3508
G01 X94.5271 Y52.3281
G01 X94.6111 Y52.3126
G01 X94.6962 Y52.3044
G01 X94.7817 Y52.3034
G01 X94.8670 Y52.3097
G01 X94.9514 Y52.3233
G01 X95.0343 Y52.3441
G01 X95.1152 Y52.3718
G01 X95.1934 Y52.4064
G01 X95.2684 Y52.4475
G01 X95.3395 Y52.4949
G01 X95.4064 Y52.5482
G01 X95.4685 Y52.6070
G01 X95.5253 Y52.6708
G01 X95.5765 Y52.7393
G01 X95.6216 Y52.8120
G01 X95.6603 Y52.8882
G01 X95.6924 Y52.9674
G01 X95.7176 Y53.0491
G01 X95.7358 Y53.1327
G01 X95.7467 Y53.2175
G01 X95.7504 Y53.3029
G01 Y63.2939
G01 X95.9504 Y63.3114
M107
G00 Z2.0000


;No. 5: Hole 24
G00 X102.6560 Y63.3114 Z2.0000
G00 Z0.5000
G01 Z0.0000 F400
G01 Z-1.1000
M106 S240
G01 X104.4641 F1000
G01 Y61.8114
G01 X102.6560
G01 Y60.3114
G01 X104.4641
G01 Y58.8114
G01 X102.6560
G01 Y57.3114
G01 X104.4641
G01 Y55.8114
G01 X102.6560
G01 Y54.3114
G01 X104.4641
G01 Y52.8114
G01 X102.6560
G01 Y51.3114
G01 X104.4641
G01 Y49.8114
G01 X105.0488
G01 X102.6560
G01 Y48.3114
G01 X120.4446
G01 X120.6067 Y48.1921
G01 X120.5127 Y48.0896
G01 X120.4134 Y47.9923
G01 X120.3090 Y47.9004
G01 X120.1999 Y47.8142
G01 X120.0863 Y47.7340
G01 X119.9686 Y47.6599
G01 X119.8471 Y47.5922
G01 X119.7222 Y47.5311
G01 X119.5942 Y47.4768
G01 X119.4635 Y47.4294
G01 X119.3304 Y47.3890
G01 X119.1954 Y47.3557
G01 X119.0588 Y47.3297
G01 X118.9209 Y47.3111
G01 X118.7823 Y47.2998
G01 X118.6433 Y47.2959
G01 X102.4560
G01 Y64.3269
G01 X104.6641
G01 Y50.8412
G01 X104.6672 Y50.7622
G01 X104.6765 Y50.6838
G01 X104.6920 Y50.6063
G01 X104.7136 Y50.5303
G01 X104.7411 Y50.4562
G01 X104.7744 Y50.3845
G01 X104.8133 Y50.3157
G01 X104.8574 Y50.2502
G01 X104.9066 Y50.1883
G01 X104.9605 Y50.1305
G01 X105.0188 Y50.0772
G01 X105.0811 Y50.0286
G01 X105.1471 Y49.9852
G01 X105.2163 Y49.9470
G01 X105.2883 Y49.9144
G01 X105.3627 Y49.8877
G01 X105.4389 Y49.8668
G01 X105.5165 Y49.8521
G01 X105.5951 Y49.8435
G01 X105.6741 Y49.8412
G01 X121.3896 Y49.8364
G01 X121.3487 Y49.6089
G01 X121.2906 Y49.3852
G01 X121.2156 Y49.1665
G01 X121.1243 Y48.9542
G01 X121.0170 Y48.7494
G01 X120.8945 Y48.5534
G01 X120.7575 Y48.3673
G01 X120.6067 Y48.1921
G01 X120.4446 Y48.3114
M107
G00 Z2.0000


;No. 6: Hole 25
G00 X130.0288 Y57.3114 Z2.0000
G00 Z0.5000
G01 Z0.0000 F400
G01 Z-1.1000
M106 S240
G01 X132.9952 F1000
G01 X134.3839 Y55.8114
G01 X131.4175
G01 X132.8062 Y54.3114
G01 X138.0236
G01 X136.6350 Y52.8114
G01 X134.1948
G01 X134.5117
G01 Y51.3114
G01 X136.3181
G01 Y49.8114
G01 X134.5117
G01 Y48.3114
G01 X136.3181
M107
G00 Z2.0000
G00 X136.4475 Y54.3114
G00 Z0.5000
G01 Z-1.1000 F400
M106 S240
G01 Y55.8114 F1000
G01 X139.4123
G01 X140.8010 Y57.3114
G01 X137.8358
G01 X139.2242 Y58.8114
G01 X142.1897
G01 X143.5785 Y60.3114
G01 X140.6126
G01 X142.0009 Y61.8114
G01 X144.7009
G01 Y63.3114
G01 X142.8945
M107
G00 Z2.0000
G00 X131.6065 Y57.3114
G00 Z0.5000
G01 Z-1.1000 F400
M106 S240
G01 Y58.8114 F1000
G01 X128.6400
G01 X127.2513 Y60.3114
G01 X130.2177
G01 X128.8290 Y61.8114
G01 X126.1289
G01 Y63.3114
G01 X127.9353
G01 X128.1353 Y63.4292
G01 X128.1276 Y63.3520
G01 X128.1256 Y63.2745
G01 X128.1291 Y63.1970
G01 X128.1383 Y63.1200
G01 X128.1530 Y63.0439
G01 X128.1732 Y62.9690
G01 X128.1988 Y62.8958
G01 X128.2296 Y62.8246
G01 X128.2654 Y62.7558
G01 X128.3062 Y62.6899
G01 X128.3516 Y62.6270
G01 X128.4015 Y62.5676
G01 X134.6819 Y55.7839
G01 X134.7403 Y55.7259
G01 X134.8033 Y55.6728
G01 X134.8705 Y55.6251
G01 X134.9413 Y55.5830
G01 X135.0154 Y55.5470
G01 X135.0921 Y55.5171
G01 X135.1711 Y55.4937
G01 X135.2517 Y55.4769
G01 X135.3335 Y55.4667
G01 X135.4158 Y55.4633
G01 X135.4981 Y55.4667
G01 X135.5798 Y55.4769
G01 X135.6605 Y55.4937
G01 X135.7394 Y55.5172
G01 X135.8162 Y55.5470
G01 X135.8903 Y55.5831
G01 X135.9611 Y55.6251
G01 X136.0282 Y55.6729
G01 X136.0912 Y55.7259
G01 X136.1496 Y55.7840
G01 X142.4284 Y62.5677
G01 X142.4593 Y62.6027
G01 X142.4885 Y62.6391
G01 X142.5160 Y62.6768
G01 X142.5417 Y62.7157
G01 X142.5656 Y62.7558
G01 X142.5875 Y62.7970
G01 X142.6076 Y62.8392
G01 X142.6256 Y62.8822
G01 X142.6416 Y62.9260
G01 X142.6555 Y62.9706
G01 X142.6674 Y63.0157
G01 X142.6771 Y63.0614
G01 X142.6847 Y63.1074
G01 X142.6901 Y63.1538
G01 X142.6934 Y63.2003
G01 X142.6945 Y63.2470
G01 Y64.3269
G01 X144.9009
G01 Y61.4454
G01 X136.7843 Y52.6785
G01 X136.7534 Y52.6435
G01 X136.7242 Y52.6071
G01 X136.6967 Y52.5694
G01 X136.6709 Y52.5304
G01 X136.6471 Y52.4903
G01 X136.6251 Y52.4491
G01 X136.6051 Y52.4070
G01 X136.5870 Y52.3639
G01 X136.5710 Y52.3201
G01 X136.5571 Y52.2755
G01 X136.5452 Y52.2304
G01 X136.5355 Y52.1847
G01 X136.5279 Y52.1387
G01 X136.5225 Y52.0923
G01 X136.5192 Y52.0458
G01 X136.5181 Y51.9991
G01 Y47.2959
G01 X134.3117
G01 Y51.9991
G01 X134.3106 Y52.0458
G01 X134.3073 Y52.0923
G01 X134.3019 Y52.1387
G01 X134.2943 Y52.1847
G01 X134.2846 Y52.2304
G01 X134.2727 Y52.2755
G01 X134.2588 Y52.3201
G01 X134.2428 Y52.3639
G01 X134.2247 Y52.4070
G01 X134.2047 Y52.4491
G01 X134.1827 Y52.4903
G01 X134.1588 Y52.5304
G01 X134.1331 Y52.5694
G01 X134.1056 Y52.6071
G01 X134.0764 Y52.6435
G01 X134.0455 Y52.6785
G01 X125.9289 Y61.4454
G01 Y64.3269
G01 X128.1353
G01 Y63.4292
G01 X127.9353 Y63.3114
M107
G00 Z2.0000


;No. 7: Helical drill 5
G00 X167.7060 Y43.6206 Z2.0000
G00 Z0.5000
M106 S240
G01 X167.7022 Y43.5334 Z0.4745 F400
G01 X167.6908 Y43.4469 Z0.4491
G01 X167.6719 Y43.3617 Z0.4236
G01 X167.6457 Y43.2785 Z0.3981
G01 X167.6123 Y43.1979 Z0.3727
G01 X167.5720 Y43.1206 Z0.3472
G01 X167.5251 Y43.0470 Z0.3218
G01 X167.4720 Y42.9778 Z0.2963
G01 X167.4131 Y42.9135 Z0.2708
G01 X167.3488 Y42.8545 Z0.2454
G01 X167.2796 Y42.8014 Z0.2199
G01 X167.2060 Y42.7545 Z0.1944
G01 X167.1286 Y42.7143 Z0.1690
G01 X167.0480 Y42.6809 Z0.1435
G01 X166.9648 Y42.6546 Z0.1181
G01 X166.8796 Y42.6358 Z0.0926
G01 X166.7931 Y42.6244 Z0.0671
G01 X166.7060 Y42.6206 Z0.0417
G01 X166.6188 Y42.6244 Z0.0162
G01 X166.5323 Y42.6358 Z-0.0093
G01 X166.4472 Y42.6546 Z-0.0347
G01 X166.3640 Y42.6809 Z-0.0602
G01 X166.2834 Y42.7143 Z-0.0856
G01 X166.2060 Y42.7545 Z-0.1111
G01 X166.1324 Y42.8014 Z-0.1366
G01 X166.0632 Y42.8545 Z-0.1620
G01 X165.9989 Y42.9135 Z-0.1875
G01 X165.9399 Y42.9778 Z-0.2130
G01 X165.8868 Y43.0470 Z-0.2384
G01 X165.8400 Y43.1206 Z-0.2639
G01 X165.7997 Y43.1979 Z-0.2894
G01 X165.7663 Y43.2785 Z-0.3148
G01 X165.7401 Y43.3617 Z-0.3403
G01 X165.7212 Y43.4469 Z-0.3657
G01 X165.7098 Y43.5334 Z-0.3912
G01 X165.7060 Y43.6206 Z-0.4167
G01 X165.7098 Y43.7077 Z-0.4421
G01 X165.7212 Y43.7942 Z-0.4676
G01 X165.7401 Y43.8794 Z-0.4931
G01 X165.7663 Y43.9626 Z-0.5185
G01 X165.7997 Y44.0432 Z-0.5440
G01 X165.8400 Y44.1206 Z-0.5694
G01 X165.8868 Y44.1941 Z-0.5949
G01 X165.9399 Y44.2633 Z-0.6204
G01 X165.9989 Y44.3277 Z-0.6458
G01 X166.0632 Y44.3866 Z-0.6713
G01 X166.1324 Y44.4397 Z-0.6968
G01 X166.2060 Y44.4866 Z-0.7222
G01 X166.2834 Y44.5269 Z-0.7477
G01 X166.3640 Y44.5603 Z-0.7731
G01 X166.4472 Y44.5865 Z-0.7986
G01 X166.5323 Y44.6054 Z-0.8241
G01 X166.6188 Y44.6168 Z-0.8495
G01 X166.7060 Y44.6206 Z-0.8750
G01 X166.7931 Y44.6168 Z-0.9005
G01 X166.8796 Y44.6054 Z-0.9259
G01 X166.9648 Y44.5865 Z-0.9514
G01 X167.0480 Y44.5603 Z-0.9769
G01 X167.1286 Y44.5269 Z-1.0023
G01 X167.2060 Y44.4866 Z-1.0278
G01 X167.2796 Y44.4397 Z-1.0532
G01 X167.3488 Y44.3866 Z-1.0787
G01 X167.4131 Y44.3277 Z-1.1042
G01 X167.4720 Y44.2633 Z-1.1296
G01 X167.5251 Y44.1941 Z-1.1551
G01 X167.5720 Y44.1206 Z-1.1806
G01 X167.6123 Y44.0432 Z-1.2060
G01 X167.6457 Y43.9626 Z-1.2315
G01 X167.6719 Y43.8794 Z-1.2569
G01 X167.6908 Y43.7942 Z-1.2824
G01 X167.7022 Y43.7077 Z-1.3079
G01 X167.7060 Y43.6206 Z-1.3333
G01 X167.7022 Y43.5334
G01 X167.6908 Y43.4469
G01 X167.6719 Y43.3617
G01 X167.6457 Y43.2785
G01 X167.6123 Y43.1979
G01 X167.5720 Y43.1206
G01 X167.5251 Y43.0470
G01 X167.4720 Y42.9778
G01 X167.4131 Y42.9135
G01 X167.3488 Y42.8545
G01 X167.2796 Y42.8014
G01 X167.2060 Y42.7545
G01 X167.1286 Y42.7143
G01 X167.0480 Y42.6809
G01 X166.9648 Y42.6546
G01 X166.8796 Y42.6358
G01 X166.7931 Y42.6244
G01 X166.7060 Y42.6206
G01 X166.6188 Y42.6244
G01 X166.5323 Y42.6358
G01 X166.4472 Y42.6546
G01 X166.3640 Y42.6809
G01 X166.2834 Y42.7143
G01 X166.2060 Y42.7545
G01 X166.1324 Y42.8014
G01 X166.0632 Y42.8545
G01 X165.9989 Y42.9135
G01 X165.9399 Y42.9778
G01 X165.8868 Y43.0470
G01 X165.8400 Y43.1206
G01 X165.7997 Y43.1979
G01 X165.7663 Y43.2785
G01 X165.7401 Y43.3617
G01 X165.7212 Y43.4469
G01 X165.7098 Y43.5334
G01 X165.7060 Y43.6206
G01 X165.7098 Y43.7077
G01 X165.7212 Y43.7942
G01 X165.7401 Y43.8794
G01 X165.7663 Y43.9626
G01 X165.7997 Y44.0432
G01 X165.8400 Y44.1206
G01 X165.8868 Y44.1941
G01 X165.9399 Y44.2633
G01 X165.9989 Y44.3277
G01 X166.0632 Y44.3866
G01 X166.1324 Y44.4397
G01 X166.2060 Y44.4866
G01 X166.2834 Y44.5269
G01 X166.3640 Y44.5603
G01 X166.4472 Y44.5865
G01 X166.5323 Y44.6054
G01 X166.6188 Y44.6168
G01 X166.7060 Y44.6206
G01 X166.7931 Y44.6168
G01 X166.8796 Y44.6054
G01 X166.9648 Y44.5865
G01 X167.0480 Y44.5603
G01 X167.1286 Y44.5269
G01 X167.2060 Y44.4866
G01 X167.2796 Y44.4397
G01 X167.3488 Y44.3866
G01 X167.4131 Y44.3277
G01 X167.4720 Y44.2633
G01 X167.5251 Y44.1941
G01 X167.5720 Y44.1206
G01 X167.6123 Y44.0432
G01 X167.6457 Y43.9626
G01 X167.6719 Y43.8794
G01 X167.6908 Y43.7942
G01 X167.7022 Y43.7077
G01 X167.7060 Y43.6206
G01 X167.7167 Y43.5690 F1000
G01 X167.7248 Y43.5169
G01 X167.7302 Y43.4645
G01 X167.7329 Y43.4118
G01 X167.7328 Y43.3591
G01 X167.7301 Y43.3065
G01 X167.7246 Y43.2541
G01 X167.7165 Y43.2020
G01 X167.7048 Y43.1460
G01 X167.6902 Y43.0907
G01 X167.6728 Y43.0362
G01 X167.6527 Y42.9827
G01 X167.6299 Y42.9302
G01 X167.6044 Y42.8790
G01 X167.5763 Y42.8292
G01 X167.5457 Y42.7809
G01 X167.5101 Y42.7305
G01 X167.4719 Y42.6820
G01 X167.4314 Y42.6354
G01 X167.3886 Y42.5910
G01 X167.3435 Y42.5489
G01 X167.2964 Y42.5090
G01 X167.2472 Y42.4717
G01 X167.1963 Y42.4368
G01 X167.1398 Y42.4023
G01 X167.0816 Y42.3706
G01 X167.0219 Y42.3419
G01 X166.9609 Y42.3163
G01 X166.8986 Y42.2938
G01 X166.8352 Y42.2745
G01 X166.7710 Y42.2584
G01 X166.7060 Y42.2456
G01 X166.6360 Y42.2354
G01 X166.5655 Y42.2287
G01 X166.4948 Y42.2257
G01 X166.4240 Y42.2261
G01 X166.3534 Y42.2302
G01 X166.2830 Y42.2378
G01 X166.2132 Y42.2490
G01 X166.1439 Y42.2636
G01 X166.0757 Y42.2896
G01 X166.0089 Y42.3189
G01 X165.9436 Y42.3514
G01 X165.8800 Y42.3871
G01 X165.8182 Y42.4259
G01 X165.7584 Y42.4678
G01 X165.7008 Y42.5124
G01 X165.6454 Y42.5599
G01 X165.5946 Y42.6132
G01 X165.5465 Y42.6690
G01 X165.5012 Y42.7270
G01 X165.4588 Y42.7872
G01 X165.4194 Y42.8494
G01 X165.3831 Y42.9135
G01 X165.3500 Y42.9792
G01 X165.3202 Y43.0465
G01 X165.2937 Y43.1152
G01 X165.2706 Y43.1851
G01 X165.2510 Y43.2561
G01 X165.2348 Y43.3279
G01 X165.2223 Y43.4005
G01 X165.2132 Y43.4735
G01 X165.2078 Y43.5470
G01 X165.2060 Y43.6206
G01 X165.2078 Y43.6942
G01 X165.2132 Y43.7676
G01 X165.2223 Y43.8407
G01 X165.2348 Y43.9132
G01 X165.2510 Y43.9850
G01 X165.2706 Y44.0560
G01 X165.2937 Y44.1259
G01 X165.3202 Y44.1946
G01 X165.3500 Y44.2619
G01 X165.3831 Y44.3276
G01 X165.4194 Y44.3917
G01 X165.4588 Y44.4539
G01 X165.5012 Y44.5141
G01 X165.5465 Y44.5721
G01 X165.5946 Y44.6279
G01 X165.6454 Y44.6812
G01 X165.6987 Y44.7320
G01 X165.7544 Y44.7801
G01 X165.8125 Y44.8254
G01 X165.8727 Y44.8677
G01 X165.9349 Y44.9071
G01 X165.9989 Y44.9434
G01 X166.0647 Y44.9765
G01 X166.1320 Y45.0064
G01 X166.2007 Y45.0329
G01 X166.2706 Y45.0559
G01 X166.3415 Y45.0756
G01 X166.4134 Y45.0917
G01 X166.4859 Y45.1043
G01 X166.5590 Y45.1133
G01 X166.6324 Y45.1187
G01 X166.7060 Y45.1205
G01 X166.7796 Y45.1187
G01 X166.8530 Y45.1133
G01 X166.9261 Y45.1043
G01 X166.9986 Y45.0917
G01 X167.0705 Y45.0756
G01 X167.1414 Y45.0559
G01 X167.2113 Y45.0329
G01 X167.2800 Y45.0064
G01 X167.3473 Y44.9765
G01 X167.4131 Y44.9434
G01 X167.4771 Y44.9071
G01 X167.5393 Y44.8677
G01 X167.5995 Y44.8254
G01 X167.6576 Y44.7801
G01 X167.7133 Y44.7320
G01 X167.7666 Y44.6812
G01 X167.8174 Y44.6279
G01 X167.8655 Y44.5721
G01 X167.9108 Y44.5141
G01 X167.9532 Y44.4539
G01 X167.9926 Y44.3917
G01 X168.0289 Y44.3276
G01 X168.0620 Y44.2619
G01 X168.0918 Y44.1946
G01 X168.1183 Y44.1259
G01 X168.1414 Y44.0560
G01 X168.1610 Y43.9850
G01 X168.1771 Y43.9132
G01 X168.1897 Y43.8407
G01 X168.1987 Y43.7676
G01 X168.2042 Y43.6942
G01 X168.2060 Y43.6206
G01 X168.2018 Y43.5085
G01 X168.1892 Y43.3970
G01 X168.1684 Y43.2868
G01 X168.1393 Y43.1784
G01 X168.1023 Y43.0726
G01 X168.0574 Y42.9697
G01 X168.0050 Y42.8706
G01 X167.9453 Y42.7756
G01 X167.8787 Y42.6853
G01 X167.8056 Y42.6003
G01 X167.7262 Y42.5210
G01 X167.6412 Y42.4478
G01 X167.5510 Y42.3812
G01 X167.4560 Y42.3215
G01 X167.3568 Y42.2691
G01 X167.2540 Y42.2243
G01 X167.1481 Y42.1872
G01 X167.0398 Y42.1582
G01 X166.9296 Y42.1373
G01 X166.8181 Y42.1248
G01 X166.7060 Y42.1206
G01 X166.5939 Y42.1248
G01 X166.4824 Y42.1373
G01 X166.3722 Y42.1582
G01 X166.2639 Y42.1872
G01 X166.1580 Y42.2243
G01 X166.0552 Y42.2691
G01 X165.9560 Y42.3215
G01 X165.8610 Y42.3812
G01 X165.7708 Y42.4478
G01 X165.6858 Y42.5210
G01 X165.6064 Y42.6003
G01 X165.5333 Y42.6853
G01 X165.4667 Y42.7756
G01 X165.4070 Y42.8706
G01 X165.3546 Y42.9697
G01 X165.3097 Y43.0726
G01 X165.2727 Y43.1784
G01 X165.2436 Y43.2868
G01 X165.2228 Y43.3970
G01 X165.2102 Y43.5085
G01 X165.2060 Y43.6206
G01 X165.2102 Y43.7327
G01 X165.2228 Y43.8441
G01 X165.2436 Y43.9543
G01 X165.2727 Y44.0627
G01 X165.3097 Y44.1686
G01 X165.3546 Y44.2714
G01 X165.4070 Y44.3705
G01 X165.4667 Y44.4655
G01 X165.5333 Y44.5558
G01 X165.6064 Y44.6408
G01 X165.6858 Y44.7201
G01 X165.7708 Y44.7933
G01 X165.8610 Y44.8599
G01 X165.9560 Y44.9196
G01 X166.0552 Y44.9720
G01 X166.1580 Y45.0168
G01 X166.2639 Y45.0539
G01 X166.3722 Y45.0829
G01 X166.4824 Y45.1038
G01 X166.5939 Y45.1163
G01 X166.7060 Y45.1205
G01 X166.8181 Y45.1163
G01 X166.9296 Y45.1038
G01 X167.0398 Y45.0829
G01 X167.1481 Y45.0539
G01 X167.2540 Y45.0168
G01 X167.3568 Y44.9720
G01 X167.4560 Y44.9196
G01 X167.5510 Y44.8599
G01 X167.6412 Y44.7933
G01 X167.7262 Y44.7201
G01 X167.8056 Y44.6408
G01 X167.8787 Y44.5558
G01 X167.9453 Y44.4655
G01 X168.0050 Y44.3705
G01 X168.0574 Y44.2714
G01 X168.1023 Y44.1686
G01 X168.1393 Y44.0627
G01 X168.1684 Y43.9543
G01 X168.1892 Y43.8441
G01 X168.2018 Y43.7327
G01 X168.2060 Y43.6206
G01 X168.2021 Y43.5225
G01 X168.1906 Y43.4250
G01 X168.1714 Y43.3288
G01 X168.1448 Y43.2343
G01 X168.1108 Y43.1422
G01 X168.0697 Y43.0531
G01 X168.0218 Y42.9674
G01 X167.9672 Y42.8858
G01 X167.9065 Y42.8088
G01 X167.8399 Y42.7367
G01 X167.7678 Y42.6701
G01 X167.6907 Y42.6093
G01 X167.6091 Y42.5548
G01 X167.5235 Y42.5068
G01 X167.4343 Y42.4657
G01 X167.3422 Y42.4318
G01 X167.2478 Y42.4051
G01 X167.1515 Y42.3860
G01 X167.0541 Y42.3744
G01 X166.9560 Y42.3706
G01 X166.8579 Y42.3744
G01 X166.7604 Y42.3860
G01 X166.6642 Y42.4051
G01 X166.5697 Y42.4318
G01 X166.4776 Y42.4657
G01 X166.3885 Y42.5068
G01 X166.3029 Y42.5548
G01 X166.2213 Y42.6093
G01 X166.1442 Y42.6701
G01 X166.0721 Y42.7367
G01 X166.0055 Y42.8088
G01 X165.9447 Y42.8858
G01 X165.8902 Y42.9674
G01 X165.8422 Y43.0531
G01 X165.8011 Y43.1422
G01 X165.7672 Y43.2343
G01 X165.7405 Y43.3288
G01 X165.7214 Y43.4250
G01 X165.7098 Y43.5225
G01 X165.7060 Y43.6206
G01 X165.7098 Y43.7077
G01 X165.7212 Y43.7942
G01 X165.7401 Y43.8794
G01 X165.7663 Y43.9626
G01 X165.7997 Y44.0432
G01 X165.8400 Y44.1206
G01 X165.8868 Y44.1941
G01 X165.9399 Y44.2633
G01 X165.9989 Y44.3277
G01 X166.0632 Y44.3866
G01 X166.1324 Y44.4397
G01 X166.2060 Y44.4866
G01 X166.2834 Y44.5269
G01 X166.3640 Y44.5603
G01 X166.4472 Y44.5865
G01 X166.5323 Y44.6054
G01 X166.6188 Y44.6168
G01 X166.7060 Y44.6206
G01 X166.7931 Y44.6168
G01 X166.8796 Y44.6054
G01 X166.9648 Y44.5865
G01 X167.0480 Y44.5603
G01 X167.1286 Y44.5269
G01 X167.2060 Y44.4866
G01 X167.2796 Y44.4397
G01 X167.3488 Y44.3866
G01 X167.4131 Y44.3277
G01 X167.4720 Y44.2633
G01 X167.5251 Y44.1941
G01 X167.5720 Y44.1206
G01 X167.6123 Y44.0432
G01 X167.6457 Y43.9626
G01 X167.6719 Y43.8794
G01 X167.6908 Y43.7942
G01 X167.7022 Y43.7077
G01 X167.7060 Y43.6206
M107
M106 S240
G01 X167.7022 Y43.5334 Z-1.3588 F400
G01 X167.6908 Y43.4469 Z-1.3843
G01 X167.6719 Y43.3617 Z-1.4097
G01 X167.6457 Y43.2785 Z-1.4352
G01 X167.6123 Y43.1979 Z-1.4606
G01 X167.5720 Y43.1206 Z-1.4861
G01 X167.5251 Y43.0470 Z-1.5116
G01 X167.4720 Y42.9778 Z-1.5370
G01 X167.4131 Y42.9135 Z-1.5625
G01 X167.3488 Y42.8545 Z-1.5880
G01 X167.2796 Y42.8014 Z-1.6134
G01 X167.2060 Y42.7545 Z-1.6389
G01 X167.1286 Y42.7143 Z-1.6644
G01 X167.0480 Y42.6809 Z-1.6898
G01 X166.9648 Y42.6546 Z-1.7153
G01 X166.8796 Y42.6358 Z-1.7407
G01 X166.7931 Y42.6244 Z-1.7662
G01 X166.7060 Y42.6206 Z-1.7917
G01 X166.6188 Y42.6244 Z-1.8171
G01 X166.5323 Y42.6358 Z-1.8426
G01 X166.4472 Y42.6546 Z-1.8681
G01 X166.3640 Y42.6809 Z-1.8935
G01 X166.2834 Y42.7143 Z-1.9190
G01 X166.2060 Y42.7545 Z-1.9444
G01 X166.1324 Y42.8014 Z-1.9699
G01 X166.0632 Y42.8545 Z-1.9954
G01 X165.9989 Y42.9135 Z-2.0208
G01 X165.9399 Y42.9778 Z-2.0463
G01 X165.8868 Y43.0470 Z-2.0718
G01 X165.8400 Y43.1206 Z-2.0972
G01 X165.7997 Y43.1979 Z-2.1227
G01 X165.7663 Y43.2785 Z-2.1481
G01 X165.7401 Y43.3617 Z-2.1736
G01 X165.7212 Y43.4469 Z-2.1991
G01 X165.7098 Y43.5334 Z-2.2245
G01 X165.7060 Y43.6206 Z-2.2500
G01 X165.7098 Y43.7077 Z-2.2755
G01 X165.7212 Y43.7942 Z-2.3009
G01 X165.7401 Y43.8794 Z-2.3264
G01 X165.7663 Y43.9626 Z-2.3519
G01 X165.7997 Y44.0432 Z-2.3773
G01 X165.8400 Y44.1206 Z-2.4028
G01 X165.8868 Y44.1941 Z-2.4282
G01 X165.9399 Y44.2633 Z-2.4537
G01 X165.9989 Y44.3277 Z-2.4792
G01 X166.0632 Y44.3866 Z-2.5046
G01 X166.1324 Y44.4397 Z-2.5301
G01 X166.2060 Y44.4866 Z-2.5556
G01 X166.2834 Y44.5269 Z-2.5810
G01 X166.3640 Y44.5603 Z-2.6065
G01 X166.4472 Y44.5865 Z-2.6319
G01 X166.5323 Y44.6054 Z-2.6574
G01 X166.6188 Y44.6168 Z-2.6829
G01 X166.7060 Y44.6206 Z-2.7083
G01 X166.7931 Y44.6168 Z-2.7338
G01 X166.8796 Y44.6054 Z-2.7593
G01 X166.9648 Y44.5865 Z-2.7847
G01 X167.0480 Y44.5603 Z-2.8102
G01 X167.1286 Y44.5269 Z-2.8356
G01 X167.2060 Y44.4866 Z-2.8611
G01 X167.2796 Y44.4397 Z-2.8866
G01 X167.3488 Y44.3866 Z-2.9120
G01 X167.4131 Y44.3277 Z-2.9375
G01 X167.4720 Y44.2633 Z-2.9630
G01 X167.5251 Y44.1941 Z-2.9884
G01 X167.5720 Y44.1206 Z-3.0139
G01 X167.6123 Y44.0432 Z-3.0394
G01 X167.6457 Y43.9626 Z-3.0648
G01 X167.6719 Y43.8794 Z-3.0903
G01 X167.6908 Y43.7942 Z-3.1157
G01 X167.7022 Y43.7077 Z-3.1412
G01 X167.7060 Y43.6206 Z-3.1667
G01 X167.7022 Y43.5334
G01 X167.6908 Y43.4469
G01 X167.6719 Y43.3617
G01 X167.6457 Y43.2785
G01 X167.6123 Y43.1979
G01 X167.5720 Y43.1206
G01 X167.5251 Y43.0470
G01 X167.4720 Y42.9778
G01 X167.4131 Y42.9135
G01 X167.3488 Y42.8545
G01 X167.2796 Y42.8014
G01 X167.2060 Y42.7545
G01 X167.1286 Y42.7143
G01 X167.0480 Y42.6809
G01 X166.9648 Y42.6546
G01 X166.8796 Y42.6358
G01 X166.7931 Y42.6244
G01 X166.7060 Y42.6206
G01 X166.6188 Y42.6244
G01 X166.5323 Y42.6358
G01 X166.4472 Y42.6546
G01 X166.3640 Y42.6809
G01 X166.2834 Y42.7143
G01 X166.2060 Y42.7545
G01 X166.1324 Y42.8014
G01 X166.0632 Y42.8545
G01 X165.9989 Y42.9135
G01 X165.9399 Y42.9778
G01 X165.8868 Y43.0470
G01 X165.8400 Y43.1206
G01 X165.7997 Y43.1979
G01 X165.7663 Y43.2785
G01 X165.7401 Y43.3617
G01 X165.7212 Y43.4469
G01 X165.7098 Y43.5334
G01 X165.7060 Y43.6206
G01 X165.7098 Y43.7077
G01 X165.7212 Y43.7942
G01 X165.7401 Y43.8794
G01 X165.7663 Y43.9626
G01 X165.7997 Y44.0432
G01 X165.8400 Y44.1206
G01 X165.8868 Y44.1941
G01 X165.9399 Y44.2633
G01 X165.9989 Y44.3277
G01 X166.0632 Y44.3866
G01 X166.1324 Y44.4397
G01 X166.2060 Y44.4866
G01 X166.2834 Y44.5269
G01 X166.3640 Y44.5603
G01 X166.4472 Y44.5865
G01 X166.5323 Y44.6054
G01 X166.6188 Y44.6168
G01 X166.7060 Y44.6206
G01 X166.7931 Y44.6168
G01 X166.8796 Y44.6054
G01 X166.9648 Y44.5865
G01 X167.0480 Y44.5603
G01 X167.1286 Y44.5269
G01 X167.2060 Y44.4866
G01 X167.2796 Y44.4397
G01 X167.3488 Y44.3866
G01 X167.4131 Y44.3277
G01 X167.4720 Y44.2633
G01 X167.5251 Y44.1941
G01 X167.5720 Y44.1206
G01 X167.6123 Y44.0432
G01 X167.6457 Y43.9626
G01 X167.6719 Y43.8794
G01 X167.6908 Y43.7942
G01 X167.7022 Y43.7077
G01 X167.7060 Y43.6206
G01 X167.7167 Y43.5690 F1000
G01 X167.7248 Y43.5169
G01 X167.7302 Y43.4645
G01 X167.7329 Y43.4118
G01 X167.7328 Y43.3591
G01 X167.7301 Y43.3065
G01 X167.7246 Y43.2541
G01 X167.7165 Y43.2020
G01 X167.7048 Y43.1460
G01 X167.6902 Y43.0907
G01 X167.6728 Y43.0362
G01 X167.6527 Y42.9827
G01 X167.6299 Y42.9302
G01 X167.6044 Y42.8790
G01 X167.5763 Y42.8292
G01 X167.5457 Y42.7809
G01 X167.5101 Y42.7305
G01 X167.4719 Y42.6820
G01 X167.4314 Y42.6354
G01 X167.3886 Y42.5910
G01 X167.3435 Y42.5489
G01 X167.2964 Y42.5090
G01 X167.2472 Y42.4717
G01 X167.1963 Y42.4368
G01 X167.1398 Y42.4023
G01 X167.0816 Y42.3706
G01 X167.0219 Y42.3419
G01 X166.9609 Y42.3163
G01 X166.8986 Y42.2938
G01 X166.8352 Y42.2745
G01 X166.7710 Y42.2584
G01 X166.7060 Y42.2456
G01 X166.6360 Y42.2354
G01 X166.5655 Y42.2287
G01 X166.4948 Y42.2257
G01 X166.4240 Y42.2261
G01 X166.3534 Y42.2302
G01 X166.2830 Y42.2378
G01 X166.2132 Y42.2490
G01 X166.1439 Y42.2636
G01 X166.0757 Y42.2896
G01 X166.0089 Y42.3189
G01 X165.9436 Y42.3514
G01 X165.8800 Y42.3871
G01 X165.8182 Y42.4259
G01 X165.7584 Y42.4678
G01 X165.7008 Y42.5124
G01 X165.6454 Y42.5599
G01 X165.5946 Y42.6132
G01 X165.5465 Y42.6690
G01 X165.5012 Y42.7270
G01 X165.4588 Y42.7872
G01 X165.4194 Y42.8494
G01 X165.3831 Y42.9135
G01 X165.3500 Y42.9792
G01 X165.3202 Y43.0465
G01 X165.2937 Y43.1152
G01 X165.2706 Y43.1851
G01 X165.2510 Y43.2561
G01 X165.2348 Y43.3279
G01 X165.2223 Y43.4005
G01 X165.2132 Y43.4735
G01 X165.2078 Y43.5470
G01 X165.2060 Y43.6206
G01 X165.2078 Y43.6942
G01 X165.2132 Y43.7676
G01 X165.2223 Y43.8407
G01 X165.2348 Y43.9132
G01 X165.2510 Y43.9850
G01 X165.2706 Y44.0560
G01 X165.2937 Y44.1259
G01 X165.3202 Y44.1946
G01 X165.3500 Y44.2619
G01 X165.3831 Y44.3276
G01 X165.4194 Y44.3917
G01 X165.4588 Y44.4539
G01 X165.5012 Y44.5141
G01 X165.5465 Y44.5721
G01 X165.5946 Y44.6279
G01 X165.6454 Y44.6812
G01 X165.6987 Y44.7320
G01 X165.7544 Y44.7801
G01 X165.8125 Y44.8254
G01 X165.8727 Y44.8677
G01 X165.9349 Y44.9071
G01 X165.9989 Y44.9434
G01 X166.0647 Y44.9765
G01 X166.1320 Y45.0064
G01 X166.2007 Y45.0329
G01 X166.2706 Y45.0559
G01 X166.3415 Y45.0756
G01 X166.4134 Y45.0917
G01 X166.4859 Y45.1043
G01 X166.5590 Y45.1133
G01 X166.6324 Y45.1187
G01 X166.7060 Y45.1205
G01 X166.7796 Y45.1187
G01 X166.8530 Y45.1133
G01 X166.9261 Y45.1043
G01 X166.9986 Y45.0917
G01 X167.0705 Y45.0756
G01 X167.1414 Y45.0559
G01 X167.2113 Y45.0329
G01 X167.2800 Y45.0064
G01 X167.3473 Y44.9765
G01 X167.4131 Y44.9434
G01 X167.4771 Y44.9071
G01 X167.5393 Y44.8677
G01 X167.5995 Y44.8254
G01 X167.6576 Y44.7801
G01 X167.7133 Y44.7320
G01 X167.7666 Y44.6812
G01 X167.8174 Y44.6279
G01 X167.8655 Y44.5721
G01 X167.9108 Y44.5141
G01 X167.9532 Y44.4539
G01 X167.9926 Y44.3917
G01 X168.0289 Y44.3276
G01 X168.0620 Y44.2619
G01 X168.0918 Y44.1946
G01 X168.1183 Y44.1259
G01 X168.1414 Y44.0560
G01 X168.1610 Y43.9850
G01 X168.1771 Y43.9132
G01 X168.1897 Y43.8407
G01 X168.1987 Y43.7676
G01 X168.2042 Y43.6942
G01 X168.2060 Y43.6206
G01 X168.2018 Y43.5085
G01 X168.1892 Y43.3970
G01 X168.1684 Y43.2868
G01 X168.1393 Y43.1784
G01 X168.1023 Y43.0726
G01 X168.0574 Y42.9697
G01 X168.0050 Y42.8706
G01 X167.9453 Y42.7756
G01 X167.8787 Y42.6853
G01 X167.8056 Y42.6003
G01 X167.7262 Y42.5210
G01 X167.6412 Y42.4478
G01 X167.5510 Y42.3812
G01 X167.4560 Y42.3215
G01 X167.3568 Y42.2691
G01 X167.2540 Y42.2243
G01 X167.1481 Y42.1872
G01 X167.0398 Y42.1582
G01 X166.9296 Y42.1373
G01 X166.8181 Y42.1248
G01 X166.7060 Y42.1206
G01 X166.5939 Y42.1248
G01 X166.4824 Y42.1373
G01 X166.3722 Y42.1582
G01 X166.2639 Y42.1872
G01 X166.1580 Y42.2243
G01 X166.0552 Y42.2691
G01 X165.9560 Y42.3215
G01 X165.8610 Y42.3812
G01 X165.7708 Y42.4478
G01 X165.6858 Y42.5210
G01 X165.6064 Y42.6003
G01 X165.5333 Y42.6853
G01 X165.4667 Y42.7756
G01 X165.4070 Y42.8706
G01 X165.3546 Y42.9697
G01 X165.3097 Y43.0726
G01 X165.2727 Y43.1784
G01 X165.2436 Y43.2868
G01 X165.2228 Y43.3970
G01 X165.2102 Y43.5085
G01 X165.2060 Y43.6206
G01 X165.2102 Y43.7327
G01 X165.2228 Y43.8441
G01 X165.2436 Y43.9543
G01 X165.2727 Y44.0627
G01 X165.3097 Y44.1686
G01 X165.3546 Y44.2714
G01 X165.4070 Y44.3705
G01 X165.4667 Y44.4655
G01 X165.5333 Y44.5558
G01 X165.6064 Y44.6408
G01 X165.6858 Y44.7201
G01 X165.7708 Y44.7933
G01 X165.8610 Y44.8599
G01 X165.9560 Y44.9196
G01 X166.0552 Y44.9720
G01 X166.1580 Y45.0168
G01 X166.2639 Y45.0539
G01 X166.3722 Y45.0829
G01 X166.4824 Y45.1038
G01 X166.5939 Y45.1163
G01 X166.7060 Y45.1205
G01 X166.8181 Y45.1163
G01 X166.9296 Y45.1038
G01 X167.0398 Y45.0829
G01 X167.1481 Y45.0539
G01 X167.2540 Y45.0168
G01 X167.3568 Y44.9720
G01 X167.4560 Y44.9196
G01 X167.5510 Y44.8599
G01 X167.6412 Y44.7933
G01 X167.7262 Y44.7201
G01 X167.8056 Y44.6408
G01 X167.8787 Y44.5558
G01 X167.9453 Y44.4655
G01 X168.0050 Y44.3705
G01 X168.0574 Y44.2714
G01 X168.1023 Y44.1686
G01 X168.1393 Y44.0627
G01 X168.1684 Y43.9543
G01 X168.1892 Y43.8441
G01 X168.2018 Y43.7327
G01 X168.2060 Y43.6206
G01 X168.2021 Y43.5225
G01 X168.1906 Y43.4250
G01 X168.1714 Y43.3288
G01 X168.1448 Y43.2343
G01 X168.1108 Y43.1422
G01 X168.0697 Y43.0531
G01 X168.0218 Y42.9674
G01 X167.9672 Y42.8858
G01 X167.9065 Y42.8088
G01 X167.8399 Y42.7367
G01 X167.7678 Y42.6701
G01 X167.6907 Y42.6093
G01 X167.6091 Y42.5548
G01 X167.5235 Y42.5068
G01 X167.4343 Y42.4657
G01 X167.3422 Y42.4318
G01 X167.2478 Y42.4051
G01 X167.1515 Y42.3860
G01 X167.0541 Y42.3744
G01 X166.9560 Y42.3706
G01 X166.8579 Y42.3744
G01 X166.7604 Y42.3860
G01 X166.6642 Y42.4051
G01 X166.5697 Y42.4318
G01 X166.4776 Y42.4657
G01 X166.3885 Y42.5068
G01 X166.3029 Y42.5548
G01 X166.2213 Y42.6093
G01 X166.1442 Y42.6701
G01 X166.0721 Y42.7367
G01 X166.0055 Y42.8088
G01 X165.9447 Y42.8858
G01 X165.8902 Y42.9674
G01 X165.8422 Y43.0531
G01 X165.8011 Y43.1422
G01 X165.7672 Y43.2343
G01 X165.7405 Y43.3288
G01 X165.7214 Y43.4250
G01 X165.7098 Y43.5225
G01 X165.7060 Y43.6206
G01 X165.7098 Y43.7077
G01 X165.7212 Y43.7942
G01 X165.7401 Y43.8794
G01 X165.7663 Y43.9626
G01 X165.7997 Y44.0432
G01 X165.8400 Y44.1206
G01 X165.8868 Y44.1941
G01 X165.9399 Y44.2633
G01 X165.9989 Y44.3277
G01 X166.0632 Y44.3866
G01 X166.1324 Y44.4397
G01 X166.2060 Y44.4866
G01 X166.2834 Y44.5269
G01 X166.3640 Y44.5603
G01 X166.4472 Y44.5865
G01 X166.5323 Y44.6054
G01 X166.6188 Y44.6168
G01 X166.7060 Y44.6206
G01 X166.7931 Y44.6168
G01 X166.8796 Y44.6054
G01 X166.9648 Y44.5865
G01 X167.0480 Y44.5603
G01 X167.1286 Y44.5269
G01 X167.2060 Y44.4866
G01 X167.2796 Y44.4397
G01 X167.3488 Y44.3866
G01 X167.4131 Y44.3277
G01 X167.4720 Y44.2633
G01 X167.5251 Y44.1941
G01 X167.5720 Y44.1206
G01 X167.6123 Y44.0432
G01 X167.6457 Y43.9626
G01 X167.6719 Y43.8794
G01 X167.6908 Y43.7942
G01 X167.7022 Y43.7077
G01 X167.7060 Y43.6206
M107
M106 S240
G01 X167.7022 Y43.5334 Z-3.1921 F400
G01 X167.6908 Y43.4469 Z-3.2176
G01 X167.6719 Y43.3617 Z-3.2431
G01 X167.6457 Y43.2785 Z-3.2685
G01 X167.6123 Y43.1979 Z-3.2940
G01 X167.5720 Y43.1206 Z-3.3194
G01 X167.5251 Y43.0470 Z-3.3449
G01 X167.4720 Y42.9778 Z-3.3704
G01 X167.4131 Y42.9135 Z-3.3958
G01 X167.3488 Y42.8545 Z-3.4213
G01 X167.2796 Y42.8014 Z-3.4468
G01 X167.2060 Y42.7545 Z-3.4722
G01 X167.1286 Y42.7143 Z-3.4977
G01 X167.0480 Y42.6809 Z-3.5231
G01 X166.9648 Y42.6546 Z-3.5486
G01 X166.8796 Y42.6358 Z-3.5741
G01 X166.7931 Y42.6244 Z-3.5995
G01 X166.7060 Y42.6206 Z-3.6250
G01 X166.6188 Y42.6244 Z-3.6505
G01 X166.5323 Y42.6358 Z-3.6759
G01 X166.4472 Y42.6546 Z-3.7014
G01 X166.3640 Y42.6809 Z-3.7269
G01 X166.2834 Y42.7143 Z-3.7523
G01 X166.2060 Y42.7545 Z-3.7778
G01 X166.1324 Y42.8014 Z-3.8032
G01 X166.0632 Y42.8545 Z-3.8287
G01 X165.9989 Y42.9135 Z-3.8542
G01 X165.9399 Y42.9778 Z-3.8796
G01 X165.8868 Y43.0470 Z-3.9051
G01 X165.8400 Y43.1206 Z-3.9306
G01 X165.7997 Y43.1979 Z-3.9560
G01 X165.7663 Y43.2785 Z-3.9815
G01 X165.7401 Y43.3617 Z-4.0069
G01 X165.7212 Y43.4469 Z-4.0324
G01 X165.7098 Y43.5334 Z-4.0579
G01 X165.7060 Y43.6206 Z-4.0833
G01 X165.7098 Y43.7077 Z-4.1088
G01 X165.7212 Y43.7942 Z-4.1343
G01 X165.7401 Y43.8794 Z-4.1597
G01 X165.7663 Y43.9626 Z-4.1852
G01 X165.7997 Y44.0432 Z-4.2106
G01 X165.8400 Y44.1206 Z-4.2361
G01 X165.8868 Y44.1941 Z-4.2616
G01 X165.9399 Y44.2633 Z-4.2870
G01 X165.9989 Y44.3277 Z-4.3125
G01 X166.0632 Y44.3866 Z-4.3380
G01 X166.1324 Y44.4397 Z-4.3634
G01 X166.2060 Y44.4866 Z-4.3889
G01 X166.2834 Y44.5269 Z-4.4144
G01 X166.3640 Y44.5603 Z-4.4398
G01 X166.4472 Y44.5865 Z-4.4653
G01 X166.5323 Y44.6054 Z-4.4907
G01 X166.6188 Y44.6168 Z-4.5162
G01 X166.7060 Y44.6206 Z-4.5417
G01 X166.7931 Y44.6168 Z-4.5671
G01 X166.8796 Y44.6054 Z-4.5926
G01 X166.9648 Y44.5865 Z-4.6181
G01 X167.0480 Y44.5603 Z-4.6435
G01 X167.1286 Y44.5269 Z-4.6690
G01 X167.2060 Y44.4866 Z-4.6944
G01 X167.2796 Y44.4397 Z-4.7199
G01 X167.3488 Y44.3866 Z-4.7454
G01 X167.4131 Y44.3277 Z-4.7708
G01 X167.4720 Y44.2633 Z-4.7963
G01 X167.5251 Y44.1941 Z-4.8218
G01 X167.5720 Y44.1206 Z-4.8472
G01 X167.6123 Y44.0432 Z-4.8727
G01 X167.6457 Y43.9626 Z-4.8981
G01 X167.6719 Y43.8794 Z-4.9236
G01 X167.6908 Y43.7942 Z-4.9491
G01 X167.7022 Y43.7077 Z-4.9745
G01 X167.7060 Y43.6206 Z-5.0000
G01 X167.7022 Y43.5334
G01 X167.6908 Y43.4469
G01 X167.6719 Y43.3617
G01 X167.6457 Y43.2785
G01 X167.6123 Y43.1979
G01 X167.5720 Y43.1206
G01 X167.5251 Y43.0470
G01 X167.4720 Y42.9778
G01 X167.4131 Y42.9135
G01 X167.3488 Y42.8545
G01 X167.2796 Y42.8014
G01 X167.2060 Y42.7545
G01 X167.1286 Y42.7143
G01 X167.0480 Y42.6809
G01 X166.9648 Y42.6546
G01 X166.8796 Y42.6358
G01 X166.7931 Y42.6244
G01 X166.7060 Y42.6206
G01 X166.6188 Y42.6244
G01 X166.5323 Y42.6358
G01 X166.4472 Y42.6546
G01 X166.3640 Y42.6809
G01 X166.2834 Y42.7143
G01 X166.2060 Y42.7545
G01 X166.1324 Y42.8014
G01 X166.0632 Y42.8545
G01 X165.9989 Y42.9135
G01 X165.9399 Y42.9778
G01 X165.8868 Y43.0470
G01 X165.8400 Y43.1206
G01 X165.7997 Y43.1979
G01 X165.7663 Y43.2785
G01 X165.7401 Y43.3617
G01 X165.7212 Y43.4469
G01 X165.7098 Y43.5334
G01 X165.7060 Y43.6206
G01 X165.7098 Y43.7077
G01 X165.7212 Y43.7942
G01 X165.7401 Y43.8794
G01 X165.7663 Y43.9626
G01 X165.7997 Y44.0432
G01 X165.8400 Y44.1206
G01 X165.8868 Y44.1941
G01 X165.9399 Y44.2633
G01 X165.9989 Y44.3277
G01 X166.0632 Y44.3866
G01 X166.1324 Y44.4397
G01 X166.2060 Y44.4866
G01 X166.2834 Y44.5269
G01 X166.3640 Y44.5603
G01 X166.4472 Y44.5865
G01 X166.5323 Y44.6054
G01 X166.6188 Y44.6168
G01 X166.7060 Y44.6206
G01 X166.7931 Y44.6168
G01 X166.8796 Y44.6054
G01 X166.9648 Y44.5865
G01 X167.0480 Y44.5603
G01 X167.1286 Y44.5269
G01 X167.2060 Y44.4866
G01 X167.2796 Y44.4397
G01 X167.3488 Y44.3866
G01 X167.4131 Y44.3277
G01 X167.4720 Y44.2633
G01 X167.5251 Y44.1941
G01 X167.5720 Y44.1206
G01 X167.6123 Y44.0432
G01 X167.6457 Y43.9626
G01 X167.6719 Y43.8794
G01 X167.6908 Y43.7942
G01 X167.7022 Y43.7077
G01 X167.7060 Y43.6206
G01 X167.7167 Y43.5690 F1000
G01 X167.7248 Y43.5169
G01 X167.7302 Y43.4645
G01 X167.7329 Y43.4118
G01 X167.7328 Y43.3591
G01 X167.7301 Y43.3065
G01 X167.7246 Y43.2541
G01 X167.7165 Y43.2020
G01 X167.7048 Y43.1460
G01 X167.6902 Y43.0907
G01 X167.6728 Y43.0362
G01 X167.6527 Y42.9827
G01 X167.6299 Y42.9302
G01 X167.6044 Y42.8790
G01 X167.5763 Y42.8292
G01 X167.5457 Y42.7809
G01 X167.5101 Y42.7305
G01 X167.4719 Y42.6820
G01 X167.4314 Y42.6354
G01 X167.3886 Y42.5910
G01 X167.3435 Y42.5489
G01 X167.2964 Y42.5090
G01 X167.2472 Y42.4717
G01 X167.1963 Y42.4368
G01 X167.1398 Y42.4023
G01 X167.0816 Y42.3706
G01 X167.0219 Y42.3419
G01 X166.9609 Y42.3163
G01 X166.8986 Y42.2938
G01 X166.8352 Y42.2745
G01 X166.7710 Y42.2584
G01 X166.7060 Y42.2456
G01 X166.6360 Y42.2354
G01 X166.5655 Y42.2287
G01 X166.4948 Y42.2257
G01 X166.4240 Y42.2261
G01 X166.3534 Y42.2302
G01 X166.2830 Y42.2378
G01 X166.2132 Y42.2490
G01 X166.1439 Y42.2636
G01 X166.0757 Y42.2896
G01 X166.0089 Y42.3189
G01 X165.9436 Y42.3514
G01 X165.8800 Y42.3871
G01 X165.8182 Y42.4259
G01 X165.7584 Y42.4678
G01 X165.7008 Y42.5124
G01 X165.6454 Y42.5599
G01 X165.5946 Y42.6132
G01 X165.5465 Y42.6690
G01 X165.5012 Y42.7270
G01 X165.4588 Y42.7872
G01 X165.4194 Y42.8494
G01 X165.3831 Y42.9135
G01 X165.3500 Y42.9792
G01 X165.3202 Y43.0465
G01 X165.2937 Y43.1152
G01 X165.2706 Y43.1851
G01 X165.2510 Y43.2561
G01 X165.2348 Y43.3279
G01 X165.2223 Y43.4005
G01 X165.2132 Y43.4735
G01 X165.2078 Y43.5470
G01 X165.2060 Y43.6206
G01 X165.2078 Y43.6942
G01 X165.2132 Y43.7676
G01 X165.2223 Y43.8407
G01 X165.2348 Y43.9132
G01 X165.2510 Y43.9850
G01 X165.2706 Y44.0560
G01 X165.2937 Y44.1259
G01 X165.3202 Y44.1946
G01 X165.3500 Y44.2619
G01 X165.3831 Y44.3276
G01 X165.4194 Y44.3917
G01 X165.4588 Y44.4539
G01 X165.5012 Y44.5141
G01 X165.5465 Y44.5721
G01 X165.5946 Y44.6279
G01 X165.6454 Y44.6812
G01 X165.6987 Y44.7320
G01 X165.7544 Y44.7801
G01 X165.8125 Y44.8254
G01 X165.8727 Y44.8677
G01 X165.9349 Y44.9071
G01 X165.9989 Y44.9434
G01 X166.0647 Y44.9765
G01 X166.1320 Y45.0064
G01 X166.2007 Y45.0329
G01 X166.2706 Y45.0559
G01 X166.3415 Y45.0756
G01 X166.4134 Y45.0917
G01 X166.4859 Y45.1043
G01 X166.5590 Y45.1133
G01 X166.6324 Y45.1187
G01 X166.7060 Y45.1205
G01 X166.7796 Y45.1187
G01 X166.8530 Y45.1133
G01 X166.9261 Y45.1043
G01 X166.9986 Y45.0917
G01 X167.0705 Y45.0756
G01 X167.1414 Y45.0559
G01 X167.2113 Y45.0329
G01 X167.2800 Y45.0064
G01 X167.3473 Y44.9765
G01 X167.4131 Y44.9434
G01 X167.4771 Y44.9071
G01 X167.5393 Y44.8677
G01 X167.5995 Y44.8254
G01 X167.6576 Y44.7801
G01 X167.7133 Y44.7320
G01 X167.7666 Y44.6812
G01 X167.8174 Y44.6279
G01 X167.8655 Y44.5721
G01 X167.9108 Y44.5141
G01 X167.9532 Y44.4539
G01 X167.9926 Y44.3917
G01 X168.0289 Y44.3276
G01 X168.0620 Y44.2619
G01 X168.0918 Y44.1946
G01 X168.1183 Y44.1259
G01 X168.1414 Y44.0560
G01 X168.1610 Y43.9850
G01 X168.1771 Y43.9132
G01 X168.1897 Y43.8407
G01 X168.1987 Y43.7676
G01 X168.2042 Y43.6942
G01 X168.2060 Y43.6206
G01 X168.2018 Y43.5085
G01 X168.1892 Y43.3970
G01 X168.1684 Y43.2868
G01 X168.1393 Y43.1784
G01 X168.1023 Y43.0726
G01 X168.0574 Y42.9697
G01 X168.0050 Y42.8706
G01 X167.9453 Y42.7756
G01 X167.8787 Y42.6853
G01 X167.8056 Y42.6003
G01 X167.7262 Y42.5210
G01 X167.6412 Y42.4478
G01 X167.5510 Y42.3812
G01 X167.4560 Y42.3215
G01 X167.3568 Y42.2691
G01 X167.2540 Y42.2243
G01 X167.1481 Y42.1872
G01 X167.0398 Y42.1582
G01 X166.9296 Y42.1373
G01 X166.8181 Y42.1248
G01 X166.7060 Y42.1206
G01 X166.5939 Y42.1248
G01 X166.4824 Y42.1373
G01 X166.3722 Y42.1582
G01 X166.2639 Y42.1872
G01 X166.1580 Y42.2243
G01 X166.0552 Y42.2691
G01 X165.9560 Y42.3215
G01 X165.8610 Y42.3812
G01 X165.7708 Y42.4478
G01 X165.6858 Y42.5210
G01 X165.6064 Y42.6003
G01 X165.5333 Y42.6853
G01 X165.4667 Y42.7756
G01 X165.4070 Y42.8706
G01 X165.3546 Y42.9697
G01 X165.3097 Y43.0726
G01 X165.2727 Y43.1784
G01 X165.2436 Y43.2868
G01 X165.2228 Y43.3970
G01 X165.2102 Y43.5085
G01 X165.2060 Y43.6206
G01 X165.2102 Y43.7327
G01 X165.2228 Y43.8441
G01 X165.2436 Y43.9543
G01 X165.2727 Y44.0627
G01 X165.3097 Y44.1686
G01 X165.3546 Y44.2714
G01 X165.4070 Y44.3705
G01 X165.4667 Y44.4655
G01 X165.5333 Y44.5558
G01 X165.6064 Y44.6408
G01 X165.6858 Y44.7201
G01 X165.7708 Y44.7933
G01 X165.8610 Y44.8599
G01 X165.9560 Y44.9196
G01 X166.0552 Y44.9720
G01 X166.1580 Y45.0168
G01 X166.2639 Y45.0539
G01 X166.3722 Y45.0829
G01 X166.4824 Y45.1038
G01 X166.5939 Y45.1163
G01 X166.7060 Y45.1205
G01 X166.8181 Y45.1163
G01 X166.9296 Y45.1038
G01 X167.0398 Y45.0829
G01 X167.1481 Y45.0539
G01 X167.2540 Y45.0168
G01 X167.3568 Y44.9720
G01 X167.4560 Y44.9196
G01 X167.5510 Y44.8599
G01 X167.6412 Y44.7933
G01 X167.7262 Y44.7201
G01 X167.8056 Y44.6408
G01 X167.8787 Y44.5558
G01 X167.9453 Y44.4655
G01 X168.0050 Y44.3705
G01 X168.0574 Y44.2714
G01 X168.1023 Y44.1686
G01 X168.1393 Y44.0627
G01 X168.1684 Y43.9543
G01 X168.1892 Y43.8441
G01 X168.2018 Y43.7327
G01 X168.2060 Y43.6206
M107
M106 S240
G01 X168.2029 Y43.5421 Z-4.9750 F400
M107
M106 S240
G01 X168.1937 Y43.4641 Z-4.9500
M107
M106 S240
G01 X168.1783 Y43.3871 Z-4.9250
M107
M106 S240
G01 X168.1570 Y43.3115 Z-4.9000
M107
M106 S240
G01 X168.1298 Y43.2379 Z-4.8750
M107
M106 S240
G01 X168.0970 Y43.1666 Z-4.8500
M107
M106 S240
G01 X168.0586 Y43.0981 Z-4.8250
M107
M106 S240
G01 X168.0150 Y43.0328 Z-4.8000
M107
M106 S240
G01 X167.9664 Y42.9711 Z-4.7750
M107
M106 S240
G01 X167.9131 Y42.9135 Z-4.7500
M107
M106 S240
G01 X167.8554 Y42.8602 Z-4.7250
M107
M106 S240
G01 X167.7938 Y42.8115 Z-4.7000
M107
M106 S240
G01 X167.7285 Y42.7679 Z-4.6750
M107
M106 S240
G01 X167.6600 Y42.7296 Z-4.6500
M107
M106 S240
G01 X167.5887 Y42.6967 Z-4.6250
M107
M106 S240
G01 X167.5150 Y42.6695 Z-4.6000
M107
M106 S240
G01 X167.4394 Y42.6482 Z-4.5750
M107
M106 S240
G01 X167.3624 Y42.6329 Z-4.5500
M107
M106 S240
G01 X167.2844 Y42.6236 Z-4.5250
M107
M106 S240
G01 X167.2060 Y42.6206 Z-4.5000
M107
G00 Z2.0000


;No. 8: Helical drill 8
G00 X213.9230 Y43.6206 Z2.0000
G00 Z0.5000
M106 S240
G01 X213.9192 Y43.5334 Z0.4745 F400
G01 X213.9078 Y43.4469 Z0.4491
G01 X213.8889 Y43.3618 Z0.4236
G01 X213.8627 Y43.2786 Z0.3981
G01 X213.8293 Y43.1980 Z0.3727
G01 X213.7890 Y43.1206 Z0.3472
G01 X213.7421 Y43.0470 Z0.3218
G01 X213.6890 Y42.9778 Z0.2963
G01 X213.6301 Y42.9135 Z0.2708
G01 X213.5658 Y42.8545 Z0.2454
G01 X213.4966 Y42.8014 Z0.2199
G01 X213.4230 Y42.7546 Z0.1944
G01 X213.3456 Y42.7143 Z0.1690
G01 X213.2650 Y42.6809 Z0.1435
G01 X213.1818 Y42.6547 Z0.1181
G01 X213.0966 Y42.6358 Z0.0926
G01 X213.0101 Y42.6244 Z0.0671
G01 X212.9230 Y42.6206 Z0.0417
G01 X212.8358 Y42.6244 Z0.0162
G01 X212.7493 Y42.6358 Z-0.0093
G01 X212.6642 Y42.6547 Z-0.0347
G01 X212.5810 Y42.6809 Z-0.0602
G01 X212.5004 Y42.7143 Z-0.0856
G01 X212.4230 Y42.7546 Z-0.1111
G01 X212.3494 Y42.8014 Z-0.1366
G01 X212.2802 Y42.8545 Z-0.1620
G01 X212.2159 Y42.9135 Z-0.1875
G01 X212.1569 Y42.9778 Z-0.2130
G01 X212.1038 Y43.0470 Z-0.2384
G01 X212.0570 Y43.1206 Z-0.2639
G01 X212.0167 Y43.1980 Z-0.2894
G01 X211.9833 Y43.2786 Z-0.3148
G01 X211.9571 Y43.3618 Z-0.3403
G01 X211.9382 Y43.4469 Z-0.3657
G01 X211.9268 Y43.5334 Z-0.3912
G01 X211.9230 Y43.6206 Z-0.4167
G01 X211.9268 Y43.7077 Z-0.4421
G01 X211.9382 Y43.7942 Z-0.4676
G01 X211.9571 Y43.8794 Z-0.4931
G01 X211.9833 Y43.9626 Z-0.5185
G01 X212.0167 Y44.0432 Z-0.5440
G01 X212.0570 Y44.1206 Z-0.5694
G01 X212.1038 Y44.1942 Z-0.5949
G01 X212.1569 Y44.2634 Z-0.6204
G01 X212.2159 Y44.3277 Z-0.6458
G01 X212.2802 Y44.3866 Z-0.6713
G01 X212.3494 Y44.4397 Z-0.6968
G01 X212.4230 Y44.4866 Z-0.7222
G01 X212.5004 Y44.5269 Z-0.7477
G01 X212.5810 Y44.5603 Z-0.7731
G01 X212.6642 Y44.5865 Z-0.7986
G01 X212.7493 Y44.6054 Z-0.8241
G01 X212.8358 Y44.6168 Z-0.8495
G01 X212.9230 Y44.6206 Z-0.8750
G01 X213.0101 Y44.6168 Z-0.9005
G01 X213.0966 Y44.6054 Z-0.9259
G01 X213.1818 Y44.5865 Z-0.9514
G01 X213.2650 Y44.5603 Z-0.9769
G01 X213.3456 Y44.5269 Z-1.0023
G01 X213.4230 Y44.4866 Z-1.0278
G01 X213.4966 Y44.4397 Z-1.0532
G01 X213.5658 Y44.3866 Z-1.0787
G01 X213.6301 Y44.3277 Z-1.1042
G01 X213.6890 Y44.2634 Z-1.1296
G01 X213.7421 Y44.1942 Z-1.1551
G01 X213.7890 Y44.1206 Z-1.1806
G01 X213.8293 Y44.0432 Z-1.2060
G01 X213.8627 Y43.9626 Z-1.2315
G01 X213.8889 Y43.8794 Z-1.2569
G01 X213.9078 Y43.7942 Z-1.2824
G01 X213.9192 Y43.7077 Z-1.3079
G01 X213.9230 Y43.6206 Z-1.3333
G01 X213.9192 Y43.5334
G01 X213.9078 Y43.4469
G01 X213.8889 Y43.3618
G01 X213.8627 Y43.2786
G01 X213.8293 Y43.1980
G01 X213.7890 Y43.1206
G01 X213.7421 Y43.0470
G01 X213.6890 Y42.9778
G01 X213.6301 Y42.9135
G01 X213.5658 Y42.8545
G01 X213.4966 Y42.8014
G01 X213.4230 Y42.7546
G01 X213.3456 Y42.7143
G01 X213.2650 Y42.6809
G01 X213.1818 Y42.6547
G01 X213.0966 Y42.6358
G01 X213.0101 Y42.6244
G01 X212.9230 Y42.6206
G01 X212.8358 Y42.6244
G01 X212.7493 Y42.6358
G01 X212.6642 Y42.6547
G01 X212.5810 Y42.6809
G01 X212.5004 Y42.7143
G01 X212.4230 Y42.7546
G01 X212.3494 Y42.8014
G01 X212.2802 Y42.8545
G01 X212.2159 Y42.9135
G01 X212.1569 Y42.9778
G01 X212.1038 Y43.0470
G01 X212.0570 Y43.1206
G01 X212.0167 Y43.1980
G01 X211.9833 Y43.2786
G01 X211.9571 Y43.3618
G01 X211.9382 Y43.4469
G01 X211.9268 Y43.5334
G01 X211.9230 Y43.6206
G01 X211.9268 Y43.7077
G01 X211.9382 Y43.7942
G01 X211.9571 Y43.8794
G01 X211.9833 Y43.9626
G01 X212.0167 Y44.0432
G01 X212.0570 Y44.1206
G01 X212.1038 Y44.1942
G01 X212.1569 Y44.2634
G01 X212.2159 Y44.3277
G01 X212.2802 Y44.3866
G01 X212.3494 Y44.4397
G01 X212.4230 Y44.4866
G01 X212.5004 Y44.5269
G01 X212.5810 Y44.5603
G01 X212.6642 Y44.5865
G01 X212.7493 Y44.6054
G01 X212.8358 Y44.6168
G01 X212.9230 Y44.6206
G01 X213.0101 Y44.6168
G01 X213.0966 Y44.6054
G01 X213.1818 Y44.5865
G01 X213.2650 Y44.5603
G01 X213.3456 Y44.5269
G01 X213.4230 Y44.4866
G01 X213.4966 Y44.4397
G01 X213.5658 Y44.3866
G01 X213.6301 Y44.3277
G01 X213.6890 Y44.2634
G01 X213.7421 Y44.1942
G01 X213.7890 Y44.1206
G01 X213.8293 Y44.0432
G01 X213.8627 Y43.9626
G01 X213.8889 Y43.8794
G01 X213.9078 Y43.7942
G01 X213.9192 Y43.7077
G01 X213.9230 Y43.6206
G01 X213.9337 Y43.5690 F1000
G01 X213.9418 Y43.5169
G01 X213.9472 Y43.4645
G01 X213.9499 Y43.4118
G01 X213.9498 Y43.3591
G01 X213.9471 Y43.3065
G01 X213.9416 Y43.2541
G01 X213.9335 Y43.2020
G01 X213.9218 Y43.1460
G01 X213.9072 Y43.0907
G01 X213.8898 Y43.0362
G01 X213.8697 Y42.9827
G01 X213.8469 Y42.9303
G01 X213.8214 Y42.8791
G01 X213.7933 Y42.8292
G01 X213.7627 Y42.7809
G01 X213.7271 Y42.7305
G01 X213.6889 Y42.6820
G01 X213.6484 Y42.6355
G01 X213.6055 Y42.5910
G01 X213.5605 Y42.5489
G01 X213.5134 Y42.5091
G01 X213.4642 Y42.4717
G01 X213.4133 Y42.4369
G01 X213.3568 Y42.4023
G01 X213.2986 Y42.3706
G01 X213.2389 Y42.3419
G01 X213.1779 Y42.3163
G01 X213.1156 Y42.2938
G01 X213.0522 Y42.2745
G01 X212.9880 Y42.2584
G01 X212.9230 Y42.2456
G01 X212.8530 Y42.2354
G01 X212.7825 Y42.2288
G01 X212.7118 Y42.2257
G01 X212.6410 Y42.2262
G01 X212.5704 Y42.2302
G01 X212.5000 Y42.2378
G01 X212.4302 Y42.2490
G01 X212.3609 Y42.2636
G01 X212.2927 Y42.2896
G01 X212.2259 Y42.3189
G01 X212.1606 Y42.3514
G01 X212.0970 Y42.3872
G01 X212.0352 Y42.4260
G01 X211.9754 Y42.4678
G01 X211.9178 Y42.5125
G01 X211.8624 Y42.5599
G01 X211.8116 Y42.6133
G01 X211.7635 Y42.6690
G01 X211.7182 Y42.7270
G01 X211.6758 Y42.7872
G01 X211.6364 Y42.8494
G01 X211.6001 Y42.9135
G01 X211.5670 Y42.9793
G01 X211.5372 Y43.0466
G01 X211.5107 Y43.1153
G01 X211.4876 Y43.1852
G01 X211.4680 Y43.2561
G01 X211.4518 Y43.3280
G01 X211.4393 Y43.4005
G01 X211.4302 Y43.4736
G01 X211.4248 Y43.5470
G01 X211.4230 Y43.6206
G01 X211.4248 Y43.6942
G01 X211.4302 Y43.7676
G01 X211.4393 Y43.8407
G01 X211.4518 Y43.9132
G01 X211.4680 Y43.9850
G01 X211.4876 Y44.0560
G01 X211.5107 Y44.1259
G01 X211.5372 Y44.1946
G01 X211.5670 Y44.2619
G01 X211.6001 Y44.3277
G01 X211.6364 Y44.3917
G01 X211.6758 Y44.4539
G01 X211.7182 Y44.5141
G01 X211.7635 Y44.5722
G01 X211.8116 Y44.6279
G01 X211.8624 Y44.6812
G01 X211.9157 Y44.7320
G01 X211.9714 Y44.7801
G01 X212.0295 Y44.8254
G01 X212.0897 Y44.8678
G01 X212.1519 Y44.9072
G01 X212.2159 Y44.9434
G01 X212.2817 Y44.9765
G01 X212.3490 Y45.0064
G01 X212.4177 Y45.0329
G01 X212.4876 Y45.0560
G01 X212.5585 Y45.0756
G01 X212.6304 Y45.0917
G01 X212.7029 Y45.1043
G01 X212.7760 Y45.1133
G01 X212.8494 Y45.1187
G01 X212.9230 Y45.1206
G01 X212.9966 Y45.1187
G01 X213.0700 Y45.1133
G01 X213.1431 Y45.1043
G01 X213.2156 Y45.0917
G01 X213.2875 Y45.0756
G01 X213.3584 Y45.0560
G01 X213.4283 Y45.0329
G01 X213.4970 Y45.0064
G01 X213.5643 Y44.9765
G01 X213.6301 Y44.9434
G01 X213.6941 Y44.9072
G01 X213.7563 Y44.8678
G01 X213.8165 Y44.8254
G01 X213.8746 Y44.7801
G01 X213.9303 Y44.7320
G01 X213.9836 Y44.6812
G01 X214.0344 Y44.6279
G01 X214.0825 Y44.5722
G01 X214.1278 Y44.5141
G01 X214.1702 Y44.4539
G01 X214.2096 Y44.3917
G01 X214.2459 Y44.3277
G01 X214.2790 Y44.2619
G01 X214.3088 Y44.1946
G01 X214.3353 Y44.1259
G01 X214.3584 Y44.0560
G01 X214.3780 Y43.9850
G01 X214.3941 Y43.9132
G01 X214.4067 Y43.8407
G01 X214.4157 Y43.7676
G01 X214.4212 Y43.6942
G01 X214.4230 Y43.6206
G01 X214.4188 Y43.5085
G01 X214.4062 Y43.3970
G01 X214.3854 Y43.2868
G01 X214.3563 Y43.1785
G01 X214.3193 Y43.0726
G01 X214.2744 Y42.9698
G01 X214.2220 Y42.8706
G01 X214.1623 Y42.7756
G01 X214.0957 Y42.6854
G01 X214.0226 Y42.6003
G01 X213.9432 Y42.5210
G01 X213.8582 Y42.4479
G01 X213.7680 Y42.3812
G01 X213.6730 Y42.3216
G01 X213.5738 Y42.2692
G01 X213.4710 Y42.2243
G01 X213.3651 Y42.1872
G01 X213.2568 Y42.1582
G01 X213.1466 Y42.1374
G01 X213.0351 Y42.1248
G01 X212.9230 Y42.1206
G01 X212.8109 Y42.1248
G01 X212.6994 Y42.1374
G01 X212.5892 Y42.1582
G01 X212.4809 Y42.1872
G01 X212.3750 Y42.2243
G01 X212.2722 Y42.2692
G01 X212.1730 Y42.3216
G01 X212.0780 Y42.3812
G01 X211.9878 Y42.4479
G01 X211.9028 Y42.5210
G01 X211.8234 Y42.6003
G01 X211.7503 Y42.6854
G01 X211.6837 Y42.7756
G01 X211.6240 Y42.8706
G01 X211.5716 Y42.9698
G01 X211.5267 Y43.0726
G01 X211.4897 Y43.1785
G01 X211.4606 Y43.2868
G01 X211.4398 Y43.3970
G01 X211.4272 Y43.5085
G01 X211.4230 Y43.6206
G01 X211.4272 Y43.7327
G01 X211.4398 Y43.8441
G01 X211.4606 Y43.9544
G01 X211.4897 Y44.0627
G01 X211.5267 Y44.1686
G01 X211.5716 Y44.2714
G01 X211.6240 Y44.3706
G01 X211.6837 Y44.4655
G01 X211.7503 Y44.5558
G01 X211.8234 Y44.6408
G01 X211.9028 Y44.7201
G01 X211.9878 Y44.7933
G01 X212.0780 Y44.8599
G01 X212.1730 Y44.9196
G01 X212.2722 Y44.9720
G01 X212.3750 Y45.0169
G01 X212.4809 Y45.0539
G01 X212.5892 Y45.0829
G01 X212.6994 Y45.1038
G01 X212.8109 Y45.1164
G01 X212.9230 Y45.1206
G01 X213.0351 Y45.1164
G01 X213.1466 Y45.1038
G01 X213.2568 Y45.0829
G01 X213.3651 Y45.0539
G01 X213.4710 Y45.0169
G01 X213.5738 Y44.9720
G01 X213.6730 Y44.9196
G01 X213.7680 Y44.8599
G01 X213.8582 Y44.7933
G01 X213.9432 Y44.7201
G01 X214.0226 Y44.6408
G01 X214.0957 Y44.5558
G01 X214.1623 Y44.4655
G01 X214.2220 Y44.3706
G01 X214.2744 Y44.2714
G01 X214.3193 Y44.1686
G01 X214.3563 Y44.0627
G01 X214.3854 Y43.9544
G01 X214.4062 Y43.8441
G01 X214.4188 Y43.7327
G01 X214.4230 Y43.6206
G01 X214.4191 Y43.5225
G01 X214.4076 Y43.4250
G01 X214.3884 Y43.3288
G01 X214.3618 Y43.2343
G01 X214.3278 Y43.1422
G01 X214.2867 Y43.0531
G01 X214.2388 Y42.9675
G01 X214.1842 Y42.8859
G01 X214.1235 Y42.8088
G01 X214.0569 Y42.7367
G01 X213.9848 Y42.6701
G01 X213.9077 Y42.6093
G01 X213.8261 Y42.5548
G01 X213.7405 Y42.5068
G01 X213.6513 Y42.4657
G01 X213.5592 Y42.4318
G01 X213.4648 Y42.4051
G01 X213.3685 Y42.3860
G01 X213.2711 Y42.3744
G01 X213.1730 Y42.3706
G01 X213.0749 Y42.3744
G01 X212.9774 Y42.3860
G01 X212.8812 Y42.4051
G01 X212.7867 Y42.4318
G01 X212.6946 Y42.4657
G01 X212.6055 Y42.5068
G01 X212.5199 Y42.5548
G01 X212.4383 Y42.6093
G01 X212.3612 Y42.6701
G01 X212.2891 Y42.7367
G01 X212.2225 Y42.8088
G01 X212.1617 Y42.8859
G01 X212.1072 Y42.9675
G01 X212.0592 Y43.0531
G01 X212.0181 Y43.1422
G01 X211.9842 Y43.2343
G01 X211.9575 Y43.3288
G01 X211.9384 Y43.4250
G01 X211.9268 Y43.5225
G01 X211.9230 Y43.6206
G01 X211.9241 Y43.6668
G01 X211.9273 Y43.7129
G01 X211.9326 Y43.7587
G01 X211.9400 Y43.8043
G01 X211.9496 Y43.8495
G01 X211.9612 Y43.8942
G01 X211.9748 Y43.9384
G01 X211.9905 Y43.9818
G01 X212.0082 Y44.0245
G01 X212.0278 Y44.0663
G01 X212.0494 Y44.1072
G01 X212.0728 Y44.1470
G01 X212.0980 Y44.1857
G01 X212.1250 Y44.2232
G01 X212.1537 Y44.2594
G01 X212.1840 Y44.2943
G01 X212.2159 Y44.3277
G01 X212.2493 Y44.3596
G01 X212.2841 Y44.3899
G01 X212.3204 Y44.4186
G01 X212.3579 Y44.4456
G01 X212.3966 Y44.4708
G01 X212.4364 Y44.4942
G01 X212.4773 Y44.5157
G01 X212.5191 Y44.5354
G01 X212.5618 Y44.5531
G01 X212.6052 Y44.5687
G01 X212.6493 Y44.5824
G01 X212.6940 Y44.5940
G01 X212.7392 Y44.6036
G01 X212.7848 Y44.6110
G01 X212.8307 Y44.6163
G01 X212.8768 Y44.6195
G01 X212.9230 Y44.6206
G01 X212.9692 Y44.6195
G01 X213.0153 Y44.6163
G01 X213.0611 Y44.6110
G01 X213.1067 Y44.6036
G01 X213.1519 Y44.5940
G01 X213.1967 Y44.5824
G01 X213.2408 Y44.5687
G01 X213.2842 Y44.5531
G01 X213.3269 Y44.5354
G01 X213.3687 Y44.5157
G01 X213.4096 Y44.4942
G01 X213.4494 Y44.4708
G01 X213.4881 Y44.4456
G01 X213.5256 Y44.4186
G01 X213.5618 Y44.3899
G01 X213.5967 Y44.3596
G01 X213.6301 Y44.3277
G01 X213.6620 Y44.2943
G01 X213.6923 Y44.2594
G01 X213.7210 Y44.2232
G01 X213.7480 Y44.1857
G01 X213.7732 Y44.1470
G01 X213.7966 Y44.1072
G01 X213.8182 Y44.0663
G01 X213.8378 Y44.0245
G01 X213.8555 Y43.9818
G01 X213.8712 Y43.9384
G01 X213.8848 Y43.8942
G01 X213.8964 Y43.8495
G01 X213.9060 Y43.8043
G01 X213.9134 Y43.7587
G01 X213.9187 Y43.7129
G01 X213.9219 Y43.6668
G01 X213.9230 Y43.6206
M107
M106 S240
G01 X213.9192 Y43.5334 Z-1.3588 F400
G01 X213.9078 Y43.4469 Z-1.3843
G01 X213.8889 Y43.3618 Z-1.4097
G01 X213.8627 Y43.2786 Z-1.4352
G01 X213.8293 Y43.1980 Z-1.4606
G01 X213.7890 Y43.1206 Z-1.4861
G01 X213.7421 Y43.0470 Z-1.5116
G01 X213.6890 Y42.9778 Z-1.5370
G01 X213.6301 Y42.9135 Z-1.5625
G01 X213.5658 Y42.8545 Z-1.5880
G01 X213.4966 Y42.8014 Z-1.6134
G01 X213.4230 Y42.7546 Z-1.6389
G01 X213.3456 Y42.7143 Z-1.6644
G01 X213.2650 Y42.6809 Z-1.6898
G01 X213.1818 Y42.6547 Z-1.7153
G01 X213.0966 Y42.6358 Z-1.7407
G01 X213.0101 Y42.6244 Z-1.7662
G01 X212.9230 Y42.6206 Z-1.7917
G01 X212.8358 Y42.6244 Z-1.8171
G01 X212.7493 Y42.6358 Z-1.8426
G01 X212.6642 Y42.6547 Z-1.8681
G01 X212.5810 Y42.6809 Z-1.8935
G01 X212.5004 Y42.7143 Z-1.9190
G01 X212.4230 Y42.7546 Z-1.9444
G01 X212.3494 Y42.8014 Z-1.9699
G01 X212.2802 Y42.8545 Z-1.9954
G01 X212.2159 Y42.9135 Z-2.0208
G01 X212.1569 Y42.9778 Z-2.0463
G01 X212.1038 Y43.0470 Z-2.0718
G01 X212.0570 Y43.1206 Z-2.0972
G01 X212.0167 Y43.1980 Z-2.1227
G01 X211.9833 Y43.2786 Z-2.1481
G01 X211.9571 Y43.3618 Z-2.1736
G01 X211.9382 Y43.4469 Z-2.1991
G01 X211.9268 Y43.5334 Z-2.2245
G01 X211.9230 Y43.6206 Z-2.2500
G01 X211.9268 Y43.7077 Z-2.2755
G01 X211.9382 Y43.7942 Z-2.3009
G01 X211.9571 Y43.8794 Z-2.3264
G01 X211.9833 Y43.9626 Z-2.3519
G01 X212.0167 Y44.0432 Z-2.3773
G01 X212.0570 Y44.1206 Z-2.4028
G01 X212.1038 Y44.1942 Z-2.4282
G01 X212.1569 Y44.2634 Z-2.4537
G01 X212.2159 Y44.3277 Z-2.4792
G01 X212.2802 Y44.3866 Z-2.5046
G01 X212.3494 Y44.4397 Z-2.5301
G01 X212.4230 Y44.4866 Z-2.5556
G01 X212.5004 Y44.5269 Z-2.5810
G01 X212.5810 Y44.5603 Z-2.6065
G01 X212.6642 Y44.5865 Z-2.6319
G01 X212.7493 Y44.6054 Z-2.6574
G01 X212.8358 Y44.6168 Z-2.6829
G01 X212.9230 Y44.6206 Z-2.7083
G01 X213.0101 Y44.6168 Z-2.7338
G01 X213.0966 Y44.6054 Z-2.7593
G01 X213.1818 Y44.5865 Z-2.7847
G01 X213.2650 Y44.5603 Z-2.8102
G01 X213.3456 Y44.5269 Z-2.8356
G01 X213.4230 Y44.4866 Z-2.8611
G01 X213.4966 Y44.4397 Z-2.8866
G01 X213.5658 Y44.3866 Z-2.9120
G01 X213.6301 Y44.3277 Z-2.9375
G01 X213.6890 Y44.2634 Z-2.9630
G01 X213.7421 Y44.1942 Z-2.9884
G01 X213.7890 Y44.1206 Z-3.0139
G01 X213.8293 Y44.0432 Z-3.0394
G01 X213.8627 Y43.9626 Z-3.0648
G01 X213.8889 Y43.8794 Z-3.0903
G01 X213.9078 Y43.7942 Z-3.1157
G01 X213.9192 Y43.7077 Z-3.1412
G01 X213.9230 Y43.6206 Z-3.1667
G01 X213.9192 Y43.5334
G01 X213.9078 Y43.4469
G01 X213.8889 Y43.3618
G01 X213.8627 Y43.2786
G01 X213.8293 Y43.1980
G01 X213.7890 Y43.1206
G01 X213.7421 Y43.0470
G01 X213.6890 Y42.9778
G01 X213.6301 Y42.9135
G01 X213.5658 Y42.8545
G01 X213.4966 Y42.8014
G01 X213.4230 Y42.7546
G01 X213.3456 Y42.7143
G01 X213.2650 Y42.6809
G01 X213.1818 Y42.6547
G01 X213.0966 Y42.6358
G01 X213.0101 Y42.6244
G01 X212.9230 Y42.6206
G01 X212.8358 Y42.6244
G01 X212.7493 Y42.6358
G01 X212.6642 Y42.6547
G01 X212.5810 Y42.6809
G01 X212.5004 Y42.7143
G01 X212.4230 Y42.7546
G01 X212.3494 Y42.8014
G01 X212.2802 Y42.8545
G01 X212.2159 Y42.9135
G01 X212.1569 Y42.9778
G01 X212.1038 Y43.0470
G01 X212.0570 Y43.1206
G01 X212.0167 Y43.1980
G01 X211.9833 Y43.2786
G01 X211.9571 Y43.3618
G01 X211.9382 Y43.4469
G01 X211.9268 Y43.5334
G01 X211.9230 Y43.6206
G01 X211.9268 Y43.7077
G01 X211.9382 Y43.7942
G01 X211.9571 Y43.8794
G01 X211.9833 Y43.9626
G01 X212.0167 Y44.0432
G01 X212.0570 Y44.1206
G01 X212.1038 Y44.1942
G01 X212.1569 Y44.2634
G01 X212.2159 Y44.3277
G01 X212.2802 Y44.3866
G01 X212.3494 Y44.4397
G01 X212.4230 Y44.4866
G01 X212.5004 Y44.5269
G01 X212.5810 Y44.5603
G01 X212.6642 Y44.5865
G01 X212.7493 Y44.6054
G01 X212.8358 Y44.6168
G01 X212.9230 Y44.6206
G01 X213.0101 Y44.6168
G01 X213.0966 Y44.6054
G01 X213.1818 Y44.5865
G01 X213.2650 Y44.5603
G01 X213.3456 Y44.5269
G01 X213.4230 Y44.4866
G01 X213.4966 Y44.4397
G01 X213.5658 Y44.3866
G01 X213.6301 Y44.3277
G01 X213.6890 Y44.2634
G01 X213.7421 Y44.1942
G01 X213.7890 Y44.1206
G01 X213.8293 Y44.0432
G01 X213.8627 Y43.9626
G01 X213.8889 Y43.8794
G01 X213.9078 Y43.7942
G01 X213.9192 Y43.7077
G01 X213.9230 Y43.6206
G01 X213.9337 Y43.5690 F1000
G01 X213.9418 Y43.5169
G01 X213.9472 Y43.4645
G01 X213.9499 Y43.4118
G01 X213.9498 Y43.3591
G01 X213.9471 Y43.3065
G01 X213.9416 Y43.2541
G01 X213.9335 Y43.2020
G01 X213.9218 Y43.1460
G01 X213.9072 Y43.0907
G01 X213.8898 Y43.0362
G01 X213.8697 Y42.9827
G01 X213.8469 Y42.9303
G01 X213.8214 Y42.8791
G01 X213.7933 Y42.8292
G01 X213.7627 Y42.7809
G01 X213.7271 Y42.7305
G01 X213.6889 Y42.6820
G01 X213.6484 Y42.6355
G01 X213.6055 Y42.5910
G01 X213.5605 Y42.5489
G01 X213.5134 Y42.5091
G01 X213.4642 Y42.4717
G01 X213.4133 Y42.4369
G01 X213.3568 Y42.4023
G01 X213.2986 Y42.3706
G01 X213.2389 Y42.3419
G01 X213.1779 Y42.3163
G01 X213.1156 Y42.2938
G01 X213.0522 Y42.2745
G01 X212.9880 Y42.2584
G01 X212.9230 Y42.2456
G01 X212.8530 Y42.2354
G01 X212.7825 Y42.2288
G01 X212.7118 Y42.2257
G01 X212.6410 Y42.2262
G01 X212.5704 Y42.2302
G01 X212.5000 Y42.2378
G01 X212.4302 Y42.2490
G01 X212.3609 Y42.2636
G01 X212.2927 Y42.2896
G01 X212.2259 Y42.3189
G01 X212.1606 Y42.3514
G01 X212.0970 Y42.3872
G01 X212.0352 Y42.4260
G01 X211.9754 Y42.4678
G01 X211.9178 Y42.5125
G01 X211.8624 Y42.5599
G01 X211.8116 Y42.6133
G01 X211.7635 Y42.6690
G01 X211.7182 Y42.7270
G01 X211.6758 Y42.7872
G01 X211.6364 Y42.8494
G01 X211.6001 Y42.9135
G01 X211.5670 Y42.9793
G01 X211.5372 Y43.0466
G01 X211.5107 Y43.1153
G01 X211.4876 Y43.1852
G01 X211.4680 Y43.2561
G01 X211.4518 Y43.3280
G01 X211.4393 Y43.4005
G01 X211.4302 Y43.4736
G01 X211.4248 Y43.5470
G01 X211.4230 Y43.6206
G01 X211.4248 Y43.6942
G01 X211.4302 Y43.7676
G01 X211.4393 Y43.8407
G01 X211.4518 Y43.9132
G01 X211.4680 Y43.9850
G01 X211.4876 Y44.0560
G01 X211.5107 Y44.1259
G01 X211.5372 Y44.1946
G01 X211.5670 Y44.2619
G01 X211.6001 Y44.3277
G01 X211.6364 Y44.3917
G01 X211.6758 Y44.4539
G01 X211.7182 Y44.5141
G01 X211.7635 Y44.5722
G01 X211.8116 Y44.6279
G01 X211.8624 Y44.6812
G01 X211.9157 Y44.7320
G01 X211.9714 Y44.7801
G01 X212.0295 Y44.8254
G01 X212.0897 Y44.8678
G01 X212.1519 Y44.9072
G01 X212.2159 Y44.9434
G01 X212.2817 Y44.9765
G01 X212.3490 Y45.0064
G01 X212.4177 Y45.0329
G01 X212.4876 Y45.0560
G01 X212.5585 Y45.0756
G01 X212.6304 Y45.0917
G01 X212.7029 Y45.1043
G01 X212.7760 Y45.1133
G01 X212.8494 Y45.1187
G01 X212.9230 Y45.1206
G01 X212.9966 Y45.1187
G01 X213.0700 Y45.1133
G01 X213.1431 Y45.1043
G01 X213.2156 Y45.0917
G01 X213.2875 Y45.0756
G01 X213.3584 Y45.0560
G01 X213.4283 Y45.0329
G01 X213.4970 Y45.0064
G01 X213.5643 Y44.9765
G01 X213.6301 Y44.9434
G01 X213.6941 Y44.9072
G01 X213.7563 Y44.8678
G01 X213.8165 Y44.8254
G01 X213.8746 Y44.7801
G01 X213.9303 Y44.7320
G01 X213.9836 Y44.6812
G01 X214.0344 Y44.6279
G01 X214.0825 Y44.5722
G01 X214.1278 Y44.5141
G01 X214.1702 Y44.4539
G01 X214.2096 Y44.3917
G01 X214.2459 Y44.3277
G01 X214.2790 Y44.2619
G01 X214.3088 Y44.1946
G01 X214.3353 Y44.1259
G01 X214.3584 Y44.0560
G01 X214.3780 Y43.9850
G01 X214.3941 Y43.9132
G01 X214.4067 Y43.8407
G01 X214.4157 Y43.7676
G01 X214.4212 Y43.6942
G01 X214.4230 Y43.6206
G01 X214.4188 Y43.5085
G01 X214.4062 Y43.3970
G01 X214.3854 Y43.2868
G01 X214.3563 Y43.1785
G01 X214.3193 Y43.0726
G01 X214.2744 Y42.9698
G01 X214.2220 Y42.8706
G01 X214.1623 Y42.7756
G01 X214.0957 Y42.6854
G01 X214.0226 Y42.6003
G01 X213.9432 Y42.5210
G01 X213.8582 Y42.4479
G01 X213.7680 Y42.3812
G01 X213.6730 Y42.3216
G01 X213.5738 Y42.2692
G01 X213.4710 Y42.2243
G01 X213.3651 Y42.1872
G01 X213.2568 Y42.1582
G01 X213.1466 Y42.1374
G01 X213.0351 Y42.1248
G01 X212.9230 Y42.1206
G01 X212.8109 Y42.1248
G01 X212.6994 Y42.1374
G01 X212.5892 Y42.1582
G01 X212.4809 Y42.1872
G01 X212.3750 Y42.2243
G01 X212.2722 Y42.2692
G01 X212.1730 Y42.3216
G01 X212.0780 Y42.3812
G01 X211.9878 Y42.4479
G01 X211.9028 Y42.5210
G01 X211.8234 Y42.6003
G01 X211.7503 Y42.6854
G01 X211.6837 Y42.7756
G01 X211.6240 Y42.8706
G01 X211.5716 Y42.9698
G01 X211.5267 Y43.0726
G01 X211.4897 Y43.1785
G01 X211.4606 Y43.2868
G01 X211.4398 Y43.3970
G01 X211.4272 Y43.5085
G01 X211.4230 Y43.6206
G01 X211.4272 Y43.7327
G01 X211.4398 Y43.8441
G01 X211.4606 Y43.9544
G01 X211.4897 Y44.0627
G01 X211.5267 Y44.1686
G01 X211.5716 Y44.2714
G01 X211.6240 Y44.3706
G01 X211.6837 Y44.4655
G01 X211.7503 Y44.5558
G01 X211.8234 Y44.6408
G01 X211.9028 Y44.7201
G01 X211.9878 Y44.7933
G01 X212.0780 Y44.8599
G01 X212.1730 Y44.9196
G01 X212.2722 Y44.9720
G01 X212.3750 Y45.0169
G01 X212.4809 Y45.0539
G01 X212.5892 Y45.0829
G01 X212.6994 Y45.1038
G01 X212.8109 Y45.1164
G01 X212.9230 Y45.1206
G01 X213.0351 Y45.1164
G01 X213.1466 Y45.1038
G01 X213.2568 Y45.0829
G01 X213.3651 Y45.0539
G01 X213.4710 Y45.0169
G01 X213.5738 Y44.9720
G01 X213.6730 Y44.9196
G01 X213.7680 Y44.8599
G01 X213.8582 Y44.7933
G01 X213.9432 Y44.7201
G01 X214.0226 Y44.6408
G01 X214.0957 Y44.5558
G01 X214.1623 Y44.4655
G01 X214.2220 Y44.3706
G01 X214.2744 Y44.2714
G01 X214.3193 Y44.1686
G01 X214.3563 Y44.0627
G01 X214.3854 Y43.9544
G01 X214.4062 Y43.8441
G01 X214.4188 Y43.7327
G01 X214.4230 Y43.6206
G01 X214.4191 Y43.5225
G01 X214.4076 Y43.4250
G01 X214.3884 Y43.3288
G01 X214.3618 Y43.2343
G01 X214.3278 Y43.1422
G01 X214.2867 Y43.0531
G01 X214.2388 Y42.9675
G01 X214.1842 Y42.8859
G01 X214.1235 Y42.8088
G01 X214.0569 Y42.7367
G01 X213.9848 Y42.6701
G01 X213.9077 Y42.6093
G01 X213.8261 Y42.5548
G01 X213.7405 Y42.5068
G01 X213.6513 Y42.4657
G01 X213.5592 Y42.4318
G01 X213.4648 Y42.4051
G01 X213.3685 Y42.3860
G01 X213.2711 Y42.3744
G01 X213.1730 Y42.3706
G01 X213.0749 Y42.3744
G01 X212.9774 Y42.3860
G01 X212.8812 Y42.4051
G01 X212.7867 Y42.4318
G01 X212.6946 Y42.4657
G01 X212.6055 Y42.5068
G01 X212.5199 Y42.5548
G01 X212.4383 Y42.6093
G01 X212.3612 Y42.6701
G01 X212.2891 Y42.7367
G01 X212.2225 Y42.8088
G01 X212.1617 Y42.8859
G01 X212.1072 Y42.9675
G01 X212.0592 Y43.0531
G01 X212.0181 Y43.1422
G01 X211.9842 Y43.2343
G01 X211.9575 Y43.3288
G01 X211.9384 Y43.4250
G01 X211.9268 Y43.5225
G01 X211.9230 Y43.6206
G01 X211.9241 Y43.6668
G01 X211.9273 Y43.7129
G01 X211.9326 Y43.7587
G01 X211.9400 Y43.8043
G01 X211.9496 Y43.8495
G01 X211.9612 Y43.8942
G01 X211.9748 Y43.9384
G01 X211.9905 Y43.9818
G01 X212.0082 Y44.0245
G01 X212.0278 Y44.0663
G01 X212.0494 Y44.1072
G01 X212.0728 Y44.1470
G01 X212.0980 Y44.1857
G01 X212.1250 Y44.2232
G01 X212.1537 Y44.2594
G01 X212.1840 Y44.2943
G01 X212.2159 Y44.3277
G01 X212.2493 Y44.3596
G01 X212.2841 Y44.3899
G01 X212.3204 Y44.4186
G01 X212.3579 Y44.4456
G01 X212.3966 Y44.4708
G01 X212.4364 Y44.4942
G01 X212.4773 Y44.5157
G01 X212.5191 Y44.5354
G01 X212.5618 Y44.5531
G01 X212.6052 Y44.5687
G01 X212.6493 Y44.5824
G01 X212.6940 Y44.5940
G01 X212.7392 Y44.6036
G01 X212.7848 Y44.6110
G01 X212.8307 Y44.6163
G01 X212.8768 Y44.6195
G01 X212.9230 Y44.6206
G01 X212.9692 Y44.6195
G01 X213.0153 Y44.6163
G01 X213.0611 Y44.6110
G01 X213.1067 Y44.6036
G01 X213.1519 Y44.5940
G01 X213.1967 Y44.5824
G01 X213.2408 Y44.5687
G01 X213.2842 Y44.5531
G01 X213.3269 Y44.5354
G01 X213.3687 Y44.5157
G01 X213.4096 Y44.4942
G01 X213.4494 Y44.4708
G01 X213.4881 Y44.4456
G01 X213.5256 Y44.4186
G01 X213.5618 Y44.3899
G01 X213.5967 Y44.3596
G01 X213.6301 Y44.3277
G01 X213.6620 Y44.2943
G01 X213.6923 Y44.2594
G01 X213.7210 Y44.2232
G01 X213.7480 Y44.1857
G01 X213.7732 Y44.1470
G01 X213.7966 Y44.1072
G01 X213.8182 Y44.0663
G01 X213.8378 Y44.0245
G01 X213.8555 Y43.9818
G01 X213.8712 Y43.9384
G01 X213.8848 Y43.8942
G01 X213.8964 Y43.8495
G01 X213.9060 Y43.8043
G01 X213.9134 Y43.7587
G01 X213.9187 Y43.7129
G01 X213.9219 Y43.6668
G01 X213.9230 Y43.6206
M107
M106 S240
G01 X213.9192 Y43.5334 Z-3.1921 F400
G01 X213.9078 Y43.4469 Z-3.2176
G01 X213.8889 Y43.3618 Z-3.2431
G01 X213.8627 Y43.2786 Z-3.2685
G01 X213.8293 Y43.1980 Z-3.2940
G01 X213.7890 Y43.1206 Z-3.3194
G01 X213.7421 Y43.0470 Z-3.3449
G01 X213.6890 Y42.9778 Z-3.3704
G01 X213.6301 Y42.9135 Z-3.3958
G01 X213.5658 Y42.8545 Z-3.4213
G01 X213.4966 Y42.8014 Z-3.4468
G01 X213.4230 Y42.7546 Z-3.4722
G01 X213.3456 Y42.7143 Z-3.4977
G01 X213.2650 Y42.6809 Z-3.5231
G01 X213.1818 Y42.6547 Z-3.5486
G01 X213.0966 Y42.6358 Z-3.5741
G01 X213.0101 Y42.6244 Z-3.5995
G01 X212.9230 Y42.6206 Z-3.6250
G01 X212.8358 Y42.6244 Z-3.6505
G01 X212.7493 Y42.6358 Z-3.6759
G01 X212.6642 Y42.6547 Z-3.7014
G01 X212.5810 Y42.6809 Z-3.7269
G01 X212.5004 Y42.7143 Z-3.7523
G01 X212.4230 Y42.7546 Z-3.7778
G01 X212.3494 Y42.8014 Z-3.8032
G01 X212.2802 Y42.8545 Z-3.8287
G01 X212.2159 Y42.9135 Z-3.8542
G01 X212.1569 Y42.9778 Z-3.8796
G01 X212.1038 Y43.0470 Z-3.9051
G01 X212.0570 Y43.1206 Z-3.9306
G01 X212.0167 Y43.1980 Z-3.9560
G01 X211.9833 Y43.2786 Z-3.9815
G01 X211.9571 Y43.3618 Z-4.0069
G01 X211.9382 Y43.4469 Z-4.0324
G01 X211.9268 Y43.5334 Z-4.0579
G01 X211.9230 Y43.6206 Z-4.0833
G01 X211.9268 Y43.7077 Z-4.1088
G01 X211.9382 Y43.7942 Z-4.1343
G01 X211.9571 Y43.8794 Z-4.1597
G01 X211.9833 Y43.9626 Z-4.1852
G01 X212.0167 Y44.0432 Z-4.2106
G01 X212.0570 Y44.1206 Z-4.2361
G01 X212.1038 Y44.1942 Z-4.2616
G01 X212.1569 Y44.2634 Z-4.2870
G01 X212.2159 Y44.3277 Z-4.3125
G01 X212.2802 Y44.3866 Z-4.3380
G01 X212.3494 Y44.4397 Z-4.3634
G01 X212.4230 Y44.4866 Z-4.3889
G01 X212.5004 Y44.5269 Z-4.4144
G01 X212.5810 Y44.5603 Z-4.4398
G01 X212.6642 Y44.5865 Z-4.4653
G01 X212.7493 Y44.6054 Z-4.4907
G01 X212.8358 Y44.6168 Z-4.5162
G01 X212.9230 Y44.6206 Z-4.5417
G01 X213.0101 Y44.6168 Z-4.5671
G01 X213.0966 Y44.6054 Z-4.5926
G01 X213.1818 Y44.5865 Z-4.6181
G01 X213.2650 Y44.5603 Z-4.6435
G01 X213.3456 Y44.5269 Z-4.6690
G01 X213.4230 Y44.4866 Z-4.6944
G01 X213.4966 Y44.4397 Z-4.7199
G01 X213.5658 Y44.3866 Z-4.7454
G01 X213.6301 Y44.3277 Z-4.7708
G01 X213.6890 Y44.2634 Z-4.7963
G01 X213.7421 Y44.1942 Z-4.8218
G01 X213.7890 Y44.1206 Z-4.8472
G01 X213.8293 Y44.0432 Z-4.8727
G01 X213.8627 Y43.9626 Z-4.8981
G01 X213.8889 Y43.8794 Z-4.9236
G01 X213.9078 Y43.7942 Z-4.9491
G01 X213.9192 Y43.7077 Z-4.9745
G01 X213.9230 Y43.6206 Z-5.0000
G01 X213.9192 Y43.5334
G01 X213.9078 Y43.4469
G01 X213.8889 Y43.3618
G01 X213.8627 Y43.2786
G01 X213.8293 Y43.1980
G01 X213.7890 Y43.1206
G01 X213.7421 Y43.0470
G01 X213.6890 Y42.9778
G01 X213.6301 Y42.9135
G01 X213.5658 Y42.8545
G01 X213.4966 Y42.8014
G01 X213.4230 Y42.7546
G01 X213.3456 Y42.7143
G01 X213.2650 Y42.6809
G01 X213.1818 Y42.6547
G01 X213.0966 Y42.6358
G01 X213.0101 Y42.6244
G01 X212.9230 Y42.6206
G01 X212.8358 Y42.6244
G01 X212.7493 Y42.6358
G01 X212.6642 Y42.6547
G01 X212.5810 Y42.6809
G01 X212.5004 Y42.7143
G01 X212.4230 Y42.7546
G01 X212.3494 Y42.8014
G01 X212.2802 Y42.8545
G01 X212.2159 Y42.9135
G01 X212.1569 Y42.9778
G01 X212.1038 Y43.0470
G01 X212.0570 Y43.1206
G01 X212.0167 Y43.1980
G01 X211.9833 Y43.2786
G01 X211.9571 Y43.3618
G01 X211.9382 Y43.4469
G01 X211.9268 Y43.5334
G01 X211.9230 Y43.6206
G01 X211.9268 Y43.7077
G01 X211.9382 Y43.7942
G01 X211.9571 Y43.8794
G01 X211.9833 Y43.9626
G01 X212.0167 Y44.0432
G01 X212.0570 Y44.1206
G01 X212.1038 Y44.1942
G01 X212.1569 Y44.2634
G01 X212.2159 Y44.3277
G01 X212.2802 Y44.3866
G01 X212.3494 Y44.4397
G01 X212.4230 Y44.4866
G01 X212.5004 Y44.5269
G01 X212.5810 Y44.5603
G01 X212.6642 Y44.5865
G01 X212.7493 Y44.6054
G01 X212.8358 Y44.6168
G01 X212.9230 Y44.6206
G01 X213.0101 Y44.6168
G01 X213.0966 Y44.6054
G01 X213.1818 Y44.5865
G01 X213.2650 Y44.5603
G01 X213.3456 Y44.5269
G01 X213.4230 Y44.4866
G01 X213.4966 Y44.4397
G01 X213.5658 Y44.3866
G01 X213.6301 Y44.3277
G01 X213.6890 Y44.2634
G01 X213.7421 Y44.1942
G01 X213.7890 Y44.1206
G01 X213.8293 Y44.0432
G01 X213.8627 Y43.9626
G01 X213.8889 Y43.8794
G01 X213.9078 Y43.7942
G01 X213.9192 Y43.7077
G01 X213.9230 Y43.6206
G01 X213.9337 Y43.5690 F1000
G01 X213.9418 Y43.5169
G01 X213.9472 Y43.4645
G01 X213.9499 Y43.4118
G01 X213.9498 Y43.3591
G01 X213.9471 Y43.3065
G01 X213.9416 Y43.2541
G01 X213.9335 Y43.2020
G01 X213.9218 Y43.1460
G01 X213.9072 Y43.0907
G01 X213.8898 Y43.0362
G01 X213.8697 Y42.9827
G01 X213.8469 Y42.9303
G01 X213.8214 Y42.8791
G01 X213.7933 Y42.8292
G01 X213.7627 Y42.7809
G01 X213.7271 Y42.7305
G01 X213.6889 Y42.6820
G01 X213.6484 Y42.6355
G01 X213.6055 Y42.5910
G01 X213.5605 Y42.5489
G01 X213.5134 Y42.5091
G01 X213.4642 Y42.4717
G01 X213.4133 Y42.4369
G01 X213.3568 Y42.4023
G01 X213.2986 Y42.3706
G01 X213.2389 Y42.3419
G01 X213.1779 Y42.3163
G01 X213.1156 Y42.2938
G01 X213.0522 Y42.2745
G01 X212.9880 Y42.2584
G01 X212.9230 Y42.2456
G01 X212.8530 Y42.2354
G01 X212.7825 Y42.2288
G01 X212.7118 Y42.2257
G01 X212.6410 Y42.2262
G01 X212.5704 Y42.2302
G01 X212.5000 Y42.2378
G01 X212.4302 Y42.2490
G01 X212.3609 Y42.2636
G01 X212.2927 Y42.2896
G01 X212.2259 Y42.3189
G01 X212.1606 Y42.3514
G01 X212.0970 Y42.3872
