;Project TeslaElectricVehiclesPlusCoaster
;Created by Estlcam version 11 build 11,245
;Machining time about 00:22:15 hours

G90
M03 S10000
G00 Z5.0000


;No. 1: Helical drill 1
G00 X20.0828 Y267.0330
G00 Z0.5000
G01 X20.0818 Y266.9902 Z0.4811 F400 S10000
G01 X20.0787 Y266.9475 Z0.4621
G01 X20.0737 Y266.9049 Z0.4432
G01 X20.0666 Y266.8627 Z0.4242
G01 X20.0575 Y266.8208 Z0.4053
G01 X20.0464 Y266.7795 Z0.3864
G01 X20.0333 Y266.7387 Z0.3674
G01 X20.0184 Y266.6985 Z0.3485
G01 X20.0015 Y266.6591 Z0.3295
G01 X19.9828 Y266.6206 Z0.3106
G01 X19.9622 Y266.5830 Z0.2917
G01 X19.9400 Y266.5464 Z0.2727
G01 X19.9159 Y266.5110 Z0.2538
G01 X19.8903 Y266.4767 Z0.2348
G01 X19.8630 Y266.4436 Z0.2159
G01 X19.8342 Y266.4120 Z0.1970
G01 X19.8039 Y266.3817 Z0.1780
G01 X19.7722 Y266.3528 Z0.1591
G01 X19.7392 Y266.3256 Z0.1402
G01 X19.7049 Y266.2999 Z0.1212
G01 X19.6694 Y266.2759 Z0.1023
G01 X19.6328 Y266.2536 Z0.0833
G01 X19.5952 Y266.2331 Z0.0644
G01 X19.5567 Y266.2144 Z0.0455
G01 X19.5173 Y266.1975 Z0.0265
G01 X19.4772 Y266.1825 Z0.0076
G01 X19.4364 Y266.1695 Z-0.0114
G01 X19.3950 Y266.1584 Z-0.0303
G01 X19.3532 Y266.1493 Z-0.0492
G01 X19.3109 Y266.1422 Z-0.0682
G01 X19.2684 Y266.1371 Z-0.0871
G01 X19.2256 Y266.1340 Z-0.1061
G01 X19.1828 Y266.1330 Z-0.1250
G01 X19.1400 Y266.1340 Z-0.1439
G01 X19.0973 Y266.1371 Z-0.1629
G01 X19.0547 Y266.1422 Z-0.1818
G01 X19.0125 Y266.1493 Z-0.2008
G01 X18.9706 Y266.1584 Z-0.2197
G01 X18.9293 Y266.1695 Z-0.2386
G01 X18.8885 Y266.1825 Z-0.2576
G01 X18.8483 Y266.1975 Z-0.2765
G01 X18.8090 Y266.2144 Z-0.2955
G01 X18.7704 Y266.2331 Z-0.3144
G01 X18.7328 Y266.2536 Z-0.3333
G01 X18.6962 Y266.2759 Z-0.3523
G01 X18.6608 Y266.2999 Z-0.3712
G01 X18.6265 Y266.3256 Z-0.3902
G01 X18.5934 Y266.3528 Z-0.4091
G01 X18.5618 Y266.3817 Z-0.4280
G01 X18.5315 Y266.4120 Z-0.4470
G01 X18.5027 Y266.4436 Z-0.4659
G01 X18.4754 Y266.4767 Z-0.4848
G01 X18.4497 Y266.5110 Z-0.5038
G01 X18.4257 Y266.5464 Z-0.5227
G01 X18.4034 Y266.5830 Z-0.5417
G01 X18.3829 Y266.6206 Z-0.5606
G01 X18.3642 Y266.6591 Z-0.5795
G01 X18.3473 Y266.6985 Z-0.5985
G01 X18.3323 Y266.7387 Z-0.6174
G01 X18.3193 Y266.7795 Z-0.6364
G01 X18.3082 Y266.8208 Z-0.6553
G01 X18.2991 Y266.8627 Z-0.6742
G01 X18.2920 Y266.9049 Z-0.6932
G01 X18.2869 Y266.9475 Z-0.7121
G01 X18.2838 Y266.9902 Z-0.7311
G01 X18.2828 Y267.0330 Z-0.7500
G01 X18.2838 Y267.0758 Z-0.7689
G01 X18.2869 Y267.1186 Z-0.7879
G01 X18.2920 Y267.1611 Z-0.8068
G01 X18.2991 Y267.2033 Z-0.8258
G01 X18.3082 Y267.2452 Z-0.8447
G01 X18.3193 Y267.2866 Z-0.8636
G01 X18.3323 Y267.3274 Z-0.8826
G01 X18.3473 Y267.3675 Z-0.9015
G01 X18.3642 Y267.4069 Z-0.9205
G01 X18.3829 Y267.4454 Z-0.9394
G01 X18.4034 Y267.4830 Z-0.9583
G01 X18.4257 Y267.5196 Z-0.9773
G01 X18.4497 Y267.5551 Z-0.9962
G01 X18.4754 Y267.5894 Z-1.0152
G01 X18.5027 Y267.6224 Z-1.0341
G01 X18.5315 Y267.6541 Z-1.0530
G01 X18.5618 Y267.6844 Z-1.0720
G01 X18.5934 Y267.7132 Z-1.0909
G01 X18.6265 Y267.7405 Z-1.1098
G01 X18.6608 Y267.7661 Z-1.1288
G01 X18.6962 Y267.7902 Z-1.1477
G01 X18.7328 Y267.8124 Z-1.1667
G01 X18.7704 Y267.8330 Z-1.1856
G01 X18.8090 Y267.8517 Z-1.2045
G01 X18.8483 Y267.8686 Z-1.2235
G01 X18.8885 Y267.8835 Z-1.2424
G01 X18.9293 Y267.8966 Z-1.2614
G01 X18.9706 Y267.9077 Z-1.2803
G01 X19.0125 Y267.9168 Z-1.2992
G01 X19.0547 Y267.9239 Z-1.3182
G01 X19.0973 Y267.9289 Z-1.3371
G01 X19.1400 Y267.9320 Z-1.3561
G01 X19.1828 Y267.9330 Z-1.3750
G01 X19.2256 Y267.9320 Z-1.3939
G01 X19.2684 Y267.9289 Z-1.4129
G01 X19.3109 Y267.9239 Z-1.4318
G01 X19.3532 Y267.9168 Z-1.4508
G01 X19.3950 Y267.9077 Z-1.4697
G01 X19.4364 Y267.8966 Z-1.4886
G01 X19.4772 Y267.8835 Z-1.5076
G01 X19.5173 Y267.8686 Z-1.5265
G01 X19.5567 Y267.8517 Z-1.5455
G01 X19.5952 Y267.8330 Z-1.5644
G01 X19.6328 Y267.8124 Z-1.5833
G01 X19.6694 Y267.7902 Z-1.6023
G01 X19.7049 Y267.7661 Z-1.6212
G01 X19.7392 Y267.7405 Z-1.6402
G01 X19.7722 Y267.7132 Z-1.6591
G01 X19.8039 Y267.6844 Z-1.6780
G01 X19.8342 Y267.6541 Z-1.6970
G01 X19.8630 Y267.6224 Z-1.7159
G01 X19.8903 Y267.5894 Z-1.7348
G01 X19.9159 Y267.5551 Z-1.7538
G01 X19.9400 Y267.5196 Z-1.7727
G01 X19.9622 Y267.4830 Z-1.7917
G01 X19.9828 Y267.4454 Z-1.8106
G01 X20.0015 Y267.4069 Z-1.8295
G01 X20.0184 Y267.3675 Z-1.8485
G01 X20.0333 Y267.3274 Z-1.8674
G01 X20.0464 Y267.2866 Z-1.8864
G01 X20.0575 Y267.2452 Z-1.9053
G01 X20.0666 Y267.2033 Z-1.9242
G01 X20.0737 Y267.1611 Z-1.9432
G01 X20.0787 Y267.1186 Z-1.9621
G01 X20.0818 Y267.0758 Z-1.9811
G01 X20.0828 Y267.0330 Z-2.0000
G01 X20.0818 Y266.9902
G01 X20.0787 Y266.9475
G01 X20.0737 Y266.9049
G01 X20.0666 Y266.8627
G01 X20.0575 Y266.8208
G01 X20.0464 Y266.7795
G01 X20.0333 Y266.7387
G01 X20.0184 Y266.6985
G01 X20.0015 Y266.6591
G01 X19.9828 Y266.6206
G01 X19.9622 Y266.5830
G01 X19.9400 Y266.5464
G01 X19.9159 Y266.5110
G01 X19.8903 Y266.4767
G01 X19.8630 Y266.4436
G01 X19.8342 Y266.4120
G01 X19.8039 Y266.3817
G01 X19.7722 Y266.3528
G01 X19.7392 Y266.3256
G01 X19.7049 Y266.2999
G01 X19.6694 Y266.2759
G01 X19.6328 Y266.2536
G01 X19.5952 Y266.2331
G01 X19.5567 Y266.2144
G01 X19.5173 Y266.1975
G01 X19.4772 Y266.1825
G01 X19.4364 Y266.1695
G01 X19.3950 Y266.1584
G01 X19.3532 Y266.1493
G01 X19.3109 Y266.1422
G01 X19.2684 Y266.1371
G01 X19.2256 Y266.1340
G01 X19.1828 Y266.1330
G01 X19.1400 Y266.1340
G01 X19.0973 Y266.1371
G01 X19.0547 Y266.1422
G01 X19.0125 Y266.1493
G01 X18.9706 Y266.1584
G01 X18.9293 Y266.1695
G01 X18.8885 Y266.1825
G01 X18.8483 Y266.1975
G01 X18.8090 Y266.2144
G01 X18.7704 Y266.2331
G01 X18.7328 Y266.2536
G01 X18.6962 Y266.2759
G01 X18.6608 Y266.2999
G01 X18.6265 Y266.3256
G01 X18.5934 Y266.3528
G01 X18.5618 Y266.3817
G01 X18.5315 Y266.4120
G01 X18.5027 Y266.4436
G01 X18.4754 Y266.4767
G01 X18.4497 Y266.5110
G01 X18.4257 Y266.5464
G01 X18.4034 Y266.5830
G01 X18.3829 Y266.6206
G01 X18.3642 Y266.6591
G01 X18.3473 Y266.6985
G01 X18.3323 Y266.7387
G01 X18.3193 Y266.7795
G01 X18.3082 Y266.8208
G01 X18.2991 Y266.8627
G01 X18.2920 Y266.9049
G01 X18.2869 Y266.9475
G01 X18.2838 Y266.9902
G01 X18.2828 Y267.0330
G01 X18.2838 Y267.0758
G01 X18.2869 Y267.1186
G01 X18.2920 Y267.1611
G01 X18.2991 Y267.2033
G01 X18.3082 Y267.2452
G01 X18.3193 Y267.2866
G01 X18.3323 Y267.3274
G01 X18.3473 Y267.3675
G01 X18.3642 Y267.4069
G01 X18.3829 Y267.4454
G01 X18.4034 Y267.4830
G01 X18.4257 Y267.5196
G01 X18.4497 Y267.5551
G01 X18.4754 Y267.5894
G01 X18.5027 Y267.6224
G01 X18.5315 Y267.6541
G01 X18.5618 Y267.6844
G01 X18.5934 Y267.7132
G01 X18.6265 Y267.7405
G01 X18.6608 Y267.7661
G01 X18.6962 Y267.7902
G01 X18.7328 Y267.8124
G01 X18.7704 Y267.8330
G01 X18.8090 Y267.8517
G01 X18.8483 Y267.8686
G01 X18.8885 Y267.8835
G01 X18.9293 Y267.8966
G01 X18.9706 Y267.9077
G01 X19.0125 Y267.9168
G01 X19.0547 Y267.9239
G01 X19.0973 Y267.9289
G01 X19.1400 Y267.9320
G01 X19.1828 Y267.9330
G01 X19.2256 Y267.9320
G01 X19.2684 Y267.9289
G01 X19.3109 Y267.9239
G01 X19.3532 Y267.9168
G01 X19.3950 Y267.9077
G01 X19.4364 Y267.8966
G01 X19.4772 Y267.8835
G01 X19.5173 Y267.8686
G01 X19.5567 Y267.8517
G01 X19.5952 Y267.8330
G01 X19.6328 Y267.8124
G01 X19.6694 Y267.7902
G01 X19.7049 Y267.7661
G01 X19.7392 Y267.7405
G01 X19.7722 Y267.7132
G01 X19.8039 Y267.6844
G01 X19.8342 Y267.6541
G01 X19.8630 Y267.6224
G01 X19.8903 Y267.5894
G01 X19.9159 Y267.5551
G01 X19.9400 Y267.5196
G01 X19.9622 Y267.4830
G01 X19.9828 Y267.4454
G01 X20.0015 Y267.4069
G01 X20.0184 Y267.3675
G01 X20.0333 Y267.3274
G01 X20.0464 Y267.2866
G01 X20.0575 Y267.2452
G01 X20.0666 Y267.2033
G01 X20.0737 Y267.1611
G01 X20.0787 Y267.1186
G01 X20.0818 Y267.0758
G01 X20.0828 Y267.0330
G01 X20.0904 Y267.0020 F1000
G01 X20.0968 Y266.9707
G01 X20.1022 Y266.9392
G01 X20.1065 Y266.9075
G01 X20.1097 Y266.8757
G01 X20.1117 Y266.8438
G01 X20.1127 Y266.8119
G01 X20.1126 Y266.7799
G01 X20.1113 Y266.7480
G01 X20.1089 Y266.7161
G01 X20.1055 Y266.6844
G01 X20.1009 Y266.6527
G01 X20.0881 Y266.6034
G01 X20.0727 Y266.5547
G01 X20.0549 Y266.5069
G01 X20.0348 Y266.4600
G01 X20.0123 Y266.4142
G01 X19.9875 Y266.3696
G01 X19.9606 Y266.3263
G01 X19.9314 Y266.2844
G01 X19.8938 Y266.2486
G01 X19.8545 Y266.2146
G01 X19.8135 Y266.1827
G01 X19.7710 Y266.1528
G01 X19.7271 Y266.1249
G01 X19.6819 Y266.0993
G01 X19.6355 Y266.0760
G01 X19.5880 Y266.0549
G01 X19.5395 Y266.0362
G01 X19.4901 Y266.0199
G01 X19.4401 Y266.0061
G01 X19.3894 Y265.9947
G01 X19.3382 Y265.9858
G01 X19.2866 Y265.9794
G01 X19.2348 Y265.9756
G01 X19.1828 Y265.9743
G01 X19.1309 Y265.9756
G01 X19.0791 Y265.9794
G01 X19.0275 Y265.9858
G01 X18.9763 Y265.9947
G01 X18.9256 Y266.0061
G01 X18.8755 Y266.0199
G01 X18.8262 Y266.0362
G01 X18.7777 Y266.0549
G01 X18.7302 Y266.0760
G01 X18.6838 Y266.0993
G01 X18.6385 Y266.1249
G01 X18.5946 Y266.1528
G01 X18.5522 Y266.1827
G01 X18.5112 Y266.2146
G01 X18.4718 Y266.2486
G01 X18.4342 Y266.2844
G01 X18.3984 Y266.3220
G01 X18.3644 Y266.3614
G01 X18.3325 Y266.4024
G01 X18.3026 Y266.4448
G01 X18.2748 Y266.4887
G01 X18.2491 Y266.5340
G01 X18.2258 Y266.5804
G01 X18.2047 Y266.6279
G01 X18.1860 Y266.6764
G01 X18.1697 Y266.7257
G01 X18.1559 Y266.7758
G01 X18.1445 Y266.8265
G01 X18.1356 Y266.8777
G01 X18.1292 Y266.9293
G01 X18.1254 Y266.9811
G01 X18.1241 Y267.0330
G01 X18.1254 Y267.0850
G01 X18.1292 Y267.1368
G01 X18.1356 Y267.1884
G01 X18.1445 Y267.2396
G01 X18.1559 Y267.2903
G01 X18.1697 Y267.3403
G01 X18.1860 Y267.3897
G01 X18.2047 Y267.4382
G01 X18.2258 Y267.4857
G01 X18.2491 Y267.5321
G01 X18.2748 Y267.5773
G01 X18.3026 Y267.6212
G01 X18.3325 Y267.6637
G01 X18.3644 Y267.7047
G01 X18.3984 Y267.7440
G01 X18.4342 Y267.7816
G01 X18.4718 Y267.8175
G01 X18.5112 Y267.8514
G01 X18.5522 Y267.8834
G01 X18.5946 Y267.9133
G01 X18.6385 Y267.9411
G01 X18.6838 Y267.9667
G01 X18.7302 Y267.9901
G01 X18.7777 Y268.0111
G01 X18.8262 Y268.0298
G01 X18.8755 Y268.0461
G01 X18.9256 Y268.0600
G01 X18.9763 Y268.0714
G01 X19.0275 Y268.0803
G01 X19.0791 Y268.0866
G01 X19.1309 Y268.0904
G01 X19.1828 Y268.0917
G01 X19.2348 Y268.0904
G01 X19.2866 Y268.0866
G01 X19.3382 Y268.0803
G01 X19.3894 Y268.0714
G01 X19.4401 Y268.0600
G01 X19.4901 Y268.0461
G01 X19.5395 Y268.0298
G01 X19.5880 Y268.0111
G01 X19.6355 Y267.9901
G01 X19.6819 Y267.9667
G01 X19.7271 Y267.9411
G01 X19.7710 Y267.9133
G01 X19.8135 Y267.8834
G01 X19.8545 Y267.8514
G01 X19.8938 Y267.8175
G01 X19.9314 Y267.7816
G01 X19.9673 Y267.7440
G01 X20.0012 Y267.7047
G01 X20.0332 Y267.6637
G01 X20.0631 Y267.6212
G01 X20.0909 Y267.5773
G01 X20.1165 Y267.5321
G01 X20.1399 Y267.4857
G01 X20.1609 Y267.4382
G01 X20.1796 Y267.3897
G01 X20.1959 Y267.3403
G01 X20.2098 Y267.2903
G01 X20.2212 Y267.2396
G01 X20.2301 Y267.1884
G01 X20.2364 Y267.1368
G01 X20.2402 Y267.0850
G01 X20.2415 Y267.0330
G01 X20.2375 Y266.9408
G01 X20.2254 Y266.8492
G01 X20.2054 Y266.7590
G01 X20.1777 Y266.6709
G01 X20.1423 Y266.5856
G01 X20.0997 Y266.5037
G01 X20.0501 Y266.4258
G01 X19.9938 Y266.3525
G01 X19.9314 Y266.2844
G01 X19.8633 Y266.2220
G01 X19.7901 Y266.1658
G01 X19.7122 Y266.1162
G01 X19.6302 Y266.0735
G01 X19.5449 Y266.0382
G01 X19.4568 Y266.0104
G01 X19.3667 Y265.9904
G01 X19.2751 Y265.9784
G01 X19.1828 Y265.9743
G01 X19.0906 Y265.9784
G01 X18.9990 Y265.9904
G01 X18.9088 Y266.0104
G01 X18.8207 Y266.0382
G01 X18.7354 Y266.0735
G01 X18.6535 Y266.1162
G01 X18.5756 Y266.1658
G01 X18.5023 Y266.2220
G01 X18.4342 Y266.2844
G01 X18.3718 Y266.3525
G01 X18.3156 Y266.4258
G01 X18.2660 Y266.5037
G01 X18.2233 Y266.5856
G01 X18.1880 Y266.6709
G01 X18.1602 Y266.7590
G01 X18.1402 Y266.8492
G01 X18.1282 Y266.9408
G01 X18.1241 Y267.0330
G01 X18.1282 Y267.1253
G01 X18.1402 Y267.2169
G01 X18.1602 Y267.3070
G01 X18.1880 Y267.3951
G01 X18.2233 Y267.4804
G01 X18.2660 Y267.5624
G01 X18.3156 Y267.6403
G01 X18.3718 Y267.7135
G01 X18.4342 Y267.7816
G01 X18.5023 Y267.8440
G01 X18.5756 Y267.9003
G01 X18.6535 Y267.9499
G01 X18.7354 Y267.9925
G01 X18.8207 Y268.0279
G01 X18.9088 Y268.0556
G01 X18.9990 Y268.0756
G01 X19.0906 Y268.0877
G01 X19.1828 Y268.0917
G01 X19.2751 Y268.0877
G01 X19.3667 Y268.0756
G01 X19.4568 Y268.0556
G01 X19.5449 Y268.0279
G01 X19.6302 Y267.9925
G01 X19.7122 Y267.9499
G01 X19.7901 Y267.9003
G01 X19.8633 Y267.8440
G01 X19.9314 Y267.7816
G01 X19.9938 Y267.7135
G01 X20.0501 Y267.6403
G01 X20.0997 Y267.5624
G01 X20.1423 Y267.4804
G01 X20.1777 Y267.3951
G01 X20.2054 Y267.3070
G01 X20.2254 Y267.2169
G01 X20.2375 Y267.1253
G01 X20.2415 Y267.0330
G01 X20.2405 Y266.9878
G01 X20.2373 Y266.9427
G01 X20.2321 Y266.8977
G01 X20.2248 Y266.8531
G01 X20.2155 Y266.8088
G01 X20.2041 Y266.7650
G01 X20.1908 Y266.7218
G01 X20.1754 Y266.6792
G01 X20.1581 Y266.6374
G01 X20.1388 Y266.5965
G01 X20.1178 Y266.5565
G01 X20.0948 Y266.5175
G01 X20.0701 Y266.4796
G01 X20.0437 Y266.4428
G01 X20.0156 Y266.4074
G01 X19.9859 Y266.3732
G01 X19.9547 Y266.3405
G01 X19.9220 Y266.3093
G01 X19.8878 Y266.2796
G01 X19.8524 Y266.2515
G01 X19.8156 Y266.2251
G01 X19.7777 Y266.2004
G01 X19.7387 Y266.1774
G01 X19.6987 Y266.1563
G01 X19.6578 Y266.1371
G01 X19.6160 Y266.1198
G01 X19.5734 Y266.1044
G01 X19.5302 Y266.0911
G01 X19.4864 Y266.0797
G01 X19.4421 Y266.0704
G01 X19.3975 Y266.0631
G01 X19.3525 Y266.0579
G01 X19.3074 Y266.0547
G01 X19.2622 Y266.0537
G01 X19.2169 Y266.0547
G01 X19.1718 Y266.0579
G01 X19.1269 Y266.0631
G01 X19.0822 Y266.0704
G01 X19.0379 Y266.0797
G01 X18.9942 Y266.0911
G01 X18.9509 Y266.1044
G01 X18.9084 Y266.1198
G01 X18.8666 Y266.1371
G01 X18.8256 Y266.1563
G01 X18.7856 Y266.1774
G01 X18.7466 Y266.2004
G01 X18.7087 Y266.2251
G01 X18.6720 Y266.2515
G01 X18.6365 Y266.2796
G01 X18.6024 Y266.3093
G01 X18.5697 Y266.3405
G01 X18.5384 Y266.3732
G01 X18.5087 Y266.4074
G01 X18.4806 Y266.4428
G01 X18.4542 Y266.4796
G01 X18.4295 Y266.5175
G01 X18.4066 Y266.5565
G01 X18.3855 Y266.5965
G01 X18.3663 Y266.6374
G01 X18.3490 Y266.6792
G01 X18.3336 Y266.7218
G01 X18.3202 Y266.7650
G01 X18.3088 Y266.8088
G01 X18.2995 Y266.8531
G01 X18.2922 Y266.8977
G01 X18.2870 Y266.9427
G01 X18.2839 Y266.9878
G01 X18.2828 Y267.0330
G01 X18.2839 Y267.0772
G01 X18.2872 Y267.1212
G01 X18.2926 Y267.1651
G01 X18.3001 Y267.2086
G01 X18.3098 Y267.2517
G01 X18.3216 Y267.2943
G01 X18.3354 Y267.3362
G01 X18.3513 Y267.3774
G01 X18.3692 Y267.4178
G01 X18.3891 Y267.4573
G01 X18.4109 Y267.4957
G01 X18.4345 Y267.5330
G01 X18.4599 Y267.5692
G01 X18.4871 Y267.6040
G01 X18.5160 Y267.6374
G01 X18.5464 Y267.6694
G01 X18.5784 Y267.6999
G01 X18.6119 Y267.7287
G01 X18.6467 Y267.7559
G01 X18.6828 Y267.7813
G01 X18.7201 Y267.8050
G01 X18.7586 Y267.8268
G01 X18.7980 Y267.8466
G01 X18.8384 Y267.8645
G01 X18.8796 Y267.8804
G01 X18.9216 Y267.8943
G01 X18.9641 Y267.9061
G01 X19.0072 Y267.9157
G01 X19.0508 Y267.9233
G01 X19.0946 Y267.9287
G01 X19.1387 Y267.9319
G01 X19.1828 Y267.9330
G01 X19.2270 Y267.9319
G01 X19.2710 Y267.9287
G01 X19.3149 Y267.9233
G01 X19.3584 Y267.9157
G01 X19.4015 Y267.9061
G01 X19.4441 Y267.8943
G01 X19.4860 Y267.8804
G01 X19.5272 Y267.8645
G01 X19.5676 Y267.8466
G01 X19.6071 Y267.8268
G01 X19.6455 Y267.8050
G01 X19.6828 Y267.7813
G01 X19.7190 Y267.7559
G01 X19.7538 Y267.7287
G01 X19.7872 Y267.6999
G01 X19.8192 Y267.6694
G01 X19.8497 Y267.6374
G01 X19.8785 Y267.6040
G01 X19.9057 Y267.5692
G01 X19.9311 Y267.5330
G01 X19.9548 Y267.4957
G01 X19.9766 Y267.4573
G01 X19.9964 Y267.4178
G01 X20.0143 Y267.3774
G01 X20.0302 Y267.3362
G01 X20.0441 Y267.2943
G01 X20.0559 Y267.2517
G01 X20.0655 Y267.2086
G01 X20.0731 Y267.1651
G01 X20.0785 Y267.1212
G01 X20.0817 Y267.0772
G01 X20.0828 Y267.0330
G01 X20.0818 Y266.9902 Z-2.0189 F400
G01 X20.0787 Y266.9475 Z-2.0379
G01 X20.0737 Y266.9049 Z-2.0568
G01 X20.0666 Y266.8627 Z-2.0758
G01 X20.0575 Y266.8208 Z-2.0947
G01 X20.0464 Y266.7795 Z-2.1136
G01 X20.0333 Y266.7387 Z-2.1326
G01 X20.0184 Y266.6985 Z-2.1515
G01 X20.0015 Y266.6591 Z-2.1705
G01 X19.9828 Y266.6206 Z-2.1894
G01 X19.9622 Y266.5830 Z-2.2083
G01 X19.9400 Y266.5464 Z-2.2273
G01 X19.9159 Y266.5110 Z-2.2462
G01 X19.8903 Y266.4767 Z-2.2652
G01 X19.8630 Y266.4436 Z-2.2841
G01 X19.8342 Y266.4120 Z-2.3030
G01 X19.8039 Y266.3817 Z-2.3220
G01 X19.7722 Y266.3528 Z-2.3409
G01 X19.7392 Y266.3256 Z-2.3598
G01 X19.7049 Y266.2999 Z-2.3788
G01 X19.6694 Y266.2759 Z-2.3977
G01 X19.6328 Y266.2536 Z-2.4167
G01 X19.5952 Y266.2331 Z-2.4356
G01 X19.5567 Y266.2144 Z-2.4545
G01 X19.5173 Y266.1975 Z-2.4735
G01 X19.4772 Y266.1825 Z-2.4924
G01 X19.4364 Y266.1695 Z-2.5114
G01 X19.3950 Y266.1584 Z-2.5303
G01 X19.3532 Y266.1493 Z-2.5492
G01 X19.3109 Y266.1422 Z-2.5682
G01 X19.2684 Y266.1371 Z-2.5871
G01 X19.2256 Y266.1340 Z-2.6061
G01 X19.1828 Y266.1330 Z-2.6250
G01 X19.1400 Y266.1340 Z-2.6439
G01 X19.0973 Y266.1371 Z-2.6629
G01 X19.0547 Y266.1422 Z-2.6818
G01 X19.0125 Y266.1493 Z-2.7008
G01 X18.9706 Y266.1584 Z-2.7197
G01 X18.9293 Y266.1695 Z-2.7386
G01 X18.8885 Y266.1825 Z-2.7576
G01 X18.8483 Y266.1975 Z-2.7765
G01 X18.8090 Y266.2144 Z-2.7955
G01 X18.7704 Y266.2331 Z-2.8144
G01 X18.7328 Y266.2536 Z-2.8333
G01 X18.6962 Y266.2759 Z-2.8523
G01 X18.6608 Y266.2999 Z-2.8712
G01 X18.6265 Y266.3256 Z-2.8902
G01 X18.5934 Y266.3528 Z-2.9091
G01 X18.5618 Y266.3817 Z-2.9280
G01 X18.5315 Y266.4120 Z-2.9470
G01 X18.5027 Y266.4436 Z-2.9659
G01 X18.4754 Y266.4767 Z-2.9848
G01 X18.4497 Y266.5110 Z-3.0038
G01 X18.4257 Y266.5464 Z-3.0227
G01 X18.4034 Y266.5830 Z-3.0417
G01 X18.3829 Y266.6206 Z-3.0606
G01 X18.3642 Y266.6591 Z-3.0795
G01 X18.3473 Y266.6985 Z-3.0985
G01 X18.3323 Y266.7387 Z-3.1174
G01 X18.3193 Y266.7795 Z-3.1364
G01 X18.3082 Y266.8208 Z-3.1553
G01 X18.2991 Y266.8627 Z-3.1742
G01 X18.2920 Y266.9049 Z-3.1932
G01 X18.2869 Y266.9475 Z-3.2121
G01 X18.2838 Y266.9902 Z-3.2311
G01 X18.2828 Y267.0330 Z-3.2500
G01 X18.2838 Y267.0758 Z-3.2689
G01 X18.2869 Y267.1186 Z-3.2879
G01 X18.2920 Y267.1611 Z-3.3068
G01 X18.2991 Y267.2033 Z-3.3258
G01 X18.3082 Y267.2452 Z-3.3447
G01 X18.3193 Y267.2866 Z-3.3636
G01 X18.3323 Y267.3274 Z-3.3826
G01 X18.3473 Y267.3675 Z-3.4015
G01 X18.3642 Y267.4069 Z-3.4205
G01 X18.3829 Y267.4454 Z-3.4394
G01 X18.4034 Y267.4830 Z-3.4583
G01 X18.4257 Y267.5196 Z-3.4773
G01 X18.4497 Y267.5551 Z-3.4962
G01 X18.4754 Y267.5894 Z-3.5152
G01 X18.5027 Y267.6224 Z-3.5341
G01 X18.5315 Y267.6541 Z-3.5530
G01 X18.5618 Y267.6844 Z-3.5720
G01 X18.5934 Y267.7132 Z-3.5909
G01 X18.6265 Y267.7405 Z-3.6098
G01 X18.6608 Y267.7661 Z-3.6288
G01 X18.6962 Y267.7902 Z-3.6477
G01 X18.7328 Y267.8124 Z-3.6667
G01 X18.7704 Y267.8330 Z-3.6856
G01 X18.8090 Y267.8517 Z-3.7045
G01 X18.8483 Y267.8686 Z-3.7235
G01 X18.8885 Y267.8835 Z-3.7424
G01 X18.9293 Y267.8966 Z-3.7614
G01 X18.9706 Y267.9077 Z-3.7803
G01 X19.0125 Y267.9168 Z-3.7992
G01 X19.0547 Y267.9239 Z-3.8182
G01 X19.0973 Y267.9289 Z-3.8371
G01 X19.1400 Y267.9320 Z-3.8561
G01 X19.1828 Y267.9330 Z-3.8750
G01 X19.2256 Y267.9320 Z-3.8939
G01 X19.2684 Y267.9289 Z-3.9129
G01 X19.3109 Y267.9239 Z-3.9318
G01 X19.3532 Y267.9168 Z-3.9508
G01 X19.3950 Y267.9077 Z-3.9697
G01 X19.4364 Y267.8966 Z-3.9886
G01 X19.4772 Y267.8835 Z-4.0076
G01 X19.5173 Y267.8686 Z-4.0265
G01 X19.5567 Y267.8517 Z-4.0455
G01 X19.5952 Y267.8330 Z-4.0644
G01 X19.6328 Y267.8124 Z-4.0833
G01 X19.6694 Y267.7902 Z-4.1023
G01 X19.7049 Y267.7661 Z-4.1212
G01 X19.7392 Y267.7405 Z-4.1402
G01 X19.7722 Y267.7132 Z-4.1591
G01 X19.8039 Y267.6844 Z-4.1780
G01 X19.8342 Y267.6541 Z-4.1970
G01 X19.8630 Y267.6224 Z-4.2159
G01 X19.8903 Y267.5894 Z-4.2348
G01 X19.9159 Y267.5551 Z-4.2538
G01 X19.9400 Y267.5196 Z-4.2727
G01 X19.9622 Y267.4830 Z-4.2917
G01 X19.9828 Y267.4454 Z-4.3106
G01 X20.0015 Y267.4069 Z-4.3295
G01 X20.0184 Y267.3675 Z-4.3485
G01 X20.0333 Y267.3274 Z-4.3674
G01 X20.0464 Y267.2866 Z-4.3864
G01 X20.0575 Y267.2452 Z-4.4053
G01 X20.0666 Y267.2033 Z-4.4242
G01 X20.0737 Y267.1611 Z-4.4432
G01 X20.0787 Y267.1186 Z-4.4621
G01 X20.0818 Y267.0758 Z-4.4811
G01 X20.0828 Y267.0330 Z-4.5000
G01 X20.0818 Y266.9902
G01 X20.0787 Y266.9475
G01 X20.0737 Y266.9049
G01 X20.0666 Y266.8627
G01 X20.0575 Y266.8208
G01 X20.0464 Y266.7795
G01 X20.0333 Y266.7387
G01 X20.0184 Y266.6985
G01 X20.0015 Y266.6591
G01 X19.9828 Y266.6206
G01 X19.9622 Y266.5830
G01 X19.9400 Y266.5464
G01 X19.9159 Y266.5110
G01 X19.8903 Y266.4767
G01 X19.8630 Y266.4436
G01 X19.8342 Y266.4120
G01 X19.8039 Y266.3817
G01 X19.7722 Y266.3528
G01 X19.7392 Y266.3256
G01 X19.7049 Y266.2999
G01 X19.6694 Y266.2759
G01 X19.6328 Y266.2536
G01 X19.5952 Y266.2331
G01 X19.5567 Y266.2144
G01 X19.5173 Y266.1975
G01 X19.4772 Y266.1825
G01 X19.4364 Y266.1695
G01 X19.3950 Y266.1584
G01 X19.3532 Y266.1493
G01 X19.3109 Y266.1422
G01 X19.2684 Y266.1371
G01 X19.2256 Y266.1340
G01 X19.1828 Y266.1330
G01 X19.1400 Y266.1340
G01 X19.0973 Y266.1371
G01 X19.0547 Y266.1422
G01 X19.0125 Y266.1493
G01 X18.9706 Y266.1584
G01 X18.9293 Y266.1695
G01 X18.8885 Y266.1825
G01 X18.8483 Y266.1975
G01 X18.8090 Y266.2144
G01 X18.7704 Y266.2331
G01 X18.7328 Y266.2536
G01 X18.6962 Y266.2759
G01 X18.6608 Y266.2999
G01 X18.6265 Y266.3256
G01 X18.5934 Y266.3528
G01 X18.5618 Y266.3817
G01 X18.5315 Y266.4120
G01 X18.5027 Y266.4436
G01 X18.4754 Y266.4767
G01 X18.4497 Y266.5110
G01 X18.4257 Y266.5464
G01 X18.4034 Y266.5830
G01 X18.3829 Y266.6206
G01 X18.3642 Y266.6591
G01 X18.3473 Y266.6985
G01 X18.3323 Y266.7387
G01 X18.3193 Y266.7795
G01 X18.3082 Y266.8208
G01 X18.2991 Y266.8627
G01 X18.2920 Y266.9049
G01 X18.2869 Y266.9475
G01 X18.2838 Y266.9902
G01 X18.2828 Y267.0330
G01 X18.2838 Y267.0758
G01 X18.2869 Y267.1186
G01 X18.2920 Y267.1611
G01 X18.2991 Y267.2033
G01 X18.3082 Y267.2452
G01 X18.3193 Y267.2866
G01 X18.3323 Y267.3274
G01 X18.3473 Y267.3675
G01 X18.3642 Y267.4069
G01 X18.3829 Y267.4454
G01 X18.4034 Y267.4830
G01 X18.4257 Y267.5196
G01 X18.4497 Y267.5551
G01 X18.4754 Y267.5894
G01 X18.5027 Y267.6224
G01 X18.5315 Y267.6541
G01 X18.5618 Y267.6844
G01 X18.5934 Y267.7132
G01 X18.6265 Y267.7405
G01 X18.6608 Y267.7661
G01 X18.6962 Y267.7902
G01 X18.7328 Y267.8124
G01 X18.7704 Y267.8330
G01 X18.8090 Y267.8517
G01 X18.8483 Y267.8686
G01 X18.8885 Y267.8835
G01 X18.9293 Y267.8966
G01 X18.9706 Y267.9077
G01 X19.0125 Y267.9168
G01 X19.0547 Y267.9239
G01 X19.0973 Y267.9289
G01 X19.1400 Y267.9320
G01 X19.1828 Y267.9330
G01 X19.2256 Y267.9320
G01 X19.2684 Y267.9289
G01 X19.3109 Y267.9239
G01 X19.3532 Y267.9168
G01 X19.3950 Y267.9077
G01 X19.4364 Y267.8966
G01 X19.4772 Y267.8835
G01 X19.5173 Y267.8686
G01 X19.5567 Y267.8517
G01 X19.5952 Y267.8330
G01 X19.6328 Y267.8124
G01 X19.6694 Y267.7902
G01 X19.7049 Y267.7661
G01 X19.7392 Y267.7405
G01 X19.7722 Y267.7132
G01 X19.8039 Y267.6844
G01 X19.8342 Y267.6541
G01 X19.8630 Y267.6224
G01 X19.8903 Y267.5894
G01 X19.9159 Y267.5551
G01 X19.9400 Y267.5196
G01 X19.9622 Y267.4830
G01 X19.9828 Y267.4454
G01 X20.0015 Y267.4069
G01 X20.0184 Y267.3675
G01 X20.0333 Y267.3274
G01 X20.0464 Y267.2866
G01 X20.0575 Y267.2452
G01 X20.0666 Y267.2033
G01 X20.0737 Y267.1611
G01 X20.0787 Y267.1186
G01 X20.0818 Y267.0758
G01 X20.0828 Y267.0330
G01 X20.0904 Y267.0020 F1000
G01 X20.0968 Y266.9707
G01 X20.1022 Y266.9392
G01 X20.1065 Y266.9075
G01 X20.1097 Y266.8757
G01 X20.1117 Y266.8438
G01 X20.1127 Y266.8119
G01 X20.1126 Y266.7799
G01 X20.1113 Y266.7480
G01 X20.1089 Y266.7161
G01 X20.1055 Y266.6844
G01 X20.1009 Y266.6527
G01 X20.0881 Y266.6034
G01 X20.0727 Y266.5547
G01 X20.0549 Y266.5069
G01 X20.0348 Y266.4600
G01 X20.0123 Y266.4142
G01 X19.9875 Y266.3696
G01 X19.9606 Y266.3263
G01 X19.9314 Y266.2844
G01 X19.8938 Y266.2486
G01 X19.8545 Y266.2146
G01 X19.8135 Y266.1827
G01 X19.7710 Y266.1528
G01 X19.7271 Y266.1249
G01 X19.6819 Y266.0993
G01 X19.6355 Y266.0760
G01 X19.5880 Y266.0549
G01 X19.5395 Y266.0362
G01 X19.4901 Y266.0199
G01 X19.4401 Y266.0061
G01 X19.3894 Y265.9947
G01 X19.3382 Y265.9858
G01 X19.2866 Y265.9794
G01 X19.2348 Y265.9756
G01 X19.1828 Y265.9743
G01 X19.1309 Y265.9756
G01 X19.0791 Y265.9794
G01 X19.0275 Y265.9858
G01 X18.9763 Y265.9947
G01 X18.9256 Y266.0061
G01 X18.8755 Y266.0199
G01 X18.8262 Y266.0362
G01 X18.7777 Y266.0549
G01 X18.7302 Y266.0760
G01 X18.6838 Y266.0993
G01 X18.6385 Y266.1249
G01 X18.5946 Y266.1528
G01 X18.5522 Y266.1827
G01 X18.5112 Y266.2146
G01 X18.4718 Y266.2486
G01 X18.4342 Y266.2844
G01 X18.3984 Y266.3220
G01 X18.3644 Y266.3614
G01 X18.3325 Y266.4024
G01 X18.3026 Y266.4448
G01 X18.2748 Y266.4887
G01 X18.2491 Y266.5340
G01 X18.2258 Y266.5804
G01 X18.2047 Y266.6279
G01 X18.1860 Y266.6764
G01 X18.1697 Y266.7257
G01 X18.1559 Y266.7758
G01 X18.1445 Y266.8265
G01 X18.1356 Y266.8777
G01 X18.1292 Y266.9293
G01 X18.1254 Y266.9811
G01 X18.1241 Y267.0330
G01 X18.1254 Y267.0850
G01 X18.1292 Y267.1368
G01 X18.1356 Y267.1884
G01 X18.1445 Y267.2396
G01 X18.1559 Y267.2903
G01 X18.1697 Y267.3403
G01 X18.1860 Y267.3897
G01 X18.2047 Y267.4382
G01 X18.2258 Y267.4857
G01 X18.2491 Y267.5321
G01 X18.2748 Y267.5773
G01 X18.3026 Y267.6212
G01 X18.3325 Y267.6637
G01 X18.3644 Y267.7047
G01 X18.3984 Y267.7440
G01 X18.4342 Y267.7816
G01 X18.4718 Y267.8175
G01 X18.5112 Y267.8514
G01 X18.5522 Y267.8834
G01 X18.5946 Y267.9133
G01 X18.6385 Y267.9411
G01 X18.6838 Y267.9667
G01 X18.7302 Y267.9901
G01 X18.7777 Y268.0111
G01 X18.8262 Y268.0298
G01 X18.8755 Y268.0461
G01 X18.9256 Y268.0600
G01 X18.9763 Y268.0714
G01 X19.0275 Y268.0803
G01 X19.0791 Y268.0866
G01 X19.1309 Y268.0904
G01 X19.1828 Y268.0917
G01 X19.2348 Y268.0904
G01 X19.2866 Y268.0866
G01 X19.3382 Y268.0803
G01 X19.3894 Y268.0714
G01 X19.4401 Y268.0600
G01 X19.4901 Y268.0461
G01 X19.5395 Y268.0298
G01 X19.5880 Y268.0111
G01 X19.6355 Y267.9901
G01 X19.6819 Y267.9667
G01 X19.7271 Y267.9411
G01 X19.7710 Y267.9133
G01 X19.8135 Y267.8834
G01 X19.8545 Y267.8514
G01 X19.8938 Y267.8175
G01 X19.9314 Y267.7816
G01 X19.9673 Y267.7440
G01 X20.0012 Y267.7047
G01 X20.0332 Y267.6637
G01 X20.0631 Y267.6212
G01 X20.0909 Y267.5773
G01 X20.1165 Y267.5321
G01 X20.1399 Y267.4857
G01 X20.1609 Y267.4382
G01 X20.1796 Y267.3897
G01 X20.1959 Y267.3403
G01 X20.2098 Y267.2903
G01 X20.2212 Y267.2396
G01 X20.2301 Y267.1884
G01 X20.2364 Y267.1368
G01 X20.2402 Y267.0850
G01 X20.2415 Y267.0330
G01 X20.2375 Y266.9408
G01 X20.2254 Y266.8492
G01 X20.2054 Y266.7590
G01 X20.1777 Y266.6709
G01 X20.1423 Y266.5856
G01 X20.0997 Y266.5037
G01 X20.0501 Y266.4258
G01 X19.9938 Y266.3525
G01 X19.9314 Y266.2844
G01 X19.8633 Y266.2220
G01 X19.7901 Y266.1658
G01 X19.7122 Y266.1162
G01 X19.6302 Y266.0735
G01 X19.5449 Y266.0382
G01 X19.4568 Y266.0104
G01 X19.3667 Y265.9904
G01 X19.2751 Y265.9784
G01 X19.1828 Y265.9743
G01 X19.0906 Y265.9784
G01 X18.9990 Y265.9904
G01 X18.9088 Y266.0104
G01 X18.8207 Y266.0382
G01 X18.7354 Y266.0735
G01 X18.6535 Y266.1162
G01 X18.5756 Y266.1658
G01 X18.5023 Y266.2220
G01 X18.4342 Y266.2844
G01 X18.3718 Y266.3525
G01 X18.3156 Y266.4258
G01 X18.2660 Y266.5037
G01 X18.2233 Y266.5856
G01 X18.1880 Y266.6709
G01 X18.1602 Y266.7590
G01 X18.1402 Y266.8492
G01 X18.1282 Y266.9408
G01 X18.1241 Y267.0330
G01 X18.1282 Y267.1253
G01 X18.1402 Y267.2169
G01 X18.1602 Y267.3070
G01 X18.1880 Y267.3951
G01 X18.2233 Y267.4804
G01 X18.2660 Y267.5624
G01 X18.3156 Y267.6403
G01 X18.3718 Y267.7135
G01 X18.4342 Y267.7816
G01 X18.5023 Y267.8440
G01 X18.5756 Y267.9003
G01 X18.6535 Y267.9499
G01 X18.7354 Y267.9925
G01 X18.8207 Y268.0279
G01 X18.9088 Y268.0556
G01 X18.9990 Y268.0756
G01 X19.0906 Y268.0877
G01 X19.1828 Y268.0917
G01 X19.2751 Y268.0877
G01 X19.3667 Y268.0756
G01 X19.4568 Y268.0556
G01 X19.5449 Y268.0279
G01 X19.6302 Y267.9925
G01 X19.7122 Y267.9499
G01 X19.7901 Y267.9003
G01 X19.8633 Y267.8440
G01 X19.9314 Y267.7816
G01 X19.9938 Y267.7135
G01 X20.0501 Y267.6403
G01 X20.0997 Y267.5624
G01 X20.1423 Y267.4804
G01 X20.1777 Y267.3951
G01 X20.2054 Y267.3070
G01 X20.2254 Y267.2169
G01 X20.2375 Y267.1253
G01 X20.2415 Y267.0330
G01 X20.2384 Y266.9546 Z-4.4750 F400
G01 X20.2292 Y266.8766 Z-4.4500
G01 X20.2139 Y266.7996 Z-4.4250
G01 X20.1926 Y266.7240 Z-4.4000
G01 X20.1654 Y266.6503 Z-4.3750
G01 X20.1325 Y266.5790 Z-4.3500
G01 X20.0942 Y266.5105 Z-4.3250
G01 X20.0505 Y266.4452 Z-4.3000
G01 X20.0019 Y266.3836 Z-4.2750
G01 X19.9486 Y266.3259 Z-4.2500
G01 X19.8910 Y266.2726 Z-4.2250
G01 X19.8293 Y266.2240 Z-4.2000
G01 X19.7640 Y266.1804 Z-4.1750
G01 X19.6955 Y266.1420 Z-4.1500
G01 X19.6242 Y266.1091 Z-4.1250
G01 X19.5505 Y266.0820 Z-4.1000
G01 X19.4750 Y266.0607 Z-4.0750
G01 X19.3980 Y266.0453 Z-4.0500
G01 X19.3200 Y266.0361 Z-4.0250
G01 X19.2415 Y266.0330 Z-4.0000
G00 Z5.0000


;No. 2: Hole 1
G00 X17.2605 Y250.7125 Z5.0000
G00 Z0.5000
G01 Z0.0000 F400
G01 Z-1.0000
G01 X33.3342 F1000
G01 X26.1611
G01 Y249.2125
G01 X24.4637
G01 X24.4987 Y247.7125
G01 X26.1261
G01 Y246.2125
G01 X24.4987
G01 Y244.7125
G01 X26.1261
G01 Y243.2125
G01 X24.4987
G01 Y241.7125
G01 X26.1261
G01 Y240.2125
G01 X24.4987
G01 Y238.7125
G01 X26.1261
G01 Y237.2125
G01 X24.4987
G01 X24.2987 Y237.2230
G01 Y248.9258
G01 X24.2978 Y248.9694
G01 X24.2949 Y249.0130
G01 X24.2902 Y249.0564
G01 X24.2835 Y249.0995
G01 X24.2750 Y249.1423
G01 X24.2647 Y249.1846
G01 X24.2524 Y249.2265
G01 X24.2384 Y249.2679
G01 X24.2226 Y249.3085
G01 X24.2050 Y249.3484
G01 X24.1857 Y249.3876
G01 X24.1648 Y249.4258
G01 X24.1421 Y249.4631
G01 X24.1179 Y249.4994
G01 X24.0921 Y249.5346
G01 X24.0648 Y249.5686
G01 X24.0360 Y249.6014
G01 X24.0058 Y249.6329
G01 X23.9743 Y249.6631
G01 X23.9415 Y249.6919
G01 X23.9075 Y249.7192
G01 X23.8723 Y249.7450
G01 X23.8360 Y249.7692
G01 X23.7987 Y249.7919
G01 X23.7605 Y249.8128
G01 X23.7213 Y249.8321
G01 X23.6814 Y249.8497
G01 X23.6407 Y249.8655
G01 X23.5994 Y249.8795
G01 X23.5575 Y249.8918
G01 X23.5152 Y249.9021
G01 X23.4724 Y249.9106
G01 X23.4293 Y249.9173
G01 X23.3859 Y249.9220
G01 X23.3423 Y249.9249
G01 X23.2987 Y249.9258
G01 X18.7894
G01 X18.6356 Y249.9322
G01 X18.4824 Y249.9477
G01 X18.3304 Y249.9723
G01 X18.1801 Y250.0059
G01 X18.0320 Y250.0484
G01 X17.8868 Y250.0996
G01 X17.7449 Y250.1593
G01 X17.6068 Y250.2274
G01 X17.4729 Y250.3036
G01 X17.3439 Y250.3876
G01 X17.2200 Y250.4791
G01 X17.1019 Y250.5779
G01 X16.9898 Y250.6835
G01 X16.8842 Y250.7955
G01 X16.7854 Y250.9137
G01 X16.6938 Y251.0375
G01 X16.6098 Y251.1666
G01 X16.5336 Y251.3004
G01 X16.4655 Y251.4385
G01 X16.4058 Y251.5804
G01 X16.3667 Y251.6731
G01 X16.3309 Y251.7670
G01 X16.2983 Y251.8621
G01 X16.2690 Y251.9583
G01 X16.2430 Y252.0554
G01 X16.2204 Y252.1533
G01 X16.2011 Y252.2520
G01 X16.1852 Y252.3513
G01 X34.4396
G01 X34.4174 Y252.2158
G01 X34.3887 Y252.0815
G01 X34.3537 Y251.9487
G01 X34.3123 Y251.8178
G01 X34.2648 Y251.6890
G01 X34.2111 Y251.5626
G01 X34.1515 Y251.4389
G01 X34.0860 Y251.3182
G01 X34.0149 Y251.2008
G01 X33.9382 Y251.0869
G01 X33.8562 Y250.9768
G01 X33.7690 Y250.8707
G01 X33.6768 Y250.7690
G01 X33.5799 Y250.6717
G01 X33.4784 Y250.5792
G01 X33.3726 Y250.4916
G01 X33.2628 Y250.4092
G01 X33.1492 Y250.3322
G01 X33.0320 Y250.2606
G01 X32.9115 Y250.1947
G01 X32.7880 Y250.1347
G01 X32.6618 Y250.0806
G01 X32.5332 Y250.0327
G01 X32.4024 Y249.9909
G01 X32.2625 Y249.9620
G01 X32.1212 Y249.9415
G01 X31.9789 Y249.9294
G01 X31.8361 Y249.9259
G01 X27.3261
G01 X27.2825 Y249.9250
G01 X27.2390 Y249.9221
G01 X27.1956 Y249.9174
G01 X27.1525 Y249.9107
G01 X27.1097 Y249.9022
G01 X27.0673 Y249.8918
G01 X27.0254 Y249.8796
G01 X26.9841 Y249.8656
G01 X26.9434 Y249.8498
G01 X26.9035 Y249.8322
G01 X26.8644 Y249.8129
G01 X26.8261 Y249.7919
G01 X26.7888 Y249.7693
G01 X26.7525 Y249.7451
G01 X26.7174 Y249.7193
G01 X26.6833 Y249.6920
G01 X26.6505 Y249.6632
G01 X26.6190 Y249.6330
G01 X26.5888 Y249.6015
G01 X26.5601 Y249.5687
G01 X26.5328 Y249.5347
G01 X26.5070 Y249.4995
G01 X26.4827 Y249.4632
G01 X26.4601 Y249.4259
G01 X26.4391 Y249.3877
G01 X26.4198 Y249.3485
G01 X26.4022 Y249.3086
G01 X26.3864 Y249.2679
G01 X26.3724 Y249.2266
G01 X26.3602 Y249.1847
G01 X26.3498 Y249.1423
G01 X26.3413 Y249.0996
G01 X26.3347 Y249.0564
G01 X26.3299 Y249.0131
G01 X26.3271 Y248.9695
G01 X26.3261 Y248.9259
G01 Y235.5738
G01 X24.2987
G01 Y237.2230
G01 X24.4987 Y237.2125
G00 Z5.0000


;No. 3: Hole 2
G00 X42.2579 Y251.1385 Z5.0000
G00 Z0.5000
G01 Z0.0000 F400
G01 Z-1.0000
G01 X59.1005 F1000
G01 X59.2645 Y251.0240
G01 X59.1753 Y250.9017
G01 X59.0790 Y250.7849
G01 X58.9758 Y250.6742
G01 X58.8661 Y250.5698
G01 X58.7504 Y250.4722
G01 X58.6291 Y250.3817
G01 X58.5025 Y250.2986
G01 X58.3712 Y250.2233
G01 X58.2356 Y250.1560
G01 X58.0962 Y250.0970
G01 X57.9535 Y250.0464
G01 X57.8081 Y250.0045
G01 X57.6603 Y249.9714
G01 X57.5109 Y249.9472
G01 X57.3603 Y249.9320
G01 X57.2090 Y249.9258
G01 X44.1715 Y249.9257
G01 X44.0428 Y249.9299
G01 X43.9146 Y249.9406
G01 X43.7870 Y249.9576
G01 X43.6604 Y249.9809
G01 X43.5351 Y250.0105
G01 X43.4115 Y250.0463
G01 X43.2898 Y250.0882
G01 X43.1703 Y250.1360
G01 X43.0533 Y250.1898
G01 X42.9392 Y250.2493
G01 X42.8282 Y250.3144
G01 X42.7205 Y250.3850
G01 X42.6165 Y250.4608
G01 X42.5164 Y250.5417
G01 X42.4204 Y250.6275
G01 X42.3289 Y250.7179
G01 X42.2419 Y250.8128
G01 X42.1597 Y250.9119
G01 X42.0826 Y251.0150
G01 X42.0107 Y251.1217
G01 X41.9442 Y251.2319
G01 X41.8833 Y251.3453
G01 X41.8281 Y251.4616
G01 X41.7787 Y251.5804
G01 X41.7397 Y251.6731
G01 X41.7039 Y251.7670
G01 X41.6713 Y251.8621
G01 X41.6420 Y251.9583
G01 X41.6160 Y252.0554
G01 X41.5933 Y252.1533
G01 X41.5740 Y252.2520
G01 X41.5581 Y252.3512
G01 X59.8125
G01 X59.7928 Y252.2319
G01 X59.7681 Y252.1136
G01 X59.7386 Y251.9963
G01 X59.7042 Y251.8804
G01 X59.6651 Y251.7661
G01 X59.6213 Y251.6534
G01 X59.5729 Y251.5426
G01 X59.5199 Y251.4340
G01 X59.4625 Y251.3276
G01 X59.4007 Y251.2237
G01 X59.3347 Y251.1225
G01 X59.2645 Y251.0240
G01 X59.1005 Y251.1385
G00 Z5.0000


;No. 4: Hole 3
G00 X59.1004 Y243.9625 Z5.0000
G00 Z0.5000
G01 Z0.0000 F400
G01 Z-1.0000
G01 X42.2579 F1000
G01 X42.0949 Y243.8466
G01 X41.9941 Y243.9966
G01 X41.9024 Y244.1524
G01 X41.8200 Y244.3134
G01 X41.7474 Y244.4789
G01 X41.6846 Y244.6485
G01 X41.6321 Y244.8214
G01 X41.5898 Y244.9972
G01 X41.5581 Y245.1752
G01 X59.8125
G01 X59.7904 Y245.0396
G01 X59.7619 Y244.9053
G01 X59.7270 Y244.7725
G01 X59.6858 Y244.6415
G01 X59.6383 Y244.5126
G01 X59.5848 Y244.3861
G01 X59.5252 Y244.2624
G01 X59.4598 Y244.1416
G01 X59.3887 Y244.0242
G01 X59.3120 Y243.9102
G01 X59.2300 Y243.8001
G01 X59.1428 Y243.6940
G01 X59.0506 Y243.5922
G01 X58.9536 Y243.4949
G01 X58.8521 Y243.4024
G01 X58.7463 Y243.3149
G01 X58.6364 Y243.2325
G01 X58.5227 Y243.1555
G01 X58.4055 Y243.0840
G01 X58.2849 Y243.0182
G01 X58.1614 Y242.9583
G01 X58.0351 Y242.9043
G01 X57.9064 Y242.8564
G01 X57.7755 Y242.8148
G01 X57.6356 Y242.7859
G01 X57.4942 Y242.7654
G01 X57.3519 Y242.7534
G01 X57.2090 Y242.7498
G01 X44.1613 Y242.7499
G01 X44.0394 Y242.7520
G01 X43.9178 Y242.7602
G01 X43.7968 Y242.7744
G01 X43.6766 Y242.7945
G01 X43.5575 Y242.8206
G01 X43.4399 Y242.8525
G01 X43.3240 Y242.8902
G01 X43.2101 Y242.9336
G01 X43.0985 Y242.9826
G01 X42.9895 Y243.0371
G01 X42.8833 Y243.0969
G01 X42.7802 Y243.1618
G01 X42.6804 Y243.2318
G01 X42.5842 Y243.3067
G01 X42.4919 Y243.3862
G01 X42.4035 Y243.4702
G01 X42.3195 Y243.5584
G01 X42.2399 Y243.6507
G01 X42.1650 Y243.7468
G01 X42.0949 Y243.8466
G01 X42.2579 Y243.9625
G00 Z5.0000


;No. 5: Hole 4
G00 X42.2579 Y236.7865 Z5.0000
G00 Z0.5000
G01 Z0.0000 F400
G01 Z-1.0000
G01 X59.1004 F1000
G01 X59.2645 Y236.6719
G01 X59.1753 Y236.5496
G01 X59.0790 Y236.4329
G01 X58.9758 Y236.3221
G01 X58.8661 Y236.2177
G01 X58.7504 Y236.1201
G01 X58.6291 Y236.0296
G01 X58.5025 Y235.9466
G01 X58.3712 Y235.8713
G01 X58.2356 Y235.8040
G01 X58.0962 Y235.7449
G01 X57.9535 Y235.6944
G01 X57.8081 Y235.6524
G01 X57.6603 Y235.6193
G01 X57.5109 Y235.5951
G01 X57.3603 Y235.5799
G01 X57.2090 Y235.5738
G01 X44.1618
G01 X44.0079 Y235.5800
G01 X43.8547 Y235.5953
G01 X43.7026 Y235.6198
G01 X43.5523 Y235.6533
G01 X43.4042 Y235.6957
G01 X43.2589 Y235.7468
G01 X43.1170 Y235.8065
G01 X42.9788 Y235.8746
G01 X42.8450 Y235.9507
G01 X42.7159 Y236.0348
G01 X42.5921 Y236.1263
G01 X42.4739 Y236.2251
G01 X42.3619 Y236.3308
G01 X42.2563 Y236.4429
G01 X42.1576 Y236.5611
G01 X42.0662 Y236.6851
G01 X41.9823 Y236.8142
G01 X41.9062 Y236.9481
G01 X41.8383 Y237.0863
G01 X41.7787 Y237.2283
G01 X41.7397 Y237.3210
G01 X41.7038 Y237.4149
G01 X41.6713 Y237.5100
G01 X41.6420 Y237.6062
G01 X41.6160 Y237.7033
G01 X41.5933 Y237.8012
G01 X41.5740 Y237.8999
G01 X41.5581 Y237.9991
G01 X59.8125
G01 X59.7928 Y237.8799
G01 X59.7681 Y237.7615
G01 X59.7386 Y237.6443
G01 X59.7042 Y237.5284
G01 X59.6651 Y237.4140
G01 X59.6213 Y237.3013
G01 X59.5729 Y237.1906
G01 X59.5199 Y237.0819
G01 X59.4625 Y236.9756
G01 X59.4007 Y236.8717
G01 X59.3347 Y236.7704
G01 X59.2645 Y236.6719
G01 X59.1004 Y236.7865
G00 Z5.0000


;No. 6: Hole 5
G00 X68.0352 Y237.2125 Z5.0000
G00 Z0.5000
G01 Z0.0000 F400
G01 Z-1.0000
G01 X85.0368 F1000
G01 Y238.7125
G01 X83.3744
G01 X83.4094 Y240.2125
G01 X85.0368
G01 Y241.7125
G01 X83.4094
G01 X85.0368 Y243.2125
G01 X67.0825
G01 Y244.7125
G01 X85.0368
G01 X68.7099
G01 Y246.2125
G01 X67.0825
G01 Y247.7125
G01 X68.7099
G01 X68.7449 Y249.2125
G01 X67.0825
G01 Y250.7125
G01 X84.0814
G01 X84.2341 Y250.5810
G01 X84.1498 Y250.5046
G01 X84.0620 Y250.4324
G01 X83.9708 Y250.3644
G01 X83.8764 Y250.3009
G01 X83.7792 Y250.2419
G01 X83.6792 Y250.1877
G01 X83.5768 Y250.1383
G01 X83.4721 Y250.0938
G01 X83.3654 Y250.0544
G01 X83.2570 Y250.0201
G01 X83.1470 Y249.9910
G01 X83.0358 Y249.9673
G01 X82.9235 Y249.9488
G01 X82.8106 Y249.9358
G01 X82.6971 Y249.9281
G01 X82.5834 Y249.9259
G01 X69.9099
G01 X69.8663 Y249.9250
G01 X69.8228 Y249.9221
G01 X69.7794 Y249.9174
G01 X69.7363 Y249.9107
G01 X69.6935 Y249.9022
G01 X69.6511 Y249.8918
G01 X69.6092 Y249.8796
G01 X69.5679 Y249.8656
G01 X69.5272 Y249.8498
G01 X69.4873 Y249.8322
G01 X69.4482 Y249.8129
G01 X69.4099 Y249.7919
G01 X69.3726 Y249.7693
G01 X69.3364 Y249.7451
G01 X69.3012 Y249.7193
G01 X69.2671 Y249.6920
G01 X69.2343 Y249.6632
G01 X69.2028 Y249.6330
G01 X69.1727 Y249.6015
G01 X69.1439 Y249.5687
G01 X69.1166 Y249.5347
G01 X69.0908 Y249.4995
G01 X69.0665 Y249.4632
G01 X69.0439 Y249.4259
G01 X69.0229 Y249.3877
G01 X69.0036 Y249.3485
G01 X68.9861 Y249.3086
G01 X68.9702 Y249.2679
G01 X68.9562 Y249.2266
G01 X68.9440 Y249.1847
G01 X68.9336 Y249.1423
G01 X68.9251 Y249.0996
G01 X68.9185 Y249.0564
G01 X68.9137 Y249.0131
G01 X68.9109 Y248.9695
G01 X68.9099 Y248.9259
G01 Y246.1752
G01 X68.9109 Y246.1316
G01 X68.9137 Y246.0880
G01 X68.9185 Y246.0447
G01 X68.9251 Y246.0016
G01 X68.9336 Y245.9588
G01 X68.9440 Y245.9164
G01 X68.9562 Y245.8745
G01 X68.9702 Y245.8332
G01 X68.9861 Y245.7925
G01 X69.0036 Y245.7526
G01 X69.0229 Y245.7135
G01 X69.0439 Y245.6752
G01 X69.0665 Y245.6379
G01 X69.0908 Y245.6016
G01 X69.1166 Y245.5664
G01 X69.1439 Y245.5324
G01 X69.1727 Y245.4996
G01 X69.2028 Y245.4681
G01 X69.2343 Y245.4379
G01 X69.2671 Y245.4092
G01 X69.3012 Y245.3818
G01 X69.3364 Y245.3560
G01 X69.3726 Y245.3318
G01 X69.4099 Y245.3092
G01 X69.4482 Y245.2882
G01 X69.4873 Y245.2689
G01 X69.5272 Y245.2513
G01 X69.5679 Y245.2355
G01 X69.6092 Y245.2215
G01 X69.6511 Y245.2093
G01 X69.6935 Y245.1989
G01 X69.7363 Y245.1904
G01 X69.7794 Y245.1838
G01 X69.8228 Y245.1790
G01 X69.8663 Y245.1762
G01 X69.9099 Y245.1752
G01 X85.2368
G01 Y235.5738
G01 X66.9325
G01 X66.9596 Y235.7328
G01 X66.9954 Y235.8900
G01 X67.0400 Y236.0449
G01 X67.0931 Y236.1971
G01 X67.1547 Y236.3461
G01 X67.2244 Y236.4915
G01 X67.3022 Y236.6328
G01 X67.3877 Y236.7694
G01 X67.4807 Y236.9011
G01 X67.5809 Y237.0275
G01 X67.6880 Y237.1480
G01 X67.8016 Y237.2624
G01 X67.9214 Y237.3702
G01 X68.0471 Y237.4712
G01 X68.1782 Y237.5651
G01 X68.3144 Y237.6515
G01 X68.4551 Y237.7301
G01 X68.6000 Y237.8008
G01 X68.7486 Y237.8633
G01 X68.9005 Y237.9174
G01 X68.9784 Y237.9369
G01 X69.0570 Y237.9537
G01 X69.1360 Y237.9679
G01 X69.2155 Y237.9795
G01 X69.2953 Y237.9884
G01 X69.3754 Y237.9947
G01 X69.4556 Y237.9983
G01 X69.5359 Y237.9991
G01 X82.2094
G01 X82.2879 Y238.0022
G01 X82.3659 Y238.0115
G01 X82.4429 Y238.0268
G01 X82.5184 Y238.0481
G01 X82.5921 Y238.0753
G01 X82.6634 Y238.1081
G01 X82.7319 Y238.1465
G01 X82.7972 Y238.1901
G01 X82.8589 Y238.2387
G01 X82.9165 Y238.2920
G01 X82.9698 Y238.3497
G01 X83.0184 Y238.4114
G01 X83.0621 Y238.4766
G01 X83.1004 Y238.5452
G01 X83.1333 Y238.6165
G01 X83.1605 Y238.6901
G01 X83.1818 Y238.7657
G01 X83.1971 Y238.8427
G01 X83.2063 Y238.9207
G01 X83.2094 Y238.9991
G01 Y241.7499
G01 X83.2085 Y241.7935
G01 X83.2056 Y241.8370
G01 X83.2009 Y241.8804
G01 X83.1942 Y241.9235
G01 X83.1857 Y241.9663
G01 X83.1754 Y242.0087
G01 X83.1631 Y242.0506
G01 X83.1491 Y242.0919
G01 X83.1333 Y242.1325
G01 X83.1157 Y242.1725
G01 X83.0964 Y242.2116
G01 X83.0755 Y242.2499
G01 X83.0528 Y242.2872
G01 X83.0286 Y242.3234
G01 X83.0028 Y242.3586
G01 X82.9755 Y242.3926
G01 X82.9467 Y242.4254
G01 X82.9165 Y242.4570
G01 X82.8850 Y242.4871
G01 X82.8522 Y242.5159
G01 X82.8182 Y242.5432
G01 X82.7830 Y242.5690
G01 X82.7467 Y242.5932
G01 X82.7094 Y242.6159
G01 X82.6712 Y242.6369
G01 X82.6320 Y242.6562
G01 X82.5921 Y242.6737
G01 X82.5514 Y242.6896
G01 X82.5101 Y242.7036
G01 X82.4682 Y242.7158
G01 X82.4259 Y242.7262
G01 X82.3831 Y242.7347
G01 X82.3400 Y242.7413
G01 X82.2966 Y242.7461
G01 X82.2530 Y242.7489
G01 X82.2094 Y242.7499
G01 X66.8825
G01 Y252.3513
G01 X85.1868
G01 X85.1655 Y252.2248
G01 X85.1386 Y252.0995
G01 X85.1063 Y251.9754
G01 X85.0687 Y251.8528
G01 X85.0258 Y251.7320
G01 X84.9776 Y251.6132
G01 X84.9244 Y251.4966
G01 X84.8661 Y251.3824
G01 X84.8029 Y251.2708
G01 X84.7349 Y251.1621
G01 X84.6622 Y251.0565
G01 X84.5850 Y250.9541
G01 X84.5035 Y250.8552
G01 X84.4177 Y250.7599
G01 X84.3278 Y250.6685
G01 X84.2341 Y250.5810
G01 X84.0814 Y250.7125
G00 Z5.0000


;No. 7: Hole 6
G00 X92.4554 Y250.7125 Z5.0000
G00 Z0.5000
G01 Z0.0000 F400
G01 Z-1.0000
G01 X94.0829 F1000
G01 Y249.2125
G01 X92.4554
G01 Y247.7125
G01 X94.0829
G01 Y246.2125
G01 X92.4554
G01 Y244.7125
G01 X94.0829
G01 Y243.2125
G01 X92.4554
G01 Y241.7125
G01 X94.0829
G01 Y240.2125
G01 X92.4554
G01 Y238.7125
G01 X94.1178
G01 X92.4554 Y237.2125
G01 X110.1088
G01 X110.2842 Y237.1161
G01 X110.2195 Y236.9840
G01 X110.1475 Y236.8558
G01 X110.0684 Y236.7317
G01 X109.9825 Y236.6122
G01 X109.8902 Y236.4977
G01 X109.7915 Y236.3886
G01 X109.6870 Y236.2851
G01 X109.5768 Y236.1876
G01 X109.4614 Y236.0963
G01 X109.3411 Y236.0117
G01 X109.2162 Y235.9339
G01 X109.0872 Y235.8632
G01 X108.9545 Y235.7998
G01 X108.8184 Y235.7438
G01 X108.6794 Y235.6956
G01 X108.5379 Y235.6552
G01 X108.3945 Y235.6227
G01 X108.2494 Y235.5982
G01 X108.1032 Y235.5819
G01 X107.9563 Y235.5738
G01 X92.2554
G01 Y252.3513
G01 X94.2829
G01 Y238.9991
G01 X94.2838 Y238.9555
G01 X94.2867 Y238.9120
G01 X94.2914 Y238.8686
G01 X94.2980 Y238.8255
G01 X94.3066 Y238.7827
G01 X94.3169 Y238.7403
G01 X94.3291 Y238.6984
G01 X94.3432 Y238.6571
G01 X94.3590 Y238.6165
G01 X94.3765 Y238.5765
G01 X94.3958 Y238.5374
G01 X94.4168 Y238.4991
G01 X94.4395 Y238.4618
G01 X94.4637 Y238.4256
G01 X94.4895 Y238.3904
G01 X94.5168 Y238.3564
G01 X94.5456 Y238.3236
G01 X94.5757 Y238.2920
G01 X94.6073 Y238.2619
G01 X94.6401 Y238.2331
G01 X94.6741 Y238.2058
G01 X94.7093 Y238.1800
G01 X94.7456 Y238.1558
G01 X94.7829 Y238.1331
G01 X94.8211 Y238.1121
G01 X94.8602 Y238.0928
G01 X94.9002 Y238.0753
G01 X94.9408 Y238.0595
G01 X94.9821 Y238.0454
G01 X95.0240 Y238.0332
G01 X95.0664 Y238.0229
G01 X95.1092 Y238.0143
G01 X95.1523 Y238.0077
G01 X95.1957 Y238.0030
G01 X95.2392 Y238.0001
G01 X95.2829 Y237.9991
G01 X110.5597
G01 X110.5410 Y237.8846
G01 X110.5176 Y237.7708
G01 X110.4897 Y237.6581
G01 X110.4574 Y237.5466
G01 X110.4206 Y237.4365
G01 X110.3794 Y237.3279
G01 X110.3339 Y237.2211
G01 X110.2842 Y237.1161
G01 X110.1088 Y237.2125
G00 Z5.0000


;No. 8: Hole 8
G00 X117.8299 Y236.6245 Z5.0000
G00 Z0.5000
G01 Z0.0000 F400
G01 Z-1.0000
G01 X119.4573 F1000
G01 Y238.1245
G01 X117.8299
G01 Y239.6245
G01 X119.4573
G01 Y241.1245
G01 X117.8299
G01 Y242.6245
G01 X119.8370
G01 X117.8299 Y244.1245
G01 X135.7842
G01 Y242.6245
G01 X133.7770
G01 X134.1568
G01 Y241.1245
G01 X135.7842
G01 Y239.6245
G01 X134.1568
G01 Y238.1245
G01 X135.7842
G01 Y236.6245
G01 X134.1568
G01 X133.9568 Y236.6394
G01 Y241.7499
G01 X133.9558 Y241.7935
G01 X133.9529 Y241.8370
G01 X133.9482 Y241.8804
G01 X133.9416 Y241.9235
G01 X133.9330 Y241.9663
G01 X133.9227 Y242.0087
G01 X133.9105 Y242.0506
G01 X133.8964 Y242.0919
G01 X133.8806 Y242.1325
G01 X133.8631 Y242.1725
G01 X133.8438 Y242.2116
G01 X133.8228 Y242.2499
G01 X133.8001 Y242.2872
G01 X133.7759 Y242.3234
G01 X133.7501 Y242.3586
G01 X133.7228 Y242.3926
G01 X133.6940 Y242.4254
G01 X133.6639 Y242.4570
G01 X133.6323 Y242.4871
G01 X133.5995 Y242.5159
G01 X133.5655 Y242.5432
G01 X133.5303 Y242.5690
G01 X133.4941 Y242.5932
G01 X133.4568 Y242.6159
G01 X133.4185 Y242.6369
G01 X133.3794 Y242.6562
G01 X133.3394 Y242.6737
G01 X133.2988 Y242.6896
G01 X133.2575 Y242.7036
G01 X133.2156 Y242.7158
G01 X133.1732 Y242.7262
G01 X133.1304 Y242.7347
G01 X133.0873 Y242.7413
G01 X133.0439 Y242.7461
G01 X133.0004 Y242.7489
G01 X132.9568 Y242.7499
G01 X120.6573
G01 X120.6136 Y242.7489
G01 X120.5701 Y242.7461
G01 X120.5267 Y242.7413
G01 X120.4836 Y242.7347
G01 X120.4408 Y242.7262
G01 X120.3984 Y242.7158
G01 X120.3565 Y242.7036
G01 X120.3152 Y242.6896
G01 X120.2746 Y242.6737
G01 X120.2346 Y242.6562
G01 X120.1955 Y242.6369
G01 X120.1573 Y242.6159
G01 X120.1200 Y242.5932
G01 X120.0837 Y242.5690
G01 X120.0485 Y242.5432
G01 X120.0145 Y242.5159
G01 X119.9817 Y242.4871
G01 X119.9501 Y242.4570
G01 X119.9200 Y242.4254
G01 X119.8912 Y242.3926
G01 X119.8639 Y242.3586
G01 X119.8381 Y242.3234
G01 X119.8139 Y242.2872
G01 X119.7912 Y242.2499
G01 X119.7702 Y242.2116
G01 X119.7509 Y242.1725
G01 X119.7334 Y242.1325
G01 X119.7176 Y242.0919
G01 X119.7035 Y242.0506
G01 X119.6913 Y242.0087
G01 X119.6810 Y241.9663
G01 X119.6724 Y241.9235
G01 X119.6658 Y241.8804
G01 X119.6611 Y241.8370
G01 X119.6582 Y241.7935
G01 X119.6573 Y241.7499
G01 Y235.5738
G01 X117.6299
G01 Y245.1752
G01 X135.9842
G01 Y235.5738
G01 X133.9568
G01 Y236.6394
G01 X134.1568 Y236.6245
G00 Z5.0000


;No. 9: Helical drill 2
G00 X133.8366 Y267.0331 Z5.0000
G00 Z0.5000
G01 X133.8356 Y266.9903 Z0.4811 F400
G01 X133.8325 Y266.9476 Z0.4621
G01 X133.8274 Y266.9051 Z0.4432
G01 X133.8203 Y266.8628 Z0.4242
G01 X133.8112 Y266.8210 Z0.4053
G01 X133.8001 Y266.7796 Z0.3864
G01 X133.7871 Y266.7388 Z0.3674
G01 X133.7721 Y266.6987 Z0.3485
G01 X133.7552 Y266.6593 Z0.3295
G01 X133.7365 Y266.6207 Z0.3106
G01 X133.7160 Y266.5831 Z0.2917
G01 X133.6937 Y266.5466 Z0.2727
G01 X133.6697 Y266.5111 Z0.2538
G01 X133.6440 Y266.4768 Z0.2348
G01 X133.6168 Y266.4438 Z0.2159
G01 X133.5879 Y266.4121 Z0.1970
G01 X133.5576 Y266.3818 Z0.1780
G01 X133.5260 Y266.3530 Z0.1591
G01 X133.4929 Y266.3257 Z0.1402
G01 X133.4586 Y266.3000 Z0.1212
G01 X133.4232 Y266.2760 Z0.1023
G01 X133.3866 Y266.2537 Z0.0833
G01 X133.3490 Y266.2332 Z0.0644
G01 X133.3105 Y266.2145 Z0.0455
G01 X133.2711 Y266.1976 Z0.0265
G01 X133.2309 Y266.1826 Z0.0076
G01 X133.1901 Y266.1696 Z-0.0114
G01 X133.1488 Y266.1585 Z-0.0303
G01 X133.1069 Y266.1494 Z-0.0492
G01 X133.0647 Y266.1423 Z-0.0682
G01 X133.0221 Y266.1372 Z-0.0871
G01 X132.9794 Y266.1342 Z-0.1061
G01 X132.9366 Y266.1331 Z-0.1250
G01 X132.8938 Y266.1342 Z-0.1439
G01 X132.8510 Y266.1372 Z-0.1629
G01 X132.8085 Y266.1423 Z-0.1818
G01 X132.7663 Y266.1494 Z-0.2008
G01 X132.7244 Y266.1585 Z-0.2197
G01 X132.6830 Y266.1696 Z-0.2386
G01 X132.6422 Y266.1826 Z-0.2576
G01 X132.6021 Y266.1976 Z-0.2765
G01 X132.5627 Y266.2145 Z-0.2955
G01 X132.5242 Y266.2332 Z-0.3144
G01 X132.4866 Y266.2537 Z-0.3333
G01 X132.4500 Y266.2760 Z-0.3523
G01 X132.4145 Y266.3000 Z-0.3712
G01 X132.3802 Y266.3257 Z-0.3902
G01 X132.3472 Y266.3530 Z-0.4091
G01 X132.3155 Y266.3818 Z-0.4280
G01 X132.2852 Y266.4121 Z-0.4470
G01 X132.2564 Y266.4438 Z-0.4659
G01 X132.2291 Y266.4768 Z-0.4848
G01 X132.2035 Y266.5111 Z-0.5038
G01 X132.1794 Y266.5466 Z-0.5227
G01 X132.1572 Y266.5831 Z-0.5417
G01 X132.1366 Y266.6207 Z-0.5606
G01 X132.1179 Y266.6593 Z-0.5795
G01 X132.1010 Y266.6987 Z-0.5985
G01 X132.0861 Y266.7388 Z-0.6174
G01 X132.0730 Y266.7796 Z-0.6364
G01 X132.0619 Y266.8210 Z-0.6553
G01 X132.0528 Y266.8628 Z-0.6742
G01 X132.0457 Y266.9051 Z-0.6932
G01 X132.0407 Y266.9476 Z-0.7121
G01 X132.0376 Y266.9903 Z-0.7311
G01 X132.0366 Y267.0331 Z-0.7500
G01 X132.0376 Y267.0760 Z-0.7689
G01 X132.0407 Y267.1187 Z-0.7879
G01 X132.0457 Y267.1612 Z-0.8068
G01 X132.0528 Y267.2035 Z-0.8258
G01 X132.0619 Y267.2453 Z-0.8447
G01 X132.0730 Y267.2867 Z-0.8636
G01 X132.0861 Y267.3275 Z-0.8826
G01 X132.1010 Y267.3676 Z-0.9015
G01 X132.1179 Y267.4070 Z-0.9205
G01 X132.1366 Y267.4456 Z-0.9394
G01 X132.1572 Y267.4831 Z-0.9583
G01 X132.1794 Y267.5197 Z-0.9773
G01 X132.2035 Y267.5552 Z-0.9962
G01 X132.2291 Y267.5895 Z-1.0152
G01 X132.2564 Y267.6225 Z-1.0341
G01 X132.2852 Y267.6542 Z-1.0530
G01 X132.3155 Y267.6845 Z-1.0720
G01 X132.3472 Y267.7133 Z-1.0909
G01 X132.3802 Y267.7406 Z-1.1098
G01 X132.4145 Y267.7663 Z-1.1288
G01 X132.4500 Y267.7903 Z-1.1477
G01 X132.4866 Y267.8126 Z-1.1667
G01 X132.5242 Y267.8331 Z-1.1856
G01 X132.5627 Y267.8518 Z-1.2045
G01 X132.6021 Y267.8687 Z-1.2235
G01 X132.6422 Y267.8836 Z-1.2424
G01 X132.6830 Y267.8967 Z-1.2614
G01 X132.7244 Y267.9078 Z-1.2803
G01 X132.7663 Y267.9169 Z-1.2992
G01 X132.8085 Y267.9240 Z-1.3182
G01 X132.8510 Y267.9291 Z-1.3371
G01 X132.8938 Y267.9321 Z-1.3561
G01 X132.9366 Y267.9331 Z-1.3750
G01 X132.9794 Y267.9321 Z-1.3939
G01 X133.0221 Y267.9291 Z-1.4129
G01 X133.0647 Y267.9240 Z-1.4318
G01 X133.1069 Y267.9169 Z-1.4508
G01 X133.1488 Y267.9078 Z-1.4697
G01 X133.1901 Y267.8967 Z-1.4886
G01 X133.2309 Y267.8836 Z-1.5076
G01 X133.2711 Y267.8687 Z-1.5265
G01 X133.3105 Y267.8518 Z-1.5455
G01 X133.3490 Y267.8331 Z-1.5644
G01 X133.3866 Y267.8126 Z-1.5833
G01 X133.4232 Y267.7903 Z-1.6023
G01 X133.4586 Y267.7663 Z-1.6212
G01 X133.4929 Y267.7406 Z-1.6402
G01 X133.5260 Y267.7133 Z-1.6591
G01 X133.5576 Y267.6845 Z-1.6780
G01 X133.5879 Y267.6542 Z-1.6970
G01 X133.6168 Y267.6225 Z-1.7159
G01 X133.6440 Y267.5895 Z-1.7348
G01 X133.6697 Y267.5552 Z-1.7538
G01 X133.6937 Y267.5197 Z-1.7727
G01 X133.7160 Y267.4831 Z-1.7917
G01 X133.7365 Y267.4456 Z-1.8106
G01 X133.7552 Y267.4070 Z-1.8295
G01 X133.7721 Y267.3676 Z-1.8485
G01 X133.7871 Y267.3275 Z-1.8674
G01 X133.8001 Y267.2867 Z-1.8864
G01 X133.8112 Y267.2453 Z-1.9053
G01 X133.8203 Y267.2035 Z-1.9242
G01 X133.8274 Y267.1612 Z-1.9432
G01 X133.8325 Y267.1187 Z-1.9621
G01 X133.8356 Y267.0760 Z-1.9811
G01 X133.8366 Y267.0331 Z-2.0000
G01 X133.8356 Y266.9903
G01 X133.8325 Y266.9476
G01 X133.8274 Y266.9051
G01 X133.8203 Y266.8628
G01 X133.8112 Y266.8210
G01 X133.8001 Y266.7796
G01 X133.7871 Y266.7388
G01 X133.7721 Y266.6987
G01 X133.7552 Y266.6593
G01 X133.7365 Y266.6207
G01 X133.7160 Y266.5831
G01 X133.6937 Y266.5466
G01 X133.6697 Y266.5111
G01 X133.6440 Y266.4768
G01 X133.6168 Y266.4438
G01 X133.5879 Y266.4121
G01 X133.5576 Y266.3818
G01 X133.5260 Y266.3530
G01 X133.4929 Y266.3257
G01 X133.4586 Y266.3000
G01 X133.4232 Y266.2760
G01 X133.3866 Y266.2537
G01 X133.3490 Y266.2332
G01 X133.3105 Y266.2145
G01 X133.2711 Y266.1976
G01 X133.2309 Y266.1826
G01 X133.1901 Y266.1696
G01 X133.1488 Y266.1585
G01 X133.1069 Y266.1494
G01 X133.0647 Y266.1423
G01 X133.0221 Y266.1372
G01 X132.9794 Y266.1342
G01 X132.9366 Y266.1331
G01 X132.8938 Y266.1342
G01 X132.8510 Y266.1372
G01 X132.8085 Y266.1423
G01 X132.7663 Y266.1494
G01 X132.7244 Y266.1585
G01 X132.6830 Y266.1696
G01 X132.6422 Y266.1826
G01 X132.6021 Y266.1976
G01 X132.5627 Y266.2145
G01 X132.5242 Y266.2332
G01 X132.4866 Y266.2537
G01 X132.4500 Y266.2760
G01 X132.4145 Y266.3000
G01 X132.3802 Y266.3257
G01 X132.3472 Y266.3530
G01 X132.3155 Y266.3818
G01 X132.2852 Y266.4121
G01 X132.2564 Y266.4438
G01 X132.2291 Y266.4768
G01 X132.2035 Y266.5111
G01 X132.1794 Y266.5466
G01 X132.1572 Y266.5831
G01 X132.1366 Y266.6207
G01 X132.1179 Y266.6593
G01 X132.1010 Y266.6987
G01 X132.0861 Y266.7388
G01 X132.0730 Y266.7796
G01 X132.0619 Y266.8210
G01 X132.0528 Y266.8628
G01 X132.0457 Y266.9051
G01 X132.0407 Y266.9476
G01 X132.0376 Y266.9903
G01 X132.0366 Y267.0331
G01 X132.0376 Y267.0760
G01 X132.0407 Y267.1187
G01 X132.0457 Y267.1612
G01 X132.0528 Y267.2035
G01 X132.0619 Y267.2453
G01 X132.0730 Y267.2867
G01 X132.0861 Y267.3275
G01 X132.1010 Y267.3676
G01 X132.1179 Y267.4070
G01 X132.1366 Y267.4456
G01 X132.1572 Y267.4831
G01 X132.1794 Y267.5197
G01 X132.2035 Y267.5552
G01 X132.2291 Y267.5895
G01 X132.2564 Y267.6225
G01 X132.2852 Y267.6542
G01 X132.3155 Y267.6845
G01 X132.3472 Y267.7133
G01 X132.3802 Y267.7406
G01 X132.4145 Y267.7663
G01 X132.4500 Y267.7903
G01 X132.4866 Y267.8126
G01 X132.5242 Y267.8331
G01 X132.5627 Y267.8518
G01 X132.6021 Y267.8687
G01 X132.6422 Y267.8836
G01 X132.6830 Y267.8967
G01 X132.7244 Y267.9078
G01 X132.7663 Y267.9169
G01 X132.8085 Y267.9240
G01 X132.8510 Y267.9291
G01 X132.8938 Y267.9321
G01 X132.9366 Y267.9331
G01 X132.9794 Y267.9321
G01 X133.0221 Y267.9291
G01 X133.0647 Y267.9240
G01 X133.1069 Y267.9169
G01 X133.1488 Y267.9078
G01 X133.1901 Y267.8967
G01 X133.2309 Y267.8836
G01 X133.2711 Y267.8687
G01 X133.3105 Y267.8518
G01 X133.3490 Y267.8331
G01 X133.3866 Y267.8126
G01 X133.4232 Y267.7903
G01 X133.4586 Y267.7663
G01 X133.4929 Y267.7406
G01 X133.5260 Y267.7133
G01 X133.5576 Y267.6845
G01 X133.5879 Y267.6542
G01 X133.6168 Y267.6225
G01 X133.6440 Y267.5895
G01 X133.6697 Y267.5552
G01 X133.6937 Y267.5197
G01 X133.7160 Y267.4831
G01 X133.7365 Y267.4456
G01 X133.7552 Y267.4070
G01 X133.7721 Y267.3676
G01 X133.7871 Y267.3275
G01 X133.8001 Y267.2867
G01 X133.8112 Y267.2453
G01 X133.8203 Y267.2035
G01 X133.8274 Y267.1612
G01 X133.8325 Y267.1187
G01 X133.8356 Y267.0760
G01 X133.8366 Y267.0331
G01 X133.8441 Y267.0021 F1000
G01 X133.8506 Y266.9708
G01 X133.8560 Y266.9393
G01 X133.8602 Y266.9076
G01 X133.8634 Y266.8758
G01 X133.8655 Y266.8439
G01 X133.8664 Y266.8120
G01 X133.8663 Y266.7801
G01 X133.8651 Y266.7481
G01 X133.8627 Y266.7163
G01 X133.8592 Y266.6845
G01 X133.8547 Y266.6529
G01 X133.8418 Y266.6035
G01 X133.8265 Y266.5548
G01 X133.8087 Y266.5070
G01 X133.7885 Y266.4601
G01 X133.7661 Y266.4143
G01 X133.7413 Y266.3697
G01 X133.7143 Y266.3264
G01 X133.6852 Y266.2845
G01 X133.6476 Y266.2487
G01 X133.6082 Y266.2147
G01 X133.5673 Y266.1828
G01 X133.5248 Y266.1529
G01 X133.4809 Y266.1251
G01 X133.4357 Y266.0994
G01 X133.3892 Y266.0761
G01 X133.3417 Y266.0550
G01 X133.2932 Y266.0363
G01 X133.2439 Y266.0200
G01 X133.1938 Y266.0062
G01 X133.1431 Y265.9948
G01 X133.0919 Y265.9859
G01 X133.0403 Y265.9795
G01 X132.9885 Y265.9757
G01 X132.9366 Y265.9744
G01 X132.8846 Y265.9757
G01 X132.8328 Y265.9795
G01 X132.7812 Y265.9859
G01 X132.7300 Y265.9948
G01 X132.6793 Y266.0062
G01 X132.6292 Y266.0200
G01 X132.5799 Y266.0363
G01 X132.5314 Y266.0550
G01 X132.4839 Y266.0761
G01 X132.4375 Y266.0994
G01 X132.3923 Y266.1251
G01 X132.3484 Y266.1529
G01 X132.3059 Y266.1828
G01 X132.2649 Y266.2147
G01 X132.2256 Y266.2487
G01 X132.1879 Y266.2845
G01 X132.1521 Y266.3222
G01 X132.1182 Y266.3615
G01 X132.0862 Y266.4025
G01 X132.0563 Y266.4450
G01 X132.0285 Y266.4889
G01 X132.0029 Y266.5341
G01 X131.9795 Y266.5805
G01 X131.9584 Y266.6280
G01 X131.9397 Y266.6765
G01 X131.9234 Y266.7258
G01 X131.9096 Y266.7759
G01 X131.8982 Y266.8266
G01 X131.8893 Y266.8778
G01 X131.8830 Y266.9294
G01 X131.8791 Y266.9812
G01 X131.8779 Y267.0331
G01 X131.8791 Y267.0851
G01 X131.8830 Y267.1369
G01 X131.8893 Y267.1885
G01 X131.8982 Y267.2397
G01 X131.9096 Y267.2904
G01 X131.9234 Y267.3405
G01 X131.9397 Y267.3898
G01 X131.9584 Y267.4383
G01 X131.9795 Y267.4858
G01 X132.0029 Y267.5322
G01 X132.0285 Y267.5774
G01 X132.0563 Y267.6213
G01 X132.0862 Y267.6638
G01 X132.1182 Y267.7048
G01 X132.1521 Y267.7441
G01 X132.1879 Y267.7818
G01 X132.2256 Y267.8176
G01 X132.2649 Y267.8515
G01 X132.3059 Y267.8835
G01 X132.3484 Y267.9134
G01 X132.3923 Y267.9412
G01 X132.4375 Y267.9669
G01 X132.4839 Y267.9902
G01 X132.5314 Y268.0113
G01 X132.5799 Y268.0300
G01 X132.6292 Y268.0463
G01 X132.6793 Y268.0601
G01 X132.7300 Y268.0715
G01 X132.7812 Y268.0804
G01 X132.8328 Y268.0868
G01 X132.8846 Y268.0906
G01 X132.9366 Y268.0919
G01 X132.9885 Y268.0906
G01 X133.0403 Y268.0868
G01 X133.0919 Y268.0804
G01 X133.1431 Y268.0715
G01 X133.1938 Y268.0601
G01 X133.2439 Y268.0463
G01 X133.2932 Y268.0300
G01 X133.3417 Y268.0113
G01 X133.3892 Y267.9902
G01 X133.4357 Y267.9669
G01 X133.4809 Y267.9412
G01 X133.5248 Y267.9134
G01 X133.5673 Y267.8835
G01 X133.6082 Y267.8515
G01 X133.6476 Y267.8176
G01 X133.6852 Y267.7818
G01 X133.7210 Y267.7441
G01 X133.7550 Y267.7048
G01 X133.7869 Y267.6638
G01 X133.8169 Y267.6213
G01 X133.8447 Y267.5774
G01 X133.8703 Y267.5322
G01 X133.8936 Y267.4858
G01 X133.9147 Y267.4383
G01 X133.9334 Y267.3898
G01 X133.9497 Y267.3405
G01 X133.9636 Y267.2904
G01 X133.9750 Y267.2397
G01 X133.9838 Y267.1885
G01 X133.9902 Y267.1369
G01 X133.9940 Y267.0851
G01 X133.9953 Y267.0331
G01 X133.9913 Y266.9409
G01 X133.9792 Y266.8493
G01 X133.9592 Y266.7591
G01 X133.9314 Y266.6710
G01 X133.8961 Y266.5857
G01 X133.8535 Y266.5038
G01 X133.8038 Y266.4259
G01 X133.7476 Y266.3526
G01 X133.6852 Y266.2845
G01 X133.6171 Y266.2221
G01 X133.5438 Y266.1659
G01 X133.4659 Y266.1163
G01 X133.3840 Y266.0736
G01 X133.2987 Y266.0383
G01 X133.2106 Y266.0105
G01 X133.1204 Y265.9905
G01 X133.0289 Y265.9785
G01 X132.9366 Y265.9744
G01 X132.8443 Y265.9785
G01 X132.7527 Y265.9905
G01 X132.6626 Y266.0105
G01 X132.5745 Y266.0383
G01 X132.4891 Y266.0736
G01 X132.4072 Y266.1163
G01 X132.3293 Y266.1659
G01 X132.2560 Y266.2221
G01 X132.1879 Y266.2845
G01 X132.1256 Y266.3526
G01 X132.0693 Y266.4259
G01 X132.0197 Y266.5038
G01 X131.9771 Y266.5857
G01 X131.9417 Y266.6710
G01 X131.9139 Y266.7591
G01 X131.8939 Y266.8493
G01 X131.8819 Y266.9409
G01 X131.8779 Y267.0331
G01 X131.8819 Y267.1254
G01 X131.8939 Y267.2170
G01 X131.9139 Y267.3072
G01 X131.9417 Y267.3952
G01 X131.9771 Y267.4806
G01 X132.0197 Y267.5625
G01 X132.0693 Y267.6404
G01 X132.1256 Y267.7137
G01 X132.1879 Y267.7818
G01 X132.2560 Y267.8442
G01 X132.3293 Y267.9004
G01 X132.4072 Y267.9500
G01 X132.4891 Y267.9927
G01 X132.5745 Y268.0280
G01 X132.6626 Y268.0558
G01 X132.7527 Y268.0758
G01 X132.8443 Y268.0878
G01 X132.9366 Y268.0919
G01 X133.0289 Y268.0878
G01 X133.1204 Y268.0758
G01 X133.2106 Y268.0558
G01 X133.2987 Y268.0280
G01 X133.3840 Y267.9927
G01 X133.4659 Y267.9500
G01 X133.5438 Y267.9004
G01 X133.6171 Y267.8442
G01 X133.6852 Y267.7818
G01 X133.7476 Y267.7137
G01 X133.8038 Y267.6404
G01 X133.8535 Y267.5625
G01 X133.8961 Y267.4806
G01 X133.9314 Y267.3952
G01 X133.9592 Y267.3072
G01 X133.9792 Y267.2170
G01 X133.9913 Y267.1254
G01 X133.9953 Y267.0331
G01 X133.9942 Y266.9879
G01 X133.9911 Y266.9428
G01 X133.9859 Y266.8978
G01 X133.9786 Y266.8532
G01 X133.9693 Y266.8089
G01 X133.9579 Y266.7651
G01 X133.9445 Y266.7219
G01 X133.9292 Y266.6794
G01 X133.9118 Y266.6376
G01 X133.8926 Y266.5966
G01 X133.8715 Y266.5566
G01 X133.8486 Y266.5176
G01 X133.8239 Y266.4797
G01 X133.7975 Y266.4430
G01 X133.7694 Y266.4075
G01 X133.7397 Y266.3734
G01 X133.7084 Y266.3406
G01 X133.6757 Y266.3094
G01 X133.6416 Y266.2797
G01 X133.6061 Y266.2516
G01 X133.5694 Y266.2252
G01 X133.5315 Y266.2005
G01 X133.4925 Y266.1776
G01 X133.4525 Y266.1565
G01 X133.4115 Y266.1372
G01 X133.3697 Y266.1199
G01 X133.3272 Y266.1046
G01 X133.2840 Y266.0912
G01 X133.2402 Y266.0798
G01 X133.1959 Y266.0705
G01 X133.1512 Y266.0632
G01 X133.1063 Y266.0580
G01 X133.0612 Y266.0548
G01 X133.0159 Y266.0538
G01 X132.9707 Y266.0548
G01 X132.9256 Y266.0580
G01 X132.8806 Y266.0632
G01 X132.8360 Y266.0705
G01 X132.7917 Y266.0798
G01 X132.7479 Y266.0912
G01 X132.7047 Y266.1046
G01 X132.6622 Y266.1199
G01 X132.6204 Y266.1372
G01 X132.5794 Y266.1565
G01 X132.5394 Y266.1776
G01 X132.5004 Y266.2005
G01 X132.4625 Y266.2252
G01 X132.4257 Y266.2516
G01 X132.3903 Y266.2797
G01 X132.3561 Y266.3094
G01 X132.3234 Y266.3406
G01 X132.2922 Y266.3734
G01 X132.2625 Y266.4075
G01 X132.2344 Y266.4430
G01 X132.2080 Y266.4797
G01 X132.1833 Y266.5176
G01 X132.1603 Y266.5566
G01 X132.1392 Y266.5966
G01 X132.1200 Y266.6376
G01 X132.1027 Y266.6794
G01 X132.0873 Y266.7219
G01 X132.0740 Y266.7651
G01 X132.0626 Y266.8089
G01 X132.0533 Y266.8532
G01 X132.0460 Y266.8978
G01 X132.0408 Y266.9428
G01 X132.0376 Y266.9879
G01 X132.0366 Y267.0331
G01 X132.0377 Y267.0773
G01 X132.0409 Y267.1214
G01 X132.0463 Y267.1652
G01 X132.0539 Y267.2087
G01 X132.0635 Y267.2518
G01 X132.0753 Y267.2944
G01 X132.0892 Y267.3363
G01 X132.1051 Y267.3776
G01 X132.1230 Y267.4179
G01 X132.1428 Y267.4574
G01 X132.1646 Y267.4958
G01 X132.1883 Y267.5332
G01 X132.2137 Y267.5693
G01 X132.2409 Y267.6041
G01 X132.2697 Y267.6375
G01 X132.3002 Y267.6695
G01 X132.3322 Y267.7000
G01 X132.3656 Y267.7289
G01 X132.4004 Y267.7560
G01 X132.4366 Y267.7815
G01 X132.4739 Y267.8051
G01 X132.5123 Y267.8269
G01 X132.5518 Y267.8467
G01 X132.5922 Y267.8646
G01 X132.6334 Y267.8805
G01 X132.6753 Y267.8944
G01 X132.7179 Y267.9062
G01 X132.7610 Y267.9159
G01 X132.8045 Y267.9234
G01 X132.8484 Y267.9288
G01 X132.8924 Y267.9321
G01 X132.9366 Y267.9331
G01 X132.9807 Y267.9321
G01 X133.0248 Y267.9288
G01 X133.0686 Y267.9234
G01 X133.1122 Y267.9159
G01 X133.1553 Y267.9062
G01 X133.1978 Y267.8944
G01 X133.2398 Y267.8805
G01 X133.2810 Y267.8646
G01 X133.3214 Y267.8467
G01 X133.3608 Y267.8269
G01 X133.3993 Y267.8051
G01 X133.4366 Y267.7815
G01 X133.4727 Y267.7560
G01 X133.5075 Y267.7289
G01 X133.5410 Y267.7000
G01 X133.5730 Y267.6695
G01 X133.6034 Y267.6375
G01 X133.6323 Y267.6041
G01 X133.6595 Y267.5693
G01 X133.6849 Y267.5332
G01 X133.7085 Y267.4958
G01 X133.7303 Y267.4574
G01 X133.7502 Y267.4179
G01 X133.7681 Y267.3776
G01 X133.7840 Y267.3363
G01 X133.7978 Y267.2944
G01 X133.8096 Y267.2518
G01 X133.8193 Y267.2087
G01 X133.8268 Y267.1652
G01 X133.8322 Y267.1214
G01 X133.8355 Y267.0773
G01 X133.8366 Y267.0331
G01 X133.8356 Y266.9903 Z-2.0189 F400
G01 X133.8325 Y266.9476 Z-2.0379
G01 X133.8274 Y266.9051 Z-2.0568
G01 X133.8203 Y266.8628 Z-2.0758
G01 X133.8112 Y266.8210 Z-2.0947
G01 X133.8001 Y266.7796 Z-2.1136
G01 X133.7871 Y266.7388 Z-2.1326
G01 X133.7721 Y266.6987 Z-2.1515
G01 X133.7552 Y266.6593 Z-2.1705
G01 X133.7365 Y266.6207 Z-2.1894
G01 X133.7160 Y266.5831 Z-2.2083
G01 X133.6937 Y266.5466 Z-2.2273
G01 X133.6697 Y266.5111 Z-2.2462
G01 X133.6440 Y266.4768 Z-2.2652
G01 X133.6168 Y266.4438 Z-2.2841
G01 X133.5879 Y266.4121 Z-2.3030
G01 X133.5576 Y266.3818 Z-2.3220
G01 X133.5260 Y266.3530 Z-2.3409
G01 X133.4929 Y266.3257 Z-2.3598
G01 X133.4586 Y266.3000 Z-2.3788
G01 X133.4232 Y266.2760 Z-2.3977
G01 X133.3866 Y266.2537 Z-2.4167
G01 X133.3490 Y266.2332 Z-2.4356
G01 X133.3105 Y266.2145 Z-2.4545
G01 X133.2711 Y266.1976 Z-2.4735
G01 X133.2309 Y266.1826 Z-2.4924
G01 X133.1901 Y266.1696 Z-2.5114
G01 X133.1488 Y266.1585 Z-2.5303
G01 X133.1069 Y266.1494 Z-2.5492
G01 X133.0647 Y266.1423 Z-2.5682
G01 X133.0221 Y266.1372 Z-2.5871
G01 X132.9794 Y266.1342 Z-2.6061
G01 X132.9366 Y266.1331 Z-2.6250
G01 X132.8938 Y266.1342 Z-2.6439
G01 X132.8510 Y266.1372 Z-2.6629
G01 X132.8085 Y266.1423 Z-2.6818
G01 X132.7663 Y266.1494 Z-2.7008
G01 X132.7244 Y266.1585 Z-2.7197
G01 X132.6830 Y266.1696 Z-2.7386
G01 X132.6422 Y266.1826 Z-2.7576
G01 X132.6021 Y266.1976 Z-2.7765
G01 X132.5627 Y266.2145 Z-2.7955
G01 X132.5242 Y266.2332 Z-2.8144
G01 X132.4866 Y266.2537 Z-2.8333
G01 X132.4500 Y266.2760 Z-2.8523
G01 X132.4145 Y266.3000 Z-2.8712
G01 X132.3802 Y266.3257 Z-2.8902
G01 X132.3472 Y266.3530 Z-2.9091
G01 X132.3155 Y266.3818 Z-2.9280
G01 X132.2852 Y266.4121 Z-2.9470
G01 X132.2564 Y266.4438 Z-2.9659
G01 X132.2291 Y266.4768 Z-2.9848
G01 X132.2035 Y266.5111 Z-3.0038
G01 X132.1794 Y266.5466 Z-3.0227
G01 X132.1572 Y266.5831 Z-3.0417
G01 X132.1366 Y266.6207 Z-3.0606
G01 X132.1179 Y266.6593 Z-3.0795
G01 X132.1010 Y266.6987 Z-3.0985
G01 X132.0861 Y266.7388 Z-3.1174
G01 X132.0730 Y266.7796 Z-3.1364
G01 X132.0619 Y266.8210 Z-3.1553
G01 X132.0528 Y266.8628 Z-3.1742
G01 X132.0457 Y266.9051 Z-3.1932
G01 X132.0407 Y266.9476 Z-3.2121
G01 X132.0376 Y266.9903 Z-3.2311
G01 X132.0366 Y267.0331 Z-3.2500
G01 X132.0376 Y267.0760 Z-3.2689
G01 X132.0407 Y267.1187 Z-3.2879
G01 X132.0457 Y267.1612 Z-3.3068
G01 X132.0528 Y267.2035 Z-3.3258
G01 X132.0619 Y267.2453 Z-3.3447
G01 X132.0730 Y267.2867 Z-3.3636
G01 X132.0861 Y267.3275 Z-3.3826
G01 X132.1010 Y267.3676 Z-3.4015
G01 X132.1179 Y267.4070 Z-3.4205
G01 X132.1366 Y267.4456 Z-3.4394
G01 X132.1572 Y267.4831 Z-3.4583
G01 X132.1794 Y267.5197 Z-3.4773
G01 X132.2035 Y267.5552 Z-3.4962
G01 X132.2291 Y267.5895 Z-3.5152
G01 X132.2564 Y267.6225 Z-3.5341
G01 X132.2852 Y267.6542 Z-3.5530
G01 X132.3155 Y267.6845 Z-3.5720
G01 X132.3472 Y267.7133 Z-3.5909
G01 X132.3802 Y267.7406 Z-3.6098
G01 X132.4145 Y267.7663 Z-3.6288
G01 X132.4500 Y267.7903 Z-3.6477
G01 X132.4866 Y267.8126 Z-3.6667
G01 X132.5242 Y267.8331 Z-3.6856
G01 X132.5627 Y267.8518 Z-3.7045
G01 X132.6021 Y267.8687 Z-3.7235
G01 X132.6422 Y267.8836 Z-3.7424
G01 X132.6830 Y267.8967 Z-3.7614
G01 X132.7244 Y267.9078 Z-3.7803
G01 X132.7663 Y267.9169 Z-3.7992
G01 X132.8085 Y267.9240 Z-3.8182
G01 X132.8510 Y267.9291 Z-3.8371
G01 X132.8938 Y267.9321 Z-3.8561
G01 X132.9366 Y267.9331 Z-3.8750
G01 X132.9794 Y267.9321 Z-3.8939
G01 X133.0221 Y267.9291 Z-3.9129
G01 X133.0647 Y267.9240 Z-3.9318
G01 X133.1069 Y267.9169 Z-3.9508
G01 X133.1488 Y267.9078 Z-3.9697
G01 X133.1901 Y267.8967 Z-3.9886
G01 X133.2309 Y267.8836 Z-4.0076
G01 X133.2711 Y267.8687 Z-4.0265
G01 X133.3105 Y267.8518 Z-4.0455
G01 X133.3490 Y267.8331 Z-4.0644
G01 X133.3866 Y267.8126 Z-4.0833
G01 X133.4232 Y267.7903 Z-4.1023
G01 X133.4586 Y267.7663 Z-4.1212
G01 X133.4929 Y267.7406 Z-4.1402
G01 X133.5260 Y267.7133 Z-4.1591
G01 X133.5576 Y267.6845 Z-4.1780
G01 X133.5879 Y267.6542 Z-4.1970
G01 X133.6168 Y267.6225 Z-4.2159
G01 X133.6440 Y267.5895 Z-4.2348
G01 X133.6697 Y267.5552 Z-4.2538
G01 X133.6937 Y267.5197 Z-4.2727
G01 X133.7160 Y267.4831 Z-4.2917
G01 X133.7365 Y267.4456 Z-4.3106
G01 X133.7552 Y267.4070 Z-4.3295
G01 X133.7721 Y267.3676 Z-4.3485
G01 X133.7871 Y267.3275 Z-4.3674
G01 X133.8001 Y267.2867 Z-4.3864
G01 X133.8112 Y267.2453 Z-4.4053
G01 X133.8203 Y267.2035 Z-4.4242
G01 X133.8274 Y267.1612 Z-4.4432
G01 X133.8325 Y267.1187 Z-4.4621
G01 X133.8356 Y267.0760 Z-4.4811
G01 X133.8366 Y267.0331 Z-4.5000
G01 X133.8356 Y266.9903
G01 X133.8325 Y266.9476
G01 X133.8274 Y266.9051
G01 X133.8203 Y266.8628
G01 X133.8112 Y266.8210
G01 X133.8001 Y266.7796
G01 X133.7871 Y266.7388
G01 X133.7721 Y266.6987
G01 X133.7552 Y266.6593
G01 X133.7365 Y266.6207
G01 X133.7160 Y266.5831
G01 X133.6937 Y266.5466
G01 X133.6697 Y266.5111
G01 X133.6440 Y266.4768
G01 X133.6168 Y266.4438
G01 X133.5879 Y266.4121
G01 X133.5576 Y266.3818
G01 X133.5260 Y266.3530
G01 X133.4929 Y266.3257
G01 X133.4586 Y266.3000
G01 X133.4232 Y266.2760
G01 X133.3866 Y266.2537
G01 X133.3490 Y266.2332
G01 X133.3105 Y266.2145
G01 X133.2711 Y266.1976
G01 X133.2309 Y266.1826
G01 X133.1901 Y266.1696
G01 X133.1488 Y266.1585
G01 X133.1069 Y266.1494
G01 X133.0647 Y266.1423
G01 X133.0221 Y266.1372
G01 X132.9794 Y266.1342
G01 X132.9366 Y266.1331
G01 X132.8938 Y266.1342
G01 X132.8510 Y266.1372
G01 X132.8085 Y266.1423
G01 X132.7663 Y266.1494
G01 X132.7244 Y266.1585
G01 X132.6830 Y266.1696
G01 X132.6422 Y266.1826
G01 X132.6021 Y266.1976
G01 X132.5627 Y266.2145
G01 X132.5242 Y266.2332
G01 X132.4866 Y266.2537
G01 X132.4500 Y266.2760
G01 X132.4145 Y266.3000
G01 X132.3802 Y266.3257
G01 X132.3472 Y266.3530
G01 X132.3155 Y266.3818
G01 X132.2852 Y266.4121
G01 X132.2564 Y266.4438
G01 X132.2291 Y266.4768
G01 X132.2035 Y266.5111
G01 X132.1794 Y266.5466
G01 X132.1572 Y266.5831
G01 X132.1366 Y266.6207
G01 X132.1179 Y266.6593
G01 X132.1010 Y266.6987
G01 X132.0861 Y266.7388
G01 X132.0730 Y266.7796
G01 X132.0619 Y266.8210
G01 X132.0528 Y266.8628
G01 X132.0457 Y266.9051
G01 X132.0407 Y266.9476
G01 X132.0376 Y266.9903
G01 X132.0366 Y267.0331
G01 X132.0376 Y267.0760
G01 X132.0407 Y267.1187
G01 X132.0457 Y267.1612
G01 X132.0528 Y267.2035
G01 X132.0619 Y267.2453
G01 X132.0730 Y267.2867
G01 X132.0861 Y267.3275
G01 X132.1010 Y267.3676
G01 X132.1179 Y267.4070
G01 X132.1366 Y267.4456
G01 X132.1572 Y267.4831
G01 X132.1794 Y267.5197
G01 X132.2035 Y267.5552
G01 X132.2291 Y267.5895
G01 X132.2564 Y267.6225
G01 X132.2852 Y267.6542
G01 X132.3155 Y267.6845
G01 X132.3472 Y267.7133
G01 X132.3802 Y267.7406
G01 X132.4145 Y267.7663
G01 X132.4500 Y267.7903
G01 X132.4866 Y267.8126
G01 X132.5242 Y267.8331
G01 X132.5627 Y267.8518
G01 X132.6021 Y267.8687
G01 X132.6422 Y267.8836
G01 X132.6830 Y267.8967
G01 X132.7244 Y267.9078
G01 X132.7663 Y267.9169
G01 X132.8085 Y267.9240
G01 X132.8510 Y267.9291
G01 X132.8938 Y267.9321
G01 X132.9366 Y267.9331
G01 X132.9794 Y267.9321
G01 X133.0221 Y267.9291
G01 X133.0647 Y267.9240
G01 X133.1069 Y267.9169
G01 X133.1488 Y267.9078
G01 X133.1901 Y267.8967
G01 X133.2309 Y267.8836
G01 X133.2711 Y267.8687
G01 X133.3105 Y267.8518
G01 X133.3490 Y267.8331
G01 X133.3866 Y267.8126
G01 X133.4232 Y267.7903
G01 X133.4586 Y267.7663
G01 X133.4929 Y267.7406
G01 X133.5260 Y267.7133
G01 X133.5576 Y267.6845
G01 X133.5879 Y267.6542
G01 X133.6168 Y267.6225
G01 X133.6440 Y267.5895
G01 X133.6697 Y267.5552
G01 X133.6937 Y267.5197
G01 X133.7160 Y267.4831
G01 X133.7365 Y267.4456
G01 X133.7552 Y267.4070
G01 X133.7721 Y267.3676
G01 X133.7871 Y267.3275
G01 X133.8001 Y267.2867
G01 X133.8112 Y267.2453
G01 X133.8203 Y267.2035
G01 X133.8274 Y267.1612
G01 X133.8325 Y267.1187
G01 X133.8356 Y267.0760
G01 X133.8366 Y267.0331
G01 X133.8441 Y267.0021 F1000
G01 X133.8506 Y266.9708
G01 X133.8560 Y266.9393
G01 X133.8602 Y266.9076
G01 X133.8634 Y266.8758
G01 X133.8655 Y266.8439
G01 X133.8664 Y266.8120
G01 X133.8663 Y266.7801
G01 X133.8651 Y266.7481
G01 X133.8627 Y266.7163
G01 X133.8592 Y266.6845
G01 X133.8547 Y266.6529
G01 X133.8418 Y266.6035
G01 X133.8265 Y266.5548
G01 X133.8087 Y266.5070
G01 X133.7885 Y266.4601
G01 X133.7661 Y266.4143
G01 X133.7413 Y266.3697
G01 X133.7143 Y266.3264
G01 X133.6852 Y266.2845
G01 X133.6476 Y266.2487
G01 X133.6082 Y266.2147
G01 X133.5673 Y266.1828
G01 X133.5248 Y266.1529
G01 X133.4809 Y266.1251
G01 X133.4357 Y266.0994
G01 X133.3892 Y266.0761
G01 X133.3417 Y266.0550
G01 X133.2932 Y266.0363
G01 X133.2439 Y266.0200
G01 X133.1938 Y266.0062
G01 X133.1431 Y265.9948
G01 X133.0919 Y265.9859
G01 X133.0403 Y265.9795
G01 X132.9885 Y265.9757
G01 X132.9366 Y265.9744
G01 X132.8846 Y265.9757
G01 X132.8328 Y265.9795
G01 X132.7812 Y265.9859
G01 X132.7300 Y265.9948
G01 X132.6793 Y266.0062
G01 X132.6292 Y266.0200
G01 X132.5799 Y266.0363
G01 X132.5314 Y266.0550
G01 X132.4839 Y266.0761
G01 X132.4375 Y266.0994
G01 X132.3923 Y266.1251
G01 X132.3484 Y266.1529
G01 X132.3059 Y266.1828
G01 X132.2649 Y266.2147
G01 X132.2256 Y266.2487
G01 X132.1879 Y266.2845
G01 X132.1521 Y266.3222
G01 X132.1182 Y266.3615
G01 X132.0862 Y266.4025
G01 X132.0563 Y266.4450
G01 X132.0285 Y266.4889
G01 X132.0029 Y266.5341
G01 X131.9795 Y266.5805
G01 X131.9584 Y266.6280
G01 X131.9397 Y266.6765
G01 X131.9234 Y266.7258
G01 X131.9096 Y266.7759
G01 X131.8982 Y266.8266
G01 X131.8893 Y266.8778
G01 X131.8830 Y266.9294
G01 X131.8791 Y266.9812
G01 X131.8779 Y267.0331
G01 X131.8791 Y267.0851
G01 X131.8830 Y267.1369
G01 X131.8893 Y267.1885
G01 X131.8982 Y267.2397
G01 X131.9096 Y267.2904
G01 X131.9234 Y267.3405
G01 X131.9397 Y267.3898
G01 X131.9584 Y267.4383
G01 X131.9795 Y267.4858
G01 X132.0029 Y267.5322
G01 X132.0285 Y267.5774
G01 X132.0563 Y267.6213
G01 X132.0862 Y267.6638
G01 X132.1182 Y267.7048
G01 X132.1521 Y267.7441
G01 X132.1879 Y267.7818
G01 X132.2256 Y267.8176
G01 X132.2649 Y267.8515
G01 X132.3059 Y267.8835
G01 X132.3484 Y267.9134
G01 X132.3923 Y267.9412
G01 X132.4375 Y267.9669
G01 X132.4839 Y267.9902
G01 X132.5314 Y268.0113
G01 X132.5799 Y268.0300
G01 X132.6292 Y268.0463
G01 X132.6793 Y268.0601
G01 X132.7300 Y268.0715
G01 X132.7812 Y268.0804
G01 X132.8328 Y268.0868
G01 X132.8846 Y268.0906
G01 X132.9366 Y268.0919
G01 X132.9885 Y268.0906
G01 X133.0403 Y268.0868
G01 X133.0919 Y268.0804
G01 X133.1431 Y268.0715
G01 X133.1938 Y268.0601
G01 X133.2439 Y268.0463
G01 X133.2932 Y268.0300
G01 X133.3417 Y268.0113
G01 X133.3892 Y267.9902
G01 X133.4357 Y267.9669
G01 X133.4809 Y267.9412
G01 X133.5248 Y267.9134
G01 X133.5673 Y267.8835
G01 X133.6082 Y267.8515
G01 X133.6476 Y267.8176
G01 X133.6852 Y267.7818
G01 X133.7210 Y267.7441
G01 X133.7550 Y267.7048
G01 X133.7869 Y267.6638
G01 X133.8169 Y267.6213
G01 X133.8447 Y267.5774
G01 X133.8703 Y267.5322
G01 X133.8936 Y267.4858
G01 X133.9147 Y267.4383
G01 X133.9334 Y267.3898
G01 X133.9497 Y267.3405
G01 X133.9636 Y267.2904
G01 X133.9750 Y267.2397
G01 X133.9838 Y267.1885
G01 X133.9902 Y267.1369
G01 X133.9940 Y267.0851
G01 X133.9953 Y267.0331
G01 X133.9913 Y266.9409
G01 X133.9792 Y266.8493
G01 X133.9592 Y266.7591
G01 X133.9314 Y266.6710
G01 X133.8961 Y266.5857
G01 X133.8535 Y266.5038
G01 X133.8038 Y266.4259
G01 X133.7476 Y266.3526
G01 X133.6852 Y266.2845
G01 X133.6171 Y266.2221
G01 X133.5438 Y266.1659
G01 X133.4659 Y266.1163
G01 X133.3840 Y266.0736
G01 X133.2987 Y266.0383
G01 X133.2106 Y266.0105
G01 X133.1204 Y265.9905
G01 X133.0289 Y265.9785
G01 X132.9366 Y265.9744
G01 X132.8443 Y265.9785
G01 X132.7527 Y265.9905
G01 X132.6626 Y266.0105
G01 X132.5745 Y266.0383
G01 X132.4891 Y266.0736
G01 X132.4072 Y266.1163
G01 X132.3293 Y266.1659
G01 X132.2560 Y266.2221
G01 X132.1879 Y266.2845
G01 X132.1256 Y266.3526
G01 X132.0693 Y266.4259
G01 X132.0197 Y266.5038
G01 X131.9771 Y266.5857
G01 X131.9417 Y266.6710
G01 X131.9139 Y266.7591
G01 X131.8939 Y266.8493
G01 X131.8819 Y266.9409
G01 X131.8779 Y267.0331
G01 X131.8819 Y267.1254
G01 X131.8939 Y267.2170
G01 X131.9139 Y267.3072
G01 X131.9417 Y267.3952
G01 X131.9771 Y267.4806
G01 X132.0197 Y267.5625
G01 X132.0693 Y267.6404
G01 X132.1256 Y267.7137
G01 X132.1879 Y267.7818
G01 X132.2560 Y267.8442
G01 X132.3293 Y267.9004
G01 X132.4072 Y267.9500
G01 X132.4891 Y267.9927
G01 X132.5745 Y268.0280
G01 X132.6626 Y268.0558
G01 X132.7527 Y268.0758
G01 X132.8443 Y268.0878
G01 X132.9366 Y268.0919
G01 X133.0289 Y268.0878
G01 X133.1204 Y268.0758
G01 X133.2106 Y268.0558
G01 X133.2987 Y268.0280
G01 X133.3840 Y267.9927
G01 X133.4659 Y267.9500
G01 X133.5438 Y267.9004
G01 X133.6171 Y267.8442
G01 X133.6852 Y267.7818
G01 X133.7476 Y267.7137
G01 X133.8038 Y267.6404
G01 X133.8535 Y267.5625
G01 X133.8961 Y267.4806
G01 X133.9314 Y267.3952
G01 X133.9592 Y267.3072
G01 X133.9792 Y267.2170
G01 X133.9913 Y267.1254
G01 X133.9953 Y267.0331
G01 X133.9922 Y266.9547 Z-4.4750 F400
G01 X133.9830 Y266.8767 Z-4.4500
G01 X133.9677 Y266.7997 Z-4.4250
G01 X133.9464 Y266.7241 Z-4.4000
G01 X133.9192 Y266.6505 Z-4.3750
G01 X133.8863 Y266.5792 Z-4.3500
G01 X133.8479 Y266.5106 Z-4.3250
G01 X133.8043 Y266.4454 Z-4.3000
G01 X133.7557 Y266.3837 Z-4.2750
G01 X133.7024 Y266.3260 Z-4.2500
G01 X133.6447 Y266.2727 Z-4.2250
G01 X133.5831 Y266.2241 Z-4.2000
G01 X133.5178 Y266.1805 Z-4.1750
G01 X133.4493 Y266.1421 Z-4.1500
G01 X133.3780 Y266.1093 Z-4.1250
G01 X133.3043 Y266.0821 Z-4.1000
G01 X133.2287 Y266.0608 Z-4.0750
G01 X133.1517 Y266.0455 Z-4.0500
G01 X133.0738 Y266.0362 Z-4.0250
G01 X132.9953 Y266.0331 Z-4.0000
G00 Z5.0000


;No. 10: Hole 7
G00 X135.2208 Y251.1385 Z5.0000
G00 Z0.5000
G01 Z0.0000 F400
G01 Z-1.0000
G01 X118.3782 F1000
G01 X118.2156 Y251.0221
G01 X118.1148 Y251.1722
G01 X118.0232 Y251.3281
G01 X117.9409 Y251.4891
G01 X117.8684 Y251.6547
G01 X117.8058 Y251.8243
G01 X117.7534 Y251.9974
G01 X117.7114 Y252.1732
G01 X117.6799 Y252.3512
G01 X135.9343
G01 X135.9121 Y252.2157
G01 X135.8834 Y252.0814
G01 X135.8484 Y251.9486
G01 X135.8070 Y251.8177
G01 X135.7595 Y251.6889
G01 X135.7058 Y251.5625
G01 X135.6462 Y251.4388
G01 X135.5807 Y251.3181
G01 X135.5096 Y251.2007
G01 X135.4329 Y251.0868
G01 X135.3509 Y250.9767
G01 X135.2636 Y250.8706
G01 X135.1715 Y250.7689
G01 X135.0746 Y250.6716
G01 X134.9731 Y250.5791
G01 X134.8673 Y250.4916
G01 X134.7575 Y250.4092
G01 X134.6439 Y250.3321
G01 X134.5267 Y250.2605
G01 X134.4062 Y250.1947
G01 X134.2827 Y250.1346
G01 X134.1565 Y250.0806
G01 X134.0279 Y250.0326
G01 X133.8971 Y249.9908
G01 X133.7572 Y249.9619
G01 X133.6159 Y249.9414
G01 X133.4736 Y249.9294
G01 X133.3308 Y249.9258
G01 X120.2887
G01 X120.1666 Y249.9279
G01 X120.0447 Y249.9361
G01 X119.9234 Y249.9502
G01 X119.8029 Y249.9704
G01 X119.6836 Y249.9964
G01 X119.5657 Y250.0283
G01 X119.4495 Y250.0660
G01 X119.3353 Y250.1094
G01 X119.2234 Y250.1584
G01 X119.1140 Y250.2128
G01 X119.0075 Y250.2725
G01 X118.9040 Y250.3375
G01 X118.8039 Y250.4074
G01 X118.7074 Y250.4822
G01 X118.6146 Y250.5617
G01 X118.5259 Y250.6457
G01 X118.4415 Y250.7339
G01 X118.3615 Y250.8262
G01 X118.2861 Y250.9224
G01 X118.2156 Y251.0221
G01 X118.3782 Y251.1385
G00 Z5.0000


;No. 11: Helical drill 3
G00 X167.4097 Y267.0335 Z5.0000
G00 Z0.5000
G01 X167.4087 Y266.9907 Z0.4811 F400
G01 X167.4056 Y266.9480 Z0.4621
G01 X167.4006 Y266.9055 Z0.4432
G01 X167.3935 Y266.8632 Z0.4242
G01 X167.3844 Y266.8214 Z0.4053
G01 X167.3733 Y266.7800 Z0.3864
G01 X167.3602 Y266.7392 Z0.3674
G01 X167.3453 Y266.6990 Z0.3485
G01 X167.3284 Y266.6597 Z0.3295
G01 X167.3097 Y266.6211 Z0.3106
G01 X167.2891 Y266.5835 Z0.2917
G01 X167.2668 Y266.5470 Z0.2727
G01 X167.2428 Y266.5115 Z0.2538
G01 X167.2172 Y266.4772 Z0.2348
G01 X167.1899 Y266.4442 Z0.2159
G01 X167.1611 Y266.4125 Z0.1970
G01 X167.1308 Y266.3822 Z0.1780
G01 X167.0991 Y266.3534 Z0.1591
G01 X167.0661 Y266.3261 Z0.1402
G01 X167.0318 Y266.3004 Z0.1212
G01 X166.9963 Y266.2764 Z0.1023
G01 X166.9597 Y266.2541 Z0.0833
G01 X166.9221 Y266.2336 Z0.0644
G01 X166.8836 Y266.2149 Z0.0455
G01 X166.8442 Y266.1980 Z0.0265
G01 X166.8041 Y266.1830 Z0.0076
G01 X166.7633 Y266.1700 Z-0.0114
G01 X166.7219 Y266.1589 Z-0.0303
G01 X166.6800 Y266.1498 Z-0.0492
G01 X166.6378 Y266.1427 Z-0.0682
G01 X166.5953 Y266.1376 Z-0.0871
G01 X166.5525 Y266.1346 Z-0.1061
G01 X166.5097 Y266.1335 Z-0.1250
G01 X166.4669 Y266.1346 Z-0.1439
G01 X166.4242 Y266.1376 Z-0.1629
G01 X166.3816 Y266.1427 Z-0.1818
G01 X166.3394 Y266.1498 Z-0.2008
G01 X166.2975 Y266.1589 Z-0.2197
G01 X166.2562 Y266.1700 Z-0.2386
G01 X166.2154 Y266.1830 Z-0.2576
G01 X166.1752 Y266.1980 Z-0.2765
G01 X166.1358 Y266.2149 Z-0.2955
G01 X166.0973 Y266.2336 Z-0.3144
G01 X166.0597 Y266.2541 Z-0.3333
G01 X166.0231 Y266.2764 Z-0.3523
G01 X165.9877 Y266.3004 Z-0.3712
G01 X165.9534 Y266.3261 Z-0.3902
G01 X165.9203 Y266.3534 Z-0.4091
G01 X165.8886 Y266.3822 Z-0.4280
G01 X165.8584 Y266.4125 Z-0.4470
G01 X165.8295 Y266.4442 Z-0.4659
G01 X165.8023 Y266.4772 Z-0.4848
G01 X165.7766 Y266.5115 Z-0.5038
G01 X165.7526 Y266.5470 Z-0.5227
G01 X165.7303 Y266.5835 Z-0.5417
G01 X165.7098 Y266.6211 Z-0.5606
G01 X165.6911 Y266.6597 Z-0.5795
G01 X165.6742 Y266.6990 Z-0.5985
G01 X165.6592 Y266.7392 Z-0.6174
G01 X165.6462 Y266.7800 Z-0.6364
G01 X165.6351 Y266.8214 Z-0.6553
G01 X165.6260 Y266.8632 Z-0.6742
G01 X165.6189 Y266.9055 Z-0.6932
G01 X165.6138 Y266.9480 Z-0.7121
G01 X165.6107 Y266.9907 Z-0.7311
G01 X165.6097 Y267.0335 Z-0.7500
G01 X165.6107 Y267.0764 Z-0.7689
G01 X165.6138 Y267.1191 Z-0.7879
G01 X165.6189 Y267.1616 Z-0.8068
G01 X165.6260 Y267.2039 Z-0.8258
G01 X165.6351 Y267.2457 Z-0.8447
G01 X165.6462 Y267.2871 Z-0.8636
G01 X165.6592 Y267.3279 Z-0.8826
G01 X165.6742 Y267.3680 Z-0.9015
G01 X165.6911 Y267.4074 Z-0.9205
G01 X165.7098 Y267.4459 Z-0.9394
G01 X165.7303 Y267.4835 Z-0.9583
G01 X165.7526 Y267.5201 Z-0.9773
G01 X165.7766 Y267.5556 Z-0.9962
G01 X165.8023 Y267.5899 Z-1.0152
G01 X165.8295 Y267.6229 Z-1.0341
G01 X165.8584 Y267.6546 Z-1.0530
G01 X165.8886 Y267.6849 Z-1.0720
G01 X165.9203 Y267.7137 Z-1.0909
G01 X165.9534 Y267.7410 Z-1.1098
G01 X165.9877 Y267.7667 Z-1.1288
G01 X166.0231 Y267.7907 Z-1.1477
G01 X166.0597 Y267.8130 Z-1.1667
G01 X166.0973 Y267.8335 Z-1.1856
G01 X166.1358 Y267.8522 Z-1.2045
G01 X166.1752 Y267.8691 Z-1.2235
G01 X166.2154 Y267.8840 Z-1.2424
G01 X166.2562 Y267.8971 Z-1.2614
G01 X166.2975 Y267.9082 Z-1.2803
G01 X166.3394 Y267.9173 Z-1.2992
G01 X166.3816 Y267.9244 Z-1.3182
G01 X166.4242 Y267.9295 Z-1.3371
G01 X166.4669 Y267.9325 Z-1.3561
G01 X166.5097 Y267.9335 Z-1.3750
G01 X166.5525 Y267.9325 Z-1.3939
G01 X166.5953 Y267.9295 Z-1.4129
G01 X166.6378 Y267.9244 Z-1.4318
G01 X166.6800 Y267.9173 Z-1.4508
G01 X166.7219 Y267.9082 Z-1.4697
G01 X166.7633 Y267.8971 Z-1.4886
G01 X166.8041 Y267.8840 Z-1.5076
G01 X166.8442 Y267.8691 Z-1.5265
G01 X166.8836 Y267.8522 Z-1.5455
G01 X166.9221 Y267.8335 Z-1.5644
G01 X166.9597 Y267.8130 Z-1.5833
G01 X166.9963 Y267.7907 Z-1.6023
G01 X167.0318 Y267.7667 Z-1.6212
G01 X167.0661 Y267.7410 Z-1.6402
G01 X167.0991 Y267.7137 Z-1.6591
G01 X167.1308 Y267.6849 Z-1.6780
G01 X167.1611 Y267.6546 Z-1.6970
G01 X167.1899 Y267.6229 Z-1.7159
G01 X167.2172 Y267.5899 Z-1.7348
G01 X167.2428 Y267.5556 Z-1.7538
G01 X167.2668 Y267.5201 Z-1.7727
G01 X167.2891 Y267.4835 Z-1.7917
G01 X167.3097 Y267.4459 Z-1.8106
G01 X167.3284 Y267.4074 Z-1.8295
G01 X167.3453 Y267.3680 Z-1.8485
G01 X167.3602 Y267.3279 Z-1.8674
G01 X167.3733 Y267.2871 Z-1.8864
G01 X167.3844 Y267.2457 Z-1.9053
G01 X167.3935 Y267.2039 Z-1.9242
G01 X167.4006 Y267.1616 Z-1.9432
G01 X167.4056 Y267.1191 Z-1.9621
G01 X167.4087 Y267.0764 Z-1.9811
G01 X167.4097 Y267.0335 Z-2.0000
G01 X167.4087 Y266.9907
G01 X167.4056 Y266.9480
G01 X167.4006 Y266.9055
G01 X167.3935 Y266.8632
G01 X167.3844 Y266.8214
G01 X167.3733 Y266.7800
G01 X167.3602 Y266.7392
G01 X167.3453 Y266.6990
G01 X167.3284 Y266.6597
G01 X167.3097 Y266.6211
G01 X167.2891 Y266.5835
G01 X167.2668 Y266.5470
G01 X167.2428 Y266.5115
G01 X167.2172 Y266.4772
G01 X167.1899 Y266.4442
G01 X167.1611 Y266.4125
G01 X167.1308 Y266.3822
G01 X167.0991 Y266.3534
G01 X167.0661 Y266.3261
G01 X167.0318 Y266.3004
G01 X166.9963 Y266.2764
G01 X166.9597 Y266.2541
G01 X166.9221 Y266.2336
G01 X166.8836 Y266.2149
G01 X166.8442 Y266.1980
G01 X166.8041 Y266.1830
G01 X166.7633 Y266.1700
G01 X166.7219 Y266.1589
G01 X166.6800 Y266.1498
G01 X166.6378 Y266.1427
G01 X166.5953 Y266.1376
G01 X166.5525 Y266.1346
G01 X166.5097 Y266.1335
G01 X166.4669 Y266.1346
G01 X166.4242 Y266.1376
G01 X166.3816 Y266.1427
G01 X166.3394 Y266.1498
G01 X166.2975 Y266.1589
G01 X166.2562 Y266.1700
G01 X166.2154 Y266.1830
G01 X166.1752 Y266.1980
G01 X166.1358 Y266.2149
G01 X166.0973 Y266.2336
G01 X166.0597 Y266.2541
G01 X166.0231 Y266.2764
G01 X165.9877 Y266.3004
G01 X165.9534 Y266.3261
G01 X165.9203 Y266.3534
G01 X165.8886 Y266.3822
G01 X165.8584 Y266.4125
G01 X165.8295 Y266.4442
G01 X165.8023 Y266.4772
G01 X165.7766 Y266.5115
G01 X165.7526 Y266.5470
G01 X165.7303 Y266.5835
G01 X165.7098 Y266.6211
G01 X165.6911 Y266.6597
G01 X165.6742 Y266.6990
G01 X165.6592 Y266.7392
G01 X165.6462 Y266.7800
G01 X165.6351 Y266.8214
G01 X165.6260 Y266.8632
G01 X165.6189 Y266.9055
G01 X165.6138 Y266.9480
G01 X165.6107 Y266.9907
G01 X165.6097 Y267.0335
G01 X165.6107 Y267.0764
G01 X165.6138 Y267.1191
G01 X165.6189 Y267.1616
G01 X165.6260 Y267.2039
G01 X165.6351 Y267.2457
G01 X165.6462 Y267.2871
G01 X165.6592 Y267.3279
G01 X165.6742 Y267.3680
G01 X165.6911 Y267.4074
G01 X165.7098 Y267.4459
G01 X165.7303 Y267.4835
G01 X165.7526 Y267.5201
G01 X165.7766 Y267.5556
G01 X165.8023 Y267.5899
G01 X165.8295 Y267.6229
G01 X165.8584 Y267.6546
G01 X165.8886 Y267.6849
G01 X165.9203 Y267.7137
G01 X165.9534 Y267.7410
G01 X165.9877 Y267.7667
G01 X166.0231 Y267.7907
G01 X166.0597 Y267.8130
G01 X166.0973 Y267.8335
G01 X166.1358 Y267.8522
G01 X166.1752 Y267.8691
G01 X166.2154 Y267.8840
G01 X166.2562 Y267.8971
G01 X166.2975 Y267.9082
G01 X166.3394 Y267.9173
G01 X166.3816 Y267.9244
G01 X166.4242 Y267.9295
G01 X166.4669 Y267.9325
G01 X166.5097 Y267.9335
G01 X166.5525 Y267.9325
G01 X166.5953 Y267.9295
G01 X166.6378 Y267.9244
G01 X166.6800 Y267.9173
G01 X166.7219 Y267.9082
G01 X166.7633 Y267.8971
G01 X166.8041 Y267.8840
G01 X166.8442 Y267.8691
G01 X166.8836 Y267.8522
G01 X166.9221 Y267.8335
G01 X166.9597 Y267.8130
G01 X166.9963 Y267.7907
G01 X167.0318 Y267.7667
G01 X167.0661 Y267.7410
G01 X167.0991 Y267.7137
G01 X167.1308 Y267.6849
G01 X167.1611 Y267.6546
G01 X167.1899 Y267.6229
G01 X167.2172 Y267.5899
G01 X167.2428 Y267.5556
G01 X167.2668 Y267.5201
G01 X167.2891 Y267.4835
G01 X167.3097 Y267.4459
G01 X167.3284 Y267.4074
G01 X167.3453 Y267.3680
G01 X167.3602 Y267.3279
G01 X167.3733 Y267.2871
G01 X167.3844 Y267.2457
G01 X167.3935 Y267.2039
G01 X167.4006 Y267.1616
G01 X167.4056 Y267.1191
G01 X167.4087 Y267.0764
G01 X167.4097 Y267.0335
G01 X167.4173 Y267.0025 F1000
G01 X167.4237 Y266.9712
G01 X167.4291 Y266.9397
G01 X167.4334 Y266.9080
G01 X167.4366 Y266.8762
G01 X167.4386 Y266.8443
G01 X167.4396 Y266.8124
G01 X167.4394 Y266.7804
G01 X167.4382 Y266.7485
G01 X167.4358 Y266.7167
G01 X167.4324 Y266.6849
G01 X167.4278 Y266.6533
G01 X167.4149 Y266.6039
G01 X167.3995 Y266.5553
G01 X167.3817 Y266.5075
G01 X167.3615 Y266.4606
G01 X167.3390 Y266.4149
G01 X167.3142 Y266.3703
G01 X167.2872 Y266.3270
G01 X167.2581 Y266.2852
G01 X167.2205 Y266.2493
G01 X167.1811 Y266.2154
G01 X167.1402 Y266.1835
G01 X167.0977 Y266.1535
G01 X167.0538 Y266.1258
G01 X167.0086 Y266.1001
G01 X166.9622 Y266.0768
G01 X166.9147 Y266.0557
G01 X166.8663 Y266.0370
G01 X166.8169 Y266.0207
G01 X166.7669 Y266.0069
G01 X166.7162 Y265.9955
G01 X166.6650 Y265.9866
G01 X166.6135 Y265.9803
G01 X166.5617 Y265.9765
G01 X166.5097 Y265.9752
G01 X166.4578 Y265.9765
G01 X166.4060 Y265.9803
G01 X166.3544 Y265.9866
G01 X166.3032 Y265.9955
G01 X166.2526 Y266.0069
G01 X166.2025 Y266.0207
G01 X166.1532 Y266.0370
G01 X166.1047 Y266.0557
G01 X166.0572 Y266.0768
G01 X166.0108 Y266.1001
G01 X165.9656 Y266.1258
G01 X165.9217 Y266.1535
G01 X165.8793 Y266.1835
G01 X165.8383 Y266.2154
G01 X165.7990 Y266.2493
G01 X165.7613 Y266.2852
G01 X165.7255 Y266.3228
G01 X165.6916 Y266.3621
G01 X165.6596 Y266.4031
G01 X165.6297 Y266.4455
G01 X165.6019 Y266.4894
G01 X165.5763 Y266.5346
G01 X165.5530 Y266.5810
G01 X165.5319 Y266.6285
G01 X165.5132 Y266.6770
G01 X165.4969 Y266.7263
G01 X165.4831 Y266.7764
G01 X165.4717 Y266.8271
G01 X165.4628 Y266.8783
G01 X165.4564 Y266.9298
G01 X165.4526 Y266.9816
G01 X165.4514 Y267.0335
G01 X165.4526 Y267.0855
G01 X165.4564 Y267.1373
G01 X165.4628 Y267.1888
G01 X165.4717 Y267.2400
G01 X165.4831 Y267.2907
G01 X165.4969 Y267.3408
G01 X165.5132 Y267.3901
G01 X165.5319 Y267.4386
G01 X165.5530 Y267.4861
G01 X165.5763 Y267.5325
G01 X165.6019 Y267.5777
G01 X165.6297 Y267.6215
G01 X165.6596 Y267.6640
G01 X165.6916 Y267.7050
G01 X165.7255 Y267.7443
G01 X165.7613 Y267.7819
G01 X165.7990 Y267.8177
G01 X165.8383 Y267.8517
G01 X165.8793 Y267.8836
G01 X165.9217 Y267.9135
G01 X165.9656 Y267.9413
G01 X166.0108 Y267.9669
G01 X166.0572 Y267.9903
G01 X166.1047 Y268.0114
G01 X166.1532 Y268.0300
G01 X166.2025 Y268.0463
G01 X166.2526 Y268.0602
G01 X166.3032 Y268.0716
G01 X166.3544 Y268.0805
G01 X166.4060 Y268.0868
G01 X166.4578 Y268.0906
G01 X166.5097 Y268.0919
G01 X166.5617 Y268.0906
G01 X166.6135 Y268.0868
G01 X166.6650 Y268.0805
G01 X166.7162 Y268.0716
G01 X166.7669 Y268.0602
G01 X166.8169 Y268.0463
G01 X166.8663 Y268.0300
G01 X166.9147 Y268.0114
G01 X166.9622 Y267.9903
G01 X167.0086 Y267.9669
G01 X167.0538 Y267.9413
G01 X167.0977 Y267.9135
G01 X167.1402 Y267.8836
G01 X167.1811 Y267.8517
G01 X167.2205 Y267.8177
G01 X167.2581 Y267.7819
G01 X167.2939 Y267.7443
G01 X167.3279 Y267.7050
G01 X167.3598 Y267.6640
G01 X167.3897 Y267.6215
G01 X167.4175 Y267.5777
G01 X167.4431 Y267.5325
G01 X167.4665 Y267.4861
G01 X167.4875 Y267.4386
G01 X167.5062 Y267.3901
G01 X167.5225 Y267.3408
G01 X167.5364 Y267.2907
G01 X167.5478 Y267.2400
G01 X167.5566 Y267.1888
G01 X167.5630 Y267.1373
G01 X167.5668 Y267.0855
G01 X167.5681 Y267.0335
G01 X167.5641 Y266.9413
G01 X167.5520 Y266.8498
G01 X167.5320 Y266.7596
G01 X167.5043 Y266.6716
G01 X167.4689 Y266.5863
G01 X167.4263 Y266.5044
G01 X167.3767 Y266.4265
G01 X167.3205 Y266.3532
G01 X167.2581 Y266.2852
G01 X167.1900 Y266.2228
G01 X167.1168 Y266.1666
G01 X167.0389 Y266.1170
G01 X166.9570 Y266.0743
G01 X166.8717 Y266.0390
G01 X166.7836 Y266.0112
G01 X166.6935 Y265.9913
G01 X166.6020 Y265.9792
G01 X166.5097 Y265.9752
G01 X166.4175 Y265.9792
G01 X166.3259 Y265.9913
G01 X166.2358 Y266.0112
G01 X166.1477 Y266.0390
G01 X166.0624 Y266.0743
G01 X165.9805 Y266.1170
G01 X165.9027 Y266.1666
G01 X165.8294 Y266.2228
G01 X165.7613 Y266.2852
G01 X165.6990 Y266.3532
G01 X165.6428 Y266.4265
G01 X165.5931 Y266.5044
G01 X165.5505 Y266.5863
G01 X165.5152 Y266.6716
G01 X165.4874 Y266.7596
G01 X165.4674 Y266.8498
G01 X165.4554 Y266.9413
G01 X165.4514 Y267.0335
G01 X165.4554 Y267.1258
G01 X165.4674 Y267.2173
G01 X165.4874 Y267.3075
G01 X165.5152 Y267.3955
G01 X165.5505 Y267.4808
G01 X165.5931 Y267.5627
G01 X165.6428 Y267.6406
G01 X165.6990 Y267.7139
G01 X165.7613 Y267.7819
G01 X165.8294 Y267.8443
G01 X165.9027 Y267.9005
G01 X165.9805 Y267.9501
G01 X166.0624 Y267.9928
G01 X166.1477 Y268.0281
G01 X166.2358 Y268.0559
G01 X166.3259 Y268.0758
G01 X166.4175 Y268.0879
G01 X166.5097 Y268.0919
G01 X166.6020 Y268.0879
G01 X166.6935 Y268.0758
G01 X166.7836 Y268.0559
G01 X166.8717 Y268.0281
G01 X166.9570 Y267.9928
G01 X167.0389 Y267.9501
G01 X167.1168 Y267.9005
G01 X167.1900 Y267.8443
G01 X167.2581 Y267.7819
G01 X167.3205 Y267.7139
G01 X167.3767 Y267.6406
G01 X167.4263 Y267.5627
G01 X167.4689 Y267.4808
G01 X167.5043 Y267.3955
G01 X167.5320 Y267.3075
G01 X167.5520 Y267.2173
G01 X167.5641 Y267.1258
G01 X167.5681 Y267.0335
G01 X167.5670 Y266.9883
G01 X167.5639 Y266.9432
G01 X167.5587 Y266.8983
G01 X167.5514 Y266.8536
G01 X167.5421 Y266.8094
G01 X167.5307 Y266.7656
G01 X167.5173 Y266.7224
G01 X167.5020 Y266.6798
G01 X167.4847 Y266.6380
G01 X167.4654 Y266.5971
G01 X167.4443 Y266.5571
G01 X167.4214 Y266.5181
G01 X167.3967 Y266.4802
G01 X167.3703 Y266.4435
G01 X167.3422 Y266.4080
G01 X167.3125 Y266.3739
G01 X167.2813 Y266.3412
G01 X167.2486 Y266.3099
G01 X167.2145 Y266.2802
G01 X167.1790 Y266.2521
G01 X167.1423 Y266.2257
G01 X167.1044 Y266.2010
G01 X167.0654 Y266.1781
G01 X167.0254 Y266.1570
G01 X166.9844 Y266.1378
G01 X166.9426 Y266.1205
G01 X166.9001 Y266.1051
G01 X166.8569 Y266.0917
G01 X166.8131 Y266.0804
G01 X166.7688 Y266.0710
G01 X166.7242 Y266.0638
G01 X166.6793 Y266.0585
G01 X166.6341 Y266.0554
G01 X166.5889 Y266.0544
G01 X166.5437 Y266.0554
G01 X166.4986 Y266.0585
G01 X166.4536 Y266.0638
G01 X166.4090 Y266.0710
G01 X166.3647 Y266.0804
G01 X166.3209 Y266.0917
G01 X166.2777 Y266.1051
G01 X166.2352 Y266.1205
G01 X166.1934 Y266.1378
G01 X166.1524 Y266.1570
G01 X166.1124 Y266.1781
G01 X166.0734 Y266.2010
G01 X166.0355 Y266.2257
G01 X165.9988 Y266.2521
G01 X165.9634 Y266.2802
G01 X165.9292 Y266.3099
G01 X165.8965 Y266.3412
G01 X165.8653 Y266.3739
G01 X165.8356 Y266.4080
G01 X165.8075 Y266.4435
G01 X165.7811 Y266.4802
G01 X165.7564 Y266.5181
G01 X165.7335 Y266.5571
G01 X165.7124 Y266.5971
G01 X165.6932 Y266.6380
G01 X165.6758 Y266.6798
G01 X165.6605 Y266.7224
G01 X165.6471 Y266.7656
G01 X165.6357 Y266.8094
G01 X165.6264 Y266.8536
G01 X165.6191 Y266.8983
G01 X165.6139 Y266.9432
G01 X165.6108 Y266.9883
G01 X165.6097 Y267.0335
G01 X165.6108 Y267.0777
G01 X165.6141 Y267.1218
G01 X165.6195 Y267.1656
G01 X165.6270 Y267.2091
G01 X165.6367 Y267.2522
G01 X165.6485 Y267.2948
G01 X165.6623 Y267.3367
G01 X165.6782 Y267.3780
G01 X165.6961 Y267.4183
G01 X165.7160 Y267.4578
G01 X165.7378 Y267.4962
G01 X165.7614 Y267.5336
G01 X165.7868 Y267.5697
G01 X165.8140 Y267.6045
G01 X165.8429 Y267.6379
G01 X165.8733 Y267.6699
G01 X165.9053 Y267.7004
G01 X165.9388 Y267.7293
G01 X165.9736 Y267.7564
G01 X166.0097 Y267.7819
G01 X166.0470 Y267.8055
G01 X166.0855 Y267.8273
G01 X166.1249 Y267.8471
G01 X166.1653 Y267.8650
G01 X166.2065 Y267.8809
G01 X166.2485 Y267.8948
G01 X166.2910 Y267.9066
G01 X166.3341 Y267.9163
G01 X166.3777 Y267.9238
G01 X166.4215 Y267.9292
G01 X166.4656 Y267.9325
G01 X166.5097 Y267.9335
G01 X166.5539 Y267.9325
G01 X166.5979 Y267.9292
G01 X166.6418 Y267.9238
G01 X166.6853 Y267.9163
G01 X166.7284 Y267.9066
G01 X166.7710 Y267.8948
G01 X166.8129 Y267.8809
G01 X166.8541 Y267.8650
G01 X166.8945 Y267.8471
G01 X166.9340 Y267.8273
G01 X166.9724 Y267.8055
G01 X167.0097 Y267.7819
G01 X167.0458 Y267.7564
G01 X167.0807 Y267.7293
G01 X167.1141 Y267.7004
G01 X167.1461 Y267.6699
G01 X167.1766 Y267.6379
G01 X167.2054 Y267.6045
G01 X167.2326 Y267.5697
G01 X167.2580 Y267.5336
G01 X167.2817 Y267.4962
G01 X167.3034 Y267.4578
G01 X167.3233 Y267.4183
G01 X167.3412 Y267.3780
G01 X167.3571 Y267.3367
G01 X167.3710 Y267.2948
G01 X167.3827 Y267.2522
G01 X167.3924 Y267.2091
G01 X167.4000 Y267.1656
G01 X167.4054 Y267.1218
G01 X167.4086 Y267.0777
G01 X167.4097 Y267.0335
G01 X167.4087 Y266.9907 Z-2.0189 F400
G01 X167.4056 Y266.9480 Z-2.0379
G01 X167.4006 Y266.9055 Z-2.0568
G01 X167.3935 Y266.8632 Z-2.0758
G01 X167.3844 Y266.8214 Z-2.0947
G01 X167.3733 Y266.7800 Z-2.1136
G01 X167.3602 Y266.7392 Z-2.1326
G01 X167.3453 Y266.6990 Z-2.1515
G01 X167.3284 Y266.6597 Z-2.1705
G01 X167.3097 Y266.6211 Z-2.1894
G01 X167.2891 Y266.5835 Z-2.2083
G01 X167.2668 Y266.5470 Z-2.2273
G01 X167.2428 Y266.5115 Z-2.2462
G01 X167.2172 Y266.4772 Z-2.2652
G01 X167.1899 Y266.4442 Z-2.2841
G01 X167.1611 Y266.4125 Z-2.3030
G01 X167.1308 Y266.3822 Z-2.3220
G01 X167.0991 Y266.3534 Z-2.3409
G01 X167.0661 Y266.3261 Z-2.3598
G01 X167.0318 Y266.3004 Z-2.3788
G01 X166.9963 Y266.2764 Z-2.3977
G01 X166.9597 Y266.2541 Z-2.4167
G01 X166.9221 Y266.2336 Z-2.4356
G01 X166.8836 Y266.2149 Z-2.4545
G01 X166.8442 Y266.1980 Z-2.4735
G01 X166.8041 Y266.1830 Z-2.4924
G01 X166.7633 Y266.1700 Z-2.5114
G01 X166.7219 Y266.1589 Z-2.5303
G01 X166.6800 Y266.1498 Z-2.5492
G01 X166.6378 Y266.1427 Z-2.5682
G01 X166.5953 Y266.1376 Z-2.5871
G01 X166.5525 Y266.1346 Z-2.6061
G01 X166.5097 Y266.1335 Z-2.6250
G01 X166.4669 Y266.1346 Z-2.6439
G01 X166.4242 Y266.1376 Z-2.6629
G01 X166.3816 Y266.1427 Z-2.6818
G01 X166.3394 Y266.1498 Z-2.7008
G01 X166.2975 Y266.1589 Z-2.7197
G01 X166.2562 Y266.1700 Z-2.7386
G01 X166.2154 Y266.1830 Z-2.7576
G01 X166.1752 Y266.1980 Z-2.7765
G01 X166.1358 Y266.2149 Z-2.7955
G01 X166.0973 Y266.2336 Z-2.8144
G01 X166.0597 Y266.2541 Z-2.8333
G01 X166.0231 Y266.2764 Z-2.8523
G01 X165.9877 Y266.3004 Z-2.8712
G01 X165.9534 Y266.3261 Z-2.8902
G01 X165.9203 Y266.3534 Z-2.9091
G01 X165.8886 Y266.3822 Z-2.9280
G01 X165.8584 Y266.4125 Z-2.9470
G01 X165.8295 Y266.4442 Z-2.9659
G01 X165.8023 Y266.4772 Z-2.9848
G01 X165.7766 Y266.5115 Z-3.0038
G01 X165.7526 Y266.5470 Z-3.0227
G01 X165.7303 Y266.5835 Z-3.0417
G01 X165.7098 Y266.6211 Z-3.0606
G01 X165.6911 Y266.6597 Z-3.0795
G01 X165.6742 Y266.6990 Z-3.0985
G01 X165.6592 Y266.7392 Z-3.1174
G01 X165.6462 Y266.7800 Z-3.1364
G01 X165.6351 Y266.8214 Z-3.1553
G01 X165.6260 Y266.8632 Z-3.1742
G01 X165.6189 Y266.9055 Z-3.1932
G01 X165.6138 Y266.9480 Z-3.2121
G01 X165.6107 Y266.9907 Z-3.2311
G01 X165.6097 Y267.0335 Z-3.2500
G01 X165.6107 Y267.0764 Z-3.2689
G01 X165.6138 Y267.1191 Z-3.2879
G01 X165.6189 Y267.1616 Z-3.3068
G01 X165.6260 Y267.2039 Z-3.3258
G01 X165.6351 Y267.2457 Z-3.3447
G01 X165.6462 Y267.2871 Z-3.3636
G01 X165.6592 Y267.3279 Z-3.3826
G01 X165.6742 Y267.3680 Z-3.4015
G01 X165.6911 Y267.4074 Z-3.4205
G01 X165.7098 Y267.4459 Z-3.4394
G01 X165.7303 Y267.4835 Z-3.4583
G01 X165.7526 Y267.5201 Z-3.4773
G01 X165.7766 Y267.5556 Z-3.4962
G01 X165.8023 Y267.5899 Z-3.5152
G01 X165.8295 Y267.6229 Z-3.5341
G01 X165.8584 Y267.6546 Z-3.5530
G01 X165.8886 Y267.6849 Z-3.5720
G01 X165.9203 Y267.7137 Z-3.5909
G01 X165.9534 Y267.7410 Z-3.6098
G01 X165.9877 Y267.7667 Z-3.6288
G01 X166.0231 Y267.7907 Z-3.6477
G01 X166.0597 Y267.8130 Z-3.6667
G01 X166.0973 Y267.8335 Z-3.6856
G01 X166.1358 Y267.8522 Z-3.7045
G01 X166.1752 Y267.8691 Z-3.7235
G01 X166.2154 Y267.8840 Z-3.7424
G01 X166.2562 Y267.8971 Z-3.7614
G01 X166.2975 Y267.9082 Z-3.7803
G01 X166.3394 Y267.9173 Z-3.7992
G01 X166.3816 Y267.9244 Z-3.8182
G01 X166.4242 Y267.9295 Z-3.8371
G01 X166.4669 Y267.9325 Z-3.8561
G01 X166.5097 Y267.9335 Z-3.8750
G01 X166.5525 Y267.9325 Z-3.8939
G01 X166.5953 Y267.9295 Z-3.9129
G01 X166.6378 Y267.9244 Z-3.9318
G01 X166.6800 Y267.9173 Z-3.9508
G01 X166.7219 Y267.9082 Z-3.9697
G01 X166.7633 Y267.8971 Z-3.9886
G01 X166.8041 Y267.8840 Z-4.0076
G01 X166.8442 Y267.8691 Z-4.0265
G01 X166.8836 Y267.8522 Z-4.0455
G01 X166.9221 Y267.8335 Z-4.0644
G01 X166.9597 Y267.8130 Z-4.0833
G01 X166.9963 Y267.7907 Z-4.1023
G01 X167.0318 Y267.7667 Z-4.1212
G01 X167.0661 Y267.7410 Z-4.1402
G01 X167.0991 Y267.7137 Z-4.1591
G01 X167.1308 Y267.6849 Z-4.1780
G01 X167.1611 Y267.6546 Z-4.1970
G01 X167.1899 Y267.6229 Z-4.2159
G01 X167.2172 Y267.5899 Z-4.2348
G01 X167.2428 Y267.5556 Z-4.2538
G01 X167.2668 Y267.5201 Z-4.2727
G01 X167.2891 Y267.4835 Z-4.2917
G01 X167.3097 Y267.4459 Z-4.3106
G01 X167.3284 Y267.4074 Z-4.3295
G01 X167.3453 Y267.3680 Z-4.3485
G01 X167.3602 Y267.3279 Z-4.3674
G01 X167.3733 Y267.2871 Z-4.3864
G01 X167.3844 Y267.2457 Z-4.4053
G01 X167.3935 Y267.2039 Z-4.4242
G01 X167.4006 Y267.1616 Z-4.4432
G01 X167.4056 Y267.1191 Z-4.4621
G01 X167.4087 Y267.0764 Z-4.4811
G01 X167.4097 Y267.0335 Z-4.5000
G01 X167.4087 Y266.9907
G01 X167.4056 Y266.9480
G01 X167.4006 Y266.9055
G01 X167.3935 Y266.8632
G01 X167.3844 Y266.8214
G01 X167.3733 Y266.7800
G01 X167.3602 Y266.7392
G01 X167.3453 Y266.6990
G01 X167.3284 Y266.6597
G01 X167.3097 Y266.6211
G01 X167.2891 Y266.5835
G01 X167.2668 Y266.5470
G01 X167.2428 Y266.5115
G01 X167.2172 Y266.4772
G01 X167.1899 Y266.4442
G01 X167.1611 Y266.4125
G01 X167.1308 Y266.3822
G01 X167.0991 Y266.3534
G01 X167.0661 Y266.3261
G01 X167.0318 Y266.3004
G01 X166.9963 Y266.2764
G01 X166.9597 Y266.2541
G01 X166.9221 Y266.2336
G01 X166.8836 Y266.2149
G01 X166.8442 Y266.1980
G01 X166.8041 Y266.1830
G01 X166.7633 Y266.1700
G01 X166.7219 Y266.1589
G01 X166.6800 Y266.1498
G01 X166.6378 Y266.1427
G01 X166.5953 Y266.1376
G01 X166.5525 Y266.1346
G01 X166.5097 Y266.1335
G01 X166.4669 Y266.1346
G01 X166.4242 Y266.1376
G01 X166.3816 Y266.1427
G01 X166.3394 Y266.1498
G01 X166.2975 Y266.1589
G01 X166.2562 Y266.1700
G01 X166.2154 Y266.1830
G01 X166.1752 Y266.1980
G01 X166.1358 Y266.2149
G01 X166.0973 Y266.2336
G01 X166.0597 Y266.2541
G01 X166.0231 Y266.2764
G01 X165.9877 Y266.3004
G01 X165.9534 Y266.3261
G01 X165.9203 Y266.3534
G01 X165.8886 Y266.3822
G01 X165.8584 Y266.4125
G01 X165.8295 Y266.4442
G01 X165.8023 Y266.4772
G01 X165.7766 Y266.5115
G01 X165.7526 Y266.5470
G01 X165.7303 Y266.5835
G01 X165.7098 Y266.6211
G01 X165.6911 Y266.6597
G01 X165.6742 Y266.6990
G01 X165.6592 Y266.7392
G01 X165.6462 Y266.7800
G01 X165.6351 Y266.8214
G01 X165.6260 Y266.8632
G01 X165.6189 Y266.9055
G01 X165.6138 Y266.9480
G01 X165.6107 Y266.9907
G01 X165.6097 Y267.0335
G01 X165.6107 Y267.0764
G01 X165.6138 Y267.1191
G01 X165.6189 Y267.1616
G01 X165.6260 Y267.2039
G01 X165.6351 Y267.2457
G01 X165.6462 Y267.2871
G01 X165.6592 Y267.3279
G01 X165.6742 Y267.3680
G01 X165.6911 Y267.4074
G01 X165.7098 Y267.4459
G01 X165.7303 Y267.4835
G01 X165.7526 Y267.5201
G01 X165.7766 Y267.5556
G01 X165.8023 Y267.5899
G01 X165.8295 Y267.6229
G01 X165.8584 Y267.6546
G01 X165.8886 Y267.6849
G01 X165.9203 Y267.7137
G01 X165.9534 Y267.7410
G01 X165.9877 Y267.7667
G01 X166.0231 Y267.7907
G01 X166.0597 Y267.8130
G01 X166.0973 Y267.8335
G01 X166.1358 Y267.8522
G01 X166.1752 Y267.8691
G01 X166.2154 Y267.8840
G01 X166.2562 Y267.8971
G01 X166.2975 Y267.9082
G01 X166.3394 Y267.9173
G01 X166.3816 Y267.9244
G01 X166.4242 Y267.9295
G01 X166.4669 Y267.9325
G01 X166.5097 Y267.9335
G01 X166.5525 Y267.9325
G01 X166.5953 Y267.9295
G01 X166.6378 Y267.9244
G01 X166.6800 Y267.9173
G01 X166.7219 Y267.9082
G01 X166.7633 Y267.8971
G01 X166.8041 Y267.8840
G01 X166.8442 Y267.8691
G01 X166.8836 Y267.8522
G01 X166.9221 Y267.8335
G01 X166.9597 Y267.8130
G01 X166.9963 Y267.7907
G01 X167.0318 Y267.7667
G01 X167.0661 Y267.7410
G01 X167.0991 Y267.7137
G01 X167.1308 Y267.6849
G01 X167.1611 Y267.6546
G01 X167.1899 Y267.6229
G01 X167.2172 Y267.5899
G01 X167.2428 Y267.5556
G01 X167.2668 Y267.5201
G01 X167.2891 Y267.4835
G01 X167.3097 Y267.4459
G01 X167.3284 Y267.4074
G01 X167.3453 Y267.3680
G01 X167.3602 Y267.3279
G01 X167.3733 Y267.2871
G01 X167.3844 Y267.2457
G01 X167.3935 Y267.2039
G01 X167.4006 Y267.1616
G01 X167.4056 Y267.1191
G01 X167.4087 Y267.0764
G01 X167.4097 Y267.0335
G01 X167.4173 Y267.0025 F1000
G01 X167.4237 Y266.9712
G01 X167.4291 Y266.9397
G01 X167.4334 Y266.9080
G01 X167.4366 Y266.8762
G01 X167.4386 Y266.8443
G01 X167.4396 Y266.8124
G01 X167.4394 Y266.7804
G01 X167.4382 Y266.7485
G01 X167.4358 Y266.7167
G01 X167.4324 Y266.6849
G01 X167.4278 Y266.6533
G01 X167.4149 Y266.6039
G01 X167.3995 Y266.5553
G01 X167.3817 Y266.5075
G01 X167.3615 Y266.4606
G01 X167.3390 Y266.4149
G01 X167.3142 Y266.3703
G01 X167.2872 Y266.3270
G01 X167.2581 Y266.2852
G01 X167.2205 Y266.2493
G01 X167.1811 Y266.2154
G01 X167.1402 Y266.1835
G01 X167.0977 Y266.1535
G01 X167.0538 Y266.1258
G01 X167.0086 Y266.1001
G01 X166.9622 Y266.0768
G01 X166.9147 Y266.0557
G01 X166.8663 Y266.0370
G01 X166.8169 Y266.0207
G01 X166.7669 Y266.0069
G01 X166.7162 Y265.9955
G01 X166.6650 Y265.9866
G01 X166.6135 Y265.9803
G01 X166.5617 Y265.9765
G01 X166.5097 Y265.9752
G01 X166.4578 Y265.9765
G01 X166.4060 Y265.9803
G01 X166.3544 Y265.9866
G01 X166.3032 Y265.9955
G01 X166.2526 Y266.0069
G01 X166.2025 Y266.0207
G01 X166.1532 Y266.0370
G01 X166.1047 Y266.0557
G01 X166.0572 Y266.0768
G01 X166.0108 Y266.1001
G01 X165.9656 Y266.1258
G01 X165.9217 Y266.1535
G01 X165.8793 Y266.1835
G01 X165.8383 Y266.2154
G01 X165.7990 Y266.2493
G01 X165.7613 Y266.2852
G01 X165.7255 Y266.3228
G01 X165.6916 Y266.3621
G01 X165.6596 Y266.4031
G01 X165.6297 Y266.4455
G01 X165.6019 Y266.4894
G01 X165.5763 Y266.5346
G01 X165.5530 Y266.5810
G01 X165.5319 Y266.6285
