;Project TeslaParkingV4_2x_Silber
;Created by Estlcam version 11 build 11,236
;Machining time about 00:35:01 hours

G90
M03 S18000
G00 X0.0000 Y0.0000 Z0.0000
G00 Z2.0000


;No. 1: Helical drill 8
G00 X33.6103 Y40.5195
G00 Z0.5000
M106 S240
G01 X33.6093 Y40.4767 Z0.4877 F400 S18000
G01 X33.6062 Y40.4340 Z0.4754
G01 X33.6011 Y40.3915 Z0.4631
G01 X33.5940 Y40.3492 Z0.4508
G01 X33.5849 Y40.3074 Z0.4384
G01 X33.5738 Y40.2660 Z0.4261
G01 X33.5608 Y40.2252 Z0.4138
G01 X33.5458 Y40.1850 Z0.4015
G01 X33.5290 Y40.1457 Z0.3892
G01 X33.5102 Y40.1071 Z0.3769
G01 X33.4897 Y40.0695 Z0.3646
G01 X33.4674 Y40.0330 Z0.3523
G01 X33.4434 Y39.9975 Z0.3400
G01 X33.4177 Y39.9632 Z0.3277
G01 X33.3905 Y39.9302 Z0.3153
G01 X33.3616 Y39.8985 Z0.3030
G01 X33.3314 Y39.8682 Z0.2907
G01 X33.2997 Y39.8394 Z0.2784
G01 X33.2666 Y39.8121 Z0.2661
G01 X33.2323 Y39.7864 Z0.2538
G01 X33.1969 Y39.7624 Z0.2415
G01 X33.1603 Y39.7401 Z0.2292
G01 X33.1227 Y39.7196 Z0.2169
G01 X33.0842 Y39.7009 Z0.2045
G01 X33.0448 Y39.6840 Z0.1922
G01 X33.0046 Y39.6690 Z0.1799
G01 X32.9638 Y39.6560 Z0.1676
G01 X32.9225 Y39.6449 Z0.1553
G01 X32.8806 Y39.6358 Z0.1430
G01 X32.8384 Y39.6287 Z0.1307
G01 X32.7958 Y39.6236 Z0.1184
G01 X32.7531 Y39.6206 Z0.1061
G01 X32.7103 Y39.6195 Z0.0938
G01 X32.6675 Y39.6206 Z0.0814
G01 X32.6247 Y39.6236 Z0.0691
G01 X32.5822 Y39.6287 Z0.0568
G01 X32.5400 Y39.6358 Z0.0445
G01 X32.4981 Y39.6449 Z0.0322
G01 X32.4567 Y39.6560 Z0.0199
G01 X32.4159 Y39.6690 Z0.0076
G01 X32.3758 Y39.6840 Z-0.0047
G01 X32.3364 Y39.7009 Z-0.0170
G01 X32.2979 Y39.7196 Z-0.0294
G01 X32.2603 Y39.7401 Z-0.0417
G01 X32.2237 Y39.7624 Z-0.0540
G01 X32.1882 Y39.7864 Z-0.0663
G01 X32.1539 Y39.8121 Z-0.0786
G01 X32.1209 Y39.8394 Z-0.0909
G01 X32.0892 Y39.8682 Z-0.1032
G01 X32.0589 Y39.8985 Z-0.1155
G01 X32.0301 Y39.9302 Z-0.1278
G01 X32.0028 Y39.9632 Z-0.1402
G01 X31.9772 Y39.9975 Z-0.1525
G01 X31.9532 Y40.0330 Z-0.1648
G01 X31.9309 Y40.0695 Z-0.1771
G01 X31.9103 Y40.1071 Z-0.1894
G01 X31.8916 Y40.1457 Z-0.2017
G01 X31.8748 Y40.1850 Z-0.2140
G01 X31.8598 Y40.2252 Z-0.2263
G01 X31.8467 Y40.2660 Z-0.2386
G01 X31.8357 Y40.3074 Z-0.2509
G01 X31.8266 Y40.3492 Z-0.2633
G01 X31.8194 Y40.3915 Z-0.2756
G01 X31.8144 Y40.4340 Z-0.2879
G01 X31.8113 Y40.4767 Z-0.3002
G01 X31.8103 Y40.5195 Z-0.3125
G01 X31.8113 Y40.5624 Z-0.3248
G01 X31.8144 Y40.6051 Z-0.3371
G01 X31.8194 Y40.6476 Z-0.3494
G01 X31.8266 Y40.6899 Z-0.3617
G01 X31.8357 Y40.7317 Z-0.3741
G01 X31.8467 Y40.7731 Z-0.3864
G01 X31.8598 Y40.8139 Z-0.3987
G01 X31.8748 Y40.8540 Z-0.4110
G01 X31.8916 Y40.8934 Z-0.4233
G01 X31.9103 Y40.9319 Z-0.4356
G01 X31.9309 Y40.9695 Z-0.4479
G01 X31.9532 Y41.0061 Z-0.4602
G01 X31.9772 Y41.0416 Z-0.4725
G01 X32.0028 Y41.0759 Z-0.4848
G01 X32.0301 Y41.1089 Z-0.4972
G01 X32.0589 Y41.1406 Z-0.5095
G01 X32.0892 Y41.1709 Z-0.5218
G01 X32.1209 Y41.1997 Z-0.5341
G01 X32.1539 Y41.2270 Z-0.5464
G01 X32.1882 Y41.2527 Z-0.5587
G01 X32.2237 Y41.2767 Z-0.5710
G01 X32.2603 Y41.2990 Z-0.5833
G01 X32.2979 Y41.3195 Z-0.5956
G01 X32.3364 Y41.3382 Z-0.6080
G01 X32.3758 Y41.3551 Z-0.6203
G01 X32.4159 Y41.3700 Z-0.6326
G01 X32.4567 Y41.3831 Z-0.6449
G01 X32.4981 Y41.3942 Z-0.6572
G01 X32.5400 Y41.4033 Z-0.6695
G01 X32.5822 Y41.4104 Z-0.6818
G01 X32.6247 Y41.4155 Z-0.6941
G01 X32.6675 Y41.4185 Z-0.7064
G01 X32.7103 Y41.4195 Z-0.7188
G01 X32.7531 Y41.4185 Z-0.7311
G01 X32.7958 Y41.4155 Z-0.7434
G01 X32.8384 Y41.4104 Z-0.7557
G01 X32.8806 Y41.4033 Z-0.7680
G01 X32.9225 Y41.3942 Z-0.7803
G01 X32.9638 Y41.3831 Z-0.7926
G01 X33.0046 Y41.3700 Z-0.8049
G01 X33.0448 Y41.3551 Z-0.8172
G01 X33.0842 Y41.3382 Z-0.8295
G01 X33.1227 Y41.3195 Z-0.8419
G01 X33.1603 Y41.2990 Z-0.8542
G01 X33.1969 Y41.2767 Z-0.8665
G01 X33.2323 Y41.2527 Z-0.8788
G01 X33.2666 Y41.2270 Z-0.8911
G01 X33.2997 Y41.1997 Z-0.9034
G01 X33.3314 Y41.1709 Z-0.9157
G01 X33.3616 Y41.1406 Z-0.9280
G01 X33.3905 Y41.1089 Z-0.9403
G01 X33.4177 Y41.0759 Z-0.9527
G01 X33.4434 Y41.0416 Z-0.9650
G01 X33.4674 Y41.0061 Z-0.9773
G01 X33.4897 Y40.9695 Z-0.9896
G01 X33.5102 Y40.9319 Z-1.0019
G01 X33.5290 Y40.8934 Z-1.0142
G01 X33.5458 Y40.8540 Z-1.0265
G01 X33.5608 Y40.8139 Z-1.0388
G01 X33.5738 Y40.7731 Z-1.0511
G01 X33.5849 Y40.7317 Z-1.0634
G01 X33.5940 Y40.6899 Z-1.0758
G01 X33.6011 Y40.6476 Z-1.0881
G01 X33.6062 Y40.6051 Z-1.1004
G01 X33.6093 Y40.5624 Z-1.1127
G01 X33.6103 Y40.5195 Z-1.1250
G01 X33.6093 Y40.4767
G01 X33.6062 Y40.4340
G01 X33.6011 Y40.3915
G01 X33.5940 Y40.3492
G01 X33.5849 Y40.3074
G01 X33.5738 Y40.2660
G01 X33.5608 Y40.2252
G01 X33.5458 Y40.1850
G01 X33.5290 Y40.1457
G01 X33.5102 Y40.1071
G01 X33.4897 Y40.0695
G01 X33.4674 Y40.0330
G01 X33.4434 Y39.9975
G01 X33.4177 Y39.9632
G01 X33.3905 Y39.9302
G01 X33.3616 Y39.8985
G01 X33.3314 Y39.8682
G01 X33.2997 Y39.8394
G01 X33.2666 Y39.8121
G01 X33.2323 Y39.7864
G01 X33.1969 Y39.7624
G01 X33.1603 Y39.7401
G01 X33.1227 Y39.7196
G01 X33.0842 Y39.7009
G01 X33.0448 Y39.6840
G01 X33.0046 Y39.6690
G01 X32.9638 Y39.6560
G01 X32.9225 Y39.6449
G01 X32.8806 Y39.6358
G01 X32.8384 Y39.6287
G01 X32.7958 Y39.6236
G01 X32.7531 Y39.6206
G01 X32.7103 Y39.6195
G01 X32.6675 Y39.6206
G01 X32.6247 Y39.6236
G01 X32.5822 Y39.6287
G01 X32.5400 Y39.6358
G01 X32.4981 Y39.6449
G01 X32.4567 Y39.6560
G01 X32.4159 Y39.6690
G01 X32.3758 Y39.6840
G01 X32.3364 Y39.7009
G01 X32.2979 Y39.7196
G01 X32.2603 Y39.7401
G01 X32.2237 Y39.7624
G01 X32.1882 Y39.7864
G01 X32.1539 Y39.8121
G01 X32.1209 Y39.8394
G01 X32.0892 Y39.8682
G01 X32.0589 Y39.8985
G01 X32.0301 Y39.9302
G01 X32.0028 Y39.9632
G01 X31.9772 Y39.9975
G01 X31.9532 Y40.0330
G01 X31.9309 Y40.0695
G01 X31.9103 Y40.1071
G01 X31.8916 Y40.1457
G01 X31.8748 Y40.1850
G01 X31.8598 Y40.2252
G01 X31.8467 Y40.2660
G01 X31.8357 Y40.3074
G01 X31.8266 Y40.3492
G01 X31.8194 Y40.3915
G01 X31.8144 Y40.4340
G01 X31.8113 Y40.4767
G01 X31.8103 Y40.5195
G01 X31.8113 Y40.5624
G01 X31.8144 Y40.6051
G01 X31.8194 Y40.6476
G01 X31.8266 Y40.6899
G01 X31.8357 Y40.7317
G01 X31.8467 Y40.7731
G01 X31.8598 Y40.8139
G01 X31.8748 Y40.8540
G01 X31.8916 Y40.8934
G01 X31.9103 Y40.9319
G01 X31.9309 Y40.9695
G01 X31.9532 Y41.0061
G01 X31.9772 Y41.0416
G01 X32.0028 Y41.0759
G01 X32.0301 Y41.1089
G01 X32.0589 Y41.1406
G01 X32.0892 Y41.1709
G01 X32.1209 Y41.1997
G01 X32.1539 Y41.2270
G01 X32.1882 Y41.2527
G01 X32.2237 Y41.2767
G01 X32.2603 Y41.2990
G01 X32.2979 Y41.3195
G01 X32.3364 Y41.3382
G01 X32.3758 Y41.3551
G01 X32.4159 Y41.3700
G01 X32.4567 Y41.3831
G01 X32.4981 Y41.3942
G01 X32.5400 Y41.4033
G01 X32.5822 Y41.4104
G01 X32.6247 Y41.4155
G01 X32.6675 Y41.4185
G01 X32.7103 Y41.4195
G01 X32.7531 Y41.4185
G01 X32.7958 Y41.4155
G01 X32.8384 Y41.4104
G01 X32.8806 Y41.4033
G01 X32.9225 Y41.3942
G01 X32.9638 Y41.3831
G01 X33.0046 Y41.3700
G01 X33.0448 Y41.3551
G01 X33.0842 Y41.3382
G01 X33.1227 Y41.3195
G01 X33.1603 Y41.2990
G01 X33.1969 Y41.2767
G01 X33.2323 Y41.2527
G01 X33.2666 Y41.2270
G01 X33.2997 Y41.1997
G01 X33.3314 Y41.1709
G01 X33.3616 Y41.1406
G01 X33.3905 Y41.1089
G01 X33.4177 Y41.0759
G01 X33.4434 Y41.0416
G01 X33.4674 Y41.0061
G01 X33.4897 Y40.9695
G01 X33.5102 Y40.9319
G01 X33.5290 Y40.8934
G01 X33.5458 Y40.8540
G01 X33.5608 Y40.8139
G01 X33.5738 Y40.7731
G01 X33.5849 Y40.7317
G01 X33.5940 Y40.6899
G01 X33.6011 Y40.6476
G01 X33.6062 Y40.6051
G01 X33.6093 Y40.5624
G01 X33.6103 Y40.5195
G01 X33.6178 Y40.4885 F1000
G01 X33.6243 Y40.4572
G01 X33.6297 Y40.4257
G01 X33.6339 Y40.3940
G01 X33.6371 Y40.3622
G01 X33.6392 Y40.3303
G01 X33.6402 Y40.2984
G01 X33.6400 Y40.2664
G01 X33.6388 Y40.2345
G01 X33.6364 Y40.2026
G01 X33.6330 Y40.1709
G01 X33.6284 Y40.1392
G01 X33.6187 Y40.0877
G01 X33.6064 Y40.0368
G01 X33.5914 Y39.9866
G01 X33.5739 Y39.9372
G01 X33.5539 Y39.8888
G01 X33.5314 Y39.8414
G01 X33.5065 Y39.7953
G01 X33.4793 Y39.7506
G01 X33.4472 Y39.7035
G01 X33.4129 Y39.6582
G01 X33.3762 Y39.6147
G01 X33.3373 Y39.5731
G01 X33.2964 Y39.5336
G01 X33.2536 Y39.4962
G01 X33.2088 Y39.4610
G01 X33.1623 Y39.4282
G01 X33.1104 Y39.3954
G01 X33.0569 Y39.3652
G01 X33.0020 Y39.3379
G01 X32.9457 Y39.3133
G01 X32.8882 Y39.2916
G01 X32.8297 Y39.2729
G01 X32.7704 Y39.2572
G01 X32.7103 Y39.2445
G01 X32.6452 Y39.2342
G01 X32.5796 Y39.2272
G01 X32.5138 Y39.2235
G01 X32.4479 Y39.2231
G01 X32.3820 Y39.2261
G01 X32.3164 Y39.2324
G01 X32.2511 Y39.2421
G01 X32.1865 Y39.2550
G01 X32.1182 Y39.2722
G01 X32.0508 Y39.2929
G01 X31.9846 Y39.3170
G01 X31.9197 Y39.3444
G01 X31.8562 Y39.3750
G01 X31.7943 Y39.4087
G01 X31.7343 Y39.4456
G01 X31.6761 Y39.4854
G01 X31.6226 Y39.5348
G01 X31.5716 Y39.5868
G01 X31.5232 Y39.6413
G01 X31.4776 Y39.6981
G01 X31.4348 Y39.7570
G01 X31.3949 Y39.8180
G01 X31.3581 Y39.8809
G01 X31.3245 Y39.9455
G01 X31.2980 Y40.0142
G01 X31.2749 Y40.0841
G01 X31.2553 Y40.1551
G01 X31.2391 Y40.2269
G01 X31.2265 Y40.2994
G01 X31.2175 Y40.3725
G01 X31.2121 Y40.4459
G01 X31.2103 Y40.5195
G01 X31.2121 Y40.5931
G01 X31.2175 Y40.6666
G01 X31.2265 Y40.7396
G01 X31.2391 Y40.8122
G01 X31.2553 Y40.8840
G01 X31.2749 Y40.9550
G01 X31.2980 Y41.0249
G01 X31.3245 Y41.0936
G01 X31.3543 Y41.1609
G01 X31.3874 Y41.2266
G01 X31.4237 Y41.2907
G01 X31.4631 Y41.3529
G01 X31.5055 Y41.4131
G01 X31.5508 Y41.4711
G01 X31.5989 Y41.5269
G01 X31.6496 Y41.5802
G01 X31.7030 Y41.6309
G01 X31.7587 Y41.6790
G01 X31.8168 Y41.7243
G01 X31.8769 Y41.7667
G01 X31.9391 Y41.8061
G01 X32.0032 Y41.8424
G01 X32.0690 Y41.8755
G01 X32.1363 Y41.9053
G01 X32.2050 Y41.9318
G01 X32.2749 Y41.9549
G01 X32.3458 Y41.9746
G01 X32.4177 Y41.9907
G01 X32.4902 Y42.0033
G01 X32.5633 Y42.0123
G01 X32.6367 Y42.0177
G01 X32.7103 Y42.0195
G01 X32.7839 Y42.0177
G01 X32.8573 Y42.0123
G01 X32.9304 Y42.0033
G01 X33.0029 Y41.9907
G01 X33.0748 Y41.9746
G01 X33.1457 Y41.9549
G01 X33.2156 Y41.9318
G01 X33.2843 Y41.9053
G01 X33.3516 Y41.8755
G01 X33.4174 Y41.8424
G01 X33.4814 Y41.8061
G01 X33.5436 Y41.7667
G01 X33.6038 Y41.7243
G01 X33.6619 Y41.6790
G01 X33.7176 Y41.6309
G01 X33.7709 Y41.5802
G01 X33.8217 Y41.5269
G01 X33.8698 Y41.4711
G01 X33.9151 Y41.4131
G01 X33.9575 Y41.3529
G01 X33.9969 Y41.2907
G01 X34.0331 Y41.2266
G01 X34.0662 Y41.1609
G01 X34.0961 Y41.0936
G01 X34.1226 Y41.0249
G01 X34.1457 Y40.9550
G01 X34.1653 Y40.8840
G01 X34.1814 Y40.8122
G01 X34.1940 Y40.7396
G01 X34.2030 Y40.6666
G01 X34.2085 Y40.5931
G01 X34.2103 Y40.5195
G01 X34.2061 Y40.4074
G01 X34.1935 Y40.2960
G01 X34.1727 Y40.1858
G01 X34.1436 Y40.0774
G01 X34.1066 Y39.9715
G01 X34.0617 Y39.8687
G01 X34.0093 Y39.7696
G01 X33.9496 Y39.6746
G01 X33.8830 Y39.5843
G01 X33.8098 Y39.4993
G01 X33.7305 Y39.4200
G01 X33.6455 Y39.3468
G01 X33.5553 Y39.2802
G01 X33.4603 Y39.2205
G01 X33.3611 Y39.1681
G01 X33.2583 Y39.1233
G01 X33.1524 Y39.0862
G01 X33.0441 Y39.0572
G01 X32.9338 Y39.0363
G01 X32.8224 Y39.0238
G01 X32.7103 Y39.0196
G01 X32.5982 Y39.0238
G01 X32.4867 Y39.0363
G01 X32.3765 Y39.0572
G01 X32.2682 Y39.0862
G01 X32.1623 Y39.1233
G01 X32.0595 Y39.1681
G01 X31.9603 Y39.2205
G01 X31.8653 Y39.2802
G01 X31.7751 Y39.3468
G01 X31.6900 Y39.4200
G01 X31.6107 Y39.4993
G01 X31.5376 Y39.5843
G01 X31.4709 Y39.6746
G01 X31.4113 Y39.7696
G01 X31.3589 Y39.8687
G01 X31.3140 Y39.9715
G01 X31.2770 Y40.0774
G01 X31.2479 Y40.1858
G01 X31.2271 Y40.2960
G01 X31.2145 Y40.4074
G01 X31.2103 Y40.5195
G01 X31.2145 Y40.6316
G01 X31.2271 Y40.7431
G01 X31.2479 Y40.8533
G01 X31.2770 Y40.9617
G01 X31.3140 Y41.0675
G01 X31.3589 Y41.1704
G01 X31.4113 Y41.2695
G01 X31.4709 Y41.3645
G01 X31.5376 Y41.4548
G01 X31.6107 Y41.5398
G01 X31.6900 Y41.6191
G01 X31.7751 Y41.6923
G01 X31.8653 Y41.7589
G01 X31.9603 Y41.8186
G01 X32.0595 Y41.8710
G01 X32.1623 Y41.9158
G01 X32.2682 Y41.9529
G01 X32.3765 Y41.9819
G01 X32.4867 Y42.0028
G01 X32.5982 Y42.0153
G01 X32.7103 Y42.0195
G01 X32.8224 Y42.0153
G01 X32.9338 Y42.0028
G01 X33.0441 Y41.9819
G01 X33.1524 Y41.9529
G01 X33.2583 Y41.9158
G01 X33.3611 Y41.8710
G01 X33.4603 Y41.8186
G01 X33.5553 Y41.7589
G01 X33.6455 Y41.6923
G01 X33.7305 Y41.6191
G01 X33.8098 Y41.5398
G01 X33.8830 Y41.4548
G01 X33.9496 Y41.3645
G01 X34.0093 Y41.2695
G01 X34.0617 Y41.1704
G01 X34.1066 Y41.0675
G01 X34.1436 Y40.9617
G01 X34.1727 Y40.8533
G01 X34.1935 Y40.7431
G01 X34.2061 Y40.6316
G01 X34.2103 Y40.5195
G01 X34.2057 Y40.4150
G01 X34.1920 Y40.3112
G01 X34.1694 Y40.2090
G01 X34.1379 Y40.1091
G01 X34.0978 Y40.0124
G01 X34.0495 Y39.9195
G01 X33.9932 Y39.8313
G01 X33.9295 Y39.7482
G01 X33.8588 Y39.6710
G01 X33.7816 Y39.6003
G01 X33.6986 Y39.5366
G01 X33.6103 Y39.4803
G01 X33.5174 Y39.4320
G01 X33.4207 Y39.3919
G01 X33.3209 Y39.3604
G01 X33.2187 Y39.3378
G01 X33.1149 Y39.3241
G01 X33.0103 Y39.3196
G01 X32.9057 Y39.3241
G01 X32.8019 Y39.3378
G01 X32.6997 Y39.3604
G01 X32.5999 Y39.3919
G01 X32.5031 Y39.4320
G01 X32.4103 Y39.4803
G01 X32.3220 Y39.5366
G01 X32.2389 Y39.6003
G01 X32.1618 Y39.6710
G01 X32.0910 Y39.7482
G01 X32.0273 Y39.8313
G01 X31.9711 Y39.9195
G01 X31.9227 Y40.0124
G01 X31.8827 Y40.1091
G01 X31.8512 Y40.2090
G01 X31.8285 Y40.3112
G01 X31.8149 Y40.4150
G01 X31.8103 Y40.5195
G01 X31.8114 Y40.5637
G01 X31.8146 Y40.6078
G01 X31.8200 Y40.6516
G01 X31.8276 Y40.6951
G01 X31.8373 Y40.7382
G01 X31.8490 Y40.7808
G01 X31.8629 Y40.8227
G01 X31.8788 Y40.8640
G01 X31.8967 Y40.9043
G01 X31.9166 Y40.9438
G01 X31.9383 Y40.9822
G01 X31.9620 Y41.0196
G01 X31.9874 Y41.0557
G01 X32.0146 Y41.0905
G01 X32.0434 Y41.1239
G01 X32.0739 Y41.1559
G01 X32.1059 Y41.1864
G01 X32.1393 Y41.2152
G01 X32.1742 Y41.2424
G01 X32.2103 Y41.2679
G01 X32.2476 Y41.2915
G01 X32.2860 Y41.3133
G01 X32.3255 Y41.3331
G01 X32.3659 Y41.3510
G01 X32.4071 Y41.3669
G01 X32.4490 Y41.3808
G01 X32.4916 Y41.3926
G01 X32.5347 Y41.4022
G01 X32.5782 Y41.4098
G01 X32.6221 Y41.4152
G01 X32.6661 Y41.4185
G01 X32.7103 Y41.4195
G01 X32.7544 Y41.4185
G01 X32.7985 Y41.4152
G01 X32.8423 Y41.4098
G01 X32.8859 Y41.4022
G01 X32.9290 Y41.3926
G01 X32.9715 Y41.3808
G01 X33.0135 Y41.3669
G01 X33.0547 Y41.3510
G01 X33.0951 Y41.3331
G01 X33.1345 Y41.3133
G01 X33.1730 Y41.2915
G01 X33.2103 Y41.2679
G01 X33.2464 Y41.2424
G01 X33.2812 Y41.2152
G01 X33.3147 Y41.1864
G01 X33.3467 Y41.1559
G01 X33.3771 Y41.1239
G01 X33.4060 Y41.0905
G01 X33.4332 Y41.0557
G01 X33.4586 Y41.0196
G01 X33.4822 Y40.9822
G01 X33.5040 Y40.9438
G01 X33.5239 Y40.9043
G01 X33.5418 Y40.8640
G01 X33.5577 Y40.8227
G01 X33.5715 Y40.7808
G01 X33.5833 Y40.7382
G01 X33.5930 Y40.6951
G01 X33.6005 Y40.6516
G01 X33.6060 Y40.6078
G01 X33.6092 Y40.5637
G01 X33.6103 Y40.5195
M107
M106 S240
G01 X33.6093 Y40.4767 Z-1.1373 F400
G01 X33.6062 Y40.4340 Z-1.1496
G01 X33.6011 Y40.3915 Z-1.1619
G01 X33.5940 Y40.3492 Z-1.1742
G01 X33.5849 Y40.3074 Z-1.1866
G01 X33.5738 Y40.2660 Z-1.1989
G01 X33.5608 Y40.2252 Z-1.2112
G01 X33.5458 Y40.1850 Z-1.2235
G01 X33.5290 Y40.1457 Z-1.2358
G01 X33.5102 Y40.1071 Z-1.2481
G01 X33.4897 Y40.0695 Z-1.2604
G01 X33.4674 Y40.0330 Z-1.2727
G01 X33.4434 Y39.9975 Z-1.2850
G01 X33.4177 Y39.9632 Z-1.2973
G01 X33.3905 Y39.9302 Z-1.3097
G01 X33.3616 Y39.8985 Z-1.3220
G01 X33.3314 Y39.8682 Z-1.3343
G01 X33.2997 Y39.8394 Z-1.3466
G01 X33.2666 Y39.8121 Z-1.3589
G01 X33.2323 Y39.7864 Z-1.3712
G01 X33.1969 Y39.7624 Z-1.3835
G01 X33.1603 Y39.7401 Z-1.3958
G01 X33.1227 Y39.7196 Z-1.4081
G01 X33.0842 Y39.7009 Z-1.4205
G01 X33.0448 Y39.6840 Z-1.4328
G01 X33.0046 Y39.6690 Z-1.4451
G01 X32.9638 Y39.6560 Z-1.4574
G01 X32.9225 Y39.6449 Z-1.4697
G01 X32.8806 Y39.6358 Z-1.4820
G01 X32.8384 Y39.6287 Z-1.4943
G01 X32.7958 Y39.6236 Z-1.5066
G01 X32.7531 Y39.6206 Z-1.5189
G01 X32.7103 Y39.6195 Z-1.5313
G01 X32.6675 Y39.6206 Z-1.5436
G01 X32.6247 Y39.6236 Z-1.5559
G01 X32.5822 Y39.6287 Z-1.5682
G01 X32.5400 Y39.6358 Z-1.5805
G01 X32.4981 Y39.6449 Z-1.5928
G01 X32.4567 Y39.6560 Z-1.6051
G01 X32.4159 Y39.6690 Z-1.6174
G01 X32.3758 Y39.6840 Z-1.6297
G01 X32.3364 Y39.7009 Z-1.6420
G01 X32.2979 Y39.7196 Z-1.6544
G01 X32.2603 Y39.7401 Z-1.6667
G01 X32.2237 Y39.7624 Z-1.6790
G01 X32.1882 Y39.7864 Z-1.6913
G01 X32.1539 Y39.8121 Z-1.7036
G01 X32.1209 Y39.8394 Z-1.7159
G01 X32.0892 Y39.8682 Z-1.7282
G01 X32.0589 Y39.8985 Z-1.7405
G01 X32.0301 Y39.9302 Z-1.7528
G01 X32.0028 Y39.9632 Z-1.7652
G01 X31.9772 Y39.9975 Z-1.7775
G01 X31.9532 Y40.0330 Z-1.7898
G01 X31.9309 Y40.0695 Z-1.8021
G01 X31.9103 Y40.1071 Z-1.8144
G01 X31.8916 Y40.1457 Z-1.8267
G01 X31.8748 Y40.1850 Z-1.8390
G01 X31.8598 Y40.2252 Z-1.8513
G01 X31.8467 Y40.2660 Z-1.8636
G01 X31.8357 Y40.3074 Z-1.8759
G01 X31.8266 Y40.3492 Z-1.8883
G01 X31.8194 Y40.3915 Z-1.9006
G01 X31.8144 Y40.4340 Z-1.9129
G01 X31.8113 Y40.4767 Z-1.9252
G01 X31.8103 Y40.5195 Z-1.9375
G01 X31.8113 Y40.5624 Z-1.9498
G01 X31.8144 Y40.6051 Z-1.9621
G01 X31.8194 Y40.6476 Z-1.9744
G01 X31.8266 Y40.6899 Z-1.9867
G01 X31.8357 Y40.7317 Z-1.9991
G01 X31.8467 Y40.7731 Z-2.0114
G01 X31.8598 Y40.8139 Z-2.0237
G01 X31.8748 Y40.8540 Z-2.0360
G01 X31.8916 Y40.8934 Z-2.0483
G01 X31.9103 Y40.9319 Z-2.0606
G01 X31.9309 Y40.9695 Z-2.0729
G01 X31.9532 Y41.0061 Z-2.0852
G01 X31.9772 Y41.0416 Z-2.0975
G01 X32.0028 Y41.0759 Z-2.1098
G01 X32.0301 Y41.1089 Z-2.1222
G01 X32.0589 Y41.1406 Z-2.1345
G01 X32.0892 Y41.1709 Z-2.1468
G01 X32.1209 Y41.1997 Z-2.1591
G01 X32.1539 Y41.2270 Z-2.1714
G01 X32.1882 Y41.2527 Z-2.1837
G01 X32.2237 Y41.2767 Z-2.1960
G01 X32.2603 Y41.2990 Z-2.2083
G01 X32.2979 Y41.3195 Z-2.2206
G01 X32.3364 Y41.3382 Z-2.2330
G01 X32.3758 Y41.3551 Z-2.2453
G01 X32.4159 Y41.3700 Z-2.2576
G01 X32.4567 Y41.3831 Z-2.2699
G01 X32.4981 Y41.3942 Z-2.2822
G01 X32.5400 Y41.4033 Z-2.2945
G01 X32.5822 Y41.4104 Z-2.3068
G01 X32.6247 Y41.4155 Z-2.3191
G01 X32.6675 Y41.4185 Z-2.3314
G01 X32.7103 Y41.4195 Z-2.3438
G01 X32.7531 Y41.4185 Z-2.3561
G01 X32.7958 Y41.4155 Z-2.3684
G01 X32.8384 Y41.4104 Z-2.3807
G01 X32.8806 Y41.4033 Z-2.3930
G01 X32.9225 Y41.3942 Z-2.4053
G01 X32.9638 Y41.3831 Z-2.4176
G01 X33.0046 Y41.3700 Z-2.4299
G01 X33.0448 Y41.3551 Z-2.4422
G01 X33.0842 Y41.3382 Z-2.4545
G01 X33.1227 Y41.3195 Z-2.4669
G01 X33.1603 Y41.2990 Z-2.4792
G01 X33.1969 Y41.2767 Z-2.4915
G01 X33.2323 Y41.2527 Z-2.5038
G01 X33.2666 Y41.2270 Z-2.5161
G01 X33.2997 Y41.1997 Z-2.5284
G01 X33.3314 Y41.1709 Z-2.5407
G01 X33.3616 Y41.1406 Z-2.5530
G01 X33.3905 Y41.1089 Z-2.5653
G01 X33.4177 Y41.0759 Z-2.5777
G01 X33.4434 Y41.0416 Z-2.5900
G01 X33.4674 Y41.0061 Z-2.6023
G01 X33.4897 Y40.9695 Z-2.6146
G01 X33.5102 Y40.9319 Z-2.6269
G01 X33.5290 Y40.8934 Z-2.6392
G01 X33.5458 Y40.8540 Z-2.6515
G01 X33.5608 Y40.8139 Z-2.6638
G01 X33.5738 Y40.7731 Z-2.6761
G01 X33.5849 Y40.7317 Z-2.6884
G01 X33.5940 Y40.6899 Z-2.7008
G01 X33.6011 Y40.6476 Z-2.7131
G01 X33.6062 Y40.6051 Z-2.7254
G01 X33.6093 Y40.5624 Z-2.7377
G01 X33.6103 Y40.5195 Z-2.7500
G01 X33.6093 Y40.4767
G01 X33.6062 Y40.4340
G01 X33.6011 Y40.3915
G01 X33.5940 Y40.3492
G01 X33.5849 Y40.3074
G01 X33.5738 Y40.2660
G01 X33.5608 Y40.2252
G01 X33.5458 Y40.1850
G01 X33.5290 Y40.1457
G01 X33.5102 Y40.1071
G01 X33.4897 Y40.0695
G01 X33.4674 Y40.0330
G01 X33.4434 Y39.9975
G01 X33.4177 Y39.9632
G01 X33.3905 Y39.9302
G01 X33.3616 Y39.8985
G01 X33.3314 Y39.8682
G01 X33.2997 Y39.8394
G01 X33.2666 Y39.8121
G01 X33.2323 Y39.7864
G01 X33.1969 Y39.7624
G01 X33.1603 Y39.7401
G01 X33.1227 Y39.7196
G01 X33.0842 Y39.7009
G01 X33.0448 Y39.6840
G01 X33.0046 Y39.6690
G01 X32.9638 Y39.6560
G01 X32.9225 Y39.6449
G01 X32.8806 Y39.6358
G01 X32.8384 Y39.6287
G01 X32.7958 Y39.6236
G01 X32.7531 Y39.6206
G01 X32.7103 Y39.6195
G01 X32.6675 Y39.6206
G01 X32.6247 Y39.6236
G01 X32.5822 Y39.6287
G01 X32.5400 Y39.6358
G01 X32.4981 Y39.6449
G01 X32.4567 Y39.6560
G01 X32.4159 Y39.6690
G01 X32.3758 Y39.6840
G01 X32.3364 Y39.7009
G01 X32.2979 Y39.7196
G01 X32.2603 Y39.7401
G01 X32.2237 Y39.7624
G01 X32.1882 Y39.7864
G01 X32.1539 Y39.8121
G01 X32.1209 Y39.8394
G01 X32.0892 Y39.8682
G01 X32.0589 Y39.8985
G01 X32.0301 Y39.9302
G01 X32.0028 Y39.9632
G01 X31.9772 Y39.9975
G01 X31.9532 Y40.0330
G01 X31.9309 Y40.0695
G01 X31.9103 Y40.1071
G01 X31.8916 Y40.1457
G01 X31.8748 Y40.1850
G01 X31.8598 Y40.2252
G01 X31.8467 Y40.2660
G01 X31.8357 Y40.3074
G01 X31.8266 Y40.3492
G01 X31.8194 Y40.3915
G01 X31.8144 Y40.4340
G01 X31.8113 Y40.4767
G01 X31.8103 Y40.5195
G01 X31.8113 Y40.5624
G01 X31.8144 Y40.6051
G01 X31.8194 Y40.6476
G01 X31.8266 Y40.6899
G01 X31.8357 Y40.7317
G01 X31.8467 Y40.7731
G01 X31.8598 Y40.8139
G01 X31.8748 Y40.8540
G01 X31.8916 Y40.8934
G01 X31.9103 Y40.9319
G01 X31.9309 Y40.9695
G01 X31.9532 Y41.0061
G01 X31.9772 Y41.0416
G01 X32.0028 Y41.0759
G01 X32.0301 Y41.1089
G01 X32.0589 Y41.1406
G01 X32.0892 Y41.1709
G01 X32.1209 Y41.1997
G01 X32.1539 Y41.2270
G01 X32.1882 Y41.2527
G01 X32.2237 Y41.2767
G01 X32.2603 Y41.2990
G01 X32.2979 Y41.3195
G01 X32.3364 Y41.3382
G01 X32.3758 Y41.3551
G01 X32.4159 Y41.3700
G01 X32.4567 Y41.3831
G01 X32.4981 Y41.3942
G01 X32.5400 Y41.4033
G01 X32.5822 Y41.4104
G01 X32.6247 Y41.4155
G01 X32.6675 Y41.4185
G01 X32.7103 Y41.4195
G01 X32.7531 Y41.4185
G01 X32.7958 Y41.4155
G01 X32.8384 Y41.4104
G01 X32.8806 Y41.4033
G01 X32.9225 Y41.3942
G01 X32.9638 Y41.3831
G01 X33.0046 Y41.3700
G01 X33.0448 Y41.3551
G01 X33.0842 Y41.3382
G01 X33.1227 Y41.3195
G01 X33.1603 Y41.2990
G01 X33.1969 Y41.2767
G01 X33.2323 Y41.2527
G01 X33.2666 Y41.2270
G01 X33.2997 Y41.1997
G01 X33.3314 Y41.1709
G01 X33.3616 Y41.1406
G01 X33.3905 Y41.1089
G01 X33.4177 Y41.0759
G01 X33.4434 Y41.0416
G01 X33.4674 Y41.0061
G01 X33.4897 Y40.9695
G01 X33.5102 Y40.9319
G01 X33.5290 Y40.8934
G01 X33.5458 Y40.8540
G01 X33.5608 Y40.8139
G01 X33.5738 Y40.7731
G01 X33.5849 Y40.7317
G01 X33.5940 Y40.6899
G01 X33.6011 Y40.6476
G01 X33.6062 Y40.6051
G01 X33.6093 Y40.5624
G01 X33.6103 Y40.5195
G01 X33.6178 Y40.4885 F1000
G01 X33.6243 Y40.4572
G01 X33.6297 Y40.4257
G01 X33.6339 Y40.3940
G01 X33.6371 Y40.3622
G01 X33.6392 Y40.3303
G01 X33.6402 Y40.2984
G01 X33.6400 Y40.2664
G01 X33.6388 Y40.2345
G01 X33.6364 Y40.2026
G01 X33.6330 Y40.1709
G01 X33.6284 Y40.1392
G01 X33.6187 Y40.0877
G01 X33.6064 Y40.0368
G01 X33.5914 Y39.9866
G01 X33.5739 Y39.9372
G01 X33.5539 Y39.8888
G01 X33.5314 Y39.8414
G01 X33.5065 Y39.7953
G01 X33.4793 Y39.7506
G01 X33.4472 Y39.7035
G01 X33.4129 Y39.6582
G01 X33.3762 Y39.6147
G01 X33.3373 Y39.5731
G01 X33.2964 Y39.5336
G01 X33.2536 Y39.4962
G01 X33.2088 Y39.4610
G01 X33.1623 Y39.4282
G01 X33.1104 Y39.3954
G01 X33.0569 Y39.3652
G01 X33.0020 Y39.3379
G01 X32.9457 Y39.3133
G01 X32.8882 Y39.2916
G01 X32.8297 Y39.2729
G01 X32.7704 Y39.2572
G01 X32.7103 Y39.2445
G01 X32.6452 Y39.2342
G01 X32.5796 Y39.2272
G01 X32.5138 Y39.2235
G01 X32.4479 Y39.2231
G01 X32.3820 Y39.2261
G01 X32.3164 Y39.2324
G01 X32.2511 Y39.2421
G01 X32.1865 Y39.2550
G01 X32.1182 Y39.2722
G01 X32.0508 Y39.2929
G01 X31.9846 Y39.3170
G01 X31.9197 Y39.3444
G01 X31.8562 Y39.3750
G01 X31.7943 Y39.4087
G01 X31.7343 Y39.4456
G01 X31.6761 Y39.4854
G01 X31.6226 Y39.5348
G01 X31.5716 Y39.5868
G01 X31.5232 Y39.6413
G01 X31.4776 Y39.6981
G01 X31.4348 Y39.7570
G01 X31.3949 Y39.8180
G01 X31.3581 Y39.8809
G01 X31.3245 Y39.9455
G01 X31.2980 Y40.0142
G01 X31.2749 Y40.0841
G01 X31.2553 Y40.1551
G01 X31.2391 Y40.2269
G01 X31.2265 Y40.2994
G01 X31.2175 Y40.3725
G01 X31.2121 Y40.4459
G01 X31.2103 Y40.5195
G01 X31.2121 Y40.5931
G01 X31.2175 Y40.6666
G01 X31.2265 Y40.7396
G01 X31.2391 Y40.8122
G01 X31.2553 Y40.8840
G01 X31.2749 Y40.9550
G01 X31.2980 Y41.0249
G01 X31.3245 Y41.0936
G01 X31.3543 Y41.1609
G01 X31.3874 Y41.2266
G01 X31.4237 Y41.2907
G01 X31.4631 Y41.3529
G01 X31.5055 Y41.4131
G01 X31.5508 Y41.4711
G01 X31.5989 Y41.5269
G01 X31.6496 Y41.5802
G01 X31.7030 Y41.6309
G01 X31.7587 Y41.6790
G01 X31.8168 Y41.7243
G01 X31.8769 Y41.7667
G01 X31.9391 Y41.8061
G01 X32.0032 Y41.8424
G01 X32.0690 Y41.8755
G01 X32.1363 Y41.9053
G01 X32.2050 Y41.9318
G01 X32.2749 Y41.9549
G01 X32.3458 Y41.9746
G01 X32.4177 Y41.9907
G01 X32.4902 Y42.0033
G01 X32.5633 Y42.0123
G01 X32.6367 Y42.0177
G01 X32.7103 Y42.0195
G01 X32.7839 Y42.0177
G01 X32.8573 Y42.0123
G01 X32.9304 Y42.0033
G01 X33.0029 Y41.9907
G01 X33.0748 Y41.9746
G01 X33.1457 Y41.9549
G01 X33.2156 Y41.9318
G01 X33.2843 Y41.9053
G01 X33.3516 Y41.8755
G01 X33.4174 Y41.8424
G01 X33.4814 Y41.8061
G01 X33.5436 Y41.7667
G01 X33.6038 Y41.7243
G01 X33.6619 Y41.6790
G01 X33.7176 Y41.6309
G01 X33.7709 Y41.5802
G01 X33.8217 Y41.5269
G01 X33.8698 Y41.4711
G01 X33.9151 Y41.4131
G01 X33.9575 Y41.3529
G01 X33.9969 Y41.2907
G01 X34.0331 Y41.2266
G01 X34.0662 Y41.1609
G01 X34.0961 Y41.0936
G01 X34.1226 Y41.0249
G01 X34.1457 Y40.9550
G01 X34.1653 Y40.8840
G01 X34.1814 Y40.8122
G01 X34.1940 Y40.7396
G01 X34.2030 Y40.6666
G01 X34.2085 Y40.5931
G01 X34.2103 Y40.5195
G01 X34.2061 Y40.4074
G01 X34.1935 Y40.2960
G01 X34.1727 Y40.1858
G01 X34.1436 Y40.0774
G01 X34.1066 Y39.9715
G01 X34.0617 Y39.8687
G01 X34.0093 Y39.7696
G01 X33.9496 Y39.6746
G01 X33.8830 Y39.5843
G01 X33.8098 Y39.4993
G01 X33.7305 Y39.4200
G01 X33.6455 Y39.3468
G01 X33.5553 Y39.2802
G01 X33.4603 Y39.2205
G01 X33.3611 Y39.1681
G01 X33.2583 Y39.1233
G01 X33.1524 Y39.0862
G01 X33.0441 Y39.0572
G01 X32.9338 Y39.0363
G01 X32.8224 Y39.0238
G01 X32.7103 Y39.0196
G01 X32.5982 Y39.0238
G01 X32.4867 Y39.0363
G01 X32.3765 Y39.0572
G01 X32.2682 Y39.0862
G01 X32.1623 Y39.1233
G01 X32.0595 Y39.1681
G01 X31.9603 Y39.2205
G01 X31.8653 Y39.2802
G01 X31.7751 Y39.3468
G01 X31.6900 Y39.4200
G01 X31.6107 Y39.4993
G01 X31.5376 Y39.5843
G01 X31.4709 Y39.6746
G01 X31.4113 Y39.7696
G01 X31.3589 Y39.8687
G01 X31.3140 Y39.9715
G01 X31.2770 Y40.0774
G01 X31.2479 Y40.1858
G01 X31.2271 Y40.2960
G01 X31.2145 Y40.4074
G01 X31.2103 Y40.5195
G01 X31.2145 Y40.6316
G01 X31.2271 Y40.7431
G01 X31.2479 Y40.8533
G01 X31.2770 Y40.9617
G01 X31.3140 Y41.0675
G01 X31.3589 Y41.1704
G01 X31.4113 Y41.2695
G01 X31.4709 Y41.3645
G01 X31.5376 Y41.4548
G01 X31.6107 Y41.5398
G01 X31.6900 Y41.6191
G01 X31.7751 Y41.6923
G01 X31.8653 Y41.7589
G01 X31.9603 Y41.8186
G01 X32.0595 Y41.8710
G01 X32.1623 Y41.9158
G01 X32.2682 Y41.9529
G01 X32.3765 Y41.9819
G01 X32.4867 Y42.0028
G01 X32.5982 Y42.0153
G01 X32.7103 Y42.0195
G01 X32.8224 Y42.0153
G01 X32.9338 Y42.0028
G01 X33.0441 Y41.9819
G01 X33.1524 Y41.9529
G01 X33.2583 Y41.9158
G01 X33.3611 Y41.8710
G01 X33.4603 Y41.8186
G01 X33.5553 Y41.7589
G01 X33.6455 Y41.6923
G01 X33.7305 Y41.6191
G01 X33.8098 Y41.5398
G01 X33.8830 Y41.4548
G01 X33.9496 Y41.3645
G01 X34.0093 Y41.2695
G01 X34.0617 Y41.1704
G01 X34.1066 Y41.0675
G01 X34.1436 Y40.9617
G01 X34.1727 Y40.8533
G01 X34.1935 Y40.7431
G01 X34.2061 Y40.6316
G01 X34.2103 Y40.5195
G01 X34.2057 Y40.4150
G01 X34.1920 Y40.3112
G01 X34.1694 Y40.2090
G01 X34.1379 Y40.1091
G01 X34.0978 Y40.0124
G01 X34.0495 Y39.9195
G01 X33.9932 Y39.8313
G01 X33.9295 Y39.7482
G01 X33.8588 Y39.6710
G01 X33.7816 Y39.6003
G01 X33.6986 Y39.5366
G01 X33.6103 Y39.4803
G01 X33.5174 Y39.4320
G01 X33.4207 Y39.3919
G01 X33.3209 Y39.3604
G01 X33.2187 Y39.3378
G01 X33.1149 Y39.3241
G01 X33.0103 Y39.3196
G01 X32.9057 Y39.3241
G01 X32.8019 Y39.3378
G01 X32.6997 Y39.3604
G01 X32.5999 Y39.3919
G01 X32.5031 Y39.4320
G01 X32.4103 Y39.4803
G01 X32.3220 Y39.5366
G01 X32.2389 Y39.6003
G01 X32.1618 Y39.6710
G01 X32.0910 Y39.7482
G01 X32.0273 Y39.8313
G01 X31.9711 Y39.9195
G01 X31.9227 Y40.0124
G01 X31.8827 Y40.1091
G01 X31.8512 Y40.2090
G01 X31.8285 Y40.3112
G01 X31.8149 Y40.4150
G01 X31.8103 Y40.5195
G01 X31.8114 Y40.5637
G01 X31.8146 Y40.6078
G01 X31.8200 Y40.6516
G01 X31.8276 Y40.6951
G01 X31.8373 Y40.7382
G01 X31.8490 Y40.7808
G01 X31.8629 Y40.8227
G01 X31.8788 Y40.8640
G01 X31.8967 Y40.9043
G01 X31.9166 Y40.9438
G01 X31.9383 Y40.9822
G01 X31.9620 Y41.0196
G01 X31.9874 Y41.0557
G01 X32.0146 Y41.0905
G01 X32.0434 Y41.1239
G01 X32.0739 Y41.1559
G01 X32.1059 Y41.1864
G01 X32.1393 Y41.2152
G01 X32.1742 Y41.2424
G01 X32.2103 Y41.2679
G01 X32.2476 Y41.2915
G01 X32.2860 Y41.3133
G01 X32.3255 Y41.3331
G01 X32.3659 Y41.3510
G01 X32.4071 Y41.3669
G01 X32.4490 Y41.3808
G01 X32.4916 Y41.3926
G01 X32.5347 Y41.4022
G01 X32.5782 Y41.4098
G01 X32.6221 Y41.4152
G01 X32.6661 Y41.4185
G01 X32.7103 Y41.4195
G01 X32.7544 Y41.4185
G01 X32.7985 Y41.4152
G01 X32.8423 Y41.4098
G01 X32.8859 Y41.4022
G01 X32.9290 Y41.3926
G01 X32.9715 Y41.3808
G01 X33.0135 Y41.3669
G01 X33.0547 Y41.3510
G01 X33.0951 Y41.3331
G01 X33.1345 Y41.3133
G01 X33.1730 Y41.2915
G01 X33.2103 Y41.2679
G01 X33.2464 Y41.2424
G01 X33.2812 Y41.2152
G01 X33.3147 Y41.1864
G01 X33.3467 Y41.1559
G01 X33.3771 Y41.1239
G01 X33.4060 Y41.0905
G01 X33.4332 Y41.0557
G01 X33.4586 Y41.0196
G01 X33.4822 Y40.9822
G01 X33.5040 Y40.9438
G01 X33.5239 Y40.9043
G01 X33.5418 Y40.8640
G01 X33.5577 Y40.8227
G01 X33.5715 Y40.7808
G01 X33.5833 Y40.7382
G01 X33.5930 Y40.6951
G01 X33.6005 Y40.6516
G01 X33.6060 Y40.6078
G01 X33.6092 Y40.5637
G01 X33.6103 Y40.5195
M107
M106 S240
G01 X33.6093 Y40.4767 Z-2.7623 F400
G01 X33.6062 Y40.4340 Z-2.7746
G01 X33.6011 Y40.3915 Z-2.7869
G01 X33.5940 Y40.3492 Z-2.7992
G01 X33.5849 Y40.3074 Z-2.8116
G01 X33.5738 Y40.2660 Z-2.8239
G01 X33.5608 Y40.2252 Z-2.8362
G01 X33.5458 Y40.1850 Z-2.8485
G01 X33.5290 Y40.1457 Z-2.8608
G01 X33.5102 Y40.1071 Z-2.8731
G01 X33.4897 Y40.0695 Z-2.8854
G01 X33.4674 Y40.0330 Z-2.8977
G01 X33.4434 Y39.9975 Z-2.9100
G01 X33.4177 Y39.9632 Z-2.9223
G01 X33.3905 Y39.9302 Z-2.9347
G01 X33.3616 Y39.8985 Z-2.9470
G01 X33.3314 Y39.8682 Z-2.9593
G01 X33.2997 Y39.8394 Z-2.9716
G01 X33.2666 Y39.8121 Z-2.9839
G01 X33.2323 Y39.7864 Z-2.9962
G01 X33.1969 Y39.7624 Z-3.0085
G01 X33.1603 Y39.7401 Z-3.0208
G01 X33.1227 Y39.7196 Z-3.0331
G01 X33.0842 Y39.7009 Z-3.0455
G01 X33.0448 Y39.6840 Z-3.0578
G01 X33.0046 Y39.6690 Z-3.0701
G01 X32.9638 Y39.6560 Z-3.0824
G01 X32.9225 Y39.6449 Z-3.0947
G01 X32.8806 Y39.6358 Z-3.1070
G01 X32.8384 Y39.6287 Z-3.1193
G01 X32.7958 Y39.6236 Z-3.1316
G01 X32.7531 Y39.6206 Z-3.1439
G01 X32.7103 Y39.6195 Z-3.1563
G01 X32.6675 Y39.6206 Z-3.1686
G01 X32.6247 Y39.6236 Z-3.1809
G01 X32.5822 Y39.6287 Z-3.1932
G01 X32.5400 Y39.6358 Z-3.2055
G01 X32.4981 Y39.6449 Z-3.2178
G01 X32.4567 Y39.6560 Z-3.2301
G01 X32.4159 Y39.6690 Z-3.2424
G01 X32.3758 Y39.6840 Z-3.2547
G01 X32.3364 Y39.7009 Z-3.2670
G01 X32.2979 Y39.7196 Z-3.2794
G01 X32.2603 Y39.7401 Z-3.2917
G01 X32.2237 Y39.7624 Z-3.3040
G01 X32.1882 Y39.7864 Z-3.3163
G01 X32.1539 Y39.8121 Z-3.3286
G01 X32.1209 Y39.8394 Z-3.3409
G01 X32.0892 Y39.8682 Z-3.3532
G01 X32.0589 Y39.8985 Z-3.3655
G01 X32.0301 Y39.9302 Z-3.3778
G01 X32.0028 Y39.9632 Z-3.3902
G01 X31.9772 Y39.9975 Z-3.4025
G01 X31.9532 Y40.0330 Z-3.4148
G01 X31.9309 Y40.0695 Z-3.4271
G01 X31.9103 Y40.1071 Z-3.4394
G01 X31.8916 Y40.1457 Z-3.4517
G01 X31.8748 Y40.1850 Z-3.4640
G01 X31.8598 Y40.2252 Z-3.4763
G01 X31.8467 Y40.2660 Z-3.4886
G01 X31.8357 Y40.3074 Z-3.5009
G01 X31.8266 Y40.3492 Z-3.5133
G01 X31.8194 Y40.3915 Z-3.5256
G01 X31.8144 Y40.4340 Z-3.5379
G01 X31.8113 Y40.4767 Z-3.5502
G01 X31.8103 Y40.5195 Z-3.5625
G01 X31.8113 Y40.5624 Z-3.5748
G01 X31.8144 Y40.6051 Z-3.5871
G01 X31.8194 Y40.6476 Z-3.5994
G01 X31.8266 Y40.6899 Z-3.6117
G01 X31.8357 Y40.7317 Z-3.6241
G01 X31.8467 Y40.7731 Z-3.6364
G01 X31.8598 Y40.8139 Z-3.6487
G01 X31.8748 Y40.8540 Z-3.6610
G01 X31.8916 Y40.8934 Z-3.6733
G01 X31.9103 Y40.9319 Z-3.6856
G01 X31.9309 Y40.9695 Z-3.6979
G01 X31.9532 Y41.0061 Z-3.7102
G01 X31.9772 Y41.0416 Z-3.7225
G01 X32.0028 Y41.0759 Z-3.7348
G01 X32.0301 Y41.1089 Z-3.7472
G01 X32.0589 Y41.1406 Z-3.7595
G01 X32.0892 Y41.1709 Z-3.7718
G01 X32.1209 Y41.1997 Z-3.7841
G01 X32.1539 Y41.2270 Z-3.7964
G01 X32.1882 Y41.2527 Z-3.8087
G01 X32.2237 Y41.2767 Z-3.8210
G01 X32.2603 Y41.2990 Z-3.8333
G01 X32.2979 Y41.3195 Z-3.8456
G01 X32.3364 Y41.3382 Z-3.8580
G01 X32.3758 Y41.3551 Z-3.8703
G01 X32.4159 Y41.3700 Z-3.8826
G01 X32.4567 Y41.3831 Z-3.8949
G01 X32.4981 Y41.3942 Z-3.9072
G01 X32.5400 Y41.4033 Z-3.9195
G01 X32.5822 Y41.4104 Z-3.9318
G01 X32.6247 Y41.4155 Z-3.9441
G01 X32.6675 Y41.4185 Z-3.9564
G01 X32.7103 Y41.4195 Z-3.9688
G01 X32.7531 Y41.4185 Z-3.9811
G01 X32.7958 Y41.4155 Z-3.9934
G01 X32.8384 Y41.4104 Z-4.0057
G01 X32.8806 Y41.4033 Z-4.0180
G01 X32.9225 Y41.3942 Z-4.0303
G01 X32.9638 Y41.3831 Z-4.0426
G01 X33.0046 Y41.3700 Z-4.0549
G01 X33.0448 Y41.3551 Z-4.0672
G01 X33.0842 Y41.3382 Z-4.0795
G01 X33.1227 Y41.3195 Z-4.0919
G01 X33.1603 Y41.2990 Z-4.1042
G01 X33.1969 Y41.2767 Z-4.1165
G01 X33.2323 Y41.2527 Z-4.1288
G01 X33.2666 Y41.2270 Z-4.1411
G01 X33.2997 Y41.1997 Z-4.1534
G01 X33.3314 Y41.1709 Z-4.1657
G01 X33.3616 Y41.1406 Z-4.1780
G01 X33.3905 Y41.1089 Z-4.1903
G01 X33.4177 Y41.0759 Z-4.2027
G01 X33.4434 Y41.0416 Z-4.2150
G01 X33.4674 Y41.0061 Z-4.2273
G01 X33.4897 Y40.9695 Z-4.2396
G01 X33.5102 Y40.9319 Z-4.2519
G01 X33.5290 Y40.8934 Z-4.2642
G01 X33.5458 Y40.8540 Z-4.2765
G01 X33.5608 Y40.8139 Z-4.2888
G01 X33.5738 Y40.7731 Z-4.3011
G01 X33.5849 Y40.7317 Z-4.3134
G01 X33.5940 Y40.6899 Z-4.3258
G01 X33.6011 Y40.6476 Z-4.3381
G01 X33.6062 Y40.6051 Z-4.3504
G01 X33.6093 Y40.5624 Z-4.3627
G01 X33.6103 Y40.5195 Z-4.3750
G01 X33.6093 Y40.4767
G01 X33.6062 Y40.4340
G01 X33.6011 Y40.3915
G01 X33.5940 Y40.3492
G01 X33.5849 Y40.3074
G01 X33.5738 Y40.2660
G01 X33.5608 Y40.2252
G01 X33.5458 Y40.1850
G01 X33.5290 Y40.1457
G01 X33.5102 Y40.1071
G01 X33.4897 Y40.0695
G01 X33.4674 Y40.0330
G01 X33.4434 Y39.9975
G01 X33.4177 Y39.9632
G01 X33.3905 Y39.9302
G01 X33.3616 Y39.8985
G01 X33.3314 Y39.8682
G01 X33.2997 Y39.8394
G01 X33.2666 Y39.8121
G01 X33.2323 Y39.7864
G01 X33.1969 Y39.7624
G01 X33.1603 Y39.7401
G01 X33.1227 Y39.7196
G01 X33.0842 Y39.7009
G01 X33.0448 Y39.6840
G01 X33.0046 Y39.6690
G01 X32.9638 Y39.6560
G01 X32.9225 Y39.6449
G01 X32.8806 Y39.6358
G01 X32.8384 Y39.6287
G01 X32.7958 Y39.6236
G01 X32.7531 Y39.6206
G01 X32.7103 Y39.6195
G01 X32.6675 Y39.6206
G01 X32.6247 Y39.6236
G01 X32.5822 Y39.6287
G01 X32.5400 Y39.6358
G01 X32.4981 Y39.6449
G01 X32.4567 Y39.6560
G01 X32.4159 Y39.6690
G01 X32.3758 Y39.6840
G01 X32.3364 Y39.7009
G01 X32.2979 Y39.7196
G01 X32.2603 Y39.7401
G01 X32.2237 Y39.7624
G01 X32.1882 Y39.7864
G01 X32.1539 Y39.8121
G01 X32.1209 Y39.8394
G01 X32.0892 Y39.8682
G01 X32.0589 Y39.8985
G01 X32.0301 Y39.9302
G01 X32.0028 Y39.9632
G01 X31.9772 Y39.9975
G01 X31.9532 Y40.0330
G01 X31.9309 Y40.0695
G01 X31.9103 Y40.1071
G01 X31.8916 Y40.1457
G01 X31.8748 Y40.1850
G01 X31.8598 Y40.2252
G01 X31.8467 Y40.2660
G01 X31.8357 Y40.3074
G01 X31.8266 Y40.3492
G01 X31.8194 Y40.3915
G01 X31.8144 Y40.4340
G01 X31.8113 Y40.4767
G01 X31.8103 Y40.5195
G01 X31.8113 Y40.5624
G01 X31.8144 Y40.6051
G01 X31.8194 Y40.6476
G01 X31.8266 Y40.6899
G01 X31.8357 Y40.7317
G01 X31.8467 Y40.7731
G01 X31.8598 Y40.8139
G01 X31.8748 Y40.8540
G01 X31.8916 Y40.8934
G01 X31.9103 Y40.9319
G01 X31.9309 Y40.9695
G01 X31.9532 Y41.0061
G01 X31.9772 Y41.0416
G01 X32.0028 Y41.0759
G01 X32.0301 Y41.1089
G01 X32.0589 Y41.1406
G01 X32.0892 Y41.1709
G01 X32.1209 Y41.1997
G01 X32.1539 Y41.2270
G01 X32.1882 Y41.2527
G01 X32.2237 Y41.2767
G01 X32.2603 Y41.2990
G01 X32.2979 Y41.3195
G01 X32.3364 Y41.3382
G01 X32.3758 Y41.3551
G01 X32.4159 Y41.3700
G01 X32.4567 Y41.3831
G01 X32.4981 Y41.3942
G01 X32.5400 Y41.4033
G01 X32.5822 Y41.4104
G01 X32.6247 Y41.4155
G01 X32.6675 Y41.4185
G01 X32.7103 Y41.4195
G01 X32.7531 Y41.4185
G01 X32.7958 Y41.4155
G01 X32.8384 Y41.4104
G01 X32.8806 Y41.4033
G01 X32.9225 Y41.3942
G01 X32.9638 Y41.3831
G01 X33.0046 Y41.3700
G01 X33.0448 Y41.3551
G01 X33.0842 Y41.3382
G01 X33.1227 Y41.3195
G01 X33.1603 Y41.2990
G01 X33.1969 Y41.2767
G01 X33.2323 Y41.2527
G01 X33.2666 Y41.2270
G01 X33.2997 Y41.1997
G01 X33.3314 Y41.1709
G01 X33.3616 Y41.1406
G01 X33.3905 Y41.1089
G01 X33.4177 Y41.0759
G01 X33.4434 Y41.0416
G01 X33.4674 Y41.0061
G01 X33.4897 Y40.9695
G01 X33.5102 Y40.9319
G01 X33.5290 Y40.8934
G01 X33.5458 Y40.8540
G01 X33.5608 Y40.8139
G01 X33.5738 Y40.7731
G01 X33.5849 Y40.7317
G01 X33.5940 Y40.6899
G01 X33.6011 Y40.6476
G01 X33.6062 Y40.6051
G01 X33.6093 Y40.5624
G01 X33.6103 Y40.5195
G01 X33.6178 Y40.4885 F1000
G01 X33.6243 Y40.4572
G01 X33.6297 Y40.4257
G01 X33.6339 Y40.3940
G01 X33.6371 Y40.3622
G01 X33.6392 Y40.3303
G01 X33.6402 Y40.2984
G01 X33.6400 Y40.2664
G01 X33.6388 Y40.2345
G01 X33.6364 Y40.2026
G01 X33.6330 Y40.1709
G01 X33.6284 Y40.1392
G01 X33.6187 Y40.0877
G01 X33.6064 Y40.0368
G01 X33.5914 Y39.9866
G01 X33.5739 Y39.9372
G01 X33.5539 Y39.8888
G01 X33.5314 Y39.8414
G01 X33.5065 Y39.7953
G01 X33.4793 Y39.7506
G01 X33.4472 Y39.7035
G01 X33.4129 Y39.6582
G01 X33.3762 Y39.6147
G01 X33.3373 Y39.5731
G01 X33.2964 Y39.5336
G01 X33.2536 Y39.4962
G01 X33.2088 Y39.4610
G01 X33.1623 Y39.4282
G01 X33.1104 Y39.3954
G01 X33.0569 Y39.3652
G01 X33.0020 Y39.3379
G01 X32.9457 Y39.3133
G01 X32.8882 Y39.2916
G01 X32.8297 Y39.2729
G01 X32.7704 Y39.2572
G01 X32.7103 Y39.2445
G01 X32.6452 Y39.2342
G01 X32.5796 Y39.2272
G01 X32.5138 Y39.2235
G01 X32.4479 Y39.2231
G01 X32.3820 Y39.2261
G01 X32.3164 Y39.2324
G01 X32.2511 Y39.2421
G01 X32.1865 Y39.2550
G01 X32.1182 Y39.2722
G01 X32.0508 Y39.2929
G01 X31.9846 Y39.3170
G01 X31.9197 Y39.3444
G01 X31.8562 Y39.3750
G01 X31.7943 Y39.4087
G01 X31.7343 Y39.4456
G01 X31.6761 Y39.4854
G01 X31.6226 Y39.5348
G01 X31.5716 Y39.5868
G01 X31.5232 Y39.6413
G01 X31.4776 Y39.6981
G01 X31.4348 Y39.7570
G01 X31.3949 Y39.8180
G01 X31.3581 Y39.8809
G01 X31.3245 Y39.9455
G01 X31.2980 Y40.0142
G01 X31.2749 Y40.0841
G01 X31.2553 Y40.1551
G01 X31.2391 Y40.2269
G01 X31.2265 Y40.2994
G01 X31.2175 Y40.3725
G01 X31.2121 Y40.4459
G01 X31.2103 Y40.5195
G01 X31.2121 Y40.5931
G01 X31.2175 Y40.6666
G01 X31.2265 Y40.7396
G01 X31.2391 Y40.8122
G01 X31.2553 Y40.8840
G01 X31.2749 Y40.9550
G01 X31.2980 Y41.0249
G01 X31.3245 Y41.0936
G01 X31.3543 Y41.1609
G01 X31.3874 Y41.2266
G01 X31.4237 Y41.2907
G01 X31.4631 Y41.3529
G01 X31.5055 Y41.4131
G01 X31.5508 Y41.4711
G01 X31.5989 Y41.5269
G01 X31.6496 Y41.5802
G01 X31.7030 Y41.6309
G01 X31.7587 Y41.6790
G01 X31.8168 Y41.7243
G01 X31.8769 Y41.7667
G01 X31.9391 Y41.8061
G01 X32.0032 Y41.8424
G01 X32.0690 Y41.8755
G01 X32.1363 Y41.9053
G01 X32.2050 Y41.9318
G01 X32.2749 Y41.9549
G01 X32.3458 Y41.9746
G01 X32.4177 Y41.9907
G01 X32.4902 Y42.0033
G01 X32.5633 Y42.0123
G01 X32.6367 Y42.0177
G01 X32.7103 Y42.0195
G01 X32.7839 Y42.0177
G01 X32.8573 Y42.0123
G01 X32.9304 Y42.0033
G01 X33.0029 Y41.9907
G01 X33.0748 Y41.9746
G01 X33.1457 Y41.9549
G01 X33.2156 Y41.9318
G01 X33.2843 Y41.9053
G01 X33.3516 Y41.8755
G01 X33.4174 Y41.8424
G01 X33.4814 Y41.8061
G01 X33.5436 Y41.7667
G01 X33.6038 Y41.7243
G01 X33.6619 Y41.6790
G01 X33.7176 Y41.6309
G01 X33.7709 Y41.5802
G01 X33.8217 Y41.5269
G01 X33.8698 Y41.4711
G01 X33.9151 Y41.4131
G01 X33.9575 Y41.3529
G01 X33.9969 Y41.2907
G01 X34.0331 Y41.2266
G01 X34.0662 Y41.1609
G01 X34.0961 Y41.0936
G01 X34.1226 Y41.0249
G01 X34.1457 Y40.9550
G01 X34.1653 Y40.8840
G01 X34.1814 Y40.8122
G01 X34.1940 Y40.7396
G01 X34.2030 Y40.6666
G01 X34.2085 Y40.5931
G01 X34.2103 Y40.5195
G01 X34.2061 Y40.4074
G01 X34.1935 Y40.2960
G01 X34.1727 Y40.1858
G01 X34.1436 Y40.0774
G01 X34.1066 Y39.9715
G01 X34.0617 Y39.8687
G01 X34.0093 Y39.7696
G01 X33.9496 Y39.6746
G01 X33.8830 Y39.5843
G01 X33.8098 Y39.4993
G01 X33.7305 Y39.4200
G01 X33.6455 Y39.3468
G01 X33.5553 Y39.2802
G01 X33.4603 Y39.2205
G01 X33.3611 Y39.1681
G01 X33.2583 Y39.1233
G01 X33.1524 Y39.0862
G01 X33.0441 Y39.0572
G01 X32.9338 Y39.0363
G01 X32.8224 Y39.0238
G01 X32.7103 Y39.0196
G01 X32.5982 Y39.0238
G01 X32.4867 Y39.0363
G01 X32.3765 Y39.0572
G01 X32.2682 Y39.0862
G01 X32.1623 Y39.1233
G01 X32.0595 Y39.1681
G01 X31.9603 Y39.2205
G01 X31.8653 Y39.2802
G01 X31.7751 Y39.3468
G01 X31.6900 Y39.4200
G01 X31.6107 Y39.4993
G01 X31.5376 Y39.5843
G01 X31.4709 Y39.6746
G01 X31.4113 Y39.7696
G01 X31.3589 Y39.8687
G01 X31.3140 Y39.9715
G01 X31.2770 Y40.0774
G01 X31.2479 Y40.1858
G01 X31.2271 Y40.2960
G01 X31.2145 Y40.4074
G01 X31.2103 Y40.5195
G01 X31.2145 Y40.6316
G01 X31.2271 Y40.7431
G01 X31.2479 Y40.8533
G01 X31.2770 Y40.9617
G01 X31.3140 Y41.0675
G01 X31.3589 Y41.1704
G01 X31.4113 Y41.2695
G01 X31.4709 Y41.3645
G01 X31.5376 Y41.4548
G01 X31.6107 Y41.5398
G01 X31.6900 Y41.6191
G01 X31.7751 Y41.6923
G01 X31.8653 Y41.7589
G01 X31.9603 Y41.8186
G01 X32.0595 Y41.8710
G01 X32.1623 Y41.9158
G01 X32.2682 Y41.9529
G01 X32.3765 Y41.9819
G01 X32.4867 Y42.0028
G01 X32.5982 Y42.0153
G01 X32.7103 Y42.0195
G01 X32.8224 Y42.0153
G01 X32.9338 Y42.0028
G01 X33.0441 Y41.9819
G01 X33.1524 Y41.9529
G01 X33.2583 Y41.9158
G01 X33.3611 Y41.8710
G01 X33.4603 Y41.8186
G01 X33.5553 Y41.7589
G01 X33.6455 Y41.6923
G01 X33.7305 Y41.6191
G01 X33.8098 Y41.5398
G01 X33.8830 Y41.4548
G01 X33.9496 Y41.3645
G01 X34.0093 Y41.2695
G01 X34.0617 Y41.1704
G01 X34.1066 Y41.0675
G01 X34.1436 Y40.9617
G01 X34.1727 Y40.8533
G01 X34.1935 Y40.7431
G01 X34.2061 Y40.6316
G01 X34.2103 Y40.5195
G01 X34.2057 Y40.4150
G01 X34.1920 Y40.3112
G01 X34.1694 Y40.2090
G01 X34.1379 Y40.1091
G01 X34.0978 Y40.0124
G01 X34.0495 Y39.9195
G01 X33.9932 Y39.8313
G01 X33.9295 Y39.7482
G01 X33.8588 Y39.6710
G01 X33.7816 Y39.6003
G01 X33.6986 Y39.5366
G01 X33.6103 Y39.4803
G01 X33.5174 Y39.4320
G01 X33.4207 Y39.3919
G01 X33.3209 Y39.3604
G01 X33.2187 Y39.3378
G01 X33.1149 Y39.3241
G01 X33.0103 Y39.3196
G01 X32.9057 Y39.3241
G01 X32.8019 Y39.3378
G01 X32.6997 Y39.3604
G01 X32.5999 Y39.3919
G01 X32.5031 Y39.4320
G01 X32.4103 Y39.4803
G01 X32.3220 Y39.5366
G01 X32.2389 Y39.6003
G01 X32.1618 Y39.6710
G01 X32.0910 Y39.7482
G01 X32.0273 Y39.8313
G01 X31.9711 Y39.9195
G01 X31.9227 Y40.0124
G01 X31.8827 Y40.1091
G01 X31.8512 Y40.2090
G01 X31.8285 Y40.3112
G01 X31.8149 Y40.4150
G01 X31.8103 Y40.5195
G01 X31.8114 Y40.5637
G01 X31.8146 Y40.6078
G01 X31.8200 Y40.6516
G01 X31.8276 Y40.6951
G01 X31.8373 Y40.7382
G01 X31.8490 Y40.7808
G01 X31.8629 Y40.8227
G01 X31.8788 Y40.8640
G01 X31.8967 Y40.9043
G01 X31.9166 Y40.9438
G01 X31.9383 Y40.9822
G01 X31.9620 Y41.0196
G01 X31.9874 Y41.0557
G01 X32.0146 Y41.0905
G01 X32.0434 Y41.1239
G01 X32.0739 Y41.1559
G01 X32.1059 Y41.1864
G01 X32.1393 Y41.2152
G01 X32.1742 Y41.2424
G01 X32.2103 Y41.2679
G01 X32.2476 Y41.2915
G01 X32.2860 Y41.3133
G01 X32.3255 Y41.3331
G01 X32.3659 Y41.3510
G01 X32.4071 Y41.3669
G01 X32.4490 Y41.3808
G01 X32.4916 Y41.3926
G01 X32.5347 Y41.4022
G01 X32.5782 Y41.4098
G01 X32.6221 Y41.4152
G01 X32.6661 Y41.4185
G01 X32.7103 Y41.4195
G01 X32.7544 Y41.4185
G01 X32.7985 Y41.4152
G01 X32.8423 Y41.4098
G01 X32.8859 Y41.4022
G01 X32.9290 Y41.3926
G01 X32.9715 Y41.3808
G01 X33.0135 Y41.3669
G01 X33.0547 Y41.3510
G01 X33.0951 Y41.3331
G01 X33.1345 Y41.3133
G01 X33.1730 Y41.2915
G01 X33.2103 Y41.2679
G01 X33.2464 Y41.2424
G01 X33.2812 Y41.2152
G01 X33.3147 Y41.1864
G01 X33.3467 Y41.1559
G01 X33.3771 Y41.1239
G01 X33.4060 Y41.0905
G01 X33.4332 Y41.0557
G01 X33.4586 Y41.0196
G01 X33.4822 Y40.9822
G01 X33.5040 Y40.9438
G01 X33.5239 Y40.9043
G01 X33.5418 Y40.8640
G01 X33.5577 Y40.8227
G01 X33.5715 Y40.7808
G01 X33.5833 Y40.7382
G01 X33.5930 Y40.6951
G01 X33.6005 Y40.6516
G01 X33.6060 Y40.6078
G01 X33.6092 Y40.5637
G01 X33.6103 Y40.5195
M107
M106 S240
G01 X33.6093 Y40.4767 Z-4.3873 F400
G01 X33.6062 Y40.4340 Z-4.3996
G01 X33.6011 Y40.3915 Z-4.4119
G01 X33.5940 Y40.3492 Z-4.4242
G01 X33.5849 Y40.3074 Z-4.4366
G01 X33.5738 Y40.2660 Z-4.4489
G01 X33.5608 Y40.2252 Z-4.4612
G01 X33.5458 Y40.1850 Z-4.4735
G01 X33.5290 Y40.1457 Z-4.4858
G01 X33.5102 Y40.1071 Z-4.4981
G01 X33.4897 Y40.0695 Z-4.5104
G01 X33.4674 Y40.0330 Z-4.5227
G01 X33.4434 Y39.9975 Z-4.5350
G01 X33.4177 Y39.9632 Z-4.5473
G01 X33.3905 Y39.9302 Z-4.5597
G01 X33.3616 Y39.8985 Z-4.5720
G01 X33.3314 Y39.8682 Z-4.5843
G01 X33.2997 Y39.8394 Z-4.5966
G01 X33.2666 Y39.8121 Z-4.6089
G01 X33.2323 Y39.7864 Z-4.6212
G01 X33.1969 Y39.7624 Z-4.6335
G01 X33.1603 Y39.7401 Z-4.6458
G01 X33.1227 Y39.7196 Z-4.6581
G01 X33.0842 Y39.7009 Z-4.6705
G01 X33.0448 Y39.6840 Z-4.6828
G01 X33.0046 Y39.6690 Z-4.6951
G01 X32.9638 Y39.6560 Z-4.7074
G01 X32.9225 Y39.6449 Z-4.7197
G01 X32.8806 Y39.6358 Z-4.7320
G01 X32.8384 Y39.6287 Z-4.7443
G01 X32.7958 Y39.6236 Z-4.7566
G01 X32.7531 Y39.6206 Z-4.7689
G01 X32.7103 Y39.6195 Z-4.7813
G01 X32.6675 Y39.6206 Z-4.7936
G01 X32.6247 Y39.6236 Z-4.8059
G01 X32.5822 Y39.6287 Z-4.8182
G01 X32.5400 Y39.6358 Z-4.8305
G01 X32.4981 Y39.6449 Z-4.8428
G01 X32.4567 Y39.6560 Z-4.8551
G01 X32.4159 Y39.6690 Z-4.8674
G01 X32.3758 Y39.6840 Z-4.8797
G01 X32.3364 Y39.7009 Z-4.8920
G01 X32.2979 Y39.7196 Z-4.9044
G01 X32.2603 Y39.7401 Z-4.9167
G01 X32.2237 Y39.7624 Z-4.9290
G01 X32.1882 Y39.7864 Z-4.9413
G01 X32.1539 Y39.8121 Z-4.9536
G01 X32.1209 Y39.8394 Z-4.9659
G01 X32.0892 Y39.8682 Z-4.9782
G01 X32.0589 Y39.8985 Z-4.9905
G01 X32.0301 Y39.9302 Z-5.0028
G01 X32.0028 Y39.9632 Z-5.0152
G01 X31.9772 Y39.9975 Z-5.0275
G01 X31.9532 Y40.0330 Z-5.0398
G01 X31.9309 Y40.0695 Z-5.0521
G01 X31.9103 Y40.1071 Z-5.0644
G01 X31.8916 Y40.1457 Z-5.0767
G01 X31.8748 Y40.1850 Z-5.0890
G01 X31.8598 Y40.2252 Z-5.1013
G01 X31.8467 Y40.2660 Z-5.1136
G01 X31.8357 Y40.3074 Z-5.1259
G01 X31.8266 Y40.3492 Z-5.1383
G01 X31.8194 Y40.3915 Z-5.1506
G01 X31.8144 Y40.4340 Z-5.1629
G01 X31.8113 Y40.4767 Z-5.1752
G01 X31.8103 Y40.5195 Z-5.1875
G01 X31.8113 Y40.5624 Z-5.1998
G01 X31.8144 Y40.6051 Z-5.2121
G01 X31.8194 Y40.6476 Z-5.2244
G01 X31.8266 Y40.6899 Z-5.2367
G01 X31.8357 Y40.7317 Z-5.2491
G01 X31.8467 Y40.7731 Z-5.2614
G01 X31.8598 Y40.8139 Z-5.2737
G01 X31.8748 Y40.8540 Z-5.2860
G01 X31.8916 Y40.8934 Z-5.2983
G01 X31.9103 Y40.9319 Z-5.3106
G01 X31.9309 Y40.9695 Z-5.3229
G01 X31.9532 Y41.0061 Z-5.3352
G01 X31.9772 Y41.0416 Z-5.3475
G01 X32.0028 Y41.0759 Z-5.3598
G01 X32.0301 Y41.1089 Z-5.3722
G01 X32.0589 Y41.1406 Z-5.3845
G01 X32.0892 Y41.1709 Z-5.3968
G01 X32.1209 Y41.1997 Z-5.4091
G01 X32.1539 Y41.2270 Z-5.4214
G01 X32.1882 Y41.2527 Z-5.4337
G01 X32.2237 Y41.2767 Z-5.4460
G01 X32.2603 Y41.2990 Z-5.4583
G01 X32.2979 Y41.3195 Z-5.4706
G01 X32.3364 Y41.3382 Z-5.4830
G01 X32.3758 Y41.3551 Z-5.4953
G01 X32.4159 Y41.3700 Z-5.5076
G01 X32.4567 Y41.3831 Z-5.5199
G01 X32.4981 Y41.3942 Z-5.5322
G01 X32.5400 Y41.4033 Z-5.5445
G01 X32.5822 Y41.4104 Z-5.5568
G01 X32.6247 Y41.4155 Z-5.5691
G01 X32.6675 Y41.4185 Z-5.5814
G01 X32.7103 Y41.4195 Z-5.5938
G01 X32.7531 Y41.4185 Z-5.6061
G01 X32.7958 Y41.4155 Z-5.6184
G01 X32.8384 Y41.4104 Z-5.6307
G01 X32.8806 Y41.4033 Z-5.6430
G01 X32.9225 Y41.3942 Z-5.6553
G01 X32.9638 Y41.3831 Z-5.6676
G01 X33.0046 Y41.3700 Z-5.6799
G01 X33.0448 Y41.3551 Z-5.6922
G01 X33.0842 Y41.3382 Z-5.7045
G01 X33.1227 Y41.3195 Z-5.7169
G01 X33.1603 Y41.2990 Z-5.7292
G01 X33.1969 Y41.2767 Z-5.7415
G01 X33.2323 Y41.2527 Z-5.7538
G01 X33.2666 Y41.2270 Z-5.7661
G01 X33.2997 Y41.1997 Z-5.7784
G01 X33.3314 Y41.1709 Z-5.7907
G01 X33.3616 Y41.1406 Z-5.8030
G01 X33.3905 Y41.1089 Z-5.8153
G01 X33.4177 Y41.0759 Z-5.8277
G01 X33.4434 Y41.0416 Z-5.8400
G01 X33.4674 Y41.0061 Z-5.8523
G01 X33.4897 Y40.9695 Z-5.8646
G01 X33.5102 Y40.9319 Z-5.8769
G01 X33.5290 Y40.8934 Z-5.8892
G01 X33.5458 Y40.8540 Z-5.9015
G01 X33.5608 Y40.8139 Z-5.9138
G01 X33.5738 Y40.7731 Z-5.9261
G01 X33.5849 Y40.7317 Z-5.9384
G01 X33.5940 Y40.6899 Z-5.9508
G01 X33.6011 Y40.6476 Z-5.9631
G01 X33.6062 Y40.6051 Z-5.9754
G01 X33.6093 Y40.5624 Z-5.9877
G01 X33.6103 Y40.5195 Z-6.0000
G01 X33.6093 Y40.4767
G01 X33.6062 Y40.4340
G01 X33.6011 Y40.3915
G01 X33.5940 Y40.3492
G01 X33.5849 Y40.3074
G01 X33.5738 Y40.2660
G01 X33.5608 Y40.2252
G01 X33.5458 Y40.1850
G01 X33.5290 Y40.1457
G01 X33.5102 Y40.1071
G01 X33.4897 Y40.0695
G01 X33.4674 Y40.0330
G01 X33.4434 Y39.9975
G01 X33.4177 Y39.9632
G01 X33.3905 Y39.9302
G01 X33.3616 Y39.8985
G01 X33.3314 Y39.8682
G01 X33.2997 Y39.8394
G01 X33.2666 Y39.8121
G01 X33.2323 Y39.7864
G01 X33.1969 Y39.7624
G01 X33.1603 Y39.7401
G01 X33.1227 Y39.7196
G01 X33.0842 Y39.7009
G01 X33.0448 Y39.6840
G01 X33.0046 Y39.6690
G01 X32.9638 Y39.6560
G01 X32.9225 Y39.6449
G01 X32.8806 Y39.6358
G01 X32.8384 Y39.6287
G01 X32.7958 Y39.6236
G01 X32.7531 Y39.6206
G01 X32.7103 Y39.6195
G01 X32.6675 Y39.6206
G01 X32.6247 Y39.6236
G01 X32.5822 Y39.6287
G01 X32.5400 Y39.6358
G01 X32.4981 Y39.6449
G01 X32.4567 Y39.6560
G01 X32.4159 Y39.6690
G01 X32.3758 Y39.6840
G01 X32.3364 Y39.7009
G01 X32.2979 Y39.7196
G01 X32.2603 Y39.7401
G01 X32.2237 Y39.7624
G01 X32.1882 Y39.7864
G01 X32.1539 Y39.8121
G01 X32.1209 Y39.8394
G01 X32.0892 Y39.8682
G01 X32.0589 Y39.8985
G01 X32.0301 Y39.9302
G01 X32.0028 Y39.9632
G01 X31.9772 Y39.9975
G01 X31.9532 Y40.0330
G01 X31.9309 Y40.0695
G01 X31.9103 Y40.1071
G01 X31.8916 Y40.1457
G01 X31.8748 Y40.1850
G01 X31.8598 Y40.2252
G01 X31.8467 Y40.2660
G01 X31.8357 Y40.3074
G01 X31.8266 Y40.3492
G01 X31.8194 Y40.3915
G01 X31.8144 Y40.4340
G01 X31.8113 Y40.4767
G01 X31.8103 Y40.5195
G01 X31.8113 Y40.5624
G01 X31.8144 Y40.6051
G01 X31.8194 Y40.6476
G01 X31.8266 Y40.6899
G01 X31.8357 Y40.7317
G01 X31.8467 Y40.7731
G01 X31.8598 Y40.8139
G01 X31.8748 Y40.8540
G01 X31.8916 Y40.8934
G01 X31.9103 Y40.9319
G01 X31.9309 Y40.9695
G01 X31.9532 Y41.0061
G01 X31.9772 Y41.0416
G01 X32.0028 Y41.0759
G01 X32.0301 Y41.1089
G01 X32.0589 Y41.1406
G01 X32.0892 Y41.1709
G01 X32.1209 Y41.1997
G01 X32.1539 Y41.2270
G01 X32.1882 Y41.2527
G01 X32.2237 Y41.2767
G01 X32.2603 Y41.2990
G01 X32.2979 Y41.3195
G01 X32.3364 Y41.3382
G01 X32.3758 Y41.3551
G01 X32.4159 Y41.3700
G01 X32.4567 Y41.3831
G01 X32.4981 Y41.3942
G01 X32.5400 Y41.4033
G01 X32.5822 Y41.4104
G01 X32.6247 Y41.4155
G01 X32.6675 Y41.4185
G01 X32.7103 Y41.4195
G01 X32.7531 Y41.4185
G01 X32.7958 Y41.4155
G01 X32.8384 Y41.4104
G01 X32.8806 Y41.4033
G01 X32.9225 Y41.3942
G01 X32.9638 Y41.3831
G01 X33.0046 Y41.3700
G01 X33.0448 Y41.3551
G01 X33.0842 Y41.3382
G01 X33.1227 Y41.3195
G01 X33.1603 Y41.2990
G01 X33.1969 Y41.2767
G01 X33.2323 Y41.2527
G01 X33.2666 Y41.2270
G01 X33.2997 Y41.1997
G01 X33.3314 Y41.1709
G01 X33.3616 Y41.1406
G01 X33.3905 Y41.1089
G01 X33.4177 Y41.0759
G01 X33.4434 Y41.0416
G01 X33.4674 Y41.0061
G01 X33.4897 Y40.9695
G01 X33.5102 Y40.9319
G01 X33.5290 Y40.8934
G01 X33.5458 Y40.8540
G01 X33.5608 Y40.8139
G01 X33.5738 Y40.7731
G01 X33.5849 Y40.7317
G01 X33.5940 Y40.6899
G01 X33.6011 Y40.6476
G01 X33.6062 Y40.6051
G01 X33.6093 Y40.5624
G01 X33.6103 Y40.5195
G01 X33.6178 Y40.4885 F1000
G01 X33.6243 Y40.4572
G01 X33.6297 Y40.4257
G01 X33.6339 Y40.3940
G01 X33.6371 Y40.3622
G01 X33.6392 Y40.3303
G01 X33.6402 Y40.2984
G01 X33.6400 Y40.2664
G01 X33.6388 Y40.2345
G01 X33.6364 Y40.2026
G01 X33.6330 Y40.1709
G01 X33.6284 Y40.1392
G01 X33.6187 Y40.0877
G01 X33.6064 Y40.0368
G01 X33.5914 Y39.9866
G01 X33.5739 Y39.9372
G01 X33.5539 Y39.8888
G01 X33.5314 Y39.8414
G01 X33.5065 Y39.7953
G01 X33.4793 Y39.7506
G01 X33.4472 Y39.7035
G01 X33.4129 Y39.6582
G01 X33.3762 Y39.6147
G01 X33.3373 Y39.5731
G01 X33.2964 Y39.5336
G01 X33.2536 Y39.4962
G01 X33.2088 Y39.4610
G01 X33.1623 Y39.4282
G01 X33.1104 Y39.3954
G01 X33.0569 Y39.3652
G01 X33.0020 Y39.3379
G01 X32.9457 Y39.3133
G01 X32.8882 Y39.2916
G01 X32.8297 Y39.2729
G01 X32.7704 Y39.2572
G01 X32.7103 Y39.2445
G01 X32.6452 Y39.2342
G01 X32.5796 Y39.2272
G01 X32.5138 Y39.2235
G01 X32.4479 Y39.2231
G01 X32.3820 Y39.2261
G01 X32.3164 Y39.2324
G01 X32.2511 Y39.2421
G01 X32.1865 Y39.2550
G01 X32.1182 Y39.2722
G01 X32.0508 Y39.2929
G01 X31.9846 Y39.3170
G01 X31.9197 Y39.3444
G01 X31.8562 Y39.3750
G01 X31.7943 Y39.4087
G01 X31.7343 Y39.4456
G01 X31.6761 Y39.4854
G01 X31.6226 Y39.5348
G01 X31.5716 Y39.5868
G01 X31.5232 Y39.6413
G01 X31.4776 Y39.6981
G01 X31.4348 Y39.7570
G01 X31.3949 Y39.8180
G01 X31.3581 Y39.8809
G01 X31.3245 Y39.9455
G01 X31.2980 Y40.0142
G01 X31.2749 Y40.0841
G01 X31.2553 Y40.1551
G01 X31.2391 Y40.2269
G01 X31.2265 Y40.2994
G01 X31.2175 Y40.3725
G01 X31.2121 Y40.4459
G01 X31.2103 Y40.5195
G01 X31.2121 Y40.5931
G01 X31.2175 Y40.6666
G01 X31.2265 Y40.7396
G01 X31.2391 Y40.8122
G01 X31.2553 Y40.8840
G01 X31.2749 Y40.9550
G01 X31.2980 Y41.0249
G01 X31.3245 Y41.0936
G01 X31.3543 Y41.1609
G01 X31.3874 Y41.2266
G01 X31.4237 Y41.2907
G01 X31.4631 Y41.3529
G01 X31.5055 Y41.4131
G01 X31.5508 Y41.4711
G01 X31.5989 Y41.5269
G01 X31.6496 Y41.5802
G01 X31.7030 Y41.6309
G01 X31.7587 Y41.6790
G01 X31.8168 Y41.7243
G01 X31.8769 Y41.7667
G01 X31.9391 Y41.8061
G01 X32.0032 Y41.8424
G01 X32.0690 Y41.8755
G01 X32.1363 Y41.9053
G01 X32.2050 Y41.9318
G01 X32.2749 Y41.9549
G01 X32.3458 Y41.9746
G01 X32.4177 Y41.9907
G01 X32.4902 Y42.0033
G01 X32.5633 Y42.0123
G01 X32.6367 Y42.0177
G01 X32.7103 Y42.0195
G01 X32.7839 Y42.0177
G01 X32.8573 Y42.0123
G01 X32.9304 Y42.0033
G01 X33.0029 Y41.9907
G01 X33.0748 Y41.9746
G01 X33.1457 Y41.9549
G01 X33.2156 Y41.9318
G01 X33.2843 Y41.9053
G01 X33.3516 Y41.8755
G01 X33.4174 Y41.8424
G01 X33.4814 Y41.8061
G01 X33.5436 Y41.7667
G01 X33.6038 Y41.7243
G01 X33.6619 Y41.6790
G01 X33.7176 Y41.6309
G01 X33.7709 Y41.5802
G01 X33.8217 Y41.5269
G01 X33.8698 Y41.4711
G01 X33.9151 Y41.4131
G01 X33.9575 Y41.3529
G01 X33.9969 Y41.2907
G01 X34.0331 Y41.2266
G01 X34.0662 Y41.1609
G01 X34.0961 Y41.0936
G01 X34.1226 Y41.0249
G01 X34.1457 Y40.9550
G01 X34.1653 Y40.8840
G01 X34.1814 Y40.8122
G01 X34.1940 Y40.7396
G01 X34.2030 Y40.6666
G01 X34.2085 Y40.5931
G01 X34.2103 Y40.5195
G01 X34.2061 Y40.4074
G01 X34.1935 Y40.2960
G01 X34.1727 Y40.1858
G01 X34.1436 Y40.0774
G01 X34.1066 Y39.9715
G01 X34.0617 Y39.8687
G01 X34.0093 Y39.7696
G01 X33.9496 Y39.6746
G01 X33.8830 Y39.5843
G01 X33.8098 Y39.4993
G01 X33.7305 Y39.4200
G01 X33.6455 Y39.3468
G01 X33.5553 Y39.2802
G01 X33.4603 Y39.2205
G01 X33.3611 Y39.1681
G01 X33.2583 Y39.1233
G01 X33.1524 Y39.0862
G01 X33.0441 Y39.0572
G01 X32.9338 Y39.0363
G01 X32.8224 Y39.0238
G01 X32.7103 Y39.0196
G01 X32.5982 Y39.0238
G01 X32.4867 Y39.0363
G01 X32.3765 Y39.0572
G01 X32.2682 Y39.0862
G01 X32.1623 Y39.1233
G01 X32.0595 Y39.1681
G01 X31.9603 Y39.2205
G01 X31.8653 Y39.2802
G01 X31.7751 Y39.3468
G01 X31.6900 Y39.4200
G01 X31.6107 Y39.4993
G01 X31.5376 Y39.5843
G01 X31.4709 Y39.6746
G01 X31.4113 Y39.7696
G01 X31.3589 Y39.8687
G01 X31.3140 Y39.9715
G01 X31.2770 Y40.0774
G01 X31.2479 Y40.1858
G01 X31.2271 Y40.2960
G01 X31.2145 Y40.4074
G01 X31.2103 Y40.5195
G01 X31.2145 Y40.6316
G01 X31.2271 Y40.7431
G01 X31.2479 Y40.8533
G01 X31.2770 Y40.9617
G01 X31.3140 Y41.0675
G01 X31.3589 Y41.1704
G01 X31.4113 Y41.2695
G01 X31.4709 Y41.3645
G01 X31.5376 Y41.4548
G01 X31.6107 Y41.5398
G01 X31.6900 Y41.6191
G01 X31.7751 Y41.6923
G01 X31.8653 Y41.7589
G01 X31.9603 Y41.8186
G01 X32.0595 Y41.8710
G01 X32.1623 Y41.9158
G01 X32.2682 Y41.9529
G01 X32.3765 Y41.9819
G01 X32.4867 Y42.0028
G01 X32.5982 Y42.0153
G01 X32.7103 Y42.0195
G01 X32.8224 Y42.0153
G01 X32.9338 Y42.0028
G01 X33.0441 Y41.9819
G01 X33.1524 Y41.9529
G01 X33.2583 Y41.9158
G01 X33.3611 Y41.8710
G01 X33.4603 Y41.8186
G01 X33.5553 Y41.7589
G01 X33.6455 Y41.6923
G01 X33.7305 Y41.6191
G01 X33.8098 Y41.5398
G01 X33.8830 Y41.4548
G01 X33.9496 Y41.3645
G01 X34.0093 Y41.2695
G01 X34.0617 Y41.1704
G01 X34.1066 Y41.0675
G01 X34.1436 Y40.9617
G01 X34.1727 Y40.8533
G01 X34.1935 Y40.7431
G01 X34.2061 Y40.6316
G01 X34.2103 Y40.5195
M107
M106 S240
G01 X34.2072 Y40.4411 Z-5.9750 F400
M107
M106 S240
G01 X34.1980 Y40.3631 Z-5.9500
M107
M106 S240
G01 X34.1826 Y40.2861 Z-5.9250
M107
M106 S240
G01 X34.1613 Y40.2105 Z-5.9000
M107
M106 S240
G01 X34.1341 Y40.1369 Z-5.8750
M107
M106 S240
G01 X34.1013 Y40.0655 Z-5.8500
M107
M106 S240
G01 X34.0629 Y39.9970 Z-5.8250
M107
M106 S240
G01 X34.0193 Y39.9318 Z-5.8000
M107
M106 S240
G01 X33.9707 Y39.8701 Z-5.7750
M107
M106 S240
G01 X33.9174 Y39.8124 Z-5.7500
M107
M106 S240
G01 X33.8597 Y39.7591 Z-5.7250
M107
M106 S240
G01 X33.7980 Y39.7105 Z-5.7000
M107
M106 S240
G01 X33.7328 Y39.6669 Z-5.6750
M107
M106 S240
G01 X33.6643 Y39.6285 Z-5.6500
M107
M106 S240
G01 X33.5929 Y39.5957 Z-5.6250
M107
M106 S240
G01 X33.5193 Y39.5685 Z-5.6000
M107
M106 S240
G01 X33.4437 Y39.5472 Z-5.5750
M107
M106 S240
G01 X33.3667 Y39.5319 Z-5.5500
M107
M106 S240
G01 X33.2887 Y39.5226 Z-5.5250
M107
M106 S240
G01 X33.2103 Y39.5195 Z-5.5000
M107
G00 Z2.0000


;No. 2: Hole 49
G00 X54.7162 Y45.3390 Z2.0000
G00 Z0.5000
G01 Z0.0000 F400
G01 Z-1.5000
M106 S240
G01 X73.2882 F1000
G01 Y46.8390
G01 X71.0734
G01 X71.4818
G01 Y48.3390
G01 X73.2882
G01 Y49.8390
G01 X71.4818
G01 Y51.3390
G01 X73.2882
G01 X73.2883 Y52.8390
G01 X71.4818
M107
G00 Z2.0000
G00 X56.9311 Y45.3390
G00 Z0.5000
G01 Z-1.5000 F400
M106 S240
G01 Y46.8390 F1000
G01 X54.7162
G01 Y48.3390
G01 X56.5226
G01 Y49.8390
G01 X54.7162
G01 Y51.3390
G01 X56.5226
G01 Y52.8390
G01 X54.7162
G01 X54.5162 Y52.8239
G01 Y53.9830
G01 X56.7226
G01 Y47.7402
G01 X56.7257 Y47.6617
G01 X56.7349 Y47.5837
G01 X56.7502 Y47.5067
G01 X56.7715 Y47.4311
G01 X56.7987 Y47.3575
G01 X56.8316 Y47.2862
G01 X56.8700 Y47.2177
G01 X56.9136 Y47.1524
G01 X56.9622 Y47.0907
G01 X57.0155 Y47.0331
G01 X57.0732 Y46.9798
G01 X57.1348 Y46.9311
G01 X57.2001 Y46.8875
G01 X57.2686 Y46.8492
G01 X57.3399 Y46.8163
G01 X57.4136 Y46.7891
G01 X57.4892 Y46.7678
G01 X57.5662 Y46.7525
G01 X57.6441 Y46.7432
G01 X57.7226 Y46.7402
G01 X70.2818
G01 X70.3603 Y46.7432
G01 X70.4383 Y46.7525
G01 X70.5153 Y46.7678
G01 X70.5908 Y46.7891
G01 X70.6645 Y46.8163
G01 X70.7358 Y46.8492
G01 X70.8043 Y46.8875
G01 X70.8696 Y46.9311
G01 X70.9313 Y46.9798
G01 X70.9889 Y47.0331
G01 X71.0422 Y47.0907
G01 X71.0908 Y47.1524
G01 X71.1345 Y47.2177
G01 X71.1728 Y47.2862
G01 X71.2057 Y47.3575
G01 X71.2329 Y47.4311
G01 X71.2542 Y47.5067
G01 X71.2695 Y47.5837
G01 X71.2787 Y47.6617
G01 X71.2818 Y47.7402
G01 Y53.9830
G01 X73.4883
G01 X73.4882 Y44.1949
G01 X54.5162
G01 Y52.8239
G01 X54.7162 Y52.8390
M107
G00 Z2.0000


;No. 3: Hole 48
G00 X55.2723 Y59.9542 Z2.0000
G00 Z0.5000
G01 Z0.0000 F400
G01 Z-1.5000
M106 S240
G01 X72.7201 F1000
G01 X72.8610 Y59.8091
G01 X72.7854 Y59.7078
G01 X72.7052 Y59.6101
G01 X72.6204 Y59.5164
G01 X72.5313 Y59.4268
G01 X72.4380 Y59.3414
G01 X72.3408 Y59.2606
G01 X72.2399 Y59.1845
G01 X72.1355 Y59.1132
G01 X72.0279 Y59.0469
G01 X71.9172 Y58.9858
G01 X71.8038 Y58.9300
G01 X71.6879 Y58.8796
G01 X71.5697 Y58.8347
G01 X71.4496 Y58.7955
G01 X71.3277 Y58.7620
G01 X71.2043 Y58.7343
G01 X71.0798 Y58.7125
G01 X70.9545 Y58.6965
G01 X70.8284 Y58.6865
G01 X70.7021 Y58.6825
G01 X57.3047
G01 X57.1602 Y58.6877
G01 X57.0162 Y58.7006
G01 X56.8731 Y58.7210
G01 X56.7312 Y58.7489
G01 X56.5910 Y58.7842
G01 X56.4529 Y58.8268
G01 X56.3172 Y58.8766
G01 X56.1843 Y58.9335
G01 X56.0545 Y58.9973
G01 X55.9283 Y59.0678
G01 X55.8060 Y59.1448
G01 X55.6878 Y59.2281
G01 X55.5743 Y59.3176
G01 X55.4655 Y59.4129
G01 X55.3620 Y59.5137
G01 X55.2638 Y59.6199
G01 X55.1714 Y59.7311
G01 X55.0850 Y59.8469
G01 X55.0047 Y59.9672
G01 X54.9309 Y60.0915
G01 X54.8637 Y60.2195
G01 X54.8033 Y60.3508
G01 X54.7499 Y60.4852
G01 X54.7037 Y60.6222
G01 X54.6559 Y60.7702
G01 X54.6153 Y60.9205
G01 X54.5821 Y61.0725
G01 X54.5562 Y61.2259
G01 X73.4488 Y61.2224
G01 X73.4157 Y61.0319
G01 X73.3707 Y60.8439
G01 X73.3137 Y60.6590
G01 X73.2452 Y60.4782
G01 X73.1653 Y60.3021
G01 X73.0744 Y60.1314
G01 X72.9728 Y59.9669
G01 X72.8610 Y59.8091
G01 X72.7201 Y59.9542
M107
G00 Z2.0000


;No. 4: Hole 50
G00 X79.8869 Y60.2104 Z2.0000
G00 Z0.5000
G01 Z0.0000 F400
G01 Z-1.5000
M106 S240
G01 X82.8533 F1000
G01 X84.2420 Y58.7104
G01 X81.2723
G01 X81.5419
G01 Y57.2104
G01 X85.6308
G01 X87.0195 Y55.7104
G01 X81.5419
G01 Y54.2104
G01 X83.6565
G01 X83.3483
G01 Y52.7104
G01 X81.5419
G01 Y51.2104
G01 X83.3483
G01 Y49.7104
G01 X81.5419
G01 Y48.2104
G01 X83.3483
G01 Y46.7104
G01 X81.5419
G01 Y45.2104
G01 X83.3483
M107
G00 Z2.0000
G00 X85.4418 Y55.7104
G00 Z0.5000
G01 Z-1.5000 F400
M106 S240
G01 Y54.2104 F1000
G01 X88.4082
G01 X89.7970 Y52.7104
G01 X86.8305
G01 X88.2192 Y51.2104
G01 X91.1857
G01 X92.5744 Y49.7104
G01 X89.6080
G01 X90.9967 Y48.2104
G01 X96.7611
G01 Y46.7104
G01 X92.3854
G01 X93.7742 Y45.2104
G01 X96.7611
G01 X94.8492 Y49.7104
G01 X96.7611
G01 Y51.2104
G01 X94.9547
G01 Y52.7104
G01 X96.7611
G01 Y54.2104
G01 X94.9547
G01 Y55.7104
G01 X96.7611
G01 Y57.2104
G01 X94.9547
G01 Y58.7104
G01 X96.7611
G01 Y60.2104
G01 X94.9547
G01 X94.7547 Y60.1929
G01 Y61.2259
G01 X96.9611
G01 Y44.1949
G01 X94.4418
G01 X85.2821 Y54.0885
G01 X85.2500 Y54.1215
G01 X85.2165 Y54.1531
G01 X85.1815 Y54.1831
G01 X85.1452 Y54.2114
G01 X85.1077 Y54.2380
G01 X85.0689 Y54.2629
G01 X85.0291 Y54.2860
G01 X84.9882 Y54.3072
G01 X84.9464 Y54.3265
G01 X84.9037 Y54.3438
G01 X84.8603 Y54.3592
G01 X84.8163 Y54.3725
G01 X84.7716 Y54.3839
G01 X84.7265 Y54.3931
G01 X84.6810 Y54.4003
G01 X84.6353 Y54.4053
G01 X84.5893 Y54.4083
G01 X84.5433 Y54.4091
G01 X84.4972 Y54.4078
G01 X84.4513 Y54.4044
G01 X84.4056 Y54.3989
G01 X84.3602 Y54.3913
G01 X84.3152 Y54.3816
G01 X84.2706 Y54.3698
G01 X84.2267 Y54.3560
G01 X84.1835 Y54.3402
G01 X84.1410 Y54.3224
G01 X84.0994 Y54.3027
G01 X84.0587 Y54.2811
G01 X84.0191 Y54.2576
G01 X83.9806 Y54.2324
G01 X83.9433 Y54.2053
G01 X83.9073 Y54.1766
G01 X83.8726 Y54.1463
G01 X83.8394 Y54.1144
G01 X83.8077 Y54.0811
G01 X83.7775 Y54.0463
G01 X83.7490 Y54.0101
G01 X83.7222 Y53.9727
G01 X83.6971 Y53.9340
G01 X83.6739 Y53.8943
G01 X83.6525 Y53.8535
G01 X83.6330 Y53.8118
G01 X83.6154 Y53.7693
G01 X83.5998 Y53.7259
G01 X83.5862 Y53.6819
G01 X83.5747 Y53.6373
G01 X83.5652 Y53.5923
G01 X83.5578 Y53.5468
G01 X83.5525 Y53.5011
G01 X83.5494 Y53.4552
G01 X83.5483 Y53.4091
G01 Y44.1949
G01 X81.3419
G01 Y57.9526
G01 X81.3408 Y57.9992
G01 X81.3375 Y58.0458
G01 X81.3321 Y58.0921
G01 X81.3245 Y58.1382
G01 X81.3148 Y58.1838
G01 X81.3029 Y58.2290
G01 X81.2890 Y58.2735
G01 X81.2730 Y58.3174
G01 X81.2549 Y58.3604
G01 X81.2349 Y58.4026
G01 X81.2129 Y58.4438
G01 X81.1890 Y58.4839
G01 X81.1633 Y58.5228
G01 X81.1358 Y58.5606
G01 X81.1066 Y58.5969
G01 X81.0757 Y58.6319
G01 X78.6741 Y61.2259
G01 X82.1857
G01 X93.0209 Y49.5225
G01 X93.0817 Y49.4623
G01 X93.1473 Y49.4075
G01 X93.2174 Y49.3585
G01 X93.2914 Y49.3157
G01 X93.3688 Y49.2794
G01 X93.4490 Y49.2498
G01 X93.5314 Y49.2271
G01 X93.6155 Y49.2116
G01 X93.7006 Y49.2033
G01 X93.7861 Y49.2024
G01 X93.8713 Y49.2087
G01 X93.9558 Y49.2223
G01 X94.0387 Y49.2430
G01 X94.1196 Y49.2708
G01 X94.1978 Y49.3054
G01 X94.2727 Y49.3465
G01 X94.3439 Y49.3939
G01 X94.4108 Y49.4471
G01 X94.4728 Y49.5059
G01 X94.5297 Y49.5698
G01 X94.5808 Y49.6383
G01 X94.6259 Y49.7109
G01 X94.6647 Y49.7872
G01 X94.6968 Y49.8664
G01 X94.7220 Y49.9481
G01 X94.7401 Y50.0316
G01 X94.7511 Y50.1164
G01 X94.7547 Y50.2019
G01 Y60.1929
G01 X94.9547 Y60.2104
M107
G00 Z2.0000


;No. 5: Hole 51
G00 X101.6603 Y60.2104 Z2.0000
G00 Z0.5000
G01 Z0.0000 F400
G01 Z-1.5000
M106 S240
G01 X103.4684 F1000
G01 Y58.7104
G01 X101.6603
G01 Y57.2104
G01 X103.4684
G01 Y55.7104
G01 X101.6603
G01 Y54.2104
G01 X103.4684
G01 Y52.7104
G01 X101.6603
G01 Y51.2104
G01 X103.4684
G01 Y49.7104
G01 X101.6603
G01 Y48.2104
G01 X103.4684
G01 Y46.7104
G01 X104.0532
G01 X101.6603
G01 Y45.2104
G01 X119.4490
G01 X119.6137 Y45.0937
G01 X119.5197 Y44.9909
G01 X119.4203 Y44.8933
G01 X119.3158 Y44.8012
G01 X119.2066 Y44.7148
G01 X119.0928 Y44.6343
G01 X118.9750 Y44.5600
G01 X118.8534 Y44.4922
G01 X118.7283 Y44.4309
G01 X118.6001 Y44.3764
G01 X118.4692 Y44.3288
G01 X118.3359 Y44.2883
G01 X118.2006 Y44.2549
G01 X118.0638 Y44.2289
G01 X117.9258 Y44.2101
G01 X117.7869 Y44.1988
G01 X117.6477 Y44.1949
G01 X101.4603
G01 Y61.2259
G01 X103.6684
G01 Y47.7402
G01 X103.6715 Y47.6612
G01 X103.6809 Y47.5827
G01 X103.6964 Y47.5053
G01 X103.7180 Y47.4292
G01 X103.7455 Y47.3552
G01 X103.7788 Y47.2835
G01 X103.8176 Y47.2147
G01 X103.8618 Y47.1491
G01 X103.9109 Y47.0873
G01 X103.9649 Y47.0295
G01 X104.0232 Y46.9762
G01 X104.0855 Y46.9276
G01 X104.1515 Y46.8841
G01 X104.2207 Y46.8460
G01 X104.2927 Y46.8134
G01 X104.3670 Y46.7866
G01 X104.4432 Y46.7658
G01 X104.5209 Y46.7511
G01 X104.5994 Y46.7425
G01 X104.6784 Y46.7402
G01 X120.3940 Y46.7353
G01 X120.3531 Y46.5083
G01 X120.2952 Y46.2850
G01 X120.2204 Y46.0668
G01 X120.1294 Y45.8548
G01 X120.0225 Y45.6504
G01 X119.9005 Y45.4547
G01 X119.7640 Y45.2687
G01 X119.6137 Y45.0937
G01 X119.4490 Y45.2104
M107
G00 Z2.0000


;No. 6: Hole 52
G00 X129.0331 Y54.2104 Z2.0000
G00 Z0.5000
G01 Z0.0000 F400
G01 Z-1.5000
M106 S240
G01 X131.9996 F1000
G01 X133.3883 Y52.7104
G01 X130.4218
G01 X131.8106 Y51.2104
G01 X137.0279
G01 X135.6393 Y49.7104
G01 X133.1991
G01 X133.5160
G01 Y48.2104
G01 X135.3225
G01 Y46.7104
G01 X133.5160
G01 Y45.2104
G01 X135.3225
M107
G00 Z2.0000
G00 X135.4518 Y51.2104
G00 Z0.5000
G01 Z-1.5000 F400
M106 S240
G01 Y52.7104 F1000
G01 X138.4166
G01 X139.8054 Y54.2104
G01 X136.8402
G01 X138.2285 Y55.7104
G01 X141.1941
G01 X142.5828 Y57.2104
G01 X139.6169
G01 X141.0053 Y58.7104
G01 X143.7053
G01 Y60.2104
G01 X141.8989
M107
G00 Z2.0000
G00 X130.6108 Y54.2104
G00 Z0.5000
G01 Z-1.5000 F400
M106 S240
G01 Y55.7104 F1000
G01 X127.6444
G01 X126.2557 Y57.2104
G01 X129.2221
G01 X127.8334 Y58.7104
G01 X125.1332
G01 Y60.2104
G01 X126.9396
G01 X127.1396 Y60.3282
G01 X127.1320 Y60.2510
G01 X127.1299 Y60.1735
G01 X127.1335 Y60.0960
G01 X127.1426 Y60.0190
G01 X127.1574 Y59.9429
G01 X127.1776 Y59.8680
G01 X127.2031 Y59.7948
G01 X127.2339 Y59.7236
G01 X127.2698 Y59.6548
G01 X127.3105 Y59.5888
G01 X127.3560 Y59.5260
G01 X127.4058 Y59.4666
G01 X133.6863 Y52.6829
G01 X133.7181 Y52.6501
G01 X133.7515 Y52.6187
G01 X133.7862 Y52.5889
G01 X133.8222 Y52.5607
G01 X133.8596 Y52.5342
G01 X133.8980 Y52.5094
G01 X133.9376 Y52.4864
G01 X133.9782 Y52.4652
G01 X134.0197 Y52.4459
G01 X134.0621 Y52.4286
G01 X134.1052 Y52.4132
G01 X134.1489 Y52.3998
G01 X134.1933 Y52.3884
G01 X134.2381 Y52.3790
G01 X134.2832 Y52.3717
G01 X134.3287 Y52.3665
G01 X134.3744 Y52.3633
G01 X134.4201 Y52.3623
G01 X134.4659 Y52.3633
G01 X134.5116 Y52.3665
G01 X134.5570 Y52.3717
G01 X134.6022 Y52.3790
G01 X134.6470 Y52.3884
G01 X134.6914 Y52.3998
G01 X134.7351 Y52.4132
G01 X134.7782 Y52.4286
G01 X134.8206 Y52.4460
G01 X134.8621 Y52.4653
G01 X134.9027 Y52.4864
G01 X134.9422 Y52.5094
G01 X134.9807 Y52.5342
G01 X135.0180 Y52.5607
G01 X135.0541 Y52.5889
G01 X135.0888 Y52.6188
G01 X135.1221 Y52.6501
G01 X135.1540 Y52.6830
G01 X141.4327 Y59.4667
G01 X141.4636 Y59.5017
G01 X141.4929 Y59.5380
G01 X141.5204 Y59.5757
G01 X141.5461 Y59.6147
G01 X141.5699 Y59.6548
G01 X141.5919 Y59.6960
G01 X141.6119 Y59.7381
G01 X141.6300 Y59.7812
G01 X141.6460 Y59.8250
G01 X141.6599 Y59.8696
G01 X141.6718 Y59.9147
G01 X141.6815 Y59.9603
G01 X141.6891 Y60.0064
G01 X141.6945 Y60.0527
G01 X141.6978 Y60.0993
G01 X141.6989 Y60.1459
G01 Y61.2259
G01 X143.9053
G01 Y58.3444
G01 X135.7887 Y49.5774
G01 X135.7578 Y49.5425
G01 X135.7285 Y49.5061
G01 X135.7010 Y49.4684
G01 X135.6753 Y49.4294
G01 X135.6514 Y49.3893
G01 X135.6294 Y49.3481
G01 X135.6094 Y49.3060
G01 X135.5914 Y49.2629
G01 X135.5754 Y49.2191
G01 X135.5614 Y49.1745
G01 X135.5496 Y49.1294
G01 X135.5398 Y49.0837
G01 X135.5322 Y49.0377
G01 X135.5268 Y48.9913
G01 X135.5235 Y48.9447
G01 X135.5225 Y48.8981
G01 Y44.1949
G01 X133.3160
G01 Y48.8981
G01 X133.3149 Y48.9447
G01 X133.3117 Y48.9913
G01 X133.3062 Y49.0377
G01 X133.2987 Y49.0837
G01 X133.2889 Y49.1294
G01 X133.2771 Y49.1745
G01 X133.2631 Y49.2191
G01 X133.2471 Y49.2629
G01 X133.2291 Y49.3060
G01 X133.2090 Y49.3481
G01 X133.1871 Y49.3893
G01 X133.1632 Y49.4294
G01 X133.1375 Y49.4684
G01 X133.1100 Y49.5061
G01 X133.0807 Y49.5425
G01 X133.0498 Y49.5774
G01 X124.9332 Y58.3444
G01 Y61.2259
G01 X127.1396
G01 Y60.3282
G01 X126.9396 Y60.2104
M107
G00 Z2.0000


;No. 7: Helical drill 7
G00 X166.6103 Y40.5195 Z2.0000
G00 Z0.5000
M106 S240
G01 X166.6093 Y40.4767 Z0.4877 F400
G01 X166.6062 Y40.4340 Z0.4754
G01 X166.6011 Y40.3914 Z0.4631
G01 X166.5940 Y40.3492 Z0.4508
G01 X166.5849 Y40.3073 Z0.4384
G01 X166.5738 Y40.2660 Z0.4261
G01 X166.5608 Y40.2252 Z0.4138
G01 X166.5458 Y40.1850 Z0.4015
G01 X166.5290 Y40.1456 Z0.3892
G01 X166.5103 Y40.1071 Z0.3769
G01 X166.4897 Y40.0695 Z0.3646
G01 X166.4674 Y40.0329 Z0.3523
G01 X166.4434 Y39.9975 Z0.3400
G01 X166.4177 Y39.9632 Z0.3277
G01 X166.3905 Y39.9301 Z0.3153
G01 X166.3617 Y39.8984 Z0.3030
G01 X166.3314 Y39.8682 Z0.2907
G01 X166.2997 Y39.8393 Z0.2784
G01 X166.2666 Y39.8121 Z0.2661
G01 X166.2324 Y39.7864 Z0.2538
G01 X166.1969 Y39.7624 Z0.2415
G01 X166.1603 Y39.7401 Z0.2292
G01 X166.1227 Y39.7196 Z0.2169
G01 X166.0842 Y39.7008 Z0.2045
G01 X166.0448 Y39.6840 Z0.1922
G01 X166.0047 Y39.6690 Z0.1799
G01 X165.9639 Y39.6560 Z0.1676
G01 X165.9225 Y39.6449 Z0.1553
G01 X165.8806 Y39.6358 Z0.1430
G01 X165.8384 Y39.6287 Z0.1307
G01 X165.7959 Y39.6236 Z0.1184
G01 X165.7531 Y39.6205 Z0.1061
G01 X165.7103 Y39.6195 Z0.0938
G01 X165.6675 Y39.6205 Z0.0814
G01 X165.6248 Y39.6236 Z0.0691
G01 X165.5822 Y39.6287 Z0.0568
G01 X165.5400 Y39.6358 Z0.0445
G01 X165.4981 Y39.6449 Z0.0322
G01 X165.4567 Y39.6560 Z0.0199
G01 X165.4159 Y39.6690 Z0.0076
G01 X165.3758 Y39.6840 Z-0.0047
G01 X165.3364 Y39.7008 Z-0.0170
G01 X165.2979 Y39.7196 Z-0.0294
G01 X165.2603 Y39.7401 Z-0.0417
G01 X165.2237 Y39.7624 Z-0.0540
G01 X165.1883 Y39.7864 Z-0.0663
G01 X165.1540 Y39.8121 Z-0.0786
G01 X165.1209 Y39.8393 Z-0.0909
G01 X165.0892 Y39.8682 Z-0.1032
G01 X165.0589 Y39.8984 Z-0.1155
G01 X165.0301 Y39.9301 Z-0.1278
G01 X165.0029 Y39.9632 Z-0.1402
G01 X164.9772 Y39.9975 Z-0.1525
G01 X164.9532 Y40.0329 Z-0.1648
G01 X164.9309 Y40.0695 Z-0.1771
G01 X164.9104 Y40.1071 Z-0.1894
G01 X164.8916 Y40.1456 Z-0.2017
G01 X164.8748 Y40.1850 Z-0.2140
G01 X164.8598 Y40.2252 Z-0.2263
G01 X164.8468 Y40.2660 Z-0.2386
G01 X164.8357 Y40.3073 Z-0.2509
G01 X164.8266 Y40.3492 Z-0.2633
G01 X164.8195 Y40.3914 Z-0.2756
G01 X164.8144 Y40.4340 Z-0.2879
G01 X164.8113 Y40.4767 Z-0.3002
G01 X164.8103 Y40.5195 Z-0.3125
G01 X164.8113 Y40.5623 Z-0.3248
G01 X164.8144 Y40.6051 Z-0.3371
G01 X164.8195 Y40.6476 Z-0.3494
G01 X164.8266 Y40.6898 Z-0.3617
G01 X164.8357 Y40.7317 Z-0.3741
G01 X164.8468 Y40.7731 Z-0.3864
G01 X164.8598 Y40.8139 Z-0.3987
G01 X164.8748 Y40.8540 Z-0.4110
G01 X164.8916 Y40.8934 Z-0.4233
G01 X164.9104 Y40.9319 Z-0.4356
G01 X164.9309 Y40.9695 Z-0.4479
G01 X164.9532 Y41.0061 Z-0.4602
G01 X164.9772 Y41.0416 Z-0.4725
G01 X165.0029 Y41.0759 Z-0.4848
G01 X165.0301 Y41.1089 Z-0.4972
G01 X165.0589 Y41.1406 Z-0.5095
G01 X165.0892 Y41.1709 Z-0.5218
G01 X165.1209 Y41.1997 Z-0.5341
G01 X165.1540 Y41.2270 Z-0.5464
G01 X165.1883 Y41.2526 Z-0.5587
G01 X165.2237 Y41.2766 Z-0.5710
G01 X165.2603 Y41.2989 Z-0.5833
G01 X165.2979 Y41.3195 Z-0.5956
G01 X165.3364 Y41.3382 Z-0.6080
G01 X165.3758 Y41.3550 Z-0.6203
G01 X165.4159 Y41.3700 Z-0.6326
G01 X165.4567 Y41.3831 Z-0.6449
G01 X165.4981 Y41.3941 Z-0.6572
G01 X165.5400 Y41.4033 Z-0.6695
G01 X165.5822 Y41.4104 Z-0.6818
G01 X165.6248 Y41.4154 Z-0.6941
G01 X165.6675 Y41.4185 Z-0.7064
G01 X165.7103 Y41.4195 Z-0.7188
G01 X165.7531 Y41.4185 Z-0.7311
G01 X165.7959 Y41.4154 Z-0.7434
G01 X165.8384 Y41.4104 Z-0.7557
G01 X165.8806 Y41.4033 Z-0.7680
G01 X165.9225 Y41.3941 Z-0.7803
G01 X165.9639 Y41.3831 Z-0.7926
G01 X166.0047 Y41.3700 Z-0.8049
G01 X166.0448 Y41.3550 Z-0.8172
G01 X166.0842 Y41.3382 Z-0.8295
G01 X166.1227 Y41.3195 Z-0.8419
G01 X166.1603 Y41.2989 Z-0.8542
G01 X166.1969 Y41.2766 Z-0.8665
G01 X166.2324 Y41.2526 Z-0.8788
G01 X166.2666 Y41.2270 Z-0.8911
G01 X166.2997 Y41.1997 Z-0.9034
G01 X166.3314 Y41.1709 Z-0.9157
G01 X166.3617 Y41.1406 Z-0.9280
G01 X166.3905 Y41.1089 Z-0.9403
G01 X166.4177 Y41.0759 Z-0.9527
G01 X166.4434 Y41.0416 Z-0.9650
G01 X166.4674 Y41.0061 Z-0.9773
G01 X166.4897 Y40.9695 Z-0.9896
G01 X166.5103 Y40.9319 Z-1.0019
G01 X166.5290 Y40.8934 Z-1.0142
G01 X166.5458 Y40.8540 Z-1.0265
G01 X166.5608 Y40.8139 Z-1.0388
G01 X166.5738 Y40.7731 Z-1.0511
G01 X166.5849 Y40.7317 Z-1.0634
G01 X166.5940 Y40.6898 Z-1.0758
G01 X166.6011 Y40.6476 Z-1.0881
G01 X166.6062 Y40.6051 Z-1.1004
G01 X166.6093 Y40.5623 Z-1.1127
G01 X166.6103 Y40.5195 Z-1.1250
G01 X166.6093 Y40.4767
G01 X166.6062 Y40.4340
G01 X166.6011 Y40.3914
G01 X166.5940 Y40.3492
G01 X166.5849 Y40.3073
G01 X166.5738 Y40.2660
G01 X166.5608 Y40.2252
G01 X166.5458 Y40.1850
G01 X166.5290 Y40.1456
G01 X166.5103 Y40.1071
G01 X166.4897 Y40.0695
G01 X166.4674 Y40.0329
G01 X166.4434 Y39.9975
G01 X166.4177 Y39.9632
G01 X166.3905 Y39.9301
G01 X166.3617 Y39.8984
G01 X166.3314 Y39.8682
G01 X166.2997 Y39.8393
G01 X166.2666 Y39.8121
G01 X166.2324 Y39.7864
G01 X166.1969 Y39.7624
G01 X166.1603 Y39.7401
G01 X166.1227 Y39.7196
G01 X166.0842 Y39.7008
G01 X166.0448 Y39.6840
G01 X166.0047 Y39.6690
G01 X165.9639 Y39.6560
G01 X165.9225 Y39.6449
G01 X165.8806 Y39.6358
G01 X165.8384 Y39.6287
G01 X165.7959 Y39.6236
G01 X165.7531 Y39.6205
G01 X165.7103 Y39.6195
G01 X165.6675 Y39.6205
G01 X165.6248 Y39.6236
G01 X165.5822 Y39.6287
G01 X165.5400 Y39.6358
G01 X165.4981 Y39.6449
G01 X165.4567 Y39.6560
G01 X165.4159 Y39.6690
G01 X165.3758 Y39.6840
G01 X165.3364 Y39.7008
G01 X165.2979 Y39.7196
G01 X165.2603 Y39.7401
G01 X165.2237 Y39.7624
G01 X165.1883 Y39.7864
G01 X165.1540 Y39.8121
G01 X165.1209 Y39.8393
G01 X165.0892 Y39.8682
G01 X165.0589 Y39.8984
G01 X165.0301 Y39.9301
G01 X165.0029 Y39.9632
G01 X164.9772 Y39.9975
G01 X164.9532 Y40.0329
G01 X164.9309 Y40.0695
G01 X164.9104 Y40.1071
G01 X164.8916 Y40.1456
G01 X164.8748 Y40.1850
G01 X164.8598 Y40.2252
G01 X164.8468 Y40.2660
G01 X164.8357 Y40.3073
G01 X164.8266 Y40.3492
G01 X164.8195 Y40.3914
G01 X164.8144 Y40.4340
G01 X164.8113 Y40.4767
G01 X164.8103 Y40.5195
G01 X164.8113 Y40.5623
G01 X164.8144 Y40.6051
G01 X164.8195 Y40.6476
G01 X164.8266 Y40.6898
G01 X164.8357 Y40.7317
G01 X164.8468 Y40.7731
G01 X164.8598 Y40.8139
G01 X164.8748 Y40.8540
G01 X164.8916 Y40.8934
G01 X164.9104 Y40.9319
G01 X164.9309 Y40.9695
G01 X164.9532 Y41.0061
G01 X164.9772 Y41.0416
G01 X165.0029 Y41.0759
G01 X165.0301 Y41.1089
G01 X165.0589 Y41.1406
G01 X165.0892 Y41.1709
G01 X165.1209 Y41.1997
G01 X165.1540 Y41.2270
G01 X165.1883 Y41.2526
G01 X165.2237 Y41.2766
G01 X165.2603 Y41.2989
G01 X165.2979 Y41.3195
G01 X165.3364 Y41.3382
G01 X165.3758 Y41.3550
G01 X165.4159 Y41.3700
G01 X165.4567 Y41.3831
G01 X165.4981 Y41.3941
G01 X165.5400 Y41.4033
G01 X165.5822 Y41.4104
G01 X165.6248 Y41.4154
G01 X165.6675 Y41.4185
G01 X165.7103 Y41.4195
G01 X165.7531 Y41.4185
G01 X165.7959 Y41.4154
G01 X165.8384 Y41.4104
G01 X165.8806 Y41.4033
G01 X165.9225 Y41.3941
G01 X165.9639 Y41.3831
G01 X166.0047 Y41.3700
G01 X166.0448 Y41.3550
G01 X166.0842 Y41.3382
G01 X166.1227 Y41.3195
G01 X166.1603 Y41.2989
G01 X166.1969 Y41.2766
G01 X166.2324 Y41.2526
G01 X166.2666 Y41.2270
G01 X166.2997 Y41.1997
G01 X166.3314 Y41.1709
G01 X166.3617 Y41.1406
G01 X166.3905 Y41.1089
G01 X166.4177 Y41.0759
G01 X166.4434 Y41.0416
G01 X166.4674 Y41.0061
G01 X166.4897 Y40.9695
G01 X166.5103 Y40.9319
G01 X166.5290 Y40.8934
G01 X166.5458 Y40.8540
G01 X166.5608 Y40.8139
G01 X166.5738 Y40.7731
G01 X166.5849 Y40.7317
G01 X166.5940 Y40.6898
G01 X166.6011 Y40.6476
G01 X166.6062 Y40.6051
G01 X166.6093 Y40.5623
G01 X166.6103 Y40.5195
G01 X166.6178 Y40.4885 F1000
G01 X166.6243 Y40.4572
G01 X166.6297 Y40.4257
G01 X166.6340 Y40.3940
G01 X166.6371 Y40.3622
G01 X166.6392 Y40.3303
G01 X166.6402 Y40.2984
G01 X166.6400 Y40.2664
G01 X166.6388 Y40.2345
G01 X166.6364 Y40.2026
G01 X166.6330 Y40.1709
G01 X166.6284 Y40.1392
G01 X166.6187 Y40.0877
G01 X166.6064 Y40.0368
G01 X166.5915 Y39.9866
G01 X166.5739 Y39.9372
G01 X166.5539 Y39.8887
G01 X166.5314 Y39.8414
G01 X166.5065 Y39.7953
G01 X166.4793 Y39.7505
G01 X166.4473 Y39.7035
G01 X166.4129 Y39.6582
G01 X166.3762 Y39.6147
G01 X166.3374 Y39.5731
G01 X166.2964 Y39.5336
G01 X166.2536 Y39.4962
G01 X166.2088 Y39.4610
G01 X166.1623 Y39.4282
G01 X166.1104 Y39.3954
G01 X166.0569 Y39.3652
G01 X166.0020 Y39.3378
G01 X165.9457 Y39.3133
G01 X165.8882 Y39.2916
G01 X165.8298 Y39.2729
G01 X165.7704 Y39.2572
G01 X165.7103 Y39.2445
G01 X165.6452 Y39.2342
G01 X165.5796 Y39.2272
G01 X165.5138 Y39.2235
G01 X165.4479 Y39.2231
G01 X165.3820 Y39.2261
G01 X165.3164 Y39.2324
G01 X165.2512 Y39.2420
G01 X165.1865 Y39.2550
G01 X165.1182 Y39.2722
G01 X165.0508 Y39.2929
G01 X164.9846 Y39.3170
G01 X164.9197 Y39.3443
G01 X164.8562 Y39.3749
G01 X164.7944 Y39.4087
G01 X164.7343 Y39.4456
G01 X164.6762 Y39.4854
G01 X164.6226 Y39.5348
G01 X164.5716 Y39.5868
G01 X164.5232 Y39.6413
G01 X164.4776 Y39.6980
G01 X164.4348 Y39.7570
G01 X164.3949 Y39.8180
G01 X164.3581 Y39.8809
G01 X164.3245 Y39.9455
G01 X164.2980 Y40.0142
G01 X164.2749 Y40.0841
G01 X164.2553 Y40.1551
G01 X164.2391 Y40.2269
G01 X164.2266 Y40.2994
G01 X164.2175 Y40.3725
G01 X164.2121 Y40.4459
G01 X164.2103 Y40.5195
G01 X164.2121 Y40.5931
G01 X164.2175 Y40.6665
G01 X164.2266 Y40.7396
G01 X164.2391 Y40.8121
G01 X164.2553 Y40.8840
G01 X164.2749 Y40.9549
G01 X164.2980 Y41.0248
G01 X164.3245 Y41.0935
G01 X164.3543 Y41.1608
G01 X164.3874 Y41.2266
G01 X164.4237 Y41.2907
G01 X164.4631 Y41.3529
G01 X164.5055 Y41.4131
G01 X164.5508 Y41.4711
G01 X164.5989 Y41.5268
G01 X164.6497 Y41.5802
G01 X164.7030 Y41.6309
G01 X164.7587 Y41.6790
G01 X164.8168 Y41.7243
G01 X164.8770 Y41.7667
G01 X164.9392 Y41.8061
G01 X165.0032 Y41.8424
G01 X165.0690 Y41.8755
G01 X165.1363 Y41.9053
G01 X165.2050 Y41.9318
G01 X165.2749 Y41.9549
G01 X165.3458 Y41.9745
G01 X165.4177 Y41.9907
G01 X165.4902 Y42.0033
G01 X165.5633 Y42.0123
G01 X165.6367 Y42.0177
G01 X165.7103 Y42.0195
G01 X165.7839 Y42.0177
G01 X165.8573 Y42.0123
G01 X165.9304 Y42.0033
G01 X166.0029 Y41.9907
G01 X166.0748 Y41.9745
G01 X166.1457 Y41.9549
G01 X166.2156 Y41.9318
G01 X166.2843 Y41.9053
G01 X166.3516 Y41.8755
G01 X166.4174 Y41.8424
G01 X166.4814 Y41.8061
G01 X166.5436 Y41.7667
G01 X166.6038 Y41.7243
G01 X166.6619 Y41.6790
G01 X166.7176 Y41.6309
G01 X166.7709 Y41.5802
G01 X166.8217 Y41.5268
G01 X166.8698 Y41.4711
G01 X166.9151 Y41.4131
G01 X166.9575 Y41.3529
G01 X166.9969 Y41.2907
G01 X167.0332 Y41.2266
G01 X167.0663 Y41.1608
G01 X167.0961 Y41.0935
G01 X167.1226 Y41.0248
G01 X167.1457 Y40.9549
G01 X167.1653 Y40.8840
G01 X167.1815 Y40.8121
G01 X167.1940 Y40.7396
G01 X167.2031 Y40.6665
G01 X167.2085 Y40.5931
G01 X167.2103 Y40.5195
G01 X167.2061 Y40.4074
G01 X167.1935 Y40.2960
G01 X167.1727 Y40.1857
G01 X167.1436 Y40.0774
G01 X167.1066 Y39.9715
G01 X167.0617 Y39.8687
G01 X167.0093 Y39.7695
G01 X166.9496 Y39.6745
G01 X166.8830 Y39.5843
G01 X166.8099 Y39.4993
G01 X166.7305 Y39.4200
G01 X166.6455 Y39.3468
G01 X166.5553 Y39.2802
G01 X166.4603 Y39.2205
G01 X166.3611 Y39.1681
G01 X166.2583 Y39.1232
G01 X166.1524 Y39.0862
G01 X166.0441 Y39.0571
G01 X165.9339 Y39.0363
G01 X165.8224 Y39.0237
G01 X165.7103 Y39.0195
G01 X165.5982 Y39.0237
G01 X165.4867 Y39.0363
G01 X165.3765 Y39.0571
G01 X165.2682 Y39.0862
G01 X165.1623 Y39.1232
G01 X165.0595 Y39.1681
G01 X164.9603 Y39.2205
G01 X164.8653 Y39.2802
G01 X164.7751 Y39.3468
G01 X164.6901 Y39.4200
G01 X164.6107 Y39.4993
G01 X164.5376 Y39.5843
G01 X164.4710 Y39.6745
G01 X164.4113 Y39.7695
G01 X164.3589 Y39.8687
G01 X164.3140 Y39.9715
G01 X164.2770 Y40.0774
G01 X164.2479 Y40.1857
G01 X164.2271 Y40.2960
G01 X164.2145 Y40.4074
G01 X164.2103 Y40.5195
G01 X164.2145 Y40.6316
G01 X164.2271 Y40.7431
G01 X164.2479 Y40.8533
G01 X164.2770 Y40.9616
G01 X164.3140 Y41.0675
G01 X164.3589 Y41.1703
G01 X164.4113 Y41.2695
G01 X164.4710 Y41.3645
G01 X164.5376 Y41.4547
G01 X164.6107 Y41.5398
G01 X164.6901 Y41.6191
G01 X164.7751 Y41.6922
G01 X164.8653 Y41.7589
G01 X164.9603 Y41.8185
G01 X165.0595 Y41.8710
G01 X165.1623 Y41.9158
G01 X165.2682 Y41.9529
G01 X165.3765 Y41.9819
G01 X165.4867 Y42.0027
G01 X165.5982 Y42.0153
G01 X165.7103 Y42.0195
G01 X165.8224 Y42.0153
G01 X165.9339 Y42.0027
G01 X166.0441 Y41.9819
G01 X166.1524 Y41.9529
G01 X166.2583 Y41.9158
G01 X166.3611 Y41.8710
G01 X166.4603 Y41.8185
G01 X166.5553 Y41.7589
G01 X166.6455 Y41.6922
G01 X166.7305 Y41.6191
G01 X166.8099 Y41.5398
G01 X166.8830 Y41.4547
G01 X166.9496 Y41.3645
G01 X167.0093 Y41.2695
G01 X167.0617 Y41.1703
G01 X167.1066 Y41.0675
G01 X167.1436 Y40.9616
G01 X167.1727 Y40.8533
G01 X167.1935 Y40.7431
G01 X167.2061 Y40.6316
G01 X167.2103 Y40.5195
G01 X167.2057 Y40.4149
G01 X167.1921 Y40.3111
G01 X167.1694 Y40.2089
G01 X167.1379 Y40.1091
G01 X167.0979 Y40.0124
G01 X167.0495 Y39.9195
G01 X166.9933 Y39.8312
G01 X166.9295 Y39.7482
G01 X166.8588 Y39.6710
G01 X166.7816 Y39.6003
G01 X166.6986 Y39.5365
G01 X166.6103 Y39.4803
G01 X166.5174 Y39.4320
G01 X166.4207 Y39.3919
G01 X166.3209 Y39.3604
G01 X166.2187 Y39.3378
G01 X166.1149 Y39.3241
G01 X166.0103 Y39.3195
G01 X165.9057 Y39.3241
G01 X165.8019 Y39.3378
G01 X165.6997 Y39.3604
G01 X165.5999 Y39.3919
G01 X165.5032 Y39.4320
G01 X165.4103 Y39.4803
G01 X165.3220 Y39.5365
G01 X165.2390 Y39.6003
G01 X165.1618 Y39.6710
G01 X165.0910 Y39.7482
G01 X165.0273 Y39.8312
G01 X164.9711 Y39.9195
G01 X164.9227 Y40.0124
G01 X164.8827 Y40.1091
G01 X164.8512 Y40.2089
G01 X164.8285 Y40.3111
G01 X164.8149 Y40.4149
G01 X164.8103 Y40.5195
G01 X164.8114 Y40.5637
G01 X164.8146 Y40.6077
G01 X164.8200 Y40.6516
G01 X164.8276 Y40.6951
G01 X164.8373 Y40.7382
G01 X164.8491 Y40.7808
G01 X164.8629 Y40.8227
G01 X164.8788 Y40.8639
G01 X164.8967 Y40.9043
G01 X164.9166 Y40.9438
G01 X164.9383 Y40.9822
G01 X164.9620 Y41.0195
G01 X164.9874 Y41.0556
G01 X165.0146 Y41.0905
G01 X165.0434 Y41.1239
G01 X165.0739 Y41.1559
G01 X165.1059 Y41.1864
G01 X165.1393 Y41.2152
G01 X165.1742 Y41.2424
G01 X165.2103 Y41.2678
G01 X165.2476 Y41.2915
G01 X165.2860 Y41.3132
G01 X165.3255 Y41.3331
G01 X165.3659 Y41.3510
G01 X165.4071 Y41.3669
G01 X165.4490 Y41.3808
G01 X165.4916 Y41.3925
G01 X165.5347 Y41.4022
G01 X165.5782 Y41.4098
G01 X165.6221 Y41.4152
G01 X165.6661 Y41.4184
G01 X165.7103 Y41.4195
G01 X165.7545 Y41.4184
G01 X165.7985 Y41.4152
G01 X165.8424 Y41.4098
G01 X165.8859 Y41.4022
G01 X165.9290 Y41.3925
G01 X165.9716 Y41.3808
G01 X166.0135 Y41.3669
G01 X166.0547 Y41.3510
G01 X166.0951 Y41.3331
G01 X166.1346 Y41.3132
G01 X166.1730 Y41.2915
G01 X166.2103 Y41.2678
G01 X166.2464 Y41.2424
G01 X166.2813 Y41.2152
G01 X166.3147 Y41.1864
G01 X166.3467 Y41.1559
G01 X166.3772 Y41.1239
G01 X166.4060 Y41.0905
G01 X166.4332 Y41.0556
G01 X166.4586 Y41.0195
G01 X166.4823 Y40.9822
G01 X166.5040 Y40.9438
G01 X166.5239 Y40.9043
G01 X166.5418 Y40.8639
G01 X166.5577 Y40.8227
G01 X166.5715 Y40.7808
G01 X166.5833 Y40.7382
G01 X166.5930 Y40.6951
G01 X166.6006 Y40.6516
G01 X166.6060 Y40.6077
G01 X166.6092 Y40.5637
G01 X166.6103 Y40.5195
M107
M106 S240
G01 X166.6093 Y40.4767 Z-1.1373 F400
G01 X166.6062 Y40.4340 Z-1.1496
G01 X166.6011 Y40.3914 Z-1.1619
G01 X166.5940 Y40.3492 Z-1.1742
G01 X166.5849 Y40.3073 Z-1.1866
G01 X166.5738 Y40.2660 Z-1.1989
G01 X166.5608 Y40.2252 Z-1.2112
G01 X166.5458 Y40.1850 Z-1.2235
G01 X166.5290 Y40.1456 Z-1.2358
G01 X166.5103 Y40.1071 Z-1.2481
G01 X166.4897 Y40.0695 Z-1.2604
G01 X166.4674 Y40.0329 Z-1.2727
G01 X166.4434 Y39.9975 Z-1.2850
G01 X166.4177 Y39.9632 Z-1.2973
G01 X166.3905 Y39.9301 Z-1.3097
G01 X166.3617 Y39.8984 Z-1.3220
G01 X166.3314 Y39.8682 Z-1.3343
G01 X166.2997 Y39.8393 Z-1.3466
G01 X166.2666 Y39.8121 Z-1.3589
G01 X166.2324 Y39.7864 Z-1.3712
G01 X166.1969 Y39.7624 Z-1.3835
G01 X166.1603 Y39.7401 Z-1.3958
G01 X166.1227 Y39.7196 Z-1.4081
G01 X166.0842 Y39.7008 Z-1.4205
G01 X166.0448 Y39.6840 Z-1.4328
G01 X166.0047 Y39.6690 Z-1.4451
G01 X165.9639 Y39.6560 Z-1.4574
G01 X165.9225 Y39.6449 Z-1.4697
G01 X165.8806 Y39.6358 Z-1.4820
G01 X165.8384 Y39.6287 Z-1.4943
G01 X165.7959 Y39.6236 Z-1.5066
G01 X165.7531 Y39.6205 Z-1.5189
G01 X165.7103 Y39.6195 Z-1.5313
G01 X165.6675 Y39.6205 Z-1.5436
G01 X165.6248 Y39.6236 Z-1.5559
G01 X165.5822 Y39.6287 Z-1.5682
G01 X165.5400 Y39.6358 Z-1.5805
G01 X165.4981 Y39.6449 Z-1.5928
G01 X165.4567 Y39.6560 Z-1.6051
G01 X165.4159 Y39.6690 Z-1.6174
G01 X165.3758 Y39.6840 Z-1.6297
G01 X165.3364 Y39.7008 Z-1.6420
G01 X165.2979 Y39.7196 Z-1.6544
G01 X165.2603 Y39.7401 Z-1.6667
G01 X165.2237 Y39.7624 Z-1.6790
G01 X165.1883 Y39.7864 Z-1.6913
G01 X165.1540 Y39.8121 Z-1.7036
G01 X165.1209 Y39.8393 Z-1.7159
G01 X165.0892 Y39.8682 Z-1.7282
G01 X165.0589 Y39.8984 Z-1.7405
G01 X165.0301 Y39.9301 Z-1.7528
G01 X165.0029 Y39.9632 Z-1.7652
G01 X164.9772 Y39.9975 Z-1.7775
G01 X164.9532 Y40.0329 Z-1.7898
G01 X164.9309 Y40.0695 Z-1.8021
G01 X164.9104 Y40.1071 Z-1.8144
G01 X164.8916 Y40.1456 Z-1.8267
G01 X164.8748 Y40.1850 Z-1.8390
G01 X164.8598 Y40.2252 Z-1.8513
G01 X164.8468 Y40.2660 Z-1.8636
G01 X164.8357 Y40.3073 Z-1.8759
G01 X164.8266 Y40.3492 Z-1.8883
G01 X164.8195 Y40.3914 Z-1.9006
G01 X164.8144 Y40.4340 Z-1.9129
G01 X164.8113 Y40.4767 Z-1.9252
G01 X164.8103 Y40.5195 Z-1.9375
G01 X164.8113 Y40.5623 Z-1.9498
G01 X164.8144 Y40.6051 Z-1.9621
G01 X164.8195 Y40.6476 Z-1.9744
G01 X164.8266 Y40.6898 Z-1.9867
G01 X164.8357 Y40.7317 Z-1.9991
G01 X164.8468 Y40.7731 Z-2.0114
G01 X164.8598 Y40.8139 Z-2.0237
G01 X164.8748 Y40.8540 Z-2.0360
G01 X164.8916 Y40.8934 Z-2.0483
G01 X164.9104 Y40.9319 Z-2.0606
G01 X164.9309 Y40.9695 Z-2.0729
G01 X164.9532 Y41.0061 Z-2.0852
G01 X164.9772 Y41.0416 Z-2.0975
G01 X165.0029 Y41.0759 Z-2.1098
G01 X165.0301 Y41.1089 Z-2.1222
G01 X165.0589 Y41.1406 Z-2.1345
G01 X165.0892 Y41.1709 Z-2.1468
G01 X165.1209 Y41.1997 Z-2.1591
G01 X165.1540 Y41.2270 Z-2.1714
G01 X165.1883 Y41.2526 Z-2.1837
G01 X165.2237 Y41.2766 Z-2.1960
G01 X165.2603 Y41.2989 Z-2.2083
G01 X165.2979 Y41.3195 Z-2.2206
G01 X165.3364 Y41.3382 Z-2.2330
G01 X165.3758 Y41.3550 Z-2.2453
G01 X165.4159 Y41.3700 Z-2.2576
G01 X165.4567 Y41.3831 Z-2.2699
G01 X165.4981 Y41.3941 Z-2.2822
G01 X165.5400 Y41.4033 Z-2.2945
G01 X165.5822 Y41.4104 Z-2.3068
G01 X165.6248 Y41.4154 Z-2.3191
G01 X165.6675 Y41.4185 Z-2.3314
G01 X165.7103 Y41.4195 Z-2.3438
G01 X165.7531 Y41.4185 Z-2.3561
G01 X165.7959 Y41.4154 Z-2.3684
G01 X165.8384 Y41.4104 Z-2.3807
G01 X165.8806 Y41.4033 Z-2.3930
G01 X165.9225 Y41.3941 Z-2.4053
G01 X165.9639 Y41.3831 Z-2.4176
G01 X166.0047 Y41.3700 Z-2.4299
G01 X166.0448 Y41.3550 Z-2.4422
G01 X166.0842 Y41.3382 Z-2.4545
G01 X166.1227 Y41.3195 Z-2.4669
G01 X166.1603 Y41.2989 Z-2.4792
G01 X166.1969 Y41.2766 Z-2.4915
G01 X166.2324 Y41.2526 Z-2.5038
G01 X166.2666 Y41.2270 Z-2.5161
G01 X166.2997 Y41.1997 Z-2.5284
G01 X166.3314 Y41.1709 Z-2.5407
G01 X166.3617 Y41.1406 Z-2.5530
G01 X166.3905 Y41.1089 Z-2.5653
G01 X166.4177 Y41.0759 Z-2.5777
G01 X166.4434 Y41.0416 Z-2.5900
G01 X166.4674 Y41.0061 Z-2.6023
G01 X166.4897 Y40.9695 Z-2.6146
G01 X166.5103 Y40.9319 Z-2.6269
G01 X166.5290 Y40.8934 Z-2.6392
G01 X166.5458 Y40.8540 Z-2.6515
G01 X166.5608 Y40.8139 Z-2.6638
G01 X166.5738 Y40.7731 Z-2.6761
G01 X166.5849 Y40.7317 Z-2.6884
G01 X166.5940 Y40.6898 Z-2.7008
G01 X166.6011 Y40.6476 Z-2.7131
G01 X166.6062 Y40.6051 Z-2.7254
G01 X166.6093 Y40.5623 Z-2.7377
G01 X166.6103 Y40.5195 Z-2.7500
G01 X166.6093 Y40.4767
G01 X166.6062 Y40.4340
G01 X166.6011 Y40.3914
G01 X166.5940 Y40.3492
G01 X166.5849 Y40.3073
G01 X166.5738 Y40.2660
G01 X166.5608 Y40.2252
G01 X166.5458 Y40.1850
G01 X166.5290 Y40.1456
G01 X166.5103 Y40.1071
G01 X166.4897 Y40.0695
G01 X166.4674 Y40.0329
G01 X166.4434 Y39.9975
G01 X166.4177 Y39.9632
G01 X166.3905 Y39.9301
G01 X166.3617 Y39.8984
G01 X166.3314 Y39.8682
G01 X166.2997 Y39.8393
G01 X166.2666 Y39.8121
G01 X166.2324 Y39.7864
G01 X166.1969 Y39.7624
G01 X166.1603 Y39.7401
G01 X166.1227 Y39.7196
G01 X166.0842 Y39.7008
G01 X166.0448 Y39.6840
G01 X166.0047 Y39.6690
G01 X165.9639 Y39.6560
G01 X165.9225 Y39.6449
G01 X165.8806 Y39.6358
G01 X165.8384 Y39.6287
G01 X165.7959 Y39.6236
G01 X165.7531 Y39.6205
G01 X165.7103 Y39.6195
G01 X165.6675 Y39.6205
G01 X165.6248 Y39.6236
G01 X165.5822 Y39.6287
G01 X165.5400 Y39.6358
G01 X165.4981 Y39.6449
G01 X165.4567 Y39.6560
G01 X165.4159 Y39.6690
G01 X165.3758 Y39.6840
G01 X165.3364 Y39.7008
G01 X165.2979 Y39.7196
G01 X165.2603 Y39.7401
G01 X165.2237 Y39.7624
G01 X165.1883 Y39.7864
G01 X165.1540 Y39.8121
G01 X165.1209 Y39.8393
G01 X165.0892 Y39.8682
G01 X165.0589 Y39.8984
G01 X165.0301 Y39.9301
G01 X165.0029 Y39.9632
G01 X164.9772 Y39.9975
G01 X164.9532 Y40.0329
G01 X164.9309 Y40.0695
G01 X164.9104 Y40.1071
G01 X164.8916 Y40.1456
G01 X164.8748 Y40.1850
G01 X164.8598 Y40.2252
G01 X164.8468 Y40.2660
G01 X164.8357 Y40.3073
G01 X164.8266 Y40.3492
G01 X164.8195 Y40.3914
G01 X164.8144 Y40.4340
G01 X164.8113 Y40.4767
G01 X164.8103 Y40.5195
G01 X164.8113 Y40.5623
G01 X164.8144 Y40.6051
G01 X164.8195 Y40.6476
G01 X164.8266 Y40.6898
G01 X164.8357 Y40.7317
G01 X164.8468 Y40.7731
G01 X164.8598 Y40.8139
G01 X164.8748 Y40.8540
G01 X164.8916 Y40.8934
G01 X164.9104 Y40.9319
G01 X164.9309 Y40.9695
G01 X164.9532 Y41.0061
G01 X164.9772 Y41.0416
G01 X165.0029 Y41.0759
G01 X165.0301 Y41.1089
G01 X165.0589 Y41.1406
G01 X165.0892 Y41.1709
G01 X165.1209 Y41.1997
G01 X165.1540 Y41.2270
G01 X165.1883 Y41.2526
G01 X165.2237 Y41.2766
G01 X165.2603 Y41.2989
G01 X165.2979 Y41.3195
G01 X165.3364 Y41.3382
G01 X165.3758 Y41.3550
G01 X165.4159 Y41.3700
G01 X165.4567 Y41.3831
G01 X165.4981 Y41.3941
G01 X165.5400 Y41.4033
G01 X165.5822 Y41.4104
G01 X165.6248 Y41.4154
G01 X165.6675 Y41.4185
G01 X165.7103 Y41.4195
G01 X165.7531 Y41.4185
G01 X165.7959 Y41.4154
G01 X165.8384 Y41.4104
G01 X165.8806 Y41.4033
G01 X165.9225 Y41.3941
G01 X165.9639 Y41.3831
G01 X166.0047 Y41.3700
G01 X166.0448 Y41.3550
G01 X166.0842 Y41.3382
G01 X166.1227 Y41.3195
G01 X166.1603 Y41.2989
G01 X166.1969 Y41.2766
G01 X166.2324 Y41.2526
G01 X166.2666 Y41.2270
G01 X166.2997 Y41.1997
G01 X166.3314 Y41.1709
G01 X166.3617 Y41.1406
G01 X166.3905 Y41.1089
G01 X166.4177 Y41.0759
G01 X166.4434 Y41.0416
G01 X166.4674 Y41.0061
G01 X166.4897 Y40.9695
G01 X166.5103 Y40.9319
G01 X166.5290 Y40.8934
G01 X166.5458 Y40.8540
G01 X166.5608 Y40.8139
G01 X166.5738 Y40.7731
G01 X166.5849 Y40.7317
G01 X166.5940 Y40.6898
G01 X166.6011 Y40.6476
G01 X166.6062 Y40.6051
G01 X166.6093 Y40.5623
G01 X166.6103 Y40.5195
G01 X166.6178 Y40.4885 F1000
G01 X166.6243 Y40.4572
G01 X166.6297 Y40.4257
G01 X166.6340 Y40.3940
G01 X166.6371 Y40.3622
G01 X166.6392 Y40.3303
G01 X166.6402 Y40.2984
G01 X166.6400 Y40.2664
G01 X166.6388 Y40.2345
G01 X166.6364 Y40.2026
G01 X166.6330 Y40.1709
G01 X166.6284 Y40.1392
G01 X166.6187 Y40.0877
G01 X166.6064 Y40.0368
G01 X166.5915 Y39.9866
G01 X166.5739 Y39.9372
G01 X166.5539 Y39.8887
G01 X166.5314 Y39.8414
G01 X166.5065 Y39.7953
G01 X166.4793 Y39.7505
G01 X166.4473 Y39.7035
G01 X166.4129 Y39.6582
G01 X166.3762 Y39.6147
G01 X166.3374 Y39.5731
G01 X166.2964 Y39.5336
G01 X166.2536 Y39.4962
G01 X166.2088 Y39.4610
G01 X166.1623 Y39.4282
G01 X166.1104 Y39.3954
G01 X166.0569 Y39.3652
G01 X166.0020 Y39.3378
G01 X165.9457 Y39.3133
G01 X165.8882 Y39.2916
G01 X165.8298 Y39.2729
G01 X165.7704 Y39.2572
G01 X165.7103 Y39.2445
G01 X165.6452 Y39.2342
G01 X165.5796 Y39.2272
G01 X165.5138 Y39.2235
G01 X165.4479 Y39.2231
G01 X165.3820 Y39.2261
G01 X165.3164 Y39.2324
G01 X165.2512 Y39.2420
G01 X165.1865 Y39.2550
G01 X165.1182 Y39.2722
G01 X165.0508 Y39.2929
G01 X164.9846 Y39.3170
G01 X164.9197 Y39.3443
G01 X164.8562 Y39.3749
G01 X164.7944 Y39.4087
G01 X164.7343 Y39.4456
G01 X164.6762 Y39.4854
G01 X164.6226 Y39.5348
G01 X164.5716 Y39.5868
G01 X164.5232 Y39.6413
G01 X164.4776 Y39.6980
G01 X164.4348 Y39.7570
G01 X164.3949 Y39.8180
G01 X164.3581 Y39.8809
G01 X164.3245 Y39.9455
G01 X164.2980 Y40.0142
G01 X164.2749 Y40.0841
G01 X164.2553 Y40.1551
G01 X164.2391 Y40.2269
G01 X164.2266 Y40.2994
G01 X164.2175 Y40.3725
G01 X164.2121 Y40.4459
G01 X164.2103 Y40.5195
G01 X164.2121 Y40.5931
G01 X164.2175 Y40.6665
G01 X164.2266 Y40.7396
G01 X164.2391 Y40.8121
G01 X164.2553 Y40.8840
G01 X164.2749 Y40.9549
G01 X164.2980 Y41.0248
G01 X164.3245 Y41.0935
G01 X164.3543 Y41.1608
G01 X164.3874 Y41.2266
G01 X164.4237 Y41.2907
G01 X164.4631 Y41.3529
G01 X164.5055 Y41.4131
G01 X164.5508 Y41.4711
G01 X164.5989 Y41.5268
G01 X164.6497 Y41.5802
G01 X164.7030 Y41.6309
G01 X164.7587 Y41.6790
G01 X164.8168 Y41.7243
G01 X164.8770 Y41.7667
G01 X164.9392 Y41.8061
G01 X165.0032 Y41.8424
G01 X165.0690 Y41.8755
G01 X165.1363 Y41.9053
G01 X165.2050 Y41.9318
G01 X165.2749 Y41.9549
G01 X165.3458 Y41.9745
G01 X165.4177 Y41.9907
G01 X165.4902 Y42.0033
G01 X165.5633 Y42.0123
G01 X165.6367 Y42.0177
G01 X165.7103 Y42.0195
G01 X165.7839 Y42.0177
G01 X165.8573 Y42.0123
G01 X165.9304 Y42.0033
G01 X166.0029 Y41.9907
G01 X166.0748 Y41.9745
G01 X166.1457 Y41.9549
G01 X166.2156 Y41.9318
G01 X166.2843 Y41.9053
G01 X166.3516 Y41.8755
G01 X166.4174 Y41.8424
G01 X166.4814 Y41.8061
G01 X166.5436 Y41.7667
G01 X166.6038 Y41.7243
G01 X166.6619 Y41.6790
G01 X166.7176 Y41.6309
G01 X166.7709 Y41.5802
G01 X166.8217 Y41.5268
G01 X166.8698 Y41.4711
G01 X166.9151 Y41.4131
G01 X166.9575 Y41.3529
G01 X166.9969 Y41.2907
G01 X167.0332 Y41.2266
G01 X167.0663 Y41.1608
G01 X167.0961 Y41.0935
G01 X167.1226 Y41.0248
G01 X167.1457 Y40.9549
G01 X167.1653 Y40.8840
G01 X167.1815 Y40.8121
G01 X167.1940 Y40.7396
G01 X167.2031 Y40.6665
G01 X167.2085 Y40.5931
G01 X167.2103 Y40.5195
G01 X167.2061 Y40.4074
G01 X167.1935 Y40.2960
G01 X167.1727 Y40.1857
G01 X167.1436 Y40.0774
G01 X167.1066 Y39.9715
G01 X167.0617 Y39.8687
G01 X167.0093 Y39.7695
G01 X166.9496 Y39.6745
G01 X166.8830 Y39.5843
G01 X166.8099 Y39.4993
G01 X166.7305 Y39.4200
G01 X166.6455 Y39.3468
G01 X166.5553 Y39.2802
G01 X166.4603 Y39.2205
G01 X166.3611 Y39.1681
G01 X166.2583 Y39.1232
G01 X166.1524 Y39.0862
G01 X166.0441 Y39.0571
G01 X165.9339 Y39.0363
G01 X165.8224 Y39.0237
G01 X165.7103 Y39.0195
G01 X165.5982 Y39.0237
G01 X165.4867 Y39.0363
G01 X165.3765 Y39.0571
G01 X165.2682 Y39.0862
G01 X165.1623 Y39.1232
G01 X165.0595 Y39.1681
G01 X164.9603 Y39.2205
G01 X164.8653 Y39.2802
G01 X164.7751 Y39.3468
G01 X164.6901 Y39.4200
G01 X164.6107 Y39.4993
G01 X164.5376 Y39.5843
G01 X164.4710 Y39.6745
G01 X164.4113 Y39.7695
G01 X164.3589 Y39.8687
G01 X164.3140 Y39.9715
G01 X164.2770 Y40.0774
G01 X164.2479 Y40.1857
G01 X164.2271 Y40.2960
G01 X164.2145 Y40.4074
G01 X164.2103 Y40.5195
G01 X164.2145 Y40.6316
G01 X164.2271 Y40.7431
G01 X164.2479 Y40.8533
G01 X164.2770 Y40.9616
G01 X164.3140 Y41.0675
G01 X164.3589 Y41.1703
G01 X164.4113 Y41.2695
G01 X164.4710 Y41.3645
G01 X164.5376 Y41.4547
G01 X164.6107 Y41.5398
G01 X164.6901 Y41.6191
G01 X164.7751 Y41.6922
G01 X164.8653 Y41.7589
G01 X164.9603 Y41.8185
G01 X165.0595 Y41.8710
G01 X165.1623 Y41.9158
G01 X165.2682 Y41.9529
G01 X165.3765 Y41.9819
G01 X165.4867 Y42.0027
G01 X165.5982 Y42.0153
G01 X165.7103 Y42.0195
G01 X165.8224 Y42.0153
G01 X165.9339 Y42.0027
G01 X166.0441 Y41.9819
G01 X166.1524 Y41.9529
G01 X166.2583 Y41.9158
G01 X166.3611 Y41.8710
G01 X166.4603 Y41.8185
G01 X166.5553 Y41.7589
G01 X166.6455 Y41.6922
G01 X166.7305 Y41.6191
G01 X166.8099 Y41.5398
G01 X166.8830 Y41.4547
G01 X166.9496 Y41.3645
G01 X167.0093 Y41.2695
G01 X167.0617 Y41.1703
G01 X167.1066 Y41.0675
G01 X167.1436 Y40.9616
G01 X167.1727 Y40.8533
G01 X167.1935 Y40.7431
G01 X167.2061 Y40.6316
G01 X167.2103 Y40.5195
G01 X167.2057 Y40.4149
G01 X167.1921 Y40.3111
G01 X167.1694 Y40.2089
G01 X167.1379 Y40.1091
G01 X167.0979 Y40.0124
G01 X167.0495 Y39.9195
G01 X166.9933 Y39.8312
G01 X166.9295 Y39.7482
G01 X166.8588 Y39.6710
G01 X166.7816 Y39.6003
G01 X166.6986 Y39.5365
G01 X166.6103 Y39.4803
G01 X166.5174 Y39.4320
G01 X166.4207 Y39.3919
G01 X166.3209 Y39.3604
G01 X166.2187 Y39.3378
G01 X166.1149 Y39.3241
G01 X166.0103 Y39.3195
G01 X165.9057 Y39.3241
G01 X165.8019 Y39.3378
G01 X165.6997 Y39.3604
G01 X165.5999 Y39.3919
G01 X165.5032 Y39.4320
G01 X165.4103 Y39.4803
G01 X165.3220 Y39.5365
G01 X165.2390 Y39.6003
G01 X165.1618 Y39.6710
G01 X165.0910 Y39.7482
G01 X165.0273 Y39.8312
G01 X164.9711 Y39.9195
G01 X164.9227 Y40.0124
G01 X164.8827 Y40.1091
G01 X164.8512 Y40.2089
G01 X164.8285 Y40.3111
G01 X164.8149 Y40.4149
G01 X164.8103 Y40.5195
G01 X164.8114 Y40.5637
G01 X164.8146 Y40.6077
G01 X164.8200 Y40.6516
G01 X164.8276 Y40.6951
G01 X164.8373 Y40.7382
G01 X164.8491 Y40.7808
G01 X164.8629 Y40.8227
G01 X164.8788 Y40.8639
G01 X164.8967 Y40.9043
G01 X164.9166 Y40.9438
G01 X164.9383 Y40.9822
G01 X164.9620 Y41.0195
G01 X164.9874 Y41.0556
G01 X165.0146 Y41.0905
G01 X165.0434 Y41.1239
G01 X165.0739 Y41.1559
G01 X165.1059 Y41.1864
G01 X165.1393 Y41.2152
G01 X165.1742 Y41.2424
G01 X165.2103 Y41.2678
G01 X165.2476 Y41.2915
G01 X165.2860 Y41.3132
G01 X165.3255 Y41.3331
G01 X165.3659 Y41.3510
G01 X165.4071 Y41.3669
G01 X165.4490 Y41.3808
G01 X165.4916 Y41.3925
G01 X165.5347 Y41.4022
G01 X165.5782 Y41.4098
G01 X165.6221 Y41.4152
G01 X165.6661 Y41.4184
G01 X165.7103 Y41.4195
G01 X165.7545 Y41.4184
G01 X165.7985 Y41.4152
G01 X165.8424 Y41.4098
G01 X165.8859 Y41.4022
G01 X165.9290 Y41.3925
G01 X165.9716 Y41.3808
G01 X166.0135 Y41.3669
G01 X166.0547 Y41.3510
G01 X166.0951 Y41.3331
G01 X166.1346 Y41.3132
G01 X166.1730 Y41.2915
G01 X166.2103 Y41.2678
G01 X166.2464 Y41.2424
G01 X166.2813 Y41.2152
G01 X166.3147 Y41.1864
G01 X166.3467 Y41.1559
G01 X166.3772 Y41.1239
G01 X166.4060 Y41.0905
G01 X166.4332 Y41.0556
G01 X166.4586 Y41.0195
G01 X166.4823 Y40.9822
G01 X166.5040 Y40.9438
G01 X166.5239 Y40.9043
G01 X166.5418 Y40.8639
G01 X166.5577 Y40.8227
G01 X166.5715 Y40.7808
G01 X166.5833 Y40.7382
G01 X166.5930 Y40.6951
G01 X166.6006 Y40.6516
G01 X166.6060 Y40.6077
G01 X166.6092 Y40.5637
G01 X166.6103 Y40.5195
M107
M106 S240
G01 X166.6093 Y40.4767 Z-2.7623 F400
G01 X166.6062 Y40.4340 Z-2.7746
G01 X166.6011 Y40.3914 Z-2.7869
G01 X166.5940 Y40.3492 Z-2.7992
G01 X166.5849 Y40.3073 Z-2.8116
G01 X166.5738 Y40.2660 Z-2.8239
G01 X166.5608 Y40.2252 Z-2.8362
G01 X166.5458 Y40.1850 Z-2.8485
G01 X166.5290 Y40.1456 Z-2.8608
G01 X166.5103 Y40.1071 Z-2.8731
G01 X166.4897 Y40.0695 Z-2.8854
G01 X166.4674 Y40.0329 Z-2.8977
G01 X166.4434 Y39.9975 Z-2.9100
G01 X166.4177 Y39.9632 Z-2.9223
G01 X166.3905 Y39.9301 Z-2.9347
G01 X166.3617 Y39.8984 Z-2.9470
G01 X166.3314 Y39.8682 Z-2.9593
G01 X166.2997 Y39.8393 Z-2.9716
G01 X166.2666 Y39.8121 Z-2.9839
G01 X166.2324 Y39.7864 Z-2.9962
G01 X166.1969 Y39.7624 Z-3.0085
G01 X166.1603 Y39.7401 Z-3.0208
G01 X166.1227 Y39.7196 Z-3.0331
G01 X166.0842 Y39.7008 Z-3.0455
G01 X166.0448 Y39.6840 Z-3.0578
G01 X166.0047 Y39.6690 Z-3.0701
G01 X165.9639 Y39.6560 Z-3.0824
G01 X165.9225 Y39.6449 Z-3.0947
G01 X165.8806 Y39.6358 Z-3.1070
G01 X165.8384 Y39.6287 Z-3.1193
G01 X165.7959 Y39.6236 Z-3.1316
G01 X165.7531 Y39.6205 Z-3.1439
G01 X165.7103 Y39.6195 Z-3.1563
G01 X165.6675 Y39.6205 Z-3.1686
G01 X165.6248 Y39.6236 Z-3.1809
G01 X165.5822 Y39.6287 Z-3.1932
G01 X165.5400 Y39.6358 Z-3.2055
G01 X165.4981 Y39.6449 Z-3.2178
G01 X165.4567 Y39.6560 Z-3.2301
G01 X165.4159 Y39.6690 Z-3.2424
G01 X165.3758 Y39.6840 Z-3.2547
G01 X165.3364 Y39.7008 Z-3.2670
G01 X165.2979 Y39.7196 Z-3.2794
G01 X165.2603 Y39.7401 Z-3.2917
G01 X165.2237 Y39.7624 Z-3.3040
G01 X165.1883 Y39.7864 Z-3.3163
G01 X165.1540 Y39.8121 Z-3.3286
G01 X165.1209 Y39.8393 Z-3.3409
G01 X165.0892 Y39.8682 Z-3.3532
G01 X165.0589 Y39.8984 Z-3.3655
G01 X165.0301 Y39.9301 Z-3.3778
G01 X165.0029 Y39.9632 Z-3.3902
G01 X164.9772 Y39.9975 Z-3.4025
G01 X164.9532 Y40.0329 Z-3.4148
G01 X164.9309 Y40.0695 Z-3.4271
G01 X164.9104 Y40.1071 Z-3.4394
G01 X164.8916 Y40.1456 Z-3.4517
G01 X164.8748 Y40.1850 Z-3.4640
G01 X164.8598 Y40.2252 Z-3.4763
G01 X164.8468 Y40.2660 Z-3.4886
G01 X164.8357 Y40.3073 Z-3.5009
G01 X164.8266 Y40.3492 Z-3.5133
G01 X164.8195 Y40.3914 Z-3.5256
G01 X164.8144 Y40.4340 Z-3.5379
G01 X164.8113 Y40.4767 Z-3.5502
G01 X164.8103 Y40.5195 Z-3.5625
G01 X164.8113 Y40.5623 Z-3.5748
G01 X164.8144 Y40.6051 Z-3.5871
G01 X164.8195 Y40.6476 Z-3.5994
G01 X164.8266 Y40.6898 Z-3.6117
G01 X164.8357 Y40.7317 Z-3.6241
G01 X164.8468 Y40.7731 Z-3.6364
G01 X164.8598 Y40.8139 Z-3.6487
G01 X164.8748 Y40.8540 Z-3.6610
G01 X164.8916 Y40.8934 Z-3.6733
G01 X164.9104 Y40.9319 Z-3.6856
G01 X164.9309 Y40.9695 Z-3.6979
G01 X164.9532 Y41.0061 Z-3.7102
G01 X164.9772 Y41.0416 Z-3.7225
G01 X165.0029 Y41.0759 Z-3.7348
G01 X165.0301 Y41.1089 Z-3.7472
G01 X165.0589 Y41.1406 Z-3.7595
G01 X165.0892 Y41.1709 Z-3.7718
G01 X165.1209 Y41.1997 Z-3.7841
G01 X165.1540 Y41.2270 Z-3.7964
G01 X165.1883 Y41.2526 Z-3.8087
G01 X165.2237 Y41.2766 Z-3.8210
G01 X165.2603 Y41.2989 Z-3.8333
G01 X165.2979 Y41.3195 Z-3.8456
G01 X165.3364 Y41.3382 Z-3.8580
G01 X165.3758 Y41.3550 Z-3.8703
G01 X165.4159 Y41.3700 Z-3.8826
G01 X165.4567 Y41.3831 Z-3.8949
G01 X165.4981 Y41.3941 Z-3.9072
G01 X165.5400 Y41.4033 Z-3.9195
G01 X165.5822 Y41.4104 Z-3.9318
G01 X165.6248 Y41.4154 Z-3.9441
G01 X165.6675 Y41.4185 Z-3.9564
G01 X165.7103 Y41.4195 Z-3.9688
G01 X165.7531 Y41.4185 Z-3.9811
G01 X165.7959 Y41.4154 Z-3.9934
G01 X165.8384 Y41.4104 Z-4.0057
G01 X165.8806 Y41.4033 Z-4.0180
G01 X165.9225 Y41.3941 Z-4.0303
G01 X165.9639 Y41.3831 Z-4.0426
G01 X166.0047 Y41.3700 Z-4.0549
G01 X166.0448 Y41.3550 Z-4.0672
G01 X166.0842 Y41.3382 Z-4.0795
G01 X166.1227 Y41.3195 Z-4.0919
G01 X166.1603 Y41.2989 Z-4.1042
G01 X166.1969 Y41.2766 Z-4.1165
G01 X166.2324 Y41.2526 Z-4.1288
G01 X166.2666 Y41.2270 Z-4.1411
G01 X166.2997 Y41.1997 Z-4.1534
G01 X166.3314 Y41.1709 Z-4.1657
G01 X166.3617 Y41.1406 Z-4.1780
G01 X166.3905 Y41.1089 Z-4.1903
G01 X166.4177 Y41.0759 Z-4.2027
G01 X166.4434 Y41.0416 Z-4.2150
G01 X166.4674 Y41.0061 Z-4.2273
G01 X166.4897 Y40.9695 Z-4.2396
G01 X166.5103 Y40.9319 Z-4.2519
G01 X166.5290 Y40.8934 Z-4.2642
G01 X166.5458 Y40.8540 Z-4.2765
G01 X166.5608 Y40.8139 Z-4.2888
G01 X166.5738 Y40.7731 Z-4.3011
G01 X166.5849 Y40.7317 Z-4.3134
G01 X166.5940 Y40.6898 Z-4.3258
G01 X166.6011 Y40.6476 Z-4.3381
G01 X166.6062 Y40.6051 Z-4.3504
G01 X166.6093 Y40.5623 Z-4.3627
G01 X166.6103 Y40.5195 Z-4.3750
G01 X166.6093 Y40.4767
G01 X166.6062 Y40.4340
G01 X166.6011 Y40.3914
G01 X166.5940 Y40.3492
G01 X166.5849 Y40.3073
G01 X166.5738 Y40.2660
G01 X166.5608 Y40.2252
G01 X166.5458 Y40.1850
G01 X166.5290 Y40.1456
G01 X166.5103 Y40.1071
G01 X166.4897 Y40.0695
G01 X166.4674 Y40.0329
G01 X166.4434 Y39.9975
G01 X166.4177 Y39.9632
G01 X166.3905 Y39.9301
G01 X166.3617 Y39.8984
G01 X166.3314 Y39.8682
G01 X166.2997 Y39.8393
G01 X166.2666 Y39.8121
G01 X166.2324 Y39.7864
G01 X166.1969 Y39.7624
G01 X166.1603 Y39.7401
G01 X166.1227 Y39.7196
G01 X166.0842 Y39.7008
G01 X166.0448 Y39.6840
G01 X166.0047 Y39.6690
