;Project TeslaLoadingHere
;Created by Estlcam version 11 build 11,227
;Machining time about 00:20:04 hours

G90
M03 S18000
G00 X0.0000 Y0.0000 Z0.0000
G00 Z2.0000


;No. 1: Helical drill 1
G00 X33.3864 Y267.7236
G00 Z0.5000
M106 S240
G01 X33.3826 Y267.6364 Z0.4705 F400 S18000
G01 X33.3712 Y267.5499 Z0.4410
G01 X33.3523 Y267.4647 Z0.4115
G01 X33.3261 Y267.3815 Z0.3819
G01 X33.2927 Y267.3010 Z0.3524
G01 X33.2524 Y267.2236 Z0.3229
G01 X33.2055 Y267.1500 Z0.2934
G01 X33.1524 Y267.0808 Z0.2639
G01 X33.0935 Y267.0165 Z0.2344
G01 X33.0292 Y266.9575 Z0.2049
G01 X32.9600 Y266.9044 Z0.1753
G01 X32.8864 Y266.8575 Z0.1458
G01 X32.8090 Y266.8173 Z0.1163
G01 X32.7284 Y266.7839 Z0.0868
G01 X32.6452 Y266.7576 Z0.0573
G01 X32.5600 Y266.7388 Z0.0278
G01 X32.4735 Y266.7274 Z-0.0017
G01 X32.3864 Y266.7236 Z-0.0313
G01 X32.2992 Y266.7274 Z-0.0608
G01 X32.2127 Y266.7388 Z-0.0903
G01 X32.1276 Y266.7576 Z-0.1198
G01 X32.0444 Y266.7839 Z-0.1493
G01 X31.9638 Y266.8173 Z-0.1788
G01 X31.8864 Y266.8575 Z-0.2083
G01 X31.8457 Y266.8823 Z-0.2244
G01 X31.8063 Y266.9090 Z-0.2405
G01 X31.7682 Y266.9375 Z-0.2566
G01 X31.7315 Y266.9678 Z-0.2727
G01 X31.6963 Y266.9998 Z-0.2888
G01 X31.6626 Y267.0335 Z-0.3049
G01 X31.6306 Y267.0687 Z-0.3210
G01 X31.6003 Y267.1054 Z-0.3371
G01 X31.5718 Y267.1435 Z-0.3532
G01 X31.5451 Y267.1829 Z-0.3693
G01 X31.5204 Y267.2236 Z-0.3854
G01 X31.4975 Y267.2653 Z-0.4015
G01 X31.4767 Y267.3082 Z-0.4176
G01 X31.4580 Y267.3519 Z-0.4337
G01 X31.4414 Y267.3965 Z-0.4498
G01 X31.4269 Y267.4418 Z-0.4659
G01 X31.4146 Y267.4878 Z-0.4820
G01 X31.4045 Y267.5343 Z-0.4981
G01 X31.3966 Y267.5813 Z-0.5142
G01 X31.3909 Y267.6285 Z-0.5303
G01 X31.3875 Y267.6760 Z-0.5464
G01 X31.3864 Y267.7236 Z-0.5625
G01 X31.3875 Y267.7712 Z-0.5786
G01 X31.3909 Y267.8186 Z-0.5947
G01 X31.3966 Y267.8659 Z-0.6108
G01 X31.4045 Y267.9128 Z-0.6269
G01 X31.4146 Y267.9593 Z-0.6430
G01 X31.4269 Y268.0053 Z-0.6591
G01 X31.4414 Y268.0506 Z-0.6752
G01 X31.4580 Y268.0952 Z-0.6913
G01 X31.4767 Y268.1390 Z-0.7074
G01 X31.4975 Y268.1818 Z-0.7235
G01 X31.5204 Y268.2236 Z-0.7396
G01 X31.5451 Y268.2642 Z-0.7557
G01 X31.5718 Y268.3036 Z-0.7718
G01 X31.6003 Y268.3417 Z-0.7879
G01 X31.6306 Y268.3784 Z-0.8040
G01 X31.6626 Y268.4136 Z-0.8201
G01 X31.6963 Y268.4473 Z-0.8362
G01 X31.7315 Y268.4793 Z-0.8523
G01 X31.7682 Y268.5096 Z-0.8684
G01 X31.8063 Y268.5381 Z-0.8845
G01 X31.8457 Y268.5648 Z-0.9006
G01 X31.8864 Y268.5896 Z-0.9167
G01 X31.9282 Y268.6124 Z-0.9328
G01 X31.9710 Y268.6332 Z-0.9489
G01 X32.0147 Y268.6519 Z-0.9650
G01 X32.0593 Y268.6686 Z-0.9811
G01 X32.1046 Y268.6831 Z-0.9972
G01 X32.1506 Y268.6954 Z-1.0133
G01 X32.1971 Y268.7055 Z-1.0294
G01 X32.2441 Y268.7134 Z-1.0455
G01 X32.2913 Y268.7190 Z-1.0616
G01 X32.3388 Y268.7224 Z-1.0777
G01 X32.3864 Y268.7236 Z-1.0938
G01 X32.4340 Y268.7224 Z-1.1098
G01 X32.4814 Y268.7190 Z-1.1259
G01 X32.5287 Y268.7134 Z-1.1420
G01 X32.5756 Y268.7055 Z-1.1581
G01 X32.6221 Y268.6954 Z-1.1742
G01 X32.6681 Y268.6831 Z-1.1903
G01 X32.7134 Y268.6686 Z-1.2064
G01 X32.7580 Y268.6519 Z-1.2225
G01 X32.8018 Y268.6332 Z-1.2386
G01 X32.8446 Y268.6124 Z-1.2547
G01 X32.8864 Y268.5896 Z-1.2708
G01 X32.9270 Y268.5648 Z-1.2869
G01 X32.9664 Y268.5381 Z-1.3030
G01 X33.0045 Y268.5096 Z-1.3191
G01 X33.0412 Y268.4793 Z-1.3352
G01 X33.0765 Y268.4473 Z-1.3513
G01 X33.1101 Y268.4136 Z-1.3674
G01 X33.1421 Y268.3784 Z-1.3835
G01 X33.1724 Y268.3417 Z-1.3996
G01 X33.2010 Y268.3036 Z-1.4157
G01 X33.2276 Y268.2642 Z-1.4318
G01 X33.2524 Y268.2236 Z-1.4479
G01 X33.2752 Y268.1818 Z-1.4640
G01 X33.2960 Y268.1390 Z-1.4801
G01 X33.3147 Y268.0952 Z-1.4962
G01 X33.3314 Y268.0506 Z-1.5123
G01 X33.3459 Y268.0053 Z-1.5284
G01 X33.3582 Y267.9593 Z-1.5445
G01 X33.3683 Y267.9128 Z-1.5606
G01 X33.3762 Y267.8659 Z-1.5767
G01 X33.3819 Y267.8186 Z-1.5928
G01 X33.3852 Y267.7712 Z-1.6089
G01 X33.3864 Y267.7236 Z-1.6250
G01 X33.3826 Y267.6364
G01 X33.3712 Y267.5499
G01 X33.3523 Y267.4647
G01 X33.3261 Y267.3815
G01 X33.2927 Y267.3010
G01 X33.2524 Y267.2236
G01 X33.2055 Y267.1500
G01 X33.1524 Y267.0808
G01 X33.0935 Y267.0165
G01 X33.0292 Y266.9575
G01 X32.9600 Y266.9044
G01 X32.8864 Y266.8575
G01 X32.8090 Y266.8173
G01 X32.7284 Y266.7839
G01 X32.6452 Y266.7576
G01 X32.5600 Y266.7388
G01 X32.4735 Y266.7274
G01 X32.3864 Y266.7236
G01 X32.2992 Y266.7274
G01 X32.2127 Y266.7388
G01 X32.1276 Y266.7576
G01 X32.0444 Y266.7839
G01 X31.9638 Y266.8173
G01 X31.8864 Y266.8575
G01 X31.8457 Y266.8823
G01 X31.8063 Y266.9090
G01 X31.7682 Y266.9375
G01 X31.7315 Y266.9678
G01 X31.6963 Y266.9998
G01 X31.6626 Y267.0335
G01 X31.6306 Y267.0687
G01 X31.6003 Y267.1054
G01 X31.5718 Y267.1435
G01 X31.5451 Y267.1829
G01 X31.5204 Y267.2236
G01 X31.4975 Y267.2653
G01 X31.4767 Y267.3082
G01 X31.4580 Y267.3519
G01 X31.4414 Y267.3965
G01 X31.4269 Y267.4418
G01 X31.4146 Y267.4878
G01 X31.4045 Y267.5343
G01 X31.3966 Y267.5813
G01 X31.3909 Y267.6285
G01 X31.3875 Y267.6760
G01 X31.3864 Y267.7236
G01 X31.3875 Y267.7712
G01 X31.3909 Y267.8186
G01 X31.3966 Y267.8659
G01 X31.4045 Y267.9128
G01 X31.4146 Y267.9593
G01 X31.4269 Y268.0053
G01 X31.4414 Y268.0506
G01 X31.4580 Y268.0952
G01 X31.4767 Y268.1390
G01 X31.4975 Y268.1818
G01 X31.5204 Y268.2236
G01 X31.5451 Y268.2642
G01 X31.5718 Y268.3036
G01 X31.6003 Y268.3417
G01 X31.6306 Y268.3784
G01 X31.6626 Y268.4136
G01 X31.6963 Y268.4473
G01 X31.7315 Y268.4793
G01 X31.7682 Y268.5096
G01 X31.8063 Y268.5381
G01 X31.8457 Y268.5648
G01 X31.8864 Y268.5896
G01 X31.9282 Y268.6124
G01 X31.9710 Y268.6332
G01 X32.0147 Y268.6519
G01 X32.0593 Y268.6686
G01 X32.1046 Y268.6831
G01 X32.1506 Y268.6954
G01 X32.1971 Y268.7055
G01 X32.2441 Y268.7134
G01 X32.2913 Y268.7190
G01 X32.3388 Y268.7224
G01 X32.3864 Y268.7236
G01 X32.4340 Y268.7224
G01 X32.4814 Y268.7190
G01 X32.5287 Y268.7134
G01 X32.5756 Y268.7055
G01 X32.6221 Y268.6954
G01 X32.6681 Y268.6831
G01 X32.7134 Y268.6686
G01 X32.7580 Y268.6519
G01 X32.8018 Y268.6332
G01 X32.8446 Y268.6124
G01 X32.8864 Y268.5896
G01 X32.9270 Y268.5648
G01 X32.9664 Y268.5381
G01 X33.0045 Y268.5096
G01 X33.0412 Y268.4793
G01 X33.0765 Y268.4473
G01 X33.1101 Y268.4136
G01 X33.1421 Y268.3784
G01 X33.1724 Y268.3417
G01 X33.2010 Y268.3036
G01 X33.2276 Y268.2642
G01 X33.2524 Y268.2236
G01 X33.2752 Y268.1818
G01 X33.2960 Y268.1390
G01 X33.3147 Y268.0952
G01 X33.3314 Y268.0506
G01 X33.3459 Y268.0053
G01 X33.3582 Y267.9593
G01 X33.3683 Y267.9128
G01 X33.3762 Y267.8659
G01 X33.3819 Y267.8186
G01 X33.3852 Y267.7712
G01 X33.3864 Y267.7236
G01 X33.3971 Y267.6720 F1000
G01 X33.4052 Y267.6199
G01 X33.4106 Y267.5675
G01 X33.4133 Y267.5148
G01 X33.4132 Y267.4621
G01 X33.4105 Y267.4095
G01 X33.4050 Y267.3571
G01 X33.3969 Y267.3050
G01 X33.3852 Y267.2490
G01 X33.3706 Y267.1937
G01 X33.3532 Y267.1392
G01 X33.3331 Y267.0857
G01 X33.3102 Y267.0332
G01 X33.2847 Y266.9820
G01 X33.2567 Y266.9322
G01 X33.2261 Y266.8839
G01 X33.1905 Y266.8335
G01 X33.1523 Y266.7850
G01 X33.1118 Y266.7384
G01 X33.0689 Y266.6940
G01 X33.0239 Y266.6519
G01 X32.9767 Y266.6120
G01 X32.9276 Y266.5747
G01 X32.8767 Y266.5398
G01 X32.8202 Y266.5053
G01 X32.7620 Y266.4736
G01 X32.7023 Y266.4449
G01 X32.6413 Y266.4193
G01 X32.5790 Y266.3968
G01 X32.5156 Y266.3775
G01 X32.4514 Y266.3614
G01 X32.3864 Y266.3486
G01 X32.3164 Y266.3384
G01 X32.2459 Y266.3317
G01 X32.1752 Y266.3287
G01 X32.1044 Y266.3292
G01 X32.0338 Y266.3332
G01 X31.9634 Y266.3408
G01 X31.8935 Y266.3520
G01 X31.8243 Y266.3666
G01 X31.7559 Y266.3922
G01 X31.6888 Y266.4212
G01 X31.6232 Y266.4534
G01 X31.5593 Y266.4888
G01 X31.4972 Y266.5273
G01 X31.4371 Y266.5688
G01 X31.3791 Y266.6133
G01 X31.3233 Y266.6605
G01 X31.2724 Y266.7139
G01 X31.2242 Y266.7698
G01 X31.1788 Y266.8280
G01 X31.1363 Y266.8883
G01 X31.0969 Y266.9507
G01 X31.0605 Y267.0149
G01 X31.0273 Y267.0808
G01 X30.9974 Y267.1482
G01 X30.9709 Y267.2171
G01 X30.9477 Y267.2872
G01 X30.9280 Y267.3583
G01 X30.9119 Y267.4303
G01 X30.8992 Y267.5030
G01 X30.8902 Y267.5762
G01 X30.8848 Y267.6498
G01 X30.8830 Y267.7236
G01 X30.8848 Y267.7973
G01 X30.8902 Y267.8709
G01 X30.8992 Y267.9442
G01 X30.9119 Y268.0169
G01 X30.9280 Y268.0889
G01 X30.9477 Y268.1600
G01 X30.9709 Y268.2301
G01 X30.9974 Y268.2989
G01 X31.0273 Y268.3664
G01 X31.0605 Y268.4323
G01 X31.0969 Y268.4965
G01 X31.1363 Y268.5588
G01 X31.1788 Y268.6191
G01 X31.2242 Y268.6773
G01 X31.2724 Y268.7332
G01 X31.3233 Y268.7866
G01 X31.3768 Y268.8375
G01 X31.4326 Y268.8857
G01 X31.4908 Y268.9311
G01 X31.5511 Y268.9736
G01 X31.6135 Y269.0131
G01 X31.6777 Y269.0495
G01 X31.7436 Y269.0826
G01 X31.8111 Y269.1125
G01 X31.8799 Y269.1391
G01 X31.9500 Y269.1622
G01 X32.0211 Y269.1819
G01 X32.0931 Y269.1981
G01 X32.1658 Y269.2107
G01 X32.2390 Y269.2197
G01 X32.3126 Y269.2252
G01 X32.3864 Y269.2270
G01 X32.4601 Y269.2252
G01 X32.5337 Y269.2197
G01 X32.6070 Y269.2107
G01 X32.6797 Y269.1981
G01 X32.7517 Y269.1819
G01 X32.8228 Y269.1622
G01 X32.8929 Y269.1391
G01 X32.9617 Y269.1125
G01 X33.0292 Y269.0826
G01 X33.0951 Y269.0495
G01 X33.1593 Y269.0131
G01 X33.2216 Y268.9736
G01 X33.2820 Y268.9311
G01 X33.3401 Y268.8857
G01 X33.3960 Y268.8375
G01 X33.4494 Y268.7866
G01 X33.5003 Y268.7332
G01 X33.5485 Y268.6773
G01 X33.5939 Y268.6191
G01 X33.6364 Y268.5588
G01 X33.6759 Y268.4965
G01 X33.7123 Y268.4323
G01 X33.7454 Y268.3664
G01 X33.7753 Y268.2989
G01 X33.8019 Y268.2301
G01 X33.8251 Y268.1600
G01 X33.8447 Y268.0889
G01 X33.8609 Y268.0169
G01 X33.8735 Y267.9442
G01 X33.8825 Y267.8709
G01 X33.8880 Y267.7973
G01 X33.8898 Y267.7236
G01 X33.8856 Y267.6112
G01 X33.8730 Y267.4995
G01 X33.8521 Y267.3890
G01 X33.8230 Y267.2804
G01 X33.7859 Y267.1743
G01 X33.7409 Y267.0713
G01 X33.6884 Y266.9719
G01 X33.6286 Y266.8767
G01 X33.5618 Y266.7862
G01 X33.4885 Y266.7010
G01 X33.4090 Y266.6215
G01 X33.3237 Y266.5482
G01 X33.2333 Y266.4814
G01 X33.1381 Y266.4216
G01 X33.0387 Y266.3690
G01 X32.9356 Y266.3241
G01 X32.8295 Y266.2870
G01 X32.7209 Y266.2579
G01 X32.6105 Y266.2370
G01 X32.4987 Y266.2244
G01 X32.3864 Y266.2202
G01 X32.2740 Y266.2244
G01 X32.1623 Y266.2370
G01 X32.0518 Y266.2579
G01 X31.9432 Y266.2870
G01 X31.8371 Y266.3241
G01 X31.7341 Y266.3690
G01 X31.6347 Y266.4216
G01 X31.5395 Y266.4814
G01 X31.4490 Y266.5482
G01 X31.3638 Y266.6215
G01 X31.2843 Y266.7010
G01 X31.2110 Y266.7862
G01 X31.1442 Y266.8767
G01 X31.0844 Y266.9719
G01 X31.0319 Y267.0713
G01 X30.9869 Y267.1743
G01 X30.9498 Y267.2804
G01 X30.9207 Y267.3890
G01 X30.8998 Y267.4995
G01 X30.8872 Y267.6112
G01 X30.8830 Y267.7236
G01 X30.8872 Y267.8359
G01 X30.8998 Y267.9476
G01 X30.9207 Y268.0581
G01 X30.9498 Y268.1667
G01 X30.9869 Y268.2728
G01 X31.0319 Y268.3759
G01 X31.0844 Y268.4753
G01 X31.1442 Y268.5705
G01 X31.2110 Y268.6609
G01 X31.2843 Y268.7461
G01 X31.3638 Y268.8256
G01 X31.4490 Y268.8990
G01 X31.5395 Y268.9657
G01 X31.6347 Y269.0256
G01 X31.7341 Y269.0781
G01 X31.8371 Y269.1230
G01 X31.9432 Y269.1602
G01 X32.0518 Y269.1893
G01 X32.1623 Y269.2102
G01 X32.2740 Y269.2228
G01 X32.3864 Y269.2270
G01 X32.4987 Y269.2228
G01 X32.6105 Y269.2102
G01 X32.7209 Y269.1893
G01 X32.8295 Y269.1602
G01 X32.9356 Y269.1230
G01 X33.0387 Y269.0781
G01 X33.1381 Y269.0256
G01 X33.2333 Y268.9657
G01 X33.3237 Y268.8990
G01 X33.4090 Y268.8256
G01 X33.4885 Y268.7461
G01 X33.5618 Y268.6609
G01 X33.6286 Y268.5705
G01 X33.6884 Y268.4753
G01 X33.7409 Y268.3759
G01 X33.7859 Y268.2728
G01 X33.8230 Y268.1667
G01 X33.8521 Y268.0581
G01 X33.8730 Y267.9476
G01 X33.8856 Y267.8359
G01 X33.8898 Y267.7236
G01 X33.8859 Y267.6254
G01 X33.8744 Y267.5278
G01 X33.8552 Y267.4314
G01 X33.8285 Y267.3368
G01 X33.7945 Y267.2446
G01 X33.7534 Y267.1553
G01 X33.7053 Y267.0696
G01 X33.6507 Y266.9878
G01 X33.5899 Y266.9107
G01 X33.5232 Y266.8385
G01 X33.4510 Y266.7718
G01 X33.3738 Y266.7109
G01 X33.2921 Y266.6563
G01 X33.2063 Y266.6083
G01 X33.1171 Y266.5671
G01 X33.0249 Y266.5331
G01 X32.9303 Y266.5065
G01 X32.8339 Y266.4873
G01 X32.7363 Y266.4757
G01 X32.6381 Y266.4719
G01 X32.5399 Y266.4757
G01 X32.4423 Y266.4873
G01 X32.3459 Y266.5065
G01 X32.2513 Y266.5331
G01 X32.1591 Y266.5671
G01 X32.0698 Y266.6083
G01 X31.9841 Y266.6563
G01 X31.9024 Y266.7109
G01 X31.8252 Y266.7718
G01 X31.7530 Y266.8385
G01 X31.6863 Y266.9107
G01 X31.6254 Y266.9878
G01 X31.5708 Y267.0696
G01 X31.5228 Y267.1553
G01 X31.4817 Y267.2446
G01 X31.4476 Y267.3368
G01 X31.4210 Y267.4314
G01 X31.4018 Y267.5278
G01 X31.3902 Y267.6254
G01 X31.3864 Y267.7236
G01 X31.3874 Y267.7698
G01 X31.3906 Y267.8158
G01 X31.3960 Y267.8617
G01 X31.4034 Y267.9073
G01 X31.4129 Y267.9525
G01 X31.4246 Y267.9972
G01 X31.4382 Y268.0414
G01 X31.4539 Y268.0848
G01 X31.4716 Y268.1275
G01 X31.4912 Y268.1693
G01 X31.5128 Y268.2102
G01 X31.5362 Y268.2500
G01 X31.5614 Y268.2887
G01 X31.5884 Y268.3262
G01 X31.6170 Y268.3624
G01 X31.6474 Y268.3973
G01 X31.6793 Y268.4307
G01 X31.7127 Y268.4626
G01 X31.7475 Y268.4929
G01 X31.7837 Y268.5216
G01 X31.8212 Y268.5486
G01 X31.8599 Y268.5738
G01 X31.8998 Y268.5972
G01 X31.9406 Y268.6187
G01 X31.9825 Y268.6384
G01 X32.0251 Y268.6560
G01 X32.0686 Y268.6717
G01 X32.1127 Y268.6854
G01 X32.1574 Y268.6970
G01 X32.2026 Y268.7065
G01 X32.2482 Y268.7140
G01 X32.2941 Y268.7193
G01 X32.3402 Y268.7225
G01 X32.3864 Y268.7236
G01 X32.4326 Y268.7225
G01 X32.4786 Y268.7193
G01 X32.5245 Y268.7140
G01 X32.5701 Y268.7065
G01 X32.6153 Y268.6970
G01 X32.6600 Y268.6854
G01 X32.7042 Y268.6717
G01 X32.7476 Y268.6560
G01 X32.7903 Y268.6384
G01 X32.8321 Y268.6187
G01 X32.8730 Y268.5972
G01 X32.9128 Y268.5738
G01 X32.9515 Y268.5486
G01 X32.9890 Y268.5216
G01 X33.0252 Y268.4929
G01 X33.0601 Y268.4626
G01 X33.0935 Y268.4307
G01 X33.1254 Y268.3973
G01 X33.1557 Y268.3624
G01 X33.1844 Y268.3262
G01 X33.2114 Y268.2887
G01 X33.2366 Y268.2500
G01 X33.2600 Y268.2102
G01 X33.2815 Y268.1693
G01 X33.3012 Y268.1275
G01 X33.3189 Y268.0848
G01 X33.3345 Y268.0414
G01 X33.3482 Y267.9972
G01 X33.3598 Y267.9525
G01 X33.3694 Y267.9073
G01 X33.3768 Y267.8617
G01 X33.3821 Y267.8158
G01 X33.3853 Y267.7698
G01 X33.3864 Y267.7236
M107
M106 S240
G01 X33.3826 Y267.6364 Z-1.6545 F400
G01 X33.3712 Y267.5499 Z-1.6840
G01 X33.3523 Y267.4647 Z-1.7135
G01 X33.3261 Y267.3815 Z-1.7431
G01 X33.2927 Y267.3010 Z-1.7726
G01 X33.2524 Y267.2236 Z-1.8021
G01 X33.2055 Y267.1500 Z-1.8316
G01 X33.1524 Y267.0808 Z-1.8611
G01 X33.0935 Y267.0165 Z-1.8906
G01 X33.0292 Y266.9575 Z-1.9201
G01 X32.9600 Y266.9044 Z-1.9497
G01 X32.8864 Y266.8575 Z-1.9792
G01 X32.8090 Y266.8173 Z-2.0087
G01 X32.7284 Y266.7839 Z-2.0382
G01 X32.6452 Y266.7576 Z-2.0677
G01 X32.5600 Y266.7388 Z-2.0972
G01 X32.4735 Y266.7274 Z-2.1267
G01 X32.3864 Y266.7236 Z-2.1563
G01 X32.2992 Y266.7274 Z-2.1858
G01 X32.2127 Y266.7388 Z-2.2153
G01 X32.1276 Y266.7576 Z-2.2448
G01 X32.0444 Y266.7839 Z-2.2743
G01 X31.9638 Y266.8173 Z-2.3038
G01 X31.8864 Y266.8575 Z-2.3333
G01 X31.8457 Y266.8823 Z-2.3494
G01 X31.8063 Y266.9090 Z-2.3655
G01 X31.7682 Y266.9375 Z-2.3816
G01 X31.7315 Y266.9678 Z-2.3977
G01 X31.6963 Y266.9998 Z-2.4138
G01 X31.6626 Y267.0335 Z-2.4299
G01 X31.6306 Y267.0687 Z-2.4460
G01 X31.6003 Y267.1054 Z-2.4621
G01 X31.5718 Y267.1435 Z-2.4782
G01 X31.5451 Y267.1829 Z-2.4943
G01 X31.5204 Y267.2236 Z-2.5104
G01 X31.4975 Y267.2653 Z-2.5265
G01 X31.4767 Y267.3082 Z-2.5426
G01 X31.4580 Y267.3519 Z-2.5587
G01 X31.4414 Y267.3965 Z-2.5748
G01 X31.4269 Y267.4418 Z-2.5909
G01 X31.4146 Y267.4878 Z-2.6070
G01 X31.4045 Y267.5343 Z-2.6231
G01 X31.3966 Y267.5813 Z-2.6392
G01 X31.3909 Y267.6285 Z-2.6553
G01 X31.3875 Y267.6760 Z-2.6714
G01 X31.3864 Y267.7236 Z-2.6875
G01 X31.3875 Y267.7712 Z-2.7036
G01 X31.3909 Y267.8186 Z-2.7197
G01 X31.3966 Y267.8659 Z-2.7358
G01 X31.4045 Y267.9128 Z-2.7519
G01 X31.4146 Y267.9593 Z-2.7680
G01 X31.4269 Y268.0053 Z-2.7841
G01 X31.4414 Y268.0506 Z-2.8002
G01 X31.4580 Y268.0952 Z-2.8163
G01 X31.4767 Y268.1390 Z-2.8324
G01 X31.4975 Y268.1818 Z-2.8485
G01 X31.5204 Y268.2236 Z-2.8646
G01 X31.5451 Y268.2642 Z-2.8807
G01 X31.5718 Y268.3036 Z-2.8968
G01 X31.6003 Y268.3417 Z-2.9129
G01 X31.6306 Y268.3784 Z-2.9290
G01 X31.6626 Y268.4136 Z-2.9451
G01 X31.6963 Y268.4473 Z-2.9612
G01 X31.7315 Y268.4793 Z-2.9773
G01 X31.7682 Y268.5096 Z-2.9934
G01 X31.8063 Y268.5381 Z-3.0095
G01 X31.8457 Y268.5648 Z-3.0256
G01 X31.8864 Y268.5896 Z-3.0417
G01 X31.9282 Y268.6124 Z-3.0578
G01 X31.9710 Y268.6332 Z-3.0739
G01 X32.0147 Y268.6519 Z-3.0900
G01 X32.0593 Y268.6686 Z-3.1061
G01 X32.1046 Y268.6831 Z-3.1222
G01 X32.1506 Y268.6954 Z-3.1383
G01 X32.1971 Y268.7055 Z-3.1544
G01 X32.2441 Y268.7134 Z-3.1705
G01 X32.2913 Y268.7190 Z-3.1866
G01 X32.3388 Y268.7224 Z-3.2027
G01 X32.3864 Y268.7236 Z-3.2188
G01 X32.4340 Y268.7224 Z-3.2348
G01 X32.4814 Y268.7190 Z-3.2509
G01 X32.5287 Y268.7134 Z-3.2670
G01 X32.5756 Y268.7055 Z-3.2831
G01 X32.6221 Y268.6954 Z-3.2992
G01 X32.6681 Y268.6831 Z-3.3153
G01 X32.7134 Y268.6686 Z-3.3314
G01 X32.7580 Y268.6519 Z-3.3475
G01 X32.8018 Y268.6332 Z-3.3636
G01 X32.8446 Y268.6124 Z-3.3797
G01 X32.8864 Y268.5896 Z-3.3958
G01 X32.9270 Y268.5648 Z-3.4119
G01 X32.9664 Y268.5381 Z-3.4280
G01 X33.0045 Y268.5096 Z-3.4441
G01 X33.0412 Y268.4793 Z-3.4602
G01 X33.0765 Y268.4473 Z-3.4763
G01 X33.1101 Y268.4136 Z-3.4924
G01 X33.1421 Y268.3784 Z-3.5085
G01 X33.1724 Y268.3417 Z-3.5246
G01 X33.2010 Y268.3036 Z-3.5407
G01 X33.2276 Y268.2642 Z-3.5568
G01 X33.2524 Y268.2236 Z-3.5729
G01 X33.2752 Y268.1818 Z-3.5890
G01 X33.2960 Y268.1390 Z-3.6051
G01 X33.3147 Y268.0952 Z-3.6212
G01 X33.3314 Y268.0506 Z-3.6373
G01 X33.3459 Y268.0053 Z-3.6534
G01 X33.3582 Y267.9593 Z-3.6695
G01 X33.3683 Y267.9128 Z-3.6856
G01 X33.3762 Y267.8659 Z-3.7017
G01 X33.3819 Y267.8186 Z-3.7178
G01 X33.3852 Y267.7712 Z-3.7339
G01 X33.3864 Y267.7236 Z-3.7500
G01 X33.3826 Y267.6364
G01 X33.3712 Y267.5499
G01 X33.3523 Y267.4647
G01 X33.3261 Y267.3815
G01 X33.2927 Y267.3010
G01 X33.2524 Y267.2236
G01 X33.2055 Y267.1500
G01 X33.1524 Y267.0808
G01 X33.0935 Y267.0165
G01 X33.0292 Y266.9575
G01 X32.9600 Y266.9044
G01 X32.8864 Y266.8575
G01 X32.8090 Y266.8173
G01 X32.7284 Y266.7839
G01 X32.6452 Y266.7576
G01 X32.5600 Y266.7388
G01 X32.4735 Y266.7274
G01 X32.3864 Y266.7236
G01 X32.2992 Y266.7274
G01 X32.2127 Y266.7388
G01 X32.1276 Y266.7576
G01 X32.0444 Y266.7839
G01 X31.9638 Y266.8173
G01 X31.8864 Y266.8575
G01 X31.8457 Y266.8823
G01 X31.8063 Y266.9090
G01 X31.7682 Y266.9375
G01 X31.7315 Y266.9678
G01 X31.6963 Y266.9998
G01 X31.6626 Y267.0335
G01 X31.6306 Y267.0687
G01 X31.6003 Y267.1054
G01 X31.5718 Y267.1435
G01 X31.5451 Y267.1829
G01 X31.5204 Y267.2236
G01 X31.4975 Y267.2653
G01 X31.4767 Y267.3082
G01 X31.4580 Y267.3519
G01 X31.4414 Y267.3965
G01 X31.4269 Y267.4418
G01 X31.4146 Y267.4878
G01 X31.4045 Y267.5343
G01 X31.3966 Y267.5813
G01 X31.3909 Y267.6285
G01 X31.3875 Y267.6760
G01 X31.3864 Y267.7236
G01 X31.3875 Y267.7712
G01 X31.3909 Y267.8186
G01 X31.3966 Y267.8659
G01 X31.4045 Y267.9128
G01 X31.4146 Y267.9593
G01 X31.4269 Y268.0053
G01 X31.4414 Y268.0506
G01 X31.4580 Y268.0952
G01 X31.4767 Y268.1390
G01 X31.4975 Y268.1818
G01 X31.5204 Y268.2236
G01 X31.5451 Y268.2642
G01 X31.5718 Y268.3036
G01 X31.6003 Y268.3417
G01 X31.6306 Y268.3784
G01 X31.6626 Y268.4136
G01 X31.6963 Y268.4473
G01 X31.7315 Y268.4793
G01 X31.7682 Y268.5096
G01 X31.8063 Y268.5381
G01 X31.8457 Y268.5648
G01 X31.8864 Y268.5896
G01 X31.9282 Y268.6124
G01 X31.9710 Y268.6332
G01 X32.0147 Y268.6519
G01 X32.0593 Y268.6686
G01 X32.1046 Y268.6831
G01 X32.1506 Y268.6954
G01 X32.1971 Y268.7055
G01 X32.2441 Y268.7134
G01 X32.2913 Y268.7190
G01 X32.3388 Y268.7224
G01 X32.3864 Y268.7236
G01 X32.4340 Y268.7224
G01 X32.4814 Y268.7190
G01 X32.5287 Y268.7134
G01 X32.5756 Y268.7055
G01 X32.6221 Y268.6954
G01 X32.6681 Y268.6831
G01 X32.7134 Y268.6686
G01 X32.7580 Y268.6519
G01 X32.8018 Y268.6332
G01 X32.8446 Y268.6124
G01 X32.8864 Y268.5896
G01 X32.9270 Y268.5648
G01 X32.9664 Y268.5381
G01 X33.0045 Y268.5096
G01 X33.0412 Y268.4793
G01 X33.0765 Y268.4473
G01 X33.1101 Y268.4136
G01 X33.1421 Y268.3784
G01 X33.1724 Y268.3417
G01 X33.2010 Y268.3036
G01 X33.2276 Y268.2642
G01 X33.2524 Y268.2236
G01 X33.2752 Y268.1818
G01 X33.2960 Y268.1390
G01 X33.3147 Y268.0952
G01 X33.3314 Y268.0506
G01 X33.3459 Y268.0053
G01 X33.3582 Y267.9593
G01 X33.3683 Y267.9128
G01 X33.3762 Y267.8659
G01 X33.3819 Y267.8186
G01 X33.3852 Y267.7712
G01 X33.3864 Y267.7236
G01 X33.3971 Y267.6720 F1000
G01 X33.4052 Y267.6199
G01 X33.4106 Y267.5675
G01 X33.4133 Y267.5148
G01 X33.4132 Y267.4621
G01 X33.4105 Y267.4095
G01 X33.4050 Y267.3571
G01 X33.3969 Y267.3050
G01 X33.3852 Y267.2490
G01 X33.3706 Y267.1937
G01 X33.3532 Y267.1392
G01 X33.3331 Y267.0857
G01 X33.3102 Y267.0332
G01 X33.2847 Y266.9820
G01 X33.2567 Y266.9322
G01 X33.2261 Y266.8839
G01 X33.1905 Y266.8335
G01 X33.1523 Y266.7850
G01 X33.1118 Y266.7384
G01 X33.0689 Y266.6940
G01 X33.0239 Y266.6519
G01 X32.9767 Y266.6120
G01 X32.9276 Y266.5747
G01 X32.8767 Y266.5398
G01 X32.8202 Y266.5053
G01 X32.7620 Y266.4736
G01 X32.7023 Y266.4449
G01 X32.6413 Y266.4193
G01 X32.5790 Y266.3968
G01 X32.5156 Y266.3775
G01 X32.4514 Y266.3614
G01 X32.3864 Y266.3486
G01 X32.3164 Y266.3384
G01 X32.2459 Y266.3317
G01 X32.1752 Y266.3287
G01 X32.1044 Y266.3292
G01 X32.0338 Y266.3332
G01 X31.9634 Y266.3408
G01 X31.8935 Y266.3520
G01 X31.8243 Y266.3666
G01 X31.7559 Y266.3922
G01 X31.6888 Y266.4212
G01 X31.6232 Y266.4534
G01 X31.5593 Y266.4888
G01 X31.4972 Y266.5273
G01 X31.4371 Y266.5688
G01 X31.3791 Y266.6133
G01 X31.3233 Y266.6605
G01 X31.2724 Y266.7139
G01 X31.2242 Y266.7698
G01 X31.1788 Y266.8280
G01 X31.1363 Y266.8883
G01 X31.0969 Y266.9507
G01 X31.0605 Y267.0149
G01 X31.0273 Y267.0808
G01 X30.9974 Y267.1482
G01 X30.9709 Y267.2171
G01 X30.9477 Y267.2872
G01 X30.9280 Y267.3583
G01 X30.9119 Y267.4303
G01 X30.8992 Y267.5030
G01 X30.8902 Y267.5762
G01 X30.8848 Y267.6498
G01 X30.8830 Y267.7236
G01 X30.8848 Y267.7973
G01 X30.8902 Y267.8709
G01 X30.8992 Y267.9442
G01 X30.9119 Y268.0169
G01 X30.9280 Y268.0889
G01 X30.9477 Y268.1600
G01 X30.9709 Y268.2301
G01 X30.9974 Y268.2989
G01 X31.0273 Y268.3664
G01 X31.0605 Y268.4323
G01 X31.0969 Y268.4965
G01 X31.1363 Y268.5588
G01 X31.1788 Y268.6191
G01 X31.2242 Y268.6773
G01 X31.2724 Y268.7332
G01 X31.3233 Y268.7866
G01 X31.3768 Y268.8375
G01 X31.4326 Y268.8857
G01 X31.4908 Y268.9311
G01 X31.5511 Y268.9736
G01 X31.6135 Y269.0131
G01 X31.6777 Y269.0495
G01 X31.7436 Y269.0826
G01 X31.8111 Y269.1125
G01 X31.8799 Y269.1391
G01 X31.9500 Y269.1622
G01 X32.0211 Y269.1819
G01 X32.0931 Y269.1981
G01 X32.1658 Y269.2107
G01 X32.2390 Y269.2197
G01 X32.3126 Y269.2252
G01 X32.3864 Y269.2270
G01 X32.4601 Y269.2252
G01 X32.5337 Y269.2197
G01 X32.6070 Y269.2107
G01 X32.6797 Y269.1981
G01 X32.7517 Y269.1819
G01 X32.8228 Y269.1622
G01 X32.8929 Y269.1391
G01 X32.9617 Y269.1125
G01 X33.0292 Y269.0826
G01 X33.0951 Y269.0495
G01 X33.1593 Y269.0131
G01 X33.2216 Y268.9736
G01 X33.2820 Y268.9311
G01 X33.3401 Y268.8857
G01 X33.3960 Y268.8375
G01 X33.4494 Y268.7866
G01 X33.5003 Y268.7332
G01 X33.5485 Y268.6773
G01 X33.5939 Y268.6191
G01 X33.6364 Y268.5588
G01 X33.6759 Y268.4965
G01 X33.7123 Y268.4323
G01 X33.7454 Y268.3664
G01 X33.7753 Y268.2989
G01 X33.8019 Y268.2301
G01 X33.8251 Y268.1600
G01 X33.8447 Y268.0889
G01 X33.8609 Y268.0169
G01 X33.8735 Y267.9442
G01 X33.8825 Y267.8709
G01 X33.8880 Y267.7973
G01 X33.8898 Y267.7236
G01 X33.8856 Y267.6112
G01 X33.8730 Y267.4995
G01 X33.8521 Y267.3890
G01 X33.8230 Y267.2804
G01 X33.7859 Y267.1743
G01 X33.7409 Y267.0713
G01 X33.6884 Y266.9719
G01 X33.6286 Y266.8767
G01 X33.5618 Y266.7862
G01 X33.4885 Y266.7010
G01 X33.4090 Y266.6215
G01 X33.3237 Y266.5482
G01 X33.2333 Y266.4814
G01 X33.1381 Y266.4216
G01 X33.0387 Y266.3690
G01 X32.9356 Y266.3241
G01 X32.8295 Y266.2870
G01 X32.7209 Y266.2579
G01 X32.6105 Y266.2370
G01 X32.4987 Y266.2244
G01 X32.3864 Y266.2202
G01 X32.2740 Y266.2244
G01 X32.1623 Y266.2370
G01 X32.0518 Y266.2579
G01 X31.9432 Y266.2870
G01 X31.8371 Y266.3241
G01 X31.7341 Y266.3690
G01 X31.6347 Y266.4216
G01 X31.5395 Y266.4814
G01 X31.4490 Y266.5482
G01 X31.3638 Y266.6215
G01 X31.2843 Y266.7010
G01 X31.2110 Y266.7862
G01 X31.1442 Y266.8767
G01 X31.0844 Y266.9719
G01 X31.0319 Y267.0713
G01 X30.9869 Y267.1743
G01 X30.9498 Y267.2804
G01 X30.9207 Y267.3890
G01 X30.8998 Y267.4995
G01 X30.8872 Y267.6112
G01 X30.8830 Y267.7236
G01 X30.8872 Y267.8359
G01 X30.8998 Y267.9476
G01 X30.9207 Y268.0581
G01 X30.9498 Y268.1667
G01 X30.9869 Y268.2728
G01 X31.0319 Y268.3759
G01 X31.0844 Y268.4753
G01 X31.1442 Y268.5705
G01 X31.2110 Y268.6609
G01 X31.2843 Y268.7461
G01 X31.3638 Y268.8256
G01 X31.4490 Y268.8990
G01 X31.5395 Y268.9657
G01 X31.6347 Y269.0256
G01 X31.7341 Y269.0781
G01 X31.8371 Y269.1230
G01 X31.9432 Y269.1602
G01 X32.0518 Y269.1893
G01 X32.1623 Y269.2102
G01 X32.2740 Y269.2228
G01 X32.3864 Y269.2270
G01 X32.4987 Y269.2228
G01 X32.6105 Y269.2102
G01 X32.7209 Y269.1893
G01 X32.8295 Y269.1602
G01 X32.9356 Y269.1230
G01 X33.0387 Y269.0781
G01 X33.1381 Y269.0256
G01 X33.2333 Y268.9657
G01 X33.3237 Y268.8990
G01 X33.4090 Y268.8256
G01 X33.4885 Y268.7461
G01 X33.5618 Y268.6609
G01 X33.6286 Y268.5705
G01 X33.6884 Y268.4753
G01 X33.7409 Y268.3759
G01 X33.7859 Y268.2728
G01 X33.8230 Y268.1667
G01 X33.8521 Y268.0581
G01 X33.8730 Y267.9476
G01 X33.8856 Y267.8359
G01 X33.8898 Y267.7236
G01 X33.8859 Y267.6254
G01 X33.8744 Y267.5278
G01 X33.8552 Y267.4314
G01 X33.8285 Y267.3368
G01 X33.7945 Y267.2446
G01 X33.7534 Y267.1553
G01 X33.7053 Y267.0696
G01 X33.6507 Y266.9878
G01 X33.5899 Y266.9107
G01 X33.5232 Y266.8385
G01 X33.4510 Y266.7718
G01 X33.3738 Y266.7109
G01 X33.2921 Y266.6563
G01 X33.2063 Y266.6083
G01 X33.1171 Y266.5671
G01 X33.0249 Y266.5331
G01 X32.9303 Y266.5065
G01 X32.8339 Y266.4873
G01 X32.7363 Y266.4757
G01 X32.6381 Y266.4719
G01 X32.5399 Y266.4757
G01 X32.4423 Y266.4873
G01 X32.3459 Y266.5065
G01 X32.2513 Y266.5331
G01 X32.1591 Y266.5671
G01 X32.0698 Y266.6083
G01 X31.9841 Y266.6563
G01 X31.9024 Y266.7109
G01 X31.8252 Y266.7718
G01 X31.7530 Y266.8385
G01 X31.6863 Y266.9107
G01 X31.6254 Y266.9878
G01 X31.5708 Y267.0696
G01 X31.5228 Y267.1553
G01 X31.4817 Y267.2446
G01 X31.4476 Y267.3368
G01 X31.4210 Y267.4314
G01 X31.4018 Y267.5278
G01 X31.3902 Y267.6254
G01 X31.3864 Y267.7236
G01 X31.3874 Y267.7698
G01 X31.3906 Y267.8158
G01 X31.3960 Y267.8617
G01 X31.4034 Y267.9073
G01 X31.4129 Y267.9525
G01 X31.4246 Y267.9972
G01 X31.4382 Y268.0414
G01 X31.4539 Y268.0848
G01 X31.4716 Y268.1275
G01 X31.4912 Y268.1693
G01 X31.5128 Y268.2102
G01 X31.5362 Y268.2500
G01 X31.5614 Y268.2887
G01 X31.5884 Y268.3262
G01 X31.6170 Y268.3624
G01 X31.6474 Y268.3973
G01 X31.6793 Y268.4307
G01 X31.7127 Y268.4626
G01 X31.7475 Y268.4929
G01 X31.7837 Y268.5216
G01 X31.8212 Y268.5486
G01 X31.8599 Y268.5738
G01 X31.8998 Y268.5972
G01 X31.9406 Y268.6187
G01 X31.9825 Y268.6384
G01 X32.0251 Y268.6560
G01 X32.0686 Y268.6717
G01 X32.1127 Y268.6854
G01 X32.1574 Y268.6970
G01 X32.2026 Y268.7065
G01 X32.2482 Y268.7140
G01 X32.2941 Y268.7193
G01 X32.3402 Y268.7225
G01 X32.3864 Y268.7236
G01 X32.4326 Y268.7225
G01 X32.4786 Y268.7193
G01 X32.5245 Y268.7140
G01 X32.5701 Y268.7065
G01 X32.6153 Y268.6970
G01 X32.6600 Y268.6854
G01 X32.7042 Y268.6717
G01 X32.7476 Y268.6560
G01 X32.7903 Y268.6384
G01 X32.8321 Y268.6187
G01 X32.8730 Y268.5972
G01 X32.9128 Y268.5738
G01 X32.9515 Y268.5486
G01 X32.9890 Y268.5216
G01 X33.0252 Y268.4929
G01 X33.0601 Y268.4626
G01 X33.0935 Y268.4307
G01 X33.1254 Y268.3973
G01 X33.1557 Y268.3624
G01 X33.1844 Y268.3262
G01 X33.2114 Y268.2887
G01 X33.2366 Y268.2500
G01 X33.2600 Y268.2102
G01 X33.2815 Y268.1693
G01 X33.3012 Y268.1275
G01 X33.3189 Y268.0848
G01 X33.3345 Y268.0414
G01 X33.3482 Y267.9972
G01 X33.3598 Y267.9525
G01 X33.3694 Y267.9073
G01 X33.3768 Y267.8617
G01 X33.3821 Y267.8158
G01 X33.3853 Y267.7698
G01 X33.3864 Y267.7236
M107
M106 S240
G01 X33.3826 Y267.6364 Z-3.7795 F400
G01 X33.3712 Y267.5499 Z-3.8090
G01 X33.3523 Y267.4647 Z-3.8385
G01 X33.3261 Y267.3815 Z-3.8681
G01 X33.2927 Y267.3010 Z-3.8976
G01 X33.2524 Y267.2236 Z-3.9271
G01 X33.2055 Y267.1500 Z-3.9566
G01 X33.1524 Y267.0808 Z-3.9861
G01 X33.0935 Y267.0165 Z-4.0156
G01 X33.0292 Y266.9575 Z-4.0451
G01 X32.9600 Y266.9044 Z-4.0747
G01 X32.8864 Y266.8575 Z-4.1042
G01 X32.8090 Y266.8173 Z-4.1337
G01 X32.7284 Y266.7839 Z-4.1632
G01 X32.6452 Y266.7576 Z-4.1927
G01 X32.5600 Y266.7388 Z-4.2222
G01 X32.4735 Y266.7274 Z-4.2517
G01 X32.3864 Y266.7236 Z-4.2813
G01 X32.2992 Y266.7274 Z-4.3108
G01 X32.2127 Y266.7388 Z-4.3403
G01 X32.1276 Y266.7576 Z-4.3698
G01 X32.0444 Y266.7839 Z-4.3993
G01 X31.9638 Y266.8173 Z-4.4288
G01 X31.8864 Y266.8575 Z-4.4583
G01 X31.8457 Y266.8823 Z-4.4744
G01 X31.8063 Y266.9090 Z-4.4905
G01 X31.7682 Y266.9375 Z-4.5066
G01 X31.7315 Y266.9678 Z-4.5227
G01 X31.6963 Y266.9998 Z-4.5388
G01 X31.6626 Y267.0335 Z-4.5549
G01 X31.6306 Y267.0687 Z-4.5710
G01 X31.6003 Y267.1054 Z-4.5871
G01 X31.5718 Y267.1435 Z-4.6032
G01 X31.5451 Y267.1829 Z-4.6193
G01 X31.5204 Y267.2236 Z-4.6354
G01 X31.4975 Y267.2653 Z-4.6515
G01 X31.4767 Y267.3082 Z-4.6676
G01 X31.4580 Y267.3519 Z-4.6837
G01 X31.4414 Y267.3965 Z-4.6998
G01 X31.4269 Y267.4418 Z-4.7159
G01 X31.4146 Y267.4878 Z-4.7320
G01 X31.4045 Y267.5343 Z-4.7481
G01 X31.3966 Y267.5813 Z-4.7642
G01 X31.3909 Y267.6285 Z-4.7803
G01 X31.3875 Y267.6760 Z-4.7964
G01 X31.3864 Y267.7236 Z-4.8125
G01 X31.3875 Y267.7712 Z-4.8286
G01 X31.3909 Y267.8186 Z-4.8447
G01 X31.3966 Y267.8659 Z-4.8608
G01 X31.4045 Y267.9128 Z-4.8769
G01 X31.4146 Y267.9593 Z-4.8930
G01 X31.4269 Y268.0053 Z-4.9091
G01 X31.4414 Y268.0506 Z-4.9252
G01 X31.4580 Y268.0952 Z-4.9413
G01 X31.4767 Y268.1390 Z-4.9574
G01 X31.4975 Y268.1818 Z-4.9735
G01 X31.5204 Y268.2236 Z-4.9896
G01 X31.5451 Y268.2642 Z-5.0057
G01 X31.5718 Y268.3036 Z-5.0218
G01 X31.6003 Y268.3417 Z-5.0379
G01 X31.6306 Y268.3784 Z-5.0540
G01 X31.6626 Y268.4136 Z-5.0701
G01 X31.6963 Y268.4473 Z-5.0862
G01 X31.7315 Y268.4793 Z-5.1023
G01 X31.7682 Y268.5096 Z-5.1184
G01 X31.8063 Y268.5381 Z-5.1345
G01 X31.8457 Y268.5648 Z-5.1506
G01 X31.8864 Y268.5896 Z-5.1667
G01 X31.9282 Y268.6124 Z-5.1828
G01 X31.9710 Y268.6332 Z-5.1989
G01 X32.0147 Y268.6519 Z-5.2150
G01 X32.0593 Y268.6686 Z-5.2311
G01 X32.1046 Y268.6831 Z-5.2472
G01 X32.1506 Y268.6954 Z-5.2633
G01 X32.1971 Y268.7055 Z-5.2794
G01 X32.2441 Y268.7134 Z-5.2955
G01 X32.2913 Y268.7190 Z-5.3116
G01 X32.3388 Y268.7224 Z-5.3277
G01 X32.3864 Y268.7236 Z-5.3438
G01 X32.4340 Y268.7224 Z-5.3598
G01 X32.4814 Y268.7190 Z-5.3759
G01 X32.5287 Y268.7134 Z-5.3920
G01 X32.5756 Y268.7055 Z-5.4081
G01 X32.6221 Y268.6954 Z-5.4242
G01 X32.6681 Y268.6831 Z-5.4403
G01 X32.7134 Y268.6686 Z-5.4564
G01 X32.7580 Y268.6519 Z-5.4725
G01 X32.8018 Y268.6332 Z-5.4886
G01 X32.8446 Y268.6124 Z-5.5047
G01 X32.8864 Y268.5896 Z-5.5208
G01 X32.9270 Y268.5648 Z-5.5369
G01 X32.9664 Y268.5381 Z-5.5530
G01 X33.0045 Y268.5096 Z-5.5691
G01 X33.0412 Y268.4793 Z-5.5852
G01 X33.0765 Y268.4473 Z-5.6013
G01 X33.1101 Y268.4136 Z-5.6174
G01 X33.1421 Y268.3784 Z-5.6335
G01 X33.1724 Y268.3417 Z-5.6496
G01 X33.2010 Y268.3036 Z-5.6657
G01 X33.2276 Y268.2642 Z-5.6818
G01 X33.2524 Y268.2236 Z-5.6979
G01 X33.2752 Y268.1818 Z-5.7140
G01 X33.2960 Y268.1390 Z-5.7301
G01 X33.3147 Y268.0952 Z-5.7462
G01 X33.3314 Y268.0506 Z-5.7623
G01 X33.3459 Y268.0053 Z-5.7784
G01 X33.3582 Y267.9593 Z-5.7945
G01 X33.3683 Y267.9128 Z-5.8106
G01 X33.3762 Y267.8659 Z-5.8267
G01 X33.3819 Y267.8186 Z-5.8428
G01 X33.3852 Y267.7712 Z-5.8589
G01 X33.3864 Y267.7236 Z-5.8750
G01 X33.3826 Y267.6364
G01 X33.3712 Y267.5499
G01 X33.3523 Y267.4647
G01 X33.3261 Y267.3815
G01 X33.2927 Y267.3010
G01 X33.2524 Y267.2236
G01 X33.2055 Y267.1500
G01 X33.1524 Y267.0808
G01 X33.0935 Y267.0165
G01 X33.0292 Y266.9575
G01 X32.9600 Y266.9044
G01 X32.8864 Y266.8575
G01 X32.8090 Y266.8173
G01 X32.7284 Y266.7839
G01 X32.6452 Y266.7576
G01 X32.5600 Y266.7388
G01 X32.4735 Y266.7274
G01 X32.3864 Y266.7236
G01 X32.2992 Y266.7274
G01 X32.2127 Y266.7388
G01 X32.1276 Y266.7576
G01 X32.0444 Y266.7839
G01 X31.9638 Y266.8173
G01 X31.8864 Y266.8575
G01 X31.8457 Y266.8823
G01 X31.8063 Y266.9090
G01 X31.7682 Y266.9375
G01 X31.7315 Y266.9678
G01 X31.6963 Y266.9998
G01 X31.6626 Y267.0335
G01 X31.6306 Y267.0687
G01 X31.6003 Y267.1054
G01 X31.5718 Y267.1435
G01 X31.5451 Y267.1829
G01 X31.5204 Y267.2236
G01 X31.4975 Y267.2653
G01 X31.4767 Y267.3082
G01 X31.4580 Y267.3519
G01 X31.4414 Y267.3965
G01 X31.4269 Y267.4418
G01 X31.4146 Y267.4878
G01 X31.4045 Y267.5343
G01 X31.3966 Y267.5813
G01 X31.3909 Y267.6285
G01 X31.3875 Y267.6760
G01 X31.3864 Y267.7236
G01 X31.3875 Y267.7712
G01 X31.3909 Y267.8186
G01 X31.3966 Y267.8659
G01 X31.4045 Y267.9128
G01 X31.4146 Y267.9593
G01 X31.4269 Y268.0053
G01 X31.4414 Y268.0506
G01 X31.4580 Y268.0952
G01 X31.4767 Y268.1390
G01 X31.4975 Y268.1818
G01 X31.5204 Y268.2236
G01 X31.5451 Y268.2642
G01 X31.5718 Y268.3036
G01 X31.6003 Y268.3417
G01 X31.6306 Y268.3784
G01 X31.6626 Y268.4136
G01 X31.6963 Y268.4473
G01 X31.7315 Y268.4793
G01 X31.7682 Y268.5096
G01 X31.8063 Y268.5381
G01 X31.8457 Y268.5648
G01 X31.8864 Y268.5896
G01 X31.9282 Y268.6124
G01 X31.9710 Y268.6332
G01 X32.0147 Y268.6519
G01 X32.0593 Y268.6686
G01 X32.1046 Y268.6831
G01 X32.1506 Y268.6954
G01 X32.1971 Y268.7055
G01 X32.2441 Y268.7134
G01 X32.2913 Y268.7190
G01 X32.3388 Y268.7224
G01 X32.3864 Y268.7236
G01 X32.4340 Y268.7224
G01 X32.4814 Y268.7190
G01 X32.5287 Y268.7134
G01 X32.5756 Y268.7055
G01 X32.6221 Y268.6954
G01 X32.6681 Y268.6831
G01 X32.7134 Y268.6686
G01 X32.7580 Y268.6519
G01 X32.8018 Y268.6332
G01 X32.8446 Y268.6124
G01 X32.8864 Y268.5896
G01 X32.9270 Y268.5648
G01 X32.9664 Y268.5381
G01 X33.0045 Y268.5096
G01 X33.0412 Y268.4793
G01 X33.0765 Y268.4473
G01 X33.1101 Y268.4136
G01 X33.1421 Y268.3784
G01 X33.1724 Y268.3417
G01 X33.2010 Y268.3036
G01 X33.2276 Y268.2642
G01 X33.2524 Y268.2236
G01 X33.2752 Y268.1818
G01 X33.2960 Y268.1390
G01 X33.3147 Y268.0952
G01 X33.3314 Y268.0506
G01 X33.3459 Y268.0053
G01 X33.3582 Y267.9593
G01 X33.3683 Y267.9128
G01 X33.3762 Y267.8659
G01 X33.3819 Y267.8186
G01 X33.3852 Y267.7712
G01 X33.3864 Y267.7236
G01 X33.3971 Y267.6720 F1000
G01 X33.4052 Y267.6199
G01 X33.4106 Y267.5675
G01 X33.4133 Y267.5148
G01 X33.4132 Y267.4621
G01 X33.4105 Y267.4095
G01 X33.4050 Y267.3571
G01 X33.3969 Y267.3050
G01 X33.3852 Y267.2490
G01 X33.3706 Y267.1937
G01 X33.3532 Y267.1392
G01 X33.3331 Y267.0857
G01 X33.3102 Y267.0332
G01 X33.2847 Y266.9820
G01 X33.2567 Y266.9322
G01 X33.2261 Y266.8839
G01 X33.1905 Y266.8335
G01 X33.1523 Y266.7850
G01 X33.1118 Y266.7384
G01 X33.0689 Y266.6940
G01 X33.0239 Y266.6519
G01 X32.9767 Y266.6120
G01 X32.9276 Y266.5747
G01 X32.8767 Y266.5398
G01 X32.8202 Y266.5053
G01 X32.7620 Y266.4736
G01 X32.7023 Y266.4449
G01 X32.6413 Y266.4193
G01 X32.5790 Y266.3968
G01 X32.5156 Y266.3775
G01 X32.4514 Y266.3614
G01 X32.3864 Y266.3486
G01 X32.3164 Y266.3384
G01 X32.2459 Y266.3317
G01 X32.1752 Y266.3287
G01 X32.1044 Y266.3292
G01 X32.0338 Y266.3332
G01 X31.9634 Y266.3408
G01 X31.8935 Y266.3520
G01 X31.8243 Y266.3666
G01 X31.7559 Y266.3922
G01 X31.6888 Y266.4212
G01 X31.6232 Y266.4534
G01 X31.5593 Y266.4888
G01 X31.4972 Y266.5273
G01 X31.4371 Y266.5688
G01 X31.3791 Y266.6133
G01 X31.3233 Y266.6605
G01 X31.2724 Y266.7139
G01 X31.2242 Y266.7698
G01 X31.1788 Y266.8280
G01 X31.1363 Y266.8883
G01 X31.0969 Y266.9507
G01 X31.0605 Y267.0149
G01 X31.0273 Y267.0808
G01 X30.9974 Y267.1482
G01 X30.9709 Y267.2171
G01 X30.9477 Y267.2872
G01 X30.9280 Y267.3583
G01 X30.9119 Y267.4303
G01 X30.8992 Y267.5030
G01 X30.8902 Y267.5762
G01 X30.8848 Y267.6498
G01 X30.8830 Y267.7236
G01 X30.8848 Y267.7973
G01 X30.8902 Y267.8709
G01 X30.8992 Y267.9442
G01 X30.9119 Y268.0169
G01 X30.9280 Y268.0889
G01 X30.9477 Y268.1600
G01 X30.9709 Y268.2301
G01 X30.9974 Y268.2989
G01 X31.0273 Y268.3664
G01 X31.0605 Y268.4323
G01 X31.0969 Y268.4965
G01 X31.1363 Y268.5588
G01 X31.1788 Y268.6191
G01 X31.2242 Y268.6773
G01 X31.2724 Y268.7332
G01 X31.3233 Y268.7866
G01 X31.3768 Y268.8375
G01 X31.4326 Y268.8857
G01 X31.4908 Y268.9311
G01 X31.5511 Y268.9736
G01 X31.6135 Y269.0131
G01 X31.6777 Y269.0495
G01 X31.7436 Y269.0826
G01 X31.8111 Y269.1125
G01 X31.8799 Y269.1391
G01 X31.9500 Y269.1622
G01 X32.0211 Y269.1819
G01 X32.0931 Y269.1981
G01 X32.1658 Y269.2107
G01 X32.2390 Y269.2197
G01 X32.3126 Y269.2252
G01 X32.3864 Y269.2270
G01 X32.4601 Y269.2252
G01 X32.5337 Y269.2197
G01 X32.6070 Y269.2107
G01 X32.6797 Y269.1981
G01 X32.7517 Y269.1819
G01 X32.8228 Y269.1622
G01 X32.8929 Y269.1391
G01 X32.9617 Y269.1125
G01 X33.0292 Y269.0826
G01 X33.0951 Y269.0495
G01 X33.1593 Y269.0131
G01 X33.2216 Y268.9736
G01 X33.2820 Y268.9311
G01 X33.3401 Y268.8857
G01 X33.3960 Y268.8375
G01 X33.4494 Y268.7866
G01 X33.5003 Y268.7332
G01 X33.5485 Y268.6773
G01 X33.5939 Y268.6191
G01 X33.6364 Y268.5588
G01 X33.6759 Y268.4965
G01 X33.7123 Y268.4323
G01 X33.7454 Y268.3664
G01 X33.7753 Y268.2989
G01 X33.8019 Y268.2301
G01 X33.8251 Y268.1600
G01 X33.8447 Y268.0889
G01 X33.8609 Y268.0169
G01 X33.8735 Y267.9442
G01 X33.8825 Y267.8709
G01 X33.8880 Y267.7973
G01 X33.8898 Y267.7236
G01 X33.8856 Y267.6112
G01 X33.8730 Y267.4995
G01 X33.8521 Y267.3890
G01 X33.8230 Y267.2804
G01 X33.7859 Y267.1743
G01 X33.7409 Y267.0713
G01 X33.6884 Y266.9719
G01 X33.6286 Y266.8767
G01 X33.5618 Y266.7862
G01 X33.4885 Y266.7010
G01 X33.4090 Y266.6215
G01 X33.3237 Y266.5482
G01 X33.2333 Y266.4814
G01 X33.1381 Y266.4216
G01 X33.0387 Y266.3690
G01 X32.9356 Y266.3241
G01 X32.8295 Y266.2870
G01 X32.7209 Y266.2579
G01 X32.6105 Y266.2370
G01 X32.4987 Y266.2244
G01 X32.3864 Y266.2202
G01 X32.2740 Y266.2244
G01 X32.1623 Y266.2370
G01 X32.0518 Y266.2579
G01 X31.9432 Y266.2870
G01 X31.8371 Y266.3241
G01 X31.7341 Y266.3690
G01 X31.6347 Y266.4216
G01 X31.5395 Y266.4814
G01 X31.4490 Y266.5482
G01 X31.3638 Y266.6215
G01 X31.2843 Y266.7010
G01 X31.2110 Y266.7862
G01 X31.1442 Y266.8767
G01 X31.0844 Y266.9719
G01 X31.0319 Y267.0713
G01 X30.9869 Y267.1743
G01 X30.9498 Y267.2804
G01 X30.9207 Y267.3890
G01 X30.8998 Y267.4995
G01 X30.8872 Y267.6112
G01 X30.8830 Y267.7236
G01 X30.8872 Y267.8359
G01 X30.8998 Y267.9476
G01 X30.9207 Y268.0581
G01 X30.9498 Y268.1667
G01 X30.9869 Y268.2728
G01 X31.0319 Y268.3759
G01 X31.0844 Y268.4753
G01 X31.1442 Y268.5705
G01 X31.2110 Y268.6609
G01 X31.2843 Y268.7461
G01 X31.3638 Y268.8256
G01 X31.4490 Y268.8990
G01 X31.5395 Y268.9657
G01 X31.6347 Y269.0256
G01 X31.7341 Y269.0781
G01 X31.8371 Y269.1230
G01 X31.9432 Y269.1602
G01 X32.0518 Y269.1893
G01 X32.1623 Y269.2102
G01 X32.2740 Y269.2228
G01 X32.3864 Y269.2270
G01 X32.4987 Y269.2228
G01 X32.6105 Y269.2102
G01 X32.7209 Y269.1893
G01 X32.8295 Y269.1602
G01 X32.9356 Y269.1230
G01 X33.0387 Y269.0781
G01 X33.1381 Y269.0256
G01 X33.2333 Y268.9657
G01 X33.3237 Y268.8990
G01 X33.4090 Y268.8256
G01 X33.4885 Y268.7461
G01 X33.5618 Y268.6609
G01 X33.6286 Y268.5705
G01 X33.6884 Y268.4753
G01 X33.7409 Y268.3759
G01 X33.7859 Y268.2728
G01 X33.8230 Y268.1667
G01 X33.8521 Y268.0581
G01 X33.8730 Y267.9476
G01 X33.8856 Y267.8359
G01 X33.8898 Y267.7236
G01 X33.8859 Y267.6254
G01 X33.8744 Y267.5278
G01 X33.8552 Y267.4314
G01 X33.8285 Y267.3368
G01 X33.7945 Y267.2446
G01 X33.7534 Y267.1553
G01 X33.7053 Y267.0696
G01 X33.6507 Y266.9878
G01 X33.5899 Y266.9107
G01 X33.5232 Y266.8385
G01 X33.4510 Y266.7718
G01 X33.3738 Y266.7109
G01 X33.2921 Y266.6563
G01 X33.2063 Y266.6083
G01 X33.1171 Y266.5671
G01 X33.0249 Y266.5331
G01 X32.9303 Y266.5065
G01 X32.8339 Y266.4873
G01 X32.7363 Y266.4757
G01 X32.6381 Y266.4719
G01 X32.5399 Y266.4757
G01 X32.4423 Y266.4873
G01 X32.3459 Y266.5065
G01 X32.2513 Y266.5331
G01 X32.1591 Y266.5671
G01 X32.0698 Y266.6083
G01 X31.9841 Y266.6563
G01 X31.9024 Y266.7109
G01 X31.8252 Y266.7718
G01 X31.7530 Y266.8385
G01 X31.6863 Y266.9107
G01 X31.6254 Y266.9878
G01 X31.5708 Y267.0696
G01 X31.5228 Y267.1553
G01 X31.4817 Y267.2446
G01 X31.4476 Y267.3368
G01 X31.4210 Y267.4314
G01 X31.4018 Y267.5278
G01 X31.3902 Y267.6254
G01 X31.3864 Y267.7236
G01 X31.3874 Y267.7698
G01 X31.3906 Y267.8158
G01 X31.3960 Y267.8617
G01 X31.4034 Y267.9073
G01 X31.4129 Y267.9525
G01 X31.4246 Y267.9972
G01 X31.4382 Y268.0414
G01 X31.4539 Y268.0848
G01 X31.4716 Y268.1275
G01 X31.4912 Y268.1693
G01 X31.5128 Y268.2102
G01 X31.5362 Y268.2500
G01 X31.5614 Y268.2887
G01 X31.5884 Y268.3262
G01 X31.6170 Y268.3624
G01 X31.6474 Y268.3973
G01 X31.6793 Y268.4307
G01 X31.7127 Y268.4626
G01 X31.7475 Y268.4929
G01 X31.7837 Y268.5216
G01 X31.8212 Y268.5486
G01 X31.8599 Y268.5738
G01 X31.8998 Y268.5972
G01 X31.9406 Y268.6187
G01 X31.9825 Y268.6384
G01 X32.0251 Y268.6560
G01 X32.0686 Y268.6717
G01 X32.1127 Y268.6854
G01 X32.1574 Y268.6970
G01 X32.2026 Y268.7065
G01 X32.2482 Y268.7140
G01 X32.2941 Y268.7193
G01 X32.3402 Y268.7225
G01 X32.3864 Y268.7236
G01 X32.4326 Y268.7225
G01 X32.4786 Y268.7193
G01 X32.5245 Y268.7140
G01 X32.5701 Y268.7065
G01 X32.6153 Y268.6970
G01 X32.6600 Y268.6854
G01 X32.7042 Y268.6717
G01 X32.7476 Y268.6560
G01 X32.7903 Y268.6384
G01 X32.8321 Y268.6187
G01 X32.8730 Y268.5972
G01 X32.9128 Y268.5738
G01 X32.9515 Y268.5486
G01 X32.9890 Y268.5216
G01 X33.0252 Y268.4929
G01 X33.0601 Y268.4626
G01 X33.0935 Y268.4307
G01 X33.1254 Y268.3973
G01 X33.1557 Y268.3624
G01 X33.1844 Y268.3262
G01 X33.2114 Y268.2887
G01 X33.2366 Y268.2500
G01 X33.2600 Y268.2102
G01 X33.2815 Y268.1693
G01 X33.3012 Y268.1275
G01 X33.3189 Y268.0848
G01 X33.3345 Y268.0414
G01 X33.3482 Y267.9972
G01 X33.3598 Y267.9525
G01 X33.3694 Y267.9073
G01 X33.3768 Y267.8617
G01 X33.3821 Y267.8158
G01 X33.3853 Y267.7698
G01 X33.3864 Y267.7236
M107
M106 S240
G01 X33.3826 Y267.6364 Z-5.9045 F400
G01 X33.3712 Y267.5499 Z-5.9340
G01 X33.3523 Y267.4647 Z-5.9635
G01 X33.3261 Y267.3815 Z-5.9931
G01 X33.2927 Y267.3010 Z-6.0226
G01 X33.2524 Y267.2236 Z-6.0521
G01 X33.2055 Y267.1500 Z-6.0816
G01 X33.1524 Y267.0808 Z-6.1111
G01 X33.0935 Y267.0165 Z-6.1406
G01 X33.0292 Y266.9575 Z-6.1701
G01 X32.9600 Y266.9044 Z-6.1997
G01 X32.8864 Y266.8575 Z-6.2292
G01 X32.8090 Y266.8173 Z-6.2587
G01 X32.7284 Y266.7839 Z-6.2882
G01 X32.6452 Y266.7576 Z-6.3177
G01 X32.5600 Y266.7388 Z-6.3472
G01 X32.4735 Y266.7274 Z-6.3767
G01 X32.3864 Y266.7236 Z-6.4063
G01 X32.2992 Y266.7274 Z-6.4358
G01 X32.2127 Y266.7388 Z-6.4653
G01 X32.1276 Y266.7576 Z-6.4948
G01 X32.0444 Y266.7839 Z-6.5243
G01 X31.9638 Y266.8173 Z-6.5538
G01 X31.8864 Y266.8575 Z-6.5833
G01 X31.8457 Y266.8823 Z-6.5994
G01 X31.8063 Y266.9090 Z-6.6155
G01 X31.7682 Y266.9375 Z-6.6316
G01 X31.7315 Y266.9678 Z-6.6477
G01 X31.6963 Y266.9998 Z-6.6638
G01 X31.6626 Y267.0335 Z-6.6799
G01 X31.6306 Y267.0687 Z-6.6960
G01 X31.6003 Y267.1054 Z-6.7121
G01 X31.5718 Y267.1435 Z-6.7282
G01 X31.5451 Y267.1829 Z-6.7443
G01 X31.5204 Y267.2236 Z-6.7604
G01 X31.4975 Y267.2653 Z-6.7765
G01 X31.4767 Y267.3082 Z-6.7926
G01 X31.4580 Y267.3519 Z-6.8087
G01 X31.4414 Y267.3965 Z-6.8248
G01 X31.4269 Y267.4418 Z-6.8409
G01 X31.4146 Y267.4878 Z-6.8570
G01 X31.4045 Y267.5343 Z-6.8731
G01 X31.3966 Y267.5813 Z-6.8892
G01 X31.3909 Y267.6285 Z-6.9053
G01 X31.3875 Y267.6760 Z-6.9214
G01 X31.3864 Y267.7236 Z-6.9375
G01 X31.3875 Y267.7712 Z-6.9536
G01 X31.3909 Y267.8186 Z-6.9697
G01 X31.3966 Y267.8659 Z-6.9858
G01 X31.4045 Y267.9128 Z-7.0019
G01 X31.4146 Y267.9593 Z-7.0180
G01 X31.4269 Y268.0053 Z-7.0341
G01 X31.4414 Y268.0506 Z-7.0502
G01 X31.4580 Y268.0952 Z-7.0663
G01 X31.4767 Y268.1390 Z-7.0824
G01 X31.4975 Y268.1818 Z-7.0985
G01 X31.5204 Y268.2236 Z-7.1146
G01 X31.5451 Y268.2642 Z-7.1307
G01 X31.5718 Y268.3036 Z-7.1468
G01 X31.6003 Y268.3417 Z-7.1629
G01 X31.6306 Y268.3784 Z-7.1790
G01 X31.6626 Y268.4136 Z-7.1951
G01 X31.6963 Y268.4473 Z-7.2112
G01 X31.7315 Y268.4793 Z-7.2273
G01 X31.7682 Y268.5096 Z-7.2434
G01 X31.8063 Y268.5381 Z-7.2595
G01 X31.8457 Y268.5648 Z-7.2756
G01 X31.8864 Y268.5896 Z-7.2917
G01 X31.9282 Y268.6124 Z-7.3078
G01 X31.9710 Y268.6332 Z-7.3239
G01 X32.0147 Y268.6519 Z-7.3400
G01 X32.0593 Y268.6686 Z-7.3561
G01 X32.1046 Y268.6831 Z-7.3722
G01 X32.1506 Y268.6954 Z-7.3883
G01 X32.1971 Y268.7055 Z-7.4044
G01 X32.2441 Y268.7134 Z-7.4205
G01 X32.2913 Y268.7190 Z-7.4366
G01 X32.3388 Y268.7224 Z-7.4527
G01 X32.3864 Y268.7236 Z-7.4688
G01 X32.4340 Y268.7224 Z-7.4848
G01 X32.4814 Y268.7190 Z-7.5009
G01 X32.5287 Y268.7134 Z-7.5170
G01 X32.5756 Y268.7055 Z-7.5331
G01 X32.6221 Y268.6954 Z-7.5492
G01 X32.6681 Y268.6831 Z-7.5653
G01 X32.7134 Y268.6686 Z-7.5814
G01 X32.7580 Y268.6519 Z-7.5975
G01 X32.8018 Y268.6332 Z-7.6136
G01 X32.8446 Y268.6124 Z-7.6297
G01 X32.8864 Y268.5896 Z-7.6458
G01 X32.9270 Y268.5648 Z-7.6619
G01 X32.9664 Y268.5381 Z-7.6780
G01 X33.0045 Y268.5096 Z-7.6941
G01 X33.0412 Y268.4793 Z-7.7102
G01 X33.0765 Y268.4473 Z-7.7263
G01 X33.1101 Y268.4136 Z-7.7424
G01 X33.1421 Y268.3784 Z-7.7585
G01 X33.1724 Y268.3417 Z-7.7746
G01 X33.2010 Y268.3036 Z-7.7907
G01 X33.2276 Y268.2642 Z-7.8068
G01 X33.2524 Y268.2236 Z-7.8229
G01 X33.2752 Y268.1818 Z-7.8390
G01 X33.2960 Y268.1390 Z-7.8551
G01 X33.3147 Y268.0952 Z-7.8712
G01 X33.3314 Y268.0506 Z-7.8873
G01 X33.3459 Y268.0053 Z-7.9034
G01 X33.3582 Y267.9593 Z-7.9195
G01 X33.3683 Y267.9128 Z-7.9356
G01 X33.3762 Y267.8659 Z-7.9517
G01 X33.3819 Y267.8186 Z-7.9678
G01 X33.3852 Y267.7712 Z-7.9839
G01 X33.3864 Y267.7236 Z-8.0000
G01 X33.3826 Y267.6364
G01 X33.3712 Y267.5499
G01 X33.3523 Y267.4647
G01 X33.3261 Y267.3815
G01 X33.2927 Y267.3010
G01 X33.2524 Y267.2236
G01 X33.2055 Y267.1500
G01 X33.1524 Y267.0808
G01 X33.0935 Y267.0165
G01 X33.0292 Y266.9575
G01 X32.9600 Y266.9044
G01 X32.8864 Y266.8575
G01 X32.8090 Y266.8173
G01 X32.7284 Y266.7839
G01 X32.6452 Y266.7576
G01 X32.5600 Y266.7388
G01 X32.4735 Y266.7274
G01 X32.3864 Y266.7236
G01 X32.2992 Y266.7274
G01 X32.2127 Y266.7388
G01 X32.1276 Y266.7576
G01 X32.0444 Y266.7839
G01 X31.9638 Y266.8173
G01 X31.8864 Y266.8575
G01 X31.8457 Y266.8823
G01 X31.8063 Y266.9090
G01 X31.7682 Y266.9375
G01 X31.7315 Y266.9678
G01 X31.6963 Y266.9998
G01 X31.6626 Y267.0335
G01 X31.6306 Y267.0687
G01 X31.6003 Y267.1054
G01 X31.5718 Y267.1435
G01 X31.5451 Y267.1829
G01 X31.5204 Y267.2236
G01 X31.4975 Y267.2653
G01 X31.4767 Y267.3082
G01 X31.4580 Y267.3519
G01 X31.4414 Y267.3965
G01 X31.4269 Y267.4418
G01 X31.4146 Y267.4878
G01 X31.4045 Y267.5343
G01 X31.3966 Y267.5813
G01 X31.3909 Y267.6285
G01 X31.3875 Y267.6760
G01 X31.3864 Y267.7236
G01 X31.3875 Y267.7712
G01 X31.3909 Y267.8186
G01 X31.3966 Y267.8659
G01 X31.4045 Y267.9128
G01 X31.4146 Y267.9593
G01 X31.4269 Y268.0053
G01 X31.4414 Y268.0506
G01 X31.4580 Y268.0952
G01 X31.4767 Y268.1390
G01 X31.4975 Y268.1818
G01 X31.5204 Y268.2236
G01 X31.5451 Y268.2642
G01 X31.5718 Y268.3036
G01 X31.6003 Y268.3417
G01 X31.6306 Y268.3784
G01 X31.6626 Y268.4136
G01 X31.6963 Y268.4473
G01 X31.7315 Y268.4793
G01 X31.7682 Y268.5096
G01 X31.8063 Y268.5381
G01 X31.8457 Y268.5648
G01 X31.8864 Y268.5896
G01 X31.9282 Y268.6124
G01 X31.9710 Y268.6332
G01 X32.0147 Y268.6519
G01 X32.0593 Y268.6686
G01 X32.1046 Y268.6831
G01 X32.1506 Y268.6954
G01 X32.1971 Y268.7055
G01 X32.2441 Y268.7134
G01 X32.2913 Y268.7190
G01 X32.3388 Y268.7224
G01 X32.3864 Y268.7236
G01 X32.4340 Y268.7224
G01 X32.4814 Y268.7190
G01 X32.5287 Y268.7134
G01 X32.5756 Y268.7055
G01 X32.6221 Y268.6954
G01 X32.6681 Y268.6831
G01 X32.7134 Y268.6686
G01 X32.7580 Y268.6519
G01 X32.8018 Y268.6332
G01 X32.8446 Y268.6124
G01 X32.8864 Y268.5896
G01 X32.9270 Y268.5648
G01 X32.9664 Y268.5381
G01 X33.0045 Y268.5096
G01 X33.0412 Y268.4793
G01 X33.0765 Y268.4473
G01 X33.1101 Y268.4136
G01 X33.1421 Y268.3784
G01 X33.1724 Y268.3417
G01 X33.2010 Y268.3036
G01 X33.2276 Y268.2642
G01 X33.2524 Y268.2236
G01 X33.2752 Y268.1818
G01 X33.2960 Y268.1390
G01 X33.3147 Y268.0952
G01 X33.3314 Y268.0506
G01 X33.3459 Y268.0053
G01 X33.3582 Y267.9593
G01 X33.3683 Y267.9128
G01 X33.3762 Y267.8659
G01 X33.3819 Y267.8186
G01 X33.3852 Y267.7712
G01 X33.3864 Y267.7236
G01 X33.3971 Y267.6720 F1000
G01 X33.4052 Y267.6199
G01 X33.4106 Y267.5675
G01 X33.4133 Y267.5148
G01 X33.4132 Y267.4621
G01 X33.4105 Y267.4095
G01 X33.4050 Y267.3571
G01 X33.3969 Y267.3050
G01 X33.3852 Y267.2490
G01 X33.3706 Y267.1937
G01 X33.3532 Y267.1392
G01 X33.3331 Y267.0857
G01 X33.3102 Y267.0332
G01 X33.2847 Y266.9820
G01 X33.2567 Y266.9322
G01 X33.2261 Y266.8839
G01 X33.1905 Y266.8335
G01 X33.1523 Y266.7850
G01 X33.1118 Y266.7384
G01 X33.0689 Y266.6940
G01 X33.0239 Y266.6519
G01 X32.9767 Y266.6120
G01 X32.9276 Y266.5747
G01 X32.8767 Y266.5398
G01 X32.8202 Y266.5053
G01 X32.7620 Y266.4736
G01 X32.7023 Y266.4449
G01 X32.6413 Y266.4193
G01 X32.5790 Y266.3968
G01 X32.5156 Y266.3775
G01 X32.4514 Y266.3614
G01 X32.3864 Y266.3486
G01 X32.3164 Y266.3384
G01 X32.2459 Y266.3317
G01 X32.1752 Y266.3287
G01 X32.1044 Y266.3292
G01 X32.0338 Y266.3332
G01 X31.9634 Y266.3408
G01 X31.8935 Y266.3520
G01 X31.8243 Y266.3666
G01 X31.7559 Y266.3922
G01 X31.6888 Y266.4212
G01 X31.6232 Y266.4534
G01 X31.5593 Y266.4888
G01 X31.4972 Y266.5273
G01 X31.4371 Y266.5688
G01 X31.3791 Y266.6133
G01 X31.3233 Y266.6605
G01 X31.2724 Y266.7139
G01 X31.2242 Y266.7698
G01 X31.1788 Y266.8280
G01 X31.1363 Y266.8883
G01 X31.0969 Y266.9507
G01 X31.0605 Y267.0149
G01 X31.0273 Y267.0808
G01 X30.9974 Y267.1482
G01 X30.9709 Y267.2171
G01 X30.9477 Y267.2872
G01 X30.9280 Y267.3583
G01 X30.9119 Y267.4303
G01 X30.8992 Y267.5030
G01 X30.8902 Y267.5762
G01 X30.8848 Y267.6498
G01 X30.8830 Y267.7236
G01 X30.8848 Y267.7973
G01 X30.8902 Y267.8709
G01 X30.8992 Y267.9442
G01 X30.9119 Y268.0169
G01 X30.9280 Y268.0889
G01 X30.9477 Y268.1600
G01 X30.9709 Y268.2301
G01 X30.9974 Y268.2989
G01 X31.0273 Y268.3664
G01 X31.0605 Y268.4323
G01 X31.0969 Y268.4965
G01 X31.1363 Y268.5588
G01 X31.1788 Y268.6191
G01 X31.2242 Y268.6773
G01 X31.2724 Y268.7332
G01 X31.3233 Y268.7866
G01 X31.3768 Y268.8375
G01 X31.4326 Y268.8857
G01 X31.4908 Y268.9311
G01 X31.5511 Y268.9736
G01 X31.6135 Y269.0131
G01 X31.6777 Y269.0495
G01 X31.7436 Y269.0826
G01 X31.8111 Y269.1125
G01 X31.8799 Y269.1391
G01 X31.9500 Y269.1622
G01 X32.0211 Y269.1819
G01 X32.0931 Y269.1981
G01 X32.1658 Y269.2107
G01 X32.2390 Y269.2197
G01 X32.3126 Y269.2252
G01 X32.3864 Y269.2270
G01 X32.4601 Y269.2252
G01 X32.5337 Y269.2197
G01 X32.6070 Y269.2107
G01 X32.6797 Y269.1981
G01 X32.7517 Y269.1819
G01 X32.8228 Y269.1622
G01 X32.8929 Y269.1391
G01 X32.9617 Y269.1125
G01 X33.0292 Y269.0826
G01 X33.0951 Y269.0495
G01 X33.1593 Y269.0131
G01 X33.2216 Y268.9736
G01 X33.2820 Y268.9311
G01 X33.3401 Y268.8857
G01 X33.3960 Y268.8375
G01 X33.4494 Y268.7866
G01 X33.5003 Y268.7332
G01 X33.5485 Y268.6773
G01 X33.5939 Y268.6191
G01 X33.6364 Y268.5588
G01 X33.6759 Y268.4965
G01 X33.7123 Y268.4323
G01 X33.7454 Y268.3664
G01 X33.7753 Y268.2989
G01 X33.8019 Y268.2301
G01 X33.8251 Y268.1600
G01 X33.8447 Y268.0889
G01 X33.8609 Y268.0169
G01 X33.8735 Y267.9442
G01 X33.8825 Y267.8709
G01 X33.8880 Y267.7973
G01 X33.8898 Y267.7236
G01 X33.8856 Y267.6112
G01 X33.8730 Y267.4995
G01 X33.8521 Y267.3890
G01 X33.8230 Y267.2804
G01 X33.7859 Y267.1743
G01 X33.7409 Y267.0713
G01 X33.6884 Y266.9719
G01 X33.6286 Y266.8767
G01 X33.5618 Y266.7862
G01 X33.4885 Y266.7010
G01 X33.4090 Y266.6215
G01 X33.3237 Y266.5482
G01 X33.2333 Y266.4814
G01 X33.1381 Y266.4216
G01 X33.0387 Y266.3690
G01 X32.9356 Y266.3241
G01 X32.8295 Y266.2870
G01 X32.7209 Y266.2579
G01 X32.6105 Y266.2370
G01 X32.4987 Y266.2244
G01 X32.3864 Y266.2202
G01 X32.2740 Y266.2244
G01 X32.1623 Y266.2370
G01 X32.0518 Y266.2579
G01 X31.9432 Y266.2870
G01 X31.8371 Y266.3241
G01 X31.7341 Y266.3690
G01 X31.6347 Y266.4216
G01 X31.5395 Y266.4814
G01 X31.4490 Y266.5482
G01 X31.3638 Y266.6215
G01 X31.2843 Y266.7010
G01 X31.2110 Y266.7862
G01 X31.1442 Y266.8767
G01 X31.0844 Y266.9719
G01 X31.0319 Y267.0713
G01 X30.9869 Y267.1743
G01 X30.9498 Y267.2804
G01 X30.9207 Y267.3890
G01 X30.8998 Y267.4995
G01 X30.8872 Y267.6112
G01 X30.8830 Y267.7236
G01 X30.8872 Y267.8359
G01 X30.8998 Y267.9476
G01 X30.9207 Y268.0581
G01 X30.9498 Y268.1667
G01 X30.9869 Y268.2728
G01 X31.0319 Y268.3759
G01 X31.0844 Y268.4753
G01 X31.1442 Y268.5705
G01 X31.2110 Y268.6609
G01 X31.2843 Y268.7461
G01 X31.3638 Y268.8256
G01 X31.4490 Y268.8990
G01 X31.5395 Y268.9657
G01 X31.6347 Y269.0256
G01 X31.7341 Y269.0781
G01 X31.8371 Y269.1230
G01 X31.9432 Y269.1602
G01 X32.0518 Y269.1893
G01 X32.1623 Y269.2102
G01 X32.2740 Y269.2228
G01 X32.3864 Y269.2270
G01 X32.4987 Y269.2228
G01 X32.6105 Y269.2102
G01 X32.7209 Y269.1893
G01 X32.8295 Y269.1602
G01 X32.9356 Y269.1230
G01 X33.0387 Y269.0781
G01 X33.1381 Y269.0256
G01 X33.2333 Y268.9657
G01 X33.3237 Y268.8990
G01 X33.4090 Y268.8256
G01 X33.4885 Y268.7461
G01 X33.5618 Y268.6609
G01 X33.6286 Y268.5705
G01 X33.6884 Y268.4753
G01 X33.7409 Y268.3759
G01 X33.7859 Y268.2728
G01 X33.8230 Y268.1667
G01 X33.8521 Y268.0581
G01 X33.8730 Y267.9476
G01 X33.8856 Y267.8359
G01 X33.8898 Y267.7236
M107
M106 S240
G01 X33.8867 Y267.6451 Z-7.9750 F400
M107
M106 S240
G01 X33.8775 Y267.5671 Z-7.9500
M107
M106 S240
G01 X33.8622 Y267.4901 Z-7.9250
M107
M106 S240
G01 X33.8408 Y267.4146 Z-7.9000
M107
M106 S240
G01 X33.8137 Y267.3409 Z-7.8750
M107
M106 S240
G01 X33.7808 Y267.2696 Z-7.8500
M107
M106 S240
G01 X33.7424 Y267.2011 Z-7.8250
M107
M106 S240
G01 X33.6988 Y267.1358 Z-7.8000
M107
M106 S240
G01 X33.6502 Y267.0741 Z-7.7750
M107
M106 S240
G01 X33.5969 Y267.0165 Z-7.7500
M107
M106 S240
G01 X33.5392 Y266.9632 Z-7.7250
M107
M106 S240
G01 X33.4776 Y266.9146 Z-7.7000
M107
M106 S240
G01 X33.4123 Y266.8709 Z-7.6750
M107
M106 S240
G01 X33.3438 Y266.8326 Z-7.6500
M107
M106 S240
G01 X33.2725 Y266.7997 Z-7.6250
M107
M106 S240
G01 X33.1988 Y266.7725 Z-7.6000
M107
M106 S240
G01 X33.1232 Y266.7512 Z-7.5750
M107
M106 S240
G01 X33.0462 Y266.7359 Z-7.5500
M107
M106 S240
G01 X32.9682 Y266.7267 Z-7.5250
M107
M106 S240
G01 X32.8898 Y266.7236 Z-7.5000
M107
G00 Z2.0000


;No. 2: Hole 2
G00 X31.6131 Y258.1027 Z2.0000
G00 Z0.5000
G01 Z0.0000 F400
G01 Z-2.5000
M106 S240
G01 X55.0844 F1000
G01 X53.5198 Y256.6027
G01 X33.1399
G01 X41.9060
G01 Y255.1027
G01 X44.7968
G01 X44.7940 Y253.6027
G01 X41.9088
G01 Y252.1027
G01 X44.7940
G01 Y250.6027
G01 X41.9088
G01 Y249.1027
G01 X44.7940
G01 Y247.6027
G01 X41.9088
G01 Y246.1027
G01 X44.7940
G01 Y244.6027
G01 X41.9088
G01 Y243.1027
G01 X44.7940
G01 Y241.6027
G01 X41.9088
G01 Y240.1027
G01 X44.7940
G01 X44.9940 Y240.1178
G01 Y238.8898
G01 X41.7088
G01 Y255.0304
G01 X41.7079 Y255.0740
G01 X41.7050 Y255.1175
G01 X41.7003 Y255.1609
G01 X41.6936 Y255.2040
G01 X41.6851 Y255.2468
G01 X41.6747 Y255.2892
G01 X41.6625 Y255.3311
G01 X41.6485 Y255.3724
G01 X41.6327 Y255.4131
G01 X41.6151 Y255.4530
G01 X41.5958 Y255.4921
G01 X41.5748 Y255.5304
G01 X41.5522 Y255.5677
G01 X41.5280 Y255.6040
G01 X41.5022 Y255.6391
G01 X41.4749 Y255.6732
G01 X41.4461 Y255.7060
G01 X41.4159 Y255.7375
G01 X41.3844 Y255.7677
G01 X41.3516 Y255.7964
G01 X41.3176 Y255.8237
G01 X41.2824 Y255.8495
G01 X41.2461 Y255.8738
G01 X41.2088 Y255.8964
G01 X41.1706 Y255.9174
G01 X41.1314 Y255.9367
G01 X41.0915 Y255.9543
G01 X41.0508 Y255.9701
G01 X41.0095 Y255.9841
G01 X40.9676 Y255.9963
G01 X40.9253 Y256.0067
G01 X40.8825 Y256.0152
G01 X40.8393 Y256.0218
G01 X40.7960 Y256.0266
G01 X40.7524 Y256.0294
G01 X40.7088 Y256.0304
G01 X39.1911 Y256.0124
G01 X37.6732 Y256.0068
G01 X36.1554 Y256.0136
G01 X34.6376 Y256.0329
G01 X34.3058 Y256.0552
G01 X33.9773 Y256.1071
G01 X33.6547 Y256.1881
G01 X33.3407 Y256.2976
G01 X33.0377 Y256.4347
G01 X32.7481 Y256.5982
G01 X32.4743 Y256.7870
G01 X32.2184 Y256.9995
G01 X31.9826 Y257.2339
G01 X31.7686 Y257.4885
G01 X31.5782 Y257.7612
G01 X31.4128 Y258.0498
G01 X31.2740 Y258.3520
G01 X31.1626 Y258.6654
G01 X31.0797 Y258.9874
G01 X31.0258 Y259.3156
G01 X55.6769
G01 X55.6158 Y258.9807
G01 X55.5250 Y258.6527
G01 X55.4052 Y258.3340
G01 X55.2574 Y258.0274
G01 X55.0827 Y257.7353
G01 X54.8825 Y257.4599
G01 X54.6585 Y257.2036
G01 X54.4124 Y256.9684
G01 X54.1463 Y256.7561
G01 X53.8623 Y256.5686
G01 X53.5625 Y256.4072
G01 X53.2496 Y256.2733
G01 X52.9259 Y256.1679
G01 X52.5941 Y256.0920
G01 X52.2568 Y256.0460
G01 X51.9167 Y256.0305
G01 X45.9940
G01 X45.9155 Y256.0274
G01 X45.8375 Y256.0182
G01 X45.7605 Y256.0028
G01 X45.6850 Y255.9815
G01 X45.6113 Y255.9543
G01 X45.5400 Y255.9215
G01 X45.4715 Y255.8831
G01 X45.4062 Y255.8395
G01 X45.3445 Y255.7909
G01 X45.2869 Y255.7376
G01 X45.2336 Y255.6799
G01 X45.1850 Y255.6183
G01 X45.1413 Y255.5530
G01 X45.1030 Y255.4845
G01 X45.0701 Y255.4132
G01 X45.0429 Y255.3395
G01 X45.0216 Y255.2639
G01 X45.0063 Y255.1869
G01 X44.9971 Y255.1089
G01 X44.9940 Y255.0305
G01 Y240.1178
G01 X44.7940 Y240.1027
M107
G00 Z2.0000


;No. 3: Hole 3
G00 X65.1816 Y257.6730 Z2.0000
G00 Z0.5000
G01 Z0.0000 F400
G01 Z-2.5000
M106 S240
G01 X88.1021 F1000
G01 X88.2778 Y257.5738
G01 X88.0928 Y257.3418
G01 X87.8903 Y257.1251
G01 X87.6714 Y256.9249
G01 X87.4375 Y256.7424
G01 X87.1901 Y256.5788
G01 X86.9306 Y256.4350
G01 X86.6606 Y256.3121
G01 X86.3818 Y256.2106
G01 X86.0960 Y256.1313
G01 X85.8048 Y256.0746
G01 X85.5101 Y256.0409
G01 X85.2136 Y256.0304
G01 X68.0862
G01 X67.7443 Y256.0402
G01 X67.4047 Y256.0814
G01 X67.0703 Y256.1535
G01 X66.7439 Y256.2560
G01 X66.4283 Y256.3880
G01 X66.1262 Y256.5484
G01 X65.8400 Y256.7359
G01 X65.5722 Y256.9487
G01 X65.3251 Y257.1853
G01 X65.1008 Y257.4435
G01 X64.9010 Y257.7212
G01 X64.7276 Y258.0161
G01 X64.5819 Y258.3256
G01 X64.4653 Y258.6472
G01 X64.3786 Y258.9781
G01 X64.3227 Y259.3156
G01 X88.9737 Y259.3155
G01 X88.9390 Y259.0809
G01 X88.8888 Y258.8490
G01 X88.8232 Y258.6211
G01 X88.7426 Y258.3980
G01 X88.6472 Y258.1808
G01 X88.5377 Y257.9704
G01 X88.4143 Y257.7677
G01 X88.2778 Y257.5738
G01 X88.1021 Y257.6730
M107
G00 Z2.0000


;No. 4: Hole 4
G00 X88.1021 Y249.1027 Z2.0000
G00 Z0.5000
G01 Z0.0000 F400
G01 Z-2.5000
M106 S240
G01 X65.1816 F1000
G01 X65.0203 Y248.9844
G01 X64.8842 Y249.1814
G01 X64.7612 Y249.3868
G01 X64.6518 Y249.5997
G01 X64.5565 Y249.8193
G01 X64.4756 Y250.0446
G01 X64.4095 Y250.2747
G01 X64.3584 Y250.5086
G01 X64.3227 Y250.7453
G01 X88.9737
G01 X88.9129 Y250.4103
G01 X88.8224 Y250.0821
G01 X88.7027 Y249.7633
G01 X88.5550 Y249.4565
G01 X88.3804 Y249.1642
G01 X88.1802 Y248.8888
G01 X87.9562 Y248.6324
G01 X87.7101 Y248.3971
G01 X87.4439 Y248.1848
G01 X87.1598 Y247.9972
G01 X86.8600 Y247.8359
G01 X86.5469 Y247.7021
G01 X86.2231 Y247.5969
G01 X85.8911 Y247.5211
G01 X85.5537 Y247.4754
G01 X85.2136 Y247.4601
G01 X68.0861
G01 X67.7895 Y247.4652
G01 X67.4942 Y247.4942
G01 X67.2022 Y247.5470
G01 X66.9154 Y247.6231
G01 X66.6357 Y247.7221
G01 X66.3649 Y247.8434
G01 X66.1047 Y247.9861
G01 X65.8569 Y248.1494
G01 X65.6231 Y248.3321
G01 X65.4048 Y248.5330
G01 X65.2034 Y248.7510
G01 X65.0203 Y248.9844
G01 X65.1816 Y249.1027
M107
G00 Z2.0000


;No. 5: Hole 5
G00 X65.1816 Y240.5324 Z2.0000
G00 Z0.5000
G01 Z0.0000 F400
G01 Z-2.5000
M106 S240
G01 X88.1021 F1000
G01 X88.2778 Y240.4332
G01 X88.0928 Y240.2013
G01 X87.8903 Y239.9845
G01 X87.6714 Y239.7843
G01 X87.4375 Y239.6018
G01 X87.1901 Y239.4382
G01 X86.9306 Y239.2945
G01 X86.6606 Y239.1715
G01 X86.3818 Y239.0700
G01 X86.0960 Y238.9907
G01 X85.8048 Y238.9340
G01 X85.5101 Y238.9003
G01 X85.2136 Y238.8898
G01 X68.0861
G01 X67.7441 Y238.8993
G01 X67.4044 Y238.9402
G01 X67.0698 Y239.0121
G01 X66.7433 Y239.1144
G01 X66.4276 Y239.2463
G01 X66.1253 Y239.4066
G01 X65.8390 Y239.5940
G01 X65.5712 Y239.8070
G01 X65.3240 Y240.0436
G01 X65.0996 Y240.3019
G01 X64.8999 Y240.5798
G01 X64.7266 Y240.8748
G01 X64.5811 Y241.1845
G01 X64.4647 Y241.5063
G01 X64.3783 Y241.8374
G01 X64.3227 Y242.1750
G01 X88.9737
G01 X88.9390 Y241.9403
G01 X88.8888 Y241.7085
G01 X88.8232 Y241.4805
G01 X88.7426 Y241.2574
G01 X88.6472 Y241.0402
G01 X88.5377 Y240.8298
G01 X88.4143 Y240.6272
G01 X88.2778 Y240.4332
G01 X88.1021 Y240.5324
M107
G00 Z2.0000


;No. 6: Hole 6
G00 X98.2154 Y240.1027 Z2.0000
G00 Z0.5000
G01 Z0.0000 F400
G01 Z-2.5000
M106 S240
G01 X122.1025 F1000
G01 Y241.6027
G01 X99.7727
G01 X119.2145
G01 Y243.1027
G01 X122.1025
G01 Y244.6027
G01 X119.2173
G01 Y246.1027
G01 X122.1025
G01 Y247.6027
G01 X118.3835
G01 X122.1025 Y249.1027
G01 X97.7915
G01 Y250.6027
G01 X101.5105
G01 X100.6767
G01 Y252.1027
G01 X97.7915
G01 Y253.6027
G01 X100.6767
G01 X100.6795 Y255.1027
G01 X97.7915
G01 Y256.6027
G01 X120.1154
G01 X121.6800 Y258.1027
G01 X97.7915
G01 X97.5915 Y258.0882
G01 Y259.3156
G01 X122.2725
G01 X122.2114 Y258.9807
G01 X122.1206 Y258.6527
G01 X122.0008 Y258.3340
G01 X121.8530 Y258.0274
G01 X121.6783 Y257.7353
G01 X121.4781 Y257.4599
G01 X121.2541 Y257.2036
G01 X121.0081 Y256.9684
G01 X120.7419 Y256.7561
G01 X120.4579 Y256.5686
G01 X120.1581 Y256.4072
G01 X119.8452 Y256.2733
G01 X119.5215 Y256.1679
G01 X119.1897 Y256.0920
G01 X118.8524 Y256.0460
G01 X118.5123 Y256.0305
G01 X101.8767
G01 X101.7982 Y256.0274
G01 X101.7203 Y256.0182
G01 X101.6432 Y256.0028
G01 X101.5677 Y255.9815
G01 X101.4940 Y255.9543
G01 X101.4227 Y255.9215
G01 X101.3542 Y255.8831
G01 X101.2889 Y255.8395
G01 X101.2272 Y255.7909
G01 X101.1696 Y255.7376
G01 X101.1163 Y255.6799
G01 X101.0677 Y255.6183
G01 X101.0240 Y255.5530
G01 X100.9857 Y255.4845
G01 X100.9528 Y255.4132
G01 X100.9256 Y255.3395
G01 X100.9043 Y255.2639
G01 X100.8890 Y255.1869
G01 X100.8798 Y255.1089
G01 X100.8767 Y255.0305
G01 Y251.7453
G01 X100.8776 Y251.7017
G01 X100.8805 Y251.6582
G01 X100.8852 Y251.6148
G01 X100.8919 Y251.5717
G01 X100.9004 Y251.5289
G01 X100.9108 Y251.4865
G01 X100.9230 Y251.4446
G01 X100.9370 Y251.4033
G01 X100.9528 Y251.3626
G01 X100.9704 Y251.3227
G01 X100.9897 Y251.2836
G01 X101.0107 Y251.2453
G01 X101.0333 Y251.2080
G01 X101.0575 Y251.1717
G01 X101.0833 Y251.1366
G01 X101.1106 Y251.1025
G01 X101.1394 Y251.0697
G01 X101.1696 Y251.0382
G01 X101.2011 Y251.0080
G01 X101.2339 Y250.9793
G01 X101.2679 Y250.9520
G01 X101.3031 Y250.9262
G01 X101.3394 Y250.9019
G01 X101.3767 Y250.8793
G01 X101.4149 Y250.8583
G01 X101.4541 Y250.8390
G01 X101.4940 Y250.8214
G01 X101.5347 Y250.8056
G01 X101.5760 Y250.7916
G01 X101.6179 Y250.7794
G01 X101.6603 Y250.7690
G01 X101.7030 Y250.7605
G01 X101.7462 Y250.7539
G01 X101.7895 Y250.7491
G01 X101.8331 Y250.7463
G01 X101.8767 Y250.7453
G01 X122.3025
G01 Y238.8898
G01 X97.6215
G01 X97.6822 Y239.2249
G01 X97.7726 Y239.5532
G01 X97.8921 Y239.8721
G01 X98.0398 Y240.1789
G01 X98.2144 Y240.4713
G01 X98.4145 Y240.7468
G01 X98.6385 Y241.0033
G01 X98.8846 Y241.2386
G01 X99.1509 Y241.4509
G01 X99.4351 Y241.6385
G01 X99.7349 Y241.7998
G01 X100.0481 Y241.9335
G01 X100.3720 Y242.0387
G01 X100.7040 Y242.1143
G01 X101.0415 Y242.1599
G01 X101.3816 Y242.1750
G01 X118.0173
G01 X118.0609 Y242.1760
G01 X118.1045 Y242.1788
G01 X118.1478 Y242.1836
G01 X118.1910 Y242.1902
G01 X118.2338 Y242.1987
G01 X118.2761 Y242.2091
G01 X118.3180 Y242.2213
G01 X118.3593 Y242.2353
G01 X118.4000 Y242.2511
G01 X118.4399 Y242.2687
G01 X118.4791 Y242.2880
G01 X118.5173 Y242.3090
G01 X118.5546 Y242.3316
G01 X118.5909 Y242.3558
G01 X118.6261 Y242.3816
G01 X118.6601 Y242.4090
G01 X118.6929 Y242.4377
G01 X118.7244 Y242.4679
G01 X118.7546 Y242.4994
G01 X118.7834 Y242.5322
G01 X118.8107 Y242.5662
G01 X118.8365 Y242.6014
G01 X118.8607 Y242.6377
G01 X118.8833 Y242.6750
G01 X118.9043 Y242.7133
G01 X118.9236 Y242.7524
G01 X118.9412 Y242.7923
G01 X118.9570 Y242.8330
G01 X118.9710 Y242.8743
G01 X118.9832 Y242.9162
G01 X118.9936 Y242.9586
G01 X119.0021 Y243.0014
G01 X119.0088 Y243.0445
G01 X119.0135 Y243.0878
G01 X119.0164 Y243.1314
G01 X119.0173 Y243.1750
G01 Y246.4602
G01 X119.0142 Y246.5386
G01 X119.0050 Y246.6166
G01 X118.9897 Y246.6936
G01 X118.9684 Y246.7692
G01 X118.9412 Y246.8428
G01 X118.9083 Y246.9141
G01 X118.8700 Y246.9827
G01 X118.8263 Y247.0479
G01 X118.7777 Y247.1096
G01 X118.7244 Y247.1673
G01 X118.6668 Y247.2206
G01 X118.6051 Y247.2692
G01 X118.5398 Y247.3128
G01 X118.4713 Y247.3512
G01 X118.4000 Y247.3840
G01 X118.3263 Y247.4112
G01 X118.2508 Y247.4325
G01 X118.1738 Y247.4478
G01 X118.0958 Y247.4571
G01 X118.0173 Y247.4602
G01 X97.5915
G01 Y258.0882
G01 X97.7915 Y258.1027
M107
G00 Z2.0000


;No. 7: Hole 7
G00 X131.0884 Y258.1027 Z2.0000
G00 Z0.5000
G01 Z0.0000 F400
G01 Z-2.5000
M106 S240
G01 X133.9736 F1000
G01 Y256.6027
G01 X131.0884
G01 Y255.1027
G01 X133.9736
G01 Y253.6027
G01 X131.0884
G01 Y252.1027
G01 X133.9736
G01 Y250.6027
G01 X131.0884
G01 Y249.1027
G01 X133.9736
G01 Y247.6027
G01 X131.0884
G01 Y246.1027
G01 X133.9736
G01 Y244.6027
G01 X131.0884
G01 Y243.1027
G01 X133.9764
G01 X131.0884 Y241.6027
G01 X155.2466
G01 X154.3110 Y240.1027
G01 X131.0884
G01 X130.8884 Y240.1181
G01 Y259.3156
G01 X134.1736
G01 Y243.1750
G01 X134.1767 Y243.0960
G01 X134.1860 Y243.0176
G01 X134.2016 Y242.9401
G01 X134.2231 Y242.8641
G01 X134.2507 Y242.7900
G01 X134.2839 Y242.7183
G01 X134.3228 Y242.6495
G01 X134.3669 Y242.5840
G01 X134.4161 Y242.5221
G01 X134.4700 Y242.4644
G01 X134.5283 Y242.4110
G01 X134.5907 Y242.3625
G01 X134.6566 Y242.3190
G01 X134.7258 Y242.2808
G01 X134.7978 Y242.2483
G01 X134.8722 Y242.2215
G01 X134.9484 Y242.2006
G01 X135.0260 Y242.1859
G01 X135.1046 Y242.1773
G01 X135.1836 Y242.1750
G01 X155.5694
G01 X155.5086 Y241.8400
G01 X155.4180 Y241.5118
G01 X155.2983 Y241.1930
G01 X155.1506 Y240.8863
G01 X154.9760 Y240.5940
G01 X154.7759 Y240.3185
G01 X154.5518 Y240.0621
G01 X154.3057 Y239.8268
G01 X154.0395 Y239.6145
G01 X153.7554 Y239.4270
G01 X153.4556 Y239.2656
G01 X153.1425 Y239.1318
G01 X152.8187 Y239.0266
G01 X152.4867 Y238.9508
G01 X152.1493 Y238.9051
G01 X151.8092 Y238.8898
G01 X130.8884
G01 Y240.1181
G01 X131.0884 Y240.1027
M107
G00 Z2.0000


;No. 8: Hole 9
G00 X164.3872 Y240.3176 Z2.0000
G00 Z0.5000
G01 Z0.0000 F400
G01 Z-2.5000
M106 S240
G01 X167.2724 F1000
G01 Y241.8176
G01 X164.3872
G01 Y243.3176
G01 X167.2724
G01 Y244.8176
G01 X164.3872
G01 Y246.3176
G01 X167.2724
G01 X164.3872 Y247.8176
G01 X188.6982
G01 Y246.3176
G01 X185.8130
G01 Y244.8176
G01 X188.6982
G01 Y243.3176
G01 X185.8130
G01 Y241.8176
G01 X188.6982
G01 Y240.3176
G01 X185.8130
M107
G00 Z2.0000
G00 X188.6982 Y247.8176
G00 Z0.5000
G01 Z-2.5000 F400
M106 S240
G01 Y249.3176 F1000
G01 X164.3872
G01 X164.1872 Y249.3056
G01 Y250.7453
G01 X188.8982
G01 Y238.8898
G01 X185.6130
G01 Y246.4602
G01 X185.6099 Y246.5386
G01 X185.6007 Y246.6166
G01 X185.5854 Y246.6936
G01 X185.5641 Y246.7692
G01 X185.5369 Y246.8428
G01 X185.5040 Y246.9141
G01 X185.4657 Y246.9827
G01 X185.4220 Y247.0479
G01 X185.3734 Y247.1096
G01 X185.3201 Y247.1673
G01 X185.2625 Y247.2206
G01 X185.2008 Y247.2692
G01 X185.1355 Y247.3128
G01 X185.0670 Y247.3512
G01 X184.9957 Y247.3840
G01 X184.9220 Y247.4112
G01 X184.8465 Y247.4325
G01 X184.7695 Y247.4478
G01 X184.6915 Y247.4571
G01 X184.6130 Y247.4602
G01 X168.4724
G01 X168.3939 Y247.4571
G01 X168.3160 Y247.4478
G01 X168.2389 Y247.4325
G01 X168.1634 Y247.4112
G01 X168.0897 Y247.3840
G01 X168.0184 Y247.3512
G01 X167.9499 Y247.3128
G01 X167.8846 Y247.2692
G01 X167.8229 Y247.2206
G01 X167.7653 Y247.1673
G01 X167.7120 Y247.1096
G01 X167.6634 Y247.0479
G01 X167.6197 Y246.9827
G01 X167.5814 Y246.9141
G01 X167.5485 Y246.8428
G01 X167.5213 Y246.7692
G01 X167.5000 Y246.6936
G01 X167.4847 Y246.6166
G01 X167.4755 Y246.5386
G01 X167.4724 Y246.4602
G01 Y238.8898
G01 X164.1872
G01 Y249.3056
G01 X164.3872 Y249.3176
M107
G00 Z2.0000


;No. 9: Helical drill 2
G00 X188.5066 Y268.0159 Z2.0000
G00 Z0.5000
M106 S240
G01 X188.5028 Y267.9288 Z0.4705 F400
G01 X188.4914 Y267.8423 Z0.4410
G01 X188.4726 Y267.7571 Z0.4115
G01 X188.4463 Y267.6739 Z0.3819
G01 X188.4129 Y267.5933 Z0.3524
G01 X188.3727 Y267.5159 Z0.3229
G01 X188.3258 Y267.4423 Z0.2934
G01 X188.2727 Y267.3731 Z0.2639
G01 X188.2137 Y267.3088 Z0.2344
G01 X188.1494 Y267.2499 Z0.2049
G01 X188.0802 Y267.1968 Z0.1753
G01 X188.0066 Y267.1499 Z0.1458
G01 X187.9293 Y267.1096 Z0.1163
G01 X187.8487 Y267.0762 Z0.0868
G01 X187.7655 Y267.0500 Z0.0573
G01 X187.6803 Y267.0311 Z0.0278
G01 X187.5938 Y267.0197 Z-0.0017
G01 X187.5066 Y267.0159 Z-0.0313
G01 X187.4195 Y267.0197 Z-0.0608
G01 X187.3330 Y267.0311 Z-0.0903
G01 X187.2478 Y267.0500 Z-0.1198
G01 X187.1646 Y267.0762 Z-0.1493
G01 X187.0840 Y267.1096 Z-0.1788
G01 X187.0066 Y267.1499 Z-0.2083
G01 X186.9660 Y267.1747 Z-0.2244
G01 X186.9266 Y267.2013 Z-0.2405
G01 X186.8885 Y267.2299 Z-0.2566
G01 X186.8518 Y267.2602 Z-0.2727
G01 X186.8166 Y267.2922 Z-0.2888
G01 X186.7829 Y267.3258 Z-0.3049
G01 X186.7509 Y267.3610 Z-0.3210
G01 X186.7206 Y267.3977 Z-0.3371
G01 X186.6921 Y267.4358 Z-0.3532
G01 X186.6654 Y267.4753 Z-0.3693
G01 X186.6406 Y267.5159 Z-0.3854
G01 X186.6178 Y267.5577 Z-0.4015
G01 X186.5970 Y267.6005 Z-0.4176
G01 X186.5783 Y267.6442 Z-0.4337
G01 X186.5616 Y267.6888 Z-0.4498
G01 X186.5471 Y267.7342 Z-0.4659
G01 X186.5348 Y267.7801 Z-0.4820
G01 X186.5247 Y267.8267 Z-0.4981
G01 X186.5168 Y267.8736 Z-0.5142
G01 X186.5112 Y267.9209 Z-0.5303
G01 X186.5078 Y267.9683 Z-0.5464
G01 X186.5066 Y268.0159 Z-0.5625
G01 X186.5078 Y268.0635 Z-0.5786
G01 X186.5112 Y268.1110 Z-0.5947
G01 X186.5168 Y268.1582 Z-0.6108
G01 X186.5247 Y268.2052 Z-0.6269
G01 X186.5348 Y268.2517 Z-0.6430
G01 X186.5471 Y268.2976 Z-0.6591
G01 X186.5616 Y268.3430 Z-0.6752
G01 X186.5783 Y268.3876 Z-0.6913
G01 X186.5970 Y268.4313 Z-0.7074
G01 X186.6178 Y268.4741 Z-0.7235
G01 X186.6406 Y268.5159 Z-0.7396
G01 X186.6654 Y268.5565 Z-0.7557
G01 X186.6921 Y268.5960 Z-0.7718
G01 X186.7206 Y268.6341 Z-0.7879
G01 X186.7509 Y268.6708 Z-0.8040
G01 X186.7829 Y268.7060 Z-0.8201
G01 X186.8166 Y268.7396 Z-0.8362
G01 X186.8518 Y268.7717 Z-0.8523
G01 X186.8885 Y268.8020 Z-0.8684
G01 X186.9266 Y268.8305 Z-0.8845
G01 X186.9660 Y268.8572 Z-0.9006
G01 X187.0066 Y268.8819 Z-0.9167
G01 X187.0484 Y268.9047 Z-0.9328
G01 X187.0912 Y268.9255 Z-0.9489
G01 X187.1350 Y268.9443 Z-0.9650
G01 X187.1796 Y268.9609 Z-0.9811
G01 X187.2249 Y268.9754 Z-0.9972
G01 X187.2709 Y268.9877 Z-1.0133
G01 X187.3174 Y268.9978 Z-1.0294
G01 X187.3643 Y269.0057 Z-1.0455
G01 X187.4116 Y269.0114 Z-1.0616
G01 X187.4590 Y269.0148 Z-1.0777
G01 X187.5066 Y269.0159 Z-1.0938
G01 X187.5542 Y269.0148 Z-1.1098
G01 X187.6017 Y269.0114 Z-1.1259
G01 X187.6489 Y269.0057 Z-1.1420
G01 X187.6959 Y268.9978 Z-1.1581
G01 X187.7424 Y268.9877 Z-1.1742
G01 X187.7884 Y268.9754 Z-1.1903
G01 X187.8337 Y268.9609 Z-1.2064
G01 X187.8783 Y268.9443 Z-1.2225
G01 X187.9220 Y268.9255 Z-1.2386
G01 X187.9649 Y268.9047 Z-1.2547
G01 X188.0066 Y268.8819 Z-1.2708
G01 X188.0473 Y268.8572 Z-1.2869
G01 X188.0867 Y268.8305 Z-1.3030
G01 X188.1248 Y268.8020 Z-1.3191
G01 X188.1615 Y268.7717 Z-1.3352
G01 X188.1967 Y268.7396 Z-1.3513
G01 X188.2304 Y268.7060 Z-1.3674
G01 X188.2624 Y268.6708 Z-1.3835
G01 X188.2927 Y268.6341 Z-1.3996
G01 X188.3212 Y268.5960 Z-1.4157
G01 X188.3479 Y268.5565 Z-1.4318
G01 X188.3727 Y268.5159 Z-1.4479
G01 X188.3955 Y268.4741 Z-1.4640
G01 X188.4163 Y268.4313 Z-1.4801
G01 X188.4350 Y268.3876 Z-1.4962
G01 X188.4516 Y268.3430 Z-1.5123
G01 X188.4661 Y268.2976 Z-1.5284
G01 X188.4784 Y268.2517 Z-1.5445
G01 X188.4886 Y268.2052 Z-1.5606
G01 X188.4965 Y268.1582 Z-1.5767
G01 X188.5021 Y268.1110 Z-1.5928
G01 X188.5055 Y268.0635 Z-1.6089
G01 X188.5066 Y268.0159 Z-1.6250
G01 X188.5028 Y267.9288
G01 X188.4914 Y267.8423
G01 X188.4726 Y267.7571
G01 X188.4463 Y267.6739
G01 X188.4129 Y267.5933
G01 X188.3727 Y267.5159
G01 X188.3258 Y267.4423
G01 X188.2727 Y267.3731
G01 X188.2137 Y267.3088
G01 X188.1494 Y267.2499
G01 X188.0802 Y267.1968
G01 X188.0066 Y267.1499
G01 X187.9293 Y267.1096
G01 X187.8487 Y267.0762
G01 X187.7655 Y267.0500
G01 X187.6803 Y267.0311
G01 X187.5938 Y267.0197
G01 X187.5066 Y267.0159
G01 X187.4195 Y267.0197
G01 X187.3330 Y267.0311
G01 X187.2478 Y267.0500
G01 X187.1646 Y267.0762
G01 X187.0840 Y267.1096
G01 X187.0066 Y267.1499
G01 X186.9660 Y267.1747
G01 X186.9266 Y267.2013
G01 X186.8885 Y267.2299
G01 X186.8518 Y267.2602
G01 X186.8166 Y267.2922
G01 X186.7829 Y267.3258
G01 X186.7509 Y267.3610
G01 X186.7206 Y267.3977
G01 X186.6921 Y267.4358
G01 X186.6654 Y267.4753
G01 X186.6406 Y267.5159
G01 X186.6178 Y267.5577
G01 X186.5970 Y267.6005
G01 X186.5783 Y267.6442
G01 X186.5616 Y267.6888
G01 X186.5471 Y267.7342
G01 X186.5348 Y267.7801
G01 X186.5247 Y267.8267
G01 X186.5168 Y267.8736
G01 X186.5112 Y267.9209
G01 X186.5078 Y267.9683
G01 X186.5066 Y268.0159
G01 X186.5078 Y268.0635
G01 X186.5112 Y268.1110
G01 X186.5168 Y268.1582
G01 X186.5247 Y268.2052
G01 X186.5348 Y268.2517
G01 X186.5471 Y268.2976
G01 X186.5616 Y268.3430
G01 X186.5783 Y268.3876
G01 X186.5970 Y268.4313
G01 X186.6178 Y268.4741
G01 X186.6406 Y268.5159
G01 X186.6654 Y268.5565
G01 X186.6921 Y268.5960
G01 X186.7206 Y268.6341
G01 X186.7509 Y268.6708
G01 X186.7829 Y268.7060
G01 X186.8166 Y268.7396
G01 X186.8518 Y268.7717
G01 X186.8885 Y268.8020
G01 X186.9266 Y268.8305
G01 X186.9660 Y268.8572
G01 X187.0066 Y268.8819
G01 X187.0484 Y268.9047
G01 X187.0912 Y268.9255
G01 X187.1350 Y268.9443
G01 X187.1796 Y268.9609
G01 X187.2249 Y268.9754
G01 X187.2709 Y268.9877
G01 X187.3174 Y268.9978
G01 X187.3643 Y269.0057
G01 X187.4116 Y269.0114
G01 X187.4590 Y269.0148
G01 X187.5066 Y269.0159
G01 X187.5542 Y269.0148
G01 X187.6017 Y269.0114
G01 X187.6489 Y269.0057
G01 X187.6959 Y268.9978
G01 X187.7424 Y268.9877
G01 X187.7884 Y268.9754
G01 X187.8337 Y268.9609
G01 X187.8783 Y268.9443
G01 X187.9220 Y268.9255
G01 X187.9649 Y268.9047
G01 X188.0066 Y268.8819
G01 X188.0473 Y268.8572
G01 X188.0867 Y268.8305
G01 X188.1248 Y268.8020
G01 X188.1615 Y268.7717
G01 X188.1967 Y268.7396
G01 X188.2304 Y268.7060
G01 X188.2624 Y268.6708
G01 X188.2927 Y268.6341
G01 X188.3212 Y268.5960
G01 X188.3479 Y268.5565
G01 X188.3727 Y268.5159
G01 X188.3955 Y268.4741
G01 X188.4163 Y268.4313
G01 X188.4350 Y268.3876
G01 X188.4516 Y268.3430
G01 X188.4661 Y268.2976
G01 X188.4784 Y268.2517
G01 X188.4886 Y268.2052
G01 X188.4965 Y268.1582
G01 X188.5021 Y268.1110
G01 X188.5055 Y268.0635
G01 X188.5066 Y268.0159
G01 X188.5174 Y267.9643 F1000
G01 X188.5255 Y267.9122
G01 X188.5308 Y267.8598
G01 X188.5335 Y267.8072
G01 Y267.7545
G01 X188.5307 Y267.7018
G01 X188.5253 Y267.6494
G01 X188.5171 Y267.5973
G01 X188.5054 Y267.5414
G01 X188.4908 Y267.4860
G01 X188.4735 Y267.4316
G01 X188.4533 Y267.3780
G01 X188.4305 Y267.3256
G01 X188.4050 Y267.2744
G01 X188.3769 Y267.2245
G01 X188.3463 Y267.1762
G01 X188.3107 Y267.1258
G01 X188.2726 Y267.0773
G01 X188.2320 Y267.0308
G01 X188.1892 Y266.9864
G01 X188.1441 Y266.9442
G01 X188.0970 Y266.9044
G01 X188.0479 Y266.8670
G01 X187.9969 Y266.8322
G01 X187.9404 Y266.7976
G01 X187.8823 Y266.7659
G01 X187.8226 Y266.7373
G01 X187.7615 Y266.7116
G01 X187.6992 Y266.6891
G01 X187.6359 Y266.6698
G01 X187.5716 Y266.6537
G01 X187.5066 Y266.6409
G01 X187.4366 Y266.6307
G01 X187.3661 Y266.6241
G01 X187.2954 Y266.6210
G01 X187.2247 Y266.6215
G01 X187.1540 Y266.6255
G01 X187.0837 Y266.6332
G01 X187.0138 Y266.6443
G01 X186.9446 Y266.6590
G01 X186.8761 Y266.6846
G01 X186.8090 Y266.7135
G01 X186.7434 Y266.7457
G01 X186.6795 Y266.7811
G01 X186.6174 Y266.8196
G01 X186.5573 Y266.8611
G01 X186.4993 Y266.9056
G01 X186.4435 Y266.9528
G01 X186.3926 Y267.0062
G01 X186.3444 Y267.0621
G01 X186.2990 Y267.1203
G01 X186.2566 Y267.1806
G01 X186.2171 Y267.2430
G01 X186.1807 Y267.3072
G01 X186.1475 Y267.3731
G01 X186.1176 Y267.4406
G01 X186.0911 Y267.5094
G01 X186.0679 Y267.5795
G01 X186.0482 Y267.6506
G01 X186.0321 Y267.7226
G01 X186.0194 Y267.7953
G01 X186.0104 Y267.8685
G01 X186.0050 Y267.9421
G01 X186.0032 Y268.0159
G01 X186.0050 Y268.0897
G01 X186.0104 Y268.1633
G01 X186.0194 Y268.2365
G01 X186.0321 Y268.3092
G01 X186.0482 Y268.3812
G01 X186.0679 Y268.4523
G01 X186.0911 Y268.5224
G01 X186.1176 Y268.5913
G01 X186.1475 Y268.6587
G01 X186.1807 Y268.7246
G01 X186.2171 Y268.7888
G01 X186.2566 Y268.8512
G01 X186.2990 Y268.9115
G01 X186.3444 Y268.9697
G01 X186.3926 Y269.0256
G01 X186.4435 Y269.0790
G01 X186.4970 Y269.1299
G01 X186.5528 Y269.1781
G01 X186.6110 Y269.2235
G01 X186.6714 Y269.2660
G01 X186.7337 Y269.3055
G01 X186.7979 Y269.3418
G01 X186.8638 Y269.3750
G01 X186.9313 Y269.4049
G01 X187.0001 Y269.4315
G01 X187.0702 Y269.4546
G01 X187.1413 Y269.4743
G01 X187.2133 Y269.4905
G01 X187.2860 Y269.5031
G01 X187.3593 Y269.5121
G01 X187.4329 Y269.5176
G01 X187.5066 Y269.5194
G01 X187.5804 Y269.5176
G01 X187.6540 Y269.5121
G01 X187.7272 Y269.5031
G01 X187.7999 Y269.4905
G01 X187.8719 Y269.4743
G01 X187.9431 Y269.4546
G01 X188.0131 Y269.4315
G01 X188.0820 Y269.4049
G01 X188.1494 Y269.3750
G01 X188.2154 Y269.3418
G01 X188.2796 Y269.3055
G01 X188.3419 Y269.2660
G01 X188.4022 Y269.2235
G01 X188.4604 Y269.1781
G01 X188.5163 Y269.1299
G01 X188.5697 Y269.0790
G01 X188.6206 Y269.0256
G01 X188.6688 Y268.9697
G01 X188.7142 Y268.9115
G01 X188.7567 Y268.8512
G01 X188.7962 Y268.7888
G01 X188.8326 Y268.7246
G01 X188.8657 Y268.6587
G01 X188.8956 Y268.5913
G01 X188.9222 Y268.5224
G01 X188.9454 Y268.4523
G01 X188.9650 Y268.3812
G01 X188.9812 Y268.3092
G01 X188.9938 Y268.2365
G01 X189.0029 Y268.1633
G01 X189.0083 Y268.0897
G01 X189.0101 Y268.0159
G01 X189.0059 Y267.9036
G01 X188.9933 Y267.7918
G01 X188.9724 Y267.6814
G01 X188.9433 Y267.5728
G01 X188.9062 Y267.4666
G01 X188.8612 Y267.3636
G01 X188.8087 Y267.2642
G01 X188.7488 Y267.1690
G01 X188.6821 Y267.0785
G01 X188.6087 Y266.9933
G01 X188.5292 Y266.9138
G01 X188.4440 Y266.8405
G01 X188.3536 Y266.7737
G01 X188.2584 Y266.7139
G01 X188.1590 Y266.6613
G01 X188.0559 Y266.6164
G01 X187.9498 Y266.5792
G01 X187.8412 Y266.5501
G01 X187.7307 Y266.5292
G01 X187.6190 Y266.5167
G01 X187.5066 Y266.5124
G01 X187.3943 Y266.5167
G01 X187.2826 Y266.5292
G01 X187.1721 Y266.5501
G01 X187.0635 Y266.5792
G01 X186.9574 Y266.6164
G01 X186.8543 Y266.6613
G01 X186.7549 Y266.7139
G01 X186.6597 Y266.7737
G01 X186.5692 Y266.8405
G01 X186.4840 Y266.9138
G01 X186.4045 Y266.9933
G01 X186.3312 Y267.0785
G01 X186.2644 Y267.1690
G01 X186.2046 Y267.2642
G01 X186.1521 Y267.3636
G01 X186.1071 Y267.4666
G01 X186.0700 Y267.5728
G01 X186.0409 Y267.6814
G01 X186.0200 Y267.7918
G01 X186.0074 Y267.9036
G01 X186.0032 Y268.0159
G01 X186.0074 Y268.1283
G01 X186.0200 Y268.2400
G01 X186.0409 Y268.3505
G01 X186.0700 Y268.4591
G01 X186.1071 Y268.5652
G01 X186.1521 Y268.6682
G01 X186.2046 Y268.7676
G01 X186.2644 Y268.8628
G01 X186.3312 Y268.9533
G01 X186.4045 Y269.0385
G01 X186.4840 Y269.1180
G01 X186.5692 Y269.1914
G01 X186.6597 Y269.2581
G01 X186.7549 Y269.3179
G01 X186.8543 Y269.3705
G01 X186.9574 Y269.4154
G01 X187.0635 Y269.4526
G01 X187.1721 Y269.4817
G01 X187.2826 Y269.5026
G01 X187.3943 Y269.5152
G01 X187.5066 Y269.5194
G01 X187.6190 Y269.5152
G01 X187.7307 Y269.5026
G01 X187.8412 Y269.4817
G01 X187.9498 Y269.4526
G01 X188.0559 Y269.4154
G01 X188.1590 Y269.3705
G01 X188.2584 Y269.3179
G01 X188.3536 Y269.2581
G01 X188.4440 Y269.1914
G01 X188.5292 Y269.1180
G01 X188.6087 Y269.0385
G01 X188.6821 Y268.9533
G01 X188.7488 Y268.8628
G01 X188.8087 Y268.7676
G01 X188.8612 Y268.6682
G01 X188.9062 Y268.5652
G01 X188.9433 Y268.4591
G01 X188.9724 Y268.3505
G01 X188.9933 Y268.2400
G01 X189.0059 Y268.1283
G01 X189.0101 Y268.0159
G01 X189.0062 Y267.9177
G01 X188.9947 Y267.8201
G01 X188.9755 Y267.7237
G01 X188.9488 Y267.6291
G01 X188.9148 Y267.5369
G01 X188.8737 Y267.4476
G01 X188.8256 Y267.3619
G01 X188.7710 Y267.2802
G01 X188.7102 Y267.2030
G01 X188.6435 Y267.1308
G01 X188.5713 Y267.0641
G01 X188.4941 Y267.0032
G01 X188.4124 Y266.9486
G01 X188.3266 Y266.9006
G01 X188.2374 Y266.8595
G01 X188.1452 Y266.8254
G01 X188.0506 Y266.7988
G01 X187.9542 Y266.7796
G01 X187.8566 Y266.7680
G01 X187.7584 Y266.7642
G01 X187.6602 Y266.7680
G01 X187.5625 Y266.7796
G01 X187.4662 Y266.7988
G01 X187.3716 Y266.8254
G01 X187.2793 Y266.8595
G01 X187.1901 Y266.9006
G01 X187.1043 Y266.9486
G01 X187.0226 Y267.0032
G01 X186.9454 Y267.0641
G01 X186.8733 Y267.1308
G01 X186.8065 Y267.2030
G01 X186.7457 Y267.2802
G01 X186.6911 Y267.3619
G01 X186.6431 Y267.4476
G01 X186.6019 Y267.5369
G01 X186.5679 Y267.6291
G01 X186.5412 Y267.7237
G01 X186.5220 Y267.8201
G01 X186.5105 Y267.9177
G01 X186.5066 Y268.0159
G01 X186.5104 Y268.1031
G01 X186.5218 Y268.1896
G01 X186.5407 Y268.2747
G01 X186.5669 Y268.3579
G01 X186.6003 Y268.4385
G01 X186.6406 Y268.5159
G01 X186.6875 Y268.5895
G01 X186.7406 Y268.6587
G01 X186.7995 Y268.7230
G01 X186.8638 Y268.7820
G01 X186.9331 Y268.8351
G01 X187.0066 Y268.8819
G01 X187.0840 Y268.9222
G01 X187.1646 Y268.9556
G01 X187.2478 Y268.9818
G01 X187.3330 Y269.0007
G01 X187.4195 Y269.0121
G01 X187.5066 Y269.0159
G01 X187.5938 Y269.0121
G01 X187.6803 Y269.0007
G01 X187.7655 Y268.9818
G01 X187.8487 Y268.9556
G01 X187.9293 Y268.9222
G01 X188.0066 Y268.8819
G01 X188.0802 Y268.8351
G01 X188.1494 Y268.7820
G01 X188.2137 Y268.7230
G01 X188.2727 Y268.6587
G01 X188.3258 Y268.5895
G01 X188.3727 Y268.5159
G01 X188.4129 Y268.4385
G01 X188.4463 Y268.3579
G01 X188.4726 Y268.2747
G01 X188.4914 Y268.1896
G01 X188.5028 Y268.1031
G01 X188.5066 Y268.0159
M107
M106 S240
G01 X188.5028 Y267.9288 Z-1.6545 F400
G01 X188.4914 Y267.8423 Z-1.6840
G01 X188.4726 Y267.7571 Z-1.7135
G01 X188.4463 Y267.6739 Z-1.7431
G01 X188.4129 Y267.5933 Z-1.7726
G01 X188.3727 Y267.5159 Z-1.8021
G01 X188.3258 Y267.4423 Z-1.8316
G01 X188.2727 Y267.3731 Z-1.8611
G01 X188.2137 Y267.3088 Z-1.8906
G01 X188.1494 Y267.2499 Z-1.9201
G01 X188.0802 Y267.1968 Z-1.9497
G01 X188.0066 Y267.1499 Z-1.9792
G01 X187.9293 Y267.1096 Z-2.0087
G01 X187.8487 Y267.0762 Z-2.0382
G01 X187.7655 Y267.0500 Z-2.0677
G01 X187.6803 Y267.0311 Z-2.0972
G01 X187.5938 Y267.0197 Z-2.1267
G01 X187.5066 Y267.0159 Z-2.1563
G01 X187.4195 Y267.0197 Z-2.1858
G01 X187.3330 Y267.0311 Z-2.2153
G01 X187.2478 Y267.0500 Z-2.2448
G01 X187.1646 Y267.0762 Z-2.2743
G01 X187.0840 Y267.1096 Z-2.3038
G01 X187.0066 Y267.1499 Z-2.3333
G01 X186.9660 Y267.1747 Z-2.3494
G01 X186.9266 Y267.2013 Z-2.3655
G01 X186.8885 Y267.2299 Z-2.3816
G01 X186.8518 Y267.2602 Z-2.3977
G01 X186.8166 Y267.2922 Z-2.4138
G01 X186.7829 Y267.3258 Z-2.4299
G01 X186.7509 Y267.3610 Z-2.4460
G01 X186.7206 Y267.3977 Z-2.4621
G01 X186.6921 Y267.4358 Z-2.4782
G01 X186.6654 Y267.4753 Z-2.4943
G01 X186.6406 Y267.5159 Z-2.5104
G01 X186.6178 Y267.5577 Z-2.5265
G01 X186.5970 Y267.6005 Z-2.5426
G01 X186.5783 Y267.6442 Z-2.5587
G01 X186.5616 Y267.6888 Z-2.5748
G01 X186.5471 Y267.7342 Z-2.5909
G01 X186.5348 Y267.7801 Z-2.6070
G01 X186.5247 Y267.8267 Z-2.6231
G01 X186.5168 Y267.8736 Z-2.6392
G01 X186.5112 Y267.9209 Z-2.6553
G01 X186.5078 Y267.9683 Z-2.6714
G01 X186.5066 Y268.0159 Z-2.6875
G01 X186.5078 Y268.0635 Z-2.7036
G01 X186.5112 Y268.1110 Z-2.7197
G01 X186.5168 Y268.1582 Z-2.7358
G01 X186.5247 Y268.2052 Z-2.7519
G01 X186.5348 Y268.2517 Z-2.7680
G01 X186.5471 Y268.2976 Z-2.7841
G01 X186.5616 Y268.3430 Z-2.8002
G01 X186.5783 Y268.3876 Z-2.8163
G01 X186.5970 Y268.4313 Z-2.8324
G01 X186.6178 Y268.4741 Z-2.8485
G01 X186.6406 Y268.5159 Z-2.8646
G01 X186.6654 Y268.5565 Z-2.8807
G01 X186.6921 Y268.5960 Z-2.8968
G01 X186.7206 Y268.6341 Z-2.9129
G01 X186.7509 Y268.6708 Z-2.9290
G01 X186.7829 Y268.7060 Z-2.9451
G01 X186.8166 Y268.7396 Z-2.9612
G01 X186.8518 Y268.7717 Z-2.9773
G01 X186.8885 Y268.8020 Z-2.9934
G01 X186.9266 Y268.8305 Z-3.0095
G01 X186.9660 Y268.8572 Z-3.0256
G01 X187.0066 Y268.8819 Z-3.0417
G01 X187.0484 Y268.9047 Z-3.0578
G01 X187.0912 Y268.9255 Z-3.0739
G01 X187.1350 Y268.9443 Z-3.0900
G01 X187.1796 Y268.9609 Z-3.1061
G01 X187.2249 Y268.9754 Z-3.1222
G01 X187.2709 Y268.9877 Z-3.1383
G01 X187.3174 Y268.9978 Z-3.1544
G01 X187.3643 Y269.0057 Z-3.1705
G01 X187.4116 Y269.0114 Z-3.1866
G01 X187.4590 Y269.0148 Z-3.2027
G01 X187.5066 Y269.0159 Z-3.2188
G01 X187.5542 Y269.0148 Z-3.2348
G01 X187.6017 Y269.0114 Z-3.2509
G01 X187.6489 Y269.0057 Z-3.2670
G01 X187.6959 Y268.9978 Z-3.2831
G01 X187.7424 Y268.9877 Z-3.2992
G01 X187.7884 Y268.9754 Z-3.3153
G01 X187.8337 Y268.9609 Z-3.3314
G01 X187.8783 Y268.9443 Z-3.3475
G01 X187.9220 Y268.9255 Z-3.3636
G01 X187.9649 Y268.9047 Z-3.3797
G01 X188.0066 Y268.8819 Z-3.3958
G01 X188.0473 Y268.8572 Z-3.4119
G01 X188.0867 Y268.8305 Z-3.4280
G01 X188.1248 Y268.8020 Z-3.4441
G01 X188.1615 Y268.7717 Z-3.4602
G01 X188.1967 Y268.7396 Z-3.4763
G01 X188.2304 Y268.7060 Z-3.4924
G01 X188.2624 Y268.6708 Z-3.5085
G01 X188.2927 Y268.6341 Z-3.5246
G01 X188.3212 Y268.5960 Z-3.5407
G01 X188.3479 Y268.5565 Z-3.5568
G01 X188.3727 Y268.5159 Z-3.5729
G01 X188.3955 Y268.4741 Z-3.5890
G01 X188.4163 Y268.4313 Z-3.6051
G01 X188.4350 Y268.3876 Z-3.6212
G01 X188.4516 Y268.3430 Z-3.6373
G01 X188.4661 Y268.2976 Z-3.6534
G01 X188.4784 Y268.2517 Z-3.6695
G01 X188.4886 Y268.2052 Z-3.6856
G01 X188.4965 Y268.1582 Z-3.7017
G01 X188.5021 Y268.1110 Z-3.7178
G01 X188.5055 Y268.0635 Z-3.7339
G01 X188.5066 Y268.0159 Z-3.7500
G01 X188.5028 Y267.9288
G01 X188.4914 Y267.8423
G01 X188.4726 Y267.7571
G01 X188.4463 Y267.6739
G01 X188.4129 Y267.5933
G01 X188.3727 Y267.5159
G01 X188.3258 Y267.4423
G01 X188.2727 Y267.3731
G01 X188.2137 Y267.3088
G01 X188.1494 Y267.2499
G01 X188.0802 Y267.1968
G01 X188.0066 Y267.1499
G01 X187.9293 Y267.1096
G01 X187.8487 Y267.0762
G01 X187.7655 Y267.0500
G01 X187.6803 Y267.0311
G01 X187.5938 Y267.0197
G01 X187.5066 Y267.0159
G01 X187.4195 Y267.0197
G01 X187.3330 Y267.0311
G01 X187.2478 Y267.0500
G01 X187.1646 Y267.0762
G01 X187.0840 Y267.1096
G01 X187.0066 Y267.1499
G01 X186.9660 Y267.1747
G01 X186.9266 Y267.2013
G01 X186.8885 Y267.2299
G01 X186.8518 Y267.2602
G01 X186.8166 Y267.2922
G01 X186.7829 Y267.3258
G01 X186.7509 Y267.3610
G01 X186.7206 Y267.3977
G01 X186.6921 Y267.4358
G01 X186.6654 Y267.4753
G01 X186.6406 Y267.5159
G01 X186.6178 Y267.5577
G01 X186.5970 Y267.6005
G01 X186.5783 Y267.6442
G01 X186.5616 Y267.6888
G01 X186.5471 Y267.7342
G01 X186.5348 Y267.7801
G01 X186.5247 Y267.8267
G01 X186.5168 Y267.8736
G01 X186.5112 Y267.9209
G01 X186.5078 Y267.9683
G01 X186.5066 Y268.0159
G01 X186.5078 Y268.0635
G01 X186.5112 Y268.1110
G01 X186.5168 Y268.1582
G01 X186.5247 Y268.2052
G01 X186.5348 Y268.2517
G01 X186.5471 Y268.2976
G01 X186.5616 Y268.3430
G01 X186.5783 Y268.3876
G01 X186.5970 Y268.4313
G01 X186.6178 Y268.4741
G01 X186.6406 Y268.5159
G01 X186.6654 Y268.5565
G01 X186.6921 Y268.5960
G01 X186.7206 Y268.6341
G01 X186.7509 Y268.6708
G01 X186.7829 Y268.7060
G01 X186.8166 Y268.7396
G01 X186.8518 Y268.7717
G01 X186.8885 Y268.8020
G01 X186.9266 Y268.8305
G01 X186.9660 Y268.8572
G01 X187.0066 Y268.8819
G01 X187.0484 Y268.9047
G01 X187.0912 Y268.9255
G01 X187.1350 Y268.9443
G01 X187.1796 Y268.9609
G01 X187.2249 Y268.9754
G01 X187.2709 Y268.9877
G01 X187.3174 Y268.9978
G01 X187.3643 Y269.0057
G01 X187.4116 Y269.0114
G01 X187.4590 Y269.0148
G01 X187.5066 Y269.0159
G01 X187.5542 Y269.0148
G01 X187.6017 Y269.0114
G01 X187.6489 Y269.0057
G01 X187.6959 Y268.9978
G01 X187.7424 Y268.9877
G01 X187.7884 Y268.9754
G01 X187.8337 Y268.9609
G01 X187.8783 Y268.9443
G01 X187.9220 Y268.9255
G01 X187.9649 Y268.9047
G01 X188.0066 Y268.8819
G01 X188.0473 Y268.8572
G01 X188.0867 Y268.8305
G01 X188.1248 Y268.8020
G01 X188.1615 Y268.7717
G01 X188.1967 Y268.7396
G01 X188.2304 Y268.7060
G01 X188.2624 Y268.6708
G01 X188.2927 Y268.6341
G01 X188.3212 Y268.5960
G01 X188.3479 Y268.5565
G01 X188.3727 Y268.5159
G01 X188.3955 Y268.4741
G01 X188.4163 Y268.4313
G01 X188.4350 Y268.3876
G01 X188.4516 Y268.3430
G01 X188.4661 Y268.2976
G01 X188.4784 Y268.2517
G01 X188.4886 Y268.2052
G01 X188.4965 Y268.1582
G01 X188.5021 Y268.1110
G01 X188.5055 Y268.0635
G01 X188.5066 Y268.0159
G01 X188.5174 Y267.9643 F1000
G01 X188.5255 Y267.9122
G01 X188.5308 Y267.8598
G01 X188.5335 Y267.8072
G01 Y267.7545
G01 X188.5307 Y267.7018
G01 X188.5253 Y267.6494
G01 X188.5171 Y267.5973
G01 X188.5054 Y267.5414
G01 X188.4908 Y267.4860
G01 X188.4735 Y267.4316
G01 X188.4533 Y267.3780
G01 X188.4305 Y267.3256
G01 X188.4050 Y267.2744
G01 X188.3769 Y267.2245
G01 X188.3463 Y267.1762
G01 X188.3107 Y267.1258
G01 X188.2726 Y267.0773
G01 X188.2320 Y267.0308
G01 X188.1892 Y266.9864
G01 X188.1441 Y266.9442
G01 X188.0970 Y266.9044
G01 X188.0479 Y266.8670
G01 X187.9969 Y266.8322
G01 X187.9404 Y266.7976
G01 X187.8823 Y266.7659
G01 X187.8226 Y266.7373
G01 X187.7615 Y266.7116
G01 X187.6992 Y266.6891
G01 X187.6359 Y266.6698
G01 X187.5716 Y266.6537
G01 X187.5066 Y266.6409
G01 X187.4366 Y266.6307
G01 X187.3661 Y266.6241
G01 X187.2954 Y266.6210
G01 X187.2247 Y266.6215
G01 X187.1540 Y266.6255
G01 X187.0837 Y266.6332
G01 X187.0138 Y266.6443
G01 X186.9446 Y266.6590
G01 X186.8761 Y266.6846
G01 X186.8090 Y266.7135
G01 X186.7434 Y266.7457
G01 X186.6795 Y266.7811
G01 X186.6174 Y266.8196
G01 X186.5573 Y266.8611
G01 X186.4993 Y266.9056
G01 X186.4435 Y266.9528
G01 X186.3926 Y267.0062
G01 X186.3444 Y267.0621
G01 X186.2990 Y267.1203
G01 X186.2566 Y267.1806
G01 X186.2171 Y267.2430
G01 X186.1807 Y267.3072
G01 X186.1475 Y267.3731
G01 X186.1176 Y267.4406
G01 X186.0911 Y267.5094
G01 X186.0679 Y267.5795
G01 X186.0482 Y267.6506
G01 X186.0321 Y267.7226
G01 X186.0194 Y267.7953
G01 X186.0104 Y267.8685
G01 X186.0050 Y267.9421
G01 X186.0032 Y268.0159
G01 X186.0050 Y268.0897
G01 X186.0104 Y268.1633
G01 X186.0194 Y268.2365
G01 X186.0321 Y268.3092
G01 X186.0482 Y268.3812
G01 X186.0679 Y268.4523
G01 X186.0911 Y268.5224
G01 X186.1176 Y268.5913
G01 X186.1475 Y268.6587
G01 X186.1807 Y268.7246
G01 X186.2171 Y268.7888
G01 X186.2566 Y268.8512
G01 X186.2990 Y268.9115
G01 X186.3444 Y268.9697
G01 X186.3926 Y269.0256
G01 X186.4435 Y269.0790
G01 X186.4970 Y269.1299
G01 X186.5528 Y269.1781
G01 X186.6110 Y269.2235
G01 X186.6714 Y269.2660
G01 X186.7337 Y269.3055
G01 X186.7979 Y269.3418
G01 X186.8638 Y269.3750
G01 X186.9313 Y269.4049
G01 X187.0001 Y269.4315
G01 X187.0702 Y269.4546
G01 X187.1413 Y269.4743
G01 X187.2133 Y269.4905
G01 X187.2860 Y269.5031
G01 X187.3593 Y269.5121
G01 X187.4329 Y269.5176
G01 X187.5066 Y269.5194
G01 X187.5804 Y269.5176
G01 X187.6540 Y269.5121
G01 X187.7272 Y269.5031
G01 X187.7999 Y269.4905
G01 X187.8719 Y269.4743
G01 X187.9431 Y269.4546
G01 X188.0131 Y269.4315
G01 X188.0820 Y269.4049
G01 X188.1494 Y269.3750
G01 X188.2154 Y269.3418
G01 X188.2796 Y269.3055
G01 X188.3419 Y269.2660
G01 X188.4022 Y269.2235
G01 X188.4604 Y269.1781
G01 X188.5163 Y269.1299
G01 X188.5697 Y269.0790
G01 X188.6206 Y269.0256
G01 X188.6688 Y268.9697
G01 X188.7142 Y268.9115
G01 X188.7567 Y268.8512
G01 X188.7962 Y268.7888
G01 X188.8326 Y268.7246
G01 X188.8657 Y268.6587
G01 X188.8956 Y268.5913
G01 X188.9222 Y268.5224
G01 X188.9454 Y268.4523
G01 X188.9650 Y268.3812
G01 X188.9812 Y268.3092
G01 X188.9938 Y268.2365
G01 X189.0029 Y268.1633
G01 X189.0083 Y268.0897
G01 X189.0101 Y268.0159
G01 X189.0059 Y267.9036
G01 X188.9933 Y267.7918
G01 X188.9724 Y267.6814
G01 X188.9433 Y267.5728
G01 X188.9062 Y267.4666
G01 X188.8612 Y267.3636
G01 X188.8087 Y267.2642
G01 X188.7488 Y267.1690
G01 X188.6821 Y267.0785
G01 X188.6087 Y266.9933
G01 X188.5292 Y266.9138
G01 X188.4440 Y266.8405
G01 X188.3536 Y266.7737
G01 X188.2584 Y266.7139
G01 X188.1590 Y266.6613
G01 X188.0559 Y266.6164
G01 X187.9498 Y266.5792
G01 X187.8412 Y266.5501
G01 X187.7307 Y266.5292
G01 X187.6190 Y266.5167
G01 X187.5066 Y266.5124
G01 X187.3943 Y266.5167
G01 X187.2826 Y266.5292
G01 X187.1721 Y266.5501
G01 X187.0635 Y266.5792
G01 X186.9574 Y266.6164
G01 X186.8543 Y266.6613
G01 X186.7549 Y266.7139
G01 X186.6597 Y266.7737
G01 X186.5692 Y266.8405
G01 X186.4840 Y266.9138
G01 X186.4045 Y266.9933
G01 X186.3312 Y267.0785
G01 X186.2644 Y267.1690
G01 X186.2046 Y267.2642
G01 X186.1521 Y267.3636
G01 X186.1071 Y267.4666
G01 X186.0700 Y267.5728
G01 X186.0409 Y267.6814
G01 X186.0200 Y267.7918
G01 X186.0074 Y267.9036
G01 X186.0032 Y268.0159
G01 X186.0074 Y268.1283
G01 X186.0200 Y268.2400
G01 X186.0409 Y268.3505
G01 X186.0700 Y268.4591
G01 X186.1071 Y268.5652
G01 X186.1521 Y268.6682
G01 X186.2046 Y268.7676
G01 X186.2644 Y268.8628
G01 X186.3312 Y268.9533
G01 X186.4045 Y269.0385
G01 X186.4840 Y269.1180
G01 X186.5692 Y269.1914
G01 X186.6597 Y269.2581
G01 X186.7549 Y269.3179
G01 X186.8543 Y269.3705
G01 X186.9574 Y269.4154
G01 X187.0635 Y269.4526
G01 X187.1721 Y269.4817
G01 X187.2826 Y269.5026
G01 X187.3943 Y269.5152
G01 X187.5066 Y269.5194
G01 X187.6190 Y269.5152
G01 X187.7307 Y269.5026
G01 X187.8412 Y269.4817
G01 X187.9498 Y269.4526
G01 X188.0559 Y269.4154
G01 X188.1590 Y269.3705
G01 X188.2584 Y269.3179
G01 X188.3536 Y269.2581
G01 X188.4440 Y269.1914
G01 X188.5292 Y269.1180
G01 X188.6087 Y269.0385
G01 X188.6821 Y268.9533
G01 X188.7488 Y268.8628
G01 X188.8087 Y268.7676
G01 X188.8612 Y268.6682
G01 X188.9062 Y268.5652
G01 X188.9433 Y268.4591
G01 X188.9724 Y268.3505
G01 X188.9933 Y268.2400
G01 X189.0059 Y268.1283
G01 X189.0101 Y268.0159
G01 X189.0062 Y267.9177
G01 X188.9947 Y267.8201
G01 X188.9755 Y267.7237
G01 X188.9488 Y267.6291
G01 X188.9148 Y267.5369
G01 X188.8737 Y267.4476
G01 X188.8256 Y267.3619
G01 X188.7710 Y267.2802
G01 X188.7102 Y267.2030
G01 X188.6435 Y267.1308
G01 X188.5713 Y267.0641
G01 X188.4941 Y267.0032
G01 X188.4124 Y266.9486
G01 X188.3266 Y266.9006
G01 X188.2374 Y266.8595
G01 X188.1452 Y266.8254
G01 X188.0506 Y266.7988
G01 X187.9542 Y266.7796
G01 X187.8566 Y266.7680
G01 X187.7584 Y266.7642
G01 X187.6602 Y266.7680
G01 X187.5625 Y266.7796
G01 X187.4662 Y266.7988
G01 X187.3716 Y266.8254
G01 X187.2793 Y266.8595
G01 X187.1901 Y266.9006
G01 X187.1043 Y266.9486
G01 X187.0226 Y267.0032
G01 X186.9454 Y267.0641
G01 X186.8733 Y267.1308
G01 X186.8065 Y267.2030
G01 X186.7457 Y267.2802
G01 X186.6911 Y267.3619
G01 X186.6431 Y267.4476
G01 X186.6019 Y267.5369
G01 X186.5679 Y267.6291
G01 X186.5412 Y267.7237
G01 X186.5220 Y267.8201
G01 X186.5105 Y267.9177
G01 X186.5066 Y268.0159
G01 X186.5104 Y268.1031
G01 X186.5218 Y268.1896
G01 X186.5407 Y268.2747
G01 X186.5669 Y268.3579
G01 X186.6003 Y268.4385
G01 X186.6406 Y268.5159
G01 X186.6875 Y268.5895
G01 X186.7406 Y268.6587
G01 X186.7995 Y268.7230
G01 X186.8638 Y268.7820
G01 X186.9331 Y268.8351
G01 X187.0066 Y268.8819
G01 X187.0840 Y268.9222
G01 X187.1646 Y268.9556
G01 X187.2478 Y268.9818
G01 X187.3330 Y269.0007
G01 X187.4195 Y269.0121
G01 X187.5066 Y269.0159
G01 X187.5938 Y269.0121
G01 X187.6803 Y269.0007
G01 X187.7655 Y268.9818
G01 X187.8487 Y268.9556
G01 X187.9293 Y268.9222
G01 X188.0066 Y268.8819
G01 X188.0802 Y268.8351
G01 X188.1494 Y268.7820
G01 X188.2137 Y268.7230
G01 X188.2727 Y268.6587
G01 X188.3258 Y268.5895
G01 X188.3727 Y268.5159
G01 X188.4129 Y268.4385
G01 X188.4463 Y268.3579
G01 X188.4726 Y268.2747
G01 X188.4914 Y268.1896
G01 X188.5028 Y268.1031
G01 X188.5066 Y268.0159
M107
M106 S240
G01 X188.5028 Y267.9288 Z-3.7795 F400
G01 X188.4914 Y267.8423 Z-3.8090
G01 X188.4726 Y267.7571 Z-3.8385
G01 X188.4463 Y267.6739 Z-3.8681
G01 X188.4129 Y267.5933 Z-3.8976
G01 X188.3727 Y267.5159 Z-3.9271
G01 X188.3258 Y267.4423 Z-3.9566
G01 X188.2727 Y267.3731 Z-3.9861
G01 X188.2137 Y267.3088 Z-4.0156
G01 X188.1494 Y267.2499 Z-4.0451
G01 X188.0802 Y267.1968 Z-4.0747
G01 X188.0066 Y267.1499 Z-4.1042
G01 X187.9293 Y267.1096 Z-4.1337
G01 X187.8487 Y267.0762 Z-4.1632
G01 X187.7655 Y267.0500 Z-4.1927
G01 X187.6803 Y267.0311 Z-4.2222
G01 X187.5938 Y267.0197 Z-4.2517
G01 X187.5066 Y267.0159 Z-4.2813
G01 X187.4195 Y267.0197 Z-4.3108
G01 X187.3330 Y267.0311 Z-4.3403
G01 X187.2478 Y267.0500 Z-4.3698
G01 X187.1646 Y267.0762 Z-4.3993
G01 X187.0840 Y267.1096 Z-4.4288
G01 X187.0066 Y267.1499 Z-4.4583
G01 X186.9660 Y267.1747 Z-4.4744
G01 X186.9266 Y267.2013 Z-4.4905
G01 X186.8885 Y267.2299 Z-4.5066
G01 X186.8518 Y267.2602 Z-4.5227
G01 X186.8166 Y267.2922 Z-4.5388
G01 X186.7829 Y267.3258 Z-4.5549
G01 X186.7509 Y267.3610 Z-4.5710
G01 X186.7206 Y267.3977 Z-4.5871
G01 X186.6921 Y267.4358 Z-4.6032
G01 X186.6654 Y267.4753 Z-4.6193
G01 X186.6406 Y267.5159 Z-4.6354
G01 X186.6178 Y267.5577 Z-4.6515
G01 X186.5970 Y267.6005 Z-4.6676
G01 X186.5783 Y267.6442 Z-4.6837
G01 X186.5616 Y267.6888 Z-4.6998
G01 X186.5471 Y267.7342 Z-4.7159
G01 X186.5348 Y267.7801 Z-4.7320
G01 X186.5247 Y267.8267 Z-4.7481
G01 X186.5168 Y267.8736 Z-4.7642
G01 X186.5112 Y267.9209 Z-4.7803
G01 X186.5078 Y267.9683 Z-4.7964
G01 X186.5066 Y268.0159 Z-4.8125
G01 X186.5078 Y268.0635 Z-4.8286
G01 X186.5112 Y268.1110 Z-4.8447
G01 X186.5168 Y268.1582 Z-4.8608
G01 X186.5247 Y268.2052 Z-4.8769
G01 X186.5348 Y268.2517 Z-4.8930
G01 X186.5471 Y268.2976 Z-4.9091
G01 X186.5616 Y268.3430 Z-4.9252
G01 X186.5783 Y268.3876 Z-4.9413
G01 X186.5970 Y268.4313 Z-4.9574
G01 X186.6178 Y268.4741 Z-4.9735
G01 X186.6406 Y268.5159 Z-4.9896
G01 X186.6654 Y268.5565 Z-5.0057
G01 X186.6921 Y268.5960 Z-5.0218
G01 X186.7206 Y268.6341 Z-5.0379
G01 X186.7509 Y268.6708 Z-5.0540
G01 X186.7829 Y268.7060 Z-5.0701
G01 X186.8166 Y268.7396 Z-5.0862
G01 X186.8518 Y268.7717 Z-5.1023
G01 X186.8885 Y268.8020 Z-5.1184
G01 X186.9266 Y268.8305 Z-5.1345
G01 X186.9660 Y268.8572 Z-5.1506
G01 X187.0066 Y268.8819 Z-5.1667
G01 X187.0484 Y268.9047 Z-5.1828
G01 X187.0912 Y268.9255 Z-5.1989
G01 X187.1350 Y268.9443 Z-5.2150
G01 X187.1796 Y268.9609 Z-5.2311
G01 X187.2249 Y268.9754 Z-5.2472
G01 X187.2709 Y268.9877 Z-5.2633
G01 X187.3174 Y268.9978 Z-5.2794
G01 X187.3643 Y269.0057 Z-5.2955
G01 X187.4116 Y269.0114 Z-5.3116
G01 X187.4590 Y269.0148 Z-5.3277
G01 X187.5066 Y269.0159 Z-5.3438
G01 X187.5542 Y269.0148 Z-5.3598
G01 X187.6017 Y269.0114 Z-5.3759
G01 X187.6489 Y269.0057 Z-5.3920
G01 X187.6959 Y268.9978 Z-5.4081
G01 X187.7424 Y268.9877 Z-5.4242
G01 X187.7884 Y268.9754 Z-5.4403
G01 X187.8337 Y268.9609 Z-5.4564
G01 X187.8783 Y268.9443 Z-5.4725
G01 X187.9220 Y268.9255 Z-5.4886
G01 X187.9649 Y268.9047 Z-5.5047
G01 X188.0066 Y268.8819 Z-5.5208
G01 X188.0473 Y268.8572 Z-5.5369
G01 X188.0867 Y268.8305 Z-5.5530
G01 X188.1248 Y268.8020 Z-5.5691
G01 X188.1615 Y268.7717 Z-5.5852
G01 X188.1967 Y268.7396 Z-5.6013
G01 X188.2304 Y268.7060 Z-5.6174
G01 X188.2624 Y268.6708 Z-5.6335
G01 X188.2927 Y268.6341 Z-5.6496
G01 X188.3212 Y268.5960 Z-5.6657
G01 X188.3479 Y268.5565 Z-5.6818
G01 X188.3727 Y268.5159 Z-5.6979
G01 X188.3955 Y268.4741 Z-5.7140
G01 X188.4163 Y268.4313 Z-5.7301
G01 X188.4350 Y268.3876 Z-5.7462
G01 X188.4516 Y268.3430 Z-5.7623
G01 X188.4661 Y268.2976 Z-5.7784
G01 X188.4784 Y268.2517 Z-5.7945
G01 X188.4886 Y268.2052 Z-5.8106
G01 X188.4965 Y268.1582 Z-5.8267
G01 X188.5021 Y268.1110 Z-5.8428
G01 X188.5055 Y268.0635 Z-5.8589
G01 X188.5066 Y268.0159 Z-5.8750
G01 X188.5028 Y267.9288
G01 X188.4914 Y267.8423
G01 X188.4726 Y267.7571
G01 X188.4463 Y267.6739
G01 X188.4129 Y267.5933
G01 X188.3727 Y267.5159
G01 X188.3258 Y267.4423
G01 X188.2727 Y267.3731
G01 X188.2137 Y267.3088
G01 X188.1494 Y267.2499
G01 X188.0802 Y267.1968
G01 X188.0066 Y267.1499
G01 X187.9293 Y267.1096
G01 X187.8487 Y267.0762
G01 X187.7655 Y267.0500
G01 X187.6803 Y267.0311
G01 X187.5938 Y267.0197
G01 X187.5066 Y267.0159
G01 X187.4195 Y267.0197
G01 X187.3330 Y267.0311
G01 X187.2478 Y267.0500
G01 X187.1646 Y267.0762
G01 X187.0840 Y267.1096
G01 X187.0066 Y267.1499
G01 X186.9660 Y267.1747
G01 X186.9266 Y267.2013
G01 X186.8885 Y267.2299
G01 X186.8518 Y267.2602
G01 X186.8166 Y267.2922
G01 X186.7829 Y267.3258
G01 X186.7509 Y267.3610
G01 X186.7206 Y267.3977
G01 X186.6921 Y267.4358
G01 X186.6654 Y267.4753
G01 X186.6406 Y267.5159
G01 X186.6178 Y267.5577
G01 X186.5970 Y267.6005
G01 X186.5783 Y267.6442
G01 X186.5616 Y267.6888
G01 X186.5471 Y267.7342
G01 X186.5348 Y267.7801
G01 X186.5247 Y267.8267
G01 X186.5168 Y267.8736
G01 X186.5112 Y267.9209
G01 X186.5078 Y267.9683
G01 X186.5066 Y268.0159
G01 X186.5078 Y268.0635
G01 X186.5112 Y268.1110
G01 X186.5168 Y268.1582
G01 X186.5247 Y268.2052
G01 X186.5348 Y268.2517
G01 X186.5471 Y268.2976
G01 X186.5616 Y268.3430
G01 X186.5783 Y268.3876
G01 X186.5970 Y268.4313
G01 X186.6178 Y268.4741
G01 X186.6406 Y268.5159
G01 X186.6654 Y268.5565
G01 X186.6921 Y268.5960
G01 X186.7206 Y268.6341
G01 X186.7509 Y268.6708
G01 X186.7829 Y268.7060
G01 X186.8166 Y268.7396
G01 X186.8518 Y268.7717
G01 X186.8885 Y268.8020
G01 X186.9266 Y268.8305
G01 X186.9660 Y268.8572
G01 X187.0066 Y268.8819
G01 X187.0484 Y268.9047
G01 X187.0912 Y268.9255
G01 X187.1350 Y268.9443
G01 X187.1796 Y268.9609
G01 X187.2249 Y268.9754
G01 X187.2709 Y268.9877
G01 X187.3174 Y268.9978
G01 X187.3643 Y269.0057
G01 X187.4116 Y269.0114
G01 X187.4590 Y269.0148
G01 X187.5066 Y269.0159
G01 X187.5542 Y269.0148
G01 X187.6017 Y269.0114
G01 X187.6489 Y269.0057
G01 X187.6959 Y268.9978
G01 X187.7424 Y268.9877
G01 X187.7884 Y268.9754
G01 X187.8337 Y268.9609
G01 X187.8783 Y268.9443
G01 X187.9220 Y268.9255
G01 X187.9649 Y268.9047
G01 X188.0066 Y268.8819
G01 X188.0473 Y268.8572
G01 X188.0867 Y268.8305
G01 X188.1248 Y268.8020
G01 X188.1615 Y268.7717
G01 X188.1967 Y268.7396
G01 X188.2304 Y268.7060
G01 X188.2624 Y268.6708
G01 X188.2927 Y268.6341
G01 X188.3212 Y268.5960
G01 X188.3479 Y268.5565
G01 X188.3727 Y268.5159
G01 X188.3955 Y268.4741
G01 X188.4163 Y268.4313
G01 X188.4350 Y268.3876
G01 X188.4516 Y268.3430
G01 X188.4661 Y268.2976
G01 X188.4784 Y268.2517
G01 X188.4886 Y268.2052
G01 X188.4965 Y268.1582
G01 X188.5021 Y268.1110
G01 X188.5055 Y268.0635
G01 X188.5066 Y268.0159
G01 X188.5174 Y267.9643 F1000
G01 X188.5255 Y267.9122
G01 X188.5308 Y267.8598
G01 X188.5335 Y267.8072
G01 Y267.7545
G01 X188.5307 Y267.7018
G01 X188.5253 Y267.6494
G01 X188.5171 Y267.5973
G01 X188.5054 Y267.5414
G01 X188.4908 Y267.4860
G01 X188.4735 Y267.4316
G01 X188.4533 Y267.3780
G01 X188.4305 Y267.3256
G01 X188.4050 Y267.2744
G01 X188.3769 Y267.2245
G01 X188.3463 Y267.1762
G01 X188.3107 Y267.1258
G01 X188.2726 Y267.0773
G01 X188.2320 Y267.0308
G01 X188.1892 Y266.9864
G01 X188.1441 Y266.9442
G01 X188.0970 Y266.9044
G01 X188.0479 Y266.8670
G01 X187.9969 Y266.8322
G01 X187.9404 Y266.7976
G01 X187.8823 Y266.7659
G01 X187.8226 Y266.7373
G01 X187.7615 Y266.7116
G01 X187.6992 Y266.6891
G01 X187.6359 Y266.6698
G01 X187.5716 Y266.6537
G01 X187.5066 Y266.6409
G01 X187.4366 Y266.6307
G01 X187.3661 Y266.6241
G01 X187.2954 Y266.6210
G01 X187.2247 Y266.6215
