;Project TeslaElectricVehiclesHoch
;Created by Estlcam version 11 build 11,233
;Machining time about 00:20:04 hours

G90
M03 S18000
G00 X0.0000 Y0.0000 Z0.0000
G00 Z2.0000


;No. 1: Helical drill 4
G00 X38.1251 Y39.0303
G00 Z0.5000
M106 S240
G01 X38.1213 Y38.9432 Z0.4722 F400 S18000
G01 X38.1099 Y38.8567 Z0.4444
G01 X38.0910 Y38.7715 Z0.4167
G01 X38.0648 Y38.6883 Z0.3889
G01 X38.0314 Y38.6077 Z0.3611
G01 X37.9911 Y38.5303 Z0.3333
G01 X37.9442 Y38.4568 Z0.3056
G01 X37.8911 Y38.3875 Z0.2778
G01 X37.8322 Y38.3232 Z0.2500
G01 X37.7678 Y38.2643 Z0.2222
G01 X37.6986 Y38.2112 Z0.1944
G01 X37.6251 Y38.1643 Z0.1667
G01 X37.5477 Y38.1240 Z0.1389
G01 X37.4671 Y38.0906 Z0.1111
G01 X37.3839 Y38.0644 Z0.0833
G01 X37.2987 Y38.0455 Z0.0556
G01 X37.2122 Y38.0341 Z0.0278
G01 X37.1251 Y38.0303 Z0.0000
G01 X37.0379 Y38.0341 Z-0.0278
G01 X36.9514 Y38.0455 Z-0.0556
G01 X36.8662 Y38.0644 Z-0.0833
G01 X36.7830 Y38.0906 Z-0.1111
G01 X36.7024 Y38.1240 Z-0.1389
G01 X36.6251 Y38.1643 Z-0.1667
G01 X36.5515 Y38.2112 Z-0.1944
G01 X36.4823 Y38.2643 Z-0.2222
G01 X36.4180 Y38.3232 Z-0.2500
G01 X36.3590 Y38.3875 Z-0.2778
G01 X36.3059 Y38.4568 Z-0.3056
G01 X36.2590 Y38.5303 Z-0.3333
G01 X36.2188 Y38.6077 Z-0.3611
G01 X36.1854 Y38.6883 Z-0.3889
G01 X36.1591 Y38.7715 Z-0.4167
G01 X36.1403 Y38.8567 Z-0.4444
G01 X36.1289 Y38.9432 Z-0.4722
G01 X36.1251 Y39.0303 Z-0.5000
G01 X36.1289 Y39.1175 Z-0.5278
G01 X36.1403 Y39.2040 Z-0.5556
G01 X36.1591 Y39.2892 Z-0.5833
G01 X36.1854 Y39.3724 Z-0.6111
G01 X36.2188 Y39.4530 Z-0.6389
G01 X36.2590 Y39.5303 Z-0.6667
G01 X36.3059 Y39.6039 Z-0.6944
G01 X36.3590 Y39.6731 Z-0.7222
G01 X36.4180 Y39.7374 Z-0.7500
G01 X36.4823 Y39.7964 Z-0.7778
G01 X36.5515 Y39.8495 Z-0.8056
G01 X36.6251 Y39.8964 Z-0.8333
G01 X36.7024 Y39.9366 Z-0.8611
G01 X36.7830 Y39.9700 Z-0.8889
G01 X36.8662 Y39.9963 Z-0.9167
G01 X36.9514 Y40.0151 Z-0.9444
G01 X37.0379 Y40.0265 Z-0.9722
G01 X37.1251 Y40.0303 Z-1.0000
G01 X37.2122 Y40.0265 Z-1.0278
G01 X37.2987 Y40.0151 Z-1.0556
G01 X37.3839 Y39.9963 Z-1.0833
G01 X37.4671 Y39.9700 Z-1.1111
G01 X37.5477 Y39.9366 Z-1.1389
G01 X37.6251 Y39.8964 Z-1.1667
G01 X37.6986 Y39.8495 Z-1.1944
G01 X37.7678 Y39.7964 Z-1.2222
G01 X37.8322 Y39.7374 Z-1.2500
G01 X37.8911 Y39.6731 Z-1.2778
G01 X37.9442 Y39.6039 Z-1.3056
G01 X37.9911 Y39.5303 Z-1.3333
G01 X38.0314 Y39.4530 Z-1.3611
G01 X38.0648 Y39.3724 Z-1.3889
G01 X38.0910 Y39.2892 Z-1.4167
G01 X38.1099 Y39.2040 Z-1.4444
G01 X38.1213 Y39.1175 Z-1.4722
G01 X38.1251 Y39.0303 Z-1.5000
G01 X38.1213 Y38.9432
G01 X38.1099 Y38.8567
G01 X38.0910 Y38.7715
G01 X38.0648 Y38.6883
G01 X38.0314 Y38.6077
G01 X37.9911 Y38.5303
G01 X37.9442 Y38.4568
G01 X37.8911 Y38.3875
G01 X37.8322 Y38.3232
G01 X37.7678 Y38.2643
G01 X37.6986 Y38.2112
G01 X37.6251 Y38.1643
G01 X37.5477 Y38.1240
G01 X37.4671 Y38.0906
G01 X37.3839 Y38.0644
G01 X37.2987 Y38.0455
G01 X37.2122 Y38.0341
G01 X37.1251 Y38.0303
G01 X37.0379 Y38.0341
G01 X36.9514 Y38.0455
G01 X36.8662 Y38.0644
G01 X36.7830 Y38.0906
G01 X36.7024 Y38.1240
G01 X36.6251 Y38.1643
G01 X36.5515 Y38.2112
G01 X36.4823 Y38.2643
G01 X36.4180 Y38.3232
G01 X36.3590 Y38.3875
G01 X36.3059 Y38.4568
G01 X36.2590 Y38.5303
G01 X36.2188 Y38.6077
G01 X36.1854 Y38.6883
G01 X36.1591 Y38.7715
G01 X36.1403 Y38.8567
G01 X36.1289 Y38.9432
G01 X36.1251 Y39.0303
G01 X36.1289 Y39.1175
G01 X36.1403 Y39.2040
G01 X36.1591 Y39.2892
G01 X36.1854 Y39.3724
G01 X36.2188 Y39.4530
G01 X36.2590 Y39.5303
G01 X36.3059 Y39.6039
G01 X36.3590 Y39.6731
G01 X36.4180 Y39.7374
G01 X36.4823 Y39.7964
G01 X36.5515 Y39.8495
G01 X36.6251 Y39.8964
G01 X36.7024 Y39.9366
G01 X36.7830 Y39.9700
G01 X36.8662 Y39.9963
G01 X36.9514 Y40.0151
G01 X37.0379 Y40.0265
G01 X37.1251 Y40.0303
G01 X37.2122 Y40.0265
G01 X37.2987 Y40.0151
G01 X37.3839 Y39.9963
G01 X37.4671 Y39.9700
G01 X37.5477 Y39.9366
G01 X37.6251 Y39.8964
G01 X37.6986 Y39.8495
G01 X37.7678 Y39.7964
G01 X37.8322 Y39.7374
G01 X37.8911 Y39.6731
G01 X37.9442 Y39.6039
G01 X37.9911 Y39.5303
G01 X38.0314 Y39.4530
G01 X38.0648 Y39.3724
G01 X38.0910 Y39.2892
G01 X38.1099 Y39.2040
G01 X38.1213 Y39.1175
G01 X38.1251 Y39.0303
G01 X38.1358 Y38.9787 F1000
G01 X38.1439 Y38.9267
G01 X38.1493 Y38.8742
G01 X38.1519 Y38.8216
G01 Y38.7689
G01 X38.1492 Y38.7163
G01 X38.1437 Y38.6638
G01 X38.1356 Y38.6118
G01 X38.1238 Y38.5558
G01 X38.1093 Y38.5005
G01 X38.0919 Y38.4460
G01 X38.0718 Y38.3924
G01 X38.0489 Y38.3400
G01 X38.0234 Y38.2888
G01 X37.9953 Y38.2390
G01 X37.9647 Y38.1906
G01 X37.9291 Y38.1402
G01 X37.8910 Y38.0917
G01 X37.8505 Y38.0452
G01 X37.8076 Y38.0008
G01 X37.7626 Y37.9586
G01 X37.7154 Y37.9188
G01 X37.6663 Y37.8814
G01 X37.6154 Y37.8466
G01 X37.5582 Y37.8157
G01 X37.4995 Y37.7876
G01 X37.4395 Y37.7625
G01 X37.3784 Y37.7405
G01 X37.3162 Y37.7215
G01 X37.2531 Y37.7056
G01 X37.1894 Y37.6929
G01 X37.1251 Y37.6834
G01 X37.0590 Y37.6850
G01 X36.9930 Y37.6899
G01 X36.9274 Y37.6980
G01 X36.8623 Y37.7093
G01 X36.7978 Y37.7238
G01 X36.7341 Y37.7414
G01 X36.6713 Y37.7621
G01 X36.6096 Y37.7859
G01 X36.5492 Y37.8127
G01 X36.4901 Y37.8424
G01 X36.4326 Y37.8750
G01 X36.3767 Y37.9104
G01 X36.3227 Y37.9485
G01 X36.2706 Y37.9891
G01 X36.2205 Y38.0323
G01 X36.1726 Y38.0779
G01 X36.1270 Y38.1258
G01 X36.0839 Y38.1758
G01 X36.0432 Y38.2280
G01 X36.0051 Y38.2820
G01 X35.9697 Y38.3379
G01 X35.9372 Y38.3954
G01 X35.9074 Y38.4544
G01 X35.8806 Y38.5149
G01 X35.8568 Y38.5766
G01 X35.8361 Y38.6393
G01 X35.8185 Y38.7031
G01 X35.8040 Y38.7676
G01 X35.7927 Y38.8327
G01 X35.7846 Y38.8983
G01 X35.7797 Y38.9642
G01 X35.7781 Y39.0303
G01 X35.7797 Y39.0964
G01 X35.7846 Y39.1624
G01 X35.7927 Y39.2280
G01 X35.8040 Y39.2931
G01 X35.8185 Y39.3576
G01 X35.8361 Y39.4213
G01 X35.8568 Y39.4841
G01 X35.8806 Y39.5458
G01 X35.9074 Y39.6062
G01 X35.9372 Y39.6653
G01 X35.9697 Y39.7228
G01 X36.0051 Y39.7787
G01 X36.0432 Y39.8327
G01 X36.0839 Y39.8848
G01 X36.1270 Y39.9349
G01 X36.1726 Y39.9828
G01 X36.2205 Y40.0284
G01 X36.2706 Y40.0715
G01 X36.3227 Y40.1122
G01 X36.3767 Y40.1503
G01 X36.4326 Y40.1857
G01 X36.4901 Y40.2182
G01 X36.5492 Y40.2480
G01 X36.6096 Y40.2748
G01 X36.6713 Y40.2985
G01 X36.7341 Y40.3193
G01 X36.7978 Y40.3369
G01 X36.8623 Y40.3514
G01 X36.9274 Y40.3627
G01 X36.9930 Y40.3708
G01 X37.0590 Y40.3757
G01 X37.1251 Y40.3773
G01 X37.1912 Y40.3757
G01 X37.2571 Y40.3708
G01 X37.3227 Y40.3627
G01 X37.3878 Y40.3514
G01 X37.4523 Y40.3369
G01 X37.5161 Y40.3193
G01 X37.5788 Y40.2985
G01 X37.6405 Y40.2748
G01 X37.7010 Y40.2480
G01 X37.7600 Y40.2182
G01 X37.8175 Y40.1857
G01 X37.8734 Y40.1503
G01 X37.9274 Y40.1122
G01 X37.9796 Y40.0715
G01 X38.0296 Y40.0284
G01 X38.0775 Y39.9828
G01 X38.1231 Y39.9349
G01 X38.1663 Y39.8848
G01 X38.2069 Y39.8327
G01 X38.2450 Y39.7787
G01 X38.2804 Y39.7228
G01 X38.3130 Y39.6653
G01 X38.3427 Y39.6062
G01 X38.3695 Y39.5458
G01 X38.3933 Y39.4841
G01 X38.4140 Y39.4213
G01 X38.4316 Y39.3576
G01 X38.4461 Y39.2931
G01 X38.4574 Y39.2280
G01 X38.4655 Y39.1624
G01 X38.4704 Y39.0964
G01 X38.4720 Y39.0303
G01 X38.4682 Y38.9297
G01 X38.4570 Y38.8296
G01 X38.4382 Y38.7306
G01 X38.4122 Y38.6333
G01 X38.3789 Y38.5382
G01 X38.3386 Y38.4459
G01 X38.2915 Y38.3569
G01 X38.2380 Y38.2716
G01 X38.1781 Y38.1905
G01 X38.1124 Y38.1142
G01 X38.0412 Y38.0430
G01 X37.9649 Y37.9773
G01 X37.8838 Y37.9174
G01 X37.7985 Y37.8638
G01 X37.7095 Y37.8168
G01 X37.6172 Y37.7765
G01 X37.5221 Y37.7432
G01 X37.4248 Y37.7172
G01 X37.3258 Y37.6984
G01 X37.2257 Y37.6872
G01 X37.1251 Y37.6834
G01 X37.0244 Y37.6872
G01 X36.9243 Y37.6984
G01 X36.8253 Y37.7172
G01 X36.7280 Y37.7432
G01 X36.6330 Y37.7765
G01 X36.5406 Y37.8168
G01 X36.4516 Y37.8638
G01 X36.3663 Y37.9174
G01 X36.2853 Y37.9773
G01 X36.2089 Y38.0430
G01 X36.1377 Y38.1142
G01 X36.0720 Y38.1905
G01 X36.0122 Y38.2716
G01 X35.9586 Y38.3569
G01 X35.9115 Y38.4459
G01 X35.8712 Y38.5382
G01 X35.8380 Y38.6333
G01 X35.8119 Y38.7306
G01 X35.7932 Y38.8296
G01 X35.7819 Y38.9297
G01 X35.7781 Y39.0303
G01 X35.7819 Y39.1310
G01 X35.7932 Y39.2311
G01 X35.8119 Y39.3301
G01 X35.8380 Y39.4274
G01 X35.8712 Y39.5224
G01 X35.9115 Y39.6148
G01 X35.9586 Y39.7038
G01 X36.0122 Y39.7891
G01 X36.0720 Y39.8701
G01 X36.1377 Y39.9465
G01 X36.2089 Y40.0177
G01 X36.2853 Y40.0834
G01 X36.3663 Y40.1432
G01 X36.4516 Y40.1968
G01 X36.5406 Y40.2439
G01 X36.6330 Y40.2842
G01 X36.7280 Y40.3174
G01 X36.8253 Y40.3435
G01 X36.9243 Y40.3622
G01 X37.0244 Y40.3735
G01 X37.1251 Y40.3773
G01 X37.2257 Y40.3735
G01 X37.3258 Y40.3622
G01 X37.4248 Y40.3435
G01 X37.5221 Y40.3174
G01 X37.6172 Y40.2842
G01 X37.7095 Y40.2439
G01 X37.7985 Y40.1968
G01 X37.8838 Y40.1432
G01 X37.9649 Y40.0834
G01 X38.0412 Y40.0177
G01 X38.1124 Y39.9465
G01 X38.1781 Y39.8701
G01 X38.2380 Y39.7891
G01 X38.2915 Y39.7038
G01 X38.3386 Y39.6148
G01 X38.3789 Y39.5224
G01 X38.4122 Y39.4274
G01 X38.4382 Y39.3301
G01 X38.4570 Y39.2311
G01 X38.4682 Y39.1310
G01 X38.4720 Y39.0303
G01 X38.4675 Y38.9281
G01 X38.4542 Y38.8266
G01 X38.4320 Y38.7266
G01 X38.4012 Y38.6290
G01 X38.3621 Y38.5344
G01 X38.3148 Y38.4436
G01 X38.2598 Y38.3573
G01 X38.1975 Y38.2760
G01 X38.1283 Y38.2006
G01 X38.0528 Y38.1314
G01 X37.9716 Y38.0691
G01 X37.8853 Y38.0141
G01 X37.7945 Y37.9668
G01 X37.6999 Y37.9276
G01 X37.6022 Y37.8968
G01 X37.5023 Y37.8747
G01 X37.4008 Y37.8613
G01 X37.2985 Y37.8569
G01 X37.1963 Y37.8613
G01 X37.0948 Y37.8747
G01 X36.9948 Y37.8968
G01 X36.8972 Y37.9276
G01 X36.8026 Y37.9668
G01 X36.7118 Y38.0141
G01 X36.6255 Y38.0691
G01 X36.5442 Y38.1314
G01 X36.4688 Y38.2006
G01 X36.3996 Y38.2760
G01 X36.3373 Y38.3573
G01 X36.2823 Y38.4436
G01 X36.2350 Y38.5344
G01 X36.1958 Y38.6290
G01 X36.1650 Y38.7266
G01 X36.1429 Y38.8266
G01 X36.1295 Y38.9281
G01 X36.1251 Y39.0303
G01 X36.1289 Y39.1175
G01 X36.1403 Y39.2040
G01 X36.1591 Y39.2892
G01 X36.1854 Y39.3724
G01 X36.2188 Y39.4530
G01 X36.2590 Y39.5303
G01 X36.3059 Y39.6039
G01 X36.3590 Y39.6731
G01 X36.4180 Y39.7374
G01 X36.4823 Y39.7964
G01 X36.5515 Y39.8495
G01 X36.6251 Y39.8964
G01 X36.7024 Y39.9366
G01 X36.7830 Y39.9700
G01 X36.8662 Y39.9963
G01 X36.9514 Y40.0151
G01 X37.0379 Y40.0265
G01 X37.1251 Y40.0303
G01 X37.2122 Y40.0265
G01 X37.2987 Y40.0151
G01 X37.3839 Y39.9963
G01 X37.4671 Y39.9700
G01 X37.5477 Y39.9366
G01 X37.6251 Y39.8964
G01 X37.6986 Y39.8495
G01 X37.7678 Y39.7964
G01 X37.8322 Y39.7374
G01 X37.8911 Y39.6731
G01 X37.9442 Y39.6039
G01 X37.9911 Y39.5303
G01 X38.0314 Y39.4530
G01 X38.0648 Y39.3724
G01 X38.0910 Y39.2892
G01 X38.1099 Y39.2040
G01 X38.1213 Y39.1175
G01 X38.1251 Y39.0303
M107
M106 S240
G01 X38.1213 Y38.9432 Z-1.5278 F400
G01 X38.1099 Y38.8567 Z-1.5556
G01 X38.0910 Y38.7715 Z-1.5833
G01 X38.0648 Y38.6883 Z-1.6111
G01 X38.0314 Y38.6077 Z-1.6389
G01 X37.9911 Y38.5303 Z-1.6667
G01 X37.9442 Y38.4568 Z-1.6944
G01 X37.8911 Y38.3875 Z-1.7222
G01 X37.8322 Y38.3232 Z-1.7500
G01 X37.7678 Y38.2643 Z-1.7778
G01 X37.6986 Y38.2112 Z-1.8056
G01 X37.6251 Y38.1643 Z-1.8333
G01 X37.5477 Y38.1240 Z-1.8611
G01 X37.4671 Y38.0906 Z-1.8889
G01 X37.3839 Y38.0644 Z-1.9167
G01 X37.2987 Y38.0455 Z-1.9444
G01 X37.2122 Y38.0341 Z-1.9722
G01 X37.1251 Y38.0303 Z-2.0000
G01 X37.0379 Y38.0341 Z-2.0278
G01 X36.9514 Y38.0455 Z-2.0556
G01 X36.8662 Y38.0644 Z-2.0833
G01 X36.7830 Y38.0906 Z-2.1111
G01 X36.7024 Y38.1240 Z-2.1389
G01 X36.6251 Y38.1643 Z-2.1667
G01 X36.5515 Y38.2112 Z-2.1944
G01 X36.4823 Y38.2643 Z-2.2222
G01 X36.4180 Y38.3232 Z-2.2500
G01 X36.3590 Y38.3875 Z-2.2778
G01 X36.3059 Y38.4568 Z-2.3056
G01 X36.2590 Y38.5303 Z-2.3333
G01 X36.2188 Y38.6077 Z-2.3611
G01 X36.1854 Y38.6883 Z-2.3889
G01 X36.1591 Y38.7715 Z-2.4167
G01 X36.1403 Y38.8567 Z-2.4444
G01 X36.1289 Y38.9432 Z-2.4722
G01 X36.1251 Y39.0303 Z-2.5000
G01 X36.1289 Y39.1175 Z-2.5278
G01 X36.1403 Y39.2040 Z-2.5556
G01 X36.1591 Y39.2892 Z-2.5833
G01 X36.1854 Y39.3724 Z-2.6111
G01 X36.2188 Y39.4530 Z-2.6389
G01 X36.2590 Y39.5303 Z-2.6667
G01 X36.3059 Y39.6039 Z-2.6944
G01 X36.3590 Y39.6731 Z-2.7222
G01 X36.4180 Y39.7374 Z-2.7500
G01 X36.4823 Y39.7964 Z-2.7778
G01 X36.5515 Y39.8495 Z-2.8056
G01 X36.6251 Y39.8964 Z-2.8333
G01 X36.7024 Y39.9366 Z-2.8611
G01 X36.7830 Y39.9700 Z-2.8889
G01 X36.8662 Y39.9963 Z-2.9167
G01 X36.9514 Y40.0151 Z-2.9444
G01 X37.0379 Y40.0265 Z-2.9722
G01 X37.1251 Y40.0303 Z-3.0000
G01 X37.2122 Y40.0265 Z-3.0278
G01 X37.2987 Y40.0151 Z-3.0556
G01 X37.3839 Y39.9963 Z-3.0833
G01 X37.4671 Y39.9700 Z-3.1111
G01 X37.5477 Y39.9366 Z-3.1389
G01 X37.6251 Y39.8964 Z-3.1667
G01 X37.6986 Y39.8495 Z-3.1944
G01 X37.7678 Y39.7964 Z-3.2222
G01 X37.8322 Y39.7374 Z-3.2500
G01 X37.8911 Y39.6731 Z-3.2778
G01 X37.9442 Y39.6039 Z-3.3056
G01 X37.9911 Y39.5303 Z-3.3333
G01 X38.0314 Y39.4530 Z-3.3611
G01 X38.0648 Y39.3724 Z-3.3889
G01 X38.0910 Y39.2892 Z-3.4167
G01 X38.1099 Y39.2040 Z-3.4444
G01 X38.1213 Y39.1175 Z-3.4722
G01 X38.1251 Y39.0303 Z-3.5000
G01 X38.1213 Y38.9432
G01 X38.1099 Y38.8567
G01 X38.0910 Y38.7715
G01 X38.0648 Y38.6883
G01 X38.0314 Y38.6077
G01 X37.9911 Y38.5303
G01 X37.9442 Y38.4568
G01 X37.8911 Y38.3875
G01 X37.8322 Y38.3232
G01 X37.7678 Y38.2643
G01 X37.6986 Y38.2112
G01 X37.6251 Y38.1643
G01 X37.5477 Y38.1240
G01 X37.4671 Y38.0906
G01 X37.3839 Y38.0644
G01 X37.2987 Y38.0455
G01 X37.2122 Y38.0341
G01 X37.1251 Y38.0303
G01 X37.0379 Y38.0341
G01 X36.9514 Y38.0455
G01 X36.8662 Y38.0644
G01 X36.7830 Y38.0906
G01 X36.7024 Y38.1240
G01 X36.6251 Y38.1643
G01 X36.5515 Y38.2112
G01 X36.4823 Y38.2643
G01 X36.4180 Y38.3232
G01 X36.3590 Y38.3875
G01 X36.3059 Y38.4568
G01 X36.2590 Y38.5303
G01 X36.2188 Y38.6077
G01 X36.1854 Y38.6883
G01 X36.1591 Y38.7715
G01 X36.1403 Y38.8567
G01 X36.1289 Y38.9432
G01 X36.1251 Y39.0303
G01 X36.1289 Y39.1175
G01 X36.1403 Y39.2040
G01 X36.1591 Y39.2892
G01 X36.1854 Y39.3724
G01 X36.2188 Y39.4530
G01 X36.2590 Y39.5303
G01 X36.3059 Y39.6039
G01 X36.3590 Y39.6731
G01 X36.4180 Y39.7374
G01 X36.4823 Y39.7964
G01 X36.5515 Y39.8495
G01 X36.6251 Y39.8964
G01 X36.7024 Y39.9366
G01 X36.7830 Y39.9700
G01 X36.8662 Y39.9963
G01 X36.9514 Y40.0151
G01 X37.0379 Y40.0265
G01 X37.1251 Y40.0303
G01 X37.2122 Y40.0265
G01 X37.2987 Y40.0151
G01 X37.3839 Y39.9963
G01 X37.4671 Y39.9700
G01 X37.5477 Y39.9366
G01 X37.6251 Y39.8964
G01 X37.6986 Y39.8495
G01 X37.7678 Y39.7964
G01 X37.8322 Y39.7374
G01 X37.8911 Y39.6731
G01 X37.9442 Y39.6039
G01 X37.9911 Y39.5303
G01 X38.0314 Y39.4530
G01 X38.0648 Y39.3724
G01 X38.0910 Y39.2892
G01 X38.1099 Y39.2040
G01 X38.1213 Y39.1175
G01 X38.1251 Y39.0303
G01 X38.1358 Y38.9787 F1000
G01 X38.1439 Y38.9267
G01 X38.1493 Y38.8742
G01 X38.1519 Y38.8216
G01 Y38.7689
G01 X38.1492 Y38.7163
G01 X38.1437 Y38.6638
G01 X38.1356 Y38.6118
G01 X38.1238 Y38.5558
G01 X38.1093 Y38.5005
G01 X38.0919 Y38.4460
G01 X38.0718 Y38.3924
G01 X38.0489 Y38.3400
G01 X38.0234 Y38.2888
G01 X37.9953 Y38.2390
G01 X37.9647 Y38.1906
G01 X37.9291 Y38.1402
G01 X37.8910 Y38.0917
G01 X37.8505 Y38.0452
G01 X37.8076 Y38.0008
G01 X37.7626 Y37.9586
G01 X37.7154 Y37.9188
G01 X37.6663 Y37.8814
G01 X37.6154 Y37.8466
G01 X37.5582 Y37.8157
G01 X37.4995 Y37.7876
G01 X37.4395 Y37.7625
G01 X37.3784 Y37.7405
G01 X37.3162 Y37.7215
G01 X37.2531 Y37.7056
G01 X37.1894 Y37.6929
G01 X37.1251 Y37.6834
G01 X37.0590 Y37.6850
G01 X36.9930 Y37.6899
G01 X36.9274 Y37.6980
G01 X36.8623 Y37.7093
G01 X36.7978 Y37.7238
G01 X36.7341 Y37.7414
G01 X36.6713 Y37.7621
G01 X36.6096 Y37.7859
G01 X36.5492 Y37.8127
G01 X36.4901 Y37.8424
G01 X36.4326 Y37.8750
G01 X36.3767 Y37.9104
G01 X36.3227 Y37.9485
G01 X36.2706 Y37.9891
G01 X36.2205 Y38.0323
G01 X36.1726 Y38.0779
G01 X36.1270 Y38.1258
G01 X36.0839 Y38.1758
G01 X36.0432 Y38.2280
G01 X36.0051 Y38.2820
G01 X35.9697 Y38.3379
G01 X35.9372 Y38.3954
G01 X35.9074 Y38.4544
G01 X35.8806 Y38.5149
G01 X35.8568 Y38.5766
G01 X35.8361 Y38.6393
G01 X35.8185 Y38.7031
G01 X35.8040 Y38.7676
G01 X35.7927 Y38.8327
G01 X35.7846 Y38.8983
G01 X35.7797 Y38.9642
G01 X35.7781 Y39.0303
G01 X35.7797 Y39.0964
G01 X35.7846 Y39.1624
G01 X35.7927 Y39.2280
G01 X35.8040 Y39.2931
G01 X35.8185 Y39.3576
G01 X35.8361 Y39.4213
G01 X35.8568 Y39.4841
G01 X35.8806 Y39.5458
G01 X35.9074 Y39.6062
G01 X35.9372 Y39.6653
G01 X35.9697 Y39.7228
G01 X36.0051 Y39.7787
G01 X36.0432 Y39.8327
G01 X36.0839 Y39.8848
G01 X36.1270 Y39.9349
G01 X36.1726 Y39.9828
G01 X36.2205 Y40.0284
G01 X36.2706 Y40.0715
G01 X36.3227 Y40.1122
G01 X36.3767 Y40.1503
G01 X36.4326 Y40.1857
G01 X36.4901 Y40.2182
G01 X36.5492 Y40.2480
G01 X36.6096 Y40.2748
G01 X36.6713 Y40.2985
G01 X36.7341 Y40.3193
G01 X36.7978 Y40.3369
G01 X36.8623 Y40.3514
G01 X36.9274 Y40.3627
G01 X36.9930 Y40.3708
G01 X37.0590 Y40.3757
G01 X37.1251 Y40.3773
G01 X37.1912 Y40.3757
G01 X37.2571 Y40.3708
G01 X37.3227 Y40.3627
G01 X37.3878 Y40.3514
G01 X37.4523 Y40.3369
G01 X37.5161 Y40.3193
G01 X37.5788 Y40.2985
G01 X37.6405 Y40.2748
G01 X37.7010 Y40.2480
G01 X37.7600 Y40.2182
G01 X37.8175 Y40.1857
G01 X37.8734 Y40.1503
G01 X37.9274 Y40.1122
G01 X37.9796 Y40.0715
G01 X38.0296 Y40.0284
G01 X38.0775 Y39.9828
G01 X38.1231 Y39.9349
G01 X38.1663 Y39.8848
G01 X38.2069 Y39.8327
G01 X38.2450 Y39.7787
G01 X38.2804 Y39.7228
G01 X38.3130 Y39.6653
G01 X38.3427 Y39.6062
G01 X38.3695 Y39.5458
G01 X38.3933 Y39.4841
G01 X38.4140 Y39.4213
G01 X38.4316 Y39.3576
G01 X38.4461 Y39.2931
G01 X38.4574 Y39.2280
G01 X38.4655 Y39.1624
G01 X38.4704 Y39.0964
G01 X38.4720 Y39.0303
G01 X38.4682 Y38.9297
G01 X38.4570 Y38.8296
G01 X38.4382 Y38.7306
G01 X38.4122 Y38.6333
G01 X38.3789 Y38.5382
G01 X38.3386 Y38.4459
G01 X38.2915 Y38.3569
G01 X38.2380 Y38.2716
G01 X38.1781 Y38.1905
G01 X38.1124 Y38.1142
G01 X38.0412 Y38.0430
G01 X37.9649 Y37.9773
G01 X37.8838 Y37.9174
G01 X37.7985 Y37.8638
G01 X37.7095 Y37.8168
G01 X37.6172 Y37.7765
G01 X37.5221 Y37.7432
G01 X37.4248 Y37.7172
G01 X37.3258 Y37.6984
G01 X37.2257 Y37.6872
G01 X37.1251 Y37.6834
G01 X37.0244 Y37.6872
G01 X36.9243 Y37.6984
G01 X36.8253 Y37.7172
G01 X36.7280 Y37.7432
G01 X36.6330 Y37.7765
G01 X36.5406 Y37.8168
G01 X36.4516 Y37.8638
G01 X36.3663 Y37.9174
G01 X36.2853 Y37.9773
G01 X36.2089 Y38.0430
G01 X36.1377 Y38.1142
G01 X36.0720 Y38.1905
G01 X36.0122 Y38.2716
G01 X35.9586 Y38.3569
G01 X35.9115 Y38.4459
G01 X35.8712 Y38.5382
G01 X35.8380 Y38.6333
G01 X35.8119 Y38.7306
G01 X35.7932 Y38.8296
G01 X35.7819 Y38.9297
G01 X35.7781 Y39.0303
G01 X35.7819 Y39.1310
G01 X35.7932 Y39.2311
G01 X35.8119 Y39.3301
G01 X35.8380 Y39.4274
G01 X35.8712 Y39.5224
G01 X35.9115 Y39.6148
G01 X35.9586 Y39.7038
G01 X36.0122 Y39.7891
G01 X36.0720 Y39.8701
G01 X36.1377 Y39.9465
G01 X36.2089 Y40.0177
G01 X36.2853 Y40.0834
G01 X36.3663 Y40.1432
G01 X36.4516 Y40.1968
G01 X36.5406 Y40.2439
G01 X36.6330 Y40.2842
G01 X36.7280 Y40.3174
G01 X36.8253 Y40.3435
G01 X36.9243 Y40.3622
G01 X37.0244 Y40.3735
G01 X37.1251 Y40.3773
G01 X37.2257 Y40.3735
G01 X37.3258 Y40.3622
G01 X37.4248 Y40.3435
G01 X37.5221 Y40.3174
G01 X37.6172 Y40.2842
G01 X37.7095 Y40.2439
G01 X37.7985 Y40.1968
G01 X37.8838 Y40.1432
G01 X37.9649 Y40.0834
G01 X38.0412 Y40.0177
G01 X38.1124 Y39.9465
G01 X38.1781 Y39.8701
G01 X38.2380 Y39.7891
G01 X38.2915 Y39.7038
G01 X38.3386 Y39.6148
G01 X38.3789 Y39.5224
G01 X38.4122 Y39.4274
G01 X38.4382 Y39.3301
G01 X38.4570 Y39.2311
G01 X38.4682 Y39.1310
G01 X38.4720 Y39.0303
G01 X38.4675 Y38.9281
G01 X38.4542 Y38.8266
G01 X38.4320 Y38.7266
G01 X38.4012 Y38.6290
G01 X38.3621 Y38.5344
G01 X38.3148 Y38.4436
G01 X38.2598 Y38.3573
G01 X38.1975 Y38.2760
G01 X38.1283 Y38.2006
G01 X38.0528 Y38.1314
G01 X37.9716 Y38.0691
G01 X37.8853 Y38.0141
G01 X37.7945 Y37.9668
G01 X37.6999 Y37.9276
G01 X37.6022 Y37.8968
G01 X37.5023 Y37.8747
G01 X37.4008 Y37.8613
G01 X37.2985 Y37.8569
G01 X37.1963 Y37.8613
G01 X37.0948 Y37.8747
G01 X36.9948 Y37.8968
G01 X36.8972 Y37.9276
G01 X36.8026 Y37.9668
G01 X36.7118 Y38.0141
G01 X36.6255 Y38.0691
G01 X36.5442 Y38.1314
G01 X36.4688 Y38.2006
G01 X36.3996 Y38.2760
G01 X36.3373 Y38.3573
G01 X36.2823 Y38.4436
G01 X36.2350 Y38.5344
G01 X36.1958 Y38.6290
G01 X36.1650 Y38.7266
G01 X36.1429 Y38.8266
G01 X36.1295 Y38.9281
G01 X36.1251 Y39.0303
G01 X36.1289 Y39.1175
G01 X36.1403 Y39.2040
G01 X36.1591 Y39.2892
G01 X36.1854 Y39.3724
G01 X36.2188 Y39.4530
G01 X36.2590 Y39.5303
G01 X36.3059 Y39.6039
G01 X36.3590 Y39.6731
G01 X36.4180 Y39.7374
G01 X36.4823 Y39.7964
G01 X36.5515 Y39.8495
G01 X36.6251 Y39.8964
G01 X36.7024 Y39.9366
G01 X36.7830 Y39.9700
G01 X36.8662 Y39.9963
G01 X36.9514 Y40.0151
G01 X37.0379 Y40.0265
G01 X37.1251 Y40.0303
G01 X37.2122 Y40.0265
G01 X37.2987 Y40.0151
G01 X37.3839 Y39.9963
G01 X37.4671 Y39.9700
G01 X37.5477 Y39.9366
G01 X37.6251 Y39.8964
G01 X37.6986 Y39.8495
G01 X37.7678 Y39.7964
G01 X37.8322 Y39.7374
G01 X37.8911 Y39.6731
G01 X37.9442 Y39.6039
G01 X37.9911 Y39.5303
G01 X38.0314 Y39.4530
G01 X38.0648 Y39.3724
G01 X38.0910 Y39.2892
G01 X38.1099 Y39.2040
G01 X38.1213 Y39.1175
G01 X38.1251 Y39.0303
M107
M106 S240
G01 X38.1213 Y38.9432 Z-3.5278 F400
G01 X38.1099 Y38.8567 Z-3.5556
G01 X38.0910 Y38.7715 Z-3.5833
G01 X38.0648 Y38.6883 Z-3.6111
G01 X38.0314 Y38.6077 Z-3.6389
G01 X37.9911 Y38.5303 Z-3.6667
G01 X37.9442 Y38.4568 Z-3.6944
G01 X37.8911 Y38.3875 Z-3.7222
G01 X37.8322 Y38.3232 Z-3.7500
G01 X37.7678 Y38.2643 Z-3.7778
G01 X37.6986 Y38.2112 Z-3.8056
G01 X37.6251 Y38.1643 Z-3.8333
G01 X37.5477 Y38.1240 Z-3.8611
G01 X37.4671 Y38.0906 Z-3.8889
G01 X37.3839 Y38.0644 Z-3.9167
G01 X37.2987 Y38.0455 Z-3.9444
G01 X37.2122 Y38.0341 Z-3.9722
G01 X37.1251 Y38.0303 Z-4.0000
G01 X37.0379 Y38.0341 Z-4.0278
G01 X36.9514 Y38.0455 Z-4.0556
G01 X36.8662 Y38.0644 Z-4.0833
G01 X36.7830 Y38.0906 Z-4.1111
G01 X36.7024 Y38.1240 Z-4.1389
G01 X36.6251 Y38.1643 Z-4.1667
G01 X36.5515 Y38.2112 Z-4.1944
G01 X36.4823 Y38.2643 Z-4.2222
G01 X36.4180 Y38.3232 Z-4.2500
G01 X36.3590 Y38.3875 Z-4.2778
G01 X36.3059 Y38.4568 Z-4.3056
G01 X36.2590 Y38.5303 Z-4.3333
G01 X36.2188 Y38.6077 Z-4.3611
G01 X36.1854 Y38.6883 Z-4.3889
G01 X36.1591 Y38.7715 Z-4.4167
G01 X36.1403 Y38.8567 Z-4.4444
G01 X36.1289 Y38.9432 Z-4.4722
G01 X36.1251 Y39.0303 Z-4.5000
G01 X36.1289 Y39.1175 Z-4.5278
G01 X36.1403 Y39.2040 Z-4.5556
G01 X36.1591 Y39.2892 Z-4.5833
G01 X36.1854 Y39.3724 Z-4.6111
G01 X36.2188 Y39.4530 Z-4.6389
G01 X36.2590 Y39.5303 Z-4.6667
G01 X36.3059 Y39.6039 Z-4.6944
G01 X36.3590 Y39.6731 Z-4.7222
G01 X36.4180 Y39.7374 Z-4.7500
G01 X36.4823 Y39.7964 Z-4.7778
G01 X36.5515 Y39.8495 Z-4.8056
G01 X36.6251 Y39.8964 Z-4.8333
G01 X36.7024 Y39.9366 Z-4.8611
G01 X36.7830 Y39.9700 Z-4.8889
G01 X36.8662 Y39.9963 Z-4.9167
G01 X36.9514 Y40.0151 Z-4.9444
G01 X37.0379 Y40.0265 Z-4.9722
G01 X37.1251 Y40.0303 Z-5.0000
G01 X37.2122 Y40.0265 Z-5.0278
G01 X37.2987 Y40.0151 Z-5.0556
G01 X37.3839 Y39.9963 Z-5.0833
G01 X37.4671 Y39.9700 Z-5.1111
G01 X37.5477 Y39.9366 Z-5.1389
G01 X37.6251 Y39.8964 Z-5.1667
G01 X37.6986 Y39.8495 Z-5.1944
G01 X37.7678 Y39.7964 Z-5.2222
G01 X37.8322 Y39.7374 Z-5.2500
G01 X37.8911 Y39.6731 Z-5.2778
G01 X37.9442 Y39.6039 Z-5.3056
G01 X37.9911 Y39.5303 Z-5.3333
G01 X38.0314 Y39.4530 Z-5.3611
G01 X38.0648 Y39.3724 Z-5.3889
G01 X38.0910 Y39.2892 Z-5.4167
G01 X38.1099 Y39.2040 Z-5.4444
G01 X38.1213 Y39.1175 Z-5.4722
G01 X38.1251 Y39.0303 Z-5.5000
G01 X38.1213 Y38.9432
G01 X38.1099 Y38.8567
G01 X38.0910 Y38.7715
G01 X38.0648 Y38.6883
G01 X38.0314 Y38.6077
G01 X37.9911 Y38.5303
G01 X37.9442 Y38.4568
G01 X37.8911 Y38.3875
G01 X37.8322 Y38.3232
G01 X37.7678 Y38.2643
G01 X37.6986 Y38.2112
G01 X37.6251 Y38.1643
G01 X37.5477 Y38.1240
G01 X37.4671 Y38.0906
G01 X37.3839 Y38.0644
G01 X37.2987 Y38.0455
G01 X37.2122 Y38.0341
G01 X37.1251 Y38.0303
G01 X37.0379 Y38.0341
G01 X36.9514 Y38.0455
G01 X36.8662 Y38.0644
G01 X36.7830 Y38.0906
G01 X36.7024 Y38.1240
G01 X36.6251 Y38.1643
G01 X36.5515 Y38.2112
G01 X36.4823 Y38.2643
G01 X36.4180 Y38.3232
G01 X36.3590 Y38.3875
G01 X36.3059 Y38.4568
G01 X36.2590 Y38.5303
G01 X36.2188 Y38.6077
G01 X36.1854 Y38.6883
G01 X36.1591 Y38.7715
G01 X36.1403 Y38.8567
G01 X36.1289 Y38.9432
G01 X36.1251 Y39.0303
G01 X36.1289 Y39.1175
G01 X36.1403 Y39.2040
G01 X36.1591 Y39.2892
G01 X36.1854 Y39.3724
G01 X36.2188 Y39.4530
G01 X36.2590 Y39.5303
G01 X36.3059 Y39.6039
G01 X36.3590 Y39.6731
G01 X36.4180 Y39.7374
G01 X36.4823 Y39.7964
G01 X36.5515 Y39.8495
G01 X36.6251 Y39.8964
G01 X36.7024 Y39.9366
G01 X36.7830 Y39.9700
G01 X36.8662 Y39.9963
G01 X36.9514 Y40.0151
G01 X37.0379 Y40.0265
G01 X37.1251 Y40.0303
G01 X37.2122 Y40.0265
G01 X37.2987 Y40.0151
G01 X37.3839 Y39.9963
G01 X37.4671 Y39.9700
G01 X37.5477 Y39.9366
G01 X37.6251 Y39.8964
G01 X37.6986 Y39.8495
G01 X37.7678 Y39.7964
G01 X37.8322 Y39.7374
G01 X37.8911 Y39.6731
G01 X37.9442 Y39.6039
G01 X37.9911 Y39.5303
G01 X38.0314 Y39.4530
G01 X38.0648 Y39.3724
G01 X38.0910 Y39.2892
G01 X38.1099 Y39.2040
G01 X38.1213 Y39.1175
G01 X38.1251 Y39.0303
G01 X38.1358 Y38.9787 F1000
G01 X38.1439 Y38.9267
G01 X38.1493 Y38.8742
G01 X38.1519 Y38.8216
G01 Y38.7689
G01 X38.1492 Y38.7163
G01 X38.1437 Y38.6638
G01 X38.1356 Y38.6118
G01 X38.1238 Y38.5558
G01 X38.1093 Y38.5005
G01 X38.0919 Y38.4460
G01 X38.0718 Y38.3924
G01 X38.0489 Y38.3400
G01 X38.0234 Y38.2888
G01 X37.9953 Y38.2390
G01 X37.9647 Y38.1906
G01 X37.9291 Y38.1402
G01 X37.8910 Y38.0917
G01 X37.8505 Y38.0452
G01 X37.8076 Y38.0008
G01 X37.7626 Y37.9586
G01 X37.7154 Y37.9188
G01 X37.6663 Y37.8814
G01 X37.6154 Y37.8466
G01 X37.5582 Y37.8157
G01 X37.4995 Y37.7876
G01 X37.4395 Y37.7625
G01 X37.3784 Y37.7405
G01 X37.3162 Y37.7215
G01 X37.2531 Y37.7056
G01 X37.1894 Y37.6929
G01 X37.1251 Y37.6834
G01 X37.0590 Y37.6850
G01 X36.9930 Y37.6899
G01 X36.9274 Y37.6980
G01 X36.8623 Y37.7093
G01 X36.7978 Y37.7238
G01 X36.7341 Y37.7414
G01 X36.6713 Y37.7621
G01 X36.6096 Y37.7859
G01 X36.5492 Y37.8127
G01 X36.4901 Y37.8424
G01 X36.4326 Y37.8750
G01 X36.3767 Y37.9104
G01 X36.3227 Y37.9485
G01 X36.2706 Y37.9891
G01 X36.2205 Y38.0323
G01 X36.1726 Y38.0779
G01 X36.1270 Y38.1258
G01 X36.0839 Y38.1758
G01 X36.0432 Y38.2280
G01 X36.0051 Y38.2820
G01 X35.9697 Y38.3379
G01 X35.9372 Y38.3954
G01 X35.9074 Y38.4544
G01 X35.8806 Y38.5149
G01 X35.8568 Y38.5766
G01 X35.8361 Y38.6393
G01 X35.8185 Y38.7031
G01 X35.8040 Y38.7676
G01 X35.7927 Y38.8327
G01 X35.7846 Y38.8983
G01 X35.7797 Y38.9642
G01 X35.7781 Y39.0303
G01 X35.7797 Y39.0964
G01 X35.7846 Y39.1624
G01 X35.7927 Y39.2280
G01 X35.8040 Y39.2931
G01 X35.8185 Y39.3576
G01 X35.8361 Y39.4213
G01 X35.8568 Y39.4841
G01 X35.8806 Y39.5458
G01 X35.9074 Y39.6062
G01 X35.9372 Y39.6653
G01 X35.9697 Y39.7228
G01 X36.0051 Y39.7787
G01 X36.0432 Y39.8327
G01 X36.0839 Y39.8848
G01 X36.1270 Y39.9349
G01 X36.1726 Y39.9828
G01 X36.2205 Y40.0284
G01 X36.2706 Y40.0715
G01 X36.3227 Y40.1122
G01 X36.3767 Y40.1503
G01 X36.4326 Y40.1857
G01 X36.4901 Y40.2182
G01 X36.5492 Y40.2480
G01 X36.6096 Y40.2748
G01 X36.6713 Y40.2985
G01 X36.7341 Y40.3193
G01 X36.7978 Y40.3369
G01 X36.8623 Y40.3514
G01 X36.9274 Y40.3627
G01 X36.9930 Y40.3708
G01 X37.0590 Y40.3757
G01 X37.1251 Y40.3773
G01 X37.1912 Y40.3757
G01 X37.2571 Y40.3708
G01 X37.3227 Y40.3627
G01 X37.3878 Y40.3514
G01 X37.4523 Y40.3369
G01 X37.5161 Y40.3193
G01 X37.5788 Y40.2985
G01 X37.6405 Y40.2748
G01 X37.7010 Y40.2480
G01 X37.7600 Y40.2182
G01 X37.8175 Y40.1857
G01 X37.8734 Y40.1503
G01 X37.9274 Y40.1122
G01 X37.9796 Y40.0715
G01 X38.0296 Y40.0284
G01 X38.0775 Y39.9828
G01 X38.1231 Y39.9349
G01 X38.1663 Y39.8848
G01 X38.2069 Y39.8327
G01 X38.2450 Y39.7787
G01 X38.2804 Y39.7228
G01 X38.3130 Y39.6653
G01 X38.3427 Y39.6062
G01 X38.3695 Y39.5458
G01 X38.3933 Y39.4841
G01 X38.4140 Y39.4213
G01 X38.4316 Y39.3576
G01 X38.4461 Y39.2931
G01 X38.4574 Y39.2280
G01 X38.4655 Y39.1624
G01 X38.4704 Y39.0964
G01 X38.4720 Y39.0303
G01 X38.4682 Y38.9297
G01 X38.4570 Y38.8296
G01 X38.4382 Y38.7306
G01 X38.4122 Y38.6333
G01 X38.3789 Y38.5382
G01 X38.3386 Y38.4459
G01 X38.2915 Y38.3569
G01 X38.2380 Y38.2716
G01 X38.1781 Y38.1905
G01 X38.1124 Y38.1142
G01 X38.0412 Y38.0430
G01 X37.9649 Y37.9773
G01 X37.8838 Y37.9174
G01 X37.7985 Y37.8638
G01 X37.7095 Y37.8168
G01 X37.6172 Y37.7765
G01 X37.5221 Y37.7432
G01 X37.4248 Y37.7172
G01 X37.3258 Y37.6984
G01 X37.2257 Y37.6872
G01 X37.1251 Y37.6834
G01 X37.0244 Y37.6872
G01 X36.9243 Y37.6984
G01 X36.8253 Y37.7172
G01 X36.7280 Y37.7432
G01 X36.6330 Y37.7765
G01 X36.5406 Y37.8168
G01 X36.4516 Y37.8638
G01 X36.3663 Y37.9174
G01 X36.2853 Y37.9773
G01 X36.2089 Y38.0430
G01 X36.1377 Y38.1142
G01 X36.0720 Y38.1905
G01 X36.0122 Y38.2716
G01 X35.9586 Y38.3569
G01 X35.9115 Y38.4459
G01 X35.8712 Y38.5382
G01 X35.8380 Y38.6333
G01 X35.8119 Y38.7306
G01 X35.7932 Y38.8296
G01 X35.7819 Y38.9297
G01 X35.7781 Y39.0303
G01 X35.7819 Y39.1310
G01 X35.7932 Y39.2311
G01 X35.8119 Y39.3301
G01 X35.8380 Y39.4274
G01 X35.8712 Y39.5224
G01 X35.9115 Y39.6148
G01 X35.9586 Y39.7038
G01 X36.0122 Y39.7891
G01 X36.0720 Y39.8701
G01 X36.1377 Y39.9465
G01 X36.2089 Y40.0177
G01 X36.2853 Y40.0834
G01 X36.3663 Y40.1432
G01 X36.4516 Y40.1968
G01 X36.5406 Y40.2439
G01 X36.6330 Y40.2842
G01 X36.7280 Y40.3174
G01 X36.8253 Y40.3435
G01 X36.9243 Y40.3622
G01 X37.0244 Y40.3735
G01 X37.1251 Y40.3773
G01 X37.2257 Y40.3735
G01 X37.3258 Y40.3622
G01 X37.4248 Y40.3435
G01 X37.5221 Y40.3174
G01 X37.6172 Y40.2842
G01 X37.7095 Y40.2439
G01 X37.7985 Y40.1968
G01 X37.8838 Y40.1432
G01 X37.9649 Y40.0834
G01 X38.0412 Y40.0177
G01 X38.1124 Y39.9465
G01 X38.1781 Y39.8701
G01 X38.2380 Y39.7891
G01 X38.2915 Y39.7038
G01 X38.3386 Y39.6148
G01 X38.3789 Y39.5224
G01 X38.4122 Y39.4274
G01 X38.4382 Y39.3301
G01 X38.4570 Y39.2311
G01 X38.4682 Y39.1310
G01 X38.4720 Y39.0303
M107
M106 S240
G01 X38.4689 Y38.9519 Z-5.4750 F400
M107
M106 S240
G01 X38.4597 Y38.8739 Z-5.4500
M107
M106 S240
G01 X38.4444 Y38.7969 Z-5.4250
M107
M106 S240
G01 X38.4231 Y38.7213 Z-5.4000
M107
M106 S240
G01 X38.3959 Y38.6477 Z-5.3750
M107
M106 S240
G01 X38.3630 Y38.5763 Z-5.3500
M107
M106 S240
G01 X38.3246 Y38.5078 Z-5.3250
M107
M106 S240
G01 X38.2810 Y38.4426 Z-5.3000
M107
M106 S240
G01 X38.2324 Y38.3809 Z-5.2750
M107
M106 S240
G01 X38.1791 Y38.3232 Z-5.2500
M107
M106 S240
G01 X38.1215 Y38.2699 Z-5.2250
M107
M106 S240
G01 X38.0598 Y38.2213 Z-5.2000
M107
M106 S240
G01 X37.9945 Y38.1777 Z-5.1750
M107
M106 S240
G01 X37.9260 Y38.1393 Z-5.1500
M107
M106 S240
G01 X37.8547 Y38.1065 Z-5.1250
M107
M106 S240
G01 X37.7810 Y38.0793 Z-5.1000
M107
M106 S240
G01 X37.7055 Y38.0580 Z-5.0750
M107
M106 S240
G01 X37.6284 Y38.0426 Z-5.0500
M107
M106 S240
G01 X37.5505 Y38.0334 Z-5.0250
M107
M106 S240
G01 X37.4720 Y38.0303 Z-5.0000
M107
G00 Z2.0000


;No. 2: Hole 25
G00 X52.2624 Y45.5022 Z2.0000
G00 Z0.5000
G01 Z0.0000 F400
G01 Z-1.2000
M106 S240
G01 X54.6557 F1000
G01 X52.2759 Y47.0022
G01 X51.6603
G01 X51.0582 Y48.5022
G01 X51.6432
G01 X51.0864 Y50.0022
G01 X50.4561
G01 X50.5296 Y51.5022
G01 X49.8539
G01 X49.9728 Y53.0022
G01 X49.2518
G01 X49.4160 Y54.5022
G01 X48.6497
G01 X48.8592 Y56.0022
G01 X48.0475
G01 X48.3024 Y57.5022
G01 X47.4454
M107
G00 Z2.0000
G00 X57.6030 Y54.5022
G00 Z0.5000
G01 Z0.0000 F400
G01 Z-1.2000
M106 S240
G01 X58.2684 F1000
G01 X58.1598 Y56.0022
G01 X58.8706
G01 X58.7166 Y57.5022
G01 X59.4727
G01 X57.0463 Y53.0022
G01 X57.6663
G01 X57.0642 Y51.5022
G01 X56.4895
G01 X54.7431 Y47.0022
G01 X55.2578
G01 X55.9327 Y50.0022
G01 X56.4621
G01 X56.7040 Y49.9070
G01 X54.2959 Y43.9079
G01 X52.6223
G01 X46.5253 Y59.0965
G01 X47.9879
G01 X52.2908 Y47.5047
G01 X52.3286 Y47.4135
G01 X52.3733 Y47.3254
G01 X52.4245 Y47.2410
G01 X52.4819 Y47.1608
G01 X52.5453 Y47.0851
G01 X52.6143 Y47.0144
G01 X52.6884 Y46.9492
G01 X52.7673 Y46.8898
G01 X52.8504 Y46.8366
G01 X52.9373 Y46.7898
G01 X53.0276 Y46.7497
G01 X53.1206 Y46.7166
G01 X53.2158 Y46.6907
G01 X53.3128 Y46.6720
G01 X53.4109 Y46.6608
G01 X53.5095 Y46.6571
G01 X53.6082 Y46.6608
G01 X53.7063 Y46.6720
G01 X53.8032 Y46.6907
G01 X53.8985 Y46.7166
G01 X53.9915 Y46.7497
G01 X54.0817 Y46.7898
G01 X54.1686 Y46.8366
G01 X54.2518 Y46.8898
G01 X54.3306 Y46.9492
G01 X54.4047 Y47.0144
G01 X54.4737 Y47.0851
G01 X54.5371 Y47.1608
G01 X54.5946 Y47.2410
G01 X54.6458 Y47.3254
G01 X54.6904 Y47.4135
G01 X54.7283 Y47.5047
G01 X59.0311 Y59.0965
G01 X60.3928
G01 X56.7040 Y49.9070
G01 X56.4621 Y50.0022
M107
G00 Z2.0000


;No. 3: Hole 25
G00 X52.6223 Y43.9079 Z2.0000
G00 Z0.5000
G01 Z-1.2000 F400
M106 S240
G01 X52.4194 Y43.6079 F1000
G01 X46.0816 Y59.3965
G01 X48.1966
G01 X52.5720 Y47.6091
G01 X52.6057 Y47.5291
G01 X52.6462 Y47.4524
G01 X52.6932 Y47.3794
G01 X52.7464 Y47.3108
G01 X52.8053 Y47.2471
G01 X52.8695 Y47.1887
G01 X52.9386 Y47.1361
G01 X53.0119 Y47.0897
G01 X53.0890 Y47.0498
G01 X53.1692 Y47.0168
G01 X53.2520 Y46.9908
G01 X53.3368 Y46.9721
G01 X53.4228 Y46.9608
G01 X53.5095 Y46.9571
G01 X53.5962 Y46.9608
G01 X53.6823 Y46.9721
G01 X53.7670 Y46.9908
G01 X53.8498 Y47.0168
G01 X53.9301 Y47.0498
G01 X54.0072 Y47.0897
G01 X54.0805 Y47.1361
G01 X54.1495 Y47.1887
G01 X54.2137 Y47.2471
G01 X54.2726 Y47.3108
G01 X54.3258 Y47.3794
G01 X54.3728 Y47.4524
G01 X54.4133 Y47.5291
G01 X54.4470 Y47.6091
G01 X58.8225 Y59.3965
G01 X60.8365
G01 X54.4987 Y43.6079
G01 X52.4194
G01 X52.6223 Y43.9079
M107
G00 Z0.0000
G00 Z2.0000


;No. 4: Hole 24
G00 X66.6006 Y45.5653 Z2.0000
G00 Z0.5000
G01 Z0.0000 F400
G01 Z-1.2000
M106 S240
G01 X67.4728 F1000
G01 X67.3411 Y47.0653
G01 X66.6006
G01 Y48.5653
G01 X67.3411
G01 X67.3507 Y50.0653
G01 X66.6006
G01 Y51.5653
G01 X75.6677
G01 X67.3689
G01 Y53.0653
G01 X66.6006
G01 Y54.5653
G01 X67.3411
G01 Y56.0653
G01 X66.6006
G01 Y57.5653
G01 X67.4728
G01 X67.7210 Y57.4825
G01 X67.6932 Y57.4183
G01 X67.6689 Y57.3526
G01 X67.6482 Y57.2856
G01 X67.6313 Y57.2177
G01 X67.6181 Y57.1489
G01 X67.6086 Y57.0795
G01 X67.6029 Y57.0097
G01 X67.6011 Y56.9397
G01 Y53.3567
G01 X67.6051 Y53.2547
G01 X67.6171 Y53.1534
G01 X67.6370 Y53.0533
G01 X67.6647 Y52.9550
G01 X67.7001 Y52.8593
G01 X67.7428 Y52.7666
G01 X67.7927 Y52.6775
G01 X67.8494 Y52.5926
G01 X67.9126 Y52.5125
G01 X67.9819 Y52.4375
G01 X68.0568 Y52.3682
G01 X68.1370 Y52.3050
G01 X68.2219 Y52.2483
G01 X68.3109 Y52.1984
G01 X68.4036 Y52.1557
G01 X68.4994 Y52.1204
G01 X68.5976 Y52.0927
G01 X68.6977 Y52.0727
G01 X68.7991 Y52.0607
G01 X68.9011 Y52.0567
G01 X75.9277
G01 Y51.1999
G01 X68.9011
G01 X68.7991 Y51.1959
G01 X68.6977 Y51.1839
G01 X68.5976 Y51.1640
G01 X68.4994 Y51.1363
G01 X68.4036 Y51.1010
G01 X68.3109 Y51.0582
G01 X68.2219 Y51.0084
G01 X68.1370 Y50.9517
G01 X68.0568 Y50.8885
G01 X67.9819 Y50.8192
G01 X67.9126 Y50.7442
G01 X67.8494 Y50.6641
G01 X67.7927 Y50.5792
G01 X67.7428 Y50.4901
G01 X67.7001 Y50.3974
G01 X67.6647 Y50.3017
G01 X67.6370 Y50.2034
G01 X67.6171 Y50.1033
G01 X67.6051 Y50.0019
G01 X67.6011 Y49.8999
G01 Y46.1908
G01 X67.6051 Y46.0888
G01 X67.6171 Y45.9875
G01 X67.6370 Y45.8873
G01 X67.6647 Y45.7891
G01 X67.7001 Y45.6933
G01 X67.7428 Y45.6006
G01 X67.7927 Y45.5116
G01 X67.8494 Y45.4267
G01 X67.9126 Y45.3465
G01 X67.9819 Y45.2716
G01 X68.0568 Y45.2023
G01 X68.1370 Y45.1391
G01 X68.2219 Y45.0824
G01 X68.3109 Y45.0325
G01 X68.4036 Y44.9898
G01 X68.4994 Y44.9544
G01 X68.5976 Y44.9267
G01 X68.6977 Y44.9068
G01 X68.7991 Y44.8948
G01 X68.9011 Y44.8908
G01 X77.1893
G01 Y44.0340
G01 X66.3406
G01 Y59.0965
G01 X77.0631
G01 Y58.2397
G01 X68.9011
G01 X68.8086 Y58.2365
G01 X68.7165 Y58.2267
G01 X68.6254 Y58.2103
G01 X68.5357 Y58.1875
G01 X68.4479 Y58.1583
G01 X68.3623 Y58.1230
G01 X68.2795 Y58.0816
G01 X68.1998 Y58.0344
G01 X68.1238 Y57.9817
G01 X68.0516 Y57.9236
G01 X67.9839 Y57.8606
G01 X67.9207 Y57.7929
G01 X67.8626 Y57.7209
G01 X67.8097 Y57.6449
G01 X67.7625 Y57.5653
G01 X67.7210 Y57.4825
G01 X67.4728 Y57.5653
M107
G00 Z2.0000


;No. 5: Hole 24
G00 X66.3406 Y44.0340 Z2.0000
G00 Z0.5000
G01 Z-1.2000 F400
M106 S240
G01 X66.0406 Y43.7340 F1000
G01 Y59.3965
G01 X77.3631
G01 Y57.9397
G01 X68.9011
G01 X68.8226 Y57.9366
G01 X68.7447 Y57.9274
G01 X68.6677 Y57.9121
G01 X68.5921 Y57.8908
G01 X68.5184 Y57.8636
G01 X68.4471 Y57.8307
G01 X68.3786 Y57.7923
G01 X68.3133 Y57.7487
G01 X68.2517 Y57.7001
G01 X68.1940 Y57.6468
G01 X68.1407 Y57.5891
G01 X68.0921 Y57.5275
G01 X68.0485 Y57.4622
G01 X68.0101 Y57.3937
G01 X67.9772 Y57.3224
G01 X67.9500 Y57.2487
G01 X67.9287 Y57.1731
G01 X67.9134 Y57.0961
G01 X67.9042 Y57.0182
G01 X67.9011 Y56.9397
G01 Y53.3567
G01 X67.9021 Y53.3131
G01 X67.9049 Y53.2696
G01 X67.9097 Y53.2262
G01 X67.9163 Y53.1831
G01 X67.9248 Y53.1403
G01 X67.9352 Y53.0979
G01 X67.9474 Y53.0560
G01 X67.9614 Y53.0147
G01 X67.9772 Y52.9741
G01 X67.9948 Y52.9341
G01 X68.0141 Y52.8950
G01 X68.0351 Y52.8567
G01 X68.0577 Y52.8194
G01 X68.0819 Y52.7832
G01 X68.1077 Y52.7480
G01 X68.1351 Y52.7140
G01 X68.1638 Y52.6811
G01 X68.1940 Y52.6496
G01 X68.2255 Y52.6195
G01 X68.2583 Y52.5907
G01 X68.2923 Y52.5634
G01 X68.3275 Y52.5376
G01 X68.3638 Y52.5133
G01 X68.4011 Y52.4907
G01 X68.4394 Y52.4697
G01 X68.4785 Y52.4504
G01 X68.5184 Y52.4329
G01 X68.5591 Y52.4170
G01 X68.6004 Y52.4030
G01 X68.6423 Y52.3908
G01 X68.6847 Y52.3804
G01 X68.7275 Y52.3719
G01 X68.7706 Y52.3653
G01 X68.8139 Y52.3605
G01 X68.8575 Y52.3577
G01 X68.9011 Y52.3567
G01 X76.2277
G01 Y50.8999
G01 X68.9011
G01 X68.8575 Y50.8990
G01 X68.8139 Y50.8961
G01 X68.7706 Y50.8914
G01 X68.7275 Y50.8847
G01 X68.6847 Y50.8762
G01 X68.6423 Y50.8659
G01 X68.6004 Y50.8537
G01 X68.5591 Y50.8396
G01 X68.5184 Y50.8238
G01 X68.4785 Y50.8062
G01 X68.4394 Y50.7870
G01 X68.4011 Y50.7660
G01 X68.3638 Y50.7433
G01 X68.3275 Y50.7191
G01 X68.2923 Y50.6933
G01 X68.2583 Y50.6660
G01 X68.2255 Y50.6372
G01 X68.1940 Y50.6070
G01 X68.1638 Y50.5755
G01 X68.1351 Y50.5427
G01 X68.1077 Y50.5087
G01 X68.0819 Y50.4735
G01 X68.0577 Y50.4372
G01 X68.0351 Y50.3999
G01 X68.0141 Y50.3617
G01 X67.9948 Y50.3226
G01 X67.9772 Y50.2826
G01 X67.9614 Y50.2420
G01 X67.9474 Y50.2006
G01 X67.9352 Y50.1588
G01 X67.9248 Y50.1164
G01 X67.9163 Y50.0736
G01 X67.9097 Y50.0305
G01 X67.9049 Y49.9871
G01 X67.9021 Y49.9436
G01 X67.9011 Y49.8999
G01 Y46.1908
G01 X67.9021 Y46.1472
G01 X67.9049 Y46.1037
G01 X67.9097 Y46.0603
G01 X67.9163 Y46.0172
G01 X67.9248 Y45.9744
G01 X67.9352 Y45.9320
G01 X67.9474 Y45.8901
G01 X67.9614 Y45.8488
G01 X67.9772 Y45.8081
G01 X67.9948 Y45.7682
G01 X68.0141 Y45.7291
G01 X68.0351 Y45.6908
G01 X68.0577 Y45.6535
G01 X68.0819 Y45.6172
G01 X68.1077 Y45.5821
G01 X68.1351 Y45.5480
G01 X68.1638 Y45.5152
G01 X68.1940 Y45.4837
G01 X68.2255 Y45.4535
G01 X68.2583 Y45.4248
G01 X68.2923 Y45.3975
G01 X68.3275 Y45.3717
G01 X68.3638 Y45.3474
G01 X68.4011 Y45.3248
G01 X68.4394 Y45.3038
G01 X68.4785 Y45.2845
G01 X68.5184 Y45.2669
G01 X68.5591 Y45.2511
G01 X68.6004 Y45.2371
G01 X68.6423 Y45.2249
G01 X68.6847 Y45.2145
G01 X68.7275 Y45.2060
G01 X68.7706 Y45.1994
G01 X68.8139 Y45.1946
G01 X68.8575 Y45.1918
G01 X68.9011 Y45.1908
G01 X77.4893
G01 Y43.7340
G01 X66.0406
G01 X66.3406 Y44.0340
M107
G00 Z0.0000
G00 Z2.0000


;No. 6: Hole 23
G00 X83.5041 Y45.5653 Z2.0000
G00 Z0.5000
G01 Z0.0000 F400
G01 Z-1.2000
M106 S240
G01 X84.2699 F1000
G01 Y47.0653
G01 X83.5041
G01 Y48.5653
G01 X84.2699
G01 X84.2894 Y50.0653
G01 X83.5041
G01 Y51.5653
G01 X95.3215
G01 Y50.0653
G01 X94.5363
G01 X94.5558 Y48.5653
G01 X95.3215
G01 Y47.0653
G01 X94.5558
G01 Y45.5653
G01 X95.3215
M107
G00 Z2.0000
G00 Y51.5653
G00 Z0.5000
G01 Z-1.2000 F400
M106 S240
G01 Y53.0653 F1000
G01 X94.5170
G01 X94.5558 Y54.5653
G01 X95.3215
G01 Y56.0653
G01 X94.5558
G01 Y57.5653
G01 X95.3215
M107
G00 Z2.0000
G00 X84.3086 Y51.5653
G00 Z0.5000
G01 Z-1.2000 F400
M106 S240
G01 Y53.0653 F1000
G01 X83.5041
G01 Y54.5653
G01 X84.2699
G01 Y56.0653
G01 X83.5041
G01 Y57.5653
G01 X84.2699
G01 X84.5299 Y57.5515
G01 Y53.4072
G01 X84.5339 Y53.3052
G01 X84.5459 Y53.2038
G01 X84.5658 Y53.1037
G01 X84.5935 Y53.0055
G01 X84.6288 Y52.9097
G01 X84.6716 Y52.8170
G01 X84.7214 Y52.7280
G01 X84.7781 Y52.6431
G01 X84.8413 Y52.5629
G01 X84.9106 Y52.4880
G01 X84.9856 Y52.4187
G01 X85.0657 Y52.3555
G01 X85.1506 Y52.2988
G01 X85.2397 Y52.2489
G01 X85.3324 Y52.2062
G01 X85.4281 Y52.1708
G01 X85.5264 Y52.1431
G01 X85.6265 Y52.1232
G01 X85.7279 Y52.1112
G01 X85.8299 Y52.1072
G01 X92.9958
G01 X93.0978 Y52.1112
G01 X93.1991 Y52.1232
G01 X93.2993 Y52.1431
G01 X93.3975 Y52.1708
G01 X93.4933 Y52.2062
G01 X93.5860 Y52.2489
G01 X93.6750 Y52.2988
G01 X93.7599 Y52.3555
G01 X93.8401 Y52.4187
G01 X93.9150 Y52.4880
G01 X93.9843 Y52.5629
G01 X94.0475 Y52.6431
G01 X94.1042 Y52.7280
G01 X94.1541 Y52.8170
G01 X94.1968 Y52.9097
G01 X94.2322 Y53.0055
G01 X94.2599 Y53.1037
G01 X94.2798 Y53.2038
G01 X94.2918 Y53.3052
G01 X94.2958 Y53.4072
G01 Y59.0965
G01 X95.5815
G01 Y44.0340
G01 X94.2958
G01 Y49.8243
G01 X94.2918 Y49.9262
G01 X94.2798 Y50.0276
G01 X94.2599 Y50.1277
G01 X94.2322 Y50.2260
G01 X94.1968 Y50.3217
G01 X94.1541 Y50.4144
G01 X94.1042 Y50.5035
G01 X94.0475 Y50.5884
G01 X93.9843 Y50.6685
G01 X93.9150 Y50.7435
G01 X93.8401 Y50.8128
G01 X93.7599 Y50.8760
G01 X93.6750 Y50.9327
G01 X93.5860 Y50.9826
G01 X93.4933 Y51.0253
G01 X93.3975 Y51.0606
G01 X93.2993 Y51.0883
G01 X93.1991 Y51.1082
G01 X93.0978 Y51.1202
G01 X92.9958 Y51.1243
G01 X85.8299
G01 X85.7279 Y51.1202
G01 X85.6265 Y51.1082
G01 X85.5264 Y51.0883
G01 X85.4281 Y51.0606
G01 X85.3324 Y51.0253
G01 X85.2397 Y50.9826
G01 X85.1506 Y50.9327
G01 X85.0657 Y50.8760
G01 X84.9856 Y50.8128
G01 X84.9106 Y50.7435
G01 X84.8413 Y50.6685
G01 X84.7781 Y50.5884
G01 X84.7214 Y50.5035
G01 X84.6716 Y50.4144
G01 X84.6288 Y50.3217
G01 X84.5935 Y50.2260
G01 X84.5658 Y50.1277
G01 X84.5459 Y50.0276
G01 X84.5339 Y49.9262
G01 X84.5299 Y49.8243
G01 Y44.0340
G01 X83.2441
G01 Y59.0965
G01 X84.5299
G01 Y57.5515
G01 X84.2699 Y57.5653
M107
G00 Z2.0000


;No. 7: Hole 23
G00 X83.2441 Y44.0340 Z2.0000
G00 Z0.5000
G01 Z-1.2000 F400
M106 S240
G01 X82.9441 Y43.7340 F1000
G01 Y59.3965
G01 X84.8299
G01 Y53.4072
G01 X84.8308 Y53.3636
G01 X84.8337 Y53.3200
G01 X84.8384 Y53.2767
G01 X84.8451 Y53.2336
G01 X84.8536 Y53.1908
G01 X84.8639 Y53.1484
G01 X84.8762 Y53.1065
G01 X84.8902 Y53.0652
G01 X84.9060 Y53.0245
G01 X84.9236 Y52.9846
G01 X84.9429 Y52.9455
G01 X84.9638 Y52.9072
G01 X84.9865 Y52.8699
G01 X85.0107 Y52.8336
G01 X85.0365 Y52.7984
G01 X85.0638 Y52.7644
G01 X85.0926 Y52.7316
G01 X85.1228 Y52.7001
G01 X85.1543 Y52.6699
G01 X85.1871 Y52.6412
G01 X85.2211 Y52.6138
G01 X85.2563 Y52.5880
G01 X85.2926 Y52.5638
G01 X85.3299 Y52.5412
G01 X85.3681 Y52.5202
G01 X85.4072 Y52.5009
G01 X85.4472 Y52.4833
G01 X85.4878 Y52.4675
G01 X85.5292 Y52.4535
G01 X85.5710 Y52.4413
G01 X85.6134 Y52.4309
G01 X85.6562 Y52.4224
G01 X85.6993 Y52.4158
G01 X85.7427 Y52.4110
G01 X85.7862 Y52.4082
G01 X85.8299 Y52.4072
G01 X92.9958
G01 X93.0742 Y52.4103
G01 X93.1522 Y52.4195
G01 X93.2292 Y52.4348
G01 X93.3048 Y52.4561
G01 X93.3785 Y52.4833
G01 X93.4498 Y52.5162
G01 X93.5183 Y52.5546
G01 X93.5836 Y52.5982
G01 X93.6452 Y52.6468
G01 X93.7029 Y52.7001
G01 X93.7562 Y52.7578
G01 X93.8048 Y52.8194
G01 X93.8484 Y52.8847
G01 X93.8868 Y52.9532
G01 X93.9197 Y53.0245
G01 X93.9468 Y53.0982
G01 X93.9682 Y53.1738
G01 X93.9835 Y53.2508
G01 X93.9927 Y53.3287
G01 X93.9958 Y53.4072
G01 Y59.3965
G01 X95.8815
G01 Y43.7340
G01 X93.9958
G01 Y49.8243
G01 X93.9927 Y49.9027
G01 X93.9835 Y49.9807
G01 X93.9682 Y50.0577
G01 X93.9468 Y50.1333
G01 X93.9197 Y50.2069
G01 X93.8868 Y50.2782
G01 X93.8484 Y50.3467
G01 X93.8048 Y50.4120
G01 X93.7562 Y50.4737
G01 X93.7029 Y50.5314
G01 X93.6452 Y50.5847
G01 X93.5836 Y50.6333
G01 X93.5183 Y50.6769
G01 X93.4498 Y50.7153
G01 X93.3785 Y50.7481
G01 X93.3048 Y50.7753
G01 X93.2292 Y50.7966
G01 X93.1522 Y50.8119
G01 X93.0742 Y50.8212
G01 X92.9958 Y50.8243
G01 X85.8299
G01 X85.7514 Y50.8212
G01 X85.6734 Y50.8119
G01 X85.5964 Y50.7966
G01 X85.5209 Y50.7753
G01 X85.4472 Y50.7481
G01 X85.3759 Y50.7153
G01 X85.3074 Y50.6769
G01 X85.2421 Y50.6333
G01 X85.1804 Y50.5847
G01 X85.1228 Y50.5314
G01 X85.0695 Y50.4737
G01 X85.0209 Y50.4120
G01 X84.9772 Y50.3467
G01 X84.9389 Y50.2782
G01 X84.9060 Y50.2069
G01 X84.8788 Y50.1333
G01 X84.8575 Y50.0577
G01 X84.8422 Y49.9807
G01 X84.8329 Y49.9027
G01 X84.8299 Y49.8243
G01 Y43.7340
G01 X82.9441
G01 X83.2441 Y44.0340
M107
G00 Z0.0000
G00 Z2.0000


;No. 8: Hole 22
G00 X102.8512 Y45.5653 Z2.0000
G00 Z0.5000
G01 Z0.0000 F400
G01 Z-1.2000
M106 S240
G01 X103.6170 F1000
G01 Y47.0653
G01 X102.8512
G01 Y48.5653
G01 X103.6170
G01 Y50.0653
G01 X102.8512
G01 Y51.5653
G01 X103.6170
G01 Y53.0653
G01 X102.8512
G01 Y54.5653
G01 X103.6170
G01 Y56.0653
G01 X102.8512
G01 Y57.5653
G01 X103.6170
G01 X103.8770 Y57.5459
G01 Y44.0340
G01 X102.5912
G01 Y59.0965
G01 X103.8770
G01 Y57.5459
G01 X103.6170 Y57.5653
M107
G00 Z2.0000


;No. 9: Hole 22
G00 X102.5912 Y44.0340 Z2.0000
G00 Z0.5000
G01 Z-1.2000 F400
M106 S240
G01 X102.2912 Y43.7340 F1000
G01 Y59.3965
G01 X104.1770
G01 Y43.7340
G01 X102.2912
G01 X102.5912 Y44.0340
M107
G00 Z0.0000
G00 Z2.0000


;No. 10: Hole 21
G00 X111.2820 Y47.8153 Z2.0000
G00 Z0.5000
G01 Z0.0000 F400
G01 Z-1.2000
M106 S240
G01 X112.2750 F1000
G01 X111.6373 Y49.3153
G01 X110.6724
G01 X110.3985 Y50.8153
G01 X111.3465
G01 X111.3426 Y52.3153
G01 X110.4029
G01 X110.6857 Y53.8153
G01 X111.6290
G01 X111.3040 Y55.3153
G01 X112.2673
G01 X112.3899 Y56.8153
G01 X113.4164
G01 X114.4044 Y58.3153
G01 X115.8252
M107
G00 Z2.0000
G00 X120.2621
G00 Z0.5000
G01 Z0.0000 F400
G01 Z-1.2000
M106 S240
G01 X121.9315 F1000
M107
G00 Z2.0000
G00 X121.6685 Y44.8153
G00 Z0.5000
G01 Z0.0000 F400
G01 Z-1.2000
M106 S240
G01 X120.3560 F1000
M107
G00 Z2.0000
G00 X115.8208
G00 Z0.5000
G01 Z0.0000 F400
G01 Z-1.2000
M106 S240
G01 X114.3458 F1000
G01 X112.3571 Y46.3153
G01 X113.4191
G01 X113.6037 Y46.4984
G01 X113.9570 Y46.1777
G01 X114.3336 Y45.8847
G01 X114.7312 Y45.6211
G01 X115.1477 Y45.3884
G01 X115.5807 Y45.1879
G01 X116.0276 Y45.0208
G01 X116.4859 Y44.8880
G01 X116.9529 Y44.7904
G01 X117.4259 Y44.7284
G01 X117.9023 Y44.7024
G01 X118.3793 Y44.7126
G01 X118.8542 Y44.7589
G01 X119.3567 Y44.8333
G01 X119.8526 Y44.9435
G01 X120.3394 Y45.0888
G01 X120.8145 Y45.2685
G01 X121.2756 Y45.4817
G01 X121.7203 Y45.7273
G01 X122.1462 Y46.0041
G01 X122.5513 Y46.3106
G01 X122.5865 Y46.2854
G01 X122.5634 Y46.3087
G01 X123.2562 Y45.6088
G01 X122.9297 Y45.3331
G01 X122.5875 Y45.0771
G01 X122.2309 Y44.8416
G01 X121.8611 Y44.6273
G01 X121.4795 Y44.4351
G01 X121.0871 Y44.2657
G01 X120.6856 Y44.1195
G01 X120.2761 Y43.9971
G01 X119.8602 Y43.8989
G01 X119.4393 Y43.8252
G01 X119.0147 Y43.7764
G01 X118.5880 Y43.7525
G01 X118.1837 Y43.7244
G01 X117.7786 Y43.7171
G01 X117.3735 Y43.7306
G01 X116.9698 Y43.7650
G01 X116.5683 Y43.8200
G01 X116.1701 Y43.8956
G01 X115.7764 Y43.9915
G01 X115.3881 Y44.1076
G01 X115.0064 Y44.2435
G01 X114.6320 Y44.3988
G01 X114.2662 Y44.5731
G01 X113.9098 Y44.7660
G01 X113.5638 Y44.9770
G01 X113.2291 Y45.2054
G01 X112.9066 Y45.4508
G01 X112.5971 Y45.7124
G01 X112.2675 Y46.0395
G01 X111.9577 Y46.3855
G01 X111.6688 Y46.7491
G01 X111.4017 Y47.1290
G01 X111.1574 Y47.5239
G01 X110.9368 Y47.9325
G01 X110.7405 Y48.3534
G01 X110.5693 Y48.7851
G01 X110.4237 Y49.2261
G01 X110.3043 Y49.6748
G01 X110.2115 Y50.1299
G01 X110.1456 Y50.5895
G01 X110.1068 Y51.0523
G01 X110.0952 Y51.5166
G01 X110.1110 Y51.9807
G01 X110.1539 Y52.4431
G01 X110.2080 Y52.8953
G01 X110.2890 Y53.3434
G01 X110.3966 Y53.7860
G01 X110.5305 Y54.2213
G01 X110.6901 Y54.6478
G01 X110.8749 Y55.0641
G01 X111.0842 Y55.4685
G01 X111.3174 Y55.8597
G01 X111.5734 Y56.2364
G01 X111.8516 Y56.5970
G01 X112.1507 Y56.9404
G01 X112.4699 Y57.2653
G01 X112.8078 Y57.5706
G01 X113.1634 Y57.8551
G01 X113.5354 Y58.1179
G01 X113.9224 Y58.3580
G01 X114.3230 Y58.5745
G01 X114.7359 Y58.7668
G01 X115.1595 Y58.9340
G01 X115.5923 Y59.0756
G01 X116.0329 Y59.1912
G01 X116.4795 Y59.2802
G01 X116.9307 Y59.3423
G01 X117.3847 Y59.3775
G01 X117.9434 Y59.4076
G01 X118.5029 Y59.4041
G01 X119.0611 Y59.3670
G01 X119.6161 Y59.2962
G01 X120.1658 Y59.1923
G01 X120.7083 Y59.0554
G01 X121.2416 Y58.8861
G01 X121.7637 Y58.6850
G01 X122.1280 Y58.5058
G01 X122.4816 Y58.3065
G01 X122.8235 Y58.0875
G01 X123.1525 Y57.8495
G01 X122.3931 Y56.9726
G01 X122.2856 Y56.9768
G01 X121.9640 Y57.2077
G01 X121.6298 Y57.4201
G01 X121.2841 Y57.6133
G01 X120.9281 Y57.7867
G01 X120.5628 Y57.9396
G01 X120.1895 Y58.0717
G01 X119.8093 Y58.1825
G01 X119.4235 Y58.2717
G01 X119.0333 Y58.3389
G01 X118.6399 Y58.3839
G01 X118.2445 Y58.4067
G01 X117.8485 Y58.4071
G01 X117.4532 Y58.3851
G01 X117.0597 Y58.3409
G01 X116.6693 Y58.2744
G01 X116.2833 Y58.1861
G01 X115.8471 Y58.0403
G01 X115.4223 Y57.8641
G01 X115.0109 Y57.6584
G01 X114.6151 Y57.4243
G01 X114.2368 Y57.1628
G01 X113.8778 Y56.8753
G01 X113.5399 Y56.5633
G01 X113.2249 Y56.2282
G01 X112.9343 Y55.8717
G01 X112.6695 Y55.4957
G01 X112.4319 Y55.1019
G01 X112.2226 Y54.6924
G01 X112.0427 Y54.2692
G01 X111.8931 Y53.8343
G01 X111.7745 Y53.3899
G01 X111.6875 Y52.9383
G01 X111.6368 Y52.6113
G01 X111.6005 Y52.2823
G01 X111.5786 Y51.9521
G01 X111.5712 Y51.6213
G01 X111.5704 Y51.6385
G01 X111.5750 Y51.1654
G01 X111.6111 Y50.6937
G01 X111.6786 Y50.2255
G01 X111.7772 Y49.7627
G01 X111.9064 Y49.3076
G01 X112.0656 Y48.8622
G01 X112.2542 Y48.4283
G01 X112.4713 Y48.0080
G01 X112.7160 Y47.6030
G01 X112.9871 Y47.2153
G01 X113.2834 Y46.8466
G01 X113.6037 Y46.4984
G01 X113.4191 Y46.3153
M107
G00 Z2.0000


;No. 11: Hole 21
G00 X110.7691 Y48.2756 Z2.0000
G00 Z0.5000
G01 Z-1.2000 F400
M106 S240
G01 X110.4940 Y48.1560 F1000
G01 X110.2939 Y48.6678
G01 X110.1271 Y49.1914
G01 X109.9943 Y49.7246
G01 X109.8959 Y50.2653
G01 X109.8325 Y50.8111
G01 X109.8043 Y51.3599
G01 X109.8114 Y51.9094
G01 X109.8537 Y52.4573
G01 X109.9311 Y53.0013
G01 X110.0432 Y53.5393
G01 X110.1897 Y54.0689
G01 X110.3699 Y54.5881
G01 X110.5830 Y55.0946
G01 X110.8283 Y55.5863
G01 X111.1045 Y56.0614
G01 X111.4107 Y56.5177
G01 X111.7043 Y56.8816
G01 X112.0185 Y57.2278
G01 X112.3523 Y57.5553
G01 X112.7045 Y57.8628
G01 X113.0739 Y58.1494
G01 X113.4594 Y58.4140
G01 X113.8596 Y58.6558
G01 X114.2731 Y58.8740
G01 X114.6986 Y59.0678
G01 X115.1346 Y59.2366
G01 X115.5797 Y59.3799
G01 X116.0324 Y59.4970
G01 X116.4911 Y59.5877
G01 X116.9543 Y59.6516
G01 X117.4204 Y59.6885
G01 X117.8878 Y59.6983
G01 X118.4443 Y59.7045
G01 X119.0001 Y59.6765
G01 X119.5531 Y59.6144
G01 X120.1013 Y59.5184
G01 X120.6425 Y59.3889
G01 X121.1747 Y59.2264
G01 X121.6960 Y59.0315
G01 X122.2043 Y58.8049
G01 X122.5674 Y58.6039
G01 X122.9194 Y58.3839
G01 X123.2591 Y58.1455
G01 X123.5857 Y57.8894
G01 X122.4201 Y56.5458
G01 X122.3795 Y56.5348
G01 X122.0439 Y56.7933
G01 X121.6931 Y57.0310
G01 X121.3286 Y57.2469
G01 X120.9517 Y57.4402
G01 X120.5636 Y57.6103
G01 X120.1660 Y57.7564
G01 X119.7602 Y57.8781
G01 X119.3478 Y57.9750
G01 X118.9302 Y58.0466
G01 X118.5091 Y58.0926
G01 X118.0859 Y58.1130
G01 X117.6623 Y58.1076
G01 X117.2015 Y58.0633
G01 X116.7454 Y57.9838
G01 X116.2968 Y57.8698
G01 X115.8582 Y57.7219
G01 X115.4321 Y57.5408
G01 X115.0211 Y57.3278
G01 X114.6276 Y57.0840
G01 X114.2539 Y56.8108
G01 X113.9021 Y56.5099
G01 X113.5743 Y56.1831
G01 X113.2725 Y55.8321
G01 X112.9983 Y55.4591
G01 X112.7534 Y55.0663
G01 X112.5393 Y54.6559
G01 X112.3571 Y54.2303
G01 X112.2079 Y53.7921
G01 X112.0869 Y53.3738
G01 X111.9916 Y52.9489
G01 X111.9223 Y52.5189
G01 X111.8792 Y52.0856
G01 X111.8626 Y51.6504
G01 X111.8725 Y51.2151
G01 X111.9088 Y50.7811
G01 X111.9714 Y50.3502
G01 X112.0602 Y49.9238
G01 X112.1747 Y49.5037
G01 X112.3145 Y49.0913
G01 X112.4792 Y48.6881
G01 X112.6680 Y48.2957
G01 X112.8804 Y47.9155
G01 X113.1155 Y47.5490
G01 X113.3725 Y47.1974
G01 X113.6235 Y46.9089
G01 X113.8925 Y46.6371
G01 X114.1783 Y46.3831
G01 X114.4798 Y46.1479
G01 X114.7958 Y45.9325
G01 X115.1249 Y45.7377
G01 X115.4658 Y45.5645
G01 X115.8170 Y45.4134
G01 X116.1773 Y45.2851
G01 X116.5450 Y45.1801
G01 X116.9186 Y45.0989
G01 X117.2967 Y45.0417
G01 X117.6777 Y45.0089
G01 X118.0600 Y45.0006
G01 X118.4421 Y45.0167
G01 X118.8223 Y45.0572
G01 X119.1655 Y45.1057
G01 X119.5058 Y45.1712
G01 X119.8424 Y45.2536
G01 X120.1744 Y45.3527
G01 X120.5011 Y45.4683
G01 X120.8217 Y45.6000
G01 X121.1352 Y45.7476
G01 X121.4410 Y45.9106
G01 X121.7383 Y46.0886
G01 X122.0263 Y46.2813
G01 X122.3044 Y46.4881
G01 X122.5718 Y46.7085
G01 X122.5979 Y46.7003
G01 X122.5866 Y46.7117
G01 X123.6946 Y45.5924
G01 X123.3459 Y45.2765
G01 X122.9785 Y44.9825
G01 X122.5937 Y44.7117
G01 X122.1930 Y44.4651
G01 X121.7779 Y44.2436
G01 X121.3500 Y44.0479
G01 X120.9108 Y43.8790
G01 X120.4621 Y43.7374
G01 X120.0056 Y43.6236
G01 X119.5429 Y43.5381
G01 X119.0758 Y43.4811
G01 X118.6062 Y43.4530
G01 X118.1869 Y43.4244
G01 X117.7667 Y43.4173
G01 X117.3467 Y43.4318
G01 X116.9280 Y43.4678
G01 X116.5118 Y43.5253
G01 X116.0990 Y43.6041
G01 X115.6908 Y43.7040
G01 X115.2882 Y43.8247
G01 X114.8924 Y43.9659
G01 X114.5044 Y44.1272
G01 X114.1251 Y44.3083
G01 X113.7557 Y44.5085
G01 X113.3970 Y44.7275
G01 X113.0501 Y44.9646
G01 X112.7158 Y45.2193
G01 X112.3949 Y45.4907
G01 X112.0981 Y45.7767
G01 X111.8168 Y46.0780
G01 X111.5517 Y46.3937
G01 X111.3036 Y46.7229
G01 X111.0731 Y47.0646
G01 X110.8610 Y47.4181
G01 X110.6678 Y47.7822
G01 X110.4940 Y48.1560
G01 X110.7691 Y48.2756
M107
G00 Z0.0000
G00 Z2.0000


;No. 12: Hole 20
G00 X129.7794 Y48.5653 Z2.0000
G00 Z0.5000
G01 Z0.0000 F400
G01 Z-1.2000
M106 S240
G01 X130.5452 F1000
G01 Y47.0653
G01 X129.7794
G01 Y45.5653
G01 X130.7121
G01 X129.7794 Y50.0653
G01 X130.5452
G01 Y51.5653
G01 X129.7794
G01 Y53.0653
G01 X130.5452
G01 Y54.5653
G01 X129.7794
G01 Y56.0653
G01 X130.5452
G01 Y57.5653
G01 X129.7794
G01 X129.5194 Y57.5459
G01 Y59.0965
G01 X130.8052
G01 Y46.2665
G01 X130.8092 Y46.1645
G01 X130.8212 Y46.0632
G01 X130.8411 Y45.9630
G01 X130.8688 Y45.8648
G01 X130.9041 Y45.7690
G01 X130.9468 Y45.6763
G01 X130.9967 Y45.5873
G01 X131.0534 Y45.5024
G01 X131.1166 Y45.4222
G01 X131.1859 Y45.3473
G01 X131.2609 Y45.2780
G01 X131.3410 Y45.2148
G01 X131.4259 Y45.1581
G01 X131.5150 Y45.1082
G01 X131.6077 Y45.0655
G01 X131.7034 Y45.0301
G01 X131.8017 Y45.0024
G01 X131.9018 Y44.9825
G01 X132.0032 Y44.9705
G01 X132.1052 Y44.9665
G01 X139.6112
G01 Y44.0340
G01 X129.5194
G01 Y57.5459
G01 X129.7794 Y57.5653
M107
G00 Z2.0000


;No. 13: Hole 20
G00 X129.5194 Y44.0340 Z2.0000
G00 Z0.5000
G01 Z-1.2000 F400
M106 S240
G01 X129.2194 Y43.7340 F1000
G01 Y59.3965
G01 X131.1052
G01 Y46.2665
G01 X131.1082 Y46.1881
G01 X131.1175 Y46.1101
G01 X131.1328 Y46.0331
G01 X131.1541 Y45.9575
G01 X131.1813 Y45.8838
G01 X131.2141 Y45.8125
G01 X131.2525 Y45.7440
G01 X131.2961 Y45.6787
G01 X131.3447 Y45.6171
G01 X131.3980 Y45.5594
G01 X131.4557 Y45.5061
G01 X131.5174 Y45.4575
G01 X131.5827 Y45.4139
G01 X131.6512 Y45.3755
G01 X131.7225 Y45.3426
G01 X131.7961 Y45.3155
G01 X131.8717 Y45.2942
G01 X131.9487 Y45.2788
G01 X132.0267 Y45.2696
G01 X132.1052 Y45.2665
G01 X139.9112
G01 Y43.7340
G01 X129.2194
G01 X129.5194 Y44.0340
M107
G00 Z0.0000
G00 Z2.0000


;No. 14: Hole 19
G00 X145.4016 Y45.5653 Z2.0000
G00 Z0.5000
G01 Z0.0000 F400
G01 Z-1.2000
M106 S240
G01 X146.2738 F1000
G01 X146.1421 Y47.0653
G01 X145.4016
G01 Y48.5653
G01 X146.1421
G01 X146.1517 Y50.0653
G01 X145.4016
G01 Y51.5653
G01 X154.4687
G01 X146.1700
G01 Y53.0653
G01 X145.4016
G01 Y54.5653
G01 X146.1421
G01 Y56.0653
G01 X145.4016
G01 Y57.5653
G01 X146.2738
G01 X146.5220 Y57.4825
G01 X146.4942 Y57.4183
G01 X146.4699 Y57.3526
G01 X146.4493 Y57.2856
G01 X146.4323 Y57.2177
G01 X146.4191 Y57.1489
G01 X146.4096 Y57.0795
G01 X146.4040 Y57.0097
G01 X146.4021 Y56.9397
G01 Y53.3567
G01 X146.4061 Y53.2547
G01 X146.4181 Y53.1534
G01 X146.4380 Y53.0533
G01 X146.4658 Y52.9550
G01 X146.5011 Y52.8593
G01 X146.5438 Y52.7666
G01 X146.5937 Y52.6775
G01 X146.6504 Y52.5926
G01 X146.7136 Y52.5125
G01 X146.7829 Y52.4375
G01 X146.8578 Y52.3682
G01 X146.9380 Y52.3050
G01 X147.0229 Y52.2483
G01 X147.1119 Y52.1984
G01 X147.2046 Y52.1557
G01 X147.3004 Y52.1204
G01 X147.3987 Y52.0927
G01 X147.4988 Y52.0727
G01 X147.6001 Y52.0607
G01 X147.7021 Y52.0567
G01 X154.7287
G01 Y51.1999
G01 X147.7021
G01 X147.6001 Y51.1959
G01 X147.4988 Y51.1839
G01 X147.3987 Y51.1640
G01 X147.3004 Y51.1363
G01 X147.2046 Y51.1010
G01 X147.1119 Y51.0582
G01 X147.0229 Y51.0084
G01 X146.9380 Y50.9517
G01 X146.8578 Y50.8885
G01 X146.7829 Y50.8192
G01 X146.7136 Y50.7442
G01 X146.6504 Y50.6641
G01 X146.5937 Y50.5792
G01 X146.5438 Y50.4901
G01 X146.5011 Y50.3974
G01 X146.4658 Y50.3017
G01 X146.4380 Y50.2034
G01 X146.4181 Y50.1033
G01 X146.4061 Y50.0019
G01 X146.4021 Y49.8999
G01 Y46.1908
G01 X146.4061 Y46.0888
G01 X146.4181 Y45.9875
G01 X146.4380 Y45.8873
G01 X146.4658 Y45.7891
G01 X146.5011 Y45.6933
G01 X146.5438 Y45.6006
G01 X146.5937 Y45.5116
G01 X146.6504 Y45.4267
G01 X146.7136 Y45.3465
G01 X146.7829 Y45.2716
G01 X146.8578 Y45.2023
G01 X146.9380 Y45.1391
G01 X147.0229 Y45.0824
G01 X147.1119 Y45.0325
G01 X147.2046 Y44.9898
G01 X147.3004 Y44.9544
G01 X147.3987 Y44.9267
G01 X147.4988 Y44.9068
G01 X147.6001 Y44.8948
G01 X147.7021 Y44.8908
G01 X155.9903
G01 Y44.0340
G01 X145.1416
G01 Y59.0965
G01 X155.8642
G01 Y58.2397
G01 X147.7021
G01 X147.6096 Y58.2365
G01 X147.5176 Y58.2267
G01 X147.4265 Y58.2103
G01 X147.3367 Y58.1875
G01 X147.2489 Y58.1583
G01 X147.1633 Y58.1230
G01 X147.0805 Y58.0816
G01 X147.0009 Y58.0344
G01 X146.9248 Y57.9817
G01 X146.8527 Y57.9236
G01 X146.7849 Y57.8606
G01 X146.7218 Y57.7929
G01 X146.6636 Y57.7209
G01 X146.6108 Y57.6449
G01 X146.5635 Y57.5653
G01 X146.5220 Y57.4825
G01 X146.2738 Y57.5653
M107
G00 Z2.0000


;No. 15: Hole 19
G00 X145.1416 Y44.0340 Z2.0000
G00 Z0.5000
G01 Z-1.2000 F400
M106 S240
G01 X144.8416 Y43.7340 F1000
G01 Y59.3965
G01 X156.1642
G01 Y57.9397
G01 X147.7021
G01 X147.6585 Y57.9387
G01 X147.6150 Y57.9359
G01 X147.5716 Y57.9311
G01 X147.5285 Y57.9245
G01 X147.4857 Y57.9160
G01 X147.4433 Y57.9056
G01 X147.4014 Y57.8934
G01 X147.3601 Y57.8794
G01 X147.3194 Y57.8636
G01 X147.2795 Y57.8460
G01 X147.2404 Y57.8267
G01 X147.2021 Y57.8057
G01 X147.1648 Y57.7831
G01 X147.1286 Y57.7589
G01 X147.0934 Y57.7331
G01 X147.0593 Y57.7057
G01 X147.0265 Y57.6770
G01 X146.9950 Y57.6468
G01 X146.9649 Y57.6153
G01 X146.9361 Y57.5825
G01 X146.9088 Y57.5485
G01 X146.8830 Y57.5133
G01 X146.8587 Y57.4770
G01 X146.8361 Y57.4397
G01 X146.8151 Y57.4014
G01 X146.7958 Y57.3623
G01 X146.7783 Y57.3224
G01 X146.7624 Y57.2817
G01 X146.7484 Y57.2404
G01 X146.7362 Y57.1985
G01 X146.7258 Y57.1561
G01 X146.7173 Y57.1133
G01 X146.7107 Y57.0702
G01 X146.7059 Y57.0269
G01 X146.7031 Y56.9833
G01 X146.7021 Y56.9397
G01 Y53.3567
G01 X146.7031 Y53.3131
G01 X146.7059 Y53.2696
G01 X146.7107 Y53.2262
G01 X146.7173 Y53.1831
G01 X146.7258 Y53.1403
G01 X146.7362 Y53.0979
G01 X146.7484 Y53.0560
G01 X146.7624 Y53.0147
G01 X146.7783 Y52.9741
G01 X146.7958 Y52.9341
G01 X146.8151 Y52.8950
G01 X146.8361 Y52.8567
G01 X146.8587 Y52.8194
G01 X146.8830 Y52.7832
G01 X146.9088 Y52.7480
G01 X146.9361 Y52.7140
G01 X146.9649 Y52.6811
G01 X146.9950 Y52.6496
G01 X147.0265 Y52.6195
G01 X147.0593 Y52.5907
G01 X147.0934 Y52.5634
G01 X147.1286 Y52.5376
G01 X147.1648 Y52.5133
G01 X147.2021 Y52.4907
G01 X147.2404 Y52.4697
G01 X147.2795 Y52.4504
G01 X147.3194 Y52.4329
G01 X147.3601 Y52.4170
G01 X147.4014 Y52.4030
G01 X147.4433 Y52.3908
G01 X147.4857 Y52.3804
G01 X147.5285 Y52.3719
G01 X147.5716 Y52.3653
G01 X147.6150 Y52.3605
G01 X147.6585 Y52.3577
G01 X147.7021 Y52.3567
G01 X155.0287
G01 Y50.8999
G01 X147.7021
G01 X147.6585 Y50.8990
G01 X147.6150 Y50.8961
G01 X147.5716 Y50.8914
G01 X147.5285 Y50.8847
G01 X147.4857 Y50.8762
G01 X147.4433 Y50.8659
G01 X147.4014 Y50.8537
G01 X147.3601 Y50.8396
G01 X147.3194 Y50.8238
G01 X147.2795 Y50.8062
G01 X147.2404 Y50.7870
G01 X147.2021 Y50.7660
G01 X147.1648 Y50.7433
G01 X147.1286 Y50.7191
G01 X147.0934 Y50.6933
G01 X147.0593 Y50.6660
G01 X147.0265 Y50.6372
G01 X146.9950 Y50.6070
G01 X146.9649 Y50.5755
G01 X146.9361 Y50.5427
G01 X146.9088 Y50.5087
G01 X146.8830 Y50.4735
G01 X146.8587 Y50.4372
G01 X146.8361 Y50.3999
G01 X146.8151 Y50.3617
G01 X146.7958 Y50.3226
G01 X146.7783 Y50.2826
G01 X146.7624 Y50.2420
G01 X146.7484 Y50.2006
G01 X146.7362 Y50.1588
G01 X146.7258 Y50.1164
G01 X146.7173 Y50.0736
G01 X146.7107 Y50.0305
G01 X146.7059 Y49.9871
G01 X146.7031 Y49.9436
G01 X146.7021 Y49.8999
G01 Y46.1908
G01 X146.7052 Y46.1124
G01 X146.7144 Y46.0344
G01 X146.7298 Y45.9574
G01 X146.7511 Y45.8818
G01 X146.7783 Y45.8081
G01 X146.8111 Y45.7368
G01 X146.8495 Y45.6683
G01 X146.8931 Y45.6030
G01 X146.9417 Y45.5414
G01 X146.9950 Y45.4837
G01 X147.0527 Y45.4304
G01 X147.1143 Y45.3818
G01 X147.1796 Y45.3382
G01 X147.2481 Y45.2998
G01 X147.3194 Y45.2669
G01 X147.3931 Y45.2398
G01 X147.4687 Y45.2185
G01 X147.5457 Y45.2031
G01 X147.6237 Y45.1939
G01 X147.7021 Y45.1908
G01 X156.2903
G01 Y43.7340
G01 X144.8416
G01 X145.1416 Y44.0340
M107
G00 Z0.0000
G00 Z2.0000


;No. 16: Hole 18
G00 X163.1920 Y44.8153 Z2.0000
G00 Z0.5000
G01 Z0.0000 F400
G01 Z-1.2000
M106 S240
G01 X164.3258 F1000
M107
G00 Z2.0000
G00 X169.4034
G00 Z0.5000
G01 Z0.0000 F400
G01 Z-1.2000
M106 S240
G01 X170.2875 F1000
G01 X170.9371 Y46.3153
G01 X171.6361
G01 X171.9504 Y47.8153
G01 X171.2070
G01 X170.7063 Y49.3153
G01 X171.7371
G01 X168.4103 Y50.8153
G01 X170.2397
G01 X165.6605 Y52.3153
G01 X163.6501
G01 X162.0368 Y53.8153
G01 X163.1096
G01 X162.5540 Y55.3153
G01 X161.8005
G01 X162.0981 Y56.8153
G01 X162.7756
G01 X163.4187 Y58.3153
G01 X164.2282
M107
G00 Z2.0000
G00 X168.9150
G00 Z0.5000
G01 Z0.0000 F400
G01 Z-1.2000
M106 S240
G01 X170.1752 F1000
G01 X170.2815 Y58.5526
G01 X170.5107 Y58.4448
G01 X170.7367 Y58.3304
G01 X170.9592 Y58.2093
G01 X171.1780 Y58.0818
G01 X170.6290 Y57.2802
G01 X170.5131 Y57.2945
G01 X170.0363 Y57.5620
G01 X169.5432 Y57.7983
G01 X169.0361 Y58.0025
G01 X168.5169 Y58.1738
G01 X167.9877 Y58.3114
G01 X167.4509 Y58.4149
G01 X166.9085 Y58.4836
G01 X166.3628 Y58.5175
G01 X166.0208 Y58.5157
G01 X165.6802 Y58.4853
G01 X165.3434 Y58.4267
G01 X165.0125 Y58.3401
G01 X164.6901 Y58.2263
G01 X164.3783 Y58.0860
G01 X164.0792 Y57.9202
G01 X163.7951 Y57.7300
G01 X163.6831 Y57.6348
G01 X163.5765 Y57.5337
G01 X163.4755 Y57.4269
G01 X163.3805 Y57.3148
G01 X163.2918 Y57.1977
G01 X163.2096 Y57.0759
G01 X163.1341 Y56.9498
G01 X163.0657 Y56.8198
G01 X163.0044 Y56.6862
G01 X162.9504 Y56.5495
G01 X162.9041 Y56.4101
G01 X162.8653 Y56.2684
G01 X162.8344 Y56.1247
G01 X162.8113 Y55.9796
G01 X162.7962 Y55.8334
G01 X162.7890 Y55.6867
G01 X162.7899 Y55.5397
G01 X162.7988 Y55.3931
G01 X162.8156 Y55.2471
G01 X162.8404 Y55.1022
G01 X162.8649 Y54.9748
G01 X162.8955 Y54.8487
G01 X162.9322 Y54.7243
G01 X162.9749 Y54.6018
G01 X163.0235 Y54.4815
G01 X163.0780 Y54.3637
G01 X163.1381 Y54.2488
G01 X163.2037 Y54.1368
G01 X163.2746 Y54.0282
G01 X163.3508 Y53.9232
G01 X163.4320 Y53.8220
G01 X163.5180 Y53.7248
G01 X163.6086 Y53.6320
G01 X163.7037 Y53.5437
G01 X163.8029 Y53.4601
G01 X163.9060 Y53.3814
G01 X164.0129 Y53.3079
G01 X164.1232 Y53.2396
G01 X164.2368 Y53.1768
G01 X164.3532 Y53.1195
G01 X164.9957 Y52.8405
G01 X165.6514 Y52.5941
G01 X166.3187 Y52.3810
G01 X166.9959 Y52.2016
G01 X167.4386 Y52.0996
G01 X167.8779 Y51.9840
G01 X168.3135 Y51.8550
G01 X168.7449 Y51.7127
G01 X169.1718 Y51.5571
G01 X169.5936 Y51.3885
G01 X170.0101 Y51.2070
G01 X170.4208 Y51.0128
G01 X170.6673 Y50.8829
G01 X170.9015 Y50.7320
G01 X171.1218 Y50.5613
G01 X171.3263 Y50.3721
G01 X171.5137 Y50.1658
G01 X171.6823 Y49.9441
G01 X171.8311 Y49.7084
G01 X171.9587 Y49.4608
G01 X172.0574 Y49.1395
G01 X172.1326 Y48.8119
G01 X172.1839 Y48.4798
G01 X172.2113 Y48.1448
G01 X172.2144 Y47.8088
G01 X172.1932 Y47.4734
G01 X172.1480 Y47.1404
G01 X172.0788 Y46.8115
G01 X171.9938 Y46.5251
G01 X171.8858 Y46.2467
G01 X171.7554 Y45.9780
G01 X171.6035 Y45.7208
G01 X171.4312 Y45.4768
G01 X171.2395 Y45.2478
G01 X171.0298 Y45.0351
G01 X170.8034 Y44.8402
G01 X170.5619 Y44.6645
G01 X170.3069 Y44.5090
G01 X170.0400 Y44.3748
G01 X169.7631 Y44.2629
G01 X169.2745 Y44.1028
G01 X168.7767 Y43.9736
G01 X168.2719 Y43.8759
G01 X167.7619 Y43.8099
G01 X167.2488 Y43.7759
G01 X166.7346 Y43.7742
G01 X166.2213 Y43.8046
G01 X165.7109 Y43.8672
G01 X165.1353 Y43.9580
G01 X164.5660 Y44.0825
G01 X164.0050 Y44.2401
G01 X163.4542 Y44.4303
G01 X162.9154 Y44.6526
G01 X162.3907 Y44.9060
G01 X161.8817 Y45.1898
G01 X161.3903 Y45.5029
G01 X162.0030 Y46.2365
G01 X162.0724 Y46.2507
G01 X162.4780 Y45.9756
G01 X162.8984 Y45.7240
G01 X163.3325 Y45.4966
G01 X163.7787 Y45.2941
G01 X164.2356 Y45.1171
G01 X164.7019 Y44.9664
G01 X165.1759 Y44.8422
G01 X165.6561 Y44.7451
G01 X166.1412 Y44.6752
G01 X166.6293 Y44.6330
G01 X167.1191 Y44.6185
G01 X167.6089 Y44.6316
G01 X167.9620 Y44.6580
G01 X168.3114 Y44.7156
G01 X168.6543 Y44.8038
G01 X168.9881 Y44.9220
G01 X169.3101 Y45.0693
G01 X169.6178 Y45.2445
G01 X169.9087 Y45.4463
G01 X170.1807 Y45.6730
G01 X170.2827 Y45.7880
G01 X170.3785 Y45.9082
G01 X170.4676 Y46.0334
G01 X170.5500 Y46.1632
G01 X170.6253 Y46.2972
G01 X170.6933 Y46.4350
G01 X170.7538 Y46.5763
G01 X170.8068 Y46.7206
G01 X170.8519 Y46.8675
G01 X170.8891 Y47.0166
G01 X170.9183 Y47.1675
G01 X170.9394 Y47.3198
G01 X170.9523 Y47.4729
G01 X170.9570 Y47.6265
G01 X170.9535 Y47.7802
G01 X170.9417 Y47.9335
G01 X170.9218 Y48.0859
G01 X170.8938 Y48.2370
G01 X170.8578 Y48.3864
G01 X170.8138 Y48.5337
G01 X170.7595 Y48.6698
G01 X170.6984 Y48.8030
G01 X170.6306 Y48.9329
G01 X170.5562 Y49.0592
G01 X170.4756 Y49.1815
G01 X170.3887 Y49.2996
G01 X170.2960 Y49.4131
G01 X170.1977 Y49.5217
G01 X170.0939 Y49.6252
G01 X169.9850 Y49.7233
G01 X169.8712 Y49.8157
G01 X169.7529 Y49.9021
G01 X169.6304 Y49.9825
G01 X169.5039 Y50.0565
G01 X169.3738 Y50.1239
G01 X169.2404 Y50.1846
G01 X168.8761 Y50.3404
G01 X168.5082 Y50.4874
G01 X168.1369 Y50.6255
G01 X167.7623 Y50.7547
G01 X167.3848 Y50.8748
G01 X167.0045 Y50.9859
G01 X166.6217 Y51.0879
G01 X166.2365 Y51.1806
G01 X165.8299 Y51.2771
G01 X165.4267 Y51.3866
G01 X165.0272 Y51.5091
G01 X164.6319 Y51.6444
G01 X164.2411 Y51.7923
G01 X163.8553 Y51.9528
G01 X163.4749 Y52.1256
G01 X163.1002 Y52.3106
G01 X162.9694 Y52.3818
G01 X162.8426 Y52.4598
G01 X162.7200 Y52.5445
G01 X162.6021 Y52.6355
G01 X162.4892 Y52.7326
G01 X162.3815 Y52.8355
G01 X162.2795 Y52.9440
G01 X162.1833 Y53.0577
G01 X162.0933 Y53.1764
G01 X162.0097 Y53.2996
G01 X161.9327 Y53.4272
G01 X161.8626 Y53.5585
G01 X161.7995 Y53.6935
G01 X161.7437 Y53.8315
G01 X161.6952 Y53.9724
G01 X161.6542 Y54.1156
G01 X161.6209 Y54.2607
G01 X161.5953 Y54.4075
G01 X161.5775 Y54.5553
G01 X161.5676 Y54.7039
G01 X161.5333 Y55.0462
G01 X161.5279 Y55.3902
G01 X161.5514 Y55.7334
G01 X161.6036 Y56.0735
G01 X161.6841 Y56.4079
G01 X161.7924 Y56.7344
G01 X161.9278 Y57.0507
G01 X162.0892 Y57.3545
G01 X162.2588 Y57.5880
G01 X162.4436 Y57.8096
G01 X162.6428 Y58.0184
G01 X162.8554 Y58.2136
G01 X163.0805 Y58.3941
G01 X163.3171 Y58.5593
G01 X163.5642 Y58.7084
G01 X163.8207 Y58.8406
G01 X164.0854 Y58.9555
G01 X164.3572 Y59.0526
G01 X164.6348 Y59.1313
G01 X164.9170 Y59.1914
G01 X165.3684 Y59.2626
G01 X165.8228 Y59.3112
G01 X166.2791 Y59.3370
G01 X166.7360 Y59.3400
G01 X167.1926 Y59.3201
G01 X167.6475 Y59.2774
G01 X168.0998 Y59.2120
G01 X168.5483 Y59.1242
G01 X168.9918 Y59.0140
G01 X169.4292 Y58.8817
G01 X169.8595 Y58.7278
G01 X170.2815 Y58.5526
G01 X170.1752 Y58.3153
M107
G00 Z2.0000


;No. 17: Hole 18
G00 X161.3903 Y45.5029 Z2.0000
G00 Z0.5000
G01 Z-1.2000 F400
M106 S240
G01 X160.9574 Y45.4414 F1000
G01 X161.9631 Y46.6569
G01 X162.0599 Y46.6107
G01 X162.1538 Y46.5587
G01 X162.2444 Y46.5012
G01 X162.3313 Y46.4382
G01 X162.7432 Y46.1648
G01 X163.1706 Y45.9165
G01 X163.6123 Y45.6944
G01 X164.0664 Y45.4992
G01 X164.5315 Y45.3316
G01 X165.0058 Y45.1922
G01 X165.4876 Y45.0816
G01 X165.9751 Y45.0001
G01 X166.4667 Y44.9480
G01 X166.9606 Y44.9256
G01 X167.4548 Y44.9328
G01 X167.9478 Y44.9697
G01 X168.2690 Y45.0131
G01 X168.5844 Y45.0881
G01 X168.8907 Y45.1941
G01 X169.1850 Y45.3299
G01 X169.4644 Y45.4942
G01 X169.7261 Y45.6855
G01 X169.9676 Y45.9017
G01 X170.1864 Y46.1409
G01 X170.2694 Y46.2670
G01 X170.3449 Y46.3977
G01 X170.4126 Y46.5327
G01 X170.4723 Y46.6715
G01 X170.5237 Y46.8135
G01 X170.5666 Y46.9583
G01 X170.6009 Y47.1053
G01 X170.6266 Y47.2541
G01 X170.6435 Y47.4042
G01 X170.6515 Y47.5550
G01 X170.6506 Y47.7060
G01 X170.6408 Y47.8567
G01 X170.6222 Y48.0066
G01 X170.5949 Y48.1551
G01 X170.5588 Y48.3018
G01 X170.5142 Y48.4460
G01 X170.4612 Y48.5874
G01 X170.3999 Y48.7255
G01 X170.3307 Y48.8597
G01 X170.2537 Y48.9896
G01 X170.1034 Y49.1650
G01 X169.9419 Y49.3303
G01 X169.7700 Y49.4845
G01 X169.5882 Y49.6271
G01 X169.3974 Y49.7574
G01 X169.1985 Y49.8748
G01 X168.9923 Y49.9789
G01 X168.7797 Y50.0693
G01 X167.9971 Y50.3526
G01 X167.2053 Y50.6091
G01 X166.4053 Y50.8387
G01 X165.5980 Y51.0409
G01 X165.2137 Y51.1386
G01 X164.8335 Y51.2511
G01 X164.4580 Y51.3783
G01 X164.0877 Y51.5200
G01 X163.7232 Y51.6760
G01 X163.3650 Y51.8461
G01 X163.0137 Y52.0299
G01 X162.6698 Y52.2272
G01 X162.4704 Y52.3679
G01 X162.2828 Y52.5240
G01 X162.1081 Y52.6944
G01 X161.9476 Y52.8781
G01 X161.8020 Y53.0740
G01 X161.6725 Y53.2808
G01 X161.5598 Y53.4973
G01 X161.4646 Y53.7219
G01 X161.3875 Y53.9534
G01 X161.3289 Y54.1903
G01 X161.2894 Y54.4311
G01 X161.2690 Y54.6743
G01 X161.2333 Y55.0411
G01 X161.2284 Y55.4096
G01 X161.2545 Y55.7773
G01 X161.3112 Y56.1414
G01 X161.3983 Y56.4996
G01 X161.5151 Y56.8491
G01 X161.6608 Y57.1877
G01 X161.8343 Y57.5128
G01 X162.0150 Y57.7628
G01 X162.2119 Y58.0003
G01 X162.4242 Y58.2241
G01 X162.6509 Y58.4333
G01 X162.8911 Y58.6270
G01 X163.1436 Y58.8042
G01 X163.4073 Y58.9642
G01 X163.6811 Y59.1064
G01 X163.9637 Y59.2299
G01 X164.2540 Y59.3344
G01 X164.5506 Y59.4193
G01 X164.8521 Y59.4843
G01 X165.2867 Y59.5552
G01 X165.7242 Y59.6056
G01 X166.1636 Y59.6352
G01 X166.6039 Y59.6440
G01 X167.0441 Y59.6320
G01 X167.4832 Y59.5993
G01 X167.9203 Y59.5459
G01 X168.3544 Y59.4719
G01 X168.7845 Y59.3774
G01 X169.2097 Y59.2628
G01 X169.6290 Y59.1282
G01 X170.0415 Y58.9740
G01 X170.4462 Y58.8005
G01 X170.8423 Y58.6080
G01 X171.2289 Y58.3971
G01 X171.6050 Y58.1682
G01 X170.7064 Y56.8639
G01 X170.6470 Y56.8704
G01 X170.1861 Y57.1460
G01 X169.7088 Y57.3924
G01 X169.2172 Y57.6087
G01 X168.7131 Y57.7939
G01 X168.1984 Y57.9475
G01 X167.6752 Y58.0687
G01 X167.1454 Y58.1572
G01 X166.6112 Y58.2126
G01 X166.2839 Y58.2250
G01 X165.9567 Y58.2111
G01 X165.6316 Y58.1710
G01 X165.3108 Y58.1051
G01 X164.9963 Y58.0136
G01 X164.6901 Y57.8972
G01 X164.3943 Y57.7566
G01 X164.1107 Y57.5928
G01 X163.9931 Y57.5038
G01 X163.8812 Y57.4079
G01 X163.7753 Y57.3054
G01 X163.6757 Y57.1967
G01 X163.5830 Y57.0821
G01 X163.4974 Y56.9621
G01 X163.4192 Y56.8371
G01 X163.3487 Y56.7077
G01 X163.2861 Y56.5742
G01 X163.2318 Y56.4372
G01 X163.1859 Y56.2971
G01 X163.1485 Y56.1545
G01 X163.1199 Y56.0099
G01 X163.1001 Y55.8638
G01 X163.0891 Y55.7168
G01 X163.0871 Y55.5694
G01 X163.0940 Y55.4222
G01 X163.1098 Y55.2756
G01 X163.1345 Y55.1303
G01 X163.1679 Y54.9867
G01 X163.2081 Y54.8502
G01 X163.2561 Y54.7162
G01 X163.3115 Y54.5851
G01 X163.3744 Y54.4574
G01 X163.4445 Y54.3336
G01 X163.5215 Y54.2139
G01 X163.6052 Y54.0988
G01 X163.6953 Y53.9886
G01 X163.7915 Y53.8838
G01 X163.8936 Y53.7846
G01 X164.0012 Y53.6914
G01 X164.1139 Y53.6045
G01 X164.2313 Y53.5241
G01 X164.3532 Y53.4506
G01 X164.4790 Y53.3842
G01 X164.6085 Y53.3250
G01 X165.3064 Y53.0427
G01 X166.0164 Y52.7921
G01 X166.7370 Y52.5738
G01 X167.4666 Y52.3882
G01 X167.9098 Y52.2838
G01 X168.3488 Y52.1630
G01 X168.7830 Y52.0257
G01 X169.2117 Y51.8723
G01 X169.6344 Y51.7030
G01 X170.0505 Y51.5180
G01 X170.4593 Y51.3175
G01 X170.8603 Y51.1019
G01 X171.1040 Y50.9504
G01 X171.3333 Y50.7780
G01 X171.5463 Y50.5858
G01 X171.7414 Y50.3755
G01 X171.9170 Y50.1487
G01 X172.0718 Y49.9071
G01 X172.2045 Y49.6528
G01 X172.3141 Y49.3877
G01 X172.3998 Y49.1139
G01 X172.4607 Y48.8335
G01 X172.4965 Y48.5489
G01 X172.5068 Y48.2622
G01 X172.5230 Y47.9893
G01 X172.5219 Y47.7159
G01 X172.5034 Y47.4431
G01 X172.4677 Y47.1720
G01 X172.4148 Y46.9038
G01 X172.3450 Y46.6394
G01 X172.2586 Y46.3800
G01 X172.1559 Y46.1267
G01 X172.0373 Y45.8803
G01 X171.9033 Y45.6420
G01 X171.7545 Y45.4126
G01 X171.5915 Y45.1932
G01 X171.2900 Y44.8911
G01 X170.9639 Y44.6158
G01 X170.6155 Y44.3693
G01 X170.2474 Y44.1534
G01 X169.8622 Y43.9698
G01 X169.4627 Y43.8196
G01 X169.0519 Y43.7041
G01 X168.6327 Y43.6240
G01 X168.1315 Y43.5542
G01 X167.6275 Y43.5092
G01 X167.1219 Y43.4892
G01 X166.6159 Y43.4943
G01 X166.1107 Y43.5243
G01 X165.6077 Y43.5793
G01 X165.1080 Y43.6591
G01 X164.6129 Y43.7634
G01 X164.1235 Y43.8922
G01 X163.6411 Y44.0449
G01 X163.1668 Y44.2214
G01 X162.7019 Y44.4210
G01 X162.2474 Y44.6434
G01 X161.8044 Y44.8880
G01 X161.3741 Y45.1542
G01 X160.9574 Y45.4414
G01 X161.3903 Y45.5029
M107
G00 Z0.0000
G00 Z2.0000


;No. 18: Helical drill 3
G00 X183.5560 Y39.3041 Z2.0000
G00 Z0.5000
M106 S240
G01 X183.5522 Y39.2170 Z0.4722 F400
G01 X183.5408 Y39.1305 Z0.4444
G01 X183.5219 Y39.0453 Z0.4167
G01 X183.4957 Y38.9621 Z0.3889
G01 X183.4623 Y38.8815 Z0.3611
G01 X183.4220 Y38.8041 Z0.3333
G01 X183.3751 Y38.7305 Z0.3056
G01 X183.3220 Y38.6613 Z0.2778
G01 X183.2631 Y38.5970 Z0.2500
G01 X183.1988 Y38.5381 Z0.2222
G01 X183.1295 Y38.4850 Z0.1944
G01 X183.0560 Y38.4381 Z0.1667
G01 X182.9786 Y38.3978 Z0.1389
G01 X182.8980 Y38.3644 Z0.1111
G01 X182.8148 Y38.3382 Z0.0833
G01 X182.7296 Y38.3193 Z0.0556
G01 X182.6431 Y38.3079 Z0.0278
G01 X182.5560 Y38.3041 Z0.0000
G01 X182.4688 Y38.3079 Z-0.0278
G01 X182.3823 Y38.3193 Z-0.0556
G01 X182.2972 Y38.3382 Z-0.0833
G01 X182.2140 Y38.3644 Z-0.1111
G01 X182.1334 Y38.3978 Z-0.1389
G01 X182.0560 Y38.4381 Z-0.1667
G01 X181.9824 Y38.4850 Z-0.1944
G01 X181.9132 Y38.5381 Z-0.2222
G01 X181.8489 Y38.5970 Z-0.2500
G01 X181.7899 Y38.6613 Z-0.2778
G01 X181.7368 Y38.7305 Z-0.3056
G01 X181.6899 Y38.8041 Z-0.3333
G01 X181.6497 Y38.8815 Z-0.3611
G01 X181.6163 Y38.9621 Z-0.3889
G01 X181.5900 Y39.0453 Z-0.4167
G01 X181.5712 Y39.1305 Z-0.4444
G01 X181.5598 Y39.2170 Z-0.4722
G01 X181.5560 Y39.3041 Z-0.5000
G01 X181.5598 Y39.3913 Z-0.5278
G01 X181.5712 Y39.4778 Z-0.5556
G01 X181.5900 Y39.5629 Z-0.5833
G01 X181.6163 Y39.6461 Z-0.6111
G01 X181.6497 Y39.7267 Z-0.6389
G01 X181.6899 Y39.8041 Z-0.6667
G01 X181.7368 Y39.8777 Z-0.6944
G01 X181.7899 Y39.9469 Z-0.7222
G01 X181.8489 Y40.0112 Z-0.7500
G01 X181.9132 Y40.0702 Z-0.7778
G01 X181.9824 Y40.1233 Z-0.8056
G01 X182.0560 Y40.1701 Z-0.8333
G01 X182.1334 Y40.2104 Z-0.8611
G01 X182.2140 Y40.2438 Z-0.8889
G01 X182.2972 Y40.2700 Z-0.9167
G01 X182.3823 Y40.2889 Z-0.9444
G01 X182.4688 Y40.3003 Z-0.9722
G01 X182.5560 Y40.3041 Z-1.0000
G01 X182.6431 Y40.3003 Z-1.0278
G01 X182.7296 Y40.2889 Z-1.0556
G01 X182.8148 Y40.2700 Z-1.0833
G01 X182.8980 Y40.2438 Z-1.1111
G01 X182.9786 Y40.2104 Z-1.1389
G01 X183.0560 Y40.1701 Z-1.1667
G01 X183.1295 Y40.1233 Z-1.1944
G01 X183.1988 Y40.0702 Z-1.2222
G01 X183.2631 Y40.0112 Z-1.2500
G01 X183.3220 Y39.9469 Z-1.2778
G01 X183.3751 Y39.8777 Z-1.3056
G01 X183.4220 Y39.8041 Z-1.3333
G01 X183.4623 Y39.7267 Z-1.3611
G01 X183.4957 Y39.6461 Z-1.3889
G01 X183.5219 Y39.5629 Z-1.4167
G01 X183.5408 Y39.4778 Z-1.4444
G01 X183.5522 Y39.3913 Z-1.4722
G01 X183.5560 Y39.3041 Z-1.5000
G01 X183.5522 Y39.2170
G01 X183.5408 Y39.1305
G01 X183.5219 Y39.0453
G01 X183.4957 Y38.9621
G01 X183.4623 Y38.8815
G01 X183.4220 Y38.8041
G01 X183.3751 Y38.7305
G01 X183.3220 Y38.6613
G01 X183.2631 Y38.5970
G01 X183.1988 Y38.5381
G01 X183.1295 Y38.4850
G01 X183.0560 Y38.4381
G01 X182.9786 Y38.3978
G01 X182.8980 Y38.3644
G01 X182.8148 Y38.3382
G01 X182.7296 Y38.3193
G01 X182.6431 Y38.3079
G01 X182.5560 Y38.3041
G01 X182.4688 Y38.3079
G01 X182.3823 Y38.3193
G01 X182.2972 Y38.3382
G01 X182.2140 Y38.3644
G01 X182.1334 Y38.3978
G01 X182.0560 Y38.4381
G01 X181.9824 Y38.4850
G01 X181.9132 Y38.5381
G01 X181.8489 Y38.5970
G01 X181.7899 Y38.6613
G01 X181.7368 Y38.7305
G01 X181.6899 Y38.8041
G01 X181.6497 Y38.8815
G01 X181.6163 Y38.9621
G01 X181.5900 Y39.0453
G01 X181.5712 Y39.1305
G01 X181.5598 Y39.2170
G01 X181.5560 Y39.3041
G01 X181.5598 Y39.3913
G01 X181.5712 Y39.4778
G01 X181.5900 Y39.5629
G01 X181.6163 Y39.6461
G01 X181.6497 Y39.7267
G01 X181.6899 Y39.8041
G01 X181.7368 Y39.8777
G01 X181.7899 Y39.9469
G01 X181.8489 Y40.0112
G01 X181.9132 Y40.0702
G01 X181.9824 Y40.1233
G01 X182.0560 Y40.1701
G01 X182.1334 Y40.2104
G01 X182.2140 Y40.2438
G01 X182.2972 Y40.2700
G01 X182.3823 Y40.2889
G01 X182.4688 Y40.3003
G01 X182.5560 Y40.3041
G01 X182.6431 Y40.3003
G01 X182.7296 Y40.2889
G01 X182.8148 Y40.2700
G01 X182.8980 Y40.2438
G01 X182.9786 Y40.2104
G01 X183.0560 Y40.1701
G01 X183.1295 Y40.1233
G01 X183.1988 Y40.0702
G01 X183.2631 Y40.0112
G01 X183.3220 Y39.9469
G01 X183.3751 Y39.8777
G01 X183.4220 Y39.8041
G01 X183.4623 Y39.7267
G01 X183.4957 Y39.6461
G01 X183.5219 Y39.5629
G01 X183.5408 Y39.4778
G01 X183.5522 Y39.3913
G01 X183.5560 Y39.3041
G01 X183.5667 Y39.2525 F1000
G01 X183.5748 Y39.2004
G01 X183.5802 Y39.1480
G01 X183.5829 Y39.0954
G01 X183.5828 Y39.0427
G01 X183.5801 Y38.9900
G01 X183.5746 Y38.9376
G01 X183.5665 Y38.8856
G01 X183.5547 Y38.8296
G01 X183.5402 Y38.7743
G01 X183.5228 Y38.7198
G01 X183.5027 Y38.6662
G01 X183.4798 Y38.6138
G01 X183.4543 Y38.5626
G01 X183.4263 Y38.5128
G01 X183.3957 Y38.4644
G01 X183.3601 Y38.4140
G01 X183.3219 Y38.3655
G01 X183.2814 Y38.3190
G01 X183.2385 Y38.2746
G01 X183.1935 Y38.2324
G01 X183.1463 Y38.1926
G01 X183.0972 Y38.1552
G01 X183.0463 Y38.1204
G01 X182.9891 Y38.0895
G01 X182.9304 Y38.0614
G01 X182.8705 Y38.0363
G01 X182.8093 Y38.0143
G01 X182.7471 Y37.9953
G01 X182.6841 Y37.9794
G01 X182.6203 Y37.9667
G01 X182.5560 Y37.9572
G01 X182.4899 Y37.9588
G01 X182.4239 Y37.9637
G01 X182.3583 Y37.9718
G01 X182.2932 Y37.9831
G01 X182.2287 Y37.9975
G01 X182.1650 Y38.0152
G01 X182.1022 Y38.0359
G01 X182.0405 Y38.0597
G01 X181.9801 Y38.0865
G01 X181.9210 Y38.1162
G01 X181.8635 Y38.1488
G01 X181.8077 Y38.1842
G01 X181.7536 Y38.2222
G01 X181.7015 Y38.2629
G01 X181.6514 Y38.3061
G01 X181.6035 Y38.3517
G01 X181.5580 Y38.3996
G01 X181.5148 Y38.4496
G01 X181.4741 Y38.5017
G01 X181.4360 Y38.5558
G01 X181.4007 Y38.6116
G01 X181.3681 Y38.6692
G01 X181.3384 Y38.7282
G01 X181.3116 Y38.7887
G01 X181.2878 Y38.8503
G01 X181.2670 Y38.9131
G01 X181.2494 Y38.9768
G01 X181.2349 Y39.0413
G01 X181.2236 Y39.1065
G01 X181.2155 Y39.1721
G01 X181.2107 Y39.2380
G01 X181.2090 Y39.3041
G01 X181.2107 Y39.3702
G01 X181.2155 Y39.4361
G01 X181.2236 Y39.5018
G01 X181.2349 Y39.5669
G01 X181.2494 Y39.6314
G01 X181.2670 Y39.6951
G01 X181.2878 Y39.7579
G01 X181.3116 Y39.8196
G01 X181.3384 Y39.8800
G01 X181.3681 Y39.9391
G01 X181.4007 Y39.9966
G01 X181.4360 Y40.0524
G01 X181.4741 Y40.1065
G01 X181.5148 Y40.1586
G01 X181.5580 Y40.2087
G01 X181.6035 Y40.2565
G01 X181.6514 Y40.3021
G01 X181.7015 Y40.3453
G01 X181.7536 Y40.3860
G01 X181.8077 Y40.4241
G01 X181.8635 Y40.4594
G01 X181.9210 Y40.4920
G01 X181.9801 Y40.5217
G01 X182.0405 Y40.5485
G01 X182.1022 Y40.5723
G01 X182.1650 Y40.5931
G01 X182.2287 Y40.6107
G01 X182.2932 Y40.6252
G01 X182.3583 Y40.6365
G01 X182.4239 Y40.6446
G01 X182.4899 Y40.6494
G01 X182.5560 Y40.6511
G01 X182.6221 Y40.6494
G01 X182.6880 Y40.6446
G01 X182.7536 Y40.6365
G01 X182.8187 Y40.6252
G01 X182.8833 Y40.6107
G01 X182.9470 Y40.5931
G01 X183.0097 Y40.5723
G01 X183.0714 Y40.5485
G01 X183.1319 Y40.5217
G01 X183.1909 Y40.4920
G01 X183.2484 Y40.4594
G01 X183.3043 Y40.4241
G01 X183.3583 Y40.3860
G01 X183.4105 Y40.3453
G01 X183.4605 Y40.3021
G01 X183.5084 Y40.2565
G01 X183.5540 Y40.2087
G01 X183.5972 Y40.1586
G01 X183.6378 Y40.1065
G01 X183.6759 Y40.0524
G01 X183.7113 Y39.9966
G01 X183.7439 Y39.9391
G01 X183.7736 Y39.8800
G01 X183.8004 Y39.8196
G01 X183.8242 Y39.7579
G01 X183.8449 Y39.6951
G01 X183.8625 Y39.6314
G01 X183.8770 Y39.5669
G01 X183.8883 Y39.5018
G01 X183.8964 Y39.4361
G01 X183.9013 Y39.3702
G01 X183.9029 Y39.3041
G01 X183.8991 Y39.2035
G01 X183.8879 Y39.1034
G01 X183.8691 Y39.0044
G01 X183.8431 Y38.9071
G01 X183.8098 Y38.8120
G01 X183.7695 Y38.7197
G01 X183.7225 Y38.6306
G01 X183.6689 Y38.5454
G01 X183.6091 Y38.4643
G01 X183.5433 Y38.3880
G01 X183.4721 Y38.3167
G01 X183.3958 Y38.2510
G01 X183.3147 Y38.1912
G01 X183.2294 Y38.1376
G01 X183.1404 Y38.0906
G01 X183.0481 Y38.0503
G01 X182.9530 Y38.0170
G01 X182.8557 Y37.9909
G01 X182.7567 Y37.9722
G01 X182.6566 Y37.9609
G01 X182.5560 Y37.9572
G01 X182.4553 Y37.9609
G01 X182.3552 Y37.9722
G01 X182.2562 Y37.9909
G01 X182.1590 Y38.0170
G01 X182.0639 Y38.0503
G01 X181.9716 Y38.0906
G01 X181.8825 Y38.1376
G01 X181.7972 Y38.1912
G01 X181.7162 Y38.2510
G01 X181.6398 Y38.3167
G01 X181.5686 Y38.3880
G01 X181.5029 Y38.4643
G01 X181.4431 Y38.5454
G01 X181.3895 Y38.6306
G01 X181.3424 Y38.7197
G01 X181.3021 Y38.8120
G01 X181.2689 Y38.9071
G01 X181.2428 Y39.0044
G01 X181.2241 Y39.1034
G01 X181.2128 Y39.2035
G01 X181.2090 Y39.3041
G01 X181.2128 Y39.4048
G01 X181.2241 Y39.5049
G01 X181.2428 Y39.6038
G01 X181.2689 Y39.7011
G01 X181.3021 Y39.7962
G01 X181.3424 Y39.8885
G01 X181.3895 Y39.9776
G01 X181.4431 Y40.0629
G01 X181.5029 Y40.1439
G01 X181.5686 Y40.2203
G01 X181.6398 Y40.2915
G01 X181.7162 Y40.3572
G01 X181.7972 Y40.4170
G01 X181.8825 Y40.4706
G01 X181.9716 Y40.5177
G01 X182.0639 Y40.5579
G01 X182.1590 Y40.5912
G01 X182.2562 Y40.6173
G01 X182.3552 Y40.6360
G01 X182.4553 Y40.6473
G01 X182.5560 Y40.6511
G01 X182.6566 Y40.6473
G01 X182.7567 Y40.6360
G01 X182.8557 Y40.6173
G01 X182.9530 Y40.5912
G01 X183.0481 Y40.5579
G01 X183.1404 Y40.5177
G01 X183.2294 Y40.4706
G01 X183.3147 Y40.4170
G01 X183.3958 Y40.3572
G01 X183.4721 Y40.2915
G01 X183.5433 Y40.2203
G01 X183.6091 Y40.1439
G01 X183.6689 Y40.0629
G01 X183.7225 Y39.9776
G01 X183.7695 Y39.8885
G01 X183.8098 Y39.7962
G01 X183.8431 Y39.7011
G01 X183.8691 Y39.6038
G01 X183.8879 Y39.5049
G01 X183.8991 Y39.4048
G01 X183.9029 Y39.3041
G01 X183.8984 Y39.2018
G01 X183.8851 Y39.1003
G01 X183.8629 Y39.0004
G01 X183.8321 Y38.9028
G01 X183.7930 Y38.8082
G01 X183.7457 Y38.7174
G01 X183.6907 Y38.6310
G01 X183.6284 Y38.5498
G01 X183.5592 Y38.4743
G01 X183.4837 Y38.4052
G01 X183.4025 Y38.3429
G01 X183.3162 Y38.2879
G01 X183.2254 Y38.2406
G01 X183.1308 Y38.2014
G01 X183.0332 Y38.1706
G01 X182.9332 Y38.1485
G01 X182.8317 Y38.1351
G01 X182.7294 Y38.1306
G01 X182.6272 Y38.1351
G01 X182.5257 Y38.1485
G01 X182.4257 Y38.1706
G01 X182.3281 Y38.2014
G01 X182.2335 Y38.2406
G01 X182.1427 Y38.2879
G01 X182.0564 Y38.3429
G01 X181.9751 Y38.4052
G01 X181.8997 Y38.4743
G01 X181.8305 Y38.5498
G01 X181.7682 Y38.6310
G01 X181.7132 Y38.7174
G01 X181.6659 Y38.8082
G01 X181.6267 Y38.9028
G01 X181.5960 Y39.0004
G01 X181.5738 Y39.1003
G01 X181.5604 Y39.2018
G01 X181.5560 Y39.3041
G01 X181.5570 Y39.3503
G01 X181.5602 Y39.3964
G01 X181.5656 Y39.4423
G01 X181.5730 Y39.4879
G01 X181.5825 Y39.5331
G01 X181.5941 Y39.5778
G01 X181.6078 Y39.6219
G01 X181.6235 Y39.6654
G01 X181.6412 Y39.7080
G01 X181.6608 Y39.7499
G01 X181.6823 Y39.7907
G01 X181.7058 Y39.8305
G01 X181.7310 Y39.8693
G01 X181.7580 Y39.9068
G01 X181.7866 Y39.9430
G01 X181.8170 Y39.9778
G01 X181.8489 Y40.0112
G01 X181.8823 Y40.0431
G01 X181.9171 Y40.0734
G01 X181.9533 Y40.1021
G01 X181.9908 Y40.1291
G01 X182.0295 Y40.1543
G01 X182.0694 Y40.1777
G01 X182.1102 Y40.1993
G01 X182.1520 Y40.2189
G01 X182.1947 Y40.2366
G01 X182.2382 Y40.2523
G01 X182.2823 Y40.2659
G01 X182.3270 Y40.2776
G01 X182.3722 Y40.2871
G01 X182.4178 Y40.2945
G01 X182.4637 Y40.2998
G01 X182.5098 Y40.3030
G01 X182.5560 Y40.3041
G01 X182.6022 Y40.3030
G01 X182.6482 Y40.2998
G01 X182.6941 Y40.2945
G01 X182.7397 Y40.2871
G01 X182.7849 Y40.2776
G01 X182.8296 Y40.2659
G01 X182.8738 Y40.2523
G01 X182.9172 Y40.2366
G01 X182.9599 Y40.2189
G01 X183.0017 Y40.1993
G01 X183.0426 Y40.1777
G01 X183.0824 Y40.1543
G01 X183.1211 Y40.1291
G01 X183.1586 Y40.1021
G01 X183.1948 Y40.0734
G01 X183.2297 Y40.0431
G01 X183.2631 Y40.0112
G01 X183.2950 Y39.9778
G01 X183.3253 Y39.9430
G01 X183.3540 Y39.9068
G01 X183.3810 Y39.8693
G01 X183.4062 Y39.8305
G01 X183.4296 Y39.7907
G01 X183.4511 Y39.7499
G01 X183.4708 Y39.7080
G01 X183.4884 Y39.6654
G01 X183.5041 Y39.6219
G01 X183.5178 Y39.5778
G01 X183.5294 Y39.5331
G01 X183.5389 Y39.4879
G01 X183.5464 Y39.4423
G01 X183.5517 Y39.3964
G01 X183.5549 Y39.3503
G01 X183.5560 Y39.3041
M107
M106 S240
G01 X183.5522 Y39.2170 Z-1.5278 F400
G01 X183.5408 Y39.1305 Z-1.5556
G01 X183.5219 Y39.0453 Z-1.5833
G01 X183.4957 Y38.9621 Z-1.6111
G01 X183.4623 Y38.8815 Z-1.6389
G01 X183.4220 Y38.8041 Z-1.6667
G01 X183.3751 Y38.7305 Z-1.6944
G01 X183.3220 Y38.6613 Z-1.7222
G01 X183.2631 Y38.5970 Z-1.7500
G01 X183.1988 Y38.5381 Z-1.7778
G01 X183.1295 Y38.4850 Z-1.8056
G01 X183.0560 Y38.4381 Z-1.8333
G01 X182.9786 Y38.3978 Z-1.8611
G01 X182.8980 Y38.3644 Z-1.8889
G01 X182.8148 Y38.3382 Z-1.9167
G01 X182.7296 Y38.3193 Z-1.9444
G01 X182.6431 Y38.3079 Z-1.9722
G01 X182.5560 Y38.3041 Z-2.0000
G01 X182.4688 Y38.3079 Z-2.0278
G01 X182.3823 Y38.3193 Z-2.0556
G01 X182.2972 Y38.3382 Z-2.0833
G01 X182.2140 Y38.3644 Z-2.1111
G01 X182.1334 Y38.3978 Z-2.1389
G01 X182.0560 Y38.4381 Z-2.1667
G01 X181.9824 Y38.4850 Z-2.1944
G01 X181.9132 Y38.5381 Z-2.2222
G01 X181.8489 Y38.5970 Z-2.2500
G01 X181.7899 Y38.6613 Z-2.2778
G01 X181.7368 Y38.7305 Z-2.3056
G01 X181.6899 Y38.8041 Z-2.3333
G01 X181.6497 Y38.8815 Z-2.3611
G01 X181.6163 Y38.9621 Z-2.3889
G01 X181.5900 Y39.0453 Z-2.4167
G01 X181.5712 Y39.1305 Z-2.4444
G01 X181.5598 Y39.2170 Z-2.4722
G01 X181.5560 Y39.3041 Z-2.5000
G01 X181.5598 Y39.3913 Z-2.5278
G01 X181.5712 Y39.4778 Z-2.5556
G01 X181.5900 Y39.5629 Z-2.5833
G01 X181.6163 Y39.6461 Z-2.6111
G01 X181.6497 Y39.7267 Z-2.6389
G01 X181.6899 Y39.8041 Z-2.6667
G01 X181.7368 Y39.8777 Z-2.6944
G01 X181.7899 Y39.9469 Z-2.7222
G01 X181.8489 Y40.0112 Z-2.7500
G01 X181.9132 Y40.0702 Z-2.7778
G01 X181.9824 Y40.1233 Z-2.8056
G01 X182.0560 Y40.1701 Z-2.8333
G01 X182.1334 Y40.2104 Z-2.8611
G01 X182.2140 Y40.2438 Z-2.8889
G01 X182.2972 Y40.2700 Z-2.9167
G01 X182.3823 Y40.2889 Z-2.9444
G01 X182.4688 Y40.3003 Z-2.9722
G01 X182.5560 Y40.3041 Z-3.0000
G01 X182.6431 Y40.3003 Z-3.0278
G01 X182.7296 Y40.2889 Z-3.0556
G01 X182.8148 Y40.2700 Z-3.0833
G01 X182.8980 Y40.2438 Z-3.1111
G01 X182.9786 Y40.2104 Z-3.1389
G01 X183.0560 Y40.1701 Z-3.1667
G01 X183.1295 Y40.1233 Z-3.1944
G01 X183.1988 Y40.0702 Z-3.2222
G01 X183.2631 Y40.0112 Z-3.2500
G01 X183.3220 Y39.9469 Z-3.2778
G01 X183.3751 Y39.8777 Z-3.3056
G01 X183.4220 Y39.8041 Z-3.3333
G01 X183.4623 Y39.7267 Z-3.3611
G01 X183.4957 Y39.6461 Z-3.3889
G01 X183.5219 Y39.5629 Z-3.4167
G01 X183.5408 Y39.4778 Z-3.4444
G01 X183.5522 Y39.3913 Z-3.4722
G01 X183.5560 Y39.3041 Z-3.5000
G01 X183.5522 Y39.2170
G01 X183.5408 Y39.1305
G01 X183.5219 Y39.0453
G01 X183.4957 Y38.9621
G01 X183.4623 Y38.8815
G01 X183.4220 Y38.8041
G01 X183.3751 Y38.7305
G01 X183.3220 Y38.6613
G01 X183.2631 Y38.5970
G01 X183.1988 Y38.5381
G01 X183.1295 Y38.4850
G01 X183.0560 Y38.4381
G01 X182.9786 Y38.3978
G01 X182.8980 Y38.3644
G01 X182.8148 Y38.3382
G01 X182.7296 Y38.3193
G01 X182.6431 Y38.3079
G01 X182.5560 Y38.3041
G01 X182.4688 Y38.3079
G01 X182.3823 Y38.3193
G01 X182.2972 Y38.3382
G01 X182.2140 Y38.3644
G01 X182.1334 Y38.3978
G01 X182.0560 Y38.4381
G01 X181.9824 Y38.4850
G01 X181.9132 Y38.5381
G01 X181.8489 Y38.5970
G01 X181.7899 Y38.6613
G01 X181.7368 Y38.7305
G01 X181.6899 Y38.8041
G01 X181.6497 Y38.8815
G01 X181.6163 Y38.9621
G01 X181.5900 Y39.0453
G01 X181.5712 Y39.1305
G01 X181.5598 Y39.2170
G01 X181.5560 Y39.3041
G01 X181.5598 Y39.3913
G01 X181.5712 Y39.4778
G01 X181.5900 Y39.5629
G01 X181.6163 Y39.6461
G01 X181.6497 Y39.7267
G01 X181.6899 Y39.8041
G01 X181.7368 Y39.8777
G01 X181.7899 Y39.9469
G01 X181.8489 Y40.0112
G01 X181.9132 Y40.0702
G01 X181.9824 Y40.1233
G01 X182.0560 Y40.1701
G01 X182.1334 Y40.2104
G01 X182.2140 Y40.2438
G01 X182.2972 Y40.2700
G01 X182.3823 Y40.2889
G01 X182.4688 Y40.3003
G01 X182.5560 Y40.3041
G01 X182.6431 Y40.3003
G01 X182.7296 Y40.2889
G01 X182.8148 Y40.2700
G01 X182.8980 Y40.2438
G01 X182.9786 Y40.2104
G01 X183.0560 Y40.1701
G01 X183.1295 Y40.1233
G01 X183.1988 Y40.0702
G01 X183.2631 Y40.0112
G01 X183.3220 Y39.9469
G01 X183.3751 Y39.8777
G01 X183.4220 Y39.8041
G01 X183.4623 Y39.7267
G01 X183.4957 Y39.6461
G01 X183.5219 Y39.5629
G01 X183.5408 Y39.4778
G01 X183.5522 Y39.3913
G01 X183.5560 Y39.3041
G01 X183.5667 Y39.2525 F1000
G01 X183.5748 Y39.2004
G01 X183.5802 Y39.1480
G01 X183.5829 Y39.0954
G01 X183.5828 Y39.0427
G01 X183.5801 Y38.9900
G01 X183.5746 Y38.9376
G01 X183.5665 Y38.8856
G01 X183.5547 Y38.8296
G01 X183.5402 Y38.7743
G01 X183.5228 Y38.7198
G01 X183.5027 Y38.6662
G01 X183.4798 Y38.6138
G01 X183.4543 Y38.5626
G01 X183.4263 Y38.5128
G01 X183.3957 Y38.4644
G01 X183.3601 Y38.4140
G01 X183.3219 Y38.3655
G01 X183.2814 Y38.3190
G01 X183.2385 Y38.2746
G01 X183.1935 Y38.2324
G01 X183.1463 Y38.1926
G01 X183.0972 Y38.1552
G01 X183.0463 Y38.1204
G01 X182.9891 Y38.0895
G01 X182.9304 Y38.0614
G01 X182.8705 Y38.0363
G01 X182.8093 Y38.0143
G01 X182.7471 Y37.9953
G01 X182.6841 Y37.9794
G01 X182.6203 Y37.9667
G01 X182.5560 Y37.9572
G01 X182.4899 Y37.9588
G01 X182.4239 Y37.9637
G01 X182.3583 Y37.9718
G01 X182.2932 Y37.9831
G01 X182.2287 Y37.9975
G01 X182.1650 Y38.0152
G01 X182.1022 Y38.0359
G01 X182.0405 Y38.0597
G01 X181.9801 Y38.0865
G01 X181.9210 Y38.1162
G01 X181.8635 Y38.1488
G01 X181.8077 Y38.1842
G01 X181.7536 Y38.2222
G01 X181.7015 Y38.2629
G01 X181.6514 Y38.3061
G01 X181.6035 Y38.3517
G01 X181.5580 Y38.3996
G01 X181.5148 Y38.4496
G01 X181.4741 Y38.5017
G01 X181.4360 Y38.5558
G01 X181.4007 Y38.6116
G01 X181.3681 Y38.6692
G01 X181.3384 Y38.7282
G01 X181.3116 Y38.7887
G01 X181.2878 Y38.8503
G01 X181.2670 Y38.9131
G01 X181.2494 Y38.9768
G01 X181.2349 Y39.0413
G01 X181.2236 Y39.1065
G01 X181.2155 Y39.1721
G01 X181.2107 Y39.2380
G01 X181.2090 Y39.3041
G01 X181.2107 Y39.3702
G01 X181.2155 Y39.4361
G01 X181.2236 Y39.5018
G01 X181.2349 Y39.5669
G01 X181.2494 Y39.6314
G01 X181.2670 Y39.6951
G01 X181.2878 Y39.7579
G01 X181.3116 Y39.8196
G01 X181.3384 Y39.8800
G01 X181.3681 Y39.9391
G01 X181.4007 Y39.9966
G01 X181.4360 Y40.0524
G01 X181.4741 Y40.1065
G01 X181.5148 Y40.1586
G01 X181.5580 Y40.2087
G01 X181.6035 Y40.2565
G01 X181.6514 Y40.3021
G01 X181.7015 Y40.3453
G01 X181.7536 Y40.3860
G01 X181.8077 Y40.4241
G01 X181.8635 Y40.4594
G01 X181.9210 Y40.4920
G01 X181.9801 Y40.5217
G01 X182.0405 Y40.5485
G01 X182.1022 Y40.5723
G01 X182.1650 Y40.5931
G01 X182.2287 Y40.6107
G01 X182.2932 Y40.6252
G01 X182.3583 Y40.6365
G01 X182.4239 Y40.6446
G01 X182.4899 Y40.6494
G01 X182.5560 Y40.6511
G01 X182.6221 Y40.6494
G01 X182.6880 Y40.6446
G01 X182.7536 Y40.6365
G01 X182.8187 Y40.6252
G01 X182.8833 Y40.6107
G01 X182.9470 Y40.5931
G01 X183.0097 Y40.5723
G01 X183.0714 Y40.5485
G01 X183.1319 Y40.5217
G01 X183.1909 Y40.4920
G01 X183.2484 Y40.4594
G01 X183.3043 Y40.4241
G01 X183.3583 Y40.3860
G01 X183.4105 Y40.3453
G01 X183.4605 Y40.3021
G01 X183.5084 Y40.2565
G01 X183.5540 Y40.2087
G01 X183.5972 Y40.1586
G01 X183.6378 Y40.1065
G01 X183.6759 Y40.0524
G01 X183.7113 Y39.9966
G01 X183.7439 Y39.9391
G01 X183.7736 Y39.8800
G01 X183.8004 Y39.8196
G01 X183.8242 Y39.7579
G01 X183.8449 Y39.6951
G01 X183.8625 Y39.6314
G01 X183.8770 Y39.5669
G01 X183.8883 Y39.5018
G01 X183.8964 Y39.4361
G01 X183.9013 Y39.3702
G01 X183.9029 Y39.3041
G01 X183.8991 Y39.2035
G01 X183.8879 Y39.1034
G01 X183.8691 Y39.0044
G01 X183.8431 Y38.9071
G01 X183.8098 Y38.8120
G01 X183.7695 Y38.7197
G01 X183.7225 Y38.6306
G01 X183.6689 Y38.5454
G01 X183.6091 Y38.4643
G01 X183.5433 Y38.3880
G01 X183.4721 Y38.3167
G01 X183.3958 Y38.2510
G01 X183.3147 Y38.1912
G01 X183.2294 Y38.1376
G01 X183.1404 Y38.0906
G01 X183.0481 Y38.0503
G01 X182.9530 Y38.0170
G01 X182.8557 Y37.9909
G01 X182.7567 Y37.9722
G01 X182.6566 Y37.9609
G01 X182.5560 Y37.9572
G01 X182.4553 Y37.9609
G01 X182.3552 Y37.9722
G01 X182.2562 Y37.9909
G01 X182.1590 Y38.0170
G01 X182.0639 Y38.0503
G01 X181.9716 Y38.0906
G01 X181.8825 Y38.1376
G01 X181.7972 Y38.1912
G01 X181.7162 Y38.2510
G01 X181.6398 Y38.3167
G01 X181.5686 Y38.3880
G01 X181.5029 Y38.4643
G01 X181.4431 Y38.5454
G01 X181.3895 Y38.6306
G01 X181.3424 Y38.7197
G01 X181.3021 Y38.8120
G01 X181.2689 Y38.9071
G01 X181.2428 Y39.0044
G01 X181.2241 Y39.1034
G01 X181.2128 Y39.2035
G01 X181.2090 Y39.3041
G01 X181.2128 Y39.4048
G01 X181.2241 Y39.5049
G01 X181.2428 Y39.6038
G01 X181.2689 Y39.7011
G01 X181.3021 Y39.7962
G01 X181.3424 Y39.8885
G01 X181.3895 Y39.9776
G01 X181.4431 Y40.0629
G01 X181.5029 Y40.1439
G01 X181.5686 Y40.2203
G01 X181.6398 Y40.2915
G01 X181.7162 Y40.3572
G01 X181.7972 Y40.4170
G01 X181.8825 Y40.4706
G01 X181.9716 Y40.5177
G01 X182.0639 Y40.5579
G01 X182.1590 Y40.5912
G01 X182.2562 Y40.6173
G01 X182.3552 Y40.6360
G01 X182.4553 Y40.6473
G01 X182.5560 Y40.6511
G01 X182.6566 Y40.6473
G01 X182.7567 Y40.6360
G01 X182.8557 Y40.6173
G01 X182.9530 Y40.5912
G01 X183.0481 Y40.5579
G01 X183.1404 Y40.5177
G01 X183.2294 Y40.4706
G01 X183.3147 Y40.4170
G01 X183.3958 Y40.3572
G01 X183.4721 Y40.2915
G01 X183.5433 Y40.2203
G01 X183.6091 Y40.1439
G01 X183.6689 Y40.0629
G01 X183.7225 Y39.9776
G01 X183.7695 Y39.8885
G01 X183.8098 Y39.7962
G01 X183.8431 Y39.7011
G01 X183.8691 Y39.6038
G01 X183.8879 Y39.5049
G01 X183.8991 Y39.4048
G01 X183.9029 Y39.3041
G01 X183.8984 Y39.2018
G01 X183.8851 Y39.1003
G01 X183.8629 Y39.0004
G01 X183.8321 Y38.9028
G01 X183.7930 Y38.8082
G01 X183.7457 Y38.7174
G01 X183.6907 Y38.6310
G01 X183.6284 Y38.5498
G01 X183.5592 Y38.4743
G01 X183.4837 Y38.4052
G01 X183.4025 Y38.3429
G01 X183.3162 Y38.2879
G01 X183.2254 Y38.2406
G01 X183.1308 Y38.2014
G01 X183.0332 Y38.1706
G01 X182.9332 Y38.1485
G01 X182.8317 Y38.1351
G01 X182.7294 Y38.1306
G01 X182.6272 Y38.1351
G01 X182.5257 Y38.1485
G01 X182.4257 Y38.1706
G01 X182.3281 Y38.2014
G01 X182.2335 Y38.2406
G01 X182.1427 Y38.2879
G01 X182.0564 Y38.3429
G01 X181.9751 Y38.4052
G01 X181.8997 Y38.4743
G01 X181.8305 Y38.5498
G01 X181.7682 Y38.6310
G01 X181.7132 Y38.7174
G01 X181.6659 Y38.8082
G01 X181.6267 Y38.9028
G01 X181.5960 Y39.0004
G01 X181.5738 Y39.1003
G01 X181.5604 Y39.2018
G01 X181.5560 Y39.3041
G01 X181.5570 Y39.3503
G01 X181.5602 Y39.3964
G01 X181.5656 Y39.4423
G01 X181.5730 Y39.4879
G01 X181.5825 Y39.5331
G01 X181.5941 Y39.5778
G01 X181.6078 Y39.6219
G01 X181.6235 Y39.6654
G01 X181.6412 Y39.7080
G01 X181.6608 Y39.7499
G01 X181.6823 Y39.7907
G01 X181.7058 Y39.8305
G01 X181.7310 Y39.8693
G01 X181.7580 Y39.9068
G01 X181.7866 Y39.9430
G01 X181.8170 Y39.9778
G01 X181.8489 Y40.0112
G01 X181.8823 Y40.0431
G01 X181.9171 Y40.0734
G01 X181.9533 Y40.1021
G01 X181.9908 Y40.1291
G01 X182.0295 Y40.1543
G01 X182.0694 Y40.1777
G01 X182.1102 Y40.1993
G01 X182.1520 Y40.2189
G01 X182.1947 Y40.2366
G01 X182.2382 Y40.2523
G01 X182.2823 Y40.2659
G01 X182.3270 Y40.2776
G01 X182.3722 Y40.2871
G01 X182.4178 Y40.2945
G01 X182.4637 Y40.2998
G01 X182.5098 Y40.3030
G01 X182.5560 Y40.3041
G01 X182.6022 Y40.3030
G01 X182.6482 Y40.2998
G01 X182.6941 Y40.2945
G01 X182.7397 Y40.2871
G01 X182.7849 Y40.2776
G01 X182.8296 Y40.2659
G01 X182.8738 Y40.2523
G01 X182.9172 Y40.2366
G01 X182.9599 Y40.2189
G01 X183.0017 Y40.1993
G01 X183.0426 Y40.1777
G01 X183.0824 Y40.1543
G01 X183.1211 Y40.1291
G01 X183.1586 Y40.1021
G01 X183.1948 Y40.0734
G01 X183.2297 Y40.0431
G01 X183.2631 Y40.0112
G01 X183.2950 Y39.9778
G01 X183.3253 Y39.9430
G01 X183.3540 Y39.9068
G01 X183.3810 Y39.8693
G01 X183.4062 Y39.8305
G01 X183.4296 Y39.7907
G01 X183.4511 Y39.7499
G01 X183.4708 Y39.7080
G01 X183.4884 Y39.6654
G01 X183.5041 Y39.6219
G01 X183.5178 Y39.5778
G01 X183.5294 Y39.5331
G01 X183.5389 Y39.4879
G01 X183.5464 Y39.4423
G01 X183.5517 Y39.3964
G01 X183.5549 Y39.3503
G01 X183.5560 Y39.3041
M107
M106 S240
G01 X183.5522 Y39.2170 Z-3.5278 F400
G01 X183.5408 Y39.1305 Z-3.5556
G01 X183.5219 Y39.0453 Z-3.5833
G01 X183.4957 Y38.9621 Z-3.6111
G01 X183.4623 Y38.8815 Z-3.6389
G01 X183.4220 Y38.8041 Z-3.6667
G01 X183.3751 Y38.7305 Z-3.6944
G01 X183.3220 Y38.6613 Z-3.7222
G01 X183.2631 Y38.5970 Z-3.7500
G01 X183.1988 Y38.5381 Z-3.7778
G01 X183.1295 Y38.4850 Z-3.8056
G01 X183.0560 Y38.4381 Z-3.8333
G01 X182.9786 Y38.3978 Z-3.8611
G01 X182.8980 Y38.3644 Z-3.8889
G01 X182.8148 Y38.3382 Z-3.9167
G01 X182.7296 Y38.3193 Z-3.9444
G01 X182.6431 Y38.3079 Z-3.9722
G01 X182.5560 Y38.3041 Z-4.0000
G01 X182.4688 Y38.3079 Z-4.0278
G01 X182.3823 Y38.3193 Z-4.0556
G01 X182.2972 Y38.3382 Z-4.0833
G01 X182.2140 Y38.3644 Z-4.1111
G01 X182.1334 Y38.3978 Z-4.1389
G01 X182.0560 Y38.4381 Z-4.1667
G01 X181.9824 Y38.4850 Z-4.1944
G01 X181.9132 Y38.5381 Z-4.2222
G01 X181.8489 Y38.5970 Z-4.2500
G01 X181.7899 Y38.6613 Z-4.2778
G01 X181.7368 Y38.7305 Z-4.3056
G01 X181.6899 Y38.8041 Z-4.3333
G01 X181.6497 Y38.8815 Z-4.3611
G01 X181.6163 Y38.9621 Z-4.3889
G01 X181.5900 Y39.0453 Z-4.4167
G01 X181.5712 Y39.1305 Z-4.4444
G01 X181.5598 Y39.2170 Z-4.4722
G01 X181.5560 Y39.3041 Z-4.5000
G01 X181.5598 Y39.3913 Z-4.5278
G01 X181.5712 Y39.4778 Z-4.5556
G01 X181.5900 Y39.5629 Z-4.5833
G01 X181.6163 Y39.6461 Z-4.6111
G01 X181.6497 Y39.7267 Z-4.6389
G01 X181.6899 Y39.8041 Z-4.6667
G01 X181.7368 Y39.8777 Z-4.6944
G01 X181.7899 Y39.9469 Z-4.7222
G01 X181.8489 Y40.0112 Z-4.7500
G01 X181.9132 Y40.0702 Z-4.7778
G01 X181.9824 Y40.1233 Z-4.8056
G01 X182.0560 Y40.1701 Z-4.8333
G01 X182.1334 Y40.2104 Z-4.8611
G01 X182.2140 Y40.2438 Z-4.8889
G01 X182.2972 Y40.2700 Z-4.9167
G01 X182.3823 Y40.2889 Z-4.9444
G01 X182.4688 Y40.3003 Z-4.9722
G01 X182.5560 Y40.3041 Z-5.0000
G01 X182.6431 Y40.3003 Z-5.0278
G01 X182.7296 Y40.2889 Z-5.0556
G01 X182.8148 Y40.2700 Z-5.0833
G01 X182.8980 Y40.2438 Z-5.1111
G01 X182.9786 Y40.2104 Z-5.1389
G01 X183.0560 Y40.1701 Z-5.1667
G01 X183.1295 Y40.1233 Z-5.1944
G01 X183.1988 Y40.0702 Z-5.2222
G01 X183.2631 Y40.0112 Z-5.2500
G01 X183.3220 Y39.9469 Z-5.2778
G01 X183.3751 Y39.8777 Z-5.3056
G01 X183.4220 Y39.8041 Z-5.3333
G01 X183.4623 Y39.7267 Z-5.3611
G01 X183.4957 Y39.6461 Z-5.3889
G01 X183.5219 Y39.5629 Z-5.4167
G01 X183.5408 Y39.4778 Z-5.4444
G01 X183.5522 Y39.3913 Z-5.4722
G01 X183.5560 Y39.3041 Z-5.5000
G01 X183.5522 Y39.2170
G01 X183.5408 Y39.1305
G01 X183.5219 Y39.0453
G01 X183.4957 Y38.9621
G01 X183.4623 Y38.8815
G01 X183.4220 Y38.8041
G01 X183.3751 Y38.7305
G01 X183.3220 Y38.6613
G01 X183.2631 Y38.5970
G01 X183.1988 Y38.5381
G01 X183.1295 Y38.4850
G01 X183.0560 Y38.4381
G01 X182.9786 Y38.3978
G01 X182.8980 Y38.3644
G01 X182.8148 Y38.3382
G01 X182.7296 Y38.3193
G01 X182.6431 Y38.3079
G01 X182.5560 Y38.3041
G01 X182.4688 Y38.3079
G01 X182.3823 Y38.3193
G01 X182.2972 Y38.3382
G01 X182.2140 Y38.3644
G01 X182.1334 Y38.3978
G01 X182.0560 Y38.4381
G01 X181.9824 Y38.4850
G01 X181.9132 Y38.5381
G01 X181.8489 Y38.5970
G01 X181.7899 Y38.6613
G01 X181.7368 Y38.7305
G01 X181.6899 Y38.8041
G01 X181.6497 Y38.8815
G01 X181.6163 Y38.9621
G01 X181.5900 Y39.0453
G01 X181.5712 Y39.1305
G01 X181.5598 Y39.2170
G01 X181.5560 Y39.3041
G01 X181.5598 Y39.3913
G01 X181.5712 Y39.4778
G01 X181.5900 Y39.5629
G01 X181.6163 Y39.6461
G01 X181.6497 Y39.7267
G01 X181.6899 Y39.8041
G01 X181.7368 Y39.8777
G01 X181.7899 Y39.9469
G01 X181.8489 Y40.0112
G01 X181.9132 Y40.0702
G01 X181.9824 Y40.1233
G01 X182.0560 Y40.1701
G01 X182.1334 Y40.2104
G01 X182.2140 Y40.2438
G01 X182.2972 Y40.2700
G01 X182.3823 Y40.2889
G01 X182.4688 Y40.3003
G01 X182.5560 Y40.3041
G01 X182.6431 Y40.3003
G01 X182.7296 Y40.2889
G01 X182.8148 Y40.2700
G01 X182.8980 Y40.2438
G01 X182.9786 Y40.2104
G01 X183.0560 Y40.1701
G01 X183.1295 Y40.1233
G01 X183.1988 Y40.0702
G01 X183.2631 Y40.0112
G01 X183.3220 Y39.9469
G01 X183.3751 Y39.8777
G01 X183.4220 Y39.8041
G01 X183.4623 Y39.7267
G01 X183.4957 Y39.6461
G01 X183.5219 Y39.5629
G01 X183.5408 Y39.4778
G01 X183.5522 Y39.3913
G01 X183.5560 Y39.3041
G01 X183.5667 Y39.2525 F1000
G01 X183.5748 Y39.2004
G01 X183.5802 Y39.1480
G01 X183.5829 Y39.0954
G01 X183.5828 Y39.0427
G01 X183.5801 Y38.9900
G01 X183.5746 Y38.9376
G01 X183.5665 Y38.8856
G01 X183.5547 Y38.8296
G01 X183.5402 Y38.7743
G01 X183.5228 Y38.7198
G01 X183.5027 Y38.6662
G01 X183.4798 Y38.6138
G01 X183.4543 Y38.5626
G01 X183.4263 Y38.5128
G01 X183.3957 Y38.4644
G01 X183.3601 Y38.4140
G01 X183.3219 Y38.3655
G01 X183.2814 Y38.3190
G01 X183.2385 Y38.2746
G01 X183.1935 Y38.2324
G01 X183.1463 Y38.1926
G01 X183.0972 Y38.1552
G01 X183.0463 Y38.1204
G01 X182.9891 Y38.0895
G01 X182.9304 Y38.0614
G01 X182.8705 Y38.0363
G01 X182.8093 Y38.0143
G01 X182.7471 Y37.9953
G01 X182.6841 Y37.9794
G01 X182.6203 Y37.9667
G01 X182.5560 Y37.9572
G01 X182.4899 Y37.9588
G01 X182.4239 Y37.9637
G01 X182.3583 Y37.9718
G01 X182.2932 Y37.9831
G01 X182.2287 Y37.9975
G01 X182.1650 Y38.0152
G01 X182.1022 Y38.0359
G01 X182.0405 Y38.0597
G01 X181.9801 Y38.0865
G01 X181.9210 Y38.1162
G01 X181.8635 Y38.1488
G01 X181.8077 Y38.1842
G01 X181.7536 Y38.2222
G01 X181.7015 Y38.2629
G01 X181.6514 Y38.3061
G01 X181.6035 Y38.3517
G01 X181.5580 Y38.3996
G01 X181.5148 Y38.4496
G01 X181.4741 Y38.5017
G01 X181.4360 Y38.5558
G01 X181.4007 Y38.6116
G01 X181.3681 Y38.6692
G01 X181.3384 Y38.7282
G01 X181.3116 Y38.7887
G01 X181.2878 Y38.8503
G01 X181.2670 Y38.9131
G01 X181.2494 Y38.9768
G01 X181.2349 Y39.0413
G01 X181.2236 Y39.1065
G01 X181.2155 Y39.1721
G01 X181.2107 Y39.2380
G01 X181.2090 Y39.3041
G01 X181.2107 Y39.3702
G01 X181.2155 Y39.4361
G01 X181.2236 Y39.5018
G01 X181.2349 Y39.5669
G01 X181.2494 Y39.6314
G01 X181.2670 Y39.6951
G01 X181.2878 Y39.7579
G01 X181.3116 Y39.8196
G01 X181.3384 Y39.8800
G01 X181.3681 Y39.9391
G01 X181.4007 Y39.9966
G01 X181.4360 Y40.0524
G01 X181.4741 Y40.1065
G01 X181.5148 Y40.1586
G01 X181.5580 Y40.2087
G01 X181.6035 Y40.2565
G01 X181.6514 Y40.3021
G01 X181.7015 Y40.3453
G01 X181.7536 Y40.3860
G01 X181.8077 Y40.4241
G01 X181.8635 Y40.4594
G01 X181.9210 Y40.4920
G01 X181.9801 Y40.5217
G01 X182.0405 Y40.5485
G01 X182.1022 Y40.5723
G01 X182.1650 Y40.5931
G01 X182.2287 Y40.6107
G01 X182.2932 Y40.6252
G01 X182.3583 Y40.6365
G01 X182.4239 Y40.6446
G01 X182.4899 Y40.6494
G01 X182.5560 Y40.6511
G01 X182.6221 Y40.6494
G01 X182.6880 Y40.6446
G01 X182.7536 Y40.6365
G01 X182.8187 Y40.6252
G01 X182.8833 Y40.6107
G01 X182.9470 Y40.5931
