;Project TeslaParkingV3_L4mm
;Created by Estlcam version 11 build 11,227
;Machining time about 00:08:53 hours

G90
M03 S24000
G00 X0.0000 Y0.0000 Z0.0000
G00 Z2.0000


;No. 1: Helical drill 8
G00 X13.2625 Y17.5000
G00 Z0.5000
M106 S240
G01 X13.2613 Y17.4524 Z0.4861 F400 S24000
G01 X13.2579 Y17.4050 Z0.4722
G01 X13.2523 Y17.3577 Z0.4583
G01 X13.2444 Y17.3108 Z0.4444
G01 X13.2343 Y17.2643 Z0.4306
G01 X13.2220 Y17.2183 Z0.4167
G01 X13.2075 Y17.1729 Z0.4028
G01 X13.1908 Y17.1284 Z0.3889
G01 X13.1721 Y17.0846 Z0.3750
G01 X13.1513 Y17.0418 Z0.3611
G01 X13.1285 Y17.0000 Z0.3472
G01 X13.1037 Y16.9594 Z0.3333
G01 X13.0771 Y16.9200 Z0.3194
G01 X13.0485 Y16.8819 Z0.3056
G01 X13.0182 Y16.8452 Z0.2917
G01 X12.9862 Y16.8099 Z0.2778
G01 X12.9526 Y16.7763 Z0.2639
G01 X12.9173 Y16.7443 Z0.2500
G01 X12.8806 Y16.7140 Z0.2361
G01 X12.8425 Y16.6855 Z0.2222
G01 X12.8031 Y16.6588 Z0.2083
G01 X12.7625 Y16.6340 Z0.1944
G01 X12.7207 Y16.6112 Z0.1806
G01 X12.6779 Y16.5904 Z0.1667
G01 X12.6342 Y16.5717 Z0.1528
G01 X12.5896 Y16.5550 Z0.1389
G01 X12.5442 Y16.5405 Z0.1250
G01 X12.4983 Y16.5282 Z0.1111
G01 X12.4517 Y16.5181 Z0.0972
G01 X12.4048 Y16.5102 Z0.0833
G01 X12.3576 Y16.5046 Z0.0694
G01 X12.3101 Y16.5012 Z0.0556
G01 X12.2625 Y16.5000 Z0.0417
G01 X12.2149 Y16.5012 Z0.0278
G01 X12.1674 Y16.5046 Z0.0139
G01 X12.1202 Y16.5102 Z0.0000
G01 X12.0733 Y16.5181 Z-0.0139
G01 X12.0268 Y16.5282 Z-0.0278
G01 X11.9808 Y16.5405 Z-0.0417
G01 X11.9354 Y16.5550 Z-0.0556
G01 X11.8909 Y16.5717 Z-0.0694
G01 X11.8471 Y16.5904 Z-0.0833
G01 X11.8043 Y16.6112 Z-0.0972
G01 X11.7625 Y16.6340 Z-0.1111
G01 X11.7219 Y16.6588 Z-0.1250
G01 X11.6825 Y16.6855 Z-0.1389
G01 X11.6444 Y16.7140 Z-0.1528
G01 X11.6077 Y16.7443 Z-0.1667
G01 X11.5724 Y16.7763 Z-0.1806
G01 X11.5388 Y16.8099 Z-0.1944
G01 X11.5068 Y16.8452 Z-0.2083
G01 X11.4765 Y16.8819 Z-0.2222
G01 X11.4480 Y16.9200 Z-0.2361
G01 X11.4213 Y16.9594 Z-0.2500
G01 X11.3965 Y17.0000 Z-0.2639
G01 X11.3737 Y17.0418 Z-0.2778
G01 X11.3529 Y17.0846 Z-0.2917
G01 X11.3342 Y17.1284 Z-0.3056
G01 X11.3175 Y17.1729 Z-0.3194
G01 X11.3030 Y17.2183 Z-0.3333
G01 X11.2907 Y17.2643 Z-0.3472
G01 X11.2806 Y17.3108 Z-0.3611
G01 X11.2727 Y17.3577 Z-0.3750
G01 X11.2671 Y17.4050 Z-0.3889
G01 X11.2637 Y17.4524 Z-0.4028
G01 X11.2625 Y17.5000 Z-0.4167
G01 X11.2637 Y17.5476 Z-0.4306
G01 X11.2671 Y17.5951 Z-0.4444
G01 X11.2727 Y17.6423 Z-0.4583
G01 X11.2806 Y17.6893 Z-0.4722
G01 X11.2907 Y17.7358 Z-0.4861
G01 X11.3030 Y17.7817 Z-0.5000
G01 X11.3175 Y17.8271 Z-0.5139
G01 X11.3342 Y17.8717 Z-0.5278
G01 X11.3529 Y17.9154 Z-0.5417
G01 X11.3737 Y17.9582 Z-0.5556
G01 X11.3965 Y18.0000 Z-0.5694
G01 X11.4213 Y18.0406 Z-0.5833
G01 X11.4480 Y18.0800 Z-0.5972
G01 X11.4765 Y18.1181 Z-0.6111
G01 X11.5068 Y18.1548 Z-0.6250
G01 X11.5388 Y18.1901 Z-0.6389
G01 X11.5724 Y18.2237 Z-0.6528
G01 X11.6077 Y18.2557 Z-0.6667
G01 X11.6444 Y18.2860 Z-0.6806
G01 X11.6825 Y18.3146 Z-0.6944
G01 X11.7219 Y18.3412 Z-0.7083
G01 X11.7625 Y18.3660 Z-0.7222
G01 X11.8043 Y18.3888 Z-0.7361
G01 X11.8471 Y18.4096 Z-0.7500
G01 X11.8909 Y18.4283 Z-0.7639
G01 X11.9354 Y18.4450 Z-0.7778
G01 X11.9808 Y18.4595 Z-0.7917
G01 X12.0268 Y18.4718 Z-0.8056
G01 X12.0733 Y18.4819 Z-0.8194
G01 X12.1202 Y18.4898 Z-0.8333
G01 X12.1674 Y18.4954 Z-0.8472
G01 X12.2149 Y18.4988 Z-0.8611
G01 X12.2625 Y18.5000 Z-0.8750
G01 X12.3101 Y18.4988 Z-0.8889
G01 X12.3576 Y18.4954 Z-0.9028
G01 X12.4048 Y18.4898 Z-0.9167
G01 X12.4517 Y18.4819 Z-0.9306
G01 X12.4983 Y18.4718 Z-0.9444
G01 X12.5442 Y18.4595 Z-0.9583
G01 X12.5896 Y18.4450 Z-0.9722
G01 X12.6342 Y18.4283 Z-0.9861
G01 X12.6779 Y18.4096 Z-1.0000
G01 X12.7207 Y18.3888 Z-1.0139
G01 X12.7625 Y18.3660 Z-1.0278
G01 X12.8031 Y18.3412 Z-1.0417
G01 X12.8425 Y18.3146 Z-1.0556
G01 X12.8806 Y18.2860 Z-1.0694
G01 X12.9173 Y18.2557 Z-1.0833
G01 X12.9526 Y18.2237 Z-1.0972
G01 X12.9862 Y18.1901 Z-1.1111
G01 X13.0182 Y18.1548 Z-1.1250
G01 X13.0485 Y18.1181 Z-1.1389
G01 X13.0771 Y18.0800 Z-1.1528
G01 X13.1037 Y18.0406 Z-1.1667
G01 X13.1285 Y18.0000 Z-1.1806
G01 X13.1513 Y17.9582 Z-1.1944
G01 X13.1721 Y17.9154 Z-1.2083
G01 X13.1908 Y17.8717 Z-1.2222
G01 X13.2075 Y17.8271 Z-1.2361
G01 X13.2220 Y17.7817 Z-1.2500
G01 X13.2343 Y17.7358 Z-1.2639
G01 X13.2444 Y17.6893 Z-1.2778
G01 X13.2523 Y17.6423 Z-1.2917
G01 X13.2579 Y17.5951 Z-1.3056
G01 X13.2613 Y17.5476 Z-1.3194
G01 X13.2625 Y17.5000 Z-1.3333
G01 X13.2613 Y17.4524 Z-1.3472
G01 X13.2579 Y17.4050 Z-1.3611
G01 X13.2523 Y17.3577 Z-1.3750
G01 X13.2444 Y17.3108 Z-1.3889
G01 X13.2343 Y17.2643 Z-1.4028
G01 X13.2220 Y17.2183 Z-1.4167
G01 X13.2075 Y17.1729 Z-1.4306
G01 X13.1908 Y17.1284 Z-1.4444
G01 X13.1721 Y17.0846 Z-1.4583
G01 X13.1513 Y17.0418 Z-1.4722
G01 X13.1285 Y17.0000 Z-1.4861
G01 X13.1037 Y16.9594 Z-1.5000
G01 X13.0771 Y16.9200 Z-1.5139
G01 X13.0485 Y16.8819 Z-1.5278
G01 X13.0182 Y16.8452 Z-1.5417
G01 X12.9862 Y16.8099 Z-1.5556
G01 X12.9526 Y16.7763 Z-1.5694
G01 X12.9173 Y16.7443 Z-1.5833
G01 X12.8806 Y16.7140 Z-1.5972
G01 X12.8425 Y16.6855 Z-1.6111
G01 X12.8031 Y16.6588 Z-1.6250
G01 X12.7625 Y16.6340 Z-1.6389
G01 X12.7207 Y16.6112 Z-1.6528
G01 X12.6779 Y16.5904 Z-1.6667
G01 X12.6342 Y16.5717 Z-1.6806
G01 X12.5896 Y16.5550 Z-1.6944
G01 X12.5442 Y16.5405 Z-1.7083
G01 X12.4983 Y16.5282 Z-1.7222
G01 X12.4517 Y16.5181 Z-1.7361
G01 X12.4048 Y16.5102 Z-1.7500
G01 X12.3576 Y16.5046 Z-1.7639
G01 X12.3101 Y16.5012 Z-1.7778
G01 X12.2625 Y16.5000 Z-1.7917
G01 X12.2149 Y16.5012 Z-1.8056
G01 X12.1674 Y16.5046 Z-1.8194
G01 X12.1202 Y16.5102 Z-1.8333
G01 X12.0733 Y16.5181 Z-1.8472
G01 X12.0268 Y16.5282 Z-1.8611
G01 X11.9808 Y16.5405 Z-1.8750
G01 X11.9354 Y16.5550 Z-1.8889
G01 X11.8909 Y16.5717 Z-1.9028
G01 X11.8471 Y16.5904 Z-1.9167
G01 X11.8043 Y16.6112 Z-1.9306
G01 X11.7625 Y16.6340 Z-1.9444
G01 X11.7219 Y16.6588 Z-1.9583
G01 X11.6825 Y16.6855 Z-1.9722
G01 X11.6444 Y16.7140 Z-1.9861
G01 X11.6077 Y16.7443 Z-2.0000
G01 X11.5724 Y16.7763 Z-2.0139
G01 X11.5388 Y16.8099 Z-2.0278
G01 X11.5068 Y16.8452 Z-2.0417
G01 X11.4765 Y16.8819 Z-2.0556
G01 X11.4480 Y16.9200 Z-2.0694
G01 X11.4213 Y16.9594 Z-2.0833
G01 X11.3965 Y17.0000 Z-2.0972
G01 X11.3737 Y17.0418 Z-2.1111
G01 X11.3529 Y17.0846 Z-2.1250
G01 X11.3342 Y17.1284 Z-2.1389
G01 X11.3175 Y17.1729 Z-2.1528
G01 X11.3030 Y17.2183 Z-2.1667
G01 X11.2907 Y17.2643 Z-2.1806
G01 X11.2806 Y17.3108 Z-2.1944
G01 X11.2727 Y17.3577 Z-2.2083
G01 X11.2671 Y17.4050 Z-2.2222
G01 X11.2637 Y17.4524 Z-2.2361
G01 X11.2625 Y17.5000 Z-2.2500
G01 X11.2637 Y17.5476 Z-2.2639
G01 X11.2671 Y17.5951 Z-2.2778
G01 X11.2727 Y17.6423 Z-2.2917
G01 X11.2806 Y17.6893 Z-2.3056
G01 X11.2907 Y17.7358 Z-2.3194
G01 X11.3030 Y17.7817 Z-2.3333
G01 X11.3175 Y17.8271 Z-2.3472
G01 X11.3342 Y17.8717 Z-2.3611
G01 X11.3529 Y17.9154 Z-2.3750
G01 X11.3737 Y17.9582 Z-2.3889
G01 X11.3965 Y18.0000 Z-2.4028
G01 X11.4213 Y18.0406 Z-2.4167
G01 X11.4480 Y18.0800 Z-2.4306
G01 X11.4765 Y18.1181 Z-2.4444
G01 X11.5068 Y18.1548 Z-2.4583
G01 X11.5388 Y18.1901 Z-2.4722
G01 X11.5724 Y18.2237 Z-2.4861
G01 X11.6077 Y18.2557 Z-2.5000
G01 X11.6444 Y18.2860 Z-2.5139
G01 X11.6825 Y18.3146 Z-2.5278
G01 X11.7219 Y18.3412 Z-2.5417
G01 X11.7625 Y18.3660 Z-2.5556
G01 X11.8043 Y18.3888 Z-2.5694
G01 X11.8471 Y18.4096 Z-2.5833
G01 X11.8909 Y18.4283 Z-2.5972
G01 X11.9354 Y18.4450 Z-2.6111
G01 X11.9808 Y18.4595 Z-2.6250
G01 X12.0268 Y18.4718 Z-2.6389
G01 X12.0733 Y18.4819 Z-2.6528
G01 X12.1202 Y18.4898 Z-2.6667
G01 X12.1674 Y18.4954 Z-2.6806
G01 X12.2149 Y18.4988 Z-2.6944
G01 X12.2625 Y18.5000 Z-2.7083
G01 X12.3101 Y18.4988 Z-2.7222
G01 X12.3576 Y18.4954 Z-2.7361
G01 X12.4048 Y18.4898 Z-2.7500
G01 X12.4517 Y18.4819 Z-2.7639
G01 X12.4983 Y18.4718 Z-2.7778
G01 X12.5442 Y18.4595 Z-2.7917
G01 X12.5896 Y18.4450 Z-2.8056
G01 X12.6342 Y18.4283 Z-2.8194
G01 X12.6779 Y18.4096 Z-2.8333
G01 X12.7207 Y18.3888 Z-2.8472
G01 X12.7625 Y18.3660 Z-2.8611
G01 X12.8031 Y18.3412 Z-2.8750
G01 X12.8425 Y18.3146 Z-2.8889
G01 X12.8806 Y18.2860 Z-2.9028
G01 X12.9173 Y18.2557 Z-2.9167
G01 X12.9526 Y18.2237 Z-2.9306
G01 X12.9862 Y18.1901 Z-2.9444
G01 X13.0182 Y18.1548 Z-2.9583
G01 X13.0485 Y18.1181 Z-2.9722
G01 X13.0771 Y18.0800 Z-2.9861
G01 X13.1037 Y18.0406 Z-3.0000
G01 X13.1285 Y18.0000 Z-3.0139
G01 X13.1513 Y17.9582 Z-3.0278
G01 X13.1721 Y17.9154 Z-3.0417
G01 X13.1908 Y17.8717 Z-3.0556
G01 X13.2075 Y17.8271 Z-3.0694
G01 X13.2220 Y17.7817 Z-3.0833
G01 X13.2343 Y17.7358 Z-3.0972
G01 X13.2444 Y17.6893 Z-3.1111
G01 X13.2523 Y17.6423 Z-3.1250
G01 X13.2579 Y17.5951 Z-3.1389
G01 X13.2613 Y17.5476 Z-3.1528
G01 X13.2625 Y17.5000 Z-3.1667
G01 X13.2613 Y17.4524 Z-3.1806
G01 X13.2579 Y17.4050 Z-3.1944
G01 X13.2523 Y17.3577 Z-3.2083
G01 X13.2444 Y17.3108 Z-3.2222
G01 X13.2343 Y17.2643 Z-3.2361
G01 X13.2220 Y17.2183 Z-3.2500
G01 X13.2075 Y17.1729 Z-3.2639
G01 X13.1908 Y17.1284 Z-3.2778
G01 X13.1721 Y17.0846 Z-3.2917
G01 X13.1513 Y17.0418 Z-3.3056
G01 X13.1285 Y17.0000 Z-3.3194
G01 X13.1037 Y16.9594 Z-3.3333
G01 X13.0771 Y16.9200 Z-3.3472
G01 X13.0485 Y16.8819 Z-3.3611
G01 X13.0182 Y16.8452 Z-3.3750
G01 X12.9862 Y16.8099 Z-3.3889
G01 X12.9526 Y16.7763 Z-3.4028
G01 X12.9173 Y16.7443 Z-3.4167
G01 X12.8806 Y16.7140 Z-3.4306
G01 X12.8425 Y16.6855 Z-3.4444
G01 X12.8031 Y16.6588 Z-3.4583
G01 X12.7625 Y16.6340 Z-3.4722
G01 X12.7207 Y16.6112 Z-3.4861
G01 X12.6779 Y16.5904 Z-3.5000
G01 X12.6342 Y16.5717 Z-3.5139
G01 X12.5896 Y16.5550 Z-3.5278
G01 X12.5442 Y16.5405 Z-3.5417
G01 X12.4983 Y16.5282 Z-3.5556
G01 X12.4517 Y16.5181 Z-3.5694
G01 X12.4048 Y16.5102 Z-3.5833
G01 X12.3576 Y16.5046 Z-3.5972
G01 X12.3101 Y16.5012 Z-3.6111
G01 X12.2625 Y16.5000 Z-3.6250
G01 X12.2149 Y16.5012 Z-3.6389
G01 X12.1674 Y16.5046 Z-3.6528
G01 X12.1202 Y16.5102 Z-3.6667
G01 X12.0733 Y16.5181 Z-3.6806
G01 X12.0268 Y16.5282 Z-3.6944
G01 X11.9808 Y16.5405 Z-3.7083
G01 X11.9354 Y16.5550 Z-3.7222
G01 X11.8909 Y16.5717 Z-3.7361
G01 X11.8471 Y16.5904 Z-3.7500
G01 X11.8043 Y16.6112 Z-3.7639
G01 X11.7625 Y16.6340 Z-3.7778
G01 X11.7219 Y16.6588 Z-3.7917
G01 X11.6825 Y16.6855 Z-3.8056
G01 X11.6444 Y16.7140 Z-3.8194
G01 X11.6077 Y16.7443 Z-3.8333
G01 X11.5724 Y16.7763 Z-3.8472
G01 X11.5388 Y16.8099 Z-3.8611
G01 X11.5068 Y16.8452 Z-3.8750
G01 X11.4765 Y16.8819 Z-3.8889
G01 X11.4480 Y16.9200 Z-3.9028
G01 X11.4213 Y16.9594 Z-3.9167
G01 X11.3965 Y17.0000 Z-3.9306
G01 X11.3737 Y17.0418 Z-3.9444
G01 X11.3529 Y17.0846 Z-3.9583
G01 X11.3342 Y17.1284 Z-3.9722
G01 X11.3175 Y17.1729 Z-3.9861
G01 X11.3030 Y17.2183 Z-4.0000
G01 X11.2907 Y17.2643 Z-4.0139
G01 X11.2806 Y17.3108 Z-4.0278
G01 X11.2727 Y17.3577 Z-4.0417
G01 X11.2671 Y17.4050 Z-4.0556
G01 X11.2637 Y17.4524 Z-4.0694
G01 X11.2625 Y17.5000 Z-4.0833
G01 X11.2637 Y17.5476 Z-4.0972
G01 X11.2671 Y17.5951 Z-4.1111
G01 X11.2727 Y17.6423 Z-4.1250
G01 X11.2806 Y17.6893 Z-4.1389
G01 X11.2907 Y17.7358 Z-4.1528
G01 X11.3030 Y17.7817 Z-4.1667
G01 X11.3175 Y17.8271 Z-4.1806
G01 X11.3342 Y17.8717 Z-4.1944
G01 X11.3529 Y17.9154 Z-4.2083
G01 X11.3737 Y17.9582 Z-4.2222
G01 X11.3965 Y18.0000 Z-4.2361
G01 X11.4213 Y18.0406 Z-4.2500
G01 X11.4480 Y18.0800 Z-4.2639
G01 X11.4765 Y18.1181 Z-4.2778
G01 X11.5068 Y18.1548 Z-4.2917
G01 X11.5388 Y18.1901 Z-4.3056
G01 X11.5724 Y18.2237 Z-4.3194
G01 X11.6077 Y18.2557 Z-4.3333
G01 X11.6444 Y18.2860 Z-4.3472
G01 X11.6825 Y18.3146 Z-4.3611
G01 X11.7219 Y18.3412 Z-4.3750
G01 X11.7625 Y18.3660 Z-4.3889
G01 X11.8043 Y18.3888 Z-4.4028
G01 X11.8471 Y18.4096 Z-4.4167
G01 X11.8909 Y18.4283 Z-4.4306
G01 X11.9354 Y18.4450 Z-4.4444
G01 X11.9808 Y18.4595 Z-4.4583
G01 X12.0268 Y18.4718 Z-4.4722
G01 X12.0733 Y18.4819 Z-4.4861
G01 X12.1202 Y18.4898 Z-4.5000
G01 X12.1674 Y18.4954 Z-4.5139
G01 X12.2149 Y18.4988 Z-4.5278
G01 X12.2625 Y18.5000 Z-4.5417
G01 X12.3101 Y18.4988 Z-4.5556
G01 X12.3576 Y18.4954 Z-4.5694
G01 X12.4048 Y18.4898 Z-4.5833
G01 X12.4517 Y18.4819 Z-4.5972
G01 X12.4983 Y18.4718 Z-4.6111
G01 X12.5442 Y18.4595 Z-4.6250
G01 X12.5896 Y18.4450 Z-4.6389
G01 X12.6342 Y18.4283 Z-4.6528
G01 X12.6779 Y18.4096 Z-4.6667
G01 X12.7207 Y18.3888 Z-4.6806
G01 X12.7625 Y18.3660 Z-4.6944
G01 X12.8031 Y18.3412 Z-4.7083
G01 X12.8425 Y18.3146 Z-4.7222
G01 X12.8806 Y18.2860 Z-4.7361
G01 X12.9173 Y18.2557 Z-4.7500
G01 X12.9526 Y18.2237 Z-4.7639
G01 X12.9862 Y18.1901 Z-4.7778
G01 X13.0182 Y18.1548 Z-4.7917
G01 X13.0485 Y18.1181 Z-4.8056
G01 X13.0771 Y18.0800 Z-4.8194
G01 X13.1037 Y18.0406 Z-4.8333
G01 X13.1285 Y18.0000 Z-4.8472
G01 X13.1513 Y17.9582 Z-4.8611
G01 X13.1721 Y17.9154 Z-4.8750
G01 X13.1908 Y17.8717 Z-4.8889
G01 X13.2075 Y17.8271 Z-4.9028
G01 X13.2220 Y17.7817 Z-4.9167
G01 X13.2343 Y17.7358 Z-4.9306
G01 X13.2444 Y17.6893 Z-4.9444
G01 X13.2523 Y17.6423 Z-4.9583
G01 X13.2579 Y17.5951 Z-4.9722
G01 X13.2613 Y17.5476 Z-4.9861
G01 X13.2625 Y17.5000 Z-5.0000
G01 X13.2613 Y17.4524
G01 X13.2579 Y17.4050
G01 X13.2523 Y17.3577
G01 X13.2444 Y17.3108
G01 X13.2343 Y17.2643
G01 X13.2220 Y17.2183
G01 X13.2075 Y17.1729
G01 X13.1908 Y17.1284
G01 X13.1721 Y17.0846
G01 X13.1513 Y17.0418
G01 X13.1285 Y17.0000
G01 X13.1037 Y16.9594
G01 X13.0771 Y16.9200
G01 X13.0485 Y16.8819
G01 X13.0182 Y16.8452
G01 X12.9862 Y16.8099
G01 X12.9526 Y16.7763
G01 X12.9173 Y16.7443
G01 X12.8806 Y16.7140
G01 X12.8425 Y16.6855
G01 X12.8031 Y16.6588
G01 X12.7625 Y16.6340
G01 X12.7207 Y16.6112
G01 X12.6779 Y16.5904
G01 X12.6342 Y16.5717
G01 X12.5896 Y16.5550
G01 X12.5442 Y16.5405
G01 X12.4983 Y16.5282
G01 X12.4517 Y16.5181
G01 X12.4048 Y16.5102
G01 X12.3576 Y16.5046
G01 X12.3101 Y16.5012
G01 X12.2625 Y16.5000
G01 X12.2149 Y16.5012
G01 X12.1674 Y16.5046
G01 X12.1202 Y16.5102
G01 X12.0733 Y16.5181
G01 X12.0268 Y16.5282
G01 X11.9808 Y16.5405
G01 X11.9354 Y16.5550
G01 X11.8909 Y16.5717
G01 X11.8471 Y16.5904
G01 X11.8043 Y16.6112
G01 X11.7625 Y16.6340
G01 X11.7219 Y16.6588
G01 X11.6825 Y16.6855
G01 X11.6444 Y16.7140
G01 X11.6077 Y16.7443
G01 X11.5724 Y16.7763
G01 X11.5388 Y16.8099
G01 X11.5068 Y16.8452
G01 X11.4765 Y16.8819
G01 X11.4480 Y16.9200
G01 X11.4213 Y16.9594
G01 X11.3965 Y17.0000
G01 X11.3737 Y17.0418
G01 X11.3529 Y17.0846
G01 X11.3342 Y17.1284
G01 X11.3175 Y17.1729
G01 X11.3030 Y17.2183
G01 X11.2907 Y17.2643
G01 X11.2806 Y17.3108
G01 X11.2727 Y17.3577
G01 X11.2671 Y17.4050
G01 X11.2637 Y17.4524
G01 X11.2625 Y17.5000
G01 X11.2637 Y17.5476
G01 X11.2671 Y17.5951
G01 X11.2727 Y17.6423
G01 X11.2806 Y17.6893
G01 X11.2907 Y17.7358
G01 X11.3030 Y17.7817
G01 X11.3175 Y17.8271
G01 X11.3342 Y17.8717
G01 X11.3529 Y17.9154
G01 X11.3737 Y17.9582
G01 X11.3965 Y18.0000
G01 X11.4213 Y18.0406
G01 X11.4480 Y18.0800
G01 X11.4765 Y18.1181
G01 X11.5068 Y18.1548
G01 X11.5388 Y18.1901
G01 X11.5724 Y18.2237
G01 X11.6077 Y18.2557
G01 X11.6444 Y18.2860
G01 X11.6825 Y18.3146
G01 X11.7219 Y18.3412
G01 X11.7625 Y18.3660
G01 X11.8043 Y18.3888
G01 X11.8471 Y18.4096
G01 X11.8909 Y18.4283
G01 X11.9354 Y18.4450
G01 X11.9808 Y18.4595
G01 X12.0268 Y18.4718
G01 X12.0733 Y18.4819
G01 X12.1202 Y18.4898
G01 X12.1674 Y18.4954
G01 X12.2149 Y18.4988
G01 X12.2625 Y18.5000
G01 X12.3101 Y18.4988
G01 X12.3576 Y18.4954
G01 X12.4048 Y18.4898
G01 X12.4517 Y18.4819
G01 X12.4983 Y18.4718
G01 X12.5442 Y18.4595
G01 X12.5896 Y18.4450
G01 X12.6342 Y18.4283
G01 X12.6779 Y18.4096
G01 X12.7207 Y18.3888
G01 X12.7625 Y18.3660
G01 X12.8031 Y18.3412
G01 X12.8425 Y18.3146
G01 X12.8806 Y18.2860
G01 X12.9173 Y18.2557
G01 X12.9526 Y18.2237
G01 X12.9862 Y18.1901
G01 X13.0182 Y18.1548
G01 X13.0485 Y18.1181
G01 X13.0771 Y18.0800
G01 X13.1037 Y18.0406
G01 X13.1285 Y18.0000
G01 X13.1513 Y17.9582
G01 X13.1721 Y17.9154
G01 X13.1908 Y17.8717
G01 X13.2075 Y17.8271
G01 X13.2220 Y17.7817
G01 X13.2343 Y17.7358
G01 X13.2444 Y17.6893
G01 X13.2523 Y17.6423
G01 X13.2579 Y17.5951
G01 X13.2613 Y17.5476
G01 X13.2625 Y17.5000
M107
M106 S240
G01 X13.2614 Y17.4673 Z-4.9896
M107
M106 S240
G01 X13.2582 Y17.4347 Z-4.9792
M107
M106 S240
G01 X13.2529 Y17.4025 Z-4.9688
M107
M106 S240
G01 X13.2454 Y17.3706 Z-4.9583
M107
M106 S240
G01 X13.2359 Y17.3393 Z-4.9479
M107
M106 S240
G01 X13.2244 Y17.3087 Z-4.9375
M107
M106 S240
G01 X13.2109 Y17.2789 Z-4.9271
M107
M106 S240
G01 X13.1955 Y17.2500 Z-4.9167
M107
M106 S240
G01 X13.1782 Y17.2222 Z-4.9063
M107
M106 S240
G01 X13.1592 Y17.1956 Z-4.8958
M107
M106 S240
G01 X13.1384 Y17.1703 Z-4.8854
M107
M106 S240
G01 X13.1160 Y17.1465 Z-4.8750
M107
M106 S240
G01 X13.0921 Y17.1241 Z-4.8646
M107
M106 S240
G01 X13.0669 Y17.1033 Z-4.8542
M107
M106 S240
G01 X13.0403 Y17.0843 Z-4.8438
M107
M106 S240
G01 X13.0125 Y17.0670 Z-4.8333
M107
M106 S240
G01 X12.9836 Y17.0516 Z-4.8229
M107
M106 S240
G01 X12.9538 Y17.0381 Z-4.8125
M107
M106 S240
G01 X12.9232 Y17.0266 Z-4.8021
M107
M106 S240
G01 X12.8919 Y17.0171 Z-4.7917
M107
M106 S240
G01 X12.8600 Y17.0096 Z-4.7813
M107
M106 S240
G01 X12.8277 Y17.0043 Z-4.7708
M107
M106 S240
G01 X12.7952 Y17.0011 Z-4.7604
M107
M106 S240
G01 X12.7625 Y17.0000 Z-4.7500
M107
M106 S240
G01 X12.7298 Y17.0011 Z-4.7396
M107
M106 S240
G01 X12.6972 Y17.0043 Z-4.7292
M107
M106 S240
G01 X12.6649 Y17.0096 Z-4.7188
M107
M106 S240
G01 X12.6331 Y17.0171 Z-4.7083
M107
M106 S240
G01 X12.6018 Y17.0266 Z-4.6979
M107
M106 S240
G01 X12.5712 Y17.0381 Z-4.6875
M107
M106 S240
G01 X12.5413 Y17.0516 Z-4.6771
M107
M106 S240
G01 X12.5125 Y17.0670 Z-4.6667
M107
M106 S240
G01 X12.4847 Y17.0843 Z-4.6563
M107
M106 S240
G01 X12.4581 Y17.1033 Z-4.6458
M107
M106 S240
G01 X12.4328 Y17.1241 Z-4.6354
M107
M106 S240
G01 X12.4089 Y17.1465 Z-4.6250
M107
M106 S240
G01 X12.3866 Y17.1703 Z-4.6146
M107
M106 S240
G01 X12.3658 Y17.1956 Z-4.6042
M107
M106 S240
G01 X12.3468 Y17.2222 Z-4.5938
M107
M106 S240
G01 X12.3295 Y17.2500 Z-4.5833
M107
M106 S240
G01 X12.3141 Y17.2789 Z-4.5729
M107
M106 S240
G01 X12.3006 Y17.3087 Z-4.5625
M107
M106 S240
G01 X12.2890 Y17.3393 Z-4.5521
M107
M106 S240
G01 X12.2795 Y17.3706 Z-4.5417
M107
M106 S240
G01 X12.2721 Y17.4025 Z-4.5313
M107
M106 S240
G01 X12.2668 Y17.4347 Z-4.5208
M107
M106 S240
G01 X12.2636 Y17.4673 Z-4.5104
M107
M106 S240
G01 X12.2625 Y17.5000 Z-4.5000
M107
G00 Z2.0000


;No. 2: Helical drill 7
G00 X168.2374 Y17.2494 Z2.0000
G00 Z0.5000
M106 S240
G01 X168.2362 Y17.2018 Z0.4861 F400
G01 X168.2328 Y17.1543 Z0.4722
G01 X168.2272 Y17.1071 Z0.4583
G01 X168.2193 Y17.0601 Z0.4444
G01 X168.2092 Y17.0136 Z0.4306
G01 X168.1969 Y16.9676 Z0.4167
G01 X168.1824 Y16.9223 Z0.4028
G01 X168.1657 Y16.8777 Z0.3889
G01 X168.1470 Y16.8340 Z0.3750
G01 X168.1262 Y16.7912 Z0.3611
G01 X168.1034 Y16.7494 Z0.3472
G01 X168.0786 Y16.7087 Z0.3333
G01 X168.0519 Y16.6693 Z0.3194
G01 X168.0234 Y16.6312 Z0.3056
G01 X167.9931 Y16.5945 Z0.2917
G01 X167.9611 Y16.5593 Z0.2778
G01 X167.9275 Y16.5257 Z0.2639
G01 X167.8922 Y16.4936 Z0.2500
G01 X167.8555 Y16.4633 Z0.2361
G01 X167.8174 Y16.4348 Z0.2222
G01 X167.7780 Y16.4081 Z0.2083
G01 X167.7374 Y16.3834 Z0.1944
G01 X167.6956 Y16.3606 Z0.1806
G01 X167.6528 Y16.3398 Z0.1667
G01 X167.6090 Y16.3210 Z0.1528
G01 X167.5645 Y16.3044 Z0.1389
G01 X167.5191 Y16.2899 Z0.1250
G01 X167.4731 Y16.2776 Z0.1111
G01 X167.4266 Y16.2675 Z0.0972
G01 X167.3797 Y16.2596 Z0.0833
G01 X167.3324 Y16.2539 Z0.0694
G01 X167.2850 Y16.2505 Z0.0556
G01 X167.2374 Y16.2494 Z0.0417
G01 X167.1898 Y16.2505 Z0.0278
G01 X167.1423 Y16.2539 Z0.0139
G01 X167.0951 Y16.2596 Z0.0000
G01 X167.0481 Y16.2675 Z-0.0139
G01 X167.0016 Y16.2776 Z-0.0278
G01 X166.9557 Y16.2899 Z-0.0417
G01 X166.9103 Y16.3044 Z-0.0556
G01 X166.8657 Y16.3210 Z-0.0694
G01 X166.8220 Y16.3398 Z-0.0833
G01 X166.7792 Y16.3606 Z-0.0972
G01 X166.7374 Y16.3834 Z-0.1111
G01 X166.6968 Y16.4081 Z-0.1250
G01 X166.6573 Y16.4348 Z-0.1389
G01 X166.6192 Y16.4633 Z-0.1528
G01 X166.5825 Y16.4936 Z-0.1667
G01 X166.5473 Y16.5257 Z-0.1806
G01 X166.5137 Y16.5593 Z-0.1944
G01 X166.4817 Y16.5945 Z-0.2083
G01 X166.4514 Y16.6312 Z-0.2222
G01 X166.4228 Y16.6693 Z-0.2361
G01 X166.3962 Y16.7087 Z-0.2500
G01 X166.3714 Y16.7494 Z-0.2639
G01 X166.3486 Y16.7912 Z-0.2778
G01 X166.3278 Y16.8340 Z-0.2917
G01 X166.3090 Y16.8777 Z-0.3056
G01 X166.2924 Y16.9223 Z-0.3194
G01 X166.2779 Y16.9676 Z-0.3333
G01 X166.2656 Y17.0136 Z-0.3472
G01 X166.2555 Y17.0601 Z-0.3611
G01 X166.2476 Y17.1071 Z-0.3750
G01 X166.2419 Y17.1543 Z-0.3889
G01 X166.2385 Y17.2018 Z-0.4028
G01 X166.2374 Y17.2494 Z-0.4167
G01 X166.2385 Y17.2970 Z-0.4306
G01 X166.2419 Y17.3444 Z-0.4444
G01 X166.2476 Y17.3917 Z-0.4583
G01 X166.2555 Y17.4386 Z-0.4722
G01 X166.2656 Y17.4851 Z-0.4861
G01 X166.2779 Y17.5311 Z-0.5000
G01 X166.2924 Y17.5764 Z-0.5139
G01 X166.3090 Y17.6210 Z-0.5278
G01 X166.3278 Y17.6648 Z-0.5417
G01 X166.3486 Y17.7076 Z-0.5556
G01 X166.3714 Y17.7494 Z-0.5694
G01 X166.3962 Y17.7900 Z-0.5833
G01 X166.4228 Y17.8294 Z-0.5972
G01 X166.4514 Y17.8675 Z-0.6111
G01 X166.4817 Y17.9042 Z-0.6250
G01 X166.5137 Y17.9394 Z-0.6389
G01 X166.5473 Y17.9731 Z-0.6528
G01 X166.5825 Y18.0051 Z-0.6667
G01 X166.6192 Y18.0354 Z-0.6806
G01 X166.6573 Y18.0639 Z-0.6944
G01 X166.6968 Y18.0906 Z-0.7083
G01 X166.7374 Y18.1154 Z-0.7222
G01 X166.7792 Y18.1382 Z-0.7361
G01 X166.8220 Y18.1590 Z-0.7500
G01 X166.8657 Y18.1777 Z-0.7639
G01 X166.9103 Y18.1943 Z-0.7778
G01 X166.9557 Y18.2088 Z-0.7917
G01 X167.0016 Y18.2212 Z-0.8056
G01 X167.0481 Y18.2313 Z-0.8194
G01 X167.0951 Y18.2392 Z-0.8333
G01 X167.1423 Y18.2448 Z-0.8472
G01 X167.1898 Y18.2482 Z-0.8611
G01 X167.2374 Y18.2493 Z-0.8750
G01 X167.2850 Y18.2482 Z-0.8889
G01 X167.3324 Y18.2448 Z-0.9028
G01 X167.3797 Y18.2392 Z-0.9167
G01 X167.4266 Y18.2313 Z-0.9306
G01 X167.4731 Y18.2212 Z-0.9444
G01 X167.5191 Y18.2088 Z-0.9583
G01 X167.5645 Y18.1943 Z-0.9722
G01 X167.6090 Y18.1777 Z-0.9861
G01 X167.6528 Y18.1590 Z-1.0000
G01 X167.6956 Y18.1382 Z-1.0139
G01 X167.7374 Y18.1154 Z-1.0278
G01 X167.7780 Y18.0906 Z-1.0417
G01 X167.8174 Y18.0639 Z-1.0556
G01 X167.8555 Y18.0354 Z-1.0694
G01 X167.8922 Y18.0051 Z-1.0833
G01 X167.9275 Y17.9731 Z-1.0972
G01 X167.9611 Y17.9394 Z-1.1111
G01 X167.9931 Y17.9042 Z-1.1250
G01 X168.0234 Y17.8675 Z-1.1389
G01 X168.0519 Y17.8294 Z-1.1528
G01 X168.0786 Y17.7900 Z-1.1667
G01 X168.1034 Y17.7494 Z-1.1806
G01 X168.1262 Y17.7076 Z-1.1944
G01 X168.1470 Y17.6648 Z-1.2083
G01 X168.1657 Y17.6210 Z-1.2222
G01 X168.1824 Y17.5764 Z-1.2361
G01 X168.1969 Y17.5311 Z-1.2500
G01 X168.2092 Y17.4851 Z-1.2639
G01 X168.2193 Y17.4386 Z-1.2778
G01 X168.2272 Y17.3917 Z-1.2917
G01 X168.2328 Y17.3444 Z-1.3056
G01 X168.2362 Y17.2970 Z-1.3194
G01 X168.2374 Y17.2494 Z-1.3333
G01 X168.2362 Y17.2018 Z-1.3472
G01 X168.2328 Y17.1543 Z-1.3611
G01 X168.2272 Y17.1071 Z-1.3750
G01 X168.2193 Y17.0601 Z-1.3889
G01 X168.2092 Y17.0136 Z-1.4028
G01 X168.1969 Y16.9676 Z-1.4167
G01 X168.1824 Y16.9223 Z-1.4306
G01 X168.1657 Y16.8777 Z-1.4444
G01 X168.1470 Y16.8340 Z-1.4583
G01 X168.1262 Y16.7912 Z-1.4722
G01 X168.1034 Y16.7494 Z-1.4861
G01 X168.0786 Y16.7087 Z-1.5000
G01 X168.0519 Y16.6693 Z-1.5139
G01 X168.0234 Y16.6312 Z-1.5278
G01 X167.9931 Y16.5945 Z-1.5417
G01 X167.9611 Y16.5593 Z-1.5556
G01 X167.9275 Y16.5257 Z-1.5694
G01 X167.8922 Y16.4936 Z-1.5833
G01 X167.8555 Y16.4633 Z-1.5972
G01 X167.8174 Y16.4348 Z-1.6111
G01 X167.7780 Y16.4081 Z-1.6250
G01 X167.7374 Y16.3834 Z-1.6389
G01 X167.6956 Y16.3606 Z-1.6528
G01 X167.6528 Y16.3398 Z-1.6667
G01 X167.6090 Y16.3210 Z-1.6806
G01 X167.5645 Y16.3044 Z-1.6944
G01 X167.5191 Y16.2899 Z-1.7083
G01 X167.4731 Y16.2776 Z-1.7222
G01 X167.4266 Y16.2675 Z-1.7361
G01 X167.3797 Y16.2596 Z-1.7500
G01 X167.3324 Y16.2539 Z-1.7639
G01 X167.2850 Y16.2505 Z-1.7778
G01 X167.2374 Y16.2494 Z-1.7917
G01 X167.1898 Y16.2505 Z-1.8056
G01 X167.1423 Y16.2539 Z-1.8194
G01 X167.0951 Y16.2596 Z-1.8333
G01 X167.0481 Y16.2675 Z-1.8472
G01 X167.0016 Y16.2776 Z-1.8611
G01 X166.9557 Y16.2899 Z-1.8750
G01 X166.9103 Y16.3044 Z-1.8889
G01 X166.8657 Y16.3210 Z-1.9028
G01 X166.8220 Y16.3398 Z-1.9167
G01 X166.7792 Y16.3606 Z-1.9306
G01 X166.7374 Y16.3834 Z-1.9444
G01 X166.6968 Y16.4081 Z-1.9583
G01 X166.6573 Y16.4348 Z-1.9722
G01 X166.6192 Y16.4633 Z-1.9861
G01 X166.5825 Y16.4936 Z-2.0000
G01 X166.5473 Y16.5257 Z-2.0139
G01 X166.5137 Y16.5593 Z-2.0278
G01 X166.4817 Y16.5945 Z-2.0417
G01 X166.4514 Y16.6312 Z-2.0556
G01 X166.4228 Y16.6693 Z-2.0694
G01 X166.3962 Y16.7087 Z-2.0833
G01 X166.3714 Y16.7494 Z-2.0972
G01 X166.3486 Y16.7912 Z-2.1111
G01 X166.3278 Y16.8340 Z-2.1250
G01 X166.3090 Y16.8777 Z-2.1389
G01 X166.2924 Y16.9223 Z-2.1528
G01 X166.2779 Y16.9676 Z-2.1667
G01 X166.2656 Y17.0136 Z-2.1806
G01 X166.2555 Y17.0601 Z-2.1944
G01 X166.2476 Y17.1071 Z-2.2083
G01 X166.2419 Y17.1543 Z-2.2222
G01 X166.2385 Y17.2018 Z-2.2361
G01 X166.2374 Y17.2494 Z-2.2500
G01 X166.2385 Y17.2970 Z-2.2639
G01 X166.2419 Y17.3444 Z-2.2778
G01 X166.2476 Y17.3917 Z-2.2917
G01 X166.2555 Y17.4386 Z-2.3056
G01 X166.2656 Y17.4851 Z-2.3194
G01 X166.2779 Y17.5311 Z-2.3333
G01 X166.2924 Y17.5764 Z-2.3472
G01 X166.3090 Y17.6210 Z-2.3611
G01 X166.3278 Y17.6648 Z-2.3750
G01 X166.3486 Y17.7076 Z-2.3889
G01 X166.3714 Y17.7494 Z-2.4028
G01 X166.3962 Y17.7900 Z-2.4167
G01 X166.4228 Y17.8294 Z-2.4306
G01 X166.4514 Y17.8675 Z-2.4444
G01 X166.4817 Y17.9042 Z-2.4583
G01 X166.5137 Y17.9394 Z-2.4722
G01 X166.5473 Y17.9731 Z-2.4861
G01 X166.5825 Y18.0051 Z-2.5000
G01 X166.6192 Y18.0354 Z-2.5139
G01 X166.6573 Y18.0639 Z-2.5278
G01 X166.6968 Y18.0906 Z-2.5417
G01 X166.7374 Y18.1154 Z-2.5556
G01 X166.7792 Y18.1382 Z-2.5694
G01 X166.8220 Y18.1590 Z-2.5833
G01 X166.8657 Y18.1777 Z-2.5972
G01 X166.9103 Y18.1943 Z-2.6111
G01 X166.9557 Y18.2088 Z-2.6250
G01 X167.0016 Y18.2212 Z-2.6389
G01 X167.0481 Y18.2313 Z-2.6528
G01 X167.0951 Y18.2392 Z-2.6667
G01 X167.1423 Y18.2448 Z-2.6806
G01 X167.1898 Y18.2482 Z-2.6944
G01 X167.2374 Y18.2493 Z-2.7083
G01 X167.2850 Y18.2482 Z-2.7222
G01 X167.3324 Y18.2448 Z-2.7361
G01 X167.3797 Y18.2392 Z-2.7500
G01 X167.4266 Y18.2313 Z-2.7639
G01 X167.4731 Y18.2212 Z-2.7778
G01 X167.5191 Y18.2088 Z-2.7917
G01 X167.5645 Y18.1943 Z-2.8056
G01 X167.6090 Y18.1777 Z-2.8194
G01 X167.6528 Y18.1590 Z-2.8333
G01 X167.6956 Y18.1382 Z-2.8472
G01 X167.7374 Y18.1154 Z-2.8611
G01 X167.7780 Y18.0906 Z-2.8750
G01 X167.8174 Y18.0639 Z-2.8889
G01 X167.8555 Y18.0354 Z-2.9028
G01 X167.8922 Y18.0051 Z-2.9167
G01 X167.9275 Y17.9731 Z-2.9306
G01 X167.9611 Y17.9394 Z-2.9444
G01 X167.9931 Y17.9042 Z-2.9583
G01 X168.0234 Y17.8675 Z-2.9722
G01 X168.0519 Y17.8294 Z-2.9861
G01 X168.0786 Y17.7900 Z-3.0000
G01 X168.1034 Y17.7494 Z-3.0139
G01 X168.1262 Y17.7076 Z-3.0278
G01 X168.1470 Y17.6648 Z-3.0417
G01 X168.1657 Y17.6210 Z-3.0556
G01 X168.1824 Y17.5764 Z-3.0694
G01 X168.1969 Y17.5311 Z-3.0833
G01 X168.2092 Y17.4851 Z-3.0972
G01 X168.2193 Y17.4386 Z-3.1111
G01 X168.2272 Y17.3917 Z-3.1250
G01 X168.2328 Y17.3444 Z-3.1389
G01 X168.2362 Y17.2970 Z-3.1528
G01 X168.2374 Y17.2494 Z-3.1667
G01 X168.2362 Y17.2018 Z-3.1806
G01 X168.2328 Y17.1543 Z-3.1944
G01 X168.2272 Y17.1071 Z-3.2083
G01 X168.2193 Y17.0601 Z-3.2222
G01 X168.2092 Y17.0136 Z-3.2361
G01 X168.1969 Y16.9676 Z-3.2500
G01 X168.1824 Y16.9223 Z-3.2639
G01 X168.1657 Y16.8777 Z-3.2778
G01 X168.1470 Y16.8340 Z-3.2917
G01 X168.1262 Y16.7912 Z-3.3056
G01 X168.1034 Y16.7494 Z-3.3194
G01 X168.0786 Y16.7087 Z-3.3333
G01 X168.0519 Y16.6693 Z-3.3472
G01 X168.0234 Y16.6312 Z-3.3611
G01 X167.9931 Y16.5945 Z-3.3750
G01 X167.9611 Y16.5593 Z-3.3889
G01 X167.9275 Y16.5257 Z-3.4028
G01 X167.8922 Y16.4936 Z-3.4167
G01 X167.8555 Y16.4633 Z-3.4306
G01 X167.8174 Y16.4348 Z-3.4444
G01 X167.7780 Y16.4081 Z-3.4583
G01 X167.7374 Y16.3834 Z-3.4722
G01 X167.6956 Y16.3606 Z-3.4861
G01 X167.6528 Y16.3398 Z-3.5000
G01 X167.6090 Y16.3210 Z-3.5139
G01 X167.5645 Y16.3044 Z-3.5278
G01 X167.5191 Y16.2899 Z-3.5417
G01 X167.4731 Y16.2776 Z-3.5556
G01 X167.4266 Y16.2675 Z-3.5694
G01 X167.3797 Y16.2596 Z-3.5833
G01 X167.3324 Y16.2539 Z-3.5972
G01 X167.2850 Y16.2505 Z-3.6111
G01 X167.2374 Y16.2494 Z-3.6250
G01 X167.1898 Y16.2505 Z-3.6389
G01 X167.1423 Y16.2539 Z-3.6528
G01 X167.0951 Y16.2596 Z-3.6667
G01 X167.0481 Y16.2675 Z-3.6806
G01 X167.0016 Y16.2776 Z-3.6944
G01 X166.9557 Y16.2899 Z-3.7083
G01 X166.9103 Y16.3044 Z-3.7222
G01 X166.8657 Y16.3210 Z-3.7361
G01 X166.8220 Y16.3398 Z-3.7500
G01 X166.7792 Y16.3606 Z-3.7639
G01 X166.7374 Y16.3834 Z-3.7778
G01 X166.6968 Y16.4081 Z-3.7917
G01 X166.6573 Y16.4348 Z-3.8056
G01 X166.6192 Y16.4633 Z-3.8194
G01 X166.5825 Y16.4936 Z-3.8333
G01 X166.5473 Y16.5257 Z-3.8472
G01 X166.5137 Y16.5593 Z-3.8611
G01 X166.4817 Y16.5945 Z-3.8750
G01 X166.4514 Y16.6312 Z-3.8889
G01 X166.4228 Y16.6693 Z-3.9028
G01 X166.3962 Y16.7087 Z-3.9167
G01 X166.3714 Y16.7494 Z-3.9306
G01 X166.3486 Y16.7912 Z-3.9444
G01 X166.3278 Y16.8340 Z-3.9583
G01 X166.3090 Y16.8777 Z-3.9722
G01 X166.2924 Y16.9223 Z-3.9861
G01 X166.2779 Y16.9676 Z-4.0000
G01 X166.2656 Y17.0136 Z-4.0139
G01 X166.2555 Y17.0601 Z-4.0278
G01 X166.2476 Y17.1071 Z-4.0417
G01 X166.2419 Y17.1543 Z-4.0556
G01 X166.2385 Y17.2018 Z-4.0694
G01 X166.2374 Y17.2494 Z-4.0833
G01 X166.2385 Y17.2970 Z-4.0972
G01 X166.2419 Y17.3444 Z-4.1111
G01 X166.2476 Y17.3917 Z-4.1250
G01 X166.2555 Y17.4386 Z-4.1389
G01 X166.2656 Y17.4851 Z-4.1528
G01 X166.2779 Y17.5311 Z-4.1667
G01 X166.2924 Y17.5764 Z-4.1806
G01 X166.3090 Y17.6210 Z-4.1944
G01 X166.3278 Y17.6648 Z-4.2083
G01 X166.3486 Y17.7076 Z-4.2222
G01 X166.3714 Y17.7494 Z-4.2361
G01 X166.3962 Y17.7900 Z-4.2500
G01 X166.4228 Y17.8294 Z-4.2639
G01 X166.4514 Y17.8675 Z-4.2778
G01 X166.4817 Y17.9042 Z-4.2917
G01 X166.5137 Y17.9394 Z-4.3056
G01 X166.5473 Y17.9731 Z-4.3194
G01 X166.5825 Y18.0051 Z-4.3333
G01 X166.6192 Y18.0354 Z-4.3472
G01 X166.6573 Y18.0639 Z-4.3611
G01 X166.6968 Y18.0906 Z-4.3750
G01 X166.7374 Y18.1154 Z-4.3889
G01 X166.7792 Y18.1382 Z-4.4028
G01 X166.8220 Y18.1590 Z-4.4167
G01 X166.8657 Y18.1777 Z-4.4306
G01 X166.9103 Y18.1943 Z-4.4444
G01 X166.9557 Y18.2088 Z-4.4583
G01 X167.0016 Y18.2212 Z-4.4722
G01 X167.0481 Y18.2313 Z-4.4861
G01 X167.0951 Y18.2392 Z-4.5000
G01 X167.1423 Y18.2448 Z-4.5139
G01 X167.1898 Y18.2482 Z-4.5278
G01 X167.2374 Y18.2493 Z-4.5417
G01 X167.2850 Y18.2482 Z-4.5556
G01 X167.3324 Y18.2448 Z-4.5694
G01 X167.3797 Y18.2392 Z-4.5833
G01 X167.4266 Y18.2313 Z-4.5972
G01 X167.4731 Y18.2212 Z-4.6111
G01 X167.5191 Y18.2088 Z-4.6250
G01 X167.5645 Y18.1943 Z-4.6389
G01 X167.6090 Y18.1777 Z-4.6528
G01 X167.6528 Y18.1590 Z-4.6667
G01 X167.6956 Y18.1382 Z-4.6806
G01 X167.7374 Y18.1154 Z-4.6944
G01 X167.7780 Y18.0906 Z-4.7083
G01 X167.8174 Y18.0639 Z-4.7222
G01 X167.8555 Y18.0354 Z-4.7361
G01 X167.8922 Y18.0051 Z-4.7500
G01 X167.9275 Y17.9731 Z-4.7639
G01 X167.9611 Y17.9394 Z-4.7778
G01 X167.9931 Y17.9042 Z-4.7917
G01 X168.0234 Y17.8675 Z-4.8056
G01 X168.0519 Y17.8294 Z-4.8194
G01 X168.0786 Y17.7900 Z-4.8333
G01 X168.1034 Y17.7494 Z-4.8472
G01 X168.1262 Y17.7076 Z-4.8611
G01 X168.1470 Y17.6648 Z-4.8750
G01 X168.1657 Y17.6210 Z-4.8889
G01 X168.1824 Y17.5764 Z-4.9028
G01 X168.1969 Y17.5311 Z-4.9167
G01 X168.2092 Y17.4851 Z-4.9306
G01 X168.2193 Y17.4386 Z-4.9444
G01 X168.2272 Y17.3917 Z-4.9583
G01 X168.2328 Y17.3444 Z-4.9722
G01 X168.2362 Y17.2970 Z-4.9861
G01 X168.2374 Y17.2494 Z-5.0000
G01 X168.2362 Y17.2018
G01 X168.2328 Y17.1543
G01 X168.2272 Y17.1071
G01 X168.2193 Y17.0601
G01 X168.2092 Y17.0136
G01 X168.1969 Y16.9676
G01 X168.1824 Y16.9223
G01 X168.1657 Y16.8777
G01 X168.1470 Y16.8340
G01 X168.1262 Y16.7912
G01 X168.1034 Y16.7494
G01 X168.0786 Y16.7087
G01 X168.0519 Y16.6693
G01 X168.0234 Y16.6312
G01 X167.9931 Y16.5945
G01 X167.9611 Y16.5593
G01 X167.9275 Y16.5257
G01 X167.8922 Y16.4936
G01 X167.8555 Y16.4633
G01 X167.8174 Y16.4348
G01 X167.7780 Y16.4081
G01 X167.7374 Y16.3834
G01 X167.6956 Y16.3606
G01 X167.6528 Y16.3398
G01 X167.6090 Y16.3210
G01 X167.5645 Y16.3044
G01 X167.5191 Y16.2899
G01 X167.4731 Y16.2776
G01 X167.4266 Y16.2675
G01 X167.3797 Y16.2596
G01 X167.3324 Y16.2539
G01 X167.2850 Y16.2505
G01 X167.2374 Y16.2494
G01 X167.1898 Y16.2505
G01 X167.1423 Y16.2539
G01 X167.0951 Y16.2596
G01 X167.0481 Y16.2675
G01 X167.0016 Y16.2776
G01 X166.9557 Y16.2899
G01 X166.9103 Y16.3044
G01 X166.8657 Y16.3210
G01 X166.8220 Y16.3398
G01 X166.7792 Y16.3606
G01 X166.7374 Y16.3834
G01 X166.6968 Y16.4081
G01 X166.6573 Y16.4348
G01 X166.6192 Y16.4633
G01 X166.5825 Y16.4936
G01 X166.5473 Y16.5257
G01 X166.5137 Y16.5593
G01 X166.4817 Y16.5945
G01 X166.4514 Y16.6312
G01 X166.4228 Y16.6693
G01 X166.3962 Y16.7087
G01 X166.3714 Y16.7494
G01 X166.3486 Y16.7912
G01 X166.3278 Y16.8340
G01 X166.3090 Y16.8777
G01 X166.2924 Y16.9223
G01 X166.2779 Y16.9676
G01 X166.2656 Y17.0136
G01 X166.2555 Y17.0601
G01 X166.2476 Y17.1071
G01 X166.2419 Y17.1543
G01 X166.2385 Y17.2018
G01 X166.2374 Y17.2494
G01 X166.2385 Y17.2970
G01 X166.2419 Y17.3444
G01 X166.2476 Y17.3917
G01 X166.2555 Y17.4386
G01 X166.2656 Y17.4851
G01 X166.2779 Y17.5311
G01 X166.2924 Y17.5764
G01 X166.3090 Y17.6210
G01 X166.3278 Y17.6648
G01 X166.3486 Y17.7076
G01 X166.3714 Y17.7494
G01 X166.3962 Y17.7900
G01 X166.4228 Y17.8294
G01 X166.4514 Y17.8675
G01 X166.4817 Y17.9042
G01 X166.5137 Y17.9394
G01 X166.5473 Y17.9731
G01 X166.5825 Y18.0051
G01 X166.6192 Y18.0354
G01 X166.6573 Y18.0639
G01 X166.6968 Y18.0906
G01 X166.7374 Y18.1154
G01 X166.7792 Y18.1382
G01 X166.8220 Y18.1590
G01 X166.8657 Y18.1777
G01 X166.9103 Y18.1943
G01 X166.9557 Y18.2088
G01 X167.0016 Y18.2212
G01 X167.0481 Y18.2313
G01 X167.0951 Y18.2392
G01 X167.1423 Y18.2448
G01 X167.1898 Y18.2482
G01 X167.2374 Y18.2493
G01 X167.2850 Y18.2482
G01 X167.3324 Y18.2448
G01 X167.3797 Y18.2392
G01 X167.4266 Y18.2313
G01 X167.4731 Y18.2212
G01 X167.5191 Y18.2088
G01 X167.5645 Y18.1943
G01 X167.6090 Y18.1777
G01 X167.6528 Y18.1590
G01 X167.6956 Y18.1382
G01 X167.7374 Y18.1154
G01 X167.7780 Y18.0906
G01 X167.8174 Y18.0639
G01 X167.8555 Y18.0354
G01 X167.8922 Y18.0051
G01 X167.9275 Y17.9731
G01 X167.9611 Y17.9394
G01 X167.9931 Y17.9042
G01 X168.0234 Y17.8675
G01 X168.0519 Y17.8294
G01 X168.0786 Y17.7900
G01 X168.1034 Y17.7494
G01 X168.1262 Y17.7076
G01 X168.1470 Y17.6648
G01 X168.1657 Y17.6210
G01 X168.1824 Y17.5764
G01 X168.1969 Y17.5311
G01 X168.2092 Y17.4851
G01 X168.2193 Y17.4386
G01 X168.2272 Y17.3917
G01 X168.2328 Y17.3444
G01 X168.2362 Y17.2970
G01 X168.2374 Y17.2494
M107
M106 S240
G01 X168.2363 Y17.2167 Z-4.9896
M107
M106 S240
G01 X168.2331 Y17.1841 Z-4.9792
M107
M106 S240
G01 X168.2278 Y17.1518 Z-4.9688
M107
M106 S240
G01 X168.2203 Y17.1200 Z-4.9583
M107
M106 S240
G01 X168.2108 Y17.0887 Z-4.9479
M107
M106 S240
G01 X168.1993 Y17.0580 Z-4.9375
M107
M106 S240
G01 X168.1858 Y17.0282 Z-4.9271
M107
M106 S240
G01 X168.1704 Y16.9994 Z-4.9167
M107
M106 S240
G01 X168.1531 Y16.9716 Z-4.9063
M107
M106 S240
G01 X168.1340 Y16.9450 Z-4.8958
M107
M106 S240
G01 X168.1133 Y16.9197 Z-4.8854
M107
M106 S240
G01 X168.0909 Y16.8958 Z-4.8750
M107
M106 S240
G01 X168.0670 Y16.8735 Z-4.8646
M107
M106 S240
G01 X168.0418 Y16.8527 Z-4.8542
M107
M106 S240
G01 X168.0152 Y16.8336 Z-4.8438
M107
M106 S240
G01 X167.9874 Y16.8164 Z-4.8333
M107
M106 S240
G01 X167.9585 Y16.8009 Z-4.8229
M107
M106 S240
G01 X167.9287 Y16.7874 Z-4.8125
M107
M106 S240
G01 X167.8981 Y16.7759 Z-4.8021
M107
M106 S240
G01 X167.8668 Y16.7664 Z-4.7917
M107
M106 S240
G01 X167.8349 Y16.7590 Z-4.7813
M107
M106 S240
G01 X167.8026 Y16.7537 Z-4.7708
M107
M106 S240
G01 X167.7701 Y16.7505 Z-4.7604
M107
M106 S240
G01 X167.7374 Y16.7494 Z-4.7500
M107
M106 S240
G01 X167.7047 Y16.7505 Z-4.7396
M107
M106 S240
G01 X167.6721 Y16.7537 Z-4.7292
M107
M106 S240
G01 X167.6398 Y16.7590 Z-4.7188
M107
M106 S240
G01 X167.6080 Y16.7664 Z-4.7083
M107
M106 S240
G01 X167.5767 Y16.7759 Z-4.6979
M107
M106 S240
G01 X167.5460 Y16.7874 Z-4.6875
M107
M106 S240
G01 X167.5162 Y16.8009 Z-4.6771
M107
M106 S240
G01 X167.4874 Y16.8164 Z-4.6667
M107
M106 S240
G01 X167.4596 Y16.8336 Z-4.6563
M107
M106 S240
G01 X167.4330 Y16.8527 Z-4.6458
M107
M106 S240
G01 X167.4077 Y16.8735 Z-4.6354
M107
M106 S240
G01 X167.3838 Y16.8958 Z-4.6250
M107
M106 S240
G01 X167.3615 Y16.9197 Z-4.6146
M107
M106 S240
G01 X167.3407 Y16.9450 Z-4.6042
M107
M106 S240
G01 X167.3217 Y16.9716 Z-4.5938
M107
M106 S240
G01 X167.3044 Y16.9994 Z-4.5833
M107
M106 S240
G01 X167.2890 Y17.0282 Z-4.5729
M107
M106 S240
G01 X167.2754 Y17.0580 Z-4.5625
M107
M106 S240
G01 X167.2639 Y17.0887 Z-4.5521
M107
M106 S240
G01 X167.2544 Y17.1200 Z-4.5417
M107
M106 S240
G01 X167.2470 Y17.1518 Z-4.5313
M107
M106 S240
G01 X167.2417 Y17.1841 Z-4.5208
M107
M106 S240
G01 X167.2385 Y17.2167 Z-4.5104
M107
M106 S240
G01 X167.2374 Y17.2494 Z-4.5000
M107
G00 Z2.0000


;No. 3: Hole 5
G00 X18.0651 Y24.3999 Z2.0000
G00 Z0.5000
G01 Z0.0000 F400
G01 Z-1.0000
M106 S240
G01 X17.5216 Y24.8108 F800
G01 X16.9947 Y25.2428
G01 X16.4852 Y25.6952
G01 X15.9940 Y26.1673
G01 X15.5218 Y26.6585
G01 X15.0693 Y27.1678
G01 X14.6372 Y27.6946
G01 X14.2262 Y28.2381
G01 X13.8370 Y28.7973
G01 X13.4701 Y29.3714
G01 X13.1261 Y29.9595
G01 X12.8056 Y30.5607
G01 X12.5090 Y31.1741
G01 X12.2368 Y31.7987
G01 X11.9895 Y32.4336
G01 X11.7674 Y33.0777
G01 X11.5708 Y33.7301
G01 X11.4001 Y34.3897
G01 X11.2555 Y35.0555
G01 X11.1373 Y35.7265
G01 X11.0456 Y36.4016
G01 X10.9807 Y37.0798
G01 X10.9424 Y37.7601
G01 X10.9311 Y38.4413
G01 Y69.3792
G01 X10.9456 Y70.1361
G01 X10.9932 Y70.8916
G01 X11.0739 Y71.6444
G01 X11.1874 Y72.3929
G01 X11.3336 Y73.1357
G01 X11.5121 Y73.8714
G01 X11.7227 Y74.5985
G01 X11.9649 Y75.3158
G01 X12.2383 Y76.0218
G01 X12.5423 Y76.7151
G01 X12.8763 Y77.3944
G01 X13.2398 Y78.0585
G01 X13.6320 Y78.7061
G01 X14.0521 Y79.3358
G01 X14.4995 Y79.9466
G01 X14.9731 Y80.5372
G01 X15.4721 Y81.1065
G01 X15.9956 Y81.6534
G01 X16.5425 Y82.1768
G01 X17.1117 Y82.6759
G01 X17.7023 Y83.1495
G01 X18.3131 Y83.5968
G01 X18.9428 Y84.0170
G01 X19.5903 Y84.4092
G01 X20.2544 Y84.7727
G01 X20.9338 Y85.1068
G01 X21.6271 Y85.4108
G01 X22.3330 Y85.6842
G01 X23.0503 Y85.9264
G01 X23.7775 Y86.1370
G01 X24.5132 Y86.3156
G01 X25.2559 Y86.4618
G01 X26.0044 Y86.5753
G01 X26.7572 Y86.6560
G01 X27.5127 Y86.7036
G01 X28.2696 Y86.7182
G01 X47.1028
G01 X47.9012 Y86.7325
G01 X48.6985 Y86.7782
G01 X49.4933 Y86.8552
G01 X50.2845 Y86.9635
G01 X51.0708 Y87.1028
G01 X51.8511 Y87.2730
G01 X52.6240 Y87.4737
G01 X53.3884 Y87.7047
G01 X54.1432 Y87.9655
G01 X54.8871 Y88.2559
G01 X55.6190 Y88.5753
G01 X56.3378 Y88.9233
G01 X57.0423 Y89.2992
G01 X57.7315 Y89.7027
G01 X58.4043 Y90.1329
G01 X59.0596 Y90.5892
G01 X59.6965 Y91.0710
G01 X60.3139 Y91.5775
G01 X60.9109 Y92.1078
G01 X61.4866 Y92.6613
G01 X62.0400 Y93.2370
G01 X62.5704 Y93.8340
G01 X63.0768 Y94.4514
G01 X63.5586 Y95.0882
G01 X64.0150 Y95.7436
G01 X64.4452 Y96.4164
G01 X64.8486 Y97.1055
G01 X65.2246 Y97.8101
G01 X65.5726 Y98.5288
G01 X65.8920 Y99.2607
G01 X66.1823 Y100.0046
G01 X66.4432 Y100.7594
G01 X66.6742 Y101.5238
G01 X66.8749 Y102.2968
G01 X67.0450 Y103.0770
G01 X67.1844 Y103.8633
G01 X67.2926 Y104.6545
G01 X67.3697 Y105.4494
G01 X67.4154 Y106.2466
G01 X67.4297 Y107.0451
G01 Y149.4305
G01 X67.4154 Y150.2290
G01 X67.3697 Y151.0262
G01 X67.2926 Y151.8211
G01 X67.1844 Y152.6123
G01 X67.0451 Y153.3986
G01 X66.8749 Y154.1789
G01 X66.6742 Y154.9518
G01 X66.4432 Y155.7162
G01 X66.1824 Y156.4710
G01 X65.8920 Y157.2149
G01 X65.5726 Y157.9468
G01 X65.2246 Y158.6656
G01 X64.8487 Y159.3702
G01 X64.4453 Y160.0593
G01 X64.0151 Y160.7321
G01 X63.5587 Y161.3875
G01 X63.0769 Y162.0243
G01 X62.5705 Y162.6418
G01 X62.0401 Y163.2388
G01 X61.4866 Y163.8145
G01 X60.9110 Y164.3679
G01 X60.3140 Y164.8983
G01 X59.6965 Y165.4048
G01 X59.0597 Y165.8866
G01 X58.4044 Y166.3430
G01 X57.7316 Y166.7732
G01 X57.0424 Y167.1766
G01 X56.3379 Y167.5526
G01 X55.6191 Y167.9006
G01 X54.8872 Y168.2200
G01 X54.1433 Y168.5104
G01 X53.3885 Y168.7713
G01 X52.6241 Y169.0023
G01 X51.8511 Y169.2030
G01 X51.0709 Y169.3732
G01 X50.2846 Y169.5125
G01 X49.4934 Y169.6208
G01 X48.6985 Y169.6979
G01 X47.9013 Y169.7436
G01 X47.1028 Y169.7579
G01 X28.2693
G01 X27.4720 Y169.7680
G01 X26.6760 Y169.8140
G01 X25.8830 Y169.8959
G01 X25.0944 Y170.0135
G01 X24.3119 Y170.1666
G01 X23.5372 Y170.3549
G01 X22.7718 Y170.5780
G01 X22.0172 Y170.8354
G01 X21.2750 Y171.1267
G01 X20.5467 Y171.4511
G01 X19.8338 Y171.8081
G01 X19.1377 Y172.1970
G01 X18.4599 Y172.6168
G01 X17.8018 Y173.0669
G01 X17.1646 Y173.5462
G01 X16.5498 Y174.0538
G01 X15.9585 Y174.5886
G01 X15.3919 Y175.1496
G01 X14.8513 Y175.7356
G01 X14.3377 Y176.3454
G01 X13.9388 Y176.8694
G01 X13.5622 Y177.4097
G01 X13.2087 Y177.9653
G01 X12.8788 Y178.5353
G01 X12.5732 Y179.1186
G01 X12.2923 Y179.7142
G01 X12.0366 Y180.3211
G01 X11.8066 Y180.9382
G01 X11.6028 Y181.5644
G01 X11.4254 Y182.1986
G01 X11.2748 Y182.8397
G01 X11.1512 Y183.4866
G01 X11.0549 Y184.1381
G01 X10.9861 Y184.7930
G01 X10.9448 Y185.4503
G01 X10.9311 Y186.1087
G01 Y242.8376
G01 X10.9506 Y243.5627
G01 X11.0030 Y244.2861
G01 X11.0883 Y245.0065
G01 X11.2063 Y245.7221
G01 X11.3567 Y246.4317
G01 X11.5392 Y247.1337
G01 X11.7534 Y247.8267
G01 X11.9990 Y248.5092
G01 X12.2753 Y249.1799
G01 X12.5819 Y249.8373
G01 X12.9180 Y250.4800
G01 X13.2830 Y251.1069
G01 X13.6762 Y251.7164
G01 X14.0966 Y252.3075
G01 X14.5435 Y252.8788
G01 X15.0160 Y253.4292
G01 X15.5130 Y253.9575
G01 X16.0335 Y254.4627
G01 X16.5764 Y254.9437
G01 X17.1406 Y255.3995
G01 X17.7404 Y255.8473
G01 X18.3584 Y256.2698
G01 X18.9934 Y256.6660
G01 X19.6445 Y257.0354
G01 X20.3104 Y257.3773
G01 X20.9900 Y257.6912
G01 X21.6821 Y257.9763
G01 X22.3855 Y258.2324
G01 X23.0990 Y258.4588
G01 X23.8213 Y258.6552
G01 X24.5511 Y258.8214
G01 X25.2873 Y258.9569
G01 X26.0285 Y259.0616
G01 X26.7734 Y259.1352
G01 X27.5208 Y259.1777
G01 X28.2692 Y259.1889
G01 X150.6724
G01 X151.4697 Y259.1789
G01 X152.2656 Y259.1328
G01 X153.0587 Y259.0509
G01 X153.8473 Y258.9333
G01 X154.6298 Y258.7801
G01 X155.4045 Y258.5918
G01 X156.1700 Y258.3687
G01 X156.9246 Y258.1113
G01 X157.6668 Y257.8200
G01 X158.3951 Y257.4956
G01 X159.1080 Y257.1385
G01 X159.8040 Y256.7497
G01 X160.4818 Y256.3298
G01 X161.1399 Y255.8797
G01 X161.7771 Y255.4004
G01 X162.3919 Y254.8928
G01 X162.9832 Y254.3580
G01 X163.5498 Y253.7970
G01 X164.0904 Y253.2110
G01 X164.6040 Y252.6011
G01 X165.0029 Y252.0771
G01 X165.3794 Y251.5368
G01 X165.7329 Y250.9812
G01 X166.0628 Y250.4112
G01 X166.3685 Y249.8279
G01 X166.6494 Y249.2322
G01 X166.9051 Y248.6253
G01 X167.1350 Y248.0082
G01 X167.3389 Y247.3820
G01 X167.5163 Y246.7478
G01 X167.6669 Y246.1066
G01 X167.7904 Y245.4598
G01 X167.8867 Y244.8083
G01 X167.9556 Y244.1533
G01 X167.9969 Y243.4961
G01 X168.0106 Y242.8377
G01 Y186.1087
G01 X167.9911 Y185.3837
G01 X167.9387 Y184.6602
G01 X167.8534 Y183.9399
G01 X167.7354 Y183.2242
G01 X167.5850 Y182.5147
G01 X167.4025 Y181.8127
G01 X167.1883 Y181.1197
G01 X166.9427 Y180.4372
G01 X166.6664 Y179.7665
G01 X166.3598 Y179.1092
G01 X166.0237 Y178.4664
G01 X165.6587 Y177.8396
G01 X165.2655 Y177.2301
G01 X164.8450 Y176.6390
G01 X164.3981 Y176.0677
G01 X163.9257 Y175.5174
G01 X163.4287 Y174.9890
G01 X162.9082 Y174.4839
G01 X162.3653 Y174.0029
G01 X161.8010 Y173.5471
G01 X161.2012 Y173.0993
G01 X160.5833 Y172.6769
G01 X159.9482 Y172.2806
G01 X159.2971 Y171.9112
G01 X158.6312 Y171.5694
G01 X157.9516 Y171.2556
G01 X157.2595 Y170.9704
G01 X156.5561 Y170.7144
G01 X155.8427 Y170.4880
G01 X155.1204 Y170.2915
G01 X154.3905 Y170.1254
G01 X153.6543 Y169.9899
G01 X152.9131 Y169.8852
G01 X152.1682 Y169.8116
G01 X151.4209 Y169.7692
G01 X150.6724 Y169.7579
G01 X131.8389
G01 X131.0404 Y169.7436
G01 X130.2432 Y169.6979
G01 X129.4483 Y169.6208
G01 X128.6571 Y169.5125
G01 X127.8708 Y169.3732
G01 X127.0906 Y169.2030
G01 X126.3176 Y169.0023
G01 X125.5532 Y168.7713
G01 X124.7984 Y168.5104
G01 X124.0545 Y168.2201
G01 X123.3226 Y167.9006
G01 X122.6038 Y167.5526
G01 X121.8993 Y167.1767
G01 X121.2101 Y166.7732
G01 X120.5374 Y166.3430
G01 X119.8820 Y165.8866
G01 X119.2452 Y165.4048
G01 X118.6278 Y164.8984
G01 X118.0307 Y164.3680
G01 X117.4551 Y163.8145
G01 X116.9016 Y163.2388
G01 X116.3712 Y162.6418
G01 X115.8648 Y162.0244
G01 X115.3830 Y161.3875
G01 X114.9266 Y160.7322
G01 X114.4964 Y160.0594
G01 X114.0930 Y159.3702
G01 X113.7171 Y158.6657
G01 X113.3691 Y157.9469
G01 X113.0497 Y157.2150
G01 X112.7593 Y156.4711
G01 X112.4984 Y155.7163
G01 X112.2675 Y154.9518
G01 X112.0668 Y154.1789
G01 X111.8966 Y153.3987
G01 X111.7573 Y152.6123
G01 X111.6490 Y151.8211
G01 X111.5720 Y151.0263
G01 X111.5263 Y150.2290
G01 X111.5120 Y149.4306
G01 Y107.0451
G01 X111.5263 Y106.2467
G01 X111.5720 Y105.4494
G01 X111.6490 Y104.6546
G01 X111.7573 Y103.8634
G01 X111.8966 Y103.0770
G01 X112.0668 Y102.2968
G01 X112.2675 Y101.5239
G01 X112.4984 Y100.7594
G01 X112.7593 Y100.0047
G01 X113.0497 Y99.2608
G01 X113.3691 Y98.5289
G01 X113.7171 Y97.8101
G01 X114.0930 Y97.1056
G01 X114.4964 Y96.4164
G01 X114.9267 Y95.7436
G01 X115.3830 Y95.0883
G01 X115.8648 Y94.4514
G01 X116.3713 Y93.8340
G01 X116.9016 Y93.2370
G01 X117.4551 Y92.6613
G01 X118.0308 Y92.1079
G01 X118.6278 Y91.5775
G01 X119.2452 Y91.0710
G01 X119.8820 Y90.5892
G01 X120.5374 Y90.1329
G01 X121.2101 Y89.7027
G01 X121.8993 Y89.2993
G01 X122.6038 Y88.9233
G01 X123.3226 Y88.5753
G01 X124.0545 Y88.2559
G01 X124.7984 Y87.9655
G01 X125.5532 Y87.7047
G01 X126.3176 Y87.4737
G01 X127.0906 Y87.2730
G01 X127.8708 Y87.1028
G01 X128.6571 Y86.9635
G01 X129.4483 Y86.8552
G01 X130.2431 Y86.7782
G01 X131.0404 Y86.7325
G01 X131.8388 Y86.7182
G01 X150.6721
G01 X151.4290 Y86.7036
G01 X152.1845 Y86.6560
G01 X152.9373 Y86.5753
G01 X153.6858 Y86.4618
G01 X154.4286 Y86.3156
G01 X155.1642 Y86.1370
G01 X155.8914 Y85.9264
G01 X156.6087 Y85.6842
G01 X157.3146 Y85.4108
G01 X158.0079 Y85.1068
G01 X158.6873 Y84.7727
G01 X159.3514 Y84.4092
G01 X159.9989 Y84.0170
G01 X160.6286 Y83.5968
G01 X161.2394 Y83.1495
G01 X161.8300 Y82.6758
G01 X162.3992 Y82.1768
G01 X162.9461 Y81.6533
G01 X163.4696 Y81.1064
G01 X163.9686 Y80.5371
G01 X164.4422 Y79.9465
G01 X164.8896 Y79.3358
G01 X165.3097 Y78.7060
G01 X165.7019 Y78.0585
G01 X166.0654 Y77.3944
G01 X166.3994 Y76.7150
G01 X166.7034 Y76.0217
G01 X166.9768 Y75.3157
G01 X167.2190 Y74.5985
G01 X167.4296 Y73.8713
G01 X167.6081 Y73.1356
G01 X167.7543 Y72.3928
G01 X167.8678 Y71.6443
G01 X167.9485 Y70.8916
G01 X167.9961 Y70.1360
G01 X168.0106 Y69.3791
G01 Y38.4413
G01 X167.9961 Y37.6844
G01 X167.9484 Y36.9289
G01 X167.8678 Y36.1761
G01 X167.7543 Y35.4276
G01 X167.6081 Y34.6849
G01 X167.4295 Y33.9492
G01 X167.2190 Y33.2220
G01 X166.9767 Y32.5048
G01 X166.7034 Y31.7988
G01 X166.3994 Y31.1055
G01 X166.0653 Y30.4261
G01 X165.7018 Y29.7621
G01 X165.3096 Y29.1145
G01 X164.8895 Y28.4848
G01 X164.4422 Y27.8741
G01 X163.9685 Y27.2835
G01 X163.4695 Y26.7142
G01 X162.9461 Y26.1673
G01 X162.3992 Y25.6438
G01 X161.8299 Y25.1448
G01 X161.2393 Y24.6712
G01 X160.6285 Y24.2239
G01 X159.9988 Y23.8037
G01 X159.3513 Y23.4115
G01 X158.6872 Y23.0480
G01 X158.0079 Y22.7140
G01 X157.3145 Y22.4100
G01 X156.6086 Y22.1366
G01 X155.8913 Y21.8944
G01 X155.1642 Y21.6838
G01 X154.4285 Y21.5053
G01 X153.6857 Y21.3591
G01 X152.9372 Y21.2456
G01 X152.1845 Y21.1649
G01 X151.4289 Y21.1173
G01 X150.6720 Y21.1028
G01 X28.2696
G01 X27.5882 Y21.1142
G01 X26.9078 Y21.1525
G01 X26.2295 Y21.2175
G01 X25.5543 Y21.3093
G01 X24.8832 Y21.4276
G01 X24.2172 Y21.5722
G01 X23.5575 Y21.7431
G01 X22.9051 Y21.9397
G01 X22.2609 Y22.1620
G01 X21.6260 Y22.4095
G01 X21.0013 Y22.6818
G01 X20.3879 Y22.9786
G01 X19.7866 Y23.2993
G01 X19.1984 Y23.6434
G01 X18.6243 Y24.0105
G01 X18.0651 Y24.3999
M107
G00 Z2.0000


;No. 4: Hole 4
G00 X59.7215 Y125.2379 Z2.0000
G00 Z0.5000
G01 Z0.0000 F400
G01 Z-2.0000
M106 S240
G01 Y107.0569 F800
G01 X59.7066 Y106.4370
G01 X59.6612 Y105.8187
G01 X59.5855 Y105.2033
G01 X59.4797 Y104.5923
G01 X59.3441 Y103.9873
G01 X59.1789 Y103.3897
G01 X58.9846 Y102.8010
G01 X58.7616 Y102.2224
G01 X58.5104 Y101.6555
G01 X58.2318 Y101.1017
G01 X57.9262 Y100.5622
G01 X57.5946 Y100.0383
G01 X57.2376 Y99.5313
G01 X56.8562 Y99.0425
G01 X56.4512 Y98.5730
G01 X56.0237 Y98.1240
G01 X55.5747 Y97.6965
G01 X55.1052 Y97.2915
G01 X54.6163 Y96.9101
G01 X54.1094 Y96.5531
G01 X53.5855 Y96.2215
G01 X53.0460 Y95.9160
G01 X52.4921 Y95.6373
G01 X51.9252 Y95.3862
G01 X51.3467 Y95.1632
G01 X50.7579 Y94.9688
G01 X50.1603 Y94.8037
G01 X49.5553 Y94.6680
G01 X48.9444 Y94.5622
G01 X48.3290 Y94.4866
G01 X47.7106 Y94.4412
G01 X47.0908 Y94.4263
G01 X23.5589
G01 X22.9391 Y94.4414
G01 X22.3209 Y94.4868
G01 X21.7056 Y94.5626
G01 X21.0948 Y94.6685
G01 X20.4900 Y94.8042
G01 X19.8925 Y94.9695
G01 X19.3039 Y95.1638
G01 X18.7255 Y95.3869
G01 X18.1587 Y95.6381
G01 X17.6050 Y95.9168
G01 X17.0656 Y96.2223
G01 X16.5419 Y96.5539
G01 X16.0350 Y96.9109
G01 X15.5464 Y97.2923
G01 X15.0770 Y97.6972
G01 X14.6280 Y98.1247
G01 X14.2006 Y98.5737
G01 X13.7958 Y99.0431
G01 X13.4144 Y99.5319
G01 X13.0576 Y100.0388
G01 X12.7260 Y100.5626
G01 X12.4206 Y101.1020
G01 X12.1420 Y101.6558
G01 X11.8909 Y102.2226
G01 X11.6679 Y102.8010
G01 X11.4736 Y103.3897
G01 X11.3085 Y103.9872
G01 X11.1728 Y104.5921
G01 X11.0671 Y105.2029
G01 X10.9914 Y105.8182
G01 X10.9460 Y106.4364
G01 X10.9311 Y107.0561
G01 Y125.2390
G01 Y131.2390
G01 Y149.4218
G01 X10.9461 Y150.0415
G01 X10.9916 Y150.6598
G01 X11.0674 Y151.2750
G01 X11.1732 Y151.8858
G01 X11.3090 Y152.4907
G01 X11.4742 Y153.0882
G01 X11.6686 Y153.6768
G01 X11.8917 Y154.2552
G01 X12.1428 Y154.8220
G01 X12.4215 Y155.3757
G01 X12.7271 Y155.9151
G01 X13.0587 Y156.4388
G01 X13.4156 Y156.9456
G01 X13.7970 Y157.4343
G01 X14.2020 Y157.9037
G01 X14.6295 Y158.3526
G01 X15.0785 Y158.7801
G01 X15.5479 Y159.1849
G01 X16.0367 Y159.5662
G01 X16.5435 Y159.9231
G01 X17.0673 Y160.2547
G01 X17.6068 Y160.5601
G01 X18.1605 Y160.8387
G01 X18.7273 Y161.0898
G01 X19.3058 Y161.3127
G01 X19.8944 Y161.5070
G01 X20.4919 Y161.6722
G01 X21.0968 Y161.8078
G01 X21.7076 Y161.9136
G01 X22.3229 Y161.9893
G01 X22.9412 Y162.0347
G01 X23.5609 Y162.0496
G01 X47.0909
G01 X47.7108 Y162.0347
G01 X48.3291 Y161.9893
G01 X48.9445 Y161.9137
G01 X49.5554 Y161.8079
G01 X50.1604 Y161.6722
G01 X50.7581 Y161.5070
G01 X51.3468 Y161.3127
G01 X51.9254 Y161.0897
G01 X52.4922 Y160.8386
G01 X53.0461 Y160.5599
G01 X53.5856 Y160.2544
G01 X54.1095 Y159.9227
G01 X54.6164 Y159.5658
G01 X55.1053 Y159.1843
G01 X55.5748 Y158.7794
G01 X56.0238 Y158.3518
G01 X56.4513 Y157.9028
G01 X56.8563 Y157.4333
G01 X57.2377 Y156.9445
G01 X57.5947 Y156.4375
G01 X57.9263 Y155.9136
G01 X58.2318 Y155.3741
G01 X58.5105 Y154.8202
G01 X58.7616 Y154.2534
G01 X58.9846 Y153.6748
G01 X59.1789 Y153.0860
G01 X59.3441 Y152.4884
G01 X59.4798 Y151.8834
G01 X59.5856 Y151.2725
G01 X59.6612 Y150.6571
G01 X59.7066 Y150.0388
G01 X59.7215 Y149.4189
G01 Y131.2379
G01 Y125.2379
G01 Z-4.0000 F400
G01 Y107.0569 F800
G01 X59.7066 Y106.4370
G01 X59.6612 Y105.8187
G01 X59.5855 Y105.2033
G01 X59.4797 Y104.5923
G01 X59.3441 Y103.9873
G01 X59.1789 Y103.3897
G01 X58.9846 Y102.8010
G01 X58.7616 Y102.2224
G01 X58.5104 Y101.6555
G01 X58.2318 Y101.1017
G01 X57.9262 Y100.5622
G01 X57.5946 Y100.0383
G01 X57.2376 Y99.5313
G01 X56.8562 Y99.0425
G01 X56.4512 Y98.5730
G01 X56.0237 Y98.1240
G01 X55.5747 Y97.6965
G01 X55.1052 Y97.2915
G01 X54.6163 Y96.9101
G01 X54.1094 Y96.5531
G01 X53.5855 Y96.2215
G01 X53.0460 Y95.9160
G01 X52.4921 Y95.6373
G01 X51.9252 Y95.3862
G01 X51.3467 Y95.1632
G01 X50.7579 Y94.9688
G01 X50.1603 Y94.8037
G01 X49.5553 Y94.6680
G01 X48.9444 Y94.5622
G01 X48.3290 Y94.4866
G01 X47.7106 Y94.4412
G01 X47.0908 Y94.4263
G01 X23.5589
G01 X22.9391 Y94.4414
G01 X22.3209 Y94.4868
G01 X21.7056 Y94.5626
G01 X21.0948 Y94.6685
G01 X20.4900 Y94.8042
G01 X19.8925 Y94.9695
G01 X19.3039 Y95.1638
G01 X18.7255 Y95.3869
G01 X18.1587 Y95.6381
G01 X17.6050 Y95.9168
G01 X17.0656 Y96.2223
G01 X16.5419 Y96.5539
G01 X16.0350 Y96.9109
G01 X15.5464 Y97.2923
G01 X15.0770 Y97.6972
G01 X14.6280 Y98.1247
G01 X14.2006 Y98.5737
G01 X13.7958 Y99.0431
G01 X13.4144 Y99.5319
G01 X13.0576 Y100.0388
G01 X12.7260 Y100.5626
G01 X12.4206 Y101.1020
G01 X12.1420 Y101.6558
G01 X11.8909 Y102.2226
G01 X11.6679 Y102.8010
G01 X11.4736 Y103.3897
G01 X11.3085 Y103.9872
G01 X11.1728 Y104.5921
G01 X11.0671 Y105.2029
G01 X10.9914 Y105.8182
G01 X10.9460 Y106.4364
G01 X10.9311 Y107.0561
G01 Y125.2390
M107
G00 Z-2.0000
M106 S240
G01 Y131.2390
G01 Z-4.0000 F400
G01 Y149.4218 F800
G01 X10.9461 Y150.0415
G01 X10.9916 Y150.6598
G01 X11.0674 Y151.2750
G01 X11.1732 Y151.8858
G01 X11.3090 Y152.4907
G01 X11.4742 Y153.0882
G01 X11.6686 Y153.6768
G01 X11.8917 Y154.2552
G01 X12.1428 Y154.8220
G01 X12.4215 Y155.3757
G01 X12.7271 Y155.9151
G01 X13.0587 Y156.4388
G01 X13.4156 Y156.9456
G01 X13.7970 Y157.4343
G01 X14.2020 Y157.9037
G01 X14.6295 Y158.3526
G01 X15.0785 Y158.7801
G01 X15.5479 Y159.1849
G01 X16.0367 Y159.5662
G01 X16.5435 Y159.9231
G01 X17.0673 Y160.2547
G01 X17.6068 Y160.5601
G01 X18.1605 Y160.8387
G01 X18.7273 Y161.0898
G01 X19.3058 Y161.3127
G01 X19.8944 Y161.5070
G01 X20.4919 Y161.6722
G01 X21.0968 Y161.8078
G01 X21.7076 Y161.9136
G01 X22.3229 Y161.9893
G01 X22.9412 Y162.0347
G01 X23.5609 Y162.0496
G01 X47.0909
G01 X47.7108 Y162.0347
G01 X48.3291 Y161.9893
G01 X48.9445 Y161.9137
G01 X49.5554 Y161.8079
G01 X50.1604 Y161.6722
G01 X50.7581 Y161.5070
G01 X51.3468 Y161.3127
G01 X51.9254 Y161.0897
G01 X52.4922 Y160.8386
G01 X53.0461 Y160.5599
G01 X53.5856 Y160.2544
G01 X54.1095 Y159.9227
G01 X54.6164 Y159.5658
G01 X55.1053 Y159.1843
G01 X55.5748 Y158.7794
G01 X56.0238 Y158.3518
G01 X56.4513 Y157.9028
G01 X56.8563 Y157.4333
G01 X57.2377 Y156.9445
G01 X57.5947 Y156.4375
G01 X57.9263 Y155.9136
G01 X58.2318 Y155.3741
G01 X58.5105 Y154.8202
G01 X58.7616 Y154.2534
G01 X58.9846 Y153.6748
G01 X59.1789 Y153.0860
G01 X59.3441 Y152.4884
G01 X59.4798 Y151.8834
G01 X59.5856 Y151.2725
G01 X59.6612 Y150.6571
G01 X59.7066 Y150.0388
G01 X59.7215 Y149.4189
G01 Y131.2379
M107
G00 Z-2.0000
M106 S240
G01 Y125.2379
M107
G00 Z-3.5000
G01 Z-4.0000 F400
G01 Z-5.0000
M106 S240
G01 Y107.0569 F800
G01 X59.7066 Y106.4370
G01 X59.6612 Y105.8187
G01 X59.5855 Y105.2033
G01 X59.4797 Y104.5923
G01 X59.3441 Y103.9873
G01 X59.1789 Y103.3897
G01 X58.9846 Y102.8010
G01 X58.7616 Y102.2224
G01 X58.5104 Y101.6555
G01 X58.2318 Y101.1017
G01 X57.9262 Y100.5622
G01 X57.5946 Y100.0383
G01 X57.2376 Y99.5313
G01 X56.8562 Y99.0425
G01 X56.4512 Y98.5730
G01 X56.0237 Y98.1240
G01 X55.5747 Y97.6965
G01 X55.1052 Y97.2915
G01 X54.6163 Y96.9101
G01 X54.1094 Y96.5531
G01 X53.5855 Y96.2215
G01 X53.0460 Y95.9160
G01 X52.4921 Y95.6373
G01 X51.9252 Y95.3862
G01 X51.3467 Y95.1632
G01 X50.7579 Y94.9688
G01 X50.1603 Y94.8037
G01 X49.5553 Y94.6680
G01 X48.9444 Y94.5622
G01 X48.3290 Y94.4866
G01 X47.7106 Y94.4412
G01 X47.0908 Y94.4263
G01 X23.5589
G01 X22.9391 Y94.4414
G01 X22.3209 Y94.4868
G01 X21.7056 Y94.5626
G01 X21.0948 Y94.6685
G01 X20.4900 Y94.8042
G01 X19.8925 Y94.9695
G01 X19.3039 Y95.1638
G01 X18.7255 Y95.3869
G01 X18.1587 Y95.6381
G01 X17.6050 Y95.9168
G01 X17.0656 Y96.2223
G01 X16.5419 Y96.5539
G01 X16.0350 Y96.9109
G01 X15.5464 Y97.2923
G01 X15.0770 Y97.6972
G01 X14.6280 Y98.1247
G01 X14.2006 Y98.5737
G01 X13.7958 Y99.0431
G01 X13.4144 Y99.5319
G01 X13.0576 Y100.0388
G01 X12.7260 Y100.5626
G01 X12.4206 Y101.1020
G01 X12.1420 Y101.6558
G01 X11.8909 Y102.2226
G01 X11.6679 Y102.8010
G01 X11.4736 Y103.3897
G01 X11.3085 Y103.9872
G01 X11.1728 Y104.5921
G01 X11.0671 Y105.2029
G01 X10.9914 Y105.8182
G01 X10.9460 Y106.4364
G01 X10.9311 Y107.0561
G01 Y125.2390
M107
G00 Z-2.0000
M106 S240
G01 Y131.2390
M107
G00 Z-3.5000
G01 Z-4.0000 F400
G01 Z-5.0000
M106 S240
G01 Y149.4218 F800
G01 X10.9461 Y150.0415
G01 X10.9916 Y150.6598
G01 X11.0674 Y151.2750
G01 X11.1732 Y151.8858
G01 X11.3090 Y152.4907
G01 X11.4742 Y153.0882
G01 X11.6686 Y153.6768
G01 X11.8917 Y154.2552
G01 X12.1428 Y154.8220
G01 X12.4215 Y155.3757
G01 X12.7271 Y155.9151
G01 X13.0587 Y156.4388
G01 X13.4156 Y156.9456
G01 X13.7970 Y157.4343
G01 X14.2020 Y157.9037
G01 X14.6295 Y158.3526
G01 X15.0785 Y158.7801
G01 X15.5479 Y159.1849
G01 X16.0367 Y159.5662
G01 X16.5435 Y159.9231
G01 X17.0673 Y160.2547
G01 X17.6068 Y160.5601
G01 X18.1605 Y160.8387
G01 X18.7273 Y161.0898
G01 X19.3058 Y161.3127
G01 X19.8944 Y161.5070
G01 X20.4919 Y161.6722
G01 X21.0968 Y161.8078
G01 X21.7076 Y161.9136
G01 X22.3229 Y161.9893
G01 X22.9412 Y162.0347
G01 X23.5609 Y162.0496
G01 X47.0909
G01 X47.7108 Y162.0347
G01 X48.3291 Y161.9893
G01 X48.9445 Y161.9137
G01 X49.5554 Y161.8079
G01 X50.1604 Y161.6722
G01 X50.7581 Y161.5070
G01 X51.3468 Y161.3127
G01 X51.9254 Y161.0897
G01 X52.4922 Y160.8386
G01 X53.0461 Y160.5599
G01 X53.5856 Y160.2544
G01 X54.1095 Y159.9227
G01 X54.6164 Y159.5658
G01 X55.1053 Y159.1843
G01 X55.5748 Y158.7794
G01 X56.0238 Y158.3518
G01 X56.4513 Y157.9028
G01 X56.8563 Y157.4333
G01 X57.2377 Y156.9445
G01 X57.5947 Y156.4375
G01 X57.9263 Y155.9136
G01 X58.2318 Y155.3741
G01 X58.5105 Y154.8202
G01 X58.7616 Y154.2534
G01 X58.9846 Y153.6748
G01 X59.1789 Y153.0860
G01 X59.3441 Y152.4884
G01 X59.4798 Y151.8834
G01 X59.5856 Y151.2725
G01 X59.6612 Y150.6571
G01 X59.7066 Y150.0388
G01 X59.7215 Y149.4189
G01 Y131.2379
M107
G00 Z-2.0000
M106 S240
G01 Y125.2379
M107
G00 Z2.0000


;No. 5: Helical drill 6
G00 X168.4880 Y262.5000 Z2.0000
G00 Z0.5000
M106 S240
G01 X168.4869 Y262.4524 Z0.4861 F400
G01 X168.4835 Y262.4050 Z0.4722
G01 X168.4778 Y262.3577 Z0.4583
G01 X168.4699 Y262.3108 Z0.4444
G01 X168.4598 Y262.2643 Z0.4306
G01 X168.4475 Y262.2183 Z0.4167
G01 X168.4330 Y262.1729 Z0.4028
G01 X168.4164 Y262.1284 Z0.3889
G01 X168.3976 Y262.0846 Z0.3750
G01 X168.3768 Y262.0418 Z0.3611
G01 X168.3540 Y262.0000 Z0.3472
G01 X168.3293 Y261.9594 Z0.3333
G01 X168.3026 Y261.9200 Z0.3194
G01 X168.2741 Y261.8819 Z0.3056
G01 X168.2438 Y261.8452 Z0.2917
G01 X168.2117 Y261.8099 Z0.2778
G01 X168.1781 Y261.7763 Z0.2639
G01 X168.1429 Y261.7443 Z0.2500
G01 X168.1062 Y261.7140 Z0.2361
G01 X168.0681 Y261.6854 Z0.2222
G01 X168.0287 Y261.6588 Z0.2083
G01 X167.9880 Y261.6340 Z0.1944
G01 X167.9462 Y261.6112 Z0.1806
G01 X167.9034 Y261.5904 Z0.1667
G01 X167.8597 Y261.5717 Z0.1528
G01 X167.8151 Y261.5550 Z0.1389
G01 X167.7698 Y261.5405 Z0.1250
G01 X167.7238 Y261.5282 Z0.1111
G01 X167.6773 Y261.5181 Z0.0972
G01 X167.6303 Y261.5102 Z0.0833
G01 X167.5831 Y261.5046 Z0.0694
G01 X167.5356 Y261.5012 Z0.0556
G01 X167.4880 Y261.5000 Z0.0417
G01 X167.4404 Y261.5012 Z0.0278
G01 X167.3930 Y261.5046 Z0.0139
G01 X167.3457 Y261.5102 Z0.0000
G01 X167.2988 Y261.5181 Z-0.0139
G01 X167.2523 Y261.5282 Z-0.0278
G01 X167.2063 Y261.5405 Z-0.0417
G01 X167.1610 Y261.5550 Z-0.0556
G01 X167.1164 Y261.5717 Z-0.0694
G01 X167.0726 Y261.5904 Z-0.0833
G01 X167.0298 Y261.6112 Z-0.0972
G01 X166.9880 Y261.6340 Z-0.1111
G01 X166.9474 Y261.6588 Z-0.1250
G01 X166.9080 Y261.6854 Z-0.1389
G01 X166.8699 Y261.7140 Z-0.1528
G01 X166.8332 Y261.7443 Z-0.1667
G01 X166.7980 Y261.7763 Z-0.1806
G01 X166.7643 Y261.8099 Z-0.1944
G01 X166.7323 Y261.8452 Z-0.2083
G01 X166.7020 Y261.8819 Z-0.2222
G01 X166.6735 Y261.9200 Z-0.2361
G01 X166.6468 Y261.9594 Z-0.2500
G01 X166.6220 Y262.0000 Z-0.2639
G01 X166.5992 Y262.0418 Z-0.2778
G01 X166.5784 Y262.0846 Z-0.2917
G01 X166.5597 Y262.1284 Z-0.3056
G01 X166.5430 Y262.1729 Z-0.3194
G01 X166.5285 Y262.2183 Z-0.3333
G01 X166.5162 Y262.2643 Z-0.3472
G01 X166.5061 Y262.3108 Z-0.3611
G01 X166.4982 Y262.3577 Z-0.3750
G01 X166.4926 Y262.4050 Z-0.3889
G01 X166.4892 Y262.4524 Z-0.4028
G01 X166.4880 Y262.5000 Z-0.4167
G01 X166.4892 Y262.5476 Z-0.4306
G01 X166.4926 Y262.5951 Z-0.4444
G01 X166.4982 Y262.6423 Z-0.4583
G01 X166.5061 Y262.6893 Z-0.4722
G01 X166.5162 Y262.7358 Z-0.4861
G01 X166.5285 Y262.7817 Z-0.5000
G01 X166.5430 Y262.8271 Z-0.5139
G01 X166.5597 Y262.8717 Z-0.5278
G01 X166.5784 Y262.9154 Z-0.5417
G01 X166.5992 Y262.9582 Z-0.5556
G01 X166.6220 Y263.0000 Z-0.5694
G01 X166.6468 Y263.0406 Z-0.5833
G01 X166.6735 Y263.0801 Z-0.5972
G01 X166.7020 Y263.1182 Z-0.6111
G01 X166.7323 Y263.1549 Z-0.6250
G01 X166.7643 Y263.1901 Z-0.6389
G01 X166.7980 Y263.2237 Z-0.6528
G01 X166.8332 Y263.2557 Z-0.6667
G01 X166.8699 Y263.2861 Z-0.6806
G01 X166.9080 Y263.3146 Z-0.6944
G01 X166.9474 Y263.3412 Z-0.7083
G01 X166.9880 Y263.3660 Z-0.7222
G01 X167.0298 Y263.3888 Z-0.7361
G01 X167.0726 Y263.4096 Z-0.7500
G01 X167.1164 Y263.4284 Z-0.7639
G01 X167.1610 Y263.4450 Z-0.7778
G01 X167.2063 Y263.4595 Z-0.7917
G01 X167.2523 Y263.4718 Z-0.8056
G01 X167.2988 Y263.4819 Z-0.8194
G01 X167.3457 Y263.4898 Z-0.8333
G01 X167.3930 Y263.4955 Z-0.8472
G01 X167.4404 Y263.4989 Z-0.8611
G01 X167.4880 Y263.5000 Z-0.8750
G01 X167.5356 Y263.4989 Z-0.8889
G01 X167.5831 Y263.4955 Z-0.9028
G01 X167.6303 Y263.4898 Z-0.9167
G01 X167.6773 Y263.4819 Z-0.9306
G01 X167.7238 Y263.4718 Z-0.9444
G01 X167.7698 Y263.4595 Z-0.9583
G01 X167.8151 Y263.4450 Z-0.9722
G01 X167.8597 Y263.4284 Z-0.9861
G01 X167.9034 Y263.4096 Z-1.0000
G01 X167.9462 Y263.3888 Z-1.0139
G01 X167.9880 Y263.3660 Z-1.0278
G01 X168.0287 Y263.3412 Z-1.0417
G01 X168.0681 Y263.3146 Z-1.0556
G01 X168.1062 Y263.2861 Z-1.0694
G01 X168.1429 Y263.2557 Z-1.0833
G01 X168.1781 Y263.2237 Z-1.0972
G01 X168.2117 Y263.1901 Z-1.1111
G01 X168.2438 Y263.1549 Z-1.1250
G01 X168.2741 Y263.1182 Z-1.1389
G01 X168.3026 Y263.0801 Z-1.1528
G01 X168.3293 Y263.0406 Z-1.1667
G01 X168.3540 Y263.0000 Z-1.1806
G01 X168.3768 Y262.9582 Z-1.1944
G01 X168.3976 Y262.9154 Z-1.2083
G01 X168.4164 Y262.8717 Z-1.2222
G01 X168.4330 Y262.8271 Z-1.2361
G01 X168.4475 Y262.7817 Z-1.2500
G01 X168.4598 Y262.7358 Z-1.2639
G01 X168.4699 Y262.6893 Z-1.2778
G01 X168.4778 Y262.6423 Z-1.2917
G01 X168.4835 Y262.5951 Z-1.3056
G01 X168.4869 Y262.5476 Z-1.3194
G01 X168.4880 Y262.5000 Z-1.3333
G01 X168.4869 Y262.4524 Z-1.3472
G01 X168.4835 Y262.4050 Z-1.3611
G01 X168.4778 Y262.3577 Z-1.3750
G01 X168.4699 Y262.3108 Z-1.3889
G01 X168.4598 Y262.2643 Z-1.4028
G01 X168.4475 Y262.2183 Z-1.4167
G01 X168.4330 Y262.1729 Z-1.4306
G01 X168.4164 Y262.1284 Z-1.4444
G01 X168.3976 Y262.0846 Z-1.4583
G01 X168.3768 Y262.0418 Z-1.4722
G01 X168.3540 Y262.0000 Z-1.4861
G01 X168.3293 Y261.9594 Z-1.5000
G01 X168.3026 Y261.9200 Z-1.5139
G01 X168.2741 Y261.8819 Z-1.5278
G01 X168.2438 Y261.8452 Z-1.5417
G01 X168.2117 Y261.8099 Z-1.5556
G01 X168.1781 Y261.7763 Z-1.5694
G01 X168.1429 Y261.7443 Z-1.5833
G01 X168.1062 Y261.7140 Z-1.5972
G01 X168.0681 Y261.6854 Z-1.6111
G01 X168.0287 Y261.6588 Z-1.6250
G01 X167.9880 Y261.6340 Z-1.6389
G01 X167.9462 Y261.6112 Z-1.6528
G01 X167.9034 Y261.5904 Z-1.6667
G01 X167.8597 Y261.5717 Z-1.6806
G01 X167.8151 Y261.5550 Z-1.6944
G01 X167.7698 Y261.5405 Z-1.7083
G01 X167.7238 Y261.5282 Z-1.7222
G01 X167.6773 Y261.5181 Z-1.7361
G01 X167.6303 Y261.5102 Z-1.7500
G01 X167.5831 Y261.5046 Z-1.7639
G01 X167.5356 Y261.5012 Z-1.7778
G01 X167.4880 Y261.5000 Z-1.7917
G01 X167.4404 Y261.5012 Z-1.8056
G01 X167.3930 Y261.5046 Z-1.8194
G01 X167.3457 Y261.5102 Z-1.8333
G01 X167.2988 Y261.5181 Z-1.8472
G01 X167.2523 Y261.5282 Z-1.8611
G01 X167.2063 Y261.5405 Z-1.8750
G01 X167.1610 Y261.5550 Z-1.8889
G01 X167.1164 Y261.5717 Z-1.9028
G01 X167.0726 Y261.5904 Z-1.9167
G01 X167.0298 Y261.6112 Z-1.9306
G01 X166.9880 Y261.6340 Z-1.9444
G01 X166.9474 Y261.6588 Z-1.9583
G01 X166.9080 Y261.6854 Z-1.9722
G01 X166.8699 Y261.7140 Z-1.9861
G01 X166.8332 Y261.7443 Z-2.0000
G01 X166.7980 Y261.7763 Z-2.0139
G01 X166.7643 Y261.8099 Z-2.0278
G01 X166.7323 Y261.8452 Z-2.0417
G01 X166.7020 Y261.8819 Z-2.0556
G01 X166.6735 Y261.9200 Z-2.0694
G01 X166.6468 Y261.9594 Z-2.0833
G01 X166.6220 Y262.0000 Z-2.0972
G01 X166.5992 Y262.0418 Z-2.1111
G01 X166.5784 Y262.0846 Z-2.1250
G01 X166.5597 Y262.1284 Z-2.1389
G01 X166.5430 Y262.1729 Z-2.1528
G01 X166.5285 Y262.2183 Z-2.1667
G01 X166.5162 Y262.2643 Z-2.1806
G01 X166.5061 Y262.3108 Z-2.1944
G01 X166.4982 Y262.3577 Z-2.2083
G01 X166.4926 Y262.4050 Z-2.2222
G01 X166.4892 Y262.4524 Z-2.2361
G01 X166.4880 Y262.5000 Z-2.2500
G01 X166.4892 Y262.5476 Z-2.2639
G01 X166.4926 Y262.5951 Z-2.2778
G01 X166.4982 Y262.6423 Z-2.2917
G01 X166.5061 Y262.6893 Z-2.3056
G01 X166.5162 Y262.7358 Z-2.3194
G01 X166.5285 Y262.7817 Z-2.3333
G01 X166.5430 Y262.8271 Z-2.3472
G01 X166.5597 Y262.8717 Z-2.3611
G01 X166.5784 Y262.9154 Z-2.3750
G01 X166.5992 Y262.9582 Z-2.3889
G01 X166.6220 Y263.0000 Z-2.4028
G01 X166.6468 Y263.0406 Z-2.4167
G01 X166.6735 Y263.0801 Z-2.4306
G01 X166.7020 Y263.1182 Z-2.4444
G01 X166.7323 Y263.1549 Z-2.4583
G01 X166.7643 Y263.1901 Z-2.4722
G01 X166.7980 Y263.2237 Z-2.4861
G01 X166.8332 Y263.2557 Z-2.5000
G01 X166.8699 Y263.2861 Z-2.5139
G01 X166.9080 Y263.3146 Z-2.5278
G01 X166.9474 Y263.3412 Z-2.5417
G01 X166.9880 Y263.3660 Z-2.5556
G01 X167.0298 Y263.3888 Z-2.5694
G01 X167.0726 Y263.4096 Z-2.5833
G01 X167.1164 Y263.4284 Z-2.5972
G01 X167.1610 Y263.4450 Z-2.6111
G01 X167.2063 Y263.4595 Z-2.6250
G01 X167.2523 Y263.4718 Z-2.6389
G01 X167.2988 Y263.4819 Z-2.6528
G01 X167.3457 Y263.4898 Z-2.6667
G01 X167.3930 Y263.4955 Z-2.6806
G01 X167.4404 Y263.4989 Z-2.6944
G01 X167.4880 Y263.5000 Z-2.7083
G01 X167.5356 Y263.4989 Z-2.7222
G01 X167.5831 Y263.4955 Z-2.7361
G01 X167.6303 Y263.4898 Z-2.7500
G01 X167.6773 Y263.4819 Z-2.7639
G01 X167.7238 Y263.4718 Z-2.7778
G01 X167.7698 Y263.4595 Z-2.7917
G01 X167.8151 Y263.4450 Z-2.8056
G01 X167.8597 Y263.4284 Z-2.8194
G01 X167.9034 Y263.4096 Z-2.8333
G01 X167.9462 Y263.3888 Z-2.8472
G01 X167.9880 Y263.3660 Z-2.8611
G01 X168.0287 Y263.3412 Z-2.8750
G01 X168.0681 Y263.3146 Z-2.8889
G01 X168.1062 Y263.2861 Z-2.9028
G01 X168.1429 Y263.2557 Z-2.9167
G01 X168.1781 Y263.2237 Z-2.9306
G01 X168.2117 Y263.1901 Z-2.9444
G01 X168.2438 Y263.1549 Z-2.9583
G01 X168.2741 Y263.1182 Z-2.9722
G01 X168.3026 Y263.0801 Z-2.9861
G01 X168.3293 Y263.0406 Z-3.0000
G01 X168.3540 Y263.0000 Z-3.0139
G01 X168.3768 Y262.9582 Z-3.0278
G01 X168.3976 Y262.9154 Z-3.0417
G01 X168.4164 Y262.8717 Z-3.0556
G01 X168.4330 Y262.8271 Z-3.0694
G01 X168.4475 Y262.7817 Z-3.0833
G01 X168.4598 Y262.7358 Z-3.0972
G01 X168.4699 Y262.6893 Z-3.1111
G01 X168.4778 Y262.6423 Z-3.1250
G01 X168.4835 Y262.5951 Z-3.1389
G01 X168.4869 Y262.5476 Z-3.1528
G01 X168.4880 Y262.5000 Z-3.1667
G01 X168.4869 Y262.4524 Z-3.1806
G01 X168.4835 Y262.4050 Z-3.1944
G01 X168.4778 Y262.3577 Z-3.2083
G01 X168.4699 Y262.3108 Z-3.2222
G01 X168.4598 Y262.2643 Z-3.2361
G01 X168.4475 Y262.2183 Z-3.2500
G01 X168.4330 Y262.1729 Z-3.2639
G01 X168.4164 Y262.1284 Z-3.2778
G01 X168.3976 Y262.0846 Z-3.2917
G01 X168.3768 Y262.0418 Z-3.3056
G01 X168.3540 Y262.0000 Z-3.3194
G01 X168.3293 Y261.9594 Z-3.3333
G01 X168.3026 Y261.9200 Z-3.3472
G01 X168.2741 Y261.8819 Z-3.3611
G01 X168.2438 Y261.8452 Z-3.3750
G01 X168.2117 Y261.8099 Z-3.3889
G01 X168.1781 Y261.7763 Z-3.4028
G01 X168.1429 Y261.7443 Z-3.4167
G01 X168.1062 Y261.7140 Z-3.4306
G01 X168.0681 Y261.6854 Z-3.4444
G01 X168.0287 Y261.6588 Z-3.4583
G01 X167.9880 Y261.6340 Z-3.4722
G01 X167.9462 Y261.6112 Z-3.4861
G01 X167.9034 Y261.5904 Z-3.5000
G01 X167.8597 Y261.5717 Z-3.5139
G01 X167.8151 Y261.5550 Z-3.5278
G01 X167.7698 Y261.5405 Z-3.5417
G01 X167.7238 Y261.5282 Z-3.5556
G01 X167.6773 Y261.5181 Z-3.5694
G01 X167.6303 Y261.5102 Z-3.5833
G01 X167.5831 Y261.5046 Z-3.5972
G01 X167.5356 Y261.5012 Z-3.6111
G01 X167.4880 Y261.5000 Z-3.6250
G01 X167.4404 Y261.5012 Z-3.6389
G01 X167.3930 Y261.5046 Z-3.6528
G01 X167.3457 Y261.5102 Z-3.6667
G01 X167.2988 Y261.5181 Z-3.6806
G01 X167.2523 Y261.5282 Z-3.6944
G01 X167.2063 Y261.5405 Z-3.7083
G01 X167.1610 Y261.5550 Z-3.7222
G01 X167.1164 Y261.5717 Z-3.7361
G01 X167.0726 Y261.5904 Z-3.7500
G01 X167.0298 Y261.6112 Z-3.7639
G01 X166.9880 Y261.6340 Z-3.7778
G01 X166.9474 Y261.6588 Z-3.7917
G01 X166.9080 Y261.6854 Z-3.8056
G01 X166.8699 Y261.7140 Z-3.8194
G01 X166.8332 Y261.7443 Z-3.8333
G01 X166.7980 Y261.7763 Z-3.8472
G01 X166.7643 Y261.8099 Z-3.8611
G01 X166.7323 Y261.8452 Z-3.8750
G01 X166.7020 Y261.8819 Z-3.8889
G01 X166.6735 Y261.9200 Z-3.9028
G01 X166.6468 Y261.9594 Z-3.9167
G01 X166.6220 Y262.0000 Z-3.9306
G01 X166.5992 Y262.0418 Z-3.9444
G01 X166.5784 Y262.0846 Z-3.9583
G01 X166.5597 Y262.1284 Z-3.9722
G01 X166.5430 Y262.1729 Z-3.9861
G01 X166.5285 Y262.2183 Z-4.0000
G01 X166.5162 Y262.2643 Z-4.0139
G01 X166.5061 Y262.3108 Z-4.0278
G01 X166.4982 Y262.3577 Z-4.0417
G01 X166.4926 Y262.4050 Z-4.0556
G01 X166.4892 Y262.4524 Z-4.0694
G01 X166.4880 Y262.5000 Z-4.0833
G01 X166.4892 Y262.5476 Z-4.0972
G01 X166.4926 Y262.5951 Z-4.1111
G01 X166.4982 Y262.6423 Z-4.1250
G01 X166.5061 Y262.6893 Z-4.1389
G01 X166.5162 Y262.7358 Z-4.1528
G01 X166.5285 Y262.7817 Z-4.1667
G01 X166.5430 Y262.8271 Z-4.1806
G01 X166.5597 Y262.8717 Z-4.1944
G01 X166.5784 Y262.9154 Z-4.2083
G01 X166.5992 Y262.9582 Z-4.2222
G01 X166.6220 Y263.0000 Z-4.2361
G01 X166.6468 Y263.0406 Z-4.2500
G01 X166.6735 Y263.0801 Z-4.2639
G01 X166.7020 Y263.1182 Z-4.2778
G01 X166.7323 Y263.1549 Z-4.2917
G01 X166.7643 Y263.1901 Z-4.3056
G01 X166.7980 Y263.2237 Z-4.3194
G01 X166.8332 Y263.2557 Z-4.3333
G01 X166.8699 Y263.2861 Z-4.3472
G01 X166.9080 Y263.3146 Z-4.3611
G01 X166.9474 Y263.3412 Z-4.3750
G01 X166.9880 Y263.3660 Z-4.3889
G01 X167.0298 Y263.3888 Z-4.4028
G01 X167.0726 Y263.4096 Z-4.4167
G01 X167.1164 Y263.4284 Z-4.4306
G01 X167.1610 Y263.4450 Z-4.4444
G01 X167.2063 Y263.4595 Z-4.4583
G01 X167.2523 Y263.4718 Z-4.4722
G01 X167.2988 Y263.4819 Z-4.4861
G01 X167.3457 Y263.4898 Z-4.5000
G01 X167.3930 Y263.4955 Z-4.5139
G01 X167.4404 Y263.4989 Z-4.5278
G01 X167.4880 Y263.5000 Z-4.5417
G01 X167.5356 Y263.4989 Z-4.5556
G01 X167.5831 Y263.4955 Z-4.5694
G01 X167.6303 Y263.4898 Z-4.5833
G01 X167.6773 Y263.4819 Z-4.5972
G01 X167.7238 Y263.4718 Z-4.6111
G01 X167.7698 Y263.4595 Z-4.6250
G01 X167.8151 Y263.4450 Z-4.6389
G01 X167.8597 Y263.4284 Z-4.6528
G01 X167.9034 Y263.4096 Z-4.6667
G01 X167.9462 Y263.3888 Z-4.6806
G01 X167.9880 Y263.3660 Z-4.6944
G01 X168.0287 Y263.3412 Z-4.7083
G01 X168.0681 Y263.3146 Z-4.7222
G01 X168.1062 Y263.2861 Z-4.7361
G01 X168.1429 Y263.2557 Z-4.7500
G01 X168.1781 Y263.2237 Z-4.7639
G01 X168.2117 Y263.1901 Z-4.7778
G01 X168.2438 Y263.1549 Z-4.7917
G01 X168.2741 Y263.1182 Z-4.8056
G01 X168.3026 Y263.0801 Z-4.8194
G01 X168.3293 Y263.0406 Z-4.8333
G01 X168.3540 Y263.0000 Z-4.8472
G01 X168.3768 Y262.9582 Z-4.8611
G01 X168.3976 Y262.9154 Z-4.8750
G01 X168.4164 Y262.8717 Z-4.8889
G01 X168.4330 Y262.8271 Z-4.9028
G01 X168.4475 Y262.7817 Z-4.9167
G01 X168.4598 Y262.7358 Z-4.9306
G01 X168.4699 Y262.6893 Z-4.9444
G01 X168.4778 Y262.6423 Z-4.9583
G01 X168.4835 Y262.5951 Z-4.9722
G01 X168.4869 Y262.5476 Z-4.9861
G01 X168.4880 Y262.5000 Z-5.0000
G01 X168.4869 Y262.4524
G01 X168.4835 Y262.4050
G01 X168.4778 Y262.3577
G01 X168.4699 Y262.3108
G01 X168.4598 Y262.2643
G01 X168.4475 Y262.2183
G01 X168.4330 Y262.1729
G01 X168.4164 Y262.1284
G01 X168.3976 Y262.0846
G01 X168.3768 Y262.0418
G01 X168.3540 Y262.0000
G01 X168.3293 Y261.9594
G01 X168.3026 Y261.9200
G01 X168.2741 Y261.8819
G01 X168.2438 Y261.8452
G01 X168.2117 Y261.8099
G01 X168.1781 Y261.7763
G01 X168.1429 Y261.7443
G01 X168.1062 Y261.7140
G01 X168.0681 Y261.6854
G01 X168.0287 Y261.6588
G01 X167.9880 Y261.6340
G01 X167.9462 Y261.6112
G01 X167.9034 Y261.5904
G01 X167.8597 Y261.5717
G01 X167.8151 Y261.5550
G01 X167.7698 Y261.5405
G01 X167.7238 Y261.5282
G01 X167.6773 Y261.5181
G01 X167.6303 Y261.5102
G01 X167.5831 Y261.5046
G01 X167.5356 Y261.5012
G01 X167.4880 Y261.5000
G01 X167.4404 Y261.5012
G01 X167.3930 Y261.5046
G01 X167.3457 Y261.5102
G01 X167.2988 Y261.5181
G01 X167.2523 Y261.5282
G01 X167.2063 Y261.5405
G01 X167.1610 Y261.5550
G01 X167.1164 Y261.5717
G01 X167.0726 Y261.5904
G01 X167.0298 Y261.6112
G01 X166.9880 Y261.6340
G01 X166.9474 Y261.6588
G01 X166.9080 Y261.6854
G01 X166.8699 Y261.7140
G01 X166.8332 Y261.7443
G01 X166.7980 Y261.7763
G01 X166.7643 Y261.8099
G01 X166.7323 Y261.8452
G01 X166.7020 Y261.8819
G01 X166.6735 Y261.9200
G01 X166.6468 Y261.9594
G01 X166.6220 Y262.0000
G01 X166.5992 Y262.0418
G01 X166.5784 Y262.0846
G01 X166.5597 Y262.1284
G01 X166.5430 Y262.1729
G01 X166.5285 Y262.2183
G01 X166.5162 Y262.2643
G01 X166.5061 Y262.3108
G01 X166.4982 Y262.3577
G01 X166.4926 Y262.4050
G01 X166.4892 Y262.4524
G01 X166.4880 Y262.5000
G01 X166.4892 Y262.5476
G01 X166.4926 Y262.5951
G01 X166.4982 Y262.6423
G01 X166.5061 Y262.6893
G01 X166.5162 Y262.7358
G01 X166.5285 Y262.7817
G01 X166.5430 Y262.8271
G01 X166.5597 Y262.8717
G01 X166.5784 Y262.9154
G01 X166.5992 Y262.9582
G01 X166.6220 Y263.0000
G01 X166.6468 Y263.0406
G01 X166.6735 Y263.0801
G01 X166.7020 Y263.1182
G01 X166.7323 Y263.1549
G01 X166.7643 Y263.1901
G01 X166.7980 Y263.2237
G01 X166.8332 Y263.2557
G01 X166.8699 Y263.2861
G01 X166.9080 Y263.3146
G01 X166.9474 Y263.3412
G01 X166.9880 Y263.3660
G01 X167.0298 Y263.3888
G01 X167.0726 Y263.4096
G01 X167.1164 Y263.4284
G01 X167.1610 Y263.4450
G01 X167.2063 Y263.4595
G01 X167.2523 Y263.4718
G01 X167.2988 Y263.4819
G01 X167.3457 Y263.4898
G01 X167.3930 Y263.4955
G01 X167.4404 Y263.4989
G01 X167.4880 Y263.5000
G01 X167.5356 Y263.4989
G01 X167.5831 Y263.4955
G01 X167.6303 Y263.4898
G01 X167.6773 Y263.4819
G01 X167.7238 Y263.4718
G01 X167.7698 Y263.4595
G01 X167.8151 Y263.4450
G01 X167.8597 Y263.4284
G01 X167.9034 Y263.4096
G01 X167.9462 Y263.3888
G01 X167.9880 Y263.3660
G01 X168.0287 Y263.3412
G01 X168.0681 Y263.3146
G01 X168.1062 Y263.2861
G01 X168.1429 Y263.2557
G01 X168.1781 Y263.2237
G01 X168.2117 Y263.1901
G01 X168.2438 Y263.1549
G01 X168.2741 Y263.1182
G01 X168.3026 Y263.0801
G01 X168.3293 Y263.0406
G01 X168.3540 Y263.0000
G01 X168.3768 Y262.9582
G01 X168.3976 Y262.9154
G01 X168.4164 Y262.8717
G01 X168.4330 Y262.8271
G01 X168.4475 Y262.7817
G01 X168.4598 Y262.7358
G01 X168.4699 Y262.6893
G01 X168.4778 Y262.6423
G01 X168.4835 Y262.5951
G01 X168.4869 Y262.5476
G01 X168.4880 Y262.5000
M107
M106 S240
G01 X168.4869 Y262.4673 Z-4.9896
M107
M106 S240
G01 X168.4837 Y262.4347 Z-4.9792
M107
M106 S240
G01 X168.4784 Y262.4025 Z-4.9688
M107
M106 S240
G01 X168.4710 Y262.3706 Z-4.9583
M107
M106 S240
G01 X168.4615 Y262.3393 Z-4.9479
M107
M106 S240
G01 X168.4500 Y262.3087 Z-4.9375
M107
M106 S240
G01 X168.4364 Y262.2789 Z-4.9271
M107
M106 S240
G01 X168.4210 Y262.2500 Z-4.9167
M107
M106 S240
G01 X168.4037 Y262.2222 Z-4.9063
M107
M106 S240
G01 X168.3847 Y262.1956 Z-4.8958
M107
M106 S240
G01 X168.3639 Y262.1703 Z-4.8854
M107
M106 S240
G01 X168.3416 Y262.1465 Z-4.8750
M107
M106 S240
G01 X168.3177 Y262.1241 Z-4.8646
M107
M106 S240
G01 X168.2924 Y262.1033 Z-4.8542
M107
M106 S240
G01 X168.2658 Y262.0843 Z-4.8438
M107
M106 S240
G01 X168.2380 Y262.0670 Z-4.8333
M107
M106 S240
G01 X168.2092 Y262.0516 Z-4.8229
M107
M106 S240
G01 X168.1794 Y262.0381 Z-4.8125
M107
M106 S240
G01 X168.1487 Y262.0266 Z-4.8021
M107
M106 S240
G01 X168.1174 Y262.0171 Z-4.7917
M107
M106 S240
G01 X168.0856 Y262.0096 Z-4.7813
M107
M106 S240
G01 X168.0533 Y262.0043 Z-4.7708
M107
M106 S240
G01 X168.0207 Y262.0011 Z-4.7604
M107
M106 S240
G01 X167.9880 Y262.0000 Z-4.7500
M107
M106 S240
G01 X167.9553 Y262.0011 Z-4.7396
M107
M106 S240
G01 X167.9228 Y262.0043 Z-4.7292
M107
M106 S240
G01 X167.8905 Y262.0096 Z-4.7188
M107
M106 S240
G01 X167.8586 Y262.0171 Z-4.7083
M107
M106 S240
G01 X167.8273 Y262.0266 Z-4.6979
M107
M106 S240
G01 X167.7967 Y262.0381 Z-4.6875
M107
M106 S240
G01 X167.7669 Y262.0516 Z-4.6771
M107
M106 S240
G01 X167.7380 Y262.0670 Z-4.6667
M107
M106 S240
G01 X167.7102 Y262.0843 Z-4.6563
M107
M106 S240
G01 X167.6836 Y262.1033 Z-4.6458
M107
M106 S240
G01 X167.6584 Y262.1241 Z-4.6354
M107
M106 S240
G01 X167.6345 Y262.1465 Z-4.6250
M107
M106 S240
G01 X167.6121 Y262.1703 Z-4.6146
M107
M106 S240
G01 X167.5913 Y262.1956 Z-4.6042
M107
M106 S240
G01 X167.5723 Y262.2222 Z-4.5938
M107
M106 S240
G01 X167.5550 Y262.2500 Z-4.5833
M107
M106 S240
G01 X167.5396 Y262.2789 Z-4.5729
M107
M106 S240
G01 X167.5261 Y262.3087 Z-4.5625
M107
M106 S240
G01 X167.5146 Y262.3393 Z-4.5521
M107
M106 S240
G01 X167.5051 Y262.3706 Z-4.5417
M107
M106 S240
G01 X167.4976 Y262.4025 Z-4.5313
M107
M106 S240
G01 X167.4923 Y262.4347 Z-4.5208
M107
M106 S240
G01 X167.4891 Y262.4673 Z-4.5104
M107
M106 S240
G01 X167.4880 Y262.5000 Z-4.5000
M107
G00 Z2.0000


;No. 6: Helical drill 5
G00 X13.2625 Y262.5000 Z2.0000
G00 Z0.5000
M106 S240
G01 X13.2613 Y262.4524 Z0.4861 F400
G01 X13.2579 Y262.4050 Z0.4722
G01 X13.2523 Y262.3577 Z0.4583
G01 X13.2444 Y262.3108 Z0.4444
G01 X13.2343 Y262.2643 Z0.4306
G01 X13.2220 Y262.2183 Z0.4167
G01 X13.2075 Y262.1729 Z0.4028
G01 X13.1908 Y262.1284 Z0.3889
G01 X13.1721 Y262.0846 Z0.3750
G01 X13.1513 Y262.0418 Z0.3611
G01 X13.1285 Y262.0000 Z0.3472
G01 X13.1037 Y261.9594 Z0.3333
G01 X13.0770 Y261.9200 Z0.3194
G01 X13.0485 Y261.8819 Z0.3056
G01 X13.0182 Y261.8452 Z0.2917
G01 X12.9862 Y261.8100 Z0.2778
G01 X12.9526 Y261.7763 Z0.2639
G01 X12.9173 Y261.7443 Z0.2500
G01 X12.8806 Y261.7140 Z0.2361
G01 X12.8425 Y261.6855 Z0.2222
G01 X12.8031 Y261.6588 Z0.2083
G01 X12.7625 Y261.6340 Z0.1944
G01 X12.7207 Y261.6112 Z0.1806
G01 X12.6779 Y261.5904 Z0.1667
G01 X12.6341 Y261.5717 Z0.1528
G01 X12.5896 Y261.5550 Z0.1389
G01 X12.5442 Y261.5405 Z0.1250
G01 X12.4983 Y261.5282 Z0.1111
G01 X12.4517 Y261.5181 Z0.0972
G01 X12.4048 Y261.5102 Z0.0833
G01 X12.3576 Y261.5046 Z0.0694
G01 X12.3101 Y261.5012 Z0.0556
G01 X12.2625 Y261.5000 Z0.0417
G01 X12.2149 Y261.5012 Z0.0278
G01 X12.1675 Y261.5046 Z0.0139
G01 X12.1202 Y261.5102 Z0.0000
G01 X12.0733 Y261.5181 Z-0.0139
G01 X12.0268 Y261.5282 Z-0.0278
G01 X11.9808 Y261.5405 Z-0.0417
G01 X11.9354 Y261.5550 Z-0.0556
G01 X11.8909 Y261.5717 Z-0.0694
G01 X11.8471 Y261.5904 Z-0.0833
G01 X11.8043 Y261.6112 Z-0.0972
G01 X11.7625 Y261.6340 Z-0.1111
G01 X11.7219 Y261.6588 Z-0.1250
G01 X11.6825 Y261.6855 Z-0.1389
G01 X11.6444 Y261.7140 Z-0.1528
G01 X11.6077 Y261.7443 Z-0.1667
G01 X11.5725 Y261.7763 Z-0.1806
G01 X11.5388 Y261.8100 Z-0.1944
G01 X11.5068 Y261.8452 Z-0.2083
G01 X11.4765 Y261.8819 Z-0.2222
G01 X11.4480 Y261.9200 Z-0.2361
G01 X11.4213 Y261.9594 Z-0.2500
G01 X11.3965 Y262.0000 Z-0.2639
G01 X11.3737 Y262.0418 Z-0.2778
G01 X11.3529 Y262.0846 Z-0.2917
G01 X11.3342 Y262.1284 Z-0.3056
G01 X11.3175 Y262.1729 Z-0.3194
G01 X11.3030 Y262.2183 Z-0.3333
G01 X11.2907 Y262.2643 Z-0.3472
G01 X11.2806 Y262.3108 Z-0.3611
G01 X11.2727 Y262.3577 Z-0.3750
G01 X11.2671 Y262.4050 Z-0.3889
G01 X11.2637 Y262.4524 Z-0.4028
G01 X11.2625 Y262.5000 Z-0.4167
G01 X11.2637 Y262.5476 Z-0.4306
G01 X11.2671 Y262.5951 Z-0.4444
G01 X11.2727 Y262.6423 Z-0.4583
G01 X11.2806 Y262.6892 Z-0.4722
G01 X11.2907 Y262.7358 Z-0.4861
G01 X11.3030 Y262.7817 Z-0.5000
G01 X11.3175 Y262.8271 Z-0.5139
G01 X11.3342 Y262.8717 Z-0.5278
G01 X11.3529 Y262.9154 Z-0.5417
G01 X11.3737 Y262.9582 Z-0.5556
G01 X11.3965 Y263.0000 Z-0.5694
G01 X11.4213 Y263.0406 Z-0.5833
G01 X11.4480 Y263.0800 Z-0.5972
G01 X11.4765 Y263.1181 Z-0.6111
G01 X11.5068 Y263.1548 Z-0.6250
G01 X11.5388 Y263.1901 Z-0.6389
G01 X11.5725 Y263.2237 Z-0.6528
G01 X11.6077 Y263.2557 Z-0.6667
G01 X11.6444 Y263.2860 Z-0.6806
G01 X11.6825 Y263.3145 Z-0.6944
G01 X11.7219 Y263.3412 Z-0.7083
G01 X11.7625 Y263.3660 Z-0.7222
G01 X11.8043 Y263.3888 Z-0.7361
G01 X11.8471 Y263.4096 Z-0.7500
G01 X11.8909 Y263.4283 Z-0.7639
G01 X11.9354 Y263.4450 Z-0.7778
G01 X11.9808 Y263.4595 Z-0.7917
G01 X12.0268 Y263.4718 Z-0.8056
G01 X12.0733 Y263.4819 Z-0.8194
G01 X12.1202 Y263.4898 Z-0.8333
G01 X12.1675 Y263.4954 Z-0.8472
G01 X12.2149 Y263.4988 Z-0.8611
G01 X12.2625 Y263.5000 Z-0.8750
G01 X12.3101 Y263.4988 Z-0.8889
G01 X12.3576 Y263.4954 Z-0.9028
G01 X12.4048 Y263.4898 Z-0.9167
G01 X12.4517 Y263.4819 Z-0.9306
G01 X12.4983 Y263.4718 Z-0.9444
G01 X12.5442 Y263.4595 Z-0.9583
G01 X12.5896 Y263.4450 Z-0.9722
G01 X12.6341 Y263.4283 Z-0.9861
G01 X12.6779 Y263.4096 Z-1.0000
G01 X12.7207 Y263.3888 Z-1.0139
G01 X12.7625 Y263.3660 Z-1.0278
G01 X12.8031 Y263.3412 Z-1.0417
G01 X12.8425 Y263.3145 Z-1.0556
G01 X12.8806 Y263.2860 Z-1.0694
G01 X12.9173 Y263.2557 Z-1.0833
G01 X12.9526 Y263.2237 Z-1.0972
G01 X12.9862 Y263.1901 Z-1.1111
G01 X13.0182 Y263.1548 Z-1.1250
G01 X13.0485 Y263.1181 Z-1.1389
G01 X13.0770 Y263.0800 Z-1.1528
G01 X13.1037 Y263.0406 Z-1.1667
G01 X13.1285 Y263.0000 Z-1.1806
G01 X13.1513 Y262.9582 Z-1.1944
G01 X13.1721 Y262.9154 Z-1.2083
G01 X13.1908 Y262.8717 Z-1.2222
G01 X13.2075 Y262.8271 Z-1.2361
G01 X13.2220 Y262.7817 Z-1.2500
G01 X13.2343 Y262.7358 Z-1.2639
G01 X13.2444 Y262.6892 Z-1.2778
G01 X13.2523 Y262.6423 Z-1.2917
G01 X13.2579 Y262.5951 Z-1.3056
G01 X13.2613 Y262.5476 Z-1.3194
G01 X13.2625 Y262.5000 Z-1.3333
G01 X13.2613 Y262.4524 Z-1.3472
G01 X13.2579 Y262.4050 Z-1.3611
G01 X13.2523 Y262.3577 Z-1.3750
G01 X13.2444 Y262.3108 Z-1.3889
G01 X13.2343 Y262.2643 Z-1.4028
G01 X13.2220 Y262.2183 Z-1.4167
G01 X13.2075 Y262.1729 Z-1.4306
G01 X13.1908 Y262.1284 Z-1.4444
G01 X13.1721 Y262.0846 Z-1.4583
G01 X13.1513 Y262.0418 Z-1.4722
G01 X13.1285 Y262.0000 Z-1.4861
G01 X13.1037 Y261.9594 Z-1.5000
G01 X13.0770 Y261.9200 Z-1.5139
G01 X13.0485 Y261.8819 Z-1.5278
G01 X13.0182 Y261.8452 Z-1.5417
G01 X12.9862 Y261.8100 Z-1.5556
G01 X12.9526 Y261.7763 Z-1.5694
G01 X12.9173 Y261.7443 Z-1.5833
G01 X12.8806 Y261.7140 Z-1.5972
G01 X12.8425 Y261.6855 Z-1.6111
G01 X12.8031 Y261.6588 Z-1.6250
G01 X12.7625 Y261.6340 Z-1.6389
G01 X12.7207 Y261.6112 Z-1.6528
G01 X12.6779 Y261.5904 Z-1.6667
G01 X12.6341 Y261.5717 Z-1.6806
G01 X12.5896 Y261.5550 Z-1.6944
G01 X12.5442 Y261.5405 Z-1.7083
G01 X12.4983 Y261.5282 Z-1.7222
G01 X12.4517 Y261.5181 Z-1.7361
G01 X12.4048 Y261.5102 Z-1.7500
G01 X12.3576 Y261.5046 Z-1.7639
G01 X12.3101 Y261.5012 Z-1.7778
G01 X12.2625 Y261.5000 Z-1.7917
G01 X12.2149 Y261.5012 Z-1.8056
G01 X12.1675 Y261.5046 Z-1.8194
G01 X12.1202 Y261.5102 Z-1.8333
G01 X12.0733 Y261.5181 Z-1.8472
G01 X12.0268 Y261.5282 Z-1.8611
G01 X11.9808 Y261.5405 Z-1.8750
G01 X11.9354 Y261.5550 Z-1.8889
G01 X11.8909 Y261.5717 Z-1.9028
G01 X11.8471 Y261.5904 Z-1.9167
G01 X11.8043 Y261.6112 Z-1.9306
G01 X11.7625 Y261.6340 Z-1.9444
G01 X11.7219 Y261.6588 Z-1.9583
G01 X11.6825 Y261.6855 Z-1.9722
G01 X11.6444 Y261.7140 Z-1.9861
G01 X11.6077 Y261.7443 Z-2.0000
G01 X11.5725 Y261.7763 Z-2.0139
G01 X11.5388 Y261.8100 Z-2.0278
G01 X11.5068 Y261.8452 Z-2.0417
G01 X11.4765 Y261.8819 Z-2.0556
G01 X11.4480 Y261.9200 Z-2.0694
G01 X11.4213 Y261.9594 Z-2.0833
G01 X11.3965 Y262.0000 Z-2.0972
G01 X11.3737 Y262.0418 Z-2.1111
G01 X11.3529 Y262.0846 Z-2.1250
G01 X11.3342 Y262.1284 Z-2.1389
G01 X11.3175 Y262.1729 Z-2.1528
G01 X11.3030 Y262.2183 Z-2.1667
G01 X11.2907 Y262.2643 Z-2.1806
G01 X11.2806 Y262.3108 Z-2.1944
G01 X11.2727 Y262.3577 Z-2.2083
G01 X11.2671 Y262.4050 Z-2.2222
G01 X11.2637 Y262.4524 Z-2.2361
G01 X11.2625 Y262.5000 Z-2.2500
G01 X11.2637 Y262.5476 Z-2.2639
G01 X11.2671 Y262.5951 Z-2.2778
G01 X11.2727 Y262.6423 Z-2.2917
G01 X11.2806 Y262.6892 Z-2.3056
G01 X11.2907 Y262.7358 Z-2.3194
G01 X11.3030 Y262.7817 Z-2.3333
G01 X11.3175 Y262.8271 Z-2.3472
G01 X11.3342 Y262.8717 Z-2.3611
G01 X11.3529 Y262.9154 Z-2.3750
G01 X11.3737 Y262.9582 Z-2.3889
G01 X11.3965 Y263.0000 Z-2.4028
G01 X11.4213 Y263.0406 Z-2.4167
G01 X11.4480 Y263.0800 Z-2.4306
G01 X11.4765 Y263.1181 Z-2.4444
G01 X11.5068 Y263.1548 Z-2.4583
G01 X11.5388 Y263.1901 Z-2.4722
G01 X11.5725 Y263.2237 Z-2.4861
G01 X11.6077 Y263.2557 Z-2.5000
G01 X11.6444 Y263.2860 Z-2.5139
G01 X11.6825 Y263.3145 Z-2.5278
G01 X11.7219 Y263.3412 Z-2.5417
G01 X11.7625 Y263.3660 Z-2.5556
G01 X11.8043 Y263.3888 Z-2.5694
G01 X11.8471 Y263.4096 Z-2.5833
G01 X11.8909 Y263.4283 Z-2.5972
G01 X11.9354 Y263.4450 Z-2.6111
G01 X11.9808 Y263.4595 Z-2.6250
G01 X12.0268 Y263.4718 Z-2.6389
G01 X12.0733 Y263.4819 Z-2.6528
G01 X12.1202 Y263.4898 Z-2.6667
G01 X12.1675 Y263.4954 Z-2.6806
G01 X12.2149 Y263.4988 Z-2.6944
G01 X12.2625 Y263.5000 Z-2.7083
G01 X12.3101 Y263.4988 Z-2.7222
G01 X12.3576 Y263.4954 Z-2.7361
G01 X12.4048 Y263.4898 Z-2.7500
G01 X12.4517 Y263.4819 Z-2.7639
G01 X12.4983 Y263.4718 Z-2.7778
G01 X12.5442 Y263.4595 Z-2.7917
G01 X12.5896 Y263.4450 Z-2.8056
G01 X12.6341 Y263.4283 Z-2.8194
G01 X12.6779 Y263.4096 Z-2.8333
G01 X12.7207 Y263.3888 Z-2.8472
G01 X12.7625 Y263.3660 Z-2.8611
G01 X12.8031 Y263.3412 Z-2.8750
G01 X12.8425 Y263.3145 Z-2.8889
G01 X12.8806 Y263.2860 Z-2.9028
G01 X12.9173 Y263.2557 Z-2.9167
G01 X12.9526 Y263.2237 Z-2.9306
G01 X12.9862 Y263.1901 Z-2.9444
G01 X13.0182 Y263.1548 Z-2.9583
G01 X13.0485 Y263.1181 Z-2.9722
G01 X13.0770 Y263.0800 Z-2.9861
G01 X13.1037 Y263.0406 Z-3.0000
G01 X13.1285 Y263.0000 Z-3.0139
G01 X13.1513 Y262.9582 Z-3.0278
G01 X13.1721 Y262.9154 Z-3.0417
G01 X13.1908 Y262.8717 Z-3.0556
G01 X13.2075 Y262.8271 Z-3.0694
G01 X13.2220 Y262.7817 Z-3.0833
G01 X13.2343 Y262.7358 Z-3.0972
G01 X13.2444 Y262.6892 Z-3.1111
G01 X13.2523 Y262.6423 Z-3.1250
G01 X13.2579 Y262.5951 Z-3.1389
G01 X13.2613 Y262.5476 Z-3.1528
G01 X13.2625 Y262.5000 Z-3.1667
G01 X13.2613 Y262.4524 Z-3.1806
G01 X13.2579 Y262.4050 Z-3.1944
G01 X13.2523 Y262.3577 Z-3.2083
G01 X13.2444 Y262.3108 Z-3.2222
G01 X13.2343 Y262.2643 Z-3.2361
G01 X13.2220 Y262.2183 Z-3.2500
G01 X13.2075 Y262.1729 Z-3.2639
G01 X13.1908 Y262.1284 Z-3.2778
G01 X13.1721 Y262.0846 Z-3.2917
G01 X13.1513 Y262.0418 Z-3.3056
G01 X13.1285 Y262.0000 Z-3.3194
G01 X13.1037 Y261.9594 Z-3.3333
G01 X13.0770 Y261.9200 Z-3.3472
G01 X13.0485 Y261.8819 Z-3.3611
G01 X13.0182 Y261.8452 Z-3.3750
G01 X12.9862 Y261.8100 Z-3.3889
G01 X12.9526 Y261.7763 Z-3.4028
G01 X12.9173 Y261.7443 Z-3.4167
G01 X12.8806 Y261.7140 Z-3.4306
G01 X12.8425 Y261.6855 Z-3.4444
G01 X12.8031 Y261.6588 Z-3.4583
G01 X12.7625 Y261.6340 Z-3.4722
G01 X12.7207 Y261.6112 Z-3.4861
G01 X12.6779 Y261.5904 Z-3.5000
G01 X12.6341 Y261.5717 Z-3.5139
G01 X12.5896 Y261.5550 Z-3.5278
G01 X12.5442 Y261.5405 Z-3.5417
G01 X12.4983 Y261.5282 Z-3.5556
G01 X12.4517 Y261.5181 Z-3.5694
G01 X12.4048 Y261.5102 Z-3.5833
G01 X12.3576 Y261.5046 Z-3.5972
G01 X12.3101 Y261.5012 Z-3.6111
G01 X12.2625 Y261.5000 Z-3.6250
G01 X12.2149 Y261.5012 Z-3.6389
G01 X12.1675 Y261.5046 Z-3.6528
G01 X12.1202 Y261.5102 Z-3.6667
G01 X12.0733 Y261.5181 Z-3.6806
G01 X12.0268 Y261.5282 Z-3.6944
G01 X11.9808 Y261.5405 Z-3.7083
G01 X11.9354 Y261.5550 Z-3.7222
G01 X11.8909 Y261.5717 Z-3.7361
G01 X11.8471 Y261.5904 Z-3.7500
G01 X11.8043 Y261.6112 Z-3.7639
G01 X11.7625 Y261.6340 Z-3.7778
G01 X11.7219 Y261.6588 Z-3.7917
G01 X11.6825 Y261.6855 Z-3.8056
G01 X11.6444 Y261.7140 Z-3.8194
G01 X11.6077 Y261.7443 Z-3.8333
G01 X11.5725 Y261.7763 Z-3.8472
G01 X11.5388 Y261.8100 Z-3.8611
G01 X11.5068 Y261.8452 Z-3.8750
G01 X11.4765 Y261.8819 Z-3.8889
G01 X11.4480 Y261.9200 Z-3.9028
G01 X11.4213 Y261.9594 Z-3.9167
G01 X11.3965 Y262.0000 Z-3.9306
G01 X11.3737 Y262.0418 Z-3.9444
G01 X11.3529 Y262.0846 Z-3.9583
G01 X11.3342 Y262.1284 Z-3.9722
G01 X11.3175 Y262.1729 Z-3.9861
G01 X11.3030 Y262.2183 Z-4.0000
G01 X11.2907 Y262.2643 Z-4.0139
G01 X11.2806 Y262.3108 Z-4.0278
G01 X11.2727 Y262.3577 Z-4.0417
G01 X11.2671 Y262.4050 Z-4.0556
G01 X11.2637 Y262.4524 Z-4.0694
G01 X11.2625 Y262.5000 Z-4.0833
G01 X11.2637 Y262.5476 Z-4.0972
G01 X11.2671 Y262.5951 Z-4.1111
G01 X11.2727 Y262.6423 Z-4.1250
G01 X11.2806 Y262.6892 Z-4.1389
G01 X11.2907 Y262.7358 Z-4.1528
G01 X11.3030 Y262.7817 Z-4.1667
G01 X11.3175 Y262.8271 Z-4.1806
G01 X11.3342 Y262.8717 Z-4.1944
G01 X11.3529 Y262.9154 Z-4.2083
G01 X11.3737 Y262.9582 Z-4.2222
G01 X11.3965 Y263.0000 Z-4.2361
G01 X11.4213 Y263.0406 Z-4.2500
G01 X11.4480 Y263.0800 Z-4.2639
G01 X11.4765 Y263.1181 Z-4.2778
G01 X11.5068 Y263.1548 Z-4.2917
G01 X11.5388 Y263.1901 Z-4.3056
G01 X11.5725 Y263.2237 Z-4.3194
G01 X11.6077 Y263.2557 Z-4.3333
G01 X11.6444 Y263.2860 Z-4.3472
G01 X11.6825 Y263.3145 Z-4.3611
G01 X11.7219 Y263.3412 Z-4.3750
G01 X11.7625 Y263.3660 Z-4.3889
G01 X11.8043 Y263.3888 Z-4.4028
G01 X11.8471 Y263.4096 Z-4.4167
G01 X11.8909 Y263.4283 Z-4.4306
G01 X11.9354 Y263.4450 Z-4.4444
G01 X11.9808 Y263.4595 Z-4.4583
G01 X12.0268 Y263.4718 Z-4.4722
G01 X12.0733 Y263.4819 Z-4.4861
G01 X12.1202 Y263.4898 Z-4.5000
G01 X12.1675 Y263.4954 Z-4.5139
G01 X12.2149 Y263.4988 Z-4.5278
G01 X12.2625 Y263.5000 Z-4.5417
G01 X12.3101 Y263.4988 Z-4.5556
G01 X12.3576 Y263.4954 Z-4.5694
G01 X12.4048 Y263.4898 Z-4.5833
G01 X12.4517 Y263.4819 Z-4.5972
G01 X12.4983 Y263.4718 Z-4.6111
G01 X12.5442 Y263.4595 Z-4.6250
G01 X12.5896 Y263.4450 Z-4.6389
G01 X12.6341 Y263.4283 Z-4.6528
G01 X12.6779 Y263.4096 Z-4.6667
G01 X12.7207 Y263.3888 Z-4.6806
G01 X12.7625 Y263.3660 Z-4.6944
G01 X12.8031 Y263.3412 Z-4.7083
G01 X12.8425 Y263.3145 Z-4.7222
G01 X12.8806 Y263.2860 Z-4.7361
G01 X12.9173 Y263.2557 Z-4.7500
G01 X12.9526 Y263.2237 Z-4.7639
G01 X12.9862 Y263.1901 Z-4.7778
G01 X13.0182 Y263.1548 Z-4.7917
G01 X13.0485 Y263.1181 Z-4.8056
G01 X13.0770 Y263.0800 Z-4.8194
G01 X13.1037 Y263.0406 Z-4.8333
G01 X13.1285 Y263.0000 Z-4.8472
G01 X13.1513 Y262.9582 Z-4.8611
G01 X13.1721 Y262.9154 Z-4.8750
G01 X13.1908 Y262.8717 Z-4.8889
G01 X13.2075 Y262.8271 Z-4.9028
G01 X13.2220 Y262.7817 Z-4.9167
G01 X13.2343 Y262.7358 Z-4.9306
G01 X13.2444 Y262.6892 Z-4.9444
G01 X13.2523 Y262.6423 Z-4.9583
G01 X13.2579 Y262.5951 Z-4.9722
G01 X13.2613 Y262.5476 Z-4.9861
G01 X13.2625 Y262.5000 Z-5.0000
G01 X13.2613 Y262.4524
G01 X13.2579 Y262.4050
G01 X13.2523 Y262.3577
G01 X13.2444 Y262.3108
G01 X13.2343 Y262.2643
G01 X13.2220 Y262.2183
G01 X13.2075 Y262.1729
G01 X13.1908 Y262.1284
G01 X13.1721 Y262.0846
G01 X13.1513 Y262.0418
G01 X13.1285 Y262.0000
G01 X13.1037 Y261.9594
G01 X13.0770 Y261.9200
G01 X13.0485 Y261.8819
G01 X13.0182 Y261.8452
G01 X12.9862 Y261.8100
G01 X12.9526 Y261.7763
G01 X12.9173 Y261.7443
G01 X12.8806 Y261.7140
G01 X12.8425 Y261.6855
G01 X12.8031 Y261.6588
G01 X12.7625 Y261.6340
G01 X12.7207 Y261.6112
G01 X12.6779 Y261.5904
G01 X12.6341 Y261.5717
G01 X12.5896 Y261.5550
G01 X12.5442 Y261.5405
G01 X12.4983 Y261.5282
G01 X12.4517 Y261.5181
G01 X12.4048 Y261.5102
G01 X12.3576 Y261.5046
G01 X12.3101 Y261.5012
G01 X12.2625 Y261.5000
G01 X12.2149 Y261.5012
G01 X12.1675 Y261.5046
G01 X12.1202 Y261.5102
G01 X12.0733 Y261.5181
G01 X12.0268 Y261.5282
G01 X11.9808 Y261.5405
G01 X11.9354 Y261.5550
G01 X11.8909 Y261.5717
G01 X11.8471 Y261.5904
G01 X11.8043 Y261.6112
G01 X11.7625 Y261.6340
G01 X11.7219 Y261.6588
G01 X11.6825 Y261.6855
G01 X11.6444 Y261.7140
G01 X11.6077 Y261.7443
G01 X11.5725 Y261.7763
G01 X11.5388 Y261.8100
G01 X11.5068 Y261.8452
G01 X11.4765 Y261.8819
G01 X11.4480 Y261.9200
G01 X11.4213 Y261.9594
G01 X11.3965 Y262.0000
G01 X11.3737 Y262.0418
G01 X11.3529 Y262.0846
G01 X11.3342 Y262.1284
G01 X11.3175 Y262.1729
G01 X11.3030 Y262.2183
G01 X11.2907 Y262.2643
G01 X11.2806 Y262.3108
G01 X11.2727 Y262.3577
G01 X11.2671 Y262.4050
G01 X11.2637 Y262.4524
G01 X11.2625 Y262.5000
G01 X11.2637 Y262.5476
G01 X11.2671 Y262.5951
G01 X11.2727 Y262.6423
G01 X11.2806 Y262.6892
G01 X11.2907 Y262.7358
G01 X11.3030 Y262.7817
G01 X11.3175 Y262.8271
G01 X11.3342 Y262.8717
G01 X11.3529 Y262.9154
G01 X11.3737 Y262.9582
G01 X11.3965 Y263.0000
G01 X11.4213 Y263.0406
G01 X11.4480 Y263.0800
G01 X11.4765 Y263.1181
G01 X11.5068 Y263.1548
G01 X11.5388 Y263.1901
G01 X11.5725 Y263.2237
G01 X11.6077 Y263.2557
G01 X11.6444 Y263.2860
G01 X11.6825 Y263.3145
G01 X11.7219 Y263.3412
G01 X11.7625 Y263.3660
G01 X11.8043 Y263.3888
G01 X11.8471 Y263.4096
G01 X11.8909 Y263.4283
G01 X11.9354 Y263.4450
G01 X11.9808 Y263.4595
G01 X12.0268 Y263.4718
G01 X12.0733 Y263.4819
G01 X12.1202 Y263.4898
G01 X12.1675 Y263.4954
G01 X12.2149 Y263.4988
G01 X12.2625 Y263.5000
G01 X12.3101 Y263.4988
G01 X12.3576 Y263.4954
G01 X12.4048 Y263.4898
G01 X12.4517 Y263.4819
G01 X12.4983 Y263.4718
G01 X12.5442 Y263.4595
G01 X12.5896 Y263.4450
G01 X12.6341 Y263.4283
G01 X12.6779 Y263.4096
G01 X12.7207 Y263.3888
G01 X12.7625 Y263.3660
G01 X12.8031 Y263.3412
G01 X12.8425 Y263.3145
G01 X12.8806 Y263.2860
G01 X12.9173 Y263.2557
G01 X12.9526 Y263.2237
G01 X12.9862 Y263.1901
G01 X13.0182 Y263.1548
G01 X13.0485 Y263.1181
G01 X13.0770 Y263.0800
G01 X13.1037 Y263.0406
G01 X13.1285 Y263.0000
G01 X13.1513 Y262.9582
G01 X13.1721 Y262.9154
G01 X13.1908 Y262.8717
G01 X13.2075 Y262.8271
G01 X13.2220 Y262.7817
G01 X13.2343 Y262.7358
G01 X13.2444 Y262.6892
G01 X13.2523 Y262.6423
G01 X13.2579 Y262.5951
G01 X13.2613 Y262.5476
G01 X13.2625 Y262.5000
M107
M106 S240
G01 X13.2614 Y262.4673 Z-4.9896
M107
M106 S240
G01 X13.2582 Y262.4347 Z-4.9792
M107
M106 S240
G01 X13.2529 Y262.4025 Z-4.9688
M107
M106 S240
G01 X13.2454 Y262.3706 Z-4.9583
M107
M106 S240
G01 X13.2359 Y262.3393 Z-4.9479
M107
M106 S240
G01 X13.2244 Y262.3087 Z-4.9375
M107
M106 S240
G01 X13.2109 Y262.2789 Z-4.9271
M107
M106 S240
G01 X13.1955 Y262.2500 Z-4.9167
M107
M106 S240
G01 X13.1782 Y262.2222 Z-4.9063
M107
M106 S240
G01 X13.1591 Y262.1956 Z-4.8958
M107
M106 S240
G01 X13.1384 Y262.1703 Z-4.8854
M107
M106 S240
G01 X13.1160 Y262.1465 Z-4.8750
M107
M106 S240
G01 X13.0921 Y262.1241 Z-4.8646
M107
M106 S240
G01 X13.0669 Y262.1033 Z-4.8542
M107
M106 S240
G01 X13.0403 Y262.0843 Z-4.8438
M107
M106 S240
G01 X13.0125 Y262.0670 Z-4.8333
M107
M106 S240
G01 X12.9836 Y262.0516 Z-4.8229
M107
M106 S240
G01 X12.9538 Y262.0381 Z-4.8125
M107
M106 S240
G01 X12.9232 Y262.0266 Z-4.8021
M107
M106 S240
G01 X12.8919 Y262.0171 Z-4.7917
M107
M106 S240
G01 X12.8600 Y262.0096 Z-4.7813
M107
M106 S240
G01 X12.8277 Y262.0043 Z-4.7708
M107
M106 S240
G01 X12.7952 Y262.0011 Z-4.7604
M107
M106 S240
G01 X12.7625 Y262.0000 Z-4.7500
M107
M106 S240
G01 X12.7298 Y262.0011 Z-4.7396
M107
M106 S240
G01 X12.6972 Y262.0043 Z-4.7292
M107
M106 S240
G01 X12.6649 Y262.0096 Z-4.7188
M107
M106 S240
G01 X12.6331 Y262.0171 Z-4.7083
M107
M106 S240
G01 X12.6018 Y262.0266 Z-4.6979
M107
M106 S240
G01 X12.5711 Y262.0381 Z-4.6875
M107
M106 S240
G01 X12.5413 Y262.0516 Z-4.6771
M107
M106 S240
G01 X12.5125 Y262.0670 Z-4.6667
M107
M106 S240
G01 X12.4847 Y262.0843 Z-4.6563
M107
M106 S240
G01 X12.4581 Y262.1033 Z-4.6458
M107
M106 S240
G01 X12.4328 Y262.1241 Z-4.6354
M107
M106 S240
G01 X12.4089 Y262.1465 Z-4.6250
M107
M106 S240
G01 X12.3866 Y262.1703 Z-4.6146
M107
M106 S240
G01 X12.3658 Y262.1956 Z-4.6042
M107
M106 S240
G01 X12.3468 Y262.2222 Z-4.5938
M107
M106 S240
G01 X12.3295 Y262.2500 Z-4.5833
M107
M106 S240
G01 X12.3141 Y262.2789 Z-4.5729
M107
M106 S240
G01 X12.3006 Y262.3087 Z-4.5625
M107
M106 S240
G01 X12.2890 Y262.3393 Z-4.5521
M107
M106 S240
G01 X12.2795 Y262.3706 Z-4.5417
M107
M106 S240
G01 X12.2721 Y262.4025 Z-4.5313
M107
M106 S240
G01 X12.2668 Y262.4347 Z-4.5208
M107
M106 S240
G01 X12.2636 Y262.4673 Z-4.5104
M107
M106 S240
G01 X12.2625 Y262.5000 Z-4.5000
M107
G00 Z2.0000


;No. 7: Part 3
G00 X3.2625 Y136.9990 Z2.0000
G00 Z0.5000
G01 Z0.0000 F400
G01 Z-2.0000
M106 S240
G01 Y14.9904 F800
G01 X3.2770 Y14.5660
G01 X3.3191 Y14.1435
G01 X3.3888 Y13.7246
G01 X3.4857 Y13.3111
G01 X3.6093 Y12.9049
G01 X3.7593 Y12.5076
G01 X3.9348 Y12.1210
G01 X4.1352 Y11.7466
G01 X4.3596 Y11.3861
G01 X4.6071 Y11.0411
G01 X4.8766 Y10.7129
G01 X5.1670 Y10.4030
G01 X5.4769 Y10.1128
G01 X5.8052 Y9.8434
G01 X6.1503 Y9.5960
G01 X6.5108 Y9.3717
G01 X6.8853 Y9.1714
G01 X7.2720 Y8.9960
G01 X7.6693 Y8.8462
G01 X8.0756 Y8.7227
G01 X8.4891 Y8.6259
G01 X8.9080 Y8.5564
G01 X9.3305 Y8.5144
G01 X9.7549 Y8.5000
G01 X86.7635
G01 X92.7635
G01 X169.7721
G01 X170.1965 Y8.5145
G01 X170.6190 Y8.5566
G01 X171.0379 Y8.6263
G01 X171.4514 Y8.7232
G01 X171.8576 Y8.8468
G01 X172.2549 Y8.9968
G01 X172.6415 Y9.1723
G01 X173.0159 Y9.3727
G01 X173.3764 Y9.5971
G01 X173.7214 Y9.8446
G01 X174.0496 Y10.1141
G01 X174.3595 Y10.4045
G01 X174.6497 Y10.7144
G01 X174.9191 Y11.0427
G01 X175.1665 Y11.3878
G01 X175.3908 Y11.7483
G01 X175.5911 Y12.1228
G01 X175.7665 Y12.5095
G01 X175.9163 Y12.9068
G01 X176.0398 Y13.3131
G01 X176.1366 Y13.7266
G01 X176.2061 Y14.1455
G01 X176.2481 Y14.5680
G01 X176.2625 Y14.9924
G01 Y137.0010
G01 Y143.0010
G01 Y265.0096
G01 X176.2480 Y265.4340
G01 X176.2059 Y265.8565
G01 X176.1362 Y266.2754
G01 X176.0393 Y266.6889
G01 X175.9157 Y267.0951
G01 X175.7657 Y267.4924
G01 X175.5902 Y267.8790
G01 X175.3898 Y268.2534
G01 X175.1654 Y268.6139
G01 X174.9179 Y268.9589
G01 X174.6484 Y269.2871
G01 X174.3580 Y269.5970
G01 X174.0481 Y269.8872
G01 X173.7198 Y270.1566
G01 X173.3747 Y270.4040
G01 X173.0142 Y270.6283
G01 X172.6397 Y270.8286
G01 X172.2530 Y271.0040
G01 X171.8557 Y271.1538
G01 X171.4494 Y271.2773
G01 X171.0359 Y271.3741
G01 X170.6170 Y271.4436
G01 X170.1945 Y271.4856
G01 X169.7701 Y271.5000
G01 X92.7615
G01 X86.7615
G01 X9.7529
G01 X9.3285 Y271.4855
G01 X8.9060 Y271.4434
G01 X8.4871 Y271.3737
G01 X8.0736 Y271.2768
G01 X7.6674 Y271.1532
G01 X7.2701 Y271.0032
G01 X6.8835 Y270.8277
G01 X6.5091 Y270.6273
G01 X6.1486 Y270.4029
G01 X5.8036 Y270.1554
G01 X5.4754 Y269.8859
G01 X5.1655 Y269.5955
G01 X4.8753 Y269.2856
G01 X4.6059 Y268.9573
G01 X4.3585 Y268.6122
G01 X4.1342 Y268.2517
G01 X3.9339 Y267.8772
G01 X3.7585 Y267.4905
G01 X3.6087 Y267.0932
G01 X3.4852 Y266.6869
G01 X3.3884 Y266.2734
G01 X3.3189 Y265.8545
G01 X3.2769 Y265.4320
G01 X3.2625 Y265.0076
G01 Y142.9990
G01 Y136.9990
G01 Z-4.0000 F400
G01 Y14.9904 F800
G01 X3.2770 Y14.5660
G01 X3.3191 Y14.1435
G01 X3.3888 Y13.7246
G01 X3.4857 Y13.3111
G01 X3.6093 Y12.9049
G01 X3.7593 Y12.5076
G01 X3.9348 Y12.1210
G01 X4.1352 Y11.7466
G01 X4.3596 Y11.3861
G01 X4.6071 Y11.0411
G01 X4.8766 Y10.7129
G01 X5.1670 Y10.4030
G01 X5.4769 Y10.1128
G01 X5.8052 Y9.8434
G01 X6.1503 Y9.5960
G01 X6.5108 Y9.3717
G01 X6.8853 Y9.1714
G01 X7.2720 Y8.9960
G01 X7.6693 Y8.8462
G01 X8.0756 Y8.7227
G01 X8.4891 Y8.6259
G01 X8.9080 Y8.5564
G01 X9.3305 Y8.5144
G01 X9.7549 Y8.5000
G01 X86.7635
M107
G00 Z-2.0000
M106 S240
G01 X92.7635
G01 Z-4.0000 F400
G01 X169.7721 F800
G01 X170.1965 Y8.5145
G01 X170.6190 Y8.5566
G01 X171.0379 Y8.6263
G01 X171.4514 Y8.7232
G01 X171.8576 Y8.8468
G01 X172.2549 Y8.9968
G01 X172.6415 Y9.1723
G01 X173.0159 Y9.3727
G01 X173.3764 Y9.5971
G01 X173.7214 Y9.8446
G01 X174.0496 Y10.1141
G01 X174.3595 Y10.4045
G01 X174.6497 Y10.7144
G01 X174.9191 Y11.0427
G01 X175.1665 Y11.3878
G01 X175.3908 Y11.7483
G01 X175.5911 Y12.1228
G01 X175.7665 Y12.5095
G01 X175.9163 Y12.9068
G01 X176.0398 Y13.3131
G01 X176.1366 Y13.7266
G01 X176.2061 Y14.1455
G01 X176.2481 Y14.5680
G01 X176.2625 Y14.9924
G01 Y137.0010
M107
G00 Z-2.0000
M106 S240
G01 Y143.0010
G01 Z-4.0000 F400
G01 Y265.0096 F800
G01 X176.2480 Y265.4340
G01 X176.2059 Y265.8565
G01 X176.1362 Y266.2754
G01 X176.0393 Y266.6889
G01 X175.9157 Y267.0951
G01 X175.7657 Y267.4924
G01 X175.5902 Y267.8790
G01 X175.3898 Y268.2534
G01 X175.1654 Y268.6139
G01 X174.9179 Y268.9589
G01 X174.6484 Y269.2871
G01 X174.3580 Y269.5970
G01 X174.0481 Y269.8872
G01 X173.7198 Y270.1566
G01 X173.3747 Y270.4040
G01 X173.0142 Y270.6283
G01 X172.6397 Y270.8286
G01 X172.2530 Y271.0040
G01 X171.8557 Y271.1538
G01 X171.4494 Y271.2773
G01 X171.0359 Y271.3741
G01 X170.6170 Y271.4436
G01 X170.1945 Y271.4856
G01 X169.7701 Y271.5000
G01 X92.7615
M107
G00 Z-2.0000
M106 S240
G01 X86.7615
G01 Z-4.0000 F400
G01 X9.7529 F800
G01 X9.3285 Y271.4855
G01 X8.9060 Y271.4434
G01 X8.4871 Y271.3737
G01 X8.0736 Y271.2768
G01 X7.6674 Y271.1532
G01 X7.2701 Y271.0032
G01 X6.8835 Y270.8277
G01 X6.5091 Y270.6273
G01 X6.1486 Y270.4029
G01 X5.8036 Y270.1554
G01 X5.4754 Y269.8859
G01 X5.1655 Y269.5955
G01 X4.8753 Y269.2856
G01 X4.6059 Y268.9573
G01 X4.3585 Y268.6122
G01 X4.1342 Y268.2517
G01 X3.9339 Y267.8772
G01 X3.7585 Y267.4905
G01 X3.6087 Y267.0932
G01 X3.4852 Y266.6869
G01 X3.3884 Y266.2734
G01 X3.3189 Y265.8545
G01 X3.2769 Y265.4320
G01 X3.2625 Y265.0076
G01 Y142.9990
M107
G00 Z-2.0000
M106 S240
G01 Y136.9990
M107
G00 Z-3.5000
G01 Z-4.0000 F400
G01 Z-5.0000
M106 S240
G01 Y14.9904 F800
G01 X3.2770 Y14.5660
G01 X3.3191 Y14.1435
G01 X3.3888 Y13.7246
G01 X3.4857 Y13.3111
G01 X3.6093 Y12.9049
G01 X3.7593 Y12.5076
G01 X3.9348 Y12.1210
G01 X4.1352 Y11.7466
G01 X4.3596 Y11.3861
G01 X4.6071 Y11.0411
G01 X4.8766 Y10.7129
G01 X5.1670 Y10.4030
G01 X5.4769 Y10.1128
G01 X5.8052 Y9.8434
G01 X6.1503 Y9.5960
G01 X6.5108 Y9.3717
G01 X6.8853 Y9.1714
G01 X7.2720 Y8.9960
G01 X7.6693 Y8.8462
G01 X8.0756 Y8.7227
G01 X8.4891 Y8.6259
G01 X8.9080 Y8.5564
G01 X9.3305 Y8.5144
G01 X9.7549 Y8.5000
G01 X86.7635
M107
G00 Z-2.0000
M106 S240
G01 X92.7635
M107
G00 Z-3.5000
G01 Z-4.0000 F400
G01 Z-5.0000
M106 S240
G01 X169.7721 F800
G01 X170.1965 Y8.5145
G01 X170.6190 Y8.5566
G01 X171.0379 Y8.6263
G01 X171.4514 Y8.7232
G01 X171.8576 Y8.8468
G01 X172.2549 Y8.9968
G01 X172.6415 Y9.1723
G01 X173.0159 Y9.3727
G01 X173.3764 Y9.5971
G01 X173.7214 Y9.8446
G01 X174.0496 Y10.1141
G01 X174.3595 Y10.4045
G01 X174.6497 Y10.7144
G01 X174.9191 Y11.0427
G01 X175.1665 Y11.3878
G01 X175.3908 Y11.7483
G01 X175.5911 Y12.1228
G01 X175.7665 Y12.5095
G01 X175.9163 Y12.9068
G01 X176.0398 Y13.3131
G01 X176.1366 Y13.7266
G01 X176.2061 Y14.1455
G01 X176.2481 Y14.5680
G01 X176.2625 Y14.9924
G01 Y137.0010
M107
G00 Z-2.0000
M106 S240
G01 Y143.0010
M107
G00 Z-3.5000
G01 Z-4.0000 F400
G01 Z-5.0000
M106 S240
G01 Y265.0096 F800
G01 X176.2480 Y265.4340
G01 X176.2059 Y265.8565
G01 X176.1362 Y266.2754
G01 X176.0393 Y266.6889
G01 X175.9157 Y267.0951
G01 X175.7657 Y267.4924
G01 X175.5902 Y267.8790
G01 X175.3898 Y268.2534
G01 X175.1654 Y268.6139
G01 X174.9179 Y268.9589
G01 X174.6484 Y269.2871
G01 X174.3580 Y269.5970
G01 X174.0481 Y269.8872
G01 X173.7198 Y270.1566
G01 X173.3747 Y270.4040
G01 X173.0142 Y270.6283
G01 X172.6397 Y270.8286
G01 X172.2530 Y271.0040
G01 X171.8557 Y271.1538
G01 X171.4494 Y271.2773
G01 X171.0359 Y271.3741
G01 X170.6170 Y271.4436
G01 X170.1945 Y271.4856
G01 X169.7701 Y271.5000
G01 X92.7615
M107
G00 Z-2.0000
M106 S240
G01 X86.7615
M107
G00 Z-3.5000
G01 Z-4.0000 F400
G01 Z-5.0000
M106 S240
G01 X9.7529 F800
G01 X9.3285 Y271.4855
G01 X8.9060 Y271.4434
G01 X8.4871 Y271.3737
G01 X8.0736 Y271.2768
G01 X7.6674 Y271.1532
G01 X7.2701 Y271.0032
G01 X6.8835 Y270.8277
G01 X6.5091 Y270.6273
G01 X6.1486 Y270.4029
G01 X5.8036 Y270.1554
G01 X5.4754 Y269.8859
G01 X5.1655 Y269.5955
G01 X4.8753 Y269.2856
G01 X4.6059 Y268.9573
G01 X4.3585 Y268.6122
G01 X4.1342 Y268.2517
G01 X3.9339 Y267.8772
G01 X3.7585 Y267.4905
G01 X3.6087 Y267.0932
G01 X3.4852 Y266.6869
G01 X3.3884 Y266.2734
G01 X3.3189 Y265.8545
G01 X3.2769 Y265.4320
G01 X3.2625 Y265.0076
G01 Y142.9990
M107
G00 Z-2.0000
M106 S240
