;Project TeslaParkingV3_Schiefer
;Created by Estlcam version 11 build 11,227
;Machining time about 00:19:01 hours

G90
M03 S18000
G00 X0.0000 Y0.0000 Z0.0000
G00 Z2.0000


;No. 1: Helical drill 1
G00 X28.9113 Y264.9635
G00 Z0.5000
M106 S240
G01 X28.9075 Y264.8763 Z0.4705 F400 S18000
G01 X28.8962 Y264.7898 Z0.4410
G01 X28.8773 Y264.7046 Z0.4115
G01 X28.8510 Y264.6214 Z0.3819
G01 X28.8177 Y264.5408 Z0.3524
G01 X28.7774 Y264.4635 Z0.3229
G01 X28.7305 Y264.3899 Z0.2934
G01 X28.6774 Y264.3207 Z0.2639
G01 X28.6185 Y264.2564 Z0.2344
G01 X28.5541 Y264.1974 Z0.2049
G01 X28.4849 Y264.1443 Z0.1753
G01 X28.4113 Y264.0974 Z0.1458
G01 X28.3340 Y264.0572 Z0.1163
G01 X28.2534 Y264.0238 Z0.0868
G01 X28.1702 Y263.9975 Z0.0573
G01 X28.0850 Y263.9787 Z0.0278
G01 X27.9985 Y263.9673 Z-0.0017
G01 X27.9113 Y263.9635 Z-0.0313
G01 X27.8242 Y263.9673 Z-0.0608
G01 X27.7377 Y263.9787 Z-0.0903
G01 X27.6525 Y263.9975 Z-0.1198
G01 X27.5693 Y264.0238 Z-0.1493
G01 X27.4887 Y264.0572 Z-0.1788
G01 X27.4113 Y264.0974 Z-0.2083
G01 X27.3707 Y264.1222 Z-0.2244
G01 X27.3313 Y264.1489 Z-0.2405
G01 X27.2932 Y264.1774 Z-0.2566
G01 X27.2565 Y264.2077 Z-0.2727
G01 X27.2213 Y264.2397 Z-0.2888
G01 X27.1876 Y264.2734 Z-0.3049
G01 X27.1556 Y264.3086 Z-0.3210
G01 X27.1253 Y264.3453 Z-0.3371
G01 X27.0968 Y264.3834 Z-0.3532
G01 X27.0701 Y264.4228 Z-0.3693
G01 X27.0453 Y264.4635 Z-0.3854
G01 X27.0225 Y264.5052 Z-0.4015
G01 X27.0017 Y264.5481 Z-0.4176
G01 X26.9830 Y264.5918 Z-0.4337
G01 X26.9663 Y264.6364 Z-0.4498
G01 X26.9519 Y264.6817 Z-0.4659
G01 X26.9395 Y264.7277 Z-0.4820
G01 X26.9294 Y264.7742 Z-0.4981
G01 X26.9215 Y264.8212 Z-0.5142
G01 X26.9159 Y264.8684 Z-0.5303
G01 X26.9125 Y264.9159 Z-0.5464
G01 X26.9113 Y264.9635 Z-0.5625
G01 X26.9125 Y265.0110 Z-0.5786
G01 X26.9159 Y265.0585 Z-0.5947
G01 X26.9215 Y265.1058 Z-0.6108
G01 X26.9294 Y265.1527 Z-0.6269
G01 X26.9395 Y265.1992 Z-0.6430
G01 X26.9519 Y265.2452 Z-0.6591
G01 X26.9663 Y265.2905 Z-0.6752
G01 X26.9830 Y265.3351 Z-0.6913
G01 X27.0017 Y265.3789 Z-0.7074
G01 X27.0225 Y265.4217 Z-0.7235
G01 X27.0453 Y265.4635 Z-0.7396
G01 X27.0701 Y265.5041 Z-0.7557
G01 X27.0968 Y265.5435 Z-0.7718
G01 X27.1253 Y265.5816 Z-0.7879
G01 X27.1556 Y265.6183 Z-0.8040
G01 X27.1876 Y265.6535 Z-0.8201
G01 X27.2213 Y265.6872 Z-0.8362
G01 X27.2565 Y265.7192 Z-0.8523
G01 X27.2932 Y265.7495 Z-0.8684
G01 X27.3313 Y265.7780 Z-0.8845
G01 X27.3707 Y265.8047 Z-0.9006
G01 X27.4113 Y265.8295 Z-0.9167
G01 X27.4531 Y265.8523 Z-0.9328
G01 X27.4959 Y265.8731 Z-0.9489
G01 X27.5397 Y265.8918 Z-0.9650
G01 X27.5843 Y265.9085 Z-0.9811
G01 X27.6296 Y265.9230 Z-0.9972
G01 X27.6756 Y265.9353 Z-1.0133
G01 X27.7221 Y265.9454 Z-1.0294
G01 X27.7690 Y265.9533 Z-1.0455
G01 X27.8163 Y265.9589 Z-1.0616
G01 X27.8638 Y265.9623 Z-1.0777
G01 X27.9113 Y265.9635 Z-1.0938
G01 X27.9589 Y265.9623 Z-1.1098
G01 X28.0064 Y265.9589 Z-1.1259
G01 X28.0537 Y265.9533 Z-1.1420
G01 X28.1006 Y265.9454 Z-1.1581
G01 X28.1471 Y265.9353 Z-1.1742
G01 X28.1931 Y265.9230 Z-1.1903
G01 X28.2384 Y265.9085 Z-1.2064
G01 X28.2830 Y265.8918 Z-1.2225
G01 X28.3268 Y265.8731 Z-1.2386
G01 X28.3696 Y265.8523 Z-1.2547
G01 X28.4113 Y265.8295 Z-1.2708
G01 X28.4520 Y265.8047 Z-1.2869
G01 X28.4914 Y265.7780 Z-1.3030
G01 X28.5295 Y265.7495 Z-1.3191
G01 X28.5662 Y265.7192 Z-1.3352
G01 X28.6014 Y265.6872 Z-1.3513
G01 X28.6351 Y265.6535 Z-1.3674
G01 X28.6671 Y265.6183 Z-1.3835
G01 X28.6974 Y265.5816 Z-1.3996
G01 X28.7259 Y265.5435 Z-1.4157
G01 X28.7526 Y265.5041 Z-1.4318
G01 X28.7774 Y265.4635 Z-1.4479
G01 X28.8002 Y265.4217 Z-1.4640
G01 X28.8210 Y265.3789 Z-1.4801
G01 X28.8397 Y265.3351 Z-1.4962
G01 X28.8564 Y265.2905 Z-1.5123
G01 X28.8708 Y265.2452 Z-1.5284
G01 X28.8832 Y265.1992 Z-1.5445
G01 X28.8933 Y265.1527 Z-1.5606
G01 X28.9012 Y265.1058 Z-1.5767
G01 X28.9068 Y265.0585 Z-1.5928
G01 X28.9102 Y265.0110 Z-1.6089
G01 X28.9113 Y264.9635 Z-1.6250
G01 X28.9075 Y264.8763
G01 X28.8962 Y264.7898
G01 X28.8773 Y264.7046
G01 X28.8510 Y264.6214
G01 X28.8177 Y264.5408
G01 X28.7774 Y264.4635
G01 X28.7305 Y264.3899
G01 X28.6774 Y264.3207
G01 X28.6185 Y264.2564
G01 X28.5541 Y264.1974
G01 X28.4849 Y264.1443
G01 X28.4113 Y264.0974
G01 X28.3340 Y264.0572
G01 X28.2534 Y264.0238
G01 X28.1702 Y263.9975
G01 X28.0850 Y263.9787
G01 X27.9985 Y263.9673
G01 X27.9113 Y263.9635
G01 X27.8242 Y263.9673
G01 X27.7377 Y263.9787
G01 X27.6525 Y263.9975
G01 X27.5693 Y264.0238
G01 X27.4887 Y264.0572
G01 X27.4113 Y264.0974
G01 X27.3707 Y264.1222
G01 X27.3313 Y264.1489
G01 X27.2932 Y264.1774
G01 X27.2565 Y264.2077
G01 X27.2213 Y264.2397
G01 X27.1876 Y264.2734
G01 X27.1556 Y264.3086
G01 X27.1253 Y264.3453
G01 X27.0968 Y264.3834
G01 X27.0701 Y264.4228
G01 X27.0453 Y264.4635
G01 X27.0225 Y264.5052
G01 X27.0017 Y264.5481
G01 X26.9830 Y264.5918
G01 X26.9663 Y264.6364
G01 X26.9519 Y264.6817
G01 X26.9395 Y264.7277
G01 X26.9294 Y264.7742
G01 X26.9215 Y264.8212
G01 X26.9159 Y264.8684
G01 X26.9125 Y264.9159
G01 X26.9113 Y264.9635
G01 X26.9125 Y265.0110
G01 X26.9159 Y265.0585
G01 X26.9215 Y265.1058
G01 X26.9294 Y265.1527
G01 X26.9395 Y265.1992
G01 X26.9519 Y265.2452
G01 X26.9663 Y265.2905
G01 X26.9830 Y265.3351
G01 X27.0017 Y265.3789
G01 X27.0225 Y265.4217
G01 X27.0453 Y265.4635
G01 X27.0701 Y265.5041
G01 X27.0968 Y265.5435
G01 X27.1253 Y265.5816
G01 X27.1556 Y265.6183
G01 X27.1876 Y265.6535
G01 X27.2213 Y265.6872
G01 X27.2565 Y265.7192
G01 X27.2932 Y265.7495
G01 X27.3313 Y265.7780
G01 X27.3707 Y265.8047
G01 X27.4113 Y265.8295
G01 X27.4531 Y265.8523
G01 X27.4959 Y265.8731
G01 X27.5397 Y265.8918
G01 X27.5843 Y265.9085
G01 X27.6296 Y265.9230
G01 X27.6756 Y265.9353
G01 X27.7221 Y265.9454
G01 X27.7690 Y265.9533
G01 X27.8163 Y265.9589
G01 X27.8638 Y265.9623
G01 X27.9113 Y265.9635
G01 X27.9589 Y265.9623
G01 X28.0064 Y265.9589
G01 X28.0537 Y265.9533
G01 X28.1006 Y265.9454
G01 X28.1471 Y265.9353
G01 X28.1931 Y265.9230
G01 X28.2384 Y265.9085
G01 X28.2830 Y265.8918
G01 X28.3268 Y265.8731
G01 X28.3696 Y265.8523
G01 X28.4113 Y265.8295
G01 X28.4520 Y265.8047
G01 X28.4914 Y265.7780
G01 X28.5295 Y265.7495
G01 X28.5662 Y265.7192
G01 X28.6014 Y265.6872
G01 X28.6351 Y265.6535
G01 X28.6671 Y265.6183
G01 X28.6974 Y265.5816
G01 X28.7259 Y265.5435
G01 X28.7526 Y265.5041
G01 X28.7774 Y265.4635
G01 X28.8002 Y265.4217
G01 X28.8210 Y265.3789
G01 X28.8397 Y265.3351
G01 X28.8564 Y265.2905
G01 X28.8708 Y265.2452
G01 X28.8832 Y265.1992
G01 X28.8933 Y265.1527
G01 X28.9012 Y265.1058
G01 X28.9068 Y265.0585
G01 X28.9102 Y265.0110
G01 X28.9113 Y264.9635
G01 X28.9221 Y264.9119 F1000
G01 X28.9302 Y264.8598
G01 X28.9356 Y264.8074
G01 X28.9382 Y264.7547
G01 Y264.7020
G01 X28.9354 Y264.6494
G01 X28.9300 Y264.5970
G01 X28.9218 Y264.5449
G01 X28.9101 Y264.4889
G01 X28.8956 Y264.4336
G01 X28.8782 Y264.3791
G01 X28.8581 Y264.3256
G01 X28.8352 Y264.2731
G01 X28.8097 Y264.2219
G01 X28.7816 Y264.1721
G01 X28.7510 Y264.1238
G01 X28.7154 Y264.0734
G01 X28.6773 Y264.0249
G01 X28.6368 Y263.9783
G01 X28.5939 Y263.9339
G01 X28.5489 Y263.8918
G01 X28.5017 Y263.8519
G01 X28.4526 Y263.8146
G01 X28.4017 Y263.7797
G01 X28.3452 Y263.7452
G01 X28.2870 Y263.7135
G01 X28.2273 Y263.6848
G01 X28.1662 Y263.6592
G01 X28.1039 Y263.6367
G01 X28.0406 Y263.6174
G01 X27.9763 Y263.6013
G01 X27.9113 Y263.5885
G01 X27.8413 Y263.5783
G01 X27.7709 Y263.5716
G01 X27.7002 Y263.5686
G01 X27.6294 Y263.5691
G01 X27.5588 Y263.5731
G01 X27.4884 Y263.5807
G01 X27.4185 Y263.5919
G01 X27.3493 Y263.6065
G01 X27.2811 Y263.6325
G01 X27.2143 Y263.6618
G01 X27.1490 Y263.6943
G01 X27.0854 Y263.7300
G01 X27.0236 Y263.7689
G01 X26.9638 Y263.8107
G01 X26.9061 Y263.8553
G01 X26.8507 Y263.9028
G01 X26.7999 Y263.9561
G01 X26.7518 Y264.0119
G01 X26.7066 Y264.0699
G01 X26.6642 Y264.1301
G01 X26.6248 Y264.1923
G01 X26.5885 Y264.2564
G01 X26.5554 Y264.3221
G01 X26.5255 Y264.3895
G01 X26.4991 Y264.4581
G01 X26.4760 Y264.5280
G01 X26.4563 Y264.5990
G01 X26.4402 Y264.6708
G01 X26.4276 Y264.7434
G01 X26.4186 Y264.8164
G01 X26.4132 Y264.8899
G01 X26.4114 Y264.9635
G01 X26.4132 Y265.0371
G01 X26.4186 Y265.1105
G01 X26.4276 Y265.1836
G01 X26.4402 Y265.2561
G01 X26.4563 Y265.3279
G01 X26.4760 Y265.3989
G01 X26.4991 Y265.4688
G01 X26.5255 Y265.5375
G01 X26.5554 Y265.6048
G01 X26.5885 Y265.6706
G01 X26.6248 Y265.7346
G01 X26.6642 Y265.7968
G01 X26.7066 Y265.8570
G01 X26.7518 Y265.9150
G01 X26.7999 Y265.9708
G01 X26.8507 Y266.0241
G01 X26.9040 Y266.0749
G01 X26.9598 Y266.1230
G01 X27.0178 Y266.1683
G01 X27.0780 Y266.2107
G01 X27.1402 Y266.2500
G01 X27.2043 Y266.2863
G01 X27.2700 Y266.3194
G01 X27.3373 Y266.3493
G01 X27.4060 Y266.3758
G01 X27.4759 Y266.3989
G01 X27.5469 Y266.4185
G01 X27.6187 Y266.4346
G01 X27.6913 Y266.4472
G01 X27.7643 Y266.4562
G01 X27.8377 Y266.4616
G01 X27.9113 Y266.4634
G01 X27.9850 Y266.4616
G01 X28.0584 Y266.4562
G01 X28.1314 Y266.4472
G01 X28.2040 Y266.4346
G01 X28.2758 Y266.4185
G01 X28.3468 Y266.3989
G01 X28.4167 Y266.3758
G01 X28.4854 Y266.3493
G01 X28.5527 Y266.3194
G01 X28.6184 Y266.2863
G01 X28.6825 Y266.2500
G01 X28.7447 Y266.2107
G01 X28.8049 Y266.1683
G01 X28.8629 Y266.1230
G01 X28.9187 Y266.0749
G01 X28.9720 Y266.0241
G01 X29.0228 Y265.9708
G01 X29.0709 Y265.9150
G01 X29.1161 Y265.8570
G01 X29.1585 Y265.7968
G01 X29.1979 Y265.7346
G01 X29.2342 Y265.6706
G01 X29.2673 Y265.6048
G01 X29.2972 Y265.5375
G01 X29.3236 Y265.4688
G01 X29.3467 Y265.3989
G01 X29.3664 Y265.3279
G01 X29.3825 Y265.2561
G01 X29.3951 Y265.1836
G01 X29.4041 Y265.1105
G01 X29.4095 Y265.0371
G01 X29.4113 Y264.9635
G01 X29.4071 Y264.8514
G01 X29.3946 Y264.7399
G01 X29.3737 Y264.6297
G01 X29.3447 Y264.5213
G01 X29.3076 Y264.4155
G01 X29.2628 Y264.3127
G01 X29.2104 Y264.2135
G01 X29.1507 Y264.1185
G01 X29.0841 Y264.0282
G01 X29.0109 Y263.9432
G01 X28.9316 Y263.8639
G01 X28.8466 Y263.7907
G01 X28.7563 Y263.7241
G01 X28.6613 Y263.6644
G01 X28.5622 Y263.6120
G01 X28.4594 Y263.5672
G01 X28.3535 Y263.5301
G01 X28.2451 Y263.5011
G01 X28.1349 Y263.4802
G01 X28.0234 Y263.4677
G01 X27.9113 Y263.4635
G01 X27.7993 Y263.4677
G01 X27.6878 Y263.4802
G01 X27.5776 Y263.5011
G01 X27.4692 Y263.5301
G01 X27.3633 Y263.5672
G01 X27.2605 Y263.6120
G01 X27.1614 Y263.6644
G01 X27.0664 Y263.7241
G01 X26.9761 Y263.7907
G01 X26.8911 Y263.8639
G01 X26.8118 Y263.9432
G01 X26.7386 Y264.0282
G01 X26.6720 Y264.1185
G01 X26.6123 Y264.2135
G01 X26.5599 Y264.3127
G01 X26.5151 Y264.4155
G01 X26.4780 Y264.5213
G01 X26.4490 Y264.6297
G01 X26.4281 Y264.7399
G01 X26.4156 Y264.8514
G01 X26.4114 Y264.9635
G01 X26.4156 Y265.0756
G01 X26.4281 Y265.1870
G01 X26.4490 Y265.2972
G01 X26.4780 Y265.4056
G01 X26.5151 Y265.5115
G01 X26.5599 Y265.6143
G01 X26.6123 Y265.7135
G01 X26.6720 Y265.8084
G01 X26.7386 Y265.8987
G01 X26.8118 Y265.9837
G01 X26.8911 Y266.0630
G01 X26.9761 Y266.1362
G01 X27.0664 Y266.2028
G01 X27.1614 Y266.2625
G01 X27.2605 Y266.3149
G01 X27.3633 Y266.3598
G01 X27.4692 Y266.3968
G01 X27.5776 Y266.4258
G01 X27.6878 Y266.4467
G01 X27.7993 Y266.4593
G01 X27.9113 Y266.4634
G01 X28.0234 Y266.4593
G01 X28.1349 Y266.4467
G01 X28.2451 Y266.4258
G01 X28.3535 Y266.3968
G01 X28.4594 Y266.3598
G01 X28.5622 Y266.3149
G01 X28.6613 Y266.2625
G01 X28.7563 Y266.2028
G01 X28.8466 Y266.1362
G01 X28.9316 Y266.0630
G01 X29.0109 Y265.9837
G01 X29.0841 Y265.8987
G01 X29.1507 Y265.8084
G01 X29.2104 Y265.7135
G01 X29.2628 Y265.6143
G01 X29.3076 Y265.5115
G01 X29.3447 Y265.4056
G01 X29.3737 Y265.2972
G01 X29.3946 Y265.1870
G01 X29.4071 Y265.0756
G01 X29.4113 Y264.9635
G01 X29.4075 Y264.8654
G01 X29.3959 Y264.7679
G01 X29.3768 Y264.6717
G01 X29.3502 Y264.5772
G01 X29.3162 Y264.4851
G01 X29.2751 Y264.3960
G01 X29.2271 Y264.3103
G01 X29.1726 Y264.2287
G01 X29.1118 Y264.1517
G01 X29.0452 Y264.0796
G01 X28.9731 Y264.0130
G01 X28.8961 Y263.9522
G01 X28.8145 Y263.8977
G01 X28.7288 Y263.8497
G01 X28.6397 Y263.8086
G01 X28.5476 Y263.7747
G01 X28.4531 Y263.7480
G01 X28.3569 Y263.7289
G01 X28.2594 Y263.7173
G01 X28.1613 Y263.7135
G01 X28.0633 Y263.7173
G01 X27.9658 Y263.7289
G01 X27.8695 Y263.7480
G01 X27.7751 Y263.7747
G01 X27.6830 Y263.8086
G01 X27.5939 Y263.8497
G01 X27.5082 Y263.8977
G01 X27.4266 Y263.9522
G01 X27.3495 Y264.0130
G01 X27.2775 Y264.0796
G01 X27.2108 Y264.1517
G01 X27.1501 Y264.2287
G01 X27.0955 Y264.3103
G01 X27.0476 Y264.3960
G01 X27.0065 Y264.4851
G01 X26.9725 Y264.5772
G01 X26.9459 Y264.6717
G01 X26.9267 Y264.7679
G01 X26.9152 Y264.8654
G01 X26.9113 Y264.9635
G01 X26.9152 Y265.0506
G01 X26.9265 Y265.1371
G01 X26.9454 Y265.2223
G01 X26.9717 Y265.3055
G01 X27.0050 Y265.3861
G01 X27.0453 Y265.4635
G01 X27.0922 Y265.5370
G01 X27.1453 Y265.6063
G01 X27.2042 Y265.6706
G01 X27.2686 Y265.7295
G01 X27.3378 Y265.7826
G01 X27.4113 Y265.8295
G01 X27.4887 Y265.8698
G01 X27.5693 Y265.9032
G01 X27.6525 Y265.9294
G01 X27.7377 Y265.9483
G01 X27.8242 Y265.9597
G01 X27.9113 Y265.9635
G01 X27.9985 Y265.9597
G01 X28.0850 Y265.9483
G01 X28.1702 Y265.9294
G01 X28.2534 Y265.9032
G01 X28.3340 Y265.8698
G01 X28.4113 Y265.8295
G01 X28.4849 Y265.7826
G01 X28.5541 Y265.7295
G01 X28.6185 Y265.6706
G01 X28.6774 Y265.6063
G01 X28.7305 Y265.5370
G01 X28.7774 Y265.4635
G01 X28.8177 Y265.3861
G01 X28.8510 Y265.3055
G01 X28.8773 Y265.2223
G01 X28.8962 Y265.1371
G01 X28.9075 Y265.0506
G01 X28.9113 Y264.9635
M107
M106 S240
G01 X28.9075 Y264.8763 Z-1.6545 F400
G01 X28.8962 Y264.7898 Z-1.6840
G01 X28.8773 Y264.7046 Z-1.7135
G01 X28.8510 Y264.6214 Z-1.7431
G01 X28.8177 Y264.5408 Z-1.7726
G01 X28.7774 Y264.4635 Z-1.8021
G01 X28.7305 Y264.3899 Z-1.8316
G01 X28.6774 Y264.3207 Z-1.8611
G01 X28.6185 Y264.2564 Z-1.8906
G01 X28.5541 Y264.1974 Z-1.9201
G01 X28.4849 Y264.1443 Z-1.9497
G01 X28.4113 Y264.0974 Z-1.9792
G01 X28.3340 Y264.0572 Z-2.0087
G01 X28.2534 Y264.0238 Z-2.0382
G01 X28.1702 Y263.9975 Z-2.0677
G01 X28.0850 Y263.9787 Z-2.0972
G01 X27.9985 Y263.9673 Z-2.1267
G01 X27.9113 Y263.9635 Z-2.1563
G01 X27.8242 Y263.9673 Z-2.1858
G01 X27.7377 Y263.9787 Z-2.2153
G01 X27.6525 Y263.9975 Z-2.2448
G01 X27.5693 Y264.0238 Z-2.2743
G01 X27.4887 Y264.0572 Z-2.3038
G01 X27.4113 Y264.0974 Z-2.3333
G01 X27.3707 Y264.1222 Z-2.3494
G01 X27.3313 Y264.1489 Z-2.3655
G01 X27.2932 Y264.1774 Z-2.3816
G01 X27.2565 Y264.2077 Z-2.3977
G01 X27.2213 Y264.2397 Z-2.4138
G01 X27.1876 Y264.2734 Z-2.4299
G01 X27.1556 Y264.3086 Z-2.4460
G01 X27.1253 Y264.3453 Z-2.4621
G01 X27.0968 Y264.3834 Z-2.4782
G01 X27.0701 Y264.4228 Z-2.4943
G01 X27.0453 Y264.4635 Z-2.5104
G01 X27.0225 Y264.5052 Z-2.5265
G01 X27.0017 Y264.5481 Z-2.5426
G01 X26.9830 Y264.5918 Z-2.5587
G01 X26.9663 Y264.6364 Z-2.5748
G01 X26.9519 Y264.6817 Z-2.5909
G01 X26.9395 Y264.7277 Z-2.6070
G01 X26.9294 Y264.7742 Z-2.6231
G01 X26.9215 Y264.8212 Z-2.6392
G01 X26.9159 Y264.8684 Z-2.6553
G01 X26.9125 Y264.9159 Z-2.6714
G01 X26.9113 Y264.9635 Z-2.6875
G01 X26.9125 Y265.0110 Z-2.7036
G01 X26.9159 Y265.0585 Z-2.7197
G01 X26.9215 Y265.1058 Z-2.7358
G01 X26.9294 Y265.1527 Z-2.7519
G01 X26.9395 Y265.1992 Z-2.7680
G01 X26.9519 Y265.2452 Z-2.7841
G01 X26.9663 Y265.2905 Z-2.8002
G01 X26.9830 Y265.3351 Z-2.8163
G01 X27.0017 Y265.3789 Z-2.8324
G01 X27.0225 Y265.4217 Z-2.8485
G01 X27.0453 Y265.4635 Z-2.8646
G01 X27.0701 Y265.5041 Z-2.8807
G01 X27.0968 Y265.5435 Z-2.8968
G01 X27.1253 Y265.5816 Z-2.9129
G01 X27.1556 Y265.6183 Z-2.9290
G01 X27.1876 Y265.6535 Z-2.9451
G01 X27.2213 Y265.6872 Z-2.9612
G01 X27.2565 Y265.7192 Z-2.9773
G01 X27.2932 Y265.7495 Z-2.9934
G01 X27.3313 Y265.7780 Z-3.0095
G01 X27.3707 Y265.8047 Z-3.0256
G01 X27.4113 Y265.8295 Z-3.0417
G01 X27.4531 Y265.8523 Z-3.0578
G01 X27.4959 Y265.8731 Z-3.0739
G01 X27.5397 Y265.8918 Z-3.0900
G01 X27.5843 Y265.9085 Z-3.1061
G01 X27.6296 Y265.9230 Z-3.1222
G01 X27.6756 Y265.9353 Z-3.1383
G01 X27.7221 Y265.9454 Z-3.1544
G01 X27.7690 Y265.9533 Z-3.1705
G01 X27.8163 Y265.9589 Z-3.1866
G01 X27.8638 Y265.9623 Z-3.2027
G01 X27.9113 Y265.9635 Z-3.2188
G01 X27.9589 Y265.9623 Z-3.2348
G01 X28.0064 Y265.9589 Z-3.2509
G01 X28.0537 Y265.9533 Z-3.2670
G01 X28.1006 Y265.9454 Z-3.2831
G01 X28.1471 Y265.9353 Z-3.2992
G01 X28.1931 Y265.9230 Z-3.3153
G01 X28.2384 Y265.9085 Z-3.3314
G01 X28.2830 Y265.8918 Z-3.3475
G01 X28.3268 Y265.8731 Z-3.3636
G01 X28.3696 Y265.8523 Z-3.3797
G01 X28.4113 Y265.8295 Z-3.3958
G01 X28.4520 Y265.8047 Z-3.4119
G01 X28.4914 Y265.7780 Z-3.4280
G01 X28.5295 Y265.7495 Z-3.4441
G01 X28.5662 Y265.7192 Z-3.4602
G01 X28.6014 Y265.6872 Z-3.4763
G01 X28.6351 Y265.6535 Z-3.4924
G01 X28.6671 Y265.6183 Z-3.5085
G01 X28.6974 Y265.5816 Z-3.5246
G01 X28.7259 Y265.5435 Z-3.5407
G01 X28.7526 Y265.5041 Z-3.5568
G01 X28.7774 Y265.4635 Z-3.5729
G01 X28.8002 Y265.4217 Z-3.5890
G01 X28.8210 Y265.3789 Z-3.6051
G01 X28.8397 Y265.3351 Z-3.6212
G01 X28.8564 Y265.2905 Z-3.6373
G01 X28.8708 Y265.2452 Z-3.6534
G01 X28.8832 Y265.1992 Z-3.6695
G01 X28.8933 Y265.1527 Z-3.6856
G01 X28.9012 Y265.1058 Z-3.7017
G01 X28.9068 Y265.0585 Z-3.7178
G01 X28.9102 Y265.0110 Z-3.7339
G01 X28.9113 Y264.9635 Z-3.7500
G01 X28.9075 Y264.8763
G01 X28.8962 Y264.7898
G01 X28.8773 Y264.7046
G01 X28.8510 Y264.6214
G01 X28.8177 Y264.5408
G01 X28.7774 Y264.4635
G01 X28.7305 Y264.3899
G01 X28.6774 Y264.3207
G01 X28.6185 Y264.2564
G01 X28.5541 Y264.1974
G01 X28.4849 Y264.1443
G01 X28.4113 Y264.0974
G01 X28.3340 Y264.0572
G01 X28.2534 Y264.0238
G01 X28.1702 Y263.9975
G01 X28.0850 Y263.9787
G01 X27.9985 Y263.9673
G01 X27.9113 Y263.9635
G01 X27.8242 Y263.9673
G01 X27.7377 Y263.9787
G01 X27.6525 Y263.9975
G01 X27.5693 Y264.0238
G01 X27.4887 Y264.0572
G01 X27.4113 Y264.0974
G01 X27.3707 Y264.1222
G01 X27.3313 Y264.1489
G01 X27.2932 Y264.1774
G01 X27.2565 Y264.2077
G01 X27.2213 Y264.2397
G01 X27.1876 Y264.2734
G01 X27.1556 Y264.3086
G01 X27.1253 Y264.3453
G01 X27.0968 Y264.3834
G01 X27.0701 Y264.4228
G01 X27.0453 Y264.4635
G01 X27.0225 Y264.5052
G01 X27.0017 Y264.5481
G01 X26.9830 Y264.5918
G01 X26.9663 Y264.6364
G01 X26.9519 Y264.6817
G01 X26.9395 Y264.7277
G01 X26.9294 Y264.7742
G01 X26.9215 Y264.8212
G01 X26.9159 Y264.8684
G01 X26.9125 Y264.9159
G01 X26.9113 Y264.9635
G01 X26.9125 Y265.0110
G01 X26.9159 Y265.0585
G01 X26.9215 Y265.1058
G01 X26.9294 Y265.1527
G01 X26.9395 Y265.1992
G01 X26.9519 Y265.2452
G01 X26.9663 Y265.2905
G01 X26.9830 Y265.3351
G01 X27.0017 Y265.3789
G01 X27.0225 Y265.4217
G01 X27.0453 Y265.4635
G01 X27.0701 Y265.5041
G01 X27.0968 Y265.5435
G01 X27.1253 Y265.5816
G01 X27.1556 Y265.6183
G01 X27.1876 Y265.6535
G01 X27.2213 Y265.6872
G01 X27.2565 Y265.7192
G01 X27.2932 Y265.7495
G01 X27.3313 Y265.7780
G01 X27.3707 Y265.8047
G01 X27.4113 Y265.8295
G01 X27.4531 Y265.8523
G01 X27.4959 Y265.8731
G01 X27.5397 Y265.8918
G01 X27.5843 Y265.9085
G01 X27.6296 Y265.9230
G01 X27.6756 Y265.9353
G01 X27.7221 Y265.9454
G01 X27.7690 Y265.9533
G01 X27.8163 Y265.9589
G01 X27.8638 Y265.9623
G01 X27.9113 Y265.9635
G01 X27.9589 Y265.9623
G01 X28.0064 Y265.9589
G01 X28.0537 Y265.9533
G01 X28.1006 Y265.9454
G01 X28.1471 Y265.9353
G01 X28.1931 Y265.9230
G01 X28.2384 Y265.9085
G01 X28.2830 Y265.8918
G01 X28.3268 Y265.8731
G01 X28.3696 Y265.8523
G01 X28.4113 Y265.8295
G01 X28.4520 Y265.8047
G01 X28.4914 Y265.7780
G01 X28.5295 Y265.7495
G01 X28.5662 Y265.7192
G01 X28.6014 Y265.6872
G01 X28.6351 Y265.6535
G01 X28.6671 Y265.6183
G01 X28.6974 Y265.5816
G01 X28.7259 Y265.5435
G01 X28.7526 Y265.5041
G01 X28.7774 Y265.4635
G01 X28.8002 Y265.4217
G01 X28.8210 Y265.3789
G01 X28.8397 Y265.3351
G01 X28.8564 Y265.2905
G01 X28.8708 Y265.2452
G01 X28.8832 Y265.1992
G01 X28.8933 Y265.1527
G01 X28.9012 Y265.1058
G01 X28.9068 Y265.0585
G01 X28.9102 Y265.0110
G01 X28.9113 Y264.9635
G01 X28.9221 Y264.9119 F1000
G01 X28.9302 Y264.8598
G01 X28.9356 Y264.8074
G01 X28.9382 Y264.7547
G01 Y264.7020
G01 X28.9354 Y264.6494
G01 X28.9300 Y264.5970
G01 X28.9218 Y264.5449
G01 X28.9101 Y264.4889
G01 X28.8956 Y264.4336
G01 X28.8782 Y264.3791
G01 X28.8581 Y264.3256
G01 X28.8352 Y264.2731
G01 X28.8097 Y264.2219
G01 X28.7816 Y264.1721
G01 X28.7510 Y264.1238
G01 X28.7154 Y264.0734
G01 X28.6773 Y264.0249
G01 X28.6368 Y263.9783
G01 X28.5939 Y263.9339
G01 X28.5489 Y263.8918
G01 X28.5017 Y263.8519
G01 X28.4526 Y263.8146
G01 X28.4017 Y263.7797
G01 X28.3452 Y263.7452
G01 X28.2870 Y263.7135
G01 X28.2273 Y263.6848
G01 X28.1662 Y263.6592
G01 X28.1039 Y263.6367
G01 X28.0406 Y263.6174
G01 X27.9763 Y263.6013
G01 X27.9113 Y263.5885
G01 X27.8413 Y263.5783
G01 X27.7709 Y263.5716
G01 X27.7002 Y263.5686
G01 X27.6294 Y263.5691
G01 X27.5588 Y263.5731
G01 X27.4884 Y263.5807
G01 X27.4185 Y263.5919
G01 X27.3493 Y263.6065
G01 X27.2811 Y263.6325
G01 X27.2143 Y263.6618
G01 X27.1490 Y263.6943
G01 X27.0854 Y263.7300
G01 X27.0236 Y263.7689
G01 X26.9638 Y263.8107
G01 X26.9061 Y263.8553
G01 X26.8507 Y263.9028
G01 X26.7999 Y263.9561
G01 X26.7518 Y264.0119
G01 X26.7066 Y264.0699
G01 X26.6642 Y264.1301
G01 X26.6248 Y264.1923
G01 X26.5885 Y264.2564
G01 X26.5554 Y264.3221
G01 X26.5255 Y264.3895
G01 X26.4991 Y264.4581
G01 X26.4760 Y264.5280
G01 X26.4563 Y264.5990
G01 X26.4402 Y264.6708
G01 X26.4276 Y264.7434
G01 X26.4186 Y264.8164
G01 X26.4132 Y264.8899
G01 X26.4114 Y264.9635
G01 X26.4132 Y265.0371
G01 X26.4186 Y265.1105
G01 X26.4276 Y265.1836
G01 X26.4402 Y265.2561
G01 X26.4563 Y265.3279
G01 X26.4760 Y265.3989
G01 X26.4991 Y265.4688
G01 X26.5255 Y265.5375
G01 X26.5554 Y265.6048
G01 X26.5885 Y265.6706
G01 X26.6248 Y265.7346
G01 X26.6642 Y265.7968
G01 X26.7066 Y265.8570
G01 X26.7518 Y265.9150
G01 X26.7999 Y265.9708
G01 X26.8507 Y266.0241
G01 X26.9040 Y266.0749
G01 X26.9598 Y266.1230
G01 X27.0178 Y266.1683
G01 X27.0780 Y266.2107
G01 X27.1402 Y266.2500
G01 X27.2043 Y266.2863
G01 X27.2700 Y266.3194
G01 X27.3373 Y266.3493
G01 X27.4060 Y266.3758
G01 X27.4759 Y266.3989
G01 X27.5469 Y266.4185
G01 X27.6187 Y266.4346
G01 X27.6913 Y266.4472
G01 X27.7643 Y266.4562
G01 X27.8377 Y266.4616
G01 X27.9113 Y266.4634
G01 X27.9850 Y266.4616
G01 X28.0584 Y266.4562
G01 X28.1314 Y266.4472
G01 X28.2040 Y266.4346
G01 X28.2758 Y266.4185
G01 X28.3468 Y266.3989
G01 X28.4167 Y266.3758
G01 X28.4854 Y266.3493
G01 X28.5527 Y266.3194
G01 X28.6184 Y266.2863
G01 X28.6825 Y266.2500
G01 X28.7447 Y266.2107
G01 X28.8049 Y266.1683
G01 X28.8629 Y266.1230
G01 X28.9187 Y266.0749
G01 X28.9720 Y266.0241
G01 X29.0228 Y265.9708
G01 X29.0709 Y265.9150
G01 X29.1161 Y265.8570
G01 X29.1585 Y265.7968
G01 X29.1979 Y265.7346
G01 X29.2342 Y265.6706
G01 X29.2673 Y265.6048
G01 X29.2972 Y265.5375
G01 X29.3236 Y265.4688
G01 X29.3467 Y265.3989
G01 X29.3664 Y265.3279
G01 X29.3825 Y265.2561
G01 X29.3951 Y265.1836
G01 X29.4041 Y265.1105
G01 X29.4095 Y265.0371
G01 X29.4113 Y264.9635
G01 X29.4071 Y264.8514
G01 X29.3946 Y264.7399
G01 X29.3737 Y264.6297
G01 X29.3447 Y264.5213
G01 X29.3076 Y264.4155
G01 X29.2628 Y264.3127
G01 X29.2104 Y264.2135
G01 X29.1507 Y264.1185
G01 X29.0841 Y264.0282
G01 X29.0109 Y263.9432
G01 X28.9316 Y263.8639
G01 X28.8466 Y263.7907
G01 X28.7563 Y263.7241
G01 X28.6613 Y263.6644
G01 X28.5622 Y263.6120
G01 X28.4594 Y263.5672
G01 X28.3535 Y263.5301
G01 X28.2451 Y263.5011
G01 X28.1349 Y263.4802
G01 X28.0234 Y263.4677
G01 X27.9113 Y263.4635
G01 X27.7993 Y263.4677
G01 X27.6878 Y263.4802
G01 X27.5776 Y263.5011
G01 X27.4692 Y263.5301
G01 X27.3633 Y263.5672
G01 X27.2605 Y263.6120
G01 X27.1614 Y263.6644
G01 X27.0664 Y263.7241
G01 X26.9761 Y263.7907
G01 X26.8911 Y263.8639
G01 X26.8118 Y263.9432
G01 X26.7386 Y264.0282
G01 X26.6720 Y264.1185
G01 X26.6123 Y264.2135
G01 X26.5599 Y264.3127
G01 X26.5151 Y264.4155
G01 X26.4780 Y264.5213
G01 X26.4490 Y264.6297
G01 X26.4281 Y264.7399
G01 X26.4156 Y264.8514
G01 X26.4114 Y264.9635
G01 X26.4156 Y265.0756
G01 X26.4281 Y265.1870
G01 X26.4490 Y265.2972
G01 X26.4780 Y265.4056
G01 X26.5151 Y265.5115
G01 X26.5599 Y265.6143
G01 X26.6123 Y265.7135
G01 X26.6720 Y265.8084
G01 X26.7386 Y265.8987
G01 X26.8118 Y265.9837
G01 X26.8911 Y266.0630
G01 X26.9761 Y266.1362
G01 X27.0664 Y266.2028
G01 X27.1614 Y266.2625
G01 X27.2605 Y266.3149
G01 X27.3633 Y266.3598
G01 X27.4692 Y266.3968
G01 X27.5776 Y266.4258
G01 X27.6878 Y266.4467
G01 X27.7993 Y266.4593
G01 X27.9113 Y266.4634
G01 X28.0234 Y266.4593
G01 X28.1349 Y266.4467
G01 X28.2451 Y266.4258
G01 X28.3535 Y266.3968
G01 X28.4594 Y266.3598
G01 X28.5622 Y266.3149
G01 X28.6613 Y266.2625
G01 X28.7563 Y266.2028
G01 X28.8466 Y266.1362
G01 X28.9316 Y266.0630
G01 X29.0109 Y265.9837
G01 X29.0841 Y265.8987
G01 X29.1507 Y265.8084
G01 X29.2104 Y265.7135
G01 X29.2628 Y265.6143
G01 X29.3076 Y265.5115
G01 X29.3447 Y265.4056
G01 X29.3737 Y265.2972
G01 X29.3946 Y265.1870
G01 X29.4071 Y265.0756
G01 X29.4113 Y264.9635
G01 X29.4075 Y264.8654
G01 X29.3959 Y264.7679
G01 X29.3768 Y264.6717
G01 X29.3502 Y264.5772
G01 X29.3162 Y264.4851
G01 X29.2751 Y264.3960
G01 X29.2271 Y264.3103
G01 X29.1726 Y264.2287
G01 X29.1118 Y264.1517
G01 X29.0452 Y264.0796
G01 X28.9731 Y264.0130
G01 X28.8961 Y263.9522
G01 X28.8145 Y263.8977
G01 X28.7288 Y263.8497
G01 X28.6397 Y263.8086
G01 X28.5476 Y263.7747
G01 X28.4531 Y263.7480
G01 X28.3569 Y263.7289
G01 X28.2594 Y263.7173
G01 X28.1613 Y263.7135
G01 X28.0633 Y263.7173
G01 X27.9658 Y263.7289
G01 X27.8695 Y263.7480
G01 X27.7751 Y263.7747
G01 X27.6830 Y263.8086
G01 X27.5939 Y263.8497
G01 X27.5082 Y263.8977
G01 X27.4266 Y263.9522
G01 X27.3495 Y264.0130
G01 X27.2775 Y264.0796
G01 X27.2108 Y264.1517
G01 X27.1501 Y264.2287
G01 X27.0955 Y264.3103
G01 X27.0476 Y264.3960
G01 X27.0065 Y264.4851
G01 X26.9725 Y264.5772
G01 X26.9459 Y264.6717
G01 X26.9267 Y264.7679
G01 X26.9152 Y264.8654
G01 X26.9113 Y264.9635
G01 X26.9152 Y265.0506
G01 X26.9265 Y265.1371
G01 X26.9454 Y265.2223
G01 X26.9717 Y265.3055
G01 X27.0050 Y265.3861
G01 X27.0453 Y265.4635
G01 X27.0922 Y265.5370
G01 X27.1453 Y265.6063
G01 X27.2042 Y265.6706
G01 X27.2686 Y265.7295
G01 X27.3378 Y265.7826
G01 X27.4113 Y265.8295
G01 X27.4887 Y265.8698
G01 X27.5693 Y265.9032
G01 X27.6525 Y265.9294
G01 X27.7377 Y265.9483
G01 X27.8242 Y265.9597
G01 X27.9113 Y265.9635
G01 X27.9985 Y265.9597
G01 X28.0850 Y265.9483
G01 X28.1702 Y265.9294
G01 X28.2534 Y265.9032
G01 X28.3340 Y265.8698
G01 X28.4113 Y265.8295
G01 X28.4849 Y265.7826
G01 X28.5541 Y265.7295
G01 X28.6185 Y265.6706
G01 X28.6774 Y265.6063
G01 X28.7305 Y265.5370
G01 X28.7774 Y265.4635
G01 X28.8177 Y265.3861
G01 X28.8510 Y265.3055
G01 X28.8773 Y265.2223
G01 X28.8962 Y265.1371
G01 X28.9075 Y265.0506
G01 X28.9113 Y264.9635
M107
M106 S240
G01 X28.9075 Y264.8763 Z-3.7795 F400
G01 X28.8962 Y264.7898 Z-3.8090
G01 X28.8773 Y264.7046 Z-3.8385
G01 X28.8510 Y264.6214 Z-3.8681
G01 X28.8177 Y264.5408 Z-3.8976
G01 X28.7774 Y264.4635 Z-3.9271
G01 X28.7305 Y264.3899 Z-3.9566
G01 X28.6774 Y264.3207 Z-3.9861
G01 X28.6185 Y264.2564 Z-4.0156
G01 X28.5541 Y264.1974 Z-4.0451
G01 X28.4849 Y264.1443 Z-4.0747
G01 X28.4113 Y264.0974 Z-4.1042
G01 X28.3340 Y264.0572 Z-4.1337
G01 X28.2534 Y264.0238 Z-4.1632
G01 X28.1702 Y263.9975 Z-4.1927
G01 X28.0850 Y263.9787 Z-4.2222
G01 X27.9985 Y263.9673 Z-4.2517
G01 X27.9113 Y263.9635 Z-4.2813
G01 X27.8242 Y263.9673 Z-4.3108
G01 X27.7377 Y263.9787 Z-4.3403
G01 X27.6525 Y263.9975 Z-4.3698
G01 X27.5693 Y264.0238 Z-4.3993
G01 X27.4887 Y264.0572 Z-4.4288
G01 X27.4113 Y264.0974 Z-4.4583
G01 X27.3707 Y264.1222 Z-4.4744
G01 X27.3313 Y264.1489 Z-4.4905
G01 X27.2932 Y264.1774 Z-4.5066
G01 X27.2565 Y264.2077 Z-4.5227
G01 X27.2213 Y264.2397 Z-4.5388
G01 X27.1876 Y264.2734 Z-4.5549
G01 X27.1556 Y264.3086 Z-4.5710
G01 X27.1253 Y264.3453 Z-4.5871
G01 X27.0968 Y264.3834 Z-4.6032
G01 X27.0701 Y264.4228 Z-4.6193
G01 X27.0453 Y264.4635 Z-4.6354
G01 X27.0225 Y264.5052 Z-4.6515
G01 X27.0017 Y264.5481 Z-4.6676
G01 X26.9830 Y264.5918 Z-4.6837
G01 X26.9663 Y264.6364 Z-4.6998
G01 X26.9519 Y264.6817 Z-4.7159
G01 X26.9395 Y264.7277 Z-4.7320
G01 X26.9294 Y264.7742 Z-4.7481
G01 X26.9215 Y264.8212 Z-4.7642
G01 X26.9159 Y264.8684 Z-4.7803
G01 X26.9125 Y264.9159 Z-4.7964
G01 X26.9113 Y264.9635 Z-4.8125
G01 X26.9125 Y265.0110 Z-4.8286
G01 X26.9159 Y265.0585 Z-4.8447
G01 X26.9215 Y265.1058 Z-4.8608
G01 X26.9294 Y265.1527 Z-4.8769
G01 X26.9395 Y265.1992 Z-4.8930
G01 X26.9519 Y265.2452 Z-4.9091
G01 X26.9663 Y265.2905 Z-4.9252
G01 X26.9830 Y265.3351 Z-4.9413
G01 X27.0017 Y265.3789 Z-4.9574
G01 X27.0225 Y265.4217 Z-4.9735
G01 X27.0453 Y265.4635 Z-4.9896
G01 X27.0701 Y265.5041 Z-5.0057
G01 X27.0968 Y265.5435 Z-5.0218
G01 X27.1253 Y265.5816 Z-5.0379
G01 X27.1556 Y265.6183 Z-5.0540
G01 X27.1876 Y265.6535 Z-5.0701
G01 X27.2213 Y265.6872 Z-5.0862
G01 X27.2565 Y265.7192 Z-5.1023
G01 X27.2932 Y265.7495 Z-5.1184
G01 X27.3313 Y265.7780 Z-5.1345
G01 X27.3707 Y265.8047 Z-5.1506
G01 X27.4113 Y265.8295 Z-5.1667
G01 X27.4531 Y265.8523 Z-5.1828
G01 X27.4959 Y265.8731 Z-5.1989
G01 X27.5397 Y265.8918 Z-5.2150
G01 X27.5843 Y265.9085 Z-5.2311
G01 X27.6296 Y265.9230 Z-5.2472
G01 X27.6756 Y265.9353 Z-5.2633
G01 X27.7221 Y265.9454 Z-5.2794
G01 X27.7690 Y265.9533 Z-5.2955
G01 X27.8163 Y265.9589 Z-5.3116
G01 X27.8638 Y265.9623 Z-5.3277
G01 X27.9113 Y265.9635 Z-5.3438
G01 X27.9589 Y265.9623 Z-5.3598
G01 X28.0064 Y265.9589 Z-5.3759
G01 X28.0537 Y265.9533 Z-5.3920
G01 X28.1006 Y265.9454 Z-5.4081
G01 X28.1471 Y265.9353 Z-5.4242
G01 X28.1931 Y265.9230 Z-5.4403
G01 X28.2384 Y265.9085 Z-5.4564
G01 X28.2830 Y265.8918 Z-5.4725
G01 X28.3268 Y265.8731 Z-5.4886
G01 X28.3696 Y265.8523 Z-5.5047
G01 X28.4113 Y265.8295 Z-5.5208
G01 X28.4520 Y265.8047 Z-5.5369
G01 X28.4914 Y265.7780 Z-5.5530
G01 X28.5295 Y265.7495 Z-5.5691
G01 X28.5662 Y265.7192 Z-5.5852
G01 X28.6014 Y265.6872 Z-5.6013
G01 X28.6351 Y265.6535 Z-5.6174
G01 X28.6671 Y265.6183 Z-5.6335
G01 X28.6974 Y265.5816 Z-5.6496
G01 X28.7259 Y265.5435 Z-5.6657
G01 X28.7526 Y265.5041 Z-5.6818
G01 X28.7774 Y265.4635 Z-5.6979
G01 X28.8002 Y265.4217 Z-5.7140
G01 X28.8210 Y265.3789 Z-5.7301
G01 X28.8397 Y265.3351 Z-5.7462
G01 X28.8564 Y265.2905 Z-5.7623
G01 X28.8708 Y265.2452 Z-5.7784
G01 X28.8832 Y265.1992 Z-5.7945
G01 X28.8933 Y265.1527 Z-5.8106
G01 X28.9012 Y265.1058 Z-5.8267
G01 X28.9068 Y265.0585 Z-5.8428
G01 X28.9102 Y265.0110 Z-5.8589
G01 X28.9113 Y264.9635 Z-5.8750
G01 X28.9075 Y264.8763
G01 X28.8962 Y264.7898
G01 X28.8773 Y264.7046
G01 X28.8510 Y264.6214
G01 X28.8177 Y264.5408
G01 X28.7774 Y264.4635
G01 X28.7305 Y264.3899
G01 X28.6774 Y264.3207
G01 X28.6185 Y264.2564
G01 X28.5541 Y264.1974
G01 X28.4849 Y264.1443
G01 X28.4113 Y264.0974
G01 X28.3340 Y264.0572
G01 X28.2534 Y264.0238
G01 X28.1702 Y263.9975
G01 X28.0850 Y263.9787
G01 X27.9985 Y263.9673
G01 X27.9113 Y263.9635
G01 X27.8242 Y263.9673
G01 X27.7377 Y263.9787
G01 X27.6525 Y263.9975
G01 X27.5693 Y264.0238
G01 X27.4887 Y264.0572
G01 X27.4113 Y264.0974
G01 X27.3707 Y264.1222
G01 X27.3313 Y264.1489
G01 X27.2932 Y264.1774
G01 X27.2565 Y264.2077
G01 X27.2213 Y264.2397
G01 X27.1876 Y264.2734
G01 X27.1556 Y264.3086
G01 X27.1253 Y264.3453
G01 X27.0968 Y264.3834
G01 X27.0701 Y264.4228
G01 X27.0453 Y264.4635
G01 X27.0225 Y264.5052
G01 X27.0017 Y264.5481
G01 X26.9830 Y264.5918
G01 X26.9663 Y264.6364
G01 X26.9519 Y264.6817
G01 X26.9395 Y264.7277
G01 X26.9294 Y264.7742
G01 X26.9215 Y264.8212
G01 X26.9159 Y264.8684
G01 X26.9125 Y264.9159
G01 X26.9113 Y264.9635
G01 X26.9125 Y265.0110
G01 X26.9159 Y265.0585
G01 X26.9215 Y265.1058
G01 X26.9294 Y265.1527
G01 X26.9395 Y265.1992
G01 X26.9519 Y265.2452
G01 X26.9663 Y265.2905
G01 X26.9830 Y265.3351
G01 X27.0017 Y265.3789
G01 X27.0225 Y265.4217
G01 X27.0453 Y265.4635
G01 X27.0701 Y265.5041
G01 X27.0968 Y265.5435
G01 X27.1253 Y265.5816
G01 X27.1556 Y265.6183
G01 X27.1876 Y265.6535
G01 X27.2213 Y265.6872
G01 X27.2565 Y265.7192
G01 X27.2932 Y265.7495
G01 X27.3313 Y265.7780
G01 X27.3707 Y265.8047
G01 X27.4113 Y265.8295
G01 X27.4531 Y265.8523
G01 X27.4959 Y265.8731
G01 X27.5397 Y265.8918
G01 X27.5843 Y265.9085
G01 X27.6296 Y265.9230
G01 X27.6756 Y265.9353
G01 X27.7221 Y265.9454
G01 X27.7690 Y265.9533
G01 X27.8163 Y265.9589
G01 X27.8638 Y265.9623
G01 X27.9113 Y265.9635
G01 X27.9589 Y265.9623
G01 X28.0064 Y265.9589
G01 X28.0537 Y265.9533
G01 X28.1006 Y265.9454
G01 X28.1471 Y265.9353
G01 X28.1931 Y265.9230
G01 X28.2384 Y265.9085
G01 X28.2830 Y265.8918
G01 X28.3268 Y265.8731
G01 X28.3696 Y265.8523
G01 X28.4113 Y265.8295
G01 X28.4520 Y265.8047
G01 X28.4914 Y265.7780
G01 X28.5295 Y265.7495
G01 X28.5662 Y265.7192
G01 X28.6014 Y265.6872
G01 X28.6351 Y265.6535
G01 X28.6671 Y265.6183
G01 X28.6974 Y265.5816
G01 X28.7259 Y265.5435
G01 X28.7526 Y265.5041
G01 X28.7774 Y265.4635
G01 X28.8002 Y265.4217
G01 X28.8210 Y265.3789
G01 X28.8397 Y265.3351
G01 X28.8564 Y265.2905
G01 X28.8708 Y265.2452
G01 X28.8832 Y265.1992
G01 X28.8933 Y265.1527
G01 X28.9012 Y265.1058
G01 X28.9068 Y265.0585
G01 X28.9102 Y265.0110
G01 X28.9113 Y264.9635
G01 X28.9221 Y264.9119 F1000
G01 X28.9302 Y264.8598
G01 X28.9356 Y264.8074
G01 X28.9382 Y264.7547
G01 Y264.7020
G01 X28.9354 Y264.6494
G01 X28.9300 Y264.5970
G01 X28.9218 Y264.5449
G01 X28.9101 Y264.4889
G01 X28.8956 Y264.4336
G01 X28.8782 Y264.3791
G01 X28.8581 Y264.3256
G01 X28.8352 Y264.2731
G01 X28.8097 Y264.2219
G01 X28.7816 Y264.1721
G01 X28.7510 Y264.1238
G01 X28.7154 Y264.0734
G01 X28.6773 Y264.0249
G01 X28.6368 Y263.9783
G01 X28.5939 Y263.9339
G01 X28.5489 Y263.8918
G01 X28.5017 Y263.8519
G01 X28.4526 Y263.8146
G01 X28.4017 Y263.7797
G01 X28.3452 Y263.7452
G01 X28.2870 Y263.7135
G01 X28.2273 Y263.6848
G01 X28.1662 Y263.6592
G01 X28.1039 Y263.6367
G01 X28.0406 Y263.6174
G01 X27.9763 Y263.6013
G01 X27.9113 Y263.5885
G01 X27.8413 Y263.5783
G01 X27.7709 Y263.5716
G01 X27.7002 Y263.5686
G01 X27.6294 Y263.5691
G01 X27.5588 Y263.5731
G01 X27.4884 Y263.5807
G01 X27.4185 Y263.5919
G01 X27.3493 Y263.6065
G01 X27.2811 Y263.6325
G01 X27.2143 Y263.6618
G01 X27.1490 Y263.6943
G01 X27.0854 Y263.7300
G01 X27.0236 Y263.7689
G01 X26.9638 Y263.8107
G01 X26.9061 Y263.8553
G01 X26.8507 Y263.9028
G01 X26.7999 Y263.9561
G01 X26.7518 Y264.0119
G01 X26.7066 Y264.0699
G01 X26.6642 Y264.1301
G01 X26.6248 Y264.1923
G01 X26.5885 Y264.2564
G01 X26.5554 Y264.3221
G01 X26.5255 Y264.3895
G01 X26.4991 Y264.4581
G01 X26.4760 Y264.5280
G01 X26.4563 Y264.5990
G01 X26.4402 Y264.6708
G01 X26.4276 Y264.7434
G01 X26.4186 Y264.8164
G01 X26.4132 Y264.8899
G01 X26.4114 Y264.9635
G01 X26.4132 Y265.0371
G01 X26.4186 Y265.1105
G01 X26.4276 Y265.1836
G01 X26.4402 Y265.2561
G01 X26.4563 Y265.3279
G01 X26.4760 Y265.3989
G01 X26.4991 Y265.4688
G01 X26.5255 Y265.5375
G01 X26.5554 Y265.6048
G01 X26.5885 Y265.6706
G01 X26.6248 Y265.7346
G01 X26.6642 Y265.7968
G01 X26.7066 Y265.8570
G01 X26.7518 Y265.9150
G01 X26.7999 Y265.9708
G01 X26.8507 Y266.0241
G01 X26.9040 Y266.0749
G01 X26.9598 Y266.1230
G01 X27.0178 Y266.1683
G01 X27.0780 Y266.2107
G01 X27.1402 Y266.2500
G01 X27.2043 Y266.2863
G01 X27.2700 Y266.3194
G01 X27.3373 Y266.3493
G01 X27.4060 Y266.3758
G01 X27.4759 Y266.3989
G01 X27.5469 Y266.4185
G01 X27.6187 Y266.4346
G01 X27.6913 Y266.4472
G01 X27.7643 Y266.4562
G01 X27.8377 Y266.4616
G01 X27.9113 Y266.4634
G01 X27.9850 Y266.4616
G01 X28.0584 Y266.4562
G01 X28.1314 Y266.4472
G01 X28.2040 Y266.4346
G01 X28.2758 Y266.4185
G01 X28.3468 Y266.3989
G01 X28.4167 Y266.3758
G01 X28.4854 Y266.3493
G01 X28.5527 Y266.3194
G01 X28.6184 Y266.2863
G01 X28.6825 Y266.2500
G01 X28.7447 Y266.2107
G01 X28.8049 Y266.1683
G01 X28.8629 Y266.1230
G01 X28.9187 Y266.0749
G01 X28.9720 Y266.0241
G01 X29.0228 Y265.9708
G01 X29.0709 Y265.9150
G01 X29.1161 Y265.8570
G01 X29.1585 Y265.7968
G01 X29.1979 Y265.7346
G01 X29.2342 Y265.6706
G01 X29.2673 Y265.6048
G01 X29.2972 Y265.5375
G01 X29.3236 Y265.4688
G01 X29.3467 Y265.3989
G01 X29.3664 Y265.3279
G01 X29.3825 Y265.2561
G01 X29.3951 Y265.1836
G01 X29.4041 Y265.1105
G01 X29.4095 Y265.0371
G01 X29.4113 Y264.9635
G01 X29.4071 Y264.8514
G01 X29.3946 Y264.7399
G01 X29.3737 Y264.6297
G01 X29.3447 Y264.5213
G01 X29.3076 Y264.4155
G01 X29.2628 Y264.3127
G01 X29.2104 Y264.2135
G01 X29.1507 Y264.1185
G01 X29.0841 Y264.0282
G01 X29.0109 Y263.9432
G01 X28.9316 Y263.8639
G01 X28.8466 Y263.7907
G01 X28.7563 Y263.7241
G01 X28.6613 Y263.6644
G01 X28.5622 Y263.6120
G01 X28.4594 Y263.5672
G01 X28.3535 Y263.5301
G01 X28.2451 Y263.5011
G01 X28.1349 Y263.4802
G01 X28.0234 Y263.4677
G01 X27.9113 Y263.4635
G01 X27.7993 Y263.4677
G01 X27.6878 Y263.4802
G01 X27.5776 Y263.5011
G01 X27.4692 Y263.5301
G01 X27.3633 Y263.5672
G01 X27.2605 Y263.6120
G01 X27.1614 Y263.6644
G01 X27.0664 Y263.7241
G01 X26.9761 Y263.7907
G01 X26.8911 Y263.8639
G01 X26.8118 Y263.9432
G01 X26.7386 Y264.0282
G01 X26.6720 Y264.1185
G01 X26.6123 Y264.2135
G01 X26.5599 Y264.3127
G01 X26.5151 Y264.4155
G01 X26.4780 Y264.5213
G01 X26.4490 Y264.6297
G01 X26.4281 Y264.7399
G01 X26.4156 Y264.8514
G01 X26.4114 Y264.9635
G01 X26.4156 Y265.0756
G01 X26.4281 Y265.1870
G01 X26.4490 Y265.2972
G01 X26.4780 Y265.4056
G01 X26.5151 Y265.5115
G01 X26.5599 Y265.6143
G01 X26.6123 Y265.7135
G01 X26.6720 Y265.8084
G01 X26.7386 Y265.8987
G01 X26.8118 Y265.9837
G01 X26.8911 Y266.0630
G01 X26.9761 Y266.1362
G01 X27.0664 Y266.2028
G01 X27.1614 Y266.2625
G01 X27.2605 Y266.3149
G01 X27.3633 Y266.3598
G01 X27.4692 Y266.3968
G01 X27.5776 Y266.4258
G01 X27.6878 Y266.4467
G01 X27.7993 Y266.4593
G01 X27.9113 Y266.4634
G01 X28.0234 Y266.4593
G01 X28.1349 Y266.4467
G01 X28.2451 Y266.4258
G01 X28.3535 Y266.3968
G01 X28.4594 Y266.3598
G01 X28.5622 Y266.3149
G01 X28.6613 Y266.2625
G01 X28.7563 Y266.2028
G01 X28.8466 Y266.1362
G01 X28.9316 Y266.0630
G01 X29.0109 Y265.9837
G01 X29.0841 Y265.8987
G01 X29.1507 Y265.8084
G01 X29.2104 Y265.7135
G01 X29.2628 Y265.6143
G01 X29.3076 Y265.5115
G01 X29.3447 Y265.4056
G01 X29.3737 Y265.2972
G01 X29.3946 Y265.1870
G01 X29.4071 Y265.0756
G01 X29.4113 Y264.9635
G01 X29.4075 Y264.8654
G01 X29.3959 Y264.7679
G01 X29.3768 Y264.6717
G01 X29.3502 Y264.5772
G01 X29.3162 Y264.4851
G01 X29.2751 Y264.3960
G01 X29.2271 Y264.3103
G01 X29.1726 Y264.2287
G01 X29.1118 Y264.1517
G01 X29.0452 Y264.0796
G01 X28.9731 Y264.0130
G01 X28.8961 Y263.9522
G01 X28.8145 Y263.8977
G01 X28.7288 Y263.8497
G01 X28.6397 Y263.8086
G01 X28.5476 Y263.7747
G01 X28.4531 Y263.7480
G01 X28.3569 Y263.7289
G01 X28.2594 Y263.7173
G01 X28.1613 Y263.7135
G01 X28.0633 Y263.7173
G01 X27.9658 Y263.7289
G01 X27.8695 Y263.7480
G01 X27.7751 Y263.7747
G01 X27.6830 Y263.8086
G01 X27.5939 Y263.8497
G01 X27.5082 Y263.8977
G01 X27.4266 Y263.9522
G01 X27.3495 Y264.0130
G01 X27.2775 Y264.0796
G01 X27.2108 Y264.1517
G01 X27.1501 Y264.2287
G01 X27.0955 Y264.3103
G01 X27.0476 Y264.3960
G01 X27.0065 Y264.4851
G01 X26.9725 Y264.5772
G01 X26.9459 Y264.6717
G01 X26.9267 Y264.7679
G01 X26.9152 Y264.8654
G01 X26.9113 Y264.9635
G01 X26.9152 Y265.0506
G01 X26.9265 Y265.1371
G01 X26.9454 Y265.2223
G01 X26.9717 Y265.3055
G01 X27.0050 Y265.3861
G01 X27.0453 Y265.4635
G01 X27.0922 Y265.5370
G01 X27.1453 Y265.6063
G01 X27.2042 Y265.6706
G01 X27.2686 Y265.7295
G01 X27.3378 Y265.7826
G01 X27.4113 Y265.8295
G01 X27.4887 Y265.8698
G01 X27.5693 Y265.9032
G01 X27.6525 Y265.9294
G01 X27.7377 Y265.9483
G01 X27.8242 Y265.9597
G01 X27.9113 Y265.9635
G01 X27.9985 Y265.9597
G01 X28.0850 Y265.9483
G01 X28.1702 Y265.9294
G01 X28.2534 Y265.9032
G01 X28.3340 Y265.8698
G01 X28.4113 Y265.8295
G01 X28.4849 Y265.7826
G01 X28.5541 Y265.7295
G01 X28.6185 Y265.6706
G01 X28.6774 Y265.6063
G01 X28.7305 Y265.5370
G01 X28.7774 Y265.4635
G01 X28.8177 Y265.3861
G01 X28.8510 Y265.3055
G01 X28.8773 Y265.2223
G01 X28.8962 Y265.1371
G01 X28.9075 Y265.0506
G01 X28.9113 Y264.9635
M107
M106 S240
G01 X28.9075 Y264.8763 Z-5.9045 F400
G01 X28.8962 Y264.7898 Z-5.9340
G01 X28.8773 Y264.7046 Z-5.9635
G01 X28.8510 Y264.6214 Z-5.9931
G01 X28.8177 Y264.5408 Z-6.0226
G01 X28.7774 Y264.4635 Z-6.0521
G01 X28.7305 Y264.3899 Z-6.0816
G01 X28.6774 Y264.3207 Z-6.1111
G01 X28.6185 Y264.2564 Z-6.1406
G01 X28.5541 Y264.1974 Z-6.1701
G01 X28.4849 Y264.1443 Z-6.1997
G01 X28.4113 Y264.0974 Z-6.2292
G01 X28.3340 Y264.0572 Z-6.2587
G01 X28.2534 Y264.0238 Z-6.2882
G01 X28.1702 Y263.9975 Z-6.3177
G01 X28.0850 Y263.9787 Z-6.3472
G01 X27.9985 Y263.9673 Z-6.3767
G01 X27.9113 Y263.9635 Z-6.4063
G01 X27.8242 Y263.9673 Z-6.4358
G01 X27.7377 Y263.9787 Z-6.4653
G01 X27.6525 Y263.9975 Z-6.4948
G01 X27.5693 Y264.0238 Z-6.5243
G01 X27.4887 Y264.0572 Z-6.5538
G01 X27.4113 Y264.0974 Z-6.5833
G01 X27.3707 Y264.1222 Z-6.5994
G01 X27.3313 Y264.1489 Z-6.6155
G01 X27.2932 Y264.1774 Z-6.6316
G01 X27.2565 Y264.2077 Z-6.6477
G01 X27.2213 Y264.2397 Z-6.6638
G01 X27.1876 Y264.2734 Z-6.6799
G01 X27.1556 Y264.3086 Z-6.6960
G01 X27.1253 Y264.3453 Z-6.7121
G01 X27.0968 Y264.3834 Z-6.7282
G01 X27.0701 Y264.4228 Z-6.7443
G01 X27.0453 Y264.4635 Z-6.7604
G01 X27.0225 Y264.5052 Z-6.7765
G01 X27.0017 Y264.5481 Z-6.7926
G01 X26.9830 Y264.5918 Z-6.8087
G01 X26.9663 Y264.6364 Z-6.8248
G01 X26.9519 Y264.6817 Z-6.8409
G01 X26.9395 Y264.7277 Z-6.8570
G01 X26.9294 Y264.7742 Z-6.8731
G01 X26.9215 Y264.8212 Z-6.8892
G01 X26.9159 Y264.8684 Z-6.9053
G01 X26.9125 Y264.9159 Z-6.9214
G01 X26.9113 Y264.9635 Z-6.9375
G01 X26.9125 Y265.0110 Z-6.9536
G01 X26.9159 Y265.0585 Z-6.9697
G01 X26.9215 Y265.1058 Z-6.9858
G01 X26.9294 Y265.1527 Z-7.0019
G01 X26.9395 Y265.1992 Z-7.0180
G01 X26.9519 Y265.2452 Z-7.0341
G01 X26.9663 Y265.2905 Z-7.0502
G01 X26.9830 Y265.3351 Z-7.0663
G01 X27.0017 Y265.3789 Z-7.0824
G01 X27.0225 Y265.4217 Z-7.0985
G01 X27.0453 Y265.4635 Z-7.1146
G01 X27.0701 Y265.5041 Z-7.1307
G01 X27.0968 Y265.5435 Z-7.1468
G01 X27.1253 Y265.5816 Z-7.1629
G01 X27.1556 Y265.6183 Z-7.1790
G01 X27.1876 Y265.6535 Z-7.1951
G01 X27.2213 Y265.6872 Z-7.2112
G01 X27.2565 Y265.7192 Z-7.2273
G01 X27.2932 Y265.7495 Z-7.2434
G01 X27.3313 Y265.7780 Z-7.2595
G01 X27.3707 Y265.8047 Z-7.2756
G01 X27.4113 Y265.8295 Z-7.2917
G01 X27.4531 Y265.8523 Z-7.3078
G01 X27.4959 Y265.8731 Z-7.3239
G01 X27.5397 Y265.8918 Z-7.3400
G01 X27.5843 Y265.9085 Z-7.3561
G01 X27.6296 Y265.9230 Z-7.3722
G01 X27.6756 Y265.9353 Z-7.3883
G01 X27.7221 Y265.9454 Z-7.4044
G01 X27.7690 Y265.9533 Z-7.4205
G01 X27.8163 Y265.9589 Z-7.4366
G01 X27.8638 Y265.9623 Z-7.4527
G01 X27.9113 Y265.9635 Z-7.4688
G01 X27.9589 Y265.9623 Z-7.4848
G01 X28.0064 Y265.9589 Z-7.5009
G01 X28.0537 Y265.9533 Z-7.5170
G01 X28.1006 Y265.9454 Z-7.5331
G01 X28.1471 Y265.9353 Z-7.5492
G01 X28.1931 Y265.9230 Z-7.5653
G01 X28.2384 Y265.9085 Z-7.5814
G01 X28.2830 Y265.8918 Z-7.5975
G01 X28.3268 Y265.8731 Z-7.6136
G01 X28.3696 Y265.8523 Z-7.6297
G01 X28.4113 Y265.8295 Z-7.6458
G01 X28.4520 Y265.8047 Z-7.6619
G01 X28.4914 Y265.7780 Z-7.6780
G01 X28.5295 Y265.7495 Z-7.6941
G01 X28.5662 Y265.7192 Z-7.7102
G01 X28.6014 Y265.6872 Z-7.7263
G01 X28.6351 Y265.6535 Z-7.7424
G01 X28.6671 Y265.6183 Z-7.7585
G01 X28.6974 Y265.5816 Z-7.7746
G01 X28.7259 Y265.5435 Z-7.7907
G01 X28.7526 Y265.5041 Z-7.8068
G01 X28.7774 Y265.4635 Z-7.8229
G01 X28.8002 Y265.4217 Z-7.8390
G01 X28.8210 Y265.3789 Z-7.8551
G01 X28.8397 Y265.3351 Z-7.8712
G01 X28.8564 Y265.2905 Z-7.8873
G01 X28.8708 Y265.2452 Z-7.9034
G01 X28.8832 Y265.1992 Z-7.9195
G01 X28.8933 Y265.1527 Z-7.9356
G01 X28.9012 Y265.1058 Z-7.9517
G01 X28.9068 Y265.0585 Z-7.9678
G01 X28.9102 Y265.0110 Z-7.9839
G01 X28.9113 Y264.9635 Z-8.0000
G01 X28.9075 Y264.8763
G01 X28.8962 Y264.7898
G01 X28.8773 Y264.7046
G01 X28.8510 Y264.6214
G01 X28.8177 Y264.5408
G01 X28.7774 Y264.4635
G01 X28.7305 Y264.3899
G01 X28.6774 Y264.3207
G01 X28.6185 Y264.2564
G01 X28.5541 Y264.1974
G01 X28.4849 Y264.1443
G01 X28.4113 Y264.0974
G01 X28.3340 Y264.0572
G01 X28.2534 Y264.0238
G01 X28.1702 Y263.9975
G01 X28.0850 Y263.9787
G01 X27.9985 Y263.9673
G01 X27.9113 Y263.9635
G01 X27.8242 Y263.9673
G01 X27.7377 Y263.9787
G01 X27.6525 Y263.9975
G01 X27.5693 Y264.0238
G01 X27.4887 Y264.0572
G01 X27.4113 Y264.0974
G01 X27.3707 Y264.1222
G01 X27.3313 Y264.1489
G01 X27.2932 Y264.1774
G01 X27.2565 Y264.2077
G01 X27.2213 Y264.2397
G01 X27.1876 Y264.2734
G01 X27.1556 Y264.3086
G01 X27.1253 Y264.3453
G01 X27.0968 Y264.3834
G01 X27.0701 Y264.4228
G01 X27.0453 Y264.4635
G01 X27.0225 Y264.5052
G01 X27.0017 Y264.5481
G01 X26.9830 Y264.5918
G01 X26.9663 Y264.6364
G01 X26.9519 Y264.6817
G01 X26.9395 Y264.7277
G01 X26.9294 Y264.7742
G01 X26.9215 Y264.8212
G01 X26.9159 Y264.8684
G01 X26.9125 Y264.9159
G01 X26.9113 Y264.9635
G01 X26.9125 Y265.0110
G01 X26.9159 Y265.0585
G01 X26.9215 Y265.1058
G01 X26.9294 Y265.1527
G01 X26.9395 Y265.1992
G01 X26.9519 Y265.2452
G01 X26.9663 Y265.2905
G01 X26.9830 Y265.3351
G01 X27.0017 Y265.3789
G01 X27.0225 Y265.4217
G01 X27.0453 Y265.4635
G01 X27.0701 Y265.5041
G01 X27.0968 Y265.5435
G01 X27.1253 Y265.5816
G01 X27.1556 Y265.6183
G01 X27.1876 Y265.6535
G01 X27.2213 Y265.6872
G01 X27.2565 Y265.7192
G01 X27.2932 Y265.7495
G01 X27.3313 Y265.7780
G01 X27.3707 Y265.8047
G01 X27.4113 Y265.8295
G01 X27.4531 Y265.8523
G01 X27.4959 Y265.8731
G01 X27.5397 Y265.8918
G01 X27.5843 Y265.9085
G01 X27.6296 Y265.9230
G01 X27.6756 Y265.9353
G01 X27.7221 Y265.9454
G01 X27.7690 Y265.9533
G01 X27.8163 Y265.9589
G01 X27.8638 Y265.9623
G01 X27.9113 Y265.9635
G01 X27.9589 Y265.9623
G01 X28.0064 Y265.9589
G01 X28.0537 Y265.9533
G01 X28.1006 Y265.9454
G01 X28.1471 Y265.9353
G01 X28.1931 Y265.9230
G01 X28.2384 Y265.9085
G01 X28.2830 Y265.8918
G01 X28.3268 Y265.8731
G01 X28.3696 Y265.8523
G01 X28.4113 Y265.8295
G01 X28.4520 Y265.8047
G01 X28.4914 Y265.7780
G01 X28.5295 Y265.7495
G01 X28.5662 Y265.7192
G01 X28.6014 Y265.6872
G01 X28.6351 Y265.6535
G01 X28.6671 Y265.6183
G01 X28.6974 Y265.5816
G01 X28.7259 Y265.5435
G01 X28.7526 Y265.5041
G01 X28.7774 Y265.4635
G01 X28.8002 Y265.4217
G01 X28.8210 Y265.3789
G01 X28.8397 Y265.3351
G01 X28.8564 Y265.2905
G01 X28.8708 Y265.2452
G01 X28.8832 Y265.1992
G01 X28.8933 Y265.1527
G01 X28.9012 Y265.1058
G01 X28.9068 Y265.0585
G01 X28.9102 Y265.0110
G01 X28.9113 Y264.9635
G01 X28.9221 Y264.9119 F1000
G01 X28.9302 Y264.8598
G01 X28.9356 Y264.8074
G01 X28.9382 Y264.7547
G01 Y264.7020
G01 X28.9354 Y264.6494
G01 X28.9300 Y264.5970
G01 X28.9218 Y264.5449
G01 X28.9101 Y264.4889
G01 X28.8956 Y264.4336
G01 X28.8782 Y264.3791
G01 X28.8581 Y264.3256
G01 X28.8352 Y264.2731
G01 X28.8097 Y264.2219
G01 X28.7816 Y264.1721
G01 X28.7510 Y264.1238
G01 X28.7154 Y264.0734
G01 X28.6773 Y264.0249
G01 X28.6368 Y263.9783
G01 X28.5939 Y263.9339
G01 X28.5489 Y263.8918
G01 X28.5017 Y263.8519
G01 X28.4526 Y263.8146
G01 X28.4017 Y263.7797
G01 X28.3452 Y263.7452
G01 X28.2870 Y263.7135
G01 X28.2273 Y263.6848
G01 X28.1662 Y263.6592
G01 X28.1039 Y263.6367
G01 X28.0406 Y263.6174
G01 X27.9763 Y263.6013
G01 X27.9113 Y263.5885
G01 X27.8413 Y263.5783
G01 X27.7709 Y263.5716
G01 X27.7002 Y263.5686
G01 X27.6294 Y263.5691
G01 X27.5588 Y263.5731
G01 X27.4884 Y263.5807
G01 X27.4185 Y263.5919
G01 X27.3493 Y263.6065
G01 X27.2811 Y263.6325
G01 X27.2143 Y263.6618
G01 X27.1490 Y263.6943
G01 X27.0854 Y263.7300
G01 X27.0236 Y263.7689
G01 X26.9638 Y263.8107
G01 X26.9061 Y263.8553
G01 X26.8507 Y263.9028
G01 X26.7999 Y263.9561
G01 X26.7518 Y264.0119
G01 X26.7066 Y264.0699
G01 X26.6642 Y264.1301
G01 X26.6248 Y264.1923
G01 X26.5885 Y264.2564
G01 X26.5554 Y264.3221
G01 X26.5255 Y264.3895
G01 X26.4991 Y264.4581
G01 X26.4760 Y264.5280
G01 X26.4563 Y264.5990
G01 X26.4402 Y264.6708
G01 X26.4276 Y264.7434
G01 X26.4186 Y264.8164
G01 X26.4132 Y264.8899
G01 X26.4114 Y264.9635
G01 X26.4132 Y265.0371
G01 X26.4186 Y265.1105
G01 X26.4276 Y265.1836
G01 X26.4402 Y265.2561
G01 X26.4563 Y265.3279
G01 X26.4760 Y265.3989
G01 X26.4991 Y265.4688
G01 X26.5255 Y265.5375
G01 X26.5554 Y265.6048
G01 X26.5885 Y265.6706
G01 X26.6248 Y265.7346
G01 X26.6642 Y265.7968
G01 X26.7066 Y265.8570
G01 X26.7518 Y265.9150
G01 X26.7999 Y265.9708
G01 X26.8507 Y266.0241
G01 X26.9040 Y266.0749
G01 X26.9598 Y266.1230
G01 X27.0178 Y266.1683
G01 X27.0780 Y266.2107
G01 X27.1402 Y266.2500
G01 X27.2043 Y266.2863
G01 X27.2700 Y266.3194
G01 X27.3373 Y266.3493
G01 X27.4060 Y266.3758
G01 X27.4759 Y266.3989
G01 X27.5469 Y266.4185
G01 X27.6187 Y266.4346
G01 X27.6913 Y266.4472
G01 X27.7643 Y266.4562
G01 X27.8377 Y266.4616
G01 X27.9113 Y266.4634
G01 X27.9850 Y266.4616
G01 X28.0584 Y266.4562
G01 X28.1314 Y266.4472
G01 X28.2040 Y266.4346
G01 X28.2758 Y266.4185
G01 X28.3468 Y266.3989
G01 X28.4167 Y266.3758
G01 X28.4854 Y266.3493
G01 X28.5527 Y266.3194
G01 X28.6184 Y266.2863
G01 X28.6825 Y266.2500
G01 X28.7447 Y266.2107
G01 X28.8049 Y266.1683
G01 X28.8629 Y266.1230
G01 X28.9187 Y266.0749
G01 X28.9720 Y266.0241
G01 X29.0228 Y265.9708
G01 X29.0709 Y265.9150
G01 X29.1161 Y265.8570
G01 X29.1585 Y265.7968
G01 X29.1979 Y265.7346
G01 X29.2342 Y265.6706
G01 X29.2673 Y265.6048
G01 X29.2972 Y265.5375
G01 X29.3236 Y265.4688
G01 X29.3467 Y265.3989
G01 X29.3664 Y265.3279
G01 X29.3825 Y265.2561
G01 X29.3951 Y265.1836
G01 X29.4041 Y265.1105
G01 X29.4095 Y265.0371
G01 X29.4113 Y264.9635
G01 X29.4071 Y264.8514
G01 X29.3946 Y264.7399
G01 X29.3737 Y264.6297
G01 X29.3447 Y264.5213
G01 X29.3076 Y264.4155
G01 X29.2628 Y264.3127
G01 X29.2104 Y264.2135
G01 X29.1507 Y264.1185
G01 X29.0841 Y264.0282
G01 X29.0109 Y263.9432
G01 X28.9316 Y263.8639
G01 X28.8466 Y263.7907
G01 X28.7563 Y263.7241
G01 X28.6613 Y263.6644
G01 X28.5622 Y263.6120
G01 X28.4594 Y263.5672
G01 X28.3535 Y263.5301
G01 X28.2451 Y263.5011
G01 X28.1349 Y263.4802
G01 X28.0234 Y263.4677
G01 X27.9113 Y263.4635
G01 X27.7993 Y263.4677
G01 X27.6878 Y263.4802
G01 X27.5776 Y263.5011
G01 X27.4692 Y263.5301
G01 X27.3633 Y263.5672
G01 X27.2605 Y263.6120
G01 X27.1614 Y263.6644
G01 X27.0664 Y263.7241
G01 X26.9761 Y263.7907
G01 X26.8911 Y263.8639
G01 X26.8118 Y263.9432
G01 X26.7386 Y264.0282
G01 X26.6720 Y264.1185
G01 X26.6123 Y264.2135
G01 X26.5599 Y264.3127
G01 X26.5151 Y264.4155
G01 X26.4780 Y264.5213
G01 X26.4490 Y264.6297
G01 X26.4281 Y264.7399
G01 X26.4156 Y264.8514
G01 X26.4114 Y264.9635
G01 X26.4156 Y265.0756
G01 X26.4281 Y265.1870
G01 X26.4490 Y265.2972
G01 X26.4780 Y265.4056
G01 X26.5151 Y265.5115
G01 X26.5599 Y265.6143
G01 X26.6123 Y265.7135
G01 X26.6720 Y265.8084
G01 X26.7386 Y265.8987
G01 X26.8118 Y265.9837
G01 X26.8911 Y266.0630
G01 X26.9761 Y266.1362
G01 X27.0664 Y266.2028
G01 X27.1614 Y266.2625
G01 X27.2605 Y266.3149
G01 X27.3633 Y266.3598
G01 X27.4692 Y266.3968
G01 X27.5776 Y266.4258
G01 X27.6878 Y266.4467
G01 X27.7993 Y266.4593
G01 X27.9113 Y266.4634
G01 X28.0234 Y266.4593
G01 X28.1349 Y266.4467
G01 X28.2451 Y266.4258
G01 X28.3535 Y266.3968
G01 X28.4594 Y266.3598
G01 X28.5622 Y266.3149
G01 X28.6613 Y266.2625
G01 X28.7563 Y266.2028
G01 X28.8466 Y266.1362
G01 X28.9316 Y266.0630
G01 X29.0109 Y265.9837
G01 X29.0841 Y265.8987
G01 X29.1507 Y265.8084
G01 X29.2104 Y265.7135
G01 X29.2628 Y265.6143
G01 X29.3076 Y265.5115
G01 X29.3447 Y265.4056
G01 X29.3737 Y265.2972
G01 X29.3946 Y265.1870
G01 X29.4071 Y265.0756
G01 X29.4113 Y264.9635
M107
M106 S240
G01 X29.4082 Y264.8850 Z-7.9750 F400
M107
M106 S240
G01 X29.3990 Y264.8070 Z-7.9500
M107
M106 S240
G01 X29.3837 Y264.7300 Z-7.9250
M107
M106 S240
G01 X29.3624 Y264.6545 Z-7.9000
M107
M106 S240
G01 X29.3352 Y264.5808 Z-7.8750
M107
M106 S240
G01 X29.3023 Y264.5095 Z-7.8500
M107
M106 S240
G01 X29.2640 Y264.4410 Z-7.8250
M107
M106 S240
G01 X29.2203 Y264.3757 Z-7.8000
M107
M106 S240
G01 X29.1717 Y264.3140 Z-7.7750
M107
M106 S240
G01 X29.1184 Y264.2564 Z-7.7500
M107
M106 S240
G01 X29.0608 Y264.2031 Z-7.7250
M107
M106 S240
G01 X28.9991 Y264.1545 Z-7.7000
M107
M106 S240
G01 X28.9338 Y264.1108 Z-7.6750
M107
M106 S240
G01 X28.8653 Y264.0725 Z-7.6500
M107
M106 S240
G01 X28.7940 Y264.0396 Z-7.6250
M107
M106 S240
G01 X28.7203 Y264.0124 Z-7.6000
M107
M106 S240
G01 X28.6448 Y263.9911 Z-7.5750
M107
M106 S240
G01 X28.5678 Y263.9758 Z-7.5500
M107
M106 S240
G01 X28.4898 Y263.9666 Z-7.5250
M107
M106 S240
G01 X28.4113 Y263.9635 Z-7.5000
M107
G00 Z2.0000


;No. 2: Hole 29
G00 X26.9960 Y253.0026 Z2.0000
G00 Z0.5000
G01 Z0.0000 F400
G01 Z-2.5000
M106 S240
G01 X50.4673 F1000
G01 X48.9027 Y251.5026
G01 X28.5228
G01 X37.2888
G01 Y250.0026
G01 X40.1797
G01 X40.1768 Y248.5026
G01 X37.2917
G01 Y247.0026
G01 X40.1768
G01 Y245.5026
G01 X37.2917
G01 Y244.0026
G01 X40.1768
G01 Y242.5026
G01 X37.2917
G01 Y241.0026
G01 X40.1768
G01 Y239.5026
G01 X37.2917
G01 Y238.0026
G01 X40.1768
G01 Y236.5026
G01 X37.2917
G01 Y235.0026
G01 X40.1768
G01 X40.3768 Y235.0176
G01 Y233.7897
G01 X37.0917
G01 Y249.9302
G01 X37.0886 Y250.0087
G01 X37.0794 Y250.0866
G01 X37.0641 Y250.1636
G01 X37.0427 Y250.2392
G01 X37.0156 Y250.3129
G01 X36.9827 Y250.3842
G01 X36.9443 Y250.4527
G01 X36.9007 Y250.5180
G01 X36.8521 Y250.5796
G01 X36.7988 Y250.6373
G01 X36.7411 Y250.6906
G01 X36.6795 Y250.7392
G01 X36.6142 Y250.7828
G01 X36.5457 Y250.8212
G01 X36.4744 Y250.8541
G01 X36.4007 Y250.8812
G01 X36.3251 Y250.9026
G01 X36.2481 Y250.9179
G01 X36.1701 Y250.9271
G01 X36.0917 Y250.9302
G01 X34.5739 Y250.9122
G01 X33.0561 Y250.9066
G01 X31.5382 Y250.9135
G01 X30.0205 Y250.9327
G01 X29.6887 Y250.9550
G01 X29.3602 Y251.0069
G01 X29.0376 Y251.0879
G01 X28.7236 Y251.1974
G01 X28.4205 Y251.3345
G01 X28.1310 Y251.4980
G01 X27.8572 Y251.6868
G01 X27.6013 Y251.8993
G01 X27.3654 Y252.1338
G01 X27.1514 Y252.3883
G01 X26.9610 Y252.6610
G01 X26.7957 Y252.9496
G01 X26.6568 Y253.2518
G01 X26.5455 Y253.5652
G01 X26.4625 Y253.8873
G01 X26.4087 Y254.2154
G01 X51.0597
G01 X50.9987 Y253.8806
G01 X50.9079 Y253.5525
G01 X50.7881 Y253.2339
G01 X50.6402 Y252.9272
G01 X50.4655 Y252.6351
G01 X50.2654 Y252.3597
G01 X50.0414 Y252.1034
G01 X49.7953 Y251.8682
G01 X49.5292 Y251.6559
G01 X49.2451 Y251.4684
G01 X48.9454 Y251.3070
G01 X48.6324 Y251.1731
G01 X48.3087 Y251.0677
G01 X47.9769 Y250.9918
G01 X47.6396 Y250.9458
G01 X47.2996 Y250.9303
G01 X41.3768
G01 X41.3332 Y250.9293
G01 X41.2897 Y250.9265
G01 X41.2463 Y250.9217
G01 X41.2032 Y250.9151
G01 X41.1604 Y250.9066
G01 X41.1180 Y250.8962
G01 X41.0761 Y250.8840
G01 X41.0348 Y250.8700
G01 X40.9941 Y250.8542
G01 X40.9542 Y250.8366
G01 X40.9151 Y250.8173
G01 X40.8768 Y250.7963
G01 X40.8395 Y250.7737
G01 X40.8033 Y250.7494
G01 X40.7681 Y250.7236
G01 X40.7340 Y250.6963
G01 X40.7012 Y250.6676
G01 X40.6697 Y250.6374
G01 X40.6396 Y250.6059
G01 X40.6108 Y250.5731
G01 X40.5835 Y250.5390
G01 X40.5577 Y250.5039
G01 X40.5334 Y250.4676
G01 X40.5108 Y250.4303
G01 X40.4898 Y250.3920
G01 X40.4705 Y250.3529
G01 X40.4530 Y250.3130
G01 X40.4371 Y250.2723
G01 X40.4231 Y250.2310
G01 X40.4109 Y250.1891
G01 X40.4005 Y250.1467
G01 X40.3920 Y250.1039
G01 X40.3854 Y250.0608
G01 X40.3806 Y250.0174
G01 X40.3778 Y249.9739
G01 X40.3768 Y249.9303
G01 Y235.0176
G01 X40.1768 Y235.0026
M107
G00 Z2.0000


;No. 3: Hole 30
G00 X60.5644 Y252.5728 Z2.0000
G00 Z0.5000
G01 Z0.0000 F400
G01 Z-2.5000
M106 S240
G01 X83.4850 F1000
G01 X83.6606 Y252.4736
G01 X83.4757 Y252.2417
G01 X83.2732 Y252.0249
G01 X83.0543 Y251.8247
G01 X82.8204 Y251.6422
G01 X82.5729 Y251.4786
G01 X82.3134 Y251.3349
G01 X82.0434 Y251.2119
G01 X81.7647 Y251.1104
G01 X81.4788 Y251.0311
G01 X81.1876 Y250.9744
G01 X80.8929 Y250.9407
G01 X80.5965 Y250.9302
G01 X63.4691
G01 X63.1271 Y250.9400
G01 X62.7875 Y250.9812
G01 X62.4531 Y251.0533
G01 X62.1268 Y251.1558
G01 X61.8112 Y251.2878
G01 X61.5090 Y251.4482
G01 X61.2229 Y251.6357
G01 X60.9551 Y251.8486
G01 X60.7080 Y252.0851
G01 X60.4836 Y252.3433
G01 X60.2839 Y252.6211
G01 X60.1105 Y252.9159
G01 X59.9648 Y253.2254
G01 X59.8482 Y253.5470
G01 X59.7615 Y253.8780
G01 X59.7056 Y254.2154
G01 X84.3566
G01 X84.3219 Y253.9807
G01 X84.2716 Y253.7489
G01 X84.2061 Y253.5209
G01 X84.1254 Y253.2978
G01 X84.0301 Y253.0806
G01 X83.9205 Y252.8702
G01 X83.7972 Y252.6676
G01 X83.6606 Y252.4736
G01 X83.4850 Y252.5728
M107
G00 Z2.0000


;No. 4: Hole 31
G00 X83.4850 Y244.0025 Z2.0000
G00 Z0.5000
G01 Z0.0000 F400
G01 Z-2.5000
M106 S240
G01 X60.5644 F1000
G01 X60.4032 Y243.8842
G01 X60.2671 Y244.0812
G01 X60.1441 Y244.2866
G01 X60.0347 Y244.4995
G01 X59.9393 Y244.7191
G01 X59.8584 Y244.9444
G01 X59.7923 Y245.1745
G01 X59.7413 Y245.4084
G01 X59.7056 Y245.6451
G01 X84.3566
G01 X84.2958 Y245.3101
G01 X84.2052 Y244.9819
G01 X84.0856 Y244.6631
G01 X83.9379 Y244.3563
G01 X83.7632 Y244.0641
G01 X83.5631 Y243.7886
G01 X83.3391 Y243.5322
G01 X83.0930 Y243.2969
G01 X82.8268 Y243.0846
G01 X82.5426 Y242.8971
G01 X82.2428 Y242.7357
G01 X81.9297 Y242.6019
G01 X81.6059 Y242.4967
G01 X81.2740 Y242.4209
G01 X80.9366 Y242.3752
G01 X80.5965 Y242.3599
G01 X63.4690
G01 X63.1723 Y242.3650
G01 X62.8770 Y242.3941
G01 X62.5850 Y242.4468
G01 X62.2982 Y242.5229
G01 X62.0185 Y242.6220
G01 X61.7477 Y242.7432
G01 X61.4876 Y242.8859
G01 X61.2398 Y243.0492
G01 X61.0060 Y243.2319
G01 X60.7877 Y243.4328
G01 X60.5863 Y243.6508
G01 X60.4032 Y243.8842
G01 X60.5644 Y244.0025
M107
G00 Z2.0000


;No. 5: Hole 32
G00 X60.5644 Y235.4322 Z2.0000
G00 Z0.5000
G01 Z0.0000 F400
G01 Z-2.5000
M106 S240
G01 X83.4850 F1000
G01 X83.6606 Y235.3330
G01 X83.4757 Y235.1011
G01 X83.2731 Y234.8843
G01 X83.0543 Y234.6841
G01 X82.8204 Y234.5016
G01 X82.5729 Y234.3380
G01 X82.3134 Y234.1943
G01 X82.0434 Y234.0713
G01 X81.7647 Y233.9699
G01 X81.4788 Y233.8906
G01 X81.1876 Y233.8339
G01 X80.8929 Y233.8002
G01 X80.5965 Y233.7896
G01 X63.4690
G01 X63.1270 Y233.7991
G01 X62.7873 Y233.8400
G01 X62.4527 Y233.9120
G01 X62.1262 Y234.0143
G01 X61.8105 Y234.1462
G01 X61.5083 Y234.3066
G01 X61.2220 Y234.4940
G01 X60.9542 Y234.7069
G01 X60.7070 Y234.9435
G01 X60.4826 Y235.2019
G01 X60.2829 Y235.4797
G01 X60.1096 Y235.7747
G01 X59.9641 Y236.0844
G01 X59.8476 Y236.4061
G01 X59.7612 Y236.7372
G01 X59.7056 Y237.0748
G01 X84.3566
G01 X84.3219 Y236.8401
G01 X84.2716 Y236.6083
G01 X84.2061 Y236.3803
G01 X84.1254 Y236.1572
G01 X84.0301 Y235.9400
G01 X83.9205 Y235.7296
G01 X83.7972 Y235.5270
G01 X83.6606 Y235.3330
G01 X83.4850 Y235.4322
M107
G00 Z2.0000


;No. 6: Hole 33
G00 X93.5982 Y235.0026 Z2.0000
G00 Z0.5000
G01 Z0.0000 F400
G01 Z-2.5000
M106 S240
G01 X117.4853 F1000
G01 Y236.5026
G01 X95.1556
G01 X114.5973
G01 Y238.0026
G01 X117.4853
G01 Y239.5026
G01 X114.6002
G01 Y241.0026
G01 X117.4853
G01 Y242.5026
G01 X113.7664
G01 X117.4853 Y244.0026
G01 X93.1744
G01 Y245.5026
G01 X96.8934
G01 X96.0596
G01 Y247.0026
G01 X93.1744
G01 Y248.5026
G01 X96.0596
G01 X96.0624 Y250.0026
G01 X93.1744
G01 Y251.5026
G01 X115.4983
G01 X117.0629 Y253.0026
G01 X93.1744
G01 X92.9744 Y252.9881
G01 Y254.2154
G01 X117.6553
G01 X117.5943 Y253.8806
G01 X117.5035 Y253.5525
G01 X117.3837 Y253.2339
G01 X117.2358 Y252.9272
G01 X117.0611 Y252.6351
G01 X116.8610 Y252.3597
G01 X116.6370 Y252.1034
G01 X116.3909 Y251.8682
G01 X116.1248 Y251.6559
G01 X115.8407 Y251.4684
G01 X115.5410 Y251.3070
G01 X115.2280 Y251.1731
G01 X114.9044 Y251.0677
G01 X114.5725 Y250.9918
G01 X114.2352 Y250.9458
G01 X113.8952 Y250.9303
G01 X97.2596
G01 X97.2159 Y250.9293
G01 X97.1724 Y250.9265
G01 X97.1290 Y250.9217
G01 X97.0859 Y250.9151
G01 X97.0431 Y250.9066
G01 X97.0007 Y250.8962
G01 X96.9588 Y250.8840
G01 X96.9175 Y250.8700
G01 X96.8769 Y250.8542
G01 X96.8369 Y250.8366
G01 X96.7978 Y250.8173
G01 X96.7596 Y250.7963
G01 X96.7223 Y250.7737
G01 X96.6860 Y250.7494
G01 X96.6508 Y250.7236
G01 X96.6168 Y250.6963
G01 X96.5840 Y250.6676
G01 X96.5524 Y250.6374
G01 X96.5223 Y250.6059
G01 X96.4935 Y250.5731
G01 X96.4662 Y250.5390
G01 X96.4404 Y250.5039
G01 X96.4162 Y250.4676
G01 X96.3935 Y250.4303
G01 X96.3725 Y250.3920
G01 X96.3532 Y250.3529
G01 X96.3357 Y250.3130
G01 X96.3199 Y250.2723
G01 X96.3058 Y250.2310
G01 X96.2936 Y250.1891
G01 X96.2833 Y250.1467
G01 X96.2747 Y250.1039
G01 X96.2681 Y250.0608
G01 X96.2634 Y250.0174
G01 X96.2605 Y249.9739
G01 X96.2596 Y249.9303
G01 Y246.6451
G01 X96.2605 Y246.6015
G01 X96.2634 Y246.5580
G01 X96.2681 Y246.5146
G01 X96.2747 Y246.4715
G01 X96.2833 Y246.4287
G01 X96.2936 Y246.3863
G01 X96.3058 Y246.3444
G01 X96.3199 Y246.3031
G01 X96.3357 Y246.2624
G01 X96.3532 Y246.2225
G01 X96.3725 Y246.1834
G01 X96.3935 Y246.1451
G01 X96.4162 Y246.1078
G01 X96.4404 Y246.0716
G01 X96.4662 Y246.0364
G01 X96.4935 Y246.0023
G01 X96.5223 Y245.9695
G01 X96.5524 Y245.9380
G01 X96.5840 Y245.9079
G01 X96.6168 Y245.8791
G01 X96.6508 Y245.8518
G01 X96.6860 Y245.8260
G01 X96.7223 Y245.8017
G01 X96.7596 Y245.7791
G01 X96.7978 Y245.7581
G01 X96.8369 Y245.7388
G01 X96.8769 Y245.7212
G01 X96.9175 Y245.7054
G01 X96.9588 Y245.6914
G01 X97.0007 Y245.6792
G01 X97.0431 Y245.6688
G01 X97.0859 Y245.6603
G01 X97.1290 Y245.6537
G01 X97.1724 Y245.6489
G01 X97.2159 Y245.6461
G01 X97.2596 Y245.6451
G01 X117.6853
G01 Y233.7897
G01 X93.0044
G01 X93.0650 Y234.1247
G01 X93.1555 Y234.4530
G01 X93.2750 Y234.7719
G01 X93.4227 Y235.0787
G01 X93.5972 Y235.3711
G01 X93.7973 Y235.6466
G01 X94.0214 Y235.9031
G01 X94.2675 Y236.1384
G01 X94.5337 Y236.3507
G01 X94.8179 Y236.5383
G01 X95.1178 Y236.6996
G01 X95.4310 Y236.8334
G01 X95.7549 Y236.9385
G01 X96.0869 Y237.0141
G01 X96.4243 Y237.0597
G01 X96.7645 Y237.0748
G01 X113.4002
G01 X113.4786 Y237.0779
G01 X113.5566 Y237.0871
G01 X113.6336 Y237.1024
G01 X113.7092 Y237.1238
G01 X113.7829 Y237.1509
G01 X113.8542 Y237.1838
G01 X113.9227 Y237.2222
G01 X113.9880 Y237.2658
G01 X114.0496 Y237.3144
G01 X114.1073 Y237.3677
G01 X114.1606 Y237.4254
G01 X114.2092 Y237.4870
G01 X114.2528 Y237.5523
G01 X114.2912 Y237.6208
G01 X114.3241 Y237.6921
G01 X114.3512 Y237.7658
G01 X114.3726 Y237.8414
G01 X114.3879 Y237.9184
G01 X114.3971 Y237.9964
G01 X114.4002 Y238.0748
G01 Y241.3600
G01 X114.3971 Y241.4384
G01 X114.3879 Y241.5164
G01 X114.3726 Y241.5934
G01 X114.3512 Y241.6690
G01 X114.3241 Y241.7427
G01 X114.2912 Y241.8140
G01 X114.2528 Y241.8825
G01 X114.2092 Y241.9478
G01 X114.1606 Y242.0094
G01 X114.1073 Y242.0671
G01 X114.0496 Y242.1204
G01 X113.9880 Y242.1690
G01 X113.9227 Y242.2126
G01 X113.8542 Y242.2510
G01 X113.7829 Y242.2839
G01 X113.7092 Y242.3110
G01 X113.6336 Y242.3323
G01 X113.5566 Y242.3477
G01 X113.4786 Y242.3569
G01 X113.4002 Y242.3600
G01 X92.9744
G01 Y252.9881
G01 X93.1744 Y253.0026
M107
G00 Z2.0000


;No. 7: Hole 34
G00 X126.4713 Y253.0026 Z2.0000
G00 Z0.5000
G01 Z0.0000 F400
G01 Z-2.5000
M106 S240
G01 X129.3564 F1000
G01 Y251.5026
G01 X126.4713
G01 Y250.0026
G01 X129.3564
G01 Y248.5026
G01 X126.4713
G01 Y247.0026
G01 X129.3564
G01 Y245.5026
G01 X126.4713
G01 Y244.0026
G01 X129.3564
G01 Y242.5026
G01 X126.4713
G01 Y241.0026
G01 X129.3564
G01 Y239.5026
G01 X126.4713
G01 Y238.0026
G01 X129.3593
G01 X126.4713 Y236.5026
G01 X150.6294
G01 X149.6938 Y235.0026
G01 X126.4713
G01 X126.2713 Y235.0179
G01 Y254.2154
G01 X129.5564
G01 Y238.0748
G01 X129.5596 Y237.9959
G01 X129.5689 Y237.9174
G01 X129.5844 Y237.8399
G01 X129.6060 Y237.7639
G01 X129.6335 Y237.6898
G01 X129.6668 Y237.6182
G01 X129.7056 Y237.5493
G01 X129.7498 Y237.4838
G01 X129.7990 Y237.4219
G01 X129.8529 Y237.3642
G01 X129.9112 Y237.3108
G01 X129.9735 Y237.2623
G01 X130.0395 Y237.2188
G01 X130.1087 Y237.1806
G01 X130.1807 Y237.1481
G01 X130.2550 Y237.1213
G01 X130.3313 Y237.1005
G01 X130.4089 Y237.0857
G01 X130.4874 Y237.0772
G01 X130.5664 Y237.0748
G01 X150.9522
G01 X150.8914 Y236.7398
G01 X150.8008 Y236.4116
G01 X150.6812 Y236.0928
G01 X150.5335 Y235.7861
G01 X150.3588 Y235.4938
G01 X150.1587 Y235.2183
G01 X149.9347 Y234.9619
G01 X149.6886 Y234.7266
G01 X149.4224 Y234.5143
G01 X149.1383 Y234.3268
G01 X148.8384 Y234.1654
G01 X148.5254 Y234.0316
G01 X148.2015 Y233.9264
G01 X147.8696 Y233.8506
G01 X147.5322 Y233.8049
G01 X147.1921 Y233.7897
G01 X126.2713
G01 Y235.0179
G01 X126.4713 Y235.0026
M107
G00 Z2.0000


;No. 8: Hole 35
G00 X159.7701 Y235.2174 Z2.0000
G00 Z0.5000
G01 Z0.0000 F400
G01 Z-2.5000
M106 S240
G01 X162.6553 F1000
G01 Y236.7174
G01 X159.7701
G01 Y238.2174
G01 X162.6553
G01 Y239.7174
G01 X159.7701
G01 Y241.2174
G01 X162.6553
G01 X159.7701 Y242.7174
G01 X184.0810
G01 Y241.2174
G01 X181.1959
G01 Y239.7174
G01 X184.0810
G01 Y238.2174
G01 X181.1959
G01 Y236.7174
G01 X184.0810
G01 Y235.2174
G01 X181.1959
M107
G00 Z2.0000
G00 X184.0810 Y242.7174
G00 Z0.5000
G01 Z-2.5000 F400
M106 S240
G01 Y244.2174 F1000
G01 X159.7701
G01 X159.5701 Y244.2054
G01 Y245.6451
G01 X184.2810
G01 Y233.7897
G01 X180.9959
G01 Y241.3600
G01 X180.9928 Y241.4384
G01 X180.9836 Y241.5164
G01 X180.9683 Y241.5934
G01 X180.9469 Y241.6690
G01 X180.9198 Y241.7427
G01 X180.8869 Y241.8140
G01 X180.8485 Y241.8825
G01 X180.8049 Y241.9478
G01 X180.7563 Y242.0094
G01 X180.7030 Y242.0671
G01 X180.6453 Y242.1204
G01 X180.5837 Y242.1690
G01 X180.5184 Y242.2126
G01 X180.4499 Y242.2510
G01 X180.3786 Y242.2839
G01 X180.3049 Y242.3110
G01 X180.2293 Y242.3323
G01 X180.1523 Y242.3477
G01 X180.0743 Y242.3569
G01 X179.9959 Y242.3600
G01 X163.8553
G01 X163.8116 Y242.3590
G01 X163.7681 Y242.3562
G01 X163.7247 Y242.3514
G01 X163.6816 Y242.3448
G01 X163.6388 Y242.3363
G01 X163.5964 Y242.3259
G01 X163.5545 Y242.3137
G01 X163.5132 Y242.2997
G01 X163.4726 Y242.2839
G01 X163.4326 Y242.2663
G01 X163.3935 Y242.2470
G01 X163.3553 Y242.2260
G01 X163.3180 Y242.2034
G01 X163.2817 Y242.1791
G01 X163.2465 Y242.1533
G01 X163.2125 Y242.1260
G01 X163.1797 Y242.0972
G01 X163.1481 Y242.0671
G01 X163.1180 Y242.0356
G01 X163.0892 Y242.0028
G01 X163.0619 Y241.9687
G01 X163.0361 Y241.9335
G01 X163.0119 Y241.8973
G01 X162.9892 Y241.8600
G01 X162.9682 Y241.8217
G01 X162.9489 Y241.7826
G01 X162.9314 Y241.7427
G01 X162.9156 Y241.7020
G01 X162.9015 Y241.6607
G01 X162.8893 Y241.6188
G01 X162.8790 Y241.5764
G01 X162.8704 Y241.5336
G01 X162.8638 Y241.4905
G01 X162.8591 Y241.4471
G01 X162.8562 Y241.4036
G01 X162.8553 Y241.3600
G01 Y233.7897
G01 X159.5701
G01 Y244.2054
G01 X159.7701 Y244.2174
M107
G00 Z2.0000


;No. 9: Helical drill 2
G00 X183.9113 Y264.9635 Z2.0000
G00 Z0.5000
M106 S240
G01 X183.9075 Y264.8763 Z0.4705 F400
G01 X183.8961 Y264.7898 Z0.4410
G01 X183.8772 Y264.7046 Z0.4115
G01 X183.8510 Y264.6214 Z0.3819
G01 X183.8176 Y264.5408 Z0.3524
G01 X183.7773 Y264.4635 Z0.3229
G01 X183.7305 Y264.3899 Z0.2934
G01 X183.6773 Y264.3207 Z0.2639
G01 X183.6184 Y264.2564 Z0.2344
G01 X183.5541 Y264.1974 Z0.2049
G01 X183.4849 Y264.1443 Z0.1753
G01 X183.4113 Y264.0974 Z0.1458
G01 X183.3339 Y264.0572 Z0.1163
G01 X183.2533 Y264.0238 Z0.0868
G01 X183.1701 Y263.9975 Z0.0573
G01 X183.0850 Y263.9787 Z0.0278
G01 X182.9985 Y263.9673 Z-0.0017
G01 X182.9113 Y263.9635 Z-0.0313
G01 X182.8241 Y263.9673 Z-0.0608
G01 X182.7377 Y263.9787 Z-0.0903
G01 X182.6525 Y263.9975 Z-0.1198
G01 X182.5693 Y264.0238 Z-0.1493
G01 X182.4887 Y264.0572 Z-0.1788
G01 X182.4113 Y264.0974 Z-0.2083
G01 X182.3707 Y264.1222 Z-0.2244
G01 X182.3312 Y264.1489 Z-0.2405
G01 X182.2931 Y264.1774 Z-0.2566
G01 X182.2564 Y264.2077 Z-0.2727
G01 X182.2212 Y264.2397 Z-0.2888
G01 X182.1876 Y264.2734 Z-0.3049
G01 X182.1556 Y264.3086 Z-0.3210
G01 X182.1253 Y264.3453 Z-0.3371
G01 X182.0967 Y264.3834 Z-0.3532
G01 X182.0701 Y264.4228 Z-0.3693
G01 X182.0453 Y264.4635 Z-0.3854
G01 X182.0225 Y264.5052 Z-0.4015
G01 X182.0017 Y264.5480 Z-0.4176
G01 X181.9829 Y264.5918 Z-0.4337
G01 X181.9663 Y264.6364 Z-0.4498
G01 X181.9518 Y264.6817 Z-0.4659
G01 X181.9395 Y264.7277 Z-0.4820
G01 X181.9294 Y264.7742 Z-0.4981
G01 X181.9215 Y264.8211 Z-0.5142
G01 X181.9158 Y264.8684 Z-0.5303
G01 X181.9124 Y264.9159 Z-0.5464
G01 X181.9113 Y264.9635 Z-0.5625
G01 X181.9124 Y265.0110 Z-0.5786
G01 X181.9158 Y265.0585 Z-0.5947
G01 X181.9215 Y265.1058 Z-0.6108
G01 X181.9294 Y265.1527 Z-0.6269
G01 X181.9395 Y265.1992 Z-0.6430
G01 X181.9518 Y265.2452 Z-0.6591
G01 X181.9663 Y265.2905 Z-0.6752
G01 X181.9829 Y265.3351 Z-0.6913
G01 X182.0017 Y265.3789 Z-0.7074
G01 X182.0225 Y265.4217 Z-0.7235
G01 X182.0453 Y265.4635 Z-0.7396
G01 X182.0701 Y265.5041 Z-0.7557
G01 X182.0967 Y265.5435 Z-0.7718
G01 X182.1253 Y265.5816 Z-0.7879
G01 X182.1556 Y265.6183 Z-0.8040
G01 X182.1876 Y265.6535 Z-0.8201
G01 X182.2212 Y265.6872 Z-0.8362
G01 X182.2564 Y265.7192 Z-0.8523
G01 X182.2931 Y265.7495 Z-0.8684
G01 X182.3312 Y265.7780 Z-0.8845
G01 X182.3707 Y265.8047 Z-0.9006
G01 X182.4113 Y265.8295 Z-0.9167
G01 X182.4531 Y265.8523 Z-0.9328
G01 X182.4959 Y265.8731 Z-0.9489
G01 X182.5396 Y265.8918 Z-0.9650
G01 X182.5842 Y265.9085 Z-0.9811
G01 X182.6296 Y265.9230 Z-0.9972
G01 X182.6755 Y265.9353 Z-1.0133
G01 X182.7221 Y265.9454 Z-1.0294
G01 X182.7690 Y265.9533 Z-1.0455
G01 X182.8162 Y265.9589 Z-1.0616
G01 X182.8637 Y265.9623 Z-1.0777
G01 X182.9113 Y265.9635 Z-1.0938
G01 X182.9589 Y265.9623 Z-1.1098
G01 X183.0064 Y265.9589 Z-1.1259
G01 X183.0536 Y265.9533 Z-1.1420
G01 X183.1006 Y265.9454 Z-1.1581
G01 X183.1471 Y265.9353 Z-1.1742
G01 X183.1930 Y265.9230 Z-1.1903
G01 X183.2384 Y265.9085 Z-1.2064
G01 X183.2830 Y265.8918 Z-1.2225
G01 X183.3267 Y265.8731 Z-1.2386
G01 X183.3695 Y265.8523 Z-1.2547
G01 X183.4113 Y265.8295 Z-1.2708
G01 X183.4519 Y265.8047 Z-1.2869
G01 X183.4914 Y265.7780 Z-1.3030
G01 X183.5295 Y265.7495 Z-1.3191
G01 X183.5662 Y265.7192 Z-1.3352
G01 X183.6014 Y265.6872 Z-1.3513
G01 X183.6350 Y265.6535 Z-1.3674
G01 X183.6671 Y265.6183 Z-1.3835
G01 X183.6974 Y265.5816 Z-1.3996
G01 X183.7259 Y265.5435 Z-1.4157
G01 X183.7526 Y265.5041 Z-1.4318
G01 X183.7773 Y265.4635 Z-1.4479
G01 X183.8001 Y265.4217 Z-1.4640
G01 X183.8209 Y265.3789 Z-1.4801
G01 X183.8397 Y265.3351 Z-1.4962
G01 X183.8563 Y265.2905 Z-1.5123
G01 X183.8708 Y265.2452 Z-1.5284
G01 X183.8831 Y265.1992 Z-1.5445
G01 X183.8932 Y265.1527 Z-1.5606
G01 X183.9011 Y265.1058 Z-1.5767
G01 X183.9068 Y265.0585 Z-1.5928
G01 X183.9102 Y265.0110 Z-1.6089
G01 X183.9113 Y264.9635 Z-1.6250
G01 X183.9075 Y264.8763
G01 X183.8961 Y264.7898
G01 X183.8772 Y264.7046
G01 X183.8510 Y264.6214
G01 X183.8176 Y264.5408
G01 X183.7773 Y264.4635
G01 X183.7305 Y264.3899
G01 X183.6773 Y264.3207
G01 X183.6184 Y264.2564
G01 X183.5541 Y264.1974
G01 X183.4849 Y264.1443
G01 X183.4113 Y264.0974
G01 X183.3339 Y264.0572
G01 X183.2533 Y264.0238
G01 X183.1701 Y263.9975
G01 X183.0850 Y263.9787
G01 X182.9985 Y263.9673
G01 X182.9113 Y263.9635
G01 X182.8241 Y263.9673
G01 X182.7377 Y263.9787
G01 X182.6525 Y263.9975
G01 X182.5693 Y264.0238
G01 X182.4887 Y264.0572
G01 X182.4113 Y264.0974
G01 X182.3707 Y264.1222
G01 X182.3312 Y264.1489
G01 X182.2931 Y264.1774
G01 X182.2564 Y264.2077
G01 X182.2212 Y264.2397
G01 X182.1876 Y264.2734
G01 X182.1556 Y264.3086
G01 X182.1253 Y264.3453
G01 X182.0967 Y264.3834
G01 X182.0701 Y264.4228
G01 X182.0453 Y264.4635
G01 X182.0225 Y264.5052
G01 X182.0017 Y264.5480
G01 X181.9829 Y264.5918
G01 X181.9663 Y264.6364
G01 X181.9518 Y264.6817
G01 X181.9395 Y264.7277
G01 X181.9294 Y264.7742
G01 X181.9215 Y264.8211
G01 X181.9158 Y264.8684
G01 X181.9124 Y264.9159
G01 X181.9113 Y264.9635
G01 X181.9124 Y265.0110
G01 X181.9158 Y265.0585
G01 X181.9215 Y265.1058
G01 X181.9294 Y265.1527
G01 X181.9395 Y265.1992
G01 X181.9518 Y265.2452
G01 X181.9663 Y265.2905
G01 X181.9829 Y265.3351
G01 X182.0017 Y265.3789
G01 X182.0225 Y265.4217
G01 X182.0453 Y265.4635
G01 X182.0701 Y265.5041
G01 X182.0967 Y265.5435
G01 X182.1253 Y265.5816
G01 X182.1556 Y265.6183
G01 X182.1876 Y265.6535
G01 X182.2212 Y265.6872
G01 X182.2564 Y265.7192
G01 X182.2931 Y265.7495
G01 X182.3312 Y265.7780
G01 X182.3707 Y265.8047
G01 X182.4113 Y265.8295
G01 X182.4531 Y265.8523
G01 X182.4959 Y265.8731
G01 X182.5396 Y265.8918
G01 X182.5842 Y265.9085
G01 X182.6296 Y265.9230
G01 X182.6755 Y265.9353
G01 X182.7221 Y265.9454
G01 X182.7690 Y265.9533
G01 X182.8162 Y265.9589
G01 X182.8637 Y265.9623
G01 X182.9113 Y265.9635
G01 X182.9589 Y265.9623
G01 X183.0064 Y265.9589
G01 X183.0536 Y265.9533
G01 X183.1006 Y265.9454
G01 X183.1471 Y265.9353
G01 X183.1930 Y265.9230
G01 X183.2384 Y265.9085
G01 X183.2830 Y265.8918
G01 X183.3267 Y265.8731
G01 X183.3695 Y265.8523
G01 X183.4113 Y265.8295
G01 X183.4519 Y265.8047
G01 X183.4914 Y265.7780
G01 X183.5295 Y265.7495
G01 X183.5662 Y265.7192
G01 X183.6014 Y265.6872
G01 X183.6350 Y265.6535
G01 X183.6671 Y265.6183
G01 X183.6974 Y265.5816
G01 X183.7259 Y265.5435
G01 X183.7526 Y265.5041
G01 X183.7773 Y265.4635
G01 X183.8001 Y265.4217
G01 X183.8209 Y265.3789
G01 X183.8397 Y265.3351
G01 X183.8563 Y265.2905
G01 X183.8708 Y265.2452
G01 X183.8831 Y265.1992
G01 X183.8932 Y265.1527
G01 X183.9011 Y265.1058
G01 X183.9068 Y265.0585
G01 X183.9102 Y265.0110
G01 X183.9113 Y264.9635
G01 X183.9221 Y264.9119 F1000
G01 X183.9301 Y264.8598
G01 X183.9355 Y264.8074
G01 X183.9382 Y264.7547
G01 Y264.7020
G01 X183.9354 Y264.6494
G01 X183.9299 Y264.5970
G01 X183.9218 Y264.5449
G01 X183.9101 Y264.4889
G01 X183.8955 Y264.4336
G01 X183.8781 Y264.3791
G01 X183.8580 Y264.3256
G01 X183.8352 Y264.2731
G01 X183.8097 Y264.2219
G01 X183.7816 Y264.1721
G01 X183.7510 Y264.1238
G01 X183.7154 Y264.0734
G01 X183.6773 Y264.0249
G01 X183.6367 Y263.9783
G01 X183.5939 Y263.9339
G01 X183.5488 Y263.8918
G01 X183.5017 Y263.8519
G01 X183.4526 Y263.8146
G01 X183.4016 Y263.7797
G01 X183.3451 Y263.7452
G01 X183.2870 Y263.7135
G01 X183.2273 Y263.6848
G01 X183.1662 Y263.6592
G01 X183.1039 Y263.6367
G01 X183.0405 Y263.6174
G01 X182.9763 Y263.6013
G01 X182.9113 Y263.5885
G01 X182.8413 Y263.5783
G01 X182.7708 Y263.5716
G01 X182.7001 Y263.5686
G01 X182.6294 Y263.5690
G01 X182.5587 Y263.5731
G01 X182.4884 Y263.5807
G01 X182.4185 Y263.5919
G01 X182.3492 Y263.6065
G01 X182.2811 Y263.6325
G01 X182.2142 Y263.6618
G01 X182.1489 Y263.6943
G01 X182.0853 Y263.7300
G01 X182.0235 Y263.7688
G01 X181.9637 Y263.8106
G01 X181.9061 Y263.8553
G01 X181.8507 Y263.9028
G01 X181.7999 Y263.9561
G01 X181.7518 Y264.0119
G01 X181.7065 Y264.0699
G01 X181.6641 Y264.1301
G01 X181.6247 Y264.1923
G01 X181.5884 Y264.2564
G01 X181.5553 Y264.3221
G01 X181.5255 Y264.3894
G01 X181.4990 Y264.4581
G01 X181.4759 Y264.5280
G01 X181.4563 Y264.5990
G01 X181.4402 Y264.6708
G01 X181.4276 Y264.7434
G01 X181.4186 Y264.8164
G01 X181.4131 Y264.8899
G01 X181.4113 Y264.9635
G01 X181.4131 Y265.0371
G01 X181.4186 Y265.1105
G01 X181.4276 Y265.1836
G01 X181.4402 Y265.2561
G01 X181.4563 Y265.3279
G01 X181.4759 Y265.3989
G01 X181.4990 Y265.4688
G01 X181.5255 Y265.5375
G01 X181.5553 Y265.6048
G01 X181.5884 Y265.6705
G01 X181.6247 Y265.7346
G01 X181.6641 Y265.7968
G01 X181.7065 Y265.8570
G01 X181.7518 Y265.9150
G01 X181.7999 Y265.9708
G01 X181.8507 Y266.0241
G01 X181.9040 Y266.0749
G01 X181.9597 Y266.1230
G01 X182.0178 Y266.1683
G01 X182.0780 Y266.2106
G01 X182.1402 Y266.2500
G01 X182.2042 Y266.2863
G01 X182.2700 Y266.3194
G01 X182.3373 Y266.3493
G01 X182.4060 Y266.3758
G01 X182.4759 Y266.3988
G01 X182.5468 Y266.4185
G01 X182.6187 Y266.4346
G01 X182.6912 Y266.4472
G01 X182.7643 Y266.4562
G01 X182.8377 Y266.4616
G01 X182.9113 Y266.4634
G01 X182.9849 Y266.4616
G01 X183.0583 Y266.4562
G01 X183.1314 Y266.4472
G01 X183.2039 Y266.4346
G01 X183.2758 Y266.4185
G01 X183.3467 Y266.3988
G01 X183.4166 Y266.3758
G01 X183.4853 Y266.3493
G01 X183.5526 Y266.3194
G01 X183.6184 Y266.2863
G01 X183.6824 Y266.2500
G01 X183.7446 Y266.2106
G01 X183.8048 Y266.1683
G01 X183.8629 Y266.1230
G01 X183.9186 Y266.0749
G01 X183.9719 Y266.0241
G01 X184.0227 Y265.9708
G01 X184.0708 Y265.9150
G01 X184.1161 Y265.8570
G01 X184.1585 Y265.7968
G01 X184.1979 Y265.7346
G01 X184.2342 Y265.6705
G01 X184.2673 Y265.6048
G01 X184.2971 Y265.5375
G01 X184.3236 Y265.4688
G01 X184.3467 Y265.3989
G01 X184.3663 Y265.3279
G01 X184.3825 Y265.2561
G01 X184.3950 Y265.1836
G01 X184.4041 Y265.1105
G01 X184.4095 Y265.0371
G01 X184.4113 Y264.9635
G01 X184.4071 Y264.8514
G01 X184.3945 Y264.7399
G01 X184.3737 Y264.6297
G01 X184.3446 Y264.5213
G01 X184.3076 Y264.4155
G01 X184.2627 Y264.3126
G01 X184.2103 Y264.2135
G01 X184.1506 Y264.1185
G01 X184.0840 Y264.0282
G01 X184.0109 Y263.9432
G01 X183.9315 Y263.8639
G01 X183.8465 Y263.7907
G01 X183.7563 Y263.7241
G01 X183.6613 Y263.6644
G01 X183.5621 Y263.6120
G01 X183.4593 Y263.5672
G01 X183.3534 Y263.5301
G01 X183.2451 Y263.5011
G01 X183.1349 Y263.4802
G01 X183.0234 Y263.4677
G01 X182.9113 Y263.4635
G01 X182.7992 Y263.4677
G01 X182.6877 Y263.4802
G01 X182.5775 Y263.5011
G01 X182.4692 Y263.5301
G01 X182.3633 Y263.5672
G01 X182.2605 Y263.6120
G01 X182.1613 Y263.6644
G01 X182.0663 Y263.7241
G01 X181.9761 Y263.7907
G01 X181.8911 Y263.8639
G01 X181.8117 Y263.9432
G01 X181.7386 Y264.0282
G01 X181.6720 Y264.1185
G01 X181.6123 Y264.2135
G01 X181.5599 Y264.3126
G01 X181.5150 Y264.4155
G01 X181.4780 Y264.5213
G01 X181.4489 Y264.6297
G01 X181.4281 Y264.7399
G01 X181.4155 Y264.8514
G01 X181.4113 Y264.9635
G01 X181.4155 Y265.0756
G01 X181.4281 Y265.1870
G01 X181.4489 Y265.2972
G01 X181.4780 Y265.4056
G01 X181.5150 Y265.5115
G01 X181.5599 Y265.6143
G01 X181.6123 Y265.7134
G01 X181.6720 Y265.8084
G01 X181.7386 Y265.8987
G01 X181.8117 Y265.9837
G01 X181.8911 Y266.0630
G01 X181.9761 Y266.1362
G01 X182.0663 Y266.2028
G01 X182.1613 Y266.2625
G01 X182.2605 Y266.3149
G01 X182.3633 Y266.3597
G01 X182.4692 Y266.3968
G01 X182.5775 Y266.4258
G01 X182.6877 Y266.4467
G01 X182.7992 Y266.4592
G01 X182.9113 Y266.4634
G01 X183.0234 Y266.4592
G01 X183.1349 Y266.4467
G01 X183.2451 Y266.4258
G01 X183.3534 Y266.3968
G01 X183.4593 Y266.3597
G01 X183.5621 Y266.3149
G01 X183.6613 Y266.2625
G01 X183.7563 Y266.2028
G01 X183.8465 Y266.1362
G01 X183.9315 Y266.0630
G01 X184.0109 Y265.9837
G01 X184.0840 Y265.8987
G01 X184.1506 Y265.8084
G01 X184.2103 Y265.7134
G01 X184.2627 Y265.6143
G01 X184.3076 Y265.5115
G01 X184.3446 Y265.4056
G01 X184.3737 Y265.2972
G01 X184.3945 Y265.1870
G01 X184.4071 Y265.0756
G01 X184.4113 Y264.9635
G01 X184.4074 Y264.8654
G01 X184.3959 Y264.7679
G01 X184.3767 Y264.6717
G01 X184.3501 Y264.5772
G01 X184.3161 Y264.4851
G01 X184.2750 Y264.3960
G01 X184.2271 Y264.3103
G01 X184.1726 Y264.2287
G01 X184.1118 Y264.1517
G01 X184.0452 Y264.0796
G01 X183.9731 Y264.0130
G01 X183.8960 Y263.9522
G01 X183.8144 Y263.8977
G01 X183.7288 Y263.8497
G01 X183.6396 Y263.8086
G01 X183.5476 Y263.7747
G01 X183.4531 Y263.7480
G01 X183.3568 Y263.7289
G01 X183.2594 Y263.7173
G01 X183.1613 Y263.7135
G01 X183.0632 Y263.7173
G01 X182.9658 Y263.7289
G01 X182.8695 Y263.7480
G01 X182.7750 Y263.7747
G01 X182.6829 Y263.8086
G01 X182.5938 Y263.8497
G01 X182.5082 Y263.8977
G01 X182.4266 Y263.9522
G01 X182.3495 Y264.0130
G01 X182.2774 Y264.0796
G01 X182.2108 Y264.1517
G01 X182.1500 Y264.2287
G01 X182.0955 Y264.3103
G01 X182.0475 Y264.3960
G01 X182.0065 Y264.4851
G01 X181.9725 Y264.5772
G01 X181.9458 Y264.6717
G01 X181.9267 Y264.7679
G01 X181.9152 Y264.8654
G01 X181.9113 Y264.9635
G01 X181.9151 Y265.0506
G01 X181.9265 Y265.1371
G01 X181.9454 Y265.2223
G01 X181.9716 Y265.3055
G01 X182.0050 Y265.3861
G01 X182.0453 Y265.4635
G01 X182.0922 Y265.5370
G01 X182.1453 Y265.6062
G01 X182.2042 Y265.6706
G01 X182.2685 Y265.7295
G01 X182.3377 Y265.7826
G01 X182.4113 Y265.8295
G01 X182.4887 Y265.8698
G01 X182.5693 Y265.9032
G01 X182.6525 Y265.9294
G01 X182.7377 Y265.9483
G01 X182.8241 Y265.9597
G01 X182.9113 Y265.9635
G01 X182.9985 Y265.9597
G01 X183.0850 Y265.9483
G01 X183.1701 Y265.9294
G01 X183.2533 Y265.9032
G01 X183.3339 Y265.8698
G01 X183.4113 Y265.8295
G01 X183.4849 Y265.7826
G01 X183.5541 Y265.7295
G01 X183.6184 Y265.6706
G01 X183.6773 Y265.6062
G01 X183.7305 Y265.5370
G01 X183.7773 Y265.4635
G01 X183.8176 Y265.3861
G01 X183.8510 Y265.3055
G01 X183.8772 Y265.2223
G01 X183.8961 Y265.1371
G01 X183.9075 Y265.0506
G01 X183.9113 Y264.9635
M107
M106 S240
G01 X183.9075 Y264.8763 Z-1.6545 F400
G01 X183.8961 Y264.7898 Z-1.6840
G01 X183.8772 Y264.7046 Z-1.7135
G01 X183.8510 Y264.6214 Z-1.7431
G01 X183.8176 Y264.5408 Z-1.7726
G01 X183.7773 Y264.4635 Z-1.8021
G01 X183.7305 Y264.3899 Z-1.8316
G01 X183.6773 Y264.3207 Z-1.8611
G01 X183.6184 Y264.2564 Z-1.8906
G01 X183.5541 Y264.1974 Z-1.9201
G01 X183.4849 Y264.1443 Z-1.9497
G01 X183.4113 Y264.0974 Z-1.9792
G01 X183.3339 Y264.0572 Z-2.0087
G01 X183.2533 Y264.0238 Z-2.0382
G01 X183.1701 Y263.9975 Z-2.0677
G01 X183.0850 Y263.9787 Z-2.0972
G01 X182.9985 Y263.9673 Z-2.1267
G01 X182.9113 Y263.9635 Z-2.1563
G01 X182.8241 Y263.9673 Z-2.1858
G01 X182.7377 Y263.9787 Z-2.2153
G01 X182.6525 Y263.9975 Z-2.2448
G01 X182.5693 Y264.0238 Z-2.2743
G01 X182.4887 Y264.0572 Z-2.3038
G01 X182.4113 Y264.0974 Z-2.3333
G01 X182.3707 Y264.1222 Z-2.3494
G01 X182.3312 Y264.1489 Z-2.3655
G01 X182.2931 Y264.1774 Z-2.3816
G01 X182.2564 Y264.2077 Z-2.3977
G01 X182.2212 Y264.2397 Z-2.4138
G01 X182.1876 Y264.2734 Z-2.4299
G01 X182.1556 Y264.3086 Z-2.4460
G01 X182.1253 Y264.3453 Z-2.4621
G01 X182.0967 Y264.3834 Z-2.4782
G01 X182.0701 Y264.4228 Z-2.4943
G01 X182.0453 Y264.4635 Z-2.5104
G01 X182.0225 Y264.5052 Z-2.5265
G01 X182.0017 Y264.5480 Z-2.5426
G01 X181.9829 Y264.5918 Z-2.5587
G01 X181.9663 Y264.6364 Z-2.5748
G01 X181.9518 Y264.6817 Z-2.5909
G01 X181.9395 Y264.7277 Z-2.6070
G01 X181.9294 Y264.7742 Z-2.6231
G01 X181.9215 Y264.8211 Z-2.6392
G01 X181.9158 Y264.8684 Z-2.6553
G01 X181.9124 Y264.9159 Z-2.6714
G01 X181.9113 Y264.9635 Z-2.6875
G01 X181.9124 Y265.0110 Z-2.7036
G01 X181.9158 Y265.0585 Z-2.7197
G01 X181.9215 Y265.1058 Z-2.7358
G01 X181.9294 Y265.1527 Z-2.7519
G01 X181.9395 Y265.1992 Z-2.7680
G01 X181.9518 Y265.2452 Z-2.7841
G01 X181.9663 Y265.2905 Z-2.8002
G01 X181.9829 Y265.3351 Z-2.8163
G01 X182.0017 Y265.3789 Z-2.8324
G01 X182.0225 Y265.4217 Z-2.8485
G01 X182.0453 Y265.4635 Z-2.8646
G01 X182.0701 Y265.5041 Z-2.8807
G01 X182.0967 Y265.5435 Z-2.8968
G01 X182.1253 Y265.5816 Z-2.9129
G01 X182.1556 Y265.6183 Z-2.9290
G01 X182.1876 Y265.6535 Z-2.9451
G01 X182.2212 Y265.6872 Z-2.9612
G01 X182.2564 Y265.7192 Z-2.9773
G01 X182.2931 Y265.7495 Z-2.9934
G01 X182.3312 Y265.7780 Z-3.0095
G01 X182.3707 Y265.8047 Z-3.0256
G01 X182.4113 Y265.8295 Z-3.0417
G01 X182.4531 Y265.8523 Z-3.0578
G01 X182.4959 Y265.8731 Z-3.0739
G01 X182.5396 Y265.8918 Z-3.0900
G01 X182.5842 Y265.9085 Z-3.1061
G01 X182.6296 Y265.9230 Z-3.1222
G01 X182.6755 Y265.9353 Z-3.1383
G01 X182.7221 Y265.9454 Z-3.1544
G01 X182.7690 Y265.9533 Z-3.1705
G01 X182.8162 Y265.9589 Z-3.1866
G01 X182.8637 Y265.9623 Z-3.2027
G01 X182.9113 Y265.9635 Z-3.2188
G01 X182.9589 Y265.9623 Z-3.2348
G01 X183.0064 Y265.9589 Z-3.2509
G01 X183.0536 Y265.9533 Z-3.2670
G01 X183.1006 Y265.9454 Z-3.2831
G01 X183.1471 Y265.9353 Z-3.2992
G01 X183.1930 Y265.9230 Z-3.3153
G01 X183.2384 Y265.9085 Z-3.3314
G01 X183.2830 Y265.8918 Z-3.3475
G01 X183.3267 Y265.8731 Z-3.3636
G01 X183.3695 Y265.8523 Z-3.3797
G01 X183.4113 Y265.8295 Z-3.3958
G01 X183.4519 Y265.8047 Z-3.4119
G01 X183.4914 Y265.7780 Z-3.4280
G01 X183.5295 Y265.7495 Z-3.4441
G01 X183.5662 Y265.7192 Z-3.4602
G01 X183.6014 Y265.6872 Z-3.4763
G01 X183.6350 Y265.6535 Z-3.4924
G01 X183.6671 Y265.6183 Z-3.5085
G01 X183.6974 Y265.5816 Z-3.5246
G01 X183.7259 Y265.5435 Z-3.5407
G01 X183.7526 Y265.5041 Z-3.5568
G01 X183.7773 Y265.4635 Z-3.5729
G01 X183.8001 Y265.4217 Z-3.5890
G01 X183.8209 Y265.3789 Z-3.6051
G01 X183.8397 Y265.3351 Z-3.6212
G01 X183.8563 Y265.2905 Z-3.6373
G01 X183.8708 Y265.2452 Z-3.6534
G01 X183.8831 Y265.1992 Z-3.6695
G01 X183.8932 Y265.1527 Z-3.6856
G01 X183.9011 Y265.1058 Z-3.7017
G01 X183.9068 Y265.0585 Z-3.7178
G01 X183.9102 Y265.0110 Z-3.7339
G01 X183.9113 Y264.9635 Z-3.7500
G01 X183.9075 Y264.8763
G01 X183.8961 Y264.7898
G01 X183.8772 Y264.7046
G01 X183.8510 Y264.6214
G01 X183.8176 Y264.5408
G01 X183.7773 Y264.4635
G01 X183.7305 Y264.3899
G01 X183.6773 Y264.3207
G01 X183.6184 Y264.2564
G01 X183.5541 Y264.1974
G01 X183.4849 Y264.1443
G01 X183.4113 Y264.0974
G01 X183.3339 Y264.0572
G01 X183.2533 Y264.0238
G01 X183.1701 Y263.9975
G01 X183.0850 Y263.9787
G01 X182.9985 Y263.9673
G01 X182.9113 Y263.9635
G01 X182.8241 Y263.9673
G01 X182.7377 Y263.9787
G01 X182.6525 Y263.9975
G01 X182.5693 Y264.0238
G01 X182.4887 Y264.0572
G01 X182.4113 Y264.0974
G01 X182.3707 Y264.1222
G01 X182.3312 Y264.1489
G01 X182.2931 Y264.1774
G01 X182.2564 Y264.2077
G01 X182.2212 Y264.2397
G01 X182.1876 Y264.2734
G01 X182.1556 Y264.3086
G01 X182.1253 Y264.3453
G01 X182.0967 Y264.3834
G01 X182.0701 Y264.4228
G01 X182.0453 Y264.4635
G01 X182.0225 Y264.5052
G01 X182.0017 Y264.5480
G01 X181.9829 Y264.5918
G01 X181.9663 Y264.6364
G01 X181.9518 Y264.6817
G01 X181.9395 Y264.7277
G01 X181.9294 Y264.7742
G01 X181.9215 Y264.8211
G01 X181.9158 Y264.8684
G01 X181.9124 Y264.9159
G01 X181.9113 Y264.9635
G01 X181.9124 Y265.0110
G01 X181.9158 Y265.0585
G01 X181.9215 Y265.1058
G01 X181.9294 Y265.1527
G01 X181.9395 Y265.1992
G01 X181.9518 Y265.2452
G01 X181.9663 Y265.2905
G01 X181.9829 Y265.3351
G01 X182.0017 Y265.3789
G01 X182.0225 Y265.4217
G01 X182.0453 Y265.4635
G01 X182.0701 Y265.5041
G01 X182.0967 Y265.5435
G01 X182.1253 Y265.5816
G01 X182.1556 Y265.6183
G01 X182.1876 Y265.6535
G01 X182.2212 Y265.6872
G01 X182.2564 Y265.7192
G01 X182.2931 Y265.7495
G01 X182.3312 Y265.7780
G01 X182.3707 Y265.8047
G01 X182.4113 Y265.8295
G01 X182.4531 Y265.8523
G01 X182.4959 Y265.8731
G01 X182.5396 Y265.8918
G01 X182.5842 Y265.9085
G01 X182.6296 Y265.9230
G01 X182.6755 Y265.9353
G01 X182.7221 Y265.9454
G01 X182.7690 Y265.9533
G01 X182.8162 Y265.9589
G01 X182.8637 Y265.9623
G01 X182.9113 Y265.9635
G01 X182.9589 Y265.9623
G01 X183.0064 Y265.9589
G01 X183.0536 Y265.9533
G01 X183.1006 Y265.9454
G01 X183.1471 Y265.9353
G01 X183.1930 Y265.9230
G01 X183.2384 Y265.9085
G01 X183.2830 Y265.8918
G01 X183.3267 Y265.8731
G01 X183.3695 Y265.8523
G01 X183.4113 Y265.8295
G01 X183.4519 Y265.8047
G01 X183.4914 Y265.7780
G01 X183.5295 Y265.7495
G01 X183.5662 Y265.7192
G01 X183.6014 Y265.6872
G01 X183.6350 Y265.6535
G01 X183.6671 Y265.6183
G01 X183.6974 Y265.5816
G01 X183.7259 Y265.5435
G01 X183.7526 Y265.5041
G01 X183.7773 Y265.4635
G01 X183.8001 Y265.4217
G01 X183.8209 Y265.3789
G01 X183.8397 Y265.3351
G01 X183.8563 Y265.2905
G01 X183.8708 Y265.2452
G01 X183.8831 Y265.1992
G01 X183.8932 Y265.1527
G01 X183.9011 Y265.1058
G01 X183.9068 Y265.0585
G01 X183.9102 Y265.0110
G01 X183.9113 Y264.9635
G01 X183.9221 Y264.9119 F1000
G01 X183.9301 Y264.8598
G01 X183.9355 Y264.8074
G01 X183.9382 Y264.7547
G01 Y264.7020
G01 X183.9354 Y264.6494
G01 X183.9299 Y264.5970
G01 X183.9218 Y264.5449
G01 X183.9101 Y264.4889
G01 X183.8955 Y264.4336
G01 X183.8781 Y264.3791
G01 X183.8580 Y264.3256
G01 X183.8352 Y264.2731
G01 X183.8097 Y264.2219
G01 X183.7816 Y264.1721
G01 X183.7510 Y264.1238
G01 X183.7154 Y264.0734
G01 X183.6773 Y264.0249
G01 X183.6367 Y263.9783
G01 X183.5939 Y263.9339
G01 X183.5488 Y263.8918
G01 X183.5017 Y263.8519
G01 X183.4526 Y263.8146
G01 X183.4016 Y263.7797
G01 X183.3451 Y263.7452
G01 X183.2870 Y263.7135
G01 X183.2273 Y263.6848
G01 X183.1662 Y263.6592
G01 X183.1039 Y263.6367
G01 X183.0405 Y263.6174
G01 X182.9763 Y263.6013
G01 X182.9113 Y263.5885
G01 X182.8413 Y263.5783
G01 X182.7708 Y263.5716
G01 X182.7001 Y263.5686
G01 X182.6294 Y263.5690
G01 X182.5587 Y263.5731
G01 X182.4884 Y263.5807
G01 X182.4185 Y263.5919
G01 X182.3492 Y263.6065
G01 X182.2811 Y263.6325
G01 X182.2142 Y263.6618
G01 X182.1489 Y263.6943
G01 X182.0853 Y263.7300
G01 X182.0235 Y263.7688
G01 X181.9637 Y263.8106
G01 X181.9061 Y263.8553
G01 X181.8507 Y263.9028
G01 X181.7999 Y263.9561
G01 X181.7518 Y264.0119
G01 X181.7065 Y264.0699
G01 X181.6641 Y264.1301
G01 X181.6247 Y264.1923
G01 X181.5884 Y264.2564
G01 X181.5553 Y264.3221
G01 X181.5255 Y264.3894
G01 X181.4990 Y264.4581
G01 X181.4759 Y264.5280
G01 X181.4563 Y264.5990
G01 X181.4402 Y264.6708
G01 X181.4276 Y264.7434
G01 X181.4186 Y264.8164
G01 X181.4131 Y264.8899
G01 X181.4113 Y264.9635
G01 X181.4131 Y265.0371
G01 X181.4186 Y265.1105
G01 X181.4276 Y265.1836
G01 X181.4402 Y265.2561
G01 X181.4563 Y265.3279
G01 X181.4759 Y265.3989
G01 X181.4990 Y265.4688
G01 X181.5255 Y265.5375
G01 X181.5553 Y265.6048
G01 X181.5884 Y265.6705
G01 X181.6247 Y265.7346
G01 X181.6641 Y265.7968
G01 X181.7065 Y265.8570
G01 X181.7518 Y265.9150
G01 X181.7999 Y265.9708
G01 X181.8507 Y266.0241
G01 X181.9040 Y266.0749
G01 X181.9597 Y266.1230
G01 X182.0178 Y266.1683
G01 X182.0780 Y266.2106
G01 X182.1402 Y266.2500
G01 X182.2042 Y266.2863
G01 X182.2700 Y266.3194
G01 X182.3373 Y266.3493
G01 X182.4060 Y266.3758
G01 X182.4759 Y266.3988
G01 X182.5468 Y266.4185
G01 X182.6187 Y266.4346
G01 X182.6912 Y266.4472
G01 X182.7643 Y266.4562
G01 X182.8377 Y266.4616
G01 X182.9113 Y266.4634
G01 X182.9849 Y266.4616
G01 X183.0583 Y266.4562
G01 X183.1314 Y266.4472
G01 X183.2039 Y266.4346
G01 X183.2758 Y266.4185
G01 X183.3467 Y266.3988
G01 X183.4166 Y266.3758
G01 X183.4853 Y266.3493
G01 X183.5526 Y266.3194
G01 X183.6184 Y266.2863
G01 X183.6824 Y266.2500
G01 X183.7446 Y266.2106
G01 X183.8048 Y266.1683
G01 X183.8629 Y266.1230
G01 X183.9186 Y266.0749
G01 X183.9719 Y266.0241
G01 X184.0227 Y265.9708
G01 X184.0708 Y265.9150
G01 X184.1161 Y265.8570
G01 X184.1585 Y265.7968
G01 X184.1979 Y265.7346
G01 X184.2342 Y265.6705
G01 X184.2673 Y265.6048
G01 X184.2971 Y265.5375
G01 X184.3236 Y265.4688
G01 X184.3467 Y265.3989
G01 X184.3663 Y265.3279
G01 X184.3825 Y265.2561
G01 X184.3950 Y265.1836
G01 X184.4041 Y265.1105
G01 X184.4095 Y265.0371
G01 X184.4113 Y264.9635
G01 X184.4071 Y264.8514
G01 X184.3945 Y264.7399
G01 X184.3737 Y264.6297
G01 X184.3446 Y264.5213
G01 X184.3076 Y264.4155
G01 X184.2627 Y264.3126
G01 X184.2103 Y264.2135
G01 X184.1506 Y264.1185
G01 X184.0840 Y264.0282
G01 X184.0109 Y263.9432
G01 X183.9315 Y263.8639
G01 X183.8465 Y263.7907
G01 X183.7563 Y263.7241
G01 X183.6613 Y263.6644
G01 X183.5621 Y263.6120
G01 X183.4593 Y263.5672
G01 X183.3534 Y263.5301
G01 X183.2451 Y263.5011
G01 X183.1349 Y263.4802
G01 X183.0234 Y263.4677
G01 X182.9113 Y263.4635
G01 X182.7992 Y263.4677
G01 X182.6877 Y263.4802
G01 X182.5775 Y263.5011
G01 X182.4692 Y263.5301
G01 X182.3633 Y263.5672
G01 X182.2605 Y263.6120
G01 X182.1613 Y263.6644
G01 X182.0663 Y263.7241
G01 X181.9761 Y263.7907
G01 X181.8911 Y263.8639
G01 X181.8117 Y263.9432
G01 X181.7386 Y264.0282
G01 X181.6720 Y264.1185
G01 X181.6123 Y264.2135
G01 X181.5599 Y264.3126
G01 X181.5150 Y264.4155
G01 X181.4780 Y264.5213
G01 X181.4489 Y264.6297
G01 X181.4281 Y264.7399
G01 X181.4155 Y264.8514
G01 X181.4113 Y264.9635
G01 X181.4155 Y265.0756
G01 X181.4281 Y265.1870
G01 X181.4489 Y265.2972
G01 X181.4780 Y265.4056
G01 X181.5150 Y265.5115
G01 X181.5599 Y265.6143
G01 X181.6123 Y265.7134
G01 X181.6720 Y265.8084
G01 X181.7386 Y265.8987
G01 X181.8117 Y265.9837
G01 X181.8911 Y266.0630
G01 X181.9761 Y266.1362
G01 X182.0663 Y266.2028
G01 X182.1613 Y266.2625
G01 X182.2605 Y266.3149
G01 X182.3633 Y266.3597
G01 X182.4692 Y266.3968
G01 X182.5775 Y266.4258
G01 X182.6877 Y266.4467
G01 X182.7992 Y266.4592
G01 X182.9113 Y266.4634
G01 X183.0234 Y266.4592
G01 X183.1349 Y266.4467
G01 X183.2451 Y266.4258
G01 X183.3534 Y266.3968
G01 X183.4593 Y266.3597
G01 X183.5621 Y266.3149
G01 X183.6613 Y266.2625
G01 X183.7563 Y266.2028
G01 X183.8465 Y266.1362
G01 X183.9315 Y266.0630
G01 X184.0109 Y265.9837
G01 X184.0840 Y265.8987
G01 X184.1506 Y265.8084
G01 X184.2103 Y265.7134
G01 X184.2627 Y265.6143
G01 X184.3076 Y265.5115
G01 X184.3446 Y265.4056
G01 X184.3737 Y265.2972
G01 X184.3945 Y265.1870
G01 X184.4071 Y265.0756
G01 X184.4113 Y264.9635
G01 X184.4074 Y264.8654
G01 X184.3959 Y264.7679
G01 X184.3767 Y264.6717
G01 X184.3501 Y264.5772
G01 X184.3161 Y264.4851
G01 X184.2750 Y264.3960
G01 X184.2271 Y264.3103
G01 X184.1726 Y264.2287
G01 X184.1118 Y264.1517
G01 X184.0452 Y264.0796
G01 X183.9731 Y264.0130
G01 X183.8960 Y263.9522
G01 X183.8144 Y263.8977
G01 X183.7288 Y263.8497
G01 X183.6396 Y263.8086
G01 X183.5476 Y263.7747
G01 X183.4531 Y263.7480
G01 X183.3568 Y263.7289
G01 X183.2594 Y263.7173
G01 X183.1613 Y263.7135
G01 X183.0632 Y263.7173
G01 X182.9658 Y263.7289
G01 X182.8695 Y263.7480
G01 X182.7750 Y263.7747
G01 X182.6829 Y263.8086
G01 X182.5938 Y263.8497
G01 X182.5082 Y263.8977
G01 X182.4266 Y263.9522
G01 X182.3495 Y264.0130
G01 X182.2774 Y264.0796
G01 X182.2108 Y264.1517
G01 X182.1500 Y264.2287
G01 X182.0955 Y264.3103
G01 X182.0475 Y264.3960
G01 X182.0065 Y264.4851
G01 X181.9725 Y264.5772
G01 X181.9458 Y264.6717
G01 X181.9267 Y264.7679
G01 X181.9152 Y264.8654
G01 X181.9113 Y264.9635
G01 X181.9151 Y265.0506
G01 X181.9265 Y265.1371
G01 X181.9454 Y265.2223
G01 X181.9716 Y265.3055
G01 X182.0050 Y265.3861
G01 X182.0453 Y265.4635
G01 X182.0922 Y265.5370
G01 X182.1453 Y265.6062
G01 X182.2042 Y265.6706
G01 X182.2685 Y265.7295
G01 X182.3377 Y265.7826
G01 X182.4113 Y265.8295
G01 X182.4887 Y265.8698
G01 X182.5693 Y265.9032
G01 X182.6525 Y265.9294
G01 X182.7377 Y265.9483
G01 X182.8241 Y265.9597
G01 X182.9113 Y265.9635
G01 X182.9985 Y265.9597
G01 X183.0850 Y265.9483
G01 X183.1701 Y265.9294
G01 X183.2533 Y265.9032
G01 X183.3339 Y265.8698
G01 X183.4113 Y265.8295
G01 X183.4849 Y265.7826
G01 X183.5541 Y265.7295
G01 X183.6184 Y265.6706
G01 X183.6773 Y265.6062
G01 X183.7305 Y265.5370
G01 X183.7773 Y265.4635
G01 X183.8176 Y265.3861
G01 X183.8510 Y265.3055
G01 X183.8772 Y265.2223
G01 X183.8961 Y265.1371
G01 X183.9075 Y265.0506
G01 X183.9113 Y264.9635
M107
M106 S240
G01 X183.9075 Y264.8763 Z-3.7795 F400
G01 X183.8961 Y264.7898 Z-3.8090
G01 X183.8772 Y264.7046 Z-3.8385
G01 X183.8510 Y264.6214 Z-3.8681
G01 X183.8176 Y264.5408 Z-3.8976
G01 X183.7773 Y264.4635 Z-3.9271
G01 X183.7305 Y264.3899 Z-3.9566
G01 X183.6773 Y264.3207 Z-3.9861
G01 X183.6184 Y264.2564 Z-4.0156
G01 X183.5541 Y264.1974 Z-4.0451
G01 X183.4849 Y264.1443 Z-4.0747
G01 X183.4113 Y264.0974 Z-4.1042
G01 X183.3339 Y264.0572 Z-4.1337
G01 X183.2533 Y264.0238 Z-4.1632
G01 X183.1701 Y263.9975 Z-4.1927
G01 X183.0850 Y263.9787 Z-4.2222
G01 X182.9985 Y263.9673 Z-4.2517
G01 X182.9113 Y263.9635 Z-4.2813
G01 X182.8241 Y263.9673 Z-4.3108
G01 X182.7377 Y263.9787 Z-4.3403
G01 X182.6525 Y263.9975 Z-4.3698
G01 X182.5693 Y264.0238 Z-4.3993
G01 X182.4887 Y264.0572 Z-4.4288
G01 X182.4113 Y264.0974 Z-4.4583
G01 X182.3707 Y264.1222 Z-4.4744
G01 X182.3312 Y264.1489 Z-4.4905
G01 X182.2931 Y264.1774 Z-4.5066
G01 X182.2564 Y264.2077 Z-4.5227
G01 X182.2212 Y264.2397 Z-4.5388
G01 X182.1876 Y264.2734 Z-4.5549
G01 X182.1556 Y264.3086 Z-4.5710
G01 X182.1253 Y264.3453 Z-4.5871
G01 X182.0967 Y264.3834 Z-4.6032
G01 X182.0701 Y264.4228 Z-4.6193
G01 X182.0453 Y264.4635 Z-4.6354
G01 X182.0225 Y264.5052 Z-4.6515
G01 X182.0017 Y264.5480 Z-4.6676
G01 X181.9829 Y264.5918 Z-4.6837
G01 X181.9663 Y264.6364 Z-4.6998
G01 X181.9518 Y264.6817 Z-4.7159
G01 X181.9395 Y264.7277 Z-4.7320
G01 X181.9294 Y264.7742 Z-4.7481
G01 X181.9215 Y264.8211 Z-4.7642
G01 X181.9158 Y264.8684 Z-4.7803
G01 X181.9124 Y264.9159 Z-4.7964
G01 X181.9113 Y264.9635 Z-4.8125
G01 X181.9124 Y265.0110 Z-4.8286
G01 X181.9158 Y265.0585 Z-4.8447
G01 X181.9215 Y265.1058 Z-4.8608
G01 X181.9294 Y265.1527 Z-4.8769
G01 X181.9395 Y265.1992 Z-4.8930
G01 X181.9518 Y265.2452 Z-4.9091
G01 X181.9663 Y265.2905 Z-4.9252
G01 X181.9829 Y265.3351 Z-4.9413
G01 X182.0017 Y265.3789 Z-4.9574
G01 X182.0225 Y265.4217 Z-4.9735
G01 X182.0453 Y265.4635 Z-4.9896
G01 X182.0701 Y265.5041 Z-5.0057
G01 X182.0967 Y265.5435 Z-5.0218
G01 X182.1253 Y265.5816 Z-5.0379
G01 X182.1556 Y265.6183 Z-5.0540
G01 X182.1876 Y265.6535 Z-5.0701
G01 X182.2212 Y265.6872 Z-5.0862
G01 X182.2564 Y265.7192 Z-5.1023
G01 X182.2931 Y265.7495 Z-5.1184
G01 X182.3312 Y265.7780 Z-5.1345
G01 X182.3707 Y265.8047 Z-5.1506
G01 X182.4113 Y265.8295 Z-5.1667
G01 X182.4531 Y265.8523 Z-5.1828
G01 X182.4959 Y265.8731 Z-5.1989
G01 X182.5396 Y265.8918 Z-5.2150
G01 X182.5842 Y265.9085 Z-5.2311
G01 X182.6296 Y265.9230 Z-5.2472
G01 X182.6755 Y265.9353 Z-5.2633
G01 X182.7221 Y265.9454 Z-5.2794
G01 X182.7690 Y265.9533 Z-5.2955
G01 X182.8162 Y265.9589 Z-5.3116
G01 X182.8637 Y265.9623 Z-5.3277
G01 X182.9113 Y265.9635 Z-5.3438
G01 X182.9589 Y265.9623 Z-5.3598
G01 X183.0064 Y265.9589 Z-5.3759
G01 X183.0536 Y265.9533 Z-5.3920
G01 X183.1006 Y265.9454 Z-5.4081
G01 X183.1471 Y265.9353 Z-5.4242
G01 X183.1930 Y265.9230 Z-5.4403
G01 X183.2384 Y265.9085 Z-5.4564
G01 X183.2830 Y265.8918 Z-5.4725
G01 X183.3267 Y265.8731 Z-5.4886
G01 X183.3695 Y265.8523 Z-5.5047
G01 X183.4113 Y265.8295 Z-5.5208
G01 X183.4519 Y265.8047 Z-5.5369
G01 X183.4914 Y265.7780 Z-5.5530
G01 X183.5295 Y265.7495 Z-5.5691
G01 X183.5662 Y265.7192 Z-5.5852
G01 X183.6014 Y265.6872 Z-5.6013
G01 X183.6350 Y265.6535 Z-5.6174
G01 X183.6671 Y265.6183 Z-5.6335
G01 X183.6974 Y265.5816 Z-5.6496
G01 X183.7259 Y265.5435 Z-5.6657
G01 X183.7526 Y265.5041 Z-5.6818
G01 X183.7773 Y265.4635 Z-5.6979
G01 X183.8001 Y265.4217 Z-5.7140
G01 X183.8209 Y265.3789 Z-5.7301
G01 X183.8397 Y265.3351 Z-5.7462
G01 X183.8563 Y265.2905 Z-5.7623
G01 X183.8708 Y265.2452 Z-5.7784
G01 X183.8831 Y265.1992 Z-5.7945
G01 X183.8932 Y265.1527 Z-5.8106
G01 X183.9011 Y265.1058 Z-5.8267
G01 X183.9068 Y265.0585 Z-5.8428
G01 X183.9102 Y265.0110 Z-5.8589
G01 X183.9113 Y264.9635 Z-5.8750
G01 X183.9075 Y264.8763
G01 X183.8961 Y264.7898
G01 X183.8772 Y264.7046
G01 X183.8510 Y264.6214
G01 X183.8176 Y264.5408
G01 X183.7773 Y264.4635
G01 X183.7305 Y264.3899
G01 X183.6773 Y264.3207
G01 X183.6184 Y264.2564
G01 X183.5541 Y264.1974
G01 X183.4849 Y264.1443
G01 X183.4113 Y264.0974
G01 X183.3339 Y264.0572
G01 X183.2533 Y264.0238
G01 X183.1701 Y263.9975
G01 X183.0850 Y263.9787
G01 X182.9985 Y263.9673
G01 X182.9113 Y263.9635
G01 X182.8241 Y263.9673
G01 X182.7377 Y263.9787
G01 X182.6525 Y263.9975
G01 X182.5693 Y264.0238
G01 X182.4887 Y264.0572
G01 X182.4113 Y264.0974
G01 X182.3707 Y264.1222
G01 X182.3312 Y264.1489
G01 X182.2931 Y264.1774
G01 X182.2564 Y264.2077
G01 X182.2212 Y264.2397
G01 X182.1876 Y264.2734
G01 X182.1556 Y264.3086
G01 X182.1253 Y264.3453
G01 X182.0967 Y264.3834
G01 X182.0701 Y264.4228
G01 X182.0453 Y264.4635
G01 X182.0225 Y264.5052
G01 X182.0017 Y264.5480
G01 X181.9829 Y264.5918
G01 X181.9663 Y264.6364
G01 X181.9518 Y264.6817
G01 X181.9395 Y264.7277
G01 X181.9294 Y264.7742
G01 X181.9215 Y264.8211
G01 X181.9158 Y264.8684
G01 X181.9124 Y264.9159
G01 X181.9113 Y264.9635
G01 X181.9124 Y265.0110
G01 X181.9158 Y265.0585
G01 X181.9215 Y265.1058
G01 X181.9294 Y265.1527
G01 X181.9395 Y265.1992
G01 X181.9518 Y265.2452
G01 X181.9663 Y265.2905
G01 X181.9829 Y265.3351
G01 X182.0017 Y265.3789
G01 X182.0225 Y265.4217
G01 X182.0453 Y265.4635
G01 X182.0701 Y265.5041
G01 X182.0967 Y265.5435
G01 X182.1253 Y265.5816
G01 X182.1556 Y265.6183
G01 X182.1876 Y265.6535
G01 X182.2212 Y265.6872
G01 X182.2564 Y265.7192
G01 X182.2931 Y265.7495
G01 X182.3312 Y265.7780
G01 X182.3707 Y265.8047
G01 X182.4113 Y265.8295
G01 X182.4531 Y265.8523
G01 X182.4959 Y265.8731
G01 X182.5396 Y265.8918
G01 X182.5842 Y265.9085
G01 X182.6296 Y265.9230
G01 X182.6755 Y265.9353
G01 X182.7221 Y265.9454
G01 X182.7690 Y265.9533
G01 X182.8162 Y265.9589
G01 X182.8637 Y265.9623
G01 X182.9113 Y265.9635
G01 X182.9589 Y265.9623
G01 X183.0064 Y265.9589
G01 X183.0536 Y265.9533
G01 X183.1006 Y265.9454
G01 X183.1471 Y265.9353
G01 X183.1930 Y265.9230
G01 X183.2384 Y265.9085
G01 X183.2830 Y265.8918
G01 X183.3267 Y265.8731
G01 X183.3695 Y265.8523
G01 X183.4113 Y265.8295
G01 X183.4519 Y265.8047
G01 X183.4914 Y265.7780
G01 X183.5295 Y265.7495
G01 X183.5662 Y265.7192
G01 X183.6014 Y265.6872
G01 X183.6350 Y265.6535
G01 X183.6671 Y265.6183
G01 X183.6974 Y265.5816
G01 X183.7259 Y265.5435
G01 X183.7526 Y265.5041
G01 X183.7773 Y265.4635
G01 X183.8001 Y265.4217
G01 X183.8209 Y265.3789
G01 X183.8397 Y265.3351
G01 X183.8563 Y265.2905
G01 X183.8708 Y265.2452
G01 X183.8831 Y265.1992
G01 X183.8932 Y265.1527
G01 X183.9011 Y265.1058
G01 X183.9068 Y265.0585
G01 X183.9102 Y265.0110
G01 X183.9113 Y264.9635
G01 X183.9221 Y264.9119 F1000
G01 X183.9301 Y264.8598
G01 X183.9355 Y264.8074
G01 X183.9382 Y264.7547
G01 Y264.7020
G01 X183.9354 Y264.6494
G01 X183.9299 Y264.5970
G01 X183.9218 Y264.5449
G01 X183.9101 Y264.4889
G01 X183.8955 Y264.4336
G01 X183.8781 Y264.3791
G01 X183.8580 Y264.3256
G01 X183.8352 Y264.2731
G01 X183.8097 Y264.2219
G01 X183.7816 Y264.1721
G01 X183.7510 Y264.1238
G01 X183.7154 Y264.0734
G01 X183.6773 Y264.0249
G01 X183.6367 Y263.9783
G01 X183.5939 Y263.9339
G01 X183.5488 Y263.8918
G01 X183.5017 Y263.8519
G01 X183.4526 Y263.8146
G01 X183.4016 Y263.7797
G01 X183.3451 Y263.7452
G01 X183.2870 Y263.7135
G01 X183.2273 Y263.6848
G01 X183.1662 Y263.6592
G01 X183.1039 Y263.6367
G01 X183.0405 Y263.6174
G01 X182.9763 Y263.6013
G01 X182.9113 Y263.5885
G01 X182.8413 Y263.5783
G01 X182.7708 Y263.5716
G01 X182.7001 Y263.5686
G01 X182.6294 Y263.5690
G01 X182.5587 Y263.5731
G01 X182.4884 Y263.5807
G01 X182.4185 Y263.5919
G01 X182.3492 Y263.6065
G01 X182.2811 Y263.6325
G01 X182.2142 Y263.6618
G01 X182.1489 Y263.6943
G01 X182.0853 Y263.7300
G01 X182.0235 Y263.7688
G01 X181.9637 Y263.8106
G01 X181.9061 Y263.8553
G01 X181.8507 Y263.9028
G01 X181.7999 Y263.9561
G01 X181.7518 Y264.0119
G01 X181.7065 Y264.0699
G01 X181.6641 Y264.1301
G01 X181.6247 Y264.1923
G01 X181.5884 Y264.2564
G01 X181.5553 Y264.3221
G01 X181.5255 Y264.3894
G01 X181.4990 Y264.4581
G01 X181.4759 Y264.5280
G01 X181.4563 Y264.5990
G01 X181.4402 Y264.6708
G01 X181.4276 Y264.7434
G01 X181.4186 Y264.8164
G01 X181.4131 Y264.8899
G01 X181.4113 Y264.9635
G01 X181.4131 Y265.0371
G01 X181.4186 Y265.1105
G01 X181.4276 Y265.1836
G01 X181.4402 Y265.2561
G01 X181.4563 Y265.3279
G01 X181.4759 Y265.3989
G01 X181.4990 Y265.4688
G01 X181.5255 Y265.5375
G01 X181.5553 Y265.6048
G01 X181.5884 Y265.6705
G01 X181.6247 Y265.7346
G01 X181.6641 Y265.7968
G01 X181.7065 Y265.8570
G01 X181.7518 Y265.9150
G01 X181.7999 Y265.9708
G01 X181.8507 Y266.0241
G01 X181.9040 Y266.0749
G01 X181.9597 Y266.1230
G01 X182.0178 Y266.1683
G01 X182.0780 Y266.2106
G01 X182.1402 Y266.2500
G01 X182.2042 Y266.2863
G01 X182.2700 Y266.3194
G01 X182.3373 Y266.3493
G01 X182.4060 Y266.3758
G01 X182.4759 Y266.3988
G01 X182.5468 Y266.4185
G01 X182.6187 Y266.4346
G01 X182.6912 Y266.4472
G01 X182.7643 Y266.4562
G01 X182.8377 Y266.4616
G01 X182.9113 Y266.4634
G01 X182.9849 Y266.4616
G01 X183.0583 Y266.4562
G01 X183.1314 Y266.4472
G01 X183.2039 Y266.4346
G01 X183.2758 Y266.4185
G01 X183.3467 Y266.3988
G01 X183.4166 Y266.3758
G01 X183.4853 Y266.3493
G01 X183.5526 Y266.3194
G01 X183.6184 Y266.2863
G01 X183.6824 Y266.2500
G01 X183.7446 Y266.2106
G01 X183.8048 Y266.1683
G01 X183.8629 Y266.1230
G01 X183.9186 Y266.0749
G01 X183.9719 Y266.0241
G01 X184.0227 Y265.9708
G01 X184.0708 Y265.9150
G01 X184.1161 Y265.8570
G01 X184.1585 Y265.7968
