;Project TeslaParkingRund30
;Created by Estlcam version 11 build 11,227
;Machining time about 00:23:50 hours

G90
M03 S18000
G00 X0.0000 Y0.0000 Z0.0000
G00 Z2.0000


;No. 1: Helical drill 4
G00 X150.9996 Y15.3014
G00 Z0.5000
M106 S240
G01 X150.9958 Y15.2142 Z0.4722 F400 S18000
G01 X150.9844 Y15.1277 Z0.4444
G01 X150.9655 Y15.0426 Z0.4167
G01 X150.9393 Y14.9594 Z0.3889
G01 X150.9059 Y14.8788 Z0.3611
G01 X150.8656 Y14.8014 Z0.3333
G01 X150.8187 Y14.7278 Z0.3056
G01 X150.7656 Y14.6586 Z0.2778
G01 X150.7067 Y14.5943 Z0.2500
G01 X150.6423 Y14.5353 Z0.2222
G01 X150.5731 Y14.4822 Z0.1944
G01 X150.4996 Y14.4353 Z0.1667
G01 X150.4222 Y14.3951 Z0.1389
G01 X150.3416 Y14.3617 Z0.1111
G01 X150.2584 Y14.3354 Z0.0833
G01 X150.1732 Y14.3166 Z0.0556
G01 X150.0867 Y14.3052 Z0.0278
G01 X149.9996 Y14.3014 Z0.0000
G01 X149.9124 Y14.3052 Z-0.0278
G01 X149.8259 Y14.3166 Z-0.0556
G01 X149.7407 Y14.3354 Z-0.0833
G01 X149.6575 Y14.3617 Z-0.1111
G01 X149.5769 Y14.3951 Z-0.1389
G01 X149.4996 Y14.4353 Z-0.1667
G01 X149.4589 Y14.4601 Z-0.1818
G01 X149.4195 Y14.4868 Z-0.1970
G01 X149.3814 Y14.5153 Z-0.2121
G01 X149.3447 Y14.5456 Z-0.2273
G01 X149.3095 Y14.5776 Z-0.2424
G01 X149.2758 Y14.6113 Z-0.2576
G01 X149.2438 Y14.6465 Z-0.2727
G01 X149.2135 Y14.6832 Z-0.2879
G01 X149.1850 Y14.7213 Z-0.3030
G01 X149.1583 Y14.7607 Z-0.3182
G01 X149.1335 Y14.8014 Z-0.3333
G01 X149.1107 Y14.8431 Z-0.3485
G01 X149.0899 Y14.8860 Z-0.3636
G01 X149.0712 Y14.9297 Z-0.3788
G01 X149.0546 Y14.9743 Z-0.3939
G01 X149.0401 Y15.0196 Z-0.4091
G01 X149.0277 Y15.0656 Z-0.4242
G01 X149.0176 Y15.1121 Z-0.4394
G01 X149.0097 Y15.1591 Z-0.4545
G01 X149.0041 Y15.2063 Z-0.4697
G01 X149.0007 Y15.2538 Z-0.4848
G01 X148.9996 Y15.3014 Z-0.5000
G01 X149.0007 Y15.3490 Z-0.5152
G01 X149.0041 Y15.3964 Z-0.5303
G01 X149.0097 Y15.4437 Z-0.5455
G01 X149.0176 Y15.4906 Z-0.5606
G01 X149.0277 Y15.5371 Z-0.5758
G01 X149.0401 Y15.5831 Z-0.5909
G01 X149.0546 Y15.6284 Z-0.6061
G01 X149.0712 Y15.6730 Z-0.6212
G01 X149.0899 Y15.7168 Z-0.6364
G01 X149.1107 Y15.7596 Z-0.6515
G01 X149.1335 Y15.8014 Z-0.6667
G01 X149.1583 Y15.8420 Z-0.6818
G01 X149.1850 Y15.8814 Z-0.6970
G01 X149.2135 Y15.9195 Z-0.7121
G01 X149.2438 Y15.9562 Z-0.7273
G01 X149.2758 Y15.9915 Z-0.7424
G01 X149.3095 Y16.0251 Z-0.7576
G01 X149.3447 Y16.0571 Z-0.7727
G01 X149.3814 Y16.0874 Z-0.7879
G01 X149.4195 Y16.1159 Z-0.8030
G01 X149.4589 Y16.1426 Z-0.8182
G01 X149.4996 Y16.1674 Z-0.8333
G01 X149.5413 Y16.1902 Z-0.8485
G01 X149.5841 Y16.2110 Z-0.8636
G01 X149.6279 Y16.2297 Z-0.8788
G01 X149.6725 Y16.2464 Z-0.8939
G01 X149.7178 Y16.2609 Z-0.9091
G01 X149.7638 Y16.2732 Z-0.9242
G01 X149.8103 Y16.2833 Z-0.9394
G01 X149.8572 Y16.2912 Z-0.9545
G01 X149.9045 Y16.2968 Z-0.9697
G01 X149.9520 Y16.3002 Z-0.9848
G01 X149.9996 Y16.3014 Z-1.0000
G01 X150.0471 Y16.3002 Z-1.0152
G01 X150.0946 Y16.2968 Z-1.0303
G01 X150.1419 Y16.2912 Z-1.0455
G01 X150.1888 Y16.2833 Z-1.0606
G01 X150.2353 Y16.2732 Z-1.0758
G01 X150.2813 Y16.2609 Z-1.0909
G01 X150.3266 Y16.2464 Z-1.1061
G01 X150.3712 Y16.2297 Z-1.1212
G01 X150.4150 Y16.2110 Z-1.1364
G01 X150.4578 Y16.1902 Z-1.1515
G01 X150.4996 Y16.1674 Z-1.1667
G01 X150.5402 Y16.1426 Z-1.1818
G01 X150.5796 Y16.1159 Z-1.1970
G01 X150.6177 Y16.0874 Z-1.2121
G01 X150.6544 Y16.0571 Z-1.2273
G01 X150.6896 Y16.0251 Z-1.2424
G01 X150.7233 Y15.9915 Z-1.2576
G01 X150.7553 Y15.9562 Z-1.2727
G01 X150.7856 Y15.9195 Z-1.2879
G01 X150.8141 Y15.8814 Z-1.3030
G01 X150.8408 Y15.8420 Z-1.3182
G01 X150.8656 Y15.8014 Z-1.3333
G01 X150.8884 Y15.7596 Z-1.3485
G01 X150.9092 Y15.7168 Z-1.3636
G01 X150.9279 Y15.6730 Z-1.3788
G01 X150.9446 Y15.6284 Z-1.3939
G01 X150.9591 Y15.5831 Z-1.4091
G01 X150.9714 Y15.5371 Z-1.4242
G01 X150.9815 Y15.4906 Z-1.4394
G01 X150.9894 Y15.4437 Z-1.4545
G01 X150.9950 Y15.3964 Z-1.4697
G01 X150.9984 Y15.3490 Z-1.4848
G01 X150.9996 Y15.3014 Z-1.5000
G01 X150.9958 Y15.2142
G01 X150.9844 Y15.1277
G01 X150.9655 Y15.0426
G01 X150.9393 Y14.9594
G01 X150.9059 Y14.8788
G01 X150.8656 Y14.8014
G01 X150.8187 Y14.7278
G01 X150.7656 Y14.6586
G01 X150.7067 Y14.5943
G01 X150.6423 Y14.5353
G01 X150.5731 Y14.4822
G01 X150.4996 Y14.4353
G01 X150.4222 Y14.3951
G01 X150.3416 Y14.3617
G01 X150.2584 Y14.3354
G01 X150.1732 Y14.3166
G01 X150.0867 Y14.3052
G01 X149.9996 Y14.3014
G01 X149.9124 Y14.3052
G01 X149.8259 Y14.3166
G01 X149.7407 Y14.3354
G01 X149.6575 Y14.3617
G01 X149.5769 Y14.3951
G01 X149.4996 Y14.4353
G01 X149.4589 Y14.4601
G01 X149.4195 Y14.4868
G01 X149.3814 Y14.5153
G01 X149.3447 Y14.5456
G01 X149.3095 Y14.5776
G01 X149.2758 Y14.6113
G01 X149.2438 Y14.6465
G01 X149.2135 Y14.6832
G01 X149.1850 Y14.7213
G01 X149.1583 Y14.7607
G01 X149.1335 Y14.8014
G01 X149.1107 Y14.8431
G01 X149.0899 Y14.8860
G01 X149.0712 Y14.9297
G01 X149.0546 Y14.9743
G01 X149.0401 Y15.0196
G01 X149.0277 Y15.0656
G01 X149.0176 Y15.1121
G01 X149.0097 Y15.1591
G01 X149.0041 Y15.2063
G01 X149.0007 Y15.2538
G01 X148.9996 Y15.3014
G01 X149.0007 Y15.3490
G01 X149.0041 Y15.3964
G01 X149.0097 Y15.4437
G01 X149.0176 Y15.4906
G01 X149.0277 Y15.5371
G01 X149.0401 Y15.5831
G01 X149.0546 Y15.6284
G01 X149.0712 Y15.6730
G01 X149.0899 Y15.7168
G01 X149.1107 Y15.7596
G01 X149.1335 Y15.8014
G01 X149.1583 Y15.8420
G01 X149.1850 Y15.8814
G01 X149.2135 Y15.9195
G01 X149.2438 Y15.9562
G01 X149.2758 Y15.9915
G01 X149.3095 Y16.0251
G01 X149.3447 Y16.0571
G01 X149.3814 Y16.0874
G01 X149.4195 Y16.1159
G01 X149.4589 Y16.1426
G01 X149.4996 Y16.1674
G01 X149.5413 Y16.1902
G01 X149.5841 Y16.2110
G01 X149.6279 Y16.2297
G01 X149.6725 Y16.2464
G01 X149.7178 Y16.2609
G01 X149.7638 Y16.2732
G01 X149.8103 Y16.2833
G01 X149.8572 Y16.2912
G01 X149.9045 Y16.2968
G01 X149.9520 Y16.3002
G01 X149.9996 Y16.3014
G01 X150.0471 Y16.3002
G01 X150.0946 Y16.2968
G01 X150.1419 Y16.2912
G01 X150.1888 Y16.2833
G01 X150.2353 Y16.2732
G01 X150.2813 Y16.2609
G01 X150.3266 Y16.2464
G01 X150.3712 Y16.2297
G01 X150.4150 Y16.2110
G01 X150.4578 Y16.1902
G01 X150.4996 Y16.1674
G01 X150.5402 Y16.1426
G01 X150.5796 Y16.1159
G01 X150.6177 Y16.0874
G01 X150.6544 Y16.0571
G01 X150.6896 Y16.0251
G01 X150.7233 Y15.9915
G01 X150.7553 Y15.9562
G01 X150.7856 Y15.9195
G01 X150.8141 Y15.8814
G01 X150.8408 Y15.8420
G01 X150.8656 Y15.8014
G01 X150.8884 Y15.7596
G01 X150.9092 Y15.7168
G01 X150.9279 Y15.6730
G01 X150.9446 Y15.6284
G01 X150.9591 Y15.5831
G01 X150.9714 Y15.5371
G01 X150.9815 Y15.4906
G01 X150.9894 Y15.4437
G01 X150.9950 Y15.3964
G01 X150.9984 Y15.3490
G01 X150.9996 Y15.3014
G01 X151.0103 Y15.2498 F1000
G01 X151.0184 Y15.1977
G01 X151.0238 Y15.1453
G01 X151.0264 Y15.0926
G01 Y15.0399
G01 X151.0237 Y14.9873
G01 X151.0182 Y14.9349
G01 X151.0101 Y14.8828
G01 X150.9983 Y14.8268
G01 X150.9838 Y14.7715
G01 X150.9664 Y14.7170
G01 X150.9463 Y14.6635
G01 X150.9234 Y14.6110
G01 X150.8979 Y14.5598
G01 X150.8698 Y14.5100
G01 X150.8392 Y14.4617
G01 X150.8036 Y14.4113
G01 X150.7655 Y14.3628
G01 X150.7250 Y14.3162
G01 X150.6821 Y14.2718
G01 X150.6371 Y14.2297
G01 X150.5899 Y14.1899
G01 X150.5408 Y14.1525
G01 X150.4899 Y14.1177
G01 X150.4334 Y14.0831
G01 X150.3752 Y14.0514
G01 X150.3155 Y14.0227
G01 X150.2544 Y13.9971
G01 X150.1921 Y13.9746
G01 X150.1288 Y13.9553
G01 X150.0645 Y13.9392
G01 X149.9996 Y13.9264
G01 X149.9295 Y13.9162
G01 X149.8591 Y13.9095
G01 X149.7884 Y13.9065
G01 X149.7176 Y13.9070
G01 X149.6470 Y13.9110
G01 X149.5766 Y13.9186
G01 X149.5067 Y13.9298
G01 X149.4375 Y13.9444
G01 X149.3693 Y13.9704
G01 X149.3025 Y13.9997
G01 X149.2372 Y14.0322
G01 X149.1736 Y14.0680
G01 X149.1118 Y14.1068
G01 X149.0520 Y14.1486
G01 X148.9943 Y14.1933
G01 X148.9389 Y14.2407
G01 X148.8882 Y14.2940
G01 X148.8401 Y14.3498
G01 X148.7948 Y14.4078
G01 X148.7524 Y14.4680
G01 X148.7130 Y14.5302
G01 X148.6767 Y14.5943
G01 X148.6436 Y14.6600
G01 X148.6138 Y14.7274
G01 X148.5873 Y14.7960
G01 X148.5642 Y14.8660
G01 X148.5445 Y14.9369
G01 X148.5284 Y15.0087
G01 X148.5158 Y15.0813
G01 X148.5068 Y15.1543
G01 X148.5014 Y15.2278
G01 X148.4996 Y15.3014
G01 X148.5014 Y15.3750
G01 X148.5068 Y15.4484
G01 X148.5158 Y15.5215
G01 X148.5284 Y15.5940
G01 X148.5445 Y15.6658
G01 X148.5642 Y15.7368
G01 X148.5873 Y15.8067
G01 X148.6138 Y15.8754
G01 X148.6436 Y15.9427
G01 X148.6767 Y16.0085
G01 X148.7130 Y16.0725
G01 X148.7524 Y16.1347
G01 X148.7948 Y16.1949
G01 X148.8401 Y16.2529
G01 X148.8882 Y16.3087
G01 X148.9389 Y16.3620
G01 X148.9922 Y16.4128
G01 X149.0480 Y16.4609
G01 X149.1060 Y16.5062
G01 X149.1662 Y16.5486
G01 X149.2284 Y16.5879
G01 X149.2925 Y16.6242
G01 X149.3582 Y16.6573
G01 X149.4255 Y16.6872
G01 X149.4942 Y16.7137
G01 X149.5641 Y16.7368
G01 X149.6351 Y16.7564
G01 X149.7069 Y16.7725
G01 X149.7795 Y16.7851
G01 X149.8525 Y16.7941
G01 X149.9260 Y16.7995
G01 X149.9996 Y16.8013
G01 X150.0732 Y16.7995
G01 X150.1466 Y16.7941
G01 X150.2197 Y16.7851
G01 X150.2922 Y16.7725
G01 X150.3640 Y16.7564
G01 X150.4350 Y16.7368
G01 X150.5049 Y16.7137
G01 X150.5736 Y16.6872
G01 X150.6409 Y16.6573
G01 X150.7066 Y16.6242
G01 X150.7707 Y16.5879
G01 X150.8329 Y16.5486
G01 X150.8931 Y16.5062
G01 X150.9511 Y16.4609
G01 X151.0069 Y16.4128
G01 X151.0602 Y16.3620
G01 X151.1110 Y16.3087
G01 X151.1591 Y16.2529
G01 X151.2044 Y16.1949
G01 X151.2467 Y16.1347
G01 X151.2861 Y16.0725
G01 X151.3224 Y16.0085
G01 X151.3555 Y15.9427
G01 X151.3854 Y15.8754
G01 X151.4119 Y15.8067
G01 X151.4349 Y15.7368
G01 X151.4546 Y15.6658
G01 X151.4707 Y15.5940
G01 X151.4833 Y15.5215
G01 X151.4923 Y15.4484
G01 X151.4977 Y15.3750
G01 X151.4995 Y15.3014
G01 X151.4953 Y15.1893
G01 X151.4828 Y15.0778
G01 X151.4619 Y14.9676
G01 X151.4329 Y14.8592
G01 X151.3958 Y14.7534
G01 X151.3510 Y14.6506
G01 X151.2986 Y14.5514
G01 X151.2389 Y14.4564
G01 X151.1723 Y14.3662
G01 X151.0991 Y14.2811
G01 X151.0198 Y14.2018
G01 X150.9348 Y14.1286
G01 X150.8445 Y14.0620
G01 X150.7495 Y14.0024
G01 X150.6504 Y13.9499
G01 X150.5476 Y13.9051
G01 X150.4417 Y13.8680
G01 X150.3333 Y13.8390
G01 X150.2231 Y13.8181
G01 X150.1117 Y13.8056
G01 X149.9996 Y13.8014
G01 X149.8875 Y13.8056
G01 X149.7760 Y13.8181
G01 X149.6658 Y13.8390
G01 X149.5574 Y13.8680
G01 X149.4516 Y13.9051
G01 X149.3487 Y13.9499
G01 X149.2496 Y14.0024
G01 X149.1546 Y14.0620
G01 X149.0643 Y14.1286
G01 X148.9793 Y14.2018
G01 X148.9000 Y14.2811
G01 X148.8268 Y14.3662
G01 X148.7602 Y14.4564
G01 X148.7005 Y14.5514
G01 X148.6481 Y14.6506
G01 X148.6033 Y14.7534
G01 X148.5662 Y14.8592
G01 X148.5372 Y14.9676
G01 X148.5163 Y15.0778
G01 X148.5038 Y15.1893
G01 X148.4996 Y15.3014
G01 X148.5038 Y15.4135
G01 X148.5163 Y15.5249
G01 X148.5372 Y15.6351
G01 X148.5662 Y15.7435
G01 X148.6033 Y15.8494
G01 X148.6481 Y15.9522
G01 X148.7005 Y16.0514
G01 X148.7602 Y16.1463
G01 X148.8268 Y16.2366
G01 X148.9000 Y16.3216
G01 X148.9793 Y16.4009
G01 X149.0643 Y16.4741
G01 X149.1546 Y16.5407
G01 X149.2496 Y16.6004
G01 X149.3487 Y16.6528
G01 X149.4516 Y16.6977
G01 X149.5574 Y16.7347
G01 X149.6658 Y16.7637
G01 X149.7760 Y16.7846
G01 X149.8875 Y16.7972
G01 X149.9996 Y16.8013
G01 X150.1117 Y16.7972
G01 X150.2231 Y16.7846
G01 X150.3333 Y16.7637
G01 X150.4417 Y16.7347
G01 X150.5476 Y16.6977
G01 X150.6504 Y16.6528
G01 X150.7495 Y16.6004
G01 X150.8445 Y16.5407
G01 X150.9348 Y16.4741
G01 X151.0198 Y16.4009
G01 X151.0991 Y16.3216
G01 X151.1723 Y16.2366
G01 X151.2389 Y16.1463
G01 X151.2986 Y16.0514
G01 X151.3510 Y15.9522
G01 X151.3958 Y15.8494
G01 X151.4329 Y15.7435
G01 X151.4619 Y15.6351
G01 X151.4828 Y15.5249
G01 X151.4953 Y15.4135
G01 X151.4995 Y15.3014
G01 X151.4957 Y15.2033
G01 X151.4841 Y15.1058
G01 X151.4650 Y15.0096
G01 X151.4384 Y14.9151
G01 X151.4044 Y14.8230
G01 X151.3633 Y14.7339
G01 X151.3153 Y14.6483
G01 X151.2608 Y14.5666
G01 X151.2000 Y14.4896
G01 X151.1334 Y14.4175
G01 X151.0614 Y14.3509
G01 X150.9843 Y14.2901
G01 X150.9027 Y14.2356
G01 X150.8170 Y14.1876
G01 X150.7279 Y14.1465
G01 X150.6358 Y14.1126
G01 X150.5414 Y14.0859
G01 X150.4451 Y14.0668
G01 X150.3476 Y14.0552
G01 X150.2495 Y14.0514
G01 X150.1515 Y14.0552
G01 X150.0540 Y14.0668
G01 X149.9577 Y14.0859
G01 X149.8633 Y14.1126
G01 X149.7712 Y14.1465
G01 X149.6821 Y14.1876
G01 X149.5964 Y14.2356
G01 X149.5148 Y14.2901
G01 X149.4377 Y14.3509
G01 X149.3657 Y14.4175
G01 X149.2990 Y14.4896
G01 X149.2383 Y14.5666
G01 X149.1838 Y14.6483
G01 X149.1358 Y14.7339
G01 X149.0947 Y14.8230
G01 X149.0607 Y14.9151
G01 X149.0341 Y15.0096
G01 X149.0149 Y15.1058
G01 X149.0034 Y15.2033
G01 X148.9996 Y15.3014
G01 X149.0006 Y15.3476
G01 X149.0038 Y15.3936
G01 X149.0091 Y15.4395
G01 X149.0166 Y15.4851
G01 X149.0261 Y15.5303
G01 X149.0377 Y15.5750
G01 X149.0514 Y15.6192
G01 X149.0671 Y15.6626
G01 X149.0848 Y15.7053
G01 X149.1044 Y15.7471
G01 X149.1259 Y15.7880
G01 X149.1493 Y15.8278
G01 X149.1746 Y15.8665
G01 X149.2015 Y15.9040
G01 X149.2302 Y15.9402
G01 X149.2606 Y15.9751
G01 X149.2925 Y16.0085
G01 X149.3259 Y16.0404
G01 X149.3607 Y16.0707
G01 X149.3969 Y16.0994
G01 X149.4344 Y16.1264
G01 X149.4731 Y16.1516
G01 X149.5130 Y16.1750
G01 X149.5538 Y16.1965
G01 X149.5956 Y16.2162
G01 X149.6383 Y16.2338
G01 X149.6818 Y16.2495
G01 X149.7259 Y16.2632
G01 X149.7706 Y16.2748
G01 X149.8158 Y16.2843
G01 X149.8614 Y16.2918
G01 X149.9073 Y16.2971
G01 X149.9534 Y16.3003
G01 X149.9996 Y16.3014
G01 X150.0457 Y16.3003
G01 X150.0918 Y16.2971
G01 X150.1377 Y16.2918
G01 X150.1833 Y16.2843
G01 X150.2285 Y16.2748
G01 X150.2732 Y16.2632
G01 X150.3174 Y16.2495
G01 X150.3608 Y16.2338
G01 X150.4035 Y16.2162
G01 X150.4453 Y16.1965
G01 X150.4862 Y16.1750
G01 X150.5260 Y16.1516
G01 X150.5647 Y16.1264
G01 X150.6022 Y16.0994
G01 X150.6384 Y16.0707
G01 X150.6733 Y16.0404
G01 X150.7067 Y16.0085
G01 X150.7386 Y15.9751
G01 X150.7689 Y15.9402
G01 X150.7976 Y15.9040
G01 X150.8246 Y15.8665
G01 X150.8498 Y15.8278
G01 X150.8732 Y15.7880
G01 X150.8947 Y15.7471
G01 X150.9144 Y15.7053
G01 X150.9320 Y15.6626
G01 X150.9477 Y15.6192
G01 X150.9614 Y15.5750
G01 X150.9730 Y15.5303
G01 X150.9825 Y15.4851
G01 X150.9900 Y15.4395
G01 X150.9953 Y15.3936
G01 X150.9985 Y15.3476
G01 X150.9996 Y15.3014
M107
M106 S240
G01 X150.9958 Y15.2142 Z-1.5278 F400
G01 X150.9844 Y15.1277 Z-1.5556
G01 X150.9655 Y15.0426 Z-1.5833
G01 X150.9393 Y14.9594 Z-1.6111
G01 X150.9059 Y14.8788 Z-1.6389
G01 X150.8656 Y14.8014 Z-1.6667
G01 X150.8187 Y14.7278 Z-1.6944
G01 X150.7656 Y14.6586 Z-1.7222
G01 X150.7067 Y14.5943 Z-1.7500
G01 X150.6423 Y14.5353 Z-1.7778
G01 X150.5731 Y14.4822 Z-1.8056
G01 X150.4996 Y14.4353 Z-1.8333
G01 X150.4222 Y14.3951 Z-1.8611
G01 X150.3416 Y14.3617 Z-1.8889
G01 X150.2584 Y14.3354 Z-1.9167
G01 X150.1732 Y14.3166 Z-1.9444
G01 X150.0867 Y14.3052 Z-1.9722
G01 X149.9996 Y14.3014 Z-2.0000
G01 X149.9124 Y14.3052 Z-2.0278
G01 X149.8259 Y14.3166 Z-2.0556
G01 X149.7407 Y14.3354 Z-2.0833
G01 X149.6575 Y14.3617 Z-2.1111
G01 X149.5769 Y14.3951 Z-2.1389
G01 X149.4996 Y14.4353 Z-2.1667
G01 X149.4589 Y14.4601 Z-2.1818
G01 X149.4195 Y14.4868 Z-2.1970
G01 X149.3814 Y14.5153 Z-2.2121
G01 X149.3447 Y14.5456 Z-2.2273
G01 X149.3095 Y14.5776 Z-2.2424
G01 X149.2758 Y14.6113 Z-2.2576
G01 X149.2438 Y14.6465 Z-2.2727
G01 X149.2135 Y14.6832 Z-2.2879
G01 X149.1850 Y14.7213 Z-2.3030
G01 X149.1583 Y14.7607 Z-2.3182
G01 X149.1335 Y14.8014 Z-2.3333
G01 X149.1107 Y14.8431 Z-2.3485
G01 X149.0899 Y14.8860 Z-2.3636
G01 X149.0712 Y14.9297 Z-2.3788
G01 X149.0546 Y14.9743 Z-2.3939
G01 X149.0401 Y15.0196 Z-2.4091
G01 X149.0277 Y15.0656 Z-2.4242
G01 X149.0176 Y15.1121 Z-2.4394
G01 X149.0097 Y15.1591 Z-2.4545
G01 X149.0041 Y15.2063 Z-2.4697
G01 X149.0007 Y15.2538 Z-2.4848
G01 X148.9996 Y15.3014 Z-2.5000
G01 X149.0007 Y15.3490 Z-2.5152
G01 X149.0041 Y15.3964 Z-2.5303
G01 X149.0097 Y15.4437 Z-2.5455
G01 X149.0176 Y15.4906 Z-2.5606
G01 X149.0277 Y15.5371 Z-2.5758
G01 X149.0401 Y15.5831 Z-2.5909
G01 X149.0546 Y15.6284 Z-2.6061
G01 X149.0712 Y15.6730 Z-2.6212
G01 X149.0899 Y15.7168 Z-2.6364
G01 X149.1107 Y15.7596 Z-2.6515
G01 X149.1335 Y15.8014 Z-2.6667
G01 X149.1583 Y15.8420 Z-2.6818
G01 X149.1850 Y15.8814 Z-2.6970
G01 X149.2135 Y15.9195 Z-2.7121
G01 X149.2438 Y15.9562 Z-2.7273
G01 X149.2758 Y15.9915 Z-2.7424
G01 X149.3095 Y16.0251 Z-2.7576
G01 X149.3447 Y16.0571 Z-2.7727
G01 X149.3814 Y16.0874 Z-2.7879
G01 X149.4195 Y16.1159 Z-2.8030
G01 X149.4589 Y16.1426 Z-2.8182
G01 X149.4996 Y16.1674 Z-2.8333
G01 X149.5413 Y16.1902 Z-2.8485
G01 X149.5841 Y16.2110 Z-2.8636
G01 X149.6279 Y16.2297 Z-2.8788
G01 X149.6725 Y16.2464 Z-2.8939
G01 X149.7178 Y16.2609 Z-2.9091
G01 X149.7638 Y16.2732 Z-2.9242
G01 X149.8103 Y16.2833 Z-2.9394
G01 X149.8572 Y16.2912 Z-2.9545
G01 X149.9045 Y16.2968 Z-2.9697
G01 X149.9520 Y16.3002 Z-2.9848
G01 X149.9996 Y16.3014 Z-3.0000
G01 X150.0471 Y16.3002 Z-3.0152
G01 X150.0946 Y16.2968 Z-3.0303
G01 X150.1419 Y16.2912 Z-3.0455
G01 X150.1888 Y16.2833 Z-3.0606
G01 X150.2353 Y16.2732 Z-3.0758
G01 X150.2813 Y16.2609 Z-3.0909
G01 X150.3266 Y16.2464 Z-3.1061
G01 X150.3712 Y16.2297 Z-3.1212
G01 X150.4150 Y16.2110 Z-3.1364
G01 X150.4578 Y16.1902 Z-3.1515
G01 X150.4996 Y16.1674 Z-3.1667
G01 X150.5402 Y16.1426 Z-3.1818
G01 X150.5796 Y16.1159 Z-3.1970
G01 X150.6177 Y16.0874 Z-3.2121
G01 X150.6544 Y16.0571 Z-3.2273
G01 X150.6896 Y16.0251 Z-3.2424
G01 X150.7233 Y15.9915 Z-3.2576
G01 X150.7553 Y15.9562 Z-3.2727
G01 X150.7856 Y15.9195 Z-3.2879
G01 X150.8141 Y15.8814 Z-3.3030
G01 X150.8408 Y15.8420 Z-3.3182
G01 X150.8656 Y15.8014 Z-3.3333
G01 X150.8884 Y15.7596 Z-3.3485
G01 X150.9092 Y15.7168 Z-3.3636
G01 X150.9279 Y15.6730 Z-3.3788
G01 X150.9446 Y15.6284 Z-3.3939
G01 X150.9591 Y15.5831 Z-3.4091
G01 X150.9714 Y15.5371 Z-3.4242
G01 X150.9815 Y15.4906 Z-3.4394
G01 X150.9894 Y15.4437 Z-3.4545
G01 X150.9950 Y15.3964 Z-3.4697
G01 X150.9984 Y15.3490 Z-3.4848
G01 X150.9996 Y15.3014 Z-3.5000
G01 X150.9958 Y15.2142
G01 X150.9844 Y15.1277
G01 X150.9655 Y15.0426
G01 X150.9393 Y14.9594
G01 X150.9059 Y14.8788
G01 X150.8656 Y14.8014
G01 X150.8187 Y14.7278
G01 X150.7656 Y14.6586
G01 X150.7067 Y14.5943
G01 X150.6423 Y14.5353
G01 X150.5731 Y14.4822
G01 X150.4996 Y14.4353
G01 X150.4222 Y14.3951
G01 X150.3416 Y14.3617
G01 X150.2584 Y14.3354
G01 X150.1732 Y14.3166
G01 X150.0867 Y14.3052
G01 X149.9996 Y14.3014
G01 X149.9124 Y14.3052
G01 X149.8259 Y14.3166
G01 X149.7407 Y14.3354
G01 X149.6575 Y14.3617
G01 X149.5769 Y14.3951
G01 X149.4996 Y14.4353
G01 X149.4589 Y14.4601
G01 X149.4195 Y14.4868
G01 X149.3814 Y14.5153
G01 X149.3447 Y14.5456
G01 X149.3095 Y14.5776
G01 X149.2758 Y14.6113
G01 X149.2438 Y14.6465
G01 X149.2135 Y14.6832
G01 X149.1850 Y14.7213
G01 X149.1583 Y14.7607
G01 X149.1335 Y14.8014
G01 X149.1107 Y14.8431
G01 X149.0899 Y14.8860
G01 X149.0712 Y14.9297
G01 X149.0546 Y14.9743
G01 X149.0401 Y15.0196
G01 X149.0277 Y15.0656
G01 X149.0176 Y15.1121
G01 X149.0097 Y15.1591
G01 X149.0041 Y15.2063
G01 X149.0007 Y15.2538
G01 X148.9996 Y15.3014
G01 X149.0007 Y15.3490
G01 X149.0041 Y15.3964
G01 X149.0097 Y15.4437
G01 X149.0176 Y15.4906
G01 X149.0277 Y15.5371
G01 X149.0401 Y15.5831
G01 X149.0546 Y15.6284
G01 X149.0712 Y15.6730
G01 X149.0899 Y15.7168
G01 X149.1107 Y15.7596
G01 X149.1335 Y15.8014
G01 X149.1583 Y15.8420
G01 X149.1850 Y15.8814
G01 X149.2135 Y15.9195
G01 X149.2438 Y15.9562
G01 X149.2758 Y15.9915
G01 X149.3095 Y16.0251
G01 X149.3447 Y16.0571
G01 X149.3814 Y16.0874
G01 X149.4195 Y16.1159
G01 X149.4589 Y16.1426
G01 X149.4996 Y16.1674
G01 X149.5413 Y16.1902
G01 X149.5841 Y16.2110
G01 X149.6279 Y16.2297
G01 X149.6725 Y16.2464
G01 X149.7178 Y16.2609
G01 X149.7638 Y16.2732
G01 X149.8103 Y16.2833
G01 X149.8572 Y16.2912
G01 X149.9045 Y16.2968
G01 X149.9520 Y16.3002
G01 X149.9996 Y16.3014
G01 X150.0471 Y16.3002
G01 X150.0946 Y16.2968
G01 X150.1419 Y16.2912
G01 X150.1888 Y16.2833
G01 X150.2353 Y16.2732
G01 X150.2813 Y16.2609
G01 X150.3266 Y16.2464
G01 X150.3712 Y16.2297
G01 X150.4150 Y16.2110
G01 X150.4578 Y16.1902
G01 X150.4996 Y16.1674
G01 X150.5402 Y16.1426
G01 X150.5796 Y16.1159
G01 X150.6177 Y16.0874
G01 X150.6544 Y16.0571
G01 X150.6896 Y16.0251
G01 X150.7233 Y15.9915
G01 X150.7553 Y15.9562
G01 X150.7856 Y15.9195
G01 X150.8141 Y15.8814
G01 X150.8408 Y15.8420
G01 X150.8656 Y15.8014
G01 X150.8884 Y15.7596
G01 X150.9092 Y15.7168
G01 X150.9279 Y15.6730
G01 X150.9446 Y15.6284
G01 X150.9591 Y15.5831
G01 X150.9714 Y15.5371
G01 X150.9815 Y15.4906
G01 X150.9894 Y15.4437
G01 X150.9950 Y15.3964
G01 X150.9984 Y15.3490
G01 X150.9996 Y15.3014
G01 X151.0103 Y15.2498 F1000
G01 X151.0184 Y15.1977
G01 X151.0238 Y15.1453
G01 X151.0264 Y15.0926
G01 Y15.0399
G01 X151.0237 Y14.9873
G01 X151.0182 Y14.9349
G01 X151.0101 Y14.8828
G01 X150.9983 Y14.8268
G01 X150.9838 Y14.7715
G01 X150.9664 Y14.7170
G01 X150.9463 Y14.6635
G01 X150.9234 Y14.6110
G01 X150.8979 Y14.5598
G01 X150.8698 Y14.5100
G01 X150.8392 Y14.4617
G01 X150.8036 Y14.4113
G01 X150.7655 Y14.3628
G01 X150.7250 Y14.3162
G01 X150.6821 Y14.2718
G01 X150.6371 Y14.2297
G01 X150.5899 Y14.1899
G01 X150.5408 Y14.1525
G01 X150.4899 Y14.1177
G01 X150.4334 Y14.0831
G01 X150.3752 Y14.0514
G01 X150.3155 Y14.0227
G01 X150.2544 Y13.9971
G01 X150.1921 Y13.9746
G01 X150.1288 Y13.9553
G01 X150.0645 Y13.9392
G01 X149.9996 Y13.9264
G01 X149.9295 Y13.9162
G01 X149.8591 Y13.9095
G01 X149.7884 Y13.9065
G01 X149.7176 Y13.9070
G01 X149.6470 Y13.9110
G01 X149.5766 Y13.9186
G01 X149.5067 Y13.9298
G01 X149.4375 Y13.9444
G01 X149.3693 Y13.9704
G01 X149.3025 Y13.9997
G01 X149.2372 Y14.0322
G01 X149.1736 Y14.0680
G01 X149.1118 Y14.1068
G01 X149.0520 Y14.1486
G01 X148.9943 Y14.1933
G01 X148.9389 Y14.2407
G01 X148.8882 Y14.2940
G01 X148.8401 Y14.3498
G01 X148.7948 Y14.4078
G01 X148.7524 Y14.4680
G01 X148.7130 Y14.5302
G01 X148.6767 Y14.5943
G01 X148.6436 Y14.6600
G01 X148.6138 Y14.7274
G01 X148.5873 Y14.7960
G01 X148.5642 Y14.8660
G01 X148.5445 Y14.9369
G01 X148.5284 Y15.0087
G01 X148.5158 Y15.0813
G01 X148.5068 Y15.1543
G01 X148.5014 Y15.2278
G01 X148.4996 Y15.3014
G01 X148.5014 Y15.3750
G01 X148.5068 Y15.4484
G01 X148.5158 Y15.5215
G01 X148.5284 Y15.5940
G01 X148.5445 Y15.6658
G01 X148.5642 Y15.7368
G01 X148.5873 Y15.8067
G01 X148.6138 Y15.8754
G01 X148.6436 Y15.9427
G01 X148.6767 Y16.0085
G01 X148.7130 Y16.0725
G01 X148.7524 Y16.1347
G01 X148.7948 Y16.1949
G01 X148.8401 Y16.2529
G01 X148.8882 Y16.3087
G01 X148.9389 Y16.3620
G01 X148.9922 Y16.4128
G01 X149.0480 Y16.4609
G01 X149.1060 Y16.5062
G01 X149.1662 Y16.5486
G01 X149.2284 Y16.5879
G01 X149.2925 Y16.6242
G01 X149.3582 Y16.6573
G01 X149.4255 Y16.6872
G01 X149.4942 Y16.7137
G01 X149.5641 Y16.7368
G01 X149.6351 Y16.7564
G01 X149.7069 Y16.7725
G01 X149.7795 Y16.7851
G01 X149.8525 Y16.7941
G01 X149.9260 Y16.7995
G01 X149.9996 Y16.8013
G01 X150.0732 Y16.7995
G01 X150.1466 Y16.7941
G01 X150.2197 Y16.7851
G01 X150.2922 Y16.7725
G01 X150.3640 Y16.7564
G01 X150.4350 Y16.7368
G01 X150.5049 Y16.7137
G01 X150.5736 Y16.6872
G01 X150.6409 Y16.6573
G01 X150.7066 Y16.6242
G01 X150.7707 Y16.5879
G01 X150.8329 Y16.5486
G01 X150.8931 Y16.5062
G01 X150.9511 Y16.4609
G01 X151.0069 Y16.4128
G01 X151.0602 Y16.3620
G01 X151.1110 Y16.3087
G01 X151.1591 Y16.2529
G01 X151.2044 Y16.1949
G01 X151.2467 Y16.1347
G01 X151.2861 Y16.0725
G01 X151.3224 Y16.0085
G01 X151.3555 Y15.9427
G01 X151.3854 Y15.8754
G01 X151.4119 Y15.8067
G01 X151.4349 Y15.7368
G01 X151.4546 Y15.6658
G01 X151.4707 Y15.5940
G01 X151.4833 Y15.5215
G01 X151.4923 Y15.4484
G01 X151.4977 Y15.3750
G01 X151.4995 Y15.3014
G01 X151.4953 Y15.1893
G01 X151.4828 Y15.0778
G01 X151.4619 Y14.9676
G01 X151.4329 Y14.8592
G01 X151.3958 Y14.7534
G01 X151.3510 Y14.6506
G01 X151.2986 Y14.5514
G01 X151.2389 Y14.4564
G01 X151.1723 Y14.3662
G01 X151.0991 Y14.2811
G01 X151.0198 Y14.2018
G01 X150.9348 Y14.1286
G01 X150.8445 Y14.0620
G01 X150.7495 Y14.0024
G01 X150.6504 Y13.9499
G01 X150.5476 Y13.9051
G01 X150.4417 Y13.8680
G01 X150.3333 Y13.8390
G01 X150.2231 Y13.8181
G01 X150.1117 Y13.8056
G01 X149.9996 Y13.8014
G01 X149.8875 Y13.8056
G01 X149.7760 Y13.8181
G01 X149.6658 Y13.8390
G01 X149.5574 Y13.8680
G01 X149.4516 Y13.9051
G01 X149.3487 Y13.9499
G01 X149.2496 Y14.0024
G01 X149.1546 Y14.0620
G01 X149.0643 Y14.1286
G01 X148.9793 Y14.2018
G01 X148.9000 Y14.2811
G01 X148.8268 Y14.3662
G01 X148.7602 Y14.4564
G01 X148.7005 Y14.5514
G01 X148.6481 Y14.6506
G01 X148.6033 Y14.7534
G01 X148.5662 Y14.8592
G01 X148.5372 Y14.9676
G01 X148.5163 Y15.0778
G01 X148.5038 Y15.1893
G01 X148.4996 Y15.3014
G01 X148.5038 Y15.4135
G01 X148.5163 Y15.5249
G01 X148.5372 Y15.6351
G01 X148.5662 Y15.7435
G01 X148.6033 Y15.8494
G01 X148.6481 Y15.9522
G01 X148.7005 Y16.0514
G01 X148.7602 Y16.1463
G01 X148.8268 Y16.2366
G01 X148.9000 Y16.3216
G01 X148.9793 Y16.4009
G01 X149.0643 Y16.4741
G01 X149.1546 Y16.5407
G01 X149.2496 Y16.6004
G01 X149.3487 Y16.6528
G01 X149.4516 Y16.6977
G01 X149.5574 Y16.7347
G01 X149.6658 Y16.7637
G01 X149.7760 Y16.7846
G01 X149.8875 Y16.7972
G01 X149.9996 Y16.8013
G01 X150.1117 Y16.7972
G01 X150.2231 Y16.7846
G01 X150.3333 Y16.7637
G01 X150.4417 Y16.7347
G01 X150.5476 Y16.6977
G01 X150.6504 Y16.6528
G01 X150.7495 Y16.6004
G01 X150.8445 Y16.5407
G01 X150.9348 Y16.4741
G01 X151.0198 Y16.4009
G01 X151.0991 Y16.3216
G01 X151.1723 Y16.2366
G01 X151.2389 Y16.1463
G01 X151.2986 Y16.0514
G01 X151.3510 Y15.9522
G01 X151.3958 Y15.8494
G01 X151.4329 Y15.7435
G01 X151.4619 Y15.6351
G01 X151.4828 Y15.5249
G01 X151.4953 Y15.4135
G01 X151.4995 Y15.3014
G01 X151.4957 Y15.2033
G01 X151.4841 Y15.1058
G01 X151.4650 Y15.0096
G01 X151.4384 Y14.9151
G01 X151.4044 Y14.8230
G01 X151.3633 Y14.7339
G01 X151.3153 Y14.6483
G01 X151.2608 Y14.5666
G01 X151.2000 Y14.4896
G01 X151.1334 Y14.4175
G01 X151.0614 Y14.3509
G01 X150.9843 Y14.2901
G01 X150.9027 Y14.2356
G01 X150.8170 Y14.1876
G01 X150.7279 Y14.1465
G01 X150.6358 Y14.1126
G01 X150.5414 Y14.0859
G01 X150.4451 Y14.0668
G01 X150.3476 Y14.0552
G01 X150.2495 Y14.0514
G01 X150.1515 Y14.0552
G01 X150.0540 Y14.0668
G01 X149.9577 Y14.0859
G01 X149.8633 Y14.1126
G01 X149.7712 Y14.1465
G01 X149.6821 Y14.1876
G01 X149.5964 Y14.2356
G01 X149.5148 Y14.2901
G01 X149.4377 Y14.3509
G01 X149.3657 Y14.4175
G01 X149.2990 Y14.4896
G01 X149.2383 Y14.5666
G01 X149.1838 Y14.6483
G01 X149.1358 Y14.7339
G01 X149.0947 Y14.8230
G01 X149.0607 Y14.9151
G01 X149.0341 Y15.0096
G01 X149.0149 Y15.1058
G01 X149.0034 Y15.2033
G01 X148.9996 Y15.3014
G01 X149.0006 Y15.3476
G01 X149.0038 Y15.3936
G01 X149.0091 Y15.4395
G01 X149.0166 Y15.4851
G01 X149.0261 Y15.5303
G01 X149.0377 Y15.5750
G01 X149.0514 Y15.6192
G01 X149.0671 Y15.6626
G01 X149.0848 Y15.7053
G01 X149.1044 Y15.7471
G01 X149.1259 Y15.7880
G01 X149.1493 Y15.8278
G01 X149.1746 Y15.8665
G01 X149.2015 Y15.9040
G01 X149.2302 Y15.9402
G01 X149.2606 Y15.9751
G01 X149.2925 Y16.0085
G01 X149.3259 Y16.0404
G01 X149.3607 Y16.0707
G01 X149.3969 Y16.0994
G01 X149.4344 Y16.1264
G01 X149.4731 Y16.1516
G01 X149.5130 Y16.1750
G01 X149.5538 Y16.1965
G01 X149.5956 Y16.2162
G01 X149.6383 Y16.2338
G01 X149.6818 Y16.2495
G01 X149.7259 Y16.2632
G01 X149.7706 Y16.2748
G01 X149.8158 Y16.2843
G01 X149.8614 Y16.2918
G01 X149.9073 Y16.2971
G01 X149.9534 Y16.3003
G01 X149.9996 Y16.3014
G01 X150.0457 Y16.3003
G01 X150.0918 Y16.2971
G01 X150.1377 Y16.2918
G01 X150.1833 Y16.2843
G01 X150.2285 Y16.2748
G01 X150.2732 Y16.2632
G01 X150.3174 Y16.2495
G01 X150.3608 Y16.2338
G01 X150.4035 Y16.2162
G01 X150.4453 Y16.1965
G01 X150.4862 Y16.1750
G01 X150.5260 Y16.1516
G01 X150.5647 Y16.1264
G01 X150.6022 Y16.0994
G01 X150.6384 Y16.0707
G01 X150.6733 Y16.0404
G01 X150.7067 Y16.0085
G01 X150.7386 Y15.9751
G01 X150.7689 Y15.9402
G01 X150.7976 Y15.9040
G01 X150.8246 Y15.8665
G01 X150.8498 Y15.8278
G01 X150.8732 Y15.7880
G01 X150.8947 Y15.7471
G01 X150.9144 Y15.7053
G01 X150.9320 Y15.6626
G01 X150.9477 Y15.6192
G01 X150.9614 Y15.5750
G01 X150.9730 Y15.5303
G01 X150.9825 Y15.4851
G01 X150.9900 Y15.4395
G01 X150.9953 Y15.3936
G01 X150.9985 Y15.3476
G01 X150.9996 Y15.3014
M107
M106 S240
G01 X150.9958 Y15.2142 Z-3.5278 F400
G01 X150.9844 Y15.1277 Z-3.5556
G01 X150.9655 Y15.0426 Z-3.5833
G01 X150.9393 Y14.9594 Z-3.6111
G01 X150.9059 Y14.8788 Z-3.6389
G01 X150.8656 Y14.8014 Z-3.6667
G01 X150.8187 Y14.7278 Z-3.6944
G01 X150.7656 Y14.6586 Z-3.7222
G01 X150.7067 Y14.5943 Z-3.7500
G01 X150.6423 Y14.5353 Z-3.7778
G01 X150.5731 Y14.4822 Z-3.8056
G01 X150.4996 Y14.4353 Z-3.8333
G01 X150.4222 Y14.3951 Z-3.8611
G01 X150.3416 Y14.3617 Z-3.8889
G01 X150.2584 Y14.3354 Z-3.9167
G01 X150.1732 Y14.3166 Z-3.9444
G01 X150.0867 Y14.3052 Z-3.9722
G01 X149.9996 Y14.3014 Z-4.0000
G01 X149.9124 Y14.3052 Z-4.0278
G01 X149.8259 Y14.3166 Z-4.0556
G01 X149.7407 Y14.3354 Z-4.0833
G01 X149.6575 Y14.3617 Z-4.1111
G01 X149.5769 Y14.3951 Z-4.1389
G01 X149.4996 Y14.4353 Z-4.1667
G01 X149.4589 Y14.4601 Z-4.1818
G01 X149.4195 Y14.4868 Z-4.1970
G01 X149.3814 Y14.5153 Z-4.2121
G01 X149.3447 Y14.5456 Z-4.2273
G01 X149.3095 Y14.5776 Z-4.2424
G01 X149.2758 Y14.6113 Z-4.2576
G01 X149.2438 Y14.6465 Z-4.2727
G01 X149.2135 Y14.6832 Z-4.2879
G01 X149.1850 Y14.7213 Z-4.3030
G01 X149.1583 Y14.7607 Z-4.3182
G01 X149.1335 Y14.8014 Z-4.3333
G01 X149.1107 Y14.8431 Z-4.3485
G01 X149.0899 Y14.8860 Z-4.3636
G01 X149.0712 Y14.9297 Z-4.3788
G01 X149.0546 Y14.9743 Z-4.3939
G01 X149.0401 Y15.0196 Z-4.4091
G01 X149.0277 Y15.0656 Z-4.4242
G01 X149.0176 Y15.1121 Z-4.4394
G01 X149.0097 Y15.1591 Z-4.4545
G01 X149.0041 Y15.2063 Z-4.4697
G01 X149.0007 Y15.2538 Z-4.4848
G01 X148.9996 Y15.3014 Z-4.5000
G01 X149.0007 Y15.3490 Z-4.5152
G01 X149.0041 Y15.3964 Z-4.5303
G01 X149.0097 Y15.4437 Z-4.5455
G01 X149.0176 Y15.4906 Z-4.5606
G01 X149.0277 Y15.5371 Z-4.5758
G01 X149.0401 Y15.5831 Z-4.5909
G01 X149.0546 Y15.6284 Z-4.6061
G01 X149.0712 Y15.6730 Z-4.6212
G01 X149.0899 Y15.7168 Z-4.6364
G01 X149.1107 Y15.7596 Z-4.6515
G01 X149.1335 Y15.8014 Z-4.6667
G01 X149.1583 Y15.8420 Z-4.6818
G01 X149.1850 Y15.8814 Z-4.6970
G01 X149.2135 Y15.9195 Z-4.7121
G01 X149.2438 Y15.9562 Z-4.7273
G01 X149.2758 Y15.9915 Z-4.7424
G01 X149.3095 Y16.0251 Z-4.7576
G01 X149.3447 Y16.0571 Z-4.7727
G01 X149.3814 Y16.0874 Z-4.7879
G01 X149.4195 Y16.1159 Z-4.8030
G01 X149.4589 Y16.1426 Z-4.8182
G01 X149.4996 Y16.1674 Z-4.8333
G01 X149.5413 Y16.1902 Z-4.8485
G01 X149.5841 Y16.2110 Z-4.8636
G01 X149.6279 Y16.2297 Z-4.8788
G01 X149.6725 Y16.2464 Z-4.8939
G01 X149.7178 Y16.2609 Z-4.9091
G01 X149.7638 Y16.2732 Z-4.9242
G01 X149.8103 Y16.2833 Z-4.9394
G01 X149.8572 Y16.2912 Z-4.9545
G01 X149.9045 Y16.2968 Z-4.9697
G01 X149.9520 Y16.3002 Z-4.9848
G01 X149.9996 Y16.3014 Z-5.0000
G01 X150.0471 Y16.3002 Z-5.0152
G01 X150.0946 Y16.2968 Z-5.0303
G01 X150.1419 Y16.2912 Z-5.0455
G01 X150.1888 Y16.2833 Z-5.0606
G01 X150.2353 Y16.2732 Z-5.0758
G01 X150.2813 Y16.2609 Z-5.0909
G01 X150.3266 Y16.2464 Z-5.1061
G01 X150.3712 Y16.2297 Z-5.1212
G01 X150.4150 Y16.2110 Z-5.1364
G01 X150.4578 Y16.1902 Z-5.1515
G01 X150.4996 Y16.1674 Z-5.1667
G01 X150.5402 Y16.1426 Z-5.1818
G01 X150.5796 Y16.1159 Z-5.1970
G01 X150.6177 Y16.0874 Z-5.2121
G01 X150.6544 Y16.0571 Z-5.2273
G01 X150.6896 Y16.0251 Z-5.2424
G01 X150.7233 Y15.9915 Z-5.2576
G01 X150.7553 Y15.9562 Z-5.2727
G01 X150.7856 Y15.9195 Z-5.2879
G01 X150.8141 Y15.8814 Z-5.3030
G01 X150.8408 Y15.8420 Z-5.3182
G01 X150.8656 Y15.8014 Z-5.3333
G01 X150.8884 Y15.7596 Z-5.3485
G01 X150.9092 Y15.7168 Z-5.3636
G01 X150.9279 Y15.6730 Z-5.3788
G01 X150.9446 Y15.6284 Z-5.3939
G01 X150.9591 Y15.5831 Z-5.4091
G01 X150.9714 Y15.5371 Z-5.4242
G01 X150.9815 Y15.4906 Z-5.4394
G01 X150.9894 Y15.4437 Z-5.4545
G01 X150.9950 Y15.3964 Z-5.4697
G01 X150.9984 Y15.3490 Z-5.4848
G01 X150.9996 Y15.3014 Z-5.5000
G01 X150.9958 Y15.2142
G01 X150.9844 Y15.1277
G01 X150.9655 Y15.0426
G01 X150.9393 Y14.9594
G01 X150.9059 Y14.8788
G01 X150.8656 Y14.8014
G01 X150.8187 Y14.7278
G01 X150.7656 Y14.6586
G01 X150.7067 Y14.5943
G01 X150.6423 Y14.5353
G01 X150.5731 Y14.4822
G01 X150.4996 Y14.4353
G01 X150.4222 Y14.3951
G01 X150.3416 Y14.3617
G01 X150.2584 Y14.3354
G01 X150.1732 Y14.3166
G01 X150.0867 Y14.3052
G01 X149.9996 Y14.3014
G01 X149.9124 Y14.3052
G01 X149.8259 Y14.3166
G01 X149.7407 Y14.3354
G01 X149.6575 Y14.3617
G01 X149.5769 Y14.3951
G01 X149.4996 Y14.4353
G01 X149.4589 Y14.4601
G01 X149.4195 Y14.4868
G01 X149.3814 Y14.5153
G01 X149.3447 Y14.5456
G01 X149.3095 Y14.5776
G01 X149.2758 Y14.6113
G01 X149.2438 Y14.6465
G01 X149.2135 Y14.6832
G01 X149.1850 Y14.7213
G01 X149.1583 Y14.7607
G01 X149.1335 Y14.8014
G01 X149.1107 Y14.8431
G01 X149.0899 Y14.8860
G01 X149.0712 Y14.9297
G01 X149.0546 Y14.9743
G01 X149.0401 Y15.0196
G01 X149.0277 Y15.0656
G01 X149.0176 Y15.1121
G01 X149.0097 Y15.1591
G01 X149.0041 Y15.2063
G01 X149.0007 Y15.2538
G01 X148.9996 Y15.3014
G01 X149.0007 Y15.3490
G01 X149.0041 Y15.3964
G01 X149.0097 Y15.4437
G01 X149.0176 Y15.4906
G01 X149.0277 Y15.5371
G01 X149.0401 Y15.5831
G01 X149.0546 Y15.6284
G01 X149.0712 Y15.6730
G01 X149.0899 Y15.7168
G01 X149.1107 Y15.7596
G01 X149.1335 Y15.8014
G01 X149.1583 Y15.8420
G01 X149.1850 Y15.8814
G01 X149.2135 Y15.9195
G01 X149.2438 Y15.9562
G01 X149.2758 Y15.9915
G01 X149.3095 Y16.0251
G01 X149.3447 Y16.0571
G01 X149.3814 Y16.0874
G01 X149.4195 Y16.1159
G01 X149.4589 Y16.1426
G01 X149.4996 Y16.1674
G01 X149.5413 Y16.1902
G01 X149.5841 Y16.2110
G01 X149.6279 Y16.2297
G01 X149.6725 Y16.2464
G01 X149.7178 Y16.2609
G01 X149.7638 Y16.2732
G01 X149.8103 Y16.2833
G01 X149.8572 Y16.2912
G01 X149.9045 Y16.2968
G01 X149.9520 Y16.3002
G01 X149.9996 Y16.3014
G01 X150.0471 Y16.3002
G01 X150.0946 Y16.2968
G01 X150.1419 Y16.2912
G01 X150.1888 Y16.2833
G01 X150.2353 Y16.2732
G01 X150.2813 Y16.2609
G01 X150.3266 Y16.2464
G01 X150.3712 Y16.2297
G01 X150.4150 Y16.2110
G01 X150.4578 Y16.1902
G01 X150.4996 Y16.1674
G01 X150.5402 Y16.1426
G01 X150.5796 Y16.1159
G01 X150.6177 Y16.0874
G01 X150.6544 Y16.0571
G01 X150.6896 Y16.0251
G01 X150.7233 Y15.9915
G01 X150.7553 Y15.9562
G01 X150.7856 Y15.9195
G01 X150.8141 Y15.8814
G01 X150.8408 Y15.8420
G01 X150.8656 Y15.8014
G01 X150.8884 Y15.7596
G01 X150.9092 Y15.7168
G01 X150.9279 Y15.6730
G01 X150.9446 Y15.6284
G01 X150.9591 Y15.5831
G01 X150.9714 Y15.5371
G01 X150.9815 Y15.4906
G01 X150.9894 Y15.4437
G01 X150.9950 Y15.3964
G01 X150.9984 Y15.3490
G01 X150.9996 Y15.3014
G01 X151.0103 Y15.2498 F1000
G01 X151.0184 Y15.1977
G01 X151.0238 Y15.1453
G01 X151.0264 Y15.0926
G01 Y15.0399
G01 X151.0237 Y14.9873
G01 X151.0182 Y14.9349
G01 X151.0101 Y14.8828
G01 X150.9983 Y14.8268
G01 X150.9838 Y14.7715
G01 X150.9664 Y14.7170
G01 X150.9463 Y14.6635
G01 X150.9234 Y14.6110
G01 X150.8979 Y14.5598
G01 X150.8698 Y14.5100
G01 X150.8392 Y14.4617
G01 X150.8036 Y14.4113
G01 X150.7655 Y14.3628
G01 X150.7250 Y14.3162
G01 X150.6821 Y14.2718
G01 X150.6371 Y14.2297
G01 X150.5899 Y14.1899
G01 X150.5408 Y14.1525
G01 X150.4899 Y14.1177
G01 X150.4334 Y14.0831
G01 X150.3752 Y14.0514
G01 X150.3155 Y14.0227
G01 X150.2544 Y13.9971
G01 X150.1921 Y13.9746
G01 X150.1288 Y13.9553
G01 X150.0645 Y13.9392
G01 X149.9996 Y13.9264
G01 X149.9295 Y13.9162
G01 X149.8591 Y13.9095
G01 X149.7884 Y13.9065
G01 X149.7176 Y13.9070
G01 X149.6470 Y13.9110
G01 X149.5766 Y13.9186
G01 X149.5067 Y13.9298
G01 X149.4375 Y13.9444
G01 X149.3693 Y13.9704
G01 X149.3025 Y13.9997
G01 X149.2372 Y14.0322
G01 X149.1736 Y14.0680
G01 X149.1118 Y14.1068
G01 X149.0520 Y14.1486
G01 X148.9943 Y14.1933
G01 X148.9389 Y14.2407
G01 X148.8882 Y14.2940
G01 X148.8401 Y14.3498
G01 X148.7948 Y14.4078
G01 X148.7524 Y14.4680
G01 X148.7130 Y14.5302
G01 X148.6767 Y14.5943
G01 X148.6436 Y14.6600
G01 X148.6138 Y14.7274
G01 X148.5873 Y14.7960
G01 X148.5642 Y14.8660
G01 X148.5445 Y14.9369
G01 X148.5284 Y15.0087
G01 X148.5158 Y15.0813
G01 X148.5068 Y15.1543
G01 X148.5014 Y15.2278
G01 X148.4996 Y15.3014
G01 X148.5014 Y15.3750
G01 X148.5068 Y15.4484
G01 X148.5158 Y15.5215
G01 X148.5284 Y15.5940
G01 X148.5445 Y15.6658
G01 X148.5642 Y15.7368
G01 X148.5873 Y15.8067
G01 X148.6138 Y15.8754
G01 X148.6436 Y15.9427
G01 X148.6767 Y16.0085
G01 X148.7130 Y16.0725
G01 X148.7524 Y16.1347
G01 X148.7948 Y16.1949
G01 X148.8401 Y16.2529
G01 X148.8882 Y16.3087
G01 X148.9389 Y16.3620
G01 X148.9922 Y16.4128
G01 X149.0480 Y16.4609
G01 X149.1060 Y16.5062
G01 X149.1662 Y16.5486
G01 X149.2284 Y16.5879
G01 X149.2925 Y16.6242
G01 X149.3582 Y16.6573
G01 X149.4255 Y16.6872
G01 X149.4942 Y16.7137
G01 X149.5641 Y16.7368
G01 X149.6351 Y16.7564
G01 X149.7069 Y16.7725
G01 X149.7795 Y16.7851
G01 X149.8525 Y16.7941
G01 X149.9260 Y16.7995
G01 X149.9996 Y16.8013
G01 X150.0732 Y16.7995
G01 X150.1466 Y16.7941
G01 X150.2197 Y16.7851
G01 X150.2922 Y16.7725
G01 X150.3640 Y16.7564
G01 X150.4350 Y16.7368
G01 X150.5049 Y16.7137
G01 X150.5736 Y16.6872
G01 X150.6409 Y16.6573
G01 X150.7066 Y16.6242
G01 X150.7707 Y16.5879
G01 X150.8329 Y16.5486
G01 X150.8931 Y16.5062
G01 X150.9511 Y16.4609
G01 X151.0069 Y16.4128
G01 X151.0602 Y16.3620
G01 X151.1110 Y16.3087
G01 X151.1591 Y16.2529
G01 X151.2044 Y16.1949
G01 X151.2467 Y16.1347
G01 X151.2861 Y16.0725
G01 X151.3224 Y16.0085
G01 X151.3555 Y15.9427
G01 X151.3854 Y15.8754
G01 X151.4119 Y15.8067
G01 X151.4349 Y15.7368
G01 X151.4546 Y15.6658
G01 X151.4707 Y15.5940
G01 X151.4833 Y15.5215
G01 X151.4923 Y15.4484
G01 X151.4977 Y15.3750
G01 X151.4995 Y15.3014
G01 X151.4953 Y15.1893
G01 X151.4828 Y15.0778
G01 X151.4619 Y14.9676
G01 X151.4329 Y14.8592
G01 X151.3958 Y14.7534
G01 X151.3510 Y14.6506
G01 X151.2986 Y14.5514
G01 X151.2389 Y14.4564
G01 X151.1723 Y14.3662
G01 X151.0991 Y14.2811
G01 X151.0198 Y14.2018
G01 X150.9348 Y14.1286
G01 X150.8445 Y14.0620
G01 X150.7495 Y14.0024
G01 X150.6504 Y13.9499
G01 X150.5476 Y13.9051
G01 X150.4417 Y13.8680
G01 X150.3333 Y13.8390
G01 X150.2231 Y13.8181
G01 X150.1117 Y13.8056
G01 X149.9996 Y13.8014
G01 X149.8875 Y13.8056
G01 X149.7760 Y13.8181
G01 X149.6658 Y13.8390
G01 X149.5574 Y13.8680
G01 X149.4516 Y13.9051
G01 X149.3487 Y13.9499
G01 X149.2496 Y14.0024
G01 X149.1546 Y14.0620
G01 X149.0643 Y14.1286
G01 X148.9793 Y14.2018
G01 X148.9000 Y14.2811
G01 X148.8268 Y14.3662
G01 X148.7602 Y14.4564
G01 X148.7005 Y14.5514
G01 X148.6481 Y14.6506
G01 X148.6033 Y14.7534
G01 X148.5662 Y14.8592
G01 X148.5372 Y14.9676
G01 X148.5163 Y15.0778
G01 X148.5038 Y15.1893
G01 X148.4996 Y15.3014
G01 X148.5038 Y15.4135
G01 X148.5163 Y15.5249
G01 X148.5372 Y15.6351
G01 X148.5662 Y15.7435
G01 X148.6033 Y15.8494
G01 X148.6481 Y15.9522
G01 X148.7005 Y16.0514
G01 X148.7602 Y16.1463
G01 X148.8268 Y16.2366
G01 X148.9000 Y16.3216
G01 X148.9793 Y16.4009
G01 X149.0643 Y16.4741
G01 X149.1546 Y16.5407
G01 X149.2496 Y16.6004
G01 X149.3487 Y16.6528
G01 X149.4516 Y16.6977
G01 X149.5574 Y16.7347
G01 X149.6658 Y16.7637
G01 X149.7760 Y16.7846
G01 X149.8875 Y16.7972
G01 X149.9996 Y16.8013
G01 X150.1117 Y16.7972
G01 X150.2231 Y16.7846
G01 X150.3333 Y16.7637
G01 X150.4417 Y16.7347
G01 X150.5476 Y16.6977
G01 X150.6504 Y16.6528
G01 X150.7495 Y16.6004
G01 X150.8445 Y16.5407
G01 X150.9348 Y16.4741
G01 X151.0198 Y16.4009
G01 X151.0991 Y16.3216
G01 X151.1723 Y16.2366
G01 X151.2389 Y16.1463
G01 X151.2986 Y16.0514
G01 X151.3510 Y15.9522
G01 X151.3958 Y15.8494
G01 X151.4329 Y15.7435
G01 X151.4619 Y15.6351
G01 X151.4828 Y15.5249
G01 X151.4953 Y15.4135
G01 X151.4995 Y15.3014
M107
M106 S240
G01 X151.4965 Y15.2229 Z-5.4750 F400
M107
M106 S240
G01 X151.4872 Y15.1449 Z-5.4500
M107
M106 S240
G01 X151.4719 Y15.0679 Z-5.4250
M107
M106 S240
G01 X151.4506 Y14.9924 Z-5.4000
M107
M106 S240
G01 X151.4234 Y14.9187 Z-5.3750
M107
M106 S240
G01 X151.3905 Y14.8474 Z-5.3500
M107
M106 S240
G01 X151.3522 Y14.7789 Z-5.3250
M107
M106 S240
G01 X151.3086 Y14.7136 Z-5.3000
M107
M106 S240
G01 X151.2599 Y14.6519 Z-5.2750
M107
M106 S240
G01 X151.2066 Y14.5943 Z-5.2500
M107
M106 S240
G01 X151.1490 Y14.5410 Z-5.2250
M107
M106 S240
G01 X151.0873 Y14.4924 Z-5.2000
M107
M106 S240
G01 X151.0220 Y14.4487 Z-5.1750
M107
M106 S240
G01 X150.9535 Y14.4104 Z-5.1500
M107
M106 S240
G01 X150.8822 Y14.3775 Z-5.1250
M107
M106 S240
G01 X150.8086 Y14.3503 Z-5.1000
M107
M106 S240
G01 X150.7330 Y14.3290 Z-5.0750
M107
M106 S240
G01 X150.6560 Y14.3137 Z-5.0500
M107
M106 S240
G01 X150.5780 Y14.3045 Z-5.0250
M107
M106 S240
G01 X150.4995 Y14.3014 Z-5.0000
M107
G00 Z2.0000


;No. 2: Hole 26
G00 X121.4519 Y35.4471 Z2.0000
G00 Z0.5000
G01 Z0.0000 F400
G01 Z-1.2000
M106 S240
G01 X100.6526 F1000
G01 Y36.9471
G01 X121.4519
G01 Y38.4471
G01 X119.1984
G01 X119.1987 Y39.9471
G01 X121.4519
G01 Y41.4471
G01 X119.1987
G01 Y42.9471
G01 X121.4519
G01 Y44.4471
G01 X119.1987
M107
G00 Z2.0000
G00 X102.9060 Y36.9471
G00 Z0.5000
G01 Z-1.2000 F400
M106 S240
G01 Y38.4471 F1000
G01 X100.6526
G01 Y39.9471
G01 X102.9057
G01 Y41.4471
G01 X100.6526
G01 Y42.9471
G01 X102.9057
G01 Y44.4471
G01 X100.6526
G01 X100.4526 Y44.4297
G01 Y45.4671
G01 X103.1057
G01 Y38.4550
G01 X103.1088 Y38.3766
G01 X103.1180 Y38.2986
G01 X103.1333 Y38.2216
G01 X103.1546 Y38.1460
G01 X103.1818 Y38.0723
G01 X103.2147 Y38.0010
G01 X103.2531 Y37.9325
G01 X103.2967 Y37.8672
G01 X103.3453 Y37.8056
G01 X103.3986 Y37.7479
G01 X103.4562 Y37.6946
G01 X103.5179 Y37.6460
G01 X103.5832 Y37.6024
G01 X103.6517 Y37.5640
G01 X103.7230 Y37.5311
G01 X103.7967 Y37.5040
G01 X103.8722 Y37.4827
G01 X103.9493 Y37.4673
G01 X104.0272 Y37.4581
G01 X104.1057 Y37.4550
G01 X117.9987
G01 X118.0772 Y37.4581
G01 X118.1552 Y37.4673
G01 X118.2322 Y37.4827
G01 X118.3078 Y37.5040
G01 X118.3814 Y37.5311
G01 X118.4527 Y37.5640
G01 X118.5212 Y37.6024
G01 X118.5865 Y37.6460
G01 X118.6482 Y37.6946
G01 X118.7058 Y37.7479
G01 X118.7591 Y37.8056
G01 X118.8078 Y37.8672
G01 X118.8514 Y37.9325
G01 X118.8897 Y38.0010
G01 X118.9226 Y38.0723
G01 X118.9498 Y38.1460
G01 X118.9711 Y38.2216
G01 X118.9864 Y38.2986
G01 X118.9957 Y38.3766
G01 X118.9987 Y38.4550
G01 Y45.4671
G01 X121.6519
G01 Y34.4271
G01 X100.4526
G01 Y44.4297
G01 X100.6526 Y44.4471
M107
G00 Z2.0000


;No. 3: Hole 25
G00 X128.4932 Y52.2031 Z2.0000
G00 Z0.5000
G01 Z0.0000 F400
G01 Z-1.2000
M106 S240
G01 X132.1221 F1000
G01 X133.5108 Y50.7031
G01 X129.8820
G01 X130.3272
G01 Y49.2031
G01 X134.8995
G01 X136.2883 Y47.7031
G01 X130.3272
G01 Y46.2031
G01 X137.6770
G01 X139.0657 Y44.7031
G01 X135.4369
G01 X136.8256 Y43.2031
G01 X140.4545
G01 X141.8432 Y41.7031
G01 X138.2143
G01 X139.6031 Y40.2031
G01 X143.2668
G01 X140.9918 Y38.7031
G01 X147.4176
G01 Y37.2031
G01 X142.3805
G01 X143.7693 Y35.7031
G01 X147.4176
G01 X144.6633 Y40.2031
G01 X147.4176
G01 Y41.7031
G01 X145.1645
G01 Y43.2031
G01 X147.4176
G01 Y44.7031
G01 X145.1645
G01 Y46.2031
G01 X147.4176
G01 Y47.7031
G01 X145.1645
G01 Y49.2031
G01 X147.4176
G01 Y50.7031
G01 X145.1645
G01 Y52.2031
G01 X147.4176
M107
G00 Z2.0000
G00 X132.5803 Y46.2031
G00 Z0.5000
G01 Z-1.2000 F400
M106 S240
G01 Y44.7031 F1000
G01 X130.3272
G01 Y43.2031
G01 X132.5803
G01 Y41.7031
G01 X130.3272
G01 Y40.2031
G01 X132.5803
G01 Y38.7031
G01 X130.3272
G01 Y37.2031
G01 X132.5803
G01 Y35.7031
G01 X130.3272
G01 X130.1272 Y35.7173
G01 Y49.7520
G01 X130.1228 Y49.8452
G01 X130.1098 Y49.9376
G01 X130.0882 Y50.0284
G01 X130.0583 Y50.1168
G01 X130.0202 Y50.2020
G01 X129.9743 Y50.2833
G01 X129.9211 Y50.3600
G01 X129.8610 Y50.4314
G01 X127.0393 Y53.4792
G01 X131.2132
G01 X143.2307 Y40.4988
G01 X143.2914 Y40.4386
G01 X143.3571 Y40.3838
G01 X143.4271 Y40.3348
G01 X143.5011 Y40.2920
G01 X143.5785 Y40.2557
G01 X143.6587 Y40.2261
G01 X143.7412 Y40.2034
G01 X143.8253 Y40.1879
G01 X143.9104 Y40.1796
G01 X143.9959 Y40.1787
G01 X144.0811 Y40.1850
G01 X144.1655 Y40.1986
G01 X144.2485 Y40.2193
G01 X144.3293 Y40.2471
G01 X144.4075 Y40.2817
G01 X144.4825 Y40.3228
G01 X144.5537 Y40.3702
G01 X144.6205 Y40.4234
G01 X144.6826 Y40.4822
G01 X144.7394 Y40.5461
G01 X144.7906 Y40.6146
G01 X144.8357 Y40.6873
G01 X144.8745 Y40.7635
G01 X144.9066 Y40.8427
G01 X144.9318 Y40.9244
G01 X144.9499 Y41.0080
G01 X144.9609 Y41.0928
G01 X144.9645 Y41.1782
G01 Y53.4792
G01 X147.6176
G01 Y34.4271
G01 X144.6781
G01 X134.5141 Y45.4054
G01 X134.4821 Y45.4385
G01 X134.4485 Y45.4700
G01 X134.4136 Y45.5000
G01 X134.3773 Y45.5283
G01 X134.3397 Y45.5549
G01 X134.3010 Y45.5798
G01 X134.2611 Y45.6029
G01 X134.2202 Y45.6241
G01 X134.1784 Y45.6434
G01 X134.1358 Y45.6607
G01 X134.0924 Y45.6761
G01 X134.0483 Y45.6895
G01 X134.0037 Y45.7008
G01 X133.9585 Y45.7100
G01 X133.9131 Y45.7172
G01 X133.8673 Y45.7222
G01 X133.8213 Y45.7252
G01 X133.7753 Y45.7260
G01 X133.7293 Y45.7247
G01 X133.6833 Y45.7213
G01 X133.6376 Y45.7158
G01 X133.5922 Y45.7082
G01 X133.5472 Y45.6985
G01 X133.5027 Y45.6867
G01 X133.4587 Y45.6729
G01 X133.4155 Y45.6571
G01 X133.3730 Y45.6393
G01 X133.3314 Y45.6196
G01 X133.2907 Y45.5980
G01 X133.2511 Y45.5745
G01 X133.2126 Y45.5493
G01 X133.1753 Y45.5223
G01 X133.1393 Y45.4936
G01 X133.1047 Y45.4632
G01 X133.0714 Y45.4314
G01 X133.0397 Y45.3980
G01 X133.0096 Y45.3632
G01 X132.9811 Y45.3270
G01 X132.9542 Y45.2896
G01 X132.9292 Y45.2510
G01 X132.9059 Y45.2112
G01 X132.8845 Y45.1704
G01 X132.8650 Y45.1287
G01 X132.8474 Y45.0862
G01 X132.8318 Y45.0428
G01 X132.8183 Y44.9988
G01 X132.8067 Y44.9543
G01 X132.7972 Y44.9092
G01 X132.7899 Y44.8638
G01 X132.7846 Y44.8180
G01 X132.7814 Y44.7721
G01 X132.7803 Y44.7260
G01 Y34.4271
G01 X130.1272
G01 Y35.7173
G01 X130.3272 Y35.7031
M107
G00 Z2.0000


;No. 4: Hole 27
G00 X120.8530 Y51.9662 Z2.0000
G00 Z0.5000
G01 Z0.0000 F400
G01 Z-1.2000
M106 S240
G01 X101.2402 F1000
G01 X101.0832 Y51.8414
G01 X100.9653 Y52.0274
G01 X100.8590 Y52.2202
G01 X100.7646 Y52.4192
G01 X100.6825 Y52.6235
G01 X100.6131 Y52.8324
G01 X100.5564 Y53.0452
G01 X100.5129 Y53.2611
G01 X100.4826 Y53.4792
G01 X121.6221
G01 X121.5720 Y53.1413
G01 X121.4882 Y52.8101
G01 X121.3716 Y52.4890
G01 X121.2234 Y52.1812
G01 X121.0452 Y51.8898
G01 X120.8386 Y51.6177
G01 X120.6057 Y51.3677
G01 X120.3490 Y51.1423
G01 X120.0710 Y50.9438
G01 X119.7745 Y50.7742
G01 X119.4624 Y50.6352
G01 X119.1380 Y50.5281
G01 X119.0551 Y50.5103
G01 X118.9716 Y50.4949
G01 X118.8878 Y50.4820
G01 X118.8037 Y50.4714
G01 X118.7192 Y50.4632
G01 X118.6346 Y50.4575
G01 X118.5498 Y50.4541
G01 X118.4650 Y50.4533
G01 X103.6422
G01 X103.3892 Y50.4619
G01 X103.1378 Y50.4917
G01 X102.8898 Y50.5426
G01 X102.6470 Y50.6142
G01 X102.4110 Y50.7059
G01 X102.1836 Y50.8171
G01 X101.9664 Y50.9471
G01 X101.7608 Y51.0949
G01 X101.5684 Y51.2594
G01 X101.3905 Y51.4396
G01 X101.2284 Y51.6340
G01 X101.0832 Y51.8414
G01 X101.2402 Y51.9662
M107
G00 Z2.0000


;No. 5: Hole 24
G00 X152.5822 Y52.2031 Z2.0000
G00 Z0.5000
G01 Z0.0000 F400
G01 Z-1.2000
M106 S240
G01 X154.8372 F1000
G01 Y50.7031
G01 X152.5822
G01 Y49.2031
G01 X154.8372
G01 Y47.7031
G01 X152.5822
G01 Y46.2031
G01 X154.8372
G01 Y44.7031
G01 X152.5822
G01 Y43.2031
G01 X154.8372
G01 Y41.7031
G01 X152.5822
G01 Y40.2031
G01 X154.8372
G01 Y38.7031
G01 X152.5822
G01 Y37.2031
G01 X173.3134
G01 X172.5999 Y35.7031
G01 X152.5822
G01 X152.3822 Y35.7176
G01 Y53.4792
G01 X155.0372
G01 Y38.4550
G01 X155.0404 Y38.3761
G01 X155.0497 Y38.2976
G01 X155.0652 Y38.2201
G01 X155.0868 Y38.1441
G01 X155.1143 Y38.0700
G01 X155.1476 Y37.9984
G01 X155.1864 Y37.9295
G01 X155.2306 Y37.8640
G01 X155.2798 Y37.8022
G01 X155.3337 Y37.7444
G01 X155.3920 Y37.6911
G01 X155.4543 Y37.6425
G01 X155.5203 Y37.5990
G01 X155.5895 Y37.5608
G01 X155.6615 Y37.5283
G01 X155.7358 Y37.5015
G01 X155.8121 Y37.4807
G01 X155.8897 Y37.4659
G01 X155.9682 Y37.4574
G01 X156.0472 Y37.4550
G01 X173.5534
G01 X173.5031 Y37.1170
G01 X173.4192 Y36.7858
G01 X173.3025 Y36.4646
G01 X173.1543 Y36.1567
G01 X172.9759 Y35.8653
G01 X172.7694 Y35.5931
G01 X172.5365 Y35.3429
G01 X172.2799 Y35.1174
G01 X172.0019 Y34.9186
G01 X171.7054 Y34.7487
G01 X171.3934 Y34.6094
G01 X171.0691 Y34.5019
G01 X170.9861 Y34.4841
G01 X170.9028 Y34.4688
G01 X170.8190 Y34.4558
G01 X170.7348 Y34.4452
G01 X170.6504 Y34.4370
G01 X170.5658 Y34.4313
G01 X170.4811 Y34.4280
G01 X170.3963 Y34.4271
G01 X152.3822
G01 Y35.7176
G01 X152.5822 Y35.7031
M107
G00 Z2.0000


;No. 6: Hole 23
G00 X178.5480 Y50.7031 Z2.0000
G00 Z0.5000
G01 Z0.0000 F400
G01 Z-1.2000
M106 S240
G01 X181.7316 F1000
G01 X180.8011
G01 Y52.2031
G01 X178.5480
G01 X179.4915 Y49.2031
G01 X183.1203
G01 X184.5091 Y47.7031
G01 X180.8802
G01 X182.2690 Y46.2031
G01 X185.8978
G01 X187.2865 Y44.7031
G01 X183.6577
G01 X185.0464 Y43.2031
G01 X192.8489
G01 X191.4602 Y41.7031
G01 X186.4352
G01 X187.7258 Y40.2031
G01 X190.1695
G01 X190.0742 Y38.7031
G01 X187.8211
G01 Y37.2031
G01 X190.0742
G01 Y35.7031
G01 X187.8211
M107
G00 Z2.0000
G00 X190.6104 Y43.2031
G00 Z0.5000
G01 Z-1.2000 F400
M106 S240
G01 Y44.7031 F1000
G01 X194.2376
G01 X195.6264 Y46.2031
G01 X191.9988
G01 X193.3872 Y47.7031
G01 X197.0151
G01 X198.4038 Y49.2031
G01 X194.7755
G01 X196.1639 Y50.7031
G01 X199.3473
G01 Y52.2031
G01 X197.0942
G01 X196.8942 Y52.3539
G01 Y53.4792
G01 X199.5473
G01 Y50.1438
G01 X190.5404 Y40.4153
G01 X190.4803 Y40.3439
G01 X190.4271 Y40.2673
G01 X190.3812 Y40.1860
G01 X190.3432 Y40.1008
G01 X190.3132 Y40.0124
G01 X190.2916 Y39.9216
G01 X190.2786 Y39.8291
G01 X190.2742 Y39.7359
G01 Y34.4271
G01 X187.6211
G01 Y39.7359
G01 X187.6200 Y39.7826
G01 X187.6167 Y39.8291
G01 X187.6113 Y39.8755
G01 X187.6037 Y39.9216
G01 X187.5940 Y39.9672
G01 X187.5821 Y40.0124
G01 X187.5682 Y40.0569
G01 X187.5522 Y40.1008
G01 X187.5341 Y40.1438
G01 X187.5141 Y40.1860
G01 X187.4921 Y40.2271
G01 X187.4683 Y40.2673
G01 X187.4425 Y40.3062
G01 X187.4150 Y40.3439
G01 X187.3858 Y40.3803
G01 X187.3549 Y40.4153
G01 X178.3480 Y50.1438
G01 Y53.4792
G01 X181.0011
G01 Y52.1783
G01 X181.0055 Y52.0851
G01 X181.0185 Y51.9927
G01 X181.0401 Y51.9019
G01 X181.0701 Y51.8135
G01 X181.1081 Y51.7283
G01 X181.1540 Y51.6470
G01 X181.2072 Y51.5703
G01 X181.2673 Y51.4990
G01 X188.2148 Y43.9949
G01 X188.2732 Y43.9368
G01 X188.3362 Y43.8837
G01 X188.4033 Y43.8360
G01 X188.4742 Y43.7939
G01 X188.5482 Y43.7579
G01 X188.6250 Y43.7280
G01 X188.7040 Y43.7046
G01 X188.7846 Y43.6878
G01 X188.8664 Y43.6776
G01 X188.9487 Y43.6742
G01 X189.0310 Y43.6776
G01 X189.1127 Y43.6878
G01 X189.1933 Y43.7047
G01 X189.2723 Y43.7281
G01 X189.3491 Y43.7579
G01 X189.4231 Y43.7940
G01 X189.4940 Y43.8361
G01 X189.5611 Y43.8838
G01 X189.6241 Y43.9369
G01 X189.6825 Y43.9950
G01 X196.6281 Y51.4991
G01 X196.6772 Y51.5582
G01 X196.7221 Y51.6207
G01 X196.7624 Y51.6862
G01 X196.7979 Y51.7544
G01 X196.8284 Y51.8250
G01 X196.8539 Y51.8976
G01 X196.8741 Y51.9718
G01 X196.8890 Y52.0473
G01 X196.8985 Y52.1236
G01 X196.9025 Y52.2004
G01 X196.9011 Y52.2773
G01 X196.8942 Y52.3539
G01 X197.0942 Y52.2031
M107
G00 Z2.0000


;No. 7: Hole 22
G00 X209.2139 Y64.4217 Z2.0000
G00 Z0.5000
G01 Z0.0000 F400
G01 Z-1.2000
M106 S240
G01 X229.0220 F1000
G01 Y65.9217
G01 X208.3518
G01 X208.2226 Y67.4217
G01 X210.8899
G01 X210.4759
G01 Y68.9217
G01 X208.2226
G01 Y70.4217
G01 X210.4759
G01 Y71.9217
G01 X208.2226
G01 Y73.4217
G01 X210.4759
M107
G00 Z2.0000
G00 X226.7686 Y65.9217
G00 Z0.5000
G01 Z-1.2000 F400
M106 S240
G01 Y67.4217 F1000
G01 X229.0220
G01 Y68.9217
G01 X226.7689
G01 X226.7687 Y70.4217
G01 X229.0220
G01 Y71.9217
G01 X217.3290
G01 X215.9534 Y73.4217
G01 X229.0220
G01 X229.2220 Y73.4043
G01 Y63.4016
G01 X211.2121
G01 X210.9040 Y63.4181
G01 X210.5990 Y63.4650
G01 X210.3002 Y63.5420
G01 X210.0105 Y63.6483
G01 X209.7327 Y63.7827
G01 X209.4697 Y63.9441
G01 X209.2240 Y64.1308
G01 X208.9981 Y64.3410
G01 X208.7941 Y64.5725
G01 X208.6141 Y64.8232
G01 X208.4599 Y65.0904
G01 X208.3329 Y65.3717
G01 X208.2594 Y65.5569
G01 X208.1955 Y65.7457
G01 X208.1414 Y65.9376
G01 X208.0974 Y66.1320
G01 X208.0634 Y66.3284
G01 X208.0395 Y66.5263
G01 X208.0259 Y66.7251
G01 X208.0226 Y66.9244
G01 Y74.4416
G01 X210.6759 Y74.4417
G01 Y68.9003
G01 X210.6751 Y68.7641
G01 X210.6821 Y68.6281
G01 X210.6968 Y68.4926
G01 X210.7192 Y68.3583
G01 X210.7493 Y68.2254
G01 X210.7869 Y68.0944
G01 X210.8319 Y67.9658
G01 X210.8841 Y67.8400
G01 X210.9434 Y67.7174
G01 X211.0096 Y67.5983
G01 X211.0825 Y67.4832
G01 X211.1619 Y67.3725
G01 X211.2474 Y67.2664
G01 X211.3388 Y67.1654
G01 X211.4359 Y67.0698
G01 X211.5382 Y66.9799
G01 X211.6455 Y66.8959
G01 X211.7574 Y66.8182
G01 X211.8735 Y66.7470
G01 X211.9936 Y66.6826
G01 X212.1171 Y66.6251
G01 X212.2436 Y66.5747
G01 X212.3729 Y66.5316
G01 X212.5044 Y66.4959
G01 X212.6377 Y66.4679
G01 X212.7724 Y66.4474
G01 X212.9080 Y66.4347
G01 X213.0441 Y66.4297
G01 X225.5689
G01 X225.6474 Y66.4328
G01 X225.7254 Y66.4420
G01 X225.8024 Y66.4573
G01 X225.8779 Y66.4786
G01 X225.9516 Y66.5058
G01 X226.0229 Y66.5387
G01 X226.0914 Y66.5770
G01 X226.1567 Y66.6207
G01 X226.2184 Y66.6693
G01 X226.2760 Y66.7226
G01 X226.3293 Y66.7802
G01 X226.3779 Y66.8419
G01 X226.4216 Y66.9072
G01 X226.4599 Y66.9757
G01 X226.4928 Y67.0470
G01 X226.5200 Y67.1207
G01 X226.5413 Y67.1962
G01 X226.5566 Y67.2732
G01 X226.5658 Y67.3512
G01 X226.5689 Y67.4297
G01 Y70.4158
G01 X226.5658 Y70.4942
G01 X226.5566 Y70.5722
G01 X226.5413 Y70.6492
G01 X226.5200 Y70.7248
G01 X226.4928 Y70.7985
G01 X226.4599 Y70.8698
G01 X226.4216 Y70.9383
G01 X226.3779 Y71.0036
G01 X226.3293 Y71.0652
G01 X226.2760 Y71.1229
G01 X226.2184 Y71.1762
G01 X226.1567 Y71.2248
G01 X226.0914 Y71.2684
G01 X226.0229 Y71.3068
G01 X225.9516 Y71.3397
G01 X225.8779 Y71.3668
G01 X225.8024 Y71.3882
G01 X225.7254 Y71.4035
G01 X225.6474 Y71.4127
G01 X225.5689 Y71.4158
G01 X223.8043 Y71.3942
G01 X222.0395 Y71.3874
G01 X220.2748 Y71.3953
G01 X218.5102 Y71.4178
G01 X218.2130 Y71.4452
G01 X217.9198 Y71.5010
G01 X217.6333 Y71.5845
G01 X217.3561 Y71.6951
G01 X217.0907 Y71.8317
G01 X216.8397 Y71.9931
G01 X216.6052 Y72.1777
G01 X216.3895 Y72.3840
G01 X216.1946 Y72.6100
G01 X216.0221 Y72.8535
G01 X215.8738 Y73.1125
G01 X215.7509 Y73.3845
G01 X215.6517 Y73.6394
G01 X215.5714 Y73.9009
G01 X215.5105 Y74.1676
G01 X215.4693 Y74.4381
G01 X229.2220 Y74.4417
G01 Y73.4043
G01 X229.0220 Y73.4217
M107
G00 Z2.0000


;No. 8: Hole 21
G00 X228.4234 Y80.9417 Z2.0000
G00 Z0.5000
G01 Z0.0000 F400
G01 Z-1.2000
M106 S240
G01 X208.2226 F1000
G01 X208.0226
G01 Y82.4557
G01 X229.1920
G01 X229.1420 Y82.1176
G01 X229.0584 Y81.7862
G01 X228.9419 Y81.4648
G01 X228.7939 Y81.1568
G01 X228.6156 Y80.8652
G01 X228.4090 Y80.5929
G01 X228.1761 Y80.3427
G01 X227.9194 Y80.1172
G01 X227.6412 Y79.9185
G01 X227.3446 Y79.7488
G01 X227.0324 Y79.6096
G01 X226.7078 Y79.5025
G01 X226.6244 Y79.4847
G01 X226.5405 Y79.4692
G01 X226.4562 Y79.4562
G01 X226.3716 Y79.4456
G01 X226.2866 Y79.4375
G01 X226.2015 Y79.4318
G01 X226.1163 Y79.4285
G01 X226.0310 Y79.4277
G01 X208.0226
G01 Y80.9417
G01 X208.2226
M107
G00 Z2.0000


;No. 9: Hole 20
G00 X203.0580 Y81.1786 Z2.0000
G00 Z0.5000
G01 Z0.0000 F400
G01 Z-1.2000
M106 S240
G01 X200.8031 F1000
G01 Y79.6786
G01 X203.0580
G01 Y78.1786
G01 X200.8031
G01 Y76.6786
G01 X203.0580
G01 Y75.1786
G01 X200.8031
G01 Y73.6786
G01 X203.0580
G01 Y72.1786
G01 X200.8031
G01 Y70.6786
G01 X203.0580
G01 Y69.1786
G01 X200.3034
G01 X203.0580 Y67.6786
G01 X196.6302
G01 X198.0186 Y66.1786
G01 X203.0580
G01 Y64.6786
G01 X199.4071
G01 X198.9039 Y69.1786
G01 X195.2417
G01 X193.8532 Y70.6786
G01 X197.4810
G01 X196.0925 Y72.1786
G01 X192.4647
G01 X191.0762 Y73.6786
G01 X194.7039
G01 X193.3154 Y75.1786
G01 X185.9657
G01 Y73.6786
G01 X188.2207
G01 Y72.1786
G01 X185.9657
G01 Y70.6786
G01 X188.2207
G01 Y69.1786
G01 X185.9657
G01 Y67.6786
G01 X188.2207
G01 Y66.1786
G01 X185.9657
G01 Y64.6786
G01 X188.2207
M107
G00 Z2.0000
G00 X185.9657 Y75.1786
G00 Z0.5000
G01 Z-1.2000 F400
M106 S240
G01 Y76.6786 F1000
G01 X191.9269
G01 X190.5384 Y78.1786
G01 X185.9657
G01 Y79.6786
G01 X185.5196
G01 X189.1499
G01 X187.7613 Y81.1786
G01 X184.1315
G01 X183.9857 Y81.0417
G01 X182.6772 Y82.4557
G01 X186.8517
G01 X198.8692 Y69.4734
G01 X198.9013 Y69.4403
G01 X198.9348 Y69.4088
G01 X198.9698 Y69.3788
G01 X199.0061 Y69.3505
G01 X199.0436 Y69.3238
G01 X199.0824 Y69.2989
G01 X199.1222 Y69.2759
G01 X199.1631 Y69.2547
G01 X199.2049 Y69.2354
G01 X199.2476 Y69.2180
G01 X199.2910 Y69.2026
G01 X199.3350 Y69.1893
G01 X199.3797 Y69.1780
G01 X199.4248 Y69.1687
G01 X199.4703 Y69.1615
G01 X199.5160 Y69.1565
G01 X199.5620 Y69.1535
G01 X199.6080 Y69.1527
G01 X199.6541 Y69.1540
G01 X199.7000 Y69.1574
G01 X199.7457 Y69.1629
G01 X199.7911 Y69.1705
G01 X199.8361 Y69.1802
G01 X199.8807 Y69.1920
G01 X199.9246 Y69.2058
G01 X199.9678 Y69.2216
G01 X200.0103 Y69.2394
G01 X200.0519 Y69.2591
G01 X200.0926 Y69.2807
G01 X200.1322 Y69.3042
G01 X200.1707 Y69.3294
G01 X200.2080 Y69.3564
G01 X200.2440 Y69.3851
G01 X200.2787 Y69.4155
G01 X200.3119 Y69.4473
G01 X200.3436 Y69.4807
G01 X200.3738 Y69.5155
G01 X200.4023 Y69.5517
G01 X200.4291 Y69.5891
G01 X200.4542 Y69.6278
G01 X200.4775 Y69.6675
G01 X200.4989 Y69.7083
G01 X200.5184 Y69.7500
G01 X200.5359 Y69.7925
G01 X200.5515 Y69.8359
G01 X200.5651 Y69.8799
G01 X200.5767 Y69.9245
G01 X200.5861 Y69.9695
G01 X200.5935 Y70.0150
G01 X200.5988 Y70.0607
G01 X200.6020 Y70.1067
G01 X200.6031 Y70.1527
G01 Y82.4557
G01 X203.2580
G01 Y63.4016
G01 X200.3167
G01 X190.1546 Y74.3799
G01 X190.1225 Y74.4129
G01 X190.0890 Y74.4445
G01 X190.0540 Y74.4745
G01 X190.0177 Y74.5028
G01 X189.9802 Y74.5294
G01 X189.9414 Y74.5543
G01 X189.9016 Y74.5774
G01 X189.8607 Y74.5986
G01 X189.8189 Y74.6179
G01 X189.7762 Y74.6352
G01 X189.7328 Y74.6506
G01 X189.6888 Y74.6640
G01 X189.6441 Y74.6753
G01 X189.5990 Y74.6845
G01 X189.5535 Y74.6917
G01 X189.5077 Y74.6968
G01 X189.4618 Y74.6997
G01 X189.4157 Y74.7005
G01 X189.3697 Y74.6993
G01 X189.3238 Y74.6958
G01 X189.2781 Y74.6903
G01 X189.2327 Y74.6827
G01 X189.1876 Y74.6730
G01 X189.1431 Y74.6613
G01 X189.0992 Y74.6475
G01 X189.0559 Y74.6316
G01 X189.0135 Y74.6139
G01 X188.9718 Y74.5941
G01 X188.9312 Y74.5725
G01 X188.8916 Y74.5491
G01 X188.8531 Y74.5238
G01 X188.8158 Y74.4968
G01 X188.7797 Y74.4681
G01 X188.7451 Y74.4378
G01 X188.7119 Y74.4059
G01 X188.6801 Y74.3725
G01 X188.6500 Y74.3377
G01 X188.6215 Y74.3016
G01 X188.5947 Y74.2641
G01 X188.5696 Y74.2255
G01 X188.5463 Y74.1858
G01 X188.5249 Y74.1450
G01 X188.5054 Y74.1033
G01 X188.4878 Y74.0607
G01 X188.4722 Y74.0174
G01 X188.4587 Y73.9734
G01 X188.4471 Y73.9288
G01 X188.4376 Y73.8837
G01 X188.4303 Y73.8383
G01 X188.4250 Y73.7925
G01 X188.4218 Y73.7466
G01 X188.4207 Y73.7006
G01 Y63.4016
G01 X185.7657
G01 Y78.7265
G01 X185.7647 Y78.7732
G01 X185.7614 Y78.8197
G01 X185.7560 Y78.8661
G01 X185.7484 Y78.9121
G01 X185.7386 Y78.9577
G01 X185.7268 Y79.0029
G01 X185.7129 Y79.0474
G01 X185.6969 Y79.0913
G01 X185.6788 Y79.1343
G01 X185.6588 Y79.1764
G01 X185.6368 Y79.2176
G01 X185.6130 Y79.2577
G01 X185.5873 Y79.2967
G01 X185.5598 Y79.3344
G01 X185.5306 Y79.3708
G01 X185.4997 Y79.4057
G01 X183.9857 Y81.0417
G01 X184.1315 Y81.1786
M107
G00 Z2.0000


;No. 10: Hole 18
G00 X177.0923 Y81.1786 Z2.0000
G00 Z0.5000
G01 Z0.0000 F400
G01 Z-1.2000
M106 S240
G01 X174.8391 F1000
G01 Y79.6786
G01 X177.0923
G01 Y78.1786
G01 X174.8391
G01 Y76.6786
G01 X177.0923
G01 Y75.1786
G01 X174.8391
G01 Y73.6786
G01 X177.0923
G01 Y72.1786
G01 X174.8391
G01 Y70.6786
G01 X177.0923
G01 Y69.1786
G01 X174.8391
G01 Y67.6786
G01 X177.0923
G01 Y66.1786
G01 X174.8391
G01 Y64.6786
G01 X177.0923
G01 X177.2923 Y64.6931
G01 Y63.4016
G01 X174.6391
G01 Y82.4557
G01 X177.2923
G01 Y64.6931
G01 X177.0923 Y64.6786
M107
G00 Z2.0000


;No. 11: Hole 19
G00 X167.7987 Y64.6786 Z2.0000
G00 Z0.5000
G01 Z0.0000 F400
G01 Z-1.2000
M106 S240
G01 X164.1701 F1000
G01 X162.7817 Y66.1786
G01 X166.4100
G01 X165.0213 Y67.6786
G01 X161.3932
G01 X160.0047 Y69.1786
G01 X163.6325
G01 X162.2438 Y70.6786
G01 X158.6163
G01 X157.2278 Y72.1786
G01 X160.8592
G01 X160.8545 Y73.6786
G01 X157.2262
G01 X158.6149 Y75.1786
G01 X162.2187
G01 X163.6325 Y76.6786
G01 X160.0037
G01 X161.3924 Y78.1786
G01 X165.0212
G01 X166.4100 Y79.6786
G01 X162.7811
G01 X164.1699 Y81.1786
G01 X167.7987
G01 X167.9402 Y81.0371
G01 X162.7414 Y75.4217
G01 X162.2704 Y74.9505
G01 X161.8134 Y74.4658
G01 X161.3707 Y73.9680
G01 X160.9427 Y73.4575
G01 X160.9028 Y73.3867
G01 X160.8688 Y73.3129
G01 X160.8409 Y73.2365
G01 X160.8193 Y73.1582
G01 X160.8041 Y73.0784
G01 X160.7954 Y72.9976
G01 X160.7934 Y72.9163
G01 X160.7979 Y72.8352
G01 X160.8090 Y72.7547
G01 X160.8267 Y72.6753
G01 X160.8507 Y72.5977
G01 X160.8809 Y72.5223
G01 X160.9171 Y72.4495
G01 X160.9592 Y72.3800
G01 X161.0067 Y72.3141
G01 X161.0595 Y72.2523
G01 X169.2536 Y63.4016
G01 X165.0797
G01 X156.2602 Y72.9296
G01 X165.0796 Y82.4557
G01 X169.2536
G01 X167.9402 Y81.0371
G01 X167.7987 Y81.1786
M107
G00 Z2.0000


;No. 12: Hole 17
G00 X151.1265 Y81.1786 Z2.0000
G00 Z0.5000
G01 Z0.0000 F400
G01 Z-1.2000
M106 S240
G01 X148.8734 F1000
G01 Y79.6786
G01 X151.1265
G01 Y78.1786
G01 X148.8734
G01 Y76.6786
G01 X151.1265
G01 Y75.1786
G01 X148.8734
G01 Y73.6786
G01 X151.1265
G01 Y72.1786
G01 X148.8734
G01 Y70.6786
G01 X151.1265
G01 Y69.1786
G01 X148.8734
G01 Y67.6786
G01 X151.1265
G01 Y66.1786
G01 X148.8734
G01 Y64.6786
G01 X151.1265
G01 X151.3265 Y64.6931
G01 Y63.4016
G01 X148.6734
G01 Y82.4557
G01 X151.3265
G01 Y64.6931
G01 X151.1265 Y64.6786
M107
G00 Z2.0000


;No. 13: Hole 16
G00 X141.8333 Y64.6786 Z2.0000
G00 Z0.5000
G01 Z0.0000 F400
G01 Z-1.2000
M106 S240
G01 X138.2045 F1000
G01 X136.8158 Y66.1786
G01 X140.4446
G01 X139.0559 Y67.6786
G01 X135.4270
G01 X134.0383 Y69.1786
G01 X137.6671
G01 X136.9872
G01 Y70.6786
G01 X132.6496
G01 Y72.1786
G01 X122.9080
G01 X142.4041
G01 X143.4979 Y73.6786
G01 X122.9080
G01 X140.8358
G01 Y75.1786
G01 X143.7091
G01 Y76.6786
G01 X141.4451
G01 X141.4560 Y78.1786
G01 X143.7091
G01 Y79.6786
G01 X125.3377
G01 X123.3495 Y81.1786
G01 X143.7091
M107
G00 Z2.0000
G00 X125.1927 Y72.1786
G00 Z0.5000
G01 Z-1.2000 F400
M106 S240
G01 Y70.6786 F1000
G01 X122.9080
G01 Y69.1786
G01 X125.1630
G01 Y67.6786
G01 X122.9080
G01 Y66.1786
G01 X125.1630
G01 Y64.6786
G01 X122.9080
G01 X122.7080 Y64.6922
G01 Y74.4417
G01 X138.9039
G01 X139.0391 Y74.4496
G01 X139.1737 Y74.4650
G01 X139.3072 Y74.4879
G01 X139.4393 Y74.5183
G01 X139.5694 Y74.5560
G01 X139.6972 Y74.6008
G01 X139.8223 Y74.6528
G01 X139.9444 Y74.7116
G01 X140.0629 Y74.7771
G01 X140.1776 Y74.8492
G01 X140.2882 Y74.9276
G01 X140.3941 Y75.0120
G01 X140.4952 Y75.1021
G01 X140.5911 Y75.1978
G01 X140.6815 Y75.2987
G01 X140.7662 Y75.4045
G01 X140.8448 Y75.5148
G01 X140.9171 Y75.6293
G01 X140.9830 Y75.7477
G01 X141.0421 Y75.8696
G01 X141.0943 Y75.9946
G01 X141.1395 Y76.1224
G01 X141.1774 Y76.2524
G01 X141.2081 Y76.3844
G01 X141.2313 Y76.5178
G01 X141.2471 Y76.6524
G01 X141.2553 Y76.7876
G01 X141.2560 Y76.9231
G01 Y78.4278
G01 X141.2529 Y78.5062
G01 X141.2437 Y78.5842
G01 X141.2284 Y78.6612
G01 X141.2071 Y78.7368
G01 X141.1799 Y78.8104
G01 X141.1470 Y78.8817
G01 X141.1086 Y78.9502
G01 X141.0650 Y79.0155
G01 X141.0164 Y79.0772
G01 X140.9631 Y79.1349
G01 X140.9055 Y79.1882
G01 X140.8438 Y79.2368
G01 X140.7785 Y79.2804
G01 X140.7100 Y79.3188
G01 X140.6387 Y79.3516
G01 X140.5650 Y79.3788
G01 X140.4894 Y79.4001
G01 X140.4124 Y79.4154
G01 X140.3345 Y79.4247
G01 X140.2560 Y79.4277
G01 X125.8993 Y79.4278
G01 X125.5846 Y79.4457
G01 X125.2734 Y79.4952
G01 X124.9688 Y79.5758
G01 X124.6738 Y79.6867
G01 X124.3915 Y79.8267
G01 X124.1247 Y79.9944
G01 X123.8761 Y80.1881
G01 X123.6484 Y80.4059
G01 X123.4436 Y80.6454
G01 X123.2641 Y80.9044
G01 X123.1115 Y81.1801
G01 X122.9875 Y81.4698
G01 X122.8999 Y81.7084
G01 X122.8287 Y81.9524
G01 X122.7741 Y82.2006
G01 X122.7365 Y82.4520
G01 X143.9091 Y82.4557
G01 X143.9272 Y80.5474
G01 X143.9330 Y78.6390
G01 X143.9264 Y76.7306
G01 X143.9076 Y74.8223
G01 X143.8852 Y74.4613
G01 X143.8269 Y74.1042
G01 X143.7334 Y73.7548
G01 X143.6055 Y73.4164
G01 X143.4446 Y73.0924
G01 X143.2523 Y72.7860
G01 X143.0303 Y72.5003
G01 X142.7811 Y72.2382
G01 X142.5069 Y72.0021
G01 X142.2107 Y71.7945
G01 X141.8952 Y71.6175
G01 X141.5636 Y71.4728
G01 X141.4829 Y71.4497
G01 X141.4012 Y71.4305
G01 X141.3186 Y71.4154
G01 X141.2354 Y71.4042
G01 X141.1518 Y71.3970
G01 X141.0679 Y71.3939
G01 X140.9840 Y71.3949
G01 X140.9002 Y71.3999
G01 X138.1572 Y71.4157
G01 X138.0745 Y71.4123
G01 X137.9924 Y71.4020
G01 X137.9114 Y71.3850
G01 X137.8321 Y71.3614
G01 X137.7550 Y71.3313
G01 X137.6807 Y71.2949
G01 X137.6096 Y71.2525
G01 X137.5423 Y71.2043
G01 X137.4792 Y71.1508
G01 X137.4208 Y71.0922
G01 X137.3674 Y71.0290
G01 X137.3194 Y70.9616
G01 X137.2771 Y70.8905
G01 X137.2408 Y70.8161
G01 X137.2109 Y70.7390
G01 X137.1874 Y70.6596
G01 X137.1705 Y70.5786
G01 X137.1605 Y70.4965
G01 X137.1572 Y70.4138
G01 X137.1608 Y70.3311
G01 X137.1712 Y70.2490
G01 X137.1883 Y70.1680
G01 X137.2121 Y70.0888
G01 X137.2424 Y70.0118
G01 X137.2789 Y69.9375
G01 X137.3215 Y69.8665
G01 X137.3697 Y69.7993
G01 X137.4234 Y69.7363
G01 X143.2882 Y63.4016
G01 X139.1142
G01 X131.9915 Y71.0951
G01 X131.9432 Y71.1438
G01 X131.8916 Y71.1891
G01 X131.8370 Y71.2308
G01 X131.7798 Y71.2686
G01 X131.7200 Y71.3024
G01 X131.6581 Y71.3320
G01 X131.5943 Y71.3573
G01 X131.5289 Y71.3782
G01 X131.4622 Y71.3946
G01 X131.3946 Y71.4063
G01 X131.3263 Y71.4133
G01 X131.2577 Y71.4157
G01 X126.3630
G01 X126.3193 Y71.4147
G01 X126.2758 Y71.4119
G01 X126.2324 Y71.4071
G01 X126.1893 Y71.4005
G01 X126.1465 Y71.3920
G01 X126.1041 Y71.3816
G01 X126.0622 Y71.3694
G01 X126.0209 Y71.3554
G01 X125.9803 Y71.3396
G01 X125.9403 Y71.3220
G01 X125.9012 Y71.3027
G01 X125.8630 Y71.2817
G01 X125.8257 Y71.2591
G01 X125.7894 Y71.2348
G01 X125.7542 Y71.2090
G01 X125.7202 Y71.1817
G01 X125.6874 Y71.1530
G01 X125.6558 Y71.1228
G01 X125.6257 Y71.0913
G01 X125.5969 Y71.0585
G01 X125.5696 Y71.0245
G01 X125.5438 Y70.9893
G01 X125.5196 Y70.9530
G01 X125.4969 Y70.9157
G01 X125.4759 Y70.8774
G01 X125.4566 Y70.8383
G01 X125.4391 Y70.7984
G01 X125.4233 Y70.7577
G01 X125.4092 Y70.7164
G01 X125.3970 Y70.6745
G01 X125.3867 Y70.6321
G01 X125.3781 Y70.5893
G01 X125.3715 Y70.5462
G01 X125.3668 Y70.5028
G01 X125.3639 Y70.4593
G01 X125.3630 Y70.4157
G01 Y63.4016
G01 X122.7080
G01 Y64.6922
G01 X122.9080 Y64.6786
M107
G00 Z2.0000


;No. 14: Hole 15
G00 X117.7430 Y64.4216 Z2.0000
G00 Z0.5000
G01 Z0.0000 F400
G01 Z-1.2000
M106 S240
G01 X115.4899 F1000
G01 Y65.9216
G01 X117.7430
G01 Y67.4216
G01 X115.4899
G01 Y68.9216
G01 X117.7430
G01 Y70.4216
G01 X115.4896
G01 X117.7430 Y71.9216
G01 X96.9437
G01 Y70.4216
G01 X99.1971
G01 X99.1968 Y68.9216
G01 X96.9437
G01 Y67.4216
G01 X99.1968
G01 Y65.9216
G01 X96.9437
G01 Y64.4216
G01 X99.1968
M107
G00 Z2.0000
G00 X96.9437 Y71.9216
G00 Z0.5000
G01 Z-1.2000 F400
M106 S240
G01 Y73.4216 F1000
G01 X117.7430
G01 X117.9430 Y73.4042
G01 Y63.4016
G01 X115.2899
G01 Y70.4157
G01 X115.2889 Y70.4593
G01 X115.2861 Y70.5028
G01 X115.2813 Y70.5462
G01 X115.2747 Y70.5893
G01 X115.2662 Y70.6321
G01 X115.2558 Y70.6745
G01 X115.2436 Y70.7164
G01 X115.2296 Y70.7577
G01 X115.2138 Y70.7983
G01 X115.1962 Y70.8383
G01 X115.1769 Y70.8774
G01 X115.1559 Y70.9157
G01 X115.1333 Y70.9530
G01 X115.1090 Y70.9892
G01 X115.0832 Y71.0244
G01 X115.0559 Y71.0584
G01 X115.0272 Y71.0912
G01 X114.9970 Y71.1228
G01 X114.9655 Y71.1529
G01 X114.9327 Y71.1817
G01 X114.8986 Y71.2090
G01 X114.8635 Y71.2348
G01 X114.8272 Y71.2590
G01 X114.7899 Y71.2817
G01 X114.7516 Y71.3027
G01 X114.7125 Y71.3220
G01 X114.6726 Y71.3395
G01 X114.6319 Y71.3553
G01 X114.5906 Y71.3694
G01 X114.5487 Y71.3816
G01 X114.5063 Y71.3919
G01 X114.4635 Y71.4005
G01 X114.4204 Y71.4071
G01 X114.3770 Y71.4118
G01 X114.3335 Y71.4147
G01 X114.2899 Y71.4157
G01 X100.3968
G01 X100.3532 Y71.4147
G01 X100.3097 Y71.4118
G01 X100.2663 Y71.4071
G01 X100.2232 Y71.4005
G01 X100.1804 Y71.3919
G01 X100.1380 Y71.3816
G01 X100.0961 Y71.3694
G01 X100.0548 Y71.3553
G01 X100.0142 Y71.3395
G01 X99.9742 Y71.3220
G01 X99.9351 Y71.3027
G01 X99.8968 Y71.2817
G01 X99.8595 Y71.2590
G01 X99.8233 Y71.2348
G01 X99.7881 Y71.2090
G01 X99.7540 Y71.1817
G01 X99.7212 Y71.1529
G01 X99.6897 Y71.1228
G01 X99.6596 Y71.0912
G01 X99.6308 Y71.0584
G01 X99.6035 Y71.0244
G01 X99.5777 Y70.9892
G01 X99.5534 Y70.9530
G01 X99.5308 Y70.9157
G01 X99.5098 Y70.8774
G01 X99.4905 Y70.8383
G01 X99.4730 Y70.7983
G01 X99.4571 Y70.7577
G01 X99.4431 Y70.7164
G01 X99.4309 Y70.6745
G01 X99.4205 Y70.6321
G01 X99.4120 Y70.5893
G01 X99.4054 Y70.5462
G01 X99.4006 Y70.5028
G01 X99.3978 Y70.4593
G01 X99.3968 Y70.4157
G01 Y63.4016
G01 X96.7437
G01 Y74.4416
G01 X117.9430
G01 Y73.4042
G01 X117.7430 Y73.4216
M107
G00 Z2.0000


;No. 15: Hole 14
G00 X117.1447 Y80.9417 Z2.0000
G00 Z0.5000
G01 Z0.0000 F400
G01 Z-1.2000
M106 S240
G01 X97.5308 F1000
G01 X97.3738 Y80.8169
G01 X97.2560 Y81.0031
G01 X97.1498 Y81.1961
G01 X97.0555 Y81.3951
G01 X96.9735 Y81.5996
G01 X96.9040 Y81.8087
G01 X96.8475 Y82.0215
G01 X96.8040 Y82.2375
G01 X96.7737 Y82.4557
G01 X117.9133
G01 X117.8633 Y82.1176
G01 X117.7797 Y81.7862
G01 X117.6632 Y81.4649
G01 X117.5152 Y81.1568
G01 X117.3369 Y80.8652
G01 X117.1303 Y80.5930
G01 X116.8974 Y80.3428
G01 X116.6407 Y80.1172
G01 X116.3625 Y79.9186
G01 X116.0659 Y79.7488
G01 X115.7537 Y79.6097
G01 X115.4291 Y79.5026
G01 X115.3462 Y79.4848
G01 X115.2628 Y79.4694
G01 X115.1790 Y79.4565
G01 X115.0948 Y79.4459
G01 X115.0104 Y79.4377
G01 X114.9257 Y79.4320
G01 X114.8410 Y79.4286
G01 X114.7562 Y79.4277
G01 X99.9334 Y79.4278
G01 X99.6803 Y79.4364
G01 X99.4288 Y79.4662
G01 X99.1807 Y79.5172
G01 X98.9378 Y79.5888
G01 X98.7017 Y79.6806
G01 X98.4742 Y79.7919
G01 X98.2569 Y79.9220
G01 X98.0513 Y80.0699
G01 X97.8589 Y80.2346
G01 X97.6810 Y80.4148
G01 X97.5189 Y80.6094
G01 X97.3738 Y80.8169
G01 X97.5308 Y80.9417
M107
G00 Z2.0000


;No. 16: Hole 13
G00 X91.7791 Y81.1786 Z2.0000
G00 Z0.5000
G01 Z0.0000 F400
G01 Z-1.2000
M106 S240
G01 X70.9779 F1000
G01 Y79.6786
G01 X91.7791
G01 Y78.1786
G01 X89.5241
G01 X89.5133 Y76.6786
G01 X91.7791
G01 Y75.1786
G01 X88.9057
G01 X91.5679 Y73.6786
G01 X70.9779
G01 Y72.1786
G01 X90.4555
G01 X73.2608
G01 Y70.6786
G01 X70.9779
G01 Y69.1786
G01 X73.2311
G01 Y67.6786
G01 X70.9779
G01 Y66.1786
G01 X73.2311
G01 Y64.6786
G01 X70.9779
G01 X70.7779 Y64.6921
G01 Y74.4416
G01 X86.9739
G01 X87.0369 Y74.4455
G01 X87.1696 Y74.4565
G01 X87.3016 Y74.4748
G01 X87.4323 Y74.5003
G01 X87.5614 Y74.5330
G01 X87.6886 Y74.5727
G01 X87.8133 Y74.6193
G01 X87.9353 Y74.6727
G01 X88.0542 Y74.7328
G01 X88.1696 Y74.7993
G01 X88.2812 Y74.8721
G01 X88.3886 Y74.9508
G01 X88.4915 Y75.0354
G01 X88.5896 Y75.1255
G01 X88.6826 Y75.2208
G01 X88.7702 Y75.3211
G01 X88.8522 Y75.4261
G01 X88.9283 Y75.5354
G01 X88.9982 Y75.6488
G01 X89.0619 Y75.7658
G01 X89.1189 Y75.8862
G01 X89.1693 Y76.0095
G01 X89.2128 Y76.1354
G01 X89.2494 Y76.2634
G01 X89.2788 Y76.3933
G01 X89.3010 Y76.5247
G01 X89.3160 Y76.6570
G01 X89.3237 Y76.7900
G01 X89.3241 Y76.9232
G01 Y78.4277
G01 X89.3210 Y78.5062
G01 X89.3118 Y78.5841
G01 X89.2965 Y78.6611
G01 X89.2752 Y78.7367
G01 X89.2480 Y78.8104
G01 X89.2151 Y78.8817
G01 X89.1767 Y78.9502
G01 X89.1331 Y79.0155
G01 X89.0845 Y79.0771
G01 X89.0312 Y79.1348
G01 X88.9736 Y79.1881
G01 X88.9119 Y79.2367
G01 X88.8466 Y79.2803
G01 X88.7781 Y79.3187
G01 X88.7068 Y79.3516
G01 X88.6331 Y79.3788
G01 X88.5575 Y79.4001
G01 X88.4805 Y79.4154
G01 X88.4026 Y79.4246
G01 X88.3241 Y79.4277
G01 X70.7779
G01 Y82.4557
G01 X91.9791
G01 X91.9972 Y80.5474
G01 X92.0030 Y78.6390
G01 X91.9965 Y76.7306
G01 X91.9776 Y74.8223
G01 X91.9678 Y74.5469
G01 X91.9360 Y74.2730
G01 X91.8824 Y74.0026
G01 X91.8074 Y73.7374
G01 X91.7115 Y73.4789
G01 X91.5953 Y73.2290
G01 X91.4594 Y72.9891
G01 X91.3049 Y72.7608
G01 X91.1326 Y72.5457
G01 X90.9437 Y72.3449
G01 X90.7393 Y72.1599
G01 X90.5209 Y71.9918
G01 X90.2897 Y71.8416
G01 X90.0473 Y71.7104
G01 X89.7951 Y71.5990
G01 X89.5349 Y71.5081
G01 X89.4434 Y71.4862
G01 X89.3513 Y71.4672
G01 X89.2586 Y71.4512
G01 X89.1655 Y71.4381
G01 X89.0720 Y71.4280
G01 X88.9782 Y71.4209
G01 X88.8842 Y71.4168
G01 X88.7901 Y71.4157
G01 X74.4311
G01 X74.3526 Y71.4126
G01 X74.2746 Y71.4033
G01 X74.1976 Y71.3880
G01 X74.1221 Y71.3667
G01 X74.0484 Y71.3395
G01 X73.9771 Y71.3067
G01 X73.9086 Y71.2683
G01 X73.8433 Y71.2247
G01 X73.7816 Y71.1761
G01 X73.7240 Y71.1228
G01 X73.6707 Y71.0651
G01 X73.6221 Y71.0034
G01 X73.5784 Y70.9381
G01 X73.5401 Y70.8696
G01 X73.5072 Y70.7983
G01 X73.4800 Y70.7247
G01 X73.4587 Y70.6491
G01 X73.4434 Y70.5721
G01 X73.4342 Y70.4941
G01 X73.4311 Y70.4157
G01 Y63.4016
G01 X70.7779
G01 Y64.6921
G01 X70.9779 Y64.6786
M107
G00 Z2.0000


;No. 17: Hole 12
G00 X149.5153 Y93.3371 Z2.0000
G00 Z0.5000
G01 Z0.0000 F400
G01 Z-1.2000
M106 S240
G01 X150.4480 F1000
G01 X150.7145 Y94.8371
G01 X149.2466
G01 X148.9779 Y96.3371
G01 X150.9810
G01 X151.2474 Y97.8371
G01 X148.7092
G01 X148.4405 Y99.3371
G01 X151.5139
G01 X151.7804 Y100.8371
G01 X148.1718
G01 X147.9032 Y102.3371
G01 X152.0469
G01 X152.3133 Y103.8371
G01 X147.6345
G01 X147.3658 Y105.3371
G01 X152.5798
G01 X152.8463 Y106.8371
G01 X147.0971
G01 X146.8284 Y108.3371
G01 X153.1128
G01 X153.3792 Y109.8371
G01 X146.5597
G01 X146.2910 Y111.3371
G01 X153.6457
G01 X153.9122 Y112.8371
G01 X146.0223
G01 X145.7536 Y114.3371
G01 X154.1787
G01 X154.4452 Y115.8371
G01 X145.4849
G01 X145.2162 Y117.3371
G01 X154.7116
G01 X154.9781 Y118.8371
G01 X144.9475
G01 X144.6788 Y120.3371
G01 X155.2446
G01 X155.5111 Y121.8371
G01 X144.4101
G01 X144.1414 Y123.3371
G01 X155.7775
G01 X156.0440 Y124.8371
G01 X143.8727
G01 X143.6040 Y126.3371
G01 X156.3105
G01 X156.5770 Y127.8371
G01 X143.3353
G01 X143.0666 Y129.3371
G01 X156.8434
G01 X157.1099 Y130.8371
G01 X142.7979
G01 X142.5292 Y132.3371
G01 X157.3764
G01 X157.6429 Y133.8371
G01 X142.2605
G01 X141.9919 Y135.3371
G01 X157.9093
G01 X158.1758 Y136.8371
G01 X141.7232
G01 X141.4545 Y138.3371
G01 X158.4423
G01 X158.7088 Y139.8371
G01 X141.1858
G01 X140.9171 Y141.3371
G01 X158.9752
G01 X159.1697 Y141.2881
G01 X149.9846 Y89.5852
G01 X140.4785 Y142.6513
G01 X159.4107 Y142.6447
G01 X159.1697 Y141.2881
G01 X158.9752 Y141.3371
M107
G00 Z2.0000


;No. 18: Helical drill 1
G00 X16.3016 Y149.9989 Z2.0000
G00 Z0.5000
M106 S240
G01 X16.2978 Y149.9117 Z0.4722 F400
G01 X16.2864 Y149.8253 Z0.4444
G01 X16.2676 Y149.7401 Z0.4167
G01 X16.2413 Y149.6569 Z0.3889
G01 X16.2079 Y149.5763 Z0.3611
G01 X16.1677 Y149.4989 Z0.3333
G01 X16.1208 Y149.4253 Z0.3056
G01 X16.0677 Y149.3561 Z0.2778
G01 X16.0087 Y149.2918 Z0.2500
G01 X15.9444 Y149.2329 Z0.2222
G01 X15.8752 Y149.1798 Z0.1944
G01 X15.8016 Y149.1329 Z0.1667
G01 X15.7242 Y149.0926 Z0.1389
G01 X15.6436 Y149.0592 Z0.1111
G01 X15.5604 Y149.0330 Z0.0833
G01 X15.4753 Y149.0141 Z0.0556
G01 X15.3888 Y149.0027 Z0.0278
G01 X15.3016 Y148.9989 Z0.0000
G01 X15.2145 Y149.0027 Z-0.0278
G01 X15.1280 Y149.0141 Z-0.0556
G01 X15.0428 Y149.0330 Z-0.0833
G01 X14.9596 Y149.0592 Z-0.1111
G01 X14.8790 Y149.0926 Z-0.1389
G01 X14.8016 Y149.1329 Z-0.1667
G01 X14.7281 Y149.1798 Z-0.1944
G01 X14.6588 Y149.2329 Z-0.2222
G01 X14.5945 Y149.2918 Z-0.2500
G01 X14.5356 Y149.3561 Z-0.2778
G01 X14.4825 Y149.4253 Z-0.3056
G01 X14.4356 Y149.4989 Z-0.3333
G01 X14.3953 Y149.5763 Z-0.3611
G01 X14.3619 Y149.6569 Z-0.3889
G01 X14.3357 Y149.7401 Z-0.4167
G01 X14.3168 Y149.8253 Z-0.4444
G01 X14.3054 Y149.9117 Z-0.4722
G01 X14.3016 Y149.9989 Z-0.5000
G01 X14.3054 Y150.0861 Z-0.5278
G01 X14.3168 Y150.1726 Z-0.5556
G01 X14.3357 Y150.2577 Z-0.5833
G01 X14.3619 Y150.3409 Z-0.6111
G01 X14.3953 Y150.4215 Z-0.6389
G01 X14.4356 Y150.4989 Z-0.6667
G01 X14.4825 Y150.5725 Z-0.6944
G01 X14.5356 Y150.6417 Z-0.7222
G01 X14.5945 Y150.7060 Z-0.7500
G01 X14.6588 Y150.7649 Z-0.7778
G01 X14.7281 Y150.8181 Z-0.8056
G01 X14.8016 Y150.8649 Z-0.8333
G01 X14.8790 Y150.9052 Z-0.8611
G01 X14.9596 Y150.9386 Z-0.8889
G01 X15.0428 Y150.9648 Z-0.9167
G01 X15.1280 Y150.9837 Z-0.9444
G01 X15.2145 Y150.9951 Z-0.9722
G01 X15.3016 Y150.9989 Z-1.0000
G01 X15.3888 Y150.9951 Z-1.0278
G01 X15.4753 Y150.9837 Z-1.0556
G01 X15.5604 Y150.9648 Z-1.0833
G01 X15.6436 Y150.9386 Z-1.1111
G01 X15.7242 Y150.9052 Z-1.1389
G01 X15.8016 Y150.8649 Z-1.1667
G01 X15.8752 Y150.8181 Z-1.1944
G01 X15.9444 Y150.7649 Z-1.2222
G01 X16.0087 Y150.7060 Z-1.2500
G01 X16.0677 Y150.6417 Z-1.2778
G01 X16.1208 Y150.5725 Z-1.3056
G01 X16.1677 Y150.4989 Z-1.3333
G01 X16.2079 Y150.4215 Z-1.3611
G01 X16.2413 Y150.3409 Z-1.3889
G01 X16.2676 Y150.2577 Z-1.4167
G01 X16.2864 Y150.1726 Z-1.4444
G01 X16.2978 Y150.0861 Z-1.4722
G01 X16.3016 Y149.9989 Z-1.5000
G01 X16.2978 Y149.9117
G01 X16.2864 Y149.8253
G01 X16.2676 Y149.7401
G01 X16.2413 Y149.6569
G01 X16.2079 Y149.5763
G01 X16.1677 Y149.4989
G01 X16.1208 Y149.4253
G01 X16.0677 Y149.3561
G01 X16.0087 Y149.2918
G01 X15.9444 Y149.2329
G01 X15.8752 Y149.1798
G01 X15.8016 Y149.1329
G01 X15.7242 Y149.0926
G01 X15.6436 Y149.0592
G01 X15.5604 Y149.0330
G01 X15.4753 Y149.0141
G01 X15.3888 Y149.0027
G01 X15.3016 Y148.9989
G01 X15.2145 Y149.0027
G01 X15.1280 Y149.0141
G01 X15.0428 Y149.0330
G01 X14.9596 Y149.0592
G01 X14.8790 Y149.0926
G01 X14.8016 Y149.1329
G01 X14.7281 Y149.1798
G01 X14.6588 Y149.2329
G01 X14.5945 Y149.2918
G01 X14.5356 Y149.3561
G01 X14.4825 Y149.4253
G01 X14.4356 Y149.4989
G01 X14.3953 Y149.5763
G01 X14.3619 Y149.6569
G01 X14.3357 Y149.7401
G01 X14.3168 Y149.8253
G01 X14.3054 Y149.9117
G01 X14.3016 Y149.9989
G01 X14.3054 Y150.0861
G01 X14.3168 Y150.1726
G01 X14.3357 Y150.2577
G01 X14.3619 Y150.3409
G01 X14.3953 Y150.4215
G01 X14.4356 Y150.4989
G01 X14.4825 Y150.5725
G01 X14.5356 Y150.6417
G01 X14.5945 Y150.7060
G01 X14.6588 Y150.7649
G01 X14.7281 Y150.8181
G01 X14.8016 Y150.8649
G01 X14.8790 Y150.9052
G01 X14.9596 Y150.9386
G01 X15.0428 Y150.9648
G01 X15.1280 Y150.9837
G01 X15.2145 Y150.9951
G01 X15.3016 Y150.9989
G01 X15.3888 Y150.9951
G01 X15.4753 Y150.9837
G01 X15.5604 Y150.9648
G01 X15.6436 Y150.9386
G01 X15.7242 Y150.9052
G01 X15.8016 Y150.8649
G01 X15.8752 Y150.8181
G01 X15.9444 Y150.7649
G01 X16.0087 Y150.7060
G01 X16.0677 Y150.6417
G01 X16.1208 Y150.5725
G01 X16.1677 Y150.4989
G01 X16.2079 Y150.4215
G01 X16.2413 Y150.3409
G01 X16.2676 Y150.2577
G01 X16.2864 Y150.1726
G01 X16.2978 Y150.0861
G01 X16.3016 Y149.9989
G01 X16.3124 Y149.9473 F1000
G01 X16.3205 Y149.8952
G01 X16.3258 Y149.8428
G01 X16.3285 Y149.7902
G01 Y149.7375
G01 X16.3257 Y149.6848
G01 X16.3203 Y149.6324
G01 X16.3121 Y149.5803
G01 X16.3004 Y149.5244
G01 X16.2858 Y149.4690
G01 X16.2685 Y149.4145
G01 X16.2483 Y149.3610
G01 X16.2255 Y149.3086
G01 X16.2000 Y149.2574
G01 X16.1719 Y149.2075
G01 X16.1413 Y149.1592
G01 X16.1057 Y149.1088
G01 X16.0676 Y149.0603
G01 X16.0270 Y149.0138
G01 X15.9842 Y148.9694
G01 X15.9391 Y148.9272
G01 X15.8920 Y148.8874
G01 X15.8429 Y148.8500
G01 X15.7919 Y148.8152
G01 X15.7354 Y148.7806
G01 X15.6773 Y148.7489
G01 X15.6176 Y148.7203
G01 X15.5565 Y148.6946
G01 X15.4942 Y148.6721
G01 X15.4309 Y148.6528
G01 X15.3666 Y148.6367
G01 X15.3016 Y148.6239
G01 X15.2316 Y148.6137
G01 X15.1611 Y148.6071
G01 X15.0904 Y148.6040
G01 X15.0197 Y148.6045
G01 X14.9490 Y148.6085
G01 X14.8787 Y148.6162
G01 X14.8088 Y148.6273
G01 X14.7396 Y148.6420
G01 X14.6714 Y148.6679
G01 X14.6046 Y148.6972
G01 X14.5393 Y148.7298
G01 X14.4756 Y148.7655
G01 X14.4139 Y148.8043
G01 X14.3541 Y148.8461
G01 X14.2964 Y148.8908
G01 X14.2410 Y148.9383
G01 X14.1902 Y148.9916
G01 X14.1421 Y149.0473
G01 X14.0968 Y149.1054
G01 X14.0544 Y149.1656
G01 X14.0151 Y149.2278
G01 X13.9788 Y149.2918
G01 X13.9457 Y149.3576
G01 X13.9158 Y149.4249
G01 X13.8893 Y149.4936
G01 X13.8662 Y149.5635
G01 X13.8466 Y149.6344
G01 X13.8305 Y149.7063
G01 X13.8179 Y149.7788
G01 X13.8089 Y149.8519
G01 X13.8035 Y149.9253
G01 X13.8017 Y149.9989
G01 X13.8035 Y150.0725
G01 X13.8089 Y150.1459
G01 X13.8179 Y150.2190
G01 X13.8305 Y150.2915
G01 X13.8466 Y150.3634
G01 X13.8662 Y150.4343
G01 X13.8893 Y150.5042
G01 X13.9158 Y150.5729
G01 X13.9457 Y150.6402
G01 X13.9788 Y150.7060
G01 X14.0151 Y150.7700
G01 X14.0544 Y150.8322
G01 X14.0968 Y150.8924
G01 X14.1421 Y150.9505
G01 X14.1902 Y151.0062
G01 X14.2410 Y151.0595
G01 X14.2943 Y151.1103
G01 X14.3501 Y151.1584
G01 X14.4081 Y151.2037
G01 X14.4683 Y151.2461
G01 X14.5305 Y151.2855
G01 X14.5945 Y151.3218
G01 X14.6603 Y151.3549
G01 X14.7276 Y151.3847
G01 X14.7963 Y151.4112
G01 X14.8662 Y151.4343
G01 X14.9372 Y151.4539
G01 X15.0090 Y151.4701
G01 X15.0815 Y151.4826
G01 X15.1546 Y151.4917
G01 X15.2280 Y151.4971
G01 X15.3016 Y151.4989
G01 X15.3752 Y151.4971
G01 X15.4487 Y151.4917
G01 X15.5217 Y151.4826
G01 X15.5943 Y151.4701
G01 X15.6661 Y151.4539
G01 X15.7370 Y151.4343
G01 X15.8070 Y151.4112
G01 X15.8756 Y151.3847
G01 X15.9430 Y151.3549
G01 X16.0087 Y151.3218
G01 X16.0728 Y151.2855
G01 X16.1350 Y151.2461
G01 X16.1952 Y151.2037
G01 X16.2532 Y151.1584
G01 X16.3090 Y151.1103
G01 X16.3623 Y151.0595
G01 X16.4130 Y151.0062
G01 X16.4611 Y150.9505
G01 X16.5064 Y150.8924
G01 X16.5488 Y150.8322
G01 X16.5882 Y150.7700
G01 X16.6245 Y150.7060
G01 X16.6576 Y150.6402
G01 X16.6874 Y150.5729
G01 X16.7139 Y150.5042
G01 X16.7370 Y150.4343
G01 X16.7567 Y150.3634
G01 X16.7728 Y150.2915
G01 X16.7854 Y150.2190
G01 X16.7944 Y150.1459
G01 X16.7998 Y150.0725
G01 X16.8016 Y149.9989
G01 X16.7974 Y149.8868
G01 X16.7848 Y149.7753
G01 X16.7640 Y149.6651
G01 X16.7350 Y149.5568
G01 X16.6979 Y149.4509
G01 X16.6531 Y149.3481
G01 X16.6006 Y149.2489
G01 X16.5410 Y149.1539
G01 X16.4744 Y149.0637
G01 X16.4012 Y148.9787
G01 X16.3219 Y148.8993
G01 X16.2368 Y148.8262
G01 X16.1466 Y148.7596
G01 X16.0516 Y148.6999
G01 X15.9524 Y148.6475
G01 X15.8496 Y148.6026
G01 X15.7438 Y148.5656
G01 X15.6354 Y148.5365
G01 X15.5252 Y148.5157
G01 X15.4137 Y148.5031
G01 X15.3016 Y148.4989
G01 X15.1895 Y148.5031
G01 X15.0781 Y148.5157
G01 X14.9679 Y148.5365
G01 X14.8595 Y148.5656
G01 X14.7536 Y148.6026
G01 X14.6508 Y148.6475
G01 X14.5516 Y148.6999
G01 X14.4567 Y148.7596
G01 X14.3664 Y148.8262
G01 X14.2814 Y148.8993
G01 X14.2021 Y148.9787
G01 X14.1289 Y149.0637
G01 X14.0623 Y149.1539
G01 X14.0026 Y149.2489
G01 X13.9502 Y149.3481
G01 X13.9053 Y149.4509
G01 X13.8683 Y149.5568
G01 X13.8393 Y149.6651
G01 X13.8184 Y149.7753
G01 X13.8059 Y149.8868
G01 X13.8017 Y149.9989
G01 X13.8059 Y150.1110
G01 X13.8184 Y150.2225
G01 X13.8393 Y150.3327
G01 X13.8683 Y150.4410
G01 X13.9053 Y150.5469
G01 X13.9502 Y150.6497
G01 X14.0026 Y150.7489
G01 X14.0623 Y150.8439
G01 X14.1289 Y150.9341
G01 X14.2021 Y151.0191
G01 X14.2814 Y151.0985
G01 X14.3664 Y151.1716
G01 X14.4567 Y151.2382
G01 X14.5516 Y151.2979
G01 X14.6508 Y151.3503
G01 X14.7536 Y151.3952
G01 X14.8595 Y151.4322
G01 X14.9679 Y151.4613
G01 X15.0781 Y151.4821
G01 X15.1895 Y151.4947
G01 X15.3016 Y151.4989
G01 X15.4137 Y151.4947
G01 X15.5252 Y151.4821
G01 X15.6354 Y151.4613
G01 X15.7438 Y151.4322
G01 X15.8496 Y151.3952
G01 X15.9524 Y151.3503
G01 X16.0516 Y151.2979
G01 X16.1466 Y151.2382
G01 X16.2368 Y151.1716
G01 X16.3219 Y151.0985
G01 X16.4012 Y151.0191
G01 X16.4744 Y150.9341
G01 X16.5410 Y150.8439
G01 X16.6006 Y150.7489
G01 X16.6531 Y150.6497
G01 X16.6979 Y150.5469
G01 X16.7350 Y150.4410
G01 X16.7640 Y150.3327
G01 X16.7848 Y150.2225
G01 X16.7974 Y150.1110
G01 X16.8016 Y149.9989
G01 X16.7977 Y149.9008
G01 X16.7862 Y149.8034
G01 X16.7671 Y149.7071
G01 X16.7404 Y149.6126
G01 X16.7065 Y149.5206
G01 X16.6654 Y149.4314
G01 X16.6174 Y149.3458
G01 X16.5629 Y149.2642
G01 X16.5021 Y149.1871
G01 X16.4355 Y149.1150
G01 X16.3634 Y149.0484
G01 X16.2863 Y148.9876
G01 X16.2047 Y148.9331
G01 X16.1191 Y148.8852
G01 X16.0300 Y148.8441
G01 X15.9379 Y148.8101
G01 X15.8434 Y148.7835
G01 X15.7472 Y148.7643
G01 X15.6497 Y148.7528
G01 X15.5516 Y148.7489
G01 X15.4535 Y148.7528
G01 X15.3561 Y148.7643
G01 X15.2598 Y148.7835
G01 X15.1653 Y148.8101
G01 X15.0733 Y148.8441
G01 X14.9841 Y148.8852
G01 X14.8985 Y148.9331
G01 X14.8169 Y148.9876
G01 X14.7398 Y149.0484
G01 X14.6677 Y149.1150
G01 X14.6011 Y149.1871
G01 X14.5404 Y149.2642
G01 X14.4858 Y149.3458
G01 X14.4379 Y149.4314
G01 X14.3968 Y149.5206
G01 X14.3628 Y149.6126
G01 X14.3362 Y149.7071
G01 X14.3170 Y149.8034
G01 X14.3055 Y149.9008
G01 X14.3016 Y149.9989
G01 X14.3054 Y150.0861
G01 X14.3168 Y150.1726
G01 X14.3357 Y150.2577
G01 X14.3619 Y150.3409
G01 X14.3953 Y150.4215
G01 X14.4356 Y150.4989
G01 X14.4825 Y150.5725
G01 X14.5356 Y150.6417
G01 X14.5945 Y150.7060
G01 X14.6588 Y150.7649
G01 X14.7281 Y150.8181
G01 X14.8016 Y150.8649
G01 X14.8790 Y150.9052
G01 X14.9596 Y150.9386
G01 X15.0428 Y150.9648
G01 X15.1280 Y150.9837
G01 X15.2145 Y150.9951
G01 X15.3016 Y150.9989
G01 X15.3888 Y150.9951
G01 X15.4753 Y150.9837
G01 X15.5604 Y150.9648
G01 X15.6436 Y150.9386
G01 X15.7242 Y150.9052
G01 X15.8016 Y150.8649
G01 X15.8752 Y150.8181
G01 X15.9444 Y150.7649
G01 X16.0087 Y150.7060
G01 X16.0677 Y150.6417
G01 X16.1208 Y150.5725
G01 X16.1677 Y150.4989
G01 X16.2079 Y150.4215
G01 X16.2413 Y150.3409
G01 X16.2676 Y150.2577
G01 X16.2864 Y150.1726
G01 X16.2978 Y150.0861
G01 X16.3016 Y149.9989
M107
M106 S240
G01 X16.2978 Y149.9117 Z-1.5278 F400
G01 X16.2864 Y149.8253 Z-1.5556
G01 X16.2676 Y149.7401 Z-1.5833
G01 X16.2413 Y149.6569 Z-1.6111
G01 X16.2079 Y149.5763 Z-1.6389
G01 X16.1677 Y149.4989 Z-1.6667
G01 X16.1208 Y149.4253 Z-1.6944
G01 X16.0677 Y149.3561 Z-1.7222
G01 X16.0087 Y149.2918 Z-1.7500
G01 X15.9444 Y149.2329 Z-1.7778
G01 X15.8752 Y149.1798 Z-1.8056
G01 X15.8016 Y149.1329 Z-1.8333
G01 X15.7242 Y149.0926 Z-1.8611
G01 X15.6436 Y149.0592 Z-1.8889
G01 X15.5604 Y149.0330 Z-1.9167
G01 X15.4753 Y149.0141 Z-1.9444
G01 X15.3888 Y149.0027 Z-1.9722
G01 X15.3016 Y148.9989 Z-2.0000
G01 X15.2145 Y149.0027 Z-2.0278
G01 X15.1280 Y149.0141 Z-2.0556
G01 X15.0428 Y149.0330 Z-2.0833
G01 X14.9596 Y149.0592 Z-2.1111
G01 X14.8790 Y149.0926 Z-2.1389
G01 X14.8016 Y149.1329 Z-2.1667
G01 X14.7281 Y149.1798 Z-2.1944
G01 X14.6588 Y149.2329 Z-2.2222
G01 X14.5945 Y149.2918 Z-2.2500
G01 X14.5356 Y149.3561 Z-2.2778
G01 X14.4825 Y149.4253 Z-2.3056
G01 X14.4356 Y149.4989 Z-2.3333
G01 X14.3953 Y149.5763 Z-2.3611
G01 X14.3619 Y149.6569 Z-2.3889
G01 X14.3357 Y149.7401 Z-2.4167
G01 X14.3168 Y149.8253 Z-2.4444
G01 X14.3054 Y149.9117 Z-2.4722
G01 X14.3016 Y149.9989 Z-2.5000
G01 X14.3054 Y150.0861 Z-2.5278
G01 X14.3168 Y150.1726 Z-2.5556
G01 X14.3357 Y150.2577 Z-2.5833
G01 X14.3619 Y150.3409 Z-2.6111
G01 X14.3953 Y150.4215 Z-2.6389
G01 X14.4356 Y150.4989 Z-2.6667
G01 X14.4825 Y150.5725 Z-2.6944
G01 X14.5356 Y150.6417 Z-2.7222
G01 X14.5945 Y150.7060 Z-2.7500
G01 X14.6588 Y150.7649 Z-2.7778
G01 X14.7281 Y150.8181 Z-2.8056
G01 X14.8016 Y150.8649 Z-2.8333
G01 X14.8790 Y150.9052 Z-2.8611
G01 X14.9596 Y150.9386 Z-2.8889
G01 X15.0428 Y150.9648 Z-2.9167
G01 X15.1280 Y150.9837 Z-2.9444
G01 X15.2145 Y150.9951 Z-2.9722
G01 X15.3016 Y150.9989 Z-3.0000
G01 X15.3888 Y150.9951 Z-3.0278
G01 X15.4753 Y150.9837 Z-3.0556
G01 X15.5604 Y150.9648 Z-3.0833
G01 X15.6436 Y150.9386 Z-3.1111
G01 X15.7242 Y150.9052 Z-3.1389
G01 X15.8016 Y150.8649 Z-3.1667
G01 X15.8752 Y150.8181 Z-3.1944
G01 X15.9444 Y150.7649 Z-3.2222
G01 X16.0087 Y150.7060 Z-3.2500
G01 X16.0677 Y150.6417 Z-3.2778
G01 X16.1208 Y150.5725 Z-3.3056
G01 X16.1677 Y150.4989 Z-3.3333
G01 X16.2079 Y150.4215 Z-3.3611
G01 X16.2413 Y150.3409 Z-3.3889
G01 X16.2676 Y150.2577 Z-3.4167
G01 X16.2864 Y150.1726 Z-3.4444
G01 X16.2978 Y150.0861 Z-3.4722
G01 X16.3016 Y149.9989 Z-3.5000
G01 X16.2978 Y149.9117
G01 X16.2864 Y149.8253
G01 X16.2676 Y149.7401
G01 X16.2413 Y149.6569
G01 X16.2079 Y149.5763
G01 X16.1677 Y149.4989
G01 X16.1208 Y149.4253
G01 X16.0677 Y149.3561
G01 X16.0087 Y149.2918
G01 X15.9444 Y149.2329
G01 X15.8752 Y149.1798
G01 X15.8016 Y149.1329
G01 X15.7242 Y149.0926
G01 X15.6436 Y149.0592
G01 X15.5604 Y149.0330
G01 X15.4753 Y149.0141
G01 X15.3888 Y149.0027
G01 X15.3016 Y148.9989
G01 X15.2145 Y149.0027
G01 X15.1280 Y149.0141
G01 X15.0428 Y149.0330
G01 X14.9596 Y149.0592
G01 X14.8790 Y149.0926
G01 X14.8016 Y149.1329
G01 X14.7281 Y149.1798
G01 X14.6588 Y149.2329
G01 X14.5945 Y149.2918
G01 X14.5356 Y149.3561
G01 X14.4825 Y149.4253
G01 X14.4356 Y149.4989
G01 X14.3953 Y149.5763
G01 X14.3619 Y149.6569
G01 X14.3357 Y149.7401
G01 X14.3168 Y149.8253
G01 X14.3054 Y149.9117
G01 X14.3016 Y149.9989
G01 X14.3054 Y150.0861
G01 X14.3168 Y150.1726
G01 X14.3357 Y150.2577
G01 X14.3619 Y150.3409
G01 X14.3953 Y150.4215
G01 X14.4356 Y150.4989
G01 X14.4825 Y150.5725
G01 X14.5356 Y150.6417
G01 X14.5945 Y150.7060
G01 X14.6588 Y150.7649
G01 X14.7281 Y150.8181
G01 X14.8016 Y150.8649
G01 X14.8790 Y150.9052
G01 X14.9596 Y150.9386
G01 X15.0428 Y150.9648
G01 X15.1280 Y150.9837
G01 X15.2145 Y150.9951
G01 X15.3016 Y150.9989
G01 X15.3888 Y150.9951
G01 X15.4753 Y150.9837
G01 X15.5604 Y150.9648
G01 X15.6436 Y150.9386
G01 X15.7242 Y150.9052
G01 X15.8016 Y150.8649
G01 X15.8752 Y150.8181
G01 X15.9444 Y150.7649
G01 X16.0087 Y150.7060
G01 X16.0677 Y150.6417
G01 X16.1208 Y150.5725
G01 X16.1677 Y150.4989
G01 X16.2079 Y150.4215
G01 X16.2413 Y150.3409
G01 X16.2676 Y150.2577
G01 X16.2864 Y150.1726
G01 X16.2978 Y150.0861
G01 X16.3016 Y149.9989
G01 X16.3124 Y149.9473 F1000
G01 X16.3205 Y149.8952
G01 X16.3258 Y149.8428
G01 X16.3285 Y149.7902
G01 Y149.7375
G01 X16.3257 Y149.6848
G01 X16.3203 Y149.6324
G01 X16.3121 Y149.5803
G01 X16.3004 Y149.5244
G01 X16.2858 Y149.4690
G01 X16.2685 Y149.4145
G01 X16.2483 Y149.3610
G01 X16.2255 Y149.3086
G01 X16.2000 Y149.2574
G01 X16.1719 Y149.2075
G01 X16.1413 Y149.1592
G01 X16.1057 Y149.1088
G01 X16.0676 Y149.0603
G01 X16.0270 Y149.0138
G01 X15.9842 Y148.9694
G01 X15.9391 Y148.9272
G01 X15.8920 Y148.8874
G01 X15.8429 Y148.8500
G01 X15.7919 Y148.8152
G01 X15.7354 Y148.7806
G01 X15.6773 Y148.7489
G01 X15.6176 Y148.7203
G01 X15.5565 Y148.6946
G01 X15.4942 Y148.6721
G01 X15.4309 Y148.6528
G01 X15.3666 Y148.6367
G01 X15.3016 Y148.6239
G01 X15.2316 Y148.6137
G01 X15.1611 Y148.6071
G01 X15.0904 Y148.6040
G01 X15.0197 Y148.6045
G01 X14.9490 Y148.6085
G01 X14.8787 Y148.6162
G01 X14.8088 Y148.6273
G01 X14.7396 Y148.6420
G01 X14.6714 Y148.6679
G01 X14.6046 Y148.6972
G01 X14.5393 Y148.7298
G01 X14.4756 Y148.7655
G01 X14.4139 Y148.8043
G01 X14.3541 Y148.8461
G01 X14.2964 Y148.8908
G01 X14.2410 Y148.9383
G01 X14.1902 Y148.9916
G01 X14.1421 Y149.0473
G01 X14.0968 Y149.1054
G01 X14.0544 Y149.1656
G01 X14.0151 Y149.2278
G01 X13.9788 Y149.2918
G01 X13.9457 Y149.3576
G01 X13.9158 Y149.4249
G01 X13.8893 Y149.4936
G01 X13.8662 Y149.5635
G01 X13.8466 Y149.6344
G01 X13.8305 Y149.7063
G01 X13.8179 Y149.7788
G01 X13.8089 Y149.8519
G01 X13.8035 Y149.9253
G01 X13.8017 Y149.9989
G01 X13.8035 Y150.0725
G01 X13.8089 Y150.1459
G01 X13.8179 Y150.2190
G01 X13.8305 Y150.2915
G01 X13.8466 Y150.3634
G01 X13.8662 Y150.4343
G01 X13.8893 Y150.5042
G01 X13.9158 Y150.5729
G01 X13.9457 Y150.6402
G01 X13.9788 Y150.7060
G01 X14.0151 Y150.7700
G01 X14.0544 Y150.8322
G01 X14.0968 Y150.8924
G01 X14.1421 Y150.9505
G01 X14.1902 Y151.0062
G01 X14.2410 Y151.0595
G01 X14.2943 Y151.1103
G01 X14.3501 Y151.1584
G01 X14.4081 Y151.2037
G01 X14.4683 Y151.2461
G01 X14.5305 Y151.2855
G01 X14.5945 Y151.3218
G01 X14.6603 Y151.3549
G01 X14.7276 Y151.3847
G01 X14.7963 Y151.4112
G01 X14.8662 Y151.4343
G01 X14.9372 Y151.4539
G01 X15.0090 Y151.4701
G01 X15.0815 Y151.4826
G01 X15.1546 Y151.4917
G01 X15.2280 Y151.4971
G01 X15.3016 Y151.4989
G01 X15.3752 Y151.4971
G01 X15.4487 Y151.4917
G01 X15.5217 Y151.4826
G01 X15.5943 Y151.4701
G01 X15.6661 Y151.4539
G01 X15.7370 Y151.4343
G01 X15.8070 Y151.4112
G01 X15.8756 Y151.3847
G01 X15.9430 Y151.3549
G01 X16.0087 Y151.3218
G01 X16.0728 Y151.2855
G01 X16.1350 Y151.2461
G01 X16.1952 Y151.2037
G01 X16.2532 Y151.1584
G01 X16.3090 Y151.1103
G01 X16.3623 Y151.0595
G01 X16.4130 Y151.0062
G01 X16.4611 Y150.9505
G01 X16.5064 Y150.8924
G01 X16.5488 Y150.8322
G01 X16.5882 Y150.7700
G01 X16.6245 Y150.7060
G01 X16.6576 Y150.6402
G01 X16.6874 Y150.5729
G01 X16.7139 Y150.5042
G01 X16.7370 Y150.4343
G01 X16.7567 Y150.3634
G01 X16.7728 Y150.2915
G01 X16.7854 Y150.2190
G01 X16.7944 Y150.1459
G01 X16.7998 Y150.0725
G01 X16.8016 Y149.9989
G01 X16.7974 Y149.8868
G01 X16.7848 Y149.7753
G01 X16.7640 Y149.6651
G01 X16.7350 Y149.5568
G01 X16.6979 Y149.4509
G01 X16.6531 Y149.3481
G01 X16.6006 Y149.2489
G01 X16.5410 Y149.1539
G01 X16.4744 Y149.0637
G01 X16.4012 Y148.9787
G01 X16.3219 Y148.8993
G01 X16.2368 Y148.8262
G01 X16.1466 Y148.7596
G01 X16.0516 Y148.6999
G01 X15.9524 Y148.6475
G01 X15.8496 Y148.6026
G01 X15.7438 Y148.5656
G01 X15.6354 Y148.5365
G01 X15.5252 Y148.5157
G01 X15.4137 Y148.5031
G01 X15.3016 Y148.4989
G01 X15.1895 Y148.5031
G01 X15.0781 Y148.5157
G01 X14.9679 Y148.5365
G01 X14.8595 Y148.5656
G01 X14.7536 Y148.6026
G01 X14.6508 Y148.6475
G01 X14.5516 Y148.6999
G01 X14.4567 Y148.7596
G01 X14.3664 Y148.8262
G01 X14.2814 Y148.8993
G01 X14.2021 Y148.9787
G01 X14.1289 Y149.0637
G01 X14.0623 Y149.1539
G01 X14.0026 Y149.2489
G01 X13.9502 Y149.3481
G01 X13.9053 Y149.4509
G01 X13.8683 Y149.5568
G01 X13.8393 Y149.6651
G01 X13.8184 Y149.7753
G01 X13.8059 Y149.8868
G01 X13.8017 Y149.9989
G01 X13.8059 Y150.1110
G01 X13.8184 Y150.2225
G01 X13.8393 Y150.3327
G01 X13.8683 Y150.4410
G01 X13.9053 Y150.5469
G01 X13.9502 Y150.6497
G01 X14.0026 Y150.7489
G01 X14.0623 Y150.8439
G01 X14.1289 Y150.9341
G01 X14.2021 Y151.0191
G01 X14.2814 Y151.0985
G01 X14.3664 Y151.1716
G01 X14.4567 Y151.2382
G01 X14.5516 Y151.2979
G01 X14.6508 Y151.3503
G01 X14.7536 Y151.3952
G01 X14.8595 Y151.4322
G01 X14.9679 Y151.4613
G01 X15.0781 Y151.4821
G01 X15.1895 Y151.4947
G01 X15.3016 Y151.4989
G01 X15.4137 Y151.4947
G01 X15.5252 Y151.4821
G01 X15.6354 Y151.4613
G01 X15.7438 Y151.4322
G01 X15.8496 Y151.3952
G01 X15.9524 Y151.3503
G01 X16.0516 Y151.2979
G01 X16.1466 Y151.2382
G01 X16.2368 Y151.1716
G01 X16.3219 Y151.0985
G01 X16.4012 Y151.0191
G01 X16.4744 Y150.9341
G01 X16.5410 Y150.8439
G01 X16.6006 Y150.7489
G01 X16.6531 Y150.6497
G01 X16.6979 Y150.5469
G01 X16.7350 Y150.4410
G01 X16.7640 Y150.3327
G01 X16.7848 Y150.2225
G01 X16.7974 Y150.1110
G01 X16.8016 Y149.9989
G01 X16.7977 Y149.9008
G01 X16.7862 Y149.8034
G01 X16.7671 Y149.7071
G01 X16.7404 Y149.6126
G01 X16.7065 Y149.5206
G01 X16.6654 Y149.4314
G01 X16.6174 Y149.3458
G01 X16.5629 Y149.2642
G01 X16.5021 Y149.1871
G01 X16.4355 Y149.1150
G01 X16.3634 Y149.0484
G01 X16.2863 Y148.9876
G01 X16.2047 Y148.9331
G01 X16.1191 Y148.8852
G01 X16.0300 Y148.8441
G01 X15.9379 Y148.8101
G01 X15.8434 Y148.7835
G01 X15.7472 Y148.7643
G01 X15.6497 Y148.7528
G01 X15.5516 Y148.7489
G01 X15.4535 Y148.7528
G01 X15.3561 Y148.7643
G01 X15.2598 Y148.7835
G01 X15.1653 Y148.8101
G01 X15.0733 Y148.8441
G01 X14.9841 Y148.8852
G01 X14.8985 Y148.9331
G01 X14.8169 Y148.9876
G01 X14.7398 Y149.0484
G01 X14.6677 Y149.1150
G01 X14.6011 Y149.1871
G01 X14.5404 Y149.2642
G01 X14.4858 Y149.3458
G01 X14.4379 Y149.4314
G01 X14.3968 Y149.5206
G01 X14.3628 Y149.6126
G01 X14.3362 Y149.7071
G01 X14.3170 Y149.8034
G01 X14.3055 Y149.9008
G01 X14.3016 Y149.9989
G01 X14.3054 Y150.0861
G01 X14.3168 Y150.1726
G01 X14.3357 Y150.2577
G01 X14.3619 Y150.3409
G01 X14.3953 Y150.4215
G01 X14.4356 Y150.4989
G01 X14.4825 Y150.5725
G01 X14.5356 Y150.6417
G01 X14.5945 Y150.7060
G01 X14.6588 Y150.7649
G01 X14.7281 Y150.8181
G01 X14.8016 Y150.8649
G01 X14.8790 Y150.9052
G01 X14.9596 Y150.9386
G01 X15.0428 Y150.9648
G01 X15.1280 Y150.9837
G01 X15.2145 Y150.9951
G01 X15.3016 Y150.9989
G01 X15.3888 Y150.9951
G01 X15.4753 Y150.9837
G01 X15.5604 Y150.9648
G01 X15.6436 Y150.9386
G01 X15.7242 Y150.9052
G01 X15.8016 Y150.8649
G01 X15.8752 Y150.8181
G01 X15.9444 Y150.7649
G01 X16.0087 Y150.7060
G01 X16.0677 Y150.6417
G01 X16.1208 Y150.5725
G01 X16.1677 Y150.4989
G01 X16.2079 Y150.4215
G01 X16.2413 Y150.3409
G01 X16.2676 Y150.2577
G01 X16.2864 Y150.1726
G01 X16.2978 Y150.0861
G01 X16.3016 Y149.9989
M107
M106 S240
G01 X16.2978 Y149.9117 Z-3.5278 F400
G01 X16.2864 Y149.8253 Z-3.5556
G01 X16.2676 Y149.7401 Z-3.5833
G01 X16.2413 Y149.6569 Z-3.6111
G01 X16.2079 Y149.5763 Z-3.6389
G01 X16.1677 Y149.4989 Z-3.6667
G01 X16.1208 Y149.4253 Z-3.6944
G01 X16.0677 Y149.3561 Z-3.7222
G01 X16.0087 Y149.2918 Z-3.7500
G01 X15.9444 Y149.2329 Z-3.7778
G01 X15.8752 Y149.1798 Z-3.8056
G01 X15.8016 Y149.1329 Z-3.8333
G01 X15.7242 Y149.0926 Z-3.8611
G01 X15.6436 Y149.0592 Z-3.8889
G01 X15.5604 Y149.0330 Z-3.9167
G01 X15.4753 Y149.0141 Z-3.9444
G01 X15.3888 Y149.0027 Z-3.9722
G01 X15.3016 Y148.9989 Z-4.0000
G01 X15.2145 Y149.0027 Z-4.0278
G01 X15.1280 Y149.0141 Z-4.0556
G01 X15.0428 Y149.0330 Z-4.0833
G01 X14.9596 Y149.0592 Z-4.1111
G01 X14.8790 Y149.0926 Z-4.1389
G01 X14.8016 Y149.1329 Z-4.1667
G01 X14.7281 Y149.1798 Z-4.1944
G01 X14.6588 Y149.2329 Z-4.2222
G01 X14.5945 Y149.2918 Z-4.2500
G01 X14.5356 Y149.3561 Z-4.2778
G01 X14.4825 Y149.4253 Z-4.3056
G01 X14.4356 Y149.4989 Z-4.3333
G01 X14.3953 Y149.5763 Z-4.3611
G01 X14.3619 Y149.6569 Z-4.3889
G01 X14.3357 Y149.7401 Z-4.4167
G01 X14.3168 Y149.8253 Z-4.4444
G01 X14.3054 Y149.9117 Z-4.4722
G01 X14.3016 Y149.9989 Z-4.5000
G01 X14.3054 Y150.0861 Z-4.5278
G01 X14.3168 Y150.1726 Z-4.5556
G01 X14.3357 Y150.2577 Z-4.5833
G01 X14.3619 Y150.3409 Z-4.6111
G01 X14.3953 Y150.4215 Z-4.6389
G01 X14.4356 Y150.4989 Z-4.6667
G01 X14.4825 Y150.5725 Z-4.6944
G01 X14.5356 Y150.6417 Z-4.7222
G01 X14.5945 Y150.7060 Z-4.7500
G01 X14.6588 Y150.7649 Z-4.7778
G01 X14.7281 Y150.8181 Z-4.8056
G01 X14.8016 Y150.8649 Z-4.8333
G01 X14.8790 Y150.9052 Z-4.8611
G01 X14.9596 Y150.9386 Z-4.8889
G01 X15.0428 Y150.9648 Z-4.9167
G01 X15.1280 Y150.9837 Z-4.9444
G01 X15.2145 Y150.9951 Z-4.9722
G01 X15.3016 Y150.9989 Z-5.0000
G01 X15.3888 Y150.9951 Z-5.0278
G01 X15.4753 Y150.9837 Z-5.0556
G01 X15.5604 Y150.9648 Z-5.0833
G01 X15.6436 Y150.9386 Z-5.1111
G01 X15.7242 Y150.9052 Z-5.1389
G01 X15.8016 Y150.8649 Z-5.1667
G01 X15.8752 Y150.8181 Z-5.1944
G01 X15.9444 Y150.7649 Z-5.2222
G01 X16.0087 Y150.7060 Z-5.2500
G01 X16.0677 Y150.6417 Z-5.2778
G01 X16.1208 Y150.5725 Z-5.3056
G01 X16.1677 Y150.4989 Z-5.3333
G01 X16.2079 Y150.4215 Z-5.3611
G01 X16.2413 Y150.3409 Z-5.3889
G01 X16.2676 Y150.2577 Z-5.4167
G01 X16.2864 Y150.1726 Z-5.4444
G01 X16.2978 Y150.0861 Z-5.4722
G01 X16.3016 Y149.9989 Z-5.5000
G01 X16.2978 Y149.9117
G01 X16.2864 Y149.8253
G01 X16.2676 Y149.7401
G01 X16.2413 Y149.6569
G01 X16.2079 Y149.5763
G01 X16.1677 Y149.4989
G01 X16.1208 Y149.4253
G01 X16.0677 Y149.3561
G01 X16.0087 Y149.2918
G01 X15.9444 Y149.2329
G01 X15.8752 Y149.1798
G01 X15.8016 Y149.1329
G01 X15.7242 Y149.0926
G01 X15.6436 Y149.0592
G01 X15.5604 Y149.0330
G01 X15.4753 Y149.0141
G01 X15.3888 Y149.0027
G01 X15.3016 Y148.9989
G01 X15.2145 Y149.0027
G01 X15.1280 Y149.0141
G01 X15.0428 Y149.0330
G01 X14.9596 Y149.0592
G01 X14.8790 Y149.0926
G01 X14.8016 Y149.1329
G01 X14.7281 Y149.1798
G01 X14.6588 Y149.2329
G01 X14.5945 Y149.2918
G01 X14.5356 Y149.3561
G01 X14.4825 Y149.4253
G01 X14.4356 Y149.4989
G01 X14.3953 Y149.5763
G01 X14.3619 Y149.6569
G01 X14.3357 Y149.7401
G01 X14.3168 Y149.8253
G01 X14.3054 Y149.9117
G01 X14.3016 Y149.9989
G01 X14.3054 Y150.0861
G01 X14.3168 Y150.1726
G01 X14.3357 Y150.2577
G01 X14.3619 Y150.3409
G01 X14.3953 Y150.4215
G01 X14.4356 Y150.4989
G01 X14.4825 Y150.5725
G01 X14.5356 Y150.6417
G01 X14.5945 Y150.7060
G01 X14.6588 Y150.7649
G01 X14.7281 Y150.8181
G01 X14.8016 Y150.8649
G01 X14.8790 Y150.9052
G01 X14.9596 Y150.9386
G01 X15.0428 Y150.9648
G01 X15.1280 Y150.9837
G01 X15.2145 Y150.9951
G01 X15.3016 Y150.9989
G01 X15.3888 Y150.9951
G01 X15.4753 Y150.9837
G01 X15.5604 Y150.9648
G01 X15.6436 Y150.9386
G01 X15.7242 Y150.9052
G01 X15.8016 Y150.8649
G01 X15.8752 Y150.8181
G01 X15.9444 Y150.7649
G01 X16.0087 Y150.7060
G01 X16.0677 Y150.6417
G01 X16.1208 Y150.5725
G01 X16.1677 Y150.4989
G01 X16.2079 Y150.4215
G01 X16.2413 Y150.3409
G01 X16.2676 Y150.2577
G01 X16.2864 Y150.1726
G01 X16.2978 Y150.0861
G01 X16.3016 Y149.9989
G01 X16.3124 Y149.9473 F1000
G01 X16.3205 Y149.8952
G01 X16.3258 Y149.8428
G01 X16.3285 Y149.7902
G01 Y149.7375
G01 X16.3257 Y149.6848
G01 X16.3203 Y149.6324
G01 X16.3121 Y149.5803
G01 X16.3004 Y149.5244
G01 X16.2858 Y149.4690
G01 X16.2685 Y149.4145
G01 X16.2483 Y149.3610
G01 X16.2255 Y149.3086
G01 X16.2000 Y149.2574
G01 X16.1719 Y149.2075
G01 X16.1413 Y149.1592
G01 X16.1057 Y149.1088
G01 X16.0676 Y149.0603
G01 X16.0270 Y149.0138
G01 X15.9842 Y148.9694
G01 X15.9391 Y148.9272
G01 X15.8920 Y148.8874
G01 X15.8429 Y148.8500
G01 X15.7919 Y148.8152
G01 X15.7354 Y148.7806
G01 X15.6773 Y148.7489
G01 X15.6176 Y148.7203
G01 X15.5565 Y148.6946
G01 X15.4942 Y148.6721
G01 X15.4309 Y148.6528
G01 X15.3666 Y148.6367
G01 X15.3016 Y148.6239
G01 X15.2316 Y148.6137
G01 X15.1611 Y148.6071
G01 X15.0904 Y148.6040
G01 X15.0197 Y148.6045
G01 X14.9490 Y148.6085
G01 X14.8787 Y148.6162
G01 X14.8088 Y148.6273
G01 X14.7396 Y148.6420
G01 X14.6714 Y148.6679
G01 X14.6046 Y148.6972
G01 X14.5393 Y148.7298
G01 X14.4756 Y148.7655
G01 X14.4139 Y148.8043
G01 X14.3541 Y148.8461
G01 X14.2964 Y148.8908
G01 X14.2410 Y148.9383
G01 X14.1902 Y148.9916
G01 X14.1421 Y149.0473
G01 X14.0968 Y149.1054
G01 X14.0544 Y149.1656
G01 X14.0151 Y149.2278
G01 X13.9788 Y149.2918
G01 X13.9457 Y149.3576
G01 X13.9158 Y149.4249
G01 X13.8893 Y149.4936
G01 X13.8662 Y149.5635
G01 X13.8466 Y149.6344
G01 X13.8305 Y149.7063
G01 X13.8179 Y149.7788
G01 X13.8089 Y149.8519
G01 X13.8035 Y149.9253
G01 X13.8017 Y149.9989
G01 X13.8035 Y150.0725
G01 X13.8089 Y150.1459
G01 X13.8179 Y150.2190
G01 X13.8305 Y150.2915
G01 X13.8466 Y150.3634
G01 X13.8662 Y150.4343
G01 X13.8893 Y150.5042
G01 X13.9158 Y150.5729
G01 X13.9457 Y150.6402
G01 X13.9788 Y150.7060
G01 X14.0151 Y150.7700
G01 X14.0544 Y150.8322
G01 X14.0968 Y150.8924
G01 X14.1421 Y150.9505
G01 X14.1902 Y151.0062
G01 X14.2410 Y151.0595
G01 X14.2943 Y151.1103
G01 X14.3501 Y151.1584
G01 X14.4081 Y151.2037
G01 X14.4683 Y151.2461
G01 X14.5305 Y151.2855
G01 X14.5945 Y151.3218
G01 X14.6603 Y151.3549
G01 X14.7276 Y151.3847
G01 X14.7963 Y151.4112
G01 X14.8662 Y151.4343
G01 X14.9372 Y151.4539
G01 X15.0090 Y151.4701
G01 X15.0815 Y151.4826
G01 X15.1546 Y151.4917
G01 X15.2280 Y151.4971
G01 X15.3016 Y151.4989
G01 X15.3752 Y151.4971
G01 X15.4487 Y151.4917
G01 X15.5217 Y151.4826
G01 X15.5943 Y151.4701
G01 X15.6661 Y151.4539
G01 X15.7370 Y151.4343
G01 X15.8070 Y151.4112
G01 X15.8756 Y151.3847
G01 X15.9430 Y151.3549
G01 X16.0087 Y151.3218
G01 X16.0728 Y151.2855
G01 X16.1350 Y151.2461
G01 X16.1952 Y151.2037
G01 X16.2532 Y151.1584
G01 X16.3090 Y151.1103
G01 X16.3623 Y151.0595
G01 X16.4130 Y151.0062
