;Project TeslaLoadingHere
;Created by Estlcam version 11 build 11,227
;Machining time about 00:21:45 hours

G90
M03 S18000
G00 X0.0000 Y0.0000 Z0.0000
G00 Z2.0000


;No. 1: Helical drill 1
G00 X23.6968 Y187.5791
G00 Z0.5000
M106 S240
G01 X23.6958 Y187.5396 Z0.4865 F400 S18000
G01 X23.6927 Y187.5002 Z0.4729
G01 X23.6875 Y187.4610 Z0.4594
G01 X23.6803 Y187.4221 Z0.4458
G01 X23.6711 Y187.3837 Z0.4323
G01 X23.6598 Y187.3458 Z0.4188
G01 X23.6466 Y187.3085 Z0.4052
G01 X23.6315 Y187.2720 Z0.3917
G01 X23.6145 Y187.2363 Z0.3781
G01 X23.5956 Y187.2016 Z0.3646
G01 X23.5750 Y187.1679 Z0.3510
G01 X23.5526 Y187.1353 Z0.3375
G01 X23.5285 Y187.1039 Z0.3240
G01 X23.5028 Y187.0739 Z0.3104
G01 X23.4756 Y187.0452 Z0.2969
G01 X23.4470 Y187.0180 Z0.2833
G01 X23.4169 Y186.9923 Z0.2698
G01 X23.3855 Y186.9682 Z0.2563
G01 X23.3530 Y186.9458 Z0.2427
G01 X23.3193 Y186.9252 Z0.2292
G01 X23.2845 Y186.9063 Z0.2156
G01 X23.2488 Y186.8893 Z0.2021
G01 X23.2123 Y186.8742 Z0.1885
G01 X23.1750 Y186.8610 Z0.1750
G01 X23.1371 Y186.8497 Z0.1615
G01 X23.0987 Y186.8405 Z0.1479
G01 X23.0598 Y186.8333 Z0.1344
G01 X23.0206 Y186.8282 Z0.1208
G01 X22.9812 Y186.8251 Z0.1073
G01 X22.9417 Y186.8240 Z0.0938
G01 X22.9022 Y186.8251 Z0.0802
G01 X22.8628 Y186.8282 Z0.0667
G01 X22.8236 Y186.8333 Z0.0531
G01 X22.7847 Y186.8405 Z0.0396
G01 X22.7463 Y186.8497 Z0.0260
G01 X22.7084 Y186.8610 Z0.0125
G01 X22.6711 Y186.8742 Z-0.0010
G01 X22.6346 Y186.8893 Z-0.0146
G01 X22.5989 Y186.9063 Z-0.0281
G01 X22.5642 Y186.9252 Z-0.0417
G01 X22.5305 Y186.9458 Z-0.0552
G01 X22.4979 Y186.9682 Z-0.0688
G01 X22.4665 Y186.9923 Z-0.0823
G01 X22.4365 Y187.0180 Z-0.0958
G01 X22.4078 Y187.0452 Z-0.1094
G01 X22.3806 Y187.0739 Z-0.1229
G01 X22.3549 Y187.1039 Z-0.1365
G01 X22.3308 Y187.1353 Z-0.1500
G01 X22.3084 Y187.1679 Z-0.1635
G01 X22.2878 Y187.2016 Z-0.1771
G01 X22.2689 Y187.2363 Z-0.1906
G01 X22.2519 Y187.2720 Z-0.2042
G01 X22.2368 Y187.3085 Z-0.2177
G01 X22.2236 Y187.3458 Z-0.2313
G01 X22.2124 Y187.3837 Z-0.2448
G01 X22.2031 Y187.4221 Z-0.2583
G01 X22.1959 Y187.4610 Z-0.2719
G01 X22.1908 Y187.5002 Z-0.2854
G01 X22.1877 Y187.5396 Z-0.2990
G01 X22.1866 Y187.5791 Z-0.3125
G01 X22.1877 Y187.6186 Z-0.3260
G01 X22.1908 Y187.6580 Z-0.3396
G01 X22.1959 Y187.6972 Z-0.3531
G01 X22.2031 Y187.7361 Z-0.3667
G01 X22.2124 Y187.7745 Z-0.3802
G01 X22.2236 Y187.8124 Z-0.3938
G01 X22.2368 Y187.8497 Z-0.4073
G01 X22.2519 Y187.8862 Z-0.4208
G01 X22.2689 Y187.9219 Z-0.4344
G01 X22.2878 Y187.9566 Z-0.4479
G01 X22.3084 Y187.9904 Z-0.4615
G01 X22.3308 Y188.0229 Z-0.4750
G01 X22.3549 Y188.0543 Z-0.4885
G01 X22.3806 Y188.0844 Z-0.5021
G01 X22.4078 Y188.1130 Z-0.5156
G01 X22.4365 Y188.1402 Z-0.5292
G01 X22.4665 Y188.1659 Z-0.5427
G01 X22.4979 Y188.1900 Z-0.5563
G01 X22.5305 Y188.2124 Z-0.5698
G01 X22.5642 Y188.2330 Z-0.5833
G01 X22.5989 Y188.2519 Z-0.5969
G01 X22.6346 Y188.2689 Z-0.6104
G01 X22.6711 Y188.2840 Z-0.6240
G01 X22.7084 Y188.2972 Z-0.6375
G01 X22.7463 Y188.3085 Z-0.6510
G01 X22.7847 Y188.3177 Z-0.6646
G01 X22.8236 Y188.3249 Z-0.6781
G01 X22.8628 Y188.3301 Z-0.6917
G01 X22.9022 Y188.3332 Z-0.7052
G01 X22.9417 Y188.3342 Z-0.7188
G01 X22.9812 Y188.3332 Z-0.7323
G01 X23.0206 Y188.3301 Z-0.7458
G01 X23.0598 Y188.3249 Z-0.7594
G01 X23.0987 Y188.3177 Z-0.7729
G01 X23.1371 Y188.3085 Z-0.7865
G01 X23.1750 Y188.2972 Z-0.8000
G01 X23.2123 Y188.2840 Z-0.8135
G01 X23.2488 Y188.2689 Z-0.8271
G01 X23.2845 Y188.2519 Z-0.8406
G01 X23.3193 Y188.2330 Z-0.8542
G01 X23.3530 Y188.2124 Z-0.8677
G01 X23.3855 Y188.1900 Z-0.8813
G01 X23.4169 Y188.1659 Z-0.8948
G01 X23.4470 Y188.1402 Z-0.9083
G01 X23.4756 Y188.1130 Z-0.9219
G01 X23.5028 Y188.0844 Z-0.9354
G01 X23.5285 Y188.0543 Z-0.9490
G01 X23.5526 Y188.0229 Z-0.9625
G01 X23.5750 Y187.9904 Z-0.9760
G01 X23.5956 Y187.9566 Z-0.9896
G01 X23.6145 Y187.9219 Z-1.0031
G01 X23.6315 Y187.8862 Z-1.0167
G01 X23.6466 Y187.8497 Z-1.0302
G01 X23.6598 Y187.8124 Z-1.0438
G01 X23.6711 Y187.7745 Z-1.0573
G01 X23.6803 Y187.7361 Z-1.0708
G01 X23.6875 Y187.6972 Z-1.0844
G01 X23.6927 Y187.6580 Z-1.0979
G01 X23.6958 Y187.6186 Z-1.1115
G01 X23.6968 Y187.5791 Z-1.1250
G01 X23.6958 Y187.5396 Z-1.1385
G01 X23.6927 Y187.5002 Z-1.1521
G01 X23.6875 Y187.4610 Z-1.1656
G01 X23.6803 Y187.4221 Z-1.1792
G01 X23.6711 Y187.3837 Z-1.1927
G01 X23.6598 Y187.3458 Z-1.2063
G01 X23.6466 Y187.3085 Z-1.2198
G01 X23.6315 Y187.2720 Z-1.2333
G01 X23.6145 Y187.2363 Z-1.2469
G01 X23.5956 Y187.2016 Z-1.2604
G01 X23.5750 Y187.1679 Z-1.2740
G01 X23.5526 Y187.1353 Z-1.2875
G01 X23.5285 Y187.1039 Z-1.3010
G01 X23.5028 Y187.0739 Z-1.3146
G01 X23.4756 Y187.0452 Z-1.3281
G01 X23.4470 Y187.0180 Z-1.3417
G01 X23.4169 Y186.9923 Z-1.3552
G01 X23.3855 Y186.9682 Z-1.3688
G01 X23.3530 Y186.9458 Z-1.3823
G01 X23.3193 Y186.9252 Z-1.3958
G01 X23.2845 Y186.9063 Z-1.4094
G01 X23.2488 Y186.8893 Z-1.4229
G01 X23.2123 Y186.8742 Z-1.4365
G01 X23.1750 Y186.8610 Z-1.4500
G01 X23.1371 Y186.8497 Z-1.4635
G01 X23.0987 Y186.8405 Z-1.4771
G01 X23.0598 Y186.8333 Z-1.4906
G01 X23.0206 Y186.8282 Z-1.5042
G01 X22.9812 Y186.8251 Z-1.5177
G01 X22.9417 Y186.8240 Z-1.5313
G01 X22.9022 Y186.8251 Z-1.5448
G01 X22.8628 Y186.8282 Z-1.5583
G01 X22.8236 Y186.8333 Z-1.5719
G01 X22.7847 Y186.8405 Z-1.5854
G01 X22.7463 Y186.8497 Z-1.5990
G01 X22.7084 Y186.8610 Z-1.6125
G01 X22.6711 Y186.8742 Z-1.6260
G01 X22.6346 Y186.8893 Z-1.6396
G01 X22.5989 Y186.9063 Z-1.6531
G01 X22.5642 Y186.9252 Z-1.6667
G01 X22.5305 Y186.9458 Z-1.6802
G01 X22.4979 Y186.9682 Z-1.6938
G01 X22.4665 Y186.9923 Z-1.7073
G01 X22.4365 Y187.0180 Z-1.7208
G01 X22.4078 Y187.0452 Z-1.7344
G01 X22.3806 Y187.0739 Z-1.7479
G01 X22.3549 Y187.1039 Z-1.7615
G01 X22.3308 Y187.1353 Z-1.7750
G01 X22.3084 Y187.1679 Z-1.7885
G01 X22.2878 Y187.2016 Z-1.8021
G01 X22.2689 Y187.2363 Z-1.8156
G01 X22.2519 Y187.2720 Z-1.8292
G01 X22.2368 Y187.3085 Z-1.8427
G01 X22.2236 Y187.3458 Z-1.8563
G01 X22.2124 Y187.3837 Z-1.8698
G01 X22.2031 Y187.4221 Z-1.8833
G01 X22.1959 Y187.4610 Z-1.8969
G01 X22.1908 Y187.5002 Z-1.9104
G01 X22.1877 Y187.5396 Z-1.9240
G01 X22.1866 Y187.5791 Z-1.9375
G01 X22.1877 Y187.6186 Z-1.9510
G01 X22.1908 Y187.6580 Z-1.9646
G01 X22.1959 Y187.6972 Z-1.9781
G01 X22.2031 Y187.7361 Z-1.9917
G01 X22.2124 Y187.7745 Z-2.0052
G01 X22.2236 Y187.8124 Z-2.0188
G01 X22.2368 Y187.8497 Z-2.0323
G01 X22.2519 Y187.8862 Z-2.0458
G01 X22.2689 Y187.9219 Z-2.0594
G01 X22.2878 Y187.9566 Z-2.0729
G01 X22.3084 Y187.9904 Z-2.0865
G01 X22.3308 Y188.0229 Z-2.1000
G01 X22.3549 Y188.0543 Z-2.1135
G01 X22.3806 Y188.0844 Z-2.1271
G01 X22.4078 Y188.1130 Z-2.1406
G01 X22.4365 Y188.1402 Z-2.1542
G01 X22.4665 Y188.1659 Z-2.1677
G01 X22.4979 Y188.1900 Z-2.1813
G01 X22.5305 Y188.2124 Z-2.1948
G01 X22.5642 Y188.2330 Z-2.2083
G01 X22.5989 Y188.2519 Z-2.2219
G01 X22.6346 Y188.2689 Z-2.2354
G01 X22.6711 Y188.2840 Z-2.2490
G01 X22.7084 Y188.2972 Z-2.2625
G01 X22.7463 Y188.3085 Z-2.2760
G01 X22.7847 Y188.3177 Z-2.2896
G01 X22.8236 Y188.3249 Z-2.3031
G01 X22.8628 Y188.3301 Z-2.3167
G01 X22.9022 Y188.3332 Z-2.3302
G01 X22.9417 Y188.3342 Z-2.3438
G01 X22.9812 Y188.3332 Z-2.3573
G01 X23.0206 Y188.3301 Z-2.3708
G01 X23.0598 Y188.3249 Z-2.3844
G01 X23.0987 Y188.3177 Z-2.3979
G01 X23.1371 Y188.3085 Z-2.4115
G01 X23.1750 Y188.2972 Z-2.4250
G01 X23.2123 Y188.2840 Z-2.4385
G01 X23.2488 Y188.2689 Z-2.4521
G01 X23.2845 Y188.2519 Z-2.4656
G01 X23.3193 Y188.2330 Z-2.4792
G01 X23.3530 Y188.2124 Z-2.4927
G01 X23.3855 Y188.1900 Z-2.5063
G01 X23.4169 Y188.1659 Z-2.5198
G01 X23.4470 Y188.1402 Z-2.5333
G01 X23.4756 Y188.1130 Z-2.5469
G01 X23.5028 Y188.0844 Z-2.5604
G01 X23.5285 Y188.0543 Z-2.5740
G01 X23.5526 Y188.0229 Z-2.5875
G01 X23.5750 Y187.9904 Z-2.6010
G01 X23.5956 Y187.9566 Z-2.6146
G01 X23.6145 Y187.9219 Z-2.6281
G01 X23.6315 Y187.8862 Z-2.6417
G01 X23.6466 Y187.8497 Z-2.6552
G01 X23.6598 Y187.8124 Z-2.6688
G01 X23.6711 Y187.7745 Z-2.6823
G01 X23.6803 Y187.7361 Z-2.6958
G01 X23.6875 Y187.6972 Z-2.7094
G01 X23.6927 Y187.6580 Z-2.7229
G01 X23.6958 Y187.6186 Z-2.7365
G01 X23.6968 Y187.5791 Z-2.7500
G01 X23.6958 Y187.5396 Z-2.7635
G01 X23.6927 Y187.5002 Z-2.7771
G01 X23.6875 Y187.4610 Z-2.7906
G01 X23.6803 Y187.4221 Z-2.8042
G01 X23.6711 Y187.3837 Z-2.8177
G01 X23.6598 Y187.3458 Z-2.8313
G01 X23.6466 Y187.3085 Z-2.8448
G01 X23.6315 Y187.2720 Z-2.8583
G01 X23.6145 Y187.2363 Z-2.8719
G01 X23.5956 Y187.2016 Z-2.8854
G01 X23.5750 Y187.1679 Z-2.8990
G01 X23.5526 Y187.1353 Z-2.9125
G01 X23.5285 Y187.1039 Z-2.9260
G01 X23.5028 Y187.0739 Z-2.9396
G01 X23.4756 Y187.0452 Z-2.9531
G01 X23.4470 Y187.0180 Z-2.9667
G01 X23.4169 Y186.9923 Z-2.9802
G01 X23.3855 Y186.9682 Z-2.9938
G01 X23.3530 Y186.9458 Z-3.0073
G01 X23.3193 Y186.9252 Z-3.0208
G01 X23.2845 Y186.9063 Z-3.0344
G01 X23.2488 Y186.8893 Z-3.0479
G01 X23.2123 Y186.8742 Z-3.0615
G01 X23.1750 Y186.8610 Z-3.0750
G01 X23.1371 Y186.8497 Z-3.0885
G01 X23.0987 Y186.8405 Z-3.1021
G01 X23.0598 Y186.8333 Z-3.1156
G01 X23.0206 Y186.8282 Z-3.1292
G01 X22.9812 Y186.8251 Z-3.1427
G01 X22.9417 Y186.8240 Z-3.1563
G01 X22.9022 Y186.8251 Z-3.1698
G01 X22.8628 Y186.8282 Z-3.1833
G01 X22.8236 Y186.8333 Z-3.1969
G01 X22.7847 Y186.8405 Z-3.2104
G01 X22.7463 Y186.8497 Z-3.2240
G01 X22.7084 Y186.8610 Z-3.2375
G01 X22.6711 Y186.8742 Z-3.2510
G01 X22.6346 Y186.8893 Z-3.2646
G01 X22.5989 Y186.9063 Z-3.2781
G01 X22.5642 Y186.9252 Z-3.2917
G01 X22.5305 Y186.9458 Z-3.3052
G01 X22.4979 Y186.9682 Z-3.3188
G01 X22.4665 Y186.9923 Z-3.3323
G01 X22.4365 Y187.0180 Z-3.3458
G01 X22.4078 Y187.0452 Z-3.3594
G01 X22.3806 Y187.0739 Z-3.3729
G01 X22.3549 Y187.1039 Z-3.3865
G01 X22.3308 Y187.1353 Z-3.4000
G01 X22.3084 Y187.1679 Z-3.4135
G01 X22.2878 Y187.2016 Z-3.4271
G01 X22.2689 Y187.2363 Z-3.4406
G01 X22.2519 Y187.2720 Z-3.4542
G01 X22.2368 Y187.3085 Z-3.4677
G01 X22.2236 Y187.3458 Z-3.4813
G01 X22.2124 Y187.3837 Z-3.4948
G01 X22.2031 Y187.4221 Z-3.5083
G01 X22.1959 Y187.4610 Z-3.5219
G01 X22.1908 Y187.5002 Z-3.5354
G01 X22.1877 Y187.5396 Z-3.5490
G01 X22.1866 Y187.5791 Z-3.5625
G01 X22.1877 Y187.6186 Z-3.5760
G01 X22.1908 Y187.6580 Z-3.5896
G01 X22.1959 Y187.6972 Z-3.6031
G01 X22.2031 Y187.7361 Z-3.6167
G01 X22.2124 Y187.7745 Z-3.6302
G01 X22.2236 Y187.8124 Z-3.6438
G01 X22.2368 Y187.8497 Z-3.6573
G01 X22.2519 Y187.8862 Z-3.6708
G01 X22.2689 Y187.9219 Z-3.6844
G01 X22.2878 Y187.9566 Z-3.6979
G01 X22.3084 Y187.9904 Z-3.7115
G01 X22.3308 Y188.0229 Z-3.7250
G01 X22.3549 Y188.0543 Z-3.7385
G01 X22.3806 Y188.0844 Z-3.7521
G01 X22.4078 Y188.1130 Z-3.7656
G01 X22.4365 Y188.1402 Z-3.7792
G01 X22.4665 Y188.1659 Z-3.7927
G01 X22.4979 Y188.1900 Z-3.8063
G01 X22.5305 Y188.2124 Z-3.8198
G01 X22.5642 Y188.2330 Z-3.8333
G01 X22.5989 Y188.2519 Z-3.8469
G01 X22.6346 Y188.2689 Z-3.8604
G01 X22.6711 Y188.2840 Z-3.8740
G01 X22.7084 Y188.2972 Z-3.8875
G01 X22.7463 Y188.3085 Z-3.9010
G01 X22.7847 Y188.3177 Z-3.9146
G01 X22.8236 Y188.3249 Z-3.9281
G01 X22.8628 Y188.3301 Z-3.9417
G01 X22.9022 Y188.3332 Z-3.9552
G01 X22.9417 Y188.3342 Z-3.9688
G01 X22.9812 Y188.3332 Z-3.9823
G01 X23.0206 Y188.3301 Z-3.9958
G01 X23.0598 Y188.3249 Z-4.0094
G01 X23.0987 Y188.3177 Z-4.0229
G01 X23.1371 Y188.3085 Z-4.0365
G01 X23.1750 Y188.2972 Z-4.0500
G01 X23.2123 Y188.2840 Z-4.0635
G01 X23.2488 Y188.2689 Z-4.0771
G01 X23.2845 Y188.2519 Z-4.0906
G01 X23.3193 Y188.2330 Z-4.1042
G01 X23.3530 Y188.2124 Z-4.1177
G01 X23.3855 Y188.1900 Z-4.1313
G01 X23.4169 Y188.1659 Z-4.1448
G01 X23.4470 Y188.1402 Z-4.1583
G01 X23.4756 Y188.1130 Z-4.1719
G01 X23.5028 Y188.0844 Z-4.1854
G01 X23.5285 Y188.0543 Z-4.1990
G01 X23.5526 Y188.0229 Z-4.2125
G01 X23.5750 Y187.9904 Z-4.2260
G01 X23.5956 Y187.9566 Z-4.2396
G01 X23.6145 Y187.9219 Z-4.2531
G01 X23.6315 Y187.8862 Z-4.2667
G01 X23.6466 Y187.8497 Z-4.2802
G01 X23.6598 Y187.8124 Z-4.2938
G01 X23.6711 Y187.7745 Z-4.3073
G01 X23.6803 Y187.7361 Z-4.3208
G01 X23.6875 Y187.6972 Z-4.3344
G01 X23.6927 Y187.6580 Z-4.3479
G01 X23.6958 Y187.6186 Z-4.3615
G01 X23.6968 Y187.5791 Z-4.3750
G01 X23.6958 Y187.5396 Z-4.3885
G01 X23.6927 Y187.5002 Z-4.4021
G01 X23.6875 Y187.4610 Z-4.4156
G01 X23.6803 Y187.4221 Z-4.4292
G01 X23.6711 Y187.3837 Z-4.4427
G01 X23.6598 Y187.3458 Z-4.4563
G01 X23.6466 Y187.3085 Z-4.4698
G01 X23.6315 Y187.2720 Z-4.4833
G01 X23.6145 Y187.2363 Z-4.4969
G01 X23.5956 Y187.2016 Z-4.5104
G01 X23.5750 Y187.1679 Z-4.5240
G01 X23.5526 Y187.1353 Z-4.5375
G01 X23.5285 Y187.1039 Z-4.5510
G01 X23.5028 Y187.0739 Z-4.5646
G01 X23.4756 Y187.0452 Z-4.5781
G01 X23.4470 Y187.0180 Z-4.5917
G01 X23.4169 Y186.9923 Z-4.6052
G01 X23.3855 Y186.9682 Z-4.6188
G01 X23.3530 Y186.9458 Z-4.6323
G01 X23.3193 Y186.9252 Z-4.6458
G01 X23.2845 Y186.9063 Z-4.6594
G01 X23.2488 Y186.8893 Z-4.6729
G01 X23.2123 Y186.8742 Z-4.6865
G01 X23.1750 Y186.8610 Z-4.7000
G01 X23.1371 Y186.8497 Z-4.7135
G01 X23.0987 Y186.8405 Z-4.7271
G01 X23.0598 Y186.8333 Z-4.7406
G01 X23.0206 Y186.8282 Z-4.7542
G01 X22.9812 Y186.8251 Z-4.7677
G01 X22.9417 Y186.8240 Z-4.7813
G01 X22.9022 Y186.8251 Z-4.7948
G01 X22.8628 Y186.8282 Z-4.8083
G01 X22.8236 Y186.8333 Z-4.8219
G01 X22.7847 Y186.8405 Z-4.8354
G01 X22.7463 Y186.8497 Z-4.8490
G01 X22.7084 Y186.8610 Z-4.8625
G01 X22.6711 Y186.8742 Z-4.8760
G01 X22.6346 Y186.8893 Z-4.8896
G01 X22.5989 Y186.9063 Z-4.9031
G01 X22.5642 Y186.9252 Z-4.9167
G01 X22.5305 Y186.9458 Z-4.9302
G01 X22.4979 Y186.9682 Z-4.9438
G01 X22.4665 Y186.9923 Z-4.9573
G01 X22.4365 Y187.0180 Z-4.9708
G01 X22.4078 Y187.0452 Z-4.9844
G01 X22.3806 Y187.0739 Z-4.9979
G01 X22.3549 Y187.1039 Z-5.0115
G01 X22.3308 Y187.1353 Z-5.0250
G01 X22.3084 Y187.1679 Z-5.0385
G01 X22.2878 Y187.2016 Z-5.0521
G01 X22.2689 Y187.2363 Z-5.0656
G01 X22.2519 Y187.2720 Z-5.0792
G01 X22.2368 Y187.3085 Z-5.0927
G01 X22.2236 Y187.3458 Z-5.1063
G01 X22.2124 Y187.3837 Z-5.1198
G01 X22.2031 Y187.4221 Z-5.1333
G01 X22.1959 Y187.4610 Z-5.1469
G01 X22.1908 Y187.5002 Z-5.1604
G01 X22.1877 Y187.5396 Z-5.1740
G01 X22.1866 Y187.5791 Z-5.1875
G01 X22.1877 Y187.6186 Z-5.2010
G01 X22.1908 Y187.6580 Z-5.2146
G01 X22.1959 Y187.6972 Z-5.2281
G01 X22.2031 Y187.7361 Z-5.2417
G01 X22.2124 Y187.7745 Z-5.2552
G01 X22.2236 Y187.8124 Z-5.2688
G01 X22.2368 Y187.8497 Z-5.2823
G01 X22.2519 Y187.8862 Z-5.2958
G01 X22.2689 Y187.9219 Z-5.3094
G01 X22.2878 Y187.9566 Z-5.3229
G01 X22.3084 Y187.9904 Z-5.3365
G01 X22.3308 Y188.0229 Z-5.3500
G01 X22.3549 Y188.0543 Z-5.3635
G01 X22.3806 Y188.0844 Z-5.3771
G01 X22.4078 Y188.1130 Z-5.3906
G01 X22.4365 Y188.1402 Z-5.4042
G01 X22.4665 Y188.1659 Z-5.4177
G01 X22.4979 Y188.1900 Z-5.4313
G01 X22.5305 Y188.2124 Z-5.4448
G01 X22.5642 Y188.2330 Z-5.4583
G01 X22.5989 Y188.2519 Z-5.4719
G01 X22.6346 Y188.2689 Z-5.4854
G01 X22.6711 Y188.2840 Z-5.4990
G01 X22.7084 Y188.2972 Z-5.5125
G01 X22.7463 Y188.3085 Z-5.5260
G01 X22.7847 Y188.3177 Z-5.5396
G01 X22.8236 Y188.3249 Z-5.5531
G01 X22.8628 Y188.3301 Z-5.5667
G01 X22.9022 Y188.3332 Z-5.5802
G01 X22.9417 Y188.3342 Z-5.5938
G01 X22.9812 Y188.3332 Z-5.6073
G01 X23.0206 Y188.3301 Z-5.6208
G01 X23.0598 Y188.3249 Z-5.6344
G01 X23.0987 Y188.3177 Z-5.6479
G01 X23.1371 Y188.3085 Z-5.6615
G01 X23.1750 Y188.2972 Z-5.6750
G01 X23.2123 Y188.2840 Z-5.6885
G01 X23.2488 Y188.2689 Z-5.7021
G01 X23.2845 Y188.2519 Z-5.7156
G01 X23.3193 Y188.2330 Z-5.7292
G01 X23.3530 Y188.2124 Z-5.7427
G01 X23.3855 Y188.1900 Z-5.7563
G01 X23.4169 Y188.1659 Z-5.7698
G01 X23.4470 Y188.1402 Z-5.7833
G01 X23.4756 Y188.1130 Z-5.7969
G01 X23.5028 Y188.0844 Z-5.8104
G01 X23.5285 Y188.0543 Z-5.8240
G01 X23.5526 Y188.0229 Z-5.8375
G01 X23.5750 Y187.9904 Z-5.8510
G01 X23.5956 Y187.9566 Z-5.8646
G01 X23.6145 Y187.9219 Z-5.8781
G01 X23.6315 Y187.8862 Z-5.8917
G01 X23.6466 Y187.8497 Z-5.9052
G01 X23.6598 Y187.8124 Z-5.9188
G01 X23.6711 Y187.7745 Z-5.9323
G01 X23.6803 Y187.7361 Z-5.9458
G01 X23.6875 Y187.6972 Z-5.9594
G01 X23.6927 Y187.6580 Z-5.9729
G01 X23.6958 Y187.6186 Z-5.9865
G01 X23.6968 Y187.5791 Z-6.0000
G01 X23.6958 Y187.5396
G01 X23.6927 Y187.5002
G01 X23.6875 Y187.4610
G01 X23.6803 Y187.4221
G01 X23.6711 Y187.3837
G01 X23.6598 Y187.3458
G01 X23.6466 Y187.3085
G01 X23.6315 Y187.2720
G01 X23.6145 Y187.2363
G01 X23.5956 Y187.2016
G01 X23.5750 Y187.1679
G01 X23.5526 Y187.1353
G01 X23.5285 Y187.1039
G01 X23.5028 Y187.0739
G01 X23.4756 Y187.0452
G01 X23.4470 Y187.0180
G01 X23.4169 Y186.9923
G01 X23.3855 Y186.9682
G01 X23.3530 Y186.9458
G01 X23.3193 Y186.9252
G01 X23.2845 Y186.9063
G01 X23.2488 Y186.8893
G01 X23.2123 Y186.8742
G01 X23.1750 Y186.8610
G01 X23.1371 Y186.8497
G01 X23.0987 Y186.8405
G01 X23.0598 Y186.8333
G01 X23.0206 Y186.8282
G01 X22.9812 Y186.8251
G01 X22.9417 Y186.8240
G01 X22.9022 Y186.8251
G01 X22.8628 Y186.8282
G01 X22.8236 Y186.8333
G01 X22.7847 Y186.8405
G01 X22.7463 Y186.8497
G01 X22.7084 Y186.8610
G01 X22.6711 Y186.8742
G01 X22.6346 Y186.8893
G01 X22.5989 Y186.9063
G01 X22.5642 Y186.9252
G01 X22.5305 Y186.9458
G01 X22.4979 Y186.9682
G01 X22.4665 Y186.9923
G01 X22.4365 Y187.0180
G01 X22.4078 Y187.0452
G01 X22.3806 Y187.0739
G01 X22.3549 Y187.1039
G01 X22.3308 Y187.1353
G01 X22.3084 Y187.1679
G01 X22.2878 Y187.2016
G01 X22.2689 Y187.2363
G01 X22.2519 Y187.2720
G01 X22.2368 Y187.3085
G01 X22.2236 Y187.3458
G01 X22.2124 Y187.3837
G01 X22.2031 Y187.4221
G01 X22.1959 Y187.4610
G01 X22.1908 Y187.5002
G01 X22.1877 Y187.5396
G01 X22.1866 Y187.5791
G01 X22.1877 Y187.6186
G01 X22.1908 Y187.6580
G01 X22.1959 Y187.6972
G01 X22.2031 Y187.7361
G01 X22.2124 Y187.7745
G01 X22.2236 Y187.8124
G01 X22.2368 Y187.8497
G01 X22.2519 Y187.8862
G01 X22.2689 Y187.9219
G01 X22.2878 Y187.9566
G01 X22.3084 Y187.9904
G01 X22.3308 Y188.0229
G01 X22.3549 Y188.0543
G01 X22.3806 Y188.0844
G01 X22.4078 Y188.1130
G01 X22.4365 Y188.1402
G01 X22.4665 Y188.1659
G01 X22.4979 Y188.1900
G01 X22.5305 Y188.2124
G01 X22.5642 Y188.2330
G01 X22.5989 Y188.2519
G01 X22.6346 Y188.2689
G01 X22.6711 Y188.2840
G01 X22.7084 Y188.2972
G01 X22.7463 Y188.3085
G01 X22.7847 Y188.3177
G01 X22.8236 Y188.3249
G01 X22.8628 Y188.3301
G01 X22.9022 Y188.3332
G01 X22.9417 Y188.3342
G01 X22.9812 Y188.3332
G01 X23.0206 Y188.3301
G01 X23.0598 Y188.3249
G01 X23.0987 Y188.3177
G01 X23.1371 Y188.3085
G01 X23.1750 Y188.2972
G01 X23.2123 Y188.2840
G01 X23.2488 Y188.2689
G01 X23.2845 Y188.2519
G01 X23.3193 Y188.2330
G01 X23.3530 Y188.2124
G01 X23.3855 Y188.1900
G01 X23.4169 Y188.1659
G01 X23.4470 Y188.1402
G01 X23.4756 Y188.1130
G01 X23.5028 Y188.0844
G01 X23.5285 Y188.0543
G01 X23.5526 Y188.0229
G01 X23.5750 Y187.9904
G01 X23.5956 Y187.9566
G01 X23.6145 Y187.9219
G01 X23.6315 Y187.8862
G01 X23.6466 Y187.8497
G01 X23.6598 Y187.8124
G01 X23.6711 Y187.7745
G01 X23.6803 Y187.7361
G01 X23.6875 Y187.6972
G01 X23.6927 Y187.6580
G01 X23.6958 Y187.6186
G01 X23.6968 Y187.5791
M107
M106 S240
G01 X23.6958 Y187.5522 Z-5.9886
M107
M106 S240
G01 X23.6930 Y187.5254 Z-5.9773
M107
M106 S240
G01 X23.6882 Y187.4988 Z-5.9659
M107
M106 S240
G01 X23.6815 Y187.4727 Z-5.9545
M107
M106 S240
G01 X23.6730 Y187.4472 Z-5.9432
M107
M106 S240
G01 X23.6627 Y187.4223 Z-5.9318
M107
M106 S240
G01 X23.6506 Y187.3982 Z-5.9205
M107
M106 S240
G01 X23.6369 Y187.3750 Z-5.9091
M107
M106 S240
G01 X23.6215 Y187.3528 Z-5.8977
M107
M106 S240
G01 X23.6046 Y187.3319 Z-5.8864
M107
M106 S240
G01 X23.5862 Y187.3121 Z-5.8750
M107
M106 S240
G01 X23.5665 Y187.2938 Z-5.8636
M107
M106 S240
G01 X23.5455 Y187.2769 Z-5.8523
M107
M106 S240
G01 X23.5234 Y187.2615 Z-5.8409
M107
M106 S240
G01 X23.5002 Y187.2477 Z-5.8295
M107
M106 S240
G01 X23.4761 Y187.2357 Z-5.8182
M107
M106 S240
G01 X23.4512 Y187.2254 Z-5.8068
M107
M106 S240
G01 X23.4256 Y187.2169 Z-5.7955
M107
M106 S240
G01 X23.3995 Y187.2102 Z-5.7841
M107
M106 S240
G01 X23.3730 Y187.2054 Z-5.7727
M107
M106 S240
G01 X23.3462 Y187.2025 Z-5.7614
M107
M106 S240
G01 X23.3193 Y187.2016 Z-5.7500
M107
M106 S240
G01 X23.2923 Y187.2025 Z-5.7386
M107
M106 S240
G01 X23.2655 Y187.2054 Z-5.7273
M107
M106 S240
G01 X23.2390 Y187.2102 Z-5.7159
M107
M106 S240
G01 X23.2129 Y187.2169 Z-5.7045
M107
M106 S240
G01 X23.1873 Y187.2254 Z-5.6932
M107
M106 S240
G01 X23.1624 Y187.2357 Z-5.6818
M107
M106 S240
G01 X23.1383 Y187.2477 Z-5.6705
M107
M106 S240
G01 X23.1151 Y187.2615 Z-5.6591
M107
M106 S240
G01 X23.0930 Y187.2769 Z-5.6477
M107
M106 S240
G01 X23.0720 Y187.2938 Z-5.6364
M107
M106 S240
G01 X23.0523 Y187.3121 Z-5.6250
M107
M106 S240
G01 X23.0339 Y187.3319 Z-5.6136
M107
M106 S240
G01 X23.0170 Y187.3528 Z-5.6023
M107
M106 S240
G01 X23.0016 Y187.3750 Z-5.5909
M107
M106 S240
G01 X22.9879 Y187.3982 Z-5.5795
M107
M106 S240
G01 X22.9758 Y187.4223 Z-5.5682
M107
M106 S240
G01 X22.9655 Y187.4472 Z-5.5568
M107
M106 S240
G01 X22.9570 Y187.4727 Z-5.5455
M107
M106 S240
G01 X22.9503 Y187.4988 Z-5.5341
M107
M106 S240
G01 X22.9456 Y187.5254 Z-5.5227
M107
M106 S240
G01 X22.9427 Y187.5522 Z-5.5114
M107
M106 S240
G01 X22.9417 Y187.5791 Z-5.5000
M107
G00 Z2.0000


;No. 2: Hole 1
G00 X21.2082 Y176.8094 Z2.0000
G00 Z0.5000
G01 Z0.0000 F400
G01 Z-1.8000
M106 S240
G01 X39.2190 F1000
G01 X32.0739
G01 Y175.3094
G01 X28.3585
G01 X29.0246
G01 Y173.8094
G01 X31.4078
G01 Y172.3094
G01 X29.0246
G01 Y170.8094
G01 X31.4078
G01 Y169.3094
G01 X29.0246
G01 Y167.8094
G01 X31.4078
G01 Y166.3094
G01 X29.0246
G01 Y164.8094
G01 X31.4078
G01 Y163.3094
G01 X29.0246
G01 X28.8246 Y163.3240
G01 Y174.2352
G01 X28.8237 Y174.2788
G01 X28.8208 Y174.3223
G01 X28.8161 Y174.3657
G01 X28.8094 Y174.4088
G01 X28.8009 Y174.4516
G01 X28.7906 Y174.4940
G01 X28.7783 Y174.5359
G01 X28.7643 Y174.5772
G01 X28.7485 Y174.6178
G01 X28.7309 Y174.6578
G01 X28.7116 Y174.6969
G01 X28.6907 Y174.7352
G01 X28.6680 Y174.7724
G01 X28.6438 Y174.8087
G01 X28.6180 Y174.8439
G01 X28.5907 Y174.8779
G01 X28.5619 Y174.9107
G01 X28.5317 Y174.9423
G01 X28.5002 Y174.9724
G01 X28.4674 Y175.0012
G01 X28.4334 Y175.0285
G01 X28.3982 Y175.0543
G01 X28.3619 Y175.0785
G01 X28.3246 Y175.1012
G01 X28.2864 Y175.1222
G01 X28.2472 Y175.1415
G01 X28.2073 Y175.1590
G01 X28.1666 Y175.1748
G01 X28.1253 Y175.1889
G01 X28.0834 Y175.2011
G01 X28.0411 Y175.2114
G01 X27.9983 Y175.2200
G01 X27.9552 Y175.2266
G01 X27.9118 Y175.2313
G01 X27.8682 Y175.2342
G01 X27.8246 Y175.2352
G01 X26.7461 Y175.2194
G01 X25.6674 Y175.2147
G01 X24.5888 Y175.2209
G01 X23.5103 Y175.2383
G01 X23.3537 Y175.2471
G01 X23.1978 Y175.2642
G01 X23.0430 Y175.2895
G01 X22.8898 Y175.3228
G01 X22.7385 Y175.3642
G01 X22.5896 Y175.4135
G01 X22.4435 Y175.4706
G01 X22.3006 Y175.5353
G01 X22.1613 Y175.6074
G01 X22.0261 Y175.6867
G01 X21.8951 Y175.7730
G01 X21.7689 Y175.8662
G01 X21.6478 Y175.9658
G01 X21.5321 Y176.0716
G01 X21.4221 Y176.1834
G01 X21.3181 Y176.3009
G01 X21.2205 Y176.4236
G01 X21.1295 Y176.5514
G01 X21.0453 Y176.6837
G01 X20.9682 Y176.8203
G01 X20.8984 Y176.9607
G01 X20.8361 Y177.1046
G01 X20.7814 Y177.2516
G01 X20.7346 Y177.4013
G01 X20.6957 Y177.5532
G01 X20.6648 Y177.7070
G01 X20.6421 Y177.8622
G01 X20.6276 Y178.0184
G01 X39.8068
G01 X39.7701 Y177.7384
G01 X39.7076 Y177.4631
G01 X39.6198 Y177.1947
G01 X39.5075 Y176.9357
G01 X39.3715 Y176.6882
G01 X39.2132 Y176.4544
G01 X39.0339 Y176.2363
G01 X38.8351 Y176.0358
G01 X38.6185 Y175.8547
G01 X38.3860 Y175.6944
G01 X38.1397 Y175.5564
G01 X37.8816 Y175.4419
G01 X37.6140 Y175.3519
G01 X37.3392 Y175.2870
G01 X37.0595 Y175.2480
G01 X36.7775 Y175.2352
G01 X32.6078
G01 X32.5642 Y175.2342
G01 X32.5207 Y175.2313
G01 X32.4773 Y175.2266
G01 X32.4342 Y175.2200
G01 X32.3914 Y175.2114
G01 X32.3490 Y175.2011
G01 X32.3071 Y175.1889
G01 X32.2658 Y175.1748
G01 X32.2251 Y175.1590
G01 X32.1852 Y175.1415
G01 X32.1461 Y175.1222
G01 X32.1078 Y175.1012
G01 X32.0705 Y175.0785
G01 X32.0343 Y175.0543
G01 X31.9991 Y175.0285
G01 X31.9650 Y175.0012
G01 X31.9322 Y174.9724
G01 X31.9007 Y174.9423
G01 X31.8706 Y174.9107
G01 X31.8418 Y174.8779
G01 X31.8145 Y174.8439
G01 X31.7887 Y174.8087
G01 X31.7644 Y174.7724
G01 X31.7418 Y174.7352
G01 X31.7208 Y174.6969
G01 X31.7015 Y174.6578
G01 X31.6840 Y174.6178
G01 X31.6681 Y174.5772
G01 X31.6541 Y174.5359
G01 X31.6419 Y174.4940
G01 X31.6315 Y174.4516
G01 X31.6230 Y174.4088
G01 X31.6164 Y174.3657
G01 X31.6116 Y174.3223
G01 X31.6088 Y174.2788
G01 X31.6078 Y174.2352
G01 Y162.1004
G01 X28.8246
G01 Y163.3240
G01 X29.0246 Y163.3094
M107
G00 Z2.0000


;No. 3: Hole 2
G00 X44.3092 Y176.6268 Z2.0000
G00 Z0.5000
G01 Z0.0000 F400
G01 Z-1.8000
M106 S240
G01 X62.0824 F1000
G01 X62.2242 Y176.4822
G01 X62.0757 Y176.2954
G01 X61.9131 Y176.1208
G01 X61.7373 Y175.9595
G01 X61.5494 Y175.8124
G01 X61.3506 Y175.6804
G01 X61.1421 Y175.5643
G01 X60.9252 Y175.4649
G01 X60.7012 Y175.3828
G01 X60.4714 Y175.3184
G01 X60.2373 Y175.2721
G01 X60.0003 Y175.2443
G01 X59.7619 Y175.2352
G01 X46.6435
G01 X46.4813 Y175.2366
G01 X46.3194 Y175.2469
G01 X46.1583 Y175.2660
G01 X45.9985 Y175.2938
G01 X45.8405 Y175.3302
G01 X45.6847 Y175.3752
G01 X45.5315 Y175.4285
G01 X45.3814 Y175.4901
G01 X45.2349 Y175.5597
G01 X45.0925 Y175.6372
G01 X44.9544 Y175.7223
G01 X44.8211 Y175.8147
G01 X44.6931 Y175.9143
G01 X44.5706 Y176.0207
G01 X44.4542 Y176.1335
G01 X44.3440 Y176.2525
G01 X44.2404 Y176.3773
G01 X44.1438 Y176.5076
G01 X44.0543 Y176.6429
G01 X43.9724 Y176.7829
G01 X43.8981 Y176.9271
G01 X43.8319 Y177.0751
G01 X43.7737 Y177.2265
G01 X43.7238 Y177.3809
G01 X43.6824 Y177.5377
G01 X43.6496 Y177.6965
G01 X43.6254 Y177.8569
G01 X43.6100 Y178.0184
G01 X62.7912
G01 X62.7782 Y177.8807
G01 X62.7587 Y177.7438
G01 X62.7328 Y177.6080
G01 X62.7005 Y177.4735
G01 X62.6619 Y177.3407
G01 X62.6171 Y177.2099
G01 X62.5662 Y177.0813
G01 X62.5093 Y176.9553
G01 X62.4465 Y176.8321
G01 X62.3779 Y176.7120
G01 X62.3038 Y176.5953
G01 X62.2242 Y176.4822
G01 X62.0824 Y176.6268
M107
G00 Z2.0000


;No. 4: Hole 4
G00 X62.0836 Y170.0604 Z2.0000
G00 Z0.5000
G01 Z0.0000 F400
G01 Z-1.8000
M106 S240
G01 X44.3092 F1000
G01 X44.1344 Y169.9615
G01 X44.0266 Y170.1297
G01 X43.9301 Y170.3047
G01 X43.8455 Y170.4856
G01 X43.7730 Y170.6718
G01 X43.7129 Y170.8624
G01 X43.6656 Y171.0565
G01 X43.6313 Y171.2533
G01 X43.6100 Y171.4519
G01 X62.7912 Y171.4520
G01 X62.7548 Y171.1719
G01 X62.6925 Y170.8964
G01 X62.6049 Y170.6279
G01 X62.4927 Y170.3687
G01 X62.3569 Y170.1211
G01 X62.1986 Y169.8871
G01 X62.0193 Y169.6690
G01 X61.8204 Y169.4684
G01 X61.6038 Y169.2872
G01 X61.3712 Y169.1269
G01 X61.1247 Y168.9890
G01 X60.8665 Y168.8746
G01 X60.5987 Y168.7847
G01 X60.3238 Y168.7201
G01 X60.0440 Y168.6813
G01 X59.7619 Y168.6688
G01 X46.6437
G01 X46.4966 Y168.6695
G01 X46.3498 Y168.6775
G01 X46.2035 Y168.6927
G01 X46.0582 Y168.7152
G01 X45.9141 Y168.7449
G01 X45.7717 Y168.7817
G01 X45.6313 Y168.8255
G01 X45.4933 Y168.8761
G01 X45.3579 Y168.9336
G01 X45.2255 Y168.9977
G01 X45.0965 Y169.0683
G01 X44.9711 Y169.1451
G01 X44.8497 Y169.2281
G01 X44.7326 Y169.3170
G01 X44.6200 Y169.4116
G01 X44.5122 Y169.5117
G01 X44.4095 Y169.6170
G01 X44.3122 Y169.7272
G01 X44.2204 Y169.8422
G01 X44.1344 Y169.9615
G01 X44.3092 Y170.0604
M107
G00 Z2.0000


;No. 5: Hole 5
G00 X44.3087 Y163.4929 Z2.0000
G00 Z0.5000
G01 Z0.0000 F400
G01 Z-1.8000
M106 S240
G01 X62.0829 F1000
G01 X62.2240 Y163.3473
G01 X62.0755 Y163.1605
G01 X61.9128 Y162.9859
G01 X61.7371 Y162.8246
G01 X61.5492 Y162.6775
G01 X61.3505 Y162.5455
G01 X61.1420 Y162.4295
G01 X60.9251 Y162.3301
G01 X60.7011 Y162.2479
G01 X60.4713 Y162.1835
G01 X60.2372 Y162.1373
G01 X60.0003 Y162.1095
G01 X59.7619 Y162.1003
G01 X46.6435
G01 X46.4813 Y162.1020
G01 X46.3194 Y162.1125
G01 X46.1584 Y162.1317
G01 X45.9986 Y162.1596
G01 X45.8405 Y162.1962
G01 X45.6847 Y162.2412
G01 X45.5315 Y162.2947
G01 X45.3815 Y162.3564
G01 X45.2350 Y162.4261
G01 X45.0926 Y162.5037
G01 X44.9545 Y162.5889
G01 X44.8213 Y162.6814
G01 X44.6933 Y162.7810
G01 X44.5709 Y162.8875
G01 X44.4544 Y163.0004
G01 X44.3442 Y163.1194
G01 X44.2407 Y163.2443
G01 X44.1440 Y163.3746
G01 X44.0546 Y163.5099
G01 X43.9726 Y163.6499
G01 X43.8984 Y163.7942
G01 X43.8321 Y163.9422
G01 X43.7739 Y164.0936
G01 X43.7240 Y164.2480
G01 X43.6826 Y164.4048
G01 X43.6497 Y164.5637
G01 X43.6255 Y164.7241
G01 X43.6100 Y164.8855
G01 X62.7912
G01 X62.7782 Y164.7477
G01 X62.7587 Y164.6106
G01 X62.7328 Y164.4746
G01 X62.7005 Y164.3400
G01 X62.6619 Y164.2070
G01 X62.6170 Y164.0760
G01 X62.5661 Y163.9473
G01 X62.5091 Y163.8211
G01 X62.4463 Y163.6977
G01 X62.3777 Y163.5775
G01 X62.3036 Y163.4606
G01 X62.2240 Y163.3473
G01 X62.0829 Y163.4929
M107
G00 Z2.0000


;No. 6: Hole 3
G00 X67.1843 Y163.3094 Z2.0000
G00 Z0.5000
G01 Z0.0000 F400
G01 Z-1.8000
M106 S240
G01 X85.5856 F1000
G01 Y164.8094
G01 X82.5320
G01 X83.2024
G01 Y166.3094
G01 X85.5856
G01 Y167.8094
G01 X83.1932
G01 X85.5856 Y169.3094
G01 X66.7844
G01 Y170.8094
G01 X85.5856
G01 X69.1770
G01 Y172.3094
G01 X66.7844
G01 Y173.8094
G01 X69.1676
G01 Y175.3094
G01 X69.8337
G01 X66.7844
G01 Y176.8094
G01 X85.1878
G01 X85.3725 Y176.7288
G01 X85.2282 Y176.5087
G01 X85.0655 Y176.3018
G01 X84.8856 Y176.1096
G01 X84.6898 Y175.9336
G01 X84.4796 Y175.7751
G01 X84.2566 Y175.6352
G01 X84.0224 Y175.5150
G01 X83.7787 Y175.4154
G01 X83.5274 Y175.3371
G01 X83.2703 Y175.2807
G01 X83.0092 Y175.2467
G01 X82.7462 Y175.2352
G01 X70.3676
G01 X70.2891 Y175.2321
G01 X70.2112 Y175.2228
G01 X70.1341 Y175.2075
G01 X70.0586 Y175.1862
G01 X69.9849 Y175.1590
G01 X69.9136 Y175.1262
G01 X69.8451 Y175.0878
G01 X69.7798 Y175.0442
G01 X69.7181 Y174.9956
G01 X69.6605 Y174.9423
G01 X69.6072 Y174.8846
G01 X69.5586 Y174.8229
G01 X69.5150 Y174.7576
G01 X69.4766 Y174.6891
G01 X69.4437 Y174.6178
G01 X69.4165 Y174.5442
G01 X69.3952 Y174.4686
G01 X69.3799 Y174.3916
G01 X69.3707 Y174.3136
G01 X69.3676 Y174.2352
G01 Y172.4519
G01 X69.3707 Y172.3735
G01 X69.3799 Y172.2955
G01 X69.3952 Y172.2185
G01 X69.4165 Y172.1429
G01 X69.4437 Y172.0693
G01 X69.4766 Y171.9980
G01 X69.5150 Y171.9294
G01 X69.5586 Y171.8642
G01 X69.6072 Y171.8025
G01 X69.6605 Y171.7448
G01 X69.7181 Y171.6915
G01 X69.7798 Y171.6429
G01 X69.8451 Y171.5993
G01 X69.9136 Y171.5609
G01 X69.9849 Y171.5281
G01 X70.0586 Y171.5009
G01 X70.1341 Y171.4796
G01 X70.2112 Y171.4643
G01 X70.2891 Y171.4550
G01 X70.3676 Y171.4519
G01 X85.7856
G01 Y162.1004
G01 X66.5944
G01 X66.6312 Y162.3804
G01 X66.6938 Y162.6557
G01 X66.7816 Y162.9241
G01 X66.8940 Y163.1832
G01 X67.0299 Y163.4307
G01 X67.1882 Y163.6645
G01 X67.3676 Y163.8827
G01 X67.5663 Y164.0833
G01 X67.7829 Y164.2645
G01 X68.0153 Y164.4249
G01 X68.2616 Y164.5631
G01 X68.5196 Y164.6778
G01 X68.7872 Y164.7680
G01 X69.0620 Y164.8331
G01 X69.3416 Y164.8724
G01 X69.6237 Y164.8855
G01 X82.0024
G01 X82.0808 Y164.8886
G01 X82.1588 Y164.8979
G01 X82.2358 Y164.9132
G01 X82.3114 Y164.9345
G01 X82.3850 Y164.9617
G01 X82.4564 Y164.9945
G01 X82.5249 Y165.0329
G01 X82.5901 Y165.0765
G01 X82.6518 Y165.1251
G01 X82.7095 Y165.1784
G01 X82.7628 Y165.2361
G01 X82.8114 Y165.2978
G01 X82.8550 Y165.3630
G01 X82.8934 Y165.4316
G01 X82.9262 Y165.5029
G01 X82.9534 Y165.5765
G01 X82.9747 Y165.6521
G01 X82.9900 Y165.7291
G01 X82.9993 Y165.8071
G01 X83.0024 Y165.8855
G01 Y167.6687
G01 X82.9993 Y167.7472
G01 X82.9900 Y167.8252
G01 X82.9747 Y167.9022
G01 X82.9534 Y167.9778
G01 X82.9262 Y168.0514
G01 X82.8934 Y168.1227
G01 X82.8550 Y168.1912
G01 X82.8114 Y168.2565
G01 X82.7628 Y168.3182
G01 X82.7095 Y168.3759
G01 X82.6518 Y168.4291
G01 X82.5901 Y168.4778
G01 X82.5249 Y168.5214
G01 X82.4564 Y168.5598
G01 X82.3850 Y168.5926
G01 X82.3114 Y168.6198
G01 X82.2358 Y168.6411
G01 X82.1588 Y168.6564
G01 X82.0808 Y168.6657
G01 X82.0024 Y168.6687
G01 X66.5844
G01 Y178.0184
G01 X85.7756
G01 X85.7653 Y177.9052
G01 X85.7506 Y177.7926
G01 X85.7316 Y177.6806
G01 X85.7083 Y177.5694
G01 X85.6808 Y177.4592
G01 X85.6490 Y177.3502
G01 X85.6130 Y177.2424
G01 X85.5729 Y177.1362
G01 X85.5287 Y177.0315
G01 X85.4806 Y176.9286
G01 X85.4285 Y176.8277
G01 X85.3725 Y176.7288
G01 X85.1878 Y176.8094
M107
G00 Z2.0000


;No. 7: Hole 6
G00 X89.7688 Y176.8094 Z2.0000
G00 Z0.5000
G01 Z0.0000 F400
G01 Z-1.8000
M106 S240
G01 X92.1520 F1000
G01 Y175.3094
G01 X89.7688
G01 Y173.8094
G01 X92.1520
G01 Y172.3094
G01 X89.7688
G01 Y170.8094
G01 X92.1520
G01 Y169.3094
G01 X89.7688
G01 Y167.8094
G01 X92.1520
G01 Y166.3094
G01 X89.7688
G01 Y164.8094
G01 X92.8223
G01 X89.7688 Y163.3094
G01 X107.9049
G01 X108.0499 Y163.1713
G01 X107.8231 Y162.9321
G01 X107.5717 Y162.7189
G01 X107.2987 Y162.5341
G01 X107.0073 Y162.3800
G01 X106.7010 Y162.2583
G01 X106.3832 Y162.1706
G01 X106.0578 Y162.1177
G01 X105.7287 Y162.1004
G01 X89.5688
G01 Y178.0184
G01 X92.3520
G01 Y165.8855
G01 X92.3529 Y165.8419
G01 X92.3558 Y165.7984
G01 X92.3605 Y165.7550
G01 X92.3672 Y165.7119
G01 X92.3757 Y165.6691
G01 X92.3860 Y165.6267
G01 X92.3983 Y165.5848
G01 X92.4123 Y165.5435
G01 X92.4281 Y165.5029
G01 X92.4457 Y165.4629
G01 X92.4650 Y165.4238
G01 X92.4859 Y165.3855
G01 X92.5086 Y165.3482
G01 X92.5328 Y165.3120
G01 X92.5586 Y165.2768
G01 X92.5859 Y165.2428
G01 X92.6147 Y165.2100
G01 X92.6449 Y165.1784
G01 X92.6764 Y165.1483
G01 X92.7092 Y165.1195
G01 X92.7432 Y165.0922
G01 X92.7784 Y165.0664
G01 X92.8147 Y165.0421
G01 X92.8520 Y165.0195
G01 X92.8902 Y164.9985
G01 X92.9294 Y164.9792
G01 X92.9693 Y164.9617
G01 X93.0100 Y164.9458
G01 X93.0513 Y164.9318
G01 X93.0932 Y164.9196
G01 X93.1355 Y164.9092
G01 X93.1783 Y164.9007
G01 X93.2214 Y164.8941
G01 X93.2648 Y164.8893
G01 X93.3084 Y164.8865
G01 X93.3520 Y164.8855
G01 X108.7580
G01 X108.7428 Y164.7290
G01 X108.7192 Y164.5736
G01 X108.6874 Y164.4196
G01 X108.6473 Y164.2675
G01 X108.5992 Y164.1178
G01 X108.5431 Y163.9709
G01 X108.4792 Y163.8273
G01 X108.4077 Y163.6872
G01 X108.3287 Y163.5512
G01 X108.2426 Y163.4197
G01 X108.1496 Y163.2929
G01 X108.0499 Y163.1713
G01 X107.9049 Y163.3094
M107
G00 Z2.0000


;No. 8: Hole 8
G00 X112.7531 Y163.7762 Z2.0000
G00 Z0.5000
G01 Z0.0000 F400
G01 Z-1.8000
M106 S240
G01 X115.1363 F1000
G01 Y165.2762
G01 X112.7531
G01 Y166.7762
G01 X115.1363
G01 Y168.2762
G01 X115.3022
G01 X112.7531
G01 Y169.7762
G01 X131.5524
G01 Y168.2762
G01 X129.0033
G01 X129.1692
G01 Y166.7762
G01 X131.5524
G01 Y165.2762
G01 X129.1692
G01 Y163.7762
G01 X131.5524
G01 X131.7524 Y163.7854
G01 Y162.1004
G01 X128.9692
G01 Y167.6687
G01 X128.9661 Y167.7472
G01 X128.9569 Y167.8252
G01 X128.9415 Y167.9022
G01 X128.9202 Y167.9778
G01 X128.8930 Y168.0514
G01 X128.8602 Y168.1227
G01 X128.8218 Y168.1912
G01 X128.7782 Y168.2565
G01 X128.7296 Y168.3182
G01 X128.6763 Y168.3759
G01 X128.6186 Y168.4291
G01 X128.5569 Y168.4778
G01 X128.4917 Y168.5214
G01 X128.4232 Y168.5598
G01 X128.3518 Y168.5926
G01 X128.2782 Y168.6198
G01 X128.2026 Y168.6411
G01 X128.1256 Y168.6564
G01 X128.0476 Y168.6657
G01 X127.9692 Y168.6687
G01 X116.3363
G01 X116.2579 Y168.6657
G01 X116.1799 Y168.6564
G01 X116.1029 Y168.6411
G01 X116.0273 Y168.6198
G01 X115.9537 Y168.5926
G01 X115.8824 Y168.5598
G01 X115.8138 Y168.5214
G01 X115.7486 Y168.4778
G01 X115.6869 Y168.4291
G01 X115.6292 Y168.3759
G01 X115.5759 Y168.3182
G01 X115.5273 Y168.2565
G01 X115.4837 Y168.1912
G01 X115.4453 Y168.1227
G01 X115.4125 Y168.0514
G01 X115.3853 Y167.9778
G01 X115.3640 Y167.9022
G01 X115.3487 Y167.8252
G01 X115.3394 Y167.7472
G01 X115.3363 Y167.6687
G01 Y162.1004
G01 X112.5531
G01 Y171.4519
G01 X131.7524
G01 Y163.7854
G01 X131.5524 Y163.7762
M107
G00 Z2.0000


;No. 9: Helical drill 2
G00 X132.5151 Y187.5790 Z2.0000
G00 Z0.5000
M106 S240
G01 X132.5141 Y187.5395 Z0.4865 F400
G01 X132.5110 Y187.5001 Z0.4729
G01 X132.5058 Y187.4609 Z0.4594
G01 X132.4986 Y187.4220 Z0.4458
G01 X132.4894 Y187.3836 Z0.4323
G01 X132.4782 Y187.3457 Z0.4188
G01 X132.4650 Y187.3084 Z0.4052
G01 X132.4498 Y187.2719 Z0.3917
G01 X132.4328 Y187.2362 Z0.3781
G01 X132.4140 Y187.2015 Z0.3646
G01 X132.3933 Y187.1677 Z0.3510
G01 X132.3709 Y187.1352 Z0.3375
G01 X132.3468 Y187.1038 Z0.3240
G01 X132.3212 Y187.0737 Z0.3104
G01 X132.2939 Y187.0451 Z0.2969
G01 X132.2653 Y187.0179 Z0.2833
G01 X132.2352 Y186.9922 Z0.2698
G01 X132.2038 Y186.9681 Z0.2563
G01 X132.1713 Y186.9457 Z0.2427
G01 X132.1376 Y186.9251 Z0.2292
G01 X132.1028 Y186.9062 Z0.2156
G01 X132.0671 Y186.8892 Z0.2021
G01 X132.0306 Y186.8740 Z0.1885
G01 X131.9933 Y186.8608 Z0.1750
G01 X131.9554 Y186.8496 Z0.1615
G01 X131.9170 Y186.8404 Z0.1479
G01 X131.8781 Y186.8332 Z0.1344
G01 X131.8389 Y186.8280 Z0.1208
G01 X131.7995 Y186.8249 Z0.1073
G01 X131.7600 Y186.8239 Z0.0938
G01 X131.7205 Y186.8249 Z0.0802
G01 X131.6811 Y186.8280 Z0.0667
G01 X131.6419 Y186.8332 Z0.0531
G01 X131.6030 Y186.8404 Z0.0396
G01 X131.5645 Y186.8496 Z0.0260
G01 X131.5266 Y186.8608 Z0.0125
G01 X131.4894 Y186.8740 Z-0.0010
G01 X131.4528 Y186.8892 Z-0.0146
G01 X131.4172 Y186.9062 Z-0.0281
G01 X131.3824 Y186.9251 Z-0.0417
G01 X131.3487 Y186.9457 Z-0.0552
G01 X131.3161 Y186.9681 Z-0.0688
G01 X131.2848 Y186.9922 Z-0.0823
G01 X131.2547 Y187.0179 Z-0.0958
G01 X131.2260 Y187.0451 Z-0.1094
G01 X131.1988 Y187.0737 Z-0.1229
G01 X131.1731 Y187.1038 Z-0.1365
G01 X131.1491 Y187.1352 Z-0.1500
G01 X131.1267 Y187.1677 Z-0.1635
G01 X131.1060 Y187.2015 Z-0.1771
G01 X131.0872 Y187.2362 Z-0.1906
G01 X131.0701 Y187.2719 Z-0.2042
G01 X131.0550 Y187.3084 Z-0.2177
G01 X131.0418 Y187.3457 Z-0.2313
G01 X131.0306 Y187.3836 Z-0.2448
G01 X131.0214 Y187.4220 Z-0.2583
G01 X131.0141 Y187.4609 Z-0.2719
G01 X131.0090 Y187.5001 Z-0.2854
G01 X131.0059 Y187.5395 Z-0.2990
G01 X131.0049 Y187.5790 Z-0.3125
G01 X131.0059 Y187.6185 Z-0.3260
G01 X131.0090 Y187.6580 Z-0.3396
G01 X131.0141 Y187.6972 Z-0.3531
G01 X131.0214 Y187.7360 Z-0.3667
G01 X131.0306 Y187.7745 Z-0.3802
G01 X131.0418 Y187.8124 Z-0.3938
G01 X131.0550 Y187.8496 Z-0.4073
G01 X131.0701 Y187.8862 Z-0.4208
G01 X131.0872 Y187.9218 Z-0.4344
G01 X131.1060 Y187.9566 Z-0.4479
G01 X131.1267 Y187.9903 Z-0.4615
G01 X131.1491 Y188.0229 Z-0.4750
G01 X131.1731 Y188.0542 Z-0.4885
G01 X131.1988 Y188.0843 Z-0.5021
G01 X131.2260 Y188.1130 Z-0.5156
G01 X131.2547 Y188.1402 Z-0.5292
G01 X131.2848 Y188.1659 Z-0.5427
G01 X131.3161 Y188.1899 Z-0.5563
G01 X131.3487 Y188.2123 Z-0.5698
G01 X131.3824 Y188.2330 Z-0.5833
G01 X131.4172 Y188.2519 Z-0.5969
G01 X131.4528 Y188.2689 Z-0.6104
G01 X131.4894 Y188.2840 Z-0.6240
G01 X131.5266 Y188.2972 Z-0.6375
G01 X131.5645 Y188.3084 Z-0.6510
G01 X131.6030 Y188.3177 Z-0.6646
G01 X131.6419 Y188.3249 Z-0.6781
G01 X131.6811 Y188.3300 Z-0.6917
G01 X131.7205 Y188.3331 Z-0.7052
G01 X131.7600 Y188.3342 Z-0.7188
G01 X131.7995 Y188.3331 Z-0.7323
G01 X131.8389 Y188.3300 Z-0.7458
G01 X131.8781 Y188.3249 Z-0.7594
G01 X131.9170 Y188.3177 Z-0.7729
G01 X131.9554 Y188.3084 Z-0.7865
G01 X131.9933 Y188.2972 Z-0.8000
G01 X132.0306 Y188.2840 Z-0.8135
G01 X132.0671 Y188.2689 Z-0.8271
G01 X132.1028 Y188.2519 Z-0.8406
G01 X132.1376 Y188.2330 Z-0.8542
G01 X132.1713 Y188.2123 Z-0.8677
G01 X132.2038 Y188.1899 Z-0.8813
G01 X132.2352 Y188.1659 Z-0.8948
G01 X132.2653 Y188.1402 Z-0.9083
G01 X132.2939 Y188.1130 Z-0.9219
G01 X132.3212 Y188.0843 Z-0.9354
G01 X132.3468 Y188.0542 Z-0.9490
G01 X132.3709 Y188.0229 Z-0.9625
G01 X132.3933 Y187.9903 Z-0.9760
G01 X132.4140 Y187.9566 Z-0.9896
G01 X132.4328 Y187.9218 Z-1.0031
G01 X132.4498 Y187.8862 Z-1.0167
G01 X132.4650 Y187.8496 Z-1.0302
G01 X132.4782 Y187.8124 Z-1.0438
G01 X132.4894 Y187.7745 Z-1.0573
G01 X132.4986 Y187.7360 Z-1.0708
G01 X132.5058 Y187.6972 Z-1.0844
G01 X132.5110 Y187.6580 Z-1.0979
G01 X132.5141 Y187.6185 Z-1.1115
G01 X132.5151 Y187.5790 Z-1.1250
G01 X132.5141 Y187.5395 Z-1.1385
G01 X132.5110 Y187.5001 Z-1.1521
G01 X132.5058 Y187.4609 Z-1.1656
G01 X132.4986 Y187.4220 Z-1.1792
G01 X132.4894 Y187.3836 Z-1.1927
G01 X132.4782 Y187.3457 Z-1.2063
G01 X132.4650 Y187.3084 Z-1.2198
G01 X132.4498 Y187.2719 Z-1.2333
G01 X132.4328 Y187.2362 Z-1.2469
G01 X132.4140 Y187.2015 Z-1.2604
G01 X132.3933 Y187.1677 Z-1.2740
G01 X132.3709 Y187.1352 Z-1.2875
G01 X132.3468 Y187.1038 Z-1.3010
G01 X132.3212 Y187.0737 Z-1.3146
G01 X132.2939 Y187.0451 Z-1.3281
G01 X132.2653 Y187.0179 Z-1.3417
G01 X132.2352 Y186.9922 Z-1.3552
G01 X132.2038 Y186.9681 Z-1.3688
G01 X132.1713 Y186.9457 Z-1.3823
G01 X132.1376 Y186.9251 Z-1.3958
G01 X132.1028 Y186.9062 Z-1.4094
G01 X132.0671 Y186.8892 Z-1.4229
G01 X132.0306 Y186.8740 Z-1.4365
G01 X131.9933 Y186.8608 Z-1.4500
G01 X131.9554 Y186.8496 Z-1.4635
G01 X131.9170 Y186.8404 Z-1.4771
G01 X131.8781 Y186.8332 Z-1.4906
G01 X131.8389 Y186.8280 Z-1.5042
G01 X131.7995 Y186.8249 Z-1.5177
G01 X131.7600 Y186.8239 Z-1.5313
G01 X131.7205 Y186.8249 Z-1.5448
G01 X131.6811 Y186.8280 Z-1.5583
G01 X131.6419 Y186.8332 Z-1.5719
G01 X131.6030 Y186.8404 Z-1.5854
G01 X131.5645 Y186.8496 Z-1.5990
G01 X131.5266 Y186.8608 Z-1.6125
G01 X131.4894 Y186.8740 Z-1.6260
G01 X131.4528 Y186.8892 Z-1.6396
G01 X131.4172 Y186.9062 Z-1.6531
G01 X131.3824 Y186.9251 Z-1.6667
G01 X131.3487 Y186.9457 Z-1.6802
G01 X131.3161 Y186.9681 Z-1.6938
G01 X131.2848 Y186.9922 Z-1.7073
G01 X131.2547 Y187.0179 Z-1.7208
G01 X131.2260 Y187.0451 Z-1.7344
G01 X131.1988 Y187.0737 Z-1.7479
G01 X131.1731 Y187.1038 Z-1.7615
G01 X131.1491 Y187.1352 Z-1.7750
G01 X131.1267 Y187.1677 Z-1.7885
G01 X131.1060 Y187.2015 Z-1.8021
G01 X131.0872 Y187.2362 Z-1.8156
G01 X131.0701 Y187.2719 Z-1.8292
G01 X131.0550 Y187.3084 Z-1.8427
G01 X131.0418 Y187.3457 Z-1.8563
G01 X131.0306 Y187.3836 Z-1.8698
G01 X131.0214 Y187.4220 Z-1.8833
G01 X131.0141 Y187.4609 Z-1.8969
G01 X131.0090 Y187.5001 Z-1.9104
G01 X131.0059 Y187.5395 Z-1.9240
G01 X131.0049 Y187.5790 Z-1.9375
G01 X131.0059 Y187.6185 Z-1.9510
G01 X131.0090 Y187.6580 Z-1.9646
G01 X131.0141 Y187.6972 Z-1.9781
G01 X131.0214 Y187.7360 Z-1.9917
G01 X131.0306 Y187.7745 Z-2.0052
G01 X131.0418 Y187.8124 Z-2.0188
G01 X131.0550 Y187.8496 Z-2.0323
G01 X131.0701 Y187.8862 Z-2.0458
G01 X131.0872 Y187.9218 Z-2.0594
G01 X131.1060 Y187.9566 Z-2.0729
G01 X131.1267 Y187.9903 Z-2.0865
G01 X131.1491 Y188.0229 Z-2.1000
G01 X131.1731 Y188.0542 Z-2.1135
G01 X131.1988 Y188.0843 Z-2.1271
G01 X131.2260 Y188.1130 Z-2.1406
G01 X131.2547 Y188.1402 Z-2.1542
G01 X131.2848 Y188.1659 Z-2.1677
G01 X131.3161 Y188.1899 Z-2.1813
G01 X131.3487 Y188.2123 Z-2.1948
G01 X131.3824 Y188.2330 Z-2.2083
G01 X131.4172 Y188.2519 Z-2.2219
G01 X131.4528 Y188.2689 Z-2.2354
G01 X131.4894 Y188.2840 Z-2.2490
G01 X131.5266 Y188.2972 Z-2.2625
G01 X131.5645 Y188.3084 Z-2.2760
G01 X131.6030 Y188.3177 Z-2.2896
G01 X131.6419 Y188.3249 Z-2.3031
G01 X131.6811 Y188.3300 Z-2.3167
G01 X131.7205 Y188.3331 Z-2.3302
G01 X131.7600 Y188.3342 Z-2.3438
G01 X131.7995 Y188.3331 Z-2.3573
G01 X131.8389 Y188.3300 Z-2.3708
G01 X131.8781 Y188.3249 Z-2.3844
G01 X131.9170 Y188.3177 Z-2.3979
G01 X131.9554 Y188.3084 Z-2.4115
G01 X131.9933 Y188.2972 Z-2.4250
G01 X132.0306 Y188.2840 Z-2.4385
G01 X132.0671 Y188.2689 Z-2.4521
G01 X132.1028 Y188.2519 Z-2.4656
G01 X132.1376 Y188.2330 Z-2.4792
G01 X132.1713 Y188.2123 Z-2.4927
G01 X132.2038 Y188.1899 Z-2.5063
G01 X132.2352 Y188.1659 Z-2.5198
G01 X132.2653 Y188.1402 Z-2.5333
G01 X132.2939 Y188.1130 Z-2.5469
G01 X132.3212 Y188.0843 Z-2.5604
G01 X132.3468 Y188.0542 Z-2.5740
G01 X132.3709 Y188.0229 Z-2.5875
G01 X132.3933 Y187.9903 Z-2.6010
G01 X132.4140 Y187.9566 Z-2.6146
G01 X132.4328 Y187.9218 Z-2.6281
G01 X132.4498 Y187.8862 Z-2.6417
G01 X132.4650 Y187.8496 Z-2.6552
G01 X132.4782 Y187.8124 Z-2.6688
G01 X132.4894 Y187.7745 Z-2.6823
G01 X132.4986 Y187.7360 Z-2.6958
G01 X132.5058 Y187.6972 Z-2.7094
G01 X132.5110 Y187.6580 Z-2.7229
G01 X132.5141 Y187.6185 Z-2.7365
G01 X132.5151 Y187.5790 Z-2.7500
G01 X132.5141 Y187.5395 Z-2.7635
G01 X132.5110 Y187.5001 Z-2.7771
G01 X132.5058 Y187.4609 Z-2.7906
G01 X132.4986 Y187.4220 Z-2.8042
G01 X132.4894 Y187.3836 Z-2.8177
G01 X132.4782 Y187.3457 Z-2.8313
G01 X132.4650 Y187.3084 Z-2.8448
G01 X132.4498 Y187.2719 Z-2.8583
G01 X132.4328 Y187.2362 Z-2.8719
G01 X132.4140 Y187.2015 Z-2.8854
G01 X132.3933 Y187.1677 Z-2.8990
G01 X132.3709 Y187.1352 Z-2.9125
G01 X132.3468 Y187.1038 Z-2.9260
G01 X132.3212 Y187.0737 Z-2.9396
G01 X132.2939 Y187.0451 Z-2.9531
G01 X132.2653 Y187.0179 Z-2.9667
G01 X132.2352 Y186.9922 Z-2.9802
G01 X132.2038 Y186.9681 Z-2.9938
G01 X132.1713 Y186.9457 Z-3.0073
G01 X132.1376 Y186.9251 Z-3.0208
G01 X132.1028 Y186.9062 Z-3.0344
G01 X132.0671 Y186.8892 Z-3.0479
G01 X132.0306 Y186.8740 Z-3.0615
G01 X131.9933 Y186.8608 Z-3.0750
G01 X131.9554 Y186.8496 Z-3.0885
G01 X131.9170 Y186.8404 Z-3.1021
G01 X131.8781 Y186.8332 Z-3.1156
G01 X131.8389 Y186.8280 Z-3.1292
G01 X131.7995 Y186.8249 Z-3.1427
G01 X131.7600 Y186.8239 Z-3.1563
G01 X131.7205 Y186.8249 Z-3.1698
G01 X131.6811 Y186.8280 Z-3.1833
G01 X131.6419 Y186.8332 Z-3.1969
G01 X131.6030 Y186.8404 Z-3.2104
G01 X131.5645 Y186.8496 Z-3.2240
G01 X131.5266 Y186.8608 Z-3.2375
G01 X131.4894 Y186.8740 Z-3.2510
G01 X131.4528 Y186.8892 Z-3.2646
G01 X131.4172 Y186.9062 Z-3.2781
G01 X131.3824 Y186.9251 Z-3.2917
G01 X131.3487 Y186.9457 Z-3.3052
G01 X131.3161 Y186.9681 Z-3.3188
G01 X131.2848 Y186.9922 Z-3.3323
G01 X131.2547 Y187.0179 Z-3.3458
G01 X131.2260 Y187.0451 Z-3.3594
G01 X131.1988 Y187.0737 Z-3.3729
G01 X131.1731 Y187.1038 Z-3.3865
G01 X131.1491 Y187.1352 Z-3.4000
G01 X131.1267 Y187.1677 Z-3.4135
G01 X131.1060 Y187.2015 Z-3.4271
G01 X131.0872 Y187.2362 Z-3.4406
G01 X131.0701 Y187.2719 Z-3.4542
G01 X131.0550 Y187.3084 Z-3.4677
G01 X131.0418 Y187.3457 Z-3.4813
G01 X131.0306 Y187.3836 Z-3.4948
G01 X131.0214 Y187.4220 Z-3.5083
G01 X131.0141 Y187.4609 Z-3.5219
G01 X131.0090 Y187.5001 Z-3.5354
G01 X131.0059 Y187.5395 Z-3.5490
G01 X131.0049 Y187.5790 Z-3.5625
G01 X131.0059 Y187.6185 Z-3.5760
G01 X131.0090 Y187.6580 Z-3.5896
G01 X131.0141 Y187.6972 Z-3.6031
G01 X131.0214 Y187.7360 Z-3.6167
G01 X131.0306 Y187.7745 Z-3.6302
G01 X131.0418 Y187.8124 Z-3.6438
G01 X131.0550 Y187.8496 Z-3.6573
G01 X131.0701 Y187.8862 Z-3.6708
G01 X131.0872 Y187.9218 Z-3.6844
G01 X131.1060 Y187.9566 Z-3.6979
G01 X131.1267 Y187.9903 Z-3.7115
G01 X131.1491 Y188.0229 Z-3.7250
G01 X131.1731 Y188.0542 Z-3.7385
G01 X131.1988 Y188.0843 Z-3.7521
G01 X131.2260 Y188.1130 Z-3.7656
G01 X131.2547 Y188.1402 Z-3.7792
G01 X131.2848 Y188.1659 Z-3.7927
G01 X131.3161 Y188.1899 Z-3.8063
G01 X131.3487 Y188.2123 Z-3.8198
G01 X131.3824 Y188.2330 Z-3.8333
G01 X131.4172 Y188.2519 Z-3.8469
G01 X131.4528 Y188.2689 Z-3.8604
G01 X131.4894 Y188.2840 Z-3.8740
G01 X131.5266 Y188.2972 Z-3.8875
G01 X131.5645 Y188.3084 Z-3.9010
G01 X131.6030 Y188.3177 Z-3.9146
G01 X131.6419 Y188.3249 Z-3.9281
G01 X131.6811 Y188.3300 Z-3.9417
G01 X131.7205 Y188.3331 Z-3.9552
G01 X131.7600 Y188.3342 Z-3.9688
G01 X131.7995 Y188.3331 Z-3.9823
G01 X131.8389 Y188.3300 Z-3.9958
G01 X131.8781 Y188.3249 Z-4.0094
G01 X131.9170 Y188.3177 Z-4.0229
G01 X131.9554 Y188.3084 Z-4.0365
G01 X131.9933 Y188.2972 Z-4.0500
G01 X132.0306 Y188.2840 Z-4.0635
G01 X132.0671 Y188.2689 Z-4.0771
G01 X132.1028 Y188.2519 Z-4.0906
G01 X132.1376 Y188.2330 Z-4.1042
G01 X132.1713 Y188.2123 Z-4.1177
G01 X132.2038 Y188.1899 Z-4.1313
G01 X132.2352 Y188.1659 Z-4.1448
G01 X132.2653 Y188.1402 Z-4.1583
G01 X132.2939 Y188.1130 Z-4.1719
G01 X132.3212 Y188.0843 Z-4.1854
G01 X132.3468 Y188.0542 Z-4.1990
G01 X132.3709 Y188.0229 Z-4.2125
G01 X132.3933 Y187.9903 Z-4.2260
G01 X132.4140 Y187.9566 Z-4.2396
G01 X132.4328 Y187.9218 Z-4.2531
G01 X132.4498 Y187.8862 Z-4.2667
G01 X132.4650 Y187.8496 Z-4.2802
G01 X132.4782 Y187.8124 Z-4.2938
G01 X132.4894 Y187.7745 Z-4.3073
G01 X132.4986 Y187.7360 Z-4.3208
G01 X132.5058 Y187.6972 Z-4.3344
G01 X132.5110 Y187.6580 Z-4.3479
G01 X132.5141 Y187.6185 Z-4.3615
G01 X132.5151 Y187.5790 Z-4.3750
G01 X132.5141 Y187.5395 Z-4.3885
G01 X132.5110 Y187.5001 Z-4.4021
G01 X132.5058 Y187.4609 Z-4.4156
G01 X132.4986 Y187.4220 Z-4.4292
G01 X132.4894 Y187.3836 Z-4.4427
G01 X132.4782 Y187.3457 Z-4.4563
G01 X132.4650 Y187.3084 Z-4.4698
G01 X132.4498 Y187.2719 Z-4.4833
G01 X132.4328 Y187.2362 Z-4.4969
G01 X132.4140 Y187.2015 Z-4.5104
G01 X132.3933 Y187.1677 Z-4.5240
G01 X132.3709 Y187.1352 Z-4.5375
G01 X132.3468 Y187.1038 Z-4.5510
G01 X132.3212 Y187.0737 Z-4.5646
G01 X132.2939 Y187.0451 Z-4.5781
G01 X132.2653 Y187.0179 Z-4.5917
G01 X132.2352 Y186.9922 Z-4.6052
G01 X132.2038 Y186.9681 Z-4.6188
G01 X132.1713 Y186.9457 Z-4.6323
G01 X132.1376 Y186.9251 Z-4.6458
G01 X132.1028 Y186.9062 Z-4.6594
G01 X132.0671 Y186.8892 Z-4.6729
G01 X132.0306 Y186.8740 Z-4.6865
G01 X131.9933 Y186.8608 Z-4.7000
G01 X131.9554 Y186.8496 Z-4.7135
G01 X131.9170 Y186.8404 Z-4.7271
G01 X131.8781 Y186.8332 Z-4.7406
G01 X131.8389 Y186.8280 Z-4.7542
G01 X131.7995 Y186.8249 Z-4.7677
G01 X131.7600 Y186.8239 Z-4.7813
G01 X131.7205 Y186.8249 Z-4.7948
G01 X131.6811 Y186.8280 Z-4.8083
G01 X131.6419 Y186.8332 Z-4.8219
G01 X131.6030 Y186.8404 Z-4.8354
G01 X131.5645 Y186.8496 Z-4.8490
G01 X131.5266 Y186.8608 Z-4.8625
G01 X131.4894 Y186.8740 Z-4.8760
G01 X131.4528 Y186.8892 Z-4.8896
G01 X131.4172 Y186.9062 Z-4.9031
G01 X131.3824 Y186.9251 Z-4.9167
G01 X131.3487 Y186.9457 Z-4.9302
G01 X131.3161 Y186.9681 Z-4.9438
G01 X131.2848 Y186.9922 Z-4.9573
G01 X131.2547 Y187.0179 Z-4.9708
G01 X131.2260 Y187.0451 Z-4.9844
G01 X131.1988 Y187.0737 Z-4.9979
G01 X131.1731 Y187.1038 Z-5.0115
G01 X131.1491 Y187.1352 Z-5.0250
G01 X131.1267 Y187.1677 Z-5.0385
G01 X131.1060 Y187.2015 Z-5.0521
G01 X131.0872 Y187.2362 Z-5.0656
G01 X131.0701 Y187.2719 Z-5.0792
G01 X131.0550 Y187.3084 Z-5.0927
G01 X131.0418 Y187.3457 Z-5.1063
G01 X131.0306 Y187.3836 Z-5.1198
G01 X131.0214 Y187.4220 Z-5.1333
G01 X131.0141 Y187.4609 Z-5.1469
G01 X131.0090 Y187.5001 Z-5.1604
G01 X131.0059 Y187.5395 Z-5.1740
G01 X131.0049 Y187.5790 Z-5.1875
G01 X131.0059 Y187.6185 Z-5.2010
G01 X131.0090 Y187.6580 Z-5.2146
G01 X131.0141 Y187.6972 Z-5.2281
G01 X131.0214 Y187.7360 Z-5.2417
G01 X131.0306 Y187.7745 Z-5.2552
G01 X131.0418 Y187.8124 Z-5.2688
G01 X131.0550 Y187.8496 Z-5.2823
G01 X131.0701 Y187.8862 Z-5.2958
G01 X131.0872 Y187.9218 Z-5.3094
G01 X131.1060 Y187.9566 Z-5.3229
G01 X131.1267 Y187.9903 Z-5.3365
G01 X131.1491 Y188.0229 Z-5.3500
G01 X131.1731 Y188.0542 Z-5.3635
G01 X131.1988 Y188.0843 Z-5.3771
G01 X131.2260 Y188.1130 Z-5.3906
G01 X131.2547 Y188.1402 Z-5.4042
G01 X131.2848 Y188.1659 Z-5.4177
G01 X131.3161 Y188.1899 Z-5.4313
G01 X131.3487 Y188.2123 Z-5.4448
G01 X131.3824 Y188.2330 Z-5.4583
G01 X131.4172 Y188.2519 Z-5.4719
G01 X131.4528 Y188.2689 Z-5.4854
G01 X131.4894 Y188.2840 Z-5.4990
G01 X131.5266 Y188.2972 Z-5.5125
G01 X131.5645 Y188.3084 Z-5.5260
G01 X131.6030 Y188.3177 Z-5.5396
G01 X131.6419 Y188.3249 Z-5.5531
G01 X131.6811 Y188.3300 Z-5.5667
G01 X131.7205 Y188.3331 Z-5.5802
G01 X131.7600 Y188.3342 Z-5.5938
G01 X131.7995 Y188.3331 Z-5.6073
G01 X131.8389 Y188.3300 Z-5.6208
G01 X131.8781 Y188.3249 Z-5.6344
G01 X131.9170 Y188.3177 Z-5.6479
G01 X131.9554 Y188.3084 Z-5.6615
G01 X131.9933 Y188.2972 Z-5.6750
G01 X132.0306 Y188.2840 Z-5.6885
G01 X132.0671 Y188.2689 Z-5.7021
G01 X132.1028 Y188.2519 Z-5.7156
G01 X132.1376 Y188.2330 Z-5.7292
G01 X132.1713 Y188.2123 Z-5.7427
G01 X132.2038 Y188.1899 Z-5.7563
G01 X132.2352 Y188.1659 Z-5.7698
G01 X132.2653 Y188.1402 Z-5.7833
G01 X132.2939 Y188.1130 Z-5.7969
G01 X132.3212 Y188.0843 Z-5.8104
G01 X132.3468 Y188.0542 Z-5.8240
G01 X132.3709 Y188.0229 Z-5.8375
G01 X132.3933 Y187.9903 Z-5.8510
G01 X132.4140 Y187.9566 Z-5.8646
G01 X132.4328 Y187.9218 Z-5.8781
G01 X132.4498 Y187.8862 Z-5.8917
G01 X132.4650 Y187.8496 Z-5.9052
G01 X132.4782 Y187.8124 Z-5.9188
G01 X132.4894 Y187.7745 Z-5.9323
G01 X132.4986 Y187.7360 Z-5.9458
G01 X132.5058 Y187.6972 Z-5.9594
G01 X132.5110 Y187.6580 Z-5.9729
G01 X132.5141 Y187.6185 Z-5.9865
G01 X132.5151 Y187.5790 Z-6.0000
G01 X132.5141 Y187.5395
G01 X132.5110 Y187.5001
G01 X132.5058 Y187.4609
G01 X132.4986 Y187.4220
G01 X132.4894 Y187.3836
G01 X132.4782 Y187.3457
G01 X132.4650 Y187.3084
G01 X132.4498 Y187.2719
G01 X132.4328 Y187.2362
G01 X132.4140 Y187.2015
G01 X132.3933 Y187.1677
G01 X132.3709 Y187.1352
G01 X132.3468 Y187.1038
G01 X132.3212 Y187.0737
G01 X132.2939 Y187.0451
G01 X132.2653 Y187.0179
G01 X132.2352 Y186.9922
G01 X132.2038 Y186.9681
G01 X132.1713 Y186.9457
G01 X132.1376 Y186.9251
G01 X132.1028 Y186.9062
G01 X132.0671 Y186.8892
G01 X132.0306 Y186.8740
G01 X131.9933 Y186.8608
G01 X131.9554 Y186.8496
G01 X131.9170 Y186.8404
G01 X131.8781 Y186.8332
G01 X131.8389 Y186.8280
G01 X131.7995 Y186.8249
G01 X131.7600 Y186.8239
G01 X131.7205 Y186.8249
G01 X131.6811 Y186.8280
G01 X131.6419 Y186.8332
G01 X131.6030 Y186.8404
G01 X131.5645 Y186.8496
G01 X131.5266 Y186.8608
G01 X131.4894 Y186.8740
G01 X131.4528 Y186.8892
G01 X131.4172 Y186.9062
G01 X131.3824 Y186.9251
G01 X131.3487 Y186.9457
G01 X131.3161 Y186.9681
G01 X131.2848 Y186.9922
G01 X131.2547 Y187.0179
G01 X131.2260 Y187.0451
G01 X131.1988 Y187.0737
G01 X131.1731 Y187.1038
G01 X131.1491 Y187.1352
G01 X131.1267 Y187.1677
G01 X131.1060 Y187.2015
G01 X131.0872 Y187.2362
G01 X131.0701 Y187.2719
G01 X131.0550 Y187.3084
G01 X131.0418 Y187.3457
G01 X131.0306 Y187.3836
G01 X131.0214 Y187.4220
G01 X131.0141 Y187.4609
G01 X131.0090 Y187.5001
G01 X131.0059 Y187.5395
G01 X131.0049 Y187.5790
G01 X131.0059 Y187.6185
G01 X131.0090 Y187.6580
G01 X131.0141 Y187.6972
G01 X131.0214 Y187.7360
G01 X131.0306 Y187.7745
G01 X131.0418 Y187.8124
G01 X131.0550 Y187.8496
G01 X131.0701 Y187.8862
G01 X131.0872 Y187.9218
G01 X131.1060 Y187.9566
G01 X131.1267 Y187.9903
G01 X131.1491 Y188.0229
G01 X131.1731 Y188.0542
G01 X131.1988 Y188.0843
G01 X131.2260 Y188.1130
G01 X131.2547 Y188.1402
G01 X131.2848 Y188.1659
G01 X131.3161 Y188.1899
G01 X131.3487 Y188.2123
G01 X131.3824 Y188.2330
G01 X131.4172 Y188.2519
G01 X131.4528 Y188.2689
G01 X131.4894 Y188.2840
G01 X131.5266 Y188.2972
G01 X131.5645 Y188.3084
G01 X131.6030 Y188.3177
G01 X131.6419 Y188.3249
G01 X131.6811 Y188.3300
G01 X131.7205 Y188.3331
G01 X131.7600 Y188.3342
G01 X131.7995 Y188.3331
G01 X131.8389 Y188.3300
G01 X131.8781 Y188.3249
G01 X131.9170 Y188.3177
G01 X131.9554 Y188.3084
G01 X131.9933 Y188.2972
G01 X132.0306 Y188.2840
G01 X132.0671 Y188.2689
G01 X132.1028 Y188.2519
G01 X132.1376 Y188.2330
G01 X132.1713 Y188.2123
G01 X132.2038 Y188.1899
G01 X132.2352 Y188.1659
G01 X132.2653 Y188.1402
G01 X132.2939 Y188.1130
G01 X132.3212 Y188.0843
G01 X132.3468 Y188.0542
G01 X132.3709 Y188.0229
G01 X132.3933 Y187.9903
G01 X132.4140 Y187.9566
G01 X132.4328 Y187.9218
G01 X132.4498 Y187.8862
G01 X132.4650 Y187.8496
G01 X132.4782 Y187.8124
G01 X132.4894 Y187.7745
G01 X132.4986 Y187.7360
G01 X132.5058 Y187.6972
G01 X132.5110 Y187.6580
G01 X132.5141 Y187.6185
G01 X132.5151 Y187.5790
M107
M106 S240
G01 X132.5142 Y187.5521 Z-5.9886
M107
M106 S240
G01 X132.5113 Y187.5253 Z-5.9773
M107
M106 S240
G01 X132.5065 Y187.4988 Z-5.9659
M107
M106 S240
G01 X132.4998 Y187.4727 Z-5.9545
M107
M106 S240
G01 X132.4913 Y187.4471 Z-5.9432
M107
M106 S240
G01 X132.4810 Y187.4222 Z-5.9318
M107
M106 S240
G01 X132.4689 Y187.3981 Z-5.9205
M107
M106 S240
G01 X132.4552 Y187.3749 Z-5.9091
M107
M106 S240
G01 X132.4398 Y187.3528 Z-5.8977
M107
M106 S240
G01 X132.4229 Y187.3318 Z-5.8864
M107
M106 S240
G01 X132.4045 Y187.3120 Z-5.8750
M107
M106 S240
G01 X132.3848 Y187.2937 Z-5.8636
M107
M106 S240
G01 X132.3638 Y187.2768 Z-5.8523
M107
M106 S240
G01 X132.3417 Y187.2614 Z-5.8409
M107
M106 S240
G01 X132.3185 Y187.2476 Z-5.8295
M107
M106 S240
G01 X132.2944 Y187.2356 Z-5.8182
M107
M106 S240
G01 X132.2695 Y187.2253 Z-5.8068
M107
M106 S240
G01 X132.2439 Y187.2168 Z-5.7955
M107
M106 S240
G01 X132.2178 Y187.2101 Z-5.7841
M107
M106 S240
G01 X132.1913 Y187.2053 Z-5.7727
M107
M106 S240
G01 X132.1645 Y187.2024 Z-5.7614
M107
M106 S240
G01 X132.1376 Y187.2015 Z-5.7500
M107
M106 S240
G01 X132.1106 Y187.2024 Z-5.7386
M107
M106 S240
G01 X132.0838 Y187.2053 Z-5.7273
M107
M106 S240
G01 X132.0573 Y187.2101 Z-5.7159
M107
M106 S240
G01 X132.0312 Y187.2168 Z-5.7045
M107
M106 S240
G01 X132.0056 Y187.2253 Z-5.6932
M107
M106 S240
G01 X131.9807 Y187.2356 Z-5.6818
M107
M106 S240
G01 X131.9566 Y187.2476 Z-5.6705
M107
M106 S240
G01 X131.9334 Y187.2614 Z-5.6591
M107
M106 S240
G01 X131.9113 Y187.2768 Z-5.6477
M107
M106 S240
G01 X131.8903 Y187.2937 Z-5.6364
M107
M106 S240
G01 X131.8706 Y187.3120 Z-5.6250
M107
M106 S240
G01 X131.8522 Y187.3318 Z-5.6136
M107
M106 S240
G01 X131.8353 Y187.3528 Z-5.6023
M107
M106 S240
G01 X131.8199 Y187.3749 Z-5.5909
M107
M106 S240
G01 X131.8062 Y187.3981 Z-5.5795
M107
M106 S240
G01 X131.7941 Y187.4222 Z-5.5682
M107
M106 S240
G01 X131.7838 Y187.4471 Z-5.5568
M107
M106 S240
G01 X131.7753 Y187.4727 Z-5.5455
M107
M106 S240
G01 X131.7686 Y187.4988 Z-5.5341
M107
M106 S240
G01 X131.7638 Y187.5253 Z-5.5227
M107
M106 S240
G01 X131.7609 Y187.5521 Z-5.5114
M107
M106 S240
G01 X131.7600 Y187.5790 Z-5.5000
M107
G00 Z2.0000


;No. 10: Hole 7
G00 X131.0336 Y176.6268 Z2.0000
G00 Z0.5000
G01 Z0.0000 F400
G01 Z-1.8000
M106 S240
G01 X113.2606 F1000
G01 X113.0864 Y176.5271
G01 X112.9787 Y176.6955
G01 X112.8823 Y176.8705
G01 X112.7978 Y177.0516
G01 X112.7254 Y177.2379
G01 X112.6655 Y177.4285
G01 X112.6184 Y177.6227
G01 X112.5842 Y177.8196
G01 X112.5631 Y178.0184
G01 X131.7424
G01 X131.7057 Y177.7384
G01 X131.6432 Y177.4631
G01 X131.5554 Y177.1947
G01 X131.4430 Y176.9357
G01 X131.3071 Y176.6882
G01 X131.1488 Y176.4544
G01 X130.9694 Y176.2363
G01 X130.7706 Y176.0358
G01 X130.5540 Y175.8547
G01 X130.3216 Y175.6944
G01 X130.0752 Y175.5564
G01 X129.8172 Y175.4419
G01 X129.5496 Y175.3519
G01 X129.2747 Y175.2870
G01 X128.9951 Y175.2480
G01 X128.7130 Y175.2352
G01 X115.5967
G01 X115.4496 Y175.2358
G01 X115.3027 Y175.2438
G01 X115.1564 Y175.2590
G01 X115.0110 Y175.2815
G01 X114.8670 Y175.3111
G01 X114.7245 Y175.3478
G01 X114.5841 Y175.3916
G01 X114.4460 Y175.4422
G01 X114.3105 Y175.4996
G01 X114.1781 Y175.5637
G01 X114.0491 Y175.6342
G01 X113.9236 Y175.7110
G01 X113.8022 Y175.7940
G01 X113.6849 Y175.8829
G01 X113.5723 Y175.9774
G01 X113.4644 Y176.0775
G01 X113.3617 Y176.1827
G01 X113.2643 Y176.2929
G01 X113.1724 Y176.4078
G01 X113.0864 Y176.5271
G01 X113.2606 Y176.6268
M107
G00 Z2.0000


;No. 11: Helical drill 1
G00 X170.9299 Y187.0757 Z2.0000
G00 Z0.5000
M106 S240
G01 X170.9289 Y187.0361 Z0.4865 F400
G01 X170.9258 Y186.9967 Z0.4729
G01 X170.9206 Y186.9575 Z0.4594
G01 X170.9134 Y186.9187 Z0.4458
G01 X170.9042 Y186.8802 Z0.4323
G01 X170.8930 Y186.8423 Z0.4188
G01 X170.8798 Y186.8051 Z0.4052
G01 X170.8647 Y186.7685 Z0.3917
G01 X170.8476 Y186.7329 Z0.3781
G01 X170.8288 Y186.6981 Z0.3646
G01 X170.8081 Y186.6644 Z0.3510
G01 X170.7857 Y186.6318 Z0.3375
G01 X170.7617 Y186.6005 Z0.3240
G01 X170.7360 Y186.5704 Z0.3104
G01 X170.7088 Y186.5417 Z0.2969
G01 X170.6801 Y186.5145 Z0.2833
G01 X170.6500 Y186.4889 Z0.2698
G01 X170.6187 Y186.4648 Z0.2563
G01 X170.5861 Y186.4424 Z0.2427
G01 X170.5524 Y186.4217 Z0.2292
G01 X170.5177 Y186.4029 Z0.2156
G01 X170.4820 Y186.3859 Z0.2021
G01 X170.4455 Y186.3707 Z0.1885
G01 X170.4082 Y186.3575 Z0.1750
G01 X170.3703 Y186.3463 Z0.1615
G01 X170.3318 Y186.3371 Z0.1479
G01 X170.2930 Y186.3299 Z0.1344
G01 X170.2538 Y186.3247 Z0.1208
G01 X170.2144 Y186.3216 Z0.1073
G01 X170.1749 Y186.3206 Z0.0938
G01 X170.1353 Y186.3216 Z0.0802
G01 X170.0959 Y186.3247 Z0.0667
G01 X170.0567 Y186.3299 Z0.0531
G01 X170.0179 Y186.3371 Z0.0396
G01 X169.9794 Y186.3463 Z0.0260
G01 X169.9415 Y186.3575 Z0.0125
G01 X169.9043 Y186.3707 Z-0.0010
G01 X169.8677 Y186.3859 Z-0.0146
G01 X169.8320 Y186.4029 Z-0.0281
G01 X169.7973 Y186.4217 Z-0.0417
G01 X169.7636 Y186.4424 Z-0.0552
G01 X169.7310 Y186.4648 Z-0.0688
G01 X169.6997 Y186.4889 Z-0.0823
G01 X169.6696 Y186.5145 Z-0.0958
G01 X169.6409 Y186.5417 Z-0.1094
G01 X169.6137 Y186.5704 Z-0.1229
G01 X169.5880 Y186.6005 Z-0.1365
G01 X169.5640 Y186.6318 Z-0.1500
G01 X169.5416 Y186.6644 Z-0.1635
G01 X169.5209 Y186.6981 Z-0.1771
G01 X169.5021 Y186.7329 Z-0.1906
G01 X169.4850 Y186.7685 Z-0.2042
G01 X169.4699 Y186.8051 Z-0.2177
G01 X169.4567 Y186.8423 Z-0.2313
G01 X169.4455 Y186.8802 Z-0.2448
G01 X169.4363 Y186.9187 Z-0.2583
G01 X169.4291 Y186.9575 Z-0.2719
G01 X169.4239 Y186.9967 Z-0.2854
G01 X169.4208 Y187.0361 Z-0.2990
G01 X169.4198 Y187.0757 Z-0.3125
G01 X169.4208 Y187.1152 Z-0.3260
G01 X169.4239 Y187.1546 Z-0.3396
G01 X169.4291 Y187.1938 Z-0.3531
G01 X169.4363 Y187.2327 Z-0.3667
G01 X169.4455 Y187.2711 Z-0.3802
G01 X169.4567 Y187.3090 Z-0.3938
G01 X169.4699 Y187.3463 Z-0.4073
G01 X169.4850 Y187.3828 Z-0.4208
G01 X169.5021 Y187.4185 Z-0.4344
G01 X169.5209 Y187.4532 Z-0.4479
G01 X169.5416 Y187.4869 Z-0.4615
G01 X169.5640 Y187.5195 Z-0.4750
G01 X169.5880 Y187.5509 Z-0.4885
G01 X169.6137 Y187.5809 Z-0.5021
G01 X169.6409 Y187.6096 Z-0.5156
G01 X169.6696 Y187.6368 Z-0.5292
G01 X169.6997 Y187.6625 Z-0.5427
G01 X169.7310 Y187.6865 Z-0.5563
G01 X169.7636 Y187.7089 Z-0.5698
G01 X169.7973 Y187.7296 Z-0.5833
G01 X169.8320 Y187.7485 Z-0.5969
G01 X169.8677 Y187.7655 Z-0.6104
G01 X169.9043 Y187.7806 Z-0.6240
G01 X169.9415 Y187.7938 Z-0.6375
G01 X169.9794 Y187.8050 Z-0.6510
G01 X170.0179 Y187.8143 Z-0.6646
G01 X170.0567 Y187.8215 Z-0.6781
G01 X170.0959 Y187.8266 Z-0.6917
G01 X170.1353 Y187.8297 Z-0.7052
G01 X170.1749 Y187.8308 Z-0.7188
G01 X170.2144 Y187.8297 Z-0.7323
G01 X170.2538 Y187.8266 Z-0.7458
G01 X170.2930 Y187.8215 Z-0.7594
G01 X170.3318 Y187.8143 Z-0.7729
G01 X170.3703 Y187.8050 Z-0.7865
G01 X170.4082 Y187.7938 Z-0.8000
G01 X170.4455 Y187.7806 Z-0.8135
G01 X170.4820 Y187.7655 Z-0.8271
G01 X170.5177 Y187.7485 Z-0.8406
G01 X170.5524 Y187.7296 Z-0.8542
G01 X170.5861 Y187.7089 Z-0.8677
G01 X170.6187 Y187.6865 Z-0.8813
G01 X170.6500 Y187.6625 Z-0.8948
G01 X170.6801 Y187.6368 Z-0.9083
G01 X170.7088 Y187.6096 Z-0.9219
G01 X170.7360 Y187.5809 Z-0.9354
G01 X170.7617 Y187.5509 Z-0.9490
G01 X170.7857 Y187.5195 Z-0.9625
G01 X170.8081 Y187.4869 Z-0.9760
G01 X170.8288 Y187.4532 Z-0.9896
G01 X170.8476 Y187.4185 Z-1.0031
G01 X170.8647 Y187.3828 Z-1.0167
G01 X170.8798 Y187.3463 Z-1.0302
G01 X170.8930 Y187.3090 Z-1.0438
G01 X170.9042 Y187.2711 Z-1.0573
G01 X170.9134 Y187.2327 Z-1.0708
G01 X170.9206 Y187.1938 Z-1.0844
G01 X170.9258 Y187.1546 Z-1.0979
G01 X170.9289 Y187.1152 Z-1.1115
G01 X170.9299 Y187.0757 Z-1.1250
G01 X170.9289 Y187.0361 Z-1.1385
G01 X170.9258 Y186.9967 Z-1.1521
G01 X170.9206 Y186.9575 Z-1.1656
G01 X170.9134 Y186.9187 Z-1.1792
G01 X170.9042 Y186.8802 Z-1.1927
G01 X170.8930 Y186.8423 Z-1.2063
G01 X170.8798 Y186.8051 Z-1.2198
G01 X170.8647 Y186.7685 Z-1.2333
G01 X170.8476 Y186.7329 Z-1.2469
G01 X170.8288 Y186.6981 Z-1.2604
G01 X170.8081 Y186.6644 Z-1.2740
G01 X170.7857 Y186.6318 Z-1.2875
G01 X170.7617 Y186.6005 Z-1.3010
G01 X170.7360 Y186.5704 Z-1.3146
G01 X170.7088 Y186.5417 Z-1.3281
G01 X170.6801 Y186.5145 Z-1.3417
G01 X170.6500 Y186.4889 Z-1.3552
G01 X170.6187 Y186.4648 Z-1.3688
G01 X170.5861 Y186.4424 Z-1.3823
G01 X170.5524 Y186.4217 Z-1.3958
G01 X170.5177 Y186.4029 Z-1.4094
G01 X170.4820 Y186.3859 Z-1.4229
G01 X170.4455 Y186.3707 Z-1.4365
G01 X170.4082 Y186.3575 Z-1.4500
G01 X170.3703 Y186.3463 Z-1.4635
G01 X170.3318 Y186.3371 Z-1.4771
G01 X170.2930 Y186.3299 Z-1.4906
G01 X170.2538 Y186.3247 Z-1.5042
G01 X170.2144 Y186.3216 Z-1.5177
G01 X170.1749 Y186.3206 Z-1.5313
G01 X170.1353 Y186.3216 Z-1.5448
G01 X170.0959 Y186.3247 Z-1.5583
G01 X170.0567 Y186.3299 Z-1.5719
G01 X170.0179 Y186.3371 Z-1.5854
G01 X169.9794 Y186.3463 Z-1.5990
G01 X169.9415 Y186.3575 Z-1.6125
G01 X169.9043 Y186.3707 Z-1.6260
G01 X169.8677 Y186.3859 Z-1.6396
G01 X169.8320 Y186.4029 Z-1.6531
G01 X169.7973 Y186.4217 Z-1.6667
G01 X169.7636 Y186.4424 Z-1.6802
G01 X169.7310 Y186.4648 Z-1.6938
G01 X169.6997 Y186.4889 Z-1.7073
G01 X169.6696 Y186.5145 Z-1.7208
G01 X169.6409 Y186.5417 Z-1.7344
G01 X169.6137 Y186.5704 Z-1.7479
G01 X169.5880 Y186.6005 Z-1.7615
G01 X169.5640 Y186.6318 Z-1.7750
G01 X169.5416 Y186.6644 Z-1.7885
G01 X169.5209 Y186.6981 Z-1.8021
G01 X169.5021 Y186.7329 Z-1.8156
G01 X169.4850 Y186.7685 Z-1.8292
G01 X169.4699 Y186.8051 Z-1.8427
G01 X169.4567 Y186.8423 Z-1.8563
G01 X169.4455 Y186.8802 Z-1.8698
G01 X169.4363 Y186.9187 Z-1.8833
G01 X169.4291 Y186.9575 Z-1.8969
G01 X169.4239 Y186.9967 Z-1.9104
G01 X169.4208 Y187.0361 Z-1.9240
G01 X169.4198 Y187.0757 Z-1.9375
G01 X169.4208 Y187.1152 Z-1.9510
G01 X169.4239 Y187.1546 Z-1.9646
G01 X169.4291 Y187.1938 Z-1.9781
G01 X169.4363 Y187.2327 Z-1.9917
G01 X169.4455 Y187.2711 Z-2.0052
G01 X169.4567 Y187.3090 Z-2.0188
G01 X169.4699 Y187.3463 Z-2.0323
G01 X169.4850 Y187.3828 Z-2.0458
G01 X169.5021 Y187.4185 Z-2.0594
G01 X169.5209 Y187.4532 Z-2.0729
G01 X169.5416 Y187.4869 Z-2.0865
G01 X169.5640 Y187.5195 Z-2.1000
G01 X169.5880 Y187.5509 Z-2.1135
G01 X169.6137 Y187.5809 Z-2.1271
G01 X169.6409 Y187.6096 Z-2.1406
G01 X169.6696 Y187.6368 Z-2.1542
G01 X169.6997 Y187.6625 Z-2.1677
G01 X169.7310 Y187.6865 Z-2.1813
G01 X169.7636 Y187.7089 Z-2.1948
G01 X169.7973 Y187.7296 Z-2.2083
G01 X169.8320 Y187.7485 Z-2.2219
G01 X169.8677 Y187.7655 Z-2.2354
G01 X169.9043 Y187.7806 Z-2.2490
G01 X169.9415 Y187.7938 Z-2.2625
G01 X169.9794 Y187.8050 Z-2.2760
G01 X170.0179 Y187.8143 Z-2.2896
G01 X170.0567 Y187.8215 Z-2.3031
G01 X170.0959 Y187.8266 Z-2.3167
G01 X170.1353 Y187.8297 Z-2.3302
G01 X170.1749 Y187.8308 Z-2.3438
G01 X170.2144 Y187.8297 Z-2.3573
G01 X170.2538 Y187.8266 Z-2.3708
G01 X170.2930 Y187.8215 Z-2.3844
G01 X170.3318 Y187.8143 Z-2.3979
G01 X170.3703 Y187.8050 Z-2.4115
G01 X170.4082 Y187.7938 Z-2.4250
G01 X170.4455 Y187.7806 Z-2.4385
G01 X170.4820 Y187.7655 Z-2.4521
G01 X170.5177 Y187.7485 Z-2.4656
G01 X170.5524 Y187.7296 Z-2.4792
G01 X170.5861 Y187.7089 Z-2.4927
G01 X170.6187 Y187.6865 Z-2.5063
G01 X170.6500 Y187.6625 Z-2.5198
G01 X170.6801 Y187.6368 Z-2.5333
G01 X170.7088 Y187.6096 Z-2.5469
G01 X170.7360 Y187.5809 Z-2.5604
G01 X170.7617 Y187.5509 Z-2.5740
G01 X170.7857 Y187.5195 Z-2.5875
G01 X170.8081 Y187.4869 Z-2.6010
G01 X170.8288 Y187.4532 Z-2.6146
G01 X170.8476 Y187.4185 Z-2.6281
G01 X170.8647 Y187.3828 Z-2.6417
G01 X170.8798 Y187.3463 Z-2.6552
G01 X170.8930 Y187.3090 Z-2.6688
G01 X170.9042 Y187.2711 Z-2.6823
G01 X170.9134 Y187.2327 Z-2.6958
G01 X170.9206 Y187.1938 Z-2.7094
G01 X170.9258 Y187.1546 Z-2.7229
G01 X170.9289 Y187.1152 Z-2.7365
G01 X170.9299 Y187.0757 Z-2.7500
G01 X170.9289 Y187.0361 Z-2.7635
G01 X170.9258 Y186.9967 Z-2.7771
G01 X170.9206 Y186.9575 Z-2.7906
G01 X170.9134 Y186.9187 Z-2.8042
G01 X170.9042 Y186.8802 Z-2.8177
G01 X170.8930 Y186.8423 Z-2.8313
G01 X170.8798 Y186.8051 Z-2.8448
G01 X170.8647 Y186.7685 Z-2.8583
G01 X170.8476 Y186.7329 Z-2.8719
G01 X170.8288 Y186.6981 Z-2.8854
G01 X170.8081 Y186.6644 Z-2.8990
G01 X170.7857 Y186.6318 Z-2.9125
G01 X170.7617 Y186.6005 Z-2.9260
G01 X170.7360 Y186.5704 Z-2.9396
G01 X170.7088 Y186.5417 Z-2.9531
G01 X170.6801 Y186.5145 Z-2.9667
G01 X170.6500 Y186.4889 Z-2.9802
G01 X170.6187 Y186.4648 Z-2.9938
G01 X170.5861 Y186.4424 Z-3.0073
G01 X170.5524 Y186.4217 Z-3.0208
G01 X170.5177 Y186.4029 Z-3.0344
G01 X170.4820 Y186.3859 Z-3.0479
G01 X170.4455 Y186.3707 Z-3.0615
G01 X170.4082 Y186.3575 Z-3.0750
G01 X170.3703 Y186.3463 Z-3.0885
G01 X170.3318 Y186.3371 Z-3.1021
G01 X170.2930 Y186.3299 Z-3.1156
G01 X170.2538 Y186.3247 Z-3.1292
G01 X170.2144 Y186.3216 Z-3.1427
G01 X170.1749 Y186.3206 Z-3.1563
G01 X170.1353 Y186.3216 Z-3.1698
G01 X170.0959 Y186.3247 Z-3.1833
G01 X170.0567 Y186.3299 Z-3.1969
G01 X170.0179 Y186.3371 Z-3.2104
G01 X169.9794 Y186.3463 Z-3.2240
G01 X169.9415 Y186.3575 Z-3.2375
G01 X169.9043 Y186.3707 Z-3.2510
G01 X169.8677 Y186.3859 Z-3.2646
G01 X169.8320 Y186.4029 Z-3.2781
G01 X169.7973 Y186.4217 Z-3.2917
G01 X169.7636 Y186.4424 Z-3.3052
G01 X169.7310 Y186.4648 Z-3.3188
G01 X169.6997 Y186.4889 Z-3.3323
G01 X169.6696 Y186.5145 Z-3.3458
G01 X169.6409 Y186.5417 Z-3.3594
G01 X169.6137 Y186.5704 Z-3.3729
G01 X169.5880 Y186.6005 Z-3.3865
G01 X169.5640 Y186.6318 Z-3.4000
G01 X169.5416 Y186.6644 Z-3.4135
G01 X169.5209 Y186.6981 Z-3.4271
G01 X169.5021 Y186.7329 Z-3.4406
G01 X169.4850 Y186.7685 Z-3.4542
G01 X169.4699 Y186.8051 Z-3.4677
G01 X169.4567 Y186.8423 Z-3.4813
G01 X169.4455 Y186.8802 Z-3.4948
G01 X169.4363 Y186.9187 Z-3.5083
G01 X169.4291 Y186.9575 Z-3.5219
G01 X169.4239 Y186.9967 Z-3.5354
G01 X169.4208 Y187.0361 Z-3.5490
G01 X169.4198 Y187.0757 Z-3.5625
G01 X169.4208 Y187.1152 Z-3.5760
G01 X169.4239 Y187.1546 Z-3.5896
G01 X169.4291 Y187.1938 Z-3.6031
G01 X169.4363 Y187.2327 Z-3.6167
G01 X169.4455 Y187.2711 Z-3.6302
G01 X169.4567 Y187.3090 Z-3.6438
G01 X169.4699 Y187.3463 Z-3.6573
G01 X169.4850 Y187.3828 Z-3.6708
G01 X169.5021 Y187.4185 Z-3.6844
G01 X169.5209 Y187.4532 Z-3.6979
G01 X169.5416 Y187.4869 Z-3.7115
G01 X169.5640 Y187.5195 Z-3.7250
G01 X169.5880 Y187.5509 Z-3.7385
G01 X169.6137 Y187.5809 Z-3.7521
G01 X169.6409 Y187.6096 Z-3.7656
G01 X169.6696 Y187.6368 Z-3.7792
G01 X169.6997 Y187.6625 Z-3.7927
G01 X169.7310 Y187.6865 Z-3.8063
G01 X169.7636 Y187.7089 Z-3.8198
G01 X169.7973 Y187.7296 Z-3.8333
G01 X169.8320 Y187.7485 Z-3.8469
G01 X169.8677 Y187.7655 Z-3.8604
G01 X169.9043 Y187.7806 Z-3.8740
G01 X169.9415 Y187.7938 Z-3.8875
G01 X169.9794 Y187.8050 Z-3.9010
G01 X170.0179 Y187.8143 Z-3.9146
G01 X170.0567 Y187.8215 Z-3.9281
G01 X170.0959 Y187.8266 Z-3.9417
G01 X170.1353 Y187.8297 Z-3.9552
G01 X170.1749 Y187.8308 Z-3.9688
G01 X170.2144 Y187.8297 Z-3.9823
G01 X170.2538 Y187.8266 Z-3.9958
G01 X170.2930 Y187.8215 Z-4.0094
G01 X170.3318 Y187.8143 Z-4.0229
G01 X170.3703 Y187.8050 Z-4.0365
G01 X170.4082 Y187.7938 Z-4.0500
G01 X170.4455 Y187.7806 Z-4.0635
G01 X170.4820 Y187.7655 Z-4.0771
G01 X170.5177 Y187.7485 Z-4.0906
G01 X170.5524 Y187.7296 Z-4.1042
G01 X170.5861 Y187.7089 Z-4.1177
G01 X170.6187 Y187.6865 Z-4.1313
G01 X170.6500 Y187.6625 Z-4.1448
G01 X170.6801 Y187.6368 Z-4.1583
G01 X170.7088 Y187.6096 Z-4.1719
G01 X170.7360 Y187.5809 Z-4.1854
G01 X170.7617 Y187.5509 Z-4.1990
G01 X170.7857 Y187.5195 Z-4.2125
G01 X170.8081 Y187.4869 Z-4.2260
G01 X170.8288 Y187.4532 Z-4.2396
G01 X170.8476 Y187.4185 Z-4.2531
G01 X170.8647 Y187.3828 Z-4.2667
G01 X170.8798 Y187.3463 Z-4.2802
G01 X170.8930 Y187.3090 Z-4.2938
G01 X170.9042 Y187.2711 Z-4.3073
G01 X170.9134 Y187.2327 Z-4.3208
G01 X170.9206 Y187.1938 Z-4.3344
G01 X170.9258 Y187.1546 Z-4.3479
G01 X170.9289 Y187.1152 Z-4.3615
G01 X170.9299 Y187.0757 Z-4.3750
G01 X170.9289 Y187.0361 Z-4.3885
G01 X170.9258 Y186.9967 Z-4.4021
G01 X170.9206 Y186.9575 Z-4.4156
G01 X170.9134 Y186.9187 Z-4.4292
G01 X170.9042 Y186.8802 Z-4.4427
G01 X170.8930 Y186.8423 Z-4.4563
G01 X170.8798 Y186.8051 Z-4.4698
G01 X170.8647 Y186.7685 Z-4.4833
G01 X170.8476 Y186.7329 Z-4.4969
G01 X170.8288 Y186.6981 Z-4.5104
G01 X170.8081 Y186.6644 Z-4.5240
G01 X170.7857 Y186.6318 Z-4.5375
G01 X170.7617 Y186.6005 Z-4.5510
G01 X170.7360 Y186.5704 Z-4.5646
G01 X170.7088 Y186.5417 Z-4.5781
G01 X170.6801 Y186.5145 Z-4.5917
G01 X170.6500 Y186.4889 Z-4.6052
G01 X170.6187 Y186.4648 Z-4.6188
G01 X170.5861 Y186.4424 Z-4.6323
G01 X170.5524 Y186.4217 Z-4.6458
G01 X170.5177 Y186.4029 Z-4.6594
G01 X170.4820 Y186.3859 Z-4.6729
G01 X170.4455 Y186.3707 Z-4.6865
G01 X170.4082 Y186.3575 Z-4.7000
G01 X170.3703 Y186.3463 Z-4.7135
G01 X170.3318 Y186.3371 Z-4.7271
G01 X170.2930 Y186.3299 Z-4.7406
G01 X170.2538 Y186.3247 Z-4.7542
G01 X170.2144 Y186.3216 Z-4.7677
G01 X170.1749 Y186.3206 Z-4.7813
G01 X170.1353 Y186.3216 Z-4.7948
G01 X170.0959 Y186.3247 Z-4.8083
G01 X170.0567 Y186.3299 Z-4.8219
G01 X170.0179 Y186.3371 Z-4.8354
G01 X169.9794 Y186.3463 Z-4.8490
G01 X169.9415 Y186.3575 Z-4.8625
G01 X169.9043 Y186.3707 Z-4.8760
G01 X169.8677 Y186.3859 Z-4.8896
G01 X169.8320 Y186.4029 Z-4.9031
G01 X169.7973 Y186.4217 Z-4.9167
G01 X169.7636 Y186.4424 Z-4.9302
G01 X169.7310 Y186.4648 Z-4.9438
G01 X169.6997 Y186.4889 Z-4.9573
G01 X169.6696 Y186.5145 Z-4.9708
G01 X169.6409 Y186.5417 Z-4.9844
G01 X169.6137 Y186.5704 Z-4.9979
G01 X169.5880 Y186.6005 Z-5.0115
G01 X169.5640 Y186.6318 Z-5.0250
G01 X169.5416 Y186.6644 Z-5.0385
G01 X169.5209 Y186.6981 Z-5.0521
G01 X169.5021 Y186.7329 Z-5.0656
G01 X169.4850 Y186.7685 Z-5.0792
G01 X169.4699 Y186.8051 Z-5.0927
G01 X169.4567 Y186.8423 Z-5.1063
G01 X169.4455 Y186.8802 Z-5.1198
G01 X169.4363 Y186.9187 Z-5.1333
G01 X169.4291 Y186.9575 Z-5.1469
G01 X169.4239 Y186.9967 Z-5.1604
G01 X169.4208 Y187.0361 Z-5.1740
G01 X169.4198 Y187.0757 Z-5.1875
G01 X169.4208 Y187.1152 Z-5.2010
G01 X169.4239 Y187.1546 Z-5.2146
G01 X169.4291 Y187.1938 Z-5.2281
G01 X169.4363 Y187.2327 Z-5.2417
G01 X169.4455 Y187.2711 Z-5.2552
G01 X169.4567 Y187.3090 Z-5.2688
G01 X169.4699 Y187.3463 Z-5.2823
G01 X169.4850 Y187.3828 Z-5.2958
G01 X169.5021 Y187.4185 Z-5.3094
G01 X169.5209 Y187.4532 Z-5.3229
G01 X169.5416 Y187.4869 Z-5.3365
G01 X169.5640 Y187.5195 Z-5.3500
G01 X169.5880 Y187.5509 Z-5.3635
G01 X169.6137 Y187.5809 Z-5.3771
G01 X169.6409 Y187.6096 Z-5.3906
G01 X169.6696 Y187.6368 Z-5.4042
G01 X169.6997 Y187.6625 Z-5.4177
G01 X169.7310 Y187.6865 Z-5.4313
G01 X169.7636 Y187.7089 Z-5.4448
G01 X169.7973 Y187.7296 Z-5.4583
G01 X169.8320 Y187.7485 Z-5.4719
G01 X169.8677 Y187.7655 Z-5.4854
G01 X169.9043 Y187.7806 Z-5.4990
G01 X169.9415 Y187.7938 Z-5.5125
G01 X169.9794 Y187.8050 Z-5.5260
G01 X170.0179 Y187.8143 Z-5.5396
G01 X170.0567 Y187.8215 Z-5.5531
G01 X170.0959 Y187.8266 Z-5.5667
G01 X170.1353 Y187.8297 Z-5.5802
G01 X170.1749 Y187.8308 Z-5.5938
G01 X170.2144 Y187.8297 Z-5.6073
G01 X170.2538 Y187.8266 Z-5.6208
G01 X170.2930 Y187.8215 Z-5.6344
G01 X170.3318 Y187.8143 Z-5.6479
G01 X170.3703 Y187.8050 Z-5.6615
G01 X170.4082 Y187.7938 Z-5.6750
G01 X170.4455 Y187.7806 Z-5.6885
G01 X170.4820 Y187.7655 Z-5.7021
G01 X170.5177 Y187.7485 Z-5.7156
G01 X170.5524 Y187.7296 Z-5.7292
G01 X170.5861 Y187.7089 Z-5.7427
G01 X170.6187 Y187.6865 Z-5.7563
G01 X170.6500 Y187.6625 Z-5.7698
G01 X170.6801 Y187.6368 Z-5.7833
G01 X170.7088 Y187.6096 Z-5.7969
G01 X170.7360 Y187.5809 Z-5.8104
G01 X170.7617 Y187.5509 Z-5.8240
G01 X170.7857 Y187.5195 Z-5.8375
G01 X170.8081 Y187.4869 Z-5.8510
G01 X170.8288 Y187.4532 Z-5.8646
G01 X170.8476 Y187.4185 Z-5.8781
G01 X170.8647 Y187.3828 Z-5.8917
G01 X170.8798 Y187.3463 Z-5.9052
G01 X170.8930 Y187.3090 Z-5.9188
G01 X170.9042 Y187.2711 Z-5.9323
G01 X170.9134 Y187.2327 Z-5.9458
G01 X170.9206 Y187.1938 Z-5.9594
G01 X170.9258 Y187.1546 Z-5.9729
G01 X170.9289 Y187.1152 Z-5.9865
G01 X170.9299 Y187.0757 Z-6.0000
G01 X170.9289 Y187.0361
G01 X170.9258 Y186.9967
G01 X170.9206 Y186.9575
G01 X170.9134 Y186.9187
G01 X170.9042 Y186.8802
G01 X170.8930 Y186.8423
G01 X170.8798 Y186.8051
G01 X170.8647 Y186.7685
G01 X170.8476 Y186.7329
G01 X170.8288 Y186.6981
G01 X170.8081 Y186.6644
G01 X170.7857 Y186.6318
G01 X170.7617 Y186.6005
G01 X170.7360 Y186.5704
G01 X170.7088 Y186.5417
G01 X170.6801 Y186.5145
G01 X170.6500 Y186.4889
G01 X170.6187 Y186.4648
G01 X170.5861 Y186.4424
G01 X170.5524 Y186.4217
G01 X170.5177 Y186.4029
G01 X170.4820 Y186.3859
G01 X170.4455 Y186.3707
G01 X170.4082 Y186.3575
G01 X170.3703 Y186.3463
G01 X170.3318 Y186.3371
G01 X170.2930 Y186.3299
G01 X170.2538 Y186.3247
G01 X170.2144 Y186.3216
G01 X170.1749 Y186.3206
G01 X170.1353 Y186.3216
G01 X170.0959 Y186.3247
G01 X170.0567 Y186.3299
G01 X170.0179 Y186.3371
G01 X169.9794 Y186.3463
G01 X169.9415 Y186.3575
G01 X169.9043 Y186.3707
G01 X169.8677 Y186.3859
G01 X169.8320 Y186.4029
G01 X169.7973 Y186.4217
G01 X169.7636 Y186.4424
G01 X169.7310 Y186.4648
G01 X169.6997 Y186.4889
G01 X169.6696 Y186.5145
G01 X169.6409 Y186.5417
G01 X169.6137 Y186.5704
G01 X169.5880 Y186.6005
G01 X169.5640 Y186.6318
G01 X169.5416 Y186.6644
G01 X169.5209 Y186.6981
G01 X169.5021 Y186.7329
G01 X169.4850 Y186.7685
G01 X169.4699 Y186.8051
G01 X169.4567 Y186.8423
G01 X169.4455 Y186.8802
G01 X169.4363 Y186.9187
G01 X169.4291 Y186.9575
G01 X169.4239 Y186.9967
G01 X169.4208 Y187.0361
G01 X169.4198 Y187.0757
G01 X169.4208 Y187.1152
G01 X169.4239 Y187.1546
G01 X169.4291 Y187.1938
G01 X169.4363 Y187.2327
G01 X169.4455 Y187.2711
G01 X169.4567 Y187.3090
G01 X169.4699 Y187.3463
G01 X169.4850 Y187.3828
G01 X169.5021 Y187.4185
G01 X169.5209 Y187.4532
G01 X169.5416 Y187.4869
G01 X169.5640 Y187.5195
G01 X169.5880 Y187.5509
G01 X169.6137 Y187.5809
G01 X169.6409 Y187.6096
G01 X169.6696 Y187.6368
G01 X169.6997 Y187.6625
G01 X169.7310 Y187.6865
G01 X169.7636 Y187.7089
G01 X169.7973 Y187.7296
G01 X169.8320 Y187.7485
G01 X169.8677 Y187.7655
G01 X169.9043 Y187.7806
G01 X169.9415 Y187.7938
G01 X169.9794 Y187.8050
G01 X170.0179 Y187.8143
G01 X170.0567 Y187.8215
G01 X170.0959 Y187.8266
G01 X170.1353 Y187.8297
G01 X170.1749 Y187.8308
G01 X170.2144 Y187.8297
G01 X170.2538 Y187.8266
G01 X170.2930 Y187.8215
G01 X170.3318 Y187.8143
G01 X170.3703 Y187.8050
G01 X170.4082 Y187.7938
G01 X170.4455 Y187.7806
G01 X170.4820 Y187.7655
G01 X170.5177 Y187.7485
G01 X170.5524 Y187.7296
G01 X170.5861 Y187.7089
G01 X170.6187 Y187.6865
G01 X170.6500 Y187.6625
G01 X170.6801 Y187.6368
G01 X170.7088 Y187.6096
G01 X170.7360 Y187.5809
G01 X170.7617 Y187.5509
G01 X170.7857 Y187.5195
G01 X170.8081 Y187.4869
G01 X170.8288 Y187.4532
G01 X170.8476 Y187.4185
G01 X170.8647 Y187.3828
G01 X170.8798 Y187.3463
G01 X170.8930 Y187.3090
G01 X170.9042 Y187.2711
G01 X170.9134 Y187.2327
G01 X170.9206 Y187.1938
G01 X170.9258 Y187.1546
G01 X170.9289 Y187.1152
G01 X170.9299 Y187.0757
M107
M106 S240
G01 X170.9290 Y187.0487 Z-5.9886
M107
M106 S240
G01 X170.9261 Y187.0219 Z-5.9773
M107
M106 S240
G01 X170.9213 Y186.9954 Z-5.9659
M107
M106 S240
G01 X170.9146 Y186.9693 Z-5.9545
M107
M106 S240
G01 X170.9061 Y186.9437 Z-5.9432
M107
M106 S240
G01 X170.8958 Y186.9188 Z-5.9318
M107
M106 S240
G01 X170.8838 Y186.8947 Z-5.9205
M107
M106 S240
G01 X170.8700 Y186.8716 Z-5.9091
M107
M106 S240
G01 X170.8546 Y186.8494 Z-5.8977
M107
M106 S240
G01 X170.8377 Y186.8284 Z-5.8864
M107
M106 S240
G01 X170.8194 Y186.8087 Z-5.8750
M107
M106 S240
G01 X170.7996 Y186.7903 Z-5.8636
M107
M106 S240
G01 X170.7786 Y186.7734 Z-5.8523
M107
M106 S240
G01 X170.7565 Y186.7581 Z-5.8409
M107
M106 S240
G01 X170.7333 Y186.7443 Z-5.8295
M107
M106 S240
G01 X170.7092 Y186.7322 Z-5.8182
M107
M106 S240
G01 X170.6843 Y186.7219 Z-5.8068
M107
M106 S240
G01 X170.6588 Y186.7134 Z-5.7955
M107
M106 S240
G01 X170.6326 Y186.7068 Z-5.7841
M107
M106 S240
G01 X170.6061 Y186.7020 Z-5.7727
M107
M106 S240
G01 X170.5793 Y186.6991 Z-5.7614
M107
M106 S240
G01 X170.5524 Y186.6981 Z-5.7500
M107
M106 S240
G01 X170.5255 Y186.6991 Z-5.7386
M107
M106 S240
G01 X170.4987 Y186.7020 Z-5.7273
M107
M106 S240
G01 X170.4721 Y186.7068 Z-5.7159
M107
M106 S240
G01 X170.4460 Y186.7134 Z-5.7045
M107
M106 S240
G01 X170.4205 Y186.7219 Z-5.6932
M107
M106 S240
G01 X170.3956 Y186.7322 Z-5.6818
M107
M106 S240
G01 X170.3715 Y186.7443 Z-5.6705
M107
M106 S240
G01 X170.3483 Y186.7581 Z-5.6591
M107
M106 S240
G01 X170.3261 Y186.7734 Z-5.6477
M107
M106 S240
G01 X170.3052 Y186.7903 Z-5.6364
M107
M106 S240
G01 X170.2854 Y186.8087 Z-5.6250
M107
M106 S240
G01 X170.2671 Y186.8284 Z-5.6136
M107
M106 S240
G01 X170.2502 Y186.8494 Z-5.6023
M107
M106 S240
G01 X170.2348 Y186.8716 Z-5.5909
M107
M106 S240
G01 X170.2210 Y186.8947 Z-5.5795
M107
M106 S240
G01 X170.2090 Y186.9188 Z-5.5682
M107
M106 S240
G01 X170.1987 Y186.9437 Z-5.5568
M107
M106 S240
G01 X170.1901 Y186.9693 Z-5.5455
M107
M106 S240
G01 X170.1835 Y186.9954 Z-5.5341
M107
M106 S240
G01 X170.1787 Y187.0219 Z-5.5227
M107
M106 S240
G01 X170.1758 Y187.0487 Z-5.5114
M107
M106 S240
G01 X170.1749 Y187.0757 Z-5.5000
M107
G00 Z2.0000


;No. 12: Hole 1
G00 X168.4413 Y176.3059 Z2.0000
G00 Z0.5000
G01 Z0.0000 F400
G01 Z-1.8000
M106 S240
G01 X186.4521 F1000
G01 X179.3071
G01 Y174.8059
G01 X175.5917
G01 X176.2578
G01 Y173.3059
G01 X178.6410
G01 Y171.8059
G01 X176.2578
G01 Y170.3059
G01 X178.6410
G01 Y168.8059
G01 X176.2578
G01 Y167.3059
G01 X178.6410
G01 Y165.8059
G01 X176.2578
G01 Y164.3059
G01 X178.6410
G01 Y162.8059
G01 X176.2578
G01 X176.0578 Y162.8205
G01 Y173.7317
G01 X176.0547 Y173.8102
G01 X176.0455 Y173.8881
G01 X176.0301 Y173.9652
G01 X176.0088 Y174.0407
G01 X175.9816 Y174.1144
G01 X175.9488 Y174.1857
G01 X175.9104 Y174.2542
G01 X175.8668 Y174.3195
G01 X175.8182 Y174.3812
G01 X175.7649 Y174.4388
G01 X175.7072 Y174.4921
G01 X175.6456 Y174.5407
G01 X175.5803 Y174.5844
G01 X175.5118 Y174.6227
G01 X175.4405 Y174.6556
G01 X175.3668 Y174.6828
G01 X175.2912 Y174.7041
G01 X175.2142 Y174.7194
G01 X175.1362 Y174.7286
G01 X175.0578 Y174.7317
G01 X173.9792 Y174.7160
G01 X172.9006 Y174.7112
G01 X171.8219 Y174.7175
G01 X170.7434 Y174.7348
G01 X170.5868 Y174.7437
G01 X170.4309 Y174.7607
G01 X170.2761 Y174.7860
G01 X170.1229 Y174.8194
G01 X169.9716 Y174.8607
G01 X169.8227 Y174.9100
G01 X169.6766 Y174.9671
G01 X169.5337 Y175.0318
G01 X169.3944 Y175.1039
G01 X169.2591 Y175.1832
G01 X169.1282 Y175.2695
G01 X169.0020 Y175.3626
G01 X168.8809 Y175.4623
G01 X168.7652 Y175.5681
G01 X168.6552 Y175.6799
G01 X168.5512 Y175.7974
G01 X168.4536 Y175.9201
G01 X168.3626 Y176.0479
G01 X168.2784 Y176.1802
G01 X168.2013 Y176.3168
G01 X168.1315 Y176.4572
G01 X168.0692 Y176.6012
G01 X168.0145 Y176.7482
G01 X167.9677 Y176.8978
G01 X167.9288 Y177.0498
G01 X167.8979 Y177.2036
G01 X167.8752 Y177.3587
G01 X167.8607 Y177.5149
G01 X187.0400
G01 X187.0033 Y177.2350
G01 X186.9408 Y176.9596
G01 X186.8530 Y176.6913
G01 X186.7406 Y176.4322
G01 X186.6047 Y176.1847
G01 X186.4464 Y175.9510
G01 X186.2670 Y175.7329
G01 X186.0682 Y175.5324
G01 X185.8516 Y175.3512
G01 X185.6192 Y175.1910
G01 X185.3728 Y175.0530
G01 X185.1147 Y174.9385
G01 X184.8471 Y174.8484
G01 X184.5723 Y174.7836
G01 X184.2927 Y174.7446
G01 X184.0106 Y174.7317
G01 X179.8410
G01 X179.7974 Y174.7308
G01 X179.7538 Y174.7279
G01 X179.7104 Y174.7232
G01 X179.6673 Y174.7165
G01 X179.6245 Y174.7080
G01 X179.5822 Y174.6976
G01 X179.5403 Y174.6854
G01 X179.4990 Y174.6714
G01 X179.4583 Y174.6556
G01 X179.4184 Y174.6380
G01 X179.3792 Y174.6187
G01 X179.3410 Y174.5977
G01 X179.3037 Y174.5751
G01 X179.2674 Y174.5509
G01 X179.2322 Y174.5251
G01 X179.1982 Y174.4978
G01 X179.1654 Y174.4690
G01 X179.1339 Y174.4388
G01 X179.1037 Y174.4073
G01 X179.0749 Y174.3745
G01 X179.0476 Y174.3405
G01 X179.0218 Y174.3053
G01 X178.9976 Y174.2690
G01 X178.9749 Y174.2317
G01 X178.9540 Y174.1935
G01 X178.9347 Y174.1543
G01 X178.9171 Y174.1144
G01 X178.9013 Y174.0737
G01 X178.8873 Y174.0324
G01 X178.8750 Y173.9905
G01 X178.8647 Y173.9482
G01 X178.8562 Y173.9054
G01 X178.8495 Y173.8622
G01 X178.8448 Y173.8189
G01 X178.8419 Y173.7753
G01 X178.8410 Y173.7317
G01 Y161.5969
G01 X176.0578
G01 Y162.8205
G01 X176.2578 Y162.8059
M107
G00 Z2.0000


;No. 13: Hole 2
G00 X191.5423 Y176.1233 Z2.0000
G00 Z0.5000
G01 Z0.0000 F400
G01 Z-1.8000
M106 S240
G01 X209.3155 F1000
G01 X209.4574 Y175.9788
G01 X209.3089 Y175.7920
G01 X209.1462 Y175.6174
G01 X208.9704 Y175.4561
G01 X208.7825 Y175.3089
G01 X208.5838 Y175.1769
G01 X208.3753 Y175.0609
G01 X208.1583 Y174.9615
G01 X207.9343 Y174.8793
G01 X207.7045 Y174.8150
G01 X207.4704 Y174.7687
G01 X207.2334 Y174.7409
G01 X206.9950 Y174.7317
G01 X193.8766
G01 X193.7144 Y174.7332
G01 X193.5525 Y174.7435
G01 X193.3915 Y174.7626
G01 X193.2317 Y174.7904
G01 X193.0736 Y174.8268
G01 X192.9178 Y174.8717
G01 X192.7646 Y174.9251
G01 X192.6146 Y174.9866
G01 X192.4681 Y175.0563
G01 X192.3256 Y175.1337
G01 X192.1875 Y175.2188
G01 X192.0543 Y175.3113
G01 X191.9262 Y175.4109
G01 X191.8038 Y175.5172
G01 X191.6873 Y175.6301
G01 X191.5771 Y175.7491
G01 X191.4735 Y175.8739
G01 X191.3769 Y176.0042
G01 X191.2875 Y176.1395
G01 X191.2055 Y176.2794
G01 X191.1313 Y176.4237
G01 X191.0650 Y176.5717
G01 X191.0068 Y176.7231
G01 X190.9570 Y176.8774
G01 X190.9156 Y177.0342
G01 X190.8827 Y177.1931
G01 X190.8586 Y177.3535
G01 X190.8432 Y177.5149
G01 X210.0243
G01 X210.0113 Y177.3773
G01 X209.9919 Y177.2404
G01 X209.9660 Y177.1045
G01 X209.9337 Y176.9701
G01 X209.8951 Y176.8373
G01 X209.8503 Y176.7065
G01 X209.7993 Y176.5779
G01 X209.7424 Y176.4519
G01 X209.6796 Y176.3287
G01 X209.6111 Y176.2086
G01 X209.5369 Y176.0919
G01 X209.4574 Y175.9788
G01 X209.3155 Y176.1233
M107
G00 Z2.0000


;No. 14: Hole 4
G00 X209.3168 Y169.5569 Z2.0000
G00 Z0.5000
G01 Z0.0000 F400
G01 Z-1.8000
M106 S240
G01 X191.5423 F1000
G01 X191.3676 Y169.4581
G01 X191.2597 Y169.6263
G01 X191.1633 Y169.8012
G01 X191.0786 Y169.9822
G01 X191.0061 Y170.1684
G01 X190.9461 Y170.3589
G01 X190.8988 Y170.5530
G01 X190.8644 Y170.7499
G01 X190.8432 Y170.9485
G01 X210.0243
G01 X209.9879 Y170.6684
G01 X209.9257 Y170.3929
G01 X209.8381 Y170.1244
G01 X209.7259 Y169.8653
G01 X209.5900 Y169.6176
G01 X209.4318 Y169.3837
G01 X209.2524 Y169.1655
G01 X209.0535 Y168.9650
G01 X208.8369 Y168.7838
G01 X208.6043 Y168.6235
G01 X208.3579 Y168.4856
G01 X208.0996 Y168.3711
G01 X207.8319 Y168.2812
G01 X207.5569 Y168.2166
G01 X207.2772 Y168.1779
G01 X206.9950 Y168.1653
G01 X193.8766
G01 X193.7295 Y168.1660
G01 X193.5827 Y168.1741
G01 X193.4364 Y168.1893
G01 X193.2911 Y168.2118
G01 X193.1471 Y168.2415
G01 X193.0047 Y168.2783
G01 X192.8643 Y168.3221
G01 X192.7263 Y168.3728
G01 X192.5909 Y168.4302
G01 X192.4586 Y168.4943
G01 X192.3295 Y168.5649
G01 X192.2042 Y168.6418
G01 X192.0828 Y168.7247
G01 X191.9656 Y168.8137
G01 X191.8531 Y168.9082
G01 X191.7453 Y169.0083
G01 X191.6426 Y169.1136
G01 X191.5453 Y169.2238
G01 X191.4535 Y169.3387
G01 X191.3676 Y169.4581
G01 X191.5423 Y169.5569
M107
G00 Z2.0000


;No. 15: Hole 5
G00 X191.5418 Y162.9895 Z2.0000
G00 Z0.5000
G01 Z0.0000 F400
G01 Z-1.8000
M106 S240
G01 X209.3161 F1000
G01 X209.4571 Y162.8438
G01 X209.3086 Y162.6571
G01 X209.1460 Y162.4825
G01 X208.9702 Y162.3212
G01 X208.7824 Y162.1740
G01 X208.5836 Y162.0421
G01 X208.3751 Y161.9260
G01 X208.1582 Y161.8266
G01 X207.9342 Y161.7445
G01 X207.7045 Y161.6801
G01 X207.4704 Y161.6339
G01 X207.2334 Y161.6061
G01 X206.9950 Y161.5969
G01 X193.8767
G01 X193.7145 Y161.5986
G01 X193.5526 Y161.6090
G01 X193.3915 Y161.6283
G01 X193.2317 Y161.6562
G01 X193.0737 Y161.6928
G01 X192.9179 Y161.7378
G01 X192.7647 Y161.7913
G01 X192.6147 Y161.8530
G01 X192.4682 Y161.9227
G01 X192.3257 Y162.0003
G01 X192.1877 Y162.0855
G01 X192.0545 Y162.1780
G01 X191.9265 Y162.2776
G01 X191.8040 Y162.3841
G01 X191.6876 Y162.4970
G01 X191.5774 Y162.6160
G01 X191.4738 Y162.7409
G01 X191.3772 Y162.8712
G01 X191.2878 Y163.0065
G01 X191.2058 Y163.1465
G01 X191.1316 Y163.2907
G01 X191.0653 Y163.4388
G01 X191.0071 Y163.5902
G01 X190.9572 Y163.7446
G01 X190.9157 Y163.9014
G01 X190.8829 Y164.0602
G01 X190.8586 Y164.2206
G01 X190.8432 Y164.3821
G01 X210.0243
G01 X210.0113 Y164.2442
G01 X209.9918 Y164.1072
G01 X209.9659 Y163.9712
G01 X209.9336 Y163.8365
G01 X209.8950 Y163.7036
G01 X209.8502 Y163.5726
G01 X209.7992 Y163.4439
G01 X209.7423 Y163.3177
G01 X209.6794 Y163.1943
G01 X209.6109 Y163.0740
G01 X209.5367 Y162.9571
G01 X209.4571 Y162.8438
G01 X209.3161 Y162.9895
M107
G00 Z2.0000


;No. 16: Hole 3
G00 X214.4174 Y162.8059 Z2.0000
G00 Z0.5000
G01 Z0.0000 F400
G01 Z-1.8000
M106 S240
G01 X232.8187 F1000
G01 Y164.3059
G01 X229.7652
G01 X230.4355
G01 Y165.8059
G01 X232.8187
G01 Y167.3059
G01 X230.4263
G01 X232.8187 Y168.8059
G01 X214.0175
G01 Y170.3059
G01 X232.8187
G01 X216.4102
G01 Y171.8059
G01 X214.0175
G01 Y173.3059
G01 X216.4007
G01 Y174.8059
G01 X217.0668
G01 X214.0175
G01 Y176.3059
G01 X232.4209
G01 X232.6057 Y176.2254
G01 X232.4614 Y176.0052
G01 X232.2988 Y175.7981
G01 X232.1189 Y175.6059
G01 X231.9232 Y175.4298
G01 X231.7130 Y175.2713
G01 X231.4900 Y175.1314
G01 X231.2557 Y175.0112
G01 X231.0120 Y174.9116
G01 X230.7606 Y174.8334
G01 X230.5035 Y174.7771
G01 X230.2424 Y174.7431
G01 X229.9794 Y174.7317
G01 X217.6007
G01 X217.5223 Y174.7286
G01 X217.4443 Y174.7194
G01 X217.3673 Y174.7041
G01 X217.2917 Y174.6828
G01 X217.2181 Y174.6556
G01 X217.1467 Y174.6227
G01 X217.0782 Y174.5844
G01 X217.0130 Y174.5407
G01 X216.9513 Y174.4921
G01 X216.8936 Y174.4388
G01 X216.8403 Y174.3812
G01 X216.7917 Y174.3195
G01 X216.7481 Y174.2542
G01 X216.7097 Y174.1857
G01 X216.6769 Y174.1144
G01 X216.6497 Y174.0407
G01 X216.6284 Y173.9652
G01 X216.6130 Y173.8881
G01 X216.6038 Y173.8102
G01 X216.6007 Y173.7317
G01 Y171.9485
G01 X216.6038 Y171.8701
G01 X216.6130 Y171.7921
G01 X216.6284 Y171.7151
G01 X216.6497 Y171.6395
G01 X216.6769 Y171.5658
G01 X216.7097 Y171.4945
G01 X216.7481 Y171.4260
G01 X216.7917 Y171.3607
G01 X216.8403 Y171.2991
G01 X216.8936 Y171.2414
G01 X216.9513 Y171.1881
G01 X217.0130 Y171.1395
G01 X217.0782 Y171.0959
G01 X217.1467 Y171.0575
G01 X217.2181 Y171.0246
G01 X217.2917 Y170.9975
G01 X217.3673 Y170.9761
G01 X217.4443 Y170.9608
G01 X217.5223 Y170.9516
G01 X217.6007 Y170.9485
G01 X233.0187
G01 Y161.5969
G01 X213.8275
G01 X213.8643 Y161.8769
G01 X213.9269 Y162.1523
G01 X214.0148 Y162.4207
G01 X214.1271 Y162.6797
G01 X214.2631 Y162.9273
G01 X214.4214 Y163.1611
G01 X214.6007 Y163.3792
G01 X214.7995 Y163.5798
G01 X215.0160 Y163.7611
G01 X215.2484 Y163.9215
G01 X215.4947 Y164.0596
G01 X215.7528 Y164.1743
G01 X216.0203 Y164.2646
G01 X216.2951 Y164.3297
G01 X216.5748 Y164.3689
G01 X216.8568 Y164.3821
G01 X229.2355
G01 X229.2791 Y164.3831
G01 X229.3227 Y164.3859
G01 X229.3660 Y164.3907
G01 X229.4092 Y164.3973
G01 X229.4519 Y164.4058
G01 X229.4943 Y164.4162
G01 X229.5362 Y164.4284
G01 X229.5775 Y164.4424
G01 X229.6182 Y164.4582
G01 X229.6581 Y164.4758
G01 X229.6973 Y164.4951
G01 X229.7355 Y164.5161
G01 X229.7728 Y164.5387
G01 X229.8091 Y164.5630
G01 X229.8443 Y164.5888
G01 X229.8783 Y164.6161
G01 X229.9111 Y164.6448
G01 X229.9426 Y164.6750
G01 X229.9728 Y164.7065
G01 X230.0015 Y164.7393
G01 X230.0289 Y164.7733
G01 X230.0547 Y164.8085
G01 X230.0789 Y164.8448
G01 X230.1015 Y164.8821
G01 X230.1225 Y164.9204
G01 X230.1418 Y164.9595
G01 X230.1594 Y164.9994
G01 X230.1752 Y165.0401
G01 X230.1892 Y165.0814
G01 X230.2014 Y165.1233
G01 X230.2118 Y165.1657
G01 X230.2203 Y165.2085
G01 X230.2269 Y165.2516
G01 X230.2317 Y165.2949
G01 X230.2346 Y165.3385
G01 X230.2355 Y165.3821
G01 Y167.1653
G01 X230.2324 Y167.2438
G01 X230.2232 Y167.3217
G01 X230.2079 Y167.3988
G01 X230.1866 Y167.4743
G01 X230.1594 Y167.5480
G01 X230.1265 Y167.6193
G01 X230.0881 Y167.6878
G01 X230.0445 Y167.7531
G01 X229.9959 Y167.8148
G01 X229.9426 Y167.8724
G01 X229.8850 Y167.9257
G01 X229.8233 Y167.9743
G01 X229.7580 Y168.0179
G01 X229.6895 Y168.0563
G01 X229.6182 Y168.0892
G01 X229.5445 Y168.1164
G01 X229.4689 Y168.1377
G01 X229.3919 Y168.1530
G01 X229.3140 Y168.1622
G01 X229.2355 Y168.1653
G01 X213.8175
G01 Y177.5149
G01 X233.0087
G01 X232.9984 Y177.4018
G01 X232.9837 Y177.2892
G01 X232.9648 Y177.1772
G01 X232.9415 Y177.0660
G01 X232.9139 Y176.9558
G01 X232.8821 Y176.8467
G01 X232.8461 Y176.7390
G01 X232.8060 Y176.6327
G01 X232.7619 Y176.5281
G01 X232.7137 Y176.4252
G01 X232.6616 Y176.3242
G01 X232.6057 Y176.2254
G01 X232.4209 Y176.3059
M107
G00 Z2.0000


;No. 17: Hole 6
G00 X237.0019 Y176.3059 Z2.0000
G00 Z0.5000
G01 Z0.0000 F400
G01 Z-1.8000
M106 S240
G01 X239.3851 F1000
G01 Y174.8059
G01 X237.0019
G01 Y173.3059
G01 X239.3851
G01 Y171.8059
G01 X237.0019
G01 Y170.3059
G01 X239.3851
G01 Y168.8059
G01 X237.0019
G01 Y167.3059
G01 X239.3851
G01 Y165.8059
G01 X237.0019
G01 Y164.3059
G01 X240.0554
G01 X237.0019 Y162.8059
G01 X255.1381
G01 X255.2831 Y162.6678
G01 X255.0563 Y162.4286
G01 X254.8049 Y162.2154
G01 X254.5319 Y162.0307
G01 X254.2405 Y161.8766
G01 X253.9341 Y161.7549
G01 X253.6164 Y161.6671
G01 X253.2910 Y161.6143
G01 X252.9618 Y161.5969
G01 X236.8019
G01 Y177.5149
G01 X239.5851
G01 Y165.3821
G01 X239.5882 Y165.3031
G01 X239.5976 Y165.2247
G01 X239.6131 Y165.1472
G01 X239.6347 Y165.0712
G01 X239.6622 Y164.9971
G01 X239.6955 Y164.9254
G01 X239.7343 Y164.8566
G01 X239.7785 Y164.7911
G01 X239.8276 Y164.7292
G01 X239.8816 Y164.6715
G01 X239.9399 Y164.6181
G01 X240.0022 Y164.5696
G01 X240.0682 Y164.5261
G01 X240.1374 Y164.4879
G01 X240.2094 Y164.4554
G01 X240.2837 Y164.4286
G01 X240.3599 Y164.4078
G01 X240.4376 Y164.3930
G01 X240.5161 Y164.3844
G01 X240.5951 Y164.3821
G01 X255.9911
G01 X255.9759 Y164.2256
G01 X255.9524 Y164.0701
G01 X255.9205 Y163.9161
G01 X255.8805 Y163.7641
G01 X255.8323 Y163.6144
G01 X255.7762 Y163.4675
G01 X255.7123 Y163.3238
G01 X255.6408 Y163.1838
G01 X255.5619 Y163.0478
G01 X255.4758 Y162.9162
G01 X255.3828 Y162.7894
G01 X255.2831 Y162.6678
G01 X255.1381 Y162.8059
M107
G00 Z2.0000


;No. 18: Hole 8
G00 X259.9863 Y163.2727 Z2.0000
G00 Z0.5000
G01 Z0.0000 F400
G01 Z-1.8000
M106 S240
G01 X262.3695 F1000
G01 Y164.7727
G01 X259.9863
G01 Y166.2727
G01 X262.3695
G01 Y167.7727
G01 X262.5354
G01 X259.9863
G01 Y169.2727
G01 X278.7855
G01 Y167.7727
G01 X276.2364
G01 X276.4023
G01 Y166.2727
G01 X278.7855
G01 Y164.7727
G01 X276.4023
G01 Y163.2727
G01 X278.7855
G01 X278.9855 Y163.2820
G01 Y161.5969
G01 X276.2023
G01 Y167.1653
G01 X276.2014 Y167.2089
G01 X276.1985 Y167.2525
G01 X276.1937 Y167.2958
G01 X276.1871 Y167.3390
G01 X276.1786 Y167.3817
G01 X276.1682 Y167.4241
G01 X276.1560 Y167.4660
G01 X276.1420 Y167.5073
G01 X276.1262 Y167.5480
G01 X276.1086 Y167.5879
G01 X276.0893 Y167.6271
G01 X276.0683 Y167.6653
G01 X276.0457 Y167.7026
G01 X276.0215 Y167.7389
G01 X275.9957 Y167.7741
G01 X275.9683 Y167.8081
G01 X275.9396 Y167.8409
G01 X275.9094 Y167.8724
G01 X275.8779 Y167.9026
G01 X275.8451 Y167.9314
G01 X275.8111 Y167.9587
G01 X275.7759 Y167.9845
G01 X275.7396 Y168.0087
G01 X275.7023 Y168.0313
G01 X275.6641 Y168.0523
G01 X275.6249 Y168.0716
G01 X275.5850 Y168.0892
G01 X275.5443 Y168.1050
G01 X275.5030 Y168.1190
G01 X275.4611 Y168.1312
G01 X275.4187 Y168.1416
G01 X275.3760 Y168.1501
G01 X275.3328 Y168.1568
G01 X275.2895 Y168.1615
G01 X275.2459 Y168.1644
G01 X275.2023 Y168.1653
G01 X263.5695
G01 X263.4910 Y168.1622
G01 X263.4131 Y168.1530
G01 X263.3360 Y168.1377
G01 X263.2605 Y168.1164
G01 X263.1868 Y168.0892
G01 X263.1155 Y168.0563
G01 X263.0470 Y168.0179
G01 X262.9817 Y167.9743
G01 X262.9200 Y167.9257
G01 X262.8624 Y167.8724
G01 X262.8091 Y167.8148
G01 X262.7605 Y167.7531
G01 X262.7168 Y167.6878
G01 X262.6785 Y167.6193
G01 X262.6456 Y167.5480
G01 X262.6184 Y167.4743
G01 X262.5971 Y167.3988
G01 X262.5818 Y167.3217
G01 X262.5726 Y167.2438
G01 X262.5695 Y167.1653
G01 Y161.5969
G01 X259.7863
G01 Y170.9485
G01 X278.9855
G01 Y163.2820
G01 X278.7855 Y163.2727
M107
G00 Z2.0000


;No. 19: Helical drill 2
G00 X279.7483 Y187.0756 Z2.0000
G00 Z0.5000
M106 S240
G01 X279.7472 Y187.0361 Z0.4865 F400
G01 X279.7441 Y186.9967 Z0.4729
G01 X279.7390 Y186.9575 Z0.4594
G01 X279.7318 Y186.9186 Z0.4458
G01 X279.7225 Y186.8801 Z0.4323
G01 X279.7113 Y186.8422 Z0.4188
G01 X279.6981 Y186.8050 Z0.4052
G01 X279.6830 Y186.7684 Z0.3917
G01 X279.6660 Y186.7328 Z0.3781
G01 X279.6471 Y186.6980 Z0.3646
G01 X279.6264 Y186.6643 Z0.3510
G01 X279.6040 Y186.6317 Z0.3375
G01 X279.5800 Y186.6004 Z0.3240
G01 X279.5543 Y186.5703 Z0.3104
G01 X279.5271 Y186.5416 Z0.2969
G01 X279.4984 Y186.5144 Z0.2833
G01 X279.4684 Y186.4887 Z0.2698
G01 X279.4370 Y186.4647 Z0.2563
G01 X279.4044 Y186.4423 Z0.2427
G01 X279.3707 Y186.4216 Z0.2292
G01 X279.3360 Y186.4028 Z0.2156
G01 X279.3003 Y186.3857 Z0.2021
G01 X279.2637 Y186.3706 Z0.1885
G01 X279.2265 Y186.3574 Z0.1750
G01 X279.1886 Y186.3462 Z0.1615
G01 X279.1501 Y186.3370 Z0.1479
G01 X279.1113 Y186.3298 Z0.1344
G01 X279.0721 Y186.3246 Z0.1208
G01 X279.0326 Y186.3215 Z0.1073
G01 X278.9931 Y186.3205 Z0.0938
G01 X278.9536 Y186.3215 Z0.0802
G01 X278.9142 Y186.3246 Z0.0667
G01 X278.8750 Y186.3298 Z0.0531
G01 X278.8361 Y186.3370 Z0.0396
G01 X278.7977 Y186.3462 Z0.0260
G01 X278.7598 Y186.3574 Z0.0125
G01 X278.7225 Y186.3706 Z-0.0010
G01 X278.6860 Y186.3857 Z-0.0146
G01 X278.6503 Y186.4028 Z-0.0281
G01 X278.6156 Y186.4216 Z-0.0417
G01 X278.5819 Y186.4423 Z-0.0552
G01 X278.5493 Y186.4647 Z-0.0688
G01 X278.5179 Y186.4887 Z-0.0823
G01 X278.4878 Y186.5144 Z-0.0958
G01 X278.4592 Y186.5416 Z-0.1094
G01 X278.4320 Y186.5703 Z-0.1229
G01 X278.4063 Y186.6004 Z-0.1365
G01 X278.3822 Y186.6317 Z-0.1500
G01 X278.3598 Y186.6643 Z-0.1635
G01 X278.3392 Y186.6980 Z-0.1771
G01 X278.3203 Y186.7328 Z-0.1906
G01 X278.3033 Y186.7684 Z-0.2042
G01 X278.2882 Y186.8050 Z-0.2177
G01 X278.2750 Y186.8422 Z-0.2313
G01 X278.2637 Y186.8801 Z-0.2448
G01 X278.2545 Y186.9186 Z-0.2583
G01 X278.2473 Y186.9575 Z-0.2719
G01 X278.2421 Y186.9967 Z-0.2854
G01 X278.2390 Y187.0361 Z-0.2990
G01 X278.2380 Y187.0756 Z-0.3125
G01 X278.2390 Y187.1151 Z-0.3260
G01 X278.2421 Y187.1545 Z-0.3396
G01 X278.2473 Y187.1937 Z-0.3531
G01 X278.2545 Y187.2326 Z-0.3667
G01 X278.2637 Y187.2710 Z-0.3802
G01 X278.2750 Y187.3089 Z-0.3938
G01 X278.2882 Y187.3462 Z-0.4073
G01 X278.3033 Y187.3827 Z-0.4208
G01 X278.3203 Y187.4184 Z-0.4344
G01 X278.3392 Y187.4532 Z-0.4479
G01 X278.3598 Y187.4869 Z-0.4615
G01 X278.3822 Y187.5194 Z-0.4750
G01 X278.4063 Y187.5508 Z-0.4885
G01 X278.4320 Y187.5809 Z-0.5021
G01 X278.4592 Y187.6095 Z-0.5156
G01 X278.4878 Y187.6368 Z-0.5292
G01 X278.5179 Y187.6624 Z-0.5427
G01 X278.5493 Y187.6865 Z-0.5563
G01 X278.5819 Y187.7089 Z-0.5698
G01 X278.6156 Y187.7296 Z-0.5833
G01 X278.6503 Y187.7484 Z-0.5969
G01 X278.6860 Y187.7654 Z-0.6104
G01 X278.7225 Y187.7806 Z-0.6240
G01 X278.7598 Y187.7938 Z-0.6375
G01 X278.7977 Y187.8050 Z-0.6510
G01 X278.8361 Y187.8142 Z-0.6646
G01 X278.8750 Y187.8214 Z-0.6781
G01 X278.9142 Y187.8266 Z-0.6917
G01 X278.9536 Y187.8297 Z-0.7052
G01 X278.9931 Y187.8307 Z-0.7188
G01 X279.0326 Y187.8297 Z-0.7323
G01 X279.0721 Y187.8266 Z-0.7458
G01 X279.1113 Y187.8214 Z-0.7594
G01 X279.1501 Y187.8142 Z-0.7729
G01 X279.1886 Y187.8050 Z-0.7865
G01 X279.2265 Y187.7938 Z-0.8000
G01 X279.2637 Y187.7806 Z-0.8135
G01 X279.3003 Y187.7654 Z-0.8271
G01 X279.3360 Y187.7484 Z-0.8406
G01 X279.3707 Y187.7296 Z-0.8542
G01 X279.4044 Y187.7089 Z-0.8677
G01 X279.4370 Y187.6865 Z-0.8813
G01 X279.4684 Y187.6624 Z-0.8948
G01 X279.4984 Y187.6368 Z-0.9083
G01 X279.5271 Y187.6095 Z-0.9219
G01 X279.5543 Y187.5809 Z-0.9354
G01 X279.5800 Y187.5508 Z-0.9490
G01 X279.6040 Y187.5194 Z-0.9625
G01 X279.6264 Y187.4869 Z-0.9760
G01 X279.6471 Y187.4532 Z-0.9896
G01 X279.6660 Y187.4184 Z-1.0031
G01 X279.6830 Y187.3827 Z-1.0167
G01 X279.6981 Y187.3462 Z-1.0302
G01 X279.7113 Y187.3089 Z-1.0438
G01 X279.7225 Y187.2710 Z-1.0573
G01 X279.7318 Y187.2326 Z-1.0708
G01 X279.7390 Y187.1937 Z-1.0844
G01 X279.7441 Y187.1545 Z-1.0979
G01 X279.7472 Y187.1151 Z-1.1115
G01 X279.7483 Y187.0756 Z-1.1250
G01 X279.7472 Y187.0361 Z-1.1385
G01 X279.7441 Y186.9967 Z-1.1521
G01 X279.7390 Y186.9575 Z-1.1656
G01 X279.7318 Y186.9186 Z-1.1792
G01 X279.7225 Y186.8801 Z-1.1927
G01 X279.7113 Y186.8422 Z-1.2063
G01 X279.6981 Y186.8050 Z-1.2198
G01 X279.6830 Y186.7684 Z-1.2333
G01 X279.6660 Y186.7328 Z-1.2469
G01 X279.6471 Y186.6980 Z-1.2604
G01 X279.6264 Y186.6643 Z-1.2740
G01 X279.6040 Y186.6317 Z-1.2875
G01 X279.5800 Y186.6004 Z-1.3010
G01 X279.5543 Y186.5703 Z-1.3146
G01 X279.5271 Y186.5416 Z-1.3281
G01 X279.4984 Y186.5144 Z-1.3417
G01 X279.4684 Y186.4887 Z-1.3552
G01 X279.4370 Y186.4647 Z-1.3688
G01 X279.4044 Y186.4423 Z-1.3823
G01 X279.3707 Y186.4216 Z-1.3958
G01 X279.3360 Y186.4028 Z-1.4094
G01 X279.3003 Y186.3857 Z-1.4229
G01 X279.2637 Y186.3706 Z-1.4365
G01 X279.2265 Y186.3574 Z-1.4500
G01 X279.1886 Y186.3462 Z-1.4635
G01 X279.1501 Y186.3370 Z-1.4771
G01 X279.1113 Y186.3298 Z-1.4906
G01 X279.0721 Y186.3246 Z-1.5042
G01 X279.0326 Y186.3215 Z-1.5177
G01 X278.9931 Y186.3205 Z-1.5313
G01 X278.9536 Y186.3215 Z-1.5448
G01 X278.9142 Y186.3246 Z-1.5583
G01 X278.8750 Y186.3298 Z-1.5719
G01 X278.8361 Y186.3370 Z-1.5854
G01 X278.7977 Y186.3462 Z-1.5990
G01 X278.7598 Y186.3574 Z-1.6125
G01 X278.7225 Y186.3706 Z-1.6260
G01 X278.6860 Y186.3857 Z-1.6396
G01 X278.6503 Y186.4028 Z-1.6531
G01 X278.6156 Y186.4216 Z-1.6667
G01 X278.5819 Y186.4423 Z-1.6802
G01 X278.5493 Y186.4647 Z-1.6938
G01 X278.5179 Y186.4887 Z-1.7073
G01 X278.4878 Y186.5144 Z-1.7208
G01 X278.4592 Y186.5416 Z-1.7344
G01 X278.4320 Y186.5703 Z-1.7479
G01 X278.4063 Y186.6004 Z-1.7615
G01 X278.3822 Y186.6317 Z-1.7750
G01 X278.3598 Y186.6643 Z-1.7885
G01 X278.3392 Y186.6980 Z-1.8021
G01 X278.3203 Y186.7328 Z-1.8156
G01 X278.3033 Y186.7684 Z-1.8292
G01 X278.2882 Y186.8050 Z-1.8427
G01 X278.2750 Y186.8422 Z-1.8563
G01 X278.2637 Y186.8801 Z-1.8698
G01 X278.2545 Y186.9186 Z-1.8833
G01 X278.2473 Y186.9575 Z-1.8969
G01 X278.2421 Y186.9967 Z-1.9104
G01 X278.2390 Y187.0361 Z-1.9240
G01 X278.2380 Y187.0756 Z-1.9375
G01 X278.2390 Y187.1151 Z-1.9510
G01 X278.2421 Y187.1545 Z-1.9646
G01 X278.2473 Y187.1937 Z-1.9781
G01 X278.2545 Y187.2326 Z-1.9917
G01 X278.2637 Y187.2710 Z-2.0052
G01 X278.2750 Y187.3089 Z-2.0188
G01 X278.2882 Y187.3462 Z-2.0323
G01 X278.3033 Y187.3827 Z-2.0458
G01 X278.3203 Y187.4184 Z-2.0594
G01 X278.3392 Y187.4532 Z-2.0729
G01 X278.3598 Y187.4869 Z-2.0865
G01 X278.3822 Y187.5194 Z-2.1000
G01 X278.4063 Y187.5508 Z-2.1135
G01 X278.4320 Y187.5809 Z-2.1271
G01 X278.4592 Y187.6095 Z-2.1406
G01 X278.4878 Y187.6368 Z-2.1542
G01 X278.5179 Y187.6624 Z-2.1677
G01 X278.5493 Y187.6865 Z-2.1813
G01 X278.5819 Y187.7089 Z-2.1948
G01 X278.6156 Y187.7296 Z-2.2083
G01 X278.6503 Y187.7484 Z-2.2219
G01 X278.6860 Y187.7654 Z-2.2354
G01 X278.7225 Y187.7806 Z-2.2490
G01 X278.7598 Y187.7938 Z-2.2625
G01 X278.7977 Y187.8050 Z-2.2760
G01 X278.8361 Y187.8142 Z-2.2896
G01 X278.8750 Y187.8214 Z-2.3031
G01 X278.9142 Y187.8266 Z-2.3167
G01 X278.9536 Y187.8297 Z-2.3302
G01 X278.9931 Y187.8307 Z-2.3438
G01 X279.0326 Y187.8297 Z-2.3573
G01 X279.0721 Y187.8266 Z-2.3708
G01 X279.1113 Y187.8214 Z-2.3844
G01 X279.1501 Y187.8142 Z-2.3979
G01 X279.1886 Y187.8050 Z-2.4115
G01 X279.2265 Y187.7938 Z-2.4250
G01 X279.2637 Y187.7806 Z-2.4385
G01 X279.3003 Y187.7654 Z-2.4521
G01 X279.3360 Y187.7484 Z-2.4656
G01 X279.3707 Y187.7296 Z-2.4792
G01 X279.4044 Y187.7089 Z-2.4927
G01 X279.4370 Y187.6865 Z-2.5063
G01 X279.4684 Y187.6624 Z-2.5198
G01 X279.4984 Y187.6368 Z-2.5333
G01 X279.5271 Y187.6095 Z-2.5469
G01 X279.5543 Y187.5809 Z-2.5604
G01 X279.5800 Y187.5508 Z-2.5740
G01 X279.6040 Y187.5194 Z-2.5875
G01 X279.6264 Y187.4869 Z-2.6010
G01 X279.6471 Y187.4532 Z-2.6146
G01 X279.6660 Y187.4184 Z-2.6281
G01 X279.6830 Y187.3827 Z-2.6417
G01 X279.6981 Y187.3462 Z-2.6552
G01 X279.7113 Y187.3089 Z-2.6688
G01 X279.7225 Y187.2710 Z-2.6823
G01 X279.7318 Y187.2326 Z-2.6958
G01 X279.7390 Y187.1937 Z-2.7094
G01 X279.7441 Y187.1545 Z-2.7229
G01 X279.7472 Y187.1151 Z-2.7365
