;Project TeslaParkingV3Gotham
;Created by Estlcam version 11 build 11,121
;Machining time about 00:18:03 hours

G90
M03 S18000
G00 X0.0000 Y0.0000 Z0.0000
G00 Z2.0000


;No. 1: Helical drill 1
G00 X33.5780 Y267.1863
G00 Z0.5000
M106 S240
G01 X33.5768 Y267.1392 Z0.4958 F400 S18000
G01 X33.5731 Y267.0922 Z0.4917
G01 X33.5669 Y267.0455 Z0.4875
G01 X33.5583 Y266.9992 Z0.4833
G01 X33.5473 Y266.9534 Z0.4792
G01 X33.5339 Y266.9082 Z0.4750
G01 X33.5182 Y266.8638 Z0.4708
G01 X33.5002 Y266.8202 Z0.4667
G01 X33.4799 Y266.7777 Z0.4625
G01 X33.4574 Y266.7363 Z0.4583
G01 X33.4328 Y266.6961 Z0.4542
G01 X33.4061 Y266.6573 Z0.4500
G01 X33.3774 Y266.6199 Z0.4458
G01 X33.3468 Y266.5841 Z0.4417
G01 X33.3144 Y266.5499 Z0.4375
G01 X33.2802 Y266.5175 Z0.4333
G01 X33.2444 Y266.4869 Z0.4292
G01 X33.2070 Y266.4582 Z0.4250
G01 X33.1682 Y266.4315 Z0.4208
G01 X33.1280 Y266.4069 Z0.4167
G01 X33.0866 Y266.3844 Z0.4125
G01 X33.0441 Y266.3641 Z0.4083
G01 X33.0005 Y266.3461 Z0.4042
G01 X32.9561 Y266.3304 Z0.4000
G01 X32.9109 Y266.3170 Z0.3958
G01 X32.8651 Y266.3060 Z0.3917
G01 X32.8188 Y266.2974 Z0.3875
G01 X32.7721 Y266.2912 Z0.3833
G01 X32.7251 Y266.2875 Z0.3792
G01 X32.6780 Y266.2863 Z0.3750
G01 X32.6309 Y266.2875 Z0.3708
G01 X32.5839 Y266.2912 Z0.3667
G01 X32.5372 Y266.2974 Z0.3625
G01 X32.4909 Y266.3060 Z0.3583
G01 X32.4451 Y266.3170 Z0.3542
G01 X32.3999 Y266.3304 Z0.3500
G01 X32.3555 Y266.3461 Z0.3458
G01 X32.3119 Y266.3641 Z0.3417
G01 X32.2694 Y266.3844 Z0.3375
G01 X32.2280 Y266.4069 Z0.3333
G01 X32.1878 Y266.4315 Z0.3292
G01 X32.1490 Y266.4582 Z0.3250
G01 X32.1116 Y266.4869 Z0.3208
G01 X32.0758 Y266.5175 Z0.3167
G01 X32.0416 Y266.5499 Z0.3125
G01 X32.0092 Y266.5841 Z0.3083
G01 X31.9786 Y266.6199 Z0.3042
G01 X31.9499 Y266.6573 Z0.3000
G01 X31.9232 Y266.6961 Z0.2958
G01 X31.8986 Y266.7363 Z0.2917
G01 X31.8761 Y266.7777 Z0.2875
G01 X31.8558 Y266.8202 Z0.2833
G01 X31.8378 Y266.8638 Z0.2792
G01 X31.8220 Y266.9082 Z0.2750
G01 X31.8087 Y266.9534 Z0.2708
G01 X31.7977 Y266.9992 Z0.2667
G01 X31.7891 Y267.0455 Z0.2625
G01 X31.7829 Y267.0922 Z0.2583
G01 X31.7792 Y267.1392 Z0.2542
G01 X31.7780 Y267.1863 Z0.2500
G01 X31.7792 Y267.2334 Z0.2458
G01 X31.7829 Y267.2804 Z0.2417
G01 X31.7891 Y267.3271 Z0.2375
G01 X31.7977 Y267.3734 Z0.2333
G01 X31.8087 Y267.4192 Z0.2292
G01 X31.8220 Y267.4644 Z0.2250
G01 X31.8378 Y267.5088 Z0.2208
G01 X31.8558 Y267.5524 Z0.2167
G01 X31.8761 Y267.5949 Z0.2125
G01 X31.8986 Y267.6363 Z0.2083
G01 X31.9232 Y267.6765 Z0.2042
G01 X31.9499 Y267.7153 Z0.2000
G01 X31.9786 Y267.7527 Z0.1958
G01 X32.0092 Y267.7885 Z0.1917
G01 X32.0416 Y267.8227 Z0.1875
G01 X32.0758 Y267.8551 Z0.1833
G01 X32.1116 Y267.8857 Z0.1792
G01 X32.1490 Y267.9144 Z0.1750
G01 X32.1878 Y267.9411 Z0.1708
G01 X32.2280 Y267.9657 Z0.1667
G01 X32.2694 Y267.9882 Z0.1625
G01 X32.3119 Y268.0085 Z0.1583
G01 X32.3555 Y268.0265 Z0.1542
G01 X32.3999 Y268.0423 Z0.1500
G01 X32.4451 Y268.0556 Z0.1458
G01 X32.4909 Y268.0666 Z0.1417
G01 X32.5372 Y268.0752 Z0.1375
G01 X32.5839 Y268.0814 Z0.1333
G01 X32.6309 Y268.0851 Z0.1292
G01 X32.6780 Y268.0863 Z0.1250
G01 X32.7251 Y268.0851 Z0.1208
G01 X32.7721 Y268.0814 Z0.1167
G01 X32.8188 Y268.0752 Z0.1125
G01 X32.8651 Y268.0666 Z0.1083
G01 X32.9109 Y268.0556 Z0.1042
G01 X32.9561 Y268.0423 Z0.1000
G01 X33.0005 Y268.0265 Z0.0958
G01 X33.0441 Y268.0085 Z0.0917
G01 X33.0866 Y267.9882 Z0.0875
G01 X33.1280 Y267.9657 Z0.0833
G01 X33.1682 Y267.9411 Z0.0792
G01 X33.2070 Y267.9144 Z0.0750
G01 X33.2444 Y267.8857 Z0.0708
G01 X33.2802 Y267.8551 Z0.0667
G01 X33.3144 Y267.8227 Z0.0625
G01 X33.3468 Y267.7885 Z0.0583
G01 X33.3774 Y267.7527 Z0.0542
G01 X33.4061 Y267.7153 Z0.0500
G01 X33.4328 Y267.6765 Z0.0458
G01 X33.4574 Y267.6363 Z0.0417
G01 X33.4799 Y267.5949 Z0.0375
G01 X33.5002 Y267.5524 Z0.0333
G01 X33.5182 Y267.5088 Z0.0292
G01 X33.5339 Y267.4644 Z0.0250
G01 X33.5473 Y267.4192 Z0.0208
G01 X33.5583 Y267.3734 Z0.0167
G01 X33.5669 Y267.3271 Z0.0125
G01 X33.5731 Y267.2804 Z0.0083
G01 X33.5768 Y267.2334 Z0.0042
G01 X33.5780 Y267.1863 Z0.0000
G01 X33.5768 Y267.1392
G01 X33.5731 Y267.0922
G01 X33.5669 Y267.0455
G01 X33.5583 Y266.9992
G01 X33.5473 Y266.9534
G01 X33.5339 Y266.9082
G01 X33.5182 Y266.8638
G01 X33.5002 Y266.8202
G01 X33.4799 Y266.7777
G01 X33.4574 Y266.7363
G01 X33.4328 Y266.6961
G01 X33.4061 Y266.6573
G01 X33.3774 Y266.6199
G01 X33.3468 Y266.5841
G01 X33.3144 Y266.5499
G01 X33.2802 Y266.5175
G01 X33.2444 Y266.4869
G01 X33.2070 Y266.4582
G01 X33.1682 Y266.4315
G01 X33.1280 Y266.4069
G01 X33.0866 Y266.3844
G01 X33.0441 Y266.3641
G01 X33.0005 Y266.3461
G01 X32.9561 Y266.3304
G01 X32.9109 Y266.3170
G01 X32.8651 Y266.3060
G01 X32.8188 Y266.2974
G01 X32.7721 Y266.2912
G01 X32.7251 Y266.2875
G01 X32.6780 Y266.2863
G01 X32.6309 Y266.2875
G01 X32.5839 Y266.2912
G01 X32.5372 Y266.2974
G01 X32.4909 Y266.3060
G01 X32.4451 Y266.3170
G01 X32.3999 Y266.3304
G01 X32.3555 Y266.3461
G01 X32.3119 Y266.3641
G01 X32.2694 Y266.3844
G01 X32.2280 Y266.4069
G01 X32.1878 Y266.4315
G01 X32.1490 Y266.4582
G01 X32.1116 Y266.4869
G01 X32.0758 Y266.5175
G01 X32.0416 Y266.5499
G01 X32.0092 Y266.5841
G01 X31.9786 Y266.6199
G01 X31.9499 Y266.6573
G01 X31.9232 Y266.6961
G01 X31.8986 Y266.7363
G01 X31.8761 Y266.7777
G01 X31.8558 Y266.8202
G01 X31.8378 Y266.8638
G01 X31.8220 Y266.9082
G01 X31.8087 Y266.9534
G01 X31.7977 Y266.9992
G01 X31.7891 Y267.0455
G01 X31.7829 Y267.0922
G01 X31.7792 Y267.1392
G01 X31.7780 Y267.1863
G01 X31.7792 Y267.2334
G01 X31.7829 Y267.2804
G01 X31.7891 Y267.3271
G01 X31.7977 Y267.3734
G01 X31.8087 Y267.4192
G01 X31.8220 Y267.4644
G01 X31.8378 Y267.5088
G01 X31.8558 Y267.5524
G01 X31.8761 Y267.5949
G01 X31.8986 Y267.6363
G01 X31.9232 Y267.6765
G01 X31.9499 Y267.7153
G01 X31.9786 Y267.7527
G01 X32.0092 Y267.7885
G01 X32.0416 Y267.8227
G01 X32.0758 Y267.8551
G01 X32.1116 Y267.8857
G01 X32.1490 Y267.9144
G01 X32.1878 Y267.9411
G01 X32.2280 Y267.9657
G01 X32.2694 Y267.9882
G01 X32.3119 Y268.0085
G01 X32.3555 Y268.0265
G01 X32.3999 Y268.0423
G01 X32.4451 Y268.0556
G01 X32.4909 Y268.0666
G01 X32.5372 Y268.0752
G01 X32.5839 Y268.0814
G01 X32.6309 Y268.0851
G01 X32.6780 Y268.0863
G01 X32.7251 Y268.0851
G01 X32.7721 Y268.0814
G01 X32.8188 Y268.0752
G01 X32.8651 Y268.0666
G01 X32.9109 Y268.0556
G01 X32.9561 Y268.0423
G01 X33.0005 Y268.0265
G01 X33.0441 Y268.0085
G01 X33.0866 Y267.9882
G01 X33.1280 Y267.9657
G01 X33.1682 Y267.9411
G01 X33.2070 Y267.9144
G01 X33.2444 Y267.8857
G01 X33.2802 Y267.8551
G01 X33.3144 Y267.8227
G01 X33.3468 Y267.7885
G01 X33.3774 Y267.7527
G01 X33.4061 Y267.7153
G01 X33.4328 Y267.6765
G01 X33.4574 Y267.6363
G01 X33.4799 Y267.5949
G01 X33.5002 Y267.5524
G01 X33.5182 Y267.5088
G01 X33.5339 Y267.4644
G01 X33.5473 Y267.4192
G01 X33.5583 Y267.3734
G01 X33.5669 Y267.3271
G01 X33.5731 Y267.2804
G01 X33.5768 Y267.2334
G01 X33.5780 Y267.1863
M107
M106 S240
G01 X33.5768 Y267.1392 Z-0.0167
G01 X33.5731 Y267.0922 Z-0.0333
G01 X33.5669 Y267.0455 Z-0.0500
G01 X33.5583 Y266.9992 Z-0.0667
G01 X33.5473 Y266.9534 Z-0.0833
G01 X33.5339 Y266.9082 Z-0.1000
G01 X33.5182 Y266.8638 Z-0.1167
G01 X33.5002 Y266.8202 Z-0.1333
G01 X33.4799 Y266.7777 Z-0.1500
G01 X33.4574 Y266.7363 Z-0.1667
G01 X33.4328 Y266.6961 Z-0.1833
G01 X33.4061 Y266.6573 Z-0.2000
G01 X33.3774 Y266.6199 Z-0.2167
G01 X33.3468 Y266.5841 Z-0.2333
G01 X33.3144 Y266.5499 Z-0.2500
G01 X33.2802 Y266.5175 Z-0.2667
G01 X33.2444 Y266.4869 Z-0.2833
G01 X33.2070 Y266.4582 Z-0.3000
G01 X33.1682 Y266.4315 Z-0.3167
G01 X33.1280 Y266.4069 Z-0.3333
G01 X33.0866 Y266.3844 Z-0.3500
G01 X33.0441 Y266.3641 Z-0.3667
G01 X33.0005 Y266.3461 Z-0.3833
G01 X32.9561 Y266.3304 Z-0.4000
G01 X32.9109 Y266.3170 Z-0.4167
G01 X32.8651 Y266.3060 Z-0.4333
G01 X32.8188 Y266.2974 Z-0.4500
G01 X32.7721 Y266.2912 Z-0.4667
G01 X32.7251 Y266.2875 Z-0.4833
G01 X32.6780 Y266.2863 Z-0.5000
G01 X32.6309 Y266.2875 Z-0.5167
G01 X32.5839 Y266.2912 Z-0.5333
G01 X32.5372 Y266.2974 Z-0.5500
G01 X32.4909 Y266.3060 Z-0.5667
G01 X32.4451 Y266.3170 Z-0.5833
G01 X32.3999 Y266.3304 Z-0.6000
G01 X32.3555 Y266.3461 Z-0.6167
G01 X32.3119 Y266.3641 Z-0.6333
G01 X32.2694 Y266.3844 Z-0.6500
G01 X32.2280 Y266.4069 Z-0.6667
G01 X32.1878 Y266.4315 Z-0.6833
G01 X32.1490 Y266.4582 Z-0.7000
G01 X32.1116 Y266.4869 Z-0.7167
G01 X32.0758 Y266.5175 Z-0.7333
G01 X32.0416 Y266.5499 Z-0.7500
G01 X32.0092 Y266.5841 Z-0.7667
G01 X31.9786 Y266.6199 Z-0.7833
G01 X31.9499 Y266.6573 Z-0.8000
G01 X31.9232 Y266.6961 Z-0.8167
G01 X31.8986 Y266.7363 Z-0.8333
G01 X31.8761 Y266.7777 Z-0.8500
G01 X31.8558 Y266.8202 Z-0.8667
G01 X31.8378 Y266.8638 Z-0.8833
G01 X31.8220 Y266.9082 Z-0.9000
G01 X31.8087 Y266.9534 Z-0.9167
G01 X31.7977 Y266.9992 Z-0.9333
G01 X31.7891 Y267.0455 Z-0.9500
G01 X31.7829 Y267.0922 Z-0.9667
G01 X31.7792 Y267.1392 Z-0.9833
G01 X31.7780 Y267.1863 Z-1.0000
G01 X31.7792 Y267.2334 Z-1.0167
G01 X31.7829 Y267.2804 Z-1.0333
G01 X31.7891 Y267.3271 Z-1.0500
G01 X31.7977 Y267.3734 Z-1.0667
G01 X31.8087 Y267.4192 Z-1.0833
G01 X31.8220 Y267.4644 Z-1.1000
G01 X31.8378 Y267.5088 Z-1.1167
G01 X31.8558 Y267.5524 Z-1.1333
G01 X31.8761 Y267.5949 Z-1.1500
G01 X31.8986 Y267.6363 Z-1.1667
G01 X31.9232 Y267.6765 Z-1.1833
G01 X31.9499 Y267.7153 Z-1.2000
G01 X31.9786 Y267.7527 Z-1.2167
G01 X32.0092 Y267.7885 Z-1.2333
G01 X32.0416 Y267.8227 Z-1.2500
G01 X32.0758 Y267.8551 Z-1.2667
G01 X32.1116 Y267.8857 Z-1.2833
G01 X32.1490 Y267.9144 Z-1.3000
G01 X32.1878 Y267.9411 Z-1.3167
G01 X32.2280 Y267.9657 Z-1.3333
G01 X32.2694 Y267.9882 Z-1.3500
G01 X32.3119 Y268.0085 Z-1.3667
G01 X32.3555 Y268.0265 Z-1.3833
G01 X32.3999 Y268.0423 Z-1.4000
G01 X32.4451 Y268.0556 Z-1.4167
G01 X32.4909 Y268.0666 Z-1.4333
G01 X32.5372 Y268.0752 Z-1.4500
G01 X32.5839 Y268.0814 Z-1.4667
G01 X32.6309 Y268.0851 Z-1.4833
G01 X32.6780 Y268.0863 Z-1.5000
G01 X32.7251 Y268.0851 Z-1.5167
G01 X32.7721 Y268.0814 Z-1.5333
G01 X32.8188 Y268.0752 Z-1.5500
G01 X32.8651 Y268.0666 Z-1.5667
G01 X32.9109 Y268.0556 Z-1.5833
G01 X32.9561 Y268.0423 Z-1.6000
G01 X33.0005 Y268.0265 Z-1.6167
G01 X33.0441 Y268.0085 Z-1.6333
G01 X33.0866 Y267.9882 Z-1.6500
G01 X33.1280 Y267.9657 Z-1.6667
G01 X33.1682 Y267.9411 Z-1.6833
G01 X33.2070 Y267.9144 Z-1.7000
G01 X33.2444 Y267.8857 Z-1.7167
G01 X33.2802 Y267.8551 Z-1.7333
G01 X33.3144 Y267.8227 Z-1.7500
G01 X33.3468 Y267.7885 Z-1.7667
G01 X33.3774 Y267.7527 Z-1.7833
G01 X33.4061 Y267.7153 Z-1.8000
G01 X33.4328 Y267.6765 Z-1.8167
G01 X33.4574 Y267.6363 Z-1.8333
G01 X33.4799 Y267.5949 Z-1.8500
G01 X33.5002 Y267.5524 Z-1.8667
G01 X33.5182 Y267.5088 Z-1.8833
G01 X33.5339 Y267.4644 Z-1.9000
G01 X33.5473 Y267.4192 Z-1.9167
G01 X33.5583 Y267.3734 Z-1.9333
G01 X33.5669 Y267.3271 Z-1.9500
G01 X33.5731 Y267.2804 Z-1.9667
G01 X33.5768 Y267.2334 Z-1.9833
G01 X33.5780 Y267.1863 Z-2.0000
G01 X33.5768 Y267.1392
G01 X33.5731 Y267.0922
G01 X33.5669 Y267.0455
G01 X33.5583 Y266.9992
G01 X33.5473 Y266.9534
G01 X33.5339 Y266.9082
G01 X33.5182 Y266.8638
G01 X33.5002 Y266.8202
G01 X33.4799 Y266.7777
G01 X33.4574 Y266.7363
G01 X33.4328 Y266.6961
G01 X33.4061 Y266.6573
G01 X33.3774 Y266.6199
G01 X33.3468 Y266.5841
G01 X33.3144 Y266.5499
G01 X33.2802 Y266.5175
G01 X33.2444 Y266.4869
G01 X33.2070 Y266.4582
G01 X33.1682 Y266.4315
G01 X33.1280 Y266.4069
G01 X33.0866 Y266.3844
G01 X33.0441 Y266.3641
G01 X33.0005 Y266.3461
G01 X32.9561 Y266.3304
G01 X32.9109 Y266.3170
G01 X32.8651 Y266.3060
G01 X32.8188 Y266.2974
G01 X32.7721 Y266.2912
G01 X32.7251 Y266.2875
G01 X32.6780 Y266.2863
G01 X32.6309 Y266.2875
G01 X32.5839 Y266.2912
G01 X32.5372 Y266.2974
G01 X32.4909 Y266.3060
G01 X32.4451 Y266.3170
G01 X32.3999 Y266.3304
G01 X32.3555 Y266.3461
G01 X32.3119 Y266.3641
G01 X32.2694 Y266.3844
G01 X32.2280 Y266.4069
G01 X32.1878 Y266.4315
G01 X32.1490 Y266.4582
G01 X32.1116 Y266.4869
G01 X32.0758 Y266.5175
G01 X32.0416 Y266.5499
G01 X32.0092 Y266.5841
G01 X31.9786 Y266.6199
G01 X31.9499 Y266.6573
G01 X31.9232 Y266.6961
G01 X31.8986 Y266.7363
G01 X31.8761 Y266.7777
G01 X31.8558 Y266.8202
G01 X31.8378 Y266.8638
G01 X31.8220 Y266.9082
G01 X31.8087 Y266.9534
G01 X31.7977 Y266.9992
G01 X31.7891 Y267.0455
G01 X31.7829 Y267.0922
G01 X31.7792 Y267.1392
G01 X31.7780 Y267.1863
G01 X31.7792 Y267.2334
G01 X31.7829 Y267.2804
G01 X31.7891 Y267.3271
G01 X31.7977 Y267.3734
G01 X31.8087 Y267.4192
G01 X31.8220 Y267.4644
G01 X31.8378 Y267.5088
G01 X31.8558 Y267.5524
G01 X31.8761 Y267.5949
G01 X31.8986 Y267.6363
G01 X31.9232 Y267.6765
G01 X31.9499 Y267.7153
G01 X31.9786 Y267.7527
G01 X32.0092 Y267.7885
G01 X32.0416 Y267.8227
G01 X32.0758 Y267.8551
G01 X32.1116 Y267.8857
G01 X32.1490 Y267.9144
G01 X32.1878 Y267.9411
G01 X32.2280 Y267.9657
G01 X32.2694 Y267.9882
G01 X32.3119 Y268.0085
G01 X32.3555 Y268.0265
G01 X32.3999 Y268.0423
G01 X32.4451 Y268.0556
G01 X32.4909 Y268.0666
G01 X32.5372 Y268.0752
G01 X32.5839 Y268.0814
G01 X32.6309 Y268.0851
G01 X32.6780 Y268.0863
G01 X32.7251 Y268.0851
G01 X32.7721 Y268.0814
G01 X32.8188 Y268.0752
G01 X32.8651 Y268.0666
G01 X32.9109 Y268.0556
G01 X32.9561 Y268.0423
G01 X33.0005 Y268.0265
G01 X33.0441 Y268.0085
G01 X33.0866 Y267.9882
G01 X33.1280 Y267.9657
G01 X33.1682 Y267.9411
G01 X33.2070 Y267.9144
G01 X33.2444 Y267.8857
G01 X33.2802 Y267.8551
G01 X33.3144 Y267.8227
G01 X33.3468 Y267.7885
G01 X33.3774 Y267.7527
G01 X33.4061 Y267.7153
G01 X33.4328 Y267.6765
G01 X33.4574 Y267.6363
G01 X33.4799 Y267.5949
G01 X33.5002 Y267.5524
G01 X33.5182 Y267.5088
G01 X33.5339 Y267.4644
G01 X33.5473 Y267.4192
G01 X33.5583 Y267.3734
G01 X33.5669 Y267.3271
G01 X33.5731 Y267.2804
G01 X33.5768 Y267.2334
G01 X33.5780 Y267.1863
G01 X33.5889 Y267.1396 F1000
G01 X33.5974 Y267.0925
G01 X33.6034 Y267.0449
G01 X33.6069 Y266.9971
G01 X33.6079 Y266.9492
G01 X33.6065 Y266.9013
G01 X33.6025 Y266.8535
G01 X33.5961 Y266.8060
G01 X33.5864 Y266.7545
G01 X33.5741 Y266.7036
G01 X33.5591 Y266.6533
G01 X33.5416 Y266.6040
G01 X33.5216 Y266.5555
G01 X33.4991 Y266.5082
G01 X33.4742 Y266.4621
G01 X33.4470 Y266.4173
G01 X33.4149 Y266.3703
G01 X33.3806 Y266.3250
G01 X33.3439 Y266.2815
G01 X33.3051 Y266.2399
G01 X33.2641 Y266.2003
G01 X33.2213 Y266.1629
G01 X33.1765 Y266.1278
G01 X33.1300 Y266.0950
G01 X33.0781 Y266.0621
G01 X33.0246 Y266.0320
G01 X32.9697 Y266.0046
G01 X32.9134 Y265.9801
G01 X32.8559 Y265.9584
G01 X32.7974 Y265.9397
G01 X32.7381 Y265.9240
G01 X32.6780 Y265.9113
G01 X32.6129 Y265.9010
G01 X32.5473 Y265.8940
G01 X32.4815 Y265.8903
G01 X32.4156 Y265.8899
G01 X32.3497 Y265.8929
G01 X32.2841 Y265.8992
G01 X32.2188 Y265.9088
G01 X32.1542 Y265.9217
G01 X32.0859 Y265.9390
G01 X32.0185 Y265.9597
G01 X31.9523 Y265.9838
G01 X31.8874 Y266.0111
G01 X31.8239 Y266.0417
G01 X31.7620 Y266.0755
G01 X31.7020 Y266.1123
G01 X31.6438 Y266.1522
G01 X31.5903 Y266.2016
G01 X31.5393 Y266.2536
G01 X31.4909 Y266.3081
G01 X31.4453 Y266.3648
G01 X31.4025 Y266.4238
G01 X31.3626 Y266.4848
G01 X31.3258 Y266.5477
G01 X31.2922 Y266.6123
G01 X31.2657 Y266.6810
G01 X31.2426 Y266.7509
G01 X31.2230 Y266.8218
G01 X31.2068 Y266.8937
G01 X31.1943 Y266.9662
G01 X31.1852 Y267.0393
G01 X31.1798 Y267.1127
G01 X31.1780 Y267.1863
G01 X31.1798 Y267.2599
G01 X31.1852 Y267.3333
G01 X31.1943 Y267.4064
G01 X31.2068 Y267.4789
G01 X31.2230 Y267.5508
G01 X31.2426 Y267.6217
G01 X31.2657 Y267.6916
G01 X31.2922 Y267.7603
G01 X31.3220 Y267.8276
G01 X31.3551 Y267.8934
G01 X31.3914 Y267.9574
G01 X31.4308 Y268.0196
G01 X31.4732 Y268.0798
G01 X31.5185 Y268.1379
G01 X31.5666 Y268.1936
G01 X31.6174 Y268.2469
G01 X31.6707 Y268.2977
G01 X31.7264 Y268.3458
G01 X31.7845 Y268.3911
G01 X31.8447 Y268.4335
G01 X31.9069 Y268.4729
G01 X31.9709 Y268.5092
G01 X32.0367 Y268.5423
G01 X32.1040 Y268.5721
G01 X32.1727 Y268.5986
G01 X32.2426 Y268.6217
G01 X32.3135 Y268.6413
G01 X32.3854 Y268.6574
G01 X32.4579 Y268.6700
G01 X32.5310 Y268.6790
G01 X32.6044 Y268.6845
G01 X32.6780 Y268.6863
G01 X32.7516 Y268.6845
G01 X32.8250 Y268.6790
G01 X32.8981 Y268.6700
G01 X32.9706 Y268.6574
G01 X33.0425 Y268.6413
G01 X33.1134 Y268.6217
G01 X33.1833 Y268.5986
G01 X33.2520 Y268.5721
G01 X33.3193 Y268.5423
G01 X33.3851 Y268.5092
G01 X33.4491 Y268.4729
G01 X33.5113 Y268.4335
G01 X33.5715 Y268.3911
G01 X33.6296 Y268.3458
G01 X33.6853 Y268.2977
G01 X33.7386 Y268.2469
G01 X33.7894 Y268.1936
G01 X33.8375 Y268.1379
G01 X33.8828 Y268.0798
G01 X33.9252 Y268.0196
G01 X33.9646 Y267.9574
G01 X34.0008 Y267.8934
G01 X34.0339 Y267.8276
G01 X34.0638 Y267.7603
G01 X34.0903 Y267.6916
G01 X34.1134 Y267.6217
G01 X34.1330 Y267.5508
G01 X34.1491 Y267.4789
G01 X34.1617 Y267.4064
G01 X34.1707 Y267.3333
G01 X34.1762 Y267.2599
G01 X34.1780 Y267.1863
G01 X34.1738 Y267.0742
G01 X34.1612 Y266.9627
G01 X34.1404 Y266.8525
G01 X34.1113 Y266.7442
G01 X34.0743 Y266.6383
G01 X34.0294 Y266.5355
G01 X33.9770 Y266.4363
G01 X33.9173 Y266.3413
G01 X33.8507 Y266.2511
G01 X33.7775 Y266.1661
G01 X33.6982 Y266.0867
G01 X33.6132 Y266.0136
G01 X33.5230 Y265.9470
G01 X33.4280 Y265.8873
G01 X33.3288 Y265.8349
G01 X33.2260 Y265.7900
G01 X33.1201 Y265.7530
G01 X33.0118 Y265.7239
G01 X32.9015 Y265.7031
G01 X32.7901 Y265.6905
G01 X32.6780 Y265.6863
G01 X32.5659 Y265.6905
G01 X32.4544 Y265.7031
G01 X32.3442 Y265.7239
G01 X32.2359 Y265.7530
G01 X32.1300 Y265.7900
G01 X32.0272 Y265.8349
G01 X31.9280 Y265.8873
G01 X31.8330 Y265.9470
G01 X31.7428 Y266.0136
G01 X31.6578 Y266.0867
G01 X31.5784 Y266.1661
G01 X31.5053 Y266.2511
G01 X31.4387 Y266.3413
G01 X31.3790 Y266.4363
G01 X31.3266 Y266.5355
G01 X31.2817 Y266.6383
G01 X31.2447 Y266.7442
G01 X31.2156 Y266.8525
G01 X31.1948 Y266.9627
G01 X31.1822 Y267.0742
G01 X31.1780 Y267.1863
G01 X31.1822 Y267.2984
G01 X31.1948 Y267.4099
G01 X31.2156 Y267.5201
G01 X31.2447 Y267.6284
G01 X31.2817 Y267.7343
G01 X31.3266 Y267.8371
G01 X31.3790 Y267.9363
G01 X31.4387 Y268.0313
G01 X31.5053 Y268.1215
G01 X31.5784 Y268.2065
G01 X31.6578 Y268.2859
G01 X31.7428 Y268.3590
G01 X31.8330 Y268.4256
G01 X31.9280 Y268.4853
G01 X32.0272 Y268.5377
G01 X32.1300 Y268.5826
G01 X32.2359 Y268.6196
G01 X32.3442 Y268.6487
G01 X32.4544 Y268.6695
G01 X32.5659 Y268.6821
G01 X32.6780 Y268.6863
G01 X32.7901 Y268.6821
G01 X32.9015 Y268.6695
G01 X33.0118 Y268.6487
G01 X33.1201 Y268.6196
G01 X33.2260 Y268.5826
G01 X33.3288 Y268.5377
G01 X33.4280 Y268.4853
G01 X33.5230 Y268.4256
G01 X33.6132 Y268.3590
G01 X33.6982 Y268.2859
G01 X33.7775 Y268.2065
G01 X33.8507 Y268.1215
G01 X33.9173 Y268.0313
G01 X33.9770 Y267.9363
G01 X34.0294 Y267.8371
G01 X34.0743 Y267.7343
G01 X34.1113 Y267.6284
G01 X34.1404 Y267.5201
G01 X34.1612 Y267.4099
G01 X34.1738 Y267.2984
G01 X34.1780 Y267.1863
G01 X34.1734 Y267.0817
G01 X34.1597 Y266.9779
G01 X34.1371 Y266.8757
G01 X34.1056 Y266.7759
G01 X34.0655 Y266.6792
G01 X34.0172 Y266.5863
G01 X33.9609 Y266.4980
G01 X33.8972 Y266.4150
G01 X33.8265 Y266.3378
G01 X33.7493 Y266.2671
G01 X33.6663 Y266.2033
G01 X33.5780 Y266.1471
G01 X33.4851 Y266.0987
G01 X33.3884 Y266.0587
G01 X33.2886 Y266.0272
G01 X33.1863 Y266.0045
G01 X33.0826 Y265.9909
G01 X32.9780 Y265.9863
G01 X32.8734 Y265.9909
G01 X32.7696 Y266.0045
G01 X32.6674 Y266.0272
G01 X32.5676 Y266.0587
G01 X32.4708 Y266.0987
G01 X32.3780 Y266.1471
G01 X32.2897 Y266.2033
G01 X32.2066 Y266.2671
G01 X32.1295 Y266.3378
G01 X32.0587 Y266.4150
G01 X31.9950 Y266.4980
G01 X31.9388 Y266.5863
G01 X31.8904 Y266.6792
G01 X31.8504 Y266.7759
G01 X31.8189 Y266.8757
G01 X31.7962 Y266.9779
G01 X31.7826 Y267.0817
G01 X31.7780 Y267.1863
G01 X31.7792 Y267.2334
G01 X31.7829 Y267.2804
G01 X31.7891 Y267.3271
G01 X31.7977 Y267.3734
G01 X31.8087 Y267.4192
G01 X31.8220 Y267.4644
G01 X31.8378 Y267.5088
G01 X31.8558 Y267.5524
G01 X31.8761 Y267.5949
G01 X31.8986 Y267.6363
G01 X31.9232 Y267.6765
G01 X31.9499 Y267.7153
G01 X31.9786 Y267.7527
G01 X32.0092 Y267.7885
G01 X32.0416 Y267.8227
G01 X32.0758 Y267.8551
G01 X32.1116 Y267.8857
G01 X32.1490 Y267.9144
G01 X32.1878 Y267.9411
G01 X32.2280 Y267.9657
G01 X32.2694 Y267.9882
G01 X32.3119 Y268.0085
G01 X32.3555 Y268.0265
G01 X32.3999 Y268.0423
G01 X32.4451 Y268.0556
G01 X32.4909 Y268.0666
G01 X32.5372 Y268.0752
G01 X32.5839 Y268.0814
G01 X32.6309 Y268.0851
G01 X32.6780 Y268.0863
G01 X32.7251 Y268.0851
G01 X32.7721 Y268.0814
G01 X32.8188 Y268.0752
G01 X32.8651 Y268.0666
G01 X32.9109 Y268.0556
G01 X32.9561 Y268.0423
G01 X33.0005 Y268.0265
G01 X33.0441 Y268.0085
G01 X33.0866 Y267.9882
G01 X33.1280 Y267.9657
G01 X33.1682 Y267.9411
G01 X33.2070 Y267.9144
G01 X33.2444 Y267.8857
G01 X33.2802 Y267.8551
G01 X33.3144 Y267.8227
G01 X33.3468 Y267.7885
G01 X33.3774 Y267.7527
G01 X33.4061 Y267.7153
G01 X33.4328 Y267.6765
G01 X33.4574 Y267.6363
G01 X33.4799 Y267.5949
G01 X33.5002 Y267.5524
G01 X33.5182 Y267.5088
G01 X33.5339 Y267.4644
G01 X33.5473 Y267.4192
G01 X33.5583 Y267.3734
G01 X33.5669 Y267.3271
G01 X33.5731 Y267.2804
G01 X33.5768 Y267.2334
G01 X33.5780 Y267.1863
M107
M106 S240
G01 X33.5768 Y267.1392 Z-2.0167 F400
G01 X33.5731 Y267.0922 Z-2.0333
G01 X33.5669 Y267.0455 Z-2.0500
G01 X33.5583 Y266.9992 Z-2.0667
G01 X33.5473 Y266.9534 Z-2.0833
G01 X33.5339 Y266.9082 Z-2.1000
G01 X33.5182 Y266.8638 Z-2.1167
G01 X33.5002 Y266.8202 Z-2.1333
G01 X33.4799 Y266.7777 Z-2.1500
G01 X33.4574 Y266.7363 Z-2.1667
G01 X33.4328 Y266.6961 Z-2.1833
G01 X33.4061 Y266.6573 Z-2.2000
G01 X33.3774 Y266.6199 Z-2.2167
G01 X33.3468 Y266.5841 Z-2.2333
G01 X33.3144 Y266.5499 Z-2.2500
G01 X33.2802 Y266.5175 Z-2.2667
G01 X33.2444 Y266.4869 Z-2.2833
G01 X33.2070 Y266.4582 Z-2.3000
G01 X33.1682 Y266.4315 Z-2.3167
G01 X33.1280 Y266.4069 Z-2.3333
G01 X33.0866 Y266.3844 Z-2.3500
G01 X33.0441 Y266.3641 Z-2.3667
G01 X33.0005 Y266.3461 Z-2.3833
G01 X32.9561 Y266.3304 Z-2.4000
G01 X32.9109 Y266.3170 Z-2.4167
G01 X32.8651 Y266.3060 Z-2.4333
G01 X32.8188 Y266.2974 Z-2.4500
G01 X32.7721 Y266.2912 Z-2.4667
G01 X32.7251 Y266.2875 Z-2.4833
G01 X32.6780 Y266.2863 Z-2.5000
G01 X32.6309 Y266.2875 Z-2.5167
G01 X32.5839 Y266.2912 Z-2.5333
G01 X32.5372 Y266.2974 Z-2.5500
G01 X32.4909 Y266.3060 Z-2.5667
G01 X32.4451 Y266.3170 Z-2.5833
G01 X32.3999 Y266.3304 Z-2.6000
G01 X32.3555 Y266.3461 Z-2.6167
G01 X32.3119 Y266.3641 Z-2.6333
G01 X32.2694 Y266.3844 Z-2.6500
G01 X32.2280 Y266.4069 Z-2.6667
G01 X32.1878 Y266.4315 Z-2.6833
G01 X32.1490 Y266.4582 Z-2.7000
G01 X32.1116 Y266.4869 Z-2.7167
G01 X32.0758 Y266.5175 Z-2.7333
G01 X32.0416 Y266.5499 Z-2.7500
G01 X32.0092 Y266.5841 Z-2.7667
G01 X31.9786 Y266.6199 Z-2.7833
G01 X31.9499 Y266.6573 Z-2.8000
G01 X31.9232 Y266.6961 Z-2.8167
G01 X31.8986 Y266.7363 Z-2.8333
G01 X31.8761 Y266.7777 Z-2.8500
G01 X31.8558 Y266.8202 Z-2.8667
G01 X31.8378 Y266.8638 Z-2.8833
G01 X31.8220 Y266.9082 Z-2.9000
G01 X31.8087 Y266.9534 Z-2.9167
G01 X31.7977 Y266.9992 Z-2.9333
G01 X31.7891 Y267.0455 Z-2.9500
G01 X31.7829 Y267.0922 Z-2.9667
G01 X31.7792 Y267.1392 Z-2.9833
G01 X31.7780 Y267.1863 Z-3.0000
G01 X31.7792 Y267.2334 Z-3.0167
G01 X31.7829 Y267.2804 Z-3.0333
G01 X31.7891 Y267.3271 Z-3.0500
G01 X31.7977 Y267.3734 Z-3.0667
G01 X31.8087 Y267.4192 Z-3.0833
G01 X31.8220 Y267.4644 Z-3.1000
G01 X31.8378 Y267.5088 Z-3.1167
G01 X31.8558 Y267.5524 Z-3.1333
G01 X31.8761 Y267.5949 Z-3.1500
G01 X31.8986 Y267.6363 Z-3.1667
G01 X31.9232 Y267.6765 Z-3.1833
G01 X31.9499 Y267.7153 Z-3.2000
G01 X31.9786 Y267.7527 Z-3.2167
G01 X32.0092 Y267.7885 Z-3.2333
G01 X32.0416 Y267.8227 Z-3.2500
G01 X32.0758 Y267.8551 Z-3.2667
G01 X32.1116 Y267.8857 Z-3.2833
G01 X32.1490 Y267.9144 Z-3.3000
G01 X32.1878 Y267.9411 Z-3.3167
G01 X32.2280 Y267.9657 Z-3.3333
G01 X32.2694 Y267.9882 Z-3.3500
G01 X32.3119 Y268.0085 Z-3.3667
G01 X32.3555 Y268.0265 Z-3.3833
G01 X32.3999 Y268.0423 Z-3.4000
G01 X32.4451 Y268.0556 Z-3.4167
G01 X32.4909 Y268.0666 Z-3.4333
G01 X32.5372 Y268.0752 Z-3.4500
G01 X32.5839 Y268.0814 Z-3.4667
G01 X32.6309 Y268.0851 Z-3.4833
G01 X32.6780 Y268.0863 Z-3.5000
G01 X32.7251 Y268.0851 Z-3.5167
G01 X32.7721 Y268.0814 Z-3.5333
G01 X32.8188 Y268.0752 Z-3.5500
G01 X32.8651 Y268.0666 Z-3.5667
G01 X32.9109 Y268.0556 Z-3.5833
G01 X32.9561 Y268.0423 Z-3.6000
G01 X33.0005 Y268.0265 Z-3.6167
G01 X33.0441 Y268.0085 Z-3.6333
G01 X33.0866 Y267.9882 Z-3.6500
G01 X33.1280 Y267.9657 Z-3.6667
G01 X33.1682 Y267.9411 Z-3.6833
G01 X33.2070 Y267.9144 Z-3.7000
G01 X33.2444 Y267.8857 Z-3.7167
G01 X33.2802 Y267.8551 Z-3.7333
G01 X33.3144 Y267.8227 Z-3.7500
G01 X33.3468 Y267.7885 Z-3.7667
G01 X33.3774 Y267.7527 Z-3.7833
G01 X33.4061 Y267.7153 Z-3.8000
G01 X33.4328 Y267.6765 Z-3.8167
G01 X33.4574 Y267.6363 Z-3.8333
G01 X33.4799 Y267.5949 Z-3.8500
G01 X33.5002 Y267.5524 Z-3.8667
G01 X33.5182 Y267.5088 Z-3.8833
G01 X33.5339 Y267.4644 Z-3.9000
G01 X33.5473 Y267.4192 Z-3.9167
G01 X33.5583 Y267.3734 Z-3.9333
G01 X33.5669 Y267.3271 Z-3.9500
G01 X33.5731 Y267.2804 Z-3.9667
G01 X33.5768 Y267.2334 Z-3.9833
G01 X33.5780 Y267.1863 Z-4.0000
G01 X33.5768 Y267.1392
G01 X33.5731 Y267.0922
G01 X33.5669 Y267.0455
G01 X33.5583 Y266.9992
G01 X33.5473 Y266.9534
G01 X33.5339 Y266.9082
G01 X33.5182 Y266.8638
G01 X33.5002 Y266.8202
G01 X33.4799 Y266.7777
G01 X33.4574 Y266.7363
G01 X33.4328 Y266.6961
G01 X33.4061 Y266.6573
G01 X33.3774 Y266.6199
G01 X33.3468 Y266.5841
G01 X33.3144 Y266.5499
G01 X33.2802 Y266.5175
G01 X33.2444 Y266.4869
G01 X33.2070 Y266.4582
G01 X33.1682 Y266.4315
G01 X33.1280 Y266.4069
G01 X33.0866 Y266.3844
G01 X33.0441 Y266.3641
G01 X33.0005 Y266.3461
G01 X32.9561 Y266.3304
G01 X32.9109 Y266.3170
G01 X32.8651 Y266.3060
G01 X32.8188 Y266.2974
G01 X32.7721 Y266.2912
G01 X32.7251 Y266.2875
G01 X32.6780 Y266.2863
G01 X32.6309 Y266.2875
G01 X32.5839 Y266.2912
G01 X32.5372 Y266.2974
G01 X32.4909 Y266.3060
G01 X32.4451 Y266.3170
G01 X32.3999 Y266.3304
G01 X32.3555 Y266.3461
G01 X32.3119 Y266.3641
G01 X32.2694 Y266.3844
G01 X32.2280 Y266.4069
G01 X32.1878 Y266.4315
G01 X32.1490 Y266.4582
G01 X32.1116 Y266.4869
G01 X32.0758 Y266.5175
G01 X32.0416 Y266.5499
G01 X32.0092 Y266.5841
G01 X31.9786 Y266.6199
G01 X31.9499 Y266.6573
G01 X31.9232 Y266.6961
G01 X31.8986 Y266.7363
G01 X31.8761 Y266.7777
G01 X31.8558 Y266.8202
G01 X31.8378 Y266.8638
G01 X31.8220 Y266.9082
G01 X31.8087 Y266.9534
G01 X31.7977 Y266.9992
G01 X31.7891 Y267.0455
G01 X31.7829 Y267.0922
G01 X31.7792 Y267.1392
G01 X31.7780 Y267.1863
G01 X31.7792 Y267.2334
G01 X31.7829 Y267.2804
G01 X31.7891 Y267.3271
G01 X31.7977 Y267.3734
G01 X31.8087 Y267.4192
G01 X31.8220 Y267.4644
G01 X31.8378 Y267.5088
G01 X31.8558 Y267.5524
G01 X31.8761 Y267.5949
G01 X31.8986 Y267.6363
G01 X31.9232 Y267.6765
G01 X31.9499 Y267.7153
G01 X31.9786 Y267.7527
G01 X32.0092 Y267.7885
G01 X32.0416 Y267.8227
G01 X32.0758 Y267.8551
G01 X32.1116 Y267.8857
G01 X32.1490 Y267.9144
G01 X32.1878 Y267.9411
G01 X32.2280 Y267.9657
G01 X32.2694 Y267.9882
G01 X32.3119 Y268.0085
G01 X32.3555 Y268.0265
G01 X32.3999 Y268.0423
G01 X32.4451 Y268.0556
G01 X32.4909 Y268.0666
G01 X32.5372 Y268.0752
G01 X32.5839 Y268.0814
G01 X32.6309 Y268.0851
G01 X32.6780 Y268.0863
G01 X32.7251 Y268.0851
G01 X32.7721 Y268.0814
G01 X32.8188 Y268.0752
G01 X32.8651 Y268.0666
G01 X32.9109 Y268.0556
G01 X32.9561 Y268.0423
G01 X33.0005 Y268.0265
G01 X33.0441 Y268.0085
G01 X33.0866 Y267.9882
G01 X33.1280 Y267.9657
G01 X33.1682 Y267.9411
G01 X33.2070 Y267.9144
G01 X33.2444 Y267.8857
G01 X33.2802 Y267.8551
G01 X33.3144 Y267.8227
G01 X33.3468 Y267.7885
G01 X33.3774 Y267.7527
G01 X33.4061 Y267.7153
G01 X33.4328 Y267.6765
G01 X33.4574 Y267.6363
G01 X33.4799 Y267.5949
G01 X33.5002 Y267.5524
G01 X33.5182 Y267.5088
G01 X33.5339 Y267.4644
G01 X33.5473 Y267.4192
G01 X33.5583 Y267.3734
G01 X33.5669 Y267.3271
G01 X33.5731 Y267.2804
G01 X33.5768 Y267.2334
G01 X33.5780 Y267.1863
G01 X33.5889 Y267.1396 F1000
G01 X33.5974 Y267.0925
G01 X33.6034 Y267.0449
G01 X33.6069 Y266.9971
G01 X33.6079 Y266.9492
G01 X33.6065 Y266.9013
G01 X33.6025 Y266.8535
G01 X33.5961 Y266.8060
G01 X33.5864 Y266.7545
G01 X33.5741 Y266.7036
G01 X33.5591 Y266.6533
G01 X33.5416 Y266.6040
G01 X33.5216 Y266.5555
G01 X33.4991 Y266.5082
G01 X33.4742 Y266.4621
G01 X33.4470 Y266.4173
G01 X33.4149 Y266.3703
G01 X33.3806 Y266.3250
G01 X33.3439 Y266.2815
G01 X33.3051 Y266.2399
G01 X33.2641 Y266.2003
G01 X33.2213 Y266.1629
G01 X33.1765 Y266.1278
G01 X33.1300 Y266.0950
G01 X33.0781 Y266.0621
G01 X33.0246 Y266.0320
G01 X32.9697 Y266.0046
G01 X32.9134 Y265.9801
G01 X32.8559 Y265.9584
G01 X32.7974 Y265.9397
G01 X32.7381 Y265.9240
G01 X32.6780 Y265.9113
G01 X32.6129 Y265.9010
G01 X32.5473 Y265.8940
G01 X32.4815 Y265.8903
G01 X32.4156 Y265.8899
G01 X32.3497 Y265.8929
G01 X32.2841 Y265.8992
G01 X32.2188 Y265.9088
G01 X32.1542 Y265.9217
G01 X32.0859 Y265.9390
G01 X32.0185 Y265.9597
G01 X31.9523 Y265.9838
G01 X31.8874 Y266.0111
G01 X31.8239 Y266.0417
G01 X31.7620 Y266.0755
G01 X31.7020 Y266.1123
G01 X31.6438 Y266.1522
G01 X31.5903 Y266.2016
G01 X31.5393 Y266.2536
G01 X31.4909 Y266.3081
G01 X31.4453 Y266.3648
G01 X31.4025 Y266.4238
G01 X31.3626 Y266.4848
G01 X31.3258 Y266.5477
G01 X31.2922 Y266.6123
G01 X31.2657 Y266.6810
G01 X31.2426 Y266.7509
G01 X31.2230 Y266.8218
G01 X31.2068 Y266.8937
G01 X31.1943 Y266.9662
G01 X31.1852 Y267.0393
G01 X31.1798 Y267.1127
G01 X31.1780 Y267.1863
G01 X31.1798 Y267.2599
G01 X31.1852 Y267.3333
G01 X31.1943 Y267.4064
G01 X31.2068 Y267.4789
G01 X31.2230 Y267.5508
G01 X31.2426 Y267.6217
G01 X31.2657 Y267.6916
G01 X31.2922 Y267.7603
G01 X31.3220 Y267.8276
G01 X31.3551 Y267.8934
G01 X31.3914 Y267.9574
G01 X31.4308 Y268.0196
G01 X31.4732 Y268.0798
G01 X31.5185 Y268.1379
G01 X31.5666 Y268.1936
G01 X31.6174 Y268.2469
G01 X31.6707 Y268.2977
G01 X31.7264 Y268.3458
G01 X31.7845 Y268.3911
G01 X31.8447 Y268.4335
G01 X31.9069 Y268.4729
G01 X31.9709 Y268.5092
G01 X32.0367 Y268.5423
G01 X32.1040 Y268.5721
G01 X32.1727 Y268.5986
G01 X32.2426 Y268.6217
G01 X32.3135 Y268.6413
G01 X32.3854 Y268.6574
G01 X32.4579 Y268.6700
G01 X32.5310 Y268.6790
G01 X32.6044 Y268.6845
G01 X32.6780 Y268.6863
G01 X32.7516 Y268.6845
G01 X32.8250 Y268.6790
G01 X32.8981 Y268.6700
G01 X32.9706 Y268.6574
G01 X33.0425 Y268.6413
G01 X33.1134 Y268.6217
G01 X33.1833 Y268.5986
G01 X33.2520 Y268.5721
G01 X33.3193 Y268.5423
G01 X33.3851 Y268.5092
G01 X33.4491 Y268.4729
G01 X33.5113 Y268.4335
G01 X33.5715 Y268.3911
G01 X33.6296 Y268.3458
G01 X33.6853 Y268.2977
G01 X33.7386 Y268.2469
G01 X33.7894 Y268.1936
G01 X33.8375 Y268.1379
G01 X33.8828 Y268.0798
G01 X33.9252 Y268.0196
G01 X33.9646 Y267.9574
G01 X34.0008 Y267.8934
G01 X34.0339 Y267.8276
G01 X34.0638 Y267.7603
G01 X34.0903 Y267.6916
G01 X34.1134 Y267.6217
G01 X34.1330 Y267.5508
G01 X34.1491 Y267.4789
G01 X34.1617 Y267.4064
G01 X34.1707 Y267.3333
G01 X34.1762 Y267.2599
G01 X34.1780 Y267.1863
G01 X34.1738 Y267.0742
G01 X34.1612 Y266.9627
G01 X34.1404 Y266.8525
G01 X34.1113 Y266.7442
G01 X34.0743 Y266.6383
G01 X34.0294 Y266.5355
G01 X33.9770 Y266.4363
G01 X33.9173 Y266.3413
G01 X33.8507 Y266.2511
G01 X33.7775 Y266.1661
G01 X33.6982 Y266.0867
G01 X33.6132 Y266.0136
G01 X33.5230 Y265.9470
G01 X33.4280 Y265.8873
G01 X33.3288 Y265.8349
G01 X33.2260 Y265.7900
G01 X33.1201 Y265.7530
G01 X33.0118 Y265.7239
G01 X32.9015 Y265.7031
G01 X32.7901 Y265.6905
G01 X32.6780 Y265.6863
G01 X32.5659 Y265.6905
G01 X32.4544 Y265.7031
G01 X32.3442 Y265.7239
G01 X32.2359 Y265.7530
G01 X32.1300 Y265.7900
G01 X32.0272 Y265.8349
G01 X31.9280 Y265.8873
G01 X31.8330 Y265.9470
G01 X31.7428 Y266.0136
G01 X31.6578 Y266.0867
G01 X31.5784 Y266.1661
G01 X31.5053 Y266.2511
G01 X31.4387 Y266.3413
G01 X31.3790 Y266.4363
G01 X31.3266 Y266.5355
G01 X31.2817 Y266.6383
G01 X31.2447 Y266.7442
G01 X31.2156 Y266.8525
G01 X31.1948 Y266.9627
G01 X31.1822 Y267.0742
G01 X31.1780 Y267.1863
G01 X31.1822 Y267.2984
G01 X31.1948 Y267.4099
G01 X31.2156 Y267.5201
G01 X31.2447 Y267.6284
G01 X31.2817 Y267.7343
G01 X31.3266 Y267.8371
G01 X31.3790 Y267.9363
G01 X31.4387 Y268.0313
G01 X31.5053 Y268.1215
G01 X31.5784 Y268.2065
G01 X31.6578 Y268.2859
G01 X31.7428 Y268.3590
G01 X31.8330 Y268.4256
G01 X31.9280 Y268.4853
G01 X32.0272 Y268.5377
G01 X32.1300 Y268.5826
G01 X32.2359 Y268.6196
G01 X32.3442 Y268.6487
G01 X32.4544 Y268.6695
G01 X32.5659 Y268.6821
G01 X32.6780 Y268.6863
G01 X32.7901 Y268.6821
G01 X32.9015 Y268.6695
G01 X33.0118 Y268.6487
G01 X33.1201 Y268.6196
G01 X33.2260 Y268.5826
G01 X33.3288 Y268.5377
G01 X33.4280 Y268.4853
G01 X33.5230 Y268.4256
G01 X33.6132 Y268.3590
G01 X33.6982 Y268.2859
G01 X33.7775 Y268.2065
G01 X33.8507 Y268.1215
G01 X33.9173 Y268.0313
G01 X33.9770 Y267.9363
G01 X34.0294 Y267.8371
G01 X34.0743 Y267.7343
G01 X34.1113 Y267.6284
G01 X34.1404 Y267.5201
G01 X34.1612 Y267.4099
G01 X34.1738 Y267.2984
G01 X34.1780 Y267.1863
G01 X34.1734 Y267.0817
G01 X34.1597 Y266.9779
G01 X34.1371 Y266.8757
G01 X34.1056 Y266.7759
G01 X34.0655 Y266.6792
G01 X34.0172 Y266.5863
G01 X33.9609 Y266.4980
G01 X33.8972 Y266.4150
G01 X33.8265 Y266.3378
G01 X33.7493 Y266.2671
G01 X33.6663 Y266.2033
G01 X33.5780 Y266.1471
G01 X33.4851 Y266.0987
G01 X33.3884 Y266.0587
G01 X33.2886 Y266.0272
G01 X33.1863 Y266.0045
G01 X33.0826 Y265.9909
G01 X32.9780 Y265.9863
G01 X32.8734 Y265.9909
G01 X32.7696 Y266.0045
G01 X32.6674 Y266.0272
G01 X32.5676 Y266.0587
G01 X32.4708 Y266.0987
G01 X32.3780 Y266.1471
G01 X32.2897 Y266.2033
G01 X32.2066 Y266.2671
G01 X32.1295 Y266.3378
G01 X32.0587 Y266.4150
G01 X31.9950 Y266.4980
G01 X31.9388 Y266.5863
G01 X31.8904 Y266.6792
G01 X31.8504 Y266.7759
G01 X31.8189 Y266.8757
G01 X31.7962 Y266.9779
G01 X31.7826 Y267.0817
G01 X31.7780 Y267.1863
G01 X31.7792 Y267.2334
G01 X31.7829 Y267.2804
G01 X31.7891 Y267.3271
G01 X31.7977 Y267.3734
G01 X31.8087 Y267.4192
G01 X31.8220 Y267.4644
G01 X31.8378 Y267.5088
G01 X31.8558 Y267.5524
G01 X31.8761 Y267.5949
G01 X31.8986 Y267.6363
G01 X31.9232 Y267.6765
G01 X31.9499 Y267.7153
G01 X31.9786 Y267.7527
G01 X32.0092 Y267.7885
G01 X32.0416 Y267.8227
G01 X32.0758 Y267.8551
G01 X32.1116 Y267.8857
G01 X32.1490 Y267.9144
G01 X32.1878 Y267.9411
G01 X32.2280 Y267.9657
G01 X32.2694 Y267.9882
G01 X32.3119 Y268.0085
G01 X32.3555 Y268.0265
G01 X32.3999 Y268.0423
G01 X32.4451 Y268.0556
G01 X32.4909 Y268.0666
G01 X32.5372 Y268.0752
G01 X32.5839 Y268.0814
G01 X32.6309 Y268.0851
G01 X32.6780 Y268.0863
G01 X32.7251 Y268.0851
G01 X32.7721 Y268.0814
G01 X32.8188 Y268.0752
G01 X32.8651 Y268.0666
G01 X32.9109 Y268.0556
G01 X32.9561 Y268.0423
G01 X33.0005 Y268.0265
G01 X33.0441 Y268.0085
G01 X33.0866 Y267.9882
G01 X33.1280 Y267.9657
G01 X33.1682 Y267.9411
G01 X33.2070 Y267.9144
G01 X33.2444 Y267.8857
G01 X33.2802 Y267.8551
G01 X33.3144 Y267.8227
G01 X33.3468 Y267.7885
G01 X33.3774 Y267.7527
G01 X33.4061 Y267.7153
G01 X33.4328 Y267.6765
G01 X33.4574 Y267.6363
G01 X33.4799 Y267.5949
G01 X33.5002 Y267.5524
G01 X33.5182 Y267.5088
G01 X33.5339 Y267.4644
G01 X33.5473 Y267.4192
G01 X33.5583 Y267.3734
G01 X33.5669 Y267.3271
G01 X33.5731 Y267.2804
G01 X33.5768 Y267.2334
G01 X33.5780 Y267.1863
M107
M106 S240
G01 X33.5768 Y267.1392 Z-4.0167 F400
G01 X33.5731 Y267.0922 Z-4.0333
G01 X33.5669 Y267.0455 Z-4.0500
G01 X33.5583 Y266.9992 Z-4.0667
G01 X33.5473 Y266.9534 Z-4.0833
G01 X33.5339 Y266.9082 Z-4.1000
G01 X33.5182 Y266.8638 Z-4.1167
G01 X33.5002 Y266.8202 Z-4.1333
G01 X33.4799 Y266.7777 Z-4.1500
G01 X33.4574 Y266.7363 Z-4.1667
G01 X33.4328 Y266.6961 Z-4.1833
G01 X33.4061 Y266.6573 Z-4.2000
G01 X33.3774 Y266.6199 Z-4.2167
G01 X33.3468 Y266.5841 Z-4.2333
G01 X33.3144 Y266.5499 Z-4.2500
G01 X33.2802 Y266.5175 Z-4.2667
G01 X33.2444 Y266.4869 Z-4.2833
G01 X33.2070 Y266.4582 Z-4.3000
G01 X33.1682 Y266.4315 Z-4.3167
G01 X33.1280 Y266.4069 Z-4.3333
G01 X33.0866 Y266.3844 Z-4.3500
G01 X33.0441 Y266.3641 Z-4.3667
G01 X33.0005 Y266.3461 Z-4.3833
G01 X32.9561 Y266.3304 Z-4.4000
G01 X32.9109 Y266.3170 Z-4.4167
G01 X32.8651 Y266.3060 Z-4.4333
G01 X32.8188 Y266.2974 Z-4.4500
G01 X32.7721 Y266.2912 Z-4.4667
G01 X32.7251 Y266.2875 Z-4.4833
G01 X32.6780 Y266.2863 Z-4.5000
G01 X32.6309 Y266.2875 Z-4.5167
G01 X32.5839 Y266.2912 Z-4.5333
G01 X32.5372 Y266.2974 Z-4.5500
G01 X32.4909 Y266.3060 Z-4.5667
G01 X32.4451 Y266.3170 Z-4.5833
G01 X32.3999 Y266.3304 Z-4.6000
G01 X32.3555 Y266.3461 Z-4.6167
G01 X32.3119 Y266.3641 Z-4.6333
G01 X32.2694 Y266.3844 Z-4.6500
G01 X32.2280 Y266.4069 Z-4.6667
G01 X32.1878 Y266.4315 Z-4.6833
G01 X32.1490 Y266.4582 Z-4.7000
G01 X32.1116 Y266.4869 Z-4.7167
G01 X32.0758 Y266.5175 Z-4.7333
G01 X32.0416 Y266.5499 Z-4.7500
G01 X32.0092 Y266.5841 Z-4.7667
G01 X31.9786 Y266.6199 Z-4.7833
G01 X31.9499 Y266.6573 Z-4.8000
G01 X31.9232 Y266.6961 Z-4.8167
G01 X31.8986 Y266.7363 Z-4.8333
G01 X31.8761 Y266.7777 Z-4.8500
G01 X31.8558 Y266.8202 Z-4.8667
G01 X31.8378 Y266.8638 Z-4.8833
G01 X31.8220 Y266.9082 Z-4.9000
G01 X31.8087 Y266.9534 Z-4.9167
G01 X31.7977 Y266.9992 Z-4.9333
G01 X31.7891 Y267.0455 Z-4.9500
G01 X31.7829 Y267.0922 Z-4.9667
G01 X31.7792 Y267.1392 Z-4.9833
G01 X31.7780 Y267.1863 Z-5.0000
G01 X31.7792 Y267.2334 Z-5.0167
G01 X31.7829 Y267.2804 Z-5.0333
G01 X31.7891 Y267.3271 Z-5.0500
G01 X31.7977 Y267.3734 Z-5.0667
G01 X31.8087 Y267.4192 Z-5.0833
G01 X31.8220 Y267.4644 Z-5.1000
G01 X31.8378 Y267.5088 Z-5.1167
G01 X31.8558 Y267.5524 Z-5.1333
G01 X31.8761 Y267.5949 Z-5.1500
G01 X31.8986 Y267.6363 Z-5.1667
G01 X31.9232 Y267.6765 Z-5.1833
G01 X31.9499 Y267.7153 Z-5.2000
G01 X31.9786 Y267.7527 Z-5.2167
G01 X32.0092 Y267.7885 Z-5.2333
G01 X32.0416 Y267.8227 Z-5.2500
G01 X32.0758 Y267.8551 Z-5.2667
G01 X32.1116 Y267.8857 Z-5.2833
G01 X32.1490 Y267.9144 Z-5.3000
G01 X32.1878 Y267.9411 Z-5.3167
G01 X32.2280 Y267.9657 Z-5.3333
G01 X32.2694 Y267.9882 Z-5.3500
G01 X32.3119 Y268.0085 Z-5.3667
G01 X32.3555 Y268.0265 Z-5.3833
G01 X32.3999 Y268.0423 Z-5.4000
G01 X32.4451 Y268.0556 Z-5.4167
G01 X32.4909 Y268.0666 Z-5.4333
G01 X32.5372 Y268.0752 Z-5.4500
G01 X32.5839 Y268.0814 Z-5.4667
G01 X32.6309 Y268.0851 Z-5.4833
G01 X32.6780 Y268.0863 Z-5.5000
G01 X32.7251 Y268.0851 Z-5.5167
G01 X32.7721 Y268.0814 Z-5.5333
G01 X32.8188 Y268.0752 Z-5.5500
G01 X32.8651 Y268.0666 Z-5.5667
G01 X32.9109 Y268.0556 Z-5.5833
G01 X32.9561 Y268.0423 Z-5.6000
G01 X33.0005 Y268.0265 Z-5.6167
G01 X33.0441 Y268.0085 Z-5.6333
G01 X33.0866 Y267.9882 Z-5.6500
G01 X33.1280 Y267.9657 Z-5.6667
G01 X33.1682 Y267.9411 Z-5.6833
G01 X33.2070 Y267.9144 Z-5.7000
G01 X33.2444 Y267.8857 Z-5.7167
G01 X33.2802 Y267.8551 Z-5.7333
G01 X33.3144 Y267.8227 Z-5.7500
G01 X33.3468 Y267.7885 Z-5.7667
G01 X33.3774 Y267.7527 Z-5.7833
G01 X33.4061 Y267.7153 Z-5.8000
G01 X33.4328 Y267.6765 Z-5.8167
G01 X33.4574 Y267.6363 Z-5.8333
G01 X33.4799 Y267.5949 Z-5.8500
G01 X33.5002 Y267.5524 Z-5.8667
G01 X33.5182 Y267.5088 Z-5.8833
G01 X33.5339 Y267.4644 Z-5.9000
G01 X33.5473 Y267.4192 Z-5.9167
G01 X33.5583 Y267.3734 Z-5.9333
G01 X33.5669 Y267.3271 Z-5.9500
G01 X33.5731 Y267.2804 Z-5.9667
G01 X33.5768 Y267.2334 Z-5.9833
G01 X33.5780 Y267.1863 Z-6.0000
G01 X33.5768 Y267.1392
G01 X33.5731 Y267.0922
G01 X33.5669 Y267.0455
G01 X33.5583 Y266.9992
G01 X33.5473 Y266.9534
G01 X33.5339 Y266.9082
G01 X33.5182 Y266.8638
G01 X33.5002 Y266.8202
G01 X33.4799 Y266.7777
G01 X33.4574 Y266.7363
G01 X33.4328 Y266.6961
G01 X33.4061 Y266.6573
G01 X33.3774 Y266.6199
G01 X33.3468 Y266.5841
G01 X33.3144 Y266.5499
G01 X33.2802 Y266.5175
G01 X33.2444 Y266.4869
G01 X33.2070 Y266.4582
G01 X33.1682 Y266.4315
G01 X33.1280 Y266.4069
G01 X33.0866 Y266.3844
G01 X33.0441 Y266.3641
G01 X33.0005 Y266.3461
G01 X32.9561 Y266.3304
G01 X32.9109 Y266.3170
G01 X32.8651 Y266.3060
G01 X32.8188 Y266.2974
G01 X32.7721 Y266.2912
G01 X32.7251 Y266.2875
G01 X32.6780 Y266.2863
G01 X32.6309 Y266.2875
G01 X32.5839 Y266.2912
G01 X32.5372 Y266.2974
G01 X32.4909 Y266.3060
G01 X32.4451 Y266.3170
G01 X32.3999 Y266.3304
G01 X32.3555 Y266.3461
G01 X32.3119 Y266.3641
G01 X32.2694 Y266.3844
G01 X32.2280 Y266.4069
G01 X32.1878 Y266.4315
G01 X32.1490 Y266.4582
G01 X32.1116 Y266.4869
G01 X32.0758 Y266.5175
G01 X32.0416 Y266.5499
G01 X32.0092 Y266.5841
G01 X31.9786 Y266.6199
G01 X31.9499 Y266.6573
G01 X31.9232 Y266.6961
G01 X31.8986 Y266.7363
G01 X31.8761 Y266.7777
G01 X31.8558 Y266.8202
G01 X31.8378 Y266.8638
G01 X31.8220 Y266.9082
G01 X31.8087 Y266.9534
G01 X31.7977 Y266.9992
G01 X31.7891 Y267.0455
G01 X31.7829 Y267.0922
G01 X31.7792 Y267.1392
G01 X31.7780 Y267.1863
G01 X31.7792 Y267.2334
G01 X31.7829 Y267.2804
G01 X31.7891 Y267.3271
G01 X31.7977 Y267.3734
G01 X31.8087 Y267.4192
G01 X31.8220 Y267.4644
G01 X31.8378 Y267.5088
G01 X31.8558 Y267.5524
G01 X31.8761 Y267.5949
G01 X31.8986 Y267.6363
G01 X31.9232 Y267.6765
G01 X31.9499 Y267.7153
G01 X31.9786 Y267.7527
G01 X32.0092 Y267.7885
G01 X32.0416 Y267.8227
G01 X32.0758 Y267.8551
G01 X32.1116 Y267.8857
G01 X32.1490 Y267.9144
G01 X32.1878 Y267.9411
G01 X32.2280 Y267.9657
G01 X32.2694 Y267.9882
G01 X32.3119 Y268.0085
G01 X32.3555 Y268.0265
G01 X32.3999 Y268.0423
G01 X32.4451 Y268.0556
G01 X32.4909 Y268.0666
G01 X32.5372 Y268.0752
G01 X32.5839 Y268.0814
G01 X32.6309 Y268.0851
G01 X32.6780 Y268.0863
G01 X32.7251 Y268.0851
G01 X32.7721 Y268.0814
G01 X32.8188 Y268.0752
G01 X32.8651 Y268.0666
G01 X32.9109 Y268.0556
G01 X32.9561 Y268.0423
G01 X33.0005 Y268.0265
G01 X33.0441 Y268.0085
G01 X33.0866 Y267.9882
G01 X33.1280 Y267.9657
G01 X33.1682 Y267.9411
G01 X33.2070 Y267.9144
G01 X33.2444 Y267.8857
G01 X33.2802 Y267.8551
G01 X33.3144 Y267.8227
G01 X33.3468 Y267.7885
G01 X33.3774 Y267.7527
G01 X33.4061 Y267.7153
G01 X33.4328 Y267.6765
G01 X33.4574 Y267.6363
G01 X33.4799 Y267.5949
G01 X33.5002 Y267.5524
G01 X33.5182 Y267.5088
G01 X33.5339 Y267.4644
G01 X33.5473 Y267.4192
G01 X33.5583 Y267.3734
G01 X33.5669 Y267.3271
G01 X33.5731 Y267.2804
G01 X33.5768 Y267.2334
G01 X33.5780 Y267.1863
G01 X33.5889 Y267.1396 F1000
G01 X33.5974 Y267.0925
G01 X33.6034 Y267.0449
G01 X33.6069 Y266.9971
G01 X33.6079 Y266.9492
G01 X33.6065 Y266.9013
G01 X33.6025 Y266.8535
G01 X33.5961 Y266.8060
G01 X33.5864 Y266.7545
G01 X33.5741 Y266.7036
G01 X33.5591 Y266.6533
G01 X33.5416 Y266.6040
G01 X33.5216 Y266.5555
G01 X33.4991 Y266.5082
G01 X33.4742 Y266.4621
G01 X33.4470 Y266.4173
G01 X33.4149 Y266.3703
G01 X33.3806 Y266.3250
G01 X33.3439 Y266.2815
G01 X33.3051 Y266.2399
G01 X33.2641 Y266.2003
G01 X33.2213 Y266.1629
G01 X33.1765 Y266.1278
G01 X33.1300 Y266.0950
G01 X33.0781 Y266.0621
G01 X33.0246 Y266.0320
G01 X32.9697 Y266.0046
G01 X32.9134 Y265.9801
G01 X32.8559 Y265.9584
G01 X32.7974 Y265.9397
G01 X32.7381 Y265.9240
G01 X32.6780 Y265.9113
G01 X32.6129 Y265.9010
G01 X32.5473 Y265.8940
G01 X32.4815 Y265.8903
G01 X32.4156 Y265.8899
G01 X32.3497 Y265.8929
G01 X32.2841 Y265.8992
G01 X32.2188 Y265.9088
G01 X32.1542 Y265.9217
G01 X32.0859 Y265.9390
G01 X32.0185 Y265.9597
G01 X31.9523 Y265.9838
G01 X31.8874 Y266.0111
G01 X31.8239 Y266.0417
G01 X31.7620 Y266.0755
G01 X31.7020 Y266.1123
G01 X31.6438 Y266.1522
G01 X31.5903 Y266.2016
G01 X31.5393 Y266.2536
G01 X31.4909 Y266.3081
G01 X31.4453 Y266.3648
G01 X31.4025 Y266.4238
G01 X31.3626 Y266.4848
G01 X31.3258 Y266.5477
G01 X31.2922 Y266.6123
G01 X31.2657 Y266.6810
G01 X31.2426 Y266.7509
G01 X31.2230 Y266.8218
G01 X31.2068 Y266.8937
G01 X31.1943 Y266.9662
G01 X31.1852 Y267.0393
G01 X31.1798 Y267.1127
G01 X31.1780 Y267.1863
G01 X31.1798 Y267.2599
G01 X31.1852 Y267.3333
G01 X31.1943 Y267.4064
G01 X31.2068 Y267.4789
G01 X31.2230 Y267.5508
G01 X31.2426 Y267.6217
G01 X31.2657 Y267.6916
G01 X31.2922 Y267.7603
G01 X31.3220 Y267.8276
G01 X31.3551 Y267.8934
G01 X31.3914 Y267.9574
G01 X31.4308 Y268.0196
G01 X31.4732 Y268.0798
G01 X31.5185 Y268.1379
G01 X31.5666 Y268.1936
G01 X31.6174 Y268.2469
G01 X31.6707 Y268.2977
G01 X31.7264 Y268.3458
G01 X31.7845 Y268.3911
G01 X31.8447 Y268.4335
G01 X31.9069 Y268.4729
G01 X31.9709 Y268.5092
G01 X32.0367 Y268.5423
G01 X32.1040 Y268.5721
G01 X32.1727 Y268.5986
G01 X32.2426 Y268.6217
G01 X32.3135 Y268.6413
G01 X32.3854 Y268.6574
G01 X32.4579 Y268.6700
G01 X32.5310 Y268.6790
G01 X32.6044 Y268.6845
G01 X32.6780 Y268.6863
G01 X32.7516 Y268.6845
G01 X32.8250 Y268.6790
G01 X32.8981 Y268.6700
G01 X32.9706 Y268.6574
G01 X33.0425 Y268.6413
G01 X33.1134 Y268.6217
G01 X33.1833 Y268.5986
G01 X33.2520 Y268.5721
G01 X33.3193 Y268.5423
G01 X33.3851 Y268.5092
G01 X33.4491 Y268.4729
G01 X33.5113 Y268.4335
G01 X33.5715 Y268.3911
G01 X33.6296 Y268.3458
G01 X33.6853 Y268.2977
G01 X33.7386 Y268.2469
G01 X33.7894 Y268.1936
G01 X33.8375 Y268.1379
G01 X33.8828 Y268.0798
G01 X33.9252 Y268.0196
G01 X33.9646 Y267.9574
G01 X34.0008 Y267.8934
G01 X34.0339 Y267.8276
G01 X34.0638 Y267.7603
G01 X34.0903 Y267.6916
G01 X34.1134 Y267.6217
G01 X34.1330 Y267.5508
G01 X34.1491 Y267.4789
G01 X34.1617 Y267.4064
G01 X34.1707 Y267.3333
G01 X34.1762 Y267.2599
G01 X34.1780 Y267.1863
G01 X34.1738 Y267.0742
G01 X34.1612 Y266.9627
G01 X34.1404 Y266.8525
G01 X34.1113 Y266.7442
G01 X34.0743 Y266.6383
G01 X34.0294 Y266.5355
G01 X33.9770 Y266.4363
G01 X33.9173 Y266.3413
G01 X33.8507 Y266.2511
G01 X33.7775 Y266.1661
G01 X33.6982 Y266.0867
G01 X33.6132 Y266.0136
G01 X33.5230 Y265.9470
G01 X33.4280 Y265.8873
G01 X33.3288 Y265.8349
G01 X33.2260 Y265.7900
G01 X33.1201 Y265.7530
G01 X33.0118 Y265.7239
G01 X32.9015 Y265.7031
G01 X32.7901 Y265.6905
G01 X32.6780 Y265.6863
G01 X32.5659 Y265.6905
G01 X32.4544 Y265.7031
G01 X32.3442 Y265.7239
G01 X32.2359 Y265.7530
G01 X32.1300 Y265.7900
G01 X32.0272 Y265.8349
G01 X31.9280 Y265.8873
G01 X31.8330 Y265.9470
G01 X31.7428 Y266.0136
G01 X31.6578 Y266.0867
G01 X31.5784 Y266.1661
G01 X31.5053 Y266.2511
G01 X31.4387 Y266.3413
G01 X31.3790 Y266.4363
G01 X31.3266 Y266.5355
G01 X31.2817 Y266.6383
G01 X31.2447 Y266.7442
G01 X31.2156 Y266.8525
G01 X31.1948 Y266.9627
G01 X31.1822 Y267.0742
G01 X31.1780 Y267.1863
G01 X31.1822 Y267.2984
G01 X31.1948 Y267.4099
G01 X31.2156 Y267.5201
G01 X31.2447 Y267.6284
G01 X31.2817 Y267.7343
G01 X31.3266 Y267.8371
G01 X31.3790 Y267.9363
G01 X31.4387 Y268.0313
G01 X31.5053 Y268.1215
G01 X31.5784 Y268.2065
G01 X31.6578 Y268.2859
G01 X31.7428 Y268.3590
G01 X31.8330 Y268.4256
G01 X31.9280 Y268.4853
G01 X32.0272 Y268.5377
G01 X32.1300 Y268.5826
G01 X32.2359 Y268.6196
G01 X32.3442 Y268.6487
G01 X32.4544 Y268.6695
G01 X32.5659 Y268.6821
G01 X32.6780 Y268.6863
G01 X32.7901 Y268.6821
G01 X32.9015 Y268.6695
G01 X33.0118 Y268.6487
G01 X33.1201 Y268.6196
G01 X33.2260 Y268.5826
G01 X33.3288 Y268.5377
G01 X33.4280 Y268.4853
G01 X33.5230 Y268.4256
G01 X33.6132 Y268.3590
G01 X33.6982 Y268.2859
G01 X33.7775 Y268.2065
G01 X33.8507 Y268.1215
G01 X33.9173 Y268.0313
G01 X33.9770 Y267.9363
G01 X34.0294 Y267.8371
G01 X34.0743 Y267.7343
G01 X34.1113 Y267.6284
G01 X34.1404 Y267.5201
G01 X34.1612 Y267.4099
G01 X34.1738 Y267.2984
G01 X34.1780 Y267.1863
M107
M106 S240
G01 X34.1731 Y267.0883 Z-5.9688 F400
M107
M106 S240
G01 X34.1587 Y266.9912 Z-5.9375
M107
M106 S240
G01 X34.1349 Y266.8960 Z-5.9063
M107
M106 S240
G01 X34.1018 Y266.8036 Z-5.8750
M107
M106 S240
G01 X34.0599 Y266.7149 Z-5.8438
M107
M106 S240
G01 X34.0094 Y266.6307 Z-5.8125
M107
M106 S240
G01 X33.9510 Y266.5519 Z-5.7813
M107
M106 S240
G01 X33.8851 Y266.4792 Z-5.7500
M107
M106 S240
G01 X33.8124 Y266.4133 Z-5.7188
M107
M106 S240
G01 X33.7335 Y266.3548 Z-5.6875
M107
M106 S240
G01 X33.6494 Y266.3044 Z-5.6563
M107
M106 S240
G01 X33.5606 Y266.2624 Z-5.6250
M107
M106 S240
G01 X33.4682 Y266.2294 Z-5.5938
M107
M106 S240
G01 X33.3730 Y266.2055 Z-5.5625
M107
M106 S240
G01 X33.2760 Y266.1911 Z-5.5313
M107
M106 S240
G01 X33.1780 Y266.1863 Z-5.5000
M107
G00 Z2.0000


;No. 2: Hole 1
G00 X46.0558 Y237.0995 Z2.0000
G00 Z0.5000
G01 Z-1.8000 F400
M106 S240
G01 X47.5060 F1000
G01 X47.5173 Y238.5995
G01 X46.0462
G01 X46.0365 Y240.0995
G01 X47.5285
G01 X47.5397 Y241.5995
G01 X46.0269
G01 X46.0173 Y243.0995
G01 X47.5510
G01 X47.5616 Y244.5995
G01 X46.0077
G01 X45.9981 Y246.0995
G01 X47.5712
G01 X47.5809 Y247.5995
G01 X45.9885
G01 X45.9789 Y249.0995
G01 X47.5905
G01 X47.6001 Y250.5995
G01 X45.9693
G01 X45.9597 Y252.0995
G01 X47.6097
G01 Y253.5995
G01 X52.8975
G01 X40.8146
G01 Y255.0995
G01 X36.7545
G01 X56.8692
M107
G00 Z2.0000
G00 Z0.5000
G01 Z-1.8000 F400
M106 S240
G01 X57.0233 Y254.9721 F1000
G01 X56.6997 Y254.6111
G01 X56.3522 Y254.2730
G01 X55.9824 Y253.9595
G01 X55.5920 Y253.6720
G01 X55.4526 Y253.6201
G01 X55.3108 Y253.5753
G01 X55.1669 Y253.5376
G01 X55.0213 Y253.5072
G01 X54.8744 Y253.4842
G01 X54.7264 Y253.4686
G01 X54.5779 Y253.4604
G01 X54.4292 Y253.4597
G01 X54.1131 Y253.4432
G01 X53.7969 Y253.4289
G01 X53.4806 Y253.4170
G01 X53.1642 Y253.4072
G01 X48.7466 Y253.2774
G01 X48.6999 Y253.2733
G01 X48.6535 Y253.2670
G01 X48.6074 Y253.2585
G01 X48.5617 Y253.2479
G01 X48.5166 Y253.2351
G01 X48.4721 Y253.2203
G01 X48.4284 Y253.2034
G01 X48.3855 Y253.1844
G01 X48.3436 Y253.1635
G01 X48.3027 Y253.1407
G01 X48.2629 Y253.1159
G01 X48.2243 Y253.0893
G01 X48.1870 Y253.0609
G01 X48.1511 Y253.0308
G01 X48.1166 Y252.9991
G01 X48.0836 Y252.9658
G01 X48.0523 Y252.9309
G01 X48.0226 Y252.8947
G01 X47.9946 Y252.8570
G01 X47.9684 Y252.8182
G01 X47.9441 Y252.7781
G01 X47.9217 Y252.7369
G01 X47.9012 Y252.6948
G01 X47.8828 Y252.6517
G01 X47.8664 Y252.6078
G01 X47.8520 Y252.5632
G01 X47.8398 Y252.5179
G01 X47.8297 Y252.4721
G01 X47.8217 Y252.4259
G01 X47.8159 Y252.3794
G01 X47.8123 Y252.3327
G01 X47.8109 Y252.2859
G01 X47.7578 Y244.0090
G01 X47.7050 Y236.7658
G01 X45.8579 Y236.7721
G01 X45.7586 Y252.2658
G01 X45.7552 Y252.3628
G01 X45.7424 Y252.4591
G01 X45.7203 Y252.5536
G01 X45.6891 Y252.6456
G01 X45.6492 Y252.7341
G01 X45.6009 Y252.8183
G01 X45.5446 Y252.8975
G01 X45.4810 Y252.9708
G01 X45.4105 Y253.0376
G01 X45.3339 Y253.0972
G01 X45.2519 Y253.1492
G01 X45.1652 Y253.1929
G01 X45.0747 Y253.2281
G01 X44.9812 Y253.2543
G01 X44.8856 Y253.2713
G01 X44.7888 Y253.2789
G01 X38.4080 Y253.4724
G01 X37.7241 Y253.9647
G01 X37.5354 Y254.0966
G01 X37.3531 Y254.2371
G01 X37.1775 Y254.3860
G01 X37.0091 Y254.5430
G01 X36.8483 Y254.7076
G01 X36.6952 Y254.8796
G01 X36.5504 Y255.0585
G01 X36.4142 Y255.2441
G01 X36.3360 Y255.3672
G01 X36.3497 Y255.3773
G01 X38.9677 Y255.4061
G01 X41.5857 Y255.4256
G01 X44.2038 Y255.4358
G01 X46.8220 Y255.4369
G01 X49.4401 Y255.4287
G01 X52.0581 Y255.4112
G01 X54.6761 Y255.3845
G01 X57.2940 Y255.3486
G01 X57.3088 Y255.3457
G01 X57.1729 Y255.1606
G01 X57.0670 Y255.0249
G01 X57.0233 Y254.9721
G01 X56.8692 Y255.0995
M107
G00 Z2.0000


;No. 3: Hole 2


;No. 4: Hole 2
G00 X79.1765 Y253.3807 Z2.0000
G00 Z0.5000
G01 Z-1.8000 F400
M106 S240
G01 X71.9517 F1000
G01 X71.0773 Y253.9699
G01 X70.7166 Y254.2343
G01 X70.3738 Y254.5215
G01 X70.0505 Y254.8305
G01 X69.7479 Y255.1598
G01 X71.8703 Y255.2035
G01 X73.9929 Y255.2298
G01 X76.1157 Y255.2388
G01 X78.2385 Y255.2303
G01 X88.5117 Y255.2305
G01 X88.5277 Y255.2286
G01 X88.3824 Y255.0370
G01 X88.2291 Y254.8517
G01 X88.0681 Y254.6730
G01 X87.8997 Y254.5013
G01 X87.7242 Y254.3369
G01 X87.5418 Y254.1801
G01 X87.3530 Y254.0312
G01 X87.1580 Y253.8904
G01 X86.4012 Y253.3807
G01 X79.1765
M107
G00 Z2.0000


;No. 5: Hole 3
G00 X71.9496 Y245.6547 Z2.0000
G00 Z0.5000
G01 Z-1.8000 F400
M106 S240
G01 X86.4540 F1000
G01 X88.1202 Y247.1547
G01 X70.0448
M107
G00 Z2.0000
G00 Z0.5000
G01 Z-1.8000 F400
M106 S240
G01 X69.8879 Y247.0302 F1000
G01 X69.8647 Y247.0595
G01 X69.7937 Y247.1528
G01 X69.7245 Y247.2475
G01 X69.6572 Y247.3435
G01 X69.5917 Y247.4408
G01 X69.5918 Y247.4518
G01 X70.8797 Y247.5017
G01 X72.1683 Y247.5320
G01 X73.4571 Y247.5426
G01 X74.7460 Y247.5335
G01 X80.8545 Y247.5295
G01 X82.7869 Y247.5332
G01 X84.7193 Y247.5207
G01 X86.6516 Y247.4921
G01 X88.5835 Y247.4474
G01 X88.3524 Y247.1144
G01 X88.1009 Y246.7967
G01 X87.8298 Y246.4955
G01 X87.5402 Y246.2120
G01 X87.2334 Y245.9473
G01 X86.9105 Y245.7024
G01 X86.5727 Y245.4784
G01 X86.2216 Y245.2762
G01 X77.9177 Y245.2862
G01 X76.1217 Y245.2939
G01 X75.2148 Y245.2947
G01 X74.3080 Y245.3099
G01 X73.4016 Y245.3396
G01 X72.4957 Y245.3837
G01 X72.2307 Y245.4086
G01 X72.1279 Y245.4142
G01 X72.0260 Y245.4280
G01 X71.9254 Y245.4499
G01 X71.8270 Y245.4798
G01 X71.7313 Y245.5175
G01 X71.6389 Y245.5627
G01 X71.5504 Y245.6152
G01 X71.4664 Y245.6747
G01 X71.2429 Y245.8106
G01 X71.0260 Y245.9568
G01 X70.8162 Y246.1129
G01 X70.6138 Y246.2787
G01 X70.4194 Y246.4537
G01 X70.2333 Y246.6375
G01 X70.0560 Y246.8298
G01 X69.8879 Y247.0302
G01 X70.0448 Y247.1547
M107
G00 Z2.0000


;No. 6: Hole 4
G00 X72.8049 Y237.2446 Z2.0000
G00 Z0.5000
G01 Z-1.8000 F400
M106 S240
G01 X85.2808 F1000
G01 Y238.7446
G01 X88.0880
G01 X70.0847
M107
G00 Z2.0000
G00 Z0.5000
G01 Z-1.8000 F400
M106 S240
G01 X69.9324 Y238.6085 F1000
G01 X69.8690 Y238.6787
G01 X69.8074 Y238.7506
G01 X69.7475 Y238.8239
G01 X69.6895 Y238.8987
G01 X69.6640 Y238.9392
G01 X73.8867 Y238.9948
G01 X78.1097 Y239.0222
G01 X82.3328 Y239.0214
G01 X86.5558 Y238.9923
G01 X87.0172 Y238.9867
G01 X87.4785 Y238.9784
G01 X87.9398 Y238.9676
G01 X88.4010 Y238.9542
G01 X88.4198 Y238.9536
G01 X88.4924 Y238.9439
G01 X88.3017 Y238.6830
G01 X88.0947 Y238.4348
G01 X87.8723 Y238.2003
G01 X87.6354 Y237.9806
G01 X87.3850 Y237.7763
G01 X87.1220 Y237.5885
G01 X86.8476 Y237.4178
G01 X86.5629 Y237.2650
G01 X86.1816 Y237.1612
G01 X85.7936 Y237.0867
G01 X85.4010 Y237.0418
G01 X85.0061 Y237.0268
G01 X83.8204 Y236.9871
G01 X82.6343 Y236.9641
G01 X81.4479 Y236.9579
G01 X80.2616 Y236.9684
G01 X79.0390 Y236.9670
G01 X77.8164 Y236.9680
G01 X76.5938 Y236.9714
G01 X75.3712 Y236.9774
G01 X74.6261 Y236.9764
G01 X73.8812 Y236.9936
G01 X73.1369 Y237.0290
G01 X72.3937 Y237.0825
G01 X72.2669 Y237.0992
G01 X72.1413 Y237.1237
G01 X72.0175 Y237.1560
G01 X71.8959 Y237.1958
G01 X71.7771 Y237.2431
G01 X71.6613 Y237.2977
G01 X71.5492 Y237.3593
G01 X71.4411 Y237.4278
G01 X71.0307 Y237.6781
G01 X70.6409 Y237.9595
G01 X70.2741 Y238.2703
G01 X69.9324 Y238.6085
G01 X70.0847 Y238.7446
M107
G00 Z2.0000


;No. 7: Hole 5
G00 X102.8375 Y237.0994 Z2.0000
G00 Z0.5000
G01 Z-1.8000 F400
M106 S240
G01 X120.6560 F1000
G01 Y238.5994
G01 X104.7263
G01 X119.2062
G01 Y240.0994
G01 X120.6560
G01 Y241.5994
G01 X119.2062
G01 Y243.0994
G01 X120.6560
G01 Y244.5994
G01 X119.1616
G01 X120.6560 Y246.0994
G01 X102.1860
G01 Y247.5994
G01 X103.6810
G01 X103.4331 Y249.0994
G01 X102.1860
G01 Y250.5994
G01 X103.4331
G01 Y252.0994
G01 X102.1860
G01 Y253.5994
G01 X117.9874
G01 Y255.0994
G01 X119.6759
G01 X102.1860
M107
G00 Z2.0000
G00 Z0.5000
G01 Z-1.8000 F400
M106 S240
G01 X101.9860 F1000
G01 Y255.4331
G01 X111.3196
G01 X113.5232 Y255.4406
G01 X115.7267 Y255.4365
G01 X117.9303 Y255.4209
G01 X120.1337 Y255.3936
G01 X119.9702 Y255.1603
G01 X119.7964 Y254.9346
G01 X119.6125 Y254.7170
G01 X119.4190 Y254.5079
G01 X119.2163 Y254.3077
G01 X119.0047 Y254.1169
G01 X118.7848 Y253.9359
G01 X118.5569 Y253.7650
G01 X118.0265 Y253.3808
G01 X104.6531
G01 X104.5538 Y253.3778
G01 X104.4552 Y253.3649
G01 X104.3584 Y253.3424
G01 X104.2644 Y253.3104
G01 X104.1739 Y253.2691
G01 X104.0880 Y253.2192
G01 X104.0075 Y253.1609
G01 X103.9332 Y253.0949
G01 X103.8657 Y253.0219
G01 X103.8059 Y252.9426
G01 X103.7542 Y252.8577
G01 X103.7112 Y252.7681
G01 X103.6773 Y252.6746
G01 X103.6529 Y252.5783
G01 X103.6381 Y252.4800
G01 X103.6331 Y252.3808
G01 Y248.3483
G01 X103.6356 Y248.2576
G01 X103.6401 Y248.2109
G01 X103.6466 Y248.1645
G01 X103.6554 Y248.1185
G01 X103.6663 Y248.0729
G01 X103.6793 Y248.0279
G01 X103.6945 Y247.9835
G01 X103.7117 Y247.9399
G01 X103.7309 Y247.8972
G01 X103.7521 Y247.8554
G01 X103.7752 Y247.8146
G01 X103.8002 Y247.7749
G01 X103.8271 Y247.7365
G01 X103.8557 Y247.6994
G01 X103.8860 Y247.6637
G01 X103.9180 Y247.6294
G01 X103.9515 Y247.5966
G01 X103.9865 Y247.5655
G01 X104.0230 Y247.5360
G01 X104.0608 Y247.5083
G01 X104.0998 Y247.4824
G01 X104.1401 Y247.4583
G01 X104.1814 Y247.4362
G01 X104.2237 Y247.4160
G01 X104.2669 Y247.3978
G01 X104.3109 Y247.3817
G01 X104.3556 Y247.3676
G01 X104.4009 Y247.3557
G01 X104.4467 Y247.3459
G01 X104.4930 Y247.3382
G01 X104.5395 Y247.3327
G01 X104.5863 Y247.3294
G01 X104.6331 Y247.3283
G01 X120.8560
G01 Y236.7658
G01 X110.7946 Y236.7660
G01 X108.7129 Y236.7628
G01 X106.6312 Y236.7752
G01 X104.5496 Y236.8033
G01 X102.4683 Y236.8469
G01 X102.4411 Y236.8562
G01 X102.5742 Y237.0794
G01 X102.7198 Y237.2946
G01 X102.8773 Y237.5013
G01 X103.0463 Y237.6987
G01 X103.2263 Y237.8861
G01 X103.4166 Y238.0631
G01 X103.6166 Y238.2289
G01 X103.8257 Y238.3832
G01 X103.9252 Y238.4559
G01 X104.0283 Y238.5236
G01 X104.1347 Y238.5859
G01 X104.2441 Y238.6428
G01 X104.3562 Y238.6940
G01 X104.4708 Y238.7395
G01 X104.5876 Y238.7790
G01 X104.7062 Y238.8127
G01 X104.8264 Y238.8402
G01 X104.9478 Y238.8616
G01 X105.0701 Y238.8769
G01 X105.1931 Y238.8859
G01 X106.0347 Y238.9542
G01 X106.8780 Y238.9987
G01 X107.7221 Y239.0194
G01 X108.5665 Y239.0163
G01 X109.7620 Y239.0201
G01 X117.9862 Y239.0208
G01 X118.0855 Y239.0238
G01 X118.1840 Y239.0366
G01 X118.2808 Y239.0591
G01 X118.3749 Y239.0912
G01 X118.4654 Y239.1324
G01 X118.5513 Y239.1824
G01 X118.6318 Y239.2406
G01 X118.7061 Y239.3066
G01 X118.7735 Y239.3796
G01 X118.8334 Y239.4590
G01 X118.8851 Y239.5439
G01 X118.9281 Y239.6335
G01 X118.9620 Y239.7269
G01 X118.9864 Y239.8232
G01 X119.0012 Y239.9215
G01 X119.0062 Y240.0208
G01 Y244.2558
G01 X119.0032 Y244.3552
G01 X118.9903 Y244.4537
G01 X118.9678 Y244.5505
G01 X118.9358 Y244.6446
G01 X118.8945 Y244.7350
G01 X118.8446 Y244.8209
G01 X118.7863 Y244.9015
G01 X118.7203 Y244.9758
G01 X118.6473 Y245.0432
G01 X118.5680 Y245.1031
G01 X118.4831 Y245.1548
G01 X118.3935 Y245.1978
G01 X118.3000 Y245.2316
G01 X118.2037 Y245.2561
G01 X118.1054 Y245.2709
G01 X118.0062 Y245.2758
G01 X101.9860
G01 Y255.0994
G01 X102.1860
M107
G00 Z2.0000


;No. 8: Hole 6
G00 X133.7949 Y237.2007 Z2.0000
G00 Z0.5000
G01 Z-1.8000 F400
M106 S240
G01 X149.1085 F1000
G01 X150.7815 Y238.7007
G01 X133.7949
G01 Y240.2007
G01 X135.0421
G01 Y241.7007
G01 X133.7949
G01 Y243.2007
G01 X135.0421
G01 Y244.7007
G01 X133.7949
G01 Y246.2007
G01 X135.0421
G01 Y247.7007
G01 X133.7949
G01 Y249.2007
G01 X135.0421
G01 Y250.7007
G01 X133.7949
G01 Y252.2007
G01 X135.0421
G01 Y253.7007
G01 X133.7949
G01 Y255.2007
G01 X135.0421
M107
G00 Z2.0000
G00 Z0.5000
G01 Z-1.8000 F400
M106 S240
G01 X135.2421 F1000
G01 Y240.0408
G01 X135.2446 Y239.9500
G01 X135.2556 Y239.8570
G01 X135.2753 Y239.7653
G01 X135.3034 Y239.6760
G01 X135.3398 Y239.5896
G01 X135.3841 Y239.5070
G01 X135.4360 Y239.4290
G01 X135.4949 Y239.3561
G01 X135.5605 Y239.2891
G01 X135.6319 Y239.2285
G01 X135.7088 Y239.1748
G01 X135.7903 Y239.1286
G01 X135.8758 Y239.0903
G01 X135.9645 Y239.0601
G01 X136.0557 Y239.0383
G01 X136.1485 Y239.0252
G01 X136.2421 Y239.0208
G01 X151.2121 Y239.0149
G01 X151.0733 Y238.7794
G01 X150.9213 Y238.5521
G01 X150.7565 Y238.3339
G01 X150.5796 Y238.1255
G01 X150.3910 Y237.9276
G01 X150.1913 Y237.7408
G01 X149.9814 Y237.5657
G01 X149.7617 Y237.4029
G01 X149.1208 Y236.9683
G01 X133.5949
G01 Y255.4331
G01 X135.2421
G01 Y255.2007
G01 X135.0421
M107
G00 Z2.0000


;No. 9: Helical drill 2
G00 X188.5780 Y267.1863 Z2.0000
G00 Z0.5000
M106 S240
G01 X188.5768 Y267.1392 Z0.4958 F400
G01 X188.5731 Y267.0922 Z0.4917
G01 X188.5669 Y267.0455 Z0.4875
G01 X188.5583 Y266.9992 Z0.4833
G01 X188.5473 Y266.9534 Z0.4792
G01 X188.5339 Y266.9082 Z0.4750
G01 X188.5182 Y266.8638 Z0.4708
G01 X188.5002 Y266.8202 Z0.4667
G01 X188.4799 Y266.7777 Z0.4625
G01 X188.4574 Y266.7363 Z0.4583
G01 X188.4328 Y266.6961 Z0.4542
G01 X188.4061 Y266.6573 Z0.4500
G01 X188.3774 Y266.6199 Z0.4458
G01 X188.3468 Y266.5841 Z0.4417
G01 X188.3144 Y266.5499 Z0.4375
G01 X188.2802 Y266.5175 Z0.4333
G01 X188.2444 Y266.4869 Z0.4292
G01 X188.2070 Y266.4582 Z0.4250
G01 X188.1682 Y266.4315 Z0.4208
G01 X188.1280 Y266.4069 Z0.4167
G01 X188.0866 Y266.3844 Z0.4125
G01 X188.0441 Y266.3641 Z0.4083
G01 X188.0005 Y266.3461 Z0.4042
G01 X187.9561 Y266.3303 Z0.4000
G01 X187.9109 Y266.3170 Z0.3958
G01 X187.8651 Y266.3060 Z0.3917
G01 X187.8188 Y266.2974 Z0.3875
G01 X187.7721 Y266.2912 Z0.3833
G01 X187.7251 Y266.2875 Z0.3792
G01 X187.6780 Y266.2863 Z0.3750
G01 X187.6309 Y266.2875 Z0.3708
G01 X187.5839 Y266.2912 Z0.3667
G01 X187.5372 Y266.2974 Z0.3625
G01 X187.4909 Y266.3060 Z0.3583
G01 X187.4451 Y266.3170 Z0.3542
G01 X187.3999 Y266.3303 Z0.3500
G01 X187.3555 Y266.3461 Z0.3458
G01 X187.3119 Y266.3641 Z0.3417
G01 X187.2694 Y266.3844 Z0.3375
G01 X187.2280 Y266.4069 Z0.3333
G01 X187.1878 Y266.4315 Z0.3292
G01 X187.1490 Y266.4582 Z0.3250
G01 X187.1116 Y266.4869 Z0.3208
G01 X187.0758 Y266.5175 Z0.3167
G01 X187.0416 Y266.5499 Z0.3125
G01 X187.0092 Y266.5841 Z0.3083
G01 X186.9786 Y266.6199 Z0.3042
G01 X186.9499 Y266.6573 Z0.3000
G01 X186.9232 Y266.6961 Z0.2958
G01 X186.8986 Y266.7363 Z0.2917
G01 X186.8761 Y266.7777 Z0.2875
G01 X186.8558 Y266.8202 Z0.2833
G01 X186.8378 Y266.8638 Z0.2792
G01 X186.8220 Y266.9082 Z0.2750
G01 X186.8087 Y266.9534 Z0.2708
G01 X186.7977 Y266.9992 Z0.2667
G01 X186.7891 Y267.0455 Z0.2625
G01 X186.7829 Y267.0922 Z0.2583
G01 X186.7792 Y267.1392 Z0.2542
G01 X186.7780 Y267.1863 Z0.2500
G01 X186.7792 Y267.2334 Z0.2458
G01 X186.7829 Y267.2804 Z0.2417
G01 X186.7891 Y267.3271 Z0.2375
G01 X186.7977 Y267.3734 Z0.2333
G01 X186.8087 Y267.4192 Z0.2292
G01 X186.8220 Y267.4644 Z0.2250
G01 X186.8378 Y267.5088 Z0.2208
G01 X186.8558 Y267.5524 Z0.2167
G01 X186.8761 Y267.5949 Z0.2125
G01 X186.8986 Y267.6363 Z0.2083
G01 X186.9232 Y267.6765 Z0.2042
G01 X186.9499 Y267.7153 Z0.2000
G01 X186.9786 Y267.7527 Z0.1958
G01 X187.0092 Y267.7885 Z0.1917
G01 X187.0416 Y267.8227 Z0.1875
G01 X187.0758 Y267.8551 Z0.1833
G01 X187.1116 Y267.8857 Z0.1792
G01 X187.1490 Y267.9144 Z0.1750
G01 X187.1878 Y267.9411 Z0.1708
G01 X187.2280 Y267.9657 Z0.1667
G01 X187.2694 Y267.9882 Z0.1625
G01 X187.3119 Y268.0085 Z0.1583
G01 X187.3555 Y268.0265 Z0.1542
G01 X187.3999 Y268.0422 Z0.1500
G01 X187.4451 Y268.0556 Z0.1458
G01 X187.4909 Y268.0666 Z0.1417
G01 X187.5372 Y268.0752 Z0.1375
G01 X187.5839 Y268.0814 Z0.1333
G01 X187.6309 Y268.0851 Z0.1292
G01 X187.6780 Y268.0863 Z0.1250
G01 X187.7251 Y268.0851 Z0.1208
G01 X187.7721 Y268.0814 Z0.1167
G01 X187.8188 Y268.0752 Z0.1125
G01 X187.8651 Y268.0666 Z0.1083
G01 X187.9109 Y268.0556 Z0.1042
G01 X187.9561 Y268.0422 Z0.1000
G01 X188.0005 Y268.0265 Z0.0958
G01 X188.0441 Y268.0085 Z0.0917
G01 X188.0866 Y267.9882 Z0.0875
G01 X188.1280 Y267.9657 Z0.0833
G01 X188.1682 Y267.9411 Z0.0792
G01 X188.2070 Y267.9144 Z0.0750
G01 X188.2444 Y267.8857 Z0.0708
G01 X188.2802 Y267.8551 Z0.0667
G01 X188.3144 Y267.8227 Z0.0625
G01 X188.3468 Y267.7885 Z0.0583
G01 X188.3774 Y267.7527 Z0.0542
G01 X188.4061 Y267.7153 Z0.0500
G01 X188.4328 Y267.6765 Z0.0458
G01 X188.4574 Y267.6363 Z0.0417
G01 X188.4799 Y267.5949 Z0.0375
G01 X188.5002 Y267.5524 Z0.0333
G01 X188.5182 Y267.5088 Z0.0292
G01 X188.5339 Y267.4644 Z0.0250
G01 X188.5473 Y267.4192 Z0.0208
G01 X188.5583 Y267.3734 Z0.0167
G01 X188.5669 Y267.3271 Z0.0125
G01 X188.5731 Y267.2804 Z0.0083
G01 X188.5768 Y267.2334 Z0.0042
G01 X188.5780 Y267.1863 Z0.0000
G01 X188.5768 Y267.1392
G01 X188.5731 Y267.0922
G01 X188.5669 Y267.0455
G01 X188.5583 Y266.9992
G01 X188.5473 Y266.9534
G01 X188.5339 Y266.9082
G01 X188.5182 Y266.8638
G01 X188.5002 Y266.8202
G01 X188.4799 Y266.7777
G01 X188.4574 Y266.7363
G01 X188.4328 Y266.6961
G01 X188.4061 Y266.6573
G01 X188.3774 Y266.6199
G01 X188.3468 Y266.5841
G01 X188.3144 Y266.5499
G01 X188.2802 Y266.5175
G01 X188.2444 Y266.4869
G01 X188.2070 Y266.4582
G01 X188.1682 Y266.4315
G01 X188.1280 Y266.4069
G01 X188.0866 Y266.3844
G01 X188.0441 Y266.3641
G01 X188.0005 Y266.3461
G01 X187.9561 Y266.3303
G01 X187.9109 Y266.3170
G01 X187.8651 Y266.3060
G01 X187.8188 Y266.2974
G01 X187.7721 Y266.2912
G01 X187.7251 Y266.2875
G01 X187.6780 Y266.2863
G01 X187.6309 Y266.2875
G01 X187.5839 Y266.2912
G01 X187.5372 Y266.2974
G01 X187.4909 Y266.3060
G01 X187.4451 Y266.3170
G01 X187.3999 Y266.3303
G01 X187.3555 Y266.3461
G01 X187.3119 Y266.3641
G01 X187.2694 Y266.3844
G01 X187.2280 Y266.4069
G01 X187.1878 Y266.4315
G01 X187.1490 Y266.4582
G01 X187.1116 Y266.4869
G01 X187.0758 Y266.5175
G01 X187.0416 Y266.5499
G01 X187.0092 Y266.5841
G01 X186.9786 Y266.6199
G01 X186.9499 Y266.6573
G01 X186.9232 Y266.6961
G01 X186.8986 Y266.7363
G01 X186.8761 Y266.7777
G01 X186.8558 Y266.8202
G01 X186.8378 Y266.8638
G01 X186.8220 Y266.9082
G01 X186.8087 Y266.9534
G01 X186.7977 Y266.9992
G01 X186.7891 Y267.0455
G01 X186.7829 Y267.0922
G01 X186.7792 Y267.1392
G01 X186.7780 Y267.1863
G01 X186.7792 Y267.2334
G01 X186.7829 Y267.2804
G01 X186.7891 Y267.3271
G01 X186.7977 Y267.3734
G01 X186.8087 Y267.4192
G01 X186.8220 Y267.4644
G01 X186.8378 Y267.5088
G01 X186.8558 Y267.5524
G01 X186.8761 Y267.5949
G01 X186.8986 Y267.6363
G01 X186.9232 Y267.6765
G01 X186.9499 Y267.7153
G01 X186.9786 Y267.7527
G01 X187.0092 Y267.7885
G01 X187.0416 Y267.8227
G01 X187.0758 Y267.8551
G01 X187.1116 Y267.8857
G01 X187.1490 Y267.9144
G01 X187.1878 Y267.9411
G01 X187.2280 Y267.9657
G01 X187.2694 Y267.9882
G01 X187.3119 Y268.0085
G01 X187.3555 Y268.0265
G01 X187.3999 Y268.0422
G01 X187.4451 Y268.0556
G01 X187.4909 Y268.0666
G01 X187.5372 Y268.0752
G01 X187.5839 Y268.0814
G01 X187.6309 Y268.0851
G01 X187.6780 Y268.0863
G01 X187.7251 Y268.0851
G01 X187.7721 Y268.0814
G01 X187.8188 Y268.0752
G01 X187.8651 Y268.0666
G01 X187.9109 Y268.0556
G01 X187.9561 Y268.0422
G01 X188.0005 Y268.0265
G01 X188.0441 Y268.0085
G01 X188.0866 Y267.9882
G01 X188.1280 Y267.9657
G01 X188.1682 Y267.9411
G01 X188.2070 Y267.9144
G01 X188.2444 Y267.8857
G01 X188.2802 Y267.8551
G01 X188.3144 Y267.8227
G01 X188.3468 Y267.7885
G01 X188.3774 Y267.7527
G01 X188.4061 Y267.7153
G01 X188.4328 Y267.6765
G01 X188.4574 Y267.6363
G01 X188.4799 Y267.5949
G01 X188.5002 Y267.5524
G01 X188.5182 Y267.5088
G01 X188.5339 Y267.4644
G01 X188.5473 Y267.4192
G01 X188.5583 Y267.3734
G01 X188.5669 Y267.3271
G01 X188.5731 Y267.2804
G01 X188.5768 Y267.2334
G01 X188.5780 Y267.1863
M107
M106 S240
G01 X188.5768 Y267.1392 Z-0.0167
G01 X188.5731 Y267.0922 Z-0.0333
G01 X188.5669 Y267.0455 Z-0.0500
G01 X188.5583 Y266.9992 Z-0.0667
G01 X188.5473 Y266.9534 Z-0.0833
G01 X188.5339 Y266.9082 Z-0.1000
G01 X188.5182 Y266.8638 Z-0.1167
G01 X188.5002 Y266.8202 Z-0.1333
G01 X188.4799 Y266.7777 Z-0.1500
G01 X188.4574 Y266.7363 Z-0.1667
G01 X188.4328 Y266.6961 Z-0.1833
G01 X188.4061 Y266.6573 Z-0.2000
G01 X188.3774 Y266.6199 Z-0.2167
G01 X188.3468 Y266.5841 Z-0.2333
G01 X188.3144 Y266.5499 Z-0.2500
G01 X188.2802 Y266.5175 Z-0.2667
G01 X188.2444 Y266.4869 Z-0.2833
G01 X188.2070 Y266.4582 Z-0.3000
G01 X188.1682 Y266.4315 Z-0.3167
G01 X188.1280 Y266.4069 Z-0.3333
G01 X188.0866 Y266.3844 Z-0.3500
G01 X188.0441 Y266.3641 Z-0.3667
G01 X188.0005 Y266.3461 Z-0.3833
G01 X187.9561 Y266.3303 Z-0.4000
G01 X187.9109 Y266.3170 Z-0.4167
G01 X187.8651 Y266.3060 Z-0.4333
G01 X187.8188 Y266.2974 Z-0.4500
G01 X187.7721 Y266.2912 Z-0.4667
G01 X187.7251 Y266.2875 Z-0.4833
G01 X187.6780 Y266.2863 Z-0.5000
G01 X187.6309 Y266.2875 Z-0.5167
G01 X187.5839 Y266.2912 Z-0.5333
G01 X187.5372 Y266.2974 Z-0.5500
G01 X187.4909 Y266.3060 Z-0.5667
G01 X187.4451 Y266.3170 Z-0.5833
G01 X187.3999 Y266.3303 Z-0.6000
G01 X187.3555 Y266.3461 Z-0.6167
G01 X187.3119 Y266.3641 Z-0.6333
G01 X187.2694 Y266.3844 Z-0.6500
G01 X187.2280 Y266.4069 Z-0.6667
G01 X187.1878 Y266.4315 Z-0.6833
G01 X187.1490 Y266.4582 Z-0.7000
G01 X187.1116 Y266.4869 Z-0.7167
G01 X187.0758 Y266.5175 Z-0.7333
G01 X187.0416 Y266.5499 Z-0.7500
G01 X187.0092 Y266.5841 Z-0.7667
G01 X186.9786 Y266.6199 Z-0.7833
G01 X186.9499 Y266.6573 Z-0.8000
G01 X186.9232 Y266.6961 Z-0.8167
G01 X186.8986 Y266.7363 Z-0.8333
G01 X186.8761 Y266.7777 Z-0.8500
G01 X186.8558 Y266.8202 Z-0.8667
G01 X186.8378 Y266.8638 Z-0.8833
G01 X186.8220 Y266.9082 Z-0.9000
G01 X186.8087 Y266.9534 Z-0.9167
G01 X186.7977 Y266.9992 Z-0.9333
G01 X186.7891 Y267.0455 Z-0.9500
G01 X186.7829 Y267.0922 Z-0.9667
G01 X186.7792 Y267.1392 Z-0.9833
G01 X186.7780 Y267.1863 Z-1.0000
G01 X186.7792 Y267.2334 Z-1.0167
G01 X186.7829 Y267.2804 Z-1.0333
G01 X186.7891 Y267.3271 Z-1.0500
G01 X186.7977 Y267.3734 Z-1.0667
G01 X186.8087 Y267.4192 Z-1.0833
G01 X186.8220 Y267.4644 Z-1.1000
G01 X186.8378 Y267.5088 Z-1.1167
G01 X186.8558 Y267.5524 Z-1.1333
G01 X186.8761 Y267.5949 Z-1.1500
G01 X186.8986 Y267.6363 Z-1.1667
G01 X186.9232 Y267.6765 Z-1.1833
G01 X186.9499 Y267.7153 Z-1.2000
G01 X186.9786 Y267.7527 Z-1.2167
G01 X187.0092 Y267.7885 Z-1.2333
G01 X187.0416 Y267.8227 Z-1.2500
G01 X187.0758 Y267.8551 Z-1.2667
G01 X187.1116 Y267.8857 Z-1.2833
G01 X187.1490 Y267.9144 Z-1.3000
G01 X187.1878 Y267.9411 Z-1.3167
G01 X187.2280 Y267.9657 Z-1.3333
G01 X187.2694 Y267.9882 Z-1.3500
G01 X187.3119 Y268.0085 Z-1.3667
G01 X187.3555 Y268.0265 Z-1.3833
G01 X187.3999 Y268.0422 Z-1.4000
G01 X187.4451 Y268.0556 Z-1.4167
G01 X187.4909 Y268.0666 Z-1.4333
G01 X187.5372 Y268.0752 Z-1.4500
G01 X187.5839 Y268.0814 Z-1.4667
G01 X187.6309 Y268.0851 Z-1.4833
G01 X187.6780 Y268.0863 Z-1.5000
G01 X187.7251 Y268.0851 Z-1.5167
G01 X187.7721 Y268.0814 Z-1.5333
G01 X187.8188 Y268.0752 Z-1.5500
G01 X187.8651 Y268.0666 Z-1.5667
G01 X187.9109 Y268.0556 Z-1.5833
G01 X187.9561 Y268.0422 Z-1.6000
G01 X188.0005 Y268.0265 Z-1.6167
G01 X188.0441 Y268.0085 Z-1.6333
G01 X188.0866 Y267.9882 Z-1.6500
G01 X188.1280 Y267.9657 Z-1.6667
G01 X188.1682 Y267.9411 Z-1.6833
G01 X188.2070 Y267.9144 Z-1.7000
G01 X188.2444 Y267.8857 Z-1.7167
G01 X188.2802 Y267.8551 Z-1.7333
G01 X188.3144 Y267.8227 Z-1.7500
G01 X188.3468 Y267.7885 Z-1.7667
G01 X188.3774 Y267.7527 Z-1.7833
G01 X188.4061 Y267.7153 Z-1.8000
G01 X188.4328 Y267.6765 Z-1.8167
G01 X188.4574 Y267.6363 Z-1.8333
G01 X188.4799 Y267.5949 Z-1.8500
G01 X188.5002 Y267.5524 Z-1.8667
G01 X188.5182 Y267.5088 Z-1.8833
G01 X188.5339 Y267.4644 Z-1.9000
G01 X188.5473 Y267.4192 Z-1.9167
G01 X188.5583 Y267.3734 Z-1.9333
G01 X188.5669 Y267.3271 Z-1.9500
G01 X188.5731 Y267.2804 Z-1.9667
G01 X188.5768 Y267.2334 Z-1.9833
G01 X188.5780 Y267.1863 Z-2.0000
G01 X188.5768 Y267.1392
G01 X188.5731 Y267.0922
G01 X188.5669 Y267.0455
G01 X188.5583 Y266.9992
G01 X188.5473 Y266.9534
G01 X188.5339 Y266.9082
G01 X188.5182 Y266.8638
G01 X188.5002 Y266.8202
G01 X188.4799 Y266.7777
G01 X188.4574 Y266.7363
G01 X188.4328 Y266.6961
G01 X188.4061 Y266.6573
G01 X188.3774 Y266.6199
G01 X188.3468 Y266.5841
G01 X188.3144 Y266.5499
G01 X188.2802 Y266.5175
G01 X188.2444 Y266.4869
G01 X188.2070 Y266.4582
G01 X188.1682 Y266.4315
G01 X188.1280 Y266.4069
G01 X188.0866 Y266.3844
G01 X188.0441 Y266.3641
G01 X188.0005 Y266.3461
G01 X187.9561 Y266.3303
G01 X187.9109 Y266.3170
G01 X187.8651 Y266.3060
G01 X187.8188 Y266.2974
G01 X187.7721 Y266.2912
G01 X187.7251 Y266.2875
G01 X187.6780 Y266.2863
G01 X187.6309 Y266.2875
G01 X187.5839 Y266.2912
G01 X187.5372 Y266.2974
G01 X187.4909 Y266.3060
G01 X187.4451 Y266.3170
G01 X187.3999 Y266.3303
G01 X187.3555 Y266.3461
G01 X187.3119 Y266.3641
G01 X187.2694 Y266.3844
G01 X187.2280 Y266.4069
G01 X187.1878 Y266.4315
G01 X187.1490 Y266.4582
G01 X187.1116 Y266.4869
G01 X187.0758 Y266.5175
G01 X187.0416 Y266.5499
G01 X187.0092 Y266.5841
G01 X186.9786 Y266.6199
G01 X186.9499 Y266.6573
G01 X186.9232 Y266.6961
G01 X186.8986 Y266.7363
G01 X186.8761 Y266.7777
G01 X186.8558 Y266.8202
G01 X186.8378 Y266.8638
G01 X186.8220 Y266.9082
G01 X186.8087 Y266.9534
G01 X186.7977 Y266.9992
G01 X186.7891 Y267.0455
G01 X186.7829 Y267.0922
G01 X186.7792 Y267.1392
G01 X186.7780 Y267.1863
G01 X186.7792 Y267.2334
G01 X186.7829 Y267.2804
G01 X186.7891 Y267.3271
G01 X186.7977 Y267.3734
G01 X186.8087 Y267.4192
G01 X186.8220 Y267.4644
G01 X186.8378 Y267.5088
G01 X186.8558 Y267.5524
G01 X186.8761 Y267.5949
G01 X186.8986 Y267.6363
G01 X186.9232 Y267.6765
G01 X186.9499 Y267.7153
G01 X186.9786 Y267.7527
G01 X187.0092 Y267.7885
G01 X187.0416 Y267.8227
G01 X187.0758 Y267.8551
G01 X187.1116 Y267.8857
G01 X187.1490 Y267.9144
G01 X187.1878 Y267.9411
G01 X187.2280 Y267.9657
G01 X187.2694 Y267.9882
G01 X187.3119 Y268.0085
G01 X187.3555 Y268.0265
G01 X187.3999 Y268.0422
G01 X187.4451 Y268.0556
G01 X187.4909 Y268.0666
G01 X187.5372 Y268.0752
G01 X187.5839 Y268.0814
G01 X187.6309 Y268.0851
G01 X187.6780 Y268.0863
G01 X187.7251 Y268.0851
G01 X187.7721 Y268.0814
G01 X187.8188 Y268.0752
G01 X187.8651 Y268.0666
G01 X187.9109 Y268.0556
G01 X187.9561 Y268.0422
G01 X188.0005 Y268.0265
G01 X188.0441 Y268.0085
G01 X188.0866 Y267.9882
G01 X188.1280 Y267.9657
G01 X188.1682 Y267.9411
G01 X188.2070 Y267.9144
G01 X188.2444 Y267.8857
G01 X188.2802 Y267.8551
G01 X188.3144 Y267.8227
G01 X188.3468 Y267.7885
G01 X188.3774 Y267.7527
G01 X188.4061 Y267.7153
G01 X188.4328 Y267.6765
G01 X188.4574 Y267.6363
G01 X188.4799 Y267.5949
G01 X188.5002 Y267.5524
G01 X188.5182 Y267.5088
G01 X188.5339 Y267.4644
G01 X188.5473 Y267.4192
G01 X188.5583 Y267.3734
G01 X188.5669 Y267.3271
G01 X188.5731 Y267.2804
G01 X188.5768 Y267.2334
G01 X188.5780 Y267.1863
G01 X188.5889 Y267.1396 F1000
G01 X188.5974 Y267.0924
G01 X188.6034 Y267.0449
G01 X188.6069 Y266.9971
G01 X188.6079 Y266.9492
G01 X188.6065 Y266.9013
G01 X188.6025 Y266.8535
G01 X188.5961 Y266.8060
G01 X188.5864 Y266.7545
G01 X188.5741 Y266.7036
G01 X188.5591 Y266.6533
G01 X188.5416 Y266.6039
G01 X188.5216 Y266.5555
G01 X188.4991 Y266.5082
G01 X188.4742 Y266.4621
G01 X188.4470 Y266.4173
G01 X188.4149 Y266.3703
G01 X188.3806 Y266.3250
G01 X188.3439 Y266.2814
G01 X188.3051 Y266.2399
G01 X188.2641 Y266.2003
G01 X188.2213 Y266.1629
G01 X188.1765 Y266.1278
G01 X188.1300 Y266.0950
G01 X188.0781 Y266.0621
G01 X188.0246 Y266.0320
G01 X187.9697 Y266.0046
G01 X187.9134 Y265.9800
G01 X187.8559 Y265.9584
G01 X187.7974 Y265.9397
G01 X187.7381 Y265.9240
G01 X187.6780 Y265.9113
G01 X187.6129 Y265.9010
G01 X187.5473 Y265.8939
G01 X187.4815 Y265.8903
G01 X187.4156 Y265.8899
G01 X187.3497 Y265.8929
G01 X187.2841 Y265.8992
G01 X187.2188 Y265.9088
G01 X187.1542 Y265.9217
G01 X187.0859 Y265.9390
G01 X187.0185 Y265.9597
G01 X186.9523 Y265.9837
G01 X186.8874 Y266.0111
G01 X186.8239 Y266.0417
G01 X186.7620 Y266.0755
G01 X186.7020 Y266.1123
G01 X186.6438 Y266.1521
G01 X186.5903 Y266.2016
G01 X186.5393 Y266.2536
G01 X186.4909 Y266.3080
G01 X186.4453 Y266.3648
G01 X186.4025 Y266.4238
G01 X186.3626 Y266.4848
G01 X186.3258 Y266.5476
G01 X186.2922 Y266.6123
G01 X186.2657 Y266.6810
G01 X186.2426 Y266.7509
G01 X186.2229 Y266.8218
G01 X186.2068 Y266.8937
G01 X186.1942 Y266.9662
G01 X186.1852 Y267.0393
G01 X186.1798 Y267.1127
G01 X186.1780 Y267.1863
G01 X186.1798 Y267.2599
G01 X186.1852 Y267.3333
G01 X186.1942 Y267.4064
G01 X186.2068 Y267.4789
G01 X186.2229 Y267.5508
G01 X186.2426 Y267.6217
G01 X186.2657 Y267.6916
G01 X186.2922 Y267.7603
G01 X186.3220 Y267.8276
G01 X186.3551 Y267.8934
G01 X186.3914 Y267.9574
G01 X186.4308 Y268.0196
G01 X186.4732 Y268.0798
G01 X186.5185 Y268.1379
G01 X186.5666 Y268.1936
G01 X186.6173 Y268.2469
G01 X186.6707 Y268.2977
G01 X186.7264 Y268.3458
G01 X186.7844 Y268.3911
G01 X186.8446 Y268.4335
G01 X186.9068 Y268.4729
G01 X186.9709 Y268.5092
G01 X187.0367 Y268.5423
G01 X187.1040 Y268.5721
G01 X187.1727 Y268.5986
G01 X187.2426 Y268.6217
G01 X187.3135 Y268.6413
G01 X187.3854 Y268.6575
G01 X187.4579 Y268.6701
G01 X187.5310 Y268.6791
G01 X187.6044 Y268.6845
G01 X187.6780 Y268.6863
G01 X187.7516 Y268.6845
G01 X187.8250 Y268.6791
G01 X187.8981 Y268.6701
G01 X187.9706 Y268.6575
G01 X188.0425 Y268.6413
G01 X188.1134 Y268.6217
G01 X188.1833 Y268.5986
G01 X188.2520 Y268.5721
G01 X188.3193 Y268.5423
G01 X188.3851 Y268.5092
G01 X188.4491 Y268.4729
G01 X188.5113 Y268.4335
G01 X188.5715 Y268.3911
G01 X188.6296 Y268.3458
G01 X188.6853 Y268.2977
G01 X188.7386 Y268.2469
G01 X188.7894 Y268.1936
G01 X188.8375 Y268.1379
G01 X188.8828 Y268.0798
G01 X188.9252 Y268.0196
G01 X188.9646 Y267.9574
G01 X189.0009 Y267.8934
G01 X189.0340 Y267.8276
G01 X189.0638 Y267.7603
G01 X189.0903 Y267.6916
G01 X189.1134 Y267.6217
G01 X189.1330 Y267.5508
G01 X189.1492 Y267.4789
G01 X189.1618 Y267.4064
G01 X189.1708 Y267.3333
G01 X189.1762 Y267.2599
G01 X189.1780 Y267.1863
G01 X189.1738 Y267.0742
G01 X189.1612 Y266.9627
G01 X189.1404 Y266.8525
G01 X189.1113 Y266.7442
G01 X189.0743 Y266.6383
G01 X189.0294 Y266.5355
G01 X188.9770 Y266.4363
G01 X188.9173 Y266.3413
G01 X188.8507 Y266.2511
G01 X188.7776 Y266.1660
G01 X188.6982 Y266.0867
G01 X188.6132 Y266.0135
G01 X188.5230 Y265.9469
G01 X188.4280 Y265.8873
G01 X188.3288 Y265.8348
G01 X188.2260 Y265.7900
G01 X188.1201 Y265.7529
G01 X188.0118 Y265.7239
G01 X187.9016 Y265.7030
G01 X187.7901 Y265.6905
G01 X187.6780 Y265.6863
G01 X187.5659 Y265.6905
G01 X187.4544 Y265.7030
G01 X187.3442 Y265.7239
G01 X187.2359 Y265.7529
G01 X187.1300 Y265.7900
G01 X187.0272 Y265.8348
G01 X186.9280 Y265.8873
G01 X186.8330 Y265.9469
G01 X186.7428 Y266.0135
G01 X186.6577 Y266.0867
G01 X186.5784 Y266.1660
G01 X186.5052 Y266.2511
G01 X186.4386 Y266.3413
G01 X186.3790 Y266.4363
G01 X186.3265 Y266.5355
G01 X186.2817 Y266.6383
G01 X186.2446 Y266.7442
G01 X186.2156 Y266.8525
G01 X186.1947 Y266.9627
G01 X186.1822 Y267.0742
G01 X186.1780 Y267.1863
G01 X186.1822 Y267.2984
G01 X186.1947 Y267.4099
G01 X186.2156 Y267.5201
G01 X186.2446 Y267.6284
G01 X186.2817 Y267.7343
G01 X186.3265 Y267.8371
G01 X186.3790 Y267.9363
G01 X186.4386 Y268.0313
G01 X186.5052 Y268.1215
G01 X186.5784 Y268.2065
G01 X186.6577 Y268.2859
G01 X186.7428 Y268.3590
G01 X186.8330 Y268.4256
G01 X186.9280 Y268.4853
G01 X187.0272 Y268.5377
G01 X187.1300 Y268.5826
G01 X187.2359 Y268.6196
G01 X187.3442 Y268.6487
G01 X187.4544 Y268.6695
G01 X187.5659 Y268.6821
G01 X187.6780 Y268.6863
G01 X187.7901 Y268.6821
G01 X187.9016 Y268.6695
G01 X188.0118 Y268.6487
G01 X188.1201 Y268.6196
G01 X188.2260 Y268.5826
G01 X188.3288 Y268.5377
G01 X188.4280 Y268.4853
G01 X188.5230 Y268.4256
G01 X188.6132 Y268.3590
G01 X188.6982 Y268.2859
G01 X188.7776 Y268.2065
G01 X188.8507 Y268.1215
G01 X188.9173 Y268.0313
G01 X188.9770 Y267.9363
G01 X189.0294 Y267.8371
G01 X189.0743 Y267.7343
G01 X189.1113 Y267.6284
G01 X189.1404 Y267.5201
G01 X189.1612 Y267.4099
G01 X189.1738 Y267.2984
G01 X189.1780 Y267.1863
G01 X189.1734 Y267.0817
G01 X189.1598 Y266.9779
G01 X189.1371 Y266.8757
G01 X189.1056 Y266.7759
G01 X189.0656 Y266.6791
G01 X189.0172 Y266.5863
G01 X188.9610 Y266.4980
G01 X188.8972 Y266.4149
G01 X188.8265 Y266.3378
G01 X188.7493 Y266.2670
G01 X188.6663 Y266.2033
G01 X188.5780 Y266.1471
G01 X188.4851 Y266.0987
G01 X188.3884 Y266.0587
G01 X188.2886 Y266.0272
G01 X188.1864 Y266.0045
G01 X188.0826 Y265.9909
G01 X187.9780 Y265.9863
G01 X187.8734 Y265.9909
G01 X187.7696 Y266.0045
G01 X187.6674 Y266.0272
G01 X187.5676 Y266.0587
G01 X187.4708 Y266.0987
G01 X187.3780 Y266.1471
G01 X187.2897 Y266.2033
G01 X187.2066 Y266.2670
G01 X187.1295 Y266.3378
G01 X187.0587 Y266.4149
G01 X186.9950 Y266.4980
G01 X186.9388 Y266.5863
G01 X186.8904 Y266.6791
G01 X186.8504 Y266.7759
G01 X186.8189 Y266.8757
G01 X186.7962 Y266.9779
G01 X186.7826 Y267.0817
G01 X186.7780 Y267.1863
G01 X186.7792 Y267.2334
G01 X186.7829 Y267.2804
G01 X186.7891 Y267.3271
G01 X186.7977 Y267.3734
G01 X186.8087 Y267.4192
G01 X186.8220 Y267.4644
G01 X186.8378 Y267.5088
G01 X186.8558 Y267.5524
G01 X186.8761 Y267.5949
G01 X186.8986 Y267.6363
G01 X186.9232 Y267.6765
G01 X186.9499 Y267.7153
G01 X186.9786 Y267.7527
G01 X187.0092 Y267.7885
G01 X187.0416 Y267.8227
G01 X187.0758 Y267.8551
G01 X187.1116 Y267.8857
G01 X187.1490 Y267.9144
G01 X187.1878 Y267.9411
G01 X187.2280 Y267.9657
G01 X187.2694 Y267.9882
G01 X187.3119 Y268.0085
G01 X187.3555 Y268.0265
G01 X187.3999 Y268.0422
G01 X187.4451 Y268.0556
G01 X187.4909 Y268.0666
G01 X187.5372 Y268.0752
G01 X187.5839 Y268.0814
G01 X187.6309 Y268.0851
G01 X187.6780 Y268.0863
G01 X187.7251 Y268.0851
G01 X187.7721 Y268.0814
G01 X187.8188 Y268.0752
G01 X187.8651 Y268.0666
G01 X187.9109 Y268.0556
G01 X187.9561 Y268.0422
G01 X188.0005 Y268.0265
G01 X188.0441 Y268.0085
G01 X188.0866 Y267.9882
G01 X188.1280 Y267.9657
G01 X188.1682 Y267.9411
G01 X188.2070 Y267.9144
G01 X188.2444 Y267.8857
G01 X188.2802 Y267.8551
G01 X188.3144 Y267.8227
G01 X188.3468 Y267.7885
G01 X188.3774 Y267.7527
G01 X188.4061 Y267.7153
G01 X188.4328 Y267.6765
G01 X188.4574 Y267.6363
G01 X188.4799 Y267.5949
G01 X188.5002 Y267.5524
G01 X188.5182 Y267.5088
G01 X188.5339 Y267.4644
G01 X188.5473 Y267.4192
G01 X188.5583 Y267.3734
G01 X188.5669 Y267.3271
G01 X188.5731 Y267.2804
G01 X188.5768 Y267.2334
G01 X188.5780 Y267.1863
M107
M106 S240
G01 X188.5768 Y267.1392 Z-2.0167 F400
G01 X188.5731 Y267.0922 Z-2.0333
G01 X188.5669 Y267.0455 Z-2.0500
G01 X188.5583 Y266.9992 Z-2.0667
G01 X188.5473 Y266.9534 Z-2.0833
G01 X188.5339 Y266.9082 Z-2.1000
G01 X188.5182 Y266.8638 Z-2.1167
G01 X188.5002 Y266.8202 Z-2.1333
G01 X188.4799 Y266.7777 Z-2.1500
G01 X188.4574 Y266.7363 Z-2.1667
G01 X188.4328 Y266.6961 Z-2.1833
G01 X188.4061 Y266.6573 Z-2.2000
G01 X188.3774 Y266.6199 Z-2.2167
G01 X188.3468 Y266.5841 Z-2.2333
G01 X188.3144 Y266.5499 Z-2.2500
G01 X188.2802 Y266.5175 Z-2.2667
G01 X188.2444 Y266.4869 Z-2.2833
G01 X188.2070 Y266.4582 Z-2.3000
G01 X188.1682 Y266.4315 Z-2.3167
G01 X188.1280 Y266.4069 Z-2.3333
G01 X188.0866 Y266.3844 Z-2.3500
G01 X188.0441 Y266.3641 Z-2.3667
G01 X188.0005 Y266.3461 Z-2.3833
G01 X187.9561 Y266.3303 Z-2.4000
G01 X187.9109 Y266.3170 Z-2.4167
G01 X187.8651 Y266.3060 Z-2.4333
G01 X187.8188 Y266.2974 Z-2.4500
G01 X187.7721 Y266.2912 Z-2.4667
G01 X187.7251 Y266.2875 Z-2.4833
G01 X187.6780 Y266.2863 Z-2.5000
G01 X187.6309 Y266.2875 Z-2.5167
G01 X187.5839 Y266.2912 Z-2.5333
G01 X187.5372 Y266.2974 Z-2.5500
G01 X187.4909 Y266.3060 Z-2.5667
G01 X187.4451 Y266.3170 Z-2.5833
G01 X187.3999 Y266.3303 Z-2.6000
G01 X187.3555 Y266.3461 Z-2.6167
G01 X187.3119 Y266.3641 Z-2.6333
G01 X187.2694 Y266.3844 Z-2.6500
G01 X187.2280 Y266.4069 Z-2.6667
G01 X187.1878 Y266.4315 Z-2.6833
G01 X187.1490 Y266.4582 Z-2.7000
G01 X187.1116 Y266.4869 Z-2.7167
G01 X187.0758 Y266.5175 Z-2.7333
G01 X187.0416 Y266.5499 Z-2.7500
G01 X187.0092 Y266.5841 Z-2.7667
G01 X186.9786 Y266.6199 Z-2.7833
G01 X186.9499 Y266.6573 Z-2.8000
G01 X186.9232 Y266.6961 Z-2.8167
G01 X186.8986 Y266.7363 Z-2.8333
G01 X186.8761 Y266.7777 Z-2.8500
G01 X186.8558 Y266.8202 Z-2.8667
G01 X186.8378 Y266.8638 Z-2.8833
G01 X186.8220 Y266.9082 Z-2.9000
G01 X186.8087 Y266.9534 Z-2.9167
G01 X186.7977 Y266.9992 Z-2.9333
G01 X186.7891 Y267.0455 Z-2.9500
G01 X186.7829 Y267.0922 Z-2.9667
G01 X186.7792 Y267.1392 Z-2.9833
G01 X186.7780 Y267.1863 Z-3.0000
G01 X186.7792 Y267.2334 Z-3.0167
G01 X186.7829 Y267.2804 Z-3.0333
G01 X186.7891 Y267.3271 Z-3.0500
G01 X186.7977 Y267.3734 Z-3.0667
G01 X186.8087 Y267.4192 Z-3.0833
G01 X186.8220 Y267.4644 Z-3.1000
G01 X186.8378 Y267.5088 Z-3.1167
G01 X186.8558 Y267.5524 Z-3.1333
G01 X186.8761 Y267.5949 Z-3.1500
G01 X186.8986 Y267.6363 Z-3.1667
G01 X186.9232 Y267.6765 Z-3.1833
G01 X186.9499 Y267.7153 Z-3.2000
G01 X186.9786 Y267.7527 Z-3.2167
G01 X187.0092 Y267.7885 Z-3.2333
G01 X187.0416 Y267.8227 Z-3.2500
G01 X187.0758 Y267.8551 Z-3.2667
G01 X187.1116 Y267.8857 Z-3.2833
G01 X187.1490 Y267.9144 Z-3.3000
G01 X187.1878 Y267.9411 Z-3.3167
G01 X187.2280 Y267.9657 Z-3.3333
G01 X187.2694 Y267.9882 Z-3.3500
G01 X187.3119 Y268.0085 Z-3.3667
G01 X187.3555 Y268.0265 Z-3.3833
G01 X187.3999 Y268.0422 Z-3.4000
G01 X187.4451 Y268.0556 Z-3.4167
G01 X187.4909 Y268.0666 Z-3.4333
G01 X187.5372 Y268.0752 Z-3.4500
G01 X187.5839 Y268.0814 Z-3.4667
G01 X187.6309 Y268.0851 Z-3.4833
G01 X187.6780 Y268.0863 Z-3.5000
G01 X187.7251 Y268.0851 Z-3.5167
G01 X187.7721 Y268.0814 Z-3.5333
G01 X187.8188 Y268.0752 Z-3.5500
G01 X187.8651 Y268.0666 Z-3.5667
G01 X187.9109 Y268.0556 Z-3.5833
G01 X187.9561 Y268.0422 Z-3.6000
G01 X188.0005 Y268.0265 Z-3.6167
G01 X188.0441 Y268.0085 Z-3.6333
G01 X188.0866 Y267.9882 Z-3.6500
G01 X188.1280 Y267.9657 Z-3.6667
G01 X188.1682 Y267.9411 Z-3.6833
G01 X188.2070 Y267.9144 Z-3.7000
G01 X188.2444 Y267.8857 Z-3.7167
G01 X188.2802 Y267.8551 Z-3.7333
G01 X188.3144 Y267.8227 Z-3.7500
G01 X188.3468 Y267.7885 Z-3.7667
G01 X188.3774 Y267.7527 Z-3.7833
G01 X188.4061 Y267.7153 Z-3.8000
G01 X188.4328 Y267.6765 Z-3.8167
G01 X188.4574 Y267.6363 Z-3.8333
G01 X188.4799 Y267.5949 Z-3.8500
G01 X188.5002 Y267.5524 Z-3.8667
G01 X188.5182 Y267.5088 Z-3.8833
G01 X188.5339 Y267.4644 Z-3.9000
G01 X188.5473 Y267.4192 Z-3.9167
G01 X188.5583 Y267.3734 Z-3.9333
G01 X188.5669 Y267.3271 Z-3.9500
G01 X188.5731 Y267.2804 Z-3.9667
G01 X188.5768 Y267.2334 Z-3.9833
G01 X188.5780 Y267.1863 Z-4.0000
G01 X188.5768 Y267.1392
G01 X188.5731 Y267.0922
G01 X188.5669 Y267.0455
G01 X188.5583 Y266.9992
G01 X188.5473 Y266.9534
G01 X188.5339 Y266.9082
G01 X188.5182 Y266.8638
G01 X188.5002 Y266.8202
G01 X188.4799 Y266.7777
G01 X188.4574 Y266.7363
G01 X188.4328 Y266.6961
G01 X188.4061 Y266.6573
G01 X188.3774 Y266.6199
G01 X188.3468 Y266.5841
G01 X188.3144 Y266.5499
G01 X188.2802 Y266.5175
G01 X188.2444 Y266.4869
G01 X188.2070 Y266.4582
G01 X188.1682 Y266.4315
G01 X188.1280 Y266.4069
G01 X188.0866 Y266.3844
G01 X188.0441 Y266.3641
G01 X188.0005 Y266.3461
G01 X187.9561 Y266.3303
G01 X187.9109 Y266.3170
G01 X187.8651 Y266.3060
G01 X187.8188 Y266.2974
G01 X187.7721 Y266.2912
G01 X187.7251 Y266.2875
G01 X187.6780 Y266.2863
G01 X187.6309 Y266.2875
G01 X187.5839 Y266.2912
G01 X187.5372 Y266.2974
G01 X187.4909 Y266.3060
G01 X187.4451 Y266.3170
G01 X187.3999 Y266.3303
G01 X187.3555 Y266.3461
G01 X187.3119 Y266.3641
G01 X187.2694 Y266.3844
G01 X187.2280 Y266.4069
G01 X187.1878 Y266.4315
G01 X187.1490 Y266.4582
G01 X187.1116 Y266.4869
G01 X187.0758 Y266.5175
G01 X187.0416 Y266.5499
G01 X187.0092 Y266.5841
G01 X186.9786 Y266.6199
G01 X186.9499 Y266.6573
G01 X186.9232 Y266.6961
G01 X186.8986 Y266.7363
G01 X186.8761 Y266.7777
G01 X186.8558 Y266.8202
G01 X186.8378 Y266.8638
G01 X186.8220 Y266.9082
G01 X186.8087 Y266.9534
G01 X186.7977 Y266.9992
G01 X186.7891 Y267.0455
G01 X186.7829 Y267.0922
G01 X186.7792 Y267.1392
G01 X186.7780 Y267.1863
G01 X186.7792 Y267.2334
G01 X186.7829 Y267.2804
G01 X186.7891 Y267.3271
G01 X186.7977 Y267.3734
G01 X186.8087 Y267.4192
G01 X186.8220 Y267.4644
G01 X186.8378 Y267.5088
G01 X186.8558 Y267.5524
G01 X186.8761 Y267.5949
G01 X186.8986 Y267.6363
G01 X186.9232 Y267.6765
G01 X186.9499 Y267.7153
G01 X186.9786 Y267.7527
G01 X187.0092 Y267.7885
G01 X187.0416 Y267.8227
G01 X187.0758 Y267.8551
G01 X187.1116 Y267.8857
G01 X187.1490 Y267.9144
G01 X187.1878 Y267.9411
G01 X187.2280 Y267.9657
G01 X187.2694 Y267.9882
G01 X187.3119 Y268.0085
G01 X187.3555 Y268.0265
G01 X187.3999 Y268.0422
G01 X187.4451 Y268.0556
G01 X187.4909 Y268.0666
G01 X187.5372 Y268.0752
G01 X187.5839 Y268.0814
G01 X187.6309 Y268.0851
G01 X187.6780 Y268.0863
G01 X187.7251 Y268.0851
G01 X187.7721 Y268.0814
G01 X187.8188 Y268.0752
G01 X187.8651 Y268.0666
G01 X187.9109 Y268.0556
G01 X187.9561 Y268.0422
G01 X188.0005 Y268.0265
G01 X188.0441 Y268.0085
G01 X188.0866 Y267.9882
G01 X188.1280 Y267.9657
G01 X188.1682 Y267.9411
G01 X188.2070 Y267.9144
G01 X188.2444 Y267.8857
G01 X188.2802 Y267.8551
G01 X188.3144 Y267.8227
G01 X188.3468 Y267.7885
G01 X188.3774 Y267.7527
G01 X188.4061 Y267.7153
G01 X188.4328 Y267.6765
G01 X188.4574 Y267.6363
G01 X188.4799 Y267.5949
G01 X188.5002 Y267.5524
G01 X188.5182 Y267.5088
G01 X188.5339 Y267.4644
G01 X188.5473 Y267.4192
G01 X188.5583 Y267.3734
G01 X188.5669 Y267.3271
G01 X188.5731 Y267.2804
G01 X188.5768 Y267.2334
G01 X188.5780 Y267.1863
G01 X188.5889 Y267.1396 F1000
G01 X188.5974 Y267.0924
G01 X188.6034 Y267.0449
G01 X188.6069 Y266.9971
G01 X188.6079 Y266.9492
G01 X188.6065 Y266.9013
G01 X188.6025 Y266.8535
G01 X188.5961 Y266.8060
G01 X188.5864 Y266.7545
G01 X188.5741 Y266.7036
G01 X188.5591 Y266.6533
G01 X188.5416 Y266.6039
G01 X188.5216 Y266.5555
G01 X188.4991 Y266.5082
G01 X188.4742 Y266.4621
G01 X188.4470 Y266.4173
G01 X188.4149 Y266.3703
G01 X188.3806 Y266.3250
G01 X188.3439 Y266.2814
G01 X188.3051 Y266.2399
G01 X188.2641 Y266.2003
G01 X188.2213 Y266.1629
G01 X188.1765 Y266.1278
G01 X188.1300 Y266.0950
G01 X188.0781 Y266.0621
G01 X188.0246 Y266.0320
G01 X187.9697 Y266.0046
G01 X187.9134 Y265.9800
G01 X187.8559 Y265.9584
G01 X187.7974 Y265.9397
G01 X187.7381 Y265.9240
G01 X187.6780 Y265.9113
G01 X187.6129 Y265.9010
G01 X187.5473 Y265.8939
G01 X187.4815 Y265.8903
G01 X187.4156 Y265.8899
G01 X187.3497 Y265.8929
G01 X187.2841 Y265.8992
G01 X187.2188 Y265.9088
G01 X187.1542 Y265.9217
G01 X187.0859 Y265.9390
G01 X187.0185 Y265.9597
G01 X186.9523 Y265.9837
G01 X186.8874 Y266.0111
G01 X186.8239 Y266.0417
G01 X186.7620 Y266.0755
G01 X186.7020 Y266.1123
G01 X186.6438 Y266.1521
G01 X186.5903 Y266.2016
G01 X186.5393 Y266.2536
G01 X186.4909 Y266.3080
G01 X186.4453 Y266.3648
G01 X186.4025 Y266.4238
G01 X186.3626 Y266.4848
G01 X186.3258 Y266.5476
G01 X186.2922 Y266.6123
G01 X186.2657 Y266.6810
G01 X186.2426 Y266.7509
G01 X186.2229 Y266.8218
G01 X186.2068 Y266.8937
G01 X186.1942 Y266.9662
G01 X186.1852 Y267.0393
G01 X186.1798 Y267.1127
G01 X186.1780 Y267.1863
G01 X186.1798 Y267.2599
G01 X186.1852 Y267.3333
G01 X186.1942 Y267.4064
G01 X186.2068 Y267.4789
G01 X186.2229 Y267.5508
G01 X186.2426 Y267.6217
G01 X186.2657 Y267.6916
G01 X186.2922 Y267.7603
G01 X186.3220 Y267.8276
G01 X186.3551 Y267.8934
G01 X186.3914 Y267.9574
G01 X186.4308 Y268.0196
G01 X186.4732 Y268.0798
G01 X186.5185 Y268.1379
G01 X186.5666 Y268.1936
G01 X186.6173 Y268.2469
G01 X186.6707 Y268.2977
G01 X186.7264 Y268.3458
G01 X186.7844 Y268.3911
G01 X186.8446 Y268.4335
G01 X186.9068 Y268.4729
G01 X186.9709 Y268.5092
G01 X187.0367 Y268.5423
G01 X187.1040 Y268.5721
G01 X187.1727 Y268.5986
G01 X187.2426 Y268.6217
G01 X187.3135 Y268.6413
G01 X187.3854 Y268.6575
G01 X187.4579 Y268.6701
G01 X187.5310 Y268.6791
G01 X187.6044 Y268.6845
G01 X187.6780 Y268.6863
G01 X187.7516 Y268.6845
G01 X187.8250 Y268.6791
G01 X187.8981 Y268.6701
G01 X187.9706 Y268.6575
G01 X188.0425 Y268.6413
G01 X188.1134 Y268.6217
G01 X188.1833 Y268.5986
G01 X188.2520 Y268.5721
G01 X188.3193 Y268.5423
G01 X188.3851 Y268.5092
G01 X188.4491 Y268.4729
G01 X188.5113 Y268.4335
G01 X188.5715 Y268.3911
G01 X188.6296 Y268.3458
G01 X188.6853 Y268.2977
G01 X188.7386 Y268.2469
G01 X188.7894 Y268.1936
G01 X188.8375 Y268.1379
G01 X188.8828 Y268.0798
G01 X188.9252 Y268.0196
G01 X188.9646 Y267.9574
G01 X189.0009 Y267.8934
G01 X189.0340 Y267.8276
G01 X189.0638 Y267.7603
G01 X189.0903 Y267.6916
G01 X189.1134 Y267.6217
G01 X189.1330 Y267.5508
G01 X189.1492 Y267.4789
G01 X189.1618 Y267.4064
G01 X189.1708 Y267.3333
G01 X189.1762 Y267.2599
G01 X189.1780 Y267.1863
G01 X189.1738 Y267.0742
G01 X189.1612 Y266.9627
G01 X189.1404 Y266.8525
G01 X189.1113 Y266.7442
G01 X189.0743 Y266.6383
G01 X189.0294 Y266.5355
G01 X188.9770 Y266.4363
G01 X188.9173 Y266.3413
G01 X188.8507 Y266.2511
G01 X188.7776 Y266.1660
G01 X188.6982 Y266.0867
G01 X188.6132 Y266.0135
G01 X188.5230 Y265.9469
G01 X188.4280 Y265.8873
G01 X188.3288 Y265.8348
G01 X188.2260 Y265.7900
G01 X188.1201 Y265.7529
G01 X188.0118 Y265.7239
G01 X187.9016 Y265.7030
G01 X187.7901 Y265.6905
G01 X187.6780 Y265.6863
G01 X187.5659 Y265.6905
G01 X187.4544 Y265.7030
G01 X187.3442 Y265.7239
G01 X187.2359 Y265.7529
G01 X187.1300 Y265.7900
G01 X187.0272 Y265.8348
G01 X186.9280 Y265.8873
G01 X186.8330 Y265.9469
G01 X186.7428 Y266.0135
G01 X186.6577 Y266.0867
G01 X186.5784 Y266.1660
G01 X186.5052 Y266.2511
G01 X186.4386 Y266.3413
G01 X186.3790 Y266.4363
G01 X186.3265 Y266.5355
G01 X186.2817 Y266.6383
G01 X186.2446 Y266.7442
G01 X186.2156 Y266.8525
G01 X186.1947 Y266.9627
G01 X186.1822 Y267.0742
G01 X186.1780 Y267.1863
G01 X186.1822 Y267.2984
G01 X186.1947 Y267.4099
G01 X186.2156 Y267.5201
G01 X186.2446 Y267.6284
G01 X186.2817 Y267.7343
G01 X186.3265 Y267.8371
G01 X186.3790 Y267.9363
G01 X186.4386 Y268.0313
G01 X186.5052 Y268.1215
G01 X186.5784 Y268.2065
G01 X186.6577 Y268.2859
G01 X186.7428 Y268.3590
G01 X186.8330 Y268.4256
G01 X186.9280 Y268.4853
G01 X187.0272 Y268.5377
G01 X187.1300 Y268.5826
G01 X187.2359 Y268.6196
G01 X187.3442 Y268.6487
G01 X187.4544 Y268.6695
G01 X187.5659 Y268.6821
G01 X187.6780 Y268.6863
G01 X187.7901 Y268.6821
G01 X187.9016 Y268.6695
G01 X188.0118 Y268.6487
G01 X188.1201 Y268.6196
G01 X188.2260 Y268.5826
G01 X188.3288 Y268.5377
G01 X188.4280 Y268.4853
G01 X188.5230 Y268.4256
G01 X188.6132 Y268.3590
G01 X188.6982 Y268.2859
G01 X188.7776 Y268.2065
G01 X188.8507 Y268.1215
G01 X188.9173 Y268.0313
G01 X188.9770 Y267.9363
G01 X189.0294 Y267.8371
G01 X189.0743 Y267.7343
G01 X189.1113 Y267.6284
G01 X189.1404 Y267.5201
G01 X189.1612 Y267.4099
G01 X189.1738 Y267.2984
G01 X189.1780 Y267.1863
G01 X189.1734 Y267.0817
G01 X189.1598 Y266.9779
G01 X189.1371 Y266.8757
G01 X189.1056 Y266.7759
G01 X189.0656 Y266.6791
G01 X189.0172 Y266.5863
G01 X188.9610 Y266.4980
G01 X188.8972 Y266.4149
G01 X188.8265 Y266.3378
G01 X188.7493 Y266.2670
G01 X188.6663 Y266.2033
G01 X188.5780 Y266.1471
G01 X188.4851 Y266.0987
G01 X188.3884 Y266.0587
G01 X188.2886 Y266.0272
G01 X188.1864 Y266.0045
G01 X188.0826 Y265.9909
G01 X187.9780 Y265.9863
G01 X187.8734 Y265.9909
G01 X187.7696 Y266.0045
G01 X187.6674 Y266.0272
G01 X187.5676 Y266.0587
G01 X187.4708 Y266.0987
G01 X187.3780 Y266.1471
G01 X187.2897 Y266.2033
G01 X187.2066 Y266.2670
G01 X187.1295 Y266.3378
G01 X187.0587 Y266.4149
G01 X186.9950 Y266.4980
G01 X186.9388 Y266.5863
G01 X186.8904 Y266.6791
G01 X186.8504 Y266.7759
G01 X186.8189 Y266.8757
G01 X186.7962 Y266.9779
G01 X186.7826 Y267.0817
G01 X186.7780 Y267.1863
G01 X186.7792 Y267.2334
G01 X186.7829 Y267.2804
G01 X186.7891 Y267.3271
G01 X186.7977 Y267.3734
G01 X186.8087 Y267.4192
G01 X186.8220 Y267.4644
G01 X186.8378 Y267.5088
G01 X186.8558 Y267.5524
G01 X186.8761 Y267.5949
G01 X186.8986 Y267.6363
G01 X186.9232 Y267.6765
G01 X186.9499 Y267.7153
G01 X186.9786 Y267.7527
G01 X187.0092 Y267.7885
G01 X187.0416 Y267.8227
G01 X187.0758 Y267.8551
G01 X187.1116 Y267.8857
G01 X187.1490 Y267.9144
G01 X187.1878 Y267.9411
G01 X187.2280 Y267.9657
G01 X187.2694 Y267.9882
G01 X187.3119 Y268.0085
G01 X187.3555 Y268.0265
G01 X187.3999 Y268.0422
G01 X187.4451 Y268.0556
G01 X187.4909 Y268.0666
G01 X187.5372 Y268.0752
G01 X187.5839 Y268.0814
G01 X187.6309 Y268.0851
G01 X187.6780 Y268.0863
G01 X187.7251 Y268.0851
G01 X187.7721 Y268.0814
G01 X187.8188 Y268.0752
G01 X187.8651 Y268.0666
G01 X187.9109 Y268.0556
G01 X187.9561 Y268.0422
G01 X188.0005 Y268.0265
G01 X188.0441 Y268.0085
G01 X188.0866 Y267.9882
G01 X188.1280 Y267.9657
G01 X188.1682 Y267.9411
G01 X188.2070 Y267.9144
G01 X188.2444 Y267.8857
G01 X188.2802 Y267.8551
G01 X188.3144 Y267.8227
G01 X188.3468 Y267.7885
G01 X188.3774 Y267.7527
G01 X188.4061 Y267.7153
G01 X188.4328 Y267.6765
G01 X188.4574 Y267.6363
G01 X188.4799 Y267.5949
G01 X188.5002 Y267.5524
G01 X188.5182 Y267.5088
G01 X188.5339 Y267.4644
G01 X188.5473 Y267.4192
G01 X188.5583 Y267.3734
G01 X188.5669 Y267.3271
G01 X188.5731 Y267.2804
G01 X188.5768 Y267.2334
G01 X188.5780 Y267.1863
M107
M106 S240
G01 X188.5768 Y267.1392 Z-4.0167 F400
G01 X188.5731 Y267.0922 Z-4.0333
G01 X188.5669 Y267.0455 Z-4.0500
G01 X188.5583 Y266.9992 Z-4.0667
G01 X188.5473 Y266.9534 Z-4.0833
G01 X188.5339 Y266.9082 Z-4.1000
G01 X188.5182 Y266.8638 Z-4.1167
G01 X188.5002 Y266.8202 Z-4.1333
G01 X188.4799 Y266.7777 Z-4.1500
G01 X188.4574 Y266.7363 Z-4.1667
G01 X188.4328 Y266.6961 Z-4.1833
G01 X188.4061 Y266.6573 Z-4.2000
G01 X188.3774 Y266.6199 Z-4.2167
G01 X188.3468 Y266.5841 Z-4.2333
G01 X188.3144 Y266.5499 Z-4.2500
G01 X188.2802 Y266.5175 Z-4.2667
G01 X188.2444 Y266.4869 Z-4.2833
G01 X188.2070 Y266.4582 Z-4.3000
G01 X188.1682 Y266.4315 Z-4.3167
G01 X188.1280 Y266.4069 Z-4.3333
G01 X188.0866 Y266.3844 Z-4.3500
G01 X188.0441 Y266.3641 Z-4.3667
G01 X188.0005 Y266.3461 Z-4.3833
G01 X187.9561 Y266.3303 Z-4.4000
G01 X187.9109 Y266.3170 Z-4.4167
G01 X187.8651 Y266.3060 Z-4.4333
G01 X187.8188 Y266.2974 Z-4.4500
G01 X187.7721 Y266.2912 Z-4.4667
G01 X187.7251 Y266.2875 Z-4.4833
G01 X187.6780 Y266.2863 Z-4.5000
G01 X187.6309 Y266.2875 Z-4.5167
G01 X187.5839 Y266.2912 Z-4.5333
G01 X187.5372 Y266.2974 Z-4.5500
G01 X187.4909 Y266.3060 Z-4.5667
G01 X187.4451 Y266.3170 Z-4.5833
G01 X187.3999 Y266.3303 Z-4.6000
G01 X187.3555 Y266.3461 Z-4.6167
G01 X187.3119 Y266.3641 Z-4.6333
G01 X187.2694 Y266.3844 Z-4.6500
G01 X187.2280 Y266.4069 Z-4.6667
G01 X187.1878 Y266.4315 Z-4.6833
G01 X187.1490 Y266.4582 Z-4.7000
G01 X187.1116 Y266.4869 Z-4.7167
G01 X187.0758 Y266.5175 Z-4.7333
G01 X187.0416 Y266.5499 Z-4.7500
G01 X187.0092 Y266.5841 Z-4.7667
G01 X186.9786 Y266.6199 Z-4.7833
G01 X186.9499 Y266.6573 Z-4.8000
G01 X186.9232 Y266.6961 Z-4.8167
G01 X186.8986 Y266.7363 Z-4.8333
G01 X186.8761 Y266.7777 Z-4.8500
G01 X186.8558 Y266.8202 Z-4.8667
G01 X186.8378 Y266.8638 Z-4.8833
G01 X186.8220 Y266.9082 Z-4.9000
G01 X186.8087 Y266.9534 Z-4.9167
G01 X186.7977 Y266.9992 Z-4.9333
G01 X186.7891 Y267.0455 Z-4.9500
G01 X186.7829 Y267.0922 Z-4.9667
G01 X186.7792 Y267.1392 Z-4.9833
G01 X186.7780 Y267.1863 Z-5.0000
G01 X186.7792 Y267.2334 Z-5.0167
G01 X186.7829 Y267.2804 Z-5.0333
G01 X186.7891 Y267.3271 Z-5.0500
G01 X186.7977 Y267.3734 Z-5.0667
G01 X186.8087 Y267.4192 Z-5.0833
G01 X186.8220 Y267.4644 Z-5.1000
G01 X186.8378 Y267.5088 Z-5.1167
G01 X186.8558 Y267.5524 Z-5.1333
G01 X186.8761 Y267.5949 Z-5.1500
G01 X186.8986 Y267.6363 Z-5.1667
G01 X186.9232 Y267.6765 Z-5.1833
G01 X186.9499 Y267.7153 Z-5.2000
G01 X186.9786 Y267.7527 Z-5.2167
G01 X187.0092 Y267.7885 Z-5.2333
G01 X187.0416 Y267.8227 Z-5.2500
G01 X187.0758 Y267.8551 Z-5.2667
G01 X187.1116 Y267.8857 Z-5.2833
G01 X187.1490 Y267.9144 Z-5.3000
G01 X187.1878 Y267.9411 Z-5.3167
G01 X187.2280 Y267.9657 Z-5.3333
G01 X187.2694 Y267.9882 Z-5.3500
G01 X187.3119 Y268.0085 Z-5.3667
G01 X187.3555 Y268.0265 Z-5.3833
G01 X187.3999 Y268.0422 Z-5.4000
G01 X187.4451 Y268.0556 Z-5.4167
G01 X187.4909 Y268.0666 Z-5.4333
G01 X187.5372 Y268.0752 Z-5.4500
G01 X187.5839 Y268.0814 Z-5.4667
G01 X187.6309 Y268.0851 Z-5.4833
G01 X187.6780 Y268.0863 Z-5.5000
G01 X187.7251 Y268.0851 Z-5.5167
G01 X187.7721 Y268.0814 Z-5.5333
G01 X187.8188 Y268.0752 Z-5.5500
G01 X187.8651 Y268.0666 Z-5.5667
G01 X187.9109 Y268.0556 Z-5.5833
G01 X187.9561 Y268.0422 Z-5.6000
G01 X188.0005 Y268.0265 Z-5.6167
G01 X188.0441 Y268.0085 Z-5.6333
G01 X188.0866 Y267.9882 Z-5.6500
G01 X188.1280 Y267.9657 Z-5.6667
G01 X188.1682 Y267.9411 Z-5.6833
G01 X188.2070 Y267.9144 Z-5.7000
G01 X188.2444 Y267.8857 Z-5.7167
G01 X188.2802 Y267.8551 Z-5.7333
G01 X188.3144 Y267.8227 Z-5.7500
G01 X188.3468 Y267.7885 Z-5.7667
G01 X188.3774 Y267.7527 Z-5.7833
G01 X188.4061 Y267.7153 Z-5.8000
G01 X188.4328 Y267.6765 Z-5.8167
G01 X188.4574 Y267.6363 Z-5.8333
G01 X188.4799 Y267.5949 Z-5.8500
G01 X188.5002 Y267.5524 Z-5.8667
G01 X188.5182 Y267.5088 Z-5.8833
G01 X188.5339 Y267.4644 Z-5.9000
G01 X188.5473 Y267.4192 Z-5.9167
G01 X188.5583 Y267.3734 Z-5.9333
G01 X188.5669 Y267.3271 Z-5.9500
G01 X188.5731 Y267.2804 Z-5.9667
G01 X188.5768 Y267.2334 Z-5.9833
G01 X188.5780 Y267.1863 Z-6.0000
G01 X188.5768 Y267.1392
G01 X188.5731 Y267.0922
G01 X188.5669 Y267.0455
G01 X188.5583 Y266.9992
G01 X188.5473 Y266.9534
G01 X188.5339 Y266.9082
G01 X188.5182 Y266.8638
G01 X188.5002 Y266.8202
G01 X188.4799 Y266.7777
G01 X188.4574 Y266.7363
G01 X188.4328 Y266.6961
G01 X188.4061 Y266.6573
G01 X188.3774 Y266.6199
G01 X188.3468 Y266.5841
G01 X188.3144 Y266.5499
G01 X188.2802 Y266.5175
G01 X188.2444 Y266.4869
G01 X188.2070 Y266.4582
G01 X188.1682 Y266.4315
G01 X188.1280 Y266.4069
G01 X188.0866 Y266.3844
G01 X188.0441 Y266.3641
G01 X188.0005 Y266.3461
G01 X187.9561 Y266.3303
G01 X187.9109 Y266.3170
G01 X187.8651 Y266.3060
G01 X187.8188 Y266.2974
G01 X187.7721 Y266.2912
G01 X187.7251 Y266.2875
G01 X187.6780 Y266.2863
G01 X187.6309 Y266.2875
G01 X187.5839 Y266.2912
G01 X187.5372 Y266.2974
G01 X187.4909 Y266.3060
G01 X187.4451 Y266.3170
G01 X187.3999 Y266.3303
G01 X187.3555 Y266.3461
G01 X187.3119 Y266.3641
G01 X187.2694 Y266.3844
G01 X187.2280 Y266.4069
G01 X187.1878 Y266.4315
G01 X187.1490 Y266.4582
G01 X187.1116 Y266.4869
G01 X187.0758 Y266.5175
G01 X187.0416 Y266.5499
G01 X187.0092 Y266.5841
G01 X186.9786 Y266.6199
G01 X186.9499 Y266.6573
G01 X186.9232 Y266.6961
G01 X186.8986 Y266.7363
G01 X186.8761 Y266.7777
G01 X186.8558 Y266.8202
G01 X186.8378 Y266.8638
G01 X186.8220 Y266.9082
G01 X186.8087 Y266.9534
G01 X186.7977 Y266.9992
G01 X186.7891 Y267.0455
G01 X186.7829 Y267.0922
G01 X186.7792 Y267.1392
G01 X186.7780 Y267.1863
G01 X186.7792 Y267.2334
G01 X186.7829 Y267.2804
G01 X186.7891 Y267.3271
G01 X186.7977 Y267.3734
G01 X186.8087 Y267.4192
G01 X186.8220 Y267.4644
G01 X186.8378 Y267.5088
G01 X186.8558 Y267.5524
G01 X186.8761 Y267.5949
G01 X186.8986 Y267.6363
G01 X186.9232 Y267.6765
G01 X186.9499 Y267.7153
G01 X186.9786 Y267.7527
G01 X187.0092 Y267.7885
G01 X187.0416 Y267.8227
G01 X187.0758 Y267.8551
G01 X187.1116 Y267.8857
G01 X187.1490 Y267.9144
G01 X187.1878 Y267.9411
G01 X187.2280 Y267.9657
G01 X187.2694 Y267.9882
G01 X187.3119 Y268.0085
G01 X187.3555 Y268.0265
G01 X187.3999 Y268.0422
G01 X187.4451 Y268.0556
G01 X187.4909 Y268.0666
G01 X187.5372 Y268.0752
G01 X187.5839 Y268.0814
G01 X187.6309 Y268.0851
G01 X187.6780 Y268.0863
G01 X187.7251 Y268.0851
G01 X187.7721 Y268.0814
G01 X187.8188 Y268.0752
G01 X187.8651 Y268.0666
G01 X187.9109 Y268.0556
G01 X187.9561 Y268.0422
G01 X188.0005 Y268.0265
G01 X188.0441 Y268.0085
G01 X188.0866 Y267.9882
G01 X188.1280 Y267.9657
G01 X188.1682 Y267.9411
G01 X188.2070 Y267.9144
G01 X188.2444 Y267.8857
G01 X188.2802 Y267.8551
G01 X188.3144 Y267.8227
G01 X188.3468 Y267.7885
G01 X188.3774 Y267.7527
G01 X188.4061 Y267.7153
G01 X188.4328 Y267.6765
G01 X188.4574 Y267.6363
G01 X188.4799 Y267.5949
G01 X188.5002 Y267.5524
G01 X188.5182 Y267.5088
G01 X188.5339 Y267.4644
G01 X188.5473 Y267.4192
G01 X188.5583 Y267.3734
G01 X188.5669 Y267.3271
G01 X188.5731 Y267.2804
G01 X188.5768 Y267.2334
G01 X188.5780 Y267.1863
G01 X188.5889 Y267.1396 F1000
G01 X188.5974 Y267.0924
G01 X188.6034 Y267.0449
G01 X188.6069 Y266.9971
G01 X188.6079 Y266.9492
G01 X188.6065 Y266.9013
