;Project TeslaParkingV3_2xSilber
;Created by Estlcam version 11 build 11,236
;Machining time about 00:34:07 hours

G90
M03 S18000
G00 X0.0000 Y0.0000 Z0.0000
G00 Z2.0000


;No. 1: Helical drill 6
G00 X34.6060 Y43.6206
G00 Z0.5000
M106 S240
G01 X34.6050 Y43.5777 Z0.4877 F400 S18000
G01 X34.6019 Y43.5350 Z0.4754
G01 X34.5968 Y43.4925 Z0.4631
G01 X34.5897 Y43.4502 Z0.4508
G01 X34.5806 Y43.4084 Z0.4384
G01 X34.5695 Y43.3670 Z0.4261
G01 X34.5565 Y43.3262 Z0.4138
G01 X34.5415 Y43.2861 Z0.4015
G01 X34.5246 Y43.2467 Z0.3892
G01 X34.5059 Y43.2082 Z0.3769
G01 X34.4854 Y43.1706 Z0.3646
G01 X34.4631 Y43.1340 Z0.3523
G01 X34.4391 Y43.0985 Z0.3400
G01 X34.4134 Y43.0642 Z0.3277
G01 X34.3862 Y43.0312 Z0.3153
G01 X34.3573 Y42.9995 Z0.3030
G01 X34.3271 Y42.9692 Z0.2907
G01 X34.2954 Y42.9404 Z0.2784
G01 X34.2623 Y42.9131 Z0.2661
G01 X34.2280 Y42.8875 Z0.2538
G01 X34.1926 Y42.8634 Z0.2415
G01 X34.1560 Y42.8411 Z0.2292
G01 X34.1184 Y42.8206 Z0.2169
G01 X34.0799 Y42.8019 Z0.2045
G01 X34.0405 Y42.7850 Z0.1922
G01 X34.0003 Y42.7701 Z0.1799
G01 X33.9595 Y42.7570 Z0.1676
G01 X33.9182 Y42.7459 Z0.1553
G01 X33.8763 Y42.7368 Z0.1430
G01 X33.8341 Y42.7297 Z0.1307
G01 X33.7915 Y42.7246 Z0.1184
G01 X33.7488 Y42.7216 Z0.1061
G01 X33.7060 Y42.7206 Z0.0938
G01 X33.6632 Y42.7216 Z0.0814
G01 X33.6204 Y42.7246 Z0.0691
G01 X33.5779 Y42.7297 Z0.0568
G01 X33.5357 Y42.7368 Z0.0445
G01 X33.4938 Y42.7459 Z0.0322
G01 X33.4524 Y42.7570 Z0.0199
G01 X33.4116 Y42.7701 Z0.0076
G01 X33.3715 Y42.7850 Z-0.0047
G01 X33.3321 Y42.8019 Z-0.0170
G01 X33.2936 Y42.8206 Z-0.0294
G01 X33.2560 Y42.8411 Z-0.0417
G01 X33.2194 Y42.8634 Z-0.0540
G01 X33.1839 Y42.8875 Z-0.0663
G01 X33.1496 Y42.9131 Z-0.0786
G01 X33.1166 Y42.9404 Z-0.0909
G01 X33.0849 Y42.9692 Z-0.1032
G01 X33.0546 Y42.9995 Z-0.1155
G01 X33.0258 Y43.0312 Z-0.1278
G01 X32.9985 Y43.0642 Z-0.1402
G01 X32.9729 Y43.0985 Z-0.1525
G01 X32.9489 Y43.1340 Z-0.1648
G01 X32.9266 Y43.1706 Z-0.1771
G01 X32.9060 Y43.2082 Z-0.1894
G01 X32.8873 Y43.2467 Z-0.2017
G01 X32.8704 Y43.2861 Z-0.2140
G01 X32.8555 Y43.3262 Z-0.2263
G01 X32.8424 Y43.3670 Z-0.2386
G01 X32.8314 Y43.4084 Z-0.2509
G01 X32.8222 Y43.4502 Z-0.2633
G01 X32.8151 Y43.4925 Z-0.2756
G01 X32.8101 Y43.5350 Z-0.2879
G01 X32.8070 Y43.5777 Z-0.3002
G01 X32.8060 Y43.6206 Z-0.3125
G01 X32.8070 Y43.6634 Z-0.3248
G01 X32.8101 Y43.7061 Z-0.3371
G01 X32.8151 Y43.7487 Z-0.3494
G01 X32.8222 Y43.7909 Z-0.3617
G01 X32.8314 Y43.8328 Z-0.3741
G01 X32.8424 Y43.8741 Z-0.3864
G01 X32.8555 Y43.9149 Z-0.3987
G01 X32.8704 Y43.9551 Z-0.4110
G01 X32.8873 Y43.9944 Z-0.4233
G01 X32.9060 Y44.0330 Z-0.4356
G01 X32.9266 Y44.0706 Z-0.4479
G01 X32.9489 Y44.1071 Z-0.4602
G01 X32.9729 Y44.1426 Z-0.4725
G01 X32.9985 Y44.1769 Z-0.4848
G01 X33.0258 Y44.2099 Z-0.4972
G01 X33.0546 Y44.2416 Z-0.5095
G01 X33.0849 Y44.2719 Z-0.5218
G01 X33.1166 Y44.3007 Z-0.5341
G01 X33.1496 Y44.3280 Z-0.5464
G01 X33.1839 Y44.3537 Z-0.5587
G01 X33.2194 Y44.3777 Z-0.5710
G01 X33.2560 Y44.4000 Z-0.5833
G01 X33.2936 Y44.4205 Z-0.5956
G01 X33.3321 Y44.4392 Z-0.6080
G01 X33.3715 Y44.4561 Z-0.6203
G01 X33.4116 Y44.4711 Z-0.6326
G01 X33.4524 Y44.4841 Z-0.6449
G01 X33.4938 Y44.4952 Z-0.6572
G01 X33.5357 Y44.5043 Z-0.6695
G01 X33.5779 Y44.5114 Z-0.6818
G01 X33.6204 Y44.5165 Z-0.6941
G01 X33.6632 Y44.5196 Z-0.7064
G01 X33.7060 Y44.5206 Z-0.7188
G01 X33.7488 Y44.5196 Z-0.7311
G01 X33.7915 Y44.5165 Z-0.7434
G01 X33.8341 Y44.5114 Z-0.7557
G01 X33.8763 Y44.5043 Z-0.7680
G01 X33.9182 Y44.4952 Z-0.7803
G01 X33.9595 Y44.4841 Z-0.7926
G01 X34.0003 Y44.4711 Z-0.8049
G01 X34.0405 Y44.4561 Z-0.8172
G01 X34.0799 Y44.4392 Z-0.8295
G01 X34.1184 Y44.4205 Z-0.8419
G01 X34.1560 Y44.4000 Z-0.8542
G01 X34.1926 Y44.3777 Z-0.8665
G01 X34.2280 Y44.3537 Z-0.8788
G01 X34.2623 Y44.3280 Z-0.8911
G01 X34.2954 Y44.3007 Z-0.9034
G01 X34.3271 Y44.2719 Z-0.9157
G01 X34.3573 Y44.2416 Z-0.9280
G01 X34.3862 Y44.2099 Z-0.9403
G01 X34.4134 Y44.1769 Z-0.9527
G01 X34.4391 Y44.1426 Z-0.9650
G01 X34.4631 Y44.1071 Z-0.9773
G01 X34.4854 Y44.0706 Z-0.9896
G01 X34.5059 Y44.0330 Z-1.0019
G01 X34.5246 Y43.9944 Z-1.0142
G01 X34.5415 Y43.9551 Z-1.0265
G01 X34.5565 Y43.9149 Z-1.0388
G01 X34.5695 Y43.8741 Z-1.0511
G01 X34.5806 Y43.8328 Z-1.0634
G01 X34.5897 Y43.7909 Z-1.0758
G01 X34.5968 Y43.7487 Z-1.0881
G01 X34.6019 Y43.7061 Z-1.1004
G01 X34.6050 Y43.6634 Z-1.1127
G01 X34.6060 Y43.6206 Z-1.1250
G01 X34.6050 Y43.5777
G01 X34.6019 Y43.5350
G01 X34.5968 Y43.4925
G01 X34.5897 Y43.4502
G01 X34.5806 Y43.4084
G01 X34.5695 Y43.3670
G01 X34.5565 Y43.3262
G01 X34.5415 Y43.2861
G01 X34.5246 Y43.2467
G01 X34.5059 Y43.2082
G01 X34.4854 Y43.1706
G01 X34.4631 Y43.1340
G01 X34.4391 Y43.0985
G01 X34.4134 Y43.0642
G01 X34.3862 Y43.0312
G01 X34.3573 Y42.9995
G01 X34.3271 Y42.9692
G01 X34.2954 Y42.9404
G01 X34.2623 Y42.9131
G01 X34.2280 Y42.8875
G01 X34.1926 Y42.8634
G01 X34.1560 Y42.8411
G01 X34.1184 Y42.8206
G01 X34.0799 Y42.8019
G01 X34.0405 Y42.7850
G01 X34.0003 Y42.7701
G01 X33.9595 Y42.7570
G01 X33.9182 Y42.7459
G01 X33.8763 Y42.7368
G01 X33.8341 Y42.7297
G01 X33.7915 Y42.7246
G01 X33.7488 Y42.7216
G01 X33.7060 Y42.7206
G01 X33.6632 Y42.7216
G01 X33.6204 Y42.7246
G01 X33.5779 Y42.7297
G01 X33.5357 Y42.7368
G01 X33.4938 Y42.7459
G01 X33.4524 Y42.7570
G01 X33.4116 Y42.7701
G01 X33.3715 Y42.7850
G01 X33.3321 Y42.8019
G01 X33.2936 Y42.8206
G01 X33.2560 Y42.8411
G01 X33.2194 Y42.8634
G01 X33.1839 Y42.8875
G01 X33.1496 Y42.9131
G01 X33.1166 Y42.9404
G01 X33.0849 Y42.9692
G01 X33.0546 Y42.9995
G01 X33.0258 Y43.0312
G01 X32.9985 Y43.0642
G01 X32.9729 Y43.0985
G01 X32.9489 Y43.1340
G01 X32.9266 Y43.1706
G01 X32.9060 Y43.2082
G01 X32.8873 Y43.2467
G01 X32.8704 Y43.2861
G01 X32.8555 Y43.3262
G01 X32.8424 Y43.3670
G01 X32.8314 Y43.4084
G01 X32.8222 Y43.4502
G01 X32.8151 Y43.4925
G01 X32.8101 Y43.5350
G01 X32.8070 Y43.5777
G01 X32.8060 Y43.6206
G01 X32.8070 Y43.6634
G01 X32.8101 Y43.7061
G01 X32.8151 Y43.7487
G01 X32.8222 Y43.7909
G01 X32.8314 Y43.8328
G01 X32.8424 Y43.8741
G01 X32.8555 Y43.9149
G01 X32.8704 Y43.9551
G01 X32.8873 Y43.9944
G01 X32.9060 Y44.0330
G01 X32.9266 Y44.0706
G01 X32.9489 Y44.1071
G01 X32.9729 Y44.1426
G01 X32.9985 Y44.1769
G01 X33.0258 Y44.2099
G01 X33.0546 Y44.2416
G01 X33.0849 Y44.2719
G01 X33.1166 Y44.3007
G01 X33.1496 Y44.3280
G01 X33.1839 Y44.3537
G01 X33.2194 Y44.3777
G01 X33.2560 Y44.4000
G01 X33.2936 Y44.4205
G01 X33.3321 Y44.4392
G01 X33.3715 Y44.4561
G01 X33.4116 Y44.4711
G01 X33.4524 Y44.4841
G01 X33.4938 Y44.4952
G01 X33.5357 Y44.5043
G01 X33.5779 Y44.5114
G01 X33.6204 Y44.5165
G01 X33.6632 Y44.5196
G01 X33.7060 Y44.5206
G01 X33.7488 Y44.5196
G01 X33.7915 Y44.5165
G01 X33.8341 Y44.5114
G01 X33.8763 Y44.5043
G01 X33.9182 Y44.4952
G01 X33.9595 Y44.4841
G01 X34.0003 Y44.4711
G01 X34.0405 Y44.4561
G01 X34.0799 Y44.4392
G01 X34.1184 Y44.4205
G01 X34.1560 Y44.4000
G01 X34.1926 Y44.3777
G01 X34.2280 Y44.3537
G01 X34.2623 Y44.3280
G01 X34.2954 Y44.3007
G01 X34.3271 Y44.2719
G01 X34.3573 Y44.2416
G01 X34.3862 Y44.2099
G01 X34.4134 Y44.1769
G01 X34.4391 Y44.1426
G01 X34.4631 Y44.1071
G01 X34.4854 Y44.0706
G01 X34.5059 Y44.0330
G01 X34.5246 Y43.9944
G01 X34.5415 Y43.9551
G01 X34.5565 Y43.9149
G01 X34.5695 Y43.8741
G01 X34.5806 Y43.8328
G01 X34.5897 Y43.7909
G01 X34.5968 Y43.7487
G01 X34.6019 Y43.7061
G01 X34.6050 Y43.6634
G01 X34.6060 Y43.6206
G01 X34.6135 Y43.5895 F1000
G01 X34.6200 Y43.5582
G01 X34.6254 Y43.5267
G01 X34.6296 Y43.4951
G01 X34.6328 Y43.4633
G01 X34.6349 Y43.4314
G01 X34.6359 Y43.3994
G01 X34.6357 Y43.3675
G01 X34.6345 Y43.3355
G01 X34.6321 Y43.3037
G01 X34.6286 Y43.2719
G01 X34.6241 Y43.2403
G01 X34.6144 Y43.1888
G01 X34.6021 Y43.1378
G01 X34.5871 Y43.0876
G01 X34.5696 Y43.0382
G01 X34.5496 Y42.9898
G01 X34.5271 Y42.9425
G01 X34.5022 Y42.8964
G01 X34.4750 Y42.8516
G01 X34.4429 Y42.8046
G01 X34.4085 Y42.7592
G01 X34.3719 Y42.7157
G01 X34.3330 Y42.6741
G01 X34.2921 Y42.6346
G01 X34.2492 Y42.5972
G01 X34.2045 Y42.5621
G01 X34.1580 Y42.5292
G01 X34.1061 Y42.4964
G01 X34.0526 Y42.4663
G01 X33.9977 Y42.4389
G01 X33.9414 Y42.4143
G01 X33.8839 Y42.3927
G01 X33.8254 Y42.3740
G01 X33.7661 Y42.3582
G01 X33.7060 Y42.3456
G01 X33.6409 Y42.3352
G01 X33.5753 Y42.3282
G01 X33.5095 Y42.3245
G01 X33.4436 Y42.3242
G01 X33.3777 Y42.3272
G01 X33.3121 Y42.3335
G01 X33.2468 Y42.3431
G01 X33.1822 Y42.3560
G01 X33.1139 Y42.3733
G01 X33.0465 Y42.3940
G01 X32.9803 Y42.4180
G01 X32.9153 Y42.4454
G01 X32.8519 Y42.4760
G01 X32.7900 Y42.5098
G01 X32.7300 Y42.5466
G01 X32.6718 Y42.5864
G01 X32.6183 Y42.6359
G01 X32.5673 Y42.6879
G01 X32.5189 Y42.7423
G01 X32.4733 Y42.7991
G01 X32.4305 Y42.8581
G01 X32.3906 Y42.9191
G01 X32.3538 Y42.9819
G01 X32.3202 Y43.0466
G01 X32.2937 Y43.1152
G01 X32.2706 Y43.1852
G01 X32.2510 Y43.2561
G01 X32.2348 Y43.3279
G01 X32.2222 Y43.4005
G01 X32.2132 Y43.4735
G01 X32.2078 Y43.5470
G01 X32.2060 Y43.6206
G01 X32.2078 Y43.6942
G01 X32.2132 Y43.7676
G01 X32.2222 Y43.8407
G01 X32.2348 Y43.9132
G01 X32.2510 Y43.9850
G01 X32.2706 Y44.0560
G01 X32.2937 Y44.1259
G01 X32.3202 Y44.1946
G01 X32.3500 Y44.2619
G01 X32.3831 Y44.3277
G01 X32.4194 Y44.3917
G01 X32.4588 Y44.4539
G01 X32.5012 Y44.5141
G01 X32.5465 Y44.5721
G01 X32.5946 Y44.6279
G01 X32.6453 Y44.6812
G01 X32.6987 Y44.7320
G01 X32.7544 Y44.7801
G01 X32.8124 Y44.8254
G01 X32.8726 Y44.8678
G01 X32.9348 Y44.9071
G01 X32.9989 Y44.9434
G01 X33.0647 Y44.9765
G01 X33.1320 Y45.0064
G01 X33.2007 Y45.0329
G01 X33.2706 Y45.0560
G01 X33.3415 Y45.0756
G01 X33.4134 Y45.0917
G01 X33.4859 Y45.1043
G01 X33.5590 Y45.1133
G01 X33.6324 Y45.1187
G01 X33.7060 Y45.1205
G01 X33.7796 Y45.1187
G01 X33.8530 Y45.1133
G01 X33.9261 Y45.1043
G01 X33.9986 Y45.0917
G01 X34.0704 Y45.0756
G01 X34.1414 Y45.0560
G01 X34.2113 Y45.0329
G01 X34.2800 Y45.0064
G01 X34.3473 Y44.9765
G01 X34.4131 Y44.9434
G01 X34.4771 Y44.9071
G01 X34.5393 Y44.8678
G01 X34.5995 Y44.8254
G01 X34.6576 Y44.7801
G01 X34.7133 Y44.7320
G01 X34.7666 Y44.6812
G01 X34.8174 Y44.6279
G01 X34.8655 Y44.5721
G01 X34.9108 Y44.5141
G01 X34.9532 Y44.4539
G01 X34.9926 Y44.3917
G01 X35.0288 Y44.3277
G01 X35.0619 Y44.2619
G01 X35.0918 Y44.1946
G01 X35.1183 Y44.1259
G01 X35.1414 Y44.0560
G01 X35.1610 Y43.9850
G01 X35.1771 Y43.9132
G01 X35.1897 Y43.8407
G01 X35.1987 Y43.7676
G01 X35.2041 Y43.6942
G01 X35.2060 Y43.6206
G01 X35.2018 Y43.5085
G01 X35.1892 Y43.3970
G01 X35.1683 Y43.2868
G01 X35.1393 Y43.1784
G01 X35.1023 Y43.0726
G01 X35.0574 Y42.9698
G01 X35.0050 Y42.8706
G01 X34.9453 Y42.7756
G01 X34.8787 Y42.6854
G01 X34.8055 Y42.6003
G01 X34.7262 Y42.5210
G01 X34.6412 Y42.4478
G01 X34.5509 Y42.3812
G01 X34.4560 Y42.3216
G01 X34.3568 Y42.2691
G01 X34.2540 Y42.2243
G01 X34.1481 Y42.1872
G01 X34.0398 Y42.1582
G01 X33.9295 Y42.1374
G01 X33.8181 Y42.1248
G01 X33.7060 Y42.1206
G01 X33.5939 Y42.1248
G01 X33.4824 Y42.1374
G01 X33.3722 Y42.1582
G01 X33.2639 Y42.1872
G01 X33.1580 Y42.2243
G01 X33.0552 Y42.2691
G01 X32.9560 Y42.3216
G01 X32.8610 Y42.3812
G01 X32.7708 Y42.4478
G01 X32.6857 Y42.5210
G01 X32.6064 Y42.6003
G01 X32.5333 Y42.6854
G01 X32.4666 Y42.7756
G01 X32.4070 Y42.8706
G01 X32.3546 Y42.9698
G01 X32.3097 Y43.0726
G01 X32.2726 Y43.1784
G01 X32.2436 Y43.2868
G01 X32.2228 Y43.3970
G01 X32.2102 Y43.5085
G01 X32.2060 Y43.6206
G01 X32.2102 Y43.7327
G01 X32.2228 Y43.8441
G01 X32.2436 Y43.9543
G01 X32.2726 Y44.0627
G01 X32.3097 Y44.1686
G01 X32.3546 Y44.2714
G01 X32.4070 Y44.3706
G01 X32.4666 Y44.4655
G01 X32.5333 Y44.5558
G01 X32.6064 Y44.6408
G01 X32.6857 Y44.7201
G01 X32.7708 Y44.7933
G01 X32.8610 Y44.8599
G01 X32.9560 Y44.9196
G01 X33.0552 Y44.9720
G01 X33.1580 Y45.0169
G01 X33.2639 Y45.0539
G01 X33.3722 Y45.0829
G01 X33.4824 Y45.1038
G01 X33.5939 Y45.1164
G01 X33.7060 Y45.1205
G01 X33.8181 Y45.1164
G01 X33.9295 Y45.1038
G01 X34.0398 Y45.0829
G01 X34.1481 Y45.0539
G01 X34.2540 Y45.0169
G01 X34.3568 Y44.9720
G01 X34.4560 Y44.9196
G01 X34.5509 Y44.8599
G01 X34.6412 Y44.7933
G01 X34.7262 Y44.7201
G01 X34.8055 Y44.6408
G01 X34.8787 Y44.5558
G01 X34.9453 Y44.4655
G01 X35.0050 Y44.3706
G01 X35.0574 Y44.2714
G01 X35.1023 Y44.1686
G01 X35.1393 Y44.0627
G01 X35.1683 Y43.9543
G01 X35.1892 Y43.8441
G01 X35.2018 Y43.7327
G01 X35.2060 Y43.6206
G01 X35.2014 Y43.5160
G01 X35.1877 Y43.4122
G01 X35.1651 Y43.3100
G01 X35.1336 Y43.2102
G01 X35.0935 Y43.1134
G01 X35.0452 Y43.0206
G01 X34.9889 Y42.9323
G01 X34.9252 Y42.8492
G01 X34.8545 Y42.7721
G01 X34.7773 Y42.7013
G01 X34.6943 Y42.6376
G01 X34.6060 Y42.5814
G01 X34.5131 Y42.5330
G01 X34.4164 Y42.4930
G01 X34.3165 Y42.4615
G01 X34.2143 Y42.4388
G01 X34.1106 Y42.4252
G01 X34.0060 Y42.4206
G01 X33.9014 Y42.4252
G01 X33.7976 Y42.4388
G01 X33.6954 Y42.4615
G01 X33.5955 Y42.4930
G01 X33.4988 Y42.5330
G01 X33.4060 Y42.5814
G01 X33.3177 Y42.6376
G01 X33.2346 Y42.7013
G01 X33.1574 Y42.7721
G01 X33.0867 Y42.8492
G01 X33.0230 Y42.9323
G01 X32.9667 Y43.0206
G01 X32.9184 Y43.1134
G01 X32.8783 Y43.2102
G01 X32.8469 Y43.3100
G01 X32.8242 Y43.4122
G01 X32.8105 Y43.5160
G01 X32.8060 Y43.6206
G01 X32.8071 Y43.6647
G01 X32.8103 Y43.7088
G01 X32.8157 Y43.7526
G01 X32.8233 Y43.7962
G01 X32.8330 Y43.8393
G01 X32.8447 Y43.8818
G01 X32.8586 Y43.9238
G01 X32.8745 Y43.9650
G01 X32.8924 Y44.0054
G01 X32.9123 Y44.0448
G01 X32.9340 Y44.0833
G01 X32.9577 Y44.1206
G01 X32.9831 Y44.1567
G01 X33.0103 Y44.1915
G01 X33.0391 Y44.2250
G01 X33.0696 Y44.2570
G01 X33.1016 Y44.2874
G01 X33.1350 Y44.3163
G01 X33.1699 Y44.3435
G01 X33.2060 Y44.3689
G01 X33.2433 Y44.3925
G01 X33.2817 Y44.4143
G01 X33.3212 Y44.4342
G01 X33.3616 Y44.4521
G01 X33.4028 Y44.4680
G01 X33.4447 Y44.4818
G01 X33.4873 Y44.4936
G01 X33.5304 Y44.5033
G01 X33.5739 Y44.5108
G01 X33.6178 Y44.5162
G01 X33.6618 Y44.5195
G01 X33.7060 Y44.5206
G01 X33.7501 Y44.5195
G01 X33.7942 Y44.5162
G01 X33.8380 Y44.5108
G01 X33.8816 Y44.5033
G01 X33.9247 Y44.4936
G01 X33.9672 Y44.4818
G01 X34.0092 Y44.4680
G01 X34.0504 Y44.4521
G01 X34.0908 Y44.4342
G01 X34.1302 Y44.4143
G01 X34.1687 Y44.3925
G01 X34.2060 Y44.3689
G01 X34.2421 Y44.3435
G01 X34.2769 Y44.3163
G01 X34.3104 Y44.2874
G01 X34.3424 Y44.2570
G01 X34.3728 Y44.2250
G01 X34.4017 Y44.1915
G01 X34.4289 Y44.1567
G01 X34.4543 Y44.1206
G01 X34.4779 Y44.0833
G01 X34.4997 Y44.0448
G01 X34.5196 Y44.0054
G01 X34.5375 Y43.9650
G01 X34.5534 Y43.9238
G01 X34.5672 Y43.8818
G01 X34.5790 Y43.8393
G01 X34.5887 Y43.7962
G01 X34.5962 Y43.7526
G01 X34.6016 Y43.7088
G01 X34.6049 Y43.6647
G01 X34.6060 Y43.6206
M107
M106 S240
G01 X34.6050 Y43.5777 Z-1.1373 F400
G01 X34.6019 Y43.5350 Z-1.1496
G01 X34.5968 Y43.4925 Z-1.1619
G01 X34.5897 Y43.4502 Z-1.1742
G01 X34.5806 Y43.4084 Z-1.1866
G01 X34.5695 Y43.3670 Z-1.1989
G01 X34.5565 Y43.3262 Z-1.2112
G01 X34.5415 Y43.2861 Z-1.2235
G01 X34.5246 Y43.2467 Z-1.2358
G01 X34.5059 Y43.2082 Z-1.2481
G01 X34.4854 Y43.1706 Z-1.2604
G01 X34.4631 Y43.1340 Z-1.2727
G01 X34.4391 Y43.0985 Z-1.2850
G01 X34.4134 Y43.0642 Z-1.2973
G01 X34.3862 Y43.0312 Z-1.3097
G01 X34.3573 Y42.9995 Z-1.3220
G01 X34.3271 Y42.9692 Z-1.3343
G01 X34.2954 Y42.9404 Z-1.3466
G01 X34.2623 Y42.9131 Z-1.3589
G01 X34.2280 Y42.8875 Z-1.3712
G01 X34.1926 Y42.8634 Z-1.3835
G01 X34.1560 Y42.8411 Z-1.3958
G01 X34.1184 Y42.8206 Z-1.4081
G01 X34.0799 Y42.8019 Z-1.4205
G01 X34.0405 Y42.7850 Z-1.4328
G01 X34.0003 Y42.7701 Z-1.4451
G01 X33.9595 Y42.7570 Z-1.4574
G01 X33.9182 Y42.7459 Z-1.4697
G01 X33.8763 Y42.7368 Z-1.4820
G01 X33.8341 Y42.7297 Z-1.4943
G01 X33.7915 Y42.7246 Z-1.5066
G01 X33.7488 Y42.7216 Z-1.5189
G01 X33.7060 Y42.7206 Z-1.5313
G01 X33.6632 Y42.7216 Z-1.5436
G01 X33.6204 Y42.7246 Z-1.5559
G01 X33.5779 Y42.7297 Z-1.5682
G01 X33.5357 Y42.7368 Z-1.5805
G01 X33.4938 Y42.7459 Z-1.5928
G01 X33.4524 Y42.7570 Z-1.6051
G01 X33.4116 Y42.7701 Z-1.6174
G01 X33.3715 Y42.7850 Z-1.6297
G01 X33.3321 Y42.8019 Z-1.6420
G01 X33.2936 Y42.8206 Z-1.6544
G01 X33.2560 Y42.8411 Z-1.6667
G01 X33.2194 Y42.8634 Z-1.6790
G01 X33.1839 Y42.8875 Z-1.6913
G01 X33.1496 Y42.9131 Z-1.7036
G01 X33.1166 Y42.9404 Z-1.7159
G01 X33.0849 Y42.9692 Z-1.7282
G01 X33.0546 Y42.9995 Z-1.7405
G01 X33.0258 Y43.0312 Z-1.7528
G01 X32.9985 Y43.0642 Z-1.7652
G01 X32.9729 Y43.0985 Z-1.7775
G01 X32.9489 Y43.1340 Z-1.7898
G01 X32.9266 Y43.1706 Z-1.8021
G01 X32.9060 Y43.2082 Z-1.8144
G01 X32.8873 Y43.2467 Z-1.8267
G01 X32.8704 Y43.2861 Z-1.8390
G01 X32.8555 Y43.3262 Z-1.8513
G01 X32.8424 Y43.3670 Z-1.8636
G01 X32.8314 Y43.4084 Z-1.8759
G01 X32.8222 Y43.4502 Z-1.8883
G01 X32.8151 Y43.4925 Z-1.9006
G01 X32.8101 Y43.5350 Z-1.9129
G01 X32.8070 Y43.5777 Z-1.9252
G01 X32.8060 Y43.6206 Z-1.9375
G01 X32.8070 Y43.6634 Z-1.9498
G01 X32.8101 Y43.7061 Z-1.9621
G01 X32.8151 Y43.7487 Z-1.9744
G01 X32.8222 Y43.7909 Z-1.9867
G01 X32.8314 Y43.8328 Z-1.9991
G01 X32.8424 Y43.8741 Z-2.0114
G01 X32.8555 Y43.9149 Z-2.0237
G01 X32.8704 Y43.9551 Z-2.0360
G01 X32.8873 Y43.9944 Z-2.0483
G01 X32.9060 Y44.0330 Z-2.0606
G01 X32.9266 Y44.0706 Z-2.0729
G01 X32.9489 Y44.1071 Z-2.0852
G01 X32.9729 Y44.1426 Z-2.0975
G01 X32.9985 Y44.1769 Z-2.1098
G01 X33.0258 Y44.2099 Z-2.1222
G01 X33.0546 Y44.2416 Z-2.1345
G01 X33.0849 Y44.2719 Z-2.1468
G01 X33.1166 Y44.3007 Z-2.1591
G01 X33.1496 Y44.3280 Z-2.1714
G01 X33.1839 Y44.3537 Z-2.1837
G01 X33.2194 Y44.3777 Z-2.1960
G01 X33.2560 Y44.4000 Z-2.2083
G01 X33.2936 Y44.4205 Z-2.2206
G01 X33.3321 Y44.4392 Z-2.2330
G01 X33.3715 Y44.4561 Z-2.2453
G01 X33.4116 Y44.4711 Z-2.2576
G01 X33.4524 Y44.4841 Z-2.2699
G01 X33.4938 Y44.4952 Z-2.2822
G01 X33.5357 Y44.5043 Z-2.2945
G01 X33.5779 Y44.5114 Z-2.3068
G01 X33.6204 Y44.5165 Z-2.3191
G01 X33.6632 Y44.5196 Z-2.3314
G01 X33.7060 Y44.5206 Z-2.3438
G01 X33.7488 Y44.5196 Z-2.3561
G01 X33.7915 Y44.5165 Z-2.3684
G01 X33.8341 Y44.5114 Z-2.3807
G01 X33.8763 Y44.5043 Z-2.3930
G01 X33.9182 Y44.4952 Z-2.4053
G01 X33.9595 Y44.4841 Z-2.4176
G01 X34.0003 Y44.4711 Z-2.4299
G01 X34.0405 Y44.4561 Z-2.4422
G01 X34.0799 Y44.4392 Z-2.4545
G01 X34.1184 Y44.4205 Z-2.4669
G01 X34.1560 Y44.4000 Z-2.4792
G01 X34.1926 Y44.3777 Z-2.4915
G01 X34.2280 Y44.3537 Z-2.5038
G01 X34.2623 Y44.3280 Z-2.5161
G01 X34.2954 Y44.3007 Z-2.5284
G01 X34.3271 Y44.2719 Z-2.5407
G01 X34.3573 Y44.2416 Z-2.5530
G01 X34.3862 Y44.2099 Z-2.5653
G01 X34.4134 Y44.1769 Z-2.5777
G01 X34.4391 Y44.1426 Z-2.5900
G01 X34.4631 Y44.1071 Z-2.6023
G01 X34.4854 Y44.0706 Z-2.6146
G01 X34.5059 Y44.0330 Z-2.6269
G01 X34.5246 Y43.9944 Z-2.6392
G01 X34.5415 Y43.9551 Z-2.6515
G01 X34.5565 Y43.9149 Z-2.6638
G01 X34.5695 Y43.8741 Z-2.6761
G01 X34.5806 Y43.8328 Z-2.6884
G01 X34.5897 Y43.7909 Z-2.7008
G01 X34.5968 Y43.7487 Z-2.7131
G01 X34.6019 Y43.7061 Z-2.7254
G01 X34.6050 Y43.6634 Z-2.7377
G01 X34.6060 Y43.6206 Z-2.7500
G01 X34.6050 Y43.5777
G01 X34.6019 Y43.5350
G01 X34.5968 Y43.4925
G01 X34.5897 Y43.4502
G01 X34.5806 Y43.4084
G01 X34.5695 Y43.3670
G01 X34.5565 Y43.3262
G01 X34.5415 Y43.2861
G01 X34.5246 Y43.2467
G01 X34.5059 Y43.2082
G01 X34.4854 Y43.1706
G01 X34.4631 Y43.1340
G01 X34.4391 Y43.0985
G01 X34.4134 Y43.0642
G01 X34.3862 Y43.0312
G01 X34.3573 Y42.9995
G01 X34.3271 Y42.9692
G01 X34.2954 Y42.9404
G01 X34.2623 Y42.9131
G01 X34.2280 Y42.8875
G01 X34.1926 Y42.8634
G01 X34.1560 Y42.8411
G01 X34.1184 Y42.8206
G01 X34.0799 Y42.8019
G01 X34.0405 Y42.7850
G01 X34.0003 Y42.7701
G01 X33.9595 Y42.7570
G01 X33.9182 Y42.7459
G01 X33.8763 Y42.7368
G01 X33.8341 Y42.7297
G01 X33.7915 Y42.7246
G01 X33.7488 Y42.7216
G01 X33.7060 Y42.7206
G01 X33.6632 Y42.7216
G01 X33.6204 Y42.7246
G01 X33.5779 Y42.7297
G01 X33.5357 Y42.7368
G01 X33.4938 Y42.7459
G01 X33.4524 Y42.7570
G01 X33.4116 Y42.7701
G01 X33.3715 Y42.7850
G01 X33.3321 Y42.8019
G01 X33.2936 Y42.8206
G01 X33.2560 Y42.8411
G01 X33.2194 Y42.8634
G01 X33.1839 Y42.8875
G01 X33.1496 Y42.9131
G01 X33.1166 Y42.9404
G01 X33.0849 Y42.9692
G01 X33.0546 Y42.9995
G01 X33.0258 Y43.0312
G01 X32.9985 Y43.0642
G01 X32.9729 Y43.0985
G01 X32.9489 Y43.1340
G01 X32.9266 Y43.1706
G01 X32.9060 Y43.2082
G01 X32.8873 Y43.2467
G01 X32.8704 Y43.2861
G01 X32.8555 Y43.3262
G01 X32.8424 Y43.3670
G01 X32.8314 Y43.4084
G01 X32.8222 Y43.4502
G01 X32.8151 Y43.4925
G01 X32.8101 Y43.5350
G01 X32.8070 Y43.5777
G01 X32.8060 Y43.6206
G01 X32.8070 Y43.6634
G01 X32.8101 Y43.7061
G01 X32.8151 Y43.7487
G01 X32.8222 Y43.7909
G01 X32.8314 Y43.8328
G01 X32.8424 Y43.8741
G01 X32.8555 Y43.9149
G01 X32.8704 Y43.9551
G01 X32.8873 Y43.9944
G01 X32.9060 Y44.0330
G01 X32.9266 Y44.0706
G01 X32.9489 Y44.1071
G01 X32.9729 Y44.1426
G01 X32.9985 Y44.1769
G01 X33.0258 Y44.2099
G01 X33.0546 Y44.2416
G01 X33.0849 Y44.2719
G01 X33.1166 Y44.3007
G01 X33.1496 Y44.3280
G01 X33.1839 Y44.3537
G01 X33.2194 Y44.3777
G01 X33.2560 Y44.4000
G01 X33.2936 Y44.4205
G01 X33.3321 Y44.4392
G01 X33.3715 Y44.4561
G01 X33.4116 Y44.4711
G01 X33.4524 Y44.4841
G01 X33.4938 Y44.4952
G01 X33.5357 Y44.5043
G01 X33.5779 Y44.5114
G01 X33.6204 Y44.5165
G01 X33.6632 Y44.5196
G01 X33.7060 Y44.5206
G01 X33.7488 Y44.5196
G01 X33.7915 Y44.5165
G01 X33.8341 Y44.5114
G01 X33.8763 Y44.5043
G01 X33.9182 Y44.4952
G01 X33.9595 Y44.4841
G01 X34.0003 Y44.4711
G01 X34.0405 Y44.4561
G01 X34.0799 Y44.4392
G01 X34.1184 Y44.4205
G01 X34.1560 Y44.4000
G01 X34.1926 Y44.3777
G01 X34.2280 Y44.3537
G01 X34.2623 Y44.3280
G01 X34.2954 Y44.3007
G01 X34.3271 Y44.2719
G01 X34.3573 Y44.2416
G01 X34.3862 Y44.2099
G01 X34.4134 Y44.1769
G01 X34.4391 Y44.1426
G01 X34.4631 Y44.1071
G01 X34.4854 Y44.0706
G01 X34.5059 Y44.0330
G01 X34.5246 Y43.9944
G01 X34.5415 Y43.9551
G01 X34.5565 Y43.9149
G01 X34.5695 Y43.8741
G01 X34.5806 Y43.8328
G01 X34.5897 Y43.7909
G01 X34.5968 Y43.7487
G01 X34.6019 Y43.7061
G01 X34.6050 Y43.6634
G01 X34.6060 Y43.6206
G01 X34.6135 Y43.5895 F1000
G01 X34.6200 Y43.5582
G01 X34.6254 Y43.5267
G01 X34.6296 Y43.4951
G01 X34.6328 Y43.4633
G01 X34.6349 Y43.4314
G01 X34.6359 Y43.3994
G01 X34.6357 Y43.3675
G01 X34.6345 Y43.3355
G01 X34.6321 Y43.3037
G01 X34.6286 Y43.2719
G01 X34.6241 Y43.2403
G01 X34.6144 Y43.1888
G01 X34.6021 Y43.1378
G01 X34.5871 Y43.0876
G01 X34.5696 Y43.0382
G01 X34.5496 Y42.9898
G01 X34.5271 Y42.9425
G01 X34.5022 Y42.8964
G01 X34.4750 Y42.8516
G01 X34.4429 Y42.8046
G01 X34.4085 Y42.7592
G01 X34.3719 Y42.7157
G01 X34.3330 Y42.6741
G01 X34.2921 Y42.6346
G01 X34.2492 Y42.5972
G01 X34.2045 Y42.5621
G01 X34.1580 Y42.5292
G01 X34.1061 Y42.4964
G01 X34.0526 Y42.4663
G01 X33.9977 Y42.4389
G01 X33.9414 Y42.4143
G01 X33.8839 Y42.3927
G01 X33.8254 Y42.3740
G01 X33.7661 Y42.3582
G01 X33.7060 Y42.3456
G01 X33.6409 Y42.3352
G01 X33.5753 Y42.3282
G01 X33.5095 Y42.3245
G01 X33.4436 Y42.3242
G01 X33.3777 Y42.3272
G01 X33.3121 Y42.3335
G01 X33.2468 Y42.3431
G01 X33.1822 Y42.3560
G01 X33.1139 Y42.3733
G01 X33.0465 Y42.3940
G01 X32.9803 Y42.4180
G01 X32.9153 Y42.4454
G01 X32.8519 Y42.4760
G01 X32.7900 Y42.5098
G01 X32.7300 Y42.5466
G01 X32.6718 Y42.5864
G01 X32.6183 Y42.6359
G01 X32.5673 Y42.6879
G01 X32.5189 Y42.7423
G01 X32.4733 Y42.7991
G01 X32.4305 Y42.8581
G01 X32.3906 Y42.9191
G01 X32.3538 Y42.9819
G01 X32.3202 Y43.0466
G01 X32.2937 Y43.1152
G01 X32.2706 Y43.1852
G01 X32.2510 Y43.2561
G01 X32.2348 Y43.3279
G01 X32.2222 Y43.4005
G01 X32.2132 Y43.4735
G01 X32.2078 Y43.5470
G01 X32.2060 Y43.6206
G01 X32.2078 Y43.6942
G01 X32.2132 Y43.7676
G01 X32.2222 Y43.8407
G01 X32.2348 Y43.9132
G01 X32.2510 Y43.9850
G01 X32.2706 Y44.0560
G01 X32.2937 Y44.1259
G01 X32.3202 Y44.1946
G01 X32.3500 Y44.2619
G01 X32.3831 Y44.3277
G01 X32.4194 Y44.3917
G01 X32.4588 Y44.4539
G01 X32.5012 Y44.5141
G01 X32.5465 Y44.5721
G01 X32.5946 Y44.6279
G01 X32.6453 Y44.6812
G01 X32.6987 Y44.7320
G01 X32.7544 Y44.7801
G01 X32.8124 Y44.8254
G01 X32.8726 Y44.8678
G01 X32.9348 Y44.9071
G01 X32.9989 Y44.9434
G01 X33.0647 Y44.9765
G01 X33.1320 Y45.0064
G01 X33.2007 Y45.0329
G01 X33.2706 Y45.0560
G01 X33.3415 Y45.0756
G01 X33.4134 Y45.0917
G01 X33.4859 Y45.1043
G01 X33.5590 Y45.1133
G01 X33.6324 Y45.1187
G01 X33.7060 Y45.1205
G01 X33.7796 Y45.1187
G01 X33.8530 Y45.1133
G01 X33.9261 Y45.1043
G01 X33.9986 Y45.0917
G01 X34.0704 Y45.0756
G01 X34.1414 Y45.0560
G01 X34.2113 Y45.0329
G01 X34.2800 Y45.0064
G01 X34.3473 Y44.9765
G01 X34.4131 Y44.9434
G01 X34.4771 Y44.9071
G01 X34.5393 Y44.8678
G01 X34.5995 Y44.8254
G01 X34.6576 Y44.7801
G01 X34.7133 Y44.7320
G01 X34.7666 Y44.6812
G01 X34.8174 Y44.6279
G01 X34.8655 Y44.5721
G01 X34.9108 Y44.5141
G01 X34.9532 Y44.4539
G01 X34.9926 Y44.3917
G01 X35.0288 Y44.3277
G01 X35.0619 Y44.2619
G01 X35.0918 Y44.1946
G01 X35.1183 Y44.1259
G01 X35.1414 Y44.0560
G01 X35.1610 Y43.9850
G01 X35.1771 Y43.9132
G01 X35.1897 Y43.8407
G01 X35.1987 Y43.7676
G01 X35.2041 Y43.6942
G01 X35.2060 Y43.6206
G01 X35.2018 Y43.5085
G01 X35.1892 Y43.3970
G01 X35.1683 Y43.2868
G01 X35.1393 Y43.1784
G01 X35.1023 Y43.0726
G01 X35.0574 Y42.9698
G01 X35.0050 Y42.8706
G01 X34.9453 Y42.7756
G01 X34.8787 Y42.6854
G01 X34.8055 Y42.6003
G01 X34.7262 Y42.5210
G01 X34.6412 Y42.4478
G01 X34.5509 Y42.3812
G01 X34.4560 Y42.3216
G01 X34.3568 Y42.2691
G01 X34.2540 Y42.2243
G01 X34.1481 Y42.1872
G01 X34.0398 Y42.1582
G01 X33.9295 Y42.1374
G01 X33.8181 Y42.1248
G01 X33.7060 Y42.1206
G01 X33.5939 Y42.1248
G01 X33.4824 Y42.1374
G01 X33.3722 Y42.1582
G01 X33.2639 Y42.1872
G01 X33.1580 Y42.2243
G01 X33.0552 Y42.2691
G01 X32.9560 Y42.3216
G01 X32.8610 Y42.3812
G01 X32.7708 Y42.4478
G01 X32.6857 Y42.5210
G01 X32.6064 Y42.6003
G01 X32.5333 Y42.6854
G01 X32.4666 Y42.7756
G01 X32.4070 Y42.8706
G01 X32.3546 Y42.9698
G01 X32.3097 Y43.0726
G01 X32.2726 Y43.1784
G01 X32.2436 Y43.2868
G01 X32.2228 Y43.3970
G01 X32.2102 Y43.5085
G01 X32.2060 Y43.6206
G01 X32.2102 Y43.7327
G01 X32.2228 Y43.8441
G01 X32.2436 Y43.9543
G01 X32.2726 Y44.0627
G01 X32.3097 Y44.1686
G01 X32.3546 Y44.2714
G01 X32.4070 Y44.3706
G01 X32.4666 Y44.4655
G01 X32.5333 Y44.5558
G01 X32.6064 Y44.6408
G01 X32.6857 Y44.7201
G01 X32.7708 Y44.7933
G01 X32.8610 Y44.8599
G01 X32.9560 Y44.9196
G01 X33.0552 Y44.9720
G01 X33.1580 Y45.0169
G01 X33.2639 Y45.0539
G01 X33.3722 Y45.0829
G01 X33.4824 Y45.1038
G01 X33.5939 Y45.1164
G01 X33.7060 Y45.1205
G01 X33.8181 Y45.1164
G01 X33.9295 Y45.1038
G01 X34.0398 Y45.0829
G01 X34.1481 Y45.0539
G01 X34.2540 Y45.0169
G01 X34.3568 Y44.9720
G01 X34.4560 Y44.9196
G01 X34.5509 Y44.8599
G01 X34.6412 Y44.7933
G01 X34.7262 Y44.7201
G01 X34.8055 Y44.6408
G01 X34.8787 Y44.5558
G01 X34.9453 Y44.4655
G01 X35.0050 Y44.3706
G01 X35.0574 Y44.2714
G01 X35.1023 Y44.1686
G01 X35.1393 Y44.0627
G01 X35.1683 Y43.9543
G01 X35.1892 Y43.8441
G01 X35.2018 Y43.7327
G01 X35.2060 Y43.6206
G01 X35.2014 Y43.5160
G01 X35.1877 Y43.4122
G01 X35.1651 Y43.3100
G01 X35.1336 Y43.2102
G01 X35.0935 Y43.1134
G01 X35.0452 Y43.0206
G01 X34.9889 Y42.9323
G01 X34.9252 Y42.8492
G01 X34.8545 Y42.7721
G01 X34.7773 Y42.7013
G01 X34.6943 Y42.6376
G01 X34.6060 Y42.5814
G01 X34.5131 Y42.5330
G01 X34.4164 Y42.4930
G01 X34.3165 Y42.4615
G01 X34.2143 Y42.4388
G01 X34.1106 Y42.4252
G01 X34.0060 Y42.4206
G01 X33.9014 Y42.4252
G01 X33.7976 Y42.4388
G01 X33.6954 Y42.4615
G01 X33.5955 Y42.4930
G01 X33.4988 Y42.5330
G01 X33.4060 Y42.5814
G01 X33.3177 Y42.6376
G01 X33.2346 Y42.7013
G01 X33.1574 Y42.7721
G01 X33.0867 Y42.8492
G01 X33.0230 Y42.9323
G01 X32.9667 Y43.0206
G01 X32.9184 Y43.1134
G01 X32.8783 Y43.2102
G01 X32.8469 Y43.3100
G01 X32.8242 Y43.4122
G01 X32.8105 Y43.5160
G01 X32.8060 Y43.6206
G01 X32.8071 Y43.6647
G01 X32.8103 Y43.7088
G01 X32.8157 Y43.7526
G01 X32.8233 Y43.7962
G01 X32.8330 Y43.8393
G01 X32.8447 Y43.8818
G01 X32.8586 Y43.9238
G01 X32.8745 Y43.9650
G01 X32.8924 Y44.0054
G01 X32.9123 Y44.0448
G01 X32.9340 Y44.0833
G01 X32.9577 Y44.1206
G01 X32.9831 Y44.1567
G01 X33.0103 Y44.1915
G01 X33.0391 Y44.2250
G01 X33.0696 Y44.2570
G01 X33.1016 Y44.2874
G01 X33.1350 Y44.3163
G01 X33.1699 Y44.3435
G01 X33.2060 Y44.3689
G01 X33.2433 Y44.3925
G01 X33.2817 Y44.4143
G01 X33.3212 Y44.4342
G01 X33.3616 Y44.4521
G01 X33.4028 Y44.4680
G01 X33.4447 Y44.4818
G01 X33.4873 Y44.4936
G01 X33.5304 Y44.5033
G01 X33.5739 Y44.5108
G01 X33.6178 Y44.5162
G01 X33.6618 Y44.5195
G01 X33.7060 Y44.5206
G01 X33.7501 Y44.5195
G01 X33.7942 Y44.5162
G01 X33.8380 Y44.5108
G01 X33.8816 Y44.5033
G01 X33.9247 Y44.4936
G01 X33.9672 Y44.4818
G01 X34.0092 Y44.4680
G01 X34.0504 Y44.4521
G01 X34.0908 Y44.4342
G01 X34.1302 Y44.4143
G01 X34.1687 Y44.3925
G01 X34.2060 Y44.3689
G01 X34.2421 Y44.3435
G01 X34.2769 Y44.3163
G01 X34.3104 Y44.2874
G01 X34.3424 Y44.2570
G01 X34.3728 Y44.2250
G01 X34.4017 Y44.1915
G01 X34.4289 Y44.1567
G01 X34.4543 Y44.1206
G01 X34.4779 Y44.0833
G01 X34.4997 Y44.0448
G01 X34.5196 Y44.0054
G01 X34.5375 Y43.9650
G01 X34.5534 Y43.9238
G01 X34.5672 Y43.8818
G01 X34.5790 Y43.8393
G01 X34.5887 Y43.7962
G01 X34.5962 Y43.7526
G01 X34.6016 Y43.7088
G01 X34.6049 Y43.6647
G01 X34.6060 Y43.6206
M107
M106 S240
G01 X34.6050 Y43.5777 Z-2.7623 F400
G01 X34.6019 Y43.5350 Z-2.7746
G01 X34.5968 Y43.4925 Z-2.7869
G01 X34.5897 Y43.4502 Z-2.7992
G01 X34.5806 Y43.4084 Z-2.8116
G01 X34.5695 Y43.3670 Z-2.8239
G01 X34.5565 Y43.3262 Z-2.8362
G01 X34.5415 Y43.2861 Z-2.8485
G01 X34.5246 Y43.2467 Z-2.8608
G01 X34.5059 Y43.2082 Z-2.8731
G01 X34.4854 Y43.1706 Z-2.8854
G01 X34.4631 Y43.1340 Z-2.8977
G01 X34.4391 Y43.0985 Z-2.9100
G01 X34.4134 Y43.0642 Z-2.9223
G01 X34.3862 Y43.0312 Z-2.9347
G01 X34.3573 Y42.9995 Z-2.9470
G01 X34.3271 Y42.9692 Z-2.9593
G01 X34.2954 Y42.9404 Z-2.9716
G01 X34.2623 Y42.9131 Z-2.9839
G01 X34.2280 Y42.8875 Z-2.9962
G01 X34.1926 Y42.8634 Z-3.0085
G01 X34.1560 Y42.8411 Z-3.0208
G01 X34.1184 Y42.8206 Z-3.0331
G01 X34.0799 Y42.8019 Z-3.0455
G01 X34.0405 Y42.7850 Z-3.0578
G01 X34.0003 Y42.7701 Z-3.0701
G01 X33.9595 Y42.7570 Z-3.0824
G01 X33.9182 Y42.7459 Z-3.0947
G01 X33.8763 Y42.7368 Z-3.1070
G01 X33.8341 Y42.7297 Z-3.1193
G01 X33.7915 Y42.7246 Z-3.1316
G01 X33.7488 Y42.7216 Z-3.1439
G01 X33.7060 Y42.7206 Z-3.1563
G01 X33.6632 Y42.7216 Z-3.1686
G01 X33.6204 Y42.7246 Z-3.1809
G01 X33.5779 Y42.7297 Z-3.1932
G01 X33.5357 Y42.7368 Z-3.2055
G01 X33.4938 Y42.7459 Z-3.2178
G01 X33.4524 Y42.7570 Z-3.2301
G01 X33.4116 Y42.7701 Z-3.2424
G01 X33.3715 Y42.7850 Z-3.2547
G01 X33.3321 Y42.8019 Z-3.2670
G01 X33.2936 Y42.8206 Z-3.2794
G01 X33.2560 Y42.8411 Z-3.2917
G01 X33.2194 Y42.8634 Z-3.3040
G01 X33.1839 Y42.8875 Z-3.3163
G01 X33.1496 Y42.9131 Z-3.3286
G01 X33.1166 Y42.9404 Z-3.3409
G01 X33.0849 Y42.9692 Z-3.3532
G01 X33.0546 Y42.9995 Z-3.3655
G01 X33.0258 Y43.0312 Z-3.3778
G01 X32.9985 Y43.0642 Z-3.3902
G01 X32.9729 Y43.0985 Z-3.4025
G01 X32.9489 Y43.1340 Z-3.4148
G01 X32.9266 Y43.1706 Z-3.4271
G01 X32.9060 Y43.2082 Z-3.4394
G01 X32.8873 Y43.2467 Z-3.4517
G01 X32.8704 Y43.2861 Z-3.4640
G01 X32.8555 Y43.3262 Z-3.4763
G01 X32.8424 Y43.3670 Z-3.4886
G01 X32.8314 Y43.4084 Z-3.5009
G01 X32.8222 Y43.4502 Z-3.5133
G01 X32.8151 Y43.4925 Z-3.5256
G01 X32.8101 Y43.5350 Z-3.5379
G01 X32.8070 Y43.5777 Z-3.5502
G01 X32.8060 Y43.6206 Z-3.5625
G01 X32.8070 Y43.6634 Z-3.5748
G01 X32.8101 Y43.7061 Z-3.5871
G01 X32.8151 Y43.7487 Z-3.5994
G01 X32.8222 Y43.7909 Z-3.6117
G01 X32.8314 Y43.8328 Z-3.6241
G01 X32.8424 Y43.8741 Z-3.6364
G01 X32.8555 Y43.9149 Z-3.6487
G01 X32.8704 Y43.9551 Z-3.6610
G01 X32.8873 Y43.9944 Z-3.6733
G01 X32.9060 Y44.0330 Z-3.6856
G01 X32.9266 Y44.0706 Z-3.6979
G01 X32.9489 Y44.1071 Z-3.7102
G01 X32.9729 Y44.1426 Z-3.7225
G01 X32.9985 Y44.1769 Z-3.7348
G01 X33.0258 Y44.2099 Z-3.7472
G01 X33.0546 Y44.2416 Z-3.7595
G01 X33.0849 Y44.2719 Z-3.7718
G01 X33.1166 Y44.3007 Z-3.7841
G01 X33.1496 Y44.3280 Z-3.7964
G01 X33.1839 Y44.3537 Z-3.8087
G01 X33.2194 Y44.3777 Z-3.8210
G01 X33.2560 Y44.4000 Z-3.8333
G01 X33.2936 Y44.4205 Z-3.8456
G01 X33.3321 Y44.4392 Z-3.8580
G01 X33.3715 Y44.4561 Z-3.8703
G01 X33.4116 Y44.4711 Z-3.8826
G01 X33.4524 Y44.4841 Z-3.8949
G01 X33.4938 Y44.4952 Z-3.9072
G01 X33.5357 Y44.5043 Z-3.9195
G01 X33.5779 Y44.5114 Z-3.9318
G01 X33.6204 Y44.5165 Z-3.9441
G01 X33.6632 Y44.5196 Z-3.9564
G01 X33.7060 Y44.5206 Z-3.9688
G01 X33.7488 Y44.5196 Z-3.9811
G01 X33.7915 Y44.5165 Z-3.9934
G01 X33.8341 Y44.5114 Z-4.0057
G01 X33.8763 Y44.5043 Z-4.0180
G01 X33.9182 Y44.4952 Z-4.0303
G01 X33.9595 Y44.4841 Z-4.0426
G01 X34.0003 Y44.4711 Z-4.0549
G01 X34.0405 Y44.4561 Z-4.0672
G01 X34.0799 Y44.4392 Z-4.0795
G01 X34.1184 Y44.4205 Z-4.0919
G01 X34.1560 Y44.4000 Z-4.1042
G01 X34.1926 Y44.3777 Z-4.1165
G01 X34.2280 Y44.3537 Z-4.1288
G01 X34.2623 Y44.3280 Z-4.1411
G01 X34.2954 Y44.3007 Z-4.1534
G01 X34.3271 Y44.2719 Z-4.1657
G01 X34.3573 Y44.2416 Z-4.1780
G01 X34.3862 Y44.2099 Z-4.1903
G01 X34.4134 Y44.1769 Z-4.2027
G01 X34.4391 Y44.1426 Z-4.2150
G01 X34.4631 Y44.1071 Z-4.2273
G01 X34.4854 Y44.0706 Z-4.2396
G01 X34.5059 Y44.0330 Z-4.2519
G01 X34.5246 Y43.9944 Z-4.2642
G01 X34.5415 Y43.9551 Z-4.2765
G01 X34.5565 Y43.9149 Z-4.2888
G01 X34.5695 Y43.8741 Z-4.3011
G01 X34.5806 Y43.8328 Z-4.3134
G01 X34.5897 Y43.7909 Z-4.3258
G01 X34.5968 Y43.7487 Z-4.3381
G01 X34.6019 Y43.7061 Z-4.3504
G01 X34.6050 Y43.6634 Z-4.3627
G01 X34.6060 Y43.6206 Z-4.3750
G01 X34.6050 Y43.5777
G01 X34.6019 Y43.5350
G01 X34.5968 Y43.4925
G01 X34.5897 Y43.4502
G01 X34.5806 Y43.4084
G01 X34.5695 Y43.3670
G01 X34.5565 Y43.3262
G01 X34.5415 Y43.2861
G01 X34.5246 Y43.2467
G01 X34.5059 Y43.2082
G01 X34.4854 Y43.1706
G01 X34.4631 Y43.1340
G01 X34.4391 Y43.0985
G01 X34.4134 Y43.0642
G01 X34.3862 Y43.0312
G01 X34.3573 Y42.9995
G01 X34.3271 Y42.9692
G01 X34.2954 Y42.9404
G01 X34.2623 Y42.9131
G01 X34.2280 Y42.8875
G01 X34.1926 Y42.8634
G01 X34.1560 Y42.8411
G01 X34.1184 Y42.8206
G01 X34.0799 Y42.8019
G01 X34.0405 Y42.7850
G01 X34.0003 Y42.7701
G01 X33.9595 Y42.7570
G01 X33.9182 Y42.7459
G01 X33.8763 Y42.7368
G01 X33.8341 Y42.7297
G01 X33.7915 Y42.7246
G01 X33.7488 Y42.7216
G01 X33.7060 Y42.7206
G01 X33.6632 Y42.7216
G01 X33.6204 Y42.7246
G01 X33.5779 Y42.7297
G01 X33.5357 Y42.7368
G01 X33.4938 Y42.7459
G01 X33.4524 Y42.7570
G01 X33.4116 Y42.7701
G01 X33.3715 Y42.7850
G01 X33.3321 Y42.8019
G01 X33.2936 Y42.8206
G01 X33.2560 Y42.8411
G01 X33.2194 Y42.8634
G01 X33.1839 Y42.8875
G01 X33.1496 Y42.9131
G01 X33.1166 Y42.9404
G01 X33.0849 Y42.9692
G01 X33.0546 Y42.9995
G01 X33.0258 Y43.0312
G01 X32.9985 Y43.0642
G01 X32.9729 Y43.0985
G01 X32.9489 Y43.1340
G01 X32.9266 Y43.1706
G01 X32.9060 Y43.2082
G01 X32.8873 Y43.2467
G01 X32.8704 Y43.2861
G01 X32.8555 Y43.3262
G01 X32.8424 Y43.3670
G01 X32.8314 Y43.4084
G01 X32.8222 Y43.4502
G01 X32.8151 Y43.4925
G01 X32.8101 Y43.5350
G01 X32.8070 Y43.5777
G01 X32.8060 Y43.6206
G01 X32.8070 Y43.6634
G01 X32.8101 Y43.7061
G01 X32.8151 Y43.7487
G01 X32.8222 Y43.7909
G01 X32.8314 Y43.8328
G01 X32.8424 Y43.8741
G01 X32.8555 Y43.9149
G01 X32.8704 Y43.9551
G01 X32.8873 Y43.9944
G01 X32.9060 Y44.0330
G01 X32.9266 Y44.0706
G01 X32.9489 Y44.1071
G01 X32.9729 Y44.1426
G01 X32.9985 Y44.1769
G01 X33.0258 Y44.2099
G01 X33.0546 Y44.2416
G01 X33.0849 Y44.2719
G01 X33.1166 Y44.3007
G01 X33.1496 Y44.3280
G01 X33.1839 Y44.3537
G01 X33.2194 Y44.3777
G01 X33.2560 Y44.4000
G01 X33.2936 Y44.4205
G01 X33.3321 Y44.4392
G01 X33.3715 Y44.4561
G01 X33.4116 Y44.4711
G01 X33.4524 Y44.4841
G01 X33.4938 Y44.4952
G01 X33.5357 Y44.5043
G01 X33.5779 Y44.5114
G01 X33.6204 Y44.5165
G01 X33.6632 Y44.5196
G01 X33.7060 Y44.5206
G01 X33.7488 Y44.5196
G01 X33.7915 Y44.5165
G01 X33.8341 Y44.5114
G01 X33.8763 Y44.5043
G01 X33.9182 Y44.4952
G01 X33.9595 Y44.4841
G01 X34.0003 Y44.4711
G01 X34.0405 Y44.4561
G01 X34.0799 Y44.4392
G01 X34.1184 Y44.4205
G01 X34.1560 Y44.4000
G01 X34.1926 Y44.3777
G01 X34.2280 Y44.3537
G01 X34.2623 Y44.3280
G01 X34.2954 Y44.3007
G01 X34.3271 Y44.2719
G01 X34.3573 Y44.2416
G01 X34.3862 Y44.2099
G01 X34.4134 Y44.1769
G01 X34.4391 Y44.1426
G01 X34.4631 Y44.1071
G01 X34.4854 Y44.0706
G01 X34.5059 Y44.0330
G01 X34.5246 Y43.9944
G01 X34.5415 Y43.9551
G01 X34.5565 Y43.9149
G01 X34.5695 Y43.8741
G01 X34.5806 Y43.8328
G01 X34.5897 Y43.7909
G01 X34.5968 Y43.7487
G01 X34.6019 Y43.7061
G01 X34.6050 Y43.6634
G01 X34.6060 Y43.6206
G01 X34.6135 Y43.5895 F1000
G01 X34.6200 Y43.5582
G01 X34.6254 Y43.5267
G01 X34.6296 Y43.4951
G01 X34.6328 Y43.4633
G01 X34.6349 Y43.4314
G01 X34.6359 Y43.3994
G01 X34.6357 Y43.3675
G01 X34.6345 Y43.3355
G01 X34.6321 Y43.3037
G01 X34.6286 Y43.2719
G01 X34.6241 Y43.2403
G01 X34.6144 Y43.1888
G01 X34.6021 Y43.1378
G01 X34.5871 Y43.0876
G01 X34.5696 Y43.0382
G01 X34.5496 Y42.9898
G01 X34.5271 Y42.9425
G01 X34.5022 Y42.8964
G01 X34.4750 Y42.8516
G01 X34.4429 Y42.8046
G01 X34.4085 Y42.7592
G01 X34.3719 Y42.7157
G01 X34.3330 Y42.6741
G01 X34.2921 Y42.6346
G01 X34.2492 Y42.5972
G01 X34.2045 Y42.5621
G01 X34.1580 Y42.5292
G01 X34.1061 Y42.4964
G01 X34.0526 Y42.4663
G01 X33.9977 Y42.4389
G01 X33.9414 Y42.4143
G01 X33.8839 Y42.3927
G01 X33.8254 Y42.3740
G01 X33.7661 Y42.3582
G01 X33.7060 Y42.3456
G01 X33.6409 Y42.3352
G01 X33.5753 Y42.3282
G01 X33.5095 Y42.3245
G01 X33.4436 Y42.3242
G01 X33.3777 Y42.3272
G01 X33.3121 Y42.3335
G01 X33.2468 Y42.3431
G01 X33.1822 Y42.3560
G01 X33.1139 Y42.3733
G01 X33.0465 Y42.3940
G01 X32.9803 Y42.4180
G01 X32.9153 Y42.4454
G01 X32.8519 Y42.4760
G01 X32.7900 Y42.5098
G01 X32.7300 Y42.5466
G01 X32.6718 Y42.5864
G01 X32.6183 Y42.6359
G01 X32.5673 Y42.6879
G01 X32.5189 Y42.7423
G01 X32.4733 Y42.7991
G01 X32.4305 Y42.8581
G01 X32.3906 Y42.9191
G01 X32.3538 Y42.9819
G01 X32.3202 Y43.0466
G01 X32.2937 Y43.1152
G01 X32.2706 Y43.1852
G01 X32.2510 Y43.2561
G01 X32.2348 Y43.3279
G01 X32.2222 Y43.4005
G01 X32.2132 Y43.4735
G01 X32.2078 Y43.5470
G01 X32.2060 Y43.6206
G01 X32.2078 Y43.6942
G01 X32.2132 Y43.7676
G01 X32.2222 Y43.8407
G01 X32.2348 Y43.9132
G01 X32.2510 Y43.9850
G01 X32.2706 Y44.0560
G01 X32.2937 Y44.1259
G01 X32.3202 Y44.1946
G01 X32.3500 Y44.2619
G01 X32.3831 Y44.3277
G01 X32.4194 Y44.3917
G01 X32.4588 Y44.4539
G01 X32.5012 Y44.5141
G01 X32.5465 Y44.5721
G01 X32.5946 Y44.6279
G01 X32.6453 Y44.6812
G01 X32.6987 Y44.7320
G01 X32.7544 Y44.7801
G01 X32.8124 Y44.8254
G01 X32.8726 Y44.8678
G01 X32.9348 Y44.9071
G01 X32.9989 Y44.9434
G01 X33.0647 Y44.9765
G01 X33.1320 Y45.0064
G01 X33.2007 Y45.0329
G01 X33.2706 Y45.0560
G01 X33.3415 Y45.0756
G01 X33.4134 Y45.0917
G01 X33.4859 Y45.1043
G01 X33.5590 Y45.1133
G01 X33.6324 Y45.1187
G01 X33.7060 Y45.1205
G01 X33.7796 Y45.1187
G01 X33.8530 Y45.1133
G01 X33.9261 Y45.1043
G01 X33.9986 Y45.0917
G01 X34.0704 Y45.0756
G01 X34.1414 Y45.0560
G01 X34.2113 Y45.0329
G01 X34.2800 Y45.0064
G01 X34.3473 Y44.9765
G01 X34.4131 Y44.9434
G01 X34.4771 Y44.9071
G01 X34.5393 Y44.8678
G01 X34.5995 Y44.8254
G01 X34.6576 Y44.7801
G01 X34.7133 Y44.7320
G01 X34.7666 Y44.6812
G01 X34.8174 Y44.6279
G01 X34.8655 Y44.5721
G01 X34.9108 Y44.5141
G01 X34.9532 Y44.4539
G01 X34.9926 Y44.3917
G01 X35.0288 Y44.3277
G01 X35.0619 Y44.2619
G01 X35.0918 Y44.1946
G01 X35.1183 Y44.1259
G01 X35.1414 Y44.0560
G01 X35.1610 Y43.9850
G01 X35.1771 Y43.9132
G01 X35.1897 Y43.8407
G01 X35.1987 Y43.7676
G01 X35.2041 Y43.6942
G01 X35.2060 Y43.6206
G01 X35.2018 Y43.5085
G01 X35.1892 Y43.3970
G01 X35.1683 Y43.2868
G01 X35.1393 Y43.1784
G01 X35.1023 Y43.0726
G01 X35.0574 Y42.9698
G01 X35.0050 Y42.8706
G01 X34.9453 Y42.7756
G01 X34.8787 Y42.6854
G01 X34.8055 Y42.6003
G01 X34.7262 Y42.5210
G01 X34.6412 Y42.4478
G01 X34.5509 Y42.3812
G01 X34.4560 Y42.3216
G01 X34.3568 Y42.2691
G01 X34.2540 Y42.2243
G01 X34.1481 Y42.1872
G01 X34.0398 Y42.1582
G01 X33.9295 Y42.1374
G01 X33.8181 Y42.1248
G01 X33.7060 Y42.1206
G01 X33.5939 Y42.1248
G01 X33.4824 Y42.1374
G01 X33.3722 Y42.1582
G01 X33.2639 Y42.1872
G01 X33.1580 Y42.2243
G01 X33.0552 Y42.2691
G01 X32.9560 Y42.3216
G01 X32.8610 Y42.3812
G01 X32.7708 Y42.4478
G01 X32.6857 Y42.5210
G01 X32.6064 Y42.6003
G01 X32.5333 Y42.6854
G01 X32.4666 Y42.7756
G01 X32.4070 Y42.8706
G01 X32.3546 Y42.9698
G01 X32.3097 Y43.0726
G01 X32.2726 Y43.1784
G01 X32.2436 Y43.2868
G01 X32.2228 Y43.3970
G01 X32.2102 Y43.5085
G01 X32.2060 Y43.6206
G01 X32.2102 Y43.7327
G01 X32.2228 Y43.8441
G01 X32.2436 Y43.9543
G01 X32.2726 Y44.0627
G01 X32.3097 Y44.1686
G01 X32.3546 Y44.2714
G01 X32.4070 Y44.3706
G01 X32.4666 Y44.4655
G01 X32.5333 Y44.5558
G01 X32.6064 Y44.6408
G01 X32.6857 Y44.7201
G01 X32.7708 Y44.7933
G01 X32.8610 Y44.8599
G01 X32.9560 Y44.9196
G01 X33.0552 Y44.9720
G01 X33.1580 Y45.0169
G01 X33.2639 Y45.0539
G01 X33.3722 Y45.0829
G01 X33.4824 Y45.1038
G01 X33.5939 Y45.1164
G01 X33.7060 Y45.1205
G01 X33.8181 Y45.1164
G01 X33.9295 Y45.1038
G01 X34.0398 Y45.0829
G01 X34.1481 Y45.0539
G01 X34.2540 Y45.0169
G01 X34.3568 Y44.9720
G01 X34.4560 Y44.9196
G01 X34.5509 Y44.8599
G01 X34.6412 Y44.7933
G01 X34.7262 Y44.7201
G01 X34.8055 Y44.6408
G01 X34.8787 Y44.5558
G01 X34.9453 Y44.4655
G01 X35.0050 Y44.3706
G01 X35.0574 Y44.2714
G01 X35.1023 Y44.1686
G01 X35.1393 Y44.0627
G01 X35.1683 Y43.9543
G01 X35.1892 Y43.8441
G01 X35.2018 Y43.7327
G01 X35.2060 Y43.6206
G01 X35.2014 Y43.5160
G01 X35.1877 Y43.4122
G01 X35.1651 Y43.3100
G01 X35.1336 Y43.2102
G01 X35.0935 Y43.1134
G01 X35.0452 Y43.0206
G01 X34.9889 Y42.9323
G01 X34.9252 Y42.8492
G01 X34.8545 Y42.7721
G01 X34.7773 Y42.7013
G01 X34.6943 Y42.6376
G01 X34.6060 Y42.5814
G01 X34.5131 Y42.5330
G01 X34.4164 Y42.4930
G01 X34.3165 Y42.4615
G01 X34.2143 Y42.4388
G01 X34.1106 Y42.4252
G01 X34.0060 Y42.4206
G01 X33.9014 Y42.4252
G01 X33.7976 Y42.4388
G01 X33.6954 Y42.4615
G01 X33.5955 Y42.4930
G01 X33.4988 Y42.5330
G01 X33.4060 Y42.5814
G01 X33.3177 Y42.6376
G01 X33.2346 Y42.7013
G01 X33.1574 Y42.7721
G01 X33.0867 Y42.8492
G01 X33.0230 Y42.9323
G01 X32.9667 Y43.0206
G01 X32.9184 Y43.1134
G01 X32.8783 Y43.2102
G01 X32.8469 Y43.3100
G01 X32.8242 Y43.4122
G01 X32.8105 Y43.5160
G01 X32.8060 Y43.6206
G01 X32.8071 Y43.6647
G01 X32.8103 Y43.7088
G01 X32.8157 Y43.7526
G01 X32.8233 Y43.7962
G01 X32.8330 Y43.8393
G01 X32.8447 Y43.8818
G01 X32.8586 Y43.9238
G01 X32.8745 Y43.9650
G01 X32.8924 Y44.0054
G01 X32.9123 Y44.0448
G01 X32.9340 Y44.0833
G01 X32.9577 Y44.1206
G01 X32.9831 Y44.1567
G01 X33.0103 Y44.1915
G01 X33.0391 Y44.2250
G01 X33.0696 Y44.2570
G01 X33.1016 Y44.2874
G01 X33.1350 Y44.3163
G01 X33.1699 Y44.3435
G01 X33.2060 Y44.3689
G01 X33.2433 Y44.3925
G01 X33.2817 Y44.4143
G01 X33.3212 Y44.4342
G01 X33.3616 Y44.4521
G01 X33.4028 Y44.4680
G01 X33.4447 Y44.4818
G01 X33.4873 Y44.4936
G01 X33.5304 Y44.5033
G01 X33.5739 Y44.5108
G01 X33.6178 Y44.5162
G01 X33.6618 Y44.5195
G01 X33.7060 Y44.5206
G01 X33.7501 Y44.5195
G01 X33.7942 Y44.5162
G01 X33.8380 Y44.5108
G01 X33.8816 Y44.5033
G01 X33.9247 Y44.4936
G01 X33.9672 Y44.4818
G01 X34.0092 Y44.4680
G01 X34.0504 Y44.4521
G01 X34.0908 Y44.4342
G01 X34.1302 Y44.4143
G01 X34.1687 Y44.3925
G01 X34.2060 Y44.3689
G01 X34.2421 Y44.3435
G01 X34.2769 Y44.3163
G01 X34.3104 Y44.2874
G01 X34.3424 Y44.2570
G01 X34.3728 Y44.2250
G01 X34.4017 Y44.1915
G01 X34.4289 Y44.1567
G01 X34.4543 Y44.1206
G01 X34.4779 Y44.0833
G01 X34.4997 Y44.0448
G01 X34.5196 Y44.0054
G01 X34.5375 Y43.9650
G01 X34.5534 Y43.9238
G01 X34.5672 Y43.8818
G01 X34.5790 Y43.8393
G01 X34.5887 Y43.7962
G01 X34.5962 Y43.7526
G01 X34.6016 Y43.7088
G01 X34.6049 Y43.6647
G01 X34.6060 Y43.6206
M107
M106 S240
G01 X34.6050 Y43.5777 Z-4.3873 F400
G01 X34.6019 Y43.5350 Z-4.3996
G01 X34.5968 Y43.4925 Z-4.4119
G01 X34.5897 Y43.4502 Z-4.4242
G01 X34.5806 Y43.4084 Z-4.4366
G01 X34.5695 Y43.3670 Z-4.4489
G01 X34.5565 Y43.3262 Z-4.4612
G01 X34.5415 Y43.2861 Z-4.4735
G01 X34.5246 Y43.2467 Z-4.4858
G01 X34.5059 Y43.2082 Z-4.4981
G01 X34.4854 Y43.1706 Z-4.5104
G01 X34.4631 Y43.1340 Z-4.5227
G01 X34.4391 Y43.0985 Z-4.5350
G01 X34.4134 Y43.0642 Z-4.5473
G01 X34.3862 Y43.0312 Z-4.5597
G01 X34.3573 Y42.9995 Z-4.5720
G01 X34.3271 Y42.9692 Z-4.5843
G01 X34.2954 Y42.9404 Z-4.5966
G01 X34.2623 Y42.9131 Z-4.6089
G01 X34.2280 Y42.8875 Z-4.6212
G01 X34.1926 Y42.8634 Z-4.6335
G01 X34.1560 Y42.8411 Z-4.6458
G01 X34.1184 Y42.8206 Z-4.6581
G01 X34.0799 Y42.8019 Z-4.6705
G01 X34.0405 Y42.7850 Z-4.6828
G01 X34.0003 Y42.7701 Z-4.6951
G01 X33.9595 Y42.7570 Z-4.7074
G01 X33.9182 Y42.7459 Z-4.7197
G01 X33.8763 Y42.7368 Z-4.7320
G01 X33.8341 Y42.7297 Z-4.7443
G01 X33.7915 Y42.7246 Z-4.7566
G01 X33.7488 Y42.7216 Z-4.7689
G01 X33.7060 Y42.7206 Z-4.7813
G01 X33.6632 Y42.7216 Z-4.7936
G01 X33.6204 Y42.7246 Z-4.8059
G01 X33.5779 Y42.7297 Z-4.8182
G01 X33.5357 Y42.7368 Z-4.8305
G01 X33.4938 Y42.7459 Z-4.8428
G01 X33.4524 Y42.7570 Z-4.8551
G01 X33.4116 Y42.7701 Z-4.8674
G01 X33.3715 Y42.7850 Z-4.8797
G01 X33.3321 Y42.8019 Z-4.8920
G01 X33.2936 Y42.8206 Z-4.9044
G01 X33.2560 Y42.8411 Z-4.9167
G01 X33.2194 Y42.8634 Z-4.9290
G01 X33.1839 Y42.8875 Z-4.9413
G01 X33.1496 Y42.9131 Z-4.9536
G01 X33.1166 Y42.9404 Z-4.9659
G01 X33.0849 Y42.9692 Z-4.9782
G01 X33.0546 Y42.9995 Z-4.9905
G01 X33.0258 Y43.0312 Z-5.0028
G01 X32.9985 Y43.0642 Z-5.0152
G01 X32.9729 Y43.0985 Z-5.0275
G01 X32.9489 Y43.1340 Z-5.0398
G01 X32.9266 Y43.1706 Z-5.0521
G01 X32.9060 Y43.2082 Z-5.0644
G01 X32.8873 Y43.2467 Z-5.0767
G01 X32.8704 Y43.2861 Z-5.0890
G01 X32.8555 Y43.3262 Z-5.1013
G01 X32.8424 Y43.3670 Z-5.1136
G01 X32.8314 Y43.4084 Z-5.1259
G01 X32.8222 Y43.4502 Z-5.1383
G01 X32.8151 Y43.4925 Z-5.1506
G01 X32.8101 Y43.5350 Z-5.1629
G01 X32.8070 Y43.5777 Z-5.1752
G01 X32.8060 Y43.6206 Z-5.1875
G01 X32.8070 Y43.6634 Z-5.1998
G01 X32.8101 Y43.7061 Z-5.2121
G01 X32.8151 Y43.7487 Z-5.2244
G01 X32.8222 Y43.7909 Z-5.2367
G01 X32.8314 Y43.8328 Z-5.2491
G01 X32.8424 Y43.8741 Z-5.2614
G01 X32.8555 Y43.9149 Z-5.2737
G01 X32.8704 Y43.9551 Z-5.2860
G01 X32.8873 Y43.9944 Z-5.2983
G01 X32.9060 Y44.0330 Z-5.3106
G01 X32.9266 Y44.0706 Z-5.3229
G01 X32.9489 Y44.1071 Z-5.3352
G01 X32.9729 Y44.1426 Z-5.3475
G01 X32.9985 Y44.1769 Z-5.3598
G01 X33.0258 Y44.2099 Z-5.3722
G01 X33.0546 Y44.2416 Z-5.3845
G01 X33.0849 Y44.2719 Z-5.3968
G01 X33.1166 Y44.3007 Z-5.4091
G01 X33.1496 Y44.3280 Z-5.4214
G01 X33.1839 Y44.3537 Z-5.4337
G01 X33.2194 Y44.3777 Z-5.4460
G01 X33.2560 Y44.4000 Z-5.4583
G01 X33.2936 Y44.4205 Z-5.4706
G01 X33.3321 Y44.4392 Z-5.4830
G01 X33.3715 Y44.4561 Z-5.4953
G01 X33.4116 Y44.4711 Z-5.5076
G01 X33.4524 Y44.4841 Z-5.5199
G01 X33.4938 Y44.4952 Z-5.5322
G01 X33.5357 Y44.5043 Z-5.5445
G01 X33.5779 Y44.5114 Z-5.5568
G01 X33.6204 Y44.5165 Z-5.5691
G01 X33.6632 Y44.5196 Z-5.5814
G01 X33.7060 Y44.5206 Z-5.5938
G01 X33.7488 Y44.5196 Z-5.6061
G01 X33.7915 Y44.5165 Z-5.6184
G01 X33.8341 Y44.5114 Z-5.6307
G01 X33.8763 Y44.5043 Z-5.6430
G01 X33.9182 Y44.4952 Z-5.6553
G01 X33.9595 Y44.4841 Z-5.6676
G01 X34.0003 Y44.4711 Z-5.6799
G01 X34.0405 Y44.4561 Z-5.6922
G01 X34.0799 Y44.4392 Z-5.7045
G01 X34.1184 Y44.4205 Z-5.7169
G01 X34.1560 Y44.4000 Z-5.7292
G01 X34.1926 Y44.3777 Z-5.7415
G01 X34.2280 Y44.3537 Z-5.7538
G01 X34.2623 Y44.3280 Z-5.7661
G01 X34.2954 Y44.3007 Z-5.7784
G01 X34.3271 Y44.2719 Z-5.7907
G01 X34.3573 Y44.2416 Z-5.8030
G01 X34.3862 Y44.2099 Z-5.8153
G01 X34.4134 Y44.1769 Z-5.8277
G01 X34.4391 Y44.1426 Z-5.8400
G01 X34.4631 Y44.1071 Z-5.8523
G01 X34.4854 Y44.0706 Z-5.8646
G01 X34.5059 Y44.0330 Z-5.8769
G01 X34.5246 Y43.9944 Z-5.8892
G01 X34.5415 Y43.9551 Z-5.9015
G01 X34.5565 Y43.9149 Z-5.9138
G01 X34.5695 Y43.8741 Z-5.9261
G01 X34.5806 Y43.8328 Z-5.9384
G01 X34.5897 Y43.7909 Z-5.9508
G01 X34.5968 Y43.7487 Z-5.9631
G01 X34.6019 Y43.7061 Z-5.9754
G01 X34.6050 Y43.6634 Z-5.9877
G01 X34.6060 Y43.6206 Z-6.0000
G01 X34.6050 Y43.5777
G01 X34.6019 Y43.5350
G01 X34.5968 Y43.4925
G01 X34.5897 Y43.4502
G01 X34.5806 Y43.4084
G01 X34.5695 Y43.3670
G01 X34.5565 Y43.3262
G01 X34.5415 Y43.2861
G01 X34.5246 Y43.2467
G01 X34.5059 Y43.2082
G01 X34.4854 Y43.1706
G01 X34.4631 Y43.1340
G01 X34.4391 Y43.0985
G01 X34.4134 Y43.0642
G01 X34.3862 Y43.0312
G01 X34.3573 Y42.9995
G01 X34.3271 Y42.9692
G01 X34.2954 Y42.9404
G01 X34.2623 Y42.9131
G01 X34.2280 Y42.8875
G01 X34.1926 Y42.8634
G01 X34.1560 Y42.8411
G01 X34.1184 Y42.8206
G01 X34.0799 Y42.8019
G01 X34.0405 Y42.7850
G01 X34.0003 Y42.7701
G01 X33.9595 Y42.7570
G01 X33.9182 Y42.7459
G01 X33.8763 Y42.7368
G01 X33.8341 Y42.7297
G01 X33.7915 Y42.7246
G01 X33.7488 Y42.7216
G01 X33.7060 Y42.7206
G01 X33.6632 Y42.7216
G01 X33.6204 Y42.7246
G01 X33.5779 Y42.7297
G01 X33.5357 Y42.7368
G01 X33.4938 Y42.7459
G01 X33.4524 Y42.7570
G01 X33.4116 Y42.7701
G01 X33.3715 Y42.7850
G01 X33.3321 Y42.8019
G01 X33.2936 Y42.8206
G01 X33.2560 Y42.8411
G01 X33.2194 Y42.8634
G01 X33.1839 Y42.8875
G01 X33.1496 Y42.9131
G01 X33.1166 Y42.9404
G01 X33.0849 Y42.9692
G01 X33.0546 Y42.9995
G01 X33.0258 Y43.0312
G01 X32.9985 Y43.0642
G01 X32.9729 Y43.0985
G01 X32.9489 Y43.1340
G01 X32.9266 Y43.1706
G01 X32.9060 Y43.2082
G01 X32.8873 Y43.2467
G01 X32.8704 Y43.2861
G01 X32.8555 Y43.3262
G01 X32.8424 Y43.3670
G01 X32.8314 Y43.4084
G01 X32.8222 Y43.4502
G01 X32.8151 Y43.4925
G01 X32.8101 Y43.5350
G01 X32.8070 Y43.5777
G01 X32.8060 Y43.6206
G01 X32.8070 Y43.6634
G01 X32.8101 Y43.7061
G01 X32.8151 Y43.7487
G01 X32.8222 Y43.7909
G01 X32.8314 Y43.8328
G01 X32.8424 Y43.8741
G01 X32.8555 Y43.9149
G01 X32.8704 Y43.9551
G01 X32.8873 Y43.9944
G01 X32.9060 Y44.0330
G01 X32.9266 Y44.0706
G01 X32.9489 Y44.1071
G01 X32.9729 Y44.1426
G01 X32.9985 Y44.1769
G01 X33.0258 Y44.2099
G01 X33.0546 Y44.2416
G01 X33.0849 Y44.2719
G01 X33.1166 Y44.3007
G01 X33.1496 Y44.3280
G01 X33.1839 Y44.3537
G01 X33.2194 Y44.3777
G01 X33.2560 Y44.4000
G01 X33.2936 Y44.4205
G01 X33.3321 Y44.4392
G01 X33.3715 Y44.4561
G01 X33.4116 Y44.4711
G01 X33.4524 Y44.4841
G01 X33.4938 Y44.4952
G01 X33.5357 Y44.5043
G01 X33.5779 Y44.5114
G01 X33.6204 Y44.5165
G01 X33.6632 Y44.5196
G01 X33.7060 Y44.5206
G01 X33.7488 Y44.5196
G01 X33.7915 Y44.5165
G01 X33.8341 Y44.5114
G01 X33.8763 Y44.5043
G01 X33.9182 Y44.4952
G01 X33.9595 Y44.4841
G01 X34.0003 Y44.4711
G01 X34.0405 Y44.4561
G01 X34.0799 Y44.4392
G01 X34.1184 Y44.4205
G01 X34.1560 Y44.4000
G01 X34.1926 Y44.3777
G01 X34.2280 Y44.3537
G01 X34.2623 Y44.3280
G01 X34.2954 Y44.3007
G01 X34.3271 Y44.2719
G01 X34.3573 Y44.2416
G01 X34.3862 Y44.2099
G01 X34.4134 Y44.1769
G01 X34.4391 Y44.1426
G01 X34.4631 Y44.1071
G01 X34.4854 Y44.0706
G01 X34.5059 Y44.0330
G01 X34.5246 Y43.9944
G01 X34.5415 Y43.9551
G01 X34.5565 Y43.9149
G01 X34.5695 Y43.8741
G01 X34.5806 Y43.8328
G01 X34.5897 Y43.7909
G01 X34.5968 Y43.7487
G01 X34.6019 Y43.7061
G01 X34.6050 Y43.6634
G01 X34.6060 Y43.6206
G01 X34.6135 Y43.5895 F1000
G01 X34.6200 Y43.5582
G01 X34.6254 Y43.5267
G01 X34.6296 Y43.4951
G01 X34.6328 Y43.4633
G01 X34.6349 Y43.4314
G01 X34.6359 Y43.3994
G01 X34.6357 Y43.3675
G01 X34.6345 Y43.3355
G01 X34.6321 Y43.3037
G01 X34.6286 Y43.2719
G01 X34.6241 Y43.2403
G01 X34.6144 Y43.1888
G01 X34.6021 Y43.1378
G01 X34.5871 Y43.0876
G01 X34.5696 Y43.0382
G01 X34.5496 Y42.9898
G01 X34.5271 Y42.9425
G01 X34.5022 Y42.8964
G01 X34.4750 Y42.8516
G01 X34.4429 Y42.8046
G01 X34.4085 Y42.7592
G01 X34.3719 Y42.7157
G01 X34.3330 Y42.6741
G01 X34.2921 Y42.6346
G01 X34.2492 Y42.5972
G01 X34.2045 Y42.5621
G01 X34.1580 Y42.5292
G01 X34.1061 Y42.4964
G01 X34.0526 Y42.4663
G01 X33.9977 Y42.4389
G01 X33.9414 Y42.4143
G01 X33.8839 Y42.3927
G01 X33.8254 Y42.3740
G01 X33.7661 Y42.3582
G01 X33.7060 Y42.3456
G01 X33.6409 Y42.3352
G01 X33.5753 Y42.3282
G01 X33.5095 Y42.3245
G01 X33.4436 Y42.3242
G01 X33.3777 Y42.3272
G01 X33.3121 Y42.3335
G01 X33.2468 Y42.3431
G01 X33.1822 Y42.3560
G01 X33.1139 Y42.3733
G01 X33.0465 Y42.3940
G01 X32.9803 Y42.4180
G01 X32.9153 Y42.4454
G01 X32.8519 Y42.4760
G01 X32.7900 Y42.5098
G01 X32.7300 Y42.5466
G01 X32.6718 Y42.5864
G01 X32.6183 Y42.6359
G01 X32.5673 Y42.6879
G01 X32.5189 Y42.7423
G01 X32.4733 Y42.7991
G01 X32.4305 Y42.8581
G01 X32.3906 Y42.9191
G01 X32.3538 Y42.9819
G01 X32.3202 Y43.0466
G01 X32.2937 Y43.1152
G01 X32.2706 Y43.1852
G01 X32.2510 Y43.2561
G01 X32.2348 Y43.3279
G01 X32.2222 Y43.4005
G01 X32.2132 Y43.4735
G01 X32.2078 Y43.5470
G01 X32.2060 Y43.6206
G01 X32.2078 Y43.6942
G01 X32.2132 Y43.7676
G01 X32.2222 Y43.8407
G01 X32.2348 Y43.9132
G01 X32.2510 Y43.9850
G01 X32.2706 Y44.0560
G01 X32.2937 Y44.1259
G01 X32.3202 Y44.1946
G01 X32.3500 Y44.2619
G01 X32.3831 Y44.3277
G01 X32.4194 Y44.3917
G01 X32.4588 Y44.4539
G01 X32.5012 Y44.5141
G01 X32.5465 Y44.5721
G01 X32.5946 Y44.6279
G01 X32.6453 Y44.6812
G01 X32.6987 Y44.7320
G01 X32.7544 Y44.7801
G01 X32.8124 Y44.8254
G01 X32.8726 Y44.8678
G01 X32.9348 Y44.9071
G01 X32.9989 Y44.9434
G01 X33.0647 Y44.9765
G01 X33.1320 Y45.0064
G01 X33.2007 Y45.0329
G01 X33.2706 Y45.0560
G01 X33.3415 Y45.0756
G01 X33.4134 Y45.0917
G01 X33.4859 Y45.1043
G01 X33.5590 Y45.1133
G01 X33.6324 Y45.1187
G01 X33.7060 Y45.1205
G01 X33.7796 Y45.1187
G01 X33.8530 Y45.1133
G01 X33.9261 Y45.1043
G01 X33.9986 Y45.0917
G01 X34.0704 Y45.0756
G01 X34.1414 Y45.0560
G01 X34.2113 Y45.0329
G01 X34.2800 Y45.0064
G01 X34.3473 Y44.9765
G01 X34.4131 Y44.9434
G01 X34.4771 Y44.9071
G01 X34.5393 Y44.8678
G01 X34.5995 Y44.8254
G01 X34.6576 Y44.7801
G01 X34.7133 Y44.7320
G01 X34.7666 Y44.6812
G01 X34.8174 Y44.6279
G01 X34.8655 Y44.5721
G01 X34.9108 Y44.5141
G01 X34.9532 Y44.4539
G01 X34.9926 Y44.3917
G01 X35.0288 Y44.3277
G01 X35.0619 Y44.2619
G01 X35.0918 Y44.1946
G01 X35.1183 Y44.1259
G01 X35.1414 Y44.0560
G01 X35.1610 Y43.9850
G01 X35.1771 Y43.9132
G01 X35.1897 Y43.8407
G01 X35.1987 Y43.7676
G01 X35.2041 Y43.6942
G01 X35.2060 Y43.6206
G01 X35.2018 Y43.5085
G01 X35.1892 Y43.3970
G01 X35.1683 Y43.2868
G01 X35.1393 Y43.1784
G01 X35.1023 Y43.0726
G01 X35.0574 Y42.9698
G01 X35.0050 Y42.8706
G01 X34.9453 Y42.7756
G01 X34.8787 Y42.6854
G01 X34.8055 Y42.6003
G01 X34.7262 Y42.5210
G01 X34.6412 Y42.4478
G01 X34.5509 Y42.3812
G01 X34.4560 Y42.3216
G01 X34.3568 Y42.2691
G01 X34.2540 Y42.2243
G01 X34.1481 Y42.1872
G01 X34.0398 Y42.1582
G01 X33.9295 Y42.1374
G01 X33.8181 Y42.1248
G01 X33.7060 Y42.1206
G01 X33.5939 Y42.1248
G01 X33.4824 Y42.1374
G01 X33.3722 Y42.1582
G01 X33.2639 Y42.1872
G01 X33.1580 Y42.2243
G01 X33.0552 Y42.2691
G01 X32.9560 Y42.3216
G01 X32.8610 Y42.3812
G01 X32.7708 Y42.4478
G01 X32.6857 Y42.5210
G01 X32.6064 Y42.6003
G01 X32.5333 Y42.6854
G01 X32.4666 Y42.7756
G01 X32.4070 Y42.8706
G01 X32.3546 Y42.9698
G01 X32.3097 Y43.0726
G01 X32.2726 Y43.1784
G01 X32.2436 Y43.2868
G01 X32.2228 Y43.3970
G01 X32.2102 Y43.5085
G01 X32.2060 Y43.6206
G01 X32.2102 Y43.7327
G01 X32.2228 Y43.8441
G01 X32.2436 Y43.9543
G01 X32.2726 Y44.0627
G01 X32.3097 Y44.1686
G01 X32.3546 Y44.2714
G01 X32.4070 Y44.3706
G01 X32.4666 Y44.4655
G01 X32.5333 Y44.5558
G01 X32.6064 Y44.6408
G01 X32.6857 Y44.7201
G01 X32.7708 Y44.7933
G01 X32.8610 Y44.8599
G01 X32.9560 Y44.9196
G01 X33.0552 Y44.9720
G01 X33.1580 Y45.0169
G01 X33.2639 Y45.0539
G01 X33.3722 Y45.0829
G01 X33.4824 Y45.1038
G01 X33.5939 Y45.1164
G01 X33.7060 Y45.1205
G01 X33.8181 Y45.1164
G01 X33.9295 Y45.1038
G01 X34.0398 Y45.0829
G01 X34.1481 Y45.0539
G01 X34.2540 Y45.0169
G01 X34.3568 Y44.9720
G01 X34.4560 Y44.9196
G01 X34.5509 Y44.8599
G01 X34.6412 Y44.7933
G01 X34.7262 Y44.7201
G01 X34.8055 Y44.6408
G01 X34.8787 Y44.5558
G01 X34.9453 Y44.4655
G01 X35.0050 Y44.3706
G01 X35.0574 Y44.2714
G01 X35.1023 Y44.1686
G01 X35.1393 Y44.0627
G01 X35.1683 Y43.9543
G01 X35.1892 Y43.8441
G01 X35.2018 Y43.7327
G01 X35.2060 Y43.6206
M107
M106 S240
G01 X35.2029 Y43.5421 Z-5.9750 F400
M107
M106 S240
G01 X35.1936 Y43.4641 Z-5.9500
M107
M106 S240
G01 X35.1783 Y43.3871 Z-5.9250
M107
M106 S240
G01 X35.1570 Y43.3116 Z-5.9000
M107
M106 S240
G01 X35.1298 Y43.2379 Z-5.8750
M107
M106 S240
G01 X35.0970 Y43.1666 Z-5.8500
M107
M106 S240
G01 X35.0586 Y43.0981 Z-5.8250
M107
M106 S240
G01 X35.0150 Y43.0328 Z-5.8000
M107
M106 S240
G01 X34.9664 Y42.9711 Z-5.7750
M107
M106 S240
G01 X34.9131 Y42.9135 Z-5.7500
M107
M106 S240
G01 X34.8554 Y42.8602 Z-5.7250
M107
M106 S240
G01 X34.7937 Y42.8116 Z-5.7000
M107
M106 S240
G01 X34.7285 Y42.7679 Z-5.6750
M107
M106 S240
G01 X34.6599 Y42.7296 Z-5.6500
M107
M106 S240
G01 X34.5886 Y42.6967 Z-5.6250
M107
M106 S240
G01 X34.5150 Y42.6695 Z-5.6000
M107
M106 S240
G01 X34.4394 Y42.6482 Z-5.5750
M107
M106 S240
G01 X34.3624 Y42.6329 Z-5.5500
M107
M106 S240
G01 X34.2844 Y42.6237 Z-5.5250
M107
M106 S240
G01 X34.2060 Y42.6206 Z-5.5000
M107
G00 Z2.0000


;No. 2: Hole 22
G00 X55.7118 Y48.4400 Z2.0000
G00 Z0.5000
G01 Z0.0000 F400
G01 Z-1.5000
M106 S240
G01 X74.2839 F1000
G01 Y49.9400
G01 X72.0690
G01 X72.4775
G01 Y51.4400
G01 X74.2839
G01 Y52.9400
G01 X72.4775
G01 Y54.4400
G01 X74.2839
G01 Y55.9400
G01 X72.4775
M107
G00 Z2.0000
G00 X57.9267 Y48.4400
G00 Z0.5000
G01 Z-1.5000 F400
M106 S240
G01 Y49.9400 F1000
G01 X55.7118
G01 Y51.4400
G01 X57.5182
G01 Y52.9400
G01 X55.7118
G01 Y54.4400
G01 X57.5182
G01 Y55.9400
G01 X55.7118
G01 X55.5118 Y55.9250
G01 Y57.0840
G01 X57.7182
G01 Y50.8412
G01 X57.7213 Y50.7627
G01 X57.7306 Y50.6848
G01 X57.7459 Y50.6077
G01 X57.7672 Y50.5322
G01 X57.7944 Y50.4585
G01 X57.8272 Y50.3872
G01 X57.8656 Y50.3187
G01 X57.9092 Y50.2534
G01 X57.9578 Y50.1917
G01 X58.0111 Y50.1341
G01 X58.0688 Y50.0808
G01 X58.1305 Y50.0322
G01 X58.1957 Y49.9885
G01 X58.2643 Y49.9502
G01 X58.3356 Y49.9173
G01 X58.4092 Y49.8901
G01 X58.4848 Y49.8688
G01 X58.5618 Y49.8535
G01 X58.6398 Y49.8443
G01 X58.7182 Y49.8412
G01 X71.2775
G01 X71.3211 Y49.8421
G01 X71.3646 Y49.8450
G01 X71.4080 Y49.8497
G01 X71.4511 Y49.8564
G01 X71.4939 Y49.8649
G01 X71.5363 Y49.8753
G01 X71.5782 Y49.8875
G01 X71.6195 Y49.9015
G01 X71.6602 Y49.9173
G01 X71.7001 Y49.9349
G01 X71.7392 Y49.9542
G01 X71.7775 Y49.9752
G01 X71.8148 Y49.9978
G01 X71.8511 Y50.0220
G01 X71.8862 Y50.0478
G01 X71.9203 Y50.0751
G01 X71.9531 Y50.1039
G01 X71.9846 Y50.1341
G01 X72.0148 Y50.1656
G01 X72.0435 Y50.1984
G01 X72.0708 Y50.2324
G01 X72.0966 Y50.2676
G01 X72.1209 Y50.3039
G01 X72.1435 Y50.3412
G01 X72.1645 Y50.3794
G01 X72.1838 Y50.4186
G01 X72.2014 Y50.4585
G01 X72.2172 Y50.4992
G01 X72.2312 Y50.5405
G01 X72.2434 Y50.5824
G01 X72.2538 Y50.6247
G01 X72.2623 Y50.6675
G01 X72.2689 Y50.7107
G01 X72.2737 Y50.7540
G01 X72.2765 Y50.7976
G01 X72.2775 Y50.8412
G01 Y57.0840
G01 X74.4839
G01 Y47.2959
G01 X55.5118
G01 Y55.9250
G01 X55.7118 Y55.9400
M107
G00 Z2.0000


;No. 3: Hole 21
G00 X56.2680 Y63.0552 Z2.0000
G00 Z0.5000
G01 Z0.0000 F400
G01 Z-1.5000
M106 S240
G01 X73.7157 F1000
G01 X73.8566 Y62.9101
G01 X73.7812 Y62.8086
G01 X73.7011 Y62.7109
G01 X73.6164 Y62.6170
G01 X73.5274 Y62.5272
G01 X73.4341 Y62.4418
G01 X73.3370 Y62.3608
G01 X73.2361 Y62.2846
G01 X73.1317 Y62.2133
G01 X73.0241 Y62.1470
G01 X72.9134 Y62.0858
G01 X72.8000 Y62.0300
G01 X72.6840 Y61.9796
G01 X72.5658 Y61.9348
G01 X72.4455 Y61.8956
G01 X72.3236 Y61.8622
G01 X72.2002 Y61.8346
G01 X72.0756 Y61.8129
G01 X71.9502 Y61.7971
G01 X71.8241 Y61.7873
G01 X71.6978 Y61.7835
G01 X58.3004
G01 X58.1559 Y61.7888
G01 X58.0119 Y61.8016
G01 X57.8688 Y61.8220
G01 X57.7269 Y61.8499
G01 X57.5868 Y61.8852
G01 X57.4486 Y61.9278
G01 X57.3129 Y61.9776
G01 X57.1800 Y62.0345
G01 X57.0502 Y62.0983
G01 X56.9240 Y62.1688
G01 X56.8017 Y62.2458
G01 X56.6835 Y62.3291
G01 X56.5699 Y62.4186
G01 X56.4612 Y62.5139
G01 X56.3576 Y62.6147
G01 X56.2595 Y62.7209
G01 X56.1671 Y62.8321
G01 X56.0806 Y62.9479
G01 X56.0004 Y63.0682
G01 X55.9265 Y63.1925
G01 X55.8594 Y63.3205
G01 X55.7990 Y63.4519
G01 X55.7456 Y63.5862
G01 X55.6993 Y63.7232
G01 X55.6515 Y63.8713
G01 X55.6110 Y64.0215
G01 X55.5777 Y64.1735
G01 X55.5518 Y64.3269
G01 X74.4444 Y64.3235
G01 X74.4114 Y64.1329
G01 X74.3663 Y63.9449
G01 X74.3094 Y63.7601
G01 X74.2408 Y63.5792
G01 X74.1609 Y63.4031
G01 X74.0700 Y63.2325
G01 X73.9685 Y63.0679
G01 X73.8566 Y62.9101
G01 X73.7157 Y63.0552
M107
G00 Z2.0000


;No. 4: Hole 23
G00 X80.8825 Y63.3114 Z2.0000
G00 Z0.5000
G01 Z0.0000 F400
G01 Z-1.5000
M106 S240
G01 X83.8489 F1000
G01 X85.2377 Y61.8114
G01 X82.2679
G01 X82.5375
G01 Y60.3114
G01 X86.6264
G01 X88.0151 Y58.8114
G01 X82.5375
G01 Y57.3114
G01 X84.6521
G01 X84.3439
G01 Y55.8114
G01 X82.5375
G01 Y54.3114
G01 X84.3439
G01 Y52.8114
G01 X82.5375
G01 Y51.3114
G01 X84.3439
G01 Y49.8114
G01 X82.5375
G01 Y48.3114
G01 X84.3439
M107
G00 Z2.0000
G00 X86.4374 Y58.8114
G00 Z0.5000
G01 Z-1.5000 F400
M106 S240
G01 Y57.3114 F1000
G01 X89.4039
G01 X90.7926 Y55.8114
G01 X87.8262
G01 X89.2149 Y54.3114
G01 X92.1813
G01 X93.5701 Y52.8114
G01 X90.6036
G01 X91.9923 Y51.3114
G01 X97.7568
G01 Y49.8114
G01 X93.3811
G01 X94.7698 Y48.3114
G01 X97.7568
G01 X95.8448 Y52.8114
G01 X97.7568
G01 Y54.3114
G01 X95.9504
G01 Y55.8114
G01 X97.7568
G01 Y57.3114
G01 X95.9504
G01 Y58.8114
G01 X97.7568
G01 Y60.3114
G01 X95.9504
G01 Y61.8114
G01 X97.7568
G01 Y63.3114
G01 X95.9504
G01 X95.7504 Y63.2939
G01 Y64.3269
G01 X97.9568
G01 Y47.2959
G01 X95.4374
G01 X86.2777 Y57.1895
G01 X86.2457 Y57.2226
G01 X86.2121 Y57.2541
G01 X86.1772 Y57.2841
G01 X86.1409 Y57.3124
G01 X86.1033 Y57.3391
G01 X86.0646 Y57.3639
G01 X86.0247 Y57.3870
G01 X85.9838 Y57.4082
G01 X85.9420 Y57.4275
G01 X85.8994 Y57.4448
G01 X85.8560 Y57.4602
G01 X85.8119 Y57.4736
G01 X85.7673 Y57.4849
G01 X85.7222 Y57.4941
G01 X85.6767 Y57.5013
G01 X85.6309 Y57.5064
G01 X85.5849 Y57.5093
G01 X85.5389 Y57.5101
G01 X85.4929 Y57.5088
G01 X85.4470 Y57.5054
G01 X85.4012 Y57.4999
G01 X85.3558 Y57.4923
G01 X85.3108 Y57.4826
G01 X85.2663 Y57.4708
G01 X85.2224 Y57.4570
G01 X85.1791 Y57.4412
G01 X85.1366 Y57.4234
G01 X85.0950 Y57.4037
G01 X85.0544 Y57.3821
G01 X85.0147 Y57.3586
G01 X84.9762 Y57.3334
G01 X84.9389 Y57.3064
G01 X84.9029 Y57.2777
G01 X84.8683 Y57.2474
G01 X84.8351 Y57.2155
G01 X84.8033 Y57.1821
G01 X84.7732 Y57.1473
G01 X84.7447 Y57.1111
G01 X84.7179 Y57.0737
G01 X84.6928 Y57.0351
G01 X84.6695 Y56.9953
G01 X84.6481 Y56.9546
G01 X84.6286 Y56.9128
G01 X84.6110 Y56.8703
G01 X84.5955 Y56.8269
G01 X84.5819 Y56.7829
G01 X84.5703 Y56.7384
G01 X84.5609 Y56.6933
G01 X84.5535 Y56.6479
G01 X84.5482 Y56.6021
G01 X84.5450 Y56.5562
G01 X84.5439 Y56.5101
G01 Y47.2959
G01 X82.3375
G01 Y61.0536
G01 X82.3364 Y61.1002
G01 X82.3332 Y61.1468
G01 X82.3277 Y61.1932
G01 X82.3201 Y61.2392
G01 X82.3104 Y61.2849
G01 X82.2986 Y61.3300
G01 X82.2846 Y61.3746
G01 X82.2686 Y61.4184
G01 X82.2506 Y61.4615
G01 X82.2305 Y61.5036
G01 X82.2086 Y61.5448
G01 X82.1847 Y61.5849
G01 X82.1590 Y61.6239
G01 X82.1315 Y61.6616
G01 X82.1022 Y61.6980
G01 X82.0713 Y61.7329
G01 X79.6698 Y64.3269
G01 X83.1813
G01 X94.0166 Y52.6235
G01 X94.0773 Y52.5633
G01 X94.1429 Y52.5085
G01 X94.2130 Y52.4595
G01 X94.2870 Y52.4167
G01 X94.3644 Y52.3804
G01 X94.4446 Y52.3508
G01 X94.5271 Y52.3281
G01 X94.6111 Y52.3126
G01 X94.6962 Y52.3044
G01 X94.7817 Y52.3034
G01 X94.8670 Y52.3097
G01 X94.9514 Y52.3233
G01 X95.0343 Y52.3441
G01 X95.1152 Y52.3718
G01 X95.1934 Y52.4064
G01 X95.2684 Y52.4475
G01 X95.3395 Y52.4949
G01 X95.4064 Y52.5482
G01 X95.4685 Y52.6070
G01 X95.5253 Y52.6708
G01 X95.5765 Y52.7393
G01 X95.6216 Y52.8120
G01 X95.6603 Y52.8882
G01 X95.6924 Y52.9674
G01 X95.7176 Y53.0491
G01 X95.7358 Y53.1327
G01 X95.7467 Y53.2175
G01 X95.7504 Y53.3029
G01 Y63.2939
G01 X95.9504 Y63.3114
M107
G00 Z2.0000


;No. 5: Hole 24
G00 X102.6560 Y63.3114 Z2.0000
G00 Z0.5000
G01 Z0.0000 F400
G01 Z-1.5000
M106 S240
G01 X104.4641 F1000
G01 Y61.8114
G01 X102.6560
G01 Y60.3114
G01 X104.4641
G01 Y58.8114
G01 X102.6560
G01 Y57.3114
G01 X104.4641
G01 Y55.8114
G01 X102.6560
G01 Y54.3114
G01 X104.4641
G01 Y52.8114
G01 X102.6560
G01 Y51.3114
G01 X104.4641
G01 Y49.8114
G01 X105.0488
G01 X102.6560
G01 Y48.3114
G01 X120.4446
G01 X120.6067 Y48.1921
G01 X120.5127 Y48.0896
G01 X120.4134 Y47.9923
G01 X120.3090 Y47.9004
G01 X120.1999 Y47.8142
G01 X120.0863 Y47.7340
G01 X119.9686 Y47.6599
G01 X119.8471 Y47.5922
G01 X119.7222 Y47.5311
G01 X119.5942 Y47.4768
G01 X119.4635 Y47.4294
G01 X119.3304 Y47.3890
G01 X119.1954 Y47.3557
G01 X119.0588 Y47.3297
G01 X118.9209 Y47.3111
G01 X118.7823 Y47.2998
G01 X118.6433 Y47.2959
G01 X102.4560
G01 Y64.3269
G01 X104.6641
G01 Y50.8412
G01 X104.6672 Y50.7622
G01 X104.6765 Y50.6838
G01 X104.6920 Y50.6063
G01 X104.7136 Y50.5303
G01 X104.7411 Y50.4562
G01 X104.7744 Y50.3845
G01 X104.8133 Y50.3157
G01 X104.8574 Y50.2502
G01 X104.9066 Y50.1883
G01 X104.9605 Y50.1305
G01 X105.0188 Y50.0772
G01 X105.0811 Y50.0286
G01 X105.1471 Y49.9852
G01 X105.2163 Y49.9470
G01 X105.2883 Y49.9144
G01 X105.3627 Y49.8877
G01 X105.4389 Y49.8668
G01 X105.5165 Y49.8521
G01 X105.5951 Y49.8435
G01 X105.6741 Y49.8412
G01 X121.3896 Y49.8364
G01 X121.3487 Y49.6089
G01 X121.2906 Y49.3852
G01 X121.2156 Y49.1665
G01 X121.1243 Y48.9542
G01 X121.0170 Y48.7494
G01 X120.8945 Y48.5534
G01 X120.7575 Y48.3673
G01 X120.6067 Y48.1921
G01 X120.4446 Y48.3114
M107
G00 Z2.0000


;No. 6: Hole 25
G00 X130.0288 Y57.3114 Z2.0000
G00 Z0.5000
G01 Z0.0000 F400
G01 Z-1.5000
M106 S240
G01 X132.9952 F1000
G01 X134.3839 Y55.8114
G01 X131.4175
G01 X132.8062 Y54.3114
G01 X138.0236
G01 X136.6350 Y52.8114
G01 X134.1948
G01 X134.5117
G01 Y51.3114
G01 X136.3181
G01 Y49.8114
G01 X134.5117
G01 Y48.3114
G01 X136.3181
M107
G00 Z2.0000
G00 X136.4475 Y54.3114
G00 Z0.5000
G01 Z-1.5000 F400
M106 S240
G01 Y55.8114 F1000
G01 X139.4123
G01 X140.8010 Y57.3114
G01 X137.8358
G01 X139.2242 Y58.8114
G01 X142.1897
G01 X143.5785 Y60.3114
G01 X140.6126
G01 X142.0009 Y61.8114
G01 X144.7009
G01 Y63.3114
G01 X142.8945
M107
G00 Z2.0000
G00 X131.6065 Y57.3114
G00 Z0.5000
G01 Z-1.5000 F400
M106 S240
G01 Y58.8114 F1000
G01 X128.6400
G01 X127.2513 Y60.3114
G01 X130.2177
G01 X128.8290 Y61.8114
G01 X126.1289
G01 Y63.3114
G01 X127.9353
G01 X128.1353 Y63.4292
G01 X128.1276 Y63.3520
G01 X128.1256 Y63.2745
G01 X128.1291 Y63.1970
G01 X128.1383 Y63.1200
G01 X128.1530 Y63.0439
G01 X128.1732 Y62.9690
G01 X128.1988 Y62.8958
G01 X128.2296 Y62.8246
G01 X128.2654 Y62.7558
G01 X128.3062 Y62.6899
G01 X128.3516 Y62.6270
G01 X128.4015 Y62.5676
G01 X134.6819 Y55.7839
G01 X134.7403 Y55.7259
G01 X134.8033 Y55.6728
G01 X134.8705 Y55.6251
G01 X134.9413 Y55.5830
G01 X135.0154 Y55.5470
G01 X135.0921 Y55.5171
G01 X135.1711 Y55.4937
G01 X135.2517 Y55.4769
G01 X135.3335 Y55.4667
G01 X135.4158 Y55.4633
G01 X135.4981 Y55.4667
G01 X135.5798 Y55.4769
G01 X135.6605 Y55.4937
G01 X135.7394 Y55.5172
G01 X135.8162 Y55.5470
G01 X135.8903 Y55.5831
G01 X135.9611 Y55.6251
G01 X136.0282 Y55.6729
G01 X136.0912 Y55.7259
G01 X136.1496 Y55.7840
G01 X142.4284 Y62.5677
G01 X142.4593 Y62.6027
G01 X142.4885 Y62.6391
G01 X142.5160 Y62.6768
G01 X142.5417 Y62.7157
G01 X142.5656 Y62.7558
G01 X142.5875 Y62.7970
G01 X142.6076 Y62.8392
G01 X142.6256 Y62.8822
G01 X142.6416 Y62.9260
G01 X142.6555 Y62.9706
G01 X142.6674 Y63.0157
G01 X142.6771 Y63.0614
G01 X142.6847 Y63.1074
G01 X142.6901 Y63.1538
G01 X142.6934 Y63.2003
G01 X142.6945 Y63.2470
G01 Y64.3269
G01 X144.9009
G01 Y61.4454
G01 X136.7843 Y52.6785
G01 X136.7534 Y52.6435
G01 X136.7242 Y52.6071
G01 X136.6967 Y52.5694
G01 X136.6709 Y52.5304
G01 X136.6471 Y52.4903
G01 X136.6251 Y52.4491
G01 X136.6051 Y52.4070
G01 X136.5870 Y52.3639
G01 X136.5710 Y52.3201
G01 X136.5571 Y52.2755
G01 X136.5452 Y52.2304
G01 X136.5355 Y52.1847
G01 X136.5279 Y52.1387
G01 X136.5225 Y52.0923
G01 X136.5192 Y52.0458
G01 X136.5181 Y51.9991
G01 Y47.2959
G01 X134.3117
G01 Y51.9991
G01 X134.3106 Y52.0458
G01 X134.3073 Y52.0923
G01 X134.3019 Y52.1387
G01 X134.2943 Y52.1847
G01 X134.2846 Y52.2304
G01 X134.2727 Y52.2755
G01 X134.2588 Y52.3201
G01 X134.2428 Y52.3639
G01 X134.2247 Y52.4070
G01 X134.2047 Y52.4491
G01 X134.1827 Y52.4903
G01 X134.1588 Y52.5304
G01 X134.1331 Y52.5694
G01 X134.1056 Y52.6071
G01 X134.0764 Y52.6435
G01 X134.0455 Y52.6785
G01 X125.9289 Y61.4454
G01 Y64.3269
G01 X128.1353
G01 Y63.4292
G01 X127.9353 Y63.3114
M107
G00 Z2.0000


;No. 7: Helical drill 5
G00 X167.6060 Y43.6206 Z2.0000
G00 Z0.5000
M106 S240
G01 X167.6050 Y43.5777 Z0.4877 F400
G01 X167.6019 Y43.5350 Z0.4754
G01 X167.5968 Y43.4925 Z0.4631
G01 X167.5897 Y43.4502 Z0.4508
G01 X167.5806 Y43.4084 Z0.4384
G01 X167.5695 Y43.3670 Z0.4261
G01 X167.5565 Y43.3262 Z0.4138
G01 X167.5415 Y43.2861 Z0.4015
G01 X167.5247 Y43.2467 Z0.3892
G01 X167.5059 Y43.2082 Z0.3769
G01 X167.4854 Y43.1706 Z0.3646
G01 X167.4631 Y43.1340 Z0.3523
G01 X167.4391 Y43.0985 Z0.3400
G01 X167.4134 Y43.0642 Z0.3277
G01 X167.3862 Y43.0312 Z0.3153
G01 X167.3574 Y42.9995 Z0.3030
G01 X167.3271 Y42.9692 Z0.2907
G01 X167.2954 Y42.9404 Z0.2784
G01 X167.2623 Y42.9131 Z0.2661
G01 X167.2280 Y42.8874 Z0.2538
G01 X167.1926 Y42.8634 Z0.2415
G01 X167.1560 Y42.8411 Z0.2292
G01 X167.1184 Y42.8206 Z0.2169
G01 X167.0799 Y42.8019 Z0.2045
G01 X167.0405 Y42.7850 Z0.1922
G01 X167.0004 Y42.7701 Z0.1799
G01 X166.9596 Y42.7570 Z0.1676
G01 X166.9182 Y42.7459 Z0.1553
G01 X166.8763 Y42.7368 Z0.1430
G01 X166.8341 Y42.7297 Z0.1307
G01 X166.7915 Y42.7246 Z0.1184
G01 X166.7488 Y42.7216 Z0.1061
G01 X166.7060 Y42.7206 Z0.0938
G01 X166.6632 Y42.7216 Z0.0814
G01 X166.6204 Y42.7246 Z0.0691
G01 X166.5779 Y42.7297 Z0.0568
G01 X166.5357 Y42.7368 Z0.0445
G01 X166.4938 Y42.7459 Z0.0322
G01 X166.4524 Y42.7570 Z0.0199
G01 X166.4116 Y42.7701 Z0.0076
G01 X166.3715 Y42.7850 Z-0.0047
G01 X166.3321 Y42.8019 Z-0.0170
G01 X166.2936 Y42.8206 Z-0.0294
G01 X166.2560 Y42.8411 Z-0.0417
G01 X166.2194 Y42.8634 Z-0.0540
G01 X166.1839 Y42.8874 Z-0.0663
G01 X166.1497 Y42.9131 Z-0.0786
G01 X166.1166 Y42.9404 Z-0.0909
G01 X166.0849 Y42.9692 Z-0.1032
G01 X166.0546 Y42.9995 Z-0.1155
G01 X166.0258 Y43.0312 Z-0.1278
G01 X165.9985 Y43.0642 Z-0.1402
G01 X165.9729 Y43.0985 Z-0.1525
G01 X165.9489 Y43.1340 Z-0.1648
G01 X165.9266 Y43.1706 Z-0.1771
G01 X165.9060 Y43.2082 Z-0.1894
G01 X165.8873 Y43.2467 Z-0.2017
G01 X165.8705 Y43.2861 Z-0.2140
G01 X165.8555 Y43.3262 Z-0.2263
G01 X165.8424 Y43.3670 Z-0.2386
G01 X165.8314 Y43.4084 Z-0.2509
G01 X165.8223 Y43.4502 Z-0.2633
G01 X165.8152 Y43.4925 Z-0.2756
G01 X165.8101 Y43.5350 Z-0.2879
G01 X165.8070 Y43.5777 Z-0.3002
G01 X165.8060 Y43.6206 Z-0.3125
G01 X165.8070 Y43.6634 Z-0.3248
G01 X165.8101 Y43.7061 Z-0.3371
G01 X165.8152 Y43.7486 Z-0.3494
G01 X165.8223 Y43.7909 Z-0.3617
G01 X165.8314 Y43.8327 Z-0.3741
G01 X165.8424 Y43.8741 Z-0.3864
G01 X165.8555 Y43.9149 Z-0.3987
G01 X165.8705 Y43.9551 Z-0.4110
G01 X165.8873 Y43.9944 Z-0.4233
G01 X165.9060 Y44.0330 Z-0.4356
G01 X165.9266 Y44.0706 Z-0.4479
G01 X165.9489 Y44.1071 Z-0.4602
G01 X165.9729 Y44.1426 Z-0.4725
G01 X165.9985 Y44.1769 Z-0.4848
G01 X166.0258 Y44.2099 Z-0.4972
G01 X166.0546 Y44.2416 Z-0.5095
G01 X166.0849 Y44.2719 Z-0.5218
G01 X166.1166 Y44.3007 Z-0.5341
G01 X166.1497 Y44.3280 Z-0.5464
G01 X166.1839 Y44.3537 Z-0.5587
G01 X166.2194 Y44.3777 Z-0.5710
G01 X166.2560 Y44.4000 Z-0.5833
G01 X166.2936 Y44.4205 Z-0.5956
G01 X166.3321 Y44.4392 Z-0.6080
G01 X166.3715 Y44.4561 Z-0.6203
G01 X166.4116 Y44.4711 Z-0.6326
G01 X166.4524 Y44.4841 Z-0.6449
G01 X166.4938 Y44.4952 Z-0.6572
G01 X166.5357 Y44.5043 Z-0.6695
G01 X166.5779 Y44.5114 Z-0.6818
G01 X166.6204 Y44.5165 Z-0.6941
G01 X166.6632 Y44.5195 Z-0.7064
G01 X166.7060 Y44.5206 Z-0.7188
G01 X166.7488 Y44.5195 Z-0.7311
G01 X166.7915 Y44.5165 Z-0.7434
G01 X166.8341 Y44.5114 Z-0.7557
G01 X166.8763 Y44.5043 Z-0.7680
G01 X166.9182 Y44.4952 Z-0.7803
G01 X166.9596 Y44.4841 Z-0.7926
G01 X167.0004 Y44.4711 Z-0.8049
G01 X167.0405 Y44.4561 Z-0.8172
G01 X167.0799 Y44.4392 Z-0.8295
G01 X167.1184 Y44.4205 Z-0.8419
G01 X167.1560 Y44.4000 Z-0.8542
G01 X167.1926 Y44.3777 Z-0.8665
G01 X167.2280 Y44.3537 Z-0.8788
G01 X167.2623 Y44.3280 Z-0.8911
G01 X167.2954 Y44.3007 Z-0.9034
G01 X167.3271 Y44.2719 Z-0.9157
G01 X167.3574 Y44.2416 Z-0.9280
G01 X167.3862 Y44.2099 Z-0.9403
G01 X167.4134 Y44.1769 Z-0.9527
G01 X167.4391 Y44.1426 Z-0.9650
G01 X167.4631 Y44.1071 Z-0.9773
G01 X167.4854 Y44.0706 Z-0.9896
G01 X167.5059 Y44.0330 Z-1.0019
G01 X167.5247 Y43.9944 Z-1.0142
G01 X167.5415 Y43.9551 Z-1.0265
G01 X167.5565 Y43.9149 Z-1.0388
G01 X167.5695 Y43.8741 Z-1.0511
G01 X167.5806 Y43.8327 Z-1.0634
G01 X167.5897 Y43.7909 Z-1.0758
G01 X167.5968 Y43.7486 Z-1.0881
G01 X167.6019 Y43.7061 Z-1.1004
G01 X167.6050 Y43.6634 Z-1.1127
G01 X167.6060 Y43.6206 Z-1.1250
G01 X167.6050 Y43.5777
G01 X167.6019 Y43.5350
G01 X167.5968 Y43.4925
G01 X167.5897 Y43.4502
G01 X167.5806 Y43.4084
G01 X167.5695 Y43.3670
G01 X167.5565 Y43.3262
G01 X167.5415 Y43.2861
G01 X167.5247 Y43.2467
G01 X167.5059 Y43.2082
G01 X167.4854 Y43.1706
G01 X167.4631 Y43.1340
G01 X167.4391 Y43.0985
G01 X167.4134 Y43.0642
G01 X167.3862 Y43.0312
G01 X167.3574 Y42.9995
G01 X167.3271 Y42.9692
G01 X167.2954 Y42.9404
G01 X167.2623 Y42.9131
G01 X167.2280 Y42.8874
G01 X167.1926 Y42.8634
G01 X167.1560 Y42.8411
G01 X167.1184 Y42.8206
G01 X167.0799 Y42.8019
G01 X167.0405 Y42.7850
G01 X167.0004 Y42.7701
G01 X166.9596 Y42.7570
G01 X166.9182 Y42.7459
G01 X166.8763 Y42.7368
G01 X166.8341 Y42.7297
G01 X166.7915 Y42.7246
G01 X166.7488 Y42.7216
G01 X166.7060 Y42.7206
G01 X166.6632 Y42.7216
G01 X166.6204 Y42.7246
G01 X166.5779 Y42.7297
G01 X166.5357 Y42.7368
G01 X166.4938 Y42.7459
G01 X166.4524 Y42.7570
G01 X166.4116 Y42.7701
G01 X166.3715 Y42.7850
G01 X166.3321 Y42.8019
G01 X166.2936 Y42.8206
G01 X166.2560 Y42.8411
G01 X166.2194 Y42.8634
G01 X166.1839 Y42.8874
G01 X166.1497 Y42.9131
G01 X166.1166 Y42.9404
G01 X166.0849 Y42.9692
G01 X166.0546 Y42.9995
G01 X166.0258 Y43.0312
G01 X165.9985 Y43.0642
G01 X165.9729 Y43.0985
G01 X165.9489 Y43.1340
G01 X165.9266 Y43.1706
G01 X165.9060 Y43.2082
G01 X165.8873 Y43.2467
G01 X165.8705 Y43.2861
G01 X165.8555 Y43.3262
G01 X165.8424 Y43.3670
G01 X165.8314 Y43.4084
G01 X165.8223 Y43.4502
G01 X165.8152 Y43.4925
G01 X165.8101 Y43.5350
G01 X165.8070 Y43.5777
G01 X165.8060 Y43.6206
G01 X165.8070 Y43.6634
G01 X165.8101 Y43.7061
G01 X165.8152 Y43.7486
G01 X165.8223 Y43.7909
G01 X165.8314 Y43.8327
G01 X165.8424 Y43.8741
G01 X165.8555 Y43.9149
G01 X165.8705 Y43.9551
G01 X165.8873 Y43.9944
G01 X165.9060 Y44.0330
G01 X165.9266 Y44.0706
G01 X165.9489 Y44.1071
G01 X165.9729 Y44.1426
G01 X165.9985 Y44.1769
G01 X166.0258 Y44.2099
G01 X166.0546 Y44.2416
G01 X166.0849 Y44.2719
G01 X166.1166 Y44.3007
G01 X166.1497 Y44.3280
G01 X166.1839 Y44.3537
G01 X166.2194 Y44.3777
G01 X166.2560 Y44.4000
G01 X166.2936 Y44.4205
G01 X166.3321 Y44.4392
G01 X166.3715 Y44.4561
G01 X166.4116 Y44.4711
G01 X166.4524 Y44.4841
G01 X166.4938 Y44.4952
G01 X166.5357 Y44.5043
G01 X166.5779 Y44.5114
G01 X166.6204 Y44.5165
G01 X166.6632 Y44.5195
G01 X166.7060 Y44.5206
G01 X166.7488 Y44.5195
G01 X166.7915 Y44.5165
G01 X166.8341 Y44.5114
G01 X166.8763 Y44.5043
G01 X166.9182 Y44.4952
G01 X166.9596 Y44.4841
G01 X167.0004 Y44.4711
G01 X167.0405 Y44.4561
G01 X167.0799 Y44.4392
G01 X167.1184 Y44.4205
G01 X167.1560 Y44.4000
G01 X167.1926 Y44.3777
G01 X167.2280 Y44.3537
G01 X167.2623 Y44.3280
G01 X167.2954 Y44.3007
G01 X167.3271 Y44.2719
G01 X167.3574 Y44.2416
G01 X167.3862 Y44.2099
G01 X167.4134 Y44.1769
G01 X167.4391 Y44.1426
G01 X167.4631 Y44.1071
G01 X167.4854 Y44.0706
G01 X167.5059 Y44.0330
G01 X167.5247 Y43.9944
G01 X167.5415 Y43.9551
G01 X167.5565 Y43.9149
G01 X167.5695 Y43.8741
G01 X167.5806 Y43.8327
G01 X167.5897 Y43.7909
G01 X167.5968 Y43.7486
G01 X167.6019 Y43.7061
G01 X167.6050 Y43.6634
G01 X167.6060 Y43.6206
G01 X167.6135 Y43.5895 F1000
G01 X167.6200 Y43.5582
G01 X167.6254 Y43.5267
G01 X167.6296 Y43.4950
G01 X167.6328 Y43.4632
G01 X167.6349 Y43.4314
G01 X167.6359 Y43.3994
G01 X167.6357 Y43.3675
G01 X167.6345 Y43.3355
G01 X167.6321 Y43.3037
G01 X167.6287 Y43.2719
G01 X167.6241 Y43.2403
G01 X167.6144 Y43.1888
G01 X167.6021 Y43.1378
G01 X167.5871 Y43.0876
G01 X167.5696 Y43.0382
G01 X167.5496 Y42.9898
G01 X167.5271 Y42.9425
G01 X167.5022 Y42.8963
G01 X167.4750 Y42.8516
G01 X167.4429 Y42.8046
G01 X167.4086 Y42.7592
G01 X167.3719 Y42.7157
G01 X167.3331 Y42.6741
G01 X167.2921 Y42.6346
G01 X167.2493 Y42.5972
G01 X167.2045 Y42.5620
G01 X167.1580 Y42.5292
G01 X167.1061 Y42.4964
G01 X167.0526 Y42.4663
G01 X166.9977 Y42.4389
G01 X166.9414 Y42.4143
G01 X166.8839 Y42.3927
G01 X166.8254 Y42.3739
G01 X166.7661 Y42.3582
G01 X166.7060 Y42.3456
G01 X166.6409 Y42.3352
G01 X166.5753 Y42.3282
G01 X166.5095 Y42.3245
G01 X166.4436 Y42.3242
G01 X166.3777 Y42.3271
G01 X166.3121 Y42.3335
G01 X166.2468 Y42.3431
G01 X166.1822 Y42.3560
G01 X166.1139 Y42.3733
G01 X166.0465 Y42.3940
G01 X165.9803 Y42.4180
G01 X165.9154 Y42.4454
G01 X165.8519 Y42.4760
G01 X165.7900 Y42.5098
G01 X165.7300 Y42.5466
G01 X165.6718 Y42.5864
G01 X165.6183 Y42.6358
G01 X165.5673 Y42.6879
G01 X165.5189 Y42.7423
G01 X165.4733 Y42.7991
G01 X165.4305 Y42.8580
G01 X165.3906 Y42.9190
G01 X165.3538 Y42.9819
G01 X165.3202 Y43.0465
G01 X165.2937 Y43.1152
G01 X165.2706 Y43.1851
G01 X165.2510 Y43.2561
G01 X165.2348 Y43.3279
G01 X165.2223 Y43.4005
G01 X165.2132 Y43.4735
G01 X165.2078 Y43.5470
G01 X165.2060 Y43.6206
G01 X165.2078 Y43.6942
G01 X165.2132 Y43.7676
G01 X165.2223 Y43.8407
G01 X165.2348 Y43.9132
G01 X165.2510 Y43.9850
G01 X165.2706 Y44.0560
G01 X165.2937 Y44.1259
G01 X165.3202 Y44.1946
G01 X165.3500 Y44.2619
G01 X165.3831 Y44.3276
G01 X165.4194 Y44.3917
G01 X165.4588 Y44.4539
G01 X165.5012 Y44.5141
G01 X165.5465 Y44.5721
G01 X165.5946 Y44.6279
G01 X165.6454 Y44.6812
G01 X165.6987 Y44.7320
G01 X165.7544 Y44.7801
G01 X165.8125 Y44.8254
G01 X165.8727 Y44.8677
G01 X165.9349 Y44.9071
G01 X165.9989 Y44.9434
G01 X166.0647 Y44.9765
G01 X166.1320 Y45.0064
G01 X166.2007 Y45.0329
G01 X166.2706 Y45.0559
G01 X166.3415 Y45.0756
G01 X166.4134 Y45.0917
G01 X166.4859 Y45.1043
G01 X166.5590 Y45.1133
G01 X166.6324 Y45.1187
G01 X166.7060 Y45.1205
G01 X166.7796 Y45.1187
G01 X166.8530 Y45.1133
G01 X166.9261 Y45.1043
G01 X166.9986 Y45.0917
G01 X167.0705 Y45.0756
G01 X167.1414 Y45.0559
G01 X167.2113 Y45.0329
G01 X167.2800 Y45.0064
G01 X167.3473 Y44.9765
G01 X167.4131 Y44.9434
G01 X167.4771 Y44.9071
G01 X167.5393 Y44.8677
G01 X167.5995 Y44.8254
G01 X167.6576 Y44.7801
G01 X167.7133 Y44.7320
G01 X167.7666 Y44.6812
G01 X167.8174 Y44.6279
G01 X167.8655 Y44.5721
G01 X167.9108 Y44.5141
G01 X167.9532 Y44.4539
G01 X167.9926 Y44.3917
G01 X168.0289 Y44.3276
G01 X168.0620 Y44.2619
G01 X168.0918 Y44.1946
G01 X168.1183 Y44.1259
G01 X168.1414 Y44.0560
G01 X168.1610 Y43.9850
G01 X168.1771 Y43.9132
G01 X168.1897 Y43.8407
G01 X168.1987 Y43.7676
G01 X168.2042 Y43.6942
G01 X168.2060 Y43.6206
G01 X168.2018 Y43.5085
G01 X168.1892 Y43.3970
G01 X168.1684 Y43.2868
G01 X168.1393 Y43.1784
G01 X168.1023 Y43.0726
G01 X168.0574 Y42.9697
G01 X168.0050 Y42.8706
G01 X167.9453 Y42.7756
G01 X167.8787 Y42.6853
G01 X167.8056 Y42.6003
G01 X167.7262 Y42.5210
G01 X167.6412 Y42.4478
G01 X167.5510 Y42.3812
G01 X167.4560 Y42.3215
G01 X167.3568 Y42.2691
G01 X167.2540 Y42.2243
G01 X167.1481 Y42.1872
G01 X167.0398 Y42.1582
G01 X166.9296 Y42.1373
G01 X166.8181 Y42.1248
G01 X166.7060 Y42.1206
G01 X166.5939 Y42.1248
G01 X166.4824 Y42.1373
G01 X166.3722 Y42.1582
G01 X166.2639 Y42.1872
G01 X166.1580 Y42.2243
G01 X166.0552 Y42.2691
G01 X165.9560 Y42.3215
G01 X165.8610 Y42.3812
G01 X165.7708 Y42.4478
G01 X165.6858 Y42.5210
G01 X165.6064 Y42.6003
G01 X165.5333 Y42.6853
G01 X165.4667 Y42.7756
G01 X165.4070 Y42.8706
G01 X165.3546 Y42.9697
G01 X165.3097 Y43.0726
G01 X165.2727 Y43.1784
G01 X165.2436 Y43.2868
G01 X165.2228 Y43.3970
G01 X165.2102 Y43.5085
G01 X165.2060 Y43.6206
G01 X165.2102 Y43.7327
G01 X165.2228 Y43.8441
G01 X165.2436 Y43.9543
G01 X165.2727 Y44.0627
G01 X165.3097 Y44.1686
G01 X165.3546 Y44.2714
G01 X165.4070 Y44.3705
G01 X165.4667 Y44.4655
G01 X165.5333 Y44.5558
G01 X165.6064 Y44.6408
G01 X165.6858 Y44.7201
G01 X165.7708 Y44.7933
G01 X165.8610 Y44.8599
G01 X165.9560 Y44.9196
G01 X166.0552 Y44.9720
G01 X166.1580 Y45.0168
G01 X166.2639 Y45.0539
G01 X166.3722 Y45.0829
G01 X166.4824 Y45.1038
G01 X166.5939 Y45.1163
G01 X166.7060 Y45.1205
G01 X166.8181 Y45.1163
G01 X166.9296 Y45.1038
G01 X167.0398 Y45.0829
G01 X167.1481 Y45.0539
G01 X167.2540 Y45.0168
G01 X167.3568 Y44.9720
G01 X167.4560 Y44.9196
G01 X167.5510 Y44.8599
G01 X167.6412 Y44.7933
G01 X167.7262 Y44.7201
G01 X167.8056 Y44.6408
G01 X167.8787 Y44.5558
G01 X167.9453 Y44.4655
G01 X168.0050 Y44.3705
G01 X168.0574 Y44.2714
G01 X168.1023 Y44.1686
G01 X168.1393 Y44.0627
G01 X168.1684 Y43.9543
G01 X168.1892 Y43.8441
G01 X168.2018 Y43.7327
G01 X168.2060 Y43.6206
G01 X168.2014 Y43.5160
G01 X168.1877 Y43.4122
G01 X168.1651 Y43.3100
G01 X168.1336 Y43.2101
G01 X168.0935 Y43.1134
G01 X168.0452 Y43.0206
G01 X167.9890 Y42.9323
G01 X167.9252 Y42.8492
G01 X167.8545 Y42.7720
G01 X167.7773 Y42.7013
G01 X167.6943 Y42.6376
G01 X167.6060 Y42.5813
G01 X167.5131 Y42.5330
G01 X167.4164 Y42.4929
G01 X167.3166 Y42.4615
G01 X167.2144 Y42.4388
G01 X167.1106 Y42.4251
G01 X167.0060 Y42.4206
G01 X166.9014 Y42.4251
G01 X166.7976 Y42.4388
G01 X166.6954 Y42.4615
G01 X166.5956 Y42.4929
G01 X166.4988 Y42.5330
G01 X166.4060 Y42.5813
G01 X166.3177 Y42.6376
G01 X166.2346 Y42.7013
G01 X166.1575 Y42.7720
G01 X166.0867 Y42.8492
G01 X166.0230 Y42.9323
G01 X165.9668 Y43.0206
G01 X165.9184 Y43.1134
G01 X165.8784 Y43.2101
G01 X165.8469 Y43.3100
G01 X165.8242 Y43.4122
G01 X165.8106 Y43.5160
G01 X165.8060 Y43.6206
G01 X165.8071 Y43.6647
G01 X165.8103 Y43.7088
G01 X165.8157 Y43.7526
G01 X165.8233 Y43.7961
G01 X165.8330 Y43.8392
G01 X165.8447 Y43.8818
G01 X165.8586 Y43.9238
G01 X165.8745 Y43.9650
G01 X165.8924 Y44.0054
G01 X165.9123 Y44.0448
G01 X165.9340 Y44.0833
G01 X165.9577 Y44.1206
G01 X165.9831 Y44.1567
G01 X166.0103 Y44.1915
G01 X166.0391 Y44.2250
G01 X166.0696 Y44.2570
G01 X166.1016 Y44.2874
G01 X166.1350 Y44.3163
G01 X166.1699 Y44.3434
G01 X166.2060 Y44.3689
G01 X166.2433 Y44.3925
G01 X166.2817 Y44.4143
G01 X166.3212 Y44.4342
G01 X166.3616 Y44.4521
G01 X166.4028 Y44.4680
G01 X166.4447 Y44.4818
G01 X166.4873 Y44.4936
G01 X166.5304 Y44.5033
G01 X166.5739 Y44.5108
G01 X166.6178 Y44.5162
G01 X166.6618 Y44.5195
G01 X166.7060 Y44.5206
G01 X166.7502 Y44.5195
G01 X166.7942 Y44.5162
G01 X166.8381 Y44.5108
G01 X166.8816 Y44.5033
G01 X166.9247 Y44.4936
G01 X166.9672 Y44.4818
G01 X167.0092 Y44.4680
G01 X167.0504 Y44.4521
G01 X167.0908 Y44.4342
G01 X167.1303 Y44.4143
G01 X167.1687 Y44.3925
G01 X167.2060 Y44.3689
G01 X167.2421 Y44.3434
G01 X167.2769 Y44.3163
G01 X167.3104 Y44.2874
G01 X167.3424 Y44.2570
G01 X167.3728 Y44.2250
G01 X167.4017 Y44.1915
G01 X167.4289 Y44.1567
G01 X167.4543 Y44.1206
G01 X167.4779 Y44.0833
G01 X167.4997 Y44.0448
G01 X167.5196 Y44.0054
G01 X167.5375 Y43.9650
G01 X167.5534 Y43.9238
G01 X167.5672 Y43.8818
G01 X167.5790 Y43.8392
G01 X167.5887 Y43.7961
G01 X167.5963 Y43.7526
G01 X167.6017 Y43.7088
G01 X167.6049 Y43.6647
G01 X167.6060 Y43.6206
M107
M106 S240
G01 X167.6050 Y43.5777 Z-1.1373 F400
G01 X167.6019 Y43.5350 Z-1.1496
G01 X167.5968 Y43.4925 Z-1.1619
G01 X167.5897 Y43.4502 Z-1.1742
G01 X167.5806 Y43.4084 Z-1.1866
G01 X167.5695 Y43.3670 Z-1.1989
G01 X167.5565 Y43.3262 Z-1.2112
G01 X167.5415 Y43.2861 Z-1.2235
G01 X167.5247 Y43.2467 Z-1.2358
G01 X167.5059 Y43.2082 Z-1.2481
G01 X167.4854 Y43.1706 Z-1.2604
G01 X167.4631 Y43.1340 Z-1.2727
G01 X167.4391 Y43.0985 Z-1.2850
G01 X167.4134 Y43.0642 Z-1.2973
G01 X167.3862 Y43.0312 Z-1.3097
G01 X167.3574 Y42.9995 Z-1.3220
G01 X167.3271 Y42.9692 Z-1.3343
G01 X167.2954 Y42.9404 Z-1.3466
G01 X167.2623 Y42.9131 Z-1.3589
G01 X167.2280 Y42.8874 Z-1.3712
G01 X167.1926 Y42.8634 Z-1.3835
G01 X167.1560 Y42.8411 Z-1.3958
G01 X167.1184 Y42.8206 Z-1.4081
G01 X167.0799 Y42.8019 Z-1.4205
G01 X167.0405 Y42.7850 Z-1.4328
G01 X167.0004 Y42.7701 Z-1.4451
G01 X166.9596 Y42.7570 Z-1.4574
G01 X166.9182 Y42.7459 Z-1.4697
G01 X166.8763 Y42.7368 Z-1.4820
G01 X166.8341 Y42.7297 Z-1.4943
G01 X166.7915 Y42.7246 Z-1.5066
G01 X166.7488 Y42.7216 Z-1.5189
G01 X166.7060 Y42.7206 Z-1.5313
G01 X166.6632 Y42.7216 Z-1.5436
G01 X166.6204 Y42.7246 Z-1.5559
G01 X166.5779 Y42.7297 Z-1.5682
G01 X166.5357 Y42.7368 Z-1.5805
G01 X166.4938 Y42.7459 Z-1.5928
G01 X166.4524 Y42.7570 Z-1.6051
G01 X166.4116 Y42.7701 Z-1.6174
G01 X166.3715 Y42.7850 Z-1.6297
G01 X166.3321 Y42.8019 Z-1.6420
G01 X166.2936 Y42.8206 Z-1.6544
G01 X166.2560 Y42.8411 Z-1.6667
G01 X166.2194 Y42.8634 Z-1.6790
G01 X166.1839 Y42.8874 Z-1.6913
G01 X166.1497 Y42.9131 Z-1.7036
G01 X166.1166 Y42.9404 Z-1.7159
G01 X166.0849 Y42.9692 Z-1.7282
G01 X166.0546 Y42.9995 Z-1.7405
G01 X166.0258 Y43.0312 Z-1.7528
G01 X165.9985 Y43.0642 Z-1.7652
G01 X165.9729 Y43.0985 Z-1.7775
G01 X165.9489 Y43.1340 Z-1.7898
G01 X165.9266 Y43.1706 Z-1.8021
G01 X165.9060 Y43.2082 Z-1.8144
G01 X165.8873 Y43.2467 Z-1.8267
G01 X165.8705 Y43.2861 Z-1.8390
G01 X165.8555 Y43.3262 Z-1.8513
G01 X165.8424 Y43.3670 Z-1.8636
G01 X165.8314 Y43.4084 Z-1.8759
G01 X165.8223 Y43.4502 Z-1.8883
G01 X165.8152 Y43.4925 Z-1.9006
G01 X165.8101 Y43.5350 Z-1.9129
G01 X165.8070 Y43.5777 Z-1.9252
G01 X165.8060 Y43.6206 Z-1.9375
G01 X165.8070 Y43.6634 Z-1.9498
G01 X165.8101 Y43.7061 Z-1.9621
G01 X165.8152 Y43.7486 Z-1.9744
G01 X165.8223 Y43.7909 Z-1.9867
G01 X165.8314 Y43.8327 Z-1.9991
G01 X165.8424 Y43.8741 Z-2.0114
G01 X165.8555 Y43.9149 Z-2.0237
G01 X165.8705 Y43.9551 Z-2.0360
G01 X165.8873 Y43.9944 Z-2.0483
G01 X165.9060 Y44.0330 Z-2.0606
G01 X165.9266 Y44.0706 Z-2.0729
G01 X165.9489 Y44.1071 Z-2.0852
G01 X165.9729 Y44.1426 Z-2.0975
G01 X165.9985 Y44.1769 Z-2.1098
G01 X166.0258 Y44.2099 Z-2.1222
G01 X166.0546 Y44.2416 Z-2.1345
G01 X166.0849 Y44.2719 Z-2.1468
G01 X166.1166 Y44.3007 Z-2.1591
G01 X166.1497 Y44.3280 Z-2.1714
G01 X166.1839 Y44.3537 Z-2.1837
G01 X166.2194 Y44.3777 Z-2.1960
G01 X166.2560 Y44.4000 Z-2.2083
G01 X166.2936 Y44.4205 Z-2.2206
G01 X166.3321 Y44.4392 Z-2.2330
G01 X166.3715 Y44.4561 Z-2.2453
G01 X166.4116 Y44.4711 Z-2.2576
G01 X166.4524 Y44.4841 Z-2.2699
G01 X166.4938 Y44.4952 Z-2.2822
G01 X166.5357 Y44.5043 Z-2.2945
G01 X166.5779 Y44.5114 Z-2.3068
G01 X166.6204 Y44.5165 Z-2.3191
G01 X166.6632 Y44.5195 Z-2.3314
G01 X166.7060 Y44.5206 Z-2.3438
G01 X166.7488 Y44.5195 Z-2.3561
G01 X166.7915 Y44.5165 Z-2.3684
G01 X166.8341 Y44.5114 Z-2.3807
G01 X166.8763 Y44.5043 Z-2.3930
G01 X166.9182 Y44.4952 Z-2.4053
G01 X166.9596 Y44.4841 Z-2.4176
G01 X167.0004 Y44.4711 Z-2.4299
G01 X167.0405 Y44.4561 Z-2.4422
G01 X167.0799 Y44.4392 Z-2.4545
G01 X167.1184 Y44.4205 Z-2.4669
G01 X167.1560 Y44.4000 Z-2.4792
G01 X167.1926 Y44.3777 Z-2.4915
G01 X167.2280 Y44.3537 Z-2.5038
G01 X167.2623 Y44.3280 Z-2.5161
G01 X167.2954 Y44.3007 Z-2.5284
G01 X167.3271 Y44.2719 Z-2.5407
G01 X167.3574 Y44.2416 Z-2.5530
G01 X167.3862 Y44.2099 Z-2.5653
G01 X167.4134 Y44.1769 Z-2.5777
G01 X167.4391 Y44.1426 Z-2.5900
G01 X167.4631 Y44.1071 Z-2.6023
G01 X167.4854 Y44.0706 Z-2.6146
G01 X167.5059 Y44.0330 Z-2.6269
G01 X167.5247 Y43.9944 Z-2.6392
G01 X167.5415 Y43.9551 Z-2.6515
G01 X167.5565 Y43.9149 Z-2.6638
G01 X167.5695 Y43.8741 Z-2.6761
G01 X167.5806 Y43.8327 Z-2.6884
G01 X167.5897 Y43.7909 Z-2.7008
G01 X167.5968 Y43.7486 Z-2.7131
G01 X167.6019 Y43.7061 Z-2.7254
G01 X167.6050 Y43.6634 Z-2.7377
G01 X167.6060 Y43.6206 Z-2.7500
G01 X167.6050 Y43.5777
G01 X167.6019 Y43.5350
G01 X167.5968 Y43.4925
G01 X167.5897 Y43.4502
G01 X167.5806 Y43.4084
G01 X167.5695 Y43.3670
G01 X167.5565 Y43.3262
G01 X167.5415 Y43.2861
G01 X167.5247 Y43.2467
G01 X167.5059 Y43.2082
G01 X167.4854 Y43.1706
G01 X167.4631 Y43.1340
G01 X167.4391 Y43.0985
G01 X167.4134 Y43.0642
G01 X167.3862 Y43.0312
G01 X167.3574 Y42.9995
G01 X167.3271 Y42.9692
G01 X167.2954 Y42.9404
G01 X167.2623 Y42.9131
G01 X167.2280 Y42.8874
G01 X167.1926 Y42.8634
G01 X167.1560 Y42.8411
G01 X167.1184 Y42.8206
G01 X167.0799 Y42.8019
G01 X167.0405 Y42.7850
G01 X167.0004 Y42.7701
G01 X166.9596 Y42.7570
G01 X166.9182 Y42.7459
G01 X166.8763 Y42.7368
G01 X166.8341 Y42.7297
G01 X166.7915 Y42.7246
G01 X166.7488 Y42.7216
G01 X166.7060 Y42.7206
G01 X166.6632 Y42.7216
G01 X166.6204 Y42.7246
G01 X166.5779 Y42.7297
G01 X166.5357 Y42.7368
G01 X166.4938 Y42.7459
G01 X166.4524 Y42.7570
G01 X166.4116 Y42.7701
G01 X166.3715 Y42.7850
G01 X166.3321 Y42.8019
G01 X166.2936 Y42.8206
G01 X166.2560 Y42.8411
G01 X166.2194 Y42.8634
G01 X166.1839 Y42.8874
G01 X166.1497 Y42.9131
G01 X166.1166 Y42.9404
G01 X166.0849 Y42.9692
G01 X166.0546 Y42.9995
G01 X166.0258 Y43.0312
G01 X165.9985 Y43.0642
G01 X165.9729 Y43.0985
G01 X165.9489 Y43.1340
G01 X165.9266 Y43.1706
G01 X165.9060 Y43.2082
G01 X165.8873 Y43.2467
G01 X165.8705 Y43.2861
G01 X165.8555 Y43.3262
G01 X165.8424 Y43.3670
G01 X165.8314 Y43.4084
G01 X165.8223 Y43.4502
G01 X165.8152 Y43.4925
G01 X165.8101 Y43.5350
G01 X165.8070 Y43.5777
G01 X165.8060 Y43.6206
G01 X165.8070 Y43.6634
G01 X165.8101 Y43.7061
G01 X165.8152 Y43.7486
G01 X165.8223 Y43.7909
G01 X165.8314 Y43.8327
G01 X165.8424 Y43.8741
G01 X165.8555 Y43.9149
G01 X165.8705 Y43.9551
G01 X165.8873 Y43.9944
G01 X165.9060 Y44.0330
G01 X165.9266 Y44.0706
G01 X165.9489 Y44.1071
G01 X165.9729 Y44.1426
G01 X165.9985 Y44.1769
G01 X166.0258 Y44.2099
G01 X166.0546 Y44.2416
G01 X166.0849 Y44.2719
G01 X166.1166 Y44.3007
G01 X166.1497 Y44.3280
G01 X166.1839 Y44.3537
G01 X166.2194 Y44.3777
G01 X166.2560 Y44.4000
G01 X166.2936 Y44.4205
G01 X166.3321 Y44.4392
G01 X166.3715 Y44.4561
G01 X166.4116 Y44.4711
G01 X166.4524 Y44.4841
G01 X166.4938 Y44.4952
G01 X166.5357 Y44.5043
G01 X166.5779 Y44.5114
G01 X166.6204 Y44.5165
G01 X166.6632 Y44.5195
G01 X166.7060 Y44.5206
G01 X166.7488 Y44.5195
G01 X166.7915 Y44.5165
G01 X166.8341 Y44.5114
G01 X166.8763 Y44.5043
G01 X166.9182 Y44.4952
G01 X166.9596 Y44.4841
G01 X167.0004 Y44.4711
G01 X167.0405 Y44.4561
G01 X167.0799 Y44.4392
G01 X167.1184 Y44.4205
G01 X167.1560 Y44.4000
G01 X167.1926 Y44.3777
G01 X167.2280 Y44.3537
G01 X167.2623 Y44.3280
G01 X167.2954 Y44.3007
G01 X167.3271 Y44.2719
G01 X167.3574 Y44.2416
G01 X167.3862 Y44.2099
G01 X167.4134 Y44.1769
G01 X167.4391 Y44.1426
G01 X167.4631 Y44.1071
G01 X167.4854 Y44.0706
G01 X167.5059 Y44.0330
G01 X167.5247 Y43.9944
G01 X167.5415 Y43.9551
G01 X167.5565 Y43.9149
G01 X167.5695 Y43.8741
G01 X167.5806 Y43.8327
G01 X167.5897 Y43.7909
G01 X167.5968 Y43.7486
G01 X167.6019 Y43.7061
G01 X167.6050 Y43.6634
G01 X167.6060 Y43.6206
G01 X167.6135 Y43.5895 F1000
G01 X167.6200 Y43.5582
G01 X167.6254 Y43.5267
G01 X167.6296 Y43.4950
G01 X167.6328 Y43.4632
G01 X167.6349 Y43.4314
G01 X167.6359 Y43.3994
G01 X167.6357 Y43.3675
G01 X167.6345 Y43.3355
G01 X167.6321 Y43.3037
G01 X167.6287 Y43.2719
G01 X167.6241 Y43.2403
G01 X167.6144 Y43.1888
G01 X167.6021 Y43.1378
G01 X167.5871 Y43.0876
G01 X167.5696 Y43.0382
G01 X167.5496 Y42.9898
G01 X167.5271 Y42.9425
G01 X167.5022 Y42.8963
G01 X167.4750 Y42.8516
G01 X167.4429 Y42.8046
G01 X167.4086 Y42.7592
G01 X167.3719 Y42.7157
G01 X167.3331 Y42.6741
G01 X167.2921 Y42.6346
G01 X167.2493 Y42.5972
G01 X167.2045 Y42.5620
G01 X167.1580 Y42.5292
G01 X167.1061 Y42.4964
G01 X167.0526 Y42.4663
G01 X166.9977 Y42.4389
G01 X166.9414 Y42.4143
G01 X166.8839 Y42.3927
G01 X166.8254 Y42.3739
G01 X166.7661 Y42.3582
G01 X166.7060 Y42.3456
G01 X166.6409 Y42.3352
G01 X166.5753 Y42.3282
G01 X166.5095 Y42.3245
G01 X166.4436 Y42.3242
G01 X166.3777 Y42.3271
G01 X166.3121 Y42.3335
G01 X166.2468 Y42.3431
G01 X166.1822 Y42.3560
G01 X166.1139 Y42.3733
G01 X166.0465 Y42.3940
G01 X165.9803 Y42.4180
G01 X165.9154 Y42.4454
G01 X165.8519 Y42.4760
G01 X165.7900 Y42.5098
G01 X165.7300 Y42.5466
G01 X165.6718 Y42.5864
G01 X165.6183 Y42.6358
G01 X165.5673 Y42.6879
G01 X165.5189 Y42.7423
G01 X165.4733 Y42.7991
G01 X165.4305 Y42.8580
G01 X165.3906 Y42.9190
G01 X165.3538 Y42.9819
G01 X165.3202 Y43.0465
G01 X165.2937 Y43.1152
G01 X165.2706 Y43.1851
G01 X165.2510 Y43.2561
G01 X165.2348 Y43.3279
G01 X165.2223 Y43.4005
G01 X165.2132 Y43.4735
G01 X165.2078 Y43.5470
G01 X165.2060 Y43.6206
G01 X165.2078 Y43.6942
G01 X165.2132 Y43.7676
G01 X165.2223 Y43.8407
G01 X165.2348 Y43.9132
G01 X165.2510 Y43.9850
G01 X165.2706 Y44.0560
G01 X165.2937 Y44.1259
G01 X165.3202 Y44.1946
G01 X165.3500 Y44.2619
G01 X165.3831 Y44.3276
G01 X165.4194 Y44.3917
G01 X165.4588 Y44.4539
G01 X165.5012 Y44.5141
G01 X165.5465 Y44.5721
G01 X165.5946 Y44.6279
G01 X165.6454 Y44.6812
G01 X165.6987 Y44.7320
G01 X165.7544 Y44.7801
G01 X165.8125 Y44.8254
G01 X165.8727 Y44.8677
G01 X165.9349 Y44.9071
G01 X165.9989 Y44.9434
G01 X166.0647 Y44.9765
G01 X166.1320 Y45.0064
G01 X166.2007 Y45.0329
G01 X166.2706 Y45.0559
G01 X166.3415 Y45.0756
G01 X166.4134 Y45.0917
G01 X166.4859 Y45.1043
G01 X166.5590 Y45.1133
G01 X166.6324 Y45.1187
G01 X166.7060 Y45.1205
G01 X166.7796 Y45.1187
G01 X166.8530 Y45.1133
G01 X166.9261 Y45.1043
G01 X166.9986 Y45.0917
G01 X167.0705 Y45.0756
G01 X167.1414 Y45.0559
G01 X167.2113 Y45.0329
G01 X167.2800 Y45.0064
G01 X167.3473 Y44.9765
G01 X167.4131 Y44.9434
G01 X167.4771 Y44.9071
G01 X167.5393 Y44.8677
G01 X167.5995 Y44.8254
G01 X167.6576 Y44.7801
G01 X167.7133 Y44.7320
G01 X167.7666 Y44.6812
G01 X167.8174 Y44.6279
G01 X167.8655 Y44.5721
G01 X167.9108 Y44.5141
G01 X167.9532 Y44.4539
G01 X167.9926 Y44.3917
G01 X168.0289 Y44.3276
G01 X168.0620 Y44.2619
G01 X168.0918 Y44.1946
G01 X168.1183 Y44.1259
G01 X168.1414 Y44.0560
G01 X168.1610 Y43.9850
G01 X168.1771 Y43.9132
G01 X168.1897 Y43.8407
G01 X168.1987 Y43.7676
G01 X168.2042 Y43.6942
G01 X168.2060 Y43.6206
G01 X168.2018 Y43.5085
G01 X168.1892 Y43.3970
G01 X168.1684 Y43.2868
G01 X168.1393 Y43.1784
G01 X168.1023 Y43.0726
G01 X168.0574 Y42.9697
G01 X168.0050 Y42.8706
G01 X167.9453 Y42.7756
G01 X167.8787 Y42.6853
G01 X167.8056 Y42.6003
G01 X167.7262 Y42.5210
G01 X167.6412 Y42.4478
G01 X167.5510 Y42.3812
G01 X167.4560 Y42.3215
G01 X167.3568 Y42.2691
G01 X167.2540 Y42.2243
G01 X167.1481 Y42.1872
G01 X167.0398 Y42.1582
G01 X166.9296 Y42.1373
G01 X166.8181 Y42.1248
G01 X166.7060 Y42.1206
G01 X166.5939 Y42.1248
G01 X166.4824 Y42.1373
G01 X166.3722 Y42.1582
G01 X166.2639 Y42.1872
G01 X166.1580 Y42.2243
G01 X166.0552 Y42.2691
G01 X165.9560 Y42.3215
G01 X165.8610 Y42.3812
G01 X165.7708 Y42.4478
G01 X165.6858 Y42.5210
G01 X165.6064 Y42.6003
G01 X165.5333 Y42.6853
G01 X165.4667 Y42.7756
G01 X165.4070 Y42.8706
G01 X165.3546 Y42.9697
G01 X165.3097 Y43.0726
G01 X165.2727 Y43.1784
G01 X165.2436 Y43.2868
G01 X165.2228 Y43.3970
G01 X165.2102 Y43.5085
G01 X165.2060 Y43.6206
G01 X165.2102 Y43.7327
G01 X165.2228 Y43.8441
G01 X165.2436 Y43.9543
G01 X165.2727 Y44.0627
G01 X165.3097 Y44.1686
G01 X165.3546 Y44.2714
G01 X165.4070 Y44.3705
G01 X165.4667 Y44.4655
G01 X165.5333 Y44.5558
G01 X165.6064 Y44.6408
G01 X165.6858 Y44.7201
G01 X165.7708 Y44.7933
G01 X165.8610 Y44.8599
G01 X165.9560 Y44.9196
G01 X166.0552 Y44.9720
G01 X166.1580 Y45.0168
G01 X166.2639 Y45.0539
G01 X166.3722 Y45.0829
G01 X166.4824 Y45.1038
G01 X166.5939 Y45.1163
G01 X166.7060 Y45.1205
G01 X166.8181 Y45.1163
G01 X166.9296 Y45.1038
G01 X167.0398 Y45.0829
G01 X167.1481 Y45.0539
G01 X167.2540 Y45.0168
G01 X167.3568 Y44.9720
G01 X167.4560 Y44.9196
G01 X167.5510 Y44.8599
G01 X167.6412 Y44.7933
G01 X167.7262 Y44.7201
G01 X167.8056 Y44.6408
G01 X167.8787 Y44.5558
G01 X167.9453 Y44.4655
G01 X168.0050 Y44.3705
G01 X168.0574 Y44.2714
G01 X168.1023 Y44.1686
G01 X168.1393 Y44.0627
G01 X168.1684 Y43.9543
G01 X168.1892 Y43.8441
G01 X168.2018 Y43.7327
G01 X168.2060 Y43.6206
G01 X168.2014 Y43.5160
G01 X168.1877 Y43.4122
G01 X168.1651 Y43.3100
G01 X168.1336 Y43.2101
G01 X168.0935 Y43.1134
G01 X168.0452 Y43.0206
G01 X167.9890 Y42.9323
G01 X167.9252 Y42.8492
G01 X167.8545 Y42.7720
G01 X167.7773 Y42.7013
G01 X167.6943 Y42.6376
G01 X167.6060 Y42.5813
G01 X167.5131 Y42.5330
G01 X167.4164 Y42.4929
G01 X167.3166 Y42.4615
G01 X167.2144 Y42.4388
G01 X167.1106 Y42.4251
G01 X167.0060 Y42.4206
G01 X166.9014 Y42.4251
G01 X166.7976 Y42.4388
G01 X166.6954 Y42.4615
G01 X166.5956 Y42.4929
G01 X166.4988 Y42.5330
G01 X166.4060 Y42.5813
G01 X166.3177 Y42.6376
G01 X166.2346 Y42.7013
G01 X166.1575 Y42.7720
G01 X166.0867 Y42.8492
G01 X166.0230 Y42.9323
G01 X165.9668 Y43.0206
G01 X165.9184 Y43.1134
G01 X165.8784 Y43.2101
G01 X165.8469 Y43.3100
G01 X165.8242 Y43.4122
G01 X165.8106 Y43.5160
G01 X165.8060 Y43.6206
G01 X165.8071 Y43.6647
G01 X165.8103 Y43.7088
G01 X165.8157 Y43.7526
G01 X165.8233 Y43.7961
G01 X165.8330 Y43.8392
G01 X165.8447 Y43.8818
G01 X165.8586 Y43.9238
G01 X165.8745 Y43.9650
G01 X165.8924 Y44.0054
G01 X165.9123 Y44.0448
G01 X165.9340 Y44.0833
G01 X165.9577 Y44.1206
G01 X165.9831 Y44.1567
G01 X166.0103 Y44.1915
G01 X166.0391 Y44.2250
G01 X166.0696 Y44.2570
G01 X166.1016 Y44.2874
G01 X166.1350 Y44.3163
G01 X166.1699 Y44.3434
G01 X166.2060 Y44.3689
G01 X166.2433 Y44.3925
G01 X166.2817 Y44.4143
G01 X166.3212 Y44.4342
G01 X166.3616 Y44.4521
G01 X166.4028 Y44.4680
G01 X166.4447 Y44.4818
G01 X166.4873 Y44.4936
G01 X166.5304 Y44.5033
G01 X166.5739 Y44.5108
G01 X166.6178 Y44.5162
G01 X166.6618 Y44.5195
G01 X166.7060 Y44.5206
G01 X166.7502 Y44.5195
G01 X166.7942 Y44.5162
G01 X166.8381 Y44.5108
G01 X166.8816 Y44.5033
G01 X166.9247 Y44.4936
G01 X166.9672 Y44.4818
G01 X167.0092 Y44.4680
G01 X167.0504 Y44.4521
G01 X167.0908 Y44.4342
G01 X167.1303 Y44.4143
G01 X167.1687 Y44.3925
G01 X167.2060 Y44.3689
G01 X167.2421 Y44.3434
G01 X167.2769 Y44.3163
G01 X167.3104 Y44.2874
G01 X167.3424 Y44.2570
G01 X167.3728 Y44.2250
G01 X167.4017 Y44.1915
G01 X167.4289 Y44.1567
G01 X167.4543 Y44.1206
G01 X167.4779 Y44.0833
G01 X167.4997 Y44.0448
G01 X167.5196 Y44.0054
G01 X167.5375 Y43.9650
G01 X167.5534 Y43.9238
G01 X167.5672 Y43.8818
G01 X167.5790 Y43.8392
G01 X167.5887 Y43.7961
G01 X167.5963 Y43.7526
G01 X167.6017 Y43.7088
G01 X167.6049 Y43.6647
G01 X167.6060 Y43.6206
M107
M106 S240
G01 X167.6050 Y43.5777 Z-2.7623 F400
G01 X167.6019 Y43.5350 Z-2.7746
G01 X167.5968 Y43.4925 Z-2.7869
G01 X167.5897 Y43.4502 Z-2.7992
G01 X167.5806 Y43.4084 Z-2.8116
G01 X167.5695 Y43.3670 Z-2.8239
G01 X167.5565 Y43.3262 Z-2.8362
G01 X167.5415 Y43.2861 Z-2.8485
G01 X167.5247 Y43.2467 Z-2.8608
G01 X167.5059 Y43.2082 Z-2.8731
G01 X167.4854 Y43.1706 Z-2.8854
G01 X167.4631 Y43.1340 Z-2.8977
G01 X167.4391 Y43.0985 Z-2.9100
G01 X167.4134 Y43.0642 Z-2.9223
G01 X167.3862 Y43.0312 Z-2.9347
G01 X167.3574 Y42.9995 Z-2.9470
G01 X167.3271 Y42.9692 Z-2.9593
G01 X167.2954 Y42.9404 Z-2.9716
G01 X167.2623 Y42.9131 Z-2.9839
G01 X167.2280 Y42.8874 Z-2.9962
G01 X167.1926 Y42.8634 Z-3.0085
G01 X167.1560 Y42.8411 Z-3.0208
G01 X167.1184 Y42.8206 Z-3.0331
G01 X167.0799 Y42.8019 Z-3.0455
G01 X167.0405 Y42.7850 Z-3.0578
G01 X167.0004 Y42.7701 Z-3.0701
G01 X166.9596 Y42.7570 Z-3.0824
G01 X166.9182 Y42.7459 Z-3.0947
G01 X166.8763 Y42.7368 Z-3.1070
G01 X166.8341 Y42.7297 Z-3.1193
G01 X166.7915 Y42.7246 Z-3.1316
G01 X166.7488 Y42.7216 Z-3.1439
G01 X166.7060 Y42.7206 Z-3.1563
G01 X166.6632 Y42.7216 Z-3.1686
G01 X166.6204 Y42.7246 Z-3.1809
G01 X166.5779 Y42.7297 Z-3.1932
G01 X166.5357 Y42.7368 Z-3.2055
G01 X166.4938 Y42.7459 Z-3.2178
G01 X166.4524 Y42.7570 Z-3.2301
G01 X166.4116 Y42.7701 Z-3.2424
G01 X166.3715 Y42.7850 Z-3.2547
G01 X166.3321 Y42.8019 Z-3.2670
G01 X166.2936 Y42.8206 Z-3.2794
G01 X166.2560 Y42.8411 Z-3.2917
G01 X166.2194 Y42.8634 Z-3.3040
G01 X166.1839 Y42.8874 Z-3.3163
G01 X166.1497 Y42.9131 Z-3.3286
G01 X166.1166 Y42.9404 Z-3.3409
G01 X166.0849 Y42.9692 Z-3.3532
G01 X166.0546 Y42.9995 Z-3.3655
G01 X166.0258 Y43.0312 Z-3.3778
G01 X165.9985 Y43.0642 Z-3.3902
G01 X165.9729 Y43.0985 Z-3.4025
G01 X165.9489 Y43.1340 Z-3.4148
G01 X165.9266 Y43.1706 Z-3.4271
G01 X165.9060 Y43.2082 Z-3.4394
G01 X165.8873 Y43.2467 Z-3.4517
G01 X165.8705 Y43.2861 Z-3.4640
G01 X165.8555 Y43.3262 Z-3.4763
G01 X165.8424 Y43.3670 Z-3.4886
G01 X165.8314 Y43.4084 Z-3.5009
G01 X165.8223 Y43.4502 Z-3.5133
G01 X165.8152 Y43.4925 Z-3.5256
G01 X165.8101 Y43.5350 Z-3.5379
G01 X165.8070 Y43.5777 Z-3.5502
G01 X165.8060 Y43.6206 Z-3.5625
G01 X165.8070 Y43.6634 Z-3.5748
G01 X165.8101 Y43.7061 Z-3.5871
G01 X165.8152 Y43.7486 Z-3.5994
G01 X165.8223 Y43.7909 Z-3.6117
G01 X165.8314 Y43.8327 Z-3.6241
G01 X165.8424 Y43.8741 Z-3.6364
G01 X165.8555 Y43.9149 Z-3.6487
G01 X165.8705 Y43.9551 Z-3.6610
G01 X165.8873 Y43.9944 Z-3.6733
G01 X165.9060 Y44.0330 Z-3.6856
G01 X165.9266 Y44.0706 Z-3.6979
G01 X165.9489 Y44.1071 Z-3.7102
G01 X165.9729 Y44.1426 Z-3.7225
G01 X165.9985 Y44.1769 Z-3.7348
G01 X166.0258 Y44.2099 Z-3.7472
G01 X166.0546 Y44.2416 Z-3.7595
G01 X166.0849 Y44.2719 Z-3.7718
G01 X166.1166 Y44.3007 Z-3.7841
G01 X166.1497 Y44.3280 Z-3.7964
G01 X166.1839 Y44.3537 Z-3.8087
G01 X166.2194 Y44.3777 Z-3.8210
G01 X166.2560 Y44.4000 Z-3.8333
G01 X166.2936 Y44.4205 Z-3.8456
G01 X166.3321 Y44.4392 Z-3.8580
G01 X166.3715 Y44.4561 Z-3.8703
G01 X166.4116 Y44.4711 Z-3.8826
G01 X166.4524 Y44.4841 Z-3.8949
G01 X166.4938 Y44.4952 Z-3.9072
G01 X166.5357 Y44.5043 Z-3.9195
G01 X166.5779 Y44.5114 Z-3.9318
G01 X166.6204 Y44.5165 Z-3.9441
G01 X166.6632 Y44.5195 Z-3.9564
G01 X166.7060 Y44.5206 Z-3.9688
G01 X166.7488 Y44.5195 Z-3.9811
G01 X166.7915 Y44.5165 Z-3.9934
G01 X166.8341 Y44.5114 Z-4.0057
G01 X166.8763 Y44.5043 Z-4.0180
G01 X166.9182 Y44.4952 Z-4.0303
G01 X166.9596 Y44.4841 Z-4.0426
G01 X167.0004 Y44.4711 Z-4.0549
G01 X167.0405 Y44.4561 Z-4.0672
G01 X167.0799 Y44.4392 Z-4.0795
G01 X167.1184 Y44.4205 Z-4.0919
G01 X167.1560 Y44.4000 Z-4.1042
G01 X167.1926 Y44.3777 Z-4.1165
G01 X167.2280 Y44.3537 Z-4.1288
G01 X167.2623 Y44.3280 Z-4.1411
G01 X167.2954 Y44.3007 Z-4.1534
G01 X167.3271 Y44.2719 Z-4.1657
G01 X167.3574 Y44.2416 Z-4.1780
G01 X167.3862 Y44.2099 Z-4.1903
G01 X167.4134 Y44.1769 Z-4.2027
G01 X167.4391 Y44.1426 Z-4.2150
G01 X167.4631 Y44.1071 Z-4.2273
G01 X167.4854 Y44.0706 Z-4.2396
G01 X167.5059 Y44.0330 Z-4.2519
G01 X167.5247 Y43.9944 Z-4.2642
G01 X167.5415 Y43.9551 Z-4.2765
G01 X167.5565 Y43.9149 Z-4.2888
G01 X167.5695 Y43.8741 Z-4.3011
G01 X167.5806 Y43.8327 Z-4.3134
G01 X167.5897 Y43.7909 Z-4.3258
G01 X167.5968 Y43.7486 Z-4.3381
G01 X167.6019 Y43.7061 Z-4.3504
G01 X167.6050 Y43.6634 Z-4.3627
G01 X167.6060 Y43.6206 Z-4.3750
G01 X167.6050 Y43.5777
G01 X167.6019 Y43.5350
G01 X167.5968 Y43.4925
G01 X167.5897 Y43.4502
G01 X167.5806 Y43.4084
G01 X167.5695 Y43.3670
G01 X167.5565 Y43.3262
G01 X167.5415 Y43.2861
G01 X167.5247 Y43.2467
G01 X167.5059 Y43.2082
G01 X167.4854 Y43.1706
G01 X167.4631 Y43.1340
G01 X167.4391 Y43.0985
G01 X167.4134 Y43.0642
G01 X167.3862 Y43.0312
G01 X167.3574 Y42.9995
G01 X167.3271 Y42.9692
G01 X167.2954 Y42.9404
G01 X167.2623 Y42.9131
G01 X167.2280 Y42.8874
G01 X167.1926 Y42.8634
G01 X167.1560 Y42.8411
G01 X167.1184 Y42.8206
G01 X167.0799 Y42.8019
G01 X167.0405 Y42.7850
G01 X167.0004 Y42.7701
G01 X166.9596 Y42.7570
G01 X166.9182 Y42.7459
