;Project TeslaModelOnly
;Created by Estlcam version 11 build 11,227
;Machining time about 00:35:43 hours

G90
M03 S18000
G00 X0.0000 Y0.0000 Z0.0000
G00 Z2.0000


;No. 1: Helical drill 1
G00 X27.9406 Y244.5249
G00 Z0.5000
M106 S240
G01 X27.9367 Y244.4377 Z0.4722 F400 S18000
G01 X27.9254 Y244.3512 Z0.4444
G01 X27.9065 Y244.2661 Z0.4167
G01 X27.8802 Y244.1829 Z0.3889
G01 X27.8469 Y244.1023 Z0.3611
G01 X27.8066 Y244.0249 Z0.3333
G01 X27.7597 Y243.9513 Z0.3056
G01 X27.7066 Y243.8821 Z0.2778
G01 X27.6477 Y243.8178 Z0.2500
G01 X27.5833 Y243.7588 Z0.2222
G01 X27.5141 Y243.7057 Z0.1944
G01 X27.4406 Y243.6589 Z0.1667
G01 X27.3632 Y243.6186 Z0.1389
G01 X27.2826 Y243.5852 Z0.1111
G01 X27.1994 Y243.5590 Z0.0833
G01 X27.1142 Y243.5401 Z0.0556
G01 X27.0277 Y243.5287 Z0.0278
G01 X26.9406 Y243.5249 Z0.0000
G01 X26.8534 Y243.5287 Z-0.0278
G01 X26.7669 Y243.5401 Z-0.0556
G01 X26.6817 Y243.5590 Z-0.0833
G01 X26.5985 Y243.5852 Z-0.1111
G01 X26.5179 Y243.6186 Z-0.1389
G01 X26.4406 Y243.6589 Z-0.1667
G01 X26.3670 Y243.7057 Z-0.1944
G01 X26.2978 Y243.7588 Z-0.2222
G01 X26.2334 Y243.8178 Z-0.2500
G01 X26.1745 Y243.8821 Z-0.2778
G01 X26.1214 Y243.9513 Z-0.3056
G01 X26.0745 Y244.0249 Z-0.3333
G01 X26.0342 Y244.1023 Z-0.3611
G01 X26.0009 Y244.1829 Z-0.3889
G01 X25.9746 Y244.2661 Z-0.4167
G01 X25.9557 Y244.3512 Z-0.4444
G01 X25.9444 Y244.4377 Z-0.4722
G01 X25.9406 Y244.5249 Z-0.5000
G01 X25.9444 Y244.6120 Z-0.5278
G01 X25.9557 Y244.6985 Z-0.5556
G01 X25.9746 Y244.7837 Z-0.5833
G01 X26.0009 Y244.8669 Z-0.6111
G01 X26.0342 Y244.9475 Z-0.6389
G01 X26.0745 Y245.0249 Z-0.6667
G01 X26.1214 Y245.0985 Z-0.6944
G01 X26.1745 Y245.1677 Z-0.7222
G01 X26.2334 Y245.2320 Z-0.7500
G01 X26.2978 Y245.2909 Z-0.7778
G01 X26.3670 Y245.3440 Z-0.8056
G01 X26.4406 Y245.3909 Z-0.8333
G01 X26.5179 Y245.4312 Z-0.8611
G01 X26.5985 Y245.4646 Z-0.8889
G01 X26.6817 Y245.4908 Z-0.9167
G01 X26.7669 Y245.5097 Z-0.9444
G01 X26.8534 Y245.5211 Z-0.9722
G01 X26.9406 Y245.5249 Z-1.0000
G01 X27.0277 Y245.5211 Z-1.0278
G01 X27.1142 Y245.5097 Z-1.0556
G01 X27.1994 Y245.4908 Z-1.0833
G01 X27.2826 Y245.4646 Z-1.1111
G01 X27.3632 Y245.4312 Z-1.1389
G01 X27.4406 Y245.3909 Z-1.1667
G01 X27.5141 Y245.3440 Z-1.1944
G01 X27.5833 Y245.2909 Z-1.2222
G01 X27.6477 Y245.2320 Z-1.2500
G01 X27.7066 Y245.1677 Z-1.2778
G01 X27.7597 Y245.0985 Z-1.3056
G01 X27.8066 Y245.0249 Z-1.3333
G01 X27.8469 Y244.9475 Z-1.3611
G01 X27.8802 Y244.8669 Z-1.3889
G01 X27.9065 Y244.7837 Z-1.4167
G01 X27.9254 Y244.6985 Z-1.4444
G01 X27.9367 Y244.6120 Z-1.4722
G01 X27.9406 Y244.5249 Z-1.5000
G01 X27.9367 Y244.4377
G01 X27.9254 Y244.3512
G01 X27.9065 Y244.2661
G01 X27.8802 Y244.1829
G01 X27.8469 Y244.1023
G01 X27.8066 Y244.0249
G01 X27.7597 Y243.9513
G01 X27.7066 Y243.8821
G01 X27.6477 Y243.8178
G01 X27.5833 Y243.7588
G01 X27.5141 Y243.7057
G01 X27.4406 Y243.6589
G01 X27.3632 Y243.6186
G01 X27.2826 Y243.5852
G01 X27.1994 Y243.5590
G01 X27.1142 Y243.5401
G01 X27.0277 Y243.5287
G01 X26.9406 Y243.5249
G01 X26.8534 Y243.5287
G01 X26.7669 Y243.5401
G01 X26.6817 Y243.5590
G01 X26.5985 Y243.5852
G01 X26.5179 Y243.6186
G01 X26.4406 Y243.6589
G01 X26.3670 Y243.7057
G01 X26.2978 Y243.7588
G01 X26.2334 Y243.8178
G01 X26.1745 Y243.8821
G01 X26.1214 Y243.9513
G01 X26.0745 Y244.0249
G01 X26.0342 Y244.1023
G01 X26.0009 Y244.1829
G01 X25.9746 Y244.2661
G01 X25.9557 Y244.3512
G01 X25.9444 Y244.4377
G01 X25.9406 Y244.5249
G01 X25.9444 Y244.6120
G01 X25.9557 Y244.6985
G01 X25.9746 Y244.7837
G01 X26.0009 Y244.8669
G01 X26.0342 Y244.9475
G01 X26.0745 Y245.0249
G01 X26.1214 Y245.0985
G01 X26.1745 Y245.1677
G01 X26.2334 Y245.2320
G01 X26.2978 Y245.2909
G01 X26.3670 Y245.3440
G01 X26.4406 Y245.3909
G01 X26.5179 Y245.4312
G01 X26.5985 Y245.4646
G01 X26.6817 Y245.4908
G01 X26.7669 Y245.5097
G01 X26.8534 Y245.5211
G01 X26.9406 Y245.5249
G01 X27.0277 Y245.5211
G01 X27.1142 Y245.5097
G01 X27.1994 Y245.4908
G01 X27.2826 Y245.4646
G01 X27.3632 Y245.4312
G01 X27.4406 Y245.3909
G01 X27.5141 Y245.3440
G01 X27.5833 Y245.2909
G01 X27.6477 Y245.2320
G01 X27.7066 Y245.1677
G01 X27.7597 Y245.0985
G01 X27.8066 Y245.0249
G01 X27.8469 Y244.9475
G01 X27.8802 Y244.8669
G01 X27.9065 Y244.7837
G01 X27.9254 Y244.6985
G01 X27.9367 Y244.6120
G01 X27.9406 Y244.5249
G01 X27.9513 Y244.4733 F1000
G01 X27.9594 Y244.4212
G01 X27.9648 Y244.3688
G01 X27.9674 Y244.3161
G01 Y244.2634
G01 X27.9646 Y244.2108
G01 X27.9592 Y244.1584
G01 X27.9510 Y244.1063
G01 X27.9393 Y244.0503
G01 X27.9248 Y243.9950
G01 X27.9074 Y243.9405
G01 X27.8873 Y243.8870
G01 X27.8644 Y243.8346
G01 X27.8389 Y243.7834
G01 X27.8108 Y243.7335
G01 X27.7802 Y243.6852
G01 X27.7446 Y243.6348
G01 X27.7065 Y243.5863
G01 X27.6660 Y243.5397
G01 X27.6231 Y243.4953
G01 X27.5781 Y243.4532
G01 X27.5309 Y243.4134
G01 X27.4818 Y243.3760
G01 X27.4309 Y243.3412
G01 X27.3728 Y243.3152
G01 X27.3135 Y243.2922
G01 X27.2531 Y243.2721
G01 X27.1918 Y243.2550
G01 X27.1298 Y243.2409
G01 X27.0671 Y243.2300
G01 X27.0040 Y243.2221
G01 X26.9406 Y243.2173
G01 X26.8764 Y243.2188
G01 X26.8124 Y243.2236
G01 X26.7487 Y243.2314
G01 X26.6854 Y243.2424
G01 X26.6228 Y243.2565
G01 X26.5610 Y243.2736
G01 X26.5000 Y243.2937
G01 X26.4402 Y243.3168
G01 X26.3815 Y243.3428
G01 X26.3241 Y243.3717
G01 X26.2683 Y243.4033
G01 X26.2141 Y243.4376
G01 X26.1616 Y243.4746
G01 X26.1110 Y243.5141
G01 X26.0624 Y243.5560
G01 X26.0159 Y243.6003
G01 X25.9717 Y243.6467
G01 X25.9298 Y243.6953
G01 X25.8903 Y243.7459
G01 X25.8533 Y243.7984
G01 X25.8190 Y243.8526
G01 X25.7873 Y243.9085
G01 X25.7585 Y243.9658
G01 X25.7325 Y244.0245
G01 X25.7094 Y244.0844
G01 X25.6892 Y244.1453
G01 X25.6721 Y244.2072
G01 X25.6581 Y244.2698
G01 X25.6471 Y244.3330
G01 X25.6392 Y244.3967
G01 X25.6345 Y244.4607
G01 X25.6329 Y244.5249
G01 X25.6345 Y244.5890
G01 X25.6392 Y244.6530
G01 X25.6471 Y244.7167
G01 X25.6581 Y244.7800
G01 X25.6721 Y244.8426
G01 X25.6892 Y244.9045
G01 X25.7094 Y244.9654
G01 X25.7325 Y245.0253
G01 X25.7585 Y245.0840
G01 X25.7873 Y245.1413
G01 X25.8190 Y245.1971
G01 X25.8533 Y245.2513
G01 X25.8903 Y245.3038
G01 X25.9298 Y245.3544
G01 X25.9717 Y245.4030
G01 X26.0159 Y245.4495
G01 X26.0624 Y245.4938
G01 X26.1110 Y245.5357
G01 X26.1616 Y245.5752
G01 X26.2141 Y245.6121
G01 X26.2683 Y245.6465
G01 X26.3241 Y245.6781
G01 X26.3815 Y245.7069
G01 X26.4402 Y245.7330
G01 X26.5000 Y245.7560
G01 X26.5610 Y245.7762
G01 X26.6228 Y245.7933
G01 X26.6854 Y245.8074
G01 X26.7487 Y245.8183
G01 X26.8124 Y245.8262
G01 X26.8764 Y245.8309
G01 X26.9406 Y245.8325
G01 X27.0047 Y245.8309
G01 X27.0687 Y245.8262
G01 X27.1324 Y245.8183
G01 X27.1957 Y245.8074
G01 X27.2583 Y245.7933
G01 X27.3201 Y245.7762
G01 X27.3811 Y245.7560
G01 X27.4409 Y245.7330
G01 X27.4996 Y245.7069
G01 X27.5570 Y245.6781
G01 X27.6128 Y245.6465
G01 X27.6670 Y245.6121
G01 X27.7195 Y245.5752
G01 X27.7701 Y245.5357
G01 X27.8187 Y245.4938
G01 X27.8652 Y245.4495
G01 X27.9094 Y245.4030
G01 X27.9513 Y245.3544
G01 X27.9908 Y245.3038
G01 X28.0278 Y245.2513
G01 X28.0621 Y245.1971
G01 X28.0938 Y245.1413
G01 X28.1226 Y245.0840
G01 X28.1486 Y245.0253
G01 X28.1717 Y244.9654
G01 X28.1919 Y244.9045
G01 X28.2090 Y244.8426
G01 X28.2230 Y244.7800
G01 X28.2340 Y244.7167
G01 X28.2419 Y244.6530
G01 X28.2466 Y244.5890
G01 X28.2482 Y244.5249
G01 X28.2445 Y244.4272
G01 X28.2336 Y244.3300
G01 X28.2154 Y244.2339
G01 X28.1901 Y244.1395
G01 X28.1578 Y244.0472
G01 X28.1187 Y243.9575
G01 X28.0730 Y243.8711
G01 X28.0209 Y243.7883
G01 X27.9629 Y243.7096
G01 X27.8991 Y243.6355
G01 X27.8299 Y243.5663
G01 X27.7558 Y243.5026
G01 X27.6772 Y243.4445
G01 X27.5944 Y243.3925
G01 X27.5079 Y243.3468
G01 X27.4183 Y243.3077
G01 X27.3260 Y243.2754
G01 X27.2315 Y243.2501
G01 X27.1354 Y243.2319
G01 X27.0383 Y243.2209
G01 X26.9406 Y243.2173
G01 X26.8428 Y243.2209
G01 X26.7457 Y243.2319
G01 X26.6496 Y243.2501
G01 X26.5551 Y243.2754
G01 X26.4628 Y243.3077
G01 X26.3732 Y243.3468
G01 X26.2867 Y243.3925
G01 X26.2039 Y243.4445
G01 X26.1253 Y243.5026
G01 X26.0512 Y243.5663
G01 X25.9820 Y243.6355
G01 X25.9182 Y243.7096
G01 X25.8602 Y243.7883
G01 X25.8081 Y243.8711
G01 X25.7624 Y243.9575
G01 X25.7233 Y244.0472
G01 X25.6910 Y244.1395
G01 X25.6657 Y244.2339
G01 X25.6475 Y244.3300
G01 X25.6366 Y244.4272
G01 X25.6329 Y244.5249
G01 X25.6366 Y244.6226
G01 X25.6475 Y244.7198
G01 X25.6657 Y244.8158
G01 X25.6910 Y244.9103
G01 X25.7233 Y245.0026
G01 X25.7624 Y245.0922
G01 X25.8081 Y245.1787
G01 X25.8602 Y245.2615
G01 X25.9182 Y245.3402
G01 X25.9820 Y245.4143
G01 X26.0512 Y245.4834
G01 X26.1253 Y245.5472
G01 X26.2039 Y245.6053
G01 X26.2867 Y245.6573
G01 X26.3732 Y245.7030
G01 X26.4628 Y245.7421
G01 X26.5551 Y245.7744
G01 X26.6496 Y245.7997
G01 X26.7457 Y245.8179
G01 X26.8428 Y245.8288
G01 X26.9406 Y245.8325
G01 X27.0383 Y245.8288
G01 X27.1354 Y245.8179
G01 X27.2315 Y245.7997
G01 X27.3260 Y245.7744
G01 X27.4183 Y245.7421
G01 X27.5079 Y245.7030
G01 X27.5944 Y245.6573
G01 X27.6772 Y245.6053
G01 X27.7558 Y245.5472
G01 X27.8299 Y245.4834
G01 X27.8991 Y245.4143
G01 X27.9629 Y245.3402
G01 X28.0209 Y245.2615
G01 X28.0730 Y245.1787
G01 X28.1187 Y245.0922
G01 X28.1578 Y245.0026
G01 X28.1901 Y244.9103
G01 X28.2154 Y244.8158
G01 X28.2336 Y244.7198
G01 X28.2445 Y244.6226
G01 X28.2482 Y244.5249
G01 X28.2438 Y244.4243
G01 X28.2306 Y244.3245
G01 X28.2088 Y244.2263
G01 X28.1786 Y244.1303
G01 X28.1401 Y244.0373
G01 X28.0936 Y243.9480
G01 X28.0395 Y243.8631
G01 X27.9782 Y243.7832
G01 X27.9102 Y243.7090
G01 X27.8360 Y243.6410
G01 X27.7561 Y243.5797
G01 X27.6713 Y243.5257
G01 X27.5820 Y243.4792
G01 X27.4890 Y243.4407
G01 X27.3930 Y243.4104
G01 X27.2947 Y243.3886
G01 X27.1949 Y243.3755
G01 X27.0944 Y243.3711
G01 X26.9938 Y243.3755
G01 X26.8940 Y243.3886
G01 X26.7957 Y243.4104
G01 X26.6997 Y243.4407
G01 X26.6067 Y243.4792
G01 X26.5175 Y243.5257
G01 X26.4326 Y243.5797
G01 X26.3527 Y243.6410
G01 X26.2785 Y243.7090
G01 X26.2105 Y243.7832
G01 X26.1492 Y243.8631
G01 X26.0951 Y243.9480
G01 X26.0487 Y244.0373
G01 X26.0101 Y244.1303
G01 X25.9799 Y244.2263
G01 X25.9581 Y244.3245
G01 X25.9449 Y244.4243
G01 X25.9406 Y244.5249
G01 X25.9444 Y244.6120
G01 X25.9557 Y244.6985
G01 X25.9746 Y244.7837
G01 X26.0009 Y244.8669
G01 X26.0342 Y244.9475
G01 X26.0745 Y245.0249
G01 X26.1214 Y245.0985
G01 X26.1745 Y245.1677
G01 X26.2334 Y245.2320
G01 X26.2978 Y245.2909
G01 X26.3670 Y245.3440
G01 X26.4406 Y245.3909
G01 X26.5179 Y245.4312
G01 X26.5985 Y245.4646
G01 X26.6817 Y245.4908
G01 X26.7669 Y245.5097
G01 X26.8534 Y245.5211
G01 X26.9406 Y245.5249
G01 X27.0277 Y245.5211
G01 X27.1142 Y245.5097
G01 X27.1994 Y245.4908
G01 X27.2826 Y245.4646
G01 X27.3632 Y245.4312
G01 X27.4406 Y245.3909
G01 X27.5141 Y245.3440
G01 X27.5833 Y245.2909
G01 X27.6477 Y245.2320
G01 X27.7066 Y245.1677
G01 X27.7597 Y245.0985
G01 X27.8066 Y245.0249
G01 X27.8469 Y244.9475
G01 X27.8802 Y244.8669
G01 X27.9065 Y244.7837
G01 X27.9254 Y244.6985
G01 X27.9367 Y244.6120
G01 X27.9406 Y244.5249
M107
M106 S240
G01 X27.9367 Y244.4377 Z-1.5278 F400
G01 X27.9254 Y244.3512 Z-1.5556
G01 X27.9065 Y244.2661 Z-1.5833
G01 X27.8802 Y244.1829 Z-1.6111
G01 X27.8469 Y244.1023 Z-1.6389
G01 X27.8066 Y244.0249 Z-1.6667
G01 X27.7597 Y243.9513 Z-1.6944
G01 X27.7066 Y243.8821 Z-1.7222
G01 X27.6477 Y243.8178 Z-1.7500
G01 X27.5833 Y243.7588 Z-1.7778
G01 X27.5141 Y243.7057 Z-1.8056
G01 X27.4406 Y243.6589 Z-1.8333
G01 X27.3632 Y243.6186 Z-1.8611
G01 X27.2826 Y243.5852 Z-1.8889
G01 X27.1994 Y243.5590 Z-1.9167
G01 X27.1142 Y243.5401 Z-1.9444
G01 X27.0277 Y243.5287 Z-1.9722
G01 X26.9406 Y243.5249 Z-2.0000
G01 X26.8534 Y243.5287 Z-2.0278
G01 X26.7669 Y243.5401 Z-2.0556
G01 X26.6817 Y243.5590 Z-2.0833
G01 X26.5985 Y243.5852 Z-2.1111
G01 X26.5179 Y243.6186 Z-2.1389
G01 X26.4406 Y243.6589 Z-2.1667
G01 X26.3670 Y243.7057 Z-2.1944
G01 X26.2978 Y243.7588 Z-2.2222
G01 X26.2334 Y243.8178 Z-2.2500
G01 X26.1745 Y243.8821 Z-2.2778
G01 X26.1214 Y243.9513 Z-2.3056
G01 X26.0745 Y244.0249 Z-2.3333
G01 X26.0342 Y244.1023 Z-2.3611
G01 X26.0009 Y244.1829 Z-2.3889
G01 X25.9746 Y244.2661 Z-2.4167
G01 X25.9557 Y244.3512 Z-2.4444
G01 X25.9444 Y244.4377 Z-2.4722
G01 X25.9406 Y244.5249 Z-2.5000
G01 X25.9444 Y244.6120 Z-2.5278
G01 X25.9557 Y244.6985 Z-2.5556
G01 X25.9746 Y244.7837 Z-2.5833
G01 X26.0009 Y244.8669 Z-2.6111
G01 X26.0342 Y244.9475 Z-2.6389
G01 X26.0745 Y245.0249 Z-2.6667
G01 X26.1214 Y245.0985 Z-2.6944
G01 X26.1745 Y245.1677 Z-2.7222
G01 X26.2334 Y245.2320 Z-2.7500
G01 X26.2978 Y245.2909 Z-2.7778
G01 X26.3670 Y245.3440 Z-2.8056
G01 X26.4406 Y245.3909 Z-2.8333
G01 X26.5179 Y245.4312 Z-2.8611
G01 X26.5985 Y245.4646 Z-2.8889
G01 X26.6817 Y245.4908 Z-2.9167
G01 X26.7669 Y245.5097 Z-2.9444
G01 X26.8534 Y245.5211 Z-2.9722
G01 X26.9406 Y245.5249 Z-3.0000
G01 X27.0277 Y245.5211 Z-3.0278
G01 X27.1142 Y245.5097 Z-3.0556
G01 X27.1994 Y245.4908 Z-3.0833
G01 X27.2826 Y245.4646 Z-3.1111
G01 X27.3632 Y245.4312 Z-3.1389
G01 X27.4406 Y245.3909 Z-3.1667
G01 X27.5141 Y245.3440 Z-3.1944
G01 X27.5833 Y245.2909 Z-3.2222
G01 X27.6477 Y245.2320 Z-3.2500
G01 X27.7066 Y245.1677 Z-3.2778
G01 X27.7597 Y245.0985 Z-3.3056
G01 X27.8066 Y245.0249 Z-3.3333
G01 X27.8469 Y244.9475 Z-3.3611
G01 X27.8802 Y244.8669 Z-3.3889
G01 X27.9065 Y244.7837 Z-3.4167
G01 X27.9254 Y244.6985 Z-3.4444
G01 X27.9367 Y244.6120 Z-3.4722
G01 X27.9406 Y244.5249 Z-3.5000
G01 X27.9367 Y244.4377
G01 X27.9254 Y244.3512
G01 X27.9065 Y244.2661
G01 X27.8802 Y244.1829
G01 X27.8469 Y244.1023
G01 X27.8066 Y244.0249
G01 X27.7597 Y243.9513
G01 X27.7066 Y243.8821
G01 X27.6477 Y243.8178
G01 X27.5833 Y243.7588
G01 X27.5141 Y243.7057
G01 X27.4406 Y243.6589
G01 X27.3632 Y243.6186
G01 X27.2826 Y243.5852
G01 X27.1994 Y243.5590
G01 X27.1142 Y243.5401
G01 X27.0277 Y243.5287
G01 X26.9406 Y243.5249
G01 X26.8534 Y243.5287
G01 X26.7669 Y243.5401
G01 X26.6817 Y243.5590
G01 X26.5985 Y243.5852
G01 X26.5179 Y243.6186
G01 X26.4406 Y243.6589
G01 X26.3670 Y243.7057
G01 X26.2978 Y243.7588
G01 X26.2334 Y243.8178
G01 X26.1745 Y243.8821
G01 X26.1214 Y243.9513
G01 X26.0745 Y244.0249
G01 X26.0342 Y244.1023
G01 X26.0009 Y244.1829
G01 X25.9746 Y244.2661
G01 X25.9557 Y244.3512
G01 X25.9444 Y244.4377
G01 X25.9406 Y244.5249
G01 X25.9444 Y244.6120
G01 X25.9557 Y244.6985
G01 X25.9746 Y244.7837
G01 X26.0009 Y244.8669
G01 X26.0342 Y244.9475
G01 X26.0745 Y245.0249
G01 X26.1214 Y245.0985
G01 X26.1745 Y245.1677
G01 X26.2334 Y245.2320
G01 X26.2978 Y245.2909
G01 X26.3670 Y245.3440
G01 X26.4406 Y245.3909
G01 X26.5179 Y245.4312
G01 X26.5985 Y245.4646
G01 X26.6817 Y245.4908
G01 X26.7669 Y245.5097
G01 X26.8534 Y245.5211
G01 X26.9406 Y245.5249
G01 X27.0277 Y245.5211
G01 X27.1142 Y245.5097
G01 X27.1994 Y245.4908
G01 X27.2826 Y245.4646
G01 X27.3632 Y245.4312
G01 X27.4406 Y245.3909
G01 X27.5141 Y245.3440
G01 X27.5833 Y245.2909
G01 X27.6477 Y245.2320
G01 X27.7066 Y245.1677
G01 X27.7597 Y245.0985
G01 X27.8066 Y245.0249
G01 X27.8469 Y244.9475
G01 X27.8802 Y244.8669
G01 X27.9065 Y244.7837
G01 X27.9254 Y244.6985
G01 X27.9367 Y244.6120
G01 X27.9406 Y244.5249
G01 X27.9513 Y244.4733 F1000
G01 X27.9594 Y244.4212
G01 X27.9648 Y244.3688
G01 X27.9674 Y244.3161
G01 Y244.2634
G01 X27.9646 Y244.2108
G01 X27.9592 Y244.1584
G01 X27.9510 Y244.1063
G01 X27.9393 Y244.0503
G01 X27.9248 Y243.9950
G01 X27.9074 Y243.9405
G01 X27.8873 Y243.8870
G01 X27.8644 Y243.8346
G01 X27.8389 Y243.7834
G01 X27.8108 Y243.7335
G01 X27.7802 Y243.6852
G01 X27.7446 Y243.6348
G01 X27.7065 Y243.5863
G01 X27.6660 Y243.5397
G01 X27.6231 Y243.4953
G01 X27.5781 Y243.4532
G01 X27.5309 Y243.4134
G01 X27.4818 Y243.3760
G01 X27.4309 Y243.3412
G01 X27.3728 Y243.3152
G01 X27.3135 Y243.2922
G01 X27.2531 Y243.2721
G01 X27.1918 Y243.2550
G01 X27.1298 Y243.2409
G01 X27.0671 Y243.2300
G01 X27.0040 Y243.2221
G01 X26.9406 Y243.2173
G01 X26.8764 Y243.2188
G01 X26.8124 Y243.2236
G01 X26.7487 Y243.2314
G01 X26.6854 Y243.2424
G01 X26.6228 Y243.2565
G01 X26.5610 Y243.2736
G01 X26.5000 Y243.2937
G01 X26.4402 Y243.3168
G01 X26.3815 Y243.3428
G01 X26.3241 Y243.3717
G01 X26.2683 Y243.4033
G01 X26.2141 Y243.4376
G01 X26.1616 Y243.4746
G01 X26.1110 Y243.5141
G01 X26.0624 Y243.5560
G01 X26.0159 Y243.6003
G01 X25.9717 Y243.6467
G01 X25.9298 Y243.6953
G01 X25.8903 Y243.7459
G01 X25.8533 Y243.7984
G01 X25.8190 Y243.8526
G01 X25.7873 Y243.9085
G01 X25.7585 Y243.9658
G01 X25.7325 Y244.0245
G01 X25.7094 Y244.0844
G01 X25.6892 Y244.1453
G01 X25.6721 Y244.2072
G01 X25.6581 Y244.2698
G01 X25.6471 Y244.3330
G01 X25.6392 Y244.3967
G01 X25.6345 Y244.4607
G01 X25.6329 Y244.5249
G01 X25.6345 Y244.5890
G01 X25.6392 Y244.6530
G01 X25.6471 Y244.7167
G01 X25.6581 Y244.7800
G01 X25.6721 Y244.8426
G01 X25.6892 Y244.9045
G01 X25.7094 Y244.9654
G01 X25.7325 Y245.0253
G01 X25.7585 Y245.0840
G01 X25.7873 Y245.1413
G01 X25.8190 Y245.1971
G01 X25.8533 Y245.2513
G01 X25.8903 Y245.3038
G01 X25.9298 Y245.3544
G01 X25.9717 Y245.4030
G01 X26.0159 Y245.4495
G01 X26.0624 Y245.4938
G01 X26.1110 Y245.5357
G01 X26.1616 Y245.5752
G01 X26.2141 Y245.6121
G01 X26.2683 Y245.6465
G01 X26.3241 Y245.6781
G01 X26.3815 Y245.7069
G01 X26.4402 Y245.7330
G01 X26.5000 Y245.7560
G01 X26.5610 Y245.7762
G01 X26.6228 Y245.7933
G01 X26.6854 Y245.8074
G01 X26.7487 Y245.8183
G01 X26.8124 Y245.8262
G01 X26.8764 Y245.8309
G01 X26.9406 Y245.8325
G01 X27.0047 Y245.8309
G01 X27.0687 Y245.8262
G01 X27.1324 Y245.8183
G01 X27.1957 Y245.8074
G01 X27.2583 Y245.7933
G01 X27.3201 Y245.7762
G01 X27.3811 Y245.7560
G01 X27.4409 Y245.7330
G01 X27.4996 Y245.7069
G01 X27.5570 Y245.6781
G01 X27.6128 Y245.6465
G01 X27.6670 Y245.6121
G01 X27.7195 Y245.5752
G01 X27.7701 Y245.5357
G01 X27.8187 Y245.4938
G01 X27.8652 Y245.4495
G01 X27.9094 Y245.4030
G01 X27.9513 Y245.3544
G01 X27.9908 Y245.3038
G01 X28.0278 Y245.2513
G01 X28.0621 Y245.1971
G01 X28.0938 Y245.1413
G01 X28.1226 Y245.0840
G01 X28.1486 Y245.0253
G01 X28.1717 Y244.9654
G01 X28.1919 Y244.9045
G01 X28.2090 Y244.8426
G01 X28.2230 Y244.7800
G01 X28.2340 Y244.7167
G01 X28.2419 Y244.6530
G01 X28.2466 Y244.5890
G01 X28.2482 Y244.5249
G01 X28.2445 Y244.4272
G01 X28.2336 Y244.3300
G01 X28.2154 Y244.2339
G01 X28.1901 Y244.1395
G01 X28.1578 Y244.0472
G01 X28.1187 Y243.9575
G01 X28.0730 Y243.8711
G01 X28.0209 Y243.7883
G01 X27.9629 Y243.7096
G01 X27.8991 Y243.6355
G01 X27.8299 Y243.5663
G01 X27.7558 Y243.5026
G01 X27.6772 Y243.4445
G01 X27.5944 Y243.3925
G01 X27.5079 Y243.3468
G01 X27.4183 Y243.3077
G01 X27.3260 Y243.2754
G01 X27.2315 Y243.2501
G01 X27.1354 Y243.2319
G01 X27.0383 Y243.2209
G01 X26.9406 Y243.2173
G01 X26.8428 Y243.2209
G01 X26.7457 Y243.2319
G01 X26.6496 Y243.2501
G01 X26.5551 Y243.2754
G01 X26.4628 Y243.3077
G01 X26.3732 Y243.3468
G01 X26.2867 Y243.3925
G01 X26.2039 Y243.4445
G01 X26.1253 Y243.5026
G01 X26.0512 Y243.5663
G01 X25.9820 Y243.6355
G01 X25.9182 Y243.7096
G01 X25.8602 Y243.7883
G01 X25.8081 Y243.8711
G01 X25.7624 Y243.9575
G01 X25.7233 Y244.0472
G01 X25.6910 Y244.1395
G01 X25.6657 Y244.2339
G01 X25.6475 Y244.3300
G01 X25.6366 Y244.4272
G01 X25.6329 Y244.5249
G01 X25.6366 Y244.6226
G01 X25.6475 Y244.7198
G01 X25.6657 Y244.8158
G01 X25.6910 Y244.9103
G01 X25.7233 Y245.0026
G01 X25.7624 Y245.0922
G01 X25.8081 Y245.1787
G01 X25.8602 Y245.2615
G01 X25.9182 Y245.3402
G01 X25.9820 Y245.4143
G01 X26.0512 Y245.4834
G01 X26.1253 Y245.5472
G01 X26.2039 Y245.6053
G01 X26.2867 Y245.6573
G01 X26.3732 Y245.7030
G01 X26.4628 Y245.7421
G01 X26.5551 Y245.7744
G01 X26.6496 Y245.7997
G01 X26.7457 Y245.8179
G01 X26.8428 Y245.8288
G01 X26.9406 Y245.8325
G01 X27.0383 Y245.8288
G01 X27.1354 Y245.8179
G01 X27.2315 Y245.7997
G01 X27.3260 Y245.7744
G01 X27.4183 Y245.7421
G01 X27.5079 Y245.7030
G01 X27.5944 Y245.6573
G01 X27.6772 Y245.6053
G01 X27.7558 Y245.5472
G01 X27.8299 Y245.4834
G01 X27.8991 Y245.4143
G01 X27.9629 Y245.3402
G01 X28.0209 Y245.2615
G01 X28.0730 Y245.1787
G01 X28.1187 Y245.0922
G01 X28.1578 Y245.0026
G01 X28.1901 Y244.9103
G01 X28.2154 Y244.8158
G01 X28.2336 Y244.7198
G01 X28.2445 Y244.6226
G01 X28.2482 Y244.5249
G01 X28.2438 Y244.4243
G01 X28.2306 Y244.3245
G01 X28.2088 Y244.2263
G01 X28.1786 Y244.1303
G01 X28.1401 Y244.0373
G01 X28.0936 Y243.9480
G01 X28.0395 Y243.8631
G01 X27.9782 Y243.7832
G01 X27.9102 Y243.7090
G01 X27.8360 Y243.6410
G01 X27.7561 Y243.5797
G01 X27.6713 Y243.5257
G01 X27.5820 Y243.4792
G01 X27.4890 Y243.4407
G01 X27.3930 Y243.4104
G01 X27.2947 Y243.3886
G01 X27.1949 Y243.3755
G01 X27.0944 Y243.3711
G01 X26.9938 Y243.3755
G01 X26.8940 Y243.3886
G01 X26.7957 Y243.4104
G01 X26.6997 Y243.4407
G01 X26.6067 Y243.4792
G01 X26.5175 Y243.5257
G01 X26.4326 Y243.5797
G01 X26.3527 Y243.6410
G01 X26.2785 Y243.7090
G01 X26.2105 Y243.7832
G01 X26.1492 Y243.8631
G01 X26.0951 Y243.9480
G01 X26.0487 Y244.0373
G01 X26.0101 Y244.1303
G01 X25.9799 Y244.2263
G01 X25.9581 Y244.3245
G01 X25.9449 Y244.4243
G01 X25.9406 Y244.5249
G01 X25.9444 Y244.6120
G01 X25.9557 Y244.6985
G01 X25.9746 Y244.7837
G01 X26.0009 Y244.8669
G01 X26.0342 Y244.9475
G01 X26.0745 Y245.0249
G01 X26.1214 Y245.0985
G01 X26.1745 Y245.1677
G01 X26.2334 Y245.2320
G01 X26.2978 Y245.2909
G01 X26.3670 Y245.3440
G01 X26.4406 Y245.3909
G01 X26.5179 Y245.4312
G01 X26.5985 Y245.4646
G01 X26.6817 Y245.4908
G01 X26.7669 Y245.5097
G01 X26.8534 Y245.5211
G01 X26.9406 Y245.5249
G01 X27.0277 Y245.5211
G01 X27.1142 Y245.5097
G01 X27.1994 Y245.4908
G01 X27.2826 Y245.4646
G01 X27.3632 Y245.4312
G01 X27.4406 Y245.3909
G01 X27.5141 Y245.3440
G01 X27.5833 Y245.2909
G01 X27.6477 Y245.2320
G01 X27.7066 Y245.1677
G01 X27.7597 Y245.0985
G01 X27.8066 Y245.0249
G01 X27.8469 Y244.9475
G01 X27.8802 Y244.8669
G01 X27.9065 Y244.7837
G01 X27.9254 Y244.6985
G01 X27.9367 Y244.6120
G01 X27.9406 Y244.5249
M107
M106 S240
G01 X27.9367 Y244.4377 Z-3.5278 F400
G01 X27.9254 Y244.3512 Z-3.5556
G01 X27.9065 Y244.2661 Z-3.5833
G01 X27.8802 Y244.1829 Z-3.6111
G01 X27.8469 Y244.1023 Z-3.6389
G01 X27.8066 Y244.0249 Z-3.6667
G01 X27.7597 Y243.9513 Z-3.6944
G01 X27.7066 Y243.8821 Z-3.7222
G01 X27.6477 Y243.8178 Z-3.7500
G01 X27.5833 Y243.7588 Z-3.7778
G01 X27.5141 Y243.7057 Z-3.8056
G01 X27.4406 Y243.6589 Z-3.8333
G01 X27.3632 Y243.6186 Z-3.8611
G01 X27.2826 Y243.5852 Z-3.8889
G01 X27.1994 Y243.5590 Z-3.9167
G01 X27.1142 Y243.5401 Z-3.9444
G01 X27.0277 Y243.5287 Z-3.9722
G01 X26.9406 Y243.5249 Z-4.0000
G01 X26.8534 Y243.5287 Z-4.0278
G01 X26.7669 Y243.5401 Z-4.0556
G01 X26.6817 Y243.5590 Z-4.0833
G01 X26.5985 Y243.5852 Z-4.1111
G01 X26.5179 Y243.6186 Z-4.1389
G01 X26.4406 Y243.6589 Z-4.1667
G01 X26.3670 Y243.7057 Z-4.1944
G01 X26.2978 Y243.7588 Z-4.2222
G01 X26.2334 Y243.8178 Z-4.2500
G01 X26.1745 Y243.8821 Z-4.2778
G01 X26.1214 Y243.9513 Z-4.3056
G01 X26.0745 Y244.0249 Z-4.3333
G01 X26.0342 Y244.1023 Z-4.3611
G01 X26.0009 Y244.1829 Z-4.3889
G01 X25.9746 Y244.2661 Z-4.4167
G01 X25.9557 Y244.3512 Z-4.4444
G01 X25.9444 Y244.4377 Z-4.4722
G01 X25.9406 Y244.5249 Z-4.5000
G01 X25.9444 Y244.6120 Z-4.5278
G01 X25.9557 Y244.6985 Z-4.5556
G01 X25.9746 Y244.7837 Z-4.5833
G01 X26.0009 Y244.8669 Z-4.6111
G01 X26.0342 Y244.9475 Z-4.6389
G01 X26.0745 Y245.0249 Z-4.6667
G01 X26.1214 Y245.0985 Z-4.6944
G01 X26.1745 Y245.1677 Z-4.7222
G01 X26.2334 Y245.2320 Z-4.7500
G01 X26.2978 Y245.2909 Z-4.7778
G01 X26.3670 Y245.3440 Z-4.8056
G01 X26.4406 Y245.3909 Z-4.8333
G01 X26.5179 Y245.4312 Z-4.8611
G01 X26.5985 Y245.4646 Z-4.8889
G01 X26.6817 Y245.4908 Z-4.9167
G01 X26.7669 Y245.5097 Z-4.9444
G01 X26.8534 Y245.5211 Z-4.9722
G01 X26.9406 Y245.5249 Z-5.0000
G01 X27.0277 Y245.5211 Z-5.0278
G01 X27.1142 Y245.5097 Z-5.0556
G01 X27.1994 Y245.4908 Z-5.0833
G01 X27.2826 Y245.4646 Z-5.1111
G01 X27.3632 Y245.4312 Z-5.1389
G01 X27.4406 Y245.3909 Z-5.1667
G01 X27.5141 Y245.3440 Z-5.1944
G01 X27.5833 Y245.2909 Z-5.2222
G01 X27.6477 Y245.2320 Z-5.2500
G01 X27.7066 Y245.1677 Z-5.2778
G01 X27.7597 Y245.0985 Z-5.3056
G01 X27.8066 Y245.0249 Z-5.3333
G01 X27.8469 Y244.9475 Z-5.3611
G01 X27.8802 Y244.8669 Z-5.3889
G01 X27.9065 Y244.7837 Z-5.4167
G01 X27.9254 Y244.6985 Z-5.4444
G01 X27.9367 Y244.6120 Z-5.4722
G01 X27.9406 Y244.5249 Z-5.5000
G01 X27.9367 Y244.4377
G01 X27.9254 Y244.3512
G01 X27.9065 Y244.2661
G01 X27.8802 Y244.1829
G01 X27.8469 Y244.1023
G01 X27.8066 Y244.0249
G01 X27.7597 Y243.9513
G01 X27.7066 Y243.8821
G01 X27.6477 Y243.8178
G01 X27.5833 Y243.7588
G01 X27.5141 Y243.7057
G01 X27.4406 Y243.6589
G01 X27.3632 Y243.6186
G01 X27.2826 Y243.5852
G01 X27.1994 Y243.5590
G01 X27.1142 Y243.5401
G01 X27.0277 Y243.5287
G01 X26.9406 Y243.5249
G01 X26.8534 Y243.5287
G01 X26.7669 Y243.5401
G01 X26.6817 Y243.5590
G01 X26.5985 Y243.5852
G01 X26.5179 Y243.6186
G01 X26.4406 Y243.6589
G01 X26.3670 Y243.7057
G01 X26.2978 Y243.7588
G01 X26.2334 Y243.8178
G01 X26.1745 Y243.8821
G01 X26.1214 Y243.9513
G01 X26.0745 Y244.0249
G01 X26.0342 Y244.1023
G01 X26.0009 Y244.1829
G01 X25.9746 Y244.2661
G01 X25.9557 Y244.3512
G01 X25.9444 Y244.4377
G01 X25.9406 Y244.5249
G01 X25.9444 Y244.6120
G01 X25.9557 Y244.6985
G01 X25.9746 Y244.7837
G01 X26.0009 Y244.8669
G01 X26.0342 Y244.9475
G01 X26.0745 Y245.0249
G01 X26.1214 Y245.0985
G01 X26.1745 Y245.1677
G01 X26.2334 Y245.2320
G01 X26.2978 Y245.2909
G01 X26.3670 Y245.3440
G01 X26.4406 Y245.3909
G01 X26.5179 Y245.4312
G01 X26.5985 Y245.4646
G01 X26.6817 Y245.4908
G01 X26.7669 Y245.5097
G01 X26.8534 Y245.5211
G01 X26.9406 Y245.5249
G01 X27.0277 Y245.5211
G01 X27.1142 Y245.5097
G01 X27.1994 Y245.4908
G01 X27.2826 Y245.4646
G01 X27.3632 Y245.4312
G01 X27.4406 Y245.3909
G01 X27.5141 Y245.3440
G01 X27.5833 Y245.2909
G01 X27.6477 Y245.2320
G01 X27.7066 Y245.1677
G01 X27.7597 Y245.0985
G01 X27.8066 Y245.0249
G01 X27.8469 Y244.9475
G01 X27.8802 Y244.8669
G01 X27.9065 Y244.7837
G01 X27.9254 Y244.6985
G01 X27.9367 Y244.6120
G01 X27.9406 Y244.5249
G01 X27.9513 Y244.4733 F1000
G01 X27.9594 Y244.4212
G01 X27.9648 Y244.3688
G01 X27.9674 Y244.3161
G01 Y244.2634
G01 X27.9646 Y244.2108
G01 X27.9592 Y244.1584
G01 X27.9510 Y244.1063
G01 X27.9393 Y244.0503
G01 X27.9248 Y243.9950
G01 X27.9074 Y243.9405
G01 X27.8873 Y243.8870
G01 X27.8644 Y243.8346
G01 X27.8389 Y243.7834
G01 X27.8108 Y243.7335
G01 X27.7802 Y243.6852
G01 X27.7446 Y243.6348
G01 X27.7065 Y243.5863
G01 X27.6660 Y243.5397
G01 X27.6231 Y243.4953
G01 X27.5781 Y243.4532
G01 X27.5309 Y243.4134
G01 X27.4818 Y243.3760
G01 X27.4309 Y243.3412
G01 X27.3728 Y243.3152
G01 X27.3135 Y243.2922
G01 X27.2531 Y243.2721
G01 X27.1918 Y243.2550
G01 X27.1298 Y243.2409
G01 X27.0671 Y243.2300
G01 X27.0040 Y243.2221
G01 X26.9406 Y243.2173
G01 X26.8764 Y243.2188
G01 X26.8124 Y243.2236
G01 X26.7487 Y243.2314
G01 X26.6854 Y243.2424
G01 X26.6228 Y243.2565
G01 X26.5610 Y243.2736
G01 X26.5000 Y243.2937
G01 X26.4402 Y243.3168
G01 X26.3815 Y243.3428
G01 X26.3241 Y243.3717
G01 X26.2683 Y243.4033
G01 X26.2141 Y243.4376
G01 X26.1616 Y243.4746
G01 X26.1110 Y243.5141
G01 X26.0624 Y243.5560
G01 X26.0159 Y243.6003
G01 X25.9717 Y243.6467
G01 X25.9298 Y243.6953
G01 X25.8903 Y243.7459
G01 X25.8533 Y243.7984
G01 X25.8190 Y243.8526
G01 X25.7873 Y243.9085
G01 X25.7585 Y243.9658
G01 X25.7325 Y244.0245
G01 X25.7094 Y244.0844
G01 X25.6892 Y244.1453
G01 X25.6721 Y244.2072
G01 X25.6581 Y244.2698
G01 X25.6471 Y244.3330
G01 X25.6392 Y244.3967
G01 X25.6345 Y244.4607
G01 X25.6329 Y244.5249
G01 X25.6345 Y244.5890
G01 X25.6392 Y244.6530
G01 X25.6471 Y244.7167
G01 X25.6581 Y244.7800
G01 X25.6721 Y244.8426
G01 X25.6892 Y244.9045
G01 X25.7094 Y244.9654
G01 X25.7325 Y245.0253
G01 X25.7585 Y245.0840
G01 X25.7873 Y245.1413
G01 X25.8190 Y245.1971
G01 X25.8533 Y245.2513
G01 X25.8903 Y245.3038
G01 X25.9298 Y245.3544
G01 X25.9717 Y245.4030
G01 X26.0159 Y245.4495
G01 X26.0624 Y245.4938
G01 X26.1110 Y245.5357
G01 X26.1616 Y245.5752
G01 X26.2141 Y245.6121
G01 X26.2683 Y245.6465
G01 X26.3241 Y245.6781
G01 X26.3815 Y245.7069
G01 X26.4402 Y245.7330
G01 X26.5000 Y245.7560
G01 X26.5610 Y245.7762
G01 X26.6228 Y245.7933
G01 X26.6854 Y245.8074
G01 X26.7487 Y245.8183
G01 X26.8124 Y245.8262
G01 X26.8764 Y245.8309
G01 X26.9406 Y245.8325
G01 X27.0047 Y245.8309
G01 X27.0687 Y245.8262
G01 X27.1324 Y245.8183
G01 X27.1957 Y245.8074
G01 X27.2583 Y245.7933
G01 X27.3201 Y245.7762
G01 X27.3811 Y245.7560
G01 X27.4409 Y245.7330
G01 X27.4996 Y245.7069
G01 X27.5570 Y245.6781
G01 X27.6128 Y245.6465
G01 X27.6670 Y245.6121
G01 X27.7195 Y245.5752
G01 X27.7701 Y245.5357
G01 X27.8187 Y245.4938
G01 X27.8652 Y245.4495
G01 X27.9094 Y245.4030
G01 X27.9513 Y245.3544
G01 X27.9908 Y245.3038
G01 X28.0278 Y245.2513
G01 X28.0621 Y245.1971
G01 X28.0938 Y245.1413
G01 X28.1226 Y245.0840
G01 X28.1486 Y245.0253
G01 X28.1717 Y244.9654
G01 X28.1919 Y244.9045
G01 X28.2090 Y244.8426
G01 X28.2230 Y244.7800
G01 X28.2340 Y244.7167
G01 X28.2419 Y244.6530
G01 X28.2466 Y244.5890
G01 X28.2482 Y244.5249
G01 X28.2445 Y244.4272
G01 X28.2336 Y244.3300
G01 X28.2154 Y244.2339
G01 X28.1901 Y244.1395
G01 X28.1578 Y244.0472
G01 X28.1187 Y243.9575
G01 X28.0730 Y243.8711
G01 X28.0209 Y243.7883
G01 X27.9629 Y243.7096
G01 X27.8991 Y243.6355
G01 X27.8299 Y243.5663
G01 X27.7558 Y243.5026
G01 X27.6772 Y243.4445
G01 X27.5944 Y243.3925
G01 X27.5079 Y243.3468
G01 X27.4183 Y243.3077
G01 X27.3260 Y243.2754
G01 X27.2315 Y243.2501
G01 X27.1354 Y243.2319
G01 X27.0383 Y243.2209
G01 X26.9406 Y243.2173
G01 X26.8428 Y243.2209
G01 X26.7457 Y243.2319
G01 X26.6496 Y243.2501
G01 X26.5551 Y243.2754
G01 X26.4628 Y243.3077
G01 X26.3732 Y243.3468
G01 X26.2867 Y243.3925
G01 X26.2039 Y243.4445
G01 X26.1253 Y243.5026
G01 X26.0512 Y243.5663
G01 X25.9820 Y243.6355
G01 X25.9182 Y243.7096
G01 X25.8602 Y243.7883
G01 X25.8081 Y243.8711
G01 X25.7624 Y243.9575
G01 X25.7233 Y244.0472
G01 X25.6910 Y244.1395
G01 X25.6657 Y244.2339
G01 X25.6475 Y244.3300
G01 X25.6366 Y244.4272
G01 X25.6329 Y244.5249
G01 X25.6366 Y244.6226
G01 X25.6475 Y244.7198
G01 X25.6657 Y244.8158
G01 X25.6910 Y244.9103
G01 X25.7233 Y245.0026
G01 X25.7624 Y245.0922
G01 X25.8081 Y245.1787
G01 X25.8602 Y245.2615
G01 X25.9182 Y245.3402
G01 X25.9820 Y245.4143
G01 X26.0512 Y245.4834
G01 X26.1253 Y245.5472
G01 X26.2039 Y245.6053
G01 X26.2867 Y245.6573
G01 X26.3732 Y245.7030
G01 X26.4628 Y245.7421
G01 X26.5551 Y245.7744
G01 X26.6496 Y245.7997
G01 X26.7457 Y245.8179
G01 X26.8428 Y245.8288
G01 X26.9406 Y245.8325
G01 X27.0383 Y245.8288
G01 X27.1354 Y245.8179
G01 X27.2315 Y245.7997
G01 X27.3260 Y245.7744
G01 X27.4183 Y245.7421
G01 X27.5079 Y245.7030
G01 X27.5944 Y245.6573
G01 X27.6772 Y245.6053
G01 X27.7558 Y245.5472
G01 X27.8299 Y245.4834
G01 X27.8991 Y245.4143
G01 X27.9629 Y245.3402
G01 X28.0209 Y245.2615
G01 X28.0730 Y245.1787
G01 X28.1187 Y245.0922
G01 X28.1578 Y245.0026
G01 X28.1901 Y244.9103
G01 X28.2154 Y244.8158
G01 X28.2336 Y244.7198
G01 X28.2445 Y244.6226
G01 X28.2482 Y244.5249
M107
M106 S240
G01 X28.2451 Y244.4464 Z-5.4750 F400
M107
M106 S240
G01 X28.2358 Y244.3684 Z-5.4500
M107
M106 S240
G01 X28.2205 Y244.2914 Z-5.4250
M107
M106 S240
G01 X28.1992 Y244.2159 Z-5.4000
M107
M106 S240
G01 X28.1720 Y244.1422 Z-5.3750
M107
M106 S240
G01 X28.1392 Y244.0709 Z-5.3500
M107
M106 S240
G01 X28.1008 Y244.0024 Z-5.3250
M107
M106 S240
G01 X28.0572 Y243.9371 Z-5.3000
M107
M106 S240
G01 X28.0086 Y243.8754 Z-5.2750
M107
M106 S240
G01 X27.9553 Y243.8178 Z-5.2500
M107
M106 S240
G01 X27.8976 Y243.7645 Z-5.2250
M107
M106 S240
G01 X27.8359 Y243.7159 Z-5.2000
M107
M106 S240
G01 X27.7707 Y243.6722 Z-5.1750
M107
M106 S240
G01 X27.7021 Y243.6339 Z-5.1500
M107
M106 S240
G01 X27.6308 Y243.6010 Z-5.1250
M107
M106 S240
G01 X27.5572 Y243.5738 Z-5.1000
M107
M106 S240
G01 X27.4816 Y243.5525 Z-5.0750
M107
M106 S240
G01 X27.4046 Y243.5372 Z-5.0500
M107
M106 S240
G01 X27.3266 Y243.5280 Z-5.0250
M107
M106 S240
G01 X27.2482 Y243.5249 Z-5.0000
M107
G00 Z2.0000


;No. 2: Hole 3
G00 X29.4448 Y230.3223 Z2.0000
G00 Z0.5000
G01 Z0.0000 F400
G01 Z-1.8000
M106 S240
G01 X34.0279 F1000
G01 X35.5276 Y228.8223
G01 X30.9448
G01 X31.5048
G01 Y227.3223
G01 X37.0273
G01 X38.5269 Y225.8223
G01 X31.5048
G01 Y224.3223
G01 X40.0266
G01 X41.5263 Y222.8223
G01 X36.9448
G01 X38.4448 Y221.3223
G01 X47.5123
G01 X49.0123 Y222.8223
G01 X44.4309
G01 X45.9309 Y224.3223
G01 X54.4543
G01 Y222.8223
G01 X51.3639
G01 X51.4545 Y221.3223
G01 X54.4543
G01 Y219.8223
G01 X51.4545
G01 Y218.3223
G01 X54.4543
G01 Y216.8223
G01 X51.4545
G01 Y215.3223
G01 X54.4543
G01 Y213.8223
G01 X51.4545
M107
G00 Z2.0000
G00 X46.0123 Y221.3223
G00 Z0.5000
G01 Z-1.8000 F400
M106 S240
G01 Y219.8223 F1000
G01 X39.9448
G01 X41.3553 Y218.3223
G01 X44.6018
G01 X44.4775 Y216.8223
G01 X41.4796
G01 Y215.3223
G01 X44.4775
G01 Y213.8223
G01 X41.4796
M107
G00 Z2.0000
G00 X47.4309 Y224.3223
G00 Z0.5000
G01 Z-1.8000 F400
M106 S240
G01 Y225.8223 F1000
G01 X54.4543
G01 Y227.3223
G01 X48.9309
G01 X50.4309 Y228.8223
G01 X55.0143
G01 X56.5143 Y230.3223
G01 X51.9309
M107
G00 Z2.0000
G00 X34.5932 Y224.3223
G00 Z0.5000
G01 Z-1.8000 F400
M106 S240
G01 Y222.8223 F1000
G01 X31.5048
G01 Y221.3223
G01 X34.5026
G01 Y219.8223
G01 X31.5048
G01 Y218.3223
G01 X34.5026
G01 Y216.8223
G01 X31.5048
G01 Y215.3223
G01 X34.5026
G01 Y213.8223
G01 X31.5048
G01 X31.3048 Y213.8348
G01 Y227.7653
G01 X31.3026 Y227.8307
G01 X31.2962 Y227.8958
G01 X31.2856 Y227.9604
G01 X31.2707 Y228.0241
G01 X31.2517 Y228.0867
G01 X31.2286 Y228.1479
G01 X31.2016 Y228.2076
G01 X31.1708 Y228.2653
G01 X31.1362 Y228.3208
G01 X31.0981 Y228.3740
G01 X31.0566 Y228.4246
G01 X31.0119 Y228.4724
G01 X27.7325 Y231.7517
G01 X32.8816
G01 X42.2714 Y222.3600
G01 X42.3029 Y222.3298
G01 X42.3357 Y222.3010
G01 X42.3697 Y222.2737
G01 X42.4049 Y222.2479
G01 X42.4412 Y222.2237
G01 X42.4785 Y222.2010
G01 X42.5167 Y222.1800
G01 X42.5559 Y222.1607
G01 X42.5958 Y222.1431
G01 X42.6365 Y222.1273
G01 X42.6778 Y222.1133
G01 X42.7197 Y222.1011
G01 X42.7621 Y222.0907
G01 X42.8048 Y222.0822
G01 X42.8480 Y222.0756
G01 X42.8913 Y222.0708
G01 X42.9349 Y222.0680
G01 X42.9785 Y222.0670
G01 X43.0221 Y222.0679
G01 X43.0657 Y222.0708
G01 X43.1090 Y222.0755
G01 X43.1522 Y222.0822
G01 X43.1950 Y222.0907
G01 X43.2373 Y222.1011
G01 X43.2792 Y222.1133
G01 X43.3205 Y222.1273
G01 X43.3612 Y222.1431
G01 X43.4012 Y222.1607
G01 X43.4403 Y222.1800
G01 X43.4785 Y222.2010
G01 X43.5158 Y222.2236
G01 X43.5521 Y222.2478
G01 X43.5873 Y222.2736
G01 X43.6213 Y222.3009
G01 X43.6541 Y222.3297
G01 X43.6857 Y222.3599
G01 X53.0775 Y231.7517
G01 X58.2266
G01 X54.9472 Y228.4724
G01 X54.9200 Y228.4441
G01 X54.8939 Y228.4147
G01 X54.8690 Y228.3844
G01 X54.8453 Y228.3530
G01 X54.8229 Y228.3208
G01 X54.8017 Y228.2878
G01 X54.7818 Y228.2539
G01 X54.7633 Y228.2193
G01 X54.7462 Y228.1839
G01 X54.7305 Y228.1479
G01 X54.7161 Y228.1114
G01 X54.7033 Y228.0743
G01 X54.6919 Y228.0367
G01 X54.6820 Y227.9987
G01 X54.6735 Y227.9604
G01 X54.6666 Y227.9217
G01 X54.6613 Y227.8828
G01 X54.6574 Y227.8437
G01 X54.6551 Y227.8045
G01 X54.6543 Y227.7653
G01 Y212.3929
G01 X51.2545
G01 Y222.3674
G01 X51.2510 Y222.4515
G01 X51.2404 Y222.5349
G01 X51.2228 Y222.6172
G01 X51.1984 Y222.6977
G01 X51.1673 Y222.7759
G01 X51.1297 Y222.8511
G01 X51.0860 Y222.9230
G01 X51.0363 Y222.9909
G01 X50.9812 Y223.0544
G01 X50.9209 Y223.1131
G01 X50.8558 Y223.1664
G01 X50.7865 Y223.2141
G01 X50.7135 Y223.2559
G01 X50.6372 Y223.2913
G01 X50.5582 Y223.3202
G01 X50.4770 Y223.3424
G01 X50.3943 Y223.3576
G01 X50.3106 Y223.3659
G01 X50.2265 Y223.3670
G01 X50.1425 Y223.3611
G01 X50.0594 Y223.3482
G01 X49.9777 Y223.3283
G01 X49.8979 Y223.3017
G01 X49.8206 Y223.2684
G01 X49.7464 Y223.2287
G01 X49.6758 Y223.1830
G01 X49.6093 Y223.1315
G01 X49.5474 Y223.0745
G01 X44.9704 Y218.4975
G01 X44.9256 Y218.4497
G01 X44.8841 Y218.3992
G01 X44.8460 Y218.3460
G01 X44.8114 Y218.2904
G01 X44.7806 Y218.2327
G01 X44.7536 Y218.1731
G01 X44.7305 Y218.1118
G01 X44.7115 Y218.0492
G01 X44.6967 Y217.9855
G01 X44.6860 Y217.9209
G01 X44.6796 Y217.8558
G01 X44.6775 Y217.7904
G01 Y212.3929
G01 X41.2796
G01 Y217.7904
G01 X41.2775 Y217.8558
G01 X41.2711 Y217.9209
G01 X41.2604 Y217.9855
G01 X41.2456 Y218.0492
G01 X41.2266 Y218.1118
G01 X41.2035 Y218.1731
G01 X41.1765 Y218.2327
G01 X41.1457 Y218.2904
G01 X41.1111 Y218.3460
G01 X41.0730 Y218.3992
G01 X41.0315 Y218.4497
G01 X40.9867 Y218.4975
G01 X36.4097 Y223.0745
G01 X36.3478 Y223.1315
G01 X36.2813 Y223.1830
G01 X36.2107 Y223.2287
G01 X36.1365 Y223.2684
G01 X36.0592 Y223.3017
G01 X35.9794 Y223.3283
G01 X35.8977 Y223.3482
G01 X35.8146 Y223.3611
G01 X35.7306 Y223.3670
G01 X35.6465 Y223.3659
G01 X35.5628 Y223.3576
G01 X35.4801 Y223.3424
G01 X35.3989 Y223.3202
G01 X35.3199 Y223.2913
G01 X35.2436 Y223.2559
G01 X35.1706 Y223.2141
G01 X35.1013 Y223.1664
G01 X35.0363 Y223.1131
G01 X34.9759 Y223.0544
G01 X34.9208 Y222.9909
G01 X34.8711 Y222.9230
G01 X34.8274 Y222.8511
G01 X34.7898 Y222.7759
G01 X34.7587 Y222.6977
G01 X34.7343 Y222.6172
G01 X34.7167 Y222.5349
G01 X34.7061 Y222.4515
G01 X34.7026 Y222.3674
G01 Y212.3929
G01 X31.3048
G01 Y213.8348
G01 X31.5048 Y213.8223
M107
G00 Z2.0000


;No. 3: Hole 5
G00 X64.0314 Y230.0528 Z2.0000
G00 Z0.5000
G01 Z0.0000 F400
G01 Z-1.8000
M106 S240
G01 X85.7578 F1000
G01 X85.9157 Y229.9297
G01 X85.7358 Y229.6941
G01 X85.5377 Y229.4735
G01 X85.3225 Y229.2696
G01 X85.0917 Y229.0835
G01 X84.8468 Y228.9164
G01 X84.5893 Y228.7695
G01 X84.3209 Y228.6437
G01 X84.0432 Y228.5397
G01 X83.7582 Y228.4583
G01 X83.4675 Y228.4000
G01 X83.1731 Y228.3651
G01 X82.8768 Y228.3538
G01 X66.9307
G01 X66.5863 Y228.3641
G01 X66.2444 Y228.4069
G01 X65.9082 Y228.4818
G01 X65.5805 Y228.5883
G01 X65.2644 Y228.7253
G01 X64.9627 Y228.8915
G01 X64.6780 Y229.0856
G01 X64.4130 Y229.3058
G01 X64.1700 Y229.5500
G01 X63.9512 Y229.8161
G01 X63.7586 Y230.1018
G01 X63.5939 Y230.4044
G01 X63.4585 Y230.7212
G01 X63.3538 Y231.0494
G01 X63.2805 Y231.3860
G01 X63.2395 Y231.7281
G01 X63.2467 Y231.7517
G01 X86.5563
G01 X86.5344 Y231.5080
G01 X86.4953 Y231.2665
G01 X86.4391 Y231.0284
G01 X86.3662 Y230.7949
G01 X86.2769 Y230.5672
G01 X86.1717 Y230.3463
G01 X86.0511 Y230.1335
G01 X85.9157 Y229.9297
G01 X85.7578 Y230.0528
M107
G00 Z2.0000


;No. 4: Hole 4
G00 X86.3763 Y222.5816 Z2.0000
G00 Z0.5000
G01 Z0.0000 F400
G01 Z-1.8000
M106 S240
G01 X83.3765 F1000
G01 Y221.0816
G01 X86.3763
G01 Y219.5816
G01 X83.3765
G01 Y218.0816
G01 X86.3763
G01 Y216.5816
G01 X83.3574
G01 X86.3763 Y215.0816
G01 X63.4267
G01 Y213.5816
G01 X86.3763
M107
G00 Z2.0000
G00 X66.4436 Y215.0816
G00 Z0.5000
G01 Z-1.8000 F400
M106 S240
G01 Y216.5816 F1000
G01 X63.4267
G01 Y218.0816
G01 X66.4246
G01 Y219.5816
G01 X63.4267
G01 Y221.0816
G01 X66.4246
G01 Y222.5816
G01 X63.4267
G01 X63.2267 Y222.5668
G01 Y223.7702
G01 X66.6246
G01 Y216.7907
G01 X66.6255 Y216.7471
G01 X66.6284 Y216.7036
G01 X66.6331 Y216.6602
G01 X66.6398 Y216.6171
G01 X66.6483 Y216.5743
G01 X66.6586 Y216.5319
G01 X66.6709 Y216.4900
G01 X66.6849 Y216.4487
G01 X66.7007 Y216.4080
G01 X66.7183 Y216.3681
G01 X66.7376 Y216.3290
G01 X66.7585 Y216.2907
G01 X66.7812 Y216.2534
G01 X66.8054 Y216.2171
G01 X66.8312 Y216.1820
G01 X66.8585 Y216.1479
G01 X66.8873 Y216.1151
G01 X66.9175 Y216.0836
G01 X66.9490 Y216.0534
G01 X66.9818 Y216.0247
G01 X67.0158 Y215.9974
G01 X67.0510 Y215.9716
G01 X67.0873 Y215.9473
G01 X67.1246 Y215.9247
G01 X67.1628 Y215.9037
G01 X67.2020 Y215.8844
G01 X67.2419 Y215.8668
G01 X67.2826 Y215.8510
G01 X67.3239 Y215.8370
G01 X67.3658 Y215.8248
G01 X67.4081 Y215.8144
G01 X67.4509 Y215.8059
G01 X67.4940 Y215.7993
G01 X67.5374 Y215.7945
G01 X67.5810 Y215.7917
G01 X67.6246 Y215.7907
G01 X82.1765
G01 X82.2201 Y215.7917
G01 X82.2636 Y215.7945
G01 X82.3070 Y215.7993
G01 X82.3501 Y215.8059
G01 X82.3929 Y215.8144
G01 X82.4353 Y215.8248
G01 X82.4772 Y215.8370
G01 X82.5185 Y215.8510
G01 X82.5592 Y215.8668
G01 X82.5991 Y215.8844
G01 X82.6382 Y215.9037
G01 X82.6765 Y215.9247
G01 X82.7138 Y215.9473
G01 X82.7501 Y215.9716
G01 X82.7852 Y215.9974
G01 X82.8193 Y216.0247
G01 X82.8521 Y216.0534
G01 X82.8836 Y216.0836
G01 X82.9138 Y216.1151
G01 X82.9425 Y216.1479
G01 X82.9698 Y216.1820
G01 X82.9956 Y216.2171
G01 X83.0199 Y216.2534
G01 X83.0425 Y216.2907
G01 X83.0635 Y216.3290
G01 X83.0828 Y216.3681
G01 X83.1004 Y216.4080
G01 X83.1162 Y216.4487
G01 X83.1302 Y216.4900
G01 X83.1424 Y216.5319
G01 X83.1528 Y216.5743
G01 X83.1613 Y216.6171
G01 X83.1679 Y216.6602
G01 X83.1727 Y216.7036
G01 X83.1755 Y216.7471
G01 X83.1765 Y216.7907
G01 Y223.7702
G01 X86.5763
G01 Y212.3929
G01 X63.2267
G01 Y222.5668
G01 X63.4267 Y222.5816
M107
G00 Z2.0000


;No. 5: Hole 6
G00 X91.3581 Y222.8223 Z2.0000
G00 Z0.5000
G01 Z0.0000 F400
G01 Z-1.8000
M106 S240
G01 X94.3559 F1000
G01 Y221.3223
G01 X91.3581
G01 Y219.8223
G01 X94.3559
G01 Y218.3223
G01 X91.3581
G01 Y216.8223
G01 X94.3559
G01 X91.3581 Y215.3223
G01 X114.2286
G01 X114.3077 Y216.8223
G01 X110.9794
G01 X111.3078
G01 Y218.3223
G01 X114.3077
G01 Y219.8223
G01 X111.3078
G01 Y221.3223
G01 X114.3077
G01 Y222.8223
G01 X111.3078
G01 Y224.3223
G01 X114.3077
G01 Y225.8223
G01 X111.3078
G01 Y227.3223
G01 X114.3077
G01 Y228.8223
G01 X93.4635
G01 X91.7974 Y230.3223
G01 X114.3077
M107
G00 Z2.0000
G00 X113.4795 Y215.3223
G00 Z0.5000
G01 Z-1.8000 F400
M106 S240
G01 Y213.8223 F1000
G01 X91.3581
G01 X91.1581 Y213.8342
G01 Y223.7702
G01 X94.5559
G01 Y216.7907
G01 X94.5590 Y216.7122
G01 X94.5683 Y216.6342
G01 X94.5836 Y216.5572
G01 X94.6049 Y216.4817
G01 X94.6321 Y216.4080
G01 X94.6649 Y216.3367
G01 X94.7033 Y216.2682
G01 X94.7469 Y216.2029
G01 X94.7955 Y216.1412
G01 X94.8488 Y216.0836
G01 X94.9065 Y216.0303
G01 X94.9682 Y215.9817
G01 X95.0335 Y215.9380
G01 X95.1020 Y215.8997
G01 X95.1733 Y215.8668
G01 X95.2469 Y215.8396
G01 X95.3225 Y215.8183
G01 X95.3995 Y215.8030
G01 X95.4775 Y215.7938
G01 X95.5560 Y215.7907
G01 X108.8395 Y215.7909
G01 X108.9669 Y215.7949
G01 X109.0939 Y215.8060
G01 X109.2200 Y215.8242
G01 X109.3449 Y215.8495
G01 X109.4682 Y215.8817
G01 X109.5895 Y215.9207
G01 X109.7085 Y215.9665
G01 X109.8247 Y216.0188
G01 X109.9377 Y216.0776
G01 X110.0473 Y216.1427
G01 X110.1531 Y216.2137
G01 X110.2548 Y216.2906
G01 X110.3520 Y216.3730
G01 X110.4444 Y216.4607
G01 X110.5318 Y216.5535
G01 X110.6138 Y216.6511
G01 X110.6903 Y216.7530
G01 X110.7609 Y216.8591
G01 X110.8255 Y216.9690
G01 X110.8838 Y217.0823
G01 X110.9357 Y217.1987
G01 X110.9810 Y217.3178
G01 X111.0196 Y217.4393
G01 X111.0513 Y217.5627
G01 X111.0760 Y217.6877
G01 X111.0937 Y217.8139
G01 X111.1043 Y217.9409
G01 X111.1078 Y218.0683
G01 Y227.3538
G01 X111.1048 Y227.4323
G01 X111.0955 Y227.5103
G01 X111.0802 Y227.5873
G01 X111.0589 Y227.6628
G01 X111.0317 Y227.7365
G01 X110.9988 Y227.8078
G01 X110.9605 Y227.8763
G01 X110.9169 Y227.9416
G01 X110.8682 Y228.0033
G01 X110.8149 Y228.0609
G01 X110.7573 Y228.1142
G01 X110.6956 Y228.1628
G01 X110.6303 Y228.2065
G01 X110.5618 Y228.2448
G01 X110.4905 Y228.2777
G01 X110.4169 Y228.3049
G01 X110.3413 Y228.3262
G01 X110.2643 Y228.3415
G01 X110.1863 Y228.3507
G01 X110.1078 Y228.3538
G01 X94.8622
G01 X94.5166 Y228.3642
G01 X94.1735 Y228.4073
G01 X93.8360 Y228.4829
G01 X93.5073 Y228.5901
G01 X93.1902 Y228.7281
G01 X92.8877 Y228.8955
G01 X92.6024 Y229.0910
G01 X92.3370 Y229.3126
G01 X92.0938 Y229.5585
G01 X91.8751 Y229.8263
G01 X91.6828 Y230.1137
G01 X91.5187 Y230.4181
G01 X91.3842 Y230.7366
G01 X91.2806 Y231.0665
G01 X91.2087 Y231.4048
G01 X91.1694 Y231.7483
G01 X114.5077 Y231.7517
G01 X114.5076 Y216.0890
G01 X114.4900 Y215.7265
G01 X114.4369 Y215.3674
G01 X114.3489 Y215.0152
G01 X114.2266 Y214.6734
G01 X114.0714 Y214.3453
G01 X113.8848 Y214.0339
G01 X113.6685 Y213.7424
G01 X113.4246 Y213.4736
G01 X113.1555 Y213.2299
G01 X112.8638 Y213.0139
G01 X112.5524 Y212.8275
G01 X112.2241 Y212.6726
G01 X111.8822 Y212.5507
G01 X111.5299 Y212.4629
G01 X111.1708 Y212.4101
G01 X110.8082 Y212.3928
G01 X91.1581
G01 Y213.8342
G01 X91.3581 Y213.8223
M107
G00 Z2.0000


;No. 6: Hole 7
G00 X119.8956 Y230.0528 Z2.0000
G00 Z0.5000
G01 Z0.0000 F400
G01 Z-1.8000
M106 S240
G01 X141.6221 F1000
G01 X141.7798 Y229.9295
G01 X141.5998 Y229.6938
G01 X141.4015 Y229.4732
G01 X141.1863 Y229.2692
G01 X140.9553 Y229.0831
G01 X140.7103 Y228.9161
G01 X140.4526 Y228.7692
G01 X140.1841 Y228.6434
G01 X139.9063 Y228.5395
G01 X139.6211 Y228.4581
G01 X139.3303 Y228.3998
G01 X139.0358 Y228.3650
G01 X138.7394 Y228.3538
G01 X122.7934
G01 X122.4490 Y228.3641
G01 X122.1072 Y228.4069
G01 X121.7709 Y228.4818
G01 X121.4432 Y228.5883
G01 X121.1270 Y228.7253
G01 X120.8253 Y228.8916
G01 X120.5406 Y229.0857
G01 X120.2756 Y229.3058
G01 X120.0326 Y229.5501
G01 X119.8138 Y229.8162
G01 X119.6211 Y230.1019
G01 X119.4564 Y230.4045
G01 X119.3210 Y230.7214
G01 X119.2163 Y231.0496
G01 X119.1430 Y231.3863
G01 X119.1020 Y231.7284
G01 X119.1092 Y231.7517
G01 X142.4189
G01 X142.3972 Y231.5080
G01 X142.3583 Y231.2665
G01 X142.3023 Y231.0284
G01 X142.2296 Y230.7949
G01 X142.1405 Y230.5671
G01 X142.0355 Y230.3462
G01 X141.9151 Y230.1333
G01 X141.7798 Y229.9295
G01 X141.6221 Y230.0528
M107
G00 Z2.0000


;No. 7: Hole 8
G00 X141.6209 Y222.0713 Z2.0000
G00 Z0.5000
G01 Z0.0000 F400
G01 Z-1.8000
M106 S240
G01 X119.8968 F1000
G01 X119.7367 Y221.9512
G01 X119.6065 Y222.1538
G01 X119.4900 Y222.3646
G01 X119.3877 Y222.5826
G01 X119.3000 Y222.8069
G01 X119.2273 Y223.0364
G01 X119.1699 Y223.2703
G01 X119.1281 Y223.5075
G01 X119.1020 Y223.7469
G01 X119.1092 Y223.7702
G01 X142.4189
G01 X142.3762 Y223.4288
G01 X142.3018 Y223.0929
G01 X142.1964 Y222.7654
G01 X142.0609 Y222.4491
G01 X141.8965 Y222.1469
G01 X141.7046 Y221.8613
G01 X141.4870 Y221.5949
G01 X141.2454 Y221.3499
G01 X140.9820 Y221.1285
G01 X140.6991 Y220.9327
G01 X140.3991 Y220.7641
G01 X140.0848 Y220.6243
G01 X139.7588 Y220.5143
G01 X139.4239 Y220.4353
G01 X139.0831 Y220.3878
G01 X138.7394 Y220.3724
G01 X122.7934
G01 X122.4947 Y220.3785
G01 X122.1975 Y220.4094
G01 X121.9039 Y220.4647
G01 X121.6158 Y220.5442
G01 X121.3354 Y220.6474
G01 X121.0644 Y220.7733
G01 X120.8049 Y220.9214
G01 X120.5585 Y221.0904
G01 X120.3269 Y221.2792
G01 X120.1118 Y221.4866
G01 X119.9146 Y221.7111
G01 X119.7367 Y221.9512
G01 X119.8968 Y222.0713
M107
G00 Z2.0000


;No. 8: Hole 9
G00 X119.8956 Y214.0918 Z2.0000
G00 Z0.5000
G01 Z0.0000 F400
G01 Z-1.8000
M106 S240
G01 X141.6221 F1000
G01 X141.7798 Y213.9685
G01 X141.5998 Y213.7328
G01 X141.4015 Y213.5122
G01 X141.1863 Y213.3083
G01 X140.9553 Y213.1222
G01 X140.7103 Y212.9551
G01 X140.4526 Y212.8082
G01 X140.1841 Y212.6824
G01 X139.9063 Y212.5785
G01 X139.6211 Y212.4971
G01 X139.3303 Y212.4389
G01 X139.0358 Y212.4040
G01 X138.7394 Y212.3928
G01 X122.7934
G01 X122.4286 Y212.4044
G01 X122.0669 Y212.4526
G01 X121.7117 Y212.5369
G01 X121.3669 Y212.6564
G01 X121.0358 Y212.8100
G01 X120.7218 Y212.9960
G01 X120.4280 Y213.2127
G01 X120.1576 Y213.4578
G01 X120.1653 Y213.4495
G01 X119.9460 Y213.6900
G01 X119.7489 Y213.9488
G01 X119.5753 Y214.2241
G01 X119.4267 Y214.5136
G01 X119.3043 Y214.8150
G01 X119.2089 Y215.1261
G01 X119.1413 Y215.4444
G01 X119.1020 Y215.7674
G01 X119.1092 Y215.7907
G01 X142.4189
G01 X142.3972 Y215.5470
G01 X142.3583 Y215.3056
G01 X142.3023 Y215.0674
G01 X142.2296 Y214.8339
G01 X142.1405 Y214.6061
G01 X142.0355 Y214.3852
G01 X141.9151 Y214.1723
G01 X141.7798 Y213.9685
G01 X141.6221 Y214.0918
M107
G00 Z2.0000


;No. 9: Hole 10
G00 X147.2204 Y213.8223 Z2.0000
G00 Z0.5000
G01 Z0.0000 F400
G01 Z-1.8000
M106 S240
G01 X169.3418 F1000
G01 X170.0909 Y215.3223
G01 X147.2204
G01 Y216.8223
G01 X150.2183
G01 Y218.3223
G01 X147.2204
G01 Y219.8223
G01 X150.2183
G01 Y221.3223
G01 X147.2204
G01 Y222.8223
G01 X150.2183
G01 Y224.3223
G01 X147.2204
G01 Y225.8223
G01 X150.2183
G01 Y227.3223
G01 X147.2204
G01 Y228.8223
G01 X150.2183
G01 Y230.3223
G01 X147.2204
G01 X147.0204 Y230.3095
G01 Y231.7517
G01 X150.4183
G01 Y216.7907
G01 X150.4214 Y216.7118
G01 X150.4307 Y216.6333
G01 X150.4462 Y216.5558
G01 X150.4678 Y216.4798
G01 X150.4953 Y216.4057
G01 X150.5286 Y216.3341
G01 X150.5675 Y216.2652
G01 X150.6116 Y216.1997
G01 X150.6608 Y216.1379
G01 X150.7147 Y216.0801
G01 X150.7730 Y216.0267
G01 X150.8353 Y215.9782
G01 X150.9013 Y215.9347
G01 X150.9705 Y215.8965
G01 X151.0425 Y215.8640
G01 X151.1169 Y215.8372
G01 X151.1931 Y215.8164
G01 X151.2707 Y215.8016
G01 X151.3493 Y215.7931
G01 X151.4283 Y215.7907
G01 X170.3500
G01 X170.3076 Y215.4489
G01 X170.2334 Y215.1125
G01 X170.1281 Y214.7845
G01 X169.9926 Y214.4678
G01 X169.8281 Y214.1651
G01 X169.6360 Y213.8792
G01 X169.4179 Y213.6125
G01 X169.1759 Y213.3674
G01 X168.9120 Y213.1460
G01 X168.6286 Y212.9502
G01 X168.3281 Y212.7818
G01 X168.0132 Y212.6422
G01 X167.6866 Y212.5327
G01 X167.3511 Y212.4543
G01 X167.0099 Y212.4075
G01 X166.6657 Y212.3929
G01 X147.0204
G01 Y230.3095
G01 X147.2204 Y230.3223
M107
G00 Z2.0000


;No. 10: Helical drill 2
G00 X171.0170 Y244.5250 Z2.0000
G00 Z0.5000
M106 S240
G01 X171.0132 Y244.4379 Z0.4722 F400
G01 X171.0018 Y244.3514 Z0.4444
G01 X170.9829 Y244.2662 Z0.4167
G01 X170.9567 Y244.1830 Z0.3889
G01 X170.9233 Y244.1024 Z0.3611
G01 X170.8830 Y244.0250 Z0.3333
G01 X170.8361 Y243.9514 Z0.3056
G01 X170.7830 Y243.8822 Z0.2778
G01 X170.7241 Y243.8179 Z0.2500
G01 X170.6598 Y243.7590 Z0.2222
G01 X170.5905 Y243.7059 Z0.1944
G01 X170.5170 Y243.6590 Z0.1667
G01 X170.4396 Y243.6187 Z0.1389
G01 X170.3590 Y243.5853 Z0.1111
G01 X170.2758 Y243.5591 Z0.0833
G01 X170.1906 Y243.5402 Z0.0556
G01 X170.1041 Y243.5288 Z0.0278
G01 X170.0170 Y243.5250 Z0.0000
G01 X169.9298 Y243.5288 Z-0.0278
G01 X169.8433 Y243.5402 Z-0.0556
G01 X169.7581 Y243.5591 Z-0.0833
G01 X169.6749 Y243.5853 Z-0.1111
G01 X169.5943 Y243.6187 Z-0.1389
G01 X169.5170 Y243.6590 Z-0.1667
G01 X169.4434 Y243.7059 Z-0.1944
G01 X169.3742 Y243.7590 Z-0.2222
G01 X169.3099 Y243.8179 Z-0.2500
G01 X169.2509 Y243.8822 Z-0.2778
G01 X169.1978 Y243.9514 Z-0.3056
G01 X169.1509 Y244.0250 Z-0.3333
G01 X169.1107 Y244.1024 Z-0.3611
G01 X169.0773 Y244.1830 Z-0.3889
G01 X169.0510 Y244.2662 Z-0.4167
G01 X169.0322 Y244.3514 Z-0.4444
G01 X169.0208 Y244.4379 Z-0.4722
G01 X169.0170 Y244.5250 Z-0.5000
G01 X169.0208 Y244.6122 Z-0.5278
G01 X169.0322 Y244.6987 Z-0.5556
G01 X169.0510 Y244.7838 Z-0.5833
G01 X169.0773 Y244.8670 Z-0.6111
G01 X169.1107 Y244.9476 Z-0.6389
G01 X169.1509 Y245.0250 Z-0.6667
G01 X169.1978 Y245.0986 Z-0.6944
G01 X169.2509 Y245.1678 Z-0.7222
G01 X169.3099 Y245.2321 Z-0.7500
G01 X169.3742 Y245.2911 Z-0.7778
G01 X169.4434 Y245.3442 Z-0.8056
G01 X169.5170 Y245.3910 Z-0.8333
G01 X169.5943 Y245.4313 Z-0.8611
G01 X169.6749 Y245.4647 Z-0.8889
G01 X169.7581 Y245.4909 Z-0.9167
G01 X169.8433 Y245.5098 Z-0.9444
G01 X169.9298 Y245.5212 Z-0.9722
G01 X170.0170 Y245.5250 Z-1.0000
G01 X170.1041 Y245.5212 Z-1.0278
G01 X170.1906 Y245.5098 Z-1.0556
G01 X170.2758 Y245.4909 Z-1.0833
G01 X170.3590 Y245.4647 Z-1.1111
G01 X170.4396 Y245.4313 Z-1.1389
G01 X170.5170 Y245.3910 Z-1.1667
G01 X170.5905 Y245.3442 Z-1.1944
G01 X170.6598 Y245.2911 Z-1.2222
G01 X170.7241 Y245.2321 Z-1.2500
G01 X170.7830 Y245.1678 Z-1.2778
G01 X170.8361 Y245.0986 Z-1.3056
G01 X170.8830 Y245.0250 Z-1.3333
G01 X170.9233 Y244.9476 Z-1.3611
G01 X170.9567 Y244.8670 Z-1.3889
G01 X170.9829 Y244.7838 Z-1.4167
G01 X171.0018 Y244.6987 Z-1.4444
G01 X171.0132 Y244.6122 Z-1.4722
G01 X171.0170 Y244.5250 Z-1.5000
G01 X171.0132 Y244.4379
G01 X171.0018 Y244.3514
G01 X170.9829 Y244.2662
G01 X170.9567 Y244.1830
G01 X170.9233 Y244.1024
G01 X170.8830 Y244.0250
G01 X170.8361 Y243.9514
G01 X170.7830 Y243.8822
G01 X170.7241 Y243.8179
G01 X170.6598 Y243.7590
G01 X170.5905 Y243.7059
G01 X170.5170 Y243.6590
G01 X170.4396 Y243.6187
G01 X170.3590 Y243.5853
G01 X170.2758 Y243.5591
G01 X170.1906 Y243.5402
G01 X170.1041 Y243.5288
G01 X170.0170 Y243.5250
G01 X169.9298 Y243.5288
G01 X169.8433 Y243.5402
G01 X169.7581 Y243.5591
G01 X169.6749 Y243.5853
G01 X169.5943 Y243.6187
G01 X169.5170 Y243.6590
G01 X169.4434 Y243.7059
G01 X169.3742 Y243.7590
G01 X169.3099 Y243.8179
G01 X169.2509 Y243.8822
G01 X169.1978 Y243.9514
G01 X169.1509 Y244.0250
G01 X169.1107 Y244.1024
G01 X169.0773 Y244.1830
G01 X169.0510 Y244.2662
G01 X169.0322 Y244.3514
G01 X169.0208 Y244.4379
G01 X169.0170 Y244.5250
G01 X169.0208 Y244.6122
G01 X169.0322 Y244.6987
G01 X169.0510 Y244.7838
G01 X169.0773 Y244.8670
G01 X169.1107 Y244.9476
G01 X169.1509 Y245.0250
G01 X169.1978 Y245.0986
G01 X169.2509 Y245.1678
G01 X169.3099 Y245.2321
G01 X169.3742 Y245.2911
G01 X169.4434 Y245.3442
G01 X169.5170 Y245.3910
G01 X169.5943 Y245.4313
G01 X169.6749 Y245.4647
G01 X169.7581 Y245.4909
G01 X169.8433 Y245.5098
G01 X169.9298 Y245.5212
G01 X170.0170 Y245.5250
G01 X170.1041 Y245.5212
G01 X170.1906 Y245.5098
G01 X170.2758 Y245.4909
G01 X170.3590 Y245.4647
G01 X170.4396 Y245.4313
G01 X170.5170 Y245.3910
G01 X170.5905 Y245.3442
G01 X170.6598 Y245.2911
G01 X170.7241 Y245.2321
G01 X170.7830 Y245.1678
G01 X170.8361 Y245.0986
G01 X170.8830 Y245.0250
G01 X170.9233 Y244.9476
G01 X170.9567 Y244.8670
G01 X170.9829 Y244.7838
G01 X171.0018 Y244.6987
G01 X171.0132 Y244.6122
G01 X171.0170 Y244.5250
G01 X171.0277 Y244.4734 F1000
G01 X171.0358 Y244.4213
G01 X171.0412 Y244.3689
G01 X171.0438 Y244.3163
G01 Y244.2636
G01 X171.0411 Y244.2109
G01 X171.0356 Y244.1585
G01 X171.0275 Y244.1065
G01 X171.0157 Y244.0505
G01 X171.0012 Y243.9952
G01 X170.9838 Y243.9407
G01 X170.9637 Y243.8871
G01 X170.9408 Y243.8347
G01 X170.9153 Y243.7835
G01 X170.8872 Y243.7337
G01 X170.8567 Y243.6853
G01 X170.8210 Y243.6349
G01 X170.7829 Y243.5864
G01 X170.7424 Y243.5399
G01 X170.6995 Y243.4955
G01 X170.6545 Y243.4533
G01 X170.6073 Y243.4135
G01 X170.5582 Y243.3761
G01 X170.5073 Y243.3413
G01 X170.4492 Y243.3153
G01 X170.3899 Y243.2923
G01 X170.3295 Y243.2722
G01 X170.2682 Y243.2550
G01 X170.2062 Y243.2410
G01 X170.1435 Y243.2299
G01 X170.0804 Y243.2220
G01 X170.0170 Y243.2172
G01 X169.9528 Y243.2188
G01 X169.8888 Y243.2235
G01 X169.8251 Y243.2314
G01 X169.7618 Y243.2423
G01 X169.6992 Y243.2564
G01 X169.6373 Y243.2735
G01 X169.5764 Y243.2937
G01 X169.5165 Y243.3168
G01 X169.4578 Y243.3428
G01 X169.4005 Y243.3716
G01 X169.3446 Y243.4033
G01 X169.2904 Y243.4376
G01 X169.2379 Y243.4746
G01 X169.1873 Y243.5141
G01 X169.1387 Y243.5560
G01 X169.0922 Y243.6003
G01 X169.0480 Y243.6468
G01 X169.0060 Y243.6954
G01 X168.9665 Y243.7460
G01 X168.9296 Y243.7984
G01 X168.8952 Y243.8527
G01 X168.8636 Y243.9085
G01 X168.8347 Y243.9659
G01 X168.8087 Y244.0245
G01 X168.7856 Y244.0844
G01 X168.7655 Y244.1454
G01 X168.7484 Y244.2072
G01 X168.7343 Y244.2699
G01 X168.7233 Y244.3331
G01 X168.7155 Y244.3968
G01 X168.7107 Y244.4608
G01 X168.7092 Y244.5250
G01 X168.7107 Y244.5892
G01 X168.7155 Y244.6532
G01 X168.7233 Y244.7169
G01 X168.7343 Y244.7801
G01 X168.7484 Y244.8428
G01 X168.7655 Y244.9046
G01 X168.7856 Y244.9656
G01 X168.8087 Y245.0255
G01 X168.8347 Y245.0842
G01 X168.8636 Y245.1415
G01 X168.8952 Y245.1974
G01 X168.9296 Y245.2516
G01 X168.9665 Y245.3041
G01 X169.0060 Y245.3547
G01 X169.0480 Y245.4033
G01 X169.0922 Y245.4498
G01 X169.1387 Y245.4940
G01 X169.1873 Y245.5359
G01 X169.2379 Y245.5754
G01 X169.2904 Y245.6124
G01 X169.3446 Y245.6467
G01 X169.4005 Y245.6784
G01 X169.4578 Y245.7072
G01 X169.5165 Y245.7333
G01 X169.5764 Y245.7564
G01 X169.6373 Y245.7765
G01 X169.6992 Y245.7936
G01 X169.7618 Y245.8077
G01 X169.8251 Y245.8186
G01 X169.8888 Y245.8265
G01 X169.9528 Y245.8312
G01 X170.0170 Y245.8328
G01 X170.0811 Y245.8312
G01 X170.1451 Y245.8265
G01 X170.2089 Y245.8186
G01 X170.2721 Y245.8077
G01 X170.3347 Y245.7936
G01 X170.3966 Y245.7765
G01 X170.4575 Y245.7564
G01 X170.5174 Y245.7333
G01 X170.5761 Y245.7072
G01 X170.6335 Y245.6784
G01 X170.6893 Y245.6467
G01 X170.7435 Y245.6124
G01 X170.7960 Y245.5754
G01 X170.8466 Y245.5359
G01 X170.8952 Y245.4940
G01 X170.9417 Y245.4498
G01 X170.9860 Y245.4033
G01 X171.0279 Y245.3547
G01 X171.0674 Y245.3041
G01 X171.1044 Y245.2516
G01 X171.1387 Y245.1974
G01 X171.1703 Y245.1415
G01 X171.1992 Y245.0842
G01 X171.2252 Y245.0255
G01 X171.2483 Y244.9656
G01 X171.2684 Y244.9046
G01 X171.2856 Y244.8428
G01 X171.2996 Y244.7801
G01 X171.3106 Y244.7169
G01 X171.3185 Y244.6532
G01 X171.3232 Y244.5892
G01 X171.3248 Y244.5250
G01 X171.3211 Y244.4273
G01 X171.3101 Y244.3301
G01 X171.2920 Y244.2340
G01 X171.2667 Y244.1395
G01 X171.2344 Y244.0472
G01 X171.1952 Y243.9576
G01 X171.1495 Y243.8711
G01 X171.0975 Y243.7883
G01 X171.0394 Y243.7096
G01 X170.9756 Y243.6355
G01 X170.9065 Y243.5663
G01 X170.8324 Y243.5025
G01 X170.7537 Y243.4445
G01 X170.6709 Y243.3924
G01 X170.5844 Y243.3467
G01 X170.4948 Y243.3076
G01 X170.4024 Y243.2753
G01 X170.3080 Y243.2500
G01 X170.2119 Y243.2318
G01 X170.1147 Y243.2209
G01 X170.0170 Y243.2172
G01 X169.9192 Y243.2209
G01 X169.8220 Y243.2318
G01 X169.7260 Y243.2500
G01 X169.6315 Y243.2753
G01 X169.5392 Y243.3076
G01 X169.4495 Y243.3467
G01 X169.3631 Y243.3924
G01 X169.2803 Y243.4445
G01 X169.2016 Y243.5025
G01 X169.1274 Y243.5663
G01 X169.0583 Y243.6355
G01 X168.9945 Y243.7096
G01 X168.9364 Y243.7883
G01 X168.8844 Y243.8711
G01 X168.8387 Y243.9576
G01 X168.7996 Y244.0472
G01 X168.7673 Y244.1395
G01 X168.7420 Y244.2340
G01 X168.7238 Y244.3301
G01 X168.7128 Y244.4273
G01 X168.7092 Y244.5250
G01 X168.7128 Y244.6227
G01 X168.7238 Y244.7199
G01 X168.7420 Y244.8160
G01 X168.7673 Y244.9105
G01 X168.7996 Y245.0028
G01 X168.8387 Y245.0924
G01 X168.8844 Y245.1789
G01 X168.9364 Y245.2617
G01 X168.9945 Y245.3404
G01 X169.0583 Y245.4145
G01 X169.1274 Y245.4837
G01 X169.2016 Y245.5475
G01 X169.2803 Y245.6056
G01 X169.3631 Y245.6576
G01 X169.4495 Y245.7033
G01 X169.5392 Y245.7424
G01 X169.6315 Y245.7747
G01 X169.7260 Y245.8000
G01 X169.8220 Y245.8182
G01 X169.9192 Y245.8291
G01 X170.0170 Y245.8328
G01 X170.1147 Y245.8291
G01 X170.2119 Y245.8182
G01 X170.3080 Y245.8000
G01 X170.4024 Y245.7747
G01 X170.4948 Y245.7424
G01 X170.5844 Y245.7033
G01 X170.6709 Y245.6576
G01 X170.7537 Y245.6056
G01 X170.8324 Y245.5475
G01 X170.9065 Y245.4837
G01 X170.9756 Y245.4145
G01 X171.0394 Y245.3404
G01 X171.0975 Y245.2617
G01 X171.1495 Y245.1789
G01 X171.1952 Y245.0924
G01 X171.2344 Y245.0028
G01 X171.2667 Y244.9105
G01 X171.2920 Y244.8160
G01 X171.3101 Y244.7199
G01 X171.3211 Y244.6227
G01 X171.3248 Y244.5250
G01 X171.3204 Y244.4244
G01 X171.3072 Y244.3246
G01 X171.2854 Y244.2264
G01 X171.2552 Y244.1304
G01 X171.2166 Y244.0374
G01 X171.1702 Y243.9481
G01 X171.1161 Y243.8632
G01 X171.0548 Y243.7833
G01 X170.9868 Y243.7091
G01 X170.9126 Y243.6411
G01 X170.8327 Y243.5798
G01 X170.7478 Y243.5257
G01 X170.6585 Y243.4792
G01 X170.5655 Y243.4407
G01 X170.4695 Y243.4104
G01 X170.3712 Y243.3886
G01 X170.2714 Y243.3755
G01 X170.1709 Y243.3711
G01 X170.0703 Y243.3755
G01 X169.9705 Y243.3886
G01 X169.8722 Y243.4104
G01 X169.7762 Y243.4407
G01 X169.6832 Y243.4792
G01 X169.5939 Y243.5257
G01 X169.5090 Y243.5798
G01 X169.4291 Y243.6411
G01 X169.3549 Y243.7091
G01 X169.2869 Y243.7833
G01 X169.2256 Y243.8632
G01 X169.1716 Y243.9481
G01 X169.1251 Y244.0374
G01 X169.0866 Y244.1304
G01 X169.0563 Y244.2264
G01 X169.0345 Y244.3246
G01 X169.0214 Y244.4244
G01 X169.0170 Y244.5250
G01 X169.0208 Y244.6122
G01 X169.0322 Y244.6987
G01 X169.0510 Y244.7838
G01 X169.0773 Y244.8670
G01 X169.1107 Y244.9476
G01 X169.1509 Y245.0250
G01 X169.1978 Y245.0986
G01 X169.2509 Y245.1678
G01 X169.3099 Y245.2321
G01 X169.3742 Y245.2911
G01 X169.4434 Y245.3442
G01 X169.5170 Y245.3910
G01 X169.5943 Y245.4313
G01 X169.6749 Y245.4647
G01 X169.7581 Y245.4909
G01 X169.8433 Y245.5098
G01 X169.9298 Y245.5212
G01 X170.0170 Y245.5250
G01 X170.1041 Y245.5212
G01 X170.1906 Y245.5098
G01 X170.2758 Y245.4909
G01 X170.3590 Y245.4647
G01 X170.4396 Y245.4313
G01 X170.5170 Y245.3910
G01 X170.5905 Y245.3442
G01 X170.6598 Y245.2911
G01 X170.7241 Y245.2321
G01 X170.7830 Y245.1678
G01 X170.8361 Y245.0986
G01 X170.8830 Y245.0250
G01 X170.9233 Y244.9476
G01 X170.9567 Y244.8670
G01 X170.9829 Y244.7838
G01 X171.0018 Y244.6987
G01 X171.0132 Y244.6122
G01 X171.0170 Y244.5250
M107
M106 S240
G01 X171.0132 Y244.4379 Z-1.5278 F400
G01 X171.0018 Y244.3514 Z-1.5556
G01 X170.9829 Y244.2662 Z-1.5833
G01 X170.9567 Y244.1830 Z-1.6111
G01 X170.9233 Y244.1024 Z-1.6389
G01 X170.8830 Y244.0250 Z-1.6667
G01 X170.8361 Y243.9514 Z-1.6944
G01 X170.7830 Y243.8822 Z-1.7222
G01 X170.7241 Y243.8179 Z-1.7500
G01 X170.6598 Y243.7590 Z-1.7778
G01 X170.5905 Y243.7059 Z-1.8056
G01 X170.5170 Y243.6590 Z-1.8333
G01 X170.4396 Y243.6187 Z-1.8611
G01 X170.3590 Y243.5853 Z-1.8889
G01 X170.2758 Y243.5591 Z-1.9167
G01 X170.1906 Y243.5402 Z-1.9444
G01 X170.1041 Y243.5288 Z-1.9722
G01 X170.0170 Y243.5250 Z-2.0000
G01 X169.9298 Y243.5288 Z-2.0278
G01 X169.8433 Y243.5402 Z-2.0556
G01 X169.7581 Y243.5591 Z-2.0833
G01 X169.6749 Y243.5853 Z-2.1111
G01 X169.5943 Y243.6187 Z-2.1389
G01 X169.5170 Y243.6590 Z-2.1667
G01 X169.4434 Y243.7059 Z-2.1944
G01 X169.3742 Y243.7590 Z-2.2222
G01 X169.3099 Y243.8179 Z-2.2500
G01 X169.2509 Y243.8822 Z-2.2778
G01 X169.1978 Y243.9514 Z-2.3056
G01 X169.1509 Y244.0250 Z-2.3333
G01 X169.1107 Y244.1024 Z-2.3611
G01 X169.0773 Y244.1830 Z-2.3889
G01 X169.0510 Y244.2662 Z-2.4167
G01 X169.0322 Y244.3514 Z-2.4444
G01 X169.0208 Y244.4379 Z-2.4722
G01 X169.0170 Y244.5250 Z-2.5000
G01 X169.0208 Y244.6122 Z-2.5278
G01 X169.0322 Y244.6987 Z-2.5556
G01 X169.0510 Y244.7838 Z-2.5833
G01 X169.0773 Y244.8670 Z-2.6111
G01 X169.1107 Y244.9476 Z-2.6389
G01 X169.1509 Y245.0250 Z-2.6667
G01 X169.1978 Y245.0986 Z-2.6944
G01 X169.2509 Y245.1678 Z-2.7222
G01 X169.3099 Y245.2321 Z-2.7500
G01 X169.3742 Y245.2911 Z-2.7778
G01 X169.4434 Y245.3442 Z-2.8056
G01 X169.5170 Y245.3910 Z-2.8333
G01 X169.5943 Y245.4313 Z-2.8611
G01 X169.6749 Y245.4647 Z-2.8889
G01 X169.7581 Y245.4909 Z-2.9167
G01 X169.8433 Y245.5098 Z-2.9444
G01 X169.9298 Y245.5212 Z-2.9722
G01 X170.0170 Y245.5250 Z-3.0000
G01 X170.1041 Y245.5212 Z-3.0278
G01 X170.1906 Y245.5098 Z-3.0556
G01 X170.2758 Y245.4909 Z-3.0833
G01 X170.3590 Y245.4647 Z-3.1111
G01 X170.4396 Y245.4313 Z-3.1389
G01 X170.5170 Y245.3910 Z-3.1667
G01 X170.5905 Y245.3442 Z-3.1944
G01 X170.6598 Y245.2911 Z-3.2222
G01 X170.7241 Y245.2321 Z-3.2500
G01 X170.7830 Y245.1678 Z-3.2778
G01 X170.8361 Y245.0986 Z-3.3056
G01 X170.8830 Y245.0250 Z-3.3333
G01 X170.9233 Y244.9476 Z-3.3611
G01 X170.9567 Y244.8670 Z-3.3889
G01 X170.9829 Y244.7838 Z-3.4167
G01 X171.0018 Y244.6987 Z-3.4444
G01 X171.0132 Y244.6122 Z-3.4722
G01 X171.0170 Y244.5250 Z-3.5000
G01 X171.0132 Y244.4379
G01 X171.0018 Y244.3514
G01 X170.9829 Y244.2662
G01 X170.9567 Y244.1830
G01 X170.9233 Y244.1024
G01 X170.8830 Y244.0250
G01 X170.8361 Y243.9514
G01 X170.7830 Y243.8822
G01 X170.7241 Y243.8179
G01 X170.6598 Y243.7590
G01 X170.5905 Y243.7059
G01 X170.5170 Y243.6590
G01 X170.4396 Y243.6187
G01 X170.3590 Y243.5853
G01 X170.2758 Y243.5591
G01 X170.1906 Y243.5402
G01 X170.1041 Y243.5288
G01 X170.0170 Y243.5250
G01 X169.9298 Y243.5288
G01 X169.8433 Y243.5402
G01 X169.7581 Y243.5591
G01 X169.6749 Y243.5853
G01 X169.5943 Y243.6187
G01 X169.5170 Y243.6590
G01 X169.4434 Y243.7059
G01 X169.3742 Y243.7590
G01 X169.3099 Y243.8179
G01 X169.2509 Y243.8822
G01 X169.1978 Y243.9514
G01 X169.1509 Y244.0250
G01 X169.1107 Y244.1024
G01 X169.0773 Y244.1830
G01 X169.0510 Y244.2662
G01 X169.0322 Y244.3514
G01 X169.0208 Y244.4379
G01 X169.0170 Y244.5250
G01 X169.0208 Y244.6122
G01 X169.0322 Y244.6987
G01 X169.0510 Y244.7838
G01 X169.0773 Y244.8670
G01 X169.1107 Y244.9476
G01 X169.1509 Y245.0250
G01 X169.1978 Y245.0986
G01 X169.2509 Y245.1678
G01 X169.3099 Y245.2321
G01 X169.3742 Y245.2911
G01 X169.4434 Y245.3442
G01 X169.5170 Y245.3910
G01 X169.5943 Y245.4313
G01 X169.6749 Y245.4647
G01 X169.7581 Y245.4909
G01 X169.8433 Y245.5098
G01 X169.9298 Y245.5212
G01 X170.0170 Y245.5250
G01 X170.1041 Y245.5212
G01 X170.1906 Y245.5098
G01 X170.2758 Y245.4909
G01 X170.3590 Y245.4647
G01 X170.4396 Y245.4313
G01 X170.5170 Y245.3910
G01 X170.5905 Y245.3442
G01 X170.6598 Y245.2911
G01 X170.7241 Y245.2321
G01 X170.7830 Y245.1678
G01 X170.8361 Y245.0986
G01 X170.8830 Y245.0250
G01 X170.9233 Y244.9476
G01 X170.9567 Y244.8670
G01 X170.9829 Y244.7838
G01 X171.0018 Y244.6987
G01 X171.0132 Y244.6122
G01 X171.0170 Y244.5250
G01 X171.0277 Y244.4734 F1000
G01 X171.0358 Y244.4213
G01 X171.0412 Y244.3689
G01 X171.0438 Y244.3163
G01 Y244.2636
G01 X171.0411 Y244.2109
G01 X171.0356 Y244.1585
G01 X171.0275 Y244.1065
G01 X171.0157 Y244.0505
G01 X171.0012 Y243.9952
G01 X170.9838 Y243.9407
G01 X170.9637 Y243.8871
G01 X170.9408 Y243.8347
G01 X170.9153 Y243.7835
G01 X170.8872 Y243.7337
G01 X170.8567 Y243.6853
G01 X170.8210 Y243.6349
G01 X170.7829 Y243.5864
G01 X170.7424 Y243.5399
G01 X170.6995 Y243.4955
G01 X170.6545 Y243.4533
G01 X170.6073 Y243.4135
G01 X170.5582 Y243.3761
G01 X170.5073 Y243.3413
G01 X170.4492 Y243.3153
G01 X170.3899 Y243.2923
G01 X170.3295 Y243.2722
G01 X170.2682 Y243.2550
G01 X170.2062 Y243.2410
G01 X170.1435 Y243.2299
G01 X170.0804 Y243.2220
G01 X170.0170 Y243.2172
G01 X169.9528 Y243.2188
G01 X169.8888 Y243.2235
G01 X169.8251 Y243.2314
G01 X169.7618 Y243.2423
G01 X169.6992 Y243.2564
G01 X169.6373 Y243.2735
G01 X169.5764 Y243.2937
G01 X169.5165 Y243.3168
G01 X169.4578 Y243.3428
G01 X169.4005 Y243.3716
G01 X169.3446 Y243.4033
G01 X169.2904 Y243.4376
G01 X169.2379 Y243.4746
G01 X169.1873 Y243.5141
G01 X169.1387 Y243.5560
G01 X169.0922 Y243.6003
G01 X169.0480 Y243.6468
G01 X169.0060 Y243.6954
G01 X168.9665 Y243.7460
G01 X168.9296 Y243.7984
G01 X168.8952 Y243.8527
G01 X168.8636 Y243.9085
G01 X168.8347 Y243.9659
G01 X168.8087 Y244.0245
G01 X168.7856 Y244.0844
G01 X168.7655 Y244.1454
G01 X168.7484 Y244.2072
G01 X168.7343 Y244.2699
G01 X168.7233 Y244.3331
G01 X168.7155 Y244.3968
G01 X168.7107 Y244.4608
G01 X168.7092 Y244.5250
G01 X168.7107 Y244.5892
G01 X168.7155 Y244.6532
G01 X168.7233 Y244.7169
G01 X168.7343 Y244.7801
G01 X168.7484 Y244.8428
G01 X168.7655 Y244.9046
G01 X168.7856 Y244.9656
G01 X168.8087 Y245.0255
G01 X168.8347 Y245.0842
G01 X168.8636 Y245.1415
G01 X168.8952 Y245.1974
G01 X168.9296 Y245.2516
G01 X168.9665 Y245.3041
G01 X169.0060 Y245.3547
G01 X169.0480 Y245.4033
G01 X169.0922 Y245.4498
G01 X169.1387 Y245.4940
G01 X169.1873 Y245.5359
G01 X169.2379 Y245.5754
G01 X169.2904 Y245.6124
G01 X169.3446 Y245.6467
G01 X169.4005 Y245.6784
G01 X169.4578 Y245.7072
G01 X169.5165 Y245.7333
G01 X169.5764 Y245.7564
G01 X169.6373 Y245.7765
G01 X169.6992 Y245.7936
G01 X169.7618 Y245.8077
G01 X169.8251 Y245.8186
G01 X169.8888 Y245.8265
G01 X169.9528 Y245.8312
G01 X170.0170 Y245.8328
G01 X170.0811 Y245.8312
G01 X170.1451 Y245.8265
G01 X170.2089 Y245.8186
G01 X170.2721 Y245.8077
G01 X170.3347 Y245.7936
G01 X170.3966 Y245.7765
G01 X170.4575 Y245.7564
G01 X170.5174 Y245.7333
G01 X170.5761 Y245.7072
G01 X170.6335 Y245.6784
G01 X170.6893 Y245.6467
G01 X170.7435 Y245.6124
G01 X170.7960 Y245.5754
G01 X170.8466 Y245.5359
G01 X170.8952 Y245.4940
G01 X170.9417 Y245.4498
G01 X170.9860 Y245.4033
G01 X171.0279 Y245.3547
G01 X171.0674 Y245.3041
G01 X171.1044 Y245.2516
G01 X171.1387 Y245.1974
G01 X171.1703 Y245.1415
G01 X171.1992 Y245.0842
G01 X171.2252 Y245.0255
G01 X171.2483 Y244.9656
G01 X171.2684 Y244.9046
G01 X171.2856 Y244.8428
G01 X171.2996 Y244.7801
G01 X171.3106 Y244.7169
G01 X171.3185 Y244.6532
G01 X171.3232 Y244.5892
G01 X171.3248 Y244.5250
G01 X171.3211 Y244.4273
G01 X171.3101 Y244.3301
G01 X171.2920 Y244.2340
G01 X171.2667 Y244.1395
G01 X171.2344 Y244.0472
G01 X171.1952 Y243.9576
G01 X171.1495 Y243.8711
G01 X171.0975 Y243.7883
G01 X171.0394 Y243.7096
G01 X170.9756 Y243.6355
G01 X170.9065 Y243.5663
G01 X170.8324 Y243.5025
G01 X170.7537 Y243.4445
G01 X170.6709 Y243.3924
G01 X170.5844 Y243.3467
G01 X170.4948 Y243.3076
G01 X170.4024 Y243.2753
G01 X170.3080 Y243.2500
G01 X170.2119 Y243.2318
G01 X170.1147 Y243.2209
G01 X170.0170 Y243.2172
G01 X169.9192 Y243.2209
G01 X169.8220 Y243.2318
G01 X169.7260 Y243.2500
G01 X169.6315 Y243.2753
G01 X169.5392 Y243.3076
G01 X169.4495 Y243.3467
G01 X169.3631 Y243.3924
G01 X169.2803 Y243.4445
G01 X169.2016 Y243.5025
G01 X169.1274 Y243.5663
G01 X169.0583 Y243.6355
G01 X168.9945 Y243.7096
G01 X168.9364 Y243.7883
G01 X168.8844 Y243.8711
G01 X168.8387 Y243.9576
G01 X168.7996 Y244.0472
G01 X168.7673 Y244.1395
G01 X168.7420 Y244.2340
G01 X168.7238 Y244.3301
G01 X168.7128 Y244.4273
G01 X168.7092 Y244.5250
G01 X168.7128 Y244.6227
G01 X168.7238 Y244.7199
G01 X168.7420 Y244.8160
G01 X168.7673 Y244.9105
G01 X168.7996 Y245.0028
G01 X168.8387 Y245.0924
G01 X168.8844 Y245.1789
G01 X168.9364 Y245.2617
G01 X168.9945 Y245.3404
G01 X169.0583 Y245.4145
G01 X169.1274 Y245.4837
G01 X169.2016 Y245.5475
G01 X169.2803 Y245.6056
G01 X169.3631 Y245.6576
G01 X169.4495 Y245.7033
G01 X169.5392 Y245.7424
G01 X169.6315 Y245.7747
G01 X169.7260 Y245.8000
G01 X169.8220 Y245.8182
G01 X169.9192 Y245.8291
G01 X170.0170 Y245.8328
G01 X170.1147 Y245.8291
G01 X170.2119 Y245.8182
G01 X170.3080 Y245.8000
G01 X170.4024 Y245.7747
G01 X170.4948 Y245.7424
G01 X170.5844 Y245.7033
G01 X170.6709 Y245.6576
G01 X170.7537 Y245.6056
G01 X170.8324 Y245.5475
G01 X170.9065 Y245.4837
G01 X170.9756 Y245.4145
G01 X171.0394 Y245.3404
G01 X171.0975 Y245.2617
G01 X171.1495 Y245.1789
G01 X171.1952 Y245.0924
G01 X171.2344 Y245.0028
G01 X171.2667 Y244.9105
G01 X171.2920 Y244.8160
G01 X171.3101 Y244.7199
G01 X171.3211 Y244.6227
G01 X171.3248 Y244.5250
G01 X171.3204 Y244.4244
G01 X171.3072 Y244.3246
G01 X171.2854 Y244.2264
G01 X171.2552 Y244.1304
G01 X171.2166 Y244.0374
G01 X171.1702 Y243.9481
G01 X171.1161 Y243.8632
G01 X171.0548 Y243.7833
G01 X170.9868 Y243.7091
G01 X170.9126 Y243.6411
G01 X170.8327 Y243.5798
G01 X170.7478 Y243.5257
G01 X170.6585 Y243.4792
G01 X170.5655 Y243.4407
G01 X170.4695 Y243.4104
G01 X170.3712 Y243.3886
G01 X170.2714 Y243.3755
G01 X170.1709 Y243.3711
G01 X170.0703 Y243.3755
G01 X169.9705 Y243.3886
G01 X169.8722 Y243.4104
G01 X169.7762 Y243.4407
G01 X169.6832 Y243.4792
G01 X169.5939 Y243.5257
G01 X169.5090 Y243.5798
G01 X169.4291 Y243.6411
G01 X169.3549 Y243.7091
G01 X169.2869 Y243.7833
G01 X169.2256 Y243.8632
G01 X169.1716 Y243.9481
G01 X169.1251 Y244.0374
G01 X169.0866 Y244.1304
G01 X169.0563 Y244.2264
G01 X169.0345 Y244.3246
G01 X169.0214 Y244.4244
G01 X169.0170 Y244.5250
G01 X169.0208 Y244.6122
G01 X169.0322 Y244.6987
G01 X169.0510 Y244.7838
G01 X169.0773 Y244.8670
G01 X169.1107 Y244.9476
G01 X169.1509 Y245.0250
G01 X169.1978 Y245.0986
G01 X169.2509 Y245.1678
G01 X169.3099 Y245.2321
G01 X169.3742 Y245.2911
G01 X169.4434 Y245.3442
G01 X169.5170 Y245.3910
G01 X169.5943 Y245.4313
G01 X169.6749 Y245.4647
G01 X169.7581 Y245.4909
G01 X169.8433 Y245.5098
G01 X169.9298 Y245.5212
G01 X170.0170 Y245.5250
G01 X170.1041 Y245.5212
G01 X170.1906 Y245.5098
G01 X170.2758 Y245.4909
G01 X170.3590 Y245.4647
G01 X170.4396 Y245.4313
G01 X170.5170 Y245.3910
G01 X170.5905 Y245.3442
G01 X170.6598 Y245.2911
G01 X170.7241 Y245.2321
G01 X170.7830 Y245.1678
G01 X170.8361 Y245.0986
G01 X170.8830 Y245.0250
G01 X170.9233 Y244.9476
G01 X170.9567 Y244.8670
G01 X170.9829 Y244.7838
G01 X171.0018 Y244.6987
G01 X171.0132 Y244.6122
G01 X171.0170 Y244.5250
M107
M106 S240
G01 X171.0132 Y244.4379 Z-3.5278 F400
G01 X171.0018 Y244.3514 Z-3.5556
G01 X170.9829 Y244.2662 Z-3.5833
G01 X170.9567 Y244.1830 Z-3.6111
G01 X170.9233 Y244.1024 Z-3.6389
G01 X170.8830 Y244.0250 Z-3.6667
G01 X170.8361 Y243.9514 Z-3.6944
G01 X170.7830 Y243.8822 Z-3.7222
G01 X170.7241 Y243.8179 Z-3.7500
G01 X170.6598 Y243.7590 Z-3.7778
G01 X170.5905 Y243.7059 Z-3.8056
G01 X170.5170 Y243.6590 Z-3.8333
G01 X170.4396 Y243.6187 Z-3.8611
G01 X170.3590 Y243.5853 Z-3.8889
G01 X170.2758 Y243.5591 Z-3.9167
G01 X170.1906 Y243.5402 Z-3.9444
G01 X170.1041 Y243.5288 Z-3.9722
G01 X170.0170 Y243.5250 Z-4.0000
G01 X169.9298 Y243.5288 Z-4.0278
G01 X169.8433 Y243.5402 Z-4.0556
G01 X169.7581 Y243.5591 Z-4.0833
G01 X169.6749 Y243.5853 Z-4.1111
G01 X169.5943 Y243.6187 Z-4.1389
G01 X169.5170 Y243.6590 Z-4.1667
G01 X169.4434 Y243.7059 Z-4.1944
G01 X169.3742 Y243.7590 Z-4.2222
G01 X169.3099 Y243.8179 Z-4.2500
G01 X169.2509 Y243.8822 Z-4.2778
G01 X169.1978 Y243.9514 Z-4.3056
G01 X169.1509 Y244.0250 Z-4.3333
G01 X169.1107 Y244.1024 Z-4.3611
G01 X169.0773 Y244.1830 Z-4.3889
G01 X169.0510 Y244.2662 Z-4.4167
G01 X169.0322 Y244.3514 Z-4.4444
G01 X169.0208 Y244.4379 Z-4.4722
G01 X169.0170 Y244.5250 Z-4.5000
G01 X169.0208 Y244.6122 Z-4.5278
G01 X169.0322 Y244.6987 Z-4.5556
G01 X169.0510 Y244.7838 Z-4.5833
G01 X169.0773 Y244.8670 Z-4.6111
G01 X169.1107 Y244.9476 Z-4.6389
G01 X169.1509 Y245.0250 Z-4.6667
G01 X169.1978 Y245.0986 Z-4.6944
G01 X169.2509 Y245.1678 Z-4.7222
G01 X169.3099 Y245.2321 Z-4.7500
G01 X169.3742 Y245.2911 Z-4.7778
G01 X169.4434 Y245.3442 Z-4.8056
G01 X169.5170 Y245.3910 Z-4.8333
G01 X169.5943 Y245.4313 Z-4.8611
G01 X169.6749 Y245.4647 Z-4.8889
G01 X169.7581 Y245.4909 Z-4.9167
G01 X169.8433 Y245.5098 Z-4.9444
G01 X169.9298 Y245.5212 Z-4.9722
G01 X170.0170 Y245.5250 Z-5.0000
G01 X170.1041 Y245.5212 Z-5.0278
G01 X170.1906 Y245.5098 Z-5.0556
G01 X170.2758 Y245.4909 Z-5.0833
G01 X170.3590 Y245.4647 Z-5.1111
G01 X170.4396 Y245.4313 Z-5.1389
G01 X170.5170 Y245.3910 Z-5.1667
G01 X170.5905 Y245.3442 Z-5.1944
G01 X170.6598 Y245.2911 Z-5.2222
G01 X170.7241 Y245.2321 Z-5.2500
G01 X170.7830 Y245.1678 Z-5.2778
G01 X170.8361 Y245.0986 Z-5.3056
G01 X170.8830 Y245.0250 Z-5.3333
G01 X170.9233 Y244.9476 Z-5.3611
G01 X170.9567 Y244.8670 Z-5.3889
G01 X170.9829 Y244.7838 Z-5.4167
G01 X171.0018 Y244.6987 Z-5.4444
G01 X171.0132 Y244.6122 Z-5.4722
G01 X171.0170 Y244.5250 Z-5.5000
G01 X171.0132 Y244.4379
G01 X171.0018 Y244.3514
G01 X170.9829 Y244.2662
G01 X170.9567 Y244.1830
G01 X170.9233 Y244.1024
G01 X170.8830 Y244.0250
G01 X170.8361 Y243.9514
G01 X170.7830 Y243.8822
G01 X170.7241 Y243.8179
G01 X170.6598 Y243.7590
G01 X170.5905 Y243.7059
G01 X170.5170 Y243.6590
G01 X170.4396 Y243.6187
G01 X170.3590 Y243.5853
G01 X170.2758 Y243.5591
G01 X170.1906 Y243.5402
G01 X170.1041 Y243.5288
G01 X170.0170 Y243.5250
G01 X169.9298 Y243.5288
G01 X169.8433 Y243.5402
G01 X169.7581 Y243.5591
G01 X169.6749 Y243.5853
G01 X169.5943 Y243.6187
G01 X169.5170 Y243.6590
G01 X169.4434 Y243.7059
G01 X169.3742 Y243.7590
G01 X169.3099 Y243.8179
G01 X169.2509 Y243.8822
G01 X169.1978 Y243.9514
G01 X169.1509 Y244.0250
G01 X169.1107 Y244.1024
G01 X169.0773 Y244.1830
G01 X169.0510 Y244.2662
G01 X169.0322 Y244.3514
G01 X169.0208 Y244.4379
G01 X169.0170 Y244.5250
G01 X169.0208 Y244.6122
G01 X169.0322 Y244.6987
G01 X169.0510 Y244.7838
G01 X169.0773 Y244.8670
G01 X169.1107 Y244.9476
G01 X169.1509 Y245.0250
G01 X169.1978 Y245.0986
G01 X169.2509 Y245.1678
G01 X169.3099 Y245.2321
G01 X169.3742 Y245.2911
G01 X169.4434 Y245.3442
G01 X169.5170 Y245.3910
G01 X169.5943 Y245.4313
G01 X169.6749 Y245.4647
G01 X169.7581 Y245.4909
G01 X169.8433 Y245.5098
G01 X169.9298 Y245.5212
G01 X170.0170 Y245.5250
G01 X170.1041 Y245.5212
G01 X170.1906 Y245.5098
G01 X170.2758 Y245.4909
G01 X170.3590 Y245.4647
G01 X170.4396 Y245.4313
G01 X170.5170 Y245.3910
G01 X170.5905 Y245.3442
G01 X170.6598 Y245.2911
G01 X170.7241 Y245.2321
G01 X170.7830 Y245.1678
G01 X170.8361 Y245.0986
G01 X170.8830 Y245.0250
G01 X170.9233 Y244.9476
G01 X170.9567 Y244.8670
G01 X170.9829 Y244.7838
G01 X171.0018 Y244.6987
G01 X171.0132 Y244.6122
G01 X171.0170 Y244.5250
G01 X171.0277 Y244.4734 F1000
G01 X171.0358 Y244.4213
G01 X171.0412 Y244.3689
G01 X171.0438 Y244.3163
G01 Y244.2636
G01 X171.0411 Y244.2109
G01 X171.0356 Y244.1585
G01 X171.0275 Y244.1065
G01 X171.0157 Y244.0505
G01 X171.0012 Y243.9952
G01 X170.9838 Y243.9407
G01 X170.9637 Y243.8871
G01 X170.9408 Y243.8347
G01 X170.9153 Y243.7835
G01 X170.8872 Y243.7337
G01 X170.8567 Y243.6853
G01 X170.8210 Y243.6349
G01 X170.7829 Y243.5864
G01 X170.7424 Y243.5399
G01 X170.6995 Y243.4955
G01 X170.6545 Y243.4533
G01 X170.6073 Y243.4135
G01 X170.5582 Y243.3761
G01 X170.5073 Y243.3413
G01 X170.4492 Y243.3153
G01 X170.3899 Y243.2923
G01 X170.3295 Y243.2722
G01 X170.2682 Y243.2550
G01 X170.2062 Y243.2410
G01 X170.1435 Y243.2299
G01 X170.0804 Y243.2220
G01 X170.0170 Y243.2172
G01 X169.9528 Y243.2188
G01 X169.8888 Y243.2235
G01 X169.8251 Y243.2314
G01 X169.7618 Y243.2423
G01 X169.6992 Y243.2564
G01 X169.6373 Y243.2735
G01 X169.5764 Y243.2937
G01 X169.5165 Y243.3168
G01 X169.4578 Y243.3428
G01 X169.4005 Y243.3716
G01 X169.3446 Y243.4033
G01 X169.2904 Y243.4376
G01 X169.2379 Y243.4746
G01 X169.1873 Y243.5141
G01 X169.1387 Y243.5560
G01 X169.0922 Y243.6003
G01 X169.0480 Y243.6468
G01 X169.0060 Y243.6954
G01 X168.9665 Y243.7460
G01 X168.9296 Y243.7984
G01 X168.8952 Y243.8527
G01 X168.8636 Y243.9085
G01 X168.8347 Y243.9659
G01 X168.8087 Y244.0245
G01 X168.7856 Y244.0844
G01 X168.7655 Y244.1454
G01 X168.7484 Y244.2072
G01 X168.7343 Y244.2699
G01 X168.7233 Y244.3331
G01 X168.7155 Y244.3968
G01 X168.7107 Y244.4608
G01 X168.7092 Y244.5250
G01 X168.7107 Y244.5892
G01 X168.7155 Y244.6532
G01 X168.7233 Y244.7169
G01 X168.7343 Y244.7801
G01 X168.7484 Y244.8428
G01 X168.7655 Y244.9046
G01 X168.7856 Y244.9656
G01 X168.8087 Y245.0255
G01 X168.8347 Y245.0842
G01 X168.8636 Y245.1415
G01 X168.8952 Y245.1974
G01 X168.9296 Y245.2516
G01 X168.9665 Y245.3041
G01 X169.0060 Y245.3547
G01 X169.0480 Y245.4033
G01 X169.0922 Y245.4498
G01 X169.1387 Y245.4940
G01 X169.1873 Y245.5359
G01 X169.2379 Y245.5754
G01 X169.2904 Y245.6124
G01 X169.3446 Y245.6467
G01 X169.4005 Y245.6784
G01 X169.4578 Y245.7072
G01 X169.5165 Y245.7333
G01 X169.5764 Y245.7564
G01 X169.6373 Y245.7765
G01 X169.6992 Y245.7936
G01 X169.7618 Y245.8077
G01 X169.8251 Y245.8186
G01 X169.8888 Y245.8265
G01 X169.9528 Y245.8312
G01 X170.0170 Y245.8328
G01 X170.0811 Y245.8312
G01 X170.1451 Y245.8265
G01 X170.2089 Y245.8186
G01 X170.2721 Y245.8077
G01 X170.3347 Y245.7936
G01 X170.3966 Y245.7765
G01 X170.4575 Y245.7564
G01 X170.5174 Y245.7333
G01 X170.5761 Y245.7072
G01 X170.6335 Y245.6784
G01 X170.6893 Y245.6467
G01 X170.7435 Y245.6124
G01 X170.7960 Y245.5754
G01 X170.8466 Y245.5359
G01 X170.8952 Y245.4940
G01 X170.9417 Y245.4498
G01 X170.9860 Y245.4033
G01 X171.0279 Y245.3547
G01 X171.0674 Y245.3041
G01 X171.1044 Y245.2516
G01 X171.1387 Y245.1974
G01 X171.1703 Y245.1415
G01 X171.1992 Y245.0842
G01 X171.2252 Y245.0255
G01 X171.2483 Y244.9656
G01 X171.2684 Y244.9046
G01 X171.2856 Y244.8428
G01 X171.2996 Y244.7801
G01 X171.3106 Y244.7169
G01 X171.3185 Y244.6532
G01 X171.3232 Y244.5892
G01 X171.3248 Y244.5250
G01 X171.3211 Y244.4273
G01 X171.3101 Y244.3301
G01 X171.2920 Y244.2340
G01 X171.2667 Y244.1395
G01 X171.2344 Y244.0472
G01 X171.1952 Y243.9576
G01 X171.1495 Y243.8711
G01 X171.0975 Y243.7883
G01 X171.0394 Y243.7096
G01 X170.9756 Y243.6355
G01 X170.9065 Y243.5663
G01 X170.8324 Y243.5025
G01 X170.7537 Y243.4445
G01 X170.6709 Y243.3924
G01 X170.5844 Y243.3467
G01 X170.4948 Y243.3076
G01 X170.4024 Y243.2753
G01 X170.3080 Y243.2500
G01 X170.2119 Y243.2318
G01 X170.1147 Y243.2209
G01 X170.0170 Y243.2172
G01 X169.9192 Y243.2209
G01 X169.8220 Y243.2318
G01 X169.7260 Y243.2500
G01 X169.6315 Y243.2753
G01 X169.5392 Y243.3076
G01 X169.4495 Y243.3467
G01 X169.3631 Y243.3924
G01 X169.2803 Y243.4445
G01 X169.2016 Y243.5025
G01 X169.1274 Y243.5663
G01 X169.0583 Y243.6355
G01 X168.9945 Y243.7096
G01 X168.9364 Y243.7883
G01 X168.8844 Y243.8711
G01 X168.8387 Y243.9576
G01 X168.7996 Y244.0472
G01 X168.7673 Y244.1395
G01 X168.7420 Y244.2340
G01 X168.7238 Y244.3301
G01 X168.7128 Y244.4273
G01 X168.7092 Y244.5250
G01 X168.7128 Y244.6227
G01 X168.7238 Y244.7199
G01 X168.7420 Y244.8160
G01 X168.7673 Y244.9105
G01 X168.7996 Y245.0028
G01 X168.8387 Y245.0924
G01 X168.8844 Y245.1789
G01 X168.9364 Y245.2617
G01 X168.9945 Y245.3404
G01 X169.0583 Y245.4145
G01 X169.1274 Y245.4837
G01 X169.2016 Y245.5475
G01 X169.2803 Y245.6056
G01 X169.3631 Y245.6576
G01 X169.4495 Y245.7033
G01 X169.5392 Y245.7424
G01 X169.6315 Y245.7747
G01 X169.7260 Y245.8000
G01 X169.8220 Y245.8182
G01 X169.9192 Y245.8291
G01 X170.0170 Y245.8328
G01 X170.1147 Y245.8291
G01 X170.2119 Y245.8182
G01 X170.3080 Y245.8000
G01 X170.4024 Y245.7747
G01 X170.4948 Y245.7424
G01 X170.5844 Y245.7033
G01 X170.6709 Y245.6576
G01 X170.7537 Y245.6056
G01 X170.8324 Y245.5475
G01 X170.9065 Y245.4837
G01 X170.9756 Y245.4145
G01 X171.0394 Y245.3404
G01 X171.0975 Y245.2617
G01 X171.1495 Y245.1789
G01 X171.1952 Y245.0924
G01 X171.2344 Y245.0028
G01 X171.2667 Y244.9105
G01 X171.2920 Y244.8160
G01 X171.3101 Y244.7199
G01 X171.3211 Y244.6227
G01 X171.3248 Y244.5250
M107
M106 S240
G01 X171.3217 Y244.4466 Z-5.4750 F400
M107
M106 S240
G01 X171.3124 Y244.3686 Z-5.4500
M107
M106 S240
G01 X171.2971 Y244.2916 Z-5.4250
M107
M106 S240
G01 X171.2758 Y244.2160 Z-5.4000
M107
M106 S240
G01 X171.2486 Y244.1423 Z-5.3750
M107
M106 S240
G01 X171.2158 Y244.0710 Z-5.3500
M107
M106 S240
G01 X171.1774 Y244.0025 Z-5.3250
M107
M106 S240
G01 X171.1338 Y243.9372 Z-5.3000
M107
M106 S240
G01 X171.0852 Y243.8756 Z-5.2750
M107
M106 S240
G01 X171.0319 Y243.8179 Z-5.2500
M107
M106 S240
G01 X170.9742 Y243.7646 Z-5.2250
M107
M106 S240
G01 X170.9125 Y243.7160 Z-5.2000
M107
M106 S240
G01 X170.8473 Y243.6724 Z-5.1750
M107
M106 S240
G01 X170.7787 Y243.6340 Z-5.1500
M107
M106 S240
G01 X170.7074 Y243.6011 Z-5.1250
M107
M106 S240
G01 X170.6338 Y243.5740 Z-5.1000
M107
M106 S240
G01 X170.5582 Y243.5526 Z-5.0750
M107
M106 S240
G01 X170.4812 Y243.5373 Z-5.0500
M107
M106 S240
G01 X170.4032 Y243.5281 Z-5.0250
M107
M106 S240
G01 X170.3248 Y243.5250 Z-5.0000
M107
G00 Z2.0000


;No. 11: Helical drill 3
G00 X211.7333 Y244.5250 Z2.0000
G00 Z0.5000
M106 S240
G01 X211.7295 Y244.4378 Z0.4722 F400
G01 X211.7181 Y244.3513 Z0.4444
G01 X211.6993 Y244.2662 Z0.4167
G01 X211.6730 Y244.1830 Z0.3889
G01 X211.6396 Y244.1024 Z0.3611
G01 X211.5994 Y244.0250 Z0.3333
G01 X211.5525 Y243.9514 Z0.3056
G01 X211.4994 Y243.8822 Z0.2778
G01 X211.4404 Y243.8179 Z0.2500
G01 X211.3761 Y243.7589 Z0.2222
G01 X211.3069 Y243.7058 Z0.1944
G01 X211.2333 Y243.6590 Z0.1667
G01 X211.1559 Y243.6187 Z0.1389
G01 X211.0753 Y243.5853 Z0.1111
G01 X210.9921 Y243.5591 Z0.0833
G01 X210.9070 Y243.5402 Z0.0556
G01 X210.8205 Y243.5288 Z0.0278
G01 X210.7333 Y243.5250 Z0.0000
G01 X210.6462 Y243.5288 Z-0.0278
G01 X210.5597 Y243.5402 Z-0.0556
G01 X210.4745 Y243.5591 Z-0.0833
G01 X210.3913 Y243.5853 Z-0.1111
G01 X210.3107 Y243.6187 Z-0.1389
G01 X210.2333 Y243.6590 Z-0.1667
G01 X210.1598 Y243.7058 Z-0.1944
G01 X210.0905 Y243.7589 Z-0.2222
G01 X210.0262 Y243.8179 Z-0.2500
G01 X209.9673 Y243.8822 Z-0.2778
G01 X209.9142 Y243.9514 Z-0.3056
G01 X209.8673 Y244.0250 Z-0.3333
G01 X209.8270 Y244.1024 Z-0.3611
G01 X209.7936 Y244.1830 Z-0.3889
G01 X209.7674 Y244.2662 Z-0.4167
G01 X209.7485 Y244.3513 Z-0.4444
G01 X209.7371 Y244.4378 Z-0.4722
G01 X209.7333 Y244.5250 Z-0.5000
G01 X209.7371 Y244.6121 Z-0.5278
G01 X209.7485 Y244.6986 Z-0.5556
G01 X209.7674 Y244.7838 Z-0.5833
G01 X209.7936 Y244.8670 Z-0.6111
G01 X209.8270 Y244.9476 Z-0.6389
G01 X209.8673 Y245.0250 Z-0.6667
G01 X209.9142 Y245.0986 Z-0.6944
G01 X209.9673 Y245.1678 Z-0.7222
G01 X210.0262 Y245.2321 Z-0.7500
G01 X210.0905 Y245.2910 Z-0.7778
G01 X210.1598 Y245.3441 Z-0.8056
G01 X210.2333 Y245.3910 Z-0.8333
G01 X210.3107 Y245.4313 Z-0.8611
G01 X210.3913 Y245.4647 Z-0.8889
G01 X210.4745 Y245.4909 Z-0.9167
G01 X210.5597 Y245.5098 Z-0.9444
G01 X210.6462 Y245.5212 Z-0.9722
G01 X210.7333 Y245.5250 Z-1.0000
G01 X210.8205 Y245.5212 Z-1.0278
G01 X210.9070 Y245.5098 Z-1.0556
G01 X210.9921 Y245.4909 Z-1.0833
G01 X211.0753 Y245.4647 Z-1.1111
G01 X211.1559 Y245.4313 Z-1.1389
G01 X211.2333 Y245.3910 Z-1.1667
G01 X211.3069 Y245.3441 Z-1.1944
G01 X211.3761 Y245.2910 Z-1.2222
G01 X211.4404 Y245.2321 Z-1.2500
G01 X211.4994 Y245.1678 Z-1.2778
G01 X211.5525 Y245.0986 Z-1.3056
G01 X211.5994 Y245.0250 Z-1.3333
G01 X211.6396 Y244.9476 Z-1.3611
G01 X211.6730 Y244.8670 Z-1.3889
G01 X211.6993 Y244.7838 Z-1.4167
G01 X211.7181 Y244.6986 Z-1.4444
G01 X211.7295 Y244.6121 Z-1.4722
G01 X211.7333 Y244.5250 Z-1.5000
G01 X211.7295 Y244.4378
G01 X211.7181 Y244.3513
G01 X211.6993 Y244.2662
G01 X211.6730 Y244.1830
G01 X211.6396 Y244.1024
G01 X211.5994 Y244.0250
G01 X211.5525 Y243.9514
G01 X211.4994 Y243.8822
G01 X211.4404 Y243.8179
G01 X211.3761 Y243.7589
G01 X211.3069 Y243.7058
G01 X211.2333 Y243.6590
G01 X211.1559 Y243.6187
G01 X211.0753 Y243.5853
G01 X210.9921 Y243.5591
G01 X210.9070 Y243.5402
G01 X210.8205 Y243.5288
G01 X210.7333 Y243.5250
G01 X210.6462 Y243.5288
G01 X210.5597 Y243.5402
G01 X210.4745 Y243.5591
G01 X210.3913 Y243.5853
G01 X210.3107 Y243.6187
G01 X210.2333 Y243.6590
G01 X210.1598 Y243.7058
G01 X210.0905 Y243.7589
G01 X210.0262 Y243.8179
G01 X209.9673 Y243.8822
G01 X209.9142 Y243.9514
G01 X209.8673 Y244.0250
G01 X209.8270 Y244.1024
G01 X209.7936 Y244.1830
G01 X209.7674 Y244.2662
G01 X209.7485 Y244.3513
G01 X209.7371 Y244.4378
G01 X209.7333 Y244.5250
G01 X209.7371 Y244.6121
G01 X209.7485 Y244.6986
G01 X209.7674 Y244.7838
G01 X209.7936 Y244.8670
G01 X209.8270 Y244.9476
G01 X209.8673 Y245.0250
G01 X209.9142 Y245.0986
G01 X209.9673 Y245.1678
G01 X210.0262 Y245.2321
G01 X210.0905 Y245.2910
G01 X210.1598 Y245.3441
G01 X210.2333 Y245.3910
G01 X210.3107 Y245.4313
G01 X210.3913 Y245.4647
G01 X210.4745 Y245.4909
G01 X210.5597 Y245.5098
G01 X210.6462 Y245.5212
G01 X210.7333 Y245.5250
G01 X210.8205 Y245.5212
G01 X210.9070 Y245.5098
G01 X210.9921 Y245.4909
G01 X211.0753 Y245.4647
G01 X211.1559 Y245.4313
G01 X211.2333 Y245.3910
G01 X211.3069 Y245.3441
G01 X211.3761 Y245.2910
G01 X211.4404 Y245.2321
G01 X211.4994 Y245.1678
G01 X211.5525 Y245.0986
G01 X211.5994 Y245.0250
G01 X211.6396 Y244.9476
G01 X211.6730 Y244.8670
G01 X211.6993 Y244.7838
G01 X211.7181 Y244.6986
G01 X211.7295 Y244.6121
G01 X211.7333 Y244.5250
G01 X211.7441 Y244.4734 F1000
G01 X211.7521 Y244.4213
G01 X211.7575 Y244.3689
G01 X211.7602 Y244.3163
G01 Y244.2636
G01 X211.7574 Y244.2109
G01 X211.7520 Y244.1585
G01 X211.7438 Y244.1064
G01 X211.7321 Y244.0504
G01 X211.7175 Y243.9951
G01 X211.7002 Y243.9406
G01 X211.6800 Y243.8871
G01 X211.6572 Y243.8347
G01 X211.6317 Y243.7835
G01 X211.6036 Y243.7336
G01 X211.5730 Y243.6853
G01 X211.5374 Y243.6349
G01 X211.4993 Y243.5864
G01 X211.4587 Y243.5399
G01 X211.4159 Y243.4955
G01 X211.3708 Y243.4533
G01 X211.3237 Y243.4135
G01 X211.2746 Y243.3761
G01 X211.2236 Y243.3413
G01 X211.1655 Y243.3153
G01 X211.1063 Y243.2923
G01 X211.0459 Y243.2721
G01 X210.9846 Y243.2550
G01 X210.9226 Y243.2409
G01 X210.8599 Y243.2299
G01 X210.7968 Y243.2220
G01 X210.7333 Y243.2172
G01 X210.6692 Y243.2188
G01 X210.6051 Y243.2235
G01 X210.5414 Y243.2314
G01 X210.4782 Y243.2423
G01 X210.4156 Y243.2564
G01 X210.3537 Y243.2735
G01 X210.2927 Y243.2936
G01 X210.2329 Y243.3167
G01 X210.1742 Y243.3428
G01 X210.1168 Y243.3716
G01 X210.0610 Y243.4033
G01 X210.0068 Y243.4376
G01 X209.9543 Y243.4746
G01 X209.9037 Y243.5141
G01 X209.8551 Y243.5560
G01 X209.8086 Y243.6002
G01 X209.7643 Y243.6467
G01 X209.7224 Y243.6953
G01 X209.6829 Y243.7459
G01 X209.6459 Y243.7984
G01 X209.6116 Y243.8527
G01 X209.5800 Y243.9085
G01 X209.5511 Y243.9658
G01 X209.5251 Y244.0245
G01 X209.5020 Y244.0844
G01 X209.4818 Y244.1454
G01 X209.4647 Y244.2072
G01 X209.4507 Y244.2699
G01 X209.4397 Y244.3331
G01 X209.4318 Y244.3968
G01 X209.4271 Y244.4608
G01 X209.4255 Y244.5250
G01 X209.4271 Y244.5892
G01 X209.4318 Y244.6532
G01 X209.4397 Y244.7169
G01 X209.4507 Y244.7801
G01 X209.4647 Y244.8428
G01 X209.4818 Y244.9046
G01 X209.5020 Y244.9656
G01 X209.5251 Y245.0255
G01 X209.5511 Y245.0841
G01 X209.5800 Y245.1415
G01 X209.6116 Y245.1973
G01 X209.6459 Y245.2516
G01 X209.6829 Y245.3040
G01 X209.7224 Y245.3546
G01 X209.7643 Y245.4033
G01 X209.8086 Y245.4497
G01 X209.8551 Y245.4940
G01 X209.9037 Y245.5359
G01 X209.9543 Y245.5754
G01 X210.0068 Y245.6124
G01 X210.0610 Y245.6467
G01 X210.1168 Y245.6784
G01 X210.1742 Y245.7072
G01 X210.2329 Y245.7332
G01 X210.2927 Y245.7563
G01 X210.3537 Y245.7765
G01 X210.4156 Y245.7936
G01 X210.4782 Y245.8077
G01 X210.5414 Y245.8186
G01 X210.6051 Y245.8265
G01 X210.6692 Y245.8312
G01 X210.7333 Y245.8328
G01 X210.7975 Y245.8312
G01 X210.8615 Y245.8265
G01 X210.9252 Y245.8186
G01 X210.9885 Y245.8077
G01 X211.0511 Y245.7936
G01 X211.1130 Y245.7765
G01 X211.1739 Y245.7563
G01 X211.2338 Y245.7332
G01 X211.2925 Y245.7072
G01 X211.3498 Y245.6784
G01 X211.4057 Y245.6467
G01 X211.4599 Y245.6124
G01 X211.5124 Y245.5754
G01 X211.5630 Y245.5359
G01 X211.6116 Y245.4940
G01 X211.6581 Y245.4497
G01 X211.7023 Y245.4033
G01 X211.7443 Y245.3546
G01 X211.7838 Y245.3040
G01 X211.8207 Y245.2516
G01 X211.8551 Y245.1973
G01 X211.8867 Y245.1415
G01 X211.9156 Y245.0841
G01 X211.9416 Y245.0255
G01 X211.9647 Y244.9656
G01 X211.9848 Y244.9046
G01 X212.0019 Y244.8428
G01 X212.0160 Y244.7801
G01 X212.0270 Y244.7169
G01 X212.0348 Y244.6532
G01 X212.0395 Y244.5892
G01 X212.0411 Y244.5250
G01 X212.0375 Y244.4273
G01 X212.0265 Y244.3301
G01 X212.0083 Y244.2340
G01 X211.9830 Y244.1395
G01 X211.9507 Y244.0472
G01 X211.9116 Y243.9576
G01 X211.8659 Y243.8711
G01 X211.8139 Y243.7883
G01 X211.7558 Y243.7096
G01 X211.6920 Y243.6355
G01 X211.6229 Y243.5663
G01 X211.5487 Y243.5025
G01 X211.4700 Y243.4444
G01 X211.3872 Y243.3924
G01 X211.3008 Y243.3467
G01 X211.2111 Y243.3076
G01 X211.1188 Y243.2753
G01 X211.0243 Y243.2500
G01 X210.9282 Y243.2318
G01 X210.8311 Y243.2209
G01 X210.7333 Y243.2172
G01 X210.6356 Y243.2209
G01 X210.5384 Y243.2318
G01 X210.4423 Y243.2500
G01 X210.3478 Y243.2753
G01 X210.2555 Y243.3076
G01 X210.1659 Y243.3467
G01 X210.0794 Y243.3924
G01 X209.9966 Y243.4444
G01 X209.9179 Y243.5025
G01 X209.8438 Y243.5663
G01 X209.7746 Y243.6355
G01 X209.7109 Y243.7096
G01 X209.6528 Y243.7883
G01 X209.6007 Y243.8711
G01 X209.5550 Y243.9576
G01 X209.5159 Y244.0472
G01 X209.4836 Y244.1395
G01 X209.4583 Y244.2340
G01 X209.4401 Y244.3301
G01 X209.4292 Y244.4273
G01 X209.4255 Y244.5250
G01 X209.4292 Y244.6227
G01 X209.4401 Y244.7199
G01 X209.4583 Y244.8160
G01 X209.4836 Y244.9105
G01 X209.5159 Y245.0028
G01 X209.5550 Y245.0924
G01 X209.6007 Y245.1789
G01 X209.6528 Y245.2617
G01 X209.7109 Y245.3404
G01 X209.7746 Y245.4145
G01 X209.8438 Y245.4837
G01 X209.9179 Y245.5475
G01 X209.9966 Y245.6055
G01 X210.0794 Y245.6576
G01 X210.1659 Y245.7033
G01 X210.2555 Y245.7424
G01 X210.3478 Y245.7747
G01 X210.4423 Y245.8000
G01 X210.5384 Y245.8182
G01 X210.6356 Y245.8291
G01 X210.7333 Y245.8328
G01 X210.8311 Y245.8291
G01 X210.9282 Y245.8182
G01 X211.0243 Y245.8000
G01 X211.1188 Y245.7747
G01 X211.2111 Y245.7424
G01 X211.3008 Y245.7033
G01 X211.3872 Y245.6576
G01 X211.4700 Y245.6055
G01 X211.5487 Y245.5475
G01 X211.6229 Y245.4837
G01 X211.6920 Y245.4145
G01 X211.7558 Y245.3404
G01 X211.8139 Y245.2617
G01 X211.8659 Y245.1789
G01 X211.9116 Y245.0924
G01 X211.9507 Y245.0028
G01 X211.9830 Y244.9105
G01 X212.0083 Y244.8160
G01 X212.0265 Y244.7199
G01 X212.0375 Y244.6227
G01 X212.0411 Y244.5250
G01 X212.0367 Y244.4244
G01 X212.0236 Y244.3246
G01 X212.0018 Y244.2263
G01 X211.9715 Y244.1303
G01 X211.9330 Y244.0373
G01 X211.8865 Y243.9480
G01 X211.8324 Y243.8631
G01 X211.7712 Y243.7833
G01 X211.7032 Y243.7091
G01 X211.6289 Y243.6411
G01 X211.5491 Y243.5798
G01 X211.4642 Y243.5257
G01 X211.3749 Y243.4792
G01 X211.2819 Y243.4407
G01 X211.1859 Y243.4104
G01 X211.0876 Y243.3886
G01 X210.9878 Y243.3755
G01 X210.8872 Y243.3711
G01 X210.7867 Y243.3755
G01 X210.6869 Y243.3886
G01 X210.5886 Y243.4104
G01 X210.4926 Y243.4407
G01 X210.3996 Y243.4792
G01 X210.3103 Y243.5257
G01 X210.2254 Y243.5798
G01 X210.1455 Y243.6411
G01 X210.0713 Y243.7091
G01 X210.0033 Y243.7833
G01 X209.9420 Y243.8631
G01 X209.8879 Y243.9480
G01 X209.8414 Y244.0373
G01 X209.8029 Y244.1303
G01 X209.7726 Y244.2263
G01 X209.7509 Y244.3246
G01 X209.7377 Y244.4244
G01 X209.7333 Y244.5250
G01 X209.7344 Y244.5712
G01 X209.7376 Y244.6173
G01 X209.7429 Y244.6631
G01 X209.7504 Y244.7087
G01 X209.7599 Y244.7539
G01 X209.7715 Y244.7987
G01 X209.7852 Y244.8428
G01 X209.8009 Y244.8862
G01 X209.8185 Y244.9289
G01 X209.8382 Y244.9707
G01 X209.8597 Y245.0116
G01 X209.8831 Y245.0514
G01 X209.9083 Y245.0901
G01 X209.9353 Y245.1276
G01 X209.9640 Y245.1638
G01 X209.9943 Y245.1987
G01 X210.0262 Y245.2321
G01 X210.0596 Y245.2640
G01 X210.0945 Y245.2943
G01 X210.1307 Y245.3230
G01 X210.1682 Y245.3500
G01 X210.2069 Y245.3752
G01 X210.2467 Y245.3986
G01 X210.2876 Y245.4202
G01 X210.3294 Y245.4398
G01 X210.3721 Y245.4575
G01 X210.4155 Y245.4732
G01 X210.4597 Y245.4868
G01 X210.5044 Y245.4984
G01 X210.5496 Y245.5080
G01 X210.5952 Y245.5154
G01 X210.6411 Y245.5207
G01 X210.6871 Y245.5239
G01 X210.7333 Y245.5250
G01 X210.7795 Y245.5239
G01 X210.8256 Y245.5207
G01 X210.8715 Y245.5154
G01 X210.9171 Y245.5080
G01 X210.9623 Y245.4984
G01 X211.0070 Y245.4868
G01 X211.0511 Y245.4732
G01 X211.0946 Y245.4575
G01 X211.1372 Y245.4398
G01 X211.1791 Y245.4202
G01 X211.2199 Y245.3986
G01 X211.2598 Y245.3752
G01 X211.2985 Y245.3500
G01 X211.3360 Y245.3230
G01 X211.3722 Y245.2943
G01 X211.4070 Y245.2640
G01 X211.4404 Y245.2321
G01 X211.4723 Y245.1987
G01 X211.5027 Y245.1638
G01 X211.5313 Y245.1276
G01 X211.5583 Y245.0901
G01 X211.5835 Y245.0514
G01 X211.6070 Y245.0116
G01 X211.6285 Y244.9707
G01 X211.6481 Y244.9289
G01 X211.6658 Y244.8862
G01 X211.6815 Y244.8428
G01 X211.6952 Y244.7987
G01 X211.7068 Y244.7539
G01 X211.7163 Y244.7087
G01 X211.7237 Y244.6631
G01 X211.7291 Y244.6173
G01 X211.7323 Y244.5712
G01 X211.7333 Y244.5250
M107
M106 S240
G01 X211.7295 Y244.4378 Z-1.5278 F400
G01 X211.7181 Y244.3513 Z-1.5556
G01 X211.6993 Y244.2662 Z-1.5833
G01 X211.6730 Y244.1830 Z-1.6111
G01 X211.6396 Y244.1024 Z-1.6389
G01 X211.5994 Y244.0250 Z-1.6667
G01 X211.5525 Y243.9514 Z-1.6944
G01 X211.4994 Y243.8822 Z-1.7222
G01 X211.4404 Y243.8179 Z-1.7500
G01 X211.3761 Y243.7589 Z-1.7778
G01 X211.3069 Y243.7058 Z-1.8056
G01 X211.2333 Y243.6590 Z-1.8333
G01 X211.1559 Y243.6187 Z-1.8611
G01 X211.0753 Y243.5853 Z-1.8889
G01 X210.9921 Y243.5591 Z-1.9167
G01 X210.9070 Y243.5402 Z-1.9444
G01 X210.8205 Y243.5288 Z-1.9722
G01 X210.7333 Y243.5250 Z-2.0000
G01 X210.6462 Y243.5288 Z-2.0278
G01 X210.5597 Y243.5402 Z-2.0556
G01 X210.4745 Y243.5591 Z-2.0833
G01 X210.3913 Y243.5853 Z-2.1111
G01 X210.3107 Y243.6187 Z-2.1389
G01 X210.2333 Y243.6590 Z-2.1667
G01 X210.1598 Y243.7058 Z-2.1944
G01 X210.0905 Y243.7589 Z-2.2222
G01 X210.0262 Y243.8179 Z-2.2500
G01 X209.9673 Y243.8822 Z-2.2778
G01 X209.9142 Y243.9514 Z-2.3056
G01 X209.8673 Y244.0250 Z-2.3333
G01 X209.8270 Y244.1024 Z-2.3611
G01 X209.7936 Y244.1830 Z-2.3889
G01 X209.7674 Y244.2662 Z-2.4167
G01 X209.7485 Y244.3513 Z-2.4444
G01 X209.7371 Y244.4378 Z-2.4722
G01 X209.7333 Y244.5250 Z-2.5000
G01 X209.7371 Y244.6121 Z-2.5278
G01 X209.7485 Y244.6986 Z-2.5556
G01 X209.7674 Y244.7838 Z-2.5833
G01 X209.7936 Y244.8670 Z-2.6111
G01 X209.8270 Y244.9476 Z-2.6389
G01 X209.8673 Y245.0250 Z-2.6667
G01 X209.9142 Y245.0986 Z-2.6944
G01 X209.9673 Y245.1678 Z-2.7222
G01 X210.0262 Y245.2321 Z-2.7500
G01 X210.0905 Y245.2910 Z-2.7778
G01 X210.1598 Y245.3441 Z-2.8056
G01 X210.2333 Y245.3910 Z-2.8333
G01 X210.3107 Y245.4313 Z-2.8611
G01 X210.3913 Y245.4647 Z-2.8889
G01 X210.4745 Y245.4909 Z-2.9167
G01 X210.5597 Y245.5098 Z-2.9444
G01 X210.6462 Y245.5212 Z-2.9722
G01 X210.7333 Y245.5250 Z-3.0000
G01 X210.8205 Y245.5212 Z-3.0278
G01 X210.9070 Y245.5098 Z-3.0556
G01 X210.9921 Y245.4909 Z-3.0833
G01 X211.0753 Y245.4647 Z-3.1111
G01 X211.1559 Y245.4313 Z-3.1389
G01 X211.2333 Y245.3910 Z-3.1667
G01 X211.3069 Y245.3441 Z-3.1944
G01 X211.3761 Y245.2910 Z-3.2222
G01 X211.4404 Y245.2321 Z-3.2500
G01 X211.4994 Y245.1678 Z-3.2778
G01 X211.5525 Y245.0986 Z-3.3056
G01 X211.5994 Y245.0250 Z-3.3333
G01 X211.6396 Y244.9476 Z-3.3611
G01 X211.6730 Y244.8670 Z-3.3889
G01 X211.6993 Y244.7838 Z-3.4167
G01 X211.7181 Y244.6986 Z-3.4444
G01 X211.7295 Y244.6121 Z-3.4722
G01 X211.7333 Y244.5250 Z-3.5000
G01 X211.7295 Y244.4378
G01 X211.7181 Y244.3513
G01 X211.6993 Y244.2662
G01 X211.6730 Y244.1830
G01 X211.6396 Y244.1024
G01 X211.5994 Y244.0250
G01 X211.5525 Y243.9514
G01 X211.4994 Y243.8822
G01 X211.4404 Y243.8179
G01 X211.3761 Y243.7589
G01 X211.3069 Y243.7058
G01 X211.2333 Y243.6590
G01 X211.1559 Y243.6187
G01 X211.0753 Y243.5853
G01 X210.9921 Y243.5591
G01 X210.9070 Y243.5402
G01 X210.8205 Y243.5288
G01 X210.7333 Y243.5250
G01 X210.6462 Y243.5288
G01 X210.5597 Y243.5402
G01 X210.4745 Y243.5591
G01 X210.3913 Y243.5853
G01 X210.3107 Y243.6187
G01 X210.2333 Y243.6590
G01 X210.1598 Y243.7058
G01 X210.0905 Y243.7589
G01 X210.0262 Y243.8179
G01 X209.9673 Y243.8822
G01 X209.9142 Y243.9514
G01 X209.8673 Y244.0250
G01 X209.8270 Y244.1024
G01 X209.7936 Y244.1830
G01 X209.7674 Y244.2662
G01 X209.7485 Y244.3513
G01 X209.7371 Y244.4378
G01 X209.7333 Y244.5250
G01 X209.7371 Y244.6121
G01 X209.7485 Y244.6986
G01 X209.7674 Y244.7838
G01 X209.7936 Y244.8670
G01 X209.8270 Y244.9476
G01 X209.8673 Y245.0250
G01 X209.9142 Y245.0986
G01 X209.9673 Y245.1678
G01 X210.0262 Y245.2321
G01 X210.0905 Y245.2910
G01 X210.1598 Y245.3441
G01 X210.2333 Y245.3910
G01 X210.3107 Y245.4313
G01 X210.3913 Y245.4647
G01 X210.4745 Y245.4909
G01 X210.5597 Y245.5098
G01 X210.6462 Y245.5212
G01 X210.7333 Y245.5250
G01 X210.8205 Y245.5212
G01 X210.9070 Y245.5098
G01 X210.9921 Y245.4909
G01 X211.0753 Y245.4647
G01 X211.1559 Y245.4313
G01 X211.2333 Y245.3910
G01 X211.3069 Y245.3441
G01 X211.3761 Y245.2910
G01 X211.4404 Y245.2321
G01 X211.4994 Y245.1678
G01 X211.5525 Y245.0986
G01 X211.5994 Y245.0250
G01 X211.6396 Y244.9476
G01 X211.6730 Y244.8670
G01 X211.6993 Y244.7838
G01 X211.7181 Y244.6986
G01 X211.7295 Y244.6121
G01 X211.7333 Y244.5250
G01 X211.7441 Y244.4734 F1000
G01 X211.7521 Y244.4213
G01 X211.7575 Y244.3689
G01 X211.7602 Y244.3163
G01 Y244.2636
G01 X211.7574 Y244.2109
G01 X211.7520 Y244.1585
G01 X211.7438 Y244.1064
G01 X211.7321 Y244.0504
G01 X211.7175 Y243.9951
G01 X211.7002 Y243.9406
G01 X211.6800 Y243.8871
G01 X211.6572 Y243.8347
G01 X211.6317 Y243.7835
G01 X211.6036 Y243.7336
G01 X211.5730 Y243.6853
G01 X211.5374 Y243.6349
G01 X211.4993 Y243.5864
G01 X211.4587 Y243.5399
G01 X211.4159 Y243.4955
G01 X211.3708 Y243.4533
G01 X211.3237 Y243.4135
G01 X211.2746 Y243.3761
G01 X211.2236 Y243.3413
G01 X211.1655 Y243.3153
G01 X211.1063 Y243.2923
G01 X211.0459 Y243.2721
G01 X210.9846 Y243.2550
G01 X210.9226 Y243.2409
G01 X210.8599 Y243.2299
G01 X210.7968 Y243.2220
G01 X210.7333 Y243.2172
G01 X210.6692 Y243.2188
G01 X210.6051 Y243.2235
G01 X210.5414 Y243.2314
G01 X210.4782 Y243.2423
G01 X210.4156 Y243.2564
G01 X210.3537 Y243.2735
G01 X210.2927 Y243.2936
G01 X210.2329 Y243.3167
G01 X210.1742 Y243.3428
G01 X210.1168 Y243.3716
G01 X210.0610 Y243.4033
G01 X210.0068 Y243.4376
G01 X209.9543 Y243.4746
G01 X209.9037 Y243.5141
G01 X209.8551 Y243.5560
G01 X209.8086 Y243.6002
G01 X209.7643 Y243.6467
G01 X209.7224 Y243.6953
G01 X209.6829 Y243.7459
G01 X209.6459 Y243.7984
G01 X209.6116 Y243.8527
G01 X209.5800 Y243.9085
G01 X209.5511 Y243.9658
G01 X209.5251 Y244.0245
G01 X209.5020 Y244.0844
G01 X209.4818 Y244.1454
G01 X209.4647 Y244.2072
G01 X209.4507 Y244.2699
G01 X209.4397 Y244.3331
G01 X209.4318 Y244.3968
G01 X209.4271 Y244.4608
G01 X209.4255 Y244.5250
G01 X209.4271 Y244.5892
G01 X209.4318 Y244.6532
G01 X209.4397 Y244.7169
G01 X209.4507 Y244.7801
G01 X209.4647 Y244.8428
G01 X209.4818 Y244.9046
G01 X209.5020 Y244.9656
G01 X209.5251 Y245.0255
G01 X209.5511 Y245.0841
G01 X209.5800 Y245.1415
G01 X209.6116 Y245.1973
G01 X209.6459 Y245.2516
G01 X209.6829 Y245.3040
G01 X209.7224 Y245.3546
G01 X209.7643 Y245.4033
G01 X209.8086 Y245.4497
G01 X209.8551 Y245.4940
G01 X209.9037 Y245.5359
G01 X209.9543 Y245.5754
G01 X210.0068 Y245.6124
G01 X210.0610 Y245.6467
G01 X210.1168 Y245.6784
G01 X210.1742 Y245.7072
G01 X210.2329 Y245.7332
G01 X210.2927 Y245.7563
G01 X210.3537 Y245.7765
G01 X210.4156 Y245.7936
G01 X210.4782 Y245.8077
G01 X210.5414 Y245.8186
G01 X210.6051 Y245.8265
G01 X210.6692 Y245.8312
G01 X210.7333 Y245.8328
G01 X210.7975 Y245.8312
G01 X210.8615 Y245.8265
G01 X210.9252 Y245.8186
G01 X210.9885 Y245.8077
G01 X211.0511 Y245.7936
G01 X211.1130 Y245.7765
G01 X211.1739 Y245.7563
G01 X211.2338 Y245.7332
G01 X211.2925 Y245.7072
G01 X211.3498 Y245.6784
G01 X211.4057 Y245.6467
G01 X211.4599 Y245.6124
G01 X211.5124 Y245.5754
G01 X211.5630 Y245.5359
G01 X211.6116 Y245.4940
G01 X211.6581 Y245.4497
G01 X211.7023 Y245.4033
G01 X211.7443 Y245.3546
G01 X211.7838 Y245.3040
G01 X211.8207 Y245.2516
G01 X211.8551 Y245.1973
G01 X211.8867 Y245.1415
G01 X211.9156 Y245.0841
G01 X211.9416 Y245.0255
G01 X211.9647 Y244.9656
G01 X211.9848 Y244.9046
G01 X212.0019 Y244.8428
G01 X212.0160 Y244.7801
G01 X212.0270 Y244.7169
G01 X212.0348 Y244.6532
G01 X212.0395 Y244.5892
G01 X212.0411 Y244.5250
G01 X212.0375 Y244.4273
G01 X212.0265 Y244.3301
G01 X212.0083 Y244.2340
G01 X211.9830 Y244.1395
G01 X211.9507 Y244.0472
G01 X211.9116 Y243.9576
G01 X211.8659 Y243.8711
G01 X211.8139 Y243.7883
G01 X211.7558 Y243.7096
G01 X211.6920 Y243.6355
G01 X211.6229 Y243.5663
G01 X211.5487 Y243.5025
G01 X211.4700 Y243.4444
G01 X211.3872 Y243.3924
G01 X211.3008 Y243.3467
G01 X211.2111 Y243.3076
G01 X211.1188 Y243.2753
G01 X211.0243 Y243.2500
G01 X210.9282 Y243.2318
G01 X210.8311 Y243.2209
G01 X210.7333 Y243.2172
G01 X210.6356 Y243.2209
G01 X210.5384 Y243.2318
G01 X210.4423 Y243.2500
G01 X210.3478 Y243.2753
G01 X210.2555 Y243.3076
G01 X210.1659 Y243.3467
G01 X210.0794 Y243.3924
G01 X209.9966 Y243.4444
G01 X209.9179 Y243.5025
G01 X209.8438 Y243.5663
G01 X209.7746 Y243.6355
G01 X209.7109 Y243.7096
G01 X209.6528 Y243.7883
G01 X209.6007 Y243.8711
G01 X209.5550 Y243.9576
G01 X209.5159 Y244.0472
G01 X209.4836 Y244.1395
G01 X209.4583 Y244.2340
G01 X209.4401 Y244.3301
G01 X209.4292 Y244.4273
G01 X209.4255 Y244.5250
G01 X209.4292 Y244.6227
G01 X209.4401 Y244.7199
G01 X209.4583 Y244.8160
G01 X209.4836 Y244.9105
G01 X209.5159 Y245.0028
G01 X209.5550 Y245.0924
G01 X209.6007 Y245.1789
G01 X209.6528 Y245.2617
G01 X209.7109 Y245.3404
G01 X209.7746 Y245.4145
G01 X209.8438 Y245.4837
G01 X209.9179 Y245.5475
G01 X209.9966 Y245.6055
