;Project TeslaParkingMiniV3_Schiefer
;Created by Estlcam version 11 build 11,121
;Machining time about 00:23:59 hours

G90
M03 S18000
G00 X0.0000 Y0.0000 Z0.0000
G00 Z2.0000


;No. 1: Helical drill 13
G00 X27.2553 Y30.7360
G00 Z0.5000
M106 S240
G01 X27.2541 Y30.6965 Z0.4796 F400 S18000
G01 X27.2507 Y30.6571 Z0.4593
G01 X27.2449 Y30.6179 Z0.4389
G01 X27.2369 Y30.5792 Z0.4185
G01 X27.2267 Y30.5410 Z0.3981
G01 X27.2143 Y30.5034 Z0.3778
G01 X27.1997 Y30.4667 Z0.3574
G01 X27.1829 Y30.4308 Z0.3370
G01 X27.1642 Y30.3960 Z0.3167
G01 X27.1434 Y30.3624 Z0.2963
G01 X27.1207 Y30.3300 Z0.2759
G01 X27.0962 Y30.2989 Z0.2556
G01 X27.0699 Y30.2694 Z0.2352
G01 X27.0419 Y30.2414 Z0.2148
G01 X27.0124 Y30.2151 Z0.1944
G01 X26.9813 Y30.1906 Z0.1741
G01 X26.9489 Y30.1679 Z0.1537
G01 X26.9153 Y30.1471 Z0.1333
G01 X26.8805 Y30.1284 Z0.1130
G01 X26.8446 Y30.1116 Z0.0926
G01 X26.8079 Y30.0970 Z0.0722
G01 X26.7703 Y30.0846 Z0.0519
G01 X26.7321 Y30.0744 Z0.0315
G01 X26.6934 Y30.0664 Z0.0111
G01 X26.6542 Y30.0606 Z-0.0093
G01 X26.6148 Y30.0572 Z-0.0296
G01 X26.5753 Y30.0560 Z-0.0500
G01 X26.5358 Y30.0572 Z-0.0704
G01 X26.4964 Y30.0606 Z-0.0907
G01 X26.4572 Y30.0664 Z-0.1111
G01 X26.4185 Y30.0744 Z-0.1315
G01 X26.3803 Y30.0846 Z-0.1519
G01 X26.3427 Y30.0970 Z-0.1722
G01 X26.3060 Y30.1116 Z-0.1926
G01 X26.2701 Y30.1284 Z-0.2130
G01 X26.2353 Y30.1471 Z-0.2333
G01 X26.2017 Y30.1679 Z-0.2537
G01 X26.1693 Y30.1906 Z-0.2741
G01 X26.1382 Y30.2151 Z-0.2944
G01 X26.1087 Y30.2414 Z-0.3148
G01 X26.0807 Y30.2694 Z-0.3352
G01 X26.0544 Y30.2989 Z-0.3556
G01 X26.0299 Y30.3300 Z-0.3759
G01 X26.0072 Y30.3624 Z-0.3963
G01 X25.9864 Y30.3960 Z-0.4167
G01 X25.9677 Y30.4308 Z-0.4370
G01 X25.9509 Y30.4667 Z-0.4574
G01 X25.9363 Y30.5034 Z-0.4778
G01 X25.9239 Y30.5410 Z-0.4981
G01 X25.9137 Y30.5792 Z-0.5185
G01 X25.9057 Y30.6179 Z-0.5389
G01 X25.8999 Y30.6571 Z-0.5593
G01 X25.8965 Y30.6965 Z-0.5796
G01 X25.8953 Y30.7360 Z-0.6000
G01 X25.8965 Y30.7755 Z-0.6204
G01 X25.8999 Y30.8149 Z-0.6407
G01 X25.9057 Y30.8541 Z-0.6611
G01 X25.9137 Y30.8928 Z-0.6815
G01 X25.9239 Y30.9310 Z-0.7019
G01 X25.9363 Y30.9686 Z-0.7222
G01 X25.9509 Y31.0053 Z-0.7426
G01 X25.9677 Y31.0412 Z-0.7630
G01 X25.9864 Y31.0760 Z-0.7833
G01 X26.0072 Y31.1096 Z-0.8037
G01 X26.0299 Y31.1420 Z-0.8241
G01 X26.0544 Y31.1731 Z-0.8444
G01 X26.0807 Y31.2026 Z-0.8648
G01 X26.1087 Y31.2306 Z-0.8852
G01 X26.1382 Y31.2569 Z-0.9056
G01 X26.1693 Y31.2814 Z-0.9259
G01 X26.2017 Y31.3041 Z-0.9463
G01 X26.2353 Y31.3249 Z-0.9667
G01 X26.2701 Y31.3436 Z-0.9870
G01 X26.3060 Y31.3604 Z-1.0074
G01 X26.3427 Y31.3750 Z-1.0278
G01 X26.3803 Y31.3874 Z-1.0481
G01 X26.4185 Y31.3976 Z-1.0685
G01 X26.4572 Y31.4056 Z-1.0889
G01 X26.4964 Y31.4114 Z-1.1093
G01 X26.5358 Y31.4148 Z-1.1296
G01 X26.5753 Y31.4160 Z-1.1500
G01 X26.6148 Y31.4148 Z-1.1704
G01 X26.6542 Y31.4114 Z-1.1907
G01 X26.6934 Y31.4056 Z-1.2111
G01 X26.7321 Y31.3976 Z-1.2315
G01 X26.7703 Y31.3874 Z-1.2519
G01 X26.8079 Y31.3750 Z-1.2722
G01 X26.8446 Y31.3604 Z-1.2926
G01 X26.8805 Y31.3436 Z-1.3130
G01 X26.9153 Y31.3249 Z-1.3333
G01 X26.9489 Y31.3041 Z-1.3537
G01 X26.9813 Y31.2814 Z-1.3741
G01 X27.0124 Y31.2569 Z-1.3944
G01 X27.0419 Y31.2306 Z-1.4148
G01 X27.0699 Y31.2026 Z-1.4352
G01 X27.0962 Y31.1731 Z-1.4556
G01 X27.1207 Y31.1420 Z-1.4759
G01 X27.1434 Y31.1096 Z-1.4963
G01 X27.1642 Y31.0760 Z-1.5167
G01 X27.1829 Y31.0412 Z-1.5370
G01 X27.1997 Y31.0053 Z-1.5574
G01 X27.2143 Y30.9686 Z-1.5778
G01 X27.2267 Y30.9310 Z-1.5981
G01 X27.2369 Y30.8928 Z-1.6185
G01 X27.2449 Y30.8541 Z-1.6389
G01 X27.2507 Y30.8149 Z-1.6593
G01 X27.2541 Y30.7755 Z-1.6796
G01 X27.2553 Y30.7360 Z-1.7000
G01 X27.2541 Y30.6965 Z-1.7204
G01 X27.2507 Y30.6571 Z-1.7407
G01 X27.2449 Y30.6179 Z-1.7611
G01 X27.2369 Y30.5792 Z-1.7815
G01 X27.2267 Y30.5410 Z-1.8019
G01 X27.2143 Y30.5034 Z-1.8222
G01 X27.1997 Y30.4667 Z-1.8426
G01 X27.1829 Y30.4308 Z-1.8630
G01 X27.1642 Y30.3960 Z-1.8833
G01 X27.1434 Y30.3624 Z-1.9037
G01 X27.1207 Y30.3300 Z-1.9241
G01 X27.0962 Y30.2989 Z-1.9444
G01 X27.0699 Y30.2694 Z-1.9648
G01 X27.0419 Y30.2414 Z-1.9852
G01 X27.0124 Y30.2151 Z-2.0056
G01 X26.9813 Y30.1906 Z-2.0259
G01 X26.9489 Y30.1679 Z-2.0463
G01 X26.9153 Y30.1471 Z-2.0667
G01 X26.8805 Y30.1284 Z-2.0870
G01 X26.8446 Y30.1116 Z-2.1074
G01 X26.8079 Y30.0970 Z-2.1278
G01 X26.7703 Y30.0846 Z-2.1481
G01 X26.7321 Y30.0744 Z-2.1685
G01 X26.6934 Y30.0664 Z-2.1889
G01 X26.6542 Y30.0606 Z-2.2093
G01 X26.6148 Y30.0572 Z-2.2296
G01 X26.5753 Y30.0560 Z-2.2500
G01 X26.5358 Y30.0572 Z-2.2704
G01 X26.4964 Y30.0606 Z-2.2907
G01 X26.4572 Y30.0664 Z-2.3111
G01 X26.4185 Y30.0744 Z-2.3315
G01 X26.3803 Y30.0846 Z-2.3519
G01 X26.3427 Y30.0970 Z-2.3722
G01 X26.3060 Y30.1116 Z-2.3926
G01 X26.2701 Y30.1284 Z-2.4130
G01 X26.2353 Y30.1471 Z-2.4333
G01 X26.2017 Y30.1679 Z-2.4537
G01 X26.1693 Y30.1906 Z-2.4741
G01 X26.1382 Y30.2151 Z-2.4944
G01 X26.1087 Y30.2414 Z-2.5148
G01 X26.0807 Y30.2694 Z-2.5352
G01 X26.0544 Y30.2989 Z-2.5556
G01 X26.0299 Y30.3300 Z-2.5759
G01 X26.0072 Y30.3624 Z-2.5963
G01 X25.9864 Y30.3960 Z-2.6167
G01 X25.9677 Y30.4308 Z-2.6370
G01 X25.9509 Y30.4667 Z-2.6574
G01 X25.9363 Y30.5034 Z-2.6778
G01 X25.9239 Y30.5410 Z-2.6981
G01 X25.9137 Y30.5792 Z-2.7185
G01 X25.9057 Y30.6179 Z-2.7389
G01 X25.8999 Y30.6571 Z-2.7593
G01 X25.8965 Y30.6965 Z-2.7796
G01 X25.8953 Y30.7360 Z-2.8000
G01 X25.8965 Y30.7755 Z-2.8204
G01 X25.8999 Y30.8149 Z-2.8407
G01 X25.9057 Y30.8541 Z-2.8611
G01 X25.9137 Y30.8928 Z-2.8815
G01 X25.9239 Y30.9310 Z-2.9019
G01 X25.9363 Y30.9686 Z-2.9222
G01 X25.9509 Y31.0053 Z-2.9426
G01 X25.9677 Y31.0412 Z-2.9630
G01 X25.9864 Y31.0760 Z-2.9833
G01 X26.0072 Y31.1096 Z-3.0037
G01 X26.0299 Y31.1420 Z-3.0241
G01 X26.0544 Y31.1731 Z-3.0444
G01 X26.0807 Y31.2026 Z-3.0648
G01 X26.1087 Y31.2306 Z-3.0852
G01 X26.1382 Y31.2569 Z-3.1056
G01 X26.1693 Y31.2814 Z-3.1259
G01 X26.2017 Y31.3041 Z-3.1463
G01 X26.2353 Y31.3249 Z-3.1667
G01 X26.2701 Y31.3436 Z-3.1870
G01 X26.3060 Y31.3604 Z-3.2074
G01 X26.3427 Y31.3750 Z-3.2278
G01 X26.3803 Y31.3874 Z-3.2481
G01 X26.4185 Y31.3976 Z-3.2685
G01 X26.4572 Y31.4056 Z-3.2889
G01 X26.4964 Y31.4114 Z-3.3093
G01 X26.5358 Y31.4148 Z-3.3296
G01 X26.5753 Y31.4160 Z-3.3500
G01 X26.6148 Y31.4148 Z-3.3704
G01 X26.6542 Y31.4114 Z-3.3907
G01 X26.6934 Y31.4056 Z-3.4111
G01 X26.7321 Y31.3976 Z-3.4315
G01 X26.7703 Y31.3874 Z-3.4519
G01 X26.8079 Y31.3750 Z-3.4722
G01 X26.8446 Y31.3604 Z-3.4926
G01 X26.8805 Y31.3436 Z-3.5130
G01 X26.9153 Y31.3249 Z-3.5333
G01 X26.9489 Y31.3041 Z-3.5537
G01 X26.9813 Y31.2814 Z-3.5741
G01 X27.0124 Y31.2569 Z-3.5944
G01 X27.0419 Y31.2306 Z-3.6148
G01 X27.0699 Y31.2026 Z-3.6352
G01 X27.0962 Y31.1731 Z-3.6556
G01 X27.1207 Y31.1420 Z-3.6759
G01 X27.1434 Y31.1096 Z-3.6963
G01 X27.1642 Y31.0760 Z-3.7167
G01 X27.1829 Y31.0412 Z-3.7370
G01 X27.1997 Y31.0053 Z-3.7574
G01 X27.2143 Y30.9686 Z-3.7778
G01 X27.2267 Y30.9310 Z-3.7981
G01 X27.2369 Y30.8928 Z-3.8185
G01 X27.2449 Y30.8541 Z-3.8389
G01 X27.2507 Y30.8149 Z-3.8593
G01 X27.2541 Y30.7755 Z-3.8796
G01 X27.2553 Y30.7360 Z-3.9000
G01 X27.2541 Y30.6965 Z-3.9204
G01 X27.2507 Y30.6571 Z-3.9407
G01 X27.2449 Y30.6179 Z-3.9611
G01 X27.2369 Y30.5792 Z-3.9815
G01 X27.2267 Y30.5410 Z-4.0019
G01 X27.2143 Y30.5034 Z-4.0222
G01 X27.1997 Y30.4667 Z-4.0426
G01 X27.1829 Y30.4308 Z-4.0630
G01 X27.1642 Y30.3960 Z-4.0833
G01 X27.1434 Y30.3624 Z-4.1037
G01 X27.1207 Y30.3300 Z-4.1241
G01 X27.0962 Y30.2989 Z-4.1444
G01 X27.0699 Y30.2694 Z-4.1648
G01 X27.0419 Y30.2414 Z-4.1852
G01 X27.0124 Y30.2151 Z-4.2056
G01 X26.9813 Y30.1906 Z-4.2259
G01 X26.9489 Y30.1679 Z-4.2463
G01 X26.9153 Y30.1471 Z-4.2667
G01 X26.8805 Y30.1284 Z-4.2870
G01 X26.8446 Y30.1116 Z-4.3074
G01 X26.8079 Y30.0970 Z-4.3278
G01 X26.7703 Y30.0846 Z-4.3481
G01 X26.7321 Y30.0744 Z-4.3685
G01 X26.6934 Y30.0664 Z-4.3889
G01 X26.6542 Y30.0606 Z-4.4093
G01 X26.6148 Y30.0572 Z-4.4296
G01 X26.5753 Y30.0560 Z-4.4500
G01 X26.5358 Y30.0572 Z-4.4704
G01 X26.4964 Y30.0606 Z-4.4907
G01 X26.4572 Y30.0664 Z-4.5111
G01 X26.4185 Y30.0744 Z-4.5315
G01 X26.3803 Y30.0846 Z-4.5519
G01 X26.3427 Y30.0970 Z-4.5722
G01 X26.3060 Y30.1116 Z-4.5926
G01 X26.2701 Y30.1284 Z-4.6130
G01 X26.2353 Y30.1471 Z-4.6333
G01 X26.2017 Y30.1679 Z-4.6537
G01 X26.1693 Y30.1906 Z-4.6741
G01 X26.1382 Y30.2151 Z-4.6944
G01 X26.1087 Y30.2414 Z-4.7148
G01 X26.0807 Y30.2694 Z-4.7352
G01 X26.0544 Y30.2989 Z-4.7556
G01 X26.0299 Y30.3300 Z-4.7759
G01 X26.0072 Y30.3624 Z-4.7963
G01 X25.9864 Y30.3960 Z-4.8167
G01 X25.9677 Y30.4308 Z-4.8370
G01 X25.9509 Y30.4667 Z-4.8574
G01 X25.9363 Y30.5034 Z-4.8778
G01 X25.9239 Y30.5410 Z-4.8981
G01 X25.9137 Y30.5792 Z-4.9185
G01 X25.9057 Y30.6179 Z-4.9389
G01 X25.8999 Y30.6571 Z-4.9593
G01 X25.8965 Y30.6965 Z-4.9796
G01 X25.8953 Y30.7360 Z-5.0000
G01 X25.8965 Y30.7755 Z-5.0204
G01 X25.8999 Y30.8149 Z-5.0407
G01 X25.9057 Y30.8541 Z-5.0611
G01 X25.9137 Y30.8928 Z-5.0815
G01 X25.9239 Y30.9310 Z-5.1019
G01 X25.9363 Y30.9686 Z-5.1222
G01 X25.9509 Y31.0053 Z-5.1426
G01 X25.9677 Y31.0412 Z-5.1630
G01 X25.9864 Y31.0760 Z-5.1833
G01 X26.0072 Y31.1096 Z-5.2037
G01 X26.0299 Y31.1420 Z-5.2241
G01 X26.0544 Y31.1731 Z-5.2444
G01 X26.0807 Y31.2026 Z-5.2648
G01 X26.1087 Y31.2306 Z-5.2852
G01 X26.1382 Y31.2569 Z-5.3056
G01 X26.1693 Y31.2814 Z-5.3259
G01 X26.2017 Y31.3041 Z-5.3463
G01 X26.2353 Y31.3249 Z-5.3667
G01 X26.2701 Y31.3436 Z-5.3870
G01 X26.3060 Y31.3604 Z-5.4074
G01 X26.3427 Y31.3750 Z-5.4278
G01 X26.3803 Y31.3874 Z-5.4481
G01 X26.4185 Y31.3976 Z-5.4685
G01 X26.4572 Y31.4056 Z-5.4889
G01 X26.4964 Y31.4114 Z-5.5093
G01 X26.5358 Y31.4148 Z-5.5296
G01 X26.5753 Y31.4160 Z-5.5500
G01 X26.6148 Y31.4148 Z-5.5704
G01 X26.6542 Y31.4114 Z-5.5907
G01 X26.6934 Y31.4056 Z-5.6111
G01 X26.7321 Y31.3976 Z-5.6315
G01 X26.7703 Y31.3874 Z-5.6519
G01 X26.8079 Y31.3750 Z-5.6722
G01 X26.8446 Y31.3604 Z-5.6926
G01 X26.8805 Y31.3436 Z-5.7130
G01 X26.9153 Y31.3249 Z-5.7333
G01 X26.9489 Y31.3041 Z-5.7537
G01 X26.9813 Y31.2814 Z-5.7741
G01 X27.0124 Y31.2569 Z-5.7944
G01 X27.0419 Y31.2306 Z-5.8148
G01 X27.0699 Y31.2026 Z-5.8352
G01 X27.0962 Y31.1731 Z-5.8556
G01 X27.1207 Y31.1420 Z-5.8759
G01 X27.1434 Y31.1096 Z-5.8963
G01 X27.1642 Y31.0760 Z-5.9167
G01 X27.1829 Y31.0412 Z-5.9370
G01 X27.1997 Y31.0053 Z-5.9574
G01 X27.2143 Y30.9686 Z-5.9778
G01 X27.2267 Y30.9310 Z-5.9981
G01 X27.2369 Y30.8928 Z-6.0185
G01 X27.2449 Y30.8541 Z-6.0389
G01 X27.2507 Y30.8149 Z-6.0593
G01 X27.2541 Y30.7755 Z-6.0796
G01 X27.2553 Y30.7360 Z-6.1000
G01 X27.2541 Y30.6965 Z-6.1176
G01 X27.2507 Y30.6571 Z-6.1352
G01 X27.2449 Y30.6179 Z-6.1528
G01 X27.2369 Y30.5792 Z-6.1704
G01 X27.2267 Y30.5410 Z-6.1880
G01 X27.2143 Y30.5034 Z-6.2056
G01 X27.1997 Y30.4667 Z-6.2231
G01 X27.1829 Y30.4308 Z-6.2407
G01 X27.1642 Y30.3960 Z-6.2583
G01 X27.1434 Y30.3624 Z-6.2759
G01 X27.1207 Y30.3300 Z-6.2935
G01 X27.0962 Y30.2989 Z-6.3111
G01 X27.0699 Y30.2694 Z-6.3287
G01 X27.0419 Y30.2414 Z-6.3463
G01 X27.0124 Y30.2151 Z-6.3639
G01 X26.9813 Y30.1906 Z-6.3815
G01 X26.9489 Y30.1679 Z-6.3991
G01 X26.9153 Y30.1471 Z-6.4167
G01 X26.8805 Y30.1284 Z-6.4343
G01 X26.8446 Y30.1116 Z-6.4519
G01 X26.8079 Y30.0970 Z-6.4694
G01 X26.7703 Y30.0846 Z-6.4870
G01 X26.7321 Y30.0744 Z-6.5046
G01 X26.6934 Y30.0664 Z-6.5222
G01 X26.6542 Y30.0606 Z-6.5398
G01 X26.6148 Y30.0572 Z-6.5574
G01 X26.5753 Y30.0560 Z-6.5750
G01 X26.5358 Y30.0572 Z-6.5926
G01 X26.4964 Y30.0606 Z-6.6102
G01 X26.4572 Y30.0664 Z-6.6278
G01 X26.4185 Y30.0744 Z-6.6454
G01 X26.3803 Y30.0846 Z-6.6630
G01 X26.3427 Y30.0970 Z-6.6806
G01 X26.3060 Y30.1116 Z-6.6981
G01 X26.2701 Y30.1284 Z-6.7157
G01 X26.2353 Y30.1471 Z-6.7333
G01 X26.2017 Y30.1679 Z-6.7509
G01 X26.1693 Y30.1906 Z-6.7685
G01 X26.1382 Y30.2151 Z-6.7861
G01 X26.1087 Y30.2414 Z-6.8037
G01 X26.0807 Y30.2694 Z-6.8213
G01 X26.0544 Y30.2989 Z-6.8389
G01 X26.0299 Y30.3300 Z-6.8565
G01 X26.0072 Y30.3624 Z-6.8741
G01 X25.9864 Y30.3960 Z-6.8917
G01 X25.9677 Y30.4308 Z-6.9093
G01 X25.9509 Y30.4667 Z-6.9269
G01 X25.9363 Y30.5034 Z-6.9444
G01 X25.9239 Y30.5410 Z-6.9620
G01 X25.9137 Y30.5792 Z-6.9796
G01 X25.9057 Y30.6179 Z-6.9972
G01 X25.8999 Y30.6571 Z-7.0148
G01 X25.8965 Y30.6965 Z-7.0324
G01 X25.8953 Y30.7360 Z-7.0500
G01 X25.8965 Y30.7755 Z-7.0676
G01 X25.8999 Y30.8149 Z-7.0852
G01 X25.9057 Y30.8541 Z-7.1028
G01 X25.9137 Y30.8928 Z-7.1204
G01 X25.9239 Y30.9310 Z-7.1380
G01 X25.9363 Y30.9686 Z-7.1556
G01 X25.9509 Y31.0053 Z-7.1731
G01 X25.9677 Y31.0412 Z-7.1907
G01 X25.9864 Y31.0760 Z-7.2083
G01 X26.0072 Y31.1096 Z-7.2259
G01 X26.0299 Y31.1420 Z-7.2435
G01 X26.0544 Y31.1731 Z-7.2611
G01 X26.0807 Y31.2026 Z-7.2787
G01 X26.1087 Y31.2306 Z-7.2963
G01 X26.1382 Y31.2569 Z-7.3139
G01 X26.1693 Y31.2814 Z-7.3315
G01 X26.2017 Y31.3041 Z-7.3491
G01 X26.2353 Y31.3249 Z-7.3667
G01 X26.2701 Y31.3436 Z-7.3843
G01 X26.3060 Y31.3604 Z-7.4019
G01 X26.3427 Y31.3750 Z-7.4194
G01 X26.3803 Y31.3874 Z-7.4370
G01 X26.4185 Y31.3976 Z-7.4546
G01 X26.4572 Y31.4056 Z-7.4722
G01 X26.4964 Y31.4114 Z-7.4898
G01 X26.5358 Y31.4148 Z-7.5074
G01 X26.5753 Y31.4160 Z-7.5250
G01 X26.6148 Y31.4148 Z-7.5426
G01 X26.6542 Y31.4114 Z-7.5602
G01 X26.6934 Y31.4056 Z-7.5778
G01 X26.7321 Y31.3976 Z-7.5954
G01 X26.7703 Y31.3874 Z-7.6130
G01 X26.8079 Y31.3750 Z-7.6306
G01 X26.8446 Y31.3604 Z-7.6481
G01 X26.8805 Y31.3436 Z-7.6657
G01 X26.9153 Y31.3249 Z-7.6833
G01 X26.9489 Y31.3041 Z-7.7009
G01 X26.9813 Y31.2814 Z-7.7185
G01 X27.0124 Y31.2569 Z-7.7361
G01 X27.0419 Y31.2306 Z-7.7537
G01 X27.0699 Y31.2026 Z-7.7713
G01 X27.0962 Y31.1731 Z-7.7889
G01 X27.1207 Y31.1420 Z-7.8065
G01 X27.1434 Y31.1096 Z-7.8241
G01 X27.1642 Y31.0760 Z-7.8417
G01 X27.1829 Y31.0412 Z-7.8593
G01 X27.1997 Y31.0053 Z-7.8769
G01 X27.2143 Y30.9686 Z-7.8944
G01 X27.2267 Y30.9310 Z-7.9120
G01 X27.2369 Y30.8928 Z-7.9296
G01 X27.2449 Y30.8541 Z-7.9472
G01 X27.2507 Y30.8149 Z-7.9648
G01 X27.2541 Y30.7755 Z-7.9824
G01 X27.2553 Y30.7360 Z-8.0000
G01 X27.2541 Y30.6965
G01 X27.2507 Y30.6571
G01 X27.2449 Y30.6179
G01 X27.2369 Y30.5792
G01 X27.2267 Y30.5410
G01 X27.2143 Y30.5034
G01 X27.1997 Y30.4667
G01 X27.1829 Y30.4308
G01 X27.1642 Y30.3960
G01 X27.1434 Y30.3624
G01 X27.1207 Y30.3300
G01 X27.0962 Y30.2989
G01 X27.0699 Y30.2694
G01 X27.0419 Y30.2414
G01 X27.0124 Y30.2151
G01 X26.9813 Y30.1906
G01 X26.9489 Y30.1679
G01 X26.9153 Y30.1471
G01 X26.8805 Y30.1284
G01 X26.8446 Y30.1116
G01 X26.8079 Y30.0970
G01 X26.7703 Y30.0846
G01 X26.7321 Y30.0744
G01 X26.6934 Y30.0664
G01 X26.6542 Y30.0606
G01 X26.6148 Y30.0572
G01 X26.5753 Y30.0560
G01 X26.5358 Y30.0572
G01 X26.4964 Y30.0606
G01 X26.4572 Y30.0664
G01 X26.4185 Y30.0744
G01 X26.3803 Y30.0846
G01 X26.3427 Y30.0970
G01 X26.3060 Y30.1116
G01 X26.2701 Y30.1284
G01 X26.2353 Y30.1471
G01 X26.2017 Y30.1679
G01 X26.1693 Y30.1906
G01 X26.1382 Y30.2151
G01 X26.1087 Y30.2414
G01 X26.0807 Y30.2694
G01 X26.0544 Y30.2989
G01 X26.0299 Y30.3300
G01 X26.0072 Y30.3624
G01 X25.9864 Y30.3960
G01 X25.9677 Y30.4308
G01 X25.9509 Y30.4667
G01 X25.9363 Y30.5034
G01 X25.9239 Y30.5410
G01 X25.9137 Y30.5792
G01 X25.9057 Y30.6179
G01 X25.8999 Y30.6571
G01 X25.8965 Y30.6965
G01 X25.8953 Y30.7360
G01 X25.8965 Y30.7755
G01 X25.8999 Y30.8149
G01 X25.9057 Y30.8541
G01 X25.9137 Y30.8928
G01 X25.9239 Y30.9310
G01 X25.9363 Y30.9686
G01 X25.9509 Y31.0053
G01 X25.9677 Y31.0412
G01 X25.9864 Y31.0760
G01 X26.0072 Y31.1096
G01 X26.0299 Y31.1420
G01 X26.0544 Y31.1731
G01 X26.0807 Y31.2026
G01 X26.1087 Y31.2306
G01 X26.1382 Y31.2569
G01 X26.1693 Y31.2814
G01 X26.2017 Y31.3041
G01 X26.2353 Y31.3249
G01 X26.2701 Y31.3436
G01 X26.3060 Y31.3604
G01 X26.3427 Y31.3750
G01 X26.3803 Y31.3874
G01 X26.4185 Y31.3976
G01 X26.4572 Y31.4056
G01 X26.4964 Y31.4114
G01 X26.5358 Y31.4148
G01 X26.5753 Y31.4160
G01 X26.6148 Y31.4148
G01 X26.6542 Y31.4114
G01 X26.6934 Y31.4056
G01 X26.7321 Y31.3976
G01 X26.7703 Y31.3874
G01 X26.8079 Y31.3750
G01 X26.8446 Y31.3604
G01 X26.8805 Y31.3436
G01 X26.9153 Y31.3249
G01 X26.9489 Y31.3041
G01 X26.9813 Y31.2814
G01 X27.0124 Y31.2569
G01 X27.0419 Y31.2306
G01 X27.0699 Y31.2026
G01 X27.0962 Y31.1731
G01 X27.1207 Y31.1420
G01 X27.1434 Y31.1096
G01 X27.1642 Y31.0760
G01 X27.1829 Y31.0412
G01 X27.1997 Y31.0053
G01 X27.2143 Y30.9686
G01 X27.2267 Y30.9310
G01 X27.2369 Y30.8928
G01 X27.2449 Y30.8541
G01 X27.2507 Y30.8149
G01 X27.2541 Y30.7755
G01 X27.2553 Y30.7360
M107
M106 S240
G01 X27.2542 Y30.7093 Z-7.9875
M107
M106 S240
G01 X27.2511 Y30.6828 Z-7.9750
M107
M106 S240
G01 X27.2459 Y30.6566 Z-7.9625
M107
M106 S240
G01 X27.2386 Y30.6309 Z-7.9500
M107
M106 S240
G01 X27.2294 Y30.6059 Z-7.9375
M107
M106 S240
G01 X27.2182 Y30.5817 Z-7.9250
M107
M106 S240
G01 X27.2052 Y30.5584 Z-7.9125
M107
M106 S240
G01 X27.1903 Y30.5362 Z-7.9000
M107
M106 S240
G01 X27.1738 Y30.5152 Z-7.8875
M107
M106 S240
G01 X27.1557 Y30.4956 Z-7.8750
M107
M106 S240
G01 X27.1361 Y30.4775 Z-7.8625
M107
M106 S240
G01 X27.1151 Y30.4610 Z-7.8500
M107
M106 S240
G01 X27.0929 Y30.4461 Z-7.8375
M107
M106 S240
G01 X27.0696 Y30.4331 Z-7.8250
M107
M106 S240
G01 X27.0454 Y30.4219 Z-7.8125
M107
M106 S240
G01 X27.0203 Y30.4127 Z-7.8000
M107
M106 S240
G01 X26.9946 Y30.4054 Z-7.7875
M107
M106 S240
G01 X26.9685 Y30.4002 Z-7.7750
M107
M106 S240
G01 X26.9420 Y30.3971 Z-7.7625
M107
M106 S240
G01 X26.9153 Y30.3960 Z-7.7500
M107
M106 S240
G01 X26.8886 Y30.3971 Z-7.7375
M107
M106 S240
G01 X26.8621 Y30.4002 Z-7.7250
M107
M106 S240
G01 X26.8359 Y30.4054 Z-7.7125
M107
M106 S240
G01 X26.8102 Y30.4127 Z-7.7000
M107
M106 S240
G01 X26.7852 Y30.4219 Z-7.6875
M107
M106 S240
G01 X26.7609 Y30.4331 Z-7.6750
M107
M106 S240
G01 X26.7376 Y30.4461 Z-7.6625
M107
M106 S240
G01 X26.7154 Y30.4610 Z-7.6500
M107
M106 S240
G01 X26.6945 Y30.4775 Z-7.6375
M107
M106 S240
G01 X26.6749 Y30.4956 Z-7.6250
M107
M106 S240
G01 X26.6568 Y30.5152 Z-7.6125
M107
M106 S240
G01 X26.6402 Y30.5362 Z-7.6000
M107
M106 S240
G01 X26.6254 Y30.5584 Z-7.5875
M107
M106 S240
G01 X26.6124 Y30.5817 Z-7.5750
M107
M106 S240
G01 X26.6012 Y30.6059 Z-7.5625
M107
M106 S240
G01 X26.5919 Y30.6309 Z-7.5500
M107
M106 S240
G01 X26.5847 Y30.6566 Z-7.5375
M107
M106 S240
G01 X26.5795 Y30.6828 Z-7.5250
M107
M106 S240
G01 X26.5763 Y30.7093 Z-7.5125
M107
M106 S240
G01 X26.5753 Y30.7360 Z-7.5000
M107
G00 Z2.0000


;No. 2: Hole 78
G00 X45.0500 Y38.4653 Z2.0000
G00 Z0.5000
G01 Z-2.2000 F400
M106 S240
G01 X58.8510 F1000
G01 X46.2487
G01 Y39.7853
G01 X45.0500
G01 Y41.1053
G01 X46.1519
G01 Y42.4253
G01 X45.0500
G01 Y43.7453
G01 X46.1519
M107
G00 Z2.0000
G00 X57.6537 Y38.4653
G00 Z0.5000
G01 Z-2.2000 F400
M106 S240
G01 Y39.7853 F1000
G01 X58.8510
G01 Y41.1053
G01 X57.7491
G01 Y42.4253
G01 X58.8510
G01 Y43.7453
G01 X57.7491
M107
G00 Z2.0000
G00 Z0.5000
G01 Z-2.2000 F400
M106 S240
G01 X57.5491 F1000
G01 Y44.7402
G01 X59.0510
G01 Y37.4703
G01 X44.8500
G01 Y44.7402
G01 X46.3519
G01 Y40.2741
G01 X46.3544 Y40.1834
G01 X46.3588 Y40.1367
G01 X46.3654 Y40.0903
G01 X46.3742 Y40.0443
G01 X46.3851 Y39.9987
G01 X46.3981 Y39.9537
G01 X46.4132 Y39.9093
G01 X46.4304 Y39.8657
G01 X46.4496 Y39.8230
G01 X46.4708 Y39.7812
G01 X46.4939 Y39.7404
G01 X46.5190 Y39.7008
G01 X46.5458 Y39.6623
G01 X46.5744 Y39.6252
G01 X46.6047 Y39.5895
G01 X46.6367 Y39.5552
G01 X46.6702 Y39.5224
G01 X46.7053 Y39.4913
G01 X46.7417 Y39.4619
G01 X46.7795 Y39.4341
G01 X46.8186 Y39.4082
G01 X46.8588 Y39.3842
G01 X46.9001 Y39.3620
G01 X46.9424 Y39.3418
G01 X46.9856 Y39.3236
G01 X47.0296 Y39.3075
G01 X47.0743 Y39.2934
G01 X47.1197 Y39.2815
G01 X47.1655 Y39.2717
G01 X47.2117 Y39.2640
G01 X47.2583 Y39.2585
G01 X47.3050 Y39.2552
G01 X47.3519 Y39.2541
G01 X56.5291
G01 X56.6285 Y39.2571
G01 X56.7270 Y39.2700
G01 X56.8238 Y39.2925
G01 X56.9179 Y39.3245
G01 X57.0084 Y39.3657
G01 X57.0943 Y39.4157
G01 X57.1748 Y39.4740
G01 X57.2491 Y39.5400
G01 X57.3165 Y39.6130
G01 X57.3764 Y39.6923
G01 X57.4281 Y39.7772
G01 X57.4711 Y39.8668
G01 X57.5050 Y39.9603
G01 X57.5294 Y40.0566
G01 X57.5442 Y40.1549
G01 X57.5491 Y40.2541
G01 Y43.7453
G01 X57.7491
M107
G00 Z2.0000


;No. 3: Hole 79
G00 X58.3894 Y49.3350 Z2.0000
G00 Z0.5000
G01 Z-2.2000 F400
M106 S240
G01 X45.4987 F1000
M107
G00 Z2.0000
G00 Z0.5000
G01 Z-2.2000 F400
M106 S240
G01 X45.3415 Y49.2114 F1000
G01 X45.2610 Y49.3229
G01 X45.1872 Y49.4390
G01 X45.1202 Y49.5592
G01 X45.0605 Y49.6831
G01 X45.0081 Y49.8103
G01 X44.9633 Y49.9403
G01 X44.9262 Y50.0728
G01 X44.8969 Y50.2072
G01 X44.9100 Y50.2263
G01 X58.9911 Y50.2262
G01 X59.0046 Y50.2109
G01 X58.9775 Y50.0697
G01 X58.9407 Y49.9306
G01 X58.8945 Y49.7944
G01 X58.8390 Y49.6617
G01 X58.7745 Y49.5331
G01 X58.7014 Y49.4093
G01 X58.6199 Y49.2908
G01 X58.5304 Y49.1781
G01 X58.4335 Y49.0719
G01 X58.3294 Y48.9725
G01 X58.2188 Y48.8806
G01 X58.1022 Y48.7964
G01 X57.9800 Y48.7205
G01 X57.8529 Y48.6531
G01 X57.7215 Y48.5947
G01 X57.5864 Y48.5454
G01 X57.4482 Y48.5054
G01 X57.3076 Y48.4751
G01 X57.1652 Y48.4545
G01 X57.0218 Y48.4438
G01 X46.8803
G01 X46.7687 Y48.4459
G01 X46.6575 Y48.4546
G01 X46.5470 Y48.4699
G01 X46.4375 Y48.4917
G01 X46.3296 Y48.5199
G01 X46.2235 Y48.5545
G01 X46.1196 Y48.5952
G01 X46.0184 Y48.6421
G01 X45.9201 Y48.6948
G01 X45.8250 Y48.7533
G01 X45.7336 Y48.8173
G01 X45.6461 Y48.8865
G01 X45.5629 Y48.9608
G01 X45.4842 Y49.0399
G01 X45.4103 Y49.1236
G01 X45.3415 Y49.2114
G01 X45.4987 Y49.3350
M107
G00 Z2.0000


;No. 4: Hole 77
G00 X65.3691 Y37.9083 Z2.0000
G00 Z0.5000
G01 Z-2.2000 F400
M106 S240
G01 X66.4710 F1000
G01 Y39.2283
G01 X65.3691
G01 Y40.5483
G01 X66.4710
G01 Y41.8683
G01 X65.3691
G01 Y43.1883
G01 X66.4710
G01 X66.6014 Y44.5083
G01 X65.3691
G01 Y45.8283
G01 X69.4818
G01 X68.8051 Y44.5083
G01 X70.7041
G01 X70.0269 Y43.1883
G01 X71.9264
G01 X71.2488 Y41.8683
G01 X73.1486
G01 X72.4706 Y40.5483
G01 X76.6305
G01 Y39.2283
G01 X73.6925
G01 X74.9144 Y37.9083
G01 X76.6305
M107
G00 Z2.0000
G00 Y40.5483
G00 Z0.5000
G01 Z-2.2000 F400
M106 S240
G01 Y41.8683 F1000
G01 X75.4221
G01 X75.5286 Y43.1883
G01 X76.6305
G01 Y44.5083
G01 X75.5286
G01 Y45.8283
G01 X76.6305
G01 Y47.1483
G01 X75.5286
G01 Y48.4683
G01 X76.6305
G01 Y49.7883
G01 X75.5286
M107
G00 Z2.0000
G00 X68.2596 Y45.8283
G00 Z0.5000
G01 Z-2.2000 F400
M106 S240
G01 Y47.1483 F1000
G01 X65.3691
G01 X65.1287 Y48.4683
G01 X67.0373
G01 X65.8150 Y49.7883
G01 X63.9155
M107
G00 Z2.0000
G00 Z0.5000
G01 Z-2.2000 F400
M106 S240
G01 X63.7688 Y49.6525 F1000
G01 X63.2375 Y50.2263
G01 X65.6841 Y50.2241
G01 X73.5813 Y41.6954
G01 X73.6413 Y41.6336
G01 X73.7065 Y41.5771
G01 X73.7762 Y41.5264
G01 X73.8501 Y41.4820
G01 X73.9275 Y41.4440
G01 X74.0079 Y41.4129
G01 X74.0907 Y41.3888
G01 X74.1752 Y41.3719
G01 X74.2609 Y41.3624
G01 X74.3471 Y41.3603
G01 X74.4332 Y41.3656
G01 X74.5184 Y41.3783
G01 X74.6023 Y41.3983
G01 X74.6841 Y41.4255
G01 X74.7633 Y41.4596
G01 X74.8393 Y41.5004
G01 X74.9114 Y41.5476
G01 X74.9792 Y41.6008
G01 X75.0422 Y41.6597
G01 X75.0999 Y41.7237
G01 X75.1519 Y41.7925
G01 X75.1977 Y41.8655
G01 X75.2371 Y41.9422
G01 X75.2697 Y42.0220
G01 X75.2953 Y42.1043
G01 X75.3138 Y42.1886
G01 X75.3249 Y42.2741
G01 X75.3286 Y42.3602
G01 Y50.2263
G01 X76.8305
G01 Y37.4703
G01 X75.0452 Y37.4725
G01 X68.4184 Y44.6316
G01 X68.3584 Y44.6935
G01 X68.2932 Y44.7500
G01 X68.2235 Y44.8007
G01 X68.1496 Y44.8452
G01 X68.0722 Y44.8831
G01 X67.9918 Y44.9142
G01 X67.9090 Y44.9383
G01 X67.8245 Y44.9552
G01 X67.7388 Y44.9648
G01 X67.6526 Y44.9669
G01 X67.5665 Y44.9616
G01 X67.4813 Y44.9489
G01 X67.3974 Y44.9289
G01 X67.3156 Y44.9017
G01 X67.2364 Y44.8676
G01 X67.1604 Y44.8268
G01 X67.0882 Y44.7797
G01 X67.0204 Y44.7264
G01 X66.9574 Y44.6676
G01 X66.8997 Y44.6035
G01 X66.8478 Y44.5347
G01 X66.8019 Y44.4617
G01 X66.7625 Y44.3850
G01 X66.7299 Y44.3052
G01 X66.7043 Y44.2229
G01 X66.6858 Y44.1386
G01 X66.6747 Y44.0531
G01 X66.6710 Y43.9670
G01 Y37.4703
G01 X65.1691
G01 Y47.7281
G01 X65.1664 Y47.8239
G01 X65.1545 Y47.9189
G01 X65.1336 Y48.0125
G01 X65.1038 Y48.1036
G01 X65.0655 Y48.1914
G01 X65.0189 Y48.2751
G01 X64.9646 Y48.3541
G01 X64.9029 Y48.4274
G01 X63.7688 Y49.6525
G01 X63.9155 Y49.7883
M107
G00 Z2.0000


;No. 5: Hole 76
G00 X80.6078 Y37.9083 Z2.0000
G00 Z0.5000
G01 Z-2.2000 F400
M106 S240
G01 X93.4333 F1000
G01 X82.2911
G01 Y39.2283
G01 X80.6078
G01 Y40.5483
G01 X81.7109
G01 Y41.8683
G01 X80.6078
G01 Y43.1883
G01 X81.7109
G01 Y44.5083
G01 X80.6078
G01 Y45.8283
G01 X81.7109
G01 Y47.1483
G01 X80.6078
G01 Y48.4683
G01 X81.7109
G01 Y49.7883
G01 X80.6078
M107
G00 Z2.0000
G00 Z0.5000
G01 Z-2.2000 F400
M106 S240
G01 X80.4078 F1000
G01 Y50.2263
G01 X81.9109
G01 Y40.2741
G01 X81.9134 Y40.1834
G01 X81.9178 Y40.1367
G01 X81.9244 Y40.0903
G01 X81.9332 Y40.0443
G01 X81.9441 Y39.9987
G01 X81.9571 Y39.9537
G01 X81.9722 Y39.9093
G01 X81.9894 Y39.8657
G01 X82.0086 Y39.8230
G01 X82.0298 Y39.7812
G01 X82.0530 Y39.7404
G01 X82.0780 Y39.7008
G01 X82.1048 Y39.6623
G01 X82.1334 Y39.6252
G01 X82.1638 Y39.5895
G01 X82.1957 Y39.5552
G01 X82.2293 Y39.5224
G01 X82.2643 Y39.4913
G01 X82.3007 Y39.4619
G01 X82.3385 Y39.4341
G01 X82.3776 Y39.4082
G01 X82.4178 Y39.3842
G01 X82.4591 Y39.3620
G01 X82.5014 Y39.3418
G01 X82.5446 Y39.3236
G01 X82.5886 Y39.3075
G01 X82.6333 Y39.2934
G01 X82.6787 Y39.2815
G01 X82.7245 Y39.2717
G01 X82.7707 Y39.2640
G01 X82.8173 Y39.2585
G01 X82.8640 Y39.2552
G01 X82.9109 Y39.2541
G01 X94.5500
G01 X94.5632 Y39.2381
G01 X94.5360 Y39.0968
G01 X94.4992 Y38.9578
G01 X94.4529 Y38.8216
G01 X94.3974 Y38.6889
G01 X94.3329 Y38.5604
G01 X94.2598 Y38.4366
G01 X94.1783 Y38.3180
G01 X94.0889 Y38.2054
G01 X93.9919 Y38.0991
G01 X93.8879 Y37.9998
G01 X93.7774 Y37.9078
G01 X93.6608 Y37.8236
G01 X93.5386 Y37.7477
G01 X93.4116 Y37.6803
G01 X93.2802 Y37.6217
G01 X93.1451 Y37.5723
G01 X93.0070 Y37.5324
G01 X92.8664 Y37.5019
G01 X92.7241 Y37.4812
G01 X92.5807 Y37.4703
G01 X80.4078
G01 Y49.7883
G01 X80.6078
M107
G00 Z2.0000


;No. 6: Hole 75
G00 X104.7368 Y37.9083 Z2.0000
G00 Z0.5000
G01 Z-2.2000 F400
M106 S240
G01 X105.8387 F1000
G01 Y39.2283
G01 X104.7368
G01 Y40.5483
G01 X105.8387
G01 X106.3093 Y41.8683
G01 X104.2664
G01 X103.0462 Y43.1883
G01 X107.5314
G01 X103.7227
G01 Y44.5083
G01 X101.8259
G01 X102.5006 Y45.8283
G01 X100.6057
G01 X101.2785 Y47.1483
G01 X99.3854
G01 X100.0564 Y48.4683
G01 X98.3873
G01 Y49.7883
G01 X99.4891
M107
G00 Z2.0000
G00 X106.8539 Y43.1883
G00 Z0.5000
G01 Z-2.2000 F400
M106 S240
G01 Y44.5083 F1000
G01 X108.7535
G01 X108.0756 Y45.8283
G01 X109.9756
G01 X109.2974 Y47.1483
G01 X111.1977
G01 X110.5191 Y48.4683
G01 X112.1882
G01 Y49.7883
G01 X111.0864
M107
G00 Z2.0000
G00 Z0.5000
G01 Z-2.2000 F400
M106 S240
G01 X110.8864 F1000
G01 Y50.2263
G01 X112.3882
G01 Y48.1481
G01 X112.3827 Y48.1339
G01 X106.3185 Y41.5838
G01 X106.2554 Y41.5117
G01 X106.1995 Y41.4338
G01 X106.1514 Y41.3510
G01 X106.1113 Y41.2639
G01 X106.0798 Y41.1734
G01 X106.0570 Y41.0803
G01 X106.0433 Y40.9855
G01 X106.0387 Y40.8898
G01 Y37.4703
G01 X104.5368
G01 Y40.8698
G01 X104.5341 Y40.9656
G01 X104.5222 Y41.0607
G01 X104.5013 Y41.1542
G01 X104.4715 Y41.2453
G01 X104.4332 Y41.3331
G01 X104.3866 Y41.4168
G01 X104.3323 Y41.4958
G01 X104.2706 Y41.5691
G01 X98.1873 Y48.1481
G01 Y50.2263
G01 X99.6891
G01 Y49.5713
G01 X99.6902 Y49.5044
G01 X99.6932 Y49.4608
G01 X99.6982 Y49.4173
G01 X99.7050 Y49.3741
G01 X99.7137 Y49.3312
G01 X99.7242 Y49.2888
G01 X99.7366 Y49.2468
G01 X99.7508 Y49.2055
G01 X99.7669 Y49.1647
G01 X99.7847 Y49.1248
G01 X99.8042 Y49.0856
G01 X99.8254 Y49.0474
G01 X99.8483 Y49.0101
G01 X99.8727 Y48.9738
G01 X99.8988 Y48.9387
G01 X99.9263 Y48.9047
G01 X99.9553 Y48.8719
G01 X104.5410 Y43.9189
G01 X104.5990 Y43.8589
G01 X104.6617 Y43.8040
G01 X104.7289 Y43.7546
G01 X104.7999 Y43.7109
G01 X104.8743 Y43.6732
G01 X104.9515 Y43.6419
G01 X105.0311 Y43.6171
G01 X105.1125 Y43.5991
G01 X105.1952 Y43.5879
G01 X105.2784 Y43.5836
G01 X105.3618 Y43.5862
G01 X105.4446 Y43.5958
G01 X105.5263 Y43.6123
G01 X105.6064 Y43.6355
G01 X105.6843 Y43.6653
G01 X105.7594 Y43.7014
G01 X105.8312 Y43.7437
G01 X105.8993 Y43.7919
G01 X105.9631 Y43.8455
G01 X106.0223 Y43.9043
G01 X110.6067 Y48.8574
G01 X110.6609 Y48.9212
G01 X110.7102 Y48.9890
G01 X110.7543 Y49.0602
G01 X110.7929 Y49.1346
G01 X110.8258 Y49.2116
G01 X110.8529 Y49.2909
G01 X110.8740 Y49.3720
G01 X110.8890 Y49.4544
G01 X110.8977 Y49.5377
G01 X110.9002 Y49.6215
G01 X110.8964 Y49.7052
G01 X110.8864 Y49.7883
G01 X111.0864
M107
G00 Z2.0000


;No. 7: Helical drill 14
G00 X131.3538 Y30.9320 Z2.0000
G00 Z0.5000
M106 S240
G01 X131.3526 Y30.8924 Z0.4796 F400
G01 X131.3492 Y30.8530 Z0.4593
G01 X131.3434 Y30.8139 Z0.4389
G01 X131.3354 Y30.7752 Z0.4185
G01 X131.3252 Y30.7370 Z0.3981
G01 X131.3128 Y30.6994 Z0.3778
G01 X131.2982 Y30.6626 Z0.3574
G01 X131.2814 Y30.6268 Z0.3370
G01 X131.2627 Y30.5920 Z0.3167
G01 X131.2419 Y30.5583 Z0.2963
G01 X131.2192 Y30.5259 Z0.2759
G01 X131.1947 Y30.4949 Z0.2556
G01 X131.1684 Y30.4654 Z0.2352
G01 X131.1404 Y30.4374 Z0.2148
G01 X131.1109 Y30.4111 Z0.1944
G01 X131.0799 Y30.3866 Z0.1741
G01 X131.0475 Y30.3639 Z0.1537
G01 X131.0138 Y30.3431 Z0.1333
G01 X130.9790 Y30.3243 Z0.1130
G01 X130.9431 Y30.3076 Z0.0926
G01 X130.9064 Y30.2930 Z0.0722
G01 X130.8688 Y30.2806 Z0.0519
G01 X130.8306 Y30.2703 Z0.0315
G01 X130.7919 Y30.2623 Z0.0111
G01 X130.7528 Y30.2566 Z-0.0093
G01 X130.7134 Y30.2532 Z-0.0296
G01 X130.6738 Y30.2520 Z-0.0500
G01 X130.6343 Y30.2532 Z-0.0704
G01 X130.5949 Y30.2566 Z-0.0907
G01 X130.5557 Y30.2623 Z-0.1111
G01 X130.5170 Y30.2703 Z-0.1315
G01 X130.4788 Y30.2806 Z-0.1519
G01 X130.4413 Y30.2930 Z-0.1722
G01 X130.4045 Y30.3076 Z-0.1926
G01 X130.3687 Y30.3243 Z-0.2130
G01 X130.3338 Y30.3431 Z-0.2333
G01 X130.3002 Y30.3639 Z-0.2537
G01 X130.2678 Y30.3866 Z-0.2741
G01 X130.2368 Y30.4111 Z-0.2944
G01 X130.2072 Y30.4374 Z-0.3148
G01 X130.1792 Y30.4654 Z-0.3352
G01 X130.1529 Y30.4949 Z-0.3556
G01 X130.1284 Y30.5259 Z-0.3759
G01 X130.1057 Y30.5583 Z-0.3963
G01 X130.0850 Y30.5920 Z-0.4167
G01 X130.0662 Y30.6268 Z-0.4370
G01 X130.0495 Y30.6626 Z-0.4574
G01 X130.0349 Y30.6994 Z-0.4778
G01 X130.0224 Y30.7370 Z-0.4981
G01 X130.0122 Y30.7752 Z-0.5185
G01 X130.0042 Y30.8139 Z-0.5389
G01 X129.9985 Y30.8530 Z-0.5593
G01 X129.9950 Y30.8924 Z-0.5796
G01 X129.9939 Y30.9320 Z-0.6000
G01 X129.9950 Y30.9715 Z-0.6204
G01 X129.9985 Y31.0109 Z-0.6407
G01 X130.0042 Y31.0500 Z-0.6611
G01 X130.0122 Y31.0888 Z-0.6815
G01 X130.0224 Y31.1270 Z-0.7019
G01 X130.0349 Y31.1645 Z-0.7222
G01 X130.0495 Y31.2013 Z-0.7426
G01 X130.0662 Y31.2371 Z-0.7630
G01 X130.0850 Y31.2719 Z-0.7833
G01 X130.1057 Y31.3056 Z-0.8037
G01 X130.1284 Y31.3380 Z-0.8241
G01 X130.1529 Y31.3690 Z-0.8444
G01 X130.1792 Y31.3986 Z-0.8648
G01 X130.2072 Y31.4265 Z-0.8852
G01 X130.2368 Y31.4528 Z-0.9056
G01 X130.2678 Y31.4774 Z-0.9259
G01 X130.3002 Y31.5001 Z-0.9463
G01 X130.3338 Y31.5208 Z-0.9667
G01 X130.3687 Y31.5396 Z-0.9870
G01 X130.4045 Y31.5563 Z-1.0074
G01 X130.4413 Y31.5709 Z-1.0278
G01 X130.4788 Y31.5833 Z-1.0481
G01 X130.5170 Y31.5936 Z-1.0685
G01 X130.5557 Y31.6016 Z-1.0889
G01 X130.5949 Y31.6073 Z-1.1093
G01 X130.6343 Y31.6108 Z-1.1296
G01 X130.6738 Y31.6119 Z-1.1500
G01 X130.7134 Y31.6108 Z-1.1704
G01 X130.7528 Y31.6073 Z-1.1907
G01 X130.7919 Y31.6016 Z-1.2111
G01 X130.8306 Y31.5936 Z-1.2315
G01 X130.8688 Y31.5833 Z-1.2519
G01 X130.9064 Y31.5709 Z-1.2722
G01 X130.9431 Y31.5563 Z-1.2926
G01 X130.9790 Y31.5396 Z-1.3130
G01 X131.0138 Y31.5208 Z-1.3333
G01 X131.0475 Y31.5001 Z-1.3537
G01 X131.0799 Y31.4774 Z-1.3741
G01 X131.1109 Y31.4528 Z-1.3944
G01 X131.1404 Y31.4265 Z-1.4148
G01 X131.1684 Y31.3986 Z-1.4352
G01 X131.1947 Y31.3690 Z-1.4556
G01 X131.2192 Y31.3380 Z-1.4759
G01 X131.2419 Y31.3056 Z-1.4963
G01 X131.2627 Y31.2719 Z-1.5167
G01 X131.2814 Y31.2371 Z-1.5370
G01 X131.2982 Y31.2013 Z-1.5574
G01 X131.3128 Y31.1645 Z-1.5778
G01 X131.3252 Y31.1270 Z-1.5981
G01 X131.3354 Y31.0888 Z-1.6185
G01 X131.3434 Y31.0500 Z-1.6389
G01 X131.3492 Y31.0109 Z-1.6593
G01 X131.3526 Y30.9715 Z-1.6796
G01 X131.3538 Y30.9320 Z-1.7000
G01 X131.3526 Y30.8924 Z-1.7204
G01 X131.3492 Y30.8530 Z-1.7407
G01 X131.3434 Y30.8139 Z-1.7611
G01 X131.3354 Y30.7752 Z-1.7815
G01 X131.3252 Y30.7370 Z-1.8019
G01 X131.3128 Y30.6994 Z-1.8222
G01 X131.2982 Y30.6626 Z-1.8426
G01 X131.2814 Y30.6268 Z-1.8630
G01 X131.2627 Y30.5920 Z-1.8833
G01 X131.2419 Y30.5583 Z-1.9037
G01 X131.2192 Y30.5259 Z-1.9241
G01 X131.1947 Y30.4949 Z-1.9444
G01 X131.1684 Y30.4654 Z-1.9648
G01 X131.1404 Y30.4374 Z-1.9852
G01 X131.1109 Y30.4111 Z-2.0056
G01 X131.0799 Y30.3866 Z-2.0259
G01 X131.0475 Y30.3639 Z-2.0463
G01 X131.0138 Y30.3431 Z-2.0667
G01 X130.9790 Y30.3243 Z-2.0870
G01 X130.9431 Y30.3076 Z-2.1074
G01 X130.9064 Y30.2930 Z-2.1278
G01 X130.8688 Y30.2806 Z-2.1481
G01 X130.8306 Y30.2703 Z-2.1685
G01 X130.7919 Y30.2623 Z-2.1889
G01 X130.7528 Y30.2566 Z-2.2093
G01 X130.7134 Y30.2532 Z-2.2296
G01 X130.6738 Y30.2520 Z-2.2500
G01 X130.6343 Y30.2532 Z-2.2704
G01 X130.5949 Y30.2566 Z-2.2907
G01 X130.5557 Y30.2623 Z-2.3111
G01 X130.5170 Y30.2703 Z-2.3315
G01 X130.4788 Y30.2806 Z-2.3519
G01 X130.4413 Y30.2930 Z-2.3722
G01 X130.4045 Y30.3076 Z-2.3926
G01 X130.3687 Y30.3243 Z-2.4130
G01 X130.3338 Y30.3431 Z-2.4333
G01 X130.3002 Y30.3639 Z-2.4537
G01 X130.2678 Y30.3866 Z-2.4741
G01 X130.2368 Y30.4111 Z-2.4944
G01 X130.2072 Y30.4374 Z-2.5148
G01 X130.1792 Y30.4654 Z-2.5352
G01 X130.1529 Y30.4949 Z-2.5556
G01 X130.1284 Y30.5259 Z-2.5759
G01 X130.1057 Y30.5583 Z-2.5963
G01 X130.0850 Y30.5920 Z-2.6167
G01 X130.0662 Y30.6268 Z-2.6370
G01 X130.0495 Y30.6626 Z-2.6574
G01 X130.0349 Y30.6994 Z-2.6778
G01 X130.0224 Y30.7370 Z-2.6981
G01 X130.0122 Y30.7752 Z-2.7185
G01 X130.0042 Y30.8139 Z-2.7389
G01 X129.9985 Y30.8530 Z-2.7593
G01 X129.9950 Y30.8924 Z-2.7796
G01 X129.9939 Y30.9320 Z-2.8000
G01 X129.9950 Y30.9715 Z-2.8204
G01 X129.9985 Y31.0109 Z-2.8407
G01 X130.0042 Y31.0500 Z-2.8611
G01 X130.0122 Y31.0888 Z-2.8815
G01 X130.0224 Y31.1270 Z-2.9019
G01 X130.0349 Y31.1645 Z-2.9222
G01 X130.0495 Y31.2013 Z-2.9426
G01 X130.0662 Y31.2371 Z-2.9630
G01 X130.0850 Y31.2719 Z-2.9833
G01 X130.1057 Y31.3056 Z-3.0037
G01 X130.1284 Y31.3380 Z-3.0241
G01 X130.1529 Y31.3690 Z-3.0444
G01 X130.1792 Y31.3986 Z-3.0648
G01 X130.2072 Y31.4265 Z-3.0852
G01 X130.2368 Y31.4528 Z-3.1056
G01 X130.2678 Y31.4774 Z-3.1259
G01 X130.3002 Y31.5001 Z-3.1463
G01 X130.3338 Y31.5208 Z-3.1667
G01 X130.3687 Y31.5396 Z-3.1870
G01 X130.4045 Y31.5563 Z-3.2074
G01 X130.4413 Y31.5709 Z-3.2278
G01 X130.4788 Y31.5833 Z-3.2481
G01 X130.5170 Y31.5936 Z-3.2685
G01 X130.5557 Y31.6016 Z-3.2889
G01 X130.5949 Y31.6073 Z-3.3093
G01 X130.6343 Y31.6108 Z-3.3296
G01 X130.6738 Y31.6119 Z-3.3500
G01 X130.7134 Y31.6108 Z-3.3704
G01 X130.7528 Y31.6073 Z-3.3907
G01 X130.7919 Y31.6016 Z-3.4111
G01 X130.8306 Y31.5936 Z-3.4315
G01 X130.8688 Y31.5833 Z-3.4519
G01 X130.9064 Y31.5709 Z-3.4722
G01 X130.9431 Y31.5563 Z-3.4926
G01 X130.9790 Y31.5396 Z-3.5130
G01 X131.0138 Y31.5208 Z-3.5333
G01 X131.0475 Y31.5001 Z-3.5537
G01 X131.0799 Y31.4774 Z-3.5741
G01 X131.1109 Y31.4528 Z-3.5944
G01 X131.1404 Y31.4265 Z-3.6148
G01 X131.1684 Y31.3986 Z-3.6352
G01 X131.1947 Y31.3690 Z-3.6556
G01 X131.2192 Y31.3380 Z-3.6759
G01 X131.2419 Y31.3056 Z-3.6963
G01 X131.2627 Y31.2719 Z-3.7167
G01 X131.2814 Y31.2371 Z-3.7370
G01 X131.2982 Y31.2013 Z-3.7574
G01 X131.3128 Y31.1645 Z-3.7778
G01 X131.3252 Y31.1270 Z-3.7981
G01 X131.3354 Y31.0888 Z-3.8185
G01 X131.3434 Y31.0500 Z-3.8389
G01 X131.3492 Y31.0109 Z-3.8593
G01 X131.3526 Y30.9715 Z-3.8796
G01 X131.3538 Y30.9320 Z-3.9000
G01 X131.3526 Y30.8924 Z-3.9204
G01 X131.3492 Y30.8530 Z-3.9407
G01 X131.3434 Y30.8139 Z-3.9611
G01 X131.3354 Y30.7752 Z-3.9815
G01 X131.3252 Y30.7370 Z-4.0019
G01 X131.3128 Y30.6994 Z-4.0222
G01 X131.2982 Y30.6626 Z-4.0426
G01 X131.2814 Y30.6268 Z-4.0630
G01 X131.2627 Y30.5920 Z-4.0833
G01 X131.2419 Y30.5583 Z-4.1037
G01 X131.2192 Y30.5259 Z-4.1241
G01 X131.1947 Y30.4949 Z-4.1444
G01 X131.1684 Y30.4654 Z-4.1648
G01 X131.1404 Y30.4374 Z-4.1852
G01 X131.1109 Y30.4111 Z-4.2056
G01 X131.0799 Y30.3866 Z-4.2259
G01 X131.0475 Y30.3639 Z-4.2463
G01 X131.0138 Y30.3431 Z-4.2667
G01 X130.9790 Y30.3243 Z-4.2870
G01 X130.9431 Y30.3076 Z-4.3074
G01 X130.9064 Y30.2930 Z-4.3278
G01 X130.8688 Y30.2806 Z-4.3481
G01 X130.8306 Y30.2703 Z-4.3685
G01 X130.7919 Y30.2623 Z-4.3889
G01 X130.7528 Y30.2566 Z-4.4093
G01 X130.7134 Y30.2532 Z-4.4296
G01 X130.6738 Y30.2520 Z-4.4500
G01 X130.6343 Y30.2532 Z-4.4704
G01 X130.5949 Y30.2566 Z-4.4907
G01 X130.5557 Y30.2623 Z-4.5111
G01 X130.5170 Y30.2703 Z-4.5315
G01 X130.4788 Y30.2806 Z-4.5519
G01 X130.4413 Y30.2930 Z-4.5722
G01 X130.4045 Y30.3076 Z-4.5926
G01 X130.3687 Y30.3243 Z-4.6130
G01 X130.3338 Y30.3431 Z-4.6333
G01 X130.3002 Y30.3639 Z-4.6537
G01 X130.2678 Y30.3866 Z-4.6741
G01 X130.2368 Y30.4111 Z-4.6944
G01 X130.2072 Y30.4374 Z-4.7148
G01 X130.1792 Y30.4654 Z-4.7352
G01 X130.1529 Y30.4949 Z-4.7556
G01 X130.1284 Y30.5259 Z-4.7759
G01 X130.1057 Y30.5583 Z-4.7963
G01 X130.0850 Y30.5920 Z-4.8167
G01 X130.0662 Y30.6268 Z-4.8370
G01 X130.0495 Y30.6626 Z-4.8574
G01 X130.0349 Y30.6994 Z-4.8778
G01 X130.0224 Y30.7370 Z-4.8981
G01 X130.0122 Y30.7752 Z-4.9185
G01 X130.0042 Y30.8139 Z-4.9389
G01 X129.9985 Y30.8530 Z-4.9593
G01 X129.9950 Y30.8924 Z-4.9796
G01 X129.9939 Y30.9320 Z-5.0000
G01 X129.9950 Y30.9715 Z-5.0204
G01 X129.9985 Y31.0109 Z-5.0407
G01 X130.0042 Y31.0500 Z-5.0611
G01 X130.0122 Y31.0888 Z-5.0815
G01 X130.0224 Y31.1270 Z-5.1019
G01 X130.0349 Y31.1645 Z-5.1222
G01 X130.0495 Y31.2013 Z-5.1426
G01 X130.0662 Y31.2371 Z-5.1630
G01 X130.0850 Y31.2719 Z-5.1833
G01 X130.1057 Y31.3056 Z-5.2037
G01 X130.1284 Y31.3380 Z-5.2241
G01 X130.1529 Y31.3690 Z-5.2444
G01 X130.1792 Y31.3986 Z-5.2648
G01 X130.2072 Y31.4265 Z-5.2852
G01 X130.2368 Y31.4528 Z-5.3056
G01 X130.2678 Y31.4774 Z-5.3259
G01 X130.3002 Y31.5001 Z-5.3463
G01 X130.3338 Y31.5208 Z-5.3667
G01 X130.3687 Y31.5396 Z-5.3870
G01 X130.4045 Y31.5563 Z-5.4074
G01 X130.4413 Y31.5709 Z-5.4278
G01 X130.4788 Y31.5833 Z-5.4481
G01 X130.5170 Y31.5936 Z-5.4685
G01 X130.5557 Y31.6016 Z-5.4889
G01 X130.5949 Y31.6073 Z-5.5093
G01 X130.6343 Y31.6108 Z-5.5296
G01 X130.6738 Y31.6119 Z-5.5500
G01 X130.7134 Y31.6108 Z-5.5704
G01 X130.7528 Y31.6073 Z-5.5907
G01 X130.7919 Y31.6016 Z-5.6111
G01 X130.8306 Y31.5936 Z-5.6315
G01 X130.8688 Y31.5833 Z-5.6519
G01 X130.9064 Y31.5709 Z-5.6722
G01 X130.9431 Y31.5563 Z-5.6926
G01 X130.9790 Y31.5396 Z-5.7130
G01 X131.0138 Y31.5208 Z-5.7333
G01 X131.0475 Y31.5001 Z-5.7537
G01 X131.0799 Y31.4774 Z-5.7741
G01 X131.1109 Y31.4528 Z-5.7944
G01 X131.1404 Y31.4265 Z-5.8148
G01 X131.1684 Y31.3986 Z-5.8352
G01 X131.1947 Y31.3690 Z-5.8556
G01 X131.2192 Y31.3380 Z-5.8759
G01 X131.2419 Y31.3056 Z-5.8963
G01 X131.2627 Y31.2719 Z-5.9167
G01 X131.2814 Y31.2371 Z-5.9370
G01 X131.2982 Y31.2013 Z-5.9574
G01 X131.3128 Y31.1645 Z-5.9778
G01 X131.3252 Y31.1270 Z-5.9981
G01 X131.3354 Y31.0888 Z-6.0185
G01 X131.3434 Y31.0500 Z-6.0389
G01 X131.3492 Y31.0109 Z-6.0593
G01 X131.3526 Y30.9715 Z-6.0796
G01 X131.3538 Y30.9320 Z-6.1000
G01 X131.3526 Y30.8924 Z-6.1176
G01 X131.3492 Y30.8530 Z-6.1352
G01 X131.3434 Y30.8139 Z-6.1528
G01 X131.3354 Y30.7752 Z-6.1704
G01 X131.3252 Y30.7370 Z-6.1880
G01 X131.3128 Y30.6994 Z-6.2056
G01 X131.2982 Y30.6626 Z-6.2231
G01 X131.2814 Y30.6268 Z-6.2407
G01 X131.2627 Y30.5920 Z-6.2583
G01 X131.2419 Y30.5583 Z-6.2759
G01 X131.2192 Y30.5259 Z-6.2935
G01 X131.1947 Y30.4949 Z-6.3111
G01 X131.1684 Y30.4654 Z-6.3287
G01 X131.1404 Y30.4374 Z-6.3463
G01 X131.1109 Y30.4111 Z-6.3639
G01 X131.0799 Y30.3866 Z-6.3815
G01 X131.0475 Y30.3639 Z-6.3991
G01 X131.0138 Y30.3431 Z-6.4167
G01 X130.9790 Y30.3243 Z-6.4343
G01 X130.9431 Y30.3076 Z-6.4519
G01 X130.9064 Y30.2930 Z-6.4694
G01 X130.8688 Y30.2806 Z-6.4870
G01 X130.8306 Y30.2703 Z-6.5046
G01 X130.7919 Y30.2623 Z-6.5222
G01 X130.7528 Y30.2566 Z-6.5398
G01 X130.7134 Y30.2532 Z-6.5574
G01 X130.6738 Y30.2520 Z-6.5750
G01 X130.6343 Y30.2532 Z-6.5926
G01 X130.5949 Y30.2566 Z-6.6102
G01 X130.5557 Y30.2623 Z-6.6278
G01 X130.5170 Y30.2703 Z-6.6454
G01 X130.4788 Y30.2806 Z-6.6630
G01 X130.4413 Y30.2930 Z-6.6806
G01 X130.4045 Y30.3076 Z-6.6981
G01 X130.3687 Y30.3243 Z-6.7157
G01 X130.3338 Y30.3431 Z-6.7333
G01 X130.3002 Y30.3639 Z-6.7509
G01 X130.2678 Y30.3866 Z-6.7685
G01 X130.2368 Y30.4111 Z-6.7861
G01 X130.2072 Y30.4374 Z-6.8037
G01 X130.1792 Y30.4654 Z-6.8213
G01 X130.1529 Y30.4949 Z-6.8389
G01 X130.1284 Y30.5259 Z-6.8565
G01 X130.1057 Y30.5583 Z-6.8741
G01 X130.0850 Y30.5920 Z-6.8917
G01 X130.0662 Y30.6268 Z-6.9093
G01 X130.0495 Y30.6626 Z-6.9269
G01 X130.0349 Y30.6994 Z-6.9444
G01 X130.0224 Y30.7370 Z-6.9620
G01 X130.0122 Y30.7752 Z-6.9796
G01 X130.0042 Y30.8139 Z-6.9972
G01 X129.9985 Y30.8530 Z-7.0148
G01 X129.9950 Y30.8924 Z-7.0324
G01 X129.9939 Y30.9320 Z-7.0500
G01 X129.9950 Y30.9715 Z-7.0676
G01 X129.9985 Y31.0109 Z-7.0852
G01 X130.0042 Y31.0500 Z-7.1028
G01 X130.0122 Y31.0888 Z-7.1204
G01 X130.0224 Y31.1270 Z-7.1380
G01 X130.0349 Y31.1645 Z-7.1556
G01 X130.0495 Y31.2013 Z-7.1731
G01 X130.0662 Y31.2371 Z-7.1907
G01 X130.0850 Y31.2719 Z-7.2083
G01 X130.1057 Y31.3056 Z-7.2259
G01 X130.1284 Y31.3380 Z-7.2435
G01 X130.1529 Y31.3690 Z-7.2611
G01 X130.1792 Y31.3986 Z-7.2787
G01 X130.2072 Y31.4265 Z-7.2963
G01 X130.2368 Y31.4528 Z-7.3139
G01 X130.2678 Y31.4774 Z-7.3315
G01 X130.3002 Y31.5001 Z-7.3491
G01 X130.3338 Y31.5208 Z-7.3667
G01 X130.3687 Y31.5396 Z-7.3843
G01 X130.4045 Y31.5563 Z-7.4019
G01 X130.4413 Y31.5709 Z-7.4194
G01 X130.4788 Y31.5833 Z-7.4370
G01 X130.5170 Y31.5936 Z-7.4546
G01 X130.5557 Y31.6016 Z-7.4722
G01 X130.5949 Y31.6073 Z-7.4898
G01 X130.6343 Y31.6108 Z-7.5074
G01 X130.6738 Y31.6119 Z-7.5250
G01 X130.7134 Y31.6108 Z-7.5426
G01 X130.7528 Y31.6073 Z-7.5602
G01 X130.7919 Y31.6016 Z-7.5778
G01 X130.8306 Y31.5936 Z-7.5954
G01 X130.8688 Y31.5833 Z-7.6130
G01 X130.9064 Y31.5709 Z-7.6306
G01 X130.9431 Y31.5563 Z-7.6481
G01 X130.9790 Y31.5396 Z-7.6657
G01 X131.0138 Y31.5208 Z-7.6833
G01 X131.0475 Y31.5001 Z-7.7009
G01 X131.0799 Y31.4774 Z-7.7185
G01 X131.1109 Y31.4528 Z-7.7361
G01 X131.1404 Y31.4265 Z-7.7537
G01 X131.1684 Y31.3986 Z-7.7713
G01 X131.1947 Y31.3690 Z-7.7889
G01 X131.2192 Y31.3380 Z-7.8065
G01 X131.2419 Y31.3056 Z-7.8241
G01 X131.2627 Y31.2719 Z-7.8417
G01 X131.2814 Y31.2371 Z-7.8593
G01 X131.2982 Y31.2013 Z-7.8769
G01 X131.3128 Y31.1645 Z-7.8944
G01 X131.3252 Y31.1270 Z-7.9120
G01 X131.3354 Y31.0888 Z-7.9296
G01 X131.3434 Y31.0500 Z-7.9472
G01 X131.3492 Y31.0109 Z-7.9648
G01 X131.3526 Y30.9715 Z-7.9824
G01 X131.3538 Y30.9320 Z-8.0000
G01 X131.3526 Y30.8924
G01 X131.3492 Y30.8530
G01 X131.3434 Y30.8139
G01 X131.3354 Y30.7752
G01 X131.3252 Y30.7370
G01 X131.3128 Y30.6994
G01 X131.2982 Y30.6626
G01 X131.2814 Y30.6268
G01 X131.2627 Y30.5920
G01 X131.2419 Y30.5583
G01 X131.2192 Y30.5259
G01 X131.1947 Y30.4949
G01 X131.1684 Y30.4654
G01 X131.1404 Y30.4374
G01 X131.1109 Y30.4111
G01 X131.0799 Y30.3866
G01 X131.0475 Y30.3639
G01 X131.0138 Y30.3431
G01 X130.9790 Y30.3243
G01 X130.9431 Y30.3076
G01 X130.9064 Y30.2930
G01 X130.8688 Y30.2806
G01 X130.8306 Y30.2703
G01 X130.7919 Y30.2623
G01 X130.7528 Y30.2566
G01 X130.7134 Y30.2532
G01 X130.6738 Y30.2520
G01 X130.6343 Y30.2532
G01 X130.5949 Y30.2566
G01 X130.5557 Y30.2623
G01 X130.5170 Y30.2703
G01 X130.4788 Y30.2806
G01 X130.4413 Y30.2930
G01 X130.4045 Y30.3076
G01 X130.3687 Y30.3243
G01 X130.3338 Y30.3431
G01 X130.3002 Y30.3639
G01 X130.2678 Y30.3866
G01 X130.2368 Y30.4111
G01 X130.2072 Y30.4374
G01 X130.1792 Y30.4654
G01 X130.1529 Y30.4949
G01 X130.1284 Y30.5259
G01 X130.1057 Y30.5583
G01 X130.0850 Y30.5920
G01 X130.0662 Y30.6268
G01 X130.0495 Y30.6626
G01 X130.0349 Y30.6994
G01 X130.0224 Y30.7370
G01 X130.0122 Y30.7752
G01 X130.0042 Y30.8139
G01 X129.9985 Y30.8530
G01 X129.9950 Y30.8924
G01 X129.9939 Y30.9320
G01 X129.9950 Y30.9715
G01 X129.9985 Y31.0109
G01 X130.0042 Y31.0500
G01 X130.0122 Y31.0888
G01 X130.0224 Y31.1270
G01 X130.0349 Y31.1645
G01 X130.0495 Y31.2013
G01 X130.0662 Y31.2371
G01 X130.0850 Y31.2719
G01 X130.1057 Y31.3056
G01 X130.1284 Y31.3380
G01 X130.1529 Y31.3690
G01 X130.1792 Y31.3986
G01 X130.2072 Y31.4265
G01 X130.2368 Y31.4528
G01 X130.2678 Y31.4774
G01 X130.3002 Y31.5001
G01 X130.3338 Y31.5208
G01 X130.3687 Y31.5396
G01 X130.4045 Y31.5563
G01 X130.4413 Y31.5709
G01 X130.4788 Y31.5833
G01 X130.5170 Y31.5936
G01 X130.5557 Y31.6016
G01 X130.5949 Y31.6073
G01 X130.6343 Y31.6108
G01 X130.6738 Y31.6119
G01 X130.7134 Y31.6108
G01 X130.7528 Y31.6073
G01 X130.7919 Y31.6016
G01 X130.8306 Y31.5936
G01 X130.8688 Y31.5833
G01 X130.9064 Y31.5709
G01 X130.9431 Y31.5563
G01 X130.9790 Y31.5396
G01 X131.0138 Y31.5208
G01 X131.0475 Y31.5001
G01 X131.0799 Y31.4774
G01 X131.1109 Y31.4528
G01 X131.1404 Y31.4265
G01 X131.1684 Y31.3986
G01 X131.1947 Y31.3690
G01 X131.2192 Y31.3380
G01 X131.2419 Y31.3056
G01 X131.2627 Y31.2719
G01 X131.2814 Y31.2371
G01 X131.2982 Y31.2013
G01 X131.3128 Y31.1645
G01 X131.3252 Y31.1270
G01 X131.3354 Y31.0888
G01 X131.3434 Y31.0500
G01 X131.3492 Y31.0109
G01 X131.3526 Y30.9715
G01 X131.3538 Y30.9320
M107
M106 S240
G01 X131.3527 Y30.9053 Z-7.9875
M107
M106 S240
G01 X131.3496 Y30.8788 Z-7.9750
M107
M106 S240
G01 X131.3444 Y30.8526 Z-7.9625
M107
M106 S240
G01 X131.3371 Y30.8269 Z-7.9500
M107
M106 S240
G01 X131.3279 Y30.8019 Z-7.9375
M107
M106 S240
G01 X131.3167 Y30.7776 Z-7.9250
M107
M106 S240
G01 X131.3037 Y30.7543 Z-7.9125
M107
M106 S240
G01 X131.2888 Y30.7321 Z-7.9000
M107
M106 S240
G01 X131.2723 Y30.7112 Z-7.8875
M107
M106 S240
G01 X131.2542 Y30.6916 Z-7.8750
M107
M106 S240
G01 X131.2346 Y30.6734 Z-7.8625
M107
M106 S240
G01 X131.2136 Y30.6569 Z-7.8500
M107
M106 S240
G01 X131.1914 Y30.6421 Z-7.8375
M107
M106 S240
G01 X131.1681 Y30.6290 Z-7.8250
M107
M106 S240
G01 X131.1439 Y30.6179 Z-7.8125
M107
M106 S240
G01 X131.1188 Y30.6086 Z-7.8000
M107
M106 S240
G01 X131.0932 Y30.6014 Z-7.7875
M107
M106 S240
G01 X131.0670 Y30.5962 Z-7.7750
M107
M106 S240
G01 X131.0405 Y30.5930 Z-7.7625
M107
M106 S240
G01 X131.0138 Y30.5920 Z-7.7500
M107
M106 S240
G01 X130.9871 Y30.5930 Z-7.7375
M107
M106 S240
G01 X130.9606 Y30.5962 Z-7.7250
M107
M106 S240
G01 X130.9344 Y30.6014 Z-7.7125
M107
M106 S240
G01 X130.9087 Y30.6086 Z-7.7000
M107
M106 S240
G01 X130.8837 Y30.6179 Z-7.6875
M107
M106 S240
G01 X130.8594 Y30.6290 Z-7.6750
M107
M106 S240
G01 X130.8362 Y30.6421 Z-7.6625
M107
M106 S240
G01 X130.8140 Y30.6569 Z-7.6500
M107
M106 S240
G01 X130.7930 Y30.6734 Z-7.6375
M107
M106 S240
G01 X130.7734 Y30.6916 Z-7.6250
M107
M106 S240
G01 X130.7553 Y30.7112 Z-7.6125
M107
M106 S240
G01 X130.7387 Y30.7321 Z-7.6000
M107
M106 S240
G01 X130.7239 Y30.7543 Z-7.5875
M107
M106 S240
G01 X130.7109 Y30.7776 Z-7.5750
M107
M106 S240
G01 X130.6997 Y30.8019 Z-7.5625
M107
M106 S240
G01 X130.6905 Y30.8269 Z-7.5500
M107
M106 S240
G01 X130.6832 Y30.8526 Z-7.5375
M107
M106 S240
G01 X130.6780 Y30.8788 Z-7.5250
M107
M106 S240
G01 X130.6749 Y30.9053 Z-7.5125
M107
M106 S240
G01 X130.6738 Y30.9320 Z-7.5000
M107
G00 Z2.0000


;No. 8: Helical drill 15
G00 X167.3204 Y30.7845 Z2.0000
G00 Z0.5000
M106 S240
G01 X167.3193 Y30.7450 Z0.4796 F400
G01 X167.3158 Y30.7056 Z0.4593
G01 X167.3101 Y30.6664 Z0.4389
G01 X167.3021 Y30.6277 Z0.4185
G01 X167.2918 Y30.5895 Z0.3981
G01 X167.2794 Y30.5519 Z0.3778
G01 X167.2648 Y30.5152 Z0.3574
G01 X167.2481 Y30.4793 Z0.3370
G01 X167.2293 Y30.4445 Z0.3167
G01 X167.2086 Y30.4109 Z0.2963
G01 X167.1859 Y30.3785 Z0.2759
G01 X167.1613 Y30.3474 Z0.2556
G01 X167.1350 Y30.3179 Z0.2352
G01 X167.1071 Y30.2899 Z0.2148
G01 X167.0775 Y30.2636 Z0.1944
G01 X167.0465 Y30.2391 Z0.1741
G01 X167.0141 Y30.2164 Z0.1537
G01 X166.9805 Y30.1957 Z0.1333
G01 X166.9456 Y30.1769 Z0.1130
G01 X166.9098 Y30.1602 Z0.0926
G01 X166.8730 Y30.1456 Z0.0722
G01 X166.8355 Y30.1331 Z0.0519
G01 X166.7973 Y30.1229 Z0.0315
G01 X166.7586 Y30.1149 Z0.0111
G01 X166.7194 Y30.1092 Z-0.0093
G01 X166.6800 Y30.1057 Z-0.0296
G01 X166.6405 Y30.1046 Z-0.0500
G01 X166.6010 Y30.1057 Z-0.0704
G01 X166.5616 Y30.1092 Z-0.0907
G01 X166.5224 Y30.1149 Z-0.1111
G01 X166.4837 Y30.1229 Z-0.1315
G01 X166.4455 Y30.1331 Z-0.1519
G01 X166.4079 Y30.1456 Z-0.1722
G01 X166.3712 Y30.1602 Z-0.1926
G01 X166.3353 Y30.1769 Z-0.2130
G01 X166.3005 Y30.1957 Z-0.2333
G01 X166.2669 Y30.2164 Z-0.2537
G01 X166.2345 Y30.2391 Z-0.2741
G01 X166.2035 Y30.2636 Z-0.2944
G01 X166.1739 Y30.2899 Z-0.3148
G01 X166.1459 Y30.3179 Z-0.3352
G01 X166.1196 Y30.3474 Z-0.3556
G01 X166.0951 Y30.3785 Z-0.3759
G01 X166.0724 Y30.4109 Z-0.3963
G01 X166.0517 Y30.4445 Z-0.4167
G01 X166.0329 Y30.4793 Z-0.4370
G01 X166.0162 Y30.5152 Z-0.4574
G01 X166.0016 Y30.5519 Z-0.4778
G01 X165.9891 Y30.5895 Z-0.4981
G01 X165.9789 Y30.6277 Z-0.5185
G01 X165.9709 Y30.6664 Z-0.5389
G01 X165.9652 Y30.7056 Z-0.5593
G01 X165.9617 Y30.7450 Z-0.5796
G01 X165.9606 Y30.7845 Z-0.6000
G01 X165.9617 Y30.8240 Z-0.6204
G01 X165.9652 Y30.8634 Z-0.6407
G01 X165.9709 Y30.9026 Z-0.6611
G01 X165.9789 Y30.9413 Z-0.6815
G01 X165.9891 Y30.9795 Z-0.7019
G01 X166.0016 Y31.0170 Z-0.7222
G01 X166.0162 Y31.0538 Z-0.7426
G01 X166.0329 Y31.0896 Z-0.7630
G01 X166.0517 Y31.1244 Z-0.7833
G01 X166.0724 Y31.1581 Z-0.8037
G01 X166.0951 Y31.1905 Z-0.8241
G01 X166.1196 Y31.2215 Z-0.8444
G01 X166.1459 Y31.2511 Z-0.8648
G01 X166.1739 Y31.2790 Z-0.8852
G01 X166.2035 Y31.3053 Z-0.9056
G01 X166.2345 Y31.3299 Z-0.9259
G01 X166.2669 Y31.3525 Z-0.9463
G01 X166.3005 Y31.3733 Z-0.9667
G01 X166.3353 Y31.3921 Z-0.9870
G01 X166.3712 Y31.4088 Z-1.0074
G01 X166.4079 Y31.4234 Z-1.0278
G01 X166.4455 Y31.4358 Z-1.0481
G01 X166.4837 Y31.4461 Z-1.0685
G01 X166.5224 Y31.4541 Z-1.0889
G01 X166.5616 Y31.4598 Z-1.1093
G01 X166.6010 Y31.4633 Z-1.1296
G01 X166.6405 Y31.4644 Z-1.1500
G01 X166.6800 Y31.4633 Z-1.1704
G01 X166.7194 Y31.4598 Z-1.1907
G01 X166.7586 Y31.4541 Z-1.2111
G01 X166.7973 Y31.4461 Z-1.2315
G01 X166.8355 Y31.4358 Z-1.2519
G01 X166.8730 Y31.4234 Z-1.2722
G01 X166.9098 Y31.4088 Z-1.2926
G01 X166.9456 Y31.3921 Z-1.3130
G01 X166.9805 Y31.3733 Z-1.3333
G01 X167.0141 Y31.3525 Z-1.3537
G01 X167.0465 Y31.3299 Z-1.3741
G01 X167.0775 Y31.3053 Z-1.3944
G01 X167.1071 Y31.2790 Z-1.4148
G01 X167.1350 Y31.2511 Z-1.4352
G01 X167.1613 Y31.2215 Z-1.4556
G01 X167.1859 Y31.1905 Z-1.4759
G01 X167.2086 Y31.1581 Z-1.4963
G01 X167.2293 Y31.1244 Z-1.5167
G01 X167.2481 Y31.0896 Z-1.5370
G01 X167.2648 Y31.0538 Z-1.5574
G01 X167.2794 Y31.0170 Z-1.5778
G01 X167.2918 Y30.9795 Z-1.5981
G01 X167.3021 Y30.9413 Z-1.6185
G01 X167.3101 Y30.9026 Z-1.6389
G01 X167.3158 Y30.8634 Z-1.6593
G01 X167.3193 Y30.8240 Z-1.6796
G01 X167.3204 Y30.7845 Z-1.7000
G01 X167.3193 Y30.7450 Z-1.7204
G01 X167.3158 Y30.7056 Z-1.7407
G01 X167.3101 Y30.6664 Z-1.7611
G01 X167.3021 Y30.6277 Z-1.7815
G01 X167.2918 Y30.5895 Z-1.8019
G01 X167.2794 Y30.5519 Z-1.8222
G01 X167.2648 Y30.5152 Z-1.8426
G01 X167.2481 Y30.4793 Z-1.8630
G01 X167.2293 Y30.4445 Z-1.8833
G01 X167.2086 Y30.4109 Z-1.9037
G01 X167.1859 Y30.3785 Z-1.9241
G01 X167.1613 Y30.3474 Z-1.9444
G01 X167.1350 Y30.3179 Z-1.9648
G01 X167.1071 Y30.2899 Z-1.9852
G01 X167.0775 Y30.2636 Z-2.0056
G01 X167.0465 Y30.2391 Z-2.0259
G01 X167.0141 Y30.2164 Z-2.0463
G01 X166.9805 Y30.1957 Z-2.0667
G01 X166.9456 Y30.1769 Z-2.0870
G01 X166.9098 Y30.1602 Z-2.1074
G01 X166.8730 Y30.1456 Z-2.1278
G01 X166.8355 Y30.1331 Z-2.1481
G01 X166.7973 Y30.1229 Z-2.1685
G01 X166.7586 Y30.1149 Z-2.1889
G01 X166.7194 Y30.1092 Z-2.2093
G01 X166.6800 Y30.1057 Z-2.2296
G01 X166.6405 Y30.1046 Z-2.2500
G01 X166.6010 Y30.1057 Z-2.2704
G01 X166.5616 Y30.1092 Z-2.2907
G01 X166.5224 Y30.1149 Z-2.3111
G01 X166.4837 Y30.1229 Z-2.3315
G01 X166.4455 Y30.1331 Z-2.3519
G01 X166.4079 Y30.1456 Z-2.3722
G01 X166.3712 Y30.1602 Z-2.3926
G01 X166.3353 Y30.1769 Z-2.4130
G01 X166.3005 Y30.1957 Z-2.4333
G01 X166.2669 Y30.2164 Z-2.4537
G01 X166.2345 Y30.2391 Z-2.4741
G01 X166.2035 Y30.2636 Z-2.4944
G01 X166.1739 Y30.2899 Z-2.5148
G01 X166.1459 Y30.3179 Z-2.5352
G01 X166.1196 Y30.3474 Z-2.5556
G01 X166.0951 Y30.3785 Z-2.5759
G01 X166.0724 Y30.4109 Z-2.5963
G01 X166.0517 Y30.4445 Z-2.6167
G01 X166.0329 Y30.4793 Z-2.6370
G01 X166.0162 Y30.5152 Z-2.6574
G01 X166.0016 Y30.5519 Z-2.6778
G01 X165.9891 Y30.5895 Z-2.6981
G01 X165.9789 Y30.6277 Z-2.7185
G01 X165.9709 Y30.6664 Z-2.7389
G01 X165.9652 Y30.7056 Z-2.7593
G01 X165.9617 Y30.7450 Z-2.7796
G01 X165.9606 Y30.7845 Z-2.8000
G01 X165.9617 Y30.8240 Z-2.8204
G01 X165.9652 Y30.8634 Z-2.8407
G01 X165.9709 Y30.9026 Z-2.8611
G01 X165.9789 Y30.9413 Z-2.8815
G01 X165.9891 Y30.9795 Z-2.9019
G01 X166.0016 Y31.0170 Z-2.9222
G01 X166.0162 Y31.0538 Z-2.9426
G01 X166.0329 Y31.0896 Z-2.9630
G01 X166.0517 Y31.1244 Z-2.9833
G01 X166.0724 Y31.1581 Z-3.0037
G01 X166.0951 Y31.1905 Z-3.0241
G01 X166.1196 Y31.2215 Z-3.0444
G01 X166.1459 Y31.2511 Z-3.0648
G01 X166.1739 Y31.2790 Z-3.0852
G01 X166.2035 Y31.3053 Z-3.1056
G01 X166.2345 Y31.3299 Z-3.1259
G01 X166.2669 Y31.3525 Z-3.1463
G01 X166.3005 Y31.3733 Z-3.1667
G01 X166.3353 Y31.3921 Z-3.1870
G01 X166.3712 Y31.4088 Z-3.2074
G01 X166.4079 Y31.4234 Z-3.2278
G01 X166.4455 Y31.4358 Z-3.2481
G01 X166.4837 Y31.4461 Z-3.2685
G01 X166.5224 Y31.4541 Z-3.2889
G01 X166.5616 Y31.4598 Z-3.3093
G01 X166.6010 Y31.4633 Z-3.3296
G01 X166.6405 Y31.4644 Z-3.3500
G01 X166.6800 Y31.4633 Z-3.3704
G01 X166.7194 Y31.4598 Z-3.3907
G01 X166.7586 Y31.4541 Z-3.4111
G01 X166.7973 Y31.4461 Z-3.4315
G01 X166.8355 Y31.4358 Z-3.4519
G01 X166.8730 Y31.4234 Z-3.4722
G01 X166.9098 Y31.4088 Z-3.4926
G01 X166.9456 Y31.3921 Z-3.5130
G01 X166.9805 Y31.3733 Z-3.5333
G01 X167.0141 Y31.3525 Z-3.5537
G01 X167.0465 Y31.3299 Z-3.5741
G01 X167.0775 Y31.3053 Z-3.5944
G01 X167.1071 Y31.2790 Z-3.6148
G01 X167.1350 Y31.2511 Z-3.6352
G01 X167.1613 Y31.2215 Z-3.6556
G01 X167.1859 Y31.1905 Z-3.6759
G01 X167.2086 Y31.1581 Z-3.6963
G01 X167.2293 Y31.1244 Z-3.7167
G01 X167.2481 Y31.0896 Z-3.7370
G01 X167.2648 Y31.0538 Z-3.7574
G01 X167.2794 Y31.0170 Z-3.7778
G01 X167.2918 Y30.9795 Z-3.7981
G01 X167.3021 Y30.9413 Z-3.8185
G01 X167.3101 Y30.9026 Z-3.8389
G01 X167.3158 Y30.8634 Z-3.8593
G01 X167.3193 Y30.8240 Z-3.8796
G01 X167.3204 Y30.7845 Z-3.9000
G01 X167.3193 Y30.7450 Z-3.9204
G01 X167.3158 Y30.7056 Z-3.9407
G01 X167.3101 Y30.6664 Z-3.9611
G01 X167.3021 Y30.6277 Z-3.9815
G01 X167.2918 Y30.5895 Z-4.0019
G01 X167.2794 Y30.5519 Z-4.0222
G01 X167.2648 Y30.5152 Z-4.0426
G01 X167.2481 Y30.4793 Z-4.0630
G01 X167.2293 Y30.4445 Z-4.0833
G01 X167.2086 Y30.4109 Z-4.1037
G01 X167.1859 Y30.3785 Z-4.1241
G01 X167.1613 Y30.3474 Z-4.1444
G01 X167.1350 Y30.3179 Z-4.1648
G01 X167.1071 Y30.2899 Z-4.1852
G01 X167.0775 Y30.2636 Z-4.2056
G01 X167.0465 Y30.2391 Z-4.2259
G01 X167.0141 Y30.2164 Z-4.2463
G01 X166.9805 Y30.1957 Z-4.2667
G01 X166.9456 Y30.1769 Z-4.2870
G01 X166.9098 Y30.1602 Z-4.3074
G01 X166.8730 Y30.1456 Z-4.3278
G01 X166.8355 Y30.1331 Z-4.3481
G01 X166.7973 Y30.1229 Z-4.3685
G01 X166.7586 Y30.1149 Z-4.3889
G01 X166.7194 Y30.1092 Z-4.4093
G01 X166.6800 Y30.1057 Z-4.4296
G01 X166.6405 Y30.1046 Z-4.4500
G01 X166.6010 Y30.1057 Z-4.4704
G01 X166.5616 Y30.1092 Z-4.4907
G01 X166.5224 Y30.1149 Z-4.5111
G01 X166.4837 Y30.1229 Z-4.5315
G01 X166.4455 Y30.1331 Z-4.5519
G01 X166.4079 Y30.1456 Z-4.5722
G01 X166.3712 Y30.1602 Z-4.5926
G01 X166.3353 Y30.1769 Z-4.6130
G01 X166.3005 Y30.1957 Z-4.6333
G01 X166.2669 Y30.2164 Z-4.6537
G01 X166.2345 Y30.2391 Z-4.6741
G01 X166.2035 Y30.2636 Z-4.6944
G01 X166.1739 Y30.2899 Z-4.7148
G01 X166.1459 Y30.3179 Z-4.7352
G01 X166.1196 Y30.3474 Z-4.7556
G01 X166.0951 Y30.3785 Z-4.7759
G01 X166.0724 Y30.4109 Z-4.7963
G01 X166.0517 Y30.4445 Z-4.8167
G01 X166.0329 Y30.4793 Z-4.8370
G01 X166.0162 Y30.5152 Z-4.8574
G01 X166.0016 Y30.5519 Z-4.8778
G01 X165.9891 Y30.5895 Z-4.8981
G01 X165.9789 Y30.6277 Z-4.9185
G01 X165.9709 Y30.6664 Z-4.9389
G01 X165.9652 Y30.7056 Z-4.9593
G01 X165.9617 Y30.7450 Z-4.9796
G01 X165.9606 Y30.7845 Z-5.0000
G01 X165.9617 Y30.8240 Z-5.0204
G01 X165.9652 Y30.8634 Z-5.0407
G01 X165.9709 Y30.9026 Z-5.0611
G01 X165.9789 Y30.9413 Z-5.0815
G01 X165.9891 Y30.9795 Z-5.1019
G01 X166.0016 Y31.0170 Z-5.1222
G01 X166.0162 Y31.0538 Z-5.1426
G01 X166.0329 Y31.0896 Z-5.1630
G01 X166.0517 Y31.1244 Z-5.1833
G01 X166.0724 Y31.1581 Z-5.2037
G01 X166.0951 Y31.1905 Z-5.2241
G01 X166.1196 Y31.2215 Z-5.2444
G01 X166.1459 Y31.2511 Z-5.2648
G01 X166.1739 Y31.2790 Z-5.2852
G01 X166.2035 Y31.3053 Z-5.3056
G01 X166.2345 Y31.3299 Z-5.3259
G01 X166.2669 Y31.3525 Z-5.3463
G01 X166.3005 Y31.3733 Z-5.3667
G01 X166.3353 Y31.3921 Z-5.3870
G01 X166.3712 Y31.4088 Z-5.4074
G01 X166.4079 Y31.4234 Z-5.4278
G01 X166.4455 Y31.4358 Z-5.4481
G01 X166.4837 Y31.4461 Z-5.4685
G01 X166.5224 Y31.4541 Z-5.4889
G01 X166.5616 Y31.4598 Z-5.5093
G01 X166.6010 Y31.4633 Z-5.5296
G01 X166.6405 Y31.4644 Z-5.5500
G01 X166.6800 Y31.4633 Z-5.5704
G01 X166.7194 Y31.4598 Z-5.5907
G01 X166.7586 Y31.4541 Z-5.6111
G01 X166.7973 Y31.4461 Z-5.6315
G01 X166.8355 Y31.4358 Z-5.6519
G01 X166.8730 Y31.4234 Z-5.6722
G01 X166.9098 Y31.4088 Z-5.6926
G01 X166.9456 Y31.3921 Z-5.7130
G01 X166.9805 Y31.3733 Z-5.7333
G01 X167.0141 Y31.3525 Z-5.7537
G01 X167.0465 Y31.3299 Z-5.7741
G01 X167.0775 Y31.3053 Z-5.7944
G01 X167.1071 Y31.2790 Z-5.8148
G01 X167.1350 Y31.2511 Z-5.8352
G01 X167.1613 Y31.2215 Z-5.8556
G01 X167.1859 Y31.1905 Z-5.8759
G01 X167.2086 Y31.1581 Z-5.8963
G01 X167.2293 Y31.1244 Z-5.9167
G01 X167.2481 Y31.0896 Z-5.9370
G01 X167.2648 Y31.0538 Z-5.9574
G01 X167.2794 Y31.0170 Z-5.9778
G01 X167.2918 Y30.9795 Z-5.9981
G01 X167.3021 Y30.9413 Z-6.0185
G01 X167.3101 Y30.9026 Z-6.0389
G01 X167.3158 Y30.8634 Z-6.0593
G01 X167.3193 Y30.8240 Z-6.0796
G01 X167.3204 Y30.7845 Z-6.1000
G01 X167.3193 Y30.7450 Z-6.1176
G01 X167.3158 Y30.7056 Z-6.1352
G01 X167.3101 Y30.6664 Z-6.1528
G01 X167.3021 Y30.6277 Z-6.1704
G01 X167.2918 Y30.5895 Z-6.1880
G01 X167.2794 Y30.5519 Z-6.2056
G01 X167.2648 Y30.5152 Z-6.2231
G01 X167.2481 Y30.4793 Z-6.2407
G01 X167.2293 Y30.4445 Z-6.2583
G01 X167.2086 Y30.4109 Z-6.2759
G01 X167.1859 Y30.3785 Z-6.2935
G01 X167.1613 Y30.3474 Z-6.3111
G01 X167.1350 Y30.3179 Z-6.3287
G01 X167.1071 Y30.2899 Z-6.3463
G01 X167.0775 Y30.2636 Z-6.3639
G01 X167.0465 Y30.2391 Z-6.3815
G01 X167.0141 Y30.2164 Z-6.3991
G01 X166.9805 Y30.1957 Z-6.4167
G01 X166.9456 Y30.1769 Z-6.4343
G01 X166.9098 Y30.1602 Z-6.4519
G01 X166.8730 Y30.1456 Z-6.4694
G01 X166.8355 Y30.1331 Z-6.4870
G01 X166.7973 Y30.1229 Z-6.5046
G01 X166.7586 Y30.1149 Z-6.5222
G01 X166.7194 Y30.1092 Z-6.5398
G01 X166.6800 Y30.1057 Z-6.5574
G01 X166.6405 Y30.1046 Z-6.5750
G01 X166.6010 Y30.1057 Z-6.5926
G01 X166.5616 Y30.1092 Z-6.6102
G01 X166.5224 Y30.1149 Z-6.6278
G01 X166.4837 Y30.1229 Z-6.6454
G01 X166.4455 Y30.1331 Z-6.6630
G01 X166.4079 Y30.1456 Z-6.6806
G01 X166.3712 Y30.1602 Z-6.6981
G01 X166.3353 Y30.1769 Z-6.7157
G01 X166.3005 Y30.1957 Z-6.7333
G01 X166.2669 Y30.2164 Z-6.7509
G01 X166.2345 Y30.2391 Z-6.7685
G01 X166.2035 Y30.2636 Z-6.7861
G01 X166.1739 Y30.2899 Z-6.8037
G01 X166.1459 Y30.3179 Z-6.8213
G01 X166.1196 Y30.3474 Z-6.8389
G01 X166.0951 Y30.3785 Z-6.8565
G01 X166.0724 Y30.4109 Z-6.8741
G01 X166.0517 Y30.4445 Z-6.8917
G01 X166.0329 Y30.4793 Z-6.9093
G01 X166.0162 Y30.5152 Z-6.9269
G01 X166.0016 Y30.5519 Z-6.9444
G01 X165.9891 Y30.5895 Z-6.9620
G01 X165.9789 Y30.6277 Z-6.9796
G01 X165.9709 Y30.6664 Z-6.9972
G01 X165.9652 Y30.7056 Z-7.0148
G01 X165.9617 Y30.7450 Z-7.0324
G01 X165.9606 Y30.7845 Z-7.0500
G01 X165.9617 Y30.8240 Z-7.0676
G01 X165.9652 Y30.8634 Z-7.0852
G01 X165.9709 Y30.9026 Z-7.1028
G01 X165.9789 Y30.9413 Z-7.1204
G01 X165.9891 Y30.9795 Z-7.1380
G01 X166.0016 Y31.0170 Z-7.1556
G01 X166.0162 Y31.0538 Z-7.1731
G01 X166.0329 Y31.0896 Z-7.1907
G01 X166.0517 Y31.1244 Z-7.2083
G01 X166.0724 Y31.1581 Z-7.2259
G01 X166.0951 Y31.1905 Z-7.2435
G01 X166.1196 Y31.2215 Z-7.2611
G01 X166.1459 Y31.2511 Z-7.2787
G01 X166.1739 Y31.2790 Z-7.2963
G01 X166.2035 Y31.3053 Z-7.3139
G01 X166.2345 Y31.3299 Z-7.3315
G01 X166.2669 Y31.3525 Z-7.3491
G01 X166.3005 Y31.3733 Z-7.3667
G01 X166.3353 Y31.3921 Z-7.3843
G01 X166.3712 Y31.4088 Z-7.4019
G01 X166.4079 Y31.4234 Z-7.4194
G01 X166.4455 Y31.4358 Z-7.4370
G01 X166.4837 Y31.4461 Z-7.4546
G01 X166.5224 Y31.4541 Z-7.4722
G01 X166.5616 Y31.4598 Z-7.4898
G01 X166.6010 Y31.4633 Z-7.5074
G01 X166.6405 Y31.4644 Z-7.5250
G01 X166.6800 Y31.4633 Z-7.5426
G01 X166.7194 Y31.4598 Z-7.5602
G01 X166.7586 Y31.4541 Z-7.5778
G01 X166.7973 Y31.4461 Z-7.5954
G01 X166.8355 Y31.4358 Z-7.6130
G01 X166.8730 Y31.4234 Z-7.6306
G01 X166.9098 Y31.4088 Z-7.6481
G01 X166.9456 Y31.3921 Z-7.6657
G01 X166.9805 Y31.3733 Z-7.6833
G01 X167.0141 Y31.3525 Z-7.7009
G01 X167.0465 Y31.3299 Z-7.7185
G01 X167.0775 Y31.3053 Z-7.7361
G01 X167.1071 Y31.2790 Z-7.7537
G01 X167.1350 Y31.2511 Z-7.7713
G01 X167.1613 Y31.2215 Z-7.7889
G01 X167.1859 Y31.1905 Z-7.8065
G01 X167.2086 Y31.1581 Z-7.8241
G01 X167.2293 Y31.1244 Z-7.8417
G01 X167.2481 Y31.0896 Z-7.8593
G01 X167.2648 Y31.0538 Z-7.8769
G01 X167.2794 Y31.0170 Z-7.8944
G01 X167.2918 Y30.9795 Z-7.9120
G01 X167.3021 Y30.9413 Z-7.9296
G01 X167.3101 Y30.9026 Z-7.9472
G01 X167.3158 Y30.8634 Z-7.9648
G01 X167.3193 Y30.8240 Z-7.9824
G01 X167.3204 Y30.7845 Z-8.0000
G01 X167.3193 Y30.7450
G01 X167.3158 Y30.7056
G01 X167.3101 Y30.6664
G01 X167.3021 Y30.6277
G01 X167.2918 Y30.5895
G01 X167.2794 Y30.5519
G01 X167.2648 Y30.5152
G01 X167.2481 Y30.4793
G01 X167.2293 Y30.4445
G01 X167.2086 Y30.4109
G01 X167.1859 Y30.3785
G01 X167.1613 Y30.3474
G01 X167.1350 Y30.3179
G01 X167.1071 Y30.2899
G01 X167.0775 Y30.2636
G01 X167.0465 Y30.2391
G01 X167.0141 Y30.2164
G01 X166.9805 Y30.1957
G01 X166.9456 Y30.1769
G01 X166.9098 Y30.1602
G01 X166.8730 Y30.1456
G01 X166.8355 Y30.1331
G01 X166.7973 Y30.1229
G01 X166.7586 Y30.1149
G01 X166.7194 Y30.1092
G01 X166.6800 Y30.1057
G01 X166.6405 Y30.1046
G01 X166.6010 Y30.1057
G01 X166.5616 Y30.1092
G01 X166.5224 Y30.1149
G01 X166.4837 Y30.1229
G01 X166.4455 Y30.1331
G01 X166.4079 Y30.1456
G01 X166.3712 Y30.1602
G01 X166.3353 Y30.1769
G01 X166.3005 Y30.1957
G01 X166.2669 Y30.2164
G01 X166.2345 Y30.2391
G01 X166.2035 Y30.2636
G01 X166.1739 Y30.2899
G01 X166.1459 Y30.3179
G01 X166.1196 Y30.3474
G01 X166.0951 Y30.3785
G01 X166.0724 Y30.4109
G01 X166.0517 Y30.4445
G01 X166.0329 Y30.4793
G01 X166.0162 Y30.5152
G01 X166.0016 Y30.5519
G01 X165.9891 Y30.5895
G01 X165.9789 Y30.6277
G01 X165.9709 Y30.6664
G01 X165.9652 Y30.7056
G01 X165.9617 Y30.7450
G01 X165.9606 Y30.7845
G01 X165.9617 Y30.8240
G01 X165.9652 Y30.8634
G01 X165.9709 Y30.9026
G01 X165.9789 Y30.9413
G01 X165.9891 Y30.9795
G01 X166.0016 Y31.0170
G01 X166.0162 Y31.0538
G01 X166.0329 Y31.0896
G01 X166.0517 Y31.1244
G01 X166.0724 Y31.1581
G01 X166.0951 Y31.1905
G01 X166.1196 Y31.2215
G01 X166.1459 Y31.2511
G01 X166.1739 Y31.2790
G01 X166.2035 Y31.3053
G01 X166.2345 Y31.3299
G01 X166.2669 Y31.3525
G01 X166.3005 Y31.3733
G01 X166.3353 Y31.3921
G01 X166.3712 Y31.4088
G01 X166.4079 Y31.4234
G01 X166.4455 Y31.4358
G01 X166.4837 Y31.4461
G01 X166.5224 Y31.4541
G01 X166.5616 Y31.4598
G01 X166.6010 Y31.4633
G01 X166.6405 Y31.4644
G01 X166.6800 Y31.4633
G01 X166.7194 Y31.4598
G01 X166.7586 Y31.4541
G01 X166.7973 Y31.4461
G01 X166.8355 Y31.4358
G01 X166.8730 Y31.4234
G01 X166.9098 Y31.4088
G01 X166.9456 Y31.3921
G01 X166.9805 Y31.3733
G01 X167.0141 Y31.3525
G01 X167.0465 Y31.3299
G01 X167.0775 Y31.3053
G01 X167.1071 Y31.2790
G01 X167.1350 Y31.2511
G01 X167.1613 Y31.2215
G01 X167.1859 Y31.1905
G01 X167.2086 Y31.1581
G01 X167.2293 Y31.1244
G01 X167.2481 Y31.0896
G01 X167.2648 Y31.0538
G01 X167.2794 Y31.0170
G01 X167.2918 Y30.9795
G01 X167.3021 Y30.9413
G01 X167.3101 Y30.9026
G01 X167.3158 Y30.8634
G01 X167.3193 Y30.8240
G01 X167.3204 Y30.7845
M107
M106 S240
G01 X167.3194 Y30.7578 Z-7.9875
M107
M106 S240
G01 X167.3162 Y30.7313 Z-7.9750
M107
M106 S240
G01 X167.3110 Y30.7051 Z-7.9625
M107
M106 S240
G01 X167.3038 Y30.6794 Z-7.9500
M107
M106 S240
G01 X167.2945 Y30.6544 Z-7.9375
M107
M106 S240
G01 X167.2834 Y30.6301 Z-7.9250
M107
M106 S240
G01 X167.2703 Y30.6069 Z-7.9125
M107
M106 S240
G01 X167.2555 Y30.5847 Z-7.9000
M107
M106 S240
G01 X167.2390 Y30.5637 Z-7.8875
M107
M106 S240
G01 X167.2208 Y30.5441 Z-7.8750
M107
M106 S240
G01 X167.2012 Y30.5260 Z-7.8625
M107
M106 S240
G01 X167.1803 Y30.5095 Z-7.8500
M107
M106 S240
G01 X167.1581 Y30.4946 Z-7.8375
M107
M106 S240
G01 X167.1348 Y30.4816 Z-7.8250
M107
M106 S240
G01 X167.1105 Y30.4704 Z-7.8125
M107
M106 S240
G01 X167.0855 Y30.4612 Z-7.8000
M107
M106 S240
G01 X167.0598 Y30.4539 Z-7.7875
M107
M106 S240
G01 X167.0336 Y30.4487 Z-7.7750
M107
M106 S240
G01 X167.0071 Y30.4456 Z-7.7625
M107
M106 S240
G01 X166.9805 Y30.4445 Z-7.7500
M107
M106 S240
G01 X166.9538 Y30.4456 Z-7.7375
M107
M106 S240
G01 X166.9273 Y30.4487 Z-7.7250
M107
M106 S240
G01 X166.9011 Y30.4539 Z-7.7125
M107
M106 S240
G01 X166.8754 Y30.4612 Z-7.7000
M107
M106 S240
G01 X166.8504 Y30.4704 Z-7.6875
M107
M106 S240
G01 X166.8261 Y30.4816 Z-7.6750
M107
M106 S240
G01 X166.8028 Y30.4946 Z-7.6625
M107
M106 S240
G01 X166.7806 Y30.5095 Z-7.6500
M107
M106 S240
G01 X166.7597 Y30.5260 Z-7.6375
M107
M106 S240
G01 X166.7401 Y30.5441 Z-7.6250
M107
M106 S240
G01 X166.7219 Y30.5637 Z-7.6125
M107
M106 S240
G01 X166.7054 Y30.5847 Z-7.6000
M107
M106 S240
G01 X166.6906 Y30.6069 Z-7.5875
M107
M106 S240
G01 X166.6775 Y30.6301 Z-7.5750
M107
M106 S240
G01 X166.6664 Y30.6544 Z-7.5625
M107
M106 S240
G01 X166.6571 Y30.6794 Z-7.5500
M107
M106 S240
G01 X166.6499 Y30.7051 Z-7.5375
M107
M106 S240
G01 X166.6447 Y30.7313 Z-7.5250
M107
M106 S240
G01 X166.6415 Y30.7578 Z-7.5125
M107
M106 S240
G01 X166.6405 Y30.7845 Z-7.5000
M107
G00 Z2.0000


;No. 9: Hole 104
G00 X185.1151 Y38.5137 Z2.0000
G00 Z0.5000
G01 Z-2.2000 F400
M106 S240
G01 X198.9161 F1000
G01 X186.3137
G01 Y39.8337
G01 X185.1151
G01 Y41.1537
G01 X186.2170
G01 Y42.4737
G01 X185.1151
G01 Y43.7937
G01 X186.2170
M107
G00 Z2.0000
G00 X197.7187 Y38.5137
G00 Z0.5000
G01 Z-2.2000 F400
M106 S240
G01 Y39.8337 F1000
G01 X198.9161
G01 Y41.1537
G01 X197.8142
G01 Y42.4737
G01 X198.9161
G01 Y43.7937
G01 X197.8142
M107
G00 Z2.0000
G00 Z0.5000
G01 Z-2.2000 F400
M106 S240
G01 X197.6142 F1000
G01 Y44.7887
G01 X199.1161
G01 Y37.5188
G01 X184.9151
G01 Y44.7887
G01 X186.4170
G01 Y40.3226
G01 X186.4195 Y40.2319
G01 X186.4239 Y40.1852
G01 X186.4305 Y40.1388
G01 X186.4392 Y40.0927
G01 X186.4501 Y40.0472
G01 X186.4632 Y40.0021
G01 X186.4783 Y39.9578
G01 X186.4955 Y39.9142
G01 X186.5147 Y39.8714
G01 X186.5359 Y39.8296
G01 X186.5590 Y39.7888
G01 X186.5840 Y39.7492
G01 X186.6109 Y39.7108
G01 X186.6395 Y39.6737
G01 X186.6698 Y39.6379
G01 X186.7018 Y39.6036
G01 X186.7353 Y39.5709
G01 X186.7704 Y39.5398
G01 X186.8068 Y39.5103
G01 X186.8446 Y39.4826
G01 X186.8837 Y39.4567
G01 X186.9239 Y39.4326
G01 X186.9652 Y39.4105
G01 X187.0075 Y39.3903
G01 X187.0507 Y39.3721
G01 X187.0947 Y39.3559
G01 X187.1394 Y39.3419
G01 X187.1847 Y39.3299
G01 X187.2306 Y39.3201
G01 X187.2768 Y39.3125
G01 X187.3234 Y39.3070
G01 X187.3701 Y39.3037
G01 X187.4170 Y39.3026
G01 X196.5942
G01 X196.6936 Y39.3056
G01 X196.7921 Y39.3184
G01 X196.8889 Y39.3410
G01 X196.9830 Y39.3730
G01 X197.0734 Y39.4142
G01 X197.1593 Y39.4642
G01 X197.2399 Y39.5225
G01 X197.3142 Y39.5884
G01 X197.3816 Y39.6614
G01 X197.4415 Y39.7408
G01 X197.4931 Y39.8257
G01 X197.5361 Y39.9153
G01 X197.5700 Y40.0087
G01 X197.5945 Y40.1050
G01 X197.6093 Y40.2033
G01 X197.6142 Y40.3026
G01 Y43.7937
G01 X197.8142
M107
G00 Z2.0000


;No. 10: Hole 103
G00 X198.4542 Y49.3835 Z2.0000
G00 Z0.5000
G01 Z-2.2000 F400
M106 S240
G01 X185.5632 F1000
M107
G00 Z2.0000
G00 Z0.5000
G01 Z-2.2000 F400
M106 S240
G01 X185.4028 Y49.2648 F1000
G01 X185.3229 Y49.3759
G01 X185.2497 Y49.4914
G01 X185.1834 Y49.6110
G01 X185.1242 Y49.7343
G01 X185.0723 Y49.8609
G01 X185.0278 Y49.9903
G01 X184.9910 Y50.1220
G01 X184.9620 Y50.2557
G01 X184.9751 Y50.2748
G01 X199.0562 Y50.2747
G01 X199.0697 Y50.2594
G01 X199.0429 Y50.1180
G01 X199.0064 Y49.9787
G01 X198.9604 Y49.8424
G01 X198.9051 Y49.7095
G01 X198.8408 Y49.5807
G01 X198.7677 Y49.4567
G01 X198.6863 Y49.3380
G01 X198.5969 Y49.2252
G01 X198.4999 Y49.1189
G01 X198.3958 Y49.0195
G01 X198.2852 Y48.9275
G01 X198.1684 Y48.8433
G01 X198.0461 Y48.7674
G01 X197.9189 Y48.7002
G01 X197.7873 Y48.6418
G01 X197.6520 Y48.5927
G01 X197.5137 Y48.5530
G01 X197.3729 Y48.5229
G01 X197.2304 Y48.5026
G01 X197.0869 Y48.4922
G01 X186.9559
G01 X186.8433 Y48.4938
G01 X186.7310 Y48.5021
G01 X186.6194 Y48.5171
G01 X186.5088 Y48.5387
G01 X186.3998 Y48.5669
G01 X186.2926 Y48.6015
G01 X186.1877 Y48.6424
G01 X186.0854 Y48.6896
G01 X185.9861 Y48.7427
G01 X185.8901 Y48.8017
G01 X185.7979 Y48.8663
G01 X185.7096 Y48.9363
G01 X185.6257 Y49.0114
G01 X185.5464 Y49.0914
G01 X185.4720 Y49.1759
G01 X185.4028 Y49.2648
G01 X185.5632 Y49.3835
M107
G00 Z2.0000


;No. 11: Hole 102
G00 X205.4342 Y37.9568 Z2.0000
G00 Z0.5000
G01 Z-2.2000 F400
M106 S240
G01 X206.5360 F1000
G01 Y39.2768
G01 X205.4342
G01 Y40.5968
G01 X206.5360
G01 Y41.9168
G01 X205.4342
G01 Y43.2368
G01 X206.5360
G01 X206.6665 Y44.5568
G01 X205.4342
G01 Y45.8768
G01 X209.5469
G01 X208.8701 Y44.5568
G01 X210.7692
G01 X210.0920 Y43.2368
G01 X211.9914
G01 X211.3139 Y41.9168
G01 X213.2137
G01 X212.5357 Y40.5968
G01 X216.6956
G01 Y39.2768
G01 X213.7576
G01 X214.9794 Y37.9568
G01 X216.6956
M107
G00 Z2.0000
G00 Y40.5968
G00 Z0.5000
G01 Z-2.2000 F400
M106 S240
G01 Y41.9168 F1000
G01 X215.4871
G01 X215.5937 Y43.2368
G01 X216.6956
G01 Y44.5568
G01 X215.5937
G01 Y45.8768
G01 X216.6956
G01 Y47.1968
G01 X215.5937
G01 Y48.5168
G01 X216.6956
G01 Y49.8368
G01 X215.5937
M107
G00 Z2.0000
G00 X208.3246 Y45.8768
G00 Z0.5000
G01 Z-2.2000 F400
M106 S240
G01 Y47.1968 F1000
G01 X205.4342
G01 X205.1938 Y48.5168
G01 X207.1024
G01 X205.8801 Y49.8368
G01 X203.9806
M107
G00 Z2.0000
G00 Z0.5000
G01 Z-2.2000 F400
M106 S240
G01 X203.8338 Y49.7009 F1000
G01 X203.3025 Y50.2748
G01 X205.7492 Y50.2725
G01 X213.6464 Y41.7439
G01 X213.7064 Y41.6820
G01 X213.7716 Y41.6255
G01 X213.8413 Y41.5749
G01 X213.9152 Y41.5304
G01 X213.9926 Y41.4925
G01 X214.0730 Y41.4614
G01 X214.1558 Y41.4373
G01 X214.2403 Y41.4204
G01 X214.3260 Y41.4109
G01 X214.4122 Y41.4088
G01 X214.4982 Y41.4141
G01 X214.5835 Y41.4268
G01 X214.6674 Y41.4468
G01 X214.7492 Y41.4740
G01 X214.8284 Y41.5081
G01 X214.9043 Y41.5488
G01 X214.9765 Y41.5960
G01 X215.0443 Y41.6492
G01 X215.1073 Y41.7081
G01 X215.1650 Y41.7722
G01 X215.2169 Y41.8410
G01 X215.2628 Y41.9140
G01 X215.3022 Y41.9907
G01 X215.3348 Y42.0705
G01 X215.3604 Y42.1528
G01 X215.3789 Y42.2370
G01 X215.3900 Y42.3225
G01 X215.3937 Y42.4086
G01 Y50.2748
G01 X216.8956
G01 Y37.5188
G01 X215.1103 Y37.5210
G01 X208.4835 Y44.6801
G01 X208.4235 Y44.7420
G01 X208.3583 Y44.7985
G01 X208.2886 Y44.8491
G01 X208.2147 Y44.8936
G01 X208.1373 Y44.9316
G01 X208.0569 Y44.9627
G01 X207.9741 Y44.9868
G01 X207.8896 Y45.0037
G01 X207.8039 Y45.0132
G01 X207.7177 Y45.0153
G01 X207.6316 Y45.0100
G01 X207.5463 Y44.9973
G01 X207.4625 Y44.9773
G01 X207.3806 Y44.9502
G01 X207.3015 Y44.9161
G01 X207.2255 Y44.8753
G01 X207.1533 Y44.8281
G01 X207.0855 Y44.7749
G01 X207.0225 Y44.7160
G01 X206.9648 Y44.6520
G01 X206.9128 Y44.5832
G01 X206.8670 Y44.5101
G01 X206.8276 Y44.4334
G01 X206.7950 Y44.3536
G01 X206.7693 Y44.2713
G01 X206.7509 Y44.1871
G01 X206.7398 Y44.1016
G01 X206.7360 Y44.0155
G01 Y37.5188
G01 X205.2342
G01 Y47.7765
G01 X205.2314 Y47.8723
G01 X205.2196 Y47.9674
G01 X205.1986 Y48.0609
G01 X205.1689 Y48.1520
G01 X205.1305 Y48.2398
G01 X205.0840 Y48.3236
G01 X205.0296 Y48.4025
G01 X204.9680 Y48.4759
G01 X203.8338 Y49.7009
G01 X203.9806 Y49.8368
M107
G00 Z2.0000


;No. 12: Hole 101
G00 X220.6729 Y37.9568 Z2.0000
G00 Z0.5000
G01 Z-2.2000 F400
M106 S240
G01 X233.4984 F1000
G01 X222.3561
G01 Y39.2768
G01 X220.6729
G01 Y40.5968
G01 X221.7760
G01 Y41.9168
G01 X220.6729
G01 Y43.2368
G01 X221.7760
G01 Y44.5568
G01 X220.6729
G01 Y45.8768
G01 X221.7760
G01 Y47.1968
G01 X220.6729
G01 Y48.5168
G01 X221.7760
G01 Y49.8368
G01 X220.6729
M107
G00 Z2.0000
G00 Z0.5000
G01 Z-2.2000 F400
M106 S240
G01 X220.4729 F1000
G01 Y50.2748
G01 X221.9760
G01 Y40.3226
G01 X221.9785 Y40.2319
G01 X221.9895 Y40.1388
G01 X222.0091 Y40.0472
G01 X222.0373 Y39.9578
G01 X222.0737 Y39.8714
G01 X222.1180 Y39.7888
G01 X222.1699 Y39.7108
G01 X222.2288 Y39.6379
G01 X222.2943 Y39.5709
G01 X222.3658 Y39.5103
G01 X222.4427 Y39.4567
G01 X222.5242 Y39.4105
G01 X222.6097 Y39.3721
G01 X222.6984 Y39.3419
G01 X222.7896 Y39.3201
G01 X222.8824 Y39.3070
G01 X222.9760 Y39.3026
G01 X234.6151
G01 X234.6283 Y39.2865
G01 X234.6011 Y39.1453
G01 X234.5643 Y39.0063
G01 X234.5180 Y38.8701
G01 X234.4625 Y38.7374
G01 X234.3980 Y38.6088
G01 X234.3249 Y38.4850
G01 X234.2434 Y38.3665
G01 X234.1540 Y38.2538
G01 X234.0570 Y38.1476
G01 X233.9530 Y38.0482
G01 X233.8425 Y37.9563
G01 X233.7258 Y37.8721
G01 X233.6037 Y37.7961
G01 X233.4767 Y37.7287
G01 X233.3453 Y37.6702
G01 X233.2102 Y37.6208
G01 X233.0721 Y37.5808
G01 X232.9315 Y37.5504
G01 X232.7892 Y37.5297
G01 X232.6457 Y37.5188
G01 X220.4729
G01 Y49.8368
G01 X220.6729
M107
G00 Z2.0000


;No. 13: Hole 100
G00 X244.8019 Y37.9568 Z2.0000
G00 Z0.5000
G01 Z-2.2000 F400
M106 S240
G01 X245.9038 F1000
G01 Y39.2768
G01 X244.8019
G01 Y40.5968
G01 X245.9038
G01 X246.3744 Y41.9168
G01 X244.3315
G01 X243.1112 Y43.2368
G01 X247.5965
G01 X243.7878
G01 Y44.5568
G01 X241.8910
G01 X242.5657 Y45.8768
G01 X240.6708
G01 X241.3436 Y47.1968
G01 X239.4505
G01 X240.1215 Y48.5168
G01 X238.4524
G01 Y49.8368
G01 X239.5542
M107
G00 Z2.0000
G00 X246.9190 Y43.2368
G00 Z0.5000
G01 Z-2.2000 F400
M106 S240
G01 Y44.5568 F1000
G01 X248.8186
G01 X248.1407 Y45.8768
G01 X250.0407
G01 X249.3625 Y47.1968
G01 X251.2627
G01 X250.5842 Y48.5168
G01 X252.2533
G01 Y49.8368
G01 X251.1515
M107
G00 Z2.0000
G00 Z0.5000
G01 Z-2.2000 F400
M106 S240
G01 X250.9515 F1000
G01 Y50.2748
G01 X252.4533
G01 Y48.1965
G01 X252.4478 Y48.1824
G01 X246.3836 Y41.6323
G01 X246.3205 Y41.5601
G01 X246.2646 Y41.4823
G01 X246.2164 Y41.3994
G01 X246.1764 Y41.3124
G01 X246.1449 Y41.2219
G01 X246.1221 Y41.1288
G01 X246.1084 Y41.0339
G01 X246.1038 Y40.9382
G01 Y37.5188
G01 X244.6019
G01 Y40.9182
G01 X244.5992 Y41.0140
G01 X244.5873 Y41.1091
G01 X244.5664 Y41.2026
G01 X244.5366 Y41.2937
G01 X244.4983 Y41.3815
G01 X244.4517 Y41.4653
G01 X244.3974 Y41.5442
G01 X244.3357 Y41.6176
G01 X238.2524 Y48.1965
G01 Y50.2748
G01 X239.7542
G01 Y49.6198
G01 X239.7553 Y49.5529
G01 X239.7632 Y49.4658
G01 X239.7787 Y49.3797
G01 X239.8017 Y49.2953
G01 X239.8320 Y49.2132
G01 X239.8693 Y49.1341
G01 X239.9133 Y49.0585
G01 X239.9639 Y48.9871
G01 X240.0204 Y48.9204
G01 X244.6061 Y43.9673
G01 X244.6641 Y43.9074
G01 X244.7268 Y43.8525
G01 X244.7939 Y43.8030
G01 X244.8649 Y43.7593
G01 X244.9393 Y43.7217
G01 X245.0166 Y43.6904
G01 X245.0962 Y43.6656
G01 X245.1776 Y43.6475
G01 X245.2602 Y43.6363
G01 X245.3435 Y43.6320
G01 X245.4268 Y43.6347
G01 X245.5097 Y43.6443
G01 X245.5914 Y43.6607
G01 X245.6715 Y43.6839
G01 X245.7493 Y43.7137
G01 X245.8245 Y43.7499
G01 X245.8963 Y43.7922
G01 X245.9644 Y43.8403
G01 X246.0282 Y43.8940
G01 X246.0874 Y43.9527
G01 X250.6718 Y48.9058
G01 X250.7260 Y48.9697
G01 X250.7753 Y49.0374
G01 X250.8193 Y49.1087
G01 X250.8579 Y49.1830
G01 X250.8909 Y49.2601
G01 X250.9180 Y49.3393
G01 X250.9391 Y49.4204
G01 X250.9540 Y49.5029
G01 X250.9628 Y49.5862
G01 X250.9653 Y49.6699
G01 X250.9615 Y49.7536
G01 X250.9515 Y49.8368
G01 X251.1515
M107
G00 Z2.0000


;No. 14: Helical drill 16
G00 X271.4189 Y30.9805 Z2.0000
G00 Z0.5000
M106 S240
G01 X271.4177 Y30.9409 Z0.4796 F400
G01 X271.4143 Y30.9015 Z0.4593
G01 X271.4085 Y30.8624 Z0.4389
G01 X271.4005 Y30.8237 Z0.4185
G01 X271.3903 Y30.7855 Z0.3981
G01 X271.3779 Y30.7479 Z0.3778
G01 X271.3633 Y30.7112 Z0.3574
G01 X271.3465 Y30.6753 Z0.3370
G01 X271.3278 Y30.6405 Z0.3167
G01 X271.3070 Y30.6068 Z0.2963
G01 X271.2843 Y30.5744 Z0.2759
G01 X271.2598 Y30.5434 Z0.2556
G01 X271.2335 Y30.5138 Z0.2352
G01 X271.2055 Y30.4859 Z0.2148
G01 X271.1760 Y30.4596 Z0.1944
G01 X271.1449 Y30.4350 Z0.1741
G01 X271.1125 Y30.4124 Z0.1537
G01 X271.0789 Y30.3916 Z0.1333
G01 X271.0440 Y30.3728 Z0.1130
G01 X271.0082 Y30.3561 Z0.0926
G01 X270.9714 Y30.3415 Z0.0722
G01 X270.9339 Y30.3291 Z0.0519
G01 X270.8957 Y30.3188 Z0.0315
G01 X270.8569 Y30.3108 Z0.0111
G01 X270.8178 Y30.3051 Z-0.0093
G01 X270.7784 Y30.3016 Z-0.0296
G01 X270.7389 Y30.3005 Z-0.0500
G01 X270.6993 Y30.3016 Z-0.0704
G01 X270.6599 Y30.3051 Z-0.0907
G01 X270.6208 Y30.3108 Z-0.1111
G01 X270.5821 Y30.3188 Z-0.1315
G01 X270.5438 Y30.3291 Z-0.1519
G01 X270.5063 Y30.3415 Z-0.1722
G01 X270.4695 Y30.3561 Z-0.1926
G01 X270.4337 Y30.3728 Z-0.2130
G01 X270.3989 Y30.3916 Z-0.2333
G01 X270.3652 Y30.4124 Z-0.2537
G01 X270.3328 Y30.4350 Z-0.2741
G01 X270.3018 Y30.4596 Z-0.2944
G01 X270.2722 Y30.4859 Z-0.3148
G01 X270.2443 Y30.5138 Z-0.3352
G01 X270.2180 Y30.5434 Z-0.3556
G01 X270.1934 Y30.5744 Z-0.3759
G01 X270.1707 Y30.6068 Z-0.3963
G01 X270.1500 Y30.6405 Z-0.4167
G01 X270.1312 Y30.6753 Z-0.4370
G01 X270.1145 Y30.7112 Z-0.4574
G01 X270.0999 Y30.7479 Z-0.4778
G01 X270.0874 Y30.7855 Z-0.4981
G01 X270.0772 Y30.8237 Z-0.5185
G01 X270.0692 Y30.8624 Z-0.5389
G01 X270.0635 Y30.9015 Z-0.5593
G01 X270.0600 Y30.9409 Z-0.5796
G01 X270.0589 Y30.9805 Z-0.6000
G01 X270.0600 Y31.0200 Z-0.6204
G01 X270.0635 Y31.0594 Z-0.6407
G01 X270.0692 Y31.0986 Z-0.6611
G01 X270.0772 Y31.1373 Z-0.6815
G01 X270.0874 Y31.1755 Z-0.7019
G01 X270.0999 Y31.2131 Z-0.7222
G01 X270.1145 Y31.2498 Z-0.7426
G01 X270.1312 Y31.2857 Z-0.7630
G01 X270.1500 Y31.3205 Z-0.7833
G01 X270.1707 Y31.3541 Z-0.8037
G01 X270.1934 Y31.3865 Z-0.8241
G01 X270.2180 Y31.4176 Z-0.8444
G01 X270.2443 Y31.4471 Z-0.8648
G01 X270.2722 Y31.4751 Z-0.8852
G01 X270.3018 Y31.5014 Z-0.9056
G01 X270.3328 Y31.5259 Z-0.9259
G01 X270.3652 Y31.5486 Z-0.9463
G01 X270.3989 Y31.5694 Z-0.9667
G01 X270.4337 Y31.5882 Z-0.9870
G01 X270.4695 Y31.6049 Z-1.0074
G01 X270.5063 Y31.6195 Z-1.0278
G01 X270.5438 Y31.6319 Z-1.0481
G01 X270.5821 Y31.6421 Z-1.0685
G01 X270.6208 Y31.6501 Z-1.0889
G01 X270.6599 Y31.6559 Z-1.1093
G01 X270.6993 Y31.6593 Z-1.1296
G01 X270.7389 Y31.6605 Z-1.1500
G01 X270.7784 Y31.6593 Z-1.1704
G01 X270.8178 Y31.6559 Z-1.1907
G01 X270.8569 Y31.6501 Z-1.2111
G01 X270.8957 Y31.6421 Z-1.2315
G01 X270.9339 Y31.6319 Z-1.2519
G01 X270.9714 Y31.6195 Z-1.2722
G01 X271.0082 Y31.6049 Z-1.2926
G01 X271.0440 Y31.5882 Z-1.3130
G01 X271.0789 Y31.5694 Z-1.3333
G01 X271.1125 Y31.5486 Z-1.3537
G01 X271.1449 Y31.5259 Z-1.3741
G01 X271.1760 Y31.5014 Z-1.3944
G01 X271.2055 Y31.4751 Z-1.4148
G01 X271.2335 Y31.4471 Z-1.4352
G01 X271.2598 Y31.4176 Z-1.4556
G01 X271.2843 Y31.3865 Z-1.4759
G01 X271.3070 Y31.3541 Z-1.4963
G01 X271.3278 Y31.3205 Z-1.5167
G01 X271.3465 Y31.2857 Z-1.5370
G01 X271.3633 Y31.2498 Z-1.5574
G01 X271.3779 Y31.2131 Z-1.5778
G01 X271.3903 Y31.1755 Z-1.5981
G01 X271.4005 Y31.1373 Z-1.6185
G01 X271.4085 Y31.0986 Z-1.6389
G01 X271.4143 Y31.0594 Z-1.6593
G01 X271.4177 Y31.0200 Z-1.6796
G01 X271.4189 Y30.9805 Z-1.7000
G01 X271.4177 Y30.9409 Z-1.7204
G01 X271.4143 Y30.9015 Z-1.7407
G01 X271.4085 Y30.8624 Z-1.7611
G01 X271.4005 Y30.8237 Z-1.7815
G01 X271.3903 Y30.7855 Z-1.8019
G01 X271.3779 Y30.7479 Z-1.8222
G01 X271.3633 Y30.7112 Z-1.8426
G01 X271.3465 Y30.6753 Z-1.8630
G01 X271.3278 Y30.6405 Z-1.8833
G01 X271.3070 Y30.6068 Z-1.9037
G01 X271.2843 Y30.5744 Z-1.9241
G01 X271.2598 Y30.5434 Z-1.9444
G01 X271.2335 Y30.5138 Z-1.9648
G01 X271.2055 Y30.4859 Z-1.9852
G01 X271.1760 Y30.4596 Z-2.0056
G01 X271.1449 Y30.4350 Z-2.0259
G01 X271.1125 Y30.4124 Z-2.0463
G01 X271.0789 Y30.3916 Z-2.0667
G01 X271.0440 Y30.3728 Z-2.0870
G01 X271.0082 Y30.3561 Z-2.1074
G01 X270.9714 Y30.3415 Z-2.1278
G01 X270.9339 Y30.3291 Z-2.1481
G01 X270.8957 Y30.3188 Z-2.1685
G01 X270.8569 Y30.3108 Z-2.1889
G01 X270.8178 Y30.3051 Z-2.2093
G01 X270.7784 Y30.3016 Z-2.2296
G01 X270.7389 Y30.3005 Z-2.2500
G01 X270.6993 Y30.3016 Z-2.2704
G01 X270.6599 Y30.3051 Z-2.2907
G01 X270.6208 Y30.3108 Z-2.3111
G01 X270.5821 Y30.3188 Z-2.3315
G01 X270.5438 Y30.3291 Z-2.3519
G01 X270.5063 Y30.3415 Z-2.3722
G01 X270.4695 Y30.3561 Z-2.3926
G01 X270.4337 Y30.3728 Z-2.4130
G01 X270.3989 Y30.3916 Z-2.4333
G01 X270.3652 Y30.4124 Z-2.4537
G01 X270.3328 Y30.4350 Z-2.4741
G01 X270.3018 Y30.4596 Z-2.4944
G01 X270.2722 Y30.4859 Z-2.5148
G01 X270.2443 Y30.5138 Z-2.5352
G01 X270.2180 Y30.5434 Z-2.5556
G01 X270.1934 Y30.5744 Z-2.5759
G01 X270.1707 Y30.6068 Z-2.5963
G01 X270.1500 Y30.6405 Z-2.6167
G01 X270.1312 Y30.6753 Z-2.6370
G01 X270.1145 Y30.7112 Z-2.6574
G01 X270.0999 Y30.7479 Z-2.6778
G01 X270.0874 Y30.7855 Z-2.6981
G01 X270.0772 Y30.8237 Z-2.7185
G01 X270.0692 Y30.8624 Z-2.7389
G01 X270.0635 Y30.9015 Z-2.7593
G01 X270.0600 Y30.9409 Z-2.7796
G01 X270.0589 Y30.9805 Z-2.8000
G01 X270.0600 Y31.0200 Z-2.8204
G01 X270.0635 Y31.0594 Z-2.8407
G01 X270.0692 Y31.0986 Z-2.8611
G01 X270.0772 Y31.1373 Z-2.8815
G01 X270.0874 Y31.1755 Z-2.9019
G01 X270.0999 Y31.2131 Z-2.9222
G01 X270.1145 Y31.2498 Z-2.9426
G01 X270.1312 Y31.2857 Z-2.9630
G01 X270.1500 Y31.3205 Z-2.9833
G01 X270.1707 Y31.3541 Z-3.0037
G01 X270.1934 Y31.3865 Z-3.0241
G01 X270.2180 Y31.4176 Z-3.0444
G01 X270.2443 Y31.4471 Z-3.0648
G01 X270.2722 Y31.4751 Z-3.0852
G01 X270.3018 Y31.5014 Z-3.1056
G01 X270.3328 Y31.5259 Z-3.1259
G01 X270.3652 Y31.5486 Z-3.1463
G01 X270.3989 Y31.5694 Z-3.1667
G01 X270.4337 Y31.5882 Z-3.1870
G01 X270.4695 Y31.6049 Z-3.2074
G01 X270.5063 Y31.6195 Z-3.2278
G01 X270.5438 Y31.6319 Z-3.2481
G01 X270.5821 Y31.6421 Z-3.2685
G01 X270.6208 Y31.6501 Z-3.2889
G01 X270.6599 Y31.6559 Z-3.3093
G01 X270.6993 Y31.6593 Z-3.3296
G01 X270.7389 Y31.6605 Z-3.3500
G01 X270.7784 Y31.6593 Z-3.3704
G01 X270.8178 Y31.6559 Z-3.3907
G01 X270.8569 Y31.6501 Z-3.4111
G01 X270.8957 Y31.6421 Z-3.4315
G01 X270.9339 Y31.6319 Z-3.4519
G01 X270.9714 Y31.6195 Z-3.4722
G01 X271.0082 Y31.6049 Z-3.4926
G01 X271.0440 Y31.5882 Z-3.5130
G01 X271.0789 Y31.5694 Z-3.5333
G01 X271.1125 Y31.5486 Z-3.5537
G01 X271.1449 Y31.5259 Z-3.5741
G01 X271.1760 Y31.5014 Z-3.5944
G01 X271.2055 Y31.4751 Z-3.6148
G01 X271.2335 Y31.4471 Z-3.6352
G01 X271.2598 Y31.4176 Z-3.6556
G01 X271.2843 Y31.3865 Z-3.6759
G01 X271.3070 Y31.3541 Z-3.6963
G01 X271.3278 Y31.3205 Z-3.7167
G01 X271.3465 Y31.2857 Z-3.7370
G01 X271.3633 Y31.2498 Z-3.7574
G01 X271.3779 Y31.2131 Z-3.7778
G01 X271.3903 Y31.1755 Z-3.7981
G01 X271.4005 Y31.1373 Z-3.8185
G01 X271.4085 Y31.0986 Z-3.8389
G01 X271.4143 Y31.0594 Z-3.8593
G01 X271.4177 Y31.0200 Z-3.8796
G01 X271.4189 Y30.9805 Z-3.9000
G01 X271.4177 Y30.9409 Z-3.9204
G01 X271.4143 Y30.9015 Z-3.9407
G01 X271.4085 Y30.8624 Z-3.9611
G01 X271.4005 Y30.8237 Z-3.9815
G01 X271.3903 Y30.7855 Z-4.0019
G01 X271.3779 Y30.7479 Z-4.0222
G01 X271.3633 Y30.7112 Z-4.0426
G01 X271.3465 Y30.6753 Z-4.0630
G01 X271.3278 Y30.6405 Z-4.0833
G01 X271.3070 Y30.6068 Z-4.1037
G01 X271.2843 Y30.5744 Z-4.1241
G01 X271.2598 Y30.5434 Z-4.1444
G01 X271.2335 Y30.5138 Z-4.1648
G01 X271.2055 Y30.4859 Z-4.1852
G01 X271.1760 Y30.4596 Z-4.2056
G01 X271.1449 Y30.4350 Z-4.2259
G01 X271.1125 Y30.4124 Z-4.2463
G01 X271.0789 Y30.3916 Z-4.2667
G01 X271.0440 Y30.3728 Z-4.2870
G01 X271.0082 Y30.3561 Z-4.3074
G01 X270.9714 Y30.3415 Z-4.3278
G01 X270.9339 Y30.3291 Z-4.3481
G01 X270.8957 Y30.3188 Z-4.3685
G01 X270.8569 Y30.3108 Z-4.3889
G01 X270.8178 Y30.3051 Z-4.4093
G01 X270.7784 Y30.3016 Z-4.4296
G01 X270.7389 Y30.3005 Z-4.4500
G01 X270.6993 Y30.3016 Z-4.4704
G01 X270.6599 Y30.3051 Z-4.4907
G01 X270.6208 Y30.3108 Z-4.5111
G01 X270.5821 Y30.3188 Z-4.5315
G01 X270.5438 Y30.3291 Z-4.5519
G01 X270.5063 Y30.3415 Z-4.5722
G01 X270.4695 Y30.3561 Z-4.5926
G01 X270.4337 Y30.3728 Z-4.6130
G01 X270.3989 Y30.3916 Z-4.6333
G01 X270.3652 Y30.4124 Z-4.6537
G01 X270.3328 Y30.4350 Z-4.6741
G01 X270.3018 Y30.4596 Z-4.6944
G01 X270.2722 Y30.4859 Z-4.7148
G01 X270.2443 Y30.5138 Z-4.7352
G01 X270.2180 Y30.5434 Z-4.7556
G01 X270.1934 Y30.5744 Z-4.7759
G01 X270.1707 Y30.6068 Z-4.7963
G01 X270.1500 Y30.6405 Z-4.8167
G01 X270.1312 Y30.6753 Z-4.8370
G01 X270.1145 Y30.7112 Z-4.8574
G01 X270.0999 Y30.7479 Z-4.8778
G01 X270.0874 Y30.7855 Z-4.8981
G01 X270.0772 Y30.8237 Z-4.9185
G01 X270.0692 Y30.8624 Z-4.9389
G01 X270.0635 Y30.9015 Z-4.9593
G01 X270.0600 Y30.9409 Z-4.9796
G01 X270.0589 Y30.9805 Z-5.0000
G01 X270.0600 Y31.0200 Z-5.0204
G01 X270.0635 Y31.0594 Z-5.0407
G01 X270.0692 Y31.0986 Z-5.0611
G01 X270.0772 Y31.1373 Z-5.0815
G01 X270.0874 Y31.1755 Z-5.1019
G01 X270.0999 Y31.2131 Z-5.1222
G01 X270.1145 Y31.2498 Z-5.1426
G01 X270.1312 Y31.2857 Z-5.1630
G01 X270.1500 Y31.3205 Z-5.1833
G01 X270.1707 Y31.3541 Z-5.2037
G01 X270.1934 Y31.3865 Z-5.2241
G01 X270.2180 Y31.4176 Z-5.2444
G01 X270.2443 Y31.4471 Z-5.2648
G01 X270.2722 Y31.4751 Z-5.2852
G01 X270.3018 Y31.5014 Z-5.3056
G01 X270.3328 Y31.5259 Z-5.3259
G01 X270.3652 Y31.5486 Z-5.3463
G01 X270.3989 Y31.5694 Z-5.3667
G01 X270.4337 Y31.5882 Z-5.3870
G01 X270.4695 Y31.6049 Z-5.4074
G01 X270.5063 Y31.6195 Z-5.4278
G01 X270.5438 Y31.6319 Z-5.4481
G01 X270.5821 Y31.6421 Z-5.4685
G01 X270.6208 Y31.6501 Z-5.4889
G01 X270.6599 Y31.6559 Z-5.5093
G01 X270.6993 Y31.6593 Z-5.5296
G01 X270.7389 Y31.6605 Z-5.5500
G01 X270.7784 Y31.6593 Z-5.5704
G01 X270.8178 Y31.6559 Z-5.5907
G01 X270.8569 Y31.6501 Z-5.6111
G01 X270.8957 Y31.6421 Z-5.6315
G01 X270.9339 Y31.6319 Z-5.6519
G01 X270.9714 Y31.6195 Z-5.6722
G01 X271.0082 Y31.6049 Z-5.6926
G01 X271.0440 Y31.5882 Z-5.7130
G01 X271.0789 Y31.5694 Z-5.7333
G01 X271.1125 Y31.5486 Z-5.7537
G01 X271.1449 Y31.5259 Z-5.7741
G01 X271.1760 Y31.5014 Z-5.7944
G01 X271.2055 Y31.4751 Z-5.8148
G01 X271.2335 Y31.4471 Z-5.8352
G01 X271.2598 Y31.4176 Z-5.8556
G01 X271.2843 Y31.3865 Z-5.8759
G01 X271.3070 Y31.3541 Z-5.8963
G01 X271.3278 Y31.3205 Z-5.9167
G01 X271.3465 Y31.2857 Z-5.9370
G01 X271.3633 Y31.2498 Z-5.9574
G01 X271.3779 Y31.2131 Z-5.9778
G01 X271.3903 Y31.1755 Z-5.9981
G01 X271.4005 Y31.1373 Z-6.0185
G01 X271.4085 Y31.0986 Z-6.0389
G01 X271.4143 Y31.0594 Z-6.0593
G01 X271.4177 Y31.0200 Z-6.0796
G01 X271.4189 Y30.9805 Z-6.1000
G01 X271.4177 Y30.9409 Z-6.1176
G01 X271.4143 Y30.9015 Z-6.1352
G01 X271.4085 Y30.8624 Z-6.1528
G01 X271.4005 Y30.8237 Z-6.1704
G01 X271.3903 Y30.7855 Z-6.1880
G01 X271.3779 Y30.7479 Z-6.2056
G01 X271.3633 Y30.7112 Z-6.2231
G01 X271.3465 Y30.6753 Z-6.2407
G01 X271.3278 Y30.6405 Z-6.2583
G01 X271.3070 Y30.6068 Z-6.2759
G01 X271.2843 Y30.5744 Z-6.2935
G01 X271.2598 Y30.5434 Z-6.3111
G01 X271.2335 Y30.5138 Z-6.3287
G01 X271.2055 Y30.4859 Z-6.3463
G01 X271.1760 Y30.4596 Z-6.3639
G01 X271.1449 Y30.4350 Z-6.3815
G01 X271.1125 Y30.4124 Z-6.3991
G01 X271.0789 Y30.3916 Z-6.4167
G01 X271.0440 Y30.3728 Z-6.4343
G01 X271.0082 Y30.3561 Z-6.4519
G01 X270.9714 Y30.3415 Z-6.4694
G01 X270.9339 Y30.3291 Z-6.4870
G01 X270.8957 Y30.3188 Z-6.5046
G01 X270.8569 Y30.3108 Z-6.5222
G01 X270.8178 Y30.3051 Z-6.5398
G01 X270.7784 Y30.3016 Z-6.5574
G01 X270.7389 Y30.3005 Z-6.5750
G01 X270.6993 Y30.3016 Z-6.5926
G01 X270.6599 Y30.3051 Z-6.6102
G01 X270.6208 Y30.3108 Z-6.6278
G01 X270.5821 Y30.3188 Z-6.6454
G01 X270.5438 Y30.3291 Z-6.6630
G01 X270.5063 Y30.3415 Z-6.6806
G01 X270.4695 Y30.3561 Z-6.6981
G01 X270.4337 Y30.3728 Z-6.7157
G01 X270.3989 Y30.3916 Z-6.7333
G01 X270.3652 Y30.4124 Z-6.7509
G01 X270.3328 Y30.4350 Z-6.7685
G01 X270.3018 Y30.4596 Z-6.7861
G01 X270.2722 Y30.4859 Z-6.8037
G01 X270.2443 Y30.5138 Z-6.8213
G01 X270.2180 Y30.5434 Z-6.8389
G01 X270.1934 Y30.5744 Z-6.8565
G01 X270.1707 Y30.6068 Z-6.8741
G01 X270.1500 Y30.6405 Z-6.8917
G01 X270.1312 Y30.6753 Z-6.9093
G01 X270.1145 Y30.7112 Z-6.9269
G01 X270.0999 Y30.7479 Z-6.9444
G01 X270.0874 Y30.7855 Z-6.9620
G01 X270.0772 Y30.8237 Z-6.9796
G01 X270.0692 Y30.8624 Z-6.9972
G01 X270.0635 Y30.9015 Z-7.0148
G01 X270.0600 Y30.9409 Z-7.0324
G01 X270.0589 Y30.9805 Z-7.0500
G01 X270.0600 Y31.0200 Z-7.0676
G01 X270.0635 Y31.0594 Z-7.0852
G01 X270.0692 Y31.0986 Z-7.1028
G01 X270.0772 Y31.1373 Z-7.1204
G01 X270.0874 Y31.1755 Z-7.1380
G01 X270.0999 Y31.2131 Z-7.1556
G01 X270.1145 Y31.2498 Z-7.1731
G01 X270.1312 Y31.2857 Z-7.1907
G01 X270.1500 Y31.3205 Z-7.2083
G01 X270.1707 Y31.3541 Z-7.2259
G01 X270.1934 Y31.3865 Z-7.2435
G01 X270.2180 Y31.4176 Z-7.2611
G01 X270.2443 Y31.4471 Z-7.2787
G01 X270.2722 Y31.4751 Z-7.2963
G01 X270.3018 Y31.5014 Z-7.3139
G01 X270.3328 Y31.5259 Z-7.3315
G01 X270.3652 Y31.5486 Z-7.3491
G01 X270.3989 Y31.5694 Z-7.3667
G01 X270.4337 Y31.5882 Z-7.3843
G01 X270.4695 Y31.6049 Z-7.4019
G01 X270.5063 Y31.6195 Z-7.4194
G01 X270.5438 Y31.6319 Z-7.4370
G01 X270.5821 Y31.6421 Z-7.4546
G01 X270.6208 Y31.6501 Z-7.4722
G01 X270.6599 Y31.6559 Z-7.4898
G01 X270.6993 Y31.6593 Z-7.5074
G01 X270.7389 Y31.6605 Z-7.5250
G01 X270.7784 Y31.6593 Z-7.5426
G01 X270.8178 Y31.6559 Z-7.5602
G01 X270.8569 Y31.6501 Z-7.5778
G01 X270.8957 Y31.6421 Z-7.5954
G01 X270.9339 Y31.6319 Z-7.6130
G01 X270.9714 Y31.6195 Z-7.6306
G01 X271.0082 Y31.6049 Z-7.6481
G01 X271.0440 Y31.5882 Z-7.6657
G01 X271.0789 Y31.5694 Z-7.6833
G01 X271.1125 Y31.5486 Z-7.7009
G01 X271.1449 Y31.5259 Z-7.7185
G01 X271.1760 Y31.5014 Z-7.7361
G01 X271.2055 Y31.4751 Z-7.7537
G01 X271.2335 Y31.4471 Z-7.7713
G01 X271.2598 Y31.4176 Z-7.7889
G01 X271.2843 Y31.3865 Z-7.8065
G01 X271.3070 Y31.3541 Z-7.8241
G01 X271.3278 Y31.3205 Z-7.8417
G01 X271.3465 Y31.2857 Z-7.8593
G01 X271.3633 Y31.2498 Z-7.8769
G01 X271.3779 Y31.2131 Z-7.8944
G01 X271.3903 Y31.1755 Z-7.9120
G01 X271.4005 Y31.1373 Z-7.9296
G01 X271.4085 Y31.0986 Z-7.9472
G01 X271.4143 Y31.0594 Z-7.9648
G01 X271.4177 Y31.0200 Z-7.9824
G01 X271.4189 Y30.9805 Z-8.0000
G01 X271.4177 Y30.9409
G01 X271.4143 Y30.9015
G01 X271.4085 Y30.8624
G01 X271.4005 Y30.8237
G01 X271.3903 Y30.7855
G01 X271.3779 Y30.7479
G01 X271.3633 Y30.7112
G01 X271.3465 Y30.6753
G01 X271.3278 Y30.6405
G01 X271.3070 Y30.6068
G01 X271.2843 Y30.5744
G01 X271.2598 Y30.5434
G01 X271.2335 Y30.5138
G01 X271.2055 Y30.4859
G01 X271.1760 Y30.4596
G01 X271.1449 Y30.4350
G01 X271.1125 Y30.4124
G01 X271.0789 Y30.3916
G01 X271.0440 Y30.3728
G01 X271.0082 Y30.3561
G01 X270.9714 Y30.3415
G01 X270.9339 Y30.3291
G01 X270.8957 Y30.3188
G01 X270.8569 Y30.3108
G01 X270.8178 Y30.3051
G01 X270.7784 Y30.3016
G01 X270.7389 Y30.3005
G01 X270.6993 Y30.3016
G01 X270.6599 Y30.3051
G01 X270.6208 Y30.3108
G01 X270.5821 Y30.3188
G01 X270.5438 Y30.3291
G01 X270.5063 Y30.3415
G01 X270.4695 Y30.3561
G01 X270.4337 Y30.3728
G01 X270.3989 Y30.3916
G01 X270.3652 Y30.4124
G01 X270.3328 Y30.4350
G01 X270.3018 Y30.4596
G01 X270.2722 Y30.4859
G01 X270.2443 Y30.5138
G01 X270.2180 Y30.5434
G01 X270.1934 Y30.5744
G01 X270.1707 Y30.6068
G01 X270.1500 Y30.6405
G01 X270.1312 Y30.6753
G01 X270.1145 Y30.7112
G01 X270.0999 Y30.7479
G01 X270.0874 Y30.7855
G01 X270.0772 Y30.8237
G01 X270.0692 Y30.8624
G01 X270.0635 Y30.9015
G01 X270.0600 Y30.9409
G01 X270.0589 Y30.9805
G01 X270.0600 Y31.0200
G01 X270.0635 Y31.0594
G01 X270.0692 Y31.0986
G01 X270.0772 Y31.1373
G01 X270.0874 Y31.1755
G01 X270.0999 Y31.2131
G01 X270.1145 Y31.2498
G01 X270.1312 Y31.2857
G01 X270.1500 Y31.3205
G01 X270.1707 Y31.3541
G01 X270.1934 Y31.3865
G01 X270.2180 Y31.4176
G01 X270.2443 Y31.4471
G01 X270.2722 Y31.4751
G01 X270.3018 Y31.5014
G01 X270.3328 Y31.5259
G01 X270.3652 Y31.5486
G01 X270.3989 Y31.5694
G01 X270.4337 Y31.5882
G01 X270.4695 Y31.6049
G01 X270.5063 Y31.6195
G01 X270.5438 Y31.6319
G01 X270.5821 Y31.6421
G01 X270.6208 Y31.6501
G01 X270.6599 Y31.6559
G01 X270.6993 Y31.6593
G01 X270.7389 Y31.6605
G01 X270.7784 Y31.6593
G01 X270.8178 Y31.6559
G01 X270.8569 Y31.6501
G01 X270.8957 Y31.6421
G01 X270.9339 Y31.6319
G01 X270.9714 Y31.6195
G01 X271.0082 Y31.6049
G01 X271.0440 Y31.5882
G01 X271.0789 Y31.5694
G01 X271.1125 Y31.5486
G01 X271.1449 Y31.5259
G01 X271.1760 Y31.5014
G01 X271.2055 Y31.4751
G01 X271.2335 Y31.4471
G01 X271.2598 Y31.4176
G01 X271.2843 Y31.3865
G01 X271.3070 Y31.3541
G01 X271.3278 Y31.3205
G01 X271.3465 Y31.2857
G01 X271.3633 Y31.2498
G01 X271.3779 Y31.2131
G01 X271.3903 Y31.1755
G01 X271.4005 Y31.1373
G01 X271.4085 Y31.0986
G01 X271.4143 Y31.0594
G01 X271.4177 Y31.0200
G01 X271.4189 Y30.9805
M107
M106 S240
G01 X271.4178 Y30.9538 Z-7.9875
M107
M106 S240
G01 X271.4147 Y30.9273 Z-7.9750
M107
M106 S240
G01 X271.4095 Y30.9011 Z-7.9625
M107
M106 S240
G01 X271.4022 Y30.8754 Z-7.9500
M107
M106 S240
G01 X271.3930 Y30.8504 Z-7.9375
M107
M106 S240
G01 X271.3818 Y30.8261 Z-7.9250
M107
M106 S240
G01 X271.3688 Y30.8028 Z-7.9125
M107
M106 S240
G01 X271.3539 Y30.7806 Z-7.9000
M107
M106 S240
G01 X271.3374 Y30.7597 Z-7.8875
M107
M106 S240
G01 X271.3193 Y30.7401 Z-7.8750
M107
M106 S240
G01 X271.2997 Y30.7219 Z-7.8625
M107
M106 S240
G01 X271.2787 Y30.7054 Z-7.8500
M107
M106 S240
G01 X271.2565 Y30.6906 Z-7.8375
M107
M106 S240
G01 X271.2332 Y30.6775 Z-7.8250
M107
M106 S240
G01 X271.2090 Y30.6664 Z-7.8125
M107
M106 S240
G01 X271.1839 Y30.6571 Z-7.8000
M107
M106 S240
G01 X271.1582 Y30.6499 Z-7.7875
M107
M106 S240
G01 X271.1321 Y30.6447 Z-7.7750
M107
M106 S240
G01 X271.1055 Y30.6415 Z-7.7625
M107
M106 S240
G01 X271.0789 Y30.6405 Z-7.7500
M107
M106 S240
G01 X271.0522 Y30.6415 Z-7.7375
M107
M106 S240
G01 X271.0257 Y30.6447 Z-7.7250
M107
M106 S240
G01 X270.9995 Y30.6499 Z-7.7125
M107
M106 S240
G01 X270.9738 Y30.6571 Z-7.7000
M107
M106 S240
G01 X270.9488 Y30.6664 Z-7.6875
M107
M106 S240
G01 X270.9245 Y30.6775 Z-7.6750
M107
M106 S240
G01 X270.9012 Y30.6906 Z-7.6625
M107
M106 S240
G01 X270.8790 Y30.7054 Z-7.6500
M107
M106 S240
G01 X270.8581 Y30.7219 Z-7.6375
M107
M106 S240
G01 X270.8385 Y30.7401 Z-7.6250
M107
M106 S240
G01 X270.8203 Y30.7597 Z-7.6125
M107
M106 S240
G01 X270.8038 Y30.7806 Z-7.6000
M107
M106 S240
G01 X270.7890 Y30.8028 Z-7.5875
M107
M106 S240
G01 X270.7759 Y30.8261 Z-7.5750
M107
M106 S240
G01 X270.7647 Y30.8504 Z-7.5625
M107
M106 S240
G01 X270.7555 Y30.8754 Z-7.5500
M107
M106 S240
G01 X270.7483 Y30.9011 Z-7.5375
M107
M106 S240
G01 X270.7431 Y30.9273 Z-7.5250
M107
M106 S240
G01 X270.7399 Y30.9538 Z-7.5125
M107
M106 S240
G01 X270.7389 Y30.9805 Z-7.5000
M107
G00 Z2.0000


;No. 15: Hole 99
G00 X272.5724 Y58.3534 Z2.0000
G00 Z0.5000
G01 Z-2.2000 F400
M106 S240
G01 X259.1458 F1000
G01 X258.7714 Y59.6734
G01 X260.3220
G01 X259.8737 Y60.9934
G01 X258.7714
G01 Y62.3134
G01 X259.8733
G01 Y63.6334
G01 X258.7714
M107
G00 Z2.0000
G00 X271.3752 Y58.3534
G00 Z0.5000
G01 Z-2.2000 F400
M106 S240
G01 Y59.6734 F1000
G01 X272.5724
G01 Y60.9934
G01 X271.4706
G01 X271.3743 Y62.3134
G01 X272.5724
G01 Y63.6334
G01 X264.3834
M107
G00 Z2.0000
G00 Z0.5000
G01 Z-2.2000 F400
M106 S240
G01 X264.2322 Y63.5025 F1000
G01 X264.1660 Y63.5823
G01 X264.1034 Y63.6649
G01 X264.0445 Y63.7502
G01 X263.9895 Y63.8380
G01 X263.9383 Y63.9281
G01 X263.8912 Y64.0204
G01 X263.8482 Y64.1147
G01 X263.8094 Y64.2108
G01 X263.7748 Y64.3086
G01 X263.7446 Y64.4077
G01 X263.7189 Y64.5081
G01 X263.6975 Y64.6095
G01 X263.7106 Y64.6282
G01 X272.7724
G01 Y57.3584
G01 X260.6121
G01 X260.4850 Y57.3628
G01 X260.3584 Y57.3753
G01 X260.2329 Y57.3959
G01 X260.1090 Y57.4245
G01 X259.9871 Y57.4609
G01 X259.8678 Y57.5051
G01 X259.7516 Y57.5567
G01 X259.6389 Y57.6157
G01 X259.5302 Y57.6818
G01 X259.4259 Y57.7546
G01 X259.3266 Y57.8340
G01 X259.2324 Y57.9195
G01 X259.1440 Y58.0109
G01 X259.0615 Y58.1078
G01 X258.9854 Y58.2097
G01 X258.9159 Y58.3162
G01 X258.8534 Y58.4270
G01 X258.7981 Y58.5415
G01 X258.7503 Y58.6594
G01 X258.7100 Y58.7800
G01 X258.6823 Y58.8654
G01 X258.6576 Y58.9517
G01 X258.6361 Y59.0388
G01 X258.6176 Y59.1266
G01 X258.6023 Y59.2150
G01 X258.5901 Y59.3039
G01 X258.5810 Y59.3932
G01 X258.5752 Y59.4827
G01 X258.5714 Y59.6294
G01 Y64.6283
G01 X260.0733 Y64.6281
G01 X260.0737 Y60.9659
G01 X260.0759 Y60.8741
G01 X260.0825 Y60.7825
G01 X260.0935 Y60.6913
G01 X260.1088 Y60.6007
G01 X260.1284 Y60.5110
G01 X260.1524 Y60.4223
G01 X260.1805 Y60.3349
G01 X260.2127 Y60.2489
G01 X260.2659 Y60.1281
G01 X260.3281 Y60.0116
G01 X260.3988 Y59.9002
G01 X260.4777 Y59.7944
G01 X260.5643 Y59.6948
G01 X260.6582 Y59.6020
G01 X260.7588 Y59.5166
G01 X260.8656 Y59.4390
G01 X260.9779 Y59.3696
G01 X261.0951 Y59.3089
G01 X261.2165 Y59.2572
G01 X261.3415 Y59.2148
G01 X261.4694 Y59.1819
G01 X261.5993 Y59.1588
G01 X261.7306 Y59.1454
G01 X261.8626 Y59.1420
G01 X270.2506
G01 X270.3499 Y59.1450
G01 X270.4485 Y59.1579
G01 X270.5453 Y59.1804
G01 X270.6393 Y59.2124
G01 X270.7298 Y59.2537
G01 X270.8157 Y59.3036
G01 X270.8962 Y59.3619
G01 X270.9705 Y59.4279
G01 X271.0380 Y59.5009
G01 X271.0978 Y59.5802
G01 X271.1495 Y59.6651
G01 X271.1925 Y59.7547
G01 X271.2264 Y59.8482
G01 X271.2508 Y59.9445
G01 X271.2656 Y60.0428
G01 X271.2706 Y60.1420
G01 Y61.8257
G01 X271.2676 Y61.9251
G01 X271.2547 Y62.0236
G01 X271.2322 Y62.1204
G01 X271.2002 Y62.2145
G01 X271.1589 Y62.3049
G01 X271.1090 Y62.3908
G01 X271.0507 Y62.4713
G01 X270.9847 Y62.5457
G01 X270.9117 Y62.6131
G01 X270.8324 Y62.6730
G01 X270.7475 Y62.7246
G01 X270.6579 Y62.7676
G01 X270.5644 Y62.8015
G01 X270.4681 Y62.8260
G01 X270.3698 Y62.8408
G01 X270.2706 Y62.8457
G01 X265.6760 Y62.8458
G01 X265.5396 Y62.8495
G01 X265.4039 Y62.8630
G01 X265.2695 Y62.8864
G01 X265.1371 Y62.9195
G01 X265.0075 Y62.9622
G01 X264.8813 Y63.0141
G01 X264.7593 Y63.0751
G01 X264.6419 Y63.1447
G01 X264.5300 Y63.2227
G01 X264.4240 Y63.3087
G01 X264.3246 Y63.4021
G01 X264.2322 Y63.5025
G01 X264.3834 Y63.6334
M107
G00 Z2.0000


;No. 16: Hole 98
G00 X258.7714 Y69.2239 Z2.0000
G00 Z0.5000
G01 Z-2.2000 F400
M106 S240
G01 X272.1109 F1000
M107
G00 Z2.0000
G00 Z0.5000
G01 Z-2.2000 F400
M106 S240
G01 X272.2662 Y69.0971 F1000
G01 X272.2376 Y69.0620
G01 X272.1686 Y68.9795
G01 X272.0952 Y68.9010
G01 X272.0175 Y68.8267
G01 X271.9357 Y68.7569
G01 X271.8502 Y68.6918
G01 X271.7611 Y68.6316
G01 X271.6688 Y68.5764
G01 X271.5736 Y68.5266
G01 X271.4757 Y68.4821
G01 X271.3754 Y68.4432
G01 X271.2732 Y68.4100
G01 X271.1693 Y68.3826
G01 X271.0639 Y68.3610
G01 X270.9576 Y68.3453
G01 X270.8505 Y68.3357
G01 X270.7431 Y68.3320
G01 X258.5714
G01 Y70.1158
G01 X272.7124
G01 X272.7258 Y70.0995
G01 X272.6964 Y69.9634
G01 X272.6587 Y69.8293
G01 X272.6127 Y69.6979
G01 X272.5587 Y69.5695
G01 X272.4967 Y69.4448
G01 X272.4272 Y69.3242
G01 X272.3502 Y69.2081
G01 X272.2662 Y69.0971
G01 X272.1109 Y69.2239
M107
G00 Z2.0000


;No. 17: Hole 97
G00 X244.6346 Y57.7972 Z2.0000
G00 Z0.5000
G01 Z-2.2000 F400
M106 S240
G01 X243.5328 F1000
G01 Y59.1172
G01 X244.6346
G01 Y60.4372
G01 X243.5328
G01 Y61.7572
G01 X244.6346
G01 Y63.0772
G01 X243.5328
G01 Y64.3972
G01 X244.7661
G01 X243.5328 Y65.7172
G01 X247.6455
G01 X246.9669 Y64.3972
G01 X248.8675
G01 X248.1890 Y63.0772
G01 X250.0896
G01 X249.4110 Y61.7572
G01 X251.3117
G01 X250.6331 Y60.4372
G01 X254.7942
G01 Y59.1172
G01 X251.8552
G01 X253.0773 Y57.7972
G01 X254.7942
M107
G00 Z2.0000
G00 Y60.4372
G00 Z0.5000
G01 Z-2.2000 F400
M106 S240
G01 Y61.7572 F1000
G01 X253.5841
G01 X253.6910 Y63.0772
G01 X254.7942
G01 Y64.3972
G01 X253.6910
G01 Y65.7172
G01 X254.7942
G01 Y67.0372
G01 X253.6910
G01 Y68.3572
G01 X254.7942
G01 Y69.6772
G01 X253.6910
M107
G00 Z2.0000
G00 X246.4234 Y65.7172
G00 Z0.5000
G01 Z-2.2000 F400
M106 S240
G01 Y67.0372 F1000
G01 X243.5328
G01 X243.2928 Y68.3572
G01 X245.2013
G01 X243.9792 Y69.6772
G01 X242.0798
M107
G00 Z2.0000
G00 Z0.5000
G01 Z-2.2000 F400
M106 S240
G01 X241.9330 Y69.5413 F1000
G01 X241.4011 Y70.1158
G01 X243.8477 Y70.1136
G01 X251.7437 Y61.5850
G01 X251.8037 Y61.5231
G01 X251.8688 Y61.4666
G01 X251.9386 Y61.4160
G01 X252.0124 Y61.3715
G01 X252.0899 Y61.3336
G01 X252.1703 Y61.3024
G01 X252.2530 Y61.2783
G01 X252.3376 Y61.2615
G01 X252.4233 Y61.2519
G01 X252.5095 Y61.2498
G01 X252.5955 Y61.2551
G01 X252.6808 Y61.2678
G01 X252.7646 Y61.2878
G01 X252.8465 Y61.3150
G01 X252.9257 Y61.3491
G01 X253.0016 Y61.3899
G01 X253.0738 Y61.4371
G01 X253.1416 Y61.4903
G01 X253.2046 Y61.5491
G01 X253.2623 Y61.6132
G01 X253.3142 Y61.6820
G01 X253.3601 Y61.7550
G01 X253.3995 Y61.8317
G01 X253.4321 Y61.9115
G01 X253.4577 Y61.9938
G01 X253.4762 Y62.0781
G01 X253.4873 Y62.1636
G01 X253.4910 Y62.2497
G01 Y70.1158
G01 X254.9942
G01 Y57.3585
G01 X253.2088 Y57.3607
G01 X246.5820 Y64.5185
G01 X246.5220 Y64.5804
G01 X246.4568 Y64.6368
G01 X246.3871 Y64.6875
G01 X246.3132 Y64.7320
G01 X246.2358 Y64.7699
G01 X246.1554 Y64.8010
G01 X246.0726 Y64.8251
G01 X245.9881 Y64.8420
G01 X245.9024 Y64.8515
G01 X245.8162 Y64.8537
G01 X245.7301 Y64.8483
G01 X245.6449 Y64.8356
G01 X245.5610 Y64.8156
G01 X245.4792 Y64.7885
G01 X245.4000 Y64.7544
G01 X245.3240 Y64.7136
G01 X245.2519 Y64.6664
G01 X245.1840 Y64.6132
G01 X245.1211 Y64.5543
G01 X245.0634 Y64.4903
G01 X245.0114 Y64.4215
G01 X244.9656 Y64.3484
G01 X244.9262 Y64.2717
G01 X244.8936 Y64.1919
G01 X244.8679 Y64.1096
G01 X244.8495 Y64.0254
G01 X244.8383 Y63.9399
G01 X244.8346 Y63.8538
G01 Y57.3585
G01 X243.3328
G01 Y67.6176
G01 X243.3300 Y67.7134
G01 X243.3181 Y67.8084
G01 X243.2972 Y67.9020
G01 X243.2674 Y67.9931
G01 X243.2291 Y68.0809
G01 X243.1826 Y68.1646
G01 X243.1282 Y68.2436
G01 X243.0666 Y68.3169
G01 X241.9330 Y69.5413
G01 X242.0798 Y69.6772
M107
G00 Z2.0000


;No. 18: Hole 96
G00 X237.0147 Y57.7972 Z2.0000
G00 Z0.5000
G01 Z-2.2000 F400
M106 S240
G01 X235.9128 F1000
G01 Y59.1172
G01 X237.0147
G01 Y60.4372
G01 X235.9128
G01 Y61.7572
G01 X237.0147
G01 Y63.0772
G01 X235.9128
G01 Y64.3972
G01 X237.0147
G01 Y65.7172
G01 X235.9128
G01 Y67.0372
G01 X237.0147
G01 Y68.3572
G01 X235.9128
G01 Y69.6772
G01 X237.0147
M107
G00 Z2.0000
G00 Z0.5000
G01 Z-2.2000 F400
M106 S240
G01 X237.2147 F1000
G01 Y57.3585
G01 X235.7128
G01 Y70.1158
G01 X237.2147
G01 Y69.6772
G01 X237.0147
M107
G00 Z2.0000


;No. 19: Hole 95
G00 X230.2371 Y58.4572 Z2.0000
G00 Z0.5000
G01 Z-2.2000 F400
M106 S240
G01 X228.3392 F1000
G01 X229.0152 Y59.7772
G01 X227.1200
G01 X227.7934 Y61.0972
G01 X225.9008
G01 X226.5715 Y62.4172
G01 X224.6816
G01 X225.7832 Y63.7372
G01 X223.4624
G01 X224.6709 Y65.0572
G01 X226.5585
G01 X225.8930 Y66.3772
G01 X227.7935
G01 X227.1151 Y67.6972
G01 X229.0153
G01 X228.3372 Y69.0172
G01 X230.2371
M107
