;Project TeslaParkingMiniV3
;Created by Estlcam version 11 build 11,113
;Machining time about 00:21:29 hours

G90
M03 S18000
G00 X0.0000 Y0.0000 Z0.0000
G00 Z2.0000


;No. 1: Helical drill 1
G00 X21.1218 Y190.1818
G00 Z0.5000
M106 S240
G01 X21.1207 Y190.1413 Z0.4833 F400 S18000
G01 X21.1175 Y190.1008 Z0.4667
G01 X21.1122 Y190.0606 Z0.4500
G01 X21.1048 Y190.0207 Z0.4333
G01 X21.0954 Y189.9813 Z0.4167
G01 X21.0839 Y189.9424 Z0.4000
G01 X21.0703 Y189.9041 Z0.3833
G01 X21.0548 Y189.8667 Z0.3667
G01 X21.0373 Y189.8300 Z0.3500
G01 X21.0180 Y189.7944 Z0.3333
G01 X20.9968 Y189.7598 Z0.3167
G01 X20.9738 Y189.7264 Z0.3000
G01 X20.9491 Y189.6942 Z0.2833
G01 X20.9228 Y189.6633 Z0.2667
G01 X20.8948 Y189.6339 Z0.2500
G01 X20.8654 Y189.6060 Z0.2333
G01 X20.8346 Y189.5796 Z0.2167
G01 X20.8024 Y189.5549 Z0.2000
G01 X20.7689 Y189.5320 Z0.1833
G01 X20.7344 Y189.5108 Z0.1667
G01 X20.6987 Y189.4914 Z0.1500
G01 X20.6621 Y189.4740 Z0.1333
G01 X20.6246 Y189.4584 Z0.1167
G01 X20.5864 Y189.4449 Z0.1000
G01 X20.5475 Y189.4334 Z0.0833
G01 X20.5080 Y189.4239 Z0.0667
G01 X20.4681 Y189.4165 Z0.0500
G01 X20.4279 Y189.4112 Z0.0333
G01 X20.3875 Y189.4080 Z0.0167
G01 X20.3469 Y189.4070 Z0.0000
G01 X20.3064 Y189.4080 Z-0.0167
G01 X20.2659 Y189.4112 Z-0.0333
G01 X20.2257 Y189.4165 Z-0.0500
G01 X20.1858 Y189.4239 Z-0.0667
G01 X20.1464 Y189.4334 Z-0.0833
G01 X20.1075 Y189.4449 Z-0.1000
G01 X20.0693 Y189.4584 Z-0.1167
G01 X20.0318 Y189.4740 Z-0.1333
G01 X19.9952 Y189.4914 Z-0.1500
G01 X19.9595 Y189.5108 Z-0.1667
G01 X19.9249 Y189.5320 Z-0.1833
G01 X19.8915 Y189.5549 Z-0.2000
G01 X19.8593 Y189.5796 Z-0.2167
G01 X19.8285 Y189.6060 Z-0.2333
G01 X19.7990 Y189.6339 Z-0.2500
G01 X19.7711 Y189.6633 Z-0.2667
G01 X19.7448 Y189.6942 Z-0.2833
G01 X19.7201 Y189.7264 Z-0.3000
G01 X19.6971 Y189.7598 Z-0.3167
G01 X19.6759 Y189.7944 Z-0.3333
G01 X19.6565 Y189.8300 Z-0.3500
G01 X19.6391 Y189.8667 Z-0.3667
G01 X19.6235 Y189.9041 Z-0.3833
G01 X19.6100 Y189.9424 Z-0.4000
G01 X19.5985 Y189.9813 Z-0.4167
G01 X19.5890 Y190.0207 Z-0.4333
G01 X19.5816 Y190.0606 Z-0.4500
G01 X19.5763 Y190.1008 Z-0.4667
G01 X19.5731 Y190.1413 Z-0.4833
G01 X19.5721 Y190.1818 Z-0.5000
G01 X19.5731 Y190.2224 Z-0.5167
G01 X19.5763 Y190.2628 Z-0.5333
G01 X19.5816 Y190.3030 Z-0.5500
G01 X19.5890 Y190.3429 Z-0.5667
G01 X19.5985 Y190.3824 Z-0.5833
G01 X19.6100 Y190.4213 Z-0.6000
G01 X19.6235 Y190.4595 Z-0.6167
G01 X19.6391 Y190.4970 Z-0.6333
G01 X19.6565 Y190.5336 Z-0.6500
G01 X19.6759 Y190.5692 Z-0.6667
G01 X19.6971 Y190.6038 Z-0.6833
G01 X19.7201 Y190.6373 Z-0.7000
G01 X19.7448 Y190.6694 Z-0.7167
G01 X19.7711 Y190.7003 Z-0.7333
G01 X19.7990 Y190.7297 Z-0.7500
G01 X19.8285 Y190.7576 Z-0.7667
G01 X19.8593 Y190.7840 Z-0.7833
G01 X19.8915 Y190.8087 Z-0.8000
G01 X19.9249 Y190.8317 Z-0.8167
G01 X19.9595 Y190.8528 Z-0.8333
G01 X19.9952 Y190.8722 Z-0.8500
G01 X20.0318 Y190.8897 Z-0.8667
G01 X20.0693 Y190.9052 Z-0.8833
G01 X20.1075 Y190.9187 Z-0.9000
G01 X20.1464 Y190.9303 Z-0.9167
G01 X20.1858 Y190.9397 Z-0.9333
G01 X20.2257 Y190.9471 Z-0.9500
G01 X20.2659 Y190.9524 Z-0.9667
G01 X20.3064 Y190.9556 Z-0.9833
G01 X20.3469 Y190.9567 Z-1.0000
G01 X20.3875 Y190.9556 Z-1.0167
G01 X20.4279 Y190.9524 Z-1.0333
G01 X20.4681 Y190.9471 Z-1.0500
G01 X20.5080 Y190.9397 Z-1.0667
G01 X20.5475 Y190.9303 Z-1.0833
G01 X20.5864 Y190.9187 Z-1.1000
G01 X20.6246 Y190.9052 Z-1.1167
G01 X20.6621 Y190.8897 Z-1.1333
G01 X20.6987 Y190.8722 Z-1.1500
G01 X20.7344 Y190.8528 Z-1.1667
G01 X20.7689 Y190.8317 Z-1.1833
G01 X20.8024 Y190.8087 Z-1.2000
G01 X20.8346 Y190.7840 Z-1.2167
G01 X20.8654 Y190.7576 Z-1.2333
G01 X20.8948 Y190.7297 Z-1.2500
G01 X20.9228 Y190.7003 Z-1.2667
G01 X20.9491 Y190.6694 Z-1.2833
G01 X20.9738 Y190.6373 Z-1.3000
G01 X20.9968 Y190.6038 Z-1.3167
G01 X21.0180 Y190.5692 Z-1.3333
G01 X21.0373 Y190.5336 Z-1.3500
G01 X21.0548 Y190.4970 Z-1.3667
G01 X21.0703 Y190.4595 Z-1.3833
G01 X21.0839 Y190.4213 Z-1.4000
G01 X21.0954 Y190.3824 Z-1.4167
G01 X21.1048 Y190.3429 Z-1.4333
G01 X21.1122 Y190.3030 Z-1.4500
G01 X21.1175 Y190.2628 Z-1.4667
G01 X21.1207 Y190.2224 Z-1.4833
G01 X21.1218 Y190.1818 Z-1.5000
G01 X21.1207 Y190.1413 Z-1.5167
G01 X21.1175 Y190.1008 Z-1.5333
G01 X21.1122 Y190.0606 Z-1.5500
G01 X21.1048 Y190.0207 Z-1.5667
G01 X21.0954 Y189.9813 Z-1.5833
G01 X21.0839 Y189.9424 Z-1.6000
G01 X21.0703 Y189.9041 Z-1.6167
G01 X21.0548 Y189.8667 Z-1.6333
G01 X21.0373 Y189.8300 Z-1.6500
G01 X21.0180 Y189.7944 Z-1.6667
G01 X20.9968 Y189.7598 Z-1.6833
G01 X20.9738 Y189.7264 Z-1.7000
G01 X20.9491 Y189.6942 Z-1.7167
G01 X20.9228 Y189.6633 Z-1.7333
G01 X20.8948 Y189.6339 Z-1.7500
G01 X20.8654 Y189.6060 Z-1.7667
G01 X20.8346 Y189.5796 Z-1.7833
G01 X20.8024 Y189.5549 Z-1.8000
G01 X20.7689 Y189.5320 Z-1.8167
G01 X20.7344 Y189.5108 Z-1.8333
G01 X20.6987 Y189.4914 Z-1.8500
G01 X20.6621 Y189.4740 Z-1.8667
G01 X20.6246 Y189.4584 Z-1.8833
G01 X20.5864 Y189.4449 Z-1.9000
G01 X20.5475 Y189.4334 Z-1.9167
G01 X20.5080 Y189.4239 Z-1.9333
G01 X20.4681 Y189.4165 Z-1.9500
G01 X20.4279 Y189.4112 Z-1.9667
G01 X20.3875 Y189.4080 Z-1.9833
G01 X20.3469 Y189.4070 Z-2.0000
G01 X20.3064 Y189.4080 Z-2.0167
G01 X20.2659 Y189.4112 Z-2.0333
G01 X20.2257 Y189.4165 Z-2.0500
G01 X20.1858 Y189.4239 Z-2.0667
G01 X20.1464 Y189.4334 Z-2.0833
G01 X20.1075 Y189.4449 Z-2.1000
G01 X20.0693 Y189.4584 Z-2.1167
G01 X20.0318 Y189.4740 Z-2.1333
G01 X19.9952 Y189.4914 Z-2.1500
G01 X19.9595 Y189.5108 Z-2.1667
G01 X19.9249 Y189.5320 Z-2.1833
G01 X19.8915 Y189.5549 Z-2.2000
G01 X19.8593 Y189.5796 Z-2.2167
G01 X19.8285 Y189.6060 Z-2.2333
G01 X19.7990 Y189.6339 Z-2.2500
G01 X19.7711 Y189.6633 Z-2.2667
G01 X19.7448 Y189.6942 Z-2.2833
G01 X19.7201 Y189.7264 Z-2.3000
G01 X19.6971 Y189.7598 Z-2.3167
G01 X19.6759 Y189.7944 Z-2.3333
G01 X19.6565 Y189.8300 Z-2.3500
G01 X19.6391 Y189.8667 Z-2.3667
G01 X19.6235 Y189.9041 Z-2.3833
G01 X19.6100 Y189.9424 Z-2.4000
G01 X19.5985 Y189.9813 Z-2.4167
G01 X19.5890 Y190.0207 Z-2.4333
G01 X19.5816 Y190.0606 Z-2.4500
G01 X19.5763 Y190.1008 Z-2.4667
G01 X19.5731 Y190.1413 Z-2.4833
G01 X19.5721 Y190.1818 Z-2.5000
G01 X19.5731 Y190.2224 Z-2.5167
G01 X19.5763 Y190.2628 Z-2.5333
G01 X19.5816 Y190.3030 Z-2.5500
G01 X19.5890 Y190.3429 Z-2.5667
G01 X19.5985 Y190.3824 Z-2.5833
G01 X19.6100 Y190.4213 Z-2.6000
G01 X19.6235 Y190.4595 Z-2.6167
G01 X19.6391 Y190.4970 Z-2.6333
G01 X19.6565 Y190.5336 Z-2.6500
G01 X19.6759 Y190.5692 Z-2.6667
G01 X19.6971 Y190.6038 Z-2.6833
G01 X19.7201 Y190.6373 Z-2.7000
G01 X19.7448 Y190.6694 Z-2.7167
G01 X19.7711 Y190.7003 Z-2.7333
G01 X19.7990 Y190.7297 Z-2.7500
G01 X19.8285 Y190.7576 Z-2.7667
G01 X19.8593 Y190.7840 Z-2.7833
G01 X19.8915 Y190.8087 Z-2.8000
G01 X19.9249 Y190.8317 Z-2.8167
G01 X19.9595 Y190.8528 Z-2.8333
G01 X19.9952 Y190.8722 Z-2.8500
G01 X20.0318 Y190.8897 Z-2.8667
G01 X20.0693 Y190.9052 Z-2.8833
G01 X20.1075 Y190.9187 Z-2.9000
G01 X20.1464 Y190.9303 Z-2.9167
G01 X20.1858 Y190.9397 Z-2.9333
G01 X20.2257 Y190.9471 Z-2.9500
G01 X20.2659 Y190.9524 Z-2.9667
G01 X20.3064 Y190.9556 Z-2.9833
G01 X20.3469 Y190.9567 Z-3.0000
G01 X20.3875 Y190.9556 Z-3.0167
G01 X20.4279 Y190.9524 Z-3.0333
G01 X20.4681 Y190.9471 Z-3.0500
G01 X20.5080 Y190.9397 Z-3.0667
G01 X20.5475 Y190.9303 Z-3.0833
G01 X20.5864 Y190.9187 Z-3.1000
G01 X20.6246 Y190.9052 Z-3.1167
G01 X20.6621 Y190.8897 Z-3.1333
G01 X20.6987 Y190.8722 Z-3.1500
G01 X20.7344 Y190.8528 Z-3.1667
G01 X20.7689 Y190.8317 Z-3.1833
G01 X20.8024 Y190.8087 Z-3.2000
G01 X20.8346 Y190.7840 Z-3.2167
G01 X20.8654 Y190.7576 Z-3.2333
G01 X20.8948 Y190.7297 Z-3.2500
G01 X20.9228 Y190.7003 Z-3.2667
G01 X20.9491 Y190.6694 Z-3.2833
G01 X20.9738 Y190.6373 Z-3.3000
G01 X20.9968 Y190.6038 Z-3.3167
G01 X21.0180 Y190.5692 Z-3.3333
G01 X21.0373 Y190.5336 Z-3.3500
G01 X21.0548 Y190.4970 Z-3.3667
G01 X21.0703 Y190.4595 Z-3.3833
G01 X21.0839 Y190.4213 Z-3.4000
G01 X21.0954 Y190.3824 Z-3.4167
G01 X21.1048 Y190.3429 Z-3.4333
G01 X21.1122 Y190.3030 Z-3.4500
G01 X21.1175 Y190.2628 Z-3.4667
G01 X21.1207 Y190.2224 Z-3.4833
G01 X21.1218 Y190.1818 Z-3.5000
G01 X21.1207 Y190.1413 Z-3.5167
G01 X21.1175 Y190.1008 Z-3.5333
G01 X21.1122 Y190.0606 Z-3.5500
G01 X21.1048 Y190.0207 Z-3.5667
G01 X21.0954 Y189.9813 Z-3.5833
G01 X21.0839 Y189.9424 Z-3.6000
G01 X21.0703 Y189.9041 Z-3.6167
G01 X21.0548 Y189.8667 Z-3.6333
G01 X21.0373 Y189.8300 Z-3.6500
G01 X21.0180 Y189.7944 Z-3.6667
G01 X20.9968 Y189.7598 Z-3.6833
G01 X20.9738 Y189.7264 Z-3.7000
G01 X20.9491 Y189.6942 Z-3.7167
G01 X20.9228 Y189.6633 Z-3.7333
G01 X20.8948 Y189.6339 Z-3.7500
G01 X20.8654 Y189.6060 Z-3.7667
G01 X20.8346 Y189.5796 Z-3.7833
G01 X20.8024 Y189.5549 Z-3.8000
G01 X20.7689 Y189.5320 Z-3.8167
G01 X20.7344 Y189.5108 Z-3.8333
G01 X20.6987 Y189.4914 Z-3.8500
G01 X20.6621 Y189.4740 Z-3.8667
G01 X20.6246 Y189.4584 Z-3.8833
G01 X20.5864 Y189.4449 Z-3.9000
G01 X20.5475 Y189.4334 Z-3.9167
G01 X20.5080 Y189.4239 Z-3.9333
G01 X20.4681 Y189.4165 Z-3.9500
G01 X20.4279 Y189.4112 Z-3.9667
G01 X20.3875 Y189.4080 Z-3.9833
G01 X20.3469 Y189.4070 Z-4.0000
G01 X20.3064 Y189.4080 Z-4.0167
G01 X20.2659 Y189.4112 Z-4.0333
G01 X20.2257 Y189.4165 Z-4.0500
G01 X20.1858 Y189.4239 Z-4.0667
G01 X20.1464 Y189.4334 Z-4.0833
G01 X20.1075 Y189.4449 Z-4.1000
G01 X20.0693 Y189.4584 Z-4.1167
G01 X20.0318 Y189.4740 Z-4.1333
G01 X19.9952 Y189.4914 Z-4.1500
G01 X19.9595 Y189.5108 Z-4.1667
G01 X19.9249 Y189.5320 Z-4.1833
G01 X19.8915 Y189.5549 Z-4.2000
G01 X19.8593 Y189.5796 Z-4.2167
G01 X19.8285 Y189.6060 Z-4.2333
G01 X19.7990 Y189.6339 Z-4.2500
G01 X19.7711 Y189.6633 Z-4.2667
G01 X19.7448 Y189.6942 Z-4.2833
G01 X19.7201 Y189.7264 Z-4.3000
G01 X19.6971 Y189.7598 Z-4.3167
G01 X19.6759 Y189.7944 Z-4.3333
G01 X19.6565 Y189.8300 Z-4.3500
G01 X19.6391 Y189.8667 Z-4.3667
G01 X19.6235 Y189.9041 Z-4.3833
G01 X19.6100 Y189.9424 Z-4.4000
G01 X19.5985 Y189.9813 Z-4.4167
G01 X19.5890 Y190.0207 Z-4.4333
G01 X19.5816 Y190.0606 Z-4.4500
G01 X19.5763 Y190.1008 Z-4.4667
G01 X19.5731 Y190.1413 Z-4.4833
G01 X19.5721 Y190.1818 Z-4.5000
G01 X19.5731 Y190.2224 Z-4.5167
G01 X19.5763 Y190.2628 Z-4.5333
G01 X19.5816 Y190.3030 Z-4.5500
G01 X19.5890 Y190.3429 Z-4.5667
G01 X19.5985 Y190.3824 Z-4.5833
G01 X19.6100 Y190.4213 Z-4.6000
G01 X19.6235 Y190.4595 Z-4.6167
G01 X19.6391 Y190.4970 Z-4.6333
G01 X19.6565 Y190.5336 Z-4.6500
G01 X19.6759 Y190.5692 Z-4.6667
G01 X19.6971 Y190.6038 Z-4.6833
G01 X19.7201 Y190.6373 Z-4.7000
G01 X19.7448 Y190.6694 Z-4.7167
G01 X19.7711 Y190.7003 Z-4.7333
G01 X19.7990 Y190.7297 Z-4.7500
G01 X19.8285 Y190.7576 Z-4.7667
G01 X19.8593 Y190.7840 Z-4.7833
G01 X19.8915 Y190.8087 Z-4.8000
G01 X19.9249 Y190.8317 Z-4.8167
G01 X19.9595 Y190.8528 Z-4.8333
G01 X19.9952 Y190.8722 Z-4.8500
G01 X20.0318 Y190.8897 Z-4.8667
G01 X20.0693 Y190.9052 Z-4.8833
G01 X20.1075 Y190.9187 Z-4.9000
G01 X20.1464 Y190.9303 Z-4.9167
G01 X20.1858 Y190.9397 Z-4.9333
G01 X20.2257 Y190.9471 Z-4.9500
G01 X20.2659 Y190.9524 Z-4.9667
G01 X20.3064 Y190.9556 Z-4.9833
G01 X20.3469 Y190.9567 Z-5.0000
G01 X20.3875 Y190.9556 Z-5.0167
G01 X20.4279 Y190.9524 Z-5.0333
G01 X20.4681 Y190.9471 Z-5.0500
G01 X20.5080 Y190.9397 Z-5.0667
G01 X20.5475 Y190.9303 Z-5.0833
G01 X20.5864 Y190.9187 Z-5.1000
G01 X20.6246 Y190.9052 Z-5.1167
G01 X20.6621 Y190.8897 Z-5.1333
G01 X20.6987 Y190.8722 Z-5.1500
G01 X20.7344 Y190.8528 Z-5.1667
G01 X20.7689 Y190.8317 Z-5.1833
G01 X20.8024 Y190.8087 Z-5.2000
G01 X20.8346 Y190.7840 Z-5.2167
G01 X20.8654 Y190.7576 Z-5.2333
G01 X20.8948 Y190.7297 Z-5.2500
G01 X20.9228 Y190.7003 Z-5.2667
G01 X20.9491 Y190.6694 Z-5.2833
G01 X20.9738 Y190.6373 Z-5.3000
G01 X20.9968 Y190.6038 Z-5.3167
G01 X21.0180 Y190.5692 Z-5.3333
G01 X21.0373 Y190.5336 Z-5.3500
G01 X21.0548 Y190.4970 Z-5.3667
G01 X21.0703 Y190.4595 Z-5.3833
G01 X21.0839 Y190.4213 Z-5.4000
G01 X21.0954 Y190.3824 Z-5.4167
G01 X21.1048 Y190.3429 Z-5.4333
G01 X21.1122 Y190.3030 Z-5.4500
G01 X21.1175 Y190.2628 Z-5.4667
G01 X21.1207 Y190.2224 Z-5.4833
G01 X21.1218 Y190.1818 Z-5.5000
G01 X21.1207 Y190.1413 Z-5.5042
G01 X21.1175 Y190.1008 Z-5.5083
G01 X21.1122 Y190.0606 Z-5.5125
G01 X21.1048 Y190.0207 Z-5.5167
G01 X21.0954 Y189.9813 Z-5.5208
G01 X21.0839 Y189.9424 Z-5.5250
G01 X21.0703 Y189.9041 Z-5.5292
G01 X21.0548 Y189.8667 Z-5.5333
G01 X21.0373 Y189.8300 Z-5.5375
G01 X21.0180 Y189.7944 Z-5.5417
G01 X20.9968 Y189.7598 Z-5.5458
G01 X20.9738 Y189.7264 Z-5.5500
G01 X20.9491 Y189.6942 Z-5.5542
G01 X20.9228 Y189.6633 Z-5.5583
G01 X20.8948 Y189.6339 Z-5.5625
G01 X20.8654 Y189.6060 Z-5.5667
G01 X20.8346 Y189.5796 Z-5.5708
G01 X20.8024 Y189.5549 Z-5.5750
G01 X20.7689 Y189.5320 Z-5.5792
G01 X20.7344 Y189.5108 Z-5.5833
G01 X20.6987 Y189.4914 Z-5.5875
G01 X20.6621 Y189.4740 Z-5.5917
G01 X20.6246 Y189.4584 Z-5.5958
G01 X20.5864 Y189.4449 Z-5.6000
G01 X20.5475 Y189.4334 Z-5.6042
G01 X20.5080 Y189.4239 Z-5.6083
G01 X20.4681 Y189.4165 Z-5.6125
G01 X20.4279 Y189.4112 Z-5.6167
G01 X20.3875 Y189.4080 Z-5.6208
G01 X20.3469 Y189.4070 Z-5.6250
G01 X20.3064 Y189.4080 Z-5.6292
G01 X20.2659 Y189.4112 Z-5.6333
G01 X20.2257 Y189.4165 Z-5.6375
G01 X20.1858 Y189.4239 Z-5.6417
G01 X20.1464 Y189.4334 Z-5.6458
G01 X20.1075 Y189.4449 Z-5.6500
G01 X20.0693 Y189.4584 Z-5.6542
G01 X20.0318 Y189.4740 Z-5.6583
G01 X19.9952 Y189.4914 Z-5.6625
G01 X19.9595 Y189.5108 Z-5.6667
G01 X19.9249 Y189.5320 Z-5.6708
G01 X19.8915 Y189.5549 Z-5.6750
G01 X19.8593 Y189.5796 Z-5.6792
G01 X19.8285 Y189.6060 Z-5.6833
G01 X19.7990 Y189.6339 Z-5.6875
G01 X19.7711 Y189.6633 Z-5.6917
G01 X19.7448 Y189.6942 Z-5.6958
G01 X19.7201 Y189.7264 Z-5.7000
G01 X19.6971 Y189.7598 Z-5.7042
G01 X19.6759 Y189.7944 Z-5.7083
G01 X19.6565 Y189.8300 Z-5.7125
G01 X19.6391 Y189.8667 Z-5.7167
G01 X19.6235 Y189.9041 Z-5.7208
G01 X19.6100 Y189.9424 Z-5.7250
G01 X19.5985 Y189.9813 Z-5.7292
G01 X19.5890 Y190.0207 Z-5.7333
G01 X19.5816 Y190.0606 Z-5.7375
G01 X19.5763 Y190.1008 Z-5.7417
G01 X19.5731 Y190.1413 Z-5.7458
G01 X19.5721 Y190.1818 Z-5.7500
G01 X19.5731 Y190.2224 Z-5.7542
G01 X19.5763 Y190.2628 Z-5.7583
G01 X19.5816 Y190.3030 Z-5.7625
G01 X19.5890 Y190.3429 Z-5.7667
G01 X19.5985 Y190.3824 Z-5.7708
G01 X19.6100 Y190.4213 Z-5.7750
G01 X19.6235 Y190.4595 Z-5.7792
G01 X19.6391 Y190.4970 Z-5.7833
G01 X19.6565 Y190.5336 Z-5.7875
G01 X19.6759 Y190.5692 Z-5.7917
G01 X19.6971 Y190.6038 Z-5.7958
G01 X19.7201 Y190.6373 Z-5.8000
G01 X19.7448 Y190.6694 Z-5.8042
G01 X19.7711 Y190.7003 Z-5.8083
G01 X19.7990 Y190.7297 Z-5.8125
G01 X19.8285 Y190.7576 Z-5.8167
G01 X19.8593 Y190.7840 Z-5.8208
G01 X19.8915 Y190.8087 Z-5.8250
G01 X19.9249 Y190.8317 Z-5.8292
G01 X19.9595 Y190.8528 Z-5.8333
G01 X19.9952 Y190.8722 Z-5.8375
G01 X20.0318 Y190.8897 Z-5.8417
G01 X20.0693 Y190.9052 Z-5.8458
G01 X20.1075 Y190.9187 Z-5.8500
G01 X20.1464 Y190.9303 Z-5.8542
G01 X20.1858 Y190.9397 Z-5.8583
G01 X20.2257 Y190.9471 Z-5.8625
G01 X20.2659 Y190.9524 Z-5.8667
G01 X20.3064 Y190.9556 Z-5.8708
G01 X20.3469 Y190.9567 Z-5.8750
G01 X20.3875 Y190.9556 Z-5.8792
G01 X20.4279 Y190.9524 Z-5.8833
G01 X20.4681 Y190.9471 Z-5.8875
G01 X20.5080 Y190.9397 Z-5.8917
G01 X20.5475 Y190.9303 Z-5.8958
G01 X20.5864 Y190.9187 Z-5.9000
G01 X20.6246 Y190.9052 Z-5.9042
G01 X20.6621 Y190.8897 Z-5.9083
G01 X20.6987 Y190.8722 Z-5.9125
G01 X20.7344 Y190.8528 Z-5.9167
G01 X20.7689 Y190.8317 Z-5.9208
G01 X20.8024 Y190.8087 Z-5.9250
G01 X20.8346 Y190.7840 Z-5.9292
G01 X20.8654 Y190.7576 Z-5.9333
G01 X20.8948 Y190.7297 Z-5.9375
G01 X20.9228 Y190.7003 Z-5.9417
G01 X20.9491 Y190.6694 Z-5.9458
G01 X20.9738 Y190.6373 Z-5.9500
G01 X20.9968 Y190.6038 Z-5.9542
G01 X21.0180 Y190.5692 Z-5.9583
G01 X21.0373 Y190.5336 Z-5.9625
G01 X21.0548 Y190.4970 Z-5.9667
G01 X21.0703 Y190.4595 Z-5.9708
G01 X21.0839 Y190.4213 Z-5.9750
G01 X21.0954 Y190.3824 Z-5.9792
G01 X21.1048 Y190.3429 Z-5.9833
G01 X21.1122 Y190.3030 Z-5.9875
G01 X21.1175 Y190.2628 Z-5.9917
G01 X21.1207 Y190.2224 Z-5.9958
G01 X21.1218 Y190.1818 Z-6.0000
G01 X21.1207 Y190.1413
G01 X21.1175 Y190.1008
G01 X21.1122 Y190.0606
G01 X21.1048 Y190.0207
G01 X21.0954 Y189.9813
G01 X21.0839 Y189.9424
G01 X21.0703 Y189.9041
G01 X21.0548 Y189.8667
G01 X21.0373 Y189.8300
G01 X21.0180 Y189.7944
G01 X20.9968 Y189.7598
G01 X20.9738 Y189.7264
G01 X20.9491 Y189.6942
G01 X20.9228 Y189.6633
G01 X20.8948 Y189.6339
G01 X20.8654 Y189.6060
G01 X20.8346 Y189.5796
G01 X20.8024 Y189.5549
G01 X20.7689 Y189.5320
G01 X20.7344 Y189.5108
G01 X20.6987 Y189.4914
G01 X20.6621 Y189.4740
G01 X20.6246 Y189.4584
G01 X20.5864 Y189.4449
G01 X20.5475 Y189.4334
G01 X20.5080 Y189.4239
G01 X20.4681 Y189.4165
G01 X20.4279 Y189.4112
G01 X20.3875 Y189.4080
G01 X20.3469 Y189.4070
G01 X20.3064 Y189.4080
G01 X20.2659 Y189.4112
G01 X20.2257 Y189.4165
G01 X20.1858 Y189.4239
G01 X20.1464 Y189.4334
G01 X20.1075 Y189.4449
G01 X20.0693 Y189.4584
G01 X20.0318 Y189.4740
G01 X19.9952 Y189.4914
G01 X19.9595 Y189.5108
G01 X19.9249 Y189.5320
G01 X19.8915 Y189.5549
G01 X19.8593 Y189.5796
G01 X19.8285 Y189.6060
G01 X19.7990 Y189.6339
G01 X19.7711 Y189.6633
G01 X19.7448 Y189.6942
G01 X19.7201 Y189.7264
G01 X19.6971 Y189.7598
G01 X19.6759 Y189.7944
G01 X19.6565 Y189.8300
G01 X19.6391 Y189.8667
G01 X19.6235 Y189.9041
G01 X19.6100 Y189.9424
G01 X19.5985 Y189.9813
G01 X19.5890 Y190.0207
G01 X19.5816 Y190.0606
G01 X19.5763 Y190.1008
G01 X19.5731 Y190.1413
G01 X19.5721 Y190.1818
G01 X19.5731 Y190.2224
G01 X19.5763 Y190.2628
G01 X19.5816 Y190.3030
G01 X19.5890 Y190.3429
G01 X19.5985 Y190.3824
G01 X19.6100 Y190.4213
G01 X19.6235 Y190.4595
G01 X19.6391 Y190.4970
G01 X19.6565 Y190.5336
G01 X19.6759 Y190.5692
G01 X19.6971 Y190.6038
G01 X19.7201 Y190.6373
G01 X19.7448 Y190.6694
G01 X19.7711 Y190.7003
G01 X19.7990 Y190.7297
G01 X19.8285 Y190.7576
G01 X19.8593 Y190.7840
G01 X19.8915 Y190.8087
G01 X19.9249 Y190.8317
G01 X19.9595 Y190.8528
G01 X19.9952 Y190.8722
G01 X20.0318 Y190.8897
G01 X20.0693 Y190.9052
G01 X20.1075 Y190.9187
G01 X20.1464 Y190.9303
G01 X20.1858 Y190.9397
G01 X20.2257 Y190.9471
G01 X20.2659 Y190.9524
G01 X20.3064 Y190.9556
G01 X20.3469 Y190.9567
G01 X20.3875 Y190.9556
G01 X20.4279 Y190.9524
G01 X20.4681 Y190.9471
G01 X20.5080 Y190.9397
G01 X20.5475 Y190.9303
G01 X20.5864 Y190.9187
G01 X20.6246 Y190.9052
G01 X20.6621 Y190.8897
G01 X20.6987 Y190.8722
G01 X20.7344 Y190.8528
G01 X20.7689 Y190.8317
G01 X20.8024 Y190.8087
G01 X20.8346 Y190.7840
G01 X20.8654 Y190.7576
G01 X20.8948 Y190.7297
G01 X20.9228 Y190.7003
G01 X20.9491 Y190.6694
G01 X20.9738 Y190.6373
G01 X20.9968 Y190.6038
G01 X21.0180 Y190.5692
G01 X21.0373 Y190.5336
G01 X21.0548 Y190.4970
G01 X21.0703 Y190.4595
G01 X21.0839 Y190.4213
G01 X21.0954 Y190.3824
G01 X21.1048 Y190.3429
G01 X21.1122 Y190.3030
G01 X21.1175 Y190.2628
G01 X21.1207 Y190.2224
G01 X21.1218 Y190.1818
M107
M106 S240
G01 X21.1206 Y190.1514 Z-5.9875
M107
M106 S240
G01 X21.1170 Y190.1212 Z-5.9750
M107
M106 S240
G01 X21.1111 Y190.0914 Z-5.9625
M107
M106 S240
G01 X21.1028 Y190.0621 Z-5.9500
M107
M106 S240
G01 X21.0923 Y190.0336 Z-5.9375
M107
M106 S240
G01 X21.0796 Y190.0059 Z-5.9250
M107
M106 S240
G01 X21.0647 Y189.9794 Z-5.9125
M107
M106 S240
G01 X21.0478 Y189.9541 Z-5.9000
M107
M106 S240
G01 X21.0290 Y189.9302 Z-5.8875
M107
M106 S240
G01 X21.0083 Y189.9079 Z-5.8750
M107
M106 S240
G01 X20.9860 Y189.8872 Z-5.8625
M107
M106 S240
G01 X20.9621 Y189.8684 Z-5.8500
M107
M106 S240
G01 X20.9368 Y189.8515 Z-5.8375
M107
M106 S240
G01 X20.9102 Y189.8366 Z-5.8250
M107
M106 S240
G01 X20.8826 Y189.8239 Z-5.8125
M107
M106 S240
G01 X20.8541 Y189.8133 Z-5.8000
M107
M106 S240
G01 X20.8248 Y189.8051 Z-5.7875
M107
M106 S240
G01 X20.7950 Y189.7992 Z-5.7750
M107
M106 S240
G01 X20.7648 Y189.7956 Z-5.7625
M107
M106 S240
G01 X20.7344 Y189.7944 Z-5.7500
M107
M106 S240
G01 X20.7040 Y189.7956 Z-5.7375
M107
M106 S240
G01 X20.6737 Y189.7992 Z-5.7250
M107
M106 S240
G01 X20.6439 Y189.8051 Z-5.7125
M107
M106 S240
G01 X20.6146 Y189.8133 Z-5.7000
M107
M106 S240
G01 X20.5861 Y189.8239 Z-5.6875
M107
M106 S240
G01 X20.5585 Y189.8366 Z-5.6750
M107
M106 S240
G01 X20.5319 Y189.8515 Z-5.6625
M107
M106 S240
G01 X20.5066 Y189.8684 Z-5.6500
M107
M106 S240
G01 X20.4827 Y189.8872 Z-5.6375
M107
M106 S240
G01 X20.4604 Y189.9079 Z-5.6250
M107
M106 S240
G01 X20.4398 Y189.9302 Z-5.6125
M107
M106 S240
G01 X20.4209 Y189.9541 Z-5.6000
M107
M106 S240
G01 X20.4040 Y189.9794 Z-5.5875
M107
M106 S240
G01 X20.3892 Y190.0059 Z-5.5750
M107
M106 S240
G01 X20.3764 Y190.0336 Z-5.5625
M107
M106 S240
G01 X20.3659 Y190.0621 Z-5.5500
M107
M106 S240
G01 X20.3576 Y190.0914 Z-5.5375
M107
M106 S240
G01 X20.3517 Y190.1212 Z-5.5250
M107
M106 S240
G01 X20.3481 Y190.1514 Z-5.5125
M107
M106 S240
G01 X20.3469 Y190.1818 Z-5.5000
M107
G00 Z2.0000


;No. 2: Hole 3
G00 X29.8739 Y180.6133 Z2.0000
G00 Z0.5000
G01 Z-1.8000 F400
M106 S240
G01 X31.0850 F1000
M107
G00 Z2.0000
G00 Z0.5000
G01 Z-1.8000 F400
M106 S240
G01 X31.2267 Y180.4725 F1000
G01 X31.1915 Y180.4370
G01 X31.1581 Y180.3998
G01 X31.1266 Y180.3609
G01 X31.0971 Y180.3206
G01 X31.0697 Y180.2788
G01 X31.0443 Y180.2357
G01 X31.0212 Y180.1914
G01 X31.0003 Y180.1460
G01 X30.9817 Y180.0996
G01 X30.9654 Y180.0523
G01 X30.9515 Y180.0043
G01 X30.9400 Y179.9556
G01 X30.9310 Y179.9064
G01 X30.9245 Y179.8569
G01 X30.9204 Y179.8070
G01 X30.9188 Y179.7571
G01 X30.8811 Y173.8752
G01 X30.8437 Y169.0270
G01 X30.1106 Y169.0334
G01 X30.0410 Y179.7910
G01 X30.0329 Y179.8844
G01 X30.0160 Y179.9766
G01 X29.9905 Y180.0668
G01 X29.9568 Y180.1542
G01 X29.9150 Y180.2381
G01 X29.8655 Y180.3177
G01 X29.8088 Y180.3923
G01 X29.7454 Y180.4613
G01 X29.6757 Y180.5240
G01 X29.6006 Y180.5799
G01 X29.5205 Y180.6286
G01 X29.4362 Y180.6695
G01 X29.3484 Y180.7024
G01 X29.2580 Y180.7269
G01 X29.1656 Y180.7429
G01 X29.0722 Y180.7501
G01 X24.6309 Y180.8848
G01 X24.2195 Y181.1810
G01 X24.0685 Y181.2952
G01 X23.9214 Y181.4145
G01 X23.7785 Y181.5387
G01 X23.6400 Y181.6678
G01 X27.0668 Y181.7002
G01 X30.4938 Y181.7073
G01 X33.9207 Y181.6890
G01 X37.3474 Y181.6452
G01 X37.1864 Y181.4736
G01 X37.0152 Y181.3124
G01 X36.8343 Y181.1620
G01 X36.6445 Y181.0230
G01 X36.5521 Y180.9839
G01 X36.4574 Y180.9506
G01 X36.3609 Y180.9231
G01 X36.2629 Y180.9016
G01 X36.1637 Y180.8861
G01 X36.0638 Y180.8768
G01 X35.9634 Y180.8736
G01 X35.8631 Y180.8766
G01 X35.5814 Y180.8619
G01 X34.9953 Y180.8411
G01 X31.9096 Y180.7508
G01 X31.8154 Y180.7454
G01 X31.7221 Y180.7312
G01 X31.6305 Y180.7082
G01 X31.5416 Y180.6768
G01 X31.4560 Y180.6371
G01 X31.3745 Y180.5895
G01 X31.2979 Y180.5345
G01 X31.2267 Y180.4725
G01 X31.0850 Y180.6133
M107
G00 Z2.0000


;No. 3: Hole 4
G00 X48.2495 Y181.1891 Z2.0000
G00 Z0.5000
G01 Z-1.8000 F400
M106 S240
G01 X58.7032 F1000
M107
G00 Z2.0000
G00 Z0.5000
G01 Z-1.8000 F400
M106 S240
G01 X58.8150 Y181.0232 F1000
G01 X58.5170 Y180.8225
G01 X48.4358
G01 X47.9437 Y181.1537
G01 X47.8207 Y181.2396
G01 X47.7002 Y181.3290
G01 X47.5824 Y181.4219
G01 X47.4673 Y181.5182
G01 X47.4780 Y181.5236
G01 X47.5574 Y181.5251
G01 X50.5384 Y181.5509
G01 X53.5195 Y181.5638
G01 X56.5006 Y181.5639
G01 X59.4817 Y181.5512
G01 X59.3260 Y181.4058
G01 X59.1627 Y181.2690
G01 X58.9922 Y181.1414
G01 X58.8150 Y181.0232
G01 X58.7032 Y181.1891
M107
G00 Z2.0000


;No. 4: Hole 5
G00 X58.8197 Y175.5799 Z2.0000
G00 Z0.5000
G01 Z-1.8000 F400
M106 S240
G01 X48.0994 F1000
M107
G00 Z2.0000
G00 Z0.5000
G01 Z-1.8000 F400
M106 S240
G01 X47.9887 Y175.4126 F1000
G01 X47.7827 Y175.5518
G01 X47.5887 Y175.7070
G01 X47.4077 Y175.8774
G01 X47.2410 Y176.0617
G01 X50.3254 Y176.0920
G01 X53.4099 Y176.0990
G01 X56.4944 Y176.0826
G01 X59.5787 Y176.0430
G01 X59.3207 Y175.7553
G01 X59.0349 Y175.4953
G01 X58.7240 Y175.2657
G01 X58.3915 Y175.0689
G01 X53.1057 Y175.0752
G01 X51.6093 Y175.0800
G01 X51.1389 Y175.0820
G01 X50.6686 Y175.0864
G01 X50.1983 Y175.0933
G01 X49.7281 Y175.1025
G01 X49.3813 Y175.1011
G01 X49.0350 Y175.1170
G01 X48.6898 Y175.1504
G01 X48.3468 Y175.2010
G01 X48.3298 Y175.2093
G01 X48.2459 Y175.2558
G01 X48.1630 Y175.3040
G01 X48.0810 Y175.3537
G01 X48.0000 Y175.4051
G01 X47.9887 Y175.4126
G01 X48.0994 Y175.5799
M107
G00 Z2.0000


;No. 5: Hole 6
G00 X48.2709 Y169.6093 Z2.0000
G00 Z0.5000
G01 Z-1.8000 F400
M106 S240
G01 X58.6673 F1000
M107
G00 Z2.0000
G00 Z0.5000
G01 Z-1.8000 F400
M106 S240
G01 X58.7672 Y169.4360 F1000
G01 X58.6740 Y169.3912
G01 X58.5784 Y169.3519
G01 X58.4806 Y169.3183
G01 X58.3810 Y169.2905
G01 X58.2800 Y169.2686
G01 X58.1778 Y169.2526
G01 X58.0749 Y169.2427
G01 X57.9716 Y169.2388
G01 X57.3208 Y169.2010
G01 X56.6694 Y169.1773
G01 X56.0175 Y169.1676
G01 X55.3657 Y169.1720
G01 X52.2687 Y169.1715
G01 X51.4371 Y169.1617
G01 X50.6054 Y169.1675
G01 X49.7740 Y169.1889
G01 X48.9431 Y169.2257
G01 X48.8485 Y169.2328
G01 X48.7540 Y169.2425
G01 X48.6599 Y169.2549
G01 X48.5662 Y169.2701
G01 X48.2444 Y169.4041
G01 X47.9378 Y169.5701
G01 X47.6495 Y169.7661
G01 X47.3826 Y169.9903
G01 X47.3673 Y170.0069
G01 X47.9885 Y170.0180
G01 X48.6097 Y170.0268
G01 X49.2309 Y170.0334
G01 X49.8521 Y170.0378
G01 X52.2599 Y170.0528
G01 X54.6677 Y170.0540
G01 X57.0755 Y170.0414
G01 X59.4832 Y170.0148
G01 X59.4873 Y170.0006
G01 X59.3227 Y169.8406
G01 X59.1473 Y169.6927
G01 X58.9618 Y169.5576
G01 X58.7672 Y169.4360
G01 X58.6673 Y169.6093
M107
G00 Z2.0000


;No. 6: Hole 7
G00 X71.1118 Y169.3632 Z2.0000
G00 Z0.5000
G01 Z-1.8000 F400
M106 S240
G01 X82.5763 F1000
M107
G00 Z2.0000
G00 Y175.3632
G00 Z0.5000
G01 Z-1.8000 F400
M106 S240
G01 X70.1599 F1000
M107
G00 Z2.0000
G00 Y181.3632
G00 Z0.5000
G01 Z-1.8000 F400
M106 S240
G01 X81.3548 F1000
M107
G00 Z2.0000
G00 Z0.5000
G01 Z-1.8000 F400
M106 S240
G01 X81.4797 Y181.2071 F1000
G01 X81.3529 Y181.1079
G01 X81.2247 Y181.0108
G01 X81.0949 Y180.9156
G01 X80.9636 Y180.8226
G01 X71.5692
G01 X71.4698 Y180.8196
G01 X71.3713 Y180.8067
G01 X71.2745 Y180.7842
G01 X71.1804 Y180.7522
G01 X71.0900 Y180.7109
G01 X71.0041 Y180.6610
G01 X70.9235 Y180.6027
G01 X70.8492 Y180.5367
G01 X70.7818 Y180.4637
G01 X70.7219 Y180.3844
G01 X70.6703 Y180.2995
G01 X70.6273 Y180.2099
G01 X70.5934 Y180.1164
G01 X70.5689 Y180.0201
G01 X70.5541 Y179.9218
G01 X70.5492 Y179.8226
G01 Y176.9656
G01 X70.5517 Y176.8748
G01 X70.5627 Y176.7818
G01 X70.5824 Y176.6901
G01 X70.6105 Y176.6008
G01 X70.6469 Y176.5144
G01 X70.6912 Y176.4318
G01 X70.7431 Y176.3538
G01 X70.8020 Y176.2809
G01 X70.8675 Y176.2139
G01 X70.9390 Y176.1533
G01 X71.0159 Y176.0997
G01 X71.0974 Y176.0534
G01 X71.1829 Y176.0151
G01 X71.2716 Y175.9849
G01 X71.3628 Y175.9631
G01 X71.4556 Y175.9500
G01 X71.5492 Y175.9456
G01 X82.7763
G01 Y169.0269
G01 X76.1684 Y169.0270
G01 X74.7591 Y169.0257
G01 X73.3499 Y169.0325
G01 X71.9407 Y169.0473
G01 X70.5317 Y169.0702
G01 X70.5374 Y169.0832
G01 X70.5835 Y169.1419
G01 X70.6323 Y169.1983
G01 X70.6837 Y169.2525
G01 X70.7375 Y169.3042
G01 X70.8467 Y169.4029
G01 X70.9584 Y169.4988
G01 X71.0725 Y169.5918
G01 X71.1889 Y169.6819
G01 X71.2915 Y169.7472
G01 X71.3986 Y169.8046
G01 X71.5098 Y169.8538
G01 X71.6243 Y169.8945
G01 X71.7416 Y169.9265
G01 X71.8610 Y169.9495
G01 X71.9817 Y169.9634
G01 X72.1032 Y169.9683
G01 X72.8753 Y170.0146
G01 X73.6483 Y170.0431
G01 X74.4217 Y170.0541
G01 X75.1952 Y170.0473
G01 X81.0232 Y170.0477
G01 X81.1225 Y170.0507
G01 X81.2211 Y170.0635
G01 X81.3179 Y170.0861
G01 X81.4120 Y170.1181
G01 X81.5024 Y170.1593
G01 X81.5883 Y170.2093
G01 X81.6688 Y170.2676
G01 X81.7432 Y170.3335
G01 X81.8106 Y170.4066
G01 X81.8704 Y170.4859
G01 X81.9221 Y170.5708
G01 X81.9651 Y170.6604
G01 X81.9990 Y170.7538
G01 X82.0235 Y170.8502
G01 X82.0382 Y170.9485
G01 X82.0432 Y171.0477
G01 Y174.0486
G01 X82.0402 Y174.1479
G01 X82.0274 Y174.2464
G01 X82.0048 Y174.3432
G01 X81.9728 Y174.4373
G01 X81.9316 Y174.5278
G01 X81.8816 Y174.6137
G01 X81.8233 Y174.6942
G01 X81.7574 Y174.7685
G01 X81.6843 Y174.8359
G01 X81.6050 Y174.8958
G01 X81.5201 Y174.9475
G01 X81.4305 Y174.9905
G01 X81.3371 Y175.0244
G01 X81.2407 Y175.0488
G01 X81.1424 Y175.0636
G01 X81.0432 Y175.0685
G01 X69.9599 Y175.0686
G01 Y181.6995
G01 X76.2961
G01 X77.7138 Y181.7042
G01 X79.1315 Y181.7013
G01 X80.5492 Y181.6906
G01 X81.9668 Y181.6722
G01 X81.8519 Y181.5488
G01 X81.7324 Y181.4300
G01 X81.6082 Y181.3161
G01 X81.4797 Y181.2071
G01 X81.3548 Y181.3632
M107
G00 Z2.0000


;No. 7: Hole 8


;No. 8: Hole 8
G00 X103.0398 Y169.1707 Z2.0000
G00 Z0.5000
G01 Z-1.8000 F400
M106 S240
G01 X92.4003 F1000
G01 Y181.6995
G01 X92.9896
G01 Y171.0677
G01 X92.9921 Y170.9770
G01 X93.0031 Y170.8839
G01 X93.0227 Y170.7923
G01 X93.0509 Y170.7029
G01 X93.0873 Y170.6165
G01 X93.1316 Y170.5340
G01 X93.1835 Y170.4559
G01 X93.2424 Y170.3830
G01 X93.3079 Y170.3160
G01 X93.3794 Y170.2554
G01 X93.4563 Y170.2018
G01 X93.5378 Y170.1556
G01 X93.6233 Y170.1172
G01 X93.7120 Y170.0870
G01 X93.8032 Y170.0652
G01 X93.8960 Y170.0521
G01 X93.9896 Y170.0477
G01 X104.0613
G01 X104.0773 Y170.0446
G01 X103.8503 Y169.7901
G01 X103.6002 Y169.5583
G01 X103.3292 Y169.3512
G01 X103.0398 Y169.1707
M107
G00 Z2.0000


;No. 9: Hole 10


;No. 10: Hole 10
G00 X114.9987 Y169.1708 Z2.0000
G00 Z0.5000
G01 Z-1.8000 F400
M106 S240
G01 X114.4094 Y169.1709 F1000
G01 X114.4092 Y176.0870
G01 X127.1622 Y176.0224
G01 X127.2214 Y169.1707
G01 X126.6366
G01 Y174.0486
G01 X126.6336 Y174.1479
G01 X126.6208 Y174.2465
G01 X126.5982 Y174.3433
G01 X126.5662 Y174.4374
G01 X126.5250 Y174.5278
G01 X126.4750 Y174.6137
G01 X126.4167 Y174.6942
G01 X126.3508 Y174.7686
G01 X126.2777 Y174.8360
G01 X126.1984 Y174.8958
G01 X126.1135 Y174.9475
G01 X126.0239 Y174.9905
G01 X125.9305 Y175.0244
G01 X125.8341 Y175.0489
G01 X125.7359 Y175.0636
G01 X125.6366 Y175.0686
G01 X116.0187
G01 X115.9194 Y175.0656
G01 X115.8208 Y175.0528
G01 X115.7240 Y175.0302
G01 X115.6300 Y174.9982
G01 X115.5395 Y174.9570
G01 X115.4536 Y174.9070
G01 X115.3731 Y174.8487
G01 X115.2988 Y174.7828
G01 X115.2313 Y174.7097
G01 X115.1715 Y174.6304
G01 X115.1198 Y174.5455
G01 X115.0768 Y174.4559
G01 X115.0429 Y174.3625
G01 X115.0185 Y174.2661
G01 X115.0037 Y174.1678
G01 X114.9987 Y174.0686
G01 Y169.1708
M107
G00 Z2.0000


;No. 11: Hole 9
G00 X115.4667 Y181.1891 Z2.0000
G00 Z0.5000
G01 Z-1.8000 F400
M106 S240
G01 X126.0811 F1000
M107
G00 Z2.0000
G00 Z0.5000
G01 Z-1.8000 F400
M106 S240
G01 X126.1873 Y181.0197 F1000
G01 X126.1548 Y180.9981
G01 X126.1216 Y180.9778
G01 X126.0876 Y180.9587
G01 X126.0530 Y180.9408
G01 X126.0342 Y180.9338
G01 X126.0152 Y180.9276
G01 X125.9958 Y180.9224
G01 X125.9763 Y180.9181
G01 X125.9073 Y180.9066
G01 X125.8381 Y180.8968
G01 X125.7687 Y180.8886
G01 X125.6991 Y180.8820
G01 X124.4607 Y180.8374
G01 X123.2217 Y180.8127
G01 X121.9826 Y180.8078
G01 X120.7435 Y180.8228
G01 X115.6526
G01 X115.0875 Y181.2047
G01 X114.9915 Y181.2793
G01 X114.8983 Y181.3573
G01 X114.8078 Y181.4386
G01 X114.7203 Y181.5231
G01 X115.2793 Y181.5324
G01 X115.8383 Y181.5397
G01 X116.3973 Y181.5448
G01 X116.9564 Y181.5479
G01 X119.4279 Y181.5669
G01 X121.8996 Y181.5672
G01 X124.3711 Y181.5488
G01 X126.8425 Y181.5116
G01 X126.6854 Y181.3799
G01 X126.5237 Y181.2539
G01 X126.3576 Y181.1338
G01 X126.1873 Y181.0197
G01 X126.0811 Y181.1891
M107
G00 Z2.0000


;No. 12: Helical drill 2
G00 X131.1624 Y190.1818 Z2.0000
G00 Z0.5000
M106 S240
G01 X131.1613 Y190.1413 Z0.4833 F400
G01 X131.1581 Y190.1008 Z0.4667
G01 X131.1528 Y190.0606 Z0.4500
G01 X131.1454 Y190.0207 Z0.4333
G01 X131.1360 Y189.9813 Z0.4167
G01 X131.1245 Y189.9424 Z0.4000
G01 X131.1109 Y189.9041 Z0.3833
G01 X131.0954 Y189.8667 Z0.3667
G01 X131.0779 Y189.8300 Z0.3500
G01 X131.0586 Y189.7944 Z0.3333
G01 X131.0374 Y189.7598 Z0.3167
G01 X131.0144 Y189.7264 Z0.3000
G01 X130.9897 Y189.6942 Z0.2833
G01 X130.9634 Y189.6633 Z0.2667
G01 X130.9354 Y189.6339 Z0.2500
G01 X130.9060 Y189.6060 Z0.2333
G01 X130.8752 Y189.5796 Z0.2167
G01 X130.8430 Y189.5549 Z0.2000
G01 X130.8095 Y189.5320 Z0.1833
G01 X130.7749 Y189.5108 Z0.1667
G01 X130.7393 Y189.4914 Z0.1500
G01 X130.7027 Y189.4739 Z0.1333
G01 X130.6652 Y189.4584 Z0.1167
G01 X130.6270 Y189.4449 Z0.1000
G01 X130.5881 Y189.4334 Z0.0833
G01 X130.5486 Y189.4239 Z0.0667
G01 X130.5087 Y189.4165 Z0.0500
G01 X130.4685 Y189.4112 Z0.0333
G01 X130.4281 Y189.4080 Z0.0167
G01 X130.3875 Y189.4070 Z0.0000
G01 X130.3470 Y189.4080 Z-0.0167
G01 X130.3065 Y189.4112 Z-0.0333
G01 X130.2663 Y189.4165 Z-0.0500
G01 X130.2264 Y189.4239 Z-0.0667
G01 X130.1870 Y189.4334 Z-0.0833
G01 X130.1481 Y189.4449 Z-0.1000
G01 X130.1098 Y189.4584 Z-0.1167
G01 X130.0723 Y189.4739 Z-0.1333
G01 X130.0357 Y189.4914 Z-0.1500
G01 X130.0001 Y189.5108 Z-0.1667
G01 X129.9655 Y189.5320 Z-0.1833
G01 X129.9321 Y189.5549 Z-0.2000
G01 X129.8999 Y189.5796 Z-0.2167
G01 X129.8690 Y189.6060 Z-0.2333
G01 X129.8396 Y189.6339 Z-0.2500
G01 X129.8117 Y189.6633 Z-0.2667
G01 X129.7853 Y189.6942 Z-0.2833
G01 X129.7606 Y189.7264 Z-0.3000
G01 X129.7377 Y189.7598 Z-0.3167
G01 X129.7165 Y189.7944 Z-0.3333
G01 X129.6971 Y189.8300 Z-0.3500
G01 X129.6796 Y189.8667 Z-0.3667
G01 X129.6641 Y189.9041 Z-0.3833
G01 X129.6506 Y189.9424 Z-0.4000
G01 X129.6390 Y189.9813 Z-0.4167
G01 X129.6296 Y190.0207 Z-0.4333
G01 X129.6222 Y190.0606 Z-0.4500
G01 X129.6169 Y190.1008 Z-0.4667
G01 X129.6137 Y190.1413 Z-0.4833
G01 X129.6126 Y190.1818 Z-0.5000
G01 X129.6137 Y190.2224 Z-0.5167
G01 X129.6169 Y190.2628 Z-0.5333
G01 X129.6222 Y190.3030 Z-0.5500
G01 X129.6296 Y190.3429 Z-0.5667
G01 X129.6390 Y190.3824 Z-0.5833
G01 X129.6506 Y190.4213 Z-0.6000
G01 X129.6641 Y190.4595 Z-0.6167
G01 X129.6796 Y190.4970 Z-0.6333
G01 X129.6971 Y190.5336 Z-0.6500
G01 X129.7165 Y190.5693 Z-0.6667
G01 X129.7377 Y190.6038 Z-0.6833
G01 X129.7606 Y190.6373 Z-0.7000
G01 X129.7853 Y190.6695 Z-0.7167
G01 X129.8117 Y190.7003 Z-0.7333
G01 X129.8396 Y190.7297 Z-0.7500
G01 X129.8690 Y190.7577 Z-0.7667
G01 X129.8999 Y190.7840 Z-0.7833
G01 X129.9321 Y190.8087 Z-0.8000
G01 X129.9655 Y190.8317 Z-0.8167
G01 X130.0001 Y190.8529 Z-0.8333
G01 X130.0357 Y190.8722 Z-0.8500
G01 X130.0723 Y190.8897 Z-0.8667
G01 X130.1098 Y190.9052 Z-0.8833
G01 X130.1481 Y190.9188 Z-0.9000
G01 X130.1870 Y190.9303 Z-0.9167
G01 X130.2264 Y190.9398 Z-0.9333
G01 X130.2663 Y190.9471 Z-0.9500
G01 X130.3065 Y190.9524 Z-0.9667
G01 X130.3470 Y190.9556 Z-0.9833
G01 X130.3875 Y190.9567 Z-1.0000
G01 X130.4281 Y190.9556 Z-1.0167
G01 X130.4685 Y190.9524 Z-1.0333
G01 X130.5087 Y190.9471 Z-1.0500
G01 X130.5486 Y190.9398 Z-1.0667
G01 X130.5881 Y190.9303 Z-1.0833
G01 X130.6270 Y190.9188 Z-1.1000
G01 X130.6652 Y190.9052 Z-1.1167
G01 X130.7027 Y190.8897 Z-1.1333
G01 X130.7393 Y190.8722 Z-1.1500
G01 X130.7749 Y190.8529 Z-1.1667
G01 X130.8095 Y190.8317 Z-1.1833
G01 X130.8430 Y190.8087 Z-1.2000
G01 X130.8752 Y190.7840 Z-1.2167
G01 X130.9060 Y190.7577 Z-1.2333
G01 X130.9354 Y190.7297 Z-1.2500
G01 X130.9634 Y190.7003 Z-1.2667
G01 X130.9897 Y190.6695 Z-1.2833
G01 X131.0144 Y190.6373 Z-1.3000
G01 X131.0374 Y190.6038 Z-1.3167
G01 X131.0586 Y190.5693 Z-1.3333
G01 X131.0779 Y190.5336 Z-1.3500
G01 X131.0954 Y190.4970 Z-1.3667
G01 X131.1109 Y190.4595 Z-1.3833
G01 X131.1245 Y190.4213 Z-1.4000
G01 X131.1360 Y190.3824 Z-1.4167
G01 X131.1454 Y190.3429 Z-1.4333
G01 X131.1528 Y190.3030 Z-1.4500
G01 X131.1581 Y190.2628 Z-1.4667
G01 X131.1613 Y190.2224 Z-1.4833
G01 X131.1624 Y190.1818 Z-1.5000
G01 X131.1613 Y190.1413 Z-1.5167
G01 X131.1581 Y190.1008 Z-1.5333
G01 X131.1528 Y190.0606 Z-1.5500
G01 X131.1454 Y190.0207 Z-1.5667
G01 X131.1360 Y189.9813 Z-1.5833
G01 X131.1245 Y189.9424 Z-1.6000
G01 X131.1109 Y189.9041 Z-1.6167
G01 X131.0954 Y189.8667 Z-1.6333
G01 X131.0779 Y189.8300 Z-1.6500
G01 X131.0586 Y189.7944 Z-1.6667
G01 X131.0374 Y189.7598 Z-1.6833
G01 X131.0144 Y189.7264 Z-1.7000
G01 X130.9897 Y189.6942 Z-1.7167
G01 X130.9634 Y189.6633 Z-1.7333
G01 X130.9354 Y189.6339 Z-1.7500
G01 X130.9060 Y189.6060 Z-1.7667
G01 X130.8752 Y189.5796 Z-1.7833
G01 X130.8430 Y189.5549 Z-1.8000
G01 X130.8095 Y189.5320 Z-1.8167
G01 X130.7749 Y189.5108 Z-1.8333
G01 X130.7393 Y189.4914 Z-1.8500
G01 X130.7027 Y189.4739 Z-1.8667
G01 X130.6652 Y189.4584 Z-1.8833
G01 X130.6270 Y189.4449 Z-1.9000
G01 X130.5881 Y189.4334 Z-1.9167
G01 X130.5486 Y189.4239 Z-1.9333
G01 X130.5087 Y189.4165 Z-1.9500
G01 X130.4685 Y189.4112 Z-1.9667
G01 X130.4281 Y189.4080 Z-1.9833
G01 X130.3875 Y189.4070 Z-2.0000
G01 X130.3470 Y189.4080 Z-2.0167
G01 X130.3065 Y189.4112 Z-2.0333
G01 X130.2663 Y189.4165 Z-2.0500
G01 X130.2264 Y189.4239 Z-2.0667
G01 X130.1870 Y189.4334 Z-2.0833
G01 X130.1481 Y189.4449 Z-2.1000
G01 X130.1098 Y189.4584 Z-2.1167
G01 X130.0723 Y189.4739 Z-2.1333
G01 X130.0357 Y189.4914 Z-2.1500
G01 X130.0001 Y189.5108 Z-2.1667
G01 X129.9655 Y189.5320 Z-2.1833
G01 X129.9321 Y189.5549 Z-2.2000
G01 X129.8999 Y189.5796 Z-2.2167
G01 X129.8690 Y189.6060 Z-2.2333
G01 X129.8396 Y189.6339 Z-2.2500
G01 X129.8117 Y189.6633 Z-2.2667
G01 X129.7853 Y189.6942 Z-2.2833
G01 X129.7606 Y189.7264 Z-2.3000
G01 X129.7377 Y189.7598 Z-2.3167
G01 X129.7165 Y189.7944 Z-2.3333
G01 X129.6971 Y189.8300 Z-2.3500
G01 X129.6796 Y189.8667 Z-2.3667
G01 X129.6641 Y189.9041 Z-2.3833
G01 X129.6506 Y189.9424 Z-2.4000
G01 X129.6390 Y189.9813 Z-2.4167
G01 X129.6296 Y190.0207 Z-2.4333
G01 X129.6222 Y190.0606 Z-2.4500
G01 X129.6169 Y190.1008 Z-2.4667
G01 X129.6137 Y190.1413 Z-2.4833
G01 X129.6126 Y190.1818 Z-2.5000
G01 X129.6137 Y190.2224 Z-2.5167
G01 X129.6169 Y190.2628 Z-2.5333
G01 X129.6222 Y190.3030 Z-2.5500
G01 X129.6296 Y190.3429 Z-2.5667
G01 X129.6390 Y190.3824 Z-2.5833
G01 X129.6506 Y190.4213 Z-2.6000
G01 X129.6641 Y190.4595 Z-2.6167
G01 X129.6796 Y190.4970 Z-2.6333
G01 X129.6971 Y190.5336 Z-2.6500
G01 X129.7165 Y190.5693 Z-2.6667
G01 X129.7377 Y190.6038 Z-2.6833
G01 X129.7606 Y190.6373 Z-2.7000
G01 X129.7853 Y190.6695 Z-2.7167
G01 X129.8117 Y190.7003 Z-2.7333
G01 X129.8396 Y190.7297 Z-2.7500
G01 X129.8690 Y190.7577 Z-2.7667
G01 X129.8999 Y190.7840 Z-2.7833
G01 X129.9321 Y190.8087 Z-2.8000
G01 X129.9655 Y190.8317 Z-2.8167
G01 X130.0001 Y190.8529 Z-2.8333
G01 X130.0357 Y190.8722 Z-2.8500
G01 X130.0723 Y190.8897 Z-2.8667
G01 X130.1098 Y190.9052 Z-2.8833
G01 X130.1481 Y190.9188 Z-2.9000
G01 X130.1870 Y190.9303 Z-2.9167
G01 X130.2264 Y190.9398 Z-2.9333
G01 X130.2663 Y190.9471 Z-2.9500
G01 X130.3065 Y190.9524 Z-2.9667
G01 X130.3470 Y190.9556 Z-2.9833
G01 X130.3875 Y190.9567 Z-3.0000
G01 X130.4281 Y190.9556 Z-3.0167
G01 X130.4685 Y190.9524 Z-3.0333
G01 X130.5087 Y190.9471 Z-3.0500
G01 X130.5486 Y190.9398 Z-3.0667
G01 X130.5881 Y190.9303 Z-3.0833
G01 X130.6270 Y190.9188 Z-3.1000
G01 X130.6652 Y190.9052 Z-3.1167
G01 X130.7027 Y190.8897 Z-3.1333
G01 X130.7393 Y190.8722 Z-3.1500
G01 X130.7749 Y190.8529 Z-3.1667
G01 X130.8095 Y190.8317 Z-3.1833
G01 X130.8430 Y190.8087 Z-3.2000
G01 X130.8752 Y190.7840 Z-3.2167
G01 X130.9060 Y190.7577 Z-3.2333
G01 X130.9354 Y190.7297 Z-3.2500
G01 X130.9634 Y190.7003 Z-3.2667
G01 X130.9897 Y190.6695 Z-3.2833
G01 X131.0144 Y190.6373 Z-3.3000
G01 X131.0374 Y190.6038 Z-3.3167
G01 X131.0586 Y190.5693 Z-3.3333
G01 X131.0779 Y190.5336 Z-3.3500
G01 X131.0954 Y190.4970 Z-3.3667
G01 X131.1109 Y190.4595 Z-3.3833
G01 X131.1245 Y190.4213 Z-3.4000
G01 X131.1360 Y190.3824 Z-3.4167
G01 X131.1454 Y190.3429 Z-3.4333
G01 X131.1528 Y190.3030 Z-3.4500
G01 X131.1581 Y190.2628 Z-3.4667
G01 X131.1613 Y190.2224 Z-3.4833
G01 X131.1624 Y190.1818 Z-3.5000
G01 X131.1613 Y190.1413 Z-3.5167
G01 X131.1581 Y190.1008 Z-3.5333
G01 X131.1528 Y190.0606 Z-3.5500
G01 X131.1454 Y190.0207 Z-3.5667
G01 X131.1360 Y189.9813 Z-3.5833
G01 X131.1245 Y189.9424 Z-3.6000
G01 X131.1109 Y189.9041 Z-3.6167
G01 X131.0954 Y189.8667 Z-3.6333
G01 X131.0779 Y189.8300 Z-3.6500
G01 X131.0586 Y189.7944 Z-3.6667
G01 X131.0374 Y189.7598 Z-3.6833
G01 X131.0144 Y189.7264 Z-3.7000
G01 X130.9897 Y189.6942 Z-3.7167
G01 X130.9634 Y189.6633 Z-3.7333
G01 X130.9354 Y189.6339 Z-3.7500
G01 X130.9060 Y189.6060 Z-3.7667
G01 X130.8752 Y189.5796 Z-3.7833
G01 X130.8430 Y189.5549 Z-3.8000
G01 X130.8095 Y189.5320 Z-3.8167
G01 X130.7749 Y189.5108 Z-3.8333
G01 X130.7393 Y189.4914 Z-3.8500
G01 X130.7027 Y189.4739 Z-3.8667
G01 X130.6652 Y189.4584 Z-3.8833
G01 X130.6270 Y189.4449 Z-3.9000
G01 X130.5881 Y189.4334 Z-3.9167
G01 X130.5486 Y189.4239 Z-3.9333
G01 X130.5087 Y189.4165 Z-3.9500
G01 X130.4685 Y189.4112 Z-3.9667
G01 X130.4281 Y189.4080 Z-3.9833
G01 X130.3875 Y189.4070 Z-4.0000
G01 X130.3470 Y189.4080 Z-4.0167
G01 X130.3065 Y189.4112 Z-4.0333
G01 X130.2663 Y189.4165 Z-4.0500
G01 X130.2264 Y189.4239 Z-4.0667
G01 X130.1870 Y189.4334 Z-4.0833
G01 X130.1481 Y189.4449 Z-4.1000
G01 X130.1098 Y189.4584 Z-4.1167
G01 X130.0723 Y189.4739 Z-4.1333
G01 X130.0357 Y189.4914 Z-4.1500
G01 X130.0001 Y189.5108 Z-4.1667
G01 X129.9655 Y189.5320 Z-4.1833
G01 X129.9321 Y189.5549 Z-4.2000
G01 X129.8999 Y189.5796 Z-4.2167
G01 X129.8690 Y189.6060 Z-4.2333
G01 X129.8396 Y189.6339 Z-4.2500
G01 X129.8117 Y189.6633 Z-4.2667
G01 X129.7853 Y189.6942 Z-4.2833
G01 X129.7606 Y189.7264 Z-4.3000
G01 X129.7377 Y189.7598 Z-4.3167
G01 X129.7165 Y189.7944 Z-4.3333
G01 X129.6971 Y189.8300 Z-4.3500
G01 X129.6796 Y189.8667 Z-4.3667
G01 X129.6641 Y189.9041 Z-4.3833
G01 X129.6506 Y189.9424 Z-4.4000
G01 X129.6390 Y189.9813 Z-4.4167
G01 X129.6296 Y190.0207 Z-4.4333
G01 X129.6222 Y190.0606 Z-4.4500
G01 X129.6169 Y190.1008 Z-4.4667
G01 X129.6137 Y190.1413 Z-4.4833
G01 X129.6126 Y190.1818 Z-4.5000
G01 X129.6137 Y190.2224 Z-4.5167
G01 X129.6169 Y190.2628 Z-4.5333
G01 X129.6222 Y190.3030 Z-4.5500
G01 X129.6296 Y190.3429 Z-4.5667
G01 X129.6390 Y190.3824 Z-4.5833
G01 X129.6506 Y190.4213 Z-4.6000
G01 X129.6641 Y190.4595 Z-4.6167
G01 X129.6796 Y190.4970 Z-4.6333
G01 X129.6971 Y190.5336 Z-4.6500
G01 X129.7165 Y190.5693 Z-4.6667
G01 X129.7377 Y190.6038 Z-4.6833
G01 X129.7606 Y190.6373 Z-4.7000
G01 X129.7853 Y190.6695 Z-4.7167
G01 X129.8117 Y190.7003 Z-4.7333
G01 X129.8396 Y190.7297 Z-4.7500
G01 X129.8690 Y190.7577 Z-4.7667
G01 X129.8999 Y190.7840 Z-4.7833
G01 X129.9321 Y190.8087 Z-4.8000
G01 X129.9655 Y190.8317 Z-4.8167
G01 X130.0001 Y190.8529 Z-4.8333
G01 X130.0357 Y190.8722 Z-4.8500
G01 X130.0723 Y190.8897 Z-4.8667
G01 X130.1098 Y190.9052 Z-4.8833
G01 X130.1481 Y190.9188 Z-4.9000
G01 X130.1870 Y190.9303 Z-4.9167
G01 X130.2264 Y190.9398 Z-4.9333
G01 X130.2663 Y190.9471 Z-4.9500
G01 X130.3065 Y190.9524 Z-4.9667
G01 X130.3470 Y190.9556 Z-4.9833
G01 X130.3875 Y190.9567 Z-5.0000
G01 X130.4281 Y190.9556 Z-5.0167
G01 X130.4685 Y190.9524 Z-5.0333
G01 X130.5087 Y190.9471 Z-5.0500
G01 X130.5486 Y190.9398 Z-5.0667
G01 X130.5881 Y190.9303 Z-5.0833
G01 X130.6270 Y190.9188 Z-5.1000
G01 X130.6652 Y190.9052 Z-5.1167
G01 X130.7027 Y190.8897 Z-5.1333
G01 X130.7393 Y190.8722 Z-5.1500
G01 X130.7749 Y190.8529 Z-5.1667
G01 X130.8095 Y190.8317 Z-5.1833
G01 X130.8430 Y190.8087 Z-5.2000
G01 X130.8752 Y190.7840 Z-5.2167
G01 X130.9060 Y190.7577 Z-5.2333
G01 X130.9354 Y190.7297 Z-5.2500
G01 X130.9634 Y190.7003 Z-5.2667
G01 X130.9897 Y190.6695 Z-5.2833
G01 X131.0144 Y190.6373 Z-5.3000
G01 X131.0374 Y190.6038 Z-5.3167
G01 X131.0586 Y190.5693 Z-5.3333
G01 X131.0779 Y190.5336 Z-5.3500
G01 X131.0954 Y190.4970 Z-5.3667
G01 X131.1109 Y190.4595 Z-5.3833
G01 X131.1245 Y190.4213 Z-5.4000
G01 X131.1360 Y190.3824 Z-5.4167
G01 X131.1454 Y190.3429 Z-5.4333
G01 X131.1528 Y190.3030 Z-5.4500
G01 X131.1581 Y190.2628 Z-5.4667
G01 X131.1613 Y190.2224 Z-5.4833
G01 X131.1624 Y190.1818 Z-5.5000
G01 X131.1613 Y190.1413 Z-5.5042
G01 X131.1581 Y190.1008 Z-5.5083
G01 X131.1528 Y190.0606 Z-5.5125
G01 X131.1454 Y190.0207 Z-5.5167
G01 X131.1360 Y189.9813 Z-5.5208
G01 X131.1245 Y189.9424 Z-5.5250
G01 X131.1109 Y189.9041 Z-5.5292
G01 X131.0954 Y189.8667 Z-5.5333
G01 X131.0779 Y189.8300 Z-5.5375
G01 X131.0586 Y189.7944 Z-5.5417
G01 X131.0374 Y189.7598 Z-5.5458
G01 X131.0144 Y189.7264 Z-5.5500
G01 X130.9897 Y189.6942 Z-5.5542
G01 X130.9634 Y189.6633 Z-5.5583
G01 X130.9354 Y189.6339 Z-5.5625
G01 X130.9060 Y189.6060 Z-5.5667
G01 X130.8752 Y189.5796 Z-5.5708
G01 X130.8430 Y189.5549 Z-5.5750
G01 X130.8095 Y189.5320 Z-5.5792
G01 X130.7749 Y189.5108 Z-5.5833
G01 X130.7393 Y189.4914 Z-5.5875
G01 X130.7027 Y189.4739 Z-5.5917
G01 X130.6652 Y189.4584 Z-5.5958
G01 X130.6270 Y189.4449 Z-5.6000
G01 X130.5881 Y189.4334 Z-5.6042
G01 X130.5486 Y189.4239 Z-5.6083
G01 X130.5087 Y189.4165 Z-5.6125
G01 X130.4685 Y189.4112 Z-5.6167
G01 X130.4281 Y189.4080 Z-5.6208
G01 X130.3875 Y189.4070 Z-5.6250
G01 X130.3470 Y189.4080 Z-5.6292
G01 X130.3065 Y189.4112 Z-5.6333
G01 X130.2663 Y189.4165 Z-5.6375
G01 X130.2264 Y189.4239 Z-5.6417
G01 X130.1870 Y189.4334 Z-5.6458
G01 X130.1481 Y189.4449 Z-5.6500
G01 X130.1098 Y189.4584 Z-5.6542
G01 X130.0723 Y189.4739 Z-5.6583
G01 X130.0357 Y189.4914 Z-5.6625
G01 X130.0001 Y189.5108 Z-5.6667
G01 X129.9655 Y189.5320 Z-5.6708
G01 X129.9321 Y189.5549 Z-5.6750
G01 X129.8999 Y189.5796 Z-5.6792
G01 X129.8690 Y189.6060 Z-5.6833
G01 X129.8396 Y189.6339 Z-5.6875
G01 X129.8117 Y189.6633 Z-5.6917
G01 X129.7853 Y189.6942 Z-5.6958
G01 X129.7606 Y189.7264 Z-5.7000
G01 X129.7377 Y189.7598 Z-5.7042
G01 X129.7165 Y189.7944 Z-5.7083
G01 X129.6971 Y189.8300 Z-5.7125
G01 X129.6796 Y189.8667 Z-5.7167
G01 X129.6641 Y189.9041 Z-5.7208
G01 X129.6506 Y189.9424 Z-5.7250
G01 X129.6390 Y189.9813 Z-5.7292
G01 X129.6296 Y190.0207 Z-5.7333
G01 X129.6222 Y190.0606 Z-5.7375
G01 X129.6169 Y190.1008 Z-5.7417
G01 X129.6137 Y190.1413 Z-5.7458
G01 X129.6126 Y190.1818 Z-5.7500
G01 X129.6137 Y190.2224 Z-5.7542
G01 X129.6169 Y190.2628 Z-5.7583
G01 X129.6222 Y190.3030 Z-5.7625
G01 X129.6296 Y190.3429 Z-5.7667
G01 X129.6390 Y190.3824 Z-5.7708
G01 X129.6506 Y190.4213 Z-5.7750
G01 X129.6641 Y190.4595 Z-5.7792
G01 X129.6796 Y190.4970 Z-5.7833
G01 X129.6971 Y190.5336 Z-5.7875
G01 X129.7165 Y190.5693 Z-5.7917
G01 X129.7377 Y190.6038 Z-5.7958
G01 X129.7606 Y190.6373 Z-5.8000
G01 X129.7853 Y190.6695 Z-5.8042
G01 X129.8117 Y190.7003 Z-5.8083
G01 X129.8396 Y190.7297 Z-5.8125
G01 X129.8690 Y190.7577 Z-5.8167
G01 X129.8999 Y190.7840 Z-5.8208
G01 X129.9321 Y190.8087 Z-5.8250
G01 X129.9655 Y190.8317 Z-5.8292
G01 X130.0001 Y190.8529 Z-5.8333
G01 X130.0357 Y190.8722 Z-5.8375
G01 X130.0723 Y190.8897 Z-5.8417
G01 X130.1098 Y190.9052 Z-5.8458
G01 X130.1481 Y190.9188 Z-5.8500
G01 X130.1870 Y190.9303 Z-5.8542
G01 X130.2264 Y190.9398 Z-5.8583
G01 X130.2663 Y190.9471 Z-5.8625
G01 X130.3065 Y190.9524 Z-5.8667
G01 X130.3470 Y190.9556 Z-5.8708
G01 X130.3875 Y190.9567 Z-5.8750
G01 X130.4281 Y190.9556 Z-5.8792
G01 X130.4685 Y190.9524 Z-5.8833
G01 X130.5087 Y190.9471 Z-5.8875
G01 X130.5486 Y190.9398 Z-5.8917
G01 X130.5881 Y190.9303 Z-5.8958
G01 X130.6270 Y190.9188 Z-5.9000
G01 X130.6652 Y190.9052 Z-5.9042
G01 X130.7027 Y190.8897 Z-5.9083
G01 X130.7393 Y190.8722 Z-5.9125
G01 X130.7749 Y190.8529 Z-5.9167
G01 X130.8095 Y190.8317 Z-5.9208
G01 X130.8430 Y190.8087 Z-5.9250
G01 X130.8752 Y190.7840 Z-5.9292
G01 X130.9060 Y190.7577 Z-5.9333
G01 X130.9354 Y190.7297 Z-5.9375
G01 X130.9634 Y190.7003 Z-5.9417
G01 X130.9897 Y190.6695 Z-5.9458
G01 X131.0144 Y190.6373 Z-5.9500
G01 X131.0374 Y190.6038 Z-5.9542
G01 X131.0586 Y190.5693 Z-5.9583
G01 X131.0779 Y190.5336 Z-5.9625
G01 X131.0954 Y190.4970 Z-5.9667
G01 X131.1109 Y190.4595 Z-5.9708
G01 X131.1245 Y190.4213 Z-5.9750
G01 X131.1360 Y190.3824 Z-5.9792
G01 X131.1454 Y190.3429 Z-5.9833
G01 X131.1528 Y190.3030 Z-5.9875
G01 X131.1581 Y190.2628 Z-5.9917
G01 X131.1613 Y190.2224 Z-5.9958
G01 X131.1624 Y190.1818 Z-6.0000
G01 X131.1613 Y190.1413
G01 X131.1581 Y190.1008
G01 X131.1528 Y190.0606
G01 X131.1454 Y190.0207
G01 X131.1360 Y189.9813
G01 X131.1245 Y189.9424
G01 X131.1109 Y189.9041
G01 X131.0954 Y189.8667
G01 X131.0779 Y189.8300
G01 X131.0586 Y189.7944
G01 X131.0374 Y189.7598
G01 X131.0144 Y189.7264
G01 X130.9897 Y189.6942
G01 X130.9634 Y189.6633
G01 X130.9354 Y189.6339
G01 X130.9060 Y189.6060
G01 X130.8752 Y189.5796
G01 X130.8430 Y189.5549
G01 X130.8095 Y189.5320
G01 X130.7749 Y189.5108
G01 X130.7393 Y189.4914
G01 X130.7027 Y189.4739
G01 X130.6652 Y189.4584
G01 X130.6270 Y189.4449
G01 X130.5881 Y189.4334
G01 X130.5486 Y189.4239
G01 X130.5087 Y189.4165
G01 X130.4685 Y189.4112
G01 X130.4281 Y189.4080
G01 X130.3875 Y189.4070
G01 X130.3470 Y189.4080
G01 X130.3065 Y189.4112
G01 X130.2663 Y189.4165
G01 X130.2264 Y189.4239
G01 X130.1870 Y189.4334
G01 X130.1481 Y189.4449
G01 X130.1098 Y189.4584
G01 X130.0723 Y189.4739
G01 X130.0357 Y189.4914
G01 X130.0001 Y189.5108
G01 X129.9655 Y189.5320
G01 X129.9321 Y189.5549
G01 X129.8999 Y189.5796
G01 X129.8690 Y189.6060
G01 X129.8396 Y189.6339
G01 X129.8117 Y189.6633
G01 X129.7853 Y189.6942
G01 X129.7606 Y189.7264
G01 X129.7377 Y189.7598
G01 X129.7165 Y189.7944
G01 X129.6971 Y189.8300
G01 X129.6796 Y189.8667
G01 X129.6641 Y189.9041
G01 X129.6506 Y189.9424
G01 X129.6390 Y189.9813
G01 X129.6296 Y190.0207
G01 X129.6222 Y190.0606
G01 X129.6169 Y190.1008
G01 X129.6137 Y190.1413
G01 X129.6126 Y190.1818
G01 X129.6137 Y190.2224
G01 X129.6169 Y190.2628
G01 X129.6222 Y190.3030
G01 X129.6296 Y190.3429
G01 X129.6390 Y190.3824
G01 X129.6506 Y190.4213
G01 X129.6641 Y190.4595
G01 X129.6796 Y190.4970
G01 X129.6971 Y190.5336
G01 X129.7165 Y190.5693
G01 X129.7377 Y190.6038
G01 X129.7606 Y190.6373
G01 X129.7853 Y190.6695
G01 X129.8117 Y190.7003
G01 X129.8396 Y190.7297
G01 X129.8690 Y190.7577
G01 X129.8999 Y190.7840
G01 X129.9321 Y190.8087
G01 X129.9655 Y190.8317
G01 X130.0001 Y190.8529
G01 X130.0357 Y190.8722
G01 X130.0723 Y190.8897
G01 X130.1098 Y190.9052
G01 X130.1481 Y190.9188
G01 X130.1870 Y190.9303
G01 X130.2264 Y190.9398
G01 X130.2663 Y190.9471
G01 X130.3065 Y190.9524
G01 X130.3470 Y190.9556
G01 X130.3875 Y190.9567
G01 X130.4281 Y190.9556
G01 X130.4685 Y190.9524
G01 X130.5087 Y190.9471
G01 X130.5486 Y190.9398
G01 X130.5881 Y190.9303
G01 X130.6270 Y190.9188
G01 X130.6652 Y190.9052
G01 X130.7027 Y190.8897
G01 X130.7393 Y190.8722
G01 X130.7749 Y190.8529
G01 X130.8095 Y190.8317
G01 X130.8430 Y190.8087
G01 X130.8752 Y190.7840
G01 X130.9060 Y190.7577
G01 X130.9354 Y190.7297
G01 X130.9634 Y190.7003
G01 X130.9897 Y190.6695
G01 X131.0144 Y190.6373
G01 X131.0374 Y190.6038
G01 X131.0586 Y190.5693
G01 X131.0779 Y190.5336
G01 X131.0954 Y190.4970
G01 X131.1109 Y190.4595
G01 X131.1245 Y190.4213
G01 X131.1360 Y190.3824
G01 X131.1454 Y190.3429
G01 X131.1528 Y190.3030
G01 X131.1581 Y190.2628
G01 X131.1613 Y190.2224
G01 X131.1624 Y190.1818
M107
M106 S240
G01 X131.1612 Y190.1514 Z-5.9875
M107
M106 S240
G01 X131.1576 Y190.1212 Z-5.9750
M107
M106 S240
G01 X131.1517 Y190.0914 Z-5.9625
M107
M106 S240
G01 X131.1434 Y190.0621 Z-5.9500
M107
M106 S240
G01 X131.1329 Y190.0336 Z-5.9375
M107
M106 S240
G01 X131.1202 Y190.0059 Z-5.9250
M107
M106 S240
G01 X131.1053 Y189.9794 Z-5.9125
M107
M106 S240
G01 X131.0884 Y189.9541 Z-5.9000
M107
M106 S240
G01 X131.0696 Y189.9302 Z-5.8875
M107
M106 S240
G01 X131.0489 Y189.9079 Z-5.8750
M107
M106 S240
G01 X131.0266 Y189.8872 Z-5.8625
M107
M106 S240
G01 X131.0027 Y189.8684 Z-5.8500
M107
M106 S240
G01 X130.9774 Y189.8515 Z-5.8375
M107
M106 S240
G01 X130.9508 Y189.8366 Z-5.8250
M107
M106 S240
G01 X130.9232 Y189.8239 Z-5.8125
M107
M106 S240
G01 X130.8947 Y189.8133 Z-5.8000
M107
M106 S240
G01 X130.8654 Y189.8051 Z-5.7875
M107
M106 S240
G01 X130.8356 Y189.7992 Z-5.7750
M107
M106 S240
G01 X130.8053 Y189.7956 Z-5.7625
M107
M106 S240
G01 X130.7749 Y189.7944 Z-5.7500
M107
M106 S240
G01 X130.7445 Y189.7956 Z-5.7375
M107
M106 S240
G01 X130.7143 Y189.7992 Z-5.7250
M107
M106 S240
G01 X130.6845 Y189.8051 Z-5.7125
M107
M106 S240
G01 X130.6552 Y189.8133 Z-5.7000
M107
M106 S240
G01 X130.6267 Y189.8239 Z-5.6875
M107
M106 S240
G01 X130.5991 Y189.8366 Z-5.6750
M107
M106 S240
G01 X130.5725 Y189.8515 Z-5.6625
M107
M106 S240
G01 X130.5472 Y189.8684 Z-5.6500
M107
M106 S240
G01 X130.5233 Y189.8872 Z-5.6375
M107
M106 S240
G01 X130.5010 Y189.9079 Z-5.6250
M107
M106 S240
G01 X130.4803 Y189.9302 Z-5.6125
M107
M106 S240
G01 X130.4615 Y189.9541 Z-5.6000
M107
M106 S240
G01 X130.4446 Y189.9794 Z-5.5875
M107
M106 S240
G01 X130.4297 Y190.0059 Z-5.5750
M107
M106 S240
G01 X130.4170 Y190.0336 Z-5.5625
M107
M106 S240
G01 X130.4065 Y190.0621 Z-5.5500
M107
M106 S240
G01 X130.3982 Y190.0914 Z-5.5375
M107
M106 S240
G01 X130.3923 Y190.1212 Z-5.5250
M107
M106 S240
G01 X130.3887 Y190.1514 Z-5.5125
M107
M106 S240
G01 X130.3875 Y190.1818 Z-5.5000
M107
G00 Z2.0000


;No. 13: Helical drill 3
G00 X169.7052 Y190.3401 Z2.0000
G00 Z0.5000
M106 S240
G01 X169.7042 Y190.2996 Z0.4833 F400
G01 X169.7010 Y190.2591 Z0.4667
G01 X169.6957 Y190.2189 Z0.4500
G01 X169.6883 Y190.1790 Z0.4333
G01 X169.6788 Y190.1396 Z0.4167
G01 X169.6673 Y190.1007 Z0.4000
G01 X169.6538 Y190.0624 Z0.3833
G01 X169.6383 Y190.0250 Z0.3667
G01 X169.6208 Y189.9883 Z0.3500
G01 X169.6014 Y189.9527 Z0.3333
G01 X169.5802 Y189.9181 Z0.3167
G01 X169.5573 Y189.8847 Z0.3000
G01 X169.5326 Y189.8525 Z0.2833
G01 X169.5062 Y189.8216 Z0.2667
G01 X169.4783 Y189.7922 Z0.2500
G01 X169.4489 Y189.7643 Z0.2333
G01 X169.4180 Y189.7379 Z0.2167
G01 X169.3859 Y189.7133 Z0.2000
G01 X169.3524 Y189.6903 Z0.1833
G01 X169.3178 Y189.6691 Z0.1667
G01 X169.2822 Y189.6497 Z0.1500
G01 X169.2456 Y189.6323 Z0.1333
G01 X169.2081 Y189.6167 Z0.1167
G01 X169.1699 Y189.6032 Z0.1000
G01 X169.1310 Y189.5917 Z0.0833
G01 X169.0915 Y189.5822 Z0.0667
G01 X169.0516 Y189.5748 Z0.0500
G01 X169.0114 Y189.5695 Z0.0333
G01 X168.9710 Y189.5663 Z0.0167
G01 X168.9304 Y189.5653 Z0.0000
G01 X168.8899 Y189.5663 Z-0.0167
G01 X168.8494 Y189.5695 Z-0.0333
G01 X168.8092 Y189.5748 Z-0.0500
G01 X168.7693 Y189.5822 Z-0.0667
G01 X168.7299 Y189.5917 Z-0.0833
G01 X168.6910 Y189.6032 Z-0.1000
G01 X168.6527 Y189.6167 Z-0.1167
G01 X168.6153 Y189.6323 Z-0.1333
G01 X168.5787 Y189.6497 Z-0.1500
G01 X168.5430 Y189.6691 Z-0.1667
G01 X168.5084 Y189.6903 Z-0.1833
G01 X168.4750 Y189.7133 Z-0.2000
G01 X168.4428 Y189.7379 Z-0.2167
G01 X168.4120 Y189.7643 Z-0.2333
G01 X168.3825 Y189.7922 Z-0.2500
G01 X168.3546 Y189.8216 Z-0.2667
G01 X168.3283 Y189.8525 Z-0.2833
G01 X168.3036 Y189.8847 Z-0.3000
G01 X168.2806 Y189.9181 Z-0.3167
G01 X168.2594 Y189.9527 Z-0.3333
G01 X168.2400 Y189.9883 Z-0.3500
G01 X168.2226 Y190.0250 Z-0.3667
G01 X168.2071 Y190.0624 Z-0.3833
G01 X168.1935 Y190.1007 Z-0.4000
G01 X168.1820 Y190.1396 Z-0.4167
G01 X168.1725 Y190.1790 Z-0.4333
G01 X168.1651 Y190.2189 Z-0.4500
G01 X168.1598 Y190.2591 Z-0.4667
G01 X168.1567 Y190.2996 Z-0.4833
G01 X168.1556 Y190.3401 Z-0.5000
G01 X168.1567 Y190.3807 Z-0.5167
G01 X168.1598 Y190.4211 Z-0.5333
G01 X168.1651 Y190.4613 Z-0.5500
G01 X168.1725 Y190.5012 Z-0.5667
G01 X168.1820 Y190.5406 Z-0.5833
G01 X168.1935 Y190.5795 Z-0.6000
G01 X168.2071 Y190.6178 Z-0.6167
G01 X168.2226 Y190.6553 Z-0.6333
G01 X168.2400 Y190.6919 Z-0.6500
G01 X168.2594 Y190.7275 Z-0.6667
G01 X168.2806 Y190.7621 Z-0.6833
G01 X168.3036 Y190.7955 Z-0.7000
G01 X168.3283 Y190.8277 Z-0.7167
G01 X168.3546 Y190.8586 Z-0.7333
G01 X168.3825 Y190.8880 Z-0.7500
G01 X168.4120 Y190.9159 Z-0.7667
G01 X168.4428 Y190.9423 Z-0.7833
G01 X168.4750 Y190.9670 Z-0.8000
G01 X168.5084 Y190.9899 Z-0.8167
G01 X168.5430 Y191.0111 Z-0.8333
G01 X168.5787 Y191.0305 Z-0.8500
G01 X168.6153 Y191.0479 Z-0.8667
G01 X168.6527 Y191.0635 Z-0.8833
G01 X168.6910 Y191.0770 Z-0.9000
G01 X168.7299 Y191.0885 Z-0.9167
G01 X168.7693 Y191.0980 Z-0.9333
G01 X168.8092 Y191.1054 Z-0.9500
G01 X168.8494 Y191.1107 Z-0.9667
G01 X168.8899 Y191.1139 Z-0.9833
G01 X168.9304 Y191.1149 Z-1.0000
G01 X168.9710 Y191.1139 Z-1.0167
G01 X169.0114 Y191.1107 Z-1.0333
G01 X169.0516 Y191.1054 Z-1.0500
G01 X169.0915 Y191.0980 Z-1.0667
G01 X169.1310 Y191.0885 Z-1.0833
G01 X169.1699 Y191.0770 Z-1.1000
G01 X169.2081 Y191.0635 Z-1.1167
G01 X169.2456 Y191.0479 Z-1.1333
G01 X169.2822 Y191.0305 Z-1.1500
G01 X169.3178 Y191.0111 Z-1.1667
G01 X169.3524 Y190.9899 Z-1.1833
G01 X169.3859 Y190.9670 Z-1.2000
G01 X169.4180 Y190.9423 Z-1.2167
G01 X169.4489 Y190.9159 Z-1.2333
G01 X169.4783 Y190.8880 Z-1.2500
G01 X169.5062 Y190.8586 Z-1.2667
G01 X169.5326 Y190.8277 Z-1.2833
G01 X169.5573 Y190.7955 Z-1.3000
G01 X169.5802 Y190.7621 Z-1.3167
G01 X169.6014 Y190.7275 Z-1.3333
G01 X169.6208 Y190.6919 Z-1.3500
G01 X169.6383 Y190.6553 Z-1.3667
G01 X169.6538 Y190.6178 Z-1.3833
G01 X169.6673 Y190.5795 Z-1.4000
G01 X169.6788 Y190.5406 Z-1.4167
G01 X169.6883 Y190.5012 Z-1.4333
G01 X169.6957 Y190.4613 Z-1.4500
G01 X169.7010 Y190.4211 Z-1.4667
G01 X169.7042 Y190.3807 Z-1.4833
G01 X169.7052 Y190.3401 Z-1.5000
G01 X169.7042 Y190.2996 Z-1.5167
G01 X169.7010 Y190.2591 Z-1.5333
G01 X169.6957 Y190.2189 Z-1.5500
G01 X169.6883 Y190.1790 Z-1.5667
G01 X169.6788 Y190.1396 Z-1.5833
G01 X169.6673 Y190.1007 Z-1.6000
G01 X169.6538 Y190.0624 Z-1.6167
G01 X169.6383 Y190.0250 Z-1.6333
G01 X169.6208 Y189.9883 Z-1.6500
G01 X169.6014 Y189.9527 Z-1.6667
G01 X169.5802 Y189.9181 Z-1.6833
G01 X169.5573 Y189.8847 Z-1.7000
G01 X169.5326 Y189.8525 Z-1.7167
G01 X169.5062 Y189.8216 Z-1.7333
G01 X169.4783 Y189.7922 Z-1.7500
G01 X169.4489 Y189.7643 Z-1.7667
G01 X169.4180 Y189.7379 Z-1.7833
G01 X169.3859 Y189.7133 Z-1.8000
G01 X169.3524 Y189.6903 Z-1.8167
G01 X169.3178 Y189.6691 Z-1.8333
G01 X169.2822 Y189.6497 Z-1.8500
G01 X169.2456 Y189.6323 Z-1.8667
G01 X169.2081 Y189.6167 Z-1.8833
G01 X169.1699 Y189.6032 Z-1.9000
G01 X169.1310 Y189.5917 Z-1.9167
G01 X169.0915 Y189.5822 Z-1.9333
G01 X169.0516 Y189.5748 Z-1.9500
G01 X169.0114 Y189.5695 Z-1.9667
G01 X168.9710 Y189.5663 Z-1.9833
G01 X168.9304 Y189.5653 Z-2.0000
G01 X168.8899 Y189.5663 Z-2.0167
G01 X168.8494 Y189.5695 Z-2.0333
G01 X168.8092 Y189.5748 Z-2.0500
G01 X168.7693 Y189.5822 Z-2.0667
G01 X168.7299 Y189.5917 Z-2.0833
G01 X168.6910 Y189.6032 Z-2.1000
G01 X168.6527 Y189.6167 Z-2.1167
G01 X168.6153 Y189.6323 Z-2.1333
G01 X168.5787 Y189.6497 Z-2.1500
G01 X168.5430 Y189.6691 Z-2.1667
G01 X168.5084 Y189.6903 Z-2.1833
G01 X168.4750 Y189.7133 Z-2.2000
G01 X168.4428 Y189.7379 Z-2.2167
G01 X168.4120 Y189.7643 Z-2.2333
G01 X168.3825 Y189.7922 Z-2.2500
G01 X168.3546 Y189.8216 Z-2.2667
G01 X168.3283 Y189.8525 Z-2.2833
G01 X168.3036 Y189.8847 Z-2.3000
G01 X168.2806 Y189.9181 Z-2.3167
G01 X168.2594 Y189.9527 Z-2.3333
G01 X168.2400 Y189.9883 Z-2.3500
G01 X168.2226 Y190.0250 Z-2.3667
G01 X168.2071 Y190.0624 Z-2.3833
G01 X168.1935 Y190.1007 Z-2.4000
G01 X168.1820 Y190.1396 Z-2.4167
G01 X168.1725 Y190.1790 Z-2.4333
G01 X168.1651 Y190.2189 Z-2.4500
G01 X168.1598 Y190.2591 Z-2.4667
G01 X168.1567 Y190.2996 Z-2.4833
G01 X168.1556 Y190.3401 Z-2.5000
G01 X168.1567 Y190.3807 Z-2.5167
G01 X168.1598 Y190.4211 Z-2.5333
G01 X168.1651 Y190.4613 Z-2.5500
G01 X168.1725 Y190.5012 Z-2.5667
G01 X168.1820 Y190.5406 Z-2.5833
G01 X168.1935 Y190.5795 Z-2.6000
G01 X168.2071 Y190.6178 Z-2.6167
G01 X168.2226 Y190.6553 Z-2.6333
G01 X168.2400 Y190.6919 Z-2.6500
G01 X168.2594 Y190.7275 Z-2.6667
G01 X168.2806 Y190.7621 Z-2.6833
G01 X168.3036 Y190.7955 Z-2.7000
G01 X168.3283 Y190.8277 Z-2.7167
G01 X168.3546 Y190.8586 Z-2.7333
G01 X168.3825 Y190.8880 Z-2.7500
G01 X168.4120 Y190.9159 Z-2.7667
G01 X168.4428 Y190.9423 Z-2.7833
G01 X168.4750 Y190.9670 Z-2.8000
G01 X168.5084 Y190.9899 Z-2.8167
G01 X168.5430 Y191.0111 Z-2.8333
G01 X168.5787 Y191.0305 Z-2.8500
G01 X168.6153 Y191.0479 Z-2.8667
G01 X168.6527 Y191.0635 Z-2.8833
G01 X168.6910 Y191.0770 Z-2.9000
G01 X168.7299 Y191.0885 Z-2.9167
G01 X168.7693 Y191.0980 Z-2.9333
G01 X168.8092 Y191.1054 Z-2.9500
G01 X168.8494 Y191.1107 Z-2.9667
G01 X168.8899 Y191.1139 Z-2.9833
G01 X168.9304 Y191.1149 Z-3.0000
G01 X168.9710 Y191.1139 Z-3.0167
G01 X169.0114 Y191.1107 Z-3.0333
G01 X169.0516 Y191.1054 Z-3.0500
G01 X169.0915 Y191.0980 Z-3.0667
G01 X169.1310 Y191.0885 Z-3.0833
G01 X169.1699 Y191.0770 Z-3.1000
G01 X169.2081 Y191.0635 Z-3.1167
G01 X169.2456 Y191.0479 Z-3.1333
G01 X169.2822 Y191.0305 Z-3.1500
G01 X169.3178 Y191.0111 Z-3.1667
G01 X169.3524 Y190.9899 Z-3.1833
G01 X169.3859 Y190.9670 Z-3.2000
G01 X169.4180 Y190.9423 Z-3.2167
G01 X169.4489 Y190.9159 Z-3.2333
G01 X169.4783 Y190.8880 Z-3.2500
G01 X169.5062 Y190.8586 Z-3.2667
G01 X169.5326 Y190.8277 Z-3.2833
G01 X169.5573 Y190.7955 Z-3.3000
G01 X169.5802 Y190.7621 Z-3.3167
G01 X169.6014 Y190.7275 Z-3.3333
G01 X169.6208 Y190.6919 Z-3.3500
G01 X169.6383 Y190.6553 Z-3.3667
G01 X169.6538 Y190.6178 Z-3.3833
G01 X169.6673 Y190.5795 Z-3.4000
G01 X169.6788 Y190.5406 Z-3.4167
G01 X169.6883 Y190.5012 Z-3.4333
G01 X169.6957 Y190.4613 Z-3.4500
G01 X169.7010 Y190.4211 Z-3.4667
G01 X169.7042 Y190.3807 Z-3.4833
G01 X169.7052 Y190.3401 Z-3.5000
G01 X169.7042 Y190.2996 Z-3.5167
G01 X169.7010 Y190.2591 Z-3.5333
G01 X169.6957 Y190.2189 Z-3.5500
G01 X169.6883 Y190.1790 Z-3.5667
G01 X169.6788 Y190.1396 Z-3.5833
G01 X169.6673 Y190.1007 Z-3.6000
G01 X169.6538 Y190.0624 Z-3.6167
G01 X169.6383 Y190.0250 Z-3.6333
G01 X169.6208 Y189.9883 Z-3.6500
G01 X169.6014 Y189.9527 Z-3.6667
G01 X169.5802 Y189.9181 Z-3.6833
G01 X169.5573 Y189.8847 Z-3.7000
G01 X169.5326 Y189.8525 Z-3.7167
G01 X169.5062 Y189.8216 Z-3.7333
G01 X169.4783 Y189.7922 Z-3.7500
G01 X169.4489 Y189.7643 Z-3.7667
G01 X169.4180 Y189.7379 Z-3.7833
G01 X169.3859 Y189.7133 Z-3.8000
G01 X169.3524 Y189.6903 Z-3.8167
G01 X169.3178 Y189.6691 Z-3.8333
G01 X169.2822 Y189.6497 Z-3.8500
G01 X169.2456 Y189.6323 Z-3.8667
G01 X169.2081 Y189.6167 Z-3.8833
G01 X169.1699 Y189.6032 Z-3.9000
G01 X169.1310 Y189.5917 Z-3.9167
G01 X169.0915 Y189.5822 Z-3.9333
G01 X169.0516 Y189.5748 Z-3.9500
G01 X169.0114 Y189.5695 Z-3.9667
G01 X168.9710 Y189.5663 Z-3.9833
G01 X168.9304 Y189.5653 Z-4.0000
G01 X168.8899 Y189.5663 Z-4.0167
G01 X168.8494 Y189.5695 Z-4.0333
G01 X168.8092 Y189.5748 Z-4.0500
G01 X168.7693 Y189.5822 Z-4.0667
G01 X168.7299 Y189.5917 Z-4.0833
G01 X168.6910 Y189.6032 Z-4.1000
G01 X168.6527 Y189.6167 Z-4.1167
G01 X168.6153 Y189.6323 Z-4.1333
G01 X168.5787 Y189.6497 Z-4.1500
G01 X168.5430 Y189.6691 Z-4.1667
G01 X168.5084 Y189.6903 Z-4.1833
G01 X168.4750 Y189.7133 Z-4.2000
G01 X168.4428 Y189.7379 Z-4.2167
G01 X168.4120 Y189.7643 Z-4.2333
G01 X168.3825 Y189.7922 Z-4.2500
G01 X168.3546 Y189.8216 Z-4.2667
G01 X168.3283 Y189.8525 Z-4.2833
G01 X168.3036 Y189.8847 Z-4.3000
G01 X168.2806 Y189.9181 Z-4.3167
G01 X168.2594 Y189.9527 Z-4.3333
G01 X168.2400 Y189.9883 Z-4.3500
G01 X168.2226 Y190.0250 Z-4.3667
G01 X168.2071 Y190.0624 Z-4.3833
G01 X168.1935 Y190.1007 Z-4.4000
G01 X168.1820 Y190.1396 Z-4.4167
G01 X168.1725 Y190.1790 Z-4.4333
G01 X168.1651 Y190.2189 Z-4.4500
G01 X168.1598 Y190.2591 Z-4.4667
G01 X168.1567 Y190.2996 Z-4.4833
G01 X168.1556 Y190.3401 Z-4.5000
G01 X168.1567 Y190.3807 Z-4.5167
G01 X168.1598 Y190.4211 Z-4.5333
G01 X168.1651 Y190.4613 Z-4.5500
G01 X168.1725 Y190.5012 Z-4.5667
G01 X168.1820 Y190.5406 Z-4.5833
G01 X168.1935 Y190.5795 Z-4.6000
G01 X168.2071 Y190.6178 Z-4.6167
G01 X168.2226 Y190.6553 Z-4.6333
G01 X168.2400 Y190.6919 Z-4.6500
G01 X168.2594 Y190.7275 Z-4.6667
G01 X168.2806 Y190.7621 Z-4.6833
G01 X168.3036 Y190.7955 Z-4.7000
G01 X168.3283 Y190.8277 Z-4.7167
G01 X168.3546 Y190.8586 Z-4.7333
G01 X168.3825 Y190.8880 Z-4.7500
G01 X168.4120 Y190.9159 Z-4.7667
G01 X168.4428 Y190.9423 Z-4.7833
G01 X168.4750 Y190.9670 Z-4.8000
G01 X168.5084 Y190.9899 Z-4.8167
G01 X168.5430 Y191.0111 Z-4.8333
G01 X168.5787 Y191.0305 Z-4.8500
G01 X168.6153 Y191.0479 Z-4.8667
G01 X168.6527 Y191.0635 Z-4.8833
G01 X168.6910 Y191.0770 Z-4.9000
G01 X168.7299 Y191.0885 Z-4.9167
G01 X168.7693 Y191.0980 Z-4.9333
G01 X168.8092 Y191.1054 Z-4.9500
G01 X168.8494 Y191.1107 Z-4.9667
G01 X168.8899 Y191.1139 Z-4.9833
G01 X168.9304 Y191.1149 Z-5.0000
G01 X168.9710 Y191.1139 Z-5.0167
G01 X169.0114 Y191.1107 Z-5.0333
G01 X169.0516 Y191.1054 Z-5.0500
G01 X169.0915 Y191.0980 Z-5.0667
G01 X169.1310 Y191.0885 Z-5.0833
G01 X169.1699 Y191.0770 Z-5.1000
G01 X169.2081 Y191.0635 Z-5.1167
G01 X169.2456 Y191.0479 Z-5.1333
G01 X169.2822 Y191.0305 Z-5.1500
G01 X169.3178 Y191.0111 Z-5.1667
G01 X169.3524 Y190.9899 Z-5.1833
G01 X169.3859 Y190.9670 Z-5.2000
G01 X169.4180 Y190.9423 Z-5.2167
G01 X169.4489 Y190.9159 Z-5.2333
G01 X169.4783 Y190.8880 Z-5.2500
G01 X169.5062 Y190.8586 Z-5.2667
G01 X169.5326 Y190.8277 Z-5.2833
G01 X169.5573 Y190.7955 Z-5.3000
G01 X169.5802 Y190.7621 Z-5.3167
G01 X169.6014 Y190.7275 Z-5.3333
G01 X169.6208 Y190.6919 Z-5.3500
G01 X169.6383 Y190.6553 Z-5.3667
G01 X169.6538 Y190.6178 Z-5.3833
G01 X169.6673 Y190.5795 Z-5.4000
G01 X169.6788 Y190.5406 Z-5.4167
G01 X169.6883 Y190.5012 Z-5.4333
G01 X169.6957 Y190.4613 Z-5.4500
G01 X169.7010 Y190.4211 Z-5.4667
G01 X169.7042 Y190.3807 Z-5.4833
G01 X169.7052 Y190.3401 Z-5.5000
G01 X169.7042 Y190.2996 Z-5.5042
G01 X169.7010 Y190.2591 Z-5.5083
G01 X169.6957 Y190.2189 Z-5.5125
G01 X169.6883 Y190.1790 Z-5.5167
G01 X169.6788 Y190.1396 Z-5.5208
G01 X169.6673 Y190.1007 Z-5.5250
G01 X169.6538 Y190.0624 Z-5.5292
G01 X169.6383 Y190.0250 Z-5.5333
G01 X169.6208 Y189.9883 Z-5.5375
G01 X169.6014 Y189.9527 Z-5.5417
G01 X169.5802 Y189.9181 Z-5.5458
G01 X169.5573 Y189.8847 Z-5.5500
G01 X169.5326 Y189.8525 Z-5.5542
G01 X169.5062 Y189.8216 Z-5.5583
G01 X169.4783 Y189.7922 Z-5.5625
G01 X169.4489 Y189.7643 Z-5.5667
G01 X169.4180 Y189.7379 Z-5.5708
G01 X169.3859 Y189.7133 Z-5.5750
G01 X169.3524 Y189.6903 Z-5.5792
G01 X169.3178 Y189.6691 Z-5.5833
G01 X169.2822 Y189.6497 Z-5.5875
G01 X169.2456 Y189.6323 Z-5.5917
G01 X169.2081 Y189.6167 Z-5.5958
G01 X169.1699 Y189.6032 Z-5.6000
G01 X169.1310 Y189.5917 Z-5.6042
G01 X169.0915 Y189.5822 Z-5.6083
G01 X169.0516 Y189.5748 Z-5.6125
G01 X169.0114 Y189.5695 Z-5.6167
G01 X168.9710 Y189.5663 Z-5.6208
G01 X168.9304 Y189.5653 Z-5.6250
G01 X168.8899 Y189.5663 Z-5.6292
G01 X168.8494 Y189.5695 Z-5.6333
G01 X168.8092 Y189.5748 Z-5.6375
G01 X168.7693 Y189.5822 Z-5.6417
G01 X168.7299 Y189.5917 Z-5.6458
G01 X168.6910 Y189.6032 Z-5.6500
G01 X168.6527 Y189.6167 Z-5.6542
G01 X168.6153 Y189.6323 Z-5.6583
G01 X168.5787 Y189.6497 Z-5.6625
G01 X168.5430 Y189.6691 Z-5.6667
G01 X168.5084 Y189.6903 Z-5.6708
G01 X168.4750 Y189.7133 Z-5.6750
G01 X168.4428 Y189.7379 Z-5.6792
G01 X168.4120 Y189.7643 Z-5.6833
G01 X168.3825 Y189.7922 Z-5.6875
G01 X168.3546 Y189.8216 Z-5.6917
G01 X168.3283 Y189.8525 Z-5.6958
G01 X168.3036 Y189.8847 Z-5.7000
G01 X168.2806 Y189.9181 Z-5.7042
G01 X168.2594 Y189.9527 Z-5.7083
G01 X168.2400 Y189.9883 Z-5.7125
G01 X168.2226 Y190.0250 Z-5.7167
G01 X168.2071 Y190.0624 Z-5.7208
G01 X168.1935 Y190.1007 Z-5.7250
G01 X168.1820 Y190.1396 Z-5.7292
G01 X168.1725 Y190.1790 Z-5.7333
G01 X168.1651 Y190.2189 Z-5.7375
G01 X168.1598 Y190.2591 Z-5.7417
G01 X168.1567 Y190.2996 Z-5.7458
G01 X168.1556 Y190.3401 Z-5.7500
G01 X168.1567 Y190.3807 Z-5.7542
G01 X168.1598 Y190.4211 Z-5.7583
G01 X168.1651 Y190.4613 Z-5.7625
G01 X168.1725 Y190.5012 Z-5.7667
G01 X168.1820 Y190.5406 Z-5.7708
G01 X168.1935 Y190.5795 Z-5.7750
G01 X168.2071 Y190.6178 Z-5.7792
G01 X168.2226 Y190.6553 Z-5.7833
G01 X168.2400 Y190.6919 Z-5.7875
G01 X168.2594 Y190.7275 Z-5.7917
G01 X168.2806 Y190.7621 Z-5.7958
G01 X168.3036 Y190.7955 Z-5.8000
G01 X168.3283 Y190.8277 Z-5.8042
G01 X168.3546 Y190.8586 Z-5.8083
G01 X168.3825 Y190.8880 Z-5.8125
G01 X168.4120 Y190.9159 Z-5.8167
G01 X168.4428 Y190.9423 Z-5.8208
G01 X168.4750 Y190.9670 Z-5.8250
G01 X168.5084 Y190.9899 Z-5.8292
G01 X168.5430 Y191.0111 Z-5.8333
G01 X168.5787 Y191.0305 Z-5.8375
G01 X168.6153 Y191.0479 Z-5.8417
G01 X168.6527 Y191.0635 Z-5.8458
G01 X168.6910 Y191.0770 Z-5.8500
G01 X168.7299 Y191.0885 Z-5.8542
G01 X168.7693 Y191.0980 Z-5.8583
G01 X168.8092 Y191.1054 Z-5.8625
G01 X168.8494 Y191.1107 Z-5.8667
G01 X168.8899 Y191.1139 Z-5.8708
G01 X168.9304 Y191.1149 Z-5.8750
G01 X168.9710 Y191.1139 Z-5.8792
G01 X169.0114 Y191.1107 Z-5.8833
G01 X169.0516 Y191.1054 Z-5.8875
G01 X169.0915 Y191.0980 Z-5.8917
G01 X169.1310 Y191.0885 Z-5.8958
G01 X169.1699 Y191.0770 Z-5.9000
G01 X169.2081 Y191.0635 Z-5.9042
G01 X169.2456 Y191.0479 Z-5.9083
G01 X169.2822 Y191.0305 Z-5.9125
G01 X169.3178 Y191.0111 Z-5.9167
G01 X169.3524 Y190.9899 Z-5.9208
G01 X169.3859 Y190.9670 Z-5.9250
G01 X169.4180 Y190.9423 Z-5.9292
G01 X169.4489 Y190.9159 Z-5.9333
G01 X169.4783 Y190.8880 Z-5.9375
G01 X169.5062 Y190.8586 Z-5.9417
G01 X169.5326 Y190.8277 Z-5.9458
G01 X169.5573 Y190.7955 Z-5.9500
G01 X169.5802 Y190.7621 Z-5.9542
G01 X169.6014 Y190.7275 Z-5.9583
G01 X169.6208 Y190.6919 Z-5.9625
G01 X169.6383 Y190.6553 Z-5.9667
G01 X169.6538 Y190.6178 Z-5.9708
G01 X169.6673 Y190.5795 Z-5.9750
G01 X169.6788 Y190.5406 Z-5.9792
G01 X169.6883 Y190.5012 Z-5.9833
G01 X169.6957 Y190.4613 Z-5.9875
G01 X169.7010 Y190.4211 Z-5.9917
G01 X169.7042 Y190.3807 Z-5.9958
G01 X169.7052 Y190.3401 Z-6.0000
G01 X169.7042 Y190.2996
G01 X169.7010 Y190.2591
G01 X169.6957 Y190.2189
G01 X169.6883 Y190.1790
G01 X169.6788 Y190.1396
G01 X169.6673 Y190.1007
G01 X169.6538 Y190.0624
G01 X169.6383 Y190.0250
G01 X169.6208 Y189.9883
G01 X169.6014 Y189.9527
G01 X169.5802 Y189.9181
G01 X169.5573 Y189.8847
G01 X169.5326 Y189.8525
G01 X169.5062 Y189.8216
G01 X169.4783 Y189.7922
G01 X169.4489 Y189.7643
G01 X169.4180 Y189.7379
G01 X169.3859 Y189.7133
G01 X169.3524 Y189.6903
G01 X169.3178 Y189.6691
G01 X169.2822 Y189.6497
G01 X169.2456 Y189.6323
G01 X169.2081 Y189.6167
G01 X169.1699 Y189.6032
G01 X169.1310 Y189.5917
G01 X169.0915 Y189.5822
G01 X169.0516 Y189.5748
G01 X169.0114 Y189.5695
G01 X168.9710 Y189.5663
G01 X168.9304 Y189.5653
G01 X168.8899 Y189.5663
G01 X168.8494 Y189.5695
G01 X168.8092 Y189.5748
G01 X168.7693 Y189.5822
G01 X168.7299 Y189.5917
G01 X168.6910 Y189.6032
G01 X168.6527 Y189.6167
G01 X168.6153 Y189.6323
G01 X168.5787 Y189.6497
G01 X168.5430 Y189.6691
G01 X168.5084 Y189.6903
G01 X168.4750 Y189.7133
G01 X168.4428 Y189.7379
G01 X168.4120 Y189.7643
G01 X168.3825 Y189.7922
G01 X168.3546 Y189.8216
G01 X168.3283 Y189.8525
G01 X168.3036 Y189.8847
G01 X168.2806 Y189.9181
G01 X168.2594 Y189.9527
G01 X168.2400 Y189.9883
G01 X168.2226 Y190.0250
G01 X168.2071 Y190.0624
G01 X168.1935 Y190.1007
G01 X168.1820 Y190.1396
G01 X168.1725 Y190.1790
G01 X168.1651 Y190.2189
G01 X168.1598 Y190.2591
G01 X168.1567 Y190.2996
G01 X168.1556 Y190.3401
G01 X168.1567 Y190.3807
G01 X168.1598 Y190.4211
G01 X168.1651 Y190.4613
G01 X168.1725 Y190.5012
G01 X168.1820 Y190.5406
G01 X168.1935 Y190.5795
G01 X168.2071 Y190.6178
G01 X168.2226 Y190.6553
G01 X168.2400 Y190.6919
G01 X168.2594 Y190.7275
G01 X168.2806 Y190.7621
G01 X168.3036 Y190.7955
G01 X168.3283 Y190.8277
G01 X168.3546 Y190.8586
G01 X168.3825 Y190.8880
G01 X168.4120 Y190.9159
G01 X168.4428 Y190.9423
G01 X168.4750 Y190.9670
G01 X168.5084 Y190.9899
G01 X168.5430 Y191.0111
G01 X168.5787 Y191.0305
G01 X168.6153 Y191.0479
G01 X168.6527 Y191.0635
G01 X168.6910 Y191.0770
G01 X168.7299 Y191.0885
G01 X168.7693 Y191.0980
G01 X168.8092 Y191.1054
G01 X168.8494 Y191.1107
G01 X168.8899 Y191.1139
G01 X168.9304 Y191.1149
G01 X168.9710 Y191.1139
G01 X169.0114 Y191.1107
G01 X169.0516 Y191.1054
G01 X169.0915 Y191.0980
G01 X169.1310 Y191.0885
G01 X169.1699 Y191.0770
G01 X169.2081 Y191.0635
G01 X169.2456 Y191.0479
G01 X169.2822 Y191.0305
G01 X169.3178 Y191.0111
G01 X169.3524 Y190.9899
G01 X169.3859 Y190.9670
G01 X169.4180 Y190.9423
G01 X169.4489 Y190.9159
G01 X169.4783 Y190.8880
G01 X169.5062 Y190.8586
G01 X169.5326 Y190.8277
G01 X169.5573 Y190.7955
G01 X169.5802 Y190.7621
G01 X169.6014 Y190.7275
G01 X169.6208 Y190.6919
G01 X169.6383 Y190.6553
G01 X169.6538 Y190.6178
G01 X169.6673 Y190.5795
G01 X169.6788 Y190.5406
G01 X169.6883 Y190.5012
G01 X169.6957 Y190.4613
G01 X169.7010 Y190.4211
G01 X169.7042 Y190.3807
G01 X169.7052 Y190.3401
M107
M106 S240
G01 X169.7041 Y190.3097 Z-5.9875
M107
M106 S240
G01 X169.7005 Y190.2795 Z-5.9750
M107
M106 S240
G01 X169.6945 Y190.2497 Z-5.9625
M107
M106 S240
G01 X169.6863 Y190.2204 Z-5.9500
M107
M106 S240
G01 X169.6758 Y190.1918 Z-5.9375
M107
M106 S240
G01 X169.6630 Y190.1642 Z-5.9250
M107
M106 S240
G01 X169.6482 Y190.1377 Z-5.9125
M107
M106 S240
G01 X169.6313 Y190.1124 Z-5.9000
M107
M106 S240
G01 X169.6124 Y190.0885 Z-5.8875
M107
M106 S240
G01 X169.5918 Y190.0662 Z-5.8750
M107
M106 S240
G01 X169.5694 Y190.0455 Z-5.8625
M107
M106 S240
G01 X169.5456 Y190.0267 Z-5.8500
M107
M106 S240
G01 X169.5203 Y190.0098 Z-5.8375
M107
M106 S240
G01 X169.4937 Y189.9949 Z-5.8250
M107
M106 S240
G01 X169.4661 Y189.9822 Z-5.8125
M107
M106 S240
G01 X169.4376 Y189.9717 Z-5.8000
M107
M106 S240
G01 X169.4083 Y189.9634 Z-5.7875
M107
M106 S240
G01 X169.3784 Y189.9575 Z-5.7750
M107
M106 S240
G01 X169.3482 Y189.9539 Z-5.7625
M107
M106 S240
G01 X169.3178 Y189.9527 Z-5.7500
M107
M106 S240
G01 X169.2874 Y189.9539 Z-5.7375
M107
M106 S240
G01 X169.2572 Y189.9575 Z-5.7250
M107
M106 S240
G01 X169.2274 Y189.9634 Z-5.7125
M107
M106 S240
G01 X169.1981 Y189.9717 Z-5.7000
M107
M106 S240
G01 X169.1696 Y189.9822 Z-5.6875
M107
M106 S240
G01 X169.1420 Y189.9949 Z-5.6750
M107
M106 S240
G01 X169.1154 Y190.0098 Z-5.6625
M107
M106 S240
G01 X169.0901 Y190.0267 Z-5.6500
M107
M106 S240
G01 X169.0662 Y190.0455 Z-5.6375
M107
M106 S240
G01 X169.0439 Y190.0662 Z-5.6250
M107
M106 S240
G01 X169.0232 Y190.0885 Z-5.6125
M107
M106 S240
G01 X169.0044 Y190.1124 Z-5.6000
M107
M106 S240
G01 X168.9875 Y190.1377 Z-5.5875
M107
M106 S240
G01 X168.9726 Y190.1642 Z-5.5750
M107
M106 S240
G01 X168.9599 Y190.1918 Z-5.5625
M107
M106 S240
G01 X168.9494 Y190.2204 Z-5.5500
M107
M106 S240
G01 X168.9411 Y190.2497 Z-5.5375
M107
M106 S240
G01 X168.9352 Y190.2795 Z-5.5250
M107
M106 S240
G01 X168.9316 Y190.3097 Z-5.5125
M107
M106 S240
G01 X168.9304 Y190.3401 Z-5.5000
M107
G00 Z2.0000


;No. 14: Hole 45
G00 X178.4575 Y180.7714 Z2.0000
G00 Z0.5000
G01 Z-1.8000 F400
M106 S240
G01 X179.6685 F1000
M107
G00 Z2.0000
G00 Z0.5000
G01 Z-1.8000 F400
M106 S240
G01 X179.8102 Y180.6306 F1000
G01 X179.7750 Y180.5951
G01 X179.7416 Y180.5579
G01 X179.7101 Y180.5191
G01 X179.6806 Y180.4787
G01 X179.6531 Y180.4369
G01 X179.6278 Y180.3938
G01 X179.6047 Y180.3495
G01 X179.5838 Y180.3041
G01 X179.5651 Y180.2577
G01 X179.5489 Y180.2104
G01 X179.5350 Y180.1624
G01 X179.5235 Y180.1137
G01 X179.5145 Y180.0645
G01 X179.5080 Y180.0150
G01 X179.5039 Y179.9652
G01 X179.5023 Y179.9152
G01 X179.4646 Y174.0333
G01 X179.4272 Y169.1851
G01 X178.6941 Y169.1915
G01 X178.6245 Y179.9493
G01 X178.6215 Y179.9961
G01 X178.6163 Y180.0427
G01 X178.6090 Y180.0889
G01 X178.5995 Y180.1348
G01 X178.5878 Y180.1802
G01 X178.5740 Y180.2250
G01 X178.5582 Y180.2691
G01 X178.5402 Y180.3124
G01 X178.5203 Y180.3549
G01 X178.4984 Y180.3963
G01 X178.4746 Y180.4367
G01 X178.4490 Y180.4759
G01 X178.4215 Y180.5139
G01 X178.3923 Y180.5505
G01 X178.3614 Y180.5858
G01 X178.3288 Y180.6195
G01 X178.2947 Y180.6517
G01 X178.2592 Y180.6822
G01 X178.2223 Y180.7111
G01 X178.1840 Y180.7382
G01 X178.1445 Y180.7634
G01 X178.1039 Y180.7868
G01 X178.0622 Y180.8083
G01 X178.0196 Y180.8278
G01 X177.9761 Y180.8452
G01 X177.9319 Y180.8607
G01 X177.8869 Y180.8740
G01 X177.8414 Y180.8852
G01 X177.7954 Y180.8942
G01 X177.7491 Y180.9011
G01 X177.7024 Y180.9058
G01 X177.6556 Y180.9083
G01 X173.2144 Y181.0430
G01 X172.8030 Y181.3391
G01 X172.6520 Y181.4533
G01 X172.5049 Y181.5726
G01 X172.3620 Y181.6969
G01 X172.2234 Y181.8259
G01 X175.6503 Y181.8584
G01 X179.0772 Y181.8654
G01 X182.5042 Y181.8471
G01 X185.9309 Y181.8033
G01 X185.7699 Y181.6317
G01 X185.5987 Y181.4705
G01 X185.4178 Y181.3201
G01 X185.2280 Y181.1811
G01 X185.1356 Y181.1420
G01 X185.0409 Y181.1087
G01 X184.9444 Y181.0812
G01 X184.8463 Y181.0597
G01 X184.7472 Y181.0442
G01 X184.6472 Y181.0349
G01 X184.5469 Y181.0317
G01 X184.4466 Y181.0347
G01 X184.1649 Y181.0200
G01 X183.5787 Y180.9992
G01 X180.4930 Y180.9089
G01 X180.3988 Y180.9035
G01 X180.3056 Y180.8893
G01 X180.2140 Y180.8663
G01 X180.1251 Y180.8349
G01 X180.0395 Y180.7952
G01 X179.9580 Y180.7476
G01 X179.8813 Y180.6926
G01 X179.8102 Y180.6306
G01 X179.6685 Y180.7714
M107
G00 Z2.0000


;No. 15: Hole 46
G00 X196.8329 Y181.3473 Z2.0000
G00 Z0.5000
G01 Z-1.8000 F400
M106 S240
G01 X207.2866 F1000
M107
G00 Z2.0000
G00 Z0.5000
G01 Z-1.8000 F400
M106 S240
G01 X207.3984 Y181.1814 F1000
G01 X207.1004 Y180.9807
G01 X197.0193
G01 X196.5271 Y181.3119
G01 X196.4040 Y181.3978
G01 X196.2836 Y181.4872
G01 X196.1658 Y181.5801
G01 X196.0507 Y181.6764
G01 X196.0614 Y181.6818
G01 X196.1408 Y181.6833
G01 X199.1218 Y181.7085
G01 X202.1029 Y181.7213
G01 X205.0840 Y181.7216
G01 X208.0651 Y181.7094
G01 X207.9098 Y181.5636
G01 X207.7465 Y181.4267
G01 X207.5759 Y181.2992
G01 X207.3984 Y181.1814
G01 X207.2866 Y181.3473
M107
G00 Z2.0000


;No. 16: Hole 47
G00 X207.4031 Y175.7381 Z2.0000
G00 Z0.5000
G01 Z-1.8000 F400
M106 S240
G01 X196.6817 F1000
M107
G00 Z2.0000
G00 Z0.5000
G01 Z-1.8000 F400
M106 S240
G01 X196.5698 Y175.5724 F1000
G01 X196.4653 Y175.6392
G01 X196.3637 Y175.7102
G01 X196.2652 Y175.7855
G01 X196.1699 Y175.8648
G01 X196.0780 Y175.9481
G01 X195.9897 Y176.0351
G01 X195.9051 Y176.1258
G01 X195.8244 Y176.2199
G01 X195.9026 Y176.2226
G01 X198.9674 Y176.2452
G01 X202.0324 Y176.2491
G01 X205.0973 Y176.2345
G01 X208.1620 Y176.2012
G01 X207.9041 Y175.9134
G01 X207.6183 Y175.6534
G01 X207.3074 Y175.4238
G01 X206.9748 Y175.2271
G01 X201.4894 Y175.2338
G01 X200.4803 Y175.2233
G01 X199.4711 Y175.2300
G01 X198.4622 Y175.2538
G01 X197.4538 Y175.2947
G01 X197.3509 Y175.3011
G01 X197.2482 Y175.3100
G01 X197.1457 Y175.3214
G01 X197.0436 Y175.3353
G01 X196.9810 Y175.3519
G01 X196.9195 Y175.3722
G01 X196.8592 Y175.3958
G01 X196.8004 Y175.4229
G01 X196.7433 Y175.4533
G01 X196.6879 Y175.4869
G01 X196.6345 Y175.5236
G01 X196.5834 Y175.5633
G01 X196.5698 Y175.5724
G01 X196.6817 Y175.7381
M107
G00 Z2.0000


;No. 17: Hole 48
G00 X196.8550 Y169.7675 Z2.0000
G00 Z0.5000
G01 Z-1.8000 F400
M106 S240
G01 X207.2507 F1000
M107
G00 Z2.0000
G00 Z0.5000
G01 Z-1.8000 F400
M106 S240
G01 X207.3505 Y169.5942 F1000
G01 X207.2361 Y169.5427
G01 X207.1188 Y169.4981
G01 X206.9991 Y169.4605
G01 X206.8773 Y169.4302
G01 X206.7539 Y169.4071
G01 X206.6294 Y169.3914
G01 X206.5042 Y169.3832
G01 X206.3787 Y169.3824
G01 X205.4724 Y169.3480
G01 X204.5656 Y169.3276
G01 X203.6587 Y169.3213
G01 X202.7517 Y169.3290
G01 X201.4902 Y169.3154
G01 X200.2286 Y169.3181
G01 X198.9672 Y169.3371
G01 X197.7061 Y169.3724
G01 X197.6050 Y169.3692
G01 X197.5039 Y169.3718
G01 X197.4031 Y169.3803
G01 X197.3029 Y169.3946
G01 X197.2038 Y169.4147
G01 X197.1060 Y169.4405
G01 X197.0099 Y169.4720
G01 X196.9157 Y169.5090
G01 X196.6580 Y169.6475
G01 X196.4104 Y169.8035
G01 X196.1743 Y169.9764
G01 X195.9507 Y170.1651
G01 X198.9796 Y170.1954
G01 X202.0086 Y170.2069
G01 X205.0377 Y170.1994
G01 X208.0666 Y170.1730
G01 X208.0706 Y170.1588
G01 X207.9061 Y169.9988
G01 X207.7306 Y169.8509
G01 X207.5451 Y169.7158
G01 X207.3505 Y169.5942
G01 X207.2507 Y169.7675
M107
G00 Z2.0000


;No. 18: Hole 49
G00 X219.6952 Y169.5214 Z2.0000
G00 Z0.5000
G01 Z-1.8000 F400
M106 S240
G01 X231.1597 F1000
M107
G00 Z2.0000
G00 Y175.5214
G00 Z0.5000
G01 Z-1.8000 F400
M106 S240
G01 X218.7432 F1000
M107
G00 Z2.0000
G00 Y181.5214
G00 Z0.5000
G01 Z-1.8000 F400
M106 S240
G01 X229.9381 F1000
M107
G00 Z2.0000
G00 Z0.5000
G01 Z-1.8000 F400
M106 S240
G01 X230.0630 Y181.3653 F1000
G01 X229.9363 Y181.2661
G01 X229.8080 Y181.1690
G01 X229.6782 Y181.0738
G01 X229.5469 Y180.9808
G01 X220.1525
G01 X220.0532 Y180.9778
G01 X219.9546 Y180.9649
G01 X219.8578 Y180.9424
G01 X219.7638 Y180.9104
G01 X219.6733 Y180.8691
G01 X219.5874 Y180.8192
G01 X219.5069 Y180.7609
G01 X219.4326 Y180.6949
G01 X219.3651 Y180.6219
G01 X219.3053 Y180.5426
G01 X219.2536 Y180.4577
G01 X219.2106 Y180.3681
G01 X219.1767 Y180.2746
G01 X219.1523 Y180.1783
G01 X219.1375 Y180.0800
G01 X219.1325 Y179.9808
G01 Y177.1238
G01 X219.1350 Y177.0331
G01 X219.1460 Y176.9400
G01 X219.1657 Y176.8484
G01 X219.1939 Y176.7590
G01 X219.2303 Y176.6726
G01 X219.2746 Y176.5900
G01 X219.3264 Y176.5120
G01 X219.3854 Y176.4391
G01 X219.4509 Y176.3721
G01 X219.5224 Y176.3115
G01 X219.5992 Y176.2579
G01 X219.6808 Y176.2117
G01 X219.7663 Y176.1733
G01 X219.8550 Y176.1431
G01 X219.9461 Y176.1213
G01 X220.0389 Y176.1082
G01 X220.1325 Y176.1038
G01 X231.3597
G01 Y169.1851
G01 X224.7517 Y169.1852
G01 X223.3425 Y169.1839
G01 X221.9333 Y169.1907
G01 X220.5241 Y169.2055
G01 X219.1150 Y169.2284
G01 X219.1207 Y169.2414
G01 X219.1669 Y169.3001
G01 X219.2157 Y169.3565
G01 X219.2671 Y169.4107
G01 X219.3209 Y169.4624
G01 X219.4301 Y169.5611
G01 X219.5418 Y169.6570
G01 X219.6559 Y169.7500
G01 X219.7723 Y169.8401
G01 X219.8748 Y169.9054
G01 X219.9820 Y169.9629
G01 X220.0931 Y170.0120
G01 X220.2077 Y170.0527
G01 X220.3250 Y170.0847
G01 X220.4443 Y170.1077
G01 X220.5651 Y170.1217
G01 X220.6865 Y170.1265
G01 X221.4587 Y170.1728
G01 X222.2317 Y170.2014
G01 X223.0051 Y170.2123
G01 X223.7786 Y170.2055
G01 X229.6065 Y170.2059
G01 X229.7059 Y170.2089
G01 X229.8044 Y170.2217
G01 X229.9012 Y170.2443
G01 X229.9953 Y170.2763
G01 X230.0857 Y170.3175
G01 X230.1716 Y170.3675
G01 X230.2522 Y170.4258
G01 X230.3265 Y170.4918
G01 X230.3939 Y170.5648
G01 X230.4538 Y170.6441
G01 X230.5055 Y170.7290
G01 X230.5485 Y170.8186
G01 X230.5823 Y170.9121
G01 X230.6068 Y171.0084
G01 X230.6216 Y171.1067
G01 X230.6265 Y171.2059
G01 Y174.2068
G01 X230.6235 Y174.3061
G01 X230.6107 Y174.4047
G01 X230.5882 Y174.5015
G01 X230.5561 Y174.5955
G01 X230.5149 Y174.6860
G01 X230.4649 Y174.7719
G01 X230.4067 Y174.8524
G01 X230.3407 Y174.9267
G01 X230.2677 Y174.9942
G01 X230.1883 Y175.0540
G01 X230.1034 Y175.1057
G01 X230.0138 Y175.1487
G01 X229.9204 Y175.1826
G01 X229.8241 Y175.2070
G01 X229.7258 Y175.2218
G01 X229.6265 Y175.2268
G01 X218.5432
G01 Y181.8577
G01 X224.8795
G01 X226.2972 Y181.8624
G01 X227.7149 Y181.8595
G01 X229.1325 Y181.8488
G01 X230.5501 Y181.8304
G01 X230.4353 Y181.7070
G01 X230.3157 Y181.5882
G01 X230.1916 Y181.4743
G01 X230.0630 Y181.3653
G01 X229.9381 Y181.5214
M107
G00 Z2.0000


;No. 19: Hole 50


;No. 20: Hole 50
G00 X251.6232 Y169.3289 Z2.0000
G00 Z0.5000
G01 Z-1.8000 F400
M106 S240
G01 X240.9836 F1000
G01 X240.9837 Y181.8577
G01 X241.5729
G01 Y171.2259
G01 X241.5754 Y171.1352
G01 X241.5798 Y171.0885
G01 X241.5864 Y171.0421
G01 X241.5952 Y170.9961
G01 X241.6061 Y170.9505
G01 X241.6191 Y170.9055
G01 X241.6343 Y170.8611
G01 X241.6514 Y170.8175
G01 X241.6707 Y170.7748
G01 X241.6918 Y170.7329
G01 X241.7150 Y170.6922
G01 X241.7400 Y170.6525
G01 X241.7668 Y170.6141
G01 X241.7955 Y170.5770
G01 X241.8258 Y170.5413
G01 X241.8577 Y170.5070
G01 X241.8913 Y170.4742
G01 X241.9263 Y170.4431
G01 X241.9628 Y170.4136
G01 X242.0006 Y170.3859
G01 X242.0396 Y170.3600
G01 X242.0798 Y170.3359
G01 X242.1212 Y170.3138
G01 X242.1635 Y170.2936
G01 X242.2066 Y170.2754
G01 X242.2507 Y170.2593
G01 X242.2954 Y170.2452
G01 X242.3407 Y170.2333
G01 X242.3865 Y170.2235
G01 X242.4328 Y170.2158
G01 X242.4793 Y170.2103
G01 X242.5261 Y170.2070
G01 X242.5729 Y170.2059
G01 X252.6446
G01 X252.6607 Y170.2028
G01 X252.4336 Y169.9483
G01 X252.1835 Y169.7165
G01 X251.9125 Y169.5094
G01 X251.6232 Y169.3289
M107
G00 Z2.0000


;No. 21: Hole 51
G00 X264.0501 Y181.3473 Z2.0000
G00 Z0.5000
G01 Z-1.8000 F400
M106 S240
G01 X274.6643 F1000
M107
G00 Z2.0000
G00 Z0.5000
G01 Z-1.8000 F400
M106 S240
G01 X274.7705 Y181.1778 F1000
G01 X274.7381 Y181.1563
G01 X274.7048 Y181.1360
G01 X274.6709 Y181.1169
G01 X274.6363 Y181.0991
G01 X274.6176 Y181.0920
G01 X274.5985 Y181.0858
G01 X274.5792 Y181.0806
G01 X274.5596 Y181.0763
G01 X274.4907 Y181.0644
G01 X274.4215 Y181.0545
G01 X274.3521 Y181.0464
G01 X274.2824 Y181.0402
G01 X273.2549 Y180.9980
G01 X272.2268 Y180.9741
G01 X271.1984 Y180.9685
G01 X270.1701 Y180.9812
G01 X264.2360 Y180.9810
G01 X263.6709 Y181.3628
G01 X263.5749 Y181.4375
G01 X263.4816 Y181.5155
G01 X263.3912 Y181.5968
G01 X263.3036 Y181.6813
G01 X263.7497 Y181.6893
G01 X264.3450 Y181.6969
G01 X267.1104 Y181.7201
G01 X269.8759 Y181.7237
G01 X272.6413 Y181.7078
G01 X275.4066 Y181.6723
G01 X275.4258 Y181.6698
G01 X275.2688 Y181.5380
G01 X275.1071 Y181.4120
G01 X274.9409 Y181.2918
G01 X274.7705 Y181.1778
G01 X274.6643 Y181.3473
M107
G00 Z2.0000


;No. 22: Hole 52


;No. 23: Hole 52
G00 X263.5820 Y169.3290 Z2.0000
G00 Z0.5000
G01 Z-1.8000 F400
M106 S240
G01 X262.9927 Y169.3291 F1000
G01 X262.9925 Y176.2452
G01 X275.7455 Y176.1806
G01 X275.8047 Y169.3289
G01 X275.2199
G01 Y174.2068
G01 X275.2169 Y174.3061
G01 X275.2041 Y174.4047
G01 X275.1816 Y174.5015
G01 X275.1495 Y174.5956
G01 X275.1083 Y174.6860
G01 X275.0583 Y174.7719
G01 X275.0000 Y174.8524
G01 X274.9341 Y174.9268
G01 X274.8611 Y174.9942
G01 X274.7817 Y175.0540
G01 X274.6968 Y175.1057
G01 X274.6072 Y175.1487
G01 X274.5138 Y175.1826
G01 X274.4175 Y175.2071
G01 X274.3192 Y175.2218
G01 X274.2199 Y175.2268
G01 X264.6020
G01 X264.5027 Y175.2238
G01 X264.4042 Y175.2110
G01 X264.3074 Y175.1884
G01 X264.2133 Y175.1564
G01 X264.1228 Y175.1152
G01 X264.0369 Y175.0652
G01 X263.9564 Y175.0069
G01 X263.8821 Y174.9410
G01 X263.8147 Y174.8679
G01 X263.7548 Y174.7886
G01 X263.7031 Y174.7037
G01 X263.6601 Y174.6141
G01 X263.6262 Y174.5207
G01 X263.6018 Y174.4243
G01 X263.5870 Y174.3261
G01 X263.5820 Y174.2268
G01 Y169.3290
M107
G00 Z2.0000


;No. 24: Helical drill 4
G00 X279.7449 Y190.3382 Z2.0000
G00 Z0.5000
M106 S240
G01 X279.7439 Y190.2977 Z0.4833 F400
G01 X279.7407 Y190.2573 Z0.4667
G01 X279.7354 Y190.2172 Z0.4500
G01 X279.7280 Y190.1773 Z0.4333
G01 X279.7186 Y190.1379 Z0.4167
G01 X279.7071 Y190.0990 Z0.4000
G01 X279.6935 Y190.0608 Z0.3833
G01 X279.6780 Y190.0234 Z0.3667
G01 X279.6606 Y189.9868 Z0.3500
G01 X279.6412 Y189.9512 Z0.3333
G01 X279.6201 Y189.9167 Z0.3167
G01 X279.5971 Y189.8833 Z0.3000
G01 X279.5724 Y189.8511 Z0.2833
G01 X279.5461 Y189.8203 Z0.2667
G01 X279.5182 Y189.7909 Z0.2500
G01 X279.4888 Y189.7630 Z0.2333
G01 X279.4580 Y189.7367 Z0.2167
G01 X279.4259 Y189.7120 Z0.2000
G01 X279.3925 Y189.6891 Z0.1833
G01 X279.3579 Y189.6679 Z0.1667
G01 X279.3223 Y189.6486 Z0.1500
G01 X279.2857 Y189.6311 Z0.1333
G01 X279.2483 Y189.6156 Z0.1167
G01 X279.2101 Y189.6021 Z0.1000
G01 X279.1712 Y189.5906 Z0.0833
G01 X279.1318 Y189.5811 Z0.0667
G01 X279.0920 Y189.5737 Z0.0500
G01 X279.0518 Y189.5684 Z0.0333
G01 X279.0114 Y189.5653 Z0.0167
G01 X278.9709 Y189.5642 Z0.0000
G01 X278.9304 Y189.5653 Z-0.0167
G01 X278.8900 Y189.5684 Z-0.0333
G01 X278.8498 Y189.5737 Z-0.0500
G01 X278.8100 Y189.5811 Z-0.0667
G01 X278.7706 Y189.5906 Z-0.0833
G01 X278.7317 Y189.6021 Z-0.1000
G01 X278.6935 Y189.6156 Z-0.1167
G01 X278.6561 Y189.6311 Z-0.1333
G01 X278.6195 Y189.6486 Z-0.1500
G01 X278.5839 Y189.6679 Z-0.1667
G01 X278.5493 Y189.6891 Z-0.1833
G01 X278.5159 Y189.7120 Z-0.2000
G01 X278.4838 Y189.7367 Z-0.2167
G01 X278.4530 Y189.7630 Z-0.2333
G01 X278.4236 Y189.7909 Z-0.2500
G01 X278.3957 Y189.8203 Z-0.2667
G01 X278.3694 Y189.8511 Z-0.2833
G01 X278.3447 Y189.8833 Z-0.3000
G01 X278.3218 Y189.9167 Z-0.3167
G01 X278.3006 Y189.9512 Z-0.3333
G01 X278.2812 Y189.9868 Z-0.3500
G01 X278.2638 Y190.0234 Z-0.3667
G01 X278.2483 Y190.0608 Z-0.3833
G01 X278.2348 Y190.0990 Z-0.4000
G01 X278.2233 Y190.1379 Z-0.4167
G01 X278.2138 Y190.1773 Z-0.4333
G01 X278.2064 Y190.2172 Z-0.4500
G01 X278.2011 Y190.2573 Z-0.4667
G01 X278.1979 Y190.2977 Z-0.4833
G01 X278.1969 Y190.3382 Z-0.5000
G01 X278.1979 Y190.3787 Z-0.5167
G01 X278.2011 Y190.4191 Z-0.5333
G01 X278.2064 Y190.4593 Z-0.5500
G01 X278.2138 Y190.4992 Z-0.5667
G01 X278.2233 Y190.5386 Z-0.5833
G01 X278.2348 Y190.5774 Z-0.6000
G01 X278.2483 Y190.6156 Z-0.6167
G01 X278.2638 Y190.6531 Z-0.6333
G01 X278.2812 Y190.6896 Z-0.6500
G01 X278.3006 Y190.7253 Z-0.6667
G01 X278.3218 Y190.7598 Z-0.6833
G01 X278.3447 Y190.7932 Z-0.7000
G01 X278.3694 Y190.8253 Z-0.7167
G01 X278.3957 Y190.8562 Z-0.7333
G01 X278.4236 Y190.8856 Z-0.7500
G01 X278.4530 Y190.9135 Z-0.7667
G01 X278.4838 Y190.9398 Z-0.7833
G01 X278.5159 Y190.9644 Z-0.8000
G01 X278.5493 Y190.9874 Z-0.8167
G01 X278.5839 Y191.0086 Z-0.8333
G01 X278.6195 Y191.0279 Z-0.8500
G01 X278.6561 Y191.0453 Z-0.8667
G01 X278.6935 Y191.0609 Z-0.8833
G01 X278.7317 Y191.0744 Z-0.9000
G01 X278.7706 Y191.0859 Z-0.9167
G01 X278.8100 Y191.0953 Z-0.9333
G01 X278.8498 Y191.1027 Z-0.9500
G01 X278.8900 Y191.1080 Z-0.9667
G01 X278.9304 Y191.1112 Z-0.9833
G01 X278.9709 Y191.1123 Z-1.0000
G01 X279.0114 Y191.1112 Z-1.0167
G01 X279.0518 Y191.1080 Z-1.0333
G01 X279.0920 Y191.1027 Z-1.0500
G01 X279.1318 Y191.0953 Z-1.0667
G01 X279.1712 Y191.0859 Z-1.0833
G01 X279.2101 Y191.0744 Z-1.1000
G01 X279.2483 Y191.0609 Z-1.1167
G01 X279.2857 Y191.0453 Z-1.1333
G01 X279.3223 Y191.0279 Z-1.1500
G01 X279.3579 Y191.0086 Z-1.1667
G01 X279.3925 Y190.9874 Z-1.1833
G01 X279.4259 Y190.9644 Z-1.2000
G01 X279.4580 Y190.9398 Z-1.2167
G01 X279.4888 Y190.9135 Z-1.2333
G01 X279.5182 Y190.8856 Z-1.2500
G01 X279.5461 Y190.8562 Z-1.2667
G01 X279.5724 Y190.8253 Z-1.2833
G01 X279.5971 Y190.7932 Z-1.3000
G01 X279.6201 Y190.7598 Z-1.3167
G01 X279.6412 Y190.7253 Z-1.3333
G01 X279.6606 Y190.6896 Z-1.3500
G01 X279.6780 Y190.6531 Z-1.3667
G01 X279.6935 Y190.6156 Z-1.3833
G01 X279.7071 Y190.5774 Z-1.4000
G01 X279.7186 Y190.5386 Z-1.4167
G01 X279.7280 Y190.4992 Z-1.4333
G01 X279.7354 Y190.4593 Z-1.4500
G01 X279.7407 Y190.4191 Z-1.4667
G01 X279.7439 Y190.3787 Z-1.4833
G01 X279.7449 Y190.3382 Z-1.5000
G01 X279.7439 Y190.2977 Z-1.5167
G01 X279.7407 Y190.2573 Z-1.5333
G01 X279.7354 Y190.2172 Z-1.5500
G01 X279.7280 Y190.1773 Z-1.5667
G01 X279.7186 Y190.1379 Z-1.5833
G01 X279.7071 Y190.0990 Z-1.6000
G01 X279.6935 Y190.0608 Z-1.6167
G01 X279.6780 Y190.0234 Z-1.6333
G01 X279.6606 Y189.9868 Z-1.6500
G01 X279.6412 Y189.9512 Z-1.6667
G01 X279.6201 Y189.9167 Z-1.6833
G01 X279.5971 Y189.8833 Z-1.7000
G01 X279.5724 Y189.8511 Z-1.7167
G01 X279.5461 Y189.8203 Z-1.7333
G01 X279.5182 Y189.7909 Z-1.7500
G01 X279.4888 Y189.7630 Z-1.7667
G01 X279.4580 Y189.7367 Z-1.7833
G01 X279.4259 Y189.7120 Z-1.8000
G01 X279.3925 Y189.6891 Z-1.8167
G01 X279.3579 Y189.6679 Z-1.8333
G01 X279.3223 Y189.6486 Z-1.8500
G01 X279.2857 Y189.6311 Z-1.8667
G01 X279.2483 Y189.6156 Z-1.8833
G01 X279.2101 Y189.6021 Z-1.9000
G01 X279.1712 Y189.5906 Z-1.9167
G01 X279.1318 Y189.5811 Z-1.9333
G01 X279.0920 Y189.5737 Z-1.9500
G01 X279.0518 Y189.5684 Z-1.9667
G01 X279.0114 Y189.5653 Z-1.9833
G01 X278.9709 Y189.5642 Z-2.0000
G01 X278.9304 Y189.5653 Z-2.0167
G01 X278.8900 Y189.5684 Z-2.0333
G01 X278.8498 Y189.5737 Z-2.0500
G01 X278.8100 Y189.5811 Z-2.0667
G01 X278.7706 Y189.5906 Z-2.0833
G01 X278.7317 Y189.6021 Z-2.1000
G01 X278.6935 Y189.6156 Z-2.1167
G01 X278.6561 Y189.6311 Z-2.1333
G01 X278.6195 Y189.6486 Z-2.1500
G01 X278.5839 Y189.6679 Z-2.1667
G01 X278.5493 Y189.6891 Z-2.1833
G01 X278.5159 Y189.7120 Z-2.2000
G01 X278.4838 Y189.7367 Z-2.2167
G01 X278.4530 Y189.7630 Z-2.2333
G01 X278.4236 Y189.7909 Z-2.2500
G01 X278.3957 Y189.8203 Z-2.2667
G01 X278.3694 Y189.8511 Z-2.2833
G01 X278.3447 Y189.8833 Z-2.3000
G01 X278.3218 Y189.9167 Z-2.3167
G01 X278.3006 Y189.9512 Z-2.3333
G01 X278.2812 Y189.9868 Z-2.3500
G01 X278.2638 Y190.0234 Z-2.3667
G01 X278.2483 Y190.0608 Z-2.3833
G01 X278.2348 Y190.0990 Z-2.4000
G01 X278.2233 Y190.1379 Z-2.4167
G01 X278.2138 Y190.1773 Z-2.4333
G01 X278.2064 Y190.2172 Z-2.4500
G01 X278.2011 Y190.2573 Z-2.4667
G01 X278.1979 Y190.2977 Z-2.4833
G01 X278.1969 Y190.3382 Z-2.5000
G01 X278.1979 Y190.3787 Z-2.5167
G01 X278.2011 Y190.4191 Z-2.5333
G01 X278.2064 Y190.4593 Z-2.5500
G01 X278.2138 Y190.4992 Z-2.5667
G01 X278.2233 Y190.5386 Z-2.5833
G01 X278.2348 Y190.5774 Z-2.6000
G01 X278.2483 Y190.6156 Z-2.6167
G01 X278.2638 Y190.6531 Z-2.6333
G01 X278.2812 Y190.6896 Z-2.6500
G01 X278.3006 Y190.7253 Z-2.6667
G01 X278.3218 Y190.7598 Z-2.6833
G01 X278.3447 Y190.7932 Z-2.7000
G01 X278.3694 Y190.8253 Z-2.7167
G01 X278.3957 Y190.8562 Z-2.7333
G01 X278.4236 Y190.8856 Z-2.7500
G01 X278.4530 Y190.9135 Z-2.7667
G01 X278.4838 Y190.9398 Z-2.7833
G01 X278.5159 Y190.9644 Z-2.8000
G01 X278.5493 Y190.9874 Z-2.8167
G01 X278.5839 Y191.0086 Z-2.8333
G01 X278.6195 Y191.0279 Z-2.8500
G01 X278.6561 Y191.0453 Z-2.8667
G01 X278.6935 Y191.0609 Z-2.8833
G01 X278.7317 Y191.0744 Z-2.9000
G01 X278.7706 Y191.0859 Z-2.9167
G01 X278.8100 Y191.0953 Z-2.9333
G01 X278.8498 Y191.1027 Z-2.9500
G01 X278.8900 Y191.1080 Z-2.9667
G01 X278.9304 Y191.1112 Z-2.9833
G01 X278.9709 Y191.1123 Z-3.0000
G01 X279.0114 Y191.1112 Z-3.0167
G01 X279.0518 Y191.1080 Z-3.0333
G01 X279.0920 Y191.1027 Z-3.0500
G01 X279.1318 Y191.0953 Z-3.0667
G01 X279.1712 Y191.0859 Z-3.0833
G01 X279.2101 Y191.0744 Z-3.1000
G01 X279.2483 Y191.0609 Z-3.1167
G01 X279.2857 Y191.0453 Z-3.1333
G01 X279.3223 Y191.0279 Z-3.1500
G01 X279.3579 Y191.0086 Z-3.1667
G01 X279.3925 Y190.9874 Z-3.1833
G01 X279.4259 Y190.9644 Z-3.2000
G01 X279.4580 Y190.9398 Z-3.2167
G01 X279.4888 Y190.9135 Z-3.2333
G01 X279.5182 Y190.8856 Z-3.2500
G01 X279.5461 Y190.8562 Z-3.2667
G01 X279.5724 Y190.8253 Z-3.2833
G01 X279.5971 Y190.7932 Z-3.3000
G01 X279.6201 Y190.7598 Z-3.3167
G01 X279.6412 Y190.7253 Z-3.3333
G01 X279.6606 Y190.6896 Z-3.3500
G01 X279.6780 Y190.6531 Z-3.3667
G01 X279.6935 Y190.6156 Z-3.3833
G01 X279.7071 Y190.5774 Z-3.4000
G01 X279.7186 Y190.5386 Z-3.4167
G01 X279.7280 Y190.4992 Z-3.4333
G01 X279.7354 Y190.4593 Z-3.4500
G01 X279.7407 Y190.4191 Z-3.4667
G01 X279.7439 Y190.3787 Z-3.4833
G01 X279.7449 Y190.3382 Z-3.5000
G01 X279.7439 Y190.2977 Z-3.5167
G01 X279.7407 Y190.2573 Z-3.5333
G01 X279.7354 Y190.2172 Z-3.5500
G01 X279.7280 Y190.1773 Z-3.5667
G01 X279.7186 Y190.1379 Z-3.5833
G01 X279.7071 Y190.0990 Z-3.6000
G01 X279.6935 Y190.0608 Z-3.6167
G01 X279.6780 Y190.0234 Z-3.6333
G01 X279.6606 Y189.9868 Z-3.6500
G01 X279.6412 Y189.9512 Z-3.6667
G01 X279.6201 Y189.9167 Z-3.6833
G01 X279.5971 Y189.8833 Z-3.7000
G01 X279.5724 Y189.8511 Z-3.7167
G01 X279.5461 Y189.8203 Z-3.7333
G01 X279.5182 Y189.7909 Z-3.7500
G01 X279.4888 Y189.7630 Z-3.7667
G01 X279.4580 Y189.7367 Z-3.7833
G01 X279.4259 Y189.7120 Z-3.8000
G01 X279.3925 Y189.6891 Z-3.8167
G01 X279.3579 Y189.6679 Z-3.8333
G01 X279.3223 Y189.6486 Z-3.8500
G01 X279.2857 Y189.6311 Z-3.8667
G01 X279.2483 Y189.6156 Z-3.8833
G01 X279.2101 Y189.6021 Z-3.9000
G01 X279.1712 Y189.5906 Z-3.9167
G01 X279.1318 Y189.5811 Z-3.9333
G01 X279.0920 Y189.5737 Z-3.9500
G01 X279.0518 Y189.5684 Z-3.9667
G01 X279.0114 Y189.5653 Z-3.9833
G01 X278.9709 Y189.5642 Z-4.0000
G01 X278.9304 Y189.5653 Z-4.0167
G01 X278.8900 Y189.5684 Z-4.0333
G01 X278.8498 Y189.5737 Z-4.0500
G01 X278.8100 Y189.5811 Z-4.0667
G01 X278.7706 Y189.5906 Z-4.0833
G01 X278.7317 Y189.6021 Z-4.1000
G01 X278.6935 Y189.6156 Z-4.1167
G01 X278.6561 Y189.6311 Z-4.1333
G01 X278.6195 Y189.6486 Z-4.1500
G01 X278.5839 Y189.6679 Z-4.1667
G01 X278.5493 Y189.6891 Z-4.1833
G01 X278.5159 Y189.7120 Z-4.2000
G01 X278.4838 Y189.7367 Z-4.2167
G01 X278.4530 Y189.7630 Z-4.2333
G01 X278.4236 Y189.7909 Z-4.2500
G01 X278.3957 Y189.8203 Z-4.2667
G01 X278.3694 Y189.8511 Z-4.2833
G01 X278.3447 Y189.8833 Z-4.3000
G01 X278.3218 Y189.9167 Z-4.3167
G01 X278.3006 Y189.9512 Z-4.3333
G01 X278.2812 Y189.9868 Z-4.3500
G01 X278.2638 Y190.0234 Z-4.3667
G01 X278.2483 Y190.0608 Z-4.3833
G01 X278.2348 Y190.0990 Z-4.4000
G01 X278.2233 Y190.1379 Z-4.4167
G01 X278.2138 Y190.1773 Z-4.4333
G01 X278.2064 Y190.2172 Z-4.4500
G01 X278.2011 Y190.2573 Z-4.4667
G01 X278.1979 Y190.2977 Z-4.4833
G01 X278.1969 Y190.3382 Z-4.5000
G01 X278.1979 Y190.3787 Z-4.5167
G01 X278.2011 Y190.4191 Z-4.5333
G01 X278.2064 Y190.4593 Z-4.5500
G01 X278.2138 Y190.4992 Z-4.5667
G01 X278.2233 Y190.5386 Z-4.5833
G01 X278.2348 Y190.5774 Z-4.6000
G01 X278.2483 Y190.6156 Z-4.6167
G01 X278.2638 Y190.6531 Z-4.6333
G01 X278.2812 Y190.6896 Z-4.6500
G01 X278.3006 Y190.7253 Z-4.6667
G01 X278.3218 Y190.7598 Z-4.6833
G01 X278.3447 Y190.7932 Z-4.7000
G01 X278.3694 Y190.8253 Z-4.7167
G01 X278.3957 Y190.8562 Z-4.7333
G01 X278.4236 Y190.8856 Z-4.7500
G01 X278.4530 Y190.9135 Z-4.7667
G01 X278.4838 Y190.9398 Z-4.7833
G01 X278.5159 Y190.9644 Z-4.8000
G01 X278.5493 Y190.9874 Z-4.8167
G01 X278.5839 Y191.0086 Z-4.8333
G01 X278.6195 Y191.0279 Z-4.8500
G01 X278.6561 Y191.0453 Z-4.8667
G01 X278.6935 Y191.0609 Z-4.8833
G01 X278.7317 Y191.0744 Z-4.9000
G01 X278.7706 Y191.0859 Z-4.9167
G01 X278.8100 Y191.0953 Z-4.9333
G01 X278.8498 Y191.1027 Z-4.9500
G01 X278.8900 Y191.1080 Z-4.9667
G01 X278.9304 Y191.1112 Z-4.9833
G01 X278.9709 Y191.1123 Z-5.0000
G01 X279.0114 Y191.1112 Z-5.0167
G01 X279.0518 Y191.1080 Z-5.0333
G01 X279.0920 Y191.1027 Z-5.0500
G01 X279.1318 Y191.0953 Z-5.0667
G01 X279.1712 Y191.0859 Z-5.0833
G01 X279.2101 Y191.0744 Z-5.1000
G01 X279.2483 Y191.0609 Z-5.1167
G01 X279.2857 Y191.0453 Z-5.1333
G01 X279.3223 Y191.0279 Z-5.1500
G01 X279.3579 Y191.0086 Z-5.1667
G01 X279.3925 Y190.9874 Z-5.1833
G01 X279.4259 Y190.9644 Z-5.2000
G01 X279.4580 Y190.9398 Z-5.2167
G01 X279.4888 Y190.9135 Z-5.2333
G01 X279.5182 Y190.8856 Z-5.2500
G01 X279.5461 Y190.8562 Z-5.2667
G01 X279.5724 Y190.8253 Z-5.2833
G01 X279.5971 Y190.7932 Z-5.3000
G01 X279.6201 Y190.7598 Z-5.3167
G01 X279.6412 Y190.7253 Z-5.3333
G01 X279.6606 Y190.6896 Z-5.3500
G01 X279.6780 Y190.6531 Z-5.3667
G01 X279.6935 Y190.6156 Z-5.3833
G01 X279.7071 Y190.5774 Z-5.4000
G01 X279.7186 Y190.5386 Z-5.4167
G01 X279.7280 Y190.4992 Z-5.4333
G01 X279.7354 Y190.4593 Z-5.4500
G01 X279.7407 Y190.4191 Z-5.4667
G01 X279.7439 Y190.3787 Z-5.4833
G01 X279.7449 Y190.3382 Z-5.5000
G01 X279.7439 Y190.2977 Z-5.5042
G01 X279.7407 Y190.2573 Z-5.5083
G01 X279.7354 Y190.2172 Z-5.5125
G01 X279.7280 Y190.1773 Z-5.5167
G01 X279.7186 Y190.1379 Z-5.5208
G01 X279.7071 Y190.0990 Z-5.5250
G01 X279.6935 Y190.0608 Z-5.5292
G01 X279.6780 Y190.0234 Z-5.5333
G01 X279.6606 Y189.9868 Z-5.5375
G01 X279.6412 Y189.9512 Z-5.5417
G01 X279.6201 Y189.9167 Z-5.5458
G01 X279.5971 Y189.8833 Z-5.5500
G01 X279.5724 Y189.8511 Z-5.5542
G01 X279.5461 Y189.8203 Z-5.5583
G01 X279.5182 Y189.7909 Z-5.5625
G01 X279.4888 Y189.7630 Z-5.5667
G01 X279.4580 Y189.7367 Z-5.5708
G01 X279.4259 Y189.7120 Z-5.5750
G01 X279.3925 Y189.6891 Z-5.5792
G01 X279.3579 Y189.6679 Z-5.5833
G01 X279.3223 Y189.6486 Z-5.5875
G01 X279.2857 Y189.6311 Z-5.5917
G01 X279.2483 Y189.6156 Z-5.5958
G01 X279.2101 Y189.6021 Z-5.6000
G01 X279.1712 Y189.5906 Z-5.6042
G01 X279.1318 Y189.5811 Z-5.6083
G01 X279.0920 Y189.5737 Z-5.6125
G01 X279.0518 Y189.5684 Z-5.6167
G01 X279.0114 Y189.5653 Z-5.6208
G01 X278.9709 Y189.5642 Z-5.6250
G01 X278.9304 Y189.5653 Z-5.6292
G01 X278.8900 Y189.5684 Z-5.6333
G01 X278.8498 Y189.5737 Z-5.6375
G01 X278.8100 Y189.5811 Z-5.6417
G01 X278.7706 Y189.5906 Z-5.6458
G01 X278.7317 Y189.6021 Z-5.6500
G01 X278.6935 Y189.6156 Z-5.6542
G01 X278.6561 Y189.6311 Z-5.6583
G01 X278.6195 Y189.6486 Z-5.6625
G01 X278.5839 Y189.6679 Z-5.6667
G01 X278.5493 Y189.6891 Z-5.6708
G01 X278.5159 Y189.7120 Z-5.6750
G01 X278.4838 Y189.7367 Z-5.6792
G01 X278.4530 Y189.7630 Z-5.6833
G01 X278.4236 Y189.7909 Z-5.6875
G01 X278.3957 Y189.8203 Z-5.6917
G01 X278.3694 Y189.8511 Z-5.6958
G01 X278.3447 Y189.8833 Z-5.7000
G01 X278.3218 Y189.9167 Z-5.7042
G01 X278.3006 Y189.9512 Z-5.7083
G01 X278.2812 Y189.9868 Z-5.7125
G01 X278.2638 Y190.0234 Z-5.7167
G01 X278.2483 Y190.0608 Z-5.7208
G01 X278.2348 Y190.0990 Z-5.7250
G01 X278.2233 Y190.1379 Z-5.7292
G01 X278.2138 Y190.1773 Z-5.7333
G01 X278.2064 Y190.2172 Z-5.7375
G01 X278.2011 Y190.2573 Z-5.7417
G01 X278.1979 Y190.2977 Z-5.7458
G01 X278.1969 Y190.3382 Z-5.7500
G01 X278.1979 Y190.3787 Z-5.7542
G01 X278.2011 Y190.4191 Z-5.7583
G01 X278.2064 Y190.4593 Z-5.7625
G01 X278.2138 Y190.4992 Z-5.7667
G01 X278.2233 Y190.5386 Z-5.7708
G01 X278.2348 Y190.5774 Z-5.7750
G01 X278.2483 Y190.6156 Z-5.7792
G01 X278.2638 Y190.6531 Z-5.7833
G01 X278.2812 Y190.6896 Z-5.7875
G01 X278.3006 Y190.7253 Z-5.7917
G01 X278.3218 Y190.7598 Z-5.7958
G01 X278.3447 Y190.7932 Z-5.8000
G01 X278.3694 Y190.8253 Z-5.8042
G01 X278.3957 Y190.8562 Z-5.8083
G01 X278.4236 Y190.8856 Z-5.8125
G01 X278.4530 Y190.9135 Z-5.8167
G01 X278.4838 Y190.9398 Z-5.8208
G01 X278.5159 Y190.9644 Z-5.8250
G01 X278.5493 Y190.9874 Z-5.8292
G01 X278.5839 Y191.0086 Z-5.8333
G01 X278.6195 Y191.0279 Z-5.8375
G01 X278.6561 Y191.0453 Z-5.8417
G01 X278.6935 Y191.0609 Z-5.8458
G01 X278.7317 Y191.0744 Z-5.8500
G01 X278.7706 Y191.0859 Z-5.8542
G01 X278.8100 Y191.0953 Z-5.8583
G01 X278.8498 Y191.1027 Z-5.8625
G01 X278.8900 Y191.1080 Z-5.8667
G01 X278.9304 Y191.1112 Z-5.8708
G01 X278.9709 Y191.1123 Z-5.8750
G01 X279.0114 Y191.1112 Z-5.8792
G01 X279.0518 Y191.1080 Z-5.8833
G01 X279.0920 Y191.1027 Z-5.8875
G01 X279.1318 Y191.0953 Z-5.8917
G01 X279.1712 Y191.0859 Z-5.8958
G01 X279.2101 Y191.0744 Z-5.9000
G01 X279.2483 Y191.0609 Z-5.9042
G01 X279.2857 Y191.0453 Z-5.9083
G01 X279.3223 Y191.0279 Z-5.9125
G01 X279.3579 Y191.0086 Z-5.9167
G01 X279.3925 Y190.9874 Z-5.9208
G01 X279.4259 Y190.9644 Z-5.9250
G01 X279.4580 Y190.9398 Z-5.9292
G01 X279.4888 Y190.9135 Z-5.9333
G01 X279.5182 Y190.8856 Z-5.9375
G01 X279.5461 Y190.8562 Z-5.9417
G01 X279.5724 Y190.8253 Z-5.9458
G01 X279.5971 Y190.7932 Z-5.9500
G01 X279.6201 Y190.7598 Z-5.9542
G01 X279.6412 Y190.7253 Z-5.9583
G01 X279.6606 Y190.6896 Z-5.9625
G01 X279.6780 Y190.6531 Z-5.9667
G01 X279.6935 Y190.6156 Z-5.9708
G01 X279.7071 Y190.5774 Z-5.9750
G01 X279.7186 Y190.5386 Z-5.9792
G01 X279.7280 Y190.4992 Z-5.9833
G01 X279.7354 Y190.4593 Z-5.9875
G01 X279.7407 Y190.4191 Z-5.9917
G01 X279.7439 Y190.3787 Z-5.9958
G01 X279.7449 Y190.3382 Z-6.0000
G01 X279.7439 Y190.2977
G01 X279.7407 Y190.2573
G01 X279.7354 Y190.2172
G01 X279.7280 Y190.1773
G01 X279.7186 Y190.1379
G01 X279.7071 Y190.0990
G01 X279.6935 Y190.0608
G01 X279.6780 Y190.0234
G01 X279.6606 Y189.9868
G01 X279.6412 Y189.9512
G01 X279.6201 Y189.9167
G01 X279.5971 Y189.8833
G01 X279.5724 Y189.8511
G01 X279.5461 Y189.8203
G01 X279.5182 Y189.7909
G01 X279.4888 Y189.7630
G01 X279.4580 Y189.7367
G01 X279.4259 Y189.7120
G01 X279.3925 Y189.6891
G01 X279.3579 Y189.6679
G01 X279.3223 Y189.6486
G01 X279.2857 Y189.6311
G01 X279.2483 Y189.6156
G01 X279.2101 Y189.6021
G01 X279.1712 Y189.5906
G01 X279.1318 Y189.5811
G01 X279.0920 Y189.5737
G01 X279.0518 Y189.5684
G01 X279.0114 Y189.5653
G01 X278.9709 Y189.5642
G01 X278.9304 Y189.5653
G01 X278.8900 Y189.5684
G01 X278.8498 Y189.5737
G01 X278.8100 Y189.5811
G01 X278.7706 Y189.5906
G01 X278.7317 Y189.6021
G01 X278.6935 Y189.6156
G01 X278.6561 Y189.6311
