;Project TeslaChargingOnly
;Created by Estlcam version 11 build 11,233
;Machining time about 00:18:06 hours

G90
M03 S18000
G00 X0.0000 Y0.0000 Z0.0000
G00 Z2.0000


;No. 1: Helical drill 1
G00 X35.1401 Y266.0004
G00 Z0.5000
M106 S240
G01 X35.1363 Y265.9133 Z0.4705 F400 S18000
G01 X35.1249 Y265.8268 Z0.4410
G01 X35.1060 Y265.7416 Z0.4115
G01 X35.0798 Y265.6584 Z0.3819
G01 X35.0464 Y265.5778 Z0.3524
G01 X35.0061 Y265.5004 Z0.3229
G01 X34.9592 Y265.4269 Z0.2934
G01 X34.9061 Y265.3576 Z0.2639
G01 X34.8472 Y265.2933 Z0.2344
G01 X34.7829 Y265.2344 Z0.2049
G01 X34.7137 Y265.1813 Z0.1753
G01 X34.6401 Y265.1344 Z0.1458
G01 X34.5627 Y265.0941 Z0.1163
G01 X34.4821 Y265.0607 Z0.0868
G01 X34.3989 Y265.0345 Z0.0573
G01 X34.3137 Y265.0156 Z0.0278
G01 X34.2272 Y265.0042 Z-0.0017
G01 X34.1401 Y265.0004 Z-0.0313
G01 X34.0529 Y265.0042 Z-0.0608
G01 X33.9664 Y265.0156 Z-0.0903
G01 X33.8813 Y265.0345 Z-0.1198
G01 X33.7981 Y265.0607 Z-0.1493
G01 X33.7175 Y265.0941 Z-0.1788
G01 X33.6401 Y265.1344 Z-0.2083
G01 X33.5994 Y265.1592 Z-0.2244
G01 X33.5600 Y265.1859 Z-0.2405
G01 X33.5219 Y265.2144 Z-0.2566
G01 X33.4852 Y265.2447 Z-0.2727
G01 X33.4500 Y265.2767 Z-0.2888
G01 X33.4164 Y265.3104 Z-0.3049
G01 X33.3843 Y265.3456 Z-0.3210
G01 X33.3540 Y265.3823 Z-0.3371
G01 X33.3255 Y265.4204 Z-0.3532
G01 X33.2988 Y265.4598 Z-0.3693
G01 X33.2741 Y265.5004 Z-0.3854
G01 X33.2513 Y265.5422 Z-0.4015
G01 X33.2305 Y265.5850 Z-0.4176
G01 X33.2117 Y265.6288 Z-0.4337
G01 X33.1951 Y265.6734 Z-0.4498
G01 X33.1806 Y265.7187 Z-0.4659
G01 X33.1683 Y265.7647 Z-0.4820
G01 X33.1582 Y265.8112 Z-0.4981
G01 X33.1503 Y265.8581 Z-0.5142
G01 X33.1446 Y265.9054 Z-0.5303
G01 X33.1412 Y265.9528 Z-0.5464
G01 X33.1401 Y266.0004 Z-0.5625
G01 X33.1412 Y266.0480 Z-0.5786
G01 X33.1446 Y266.0955 Z-0.5947
G01 X33.1503 Y266.1427 Z-0.6108
G01 X33.1582 Y266.1897 Z-0.6269
G01 X33.1683 Y266.2362 Z-0.6430
G01 X33.1806 Y266.2822 Z-0.6591
G01 X33.1951 Y266.3275 Z-0.6752
G01 X33.2117 Y266.3721 Z-0.6913
G01 X33.2305 Y266.4158 Z-0.7074
G01 X33.2513 Y266.4587 Z-0.7235
G01 X33.2741 Y266.5004 Z-0.7396
G01 X33.2988 Y266.5411 Z-0.7557
G01 X33.3255 Y266.5805 Z-0.7718
G01 X33.3540 Y266.6186 Z-0.7879
G01 X33.3843 Y266.6553 Z-0.8040
G01 X33.4164 Y266.6905 Z-0.8201
G01 X33.4500 Y266.7242 Z-0.8362
G01 X33.4852 Y266.7562 Z-0.8523
G01 X33.5219 Y266.7865 Z-0.8684
G01 X33.5600 Y266.8150 Z-0.8845
G01 X33.5994 Y266.8417 Z-0.9006
G01 X33.6401 Y266.8665 Z-0.9167
G01 X33.6819 Y266.8893 Z-0.9328
G01 X33.7247 Y266.9101 Z-0.9489
G01 X33.7684 Y266.9288 Z-0.9650
G01 X33.8130 Y266.9454 Z-0.9811
G01 X33.8584 Y266.9599 Z-0.9972
G01 X33.9043 Y266.9722 Z-1.0133
G01 X33.9508 Y266.9824 Z-1.0294
G01 X33.9978 Y266.9903 Z-1.0455
G01 X34.0450 Y266.9959 Z-1.0616
G01 X34.0925 Y266.9993 Z-1.0777
G01 X34.1401 Y267.0004 Z-1.0938
G01 X34.1877 Y266.9993 Z-1.1098
G01 X34.2351 Y266.9959 Z-1.1259
G01 X34.2824 Y266.9903 Z-1.1420
G01 X34.3293 Y266.9824 Z-1.1581
G01 X34.3758 Y266.9722 Z-1.1742
G01 X34.4218 Y266.9599 Z-1.1903
G01 X34.4672 Y266.9454 Z-1.2064
G01 X34.5117 Y266.9288 Z-1.2225
G01 X34.5555 Y266.9101 Z-1.2386
G01 X34.5983 Y266.8893 Z-1.2547
G01 X34.6401 Y266.8665 Z-1.2708
G01 X34.6807 Y266.8417 Z-1.2869
G01 X34.7201 Y266.8150 Z-1.3030
G01 X34.7582 Y266.7865 Z-1.3191
G01 X34.7949 Y266.7562 Z-1.3352
G01 X34.8302 Y266.7242 Z-1.3513
G01 X34.8638 Y266.6905 Z-1.3674
G01 X34.8958 Y266.6553 Z-1.3835
G01 X34.9261 Y266.6186 Z-1.3996
G01 X34.9547 Y266.5805 Z-1.4157
G01 X34.9813 Y266.5411 Z-1.4318
G01 X35.0061 Y266.5004 Z-1.4479
G01 X35.0289 Y266.4587 Z-1.4640
G01 X35.0497 Y266.4158 Z-1.4801
G01 X35.0685 Y266.3721 Z-1.4962
G01 X35.0851 Y266.3275 Z-1.5123
G01 X35.0996 Y266.2822 Z-1.5284
G01 X35.1119 Y266.2362 Z-1.5445
G01 X35.1220 Y266.1897 Z-1.5606
G01 X35.1299 Y266.1427 Z-1.5767
G01 X35.1356 Y266.0955 Z-1.5928
G01 X35.1390 Y266.0480 Z-1.6089
G01 X35.1401 Y266.0004 Z-1.6250
G01 X35.1363 Y265.9133
G01 X35.1249 Y265.8268
G01 X35.1060 Y265.7416
G01 X35.0798 Y265.6584
G01 X35.0464 Y265.5778
G01 X35.0061 Y265.5004
G01 X34.9592 Y265.4269
G01 X34.9061 Y265.3576
G01 X34.8472 Y265.2933
G01 X34.7829 Y265.2344
G01 X34.7137 Y265.1813
G01 X34.6401 Y265.1344
G01 X34.5627 Y265.0941
G01 X34.4821 Y265.0607
G01 X34.3989 Y265.0345
G01 X34.3137 Y265.0156
G01 X34.2272 Y265.0042
G01 X34.1401 Y265.0004
G01 X34.0529 Y265.0042
G01 X33.9664 Y265.0156
G01 X33.8813 Y265.0345
G01 X33.7981 Y265.0607
G01 X33.7175 Y265.0941
G01 X33.6401 Y265.1344
G01 X33.5994 Y265.1592
G01 X33.5600 Y265.1859
G01 X33.5219 Y265.2144
G01 X33.4852 Y265.2447
G01 X33.4500 Y265.2767
G01 X33.4164 Y265.3104
G01 X33.3843 Y265.3456
G01 X33.3540 Y265.3823
G01 X33.3255 Y265.4204
G01 X33.2988 Y265.4598
G01 X33.2741 Y265.5004
G01 X33.2513 Y265.5422
G01 X33.2305 Y265.5850
G01 X33.2117 Y265.6288
G01 X33.1951 Y265.6734
G01 X33.1806 Y265.7187
G01 X33.1683 Y265.7647
G01 X33.1582 Y265.8112
G01 X33.1503 Y265.8581
G01 X33.1446 Y265.9054
G01 X33.1412 Y265.9528
G01 X33.1401 Y266.0004
G01 X33.1412 Y266.0480
G01 X33.1446 Y266.0955
G01 X33.1503 Y266.1427
G01 X33.1582 Y266.1897
G01 X33.1683 Y266.2362
G01 X33.1806 Y266.2822
G01 X33.1951 Y266.3275
G01 X33.2117 Y266.3721
G01 X33.2305 Y266.4158
G01 X33.2513 Y266.4587
G01 X33.2741 Y266.5004
G01 X33.2988 Y266.5411
G01 X33.3255 Y266.5805
G01 X33.3540 Y266.6186
G01 X33.3843 Y266.6553
G01 X33.4164 Y266.6905
G01 X33.4500 Y266.7242
G01 X33.4852 Y266.7562
G01 X33.5219 Y266.7865
G01 X33.5600 Y266.8150
G01 X33.5994 Y266.8417
G01 X33.6401 Y266.8665
G01 X33.6819 Y266.8893
G01 X33.7247 Y266.9101
G01 X33.7684 Y266.9288
G01 X33.8130 Y266.9454
G01 X33.8584 Y266.9599
G01 X33.9043 Y266.9722
G01 X33.9508 Y266.9824
G01 X33.9978 Y266.9903
G01 X34.0450 Y266.9959
G01 X34.0925 Y266.9993
G01 X34.1401 Y267.0004
G01 X34.1877 Y266.9993
G01 X34.2351 Y266.9959
G01 X34.2824 Y266.9903
G01 X34.3293 Y266.9824
G01 X34.3758 Y266.9722
G01 X34.4218 Y266.9599
G01 X34.4672 Y266.9454
G01 X34.5117 Y266.9288
G01 X34.5555 Y266.9101
G01 X34.5983 Y266.8893
G01 X34.6401 Y266.8665
G01 X34.6807 Y266.8417
G01 X34.7201 Y266.8150
G01 X34.7582 Y266.7865
G01 X34.7949 Y266.7562
G01 X34.8302 Y266.7242
G01 X34.8638 Y266.6905
G01 X34.8958 Y266.6553
G01 X34.9261 Y266.6186
G01 X34.9547 Y266.5805
G01 X34.9813 Y266.5411
G01 X35.0061 Y266.5004
G01 X35.0289 Y266.4587
G01 X35.0497 Y266.4158
G01 X35.0685 Y266.3721
G01 X35.0851 Y266.3275
G01 X35.0996 Y266.2822
G01 X35.1119 Y266.2362
G01 X35.1220 Y266.1897
G01 X35.1299 Y266.1427
G01 X35.1356 Y266.0955
G01 X35.1390 Y266.0480
G01 X35.1401 Y266.0004
G01 X35.1508 Y265.9488 F1000
G01 X35.1589 Y265.8968
G01 X35.1643 Y265.8443
G01 X35.1670 Y265.7917
G01 X35.1669 Y265.7390
G01 X35.1642 Y265.6864
G01 X35.1587 Y265.6339
G01 X35.1506 Y265.5819
G01 X35.1389 Y265.5259
G01 X35.1243 Y265.4706
G01 X35.1069 Y265.4161
G01 X35.0868 Y265.3625
G01 X35.0639 Y265.3101
G01 X35.0384 Y265.2589
G01 X35.0104 Y265.2091
G01 X34.9798 Y265.1607
G01 X34.9442 Y265.1103
G01 X34.9060 Y265.0618
G01 X34.8655 Y265.0153
G01 X34.8226 Y264.9709
G01 X34.7776 Y264.9287
G01 X34.7304 Y264.8889
G01 X34.6813 Y264.8515
G01 X34.6304 Y264.8167
G01 X34.5739 Y264.7821
G01 X34.5157 Y264.7505
G01 X34.4560 Y264.7218
G01 X34.3950 Y264.6962
G01 X34.3327 Y264.6737
G01 X34.2693 Y264.6543
G01 X34.2051 Y264.6383
G01 X34.1401 Y264.6254
G01 X34.0707 Y264.6184
G01 X34.0011 Y264.6148
G01 X33.9313 Y264.6147
G01 X33.8617 Y264.6180
G01 X33.7923 Y264.6249
G01 X33.7233 Y264.6351
G01 X33.6549 Y264.6488
G01 X33.5873 Y264.6659
G01 X33.5225 Y264.6946
G01 X33.4592 Y264.7265
G01 X33.3975 Y264.7615
G01 X33.3376 Y264.7994
G01 X33.2796 Y264.8402
G01 X33.2237 Y264.8838
G01 X33.1700 Y264.9302
G01 X33.1187 Y264.9790
G01 X33.0698 Y265.0304
G01 X33.0235 Y265.0841
G01 X32.9799 Y265.1400
G01 X32.9391 Y265.1979
G01 X32.9011 Y265.2578
G01 X32.8662 Y265.3195
G01 X32.8343 Y265.3828
G01 X32.8056 Y265.4477
G01 X32.7801 Y265.5138
G01 X32.7578 Y265.5811
G01 X32.7389 Y265.6495
G01 X32.7234 Y265.7186
G01 X32.7113 Y265.7885
G01 X32.7026 Y265.8588
G01 X32.6974 Y265.9296
G01 X32.6956 Y266.0004
G01 X32.6974 Y266.0713
G01 X32.7026 Y266.1420
G01 X32.7113 Y266.2124
G01 X32.7234 Y266.2822
G01 X32.7389 Y266.3514
G01 X32.7578 Y266.4197
G01 X32.7801 Y266.4871
G01 X32.8056 Y266.5532
G01 X32.8343 Y266.6180
G01 X32.8662 Y266.6813
G01 X32.9011 Y266.7430
G01 X32.9391 Y266.8029
G01 X32.9799 Y266.8609
G01 X33.0235 Y266.9168
G01 X33.0698 Y266.9705
G01 X33.1187 Y267.0218
G01 X33.1700 Y267.0707
G01 X33.2237 Y267.1170
G01 X33.2796 Y267.1606
G01 X33.3376 Y267.2015
G01 X33.3975 Y267.2394
G01 X33.4592 Y267.2743
G01 X33.5225 Y267.3062
G01 X33.5873 Y267.3349
G01 X33.6535 Y267.3605
G01 X33.7208 Y267.3827
G01 X33.7891 Y267.4016
G01 X33.8583 Y267.4171
G01 X33.9281 Y267.4293
G01 X33.9985 Y267.4379
G01 X34.0692 Y267.4432
G01 X34.1401 Y267.4449
G01 X34.2110 Y267.4432
G01 X34.2817 Y267.4379
G01 X34.3520 Y267.4293
G01 X34.4219 Y267.4171
G01 X34.4911 Y267.4016
G01 X34.5594 Y267.3827
G01 X34.6267 Y267.3605
G01 X34.6929 Y267.3349
G01 X34.7577 Y267.3062
G01 X34.8210 Y267.2743
G01 X34.8827 Y267.2394
G01 X34.9426 Y267.2015
G01 X35.0006 Y267.1606
G01 X35.0564 Y267.1170
G01 X35.1101 Y267.0707
G01 X35.1615 Y267.0218
G01 X35.2104 Y266.9705
G01 X35.2567 Y266.9168
G01 X35.3003 Y266.8609
G01 X35.3411 Y266.8029
G01 X35.3790 Y266.7430
G01 X35.4140 Y266.6813
G01 X35.4459 Y266.6180
G01 X35.4746 Y266.5532
G01 X35.5001 Y266.4871
G01 X35.5224 Y266.4197
G01 X35.5413 Y266.3514
G01 X35.5568 Y266.2822
G01 X35.5689 Y266.2124
G01 X35.5776 Y266.1420
G01 X35.5828 Y266.0713
G01 X35.5846 Y266.0004
G01 X35.5805 Y265.8925
G01 X35.5684 Y265.7851
G01 X35.5483 Y265.6790
G01 X35.5204 Y265.5747
G01 X35.4847 Y265.4727
G01 X35.4415 Y265.3737
G01 X35.3910 Y265.2782
G01 X35.3336 Y265.1867
G01 X35.2694 Y265.0998
G01 X35.1990 Y265.0179
G01 X35.1226 Y264.9416
G01 X35.0407 Y264.8711
G01 X34.9538 Y264.8070
G01 X34.8623 Y264.7495
G01 X34.7668 Y264.6990
G01 X34.6678 Y264.6558
G01 X34.5658 Y264.6201
G01 X34.4615 Y264.5922
G01 X34.3554 Y264.5721
G01 X34.2480 Y264.5600
G01 X34.1401 Y264.5560
G01 X34.0321 Y264.5600
G01 X33.9248 Y264.5721
G01 X33.8187 Y264.5922
G01 X33.7143 Y264.6201
G01 X33.6124 Y264.6558
G01 X33.5134 Y264.6990
G01 X33.4179 Y264.7495
G01 X33.3264 Y264.8070
G01 X33.2395 Y264.8711
G01 X33.1576 Y264.9416
G01 X33.0812 Y265.0179
G01 X33.0108 Y265.0998
G01 X32.9466 Y265.1867
G01 X32.8891 Y265.2782
G01 X32.8387 Y265.3737
G01 X32.7955 Y265.4727
G01 X32.7598 Y265.5747
G01 X32.7318 Y265.6790
G01 X32.7118 Y265.7851
G01 X32.6997 Y265.8925
G01 X32.6956 Y266.0004
G01 X32.6997 Y266.1084
G01 X32.7118 Y266.2157
G01 X32.7318 Y266.3219
G01 X32.7598 Y266.4262
G01 X32.7955 Y266.5282
G01 X32.8387 Y266.6272
G01 X32.8891 Y266.7227
G01 X32.9466 Y266.8141
G01 X33.0108 Y266.9010
G01 X33.0812 Y266.9829
G01 X33.1576 Y267.0593
G01 X33.2395 Y267.1298
G01 X33.3264 Y267.1939
G01 X33.4179 Y267.2514
G01 X33.5134 Y267.3019
G01 X33.6124 Y267.3450
G01 X33.7143 Y267.3807
G01 X33.8187 Y267.4087
G01 X33.9248 Y267.4288
G01 X34.0321 Y267.4409
G01 X34.1401 Y267.4449
G01 X34.2480 Y267.4409
G01 X34.3554 Y267.4288
G01 X34.4615 Y267.4087
G01 X34.5658 Y267.3807
G01 X34.6678 Y267.3450
G01 X34.7668 Y267.3019
G01 X34.8623 Y267.2514
G01 X34.9538 Y267.1939
G01 X35.0407 Y267.1298
G01 X35.1226 Y267.0593
G01 X35.1990 Y266.9829
G01 X35.2694 Y266.9010
G01 X35.3336 Y266.8141
G01 X35.3910 Y266.7227
G01 X35.4415 Y266.6272
G01 X35.4847 Y266.5282
G01 X35.5204 Y266.4262
G01 X35.5483 Y266.3219
G01 X35.5684 Y266.2157
G01 X35.5805 Y266.1084
G01 X35.5846 Y266.0004
G01 X35.5808 Y265.9045
G01 X35.5695 Y265.8092
G01 X35.5508 Y265.7151
G01 X35.5247 Y265.6227
G01 X35.4915 Y265.5327
G01 X35.4513 Y265.4455
G01 X35.4044 Y265.3618
G01 X35.3511 Y265.2820
G01 X35.2917 Y265.2067
G01 X35.2266 Y265.1362
G01 X35.1561 Y265.0710
G01 X35.0807 Y265.0116
G01 X35.0009 Y264.9583
G01 X34.9172 Y264.9114
G01 X34.8300 Y264.8712
G01 X34.7400 Y264.8380
G01 X34.6476 Y264.8120
G01 X34.5535 Y264.7932
G01 X34.4582 Y264.7820
G01 X34.3623 Y264.7782
G01 X34.2664 Y264.7820
G01 X34.1711 Y264.7932
G01 X34.0770 Y264.8120
G01 X33.9846 Y264.8380
G01 X33.8946 Y264.8712
G01 X33.8074 Y264.9114
G01 X33.7237 Y264.9583
G01 X33.6439 Y265.0116
G01 X33.5685 Y265.0710
G01 X33.4981 Y265.1362
G01 X33.4329 Y265.2067
G01 X33.3735 Y265.2820
G01 X33.3202 Y265.3618
G01 X33.2733 Y265.4455
G01 X33.2331 Y265.5327
G01 X33.1999 Y265.6227
G01 X33.1739 Y265.7151
G01 X33.1551 Y265.8092
G01 X33.1439 Y265.9045
G01 X33.1401 Y266.0004
G01 X33.1439 Y266.0876
G01 X33.1553 Y266.1741
G01 X33.1742 Y266.2593
G01 X33.2004 Y266.3425
G01 X33.2338 Y266.4230
G01 X33.2741 Y266.5004
G01 X33.3209 Y266.5740
G01 X33.3740 Y266.6432
G01 X33.4330 Y266.7075
G01 X33.4973 Y266.7665
G01 X33.5665 Y266.8196
G01 X33.6401 Y266.8665
G01 X33.7175 Y266.9067
G01 X33.7981 Y266.9401
G01 X33.8813 Y266.9664
G01 X33.9664 Y266.9852
G01 X34.0529 Y266.9966
G01 X34.1401 Y267.0004
G01 X34.2272 Y266.9966
G01 X34.3137 Y266.9852
G01 X34.3989 Y266.9664
G01 X34.4821 Y266.9401
G01 X34.5627 Y266.9067
G01 X34.6401 Y266.8665
G01 X34.7137 Y266.8196
G01 X34.7829 Y266.7665
G01 X34.8472 Y266.7075
G01 X34.9061 Y266.6432
G01 X34.9592 Y266.5740
G01 X35.0061 Y266.5004
G01 X35.0464 Y266.4230
G01 X35.0798 Y266.3425
G01 X35.1060 Y266.2593
G01 X35.1249 Y266.1741
G01 X35.1363 Y266.0876
G01 X35.1401 Y266.0004
M107
M106 S240
G01 X35.1363 Y265.9133 Z-1.6545 F400
G01 X35.1249 Y265.8268 Z-1.6840
G01 X35.1060 Y265.7416 Z-1.7135
G01 X35.0798 Y265.6584 Z-1.7431
G01 X35.0464 Y265.5778 Z-1.7726
G01 X35.0061 Y265.5004 Z-1.8021
G01 X34.9592 Y265.4269 Z-1.8316
G01 X34.9061 Y265.3576 Z-1.8611
G01 X34.8472 Y265.2933 Z-1.8906
G01 X34.7829 Y265.2344 Z-1.9201
G01 X34.7137 Y265.1813 Z-1.9497
G01 X34.6401 Y265.1344 Z-1.9792
G01 X34.5627 Y265.0941 Z-2.0087
G01 X34.4821 Y265.0607 Z-2.0382
G01 X34.3989 Y265.0345 Z-2.0677
G01 X34.3137 Y265.0156 Z-2.0972
G01 X34.2272 Y265.0042 Z-2.1267
G01 X34.1401 Y265.0004 Z-2.1563
G01 X34.0529 Y265.0042 Z-2.1858
G01 X33.9664 Y265.0156 Z-2.2153
G01 X33.8813 Y265.0345 Z-2.2448
G01 X33.7981 Y265.0607 Z-2.2743
G01 X33.7175 Y265.0941 Z-2.3038
G01 X33.6401 Y265.1344 Z-2.3333
G01 X33.5994 Y265.1592 Z-2.3494
G01 X33.5600 Y265.1859 Z-2.3655
G01 X33.5219 Y265.2144 Z-2.3816
G01 X33.4852 Y265.2447 Z-2.3977
G01 X33.4500 Y265.2767 Z-2.4138
G01 X33.4164 Y265.3104 Z-2.4299
G01 X33.3843 Y265.3456 Z-2.4460
G01 X33.3540 Y265.3823 Z-2.4621
G01 X33.3255 Y265.4204 Z-2.4782
G01 X33.2988 Y265.4598 Z-2.4943
G01 X33.2741 Y265.5004 Z-2.5104
G01 X33.2513 Y265.5422 Z-2.5265
G01 X33.2305 Y265.5850 Z-2.5426
G01 X33.2117 Y265.6288 Z-2.5587
G01 X33.1951 Y265.6734 Z-2.5748
G01 X33.1806 Y265.7187 Z-2.5909
G01 X33.1683 Y265.7647 Z-2.6070
G01 X33.1582 Y265.8112 Z-2.6231
G01 X33.1503 Y265.8581 Z-2.6392
G01 X33.1446 Y265.9054 Z-2.6553
G01 X33.1412 Y265.9528 Z-2.6714
G01 X33.1401 Y266.0004 Z-2.6875
G01 X33.1412 Y266.0480 Z-2.7036
G01 X33.1446 Y266.0955 Z-2.7197
G01 X33.1503 Y266.1427 Z-2.7358
G01 X33.1582 Y266.1897 Z-2.7519
G01 X33.1683 Y266.2362 Z-2.7680
G01 X33.1806 Y266.2822 Z-2.7841
G01 X33.1951 Y266.3275 Z-2.8002
G01 X33.2117 Y266.3721 Z-2.8163
G01 X33.2305 Y266.4158 Z-2.8324
G01 X33.2513 Y266.4587 Z-2.8485
G01 X33.2741 Y266.5004 Z-2.8646
G01 X33.2988 Y266.5411 Z-2.8807
G01 X33.3255 Y266.5805 Z-2.8968
G01 X33.3540 Y266.6186 Z-2.9129
G01 X33.3843 Y266.6553 Z-2.9290
G01 X33.4164 Y266.6905 Z-2.9451
G01 X33.4500 Y266.7242 Z-2.9612
G01 X33.4852 Y266.7562 Z-2.9773
G01 X33.5219 Y266.7865 Z-2.9934
G01 X33.5600 Y266.8150 Z-3.0095
G01 X33.5994 Y266.8417 Z-3.0256
G01 X33.6401 Y266.8665 Z-3.0417
G01 X33.6819 Y266.8893 Z-3.0578
G01 X33.7247 Y266.9101 Z-3.0739
G01 X33.7684 Y266.9288 Z-3.0900
G01 X33.8130 Y266.9454 Z-3.1061
G01 X33.8584 Y266.9599 Z-3.1222
G01 X33.9043 Y266.9722 Z-3.1383
G01 X33.9508 Y266.9824 Z-3.1544
G01 X33.9978 Y266.9903 Z-3.1705
G01 X34.0450 Y266.9959 Z-3.1866
G01 X34.0925 Y266.9993 Z-3.2027
G01 X34.1401 Y267.0004 Z-3.2188
G01 X34.1877 Y266.9993 Z-3.2348
G01 X34.2351 Y266.9959 Z-3.2509
G01 X34.2824 Y266.9903 Z-3.2670
G01 X34.3293 Y266.9824 Z-3.2831
G01 X34.3758 Y266.9722 Z-3.2992
G01 X34.4218 Y266.9599 Z-3.3153
G01 X34.4672 Y266.9454 Z-3.3314
G01 X34.5117 Y266.9288 Z-3.3475
G01 X34.5555 Y266.9101 Z-3.3636
G01 X34.5983 Y266.8893 Z-3.3797
G01 X34.6401 Y266.8665 Z-3.3958
G01 X34.6807 Y266.8417 Z-3.4119
G01 X34.7201 Y266.8150 Z-3.4280
G01 X34.7582 Y266.7865 Z-3.4441
G01 X34.7949 Y266.7562 Z-3.4602
G01 X34.8302 Y266.7242 Z-3.4763
G01 X34.8638 Y266.6905 Z-3.4924
G01 X34.8958 Y266.6553 Z-3.5085
G01 X34.9261 Y266.6186 Z-3.5246
G01 X34.9547 Y266.5805 Z-3.5407
G01 X34.9813 Y266.5411 Z-3.5568
G01 X35.0061 Y266.5004 Z-3.5729
G01 X35.0289 Y266.4587 Z-3.5890
G01 X35.0497 Y266.4158 Z-3.6051
G01 X35.0685 Y266.3721 Z-3.6212
G01 X35.0851 Y266.3275 Z-3.6373
G01 X35.0996 Y266.2822 Z-3.6534
G01 X35.1119 Y266.2362 Z-3.6695
G01 X35.1220 Y266.1897 Z-3.6856
G01 X35.1299 Y266.1427 Z-3.7017
G01 X35.1356 Y266.0955 Z-3.7178
G01 X35.1390 Y266.0480 Z-3.7339
G01 X35.1401 Y266.0004 Z-3.7500
G01 X35.1363 Y265.9133
G01 X35.1249 Y265.8268
G01 X35.1060 Y265.7416
G01 X35.0798 Y265.6584
G01 X35.0464 Y265.5778
G01 X35.0061 Y265.5004
G01 X34.9592 Y265.4269
G01 X34.9061 Y265.3576
G01 X34.8472 Y265.2933
G01 X34.7829 Y265.2344
G01 X34.7137 Y265.1813
G01 X34.6401 Y265.1344
G01 X34.5627 Y265.0941
G01 X34.4821 Y265.0607
G01 X34.3989 Y265.0345
G01 X34.3137 Y265.0156
G01 X34.2272 Y265.0042
G01 X34.1401 Y265.0004
G01 X34.0529 Y265.0042
G01 X33.9664 Y265.0156
G01 X33.8813 Y265.0345
G01 X33.7981 Y265.0607
G01 X33.7175 Y265.0941
G01 X33.6401 Y265.1344
G01 X33.5994 Y265.1592
G01 X33.5600 Y265.1859
G01 X33.5219 Y265.2144
G01 X33.4852 Y265.2447
G01 X33.4500 Y265.2767
G01 X33.4164 Y265.3104
G01 X33.3843 Y265.3456
G01 X33.3540 Y265.3823
G01 X33.3255 Y265.4204
G01 X33.2988 Y265.4598
G01 X33.2741 Y265.5004
G01 X33.2513 Y265.5422
G01 X33.2305 Y265.5850
G01 X33.2117 Y265.6288
G01 X33.1951 Y265.6734
G01 X33.1806 Y265.7187
G01 X33.1683 Y265.7647
G01 X33.1582 Y265.8112
G01 X33.1503 Y265.8581
G01 X33.1446 Y265.9054
G01 X33.1412 Y265.9528
G01 X33.1401 Y266.0004
G01 X33.1412 Y266.0480
G01 X33.1446 Y266.0955
G01 X33.1503 Y266.1427
G01 X33.1582 Y266.1897
G01 X33.1683 Y266.2362
G01 X33.1806 Y266.2822
G01 X33.1951 Y266.3275
G01 X33.2117 Y266.3721
G01 X33.2305 Y266.4158
G01 X33.2513 Y266.4587
G01 X33.2741 Y266.5004
G01 X33.2988 Y266.5411
G01 X33.3255 Y266.5805
G01 X33.3540 Y266.6186
G01 X33.3843 Y266.6553
G01 X33.4164 Y266.6905
G01 X33.4500 Y266.7242
G01 X33.4852 Y266.7562
G01 X33.5219 Y266.7865
G01 X33.5600 Y266.8150
G01 X33.5994 Y266.8417
G01 X33.6401 Y266.8665
G01 X33.6819 Y266.8893
G01 X33.7247 Y266.9101
G01 X33.7684 Y266.9288
G01 X33.8130 Y266.9454
G01 X33.8584 Y266.9599
G01 X33.9043 Y266.9722
G01 X33.9508 Y266.9824
G01 X33.9978 Y266.9903
G01 X34.0450 Y266.9959
G01 X34.0925 Y266.9993
G01 X34.1401 Y267.0004
G01 X34.1877 Y266.9993
G01 X34.2351 Y266.9959
G01 X34.2824 Y266.9903
G01 X34.3293 Y266.9824
G01 X34.3758 Y266.9722
G01 X34.4218 Y266.9599
G01 X34.4672 Y266.9454
G01 X34.5117 Y266.9288
G01 X34.5555 Y266.9101
G01 X34.5983 Y266.8893
G01 X34.6401 Y266.8665
G01 X34.6807 Y266.8417
G01 X34.7201 Y266.8150
G01 X34.7582 Y266.7865
G01 X34.7949 Y266.7562
G01 X34.8302 Y266.7242
G01 X34.8638 Y266.6905
G01 X34.8958 Y266.6553
G01 X34.9261 Y266.6186
G01 X34.9547 Y266.5805
G01 X34.9813 Y266.5411
G01 X35.0061 Y266.5004
G01 X35.0289 Y266.4587
G01 X35.0497 Y266.4158
G01 X35.0685 Y266.3721
G01 X35.0851 Y266.3275
G01 X35.0996 Y266.2822
G01 X35.1119 Y266.2362
G01 X35.1220 Y266.1897
G01 X35.1299 Y266.1427
G01 X35.1356 Y266.0955
G01 X35.1390 Y266.0480
G01 X35.1401 Y266.0004
G01 X35.1508 Y265.9488 F1000
G01 X35.1589 Y265.8968
G01 X35.1643 Y265.8443
G01 X35.1670 Y265.7917
G01 X35.1669 Y265.7390
G01 X35.1642 Y265.6864
G01 X35.1587 Y265.6339
G01 X35.1506 Y265.5819
G01 X35.1389 Y265.5259
G01 X35.1243 Y265.4706
G01 X35.1069 Y265.4161
G01 X35.0868 Y265.3625
G01 X35.0639 Y265.3101
G01 X35.0384 Y265.2589
G01 X35.0104 Y265.2091
G01 X34.9798 Y265.1607
G01 X34.9442 Y265.1103
G01 X34.9060 Y265.0618
G01 X34.8655 Y265.0153
G01 X34.8226 Y264.9709
G01 X34.7776 Y264.9287
G01 X34.7304 Y264.8889
G01 X34.6813 Y264.8515
G01 X34.6304 Y264.8167
G01 X34.5739 Y264.7821
G01 X34.5157 Y264.7505
G01 X34.4560 Y264.7218
G01 X34.3950 Y264.6962
G01 X34.3327 Y264.6737
G01 X34.2693 Y264.6543
G01 X34.2051 Y264.6383
G01 X34.1401 Y264.6254
G01 X34.0707 Y264.6184
G01 X34.0011 Y264.6148
G01 X33.9313 Y264.6147
G01 X33.8617 Y264.6180
G01 X33.7923 Y264.6249
G01 X33.7233 Y264.6351
G01 X33.6549 Y264.6488
G01 X33.5873 Y264.6659
G01 X33.5225 Y264.6946
G01 X33.4592 Y264.7265
G01 X33.3975 Y264.7615
G01 X33.3376 Y264.7994
G01 X33.2796 Y264.8402
G01 X33.2237 Y264.8838
G01 X33.1700 Y264.9302
G01 X33.1187 Y264.9790
G01 X33.0698 Y265.0304
G01 X33.0235 Y265.0841
G01 X32.9799 Y265.1400
G01 X32.9391 Y265.1979
G01 X32.9011 Y265.2578
G01 X32.8662 Y265.3195
G01 X32.8343 Y265.3828
G01 X32.8056 Y265.4477
G01 X32.7801 Y265.5138
G01 X32.7578 Y265.5811
G01 X32.7389 Y265.6495
G01 X32.7234 Y265.7186
G01 X32.7113 Y265.7885
G01 X32.7026 Y265.8588
G01 X32.6974 Y265.9296
G01 X32.6956 Y266.0004
G01 X32.6974 Y266.0713
G01 X32.7026 Y266.1420
G01 X32.7113 Y266.2124
G01 X32.7234 Y266.2822
G01 X32.7389 Y266.3514
G01 X32.7578 Y266.4197
G01 X32.7801 Y266.4871
G01 X32.8056 Y266.5532
G01 X32.8343 Y266.6180
G01 X32.8662 Y266.6813
G01 X32.9011 Y266.7430
G01 X32.9391 Y266.8029
G01 X32.9799 Y266.8609
G01 X33.0235 Y266.9168
G01 X33.0698 Y266.9705
G01 X33.1187 Y267.0218
G01 X33.1700 Y267.0707
G01 X33.2237 Y267.1170
G01 X33.2796 Y267.1606
G01 X33.3376 Y267.2015
G01 X33.3975 Y267.2394
G01 X33.4592 Y267.2743
G01 X33.5225 Y267.3062
G01 X33.5873 Y267.3349
G01 X33.6535 Y267.3605
G01 X33.7208 Y267.3827
G01 X33.7891 Y267.4016
G01 X33.8583 Y267.4171
G01 X33.9281 Y267.4293
G01 X33.9985 Y267.4379
G01 X34.0692 Y267.4432
G01 X34.1401 Y267.4449
G01 X34.2110 Y267.4432
G01 X34.2817 Y267.4379
G01 X34.3520 Y267.4293
G01 X34.4219 Y267.4171
G01 X34.4911 Y267.4016
G01 X34.5594 Y267.3827
G01 X34.6267 Y267.3605
G01 X34.6929 Y267.3349
G01 X34.7577 Y267.3062
G01 X34.8210 Y267.2743
G01 X34.8827 Y267.2394
G01 X34.9426 Y267.2015
G01 X35.0006 Y267.1606
G01 X35.0564 Y267.1170
G01 X35.1101 Y267.0707
G01 X35.1615 Y267.0218
G01 X35.2104 Y266.9705
G01 X35.2567 Y266.9168
G01 X35.3003 Y266.8609
G01 X35.3411 Y266.8029
G01 X35.3790 Y266.7430
G01 X35.4140 Y266.6813
G01 X35.4459 Y266.6180
G01 X35.4746 Y266.5532
G01 X35.5001 Y266.4871
G01 X35.5224 Y266.4197
G01 X35.5413 Y266.3514
G01 X35.5568 Y266.2822
G01 X35.5689 Y266.2124
G01 X35.5776 Y266.1420
G01 X35.5828 Y266.0713
G01 X35.5846 Y266.0004
G01 X35.5805 Y265.8925
G01 X35.5684 Y265.7851
G01 X35.5483 Y265.6790
G01 X35.5204 Y265.5747
G01 X35.4847 Y265.4727
G01 X35.4415 Y265.3737
G01 X35.3910 Y265.2782
G01 X35.3336 Y265.1867
G01 X35.2694 Y265.0998
G01 X35.1990 Y265.0179
G01 X35.1226 Y264.9416
G01 X35.0407 Y264.8711
G01 X34.9538 Y264.8070
G01 X34.8623 Y264.7495
G01 X34.7668 Y264.6990
G01 X34.6678 Y264.6558
G01 X34.5658 Y264.6201
G01 X34.4615 Y264.5922
G01 X34.3554 Y264.5721
G01 X34.2480 Y264.5600
G01 X34.1401 Y264.5560
G01 X34.0321 Y264.5600
G01 X33.9248 Y264.5721
G01 X33.8187 Y264.5922
G01 X33.7143 Y264.6201
G01 X33.6124 Y264.6558
G01 X33.5134 Y264.6990
G01 X33.4179 Y264.7495
G01 X33.3264 Y264.8070
G01 X33.2395 Y264.8711
G01 X33.1576 Y264.9416
G01 X33.0812 Y265.0179
G01 X33.0108 Y265.0998
G01 X32.9466 Y265.1867
G01 X32.8891 Y265.2782
G01 X32.8387 Y265.3737
G01 X32.7955 Y265.4727
G01 X32.7598 Y265.5747
G01 X32.7318 Y265.6790
G01 X32.7118 Y265.7851
G01 X32.6997 Y265.8925
G01 X32.6956 Y266.0004
G01 X32.6997 Y266.1084
G01 X32.7118 Y266.2157
G01 X32.7318 Y266.3219
G01 X32.7598 Y266.4262
G01 X32.7955 Y266.5282
G01 X32.8387 Y266.6272
G01 X32.8891 Y266.7227
G01 X32.9466 Y266.8141
G01 X33.0108 Y266.9010
G01 X33.0812 Y266.9829
G01 X33.1576 Y267.0593
G01 X33.2395 Y267.1298
G01 X33.3264 Y267.1939
G01 X33.4179 Y267.2514
G01 X33.5134 Y267.3019
G01 X33.6124 Y267.3450
G01 X33.7143 Y267.3807
G01 X33.8187 Y267.4087
G01 X33.9248 Y267.4288
G01 X34.0321 Y267.4409
G01 X34.1401 Y267.4449
G01 X34.2480 Y267.4409
G01 X34.3554 Y267.4288
G01 X34.4615 Y267.4087
G01 X34.5658 Y267.3807
G01 X34.6678 Y267.3450
G01 X34.7668 Y267.3019
G01 X34.8623 Y267.2514
G01 X34.9538 Y267.1939
G01 X35.0407 Y267.1298
G01 X35.1226 Y267.0593
G01 X35.1990 Y266.9829
G01 X35.2694 Y266.9010
G01 X35.3336 Y266.8141
G01 X35.3910 Y266.7227
G01 X35.4415 Y266.6272
G01 X35.4847 Y266.5282
G01 X35.5204 Y266.4262
G01 X35.5483 Y266.3219
G01 X35.5684 Y266.2157
G01 X35.5805 Y266.1084
G01 X35.5846 Y266.0004
G01 X35.5808 Y265.9045
G01 X35.5695 Y265.8092
G01 X35.5508 Y265.7151
G01 X35.5247 Y265.6227
G01 X35.4915 Y265.5327
G01 X35.4513 Y265.4455
G01 X35.4044 Y265.3618
G01 X35.3511 Y265.2820
G01 X35.2917 Y265.2067
G01 X35.2266 Y265.1362
G01 X35.1561 Y265.0710
G01 X35.0807 Y265.0116
G01 X35.0009 Y264.9583
G01 X34.9172 Y264.9114
G01 X34.8300 Y264.8712
G01 X34.7400 Y264.8380
G01 X34.6476 Y264.8120
G01 X34.5535 Y264.7932
G01 X34.4582 Y264.7820
G01 X34.3623 Y264.7782
G01 X34.2664 Y264.7820
G01 X34.1711 Y264.7932
G01 X34.0770 Y264.8120
G01 X33.9846 Y264.8380
G01 X33.8946 Y264.8712
G01 X33.8074 Y264.9114
G01 X33.7237 Y264.9583
G01 X33.6439 Y265.0116
G01 X33.5685 Y265.0710
G01 X33.4981 Y265.1362
G01 X33.4329 Y265.2067
G01 X33.3735 Y265.2820
G01 X33.3202 Y265.3618
G01 X33.2733 Y265.4455
G01 X33.2331 Y265.5327
G01 X33.1999 Y265.6227
G01 X33.1739 Y265.7151
G01 X33.1551 Y265.8092
G01 X33.1439 Y265.9045
G01 X33.1401 Y266.0004
G01 X33.1439 Y266.0876
G01 X33.1553 Y266.1741
G01 X33.1742 Y266.2593
G01 X33.2004 Y266.3425
G01 X33.2338 Y266.4230
G01 X33.2741 Y266.5004
G01 X33.3209 Y266.5740
G01 X33.3740 Y266.6432
G01 X33.4330 Y266.7075
G01 X33.4973 Y266.7665
G01 X33.5665 Y266.8196
G01 X33.6401 Y266.8665
G01 X33.7175 Y266.9067
G01 X33.7981 Y266.9401
G01 X33.8813 Y266.9664
G01 X33.9664 Y266.9852
G01 X34.0529 Y266.9966
G01 X34.1401 Y267.0004
G01 X34.2272 Y266.9966
G01 X34.3137 Y266.9852
G01 X34.3989 Y266.9664
G01 X34.4821 Y266.9401
G01 X34.5627 Y266.9067
G01 X34.6401 Y266.8665
G01 X34.7137 Y266.8196
G01 X34.7829 Y266.7665
G01 X34.8472 Y266.7075
G01 X34.9061 Y266.6432
G01 X34.9592 Y266.5740
G01 X35.0061 Y266.5004
G01 X35.0464 Y266.4230
G01 X35.0798 Y266.3425
G01 X35.1060 Y266.2593
G01 X35.1249 Y266.1741
G01 X35.1363 Y266.0876
G01 X35.1401 Y266.0004
M107
M106 S240
G01 X35.1363 Y265.9133 Z-3.7795 F400
G01 X35.1249 Y265.8268 Z-3.8090
G01 X35.1060 Y265.7416 Z-3.8385
G01 X35.0798 Y265.6584 Z-3.8681
G01 X35.0464 Y265.5778 Z-3.8976
G01 X35.0061 Y265.5004 Z-3.9271
G01 X34.9592 Y265.4269 Z-3.9566
G01 X34.9061 Y265.3576 Z-3.9861
G01 X34.8472 Y265.2933 Z-4.0156
G01 X34.7829 Y265.2344 Z-4.0451
G01 X34.7137 Y265.1813 Z-4.0747
G01 X34.6401 Y265.1344 Z-4.1042
G01 X34.5627 Y265.0941 Z-4.1337
G01 X34.4821 Y265.0607 Z-4.1632
G01 X34.3989 Y265.0345 Z-4.1927
G01 X34.3137 Y265.0156 Z-4.2222
G01 X34.2272 Y265.0042 Z-4.2517
G01 X34.1401 Y265.0004 Z-4.2813
G01 X34.0529 Y265.0042 Z-4.3108
G01 X33.9664 Y265.0156 Z-4.3403
G01 X33.8813 Y265.0345 Z-4.3698
G01 X33.7981 Y265.0607 Z-4.3993
G01 X33.7175 Y265.0941 Z-4.4288
G01 X33.6401 Y265.1344 Z-4.4583
G01 X33.5994 Y265.1592 Z-4.4744
G01 X33.5600 Y265.1859 Z-4.4905
G01 X33.5219 Y265.2144 Z-4.5066
G01 X33.4852 Y265.2447 Z-4.5227
G01 X33.4500 Y265.2767 Z-4.5388
G01 X33.4164 Y265.3104 Z-4.5549
G01 X33.3843 Y265.3456 Z-4.5710
G01 X33.3540 Y265.3823 Z-4.5871
G01 X33.3255 Y265.4204 Z-4.6032
G01 X33.2988 Y265.4598 Z-4.6193
G01 X33.2741 Y265.5004 Z-4.6354
G01 X33.2513 Y265.5422 Z-4.6515
G01 X33.2305 Y265.5850 Z-4.6676
G01 X33.2117 Y265.6288 Z-4.6837
G01 X33.1951 Y265.6734 Z-4.6998
G01 X33.1806 Y265.7187 Z-4.7159
G01 X33.1683 Y265.7647 Z-4.7320
G01 X33.1582 Y265.8112 Z-4.7481
G01 X33.1503 Y265.8581 Z-4.7642
G01 X33.1446 Y265.9054 Z-4.7803
G01 X33.1412 Y265.9528 Z-4.7964
G01 X33.1401 Y266.0004 Z-4.8125
G01 X33.1412 Y266.0480 Z-4.8286
G01 X33.1446 Y266.0955 Z-4.8447
G01 X33.1503 Y266.1427 Z-4.8608
G01 X33.1582 Y266.1897 Z-4.8769
G01 X33.1683 Y266.2362 Z-4.8930
G01 X33.1806 Y266.2822 Z-4.9091
G01 X33.1951 Y266.3275 Z-4.9252
G01 X33.2117 Y266.3721 Z-4.9413
G01 X33.2305 Y266.4158 Z-4.9574
G01 X33.2513 Y266.4587 Z-4.9735
G01 X33.2741 Y266.5004 Z-4.9896
G01 X33.2988 Y266.5411 Z-5.0057
G01 X33.3255 Y266.5805 Z-5.0218
G01 X33.3540 Y266.6186 Z-5.0379
G01 X33.3843 Y266.6553 Z-5.0540
G01 X33.4164 Y266.6905 Z-5.0701
G01 X33.4500 Y266.7242 Z-5.0862
G01 X33.4852 Y266.7562 Z-5.1023
G01 X33.5219 Y266.7865 Z-5.1184
G01 X33.5600 Y266.8150 Z-5.1345
G01 X33.5994 Y266.8417 Z-5.1506
G01 X33.6401 Y266.8665 Z-5.1667
G01 X33.6819 Y266.8893 Z-5.1828
G01 X33.7247 Y266.9101 Z-5.1989
G01 X33.7684 Y266.9288 Z-5.2150
G01 X33.8130 Y266.9454 Z-5.2311
G01 X33.8584 Y266.9599 Z-5.2472
G01 X33.9043 Y266.9722 Z-5.2633
G01 X33.9508 Y266.9824 Z-5.2794
G01 X33.9978 Y266.9903 Z-5.2955
G01 X34.0450 Y266.9959 Z-5.3116
G01 X34.0925 Y266.9993 Z-5.3277
G01 X34.1401 Y267.0004 Z-5.3438
G01 X34.1877 Y266.9993 Z-5.3598
G01 X34.2351 Y266.9959 Z-5.3759
G01 X34.2824 Y266.9903 Z-5.3920
G01 X34.3293 Y266.9824 Z-5.4081
G01 X34.3758 Y266.9722 Z-5.4242
G01 X34.4218 Y266.9599 Z-5.4403
G01 X34.4672 Y266.9454 Z-5.4564
G01 X34.5117 Y266.9288 Z-5.4725
G01 X34.5555 Y266.9101 Z-5.4886
G01 X34.5983 Y266.8893 Z-5.5047
G01 X34.6401 Y266.8665 Z-5.5208
G01 X34.6807 Y266.8417 Z-5.5369
G01 X34.7201 Y266.8150 Z-5.5530
G01 X34.7582 Y266.7865 Z-5.5691
G01 X34.7949 Y266.7562 Z-5.5852
G01 X34.8302 Y266.7242 Z-5.6013
G01 X34.8638 Y266.6905 Z-5.6174
G01 X34.8958 Y266.6553 Z-5.6335
G01 X34.9261 Y266.6186 Z-5.6496
G01 X34.9547 Y266.5805 Z-5.6657
G01 X34.9813 Y266.5411 Z-5.6818
G01 X35.0061 Y266.5004 Z-5.6979
G01 X35.0289 Y266.4587 Z-5.7140
G01 X35.0497 Y266.4158 Z-5.7301
G01 X35.0685 Y266.3721 Z-5.7462
G01 X35.0851 Y266.3275 Z-5.7623
G01 X35.0996 Y266.2822 Z-5.7784
G01 X35.1119 Y266.2362 Z-5.7945
G01 X35.1220 Y266.1897 Z-5.8106
G01 X35.1299 Y266.1427 Z-5.8267
G01 X35.1356 Y266.0955 Z-5.8428
G01 X35.1390 Y266.0480 Z-5.8589
G01 X35.1401 Y266.0004 Z-5.8750
G01 X35.1363 Y265.9133
G01 X35.1249 Y265.8268
G01 X35.1060 Y265.7416
G01 X35.0798 Y265.6584
G01 X35.0464 Y265.5778
G01 X35.0061 Y265.5004
G01 X34.9592 Y265.4269
G01 X34.9061 Y265.3576
G01 X34.8472 Y265.2933
G01 X34.7829 Y265.2344
G01 X34.7137 Y265.1813
G01 X34.6401 Y265.1344
G01 X34.5627 Y265.0941
G01 X34.4821 Y265.0607
G01 X34.3989 Y265.0345
G01 X34.3137 Y265.0156
G01 X34.2272 Y265.0042
G01 X34.1401 Y265.0004
G01 X34.0529 Y265.0042
G01 X33.9664 Y265.0156
G01 X33.8813 Y265.0345
G01 X33.7981 Y265.0607
G01 X33.7175 Y265.0941
G01 X33.6401 Y265.1344
G01 X33.5994 Y265.1592
G01 X33.5600 Y265.1859
G01 X33.5219 Y265.2144
G01 X33.4852 Y265.2447
G01 X33.4500 Y265.2767
G01 X33.4164 Y265.3104
G01 X33.3843 Y265.3456
G01 X33.3540 Y265.3823
G01 X33.3255 Y265.4204
G01 X33.2988 Y265.4598
G01 X33.2741 Y265.5004
G01 X33.2513 Y265.5422
G01 X33.2305 Y265.5850
G01 X33.2117 Y265.6288
G01 X33.1951 Y265.6734
G01 X33.1806 Y265.7187
G01 X33.1683 Y265.7647
G01 X33.1582 Y265.8112
G01 X33.1503 Y265.8581
G01 X33.1446 Y265.9054
G01 X33.1412 Y265.9528
G01 X33.1401 Y266.0004
G01 X33.1412 Y266.0480
G01 X33.1446 Y266.0955
G01 X33.1503 Y266.1427
G01 X33.1582 Y266.1897
G01 X33.1683 Y266.2362
G01 X33.1806 Y266.2822
G01 X33.1951 Y266.3275
G01 X33.2117 Y266.3721
G01 X33.2305 Y266.4158
G01 X33.2513 Y266.4587
G01 X33.2741 Y266.5004
G01 X33.2988 Y266.5411
G01 X33.3255 Y266.5805
G01 X33.3540 Y266.6186
G01 X33.3843 Y266.6553
G01 X33.4164 Y266.6905
G01 X33.4500 Y266.7242
G01 X33.4852 Y266.7562
G01 X33.5219 Y266.7865
G01 X33.5600 Y266.8150
G01 X33.5994 Y266.8417
G01 X33.6401 Y266.8665
G01 X33.6819 Y266.8893
G01 X33.7247 Y266.9101
G01 X33.7684 Y266.9288
G01 X33.8130 Y266.9454
G01 X33.8584 Y266.9599
G01 X33.9043 Y266.9722
G01 X33.9508 Y266.9824
G01 X33.9978 Y266.9903
G01 X34.0450 Y266.9959
G01 X34.0925 Y266.9993
G01 X34.1401 Y267.0004
G01 X34.1877 Y266.9993
G01 X34.2351 Y266.9959
G01 X34.2824 Y266.9903
G01 X34.3293 Y266.9824
G01 X34.3758 Y266.9722
G01 X34.4218 Y266.9599
G01 X34.4672 Y266.9454
G01 X34.5117 Y266.9288
G01 X34.5555 Y266.9101
G01 X34.5983 Y266.8893
G01 X34.6401 Y266.8665
G01 X34.6807 Y266.8417
G01 X34.7201 Y266.8150
G01 X34.7582 Y266.7865
G01 X34.7949 Y266.7562
G01 X34.8302 Y266.7242
G01 X34.8638 Y266.6905
G01 X34.8958 Y266.6553
G01 X34.9261 Y266.6186
G01 X34.9547 Y266.5805
G01 X34.9813 Y266.5411
G01 X35.0061 Y266.5004
G01 X35.0289 Y266.4587
G01 X35.0497 Y266.4158
G01 X35.0685 Y266.3721
G01 X35.0851 Y266.3275
G01 X35.0996 Y266.2822
G01 X35.1119 Y266.2362
G01 X35.1220 Y266.1897
G01 X35.1299 Y266.1427
G01 X35.1356 Y266.0955
G01 X35.1390 Y266.0480
G01 X35.1401 Y266.0004
G01 X35.1508 Y265.9488 F1000
G01 X35.1589 Y265.8968
G01 X35.1643 Y265.8443
G01 X35.1670 Y265.7917
G01 X35.1669 Y265.7390
G01 X35.1642 Y265.6864
G01 X35.1587 Y265.6339
G01 X35.1506 Y265.5819
G01 X35.1389 Y265.5259
G01 X35.1243 Y265.4706
G01 X35.1069 Y265.4161
G01 X35.0868 Y265.3625
G01 X35.0639 Y265.3101
G01 X35.0384 Y265.2589
G01 X35.0104 Y265.2091
G01 X34.9798 Y265.1607
G01 X34.9442 Y265.1103
G01 X34.9060 Y265.0618
G01 X34.8655 Y265.0153
G01 X34.8226 Y264.9709
G01 X34.7776 Y264.9287
G01 X34.7304 Y264.8889
G01 X34.6813 Y264.8515
G01 X34.6304 Y264.8167
G01 X34.5739 Y264.7821
G01 X34.5157 Y264.7505
G01 X34.4560 Y264.7218
G01 X34.3950 Y264.6962
G01 X34.3327 Y264.6737
G01 X34.2693 Y264.6543
G01 X34.2051 Y264.6383
G01 X34.1401 Y264.6254
G01 X34.0707 Y264.6184
G01 X34.0011 Y264.6148
G01 X33.9313 Y264.6147
G01 X33.8617 Y264.6180
G01 X33.7923 Y264.6249
G01 X33.7233 Y264.6351
G01 X33.6549 Y264.6488
G01 X33.5873 Y264.6659
G01 X33.5225 Y264.6946
G01 X33.4592 Y264.7265
G01 X33.3975 Y264.7615
G01 X33.3376 Y264.7994
G01 X33.2796 Y264.8402
G01 X33.2237 Y264.8838
G01 X33.1700 Y264.9302
G01 X33.1187 Y264.9790
G01 X33.0698 Y265.0304
G01 X33.0235 Y265.0841
G01 X32.9799 Y265.1400
G01 X32.9391 Y265.1979
G01 X32.9011 Y265.2578
G01 X32.8662 Y265.3195
G01 X32.8343 Y265.3828
G01 X32.8056 Y265.4477
G01 X32.7801 Y265.5138
G01 X32.7578 Y265.5811
G01 X32.7389 Y265.6495
G01 X32.7234 Y265.7186
G01 X32.7113 Y265.7885
G01 X32.7026 Y265.8588
G01 X32.6974 Y265.9296
G01 X32.6956 Y266.0004
G01 X32.6974 Y266.0713
G01 X32.7026 Y266.1420
G01 X32.7113 Y266.2124
G01 X32.7234 Y266.2822
G01 X32.7389 Y266.3514
G01 X32.7578 Y266.4197
G01 X32.7801 Y266.4871
G01 X32.8056 Y266.5532
G01 X32.8343 Y266.6180
G01 X32.8662 Y266.6813
G01 X32.9011 Y266.7430
G01 X32.9391 Y266.8029
G01 X32.9799 Y266.8609
G01 X33.0235 Y266.9168
G01 X33.0698 Y266.9705
G01 X33.1187 Y267.0218
G01 X33.1700 Y267.0707
G01 X33.2237 Y267.1170
G01 X33.2796 Y267.1606
G01 X33.3376 Y267.2015
G01 X33.3975 Y267.2394
G01 X33.4592 Y267.2743
G01 X33.5225 Y267.3062
G01 X33.5873 Y267.3349
G01 X33.6535 Y267.3605
G01 X33.7208 Y267.3827
G01 X33.7891 Y267.4016
G01 X33.8583 Y267.4171
G01 X33.9281 Y267.4293
G01 X33.9985 Y267.4379
G01 X34.0692 Y267.4432
G01 X34.1401 Y267.4449
G01 X34.2110 Y267.4432
G01 X34.2817 Y267.4379
G01 X34.3520 Y267.4293
G01 X34.4219 Y267.4171
G01 X34.4911 Y267.4016
G01 X34.5594 Y267.3827
G01 X34.6267 Y267.3605
G01 X34.6929 Y267.3349
G01 X34.7577 Y267.3062
G01 X34.8210 Y267.2743
G01 X34.8827 Y267.2394
G01 X34.9426 Y267.2015
G01 X35.0006 Y267.1606
G01 X35.0564 Y267.1170
G01 X35.1101 Y267.0707
G01 X35.1615 Y267.0218
G01 X35.2104 Y266.9705
G01 X35.2567 Y266.9168
G01 X35.3003 Y266.8609
G01 X35.3411 Y266.8029
G01 X35.3790 Y266.7430
G01 X35.4140 Y266.6813
G01 X35.4459 Y266.6180
G01 X35.4746 Y266.5532
G01 X35.5001 Y266.4871
G01 X35.5224 Y266.4197
G01 X35.5413 Y266.3514
G01 X35.5568 Y266.2822
G01 X35.5689 Y266.2124
G01 X35.5776 Y266.1420
G01 X35.5828 Y266.0713
G01 X35.5846 Y266.0004
G01 X35.5805 Y265.8925
G01 X35.5684 Y265.7851
G01 X35.5483 Y265.6790
G01 X35.5204 Y265.5747
G01 X35.4847 Y265.4727
G01 X35.4415 Y265.3737
G01 X35.3910 Y265.2782
G01 X35.3336 Y265.1867
G01 X35.2694 Y265.0998
G01 X35.1990 Y265.0179
G01 X35.1226 Y264.9416
G01 X35.0407 Y264.8711
G01 X34.9538 Y264.8070
G01 X34.8623 Y264.7495
G01 X34.7668 Y264.6990
G01 X34.6678 Y264.6558
G01 X34.5658 Y264.6201
G01 X34.4615 Y264.5922
G01 X34.3554 Y264.5721
G01 X34.2480 Y264.5600
G01 X34.1401 Y264.5560
G01 X34.0321 Y264.5600
G01 X33.9248 Y264.5721
G01 X33.8187 Y264.5922
G01 X33.7143 Y264.6201
G01 X33.6124 Y264.6558
G01 X33.5134 Y264.6990
G01 X33.4179 Y264.7495
G01 X33.3264 Y264.8070
G01 X33.2395 Y264.8711
G01 X33.1576 Y264.9416
G01 X33.0812 Y265.0179
G01 X33.0108 Y265.0998
G01 X32.9466 Y265.1867
G01 X32.8891 Y265.2782
G01 X32.8387 Y265.3737
G01 X32.7955 Y265.4727
G01 X32.7598 Y265.5747
G01 X32.7318 Y265.6790
G01 X32.7118 Y265.7851
G01 X32.6997 Y265.8925
G01 X32.6956 Y266.0004
G01 X32.6997 Y266.1084
G01 X32.7118 Y266.2157
G01 X32.7318 Y266.3219
G01 X32.7598 Y266.4262
G01 X32.7955 Y266.5282
G01 X32.8387 Y266.6272
G01 X32.8891 Y266.7227
G01 X32.9466 Y266.8141
G01 X33.0108 Y266.9010
G01 X33.0812 Y266.9829
G01 X33.1576 Y267.0593
G01 X33.2395 Y267.1298
G01 X33.3264 Y267.1939
G01 X33.4179 Y267.2514
G01 X33.5134 Y267.3019
G01 X33.6124 Y267.3450
G01 X33.7143 Y267.3807
G01 X33.8187 Y267.4087
G01 X33.9248 Y267.4288
G01 X34.0321 Y267.4409
G01 X34.1401 Y267.4449
G01 X34.2480 Y267.4409
G01 X34.3554 Y267.4288
G01 X34.4615 Y267.4087
G01 X34.5658 Y267.3807
G01 X34.6678 Y267.3450
G01 X34.7668 Y267.3019
G01 X34.8623 Y267.2514
G01 X34.9538 Y267.1939
G01 X35.0407 Y267.1298
G01 X35.1226 Y267.0593
G01 X35.1990 Y266.9829
G01 X35.2694 Y266.9010
G01 X35.3336 Y266.8141
G01 X35.3910 Y266.7227
G01 X35.4415 Y266.6272
G01 X35.4847 Y266.5282
G01 X35.5204 Y266.4262
G01 X35.5483 Y266.3219
G01 X35.5684 Y266.2157
G01 X35.5805 Y266.1084
G01 X35.5846 Y266.0004
G01 X35.5808 Y265.9045
G01 X35.5695 Y265.8092
G01 X35.5508 Y265.7151
G01 X35.5247 Y265.6227
G01 X35.4915 Y265.5327
G01 X35.4513 Y265.4455
G01 X35.4044 Y265.3618
G01 X35.3511 Y265.2820
G01 X35.2917 Y265.2067
G01 X35.2266 Y265.1362
G01 X35.1561 Y265.0710
G01 X35.0807 Y265.0116
G01 X35.0009 Y264.9583
G01 X34.9172 Y264.9114
G01 X34.8300 Y264.8712
G01 X34.7400 Y264.8380
G01 X34.6476 Y264.8120
G01 X34.5535 Y264.7932
G01 X34.4582 Y264.7820
G01 X34.3623 Y264.7782
G01 X34.2664 Y264.7820
G01 X34.1711 Y264.7932
G01 X34.0770 Y264.8120
G01 X33.9846 Y264.8380
G01 X33.8946 Y264.8712
G01 X33.8074 Y264.9114
G01 X33.7237 Y264.9583
G01 X33.6439 Y265.0116
G01 X33.5685 Y265.0710
G01 X33.4981 Y265.1362
G01 X33.4329 Y265.2067
G01 X33.3735 Y265.2820
G01 X33.3202 Y265.3618
G01 X33.2733 Y265.4455
G01 X33.2331 Y265.5327
G01 X33.1999 Y265.6227
G01 X33.1739 Y265.7151
G01 X33.1551 Y265.8092
G01 X33.1439 Y265.9045
G01 X33.1401 Y266.0004
G01 X33.1439 Y266.0876
G01 X33.1553 Y266.1741
G01 X33.1742 Y266.2593
G01 X33.2004 Y266.3425
G01 X33.2338 Y266.4230
G01 X33.2741 Y266.5004
G01 X33.3209 Y266.5740
G01 X33.3740 Y266.6432
G01 X33.4330 Y266.7075
G01 X33.4973 Y266.7665
G01 X33.5665 Y266.8196
G01 X33.6401 Y266.8665
G01 X33.7175 Y266.9067
G01 X33.7981 Y266.9401
G01 X33.8813 Y266.9664
G01 X33.9664 Y266.9852
G01 X34.0529 Y266.9966
G01 X34.1401 Y267.0004
G01 X34.2272 Y266.9966
G01 X34.3137 Y266.9852
G01 X34.3989 Y266.9664
G01 X34.4821 Y266.9401
G01 X34.5627 Y266.9067
G01 X34.6401 Y266.8665
G01 X34.7137 Y266.8196
G01 X34.7829 Y266.7665
G01 X34.8472 Y266.7075
G01 X34.9061 Y266.6432
G01 X34.9592 Y266.5740
G01 X35.0061 Y266.5004
G01 X35.0464 Y266.4230
G01 X35.0798 Y266.3425
G01 X35.1060 Y266.2593
G01 X35.1249 Y266.1741
G01 X35.1363 Y266.0876
G01 X35.1401 Y266.0004
M107
M106 S240
G01 X35.1363 Y265.9133 Z-5.9045 F400
G01 X35.1249 Y265.8268 Z-5.9340
G01 X35.1060 Y265.7416 Z-5.9635
G01 X35.0798 Y265.6584 Z-5.9931
G01 X35.0464 Y265.5778 Z-6.0226
G01 X35.0061 Y265.5004 Z-6.0521
G01 X34.9592 Y265.4269 Z-6.0816
G01 X34.9061 Y265.3576 Z-6.1111
G01 X34.8472 Y265.2933 Z-6.1406
G01 X34.7829 Y265.2344 Z-6.1701
G01 X34.7137 Y265.1813 Z-6.1997
G01 X34.6401 Y265.1344 Z-6.2292
G01 X34.5627 Y265.0941 Z-6.2587
G01 X34.4821 Y265.0607 Z-6.2882
G01 X34.3989 Y265.0345 Z-6.3177
G01 X34.3137 Y265.0156 Z-6.3472
G01 X34.2272 Y265.0042 Z-6.3767
G01 X34.1401 Y265.0004 Z-6.4063
G01 X34.0529 Y265.0042 Z-6.4358
G01 X33.9664 Y265.0156 Z-6.4653
G01 X33.8813 Y265.0345 Z-6.4948
G01 X33.7981 Y265.0607 Z-6.5243
G01 X33.7175 Y265.0941 Z-6.5538
G01 X33.6401 Y265.1344 Z-6.5833
G01 X33.5994 Y265.1592 Z-6.5994
G01 X33.5600 Y265.1859 Z-6.6155
G01 X33.5219 Y265.2144 Z-6.6316
G01 X33.4852 Y265.2447 Z-6.6477
G01 X33.4500 Y265.2767 Z-6.6638
G01 X33.4164 Y265.3104 Z-6.6799
G01 X33.3843 Y265.3456 Z-6.6960
G01 X33.3540 Y265.3823 Z-6.7121
G01 X33.3255 Y265.4204 Z-6.7282
G01 X33.2988 Y265.4598 Z-6.7443
G01 X33.2741 Y265.5004 Z-6.7604
G01 X33.2513 Y265.5422 Z-6.7765
G01 X33.2305 Y265.5850 Z-6.7926
G01 X33.2117 Y265.6288 Z-6.8087
G01 X33.1951 Y265.6734 Z-6.8248
G01 X33.1806 Y265.7187 Z-6.8409
G01 X33.1683 Y265.7647 Z-6.8570
G01 X33.1582 Y265.8112 Z-6.8731
G01 X33.1503 Y265.8581 Z-6.8892
G01 X33.1446 Y265.9054 Z-6.9053
G01 X33.1412 Y265.9528 Z-6.9214
G01 X33.1401 Y266.0004 Z-6.9375
G01 X33.1412 Y266.0480 Z-6.9536
G01 X33.1446 Y266.0955 Z-6.9697
G01 X33.1503 Y266.1427 Z-6.9858
G01 X33.1582 Y266.1897 Z-7.0019
G01 X33.1683 Y266.2362 Z-7.0180
G01 X33.1806 Y266.2822 Z-7.0341
G01 X33.1951 Y266.3275 Z-7.0502
G01 X33.2117 Y266.3721 Z-7.0663
G01 X33.2305 Y266.4158 Z-7.0824
G01 X33.2513 Y266.4587 Z-7.0985
G01 X33.2741 Y266.5004 Z-7.1146
G01 X33.2988 Y266.5411 Z-7.1307
G01 X33.3255 Y266.5805 Z-7.1468
G01 X33.3540 Y266.6186 Z-7.1629
G01 X33.3843 Y266.6553 Z-7.1790
G01 X33.4164 Y266.6905 Z-7.1951
G01 X33.4500 Y266.7242 Z-7.2112
G01 X33.4852 Y266.7562 Z-7.2273
G01 X33.5219 Y266.7865 Z-7.2434
G01 X33.5600 Y266.8150 Z-7.2595
G01 X33.5994 Y266.8417 Z-7.2756
G01 X33.6401 Y266.8665 Z-7.2917
G01 X33.6819 Y266.8893 Z-7.3078
G01 X33.7247 Y266.9101 Z-7.3239
G01 X33.7684 Y266.9288 Z-7.3400
G01 X33.8130 Y266.9454 Z-7.3561
G01 X33.8584 Y266.9599 Z-7.3722
G01 X33.9043 Y266.9722 Z-7.3883
G01 X33.9508 Y266.9824 Z-7.4044
G01 X33.9978 Y266.9903 Z-7.4205
G01 X34.0450 Y266.9959 Z-7.4366
G01 X34.0925 Y266.9993 Z-7.4527
G01 X34.1401 Y267.0004 Z-7.4688
G01 X34.1877 Y266.9993 Z-7.4848
G01 X34.2351 Y266.9959 Z-7.5009
G01 X34.2824 Y266.9903 Z-7.5170
G01 X34.3293 Y266.9824 Z-7.5331
G01 X34.3758 Y266.9722 Z-7.5492
G01 X34.4218 Y266.9599 Z-7.5653
G01 X34.4672 Y266.9454 Z-7.5814
G01 X34.5117 Y266.9288 Z-7.5975
G01 X34.5555 Y266.9101 Z-7.6136
G01 X34.5983 Y266.8893 Z-7.6297
G01 X34.6401 Y266.8665 Z-7.6458
G01 X34.6807 Y266.8417 Z-7.6619
G01 X34.7201 Y266.8150 Z-7.6780
G01 X34.7582 Y266.7865 Z-7.6941
G01 X34.7949 Y266.7562 Z-7.7102
G01 X34.8302 Y266.7242 Z-7.7263
G01 X34.8638 Y266.6905 Z-7.7424
G01 X34.8958 Y266.6553 Z-7.7585
G01 X34.9261 Y266.6186 Z-7.7746
G01 X34.9547 Y266.5805 Z-7.7907
G01 X34.9813 Y266.5411 Z-7.8068
G01 X35.0061 Y266.5004 Z-7.8229
G01 X35.0289 Y266.4587 Z-7.8390
G01 X35.0497 Y266.4158 Z-7.8551
G01 X35.0685 Y266.3721 Z-7.8712
G01 X35.0851 Y266.3275 Z-7.8873
G01 X35.0996 Y266.2822 Z-7.9034
G01 X35.1119 Y266.2362 Z-7.9195
G01 X35.1220 Y266.1897 Z-7.9356
G01 X35.1299 Y266.1427 Z-7.9517
G01 X35.1356 Y266.0955 Z-7.9678
G01 X35.1390 Y266.0480 Z-7.9839
G01 X35.1401 Y266.0004 Z-8.0000
G01 X35.1363 Y265.9133
G01 X35.1249 Y265.8268
G01 X35.1060 Y265.7416
G01 X35.0798 Y265.6584
G01 X35.0464 Y265.5778
G01 X35.0061 Y265.5004
G01 X34.9592 Y265.4269
G01 X34.9061 Y265.3576
G01 X34.8472 Y265.2933
G01 X34.7829 Y265.2344
G01 X34.7137 Y265.1813
G01 X34.6401 Y265.1344
G01 X34.5627 Y265.0941
G01 X34.4821 Y265.0607
G01 X34.3989 Y265.0345
G01 X34.3137 Y265.0156
G01 X34.2272 Y265.0042
G01 X34.1401 Y265.0004
G01 X34.0529 Y265.0042
G01 X33.9664 Y265.0156
G01 X33.8813 Y265.0345
G01 X33.7981 Y265.0607
G01 X33.7175 Y265.0941
G01 X33.6401 Y265.1344
G01 X33.5994 Y265.1592
G01 X33.5600 Y265.1859
G01 X33.5219 Y265.2144
G01 X33.4852 Y265.2447
G01 X33.4500 Y265.2767
G01 X33.4164 Y265.3104
G01 X33.3843 Y265.3456
G01 X33.3540 Y265.3823
G01 X33.3255 Y265.4204
G01 X33.2988 Y265.4598
G01 X33.2741 Y265.5004
G01 X33.2513 Y265.5422
G01 X33.2305 Y265.5850
G01 X33.2117 Y265.6288
G01 X33.1951 Y265.6734
G01 X33.1806 Y265.7187
G01 X33.1683 Y265.7647
G01 X33.1582 Y265.8112
G01 X33.1503 Y265.8581
G01 X33.1446 Y265.9054
G01 X33.1412 Y265.9528
G01 X33.1401 Y266.0004
G01 X33.1412 Y266.0480
G01 X33.1446 Y266.0955
G01 X33.1503 Y266.1427
G01 X33.1582 Y266.1897
G01 X33.1683 Y266.2362
G01 X33.1806 Y266.2822
G01 X33.1951 Y266.3275
G01 X33.2117 Y266.3721
G01 X33.2305 Y266.4158
G01 X33.2513 Y266.4587
G01 X33.2741 Y266.5004
G01 X33.2988 Y266.5411
G01 X33.3255 Y266.5805
G01 X33.3540 Y266.6186
G01 X33.3843 Y266.6553
G01 X33.4164 Y266.6905
G01 X33.4500 Y266.7242
G01 X33.4852 Y266.7562
G01 X33.5219 Y266.7865
G01 X33.5600 Y266.8150
G01 X33.5994 Y266.8417
G01 X33.6401 Y266.8665
G01 X33.6819 Y266.8893
G01 X33.7247 Y266.9101
G01 X33.7684 Y266.9288
G01 X33.8130 Y266.9454
G01 X33.8584 Y266.9599
G01 X33.9043 Y266.9722
G01 X33.9508 Y266.9824
G01 X33.9978 Y266.9903
G01 X34.0450 Y266.9959
G01 X34.0925 Y266.9993
G01 X34.1401 Y267.0004
G01 X34.1877 Y266.9993
G01 X34.2351 Y266.9959
G01 X34.2824 Y266.9903
G01 X34.3293 Y266.9824
G01 X34.3758 Y266.9722
G01 X34.4218 Y266.9599
G01 X34.4672 Y266.9454
G01 X34.5117 Y266.9288
G01 X34.5555 Y266.9101
G01 X34.5983 Y266.8893
G01 X34.6401 Y266.8665
G01 X34.6807 Y266.8417
G01 X34.7201 Y266.8150
G01 X34.7582 Y266.7865
G01 X34.7949 Y266.7562
G01 X34.8302 Y266.7242
G01 X34.8638 Y266.6905
G01 X34.8958 Y266.6553
G01 X34.9261 Y266.6186
G01 X34.9547 Y266.5805
G01 X34.9813 Y266.5411
G01 X35.0061 Y266.5004
G01 X35.0289 Y266.4587
G01 X35.0497 Y266.4158
G01 X35.0685 Y266.3721
G01 X35.0851 Y266.3275
G01 X35.0996 Y266.2822
G01 X35.1119 Y266.2362
G01 X35.1220 Y266.1897
G01 X35.1299 Y266.1427
G01 X35.1356 Y266.0955
G01 X35.1390 Y266.0480
G01 X35.1401 Y266.0004
G01 X35.1508 Y265.9488 F1000
G01 X35.1589 Y265.8968
G01 X35.1643 Y265.8443
G01 X35.1670 Y265.7917
G01 X35.1669 Y265.7390
G01 X35.1642 Y265.6864
G01 X35.1587 Y265.6339
G01 X35.1506 Y265.5819
G01 X35.1389 Y265.5259
G01 X35.1243 Y265.4706
G01 X35.1069 Y265.4161
G01 X35.0868 Y265.3625
G01 X35.0639 Y265.3101
G01 X35.0384 Y265.2589
G01 X35.0104 Y265.2091
G01 X34.9798 Y265.1607
G01 X34.9442 Y265.1103
G01 X34.9060 Y265.0618
G01 X34.8655 Y265.0153
G01 X34.8226 Y264.9709
G01 X34.7776 Y264.9287
G01 X34.7304 Y264.8889
G01 X34.6813 Y264.8515
G01 X34.6304 Y264.8167
G01 X34.5739 Y264.7821
G01 X34.5157 Y264.7505
G01 X34.4560 Y264.7218
G01 X34.3950 Y264.6962
G01 X34.3327 Y264.6737
G01 X34.2693 Y264.6543
G01 X34.2051 Y264.6383
G01 X34.1401 Y264.6254
G01 X34.0707 Y264.6184
G01 X34.0011 Y264.6148
G01 X33.9313 Y264.6147
G01 X33.8617 Y264.6180
G01 X33.7923 Y264.6249
G01 X33.7233 Y264.6351
G01 X33.6549 Y264.6488
G01 X33.5873 Y264.6659
G01 X33.5225 Y264.6946
G01 X33.4592 Y264.7265
G01 X33.3975 Y264.7615
G01 X33.3376 Y264.7994
G01 X33.2796 Y264.8402
G01 X33.2237 Y264.8838
G01 X33.1700 Y264.9302
G01 X33.1187 Y264.9790
G01 X33.0698 Y265.0304
G01 X33.0235 Y265.0841
G01 X32.9799 Y265.1400
G01 X32.9391 Y265.1979
G01 X32.9011 Y265.2578
G01 X32.8662 Y265.3195
G01 X32.8343 Y265.3828
G01 X32.8056 Y265.4477
G01 X32.7801 Y265.5138
G01 X32.7578 Y265.5811
G01 X32.7389 Y265.6495
G01 X32.7234 Y265.7186
G01 X32.7113 Y265.7885
G01 X32.7026 Y265.8588
G01 X32.6974 Y265.9296
G01 X32.6956 Y266.0004
G01 X32.6974 Y266.0713
G01 X32.7026 Y266.1420
G01 X32.7113 Y266.2124
G01 X32.7234 Y266.2822
G01 X32.7389 Y266.3514
G01 X32.7578 Y266.4197
G01 X32.7801 Y266.4871
G01 X32.8056 Y266.5532
G01 X32.8343 Y266.6180
G01 X32.8662 Y266.6813
G01 X32.9011 Y266.7430
G01 X32.9391 Y266.8029
G01 X32.9799 Y266.8609
G01 X33.0235 Y266.9168
G01 X33.0698 Y266.9705
G01 X33.1187 Y267.0218
G01 X33.1700 Y267.0707
G01 X33.2237 Y267.1170
G01 X33.2796 Y267.1606
G01 X33.3376 Y267.2015
G01 X33.3975 Y267.2394
G01 X33.4592 Y267.2743
G01 X33.5225 Y267.3062
G01 X33.5873 Y267.3349
G01 X33.6535 Y267.3605
G01 X33.7208 Y267.3827
G01 X33.7891 Y267.4016
G01 X33.8583 Y267.4171
G01 X33.9281 Y267.4293
G01 X33.9985 Y267.4379
G01 X34.0692 Y267.4432
G01 X34.1401 Y267.4449
G01 X34.2110 Y267.4432
G01 X34.2817 Y267.4379
G01 X34.3520 Y267.4293
G01 X34.4219 Y267.4171
G01 X34.4911 Y267.4016
G01 X34.5594 Y267.3827
G01 X34.6267 Y267.3605
G01 X34.6929 Y267.3349
G01 X34.7577 Y267.3062
G01 X34.8210 Y267.2743
G01 X34.8827 Y267.2394
G01 X34.9426 Y267.2015
G01 X35.0006 Y267.1606
G01 X35.0564 Y267.1170
G01 X35.1101 Y267.0707
G01 X35.1615 Y267.0218
G01 X35.2104 Y266.9705
G01 X35.2567 Y266.9168
G01 X35.3003 Y266.8609
G01 X35.3411 Y266.8029
G01 X35.3790 Y266.7430
G01 X35.4140 Y266.6813
G01 X35.4459 Y266.6180
G01 X35.4746 Y266.5532
G01 X35.5001 Y266.4871
G01 X35.5224 Y266.4197
G01 X35.5413 Y266.3514
G01 X35.5568 Y266.2822
G01 X35.5689 Y266.2124
G01 X35.5776 Y266.1420
G01 X35.5828 Y266.0713
G01 X35.5846 Y266.0004
G01 X35.5805 Y265.8925
G01 X35.5684 Y265.7851
G01 X35.5483 Y265.6790
G01 X35.5204 Y265.5747
G01 X35.4847 Y265.4727
G01 X35.4415 Y265.3737
G01 X35.3910 Y265.2782
G01 X35.3336 Y265.1867
G01 X35.2694 Y265.0998
G01 X35.1990 Y265.0179
G01 X35.1226 Y264.9416
G01 X35.0407 Y264.8711
G01 X34.9538 Y264.8070
G01 X34.8623 Y264.7495
G01 X34.7668 Y264.6990
G01 X34.6678 Y264.6558
G01 X34.5658 Y264.6201
G01 X34.4615 Y264.5922
G01 X34.3554 Y264.5721
G01 X34.2480 Y264.5600
G01 X34.1401 Y264.5560
G01 X34.0321 Y264.5600
G01 X33.9248 Y264.5721
G01 X33.8187 Y264.5922
G01 X33.7143 Y264.6201
G01 X33.6124 Y264.6558
G01 X33.5134 Y264.6990
G01 X33.4179 Y264.7495
G01 X33.3264 Y264.8070
G01 X33.2395 Y264.8711
G01 X33.1576 Y264.9416
G01 X33.0812 Y265.0179
G01 X33.0108 Y265.0998
G01 X32.9466 Y265.1867
G01 X32.8891 Y265.2782
G01 X32.8387 Y265.3737
G01 X32.7955 Y265.4727
G01 X32.7598 Y265.5747
G01 X32.7318 Y265.6790
G01 X32.7118 Y265.7851
G01 X32.6997 Y265.8925
G01 X32.6956 Y266.0004
G01 X32.6997 Y266.1084
G01 X32.7118 Y266.2157
G01 X32.7318 Y266.3219
G01 X32.7598 Y266.4262
G01 X32.7955 Y266.5282
G01 X32.8387 Y266.6272
G01 X32.8891 Y266.7227
G01 X32.9466 Y266.8141
G01 X33.0108 Y266.9010
G01 X33.0812 Y266.9829
G01 X33.1576 Y267.0593
G01 X33.2395 Y267.1298
G01 X33.3264 Y267.1939
G01 X33.4179 Y267.2514
G01 X33.5134 Y267.3019
G01 X33.6124 Y267.3450
G01 X33.7143 Y267.3807
G01 X33.8187 Y267.4087
G01 X33.9248 Y267.4288
G01 X34.0321 Y267.4409
G01 X34.1401 Y267.4449
G01 X34.2480 Y267.4409
G01 X34.3554 Y267.4288
G01 X34.4615 Y267.4087
G01 X34.5658 Y267.3807
G01 X34.6678 Y267.3450
G01 X34.7668 Y267.3019
G01 X34.8623 Y267.2514
G01 X34.9538 Y267.1939
G01 X35.0407 Y267.1298
G01 X35.1226 Y267.0593
G01 X35.1990 Y266.9829
G01 X35.2694 Y266.9010
G01 X35.3336 Y266.8141
G01 X35.3910 Y266.7227
G01 X35.4415 Y266.6272
G01 X35.4847 Y266.5282
G01 X35.5204 Y266.4262
G01 X35.5483 Y266.3219
G01 X35.5684 Y266.2157
G01 X35.5805 Y266.1084
G01 X35.5846 Y266.0004
M107
M106 S240
G01 X35.5815 Y265.9220 Z-7.9750 F400
M107
M106 S240
G01 X35.5722 Y265.8440 Z-7.9500
M107
M106 S240
G01 X35.5569 Y265.7670 Z-7.9250
M107
M106 S240
G01 X35.5356 Y265.6914 Z-7.9000
M107
M106 S240
G01 X35.5084 Y265.6177 Z-7.8750
M107
M106 S240
G01 X35.4756 Y265.5464 Z-7.8500
M107
M106 S240
G01 X35.4372 Y265.4779 Z-7.8250
M107
M106 S240
G01 X35.3936 Y265.4126 Z-7.8000
M107
M106 S240
G01 X35.3450 Y265.3510 Z-7.7750
M107
M106 S240
G01 X35.2917 Y265.2933 Z-7.7500
M107
M106 S240
G01 X35.2340 Y265.2400 Z-7.7250
M107
M106 S240
G01 X35.1723 Y265.1914 Z-7.7000
M107
M106 S240
G01 X35.1071 Y265.1478 Z-7.6750
M107
M106 S240
G01 X35.0385 Y265.1094 Z-7.6500
M107
M106 S240
G01 X34.9672 Y265.0766 Z-7.6250
M107
M106 S240
G01 X34.8936 Y265.0494 Z-7.6000
M107
M106 S240
G01 X34.8180 Y265.0281 Z-7.5750
M107
M106 S240
G01 X34.7410 Y265.0127 Z-7.5500
M107
M106 S240
G01 X34.6630 Y265.0035 Z-7.5250
M107
M106 S240
G01 X34.5846 Y265.0004 Z-7.5000
M107
G00 Z2.0000


;No. 2: Hole 2
G00 X33.3208 Y252.6877 Z2.0000
G00 Z0.5000
G01 Z0.0000 F400
G01 Z-1.8000
M106 S240
G01 X56.3916 F1000
G01 X55.0423 Y251.1877
G01 X34.6307
G01 X43.4575
G01 Y249.6877
G01 X46.2579
G01 X46.2386 Y248.1877
G01 X43.4769
G01 Y246.6877
G01 X46.2386
G01 Y245.1877
G01 X43.4769
G01 Y243.6877
G01 X46.2386
G01 Y242.1877
G01 X43.4769
G01 Y240.6877
G01 X46.2386
G01 Y239.1877
G01 X43.4769
G01 Y237.6877
G01 X46.2386
G01 Y236.1877
G01 X43.4769
G01 Y234.6877
G01 X46.2386
G01 X46.4386 Y234.7071
G01 Y233.7366
G01 X43.2769
G01 Y249.4769
G01 X43.2738 Y249.5554
G01 X43.2645 Y249.6334
G01 X43.2492 Y249.7104
G01 X43.2279 Y249.7859
G01 X43.2007 Y249.8596
G01 X43.1679 Y249.9309
G01 X43.1295 Y249.9994
G01 X43.0859 Y250.0647
G01 X43.0373 Y250.1264
G01 X42.9840 Y250.1840
G01 X42.9263 Y250.2373
G01 X42.8646 Y250.2859
G01 X42.7994 Y250.3296
G01 X42.7308 Y250.3679
G01 X42.6595 Y250.4008
G01 X42.5859 Y250.4280
G01 X42.5103 Y250.4493
G01 X42.4333 Y250.4646
G01 X42.3553 Y250.4738
G01 X42.2769 Y250.4769
G01 X40.7913 Y250.4578
G01 X39.3057 Y250.4519
G01 X37.8201 Y250.4592
G01 X36.3345 Y250.4798
G01 X36.0152 Y250.5019
G01 X35.6992 Y250.5523
G01 X35.3888 Y250.6306
G01 X35.0867 Y250.7362
G01 X34.7951 Y250.8683
G01 X34.5164 Y251.0257
G01 X34.2529 Y251.2074
G01 X34.0065 Y251.4117
G01 X33.7793 Y251.6372
G01 X33.5731 Y251.8819
G01 X33.3894 Y252.1441
G01 X33.2298 Y252.4215
G01 X33.0955 Y252.7120
G01 X32.9876 Y253.0133
G01 X32.9069 Y253.3231
G01 X32.8540 Y253.6388
G01 X56.8613
G01 X56.8093 Y253.3497
G01 X56.7343 Y253.0657
G01 X56.6368 Y252.7887
G01 X56.5175 Y252.5203
G01 X56.3771 Y252.2623
G01 X56.2165 Y252.0164
G01 X56.0368 Y251.7841
G01 X55.8390 Y251.5669
G01 X55.6245 Y251.3663
G01 X55.3947 Y251.1834
G01 X55.1510 Y251.0195
G01 X54.8949 Y250.8756
G01 X54.6282 Y250.7527
G01 X54.3525 Y250.6514
G01 X54.0696 Y250.5726
G01 X53.7813 Y250.5166
G01 X53.6423 Y250.4991
G01 X53.5027 Y250.4867
G01 X53.3629 Y250.4793
G01 X53.2228 Y250.4770
G01 X47.4386
G01 X47.3950 Y250.4761
G01 X47.3514 Y250.4732
G01 X47.3081 Y250.4685
G01 X47.2649 Y250.4618
G01 X47.2222 Y250.4533
G01 X47.1798 Y250.4429
G01 X47.1379 Y250.4307
G01 X47.0966 Y250.4167
G01 X47.0559 Y250.4009
G01 X47.0160 Y250.3833
G01 X46.9768 Y250.3640
G01 X46.9386 Y250.3430
G01 X46.9013 Y250.3204
G01 X46.8650 Y250.2962
G01 X46.8298 Y250.2704
G01 X46.7958 Y250.2431
G01 X46.7630 Y250.2143
G01 X46.7315 Y250.1841
G01 X46.7013 Y250.1526
G01 X46.6725 Y250.1198
G01 X46.6452 Y250.0858
G01 X46.6194 Y250.0506
G01 X46.5952 Y250.0143
G01 X46.5726 Y249.9770
G01 X46.5516 Y249.9388
G01 X46.5323 Y249.8996
G01 X46.5147 Y249.8597
G01 X46.4989 Y249.8190
G01 X46.4849 Y249.7777
G01 X46.4727 Y249.7358
G01 X46.4623 Y249.6935
G01 X46.4538 Y249.6507
G01 X46.4471 Y249.6075
G01 X46.4424 Y249.5642
G01 X46.4395 Y249.5206
G01 X46.4386 Y249.4770
G01 Y234.7071
G01 X46.2386 Y234.6877
M107
G00 Z2.0000


;No. 3: Hole 3
G00 X66.2128 Y252.0578 Z2.0000
G00 Z0.5000
G01 Z0.0000 F400
G01 Z-1.8000
M106 S240
G01 X88.5280 F1000
G01 X88.6779 Y251.9249
G01 X88.4982 Y251.7067
G01 X88.3022 Y251.5031
G01 X88.0911 Y251.3151
G01 X87.8662 Y251.1439
G01 X87.6288 Y250.9905
G01 X87.3803 Y250.8558
G01 X87.1221 Y250.7406
G01 X86.8559 Y250.6456
G01 X86.5832 Y250.5714
G01 X86.3055 Y250.5183
G01 X86.0246 Y250.4868
G01 X85.7422 Y250.4769
G01 X69.0159
G01 X68.6858 Y250.4857
G01 X68.3579 Y250.5247
G01 X68.0349 Y250.5936
G01 X67.7196 Y250.6918
G01 X67.4147 Y250.8185
G01 X67.1226 Y250.9726
G01 X66.8458 Y251.1528
G01 X66.5868 Y251.3576
G01 X66.3476 Y251.5852
G01 X66.1303 Y251.8339
G01 X65.9367 Y252.1014
G01 X65.7684 Y252.3855
G01 X65.6268 Y252.6839
G01 X65.5132 Y252.9940
G01 X65.4285 Y253.3132
G01 X65.3734 Y253.6388
G01 X89.3807 Y253.6387
G01 X89.3469 Y253.4066
G01 X89.2971 Y253.1774
G01 X89.2313 Y252.9523
G01 X89.1499 Y252.7323
G01 X89.0534 Y252.5186
G01 X88.9422 Y252.3121
G01 X88.8168 Y252.1139
G01 X88.6779 Y251.9249
G01 X88.5280 Y252.0578
M107
G00 Z2.0000


;No. 4: Hole 4
G00 X88.5280 Y243.6877 Z2.0000
G00 Z0.5000
G01 Z0.0000 F400
G01 Z-1.8000
M106 S240
G01 X66.2128 F1000
G01 X66.0725 Y243.5416
G01 X65.9350 Y243.7331
G01 X65.8109 Y243.9335
G01 X65.7006 Y244.1419
G01 X65.6048 Y244.3573
G01 X65.5238 Y244.5787
G01 X65.4581 Y244.8050
G01 X65.4078 Y245.0354
G01 X65.3734 Y245.2686
G01 X89.3807 Y245.2685
G01 X89.3289 Y244.9794
G01 X89.2542 Y244.6953
G01 X89.1569 Y244.4181
G01 X89.0377 Y244.1495
G01 X88.8974 Y243.8914
G01 X88.7369 Y243.6454
G01 X88.5571 Y243.4130
G01 X88.3594 Y243.1958
G01 X88.1449 Y242.9951
G01 X87.9149 Y242.8122
G01 X87.6711 Y242.6484
G01 X87.4149 Y242.5046
G01 X87.1481 Y242.3817
G01 X86.8722 Y242.2807
G01 X86.5892 Y242.2021
G01 X86.3007 Y242.1464
G01 X86.1617 Y242.1289
G01 X86.0222 Y242.1165
G01 X85.8822 Y242.1091
G01 X85.7422 Y242.1068
G01 X69.0159
G01 X68.7325 Y242.1114
G01 X68.4503 Y242.1384
G01 X68.1712 Y242.1878
G01 X67.8969 Y242.2593
G01 X67.6292 Y242.3522
G01 X67.3697 Y242.4662
G01 X67.1200 Y242.6005
G01 X66.8818 Y242.7541
G01 X66.6566 Y242.9262
G01 X66.4458 Y243.1156
G01 X66.2507 Y243.3212
G01 X66.0725 Y243.5416
G01 X66.2128 Y243.6877
M107
G00 Z2.0000


;No. 5: Hole 5
G00 X66.2128 Y235.3175 Z2.0000
G00 Z0.5000
G01 Z0.0000 F400
G01 Z-1.8000
M106 S240
G01 X88.5280 F1000
G01 X88.6779 Y235.1846
G01 X88.4983 Y234.9663
G01 X88.3024 Y234.7625
G01 X88.0913 Y234.5744
G01 X87.8664 Y234.4031
G01 X87.6290 Y234.2497
G01 X87.3805 Y234.1149
G01 X87.1224 Y233.9998
G01 X86.8561 Y233.9048
G01 X86.5833 Y233.8306
G01 X86.3056 Y233.7777
G01 X86.0247 Y233.7463
G01 X85.7422 Y233.7366
G01 X69.0159
G01 X68.6857 Y233.7451
G01 X68.3576 Y233.7838
G01 X68.0345 Y233.8525
G01 X67.7191 Y233.9505
G01 X67.4140 Y234.0771
G01 X67.1218 Y234.2312
G01 X66.8450 Y234.4113
G01 X66.5859 Y234.6162
G01 X66.3466 Y234.8439
G01 X66.1293 Y235.0927
G01 X65.9357 Y235.3603
G01 X65.7675 Y235.6446
G01 X65.6261 Y235.9431
G01 X65.5127 Y236.2533
G01 X65.4282 Y236.5727
G01 X65.3734 Y236.8984
G01 X89.3807 Y236.8983
G01 X89.3469 Y236.6663
G01 X89.2971 Y236.4371
G01 X89.2313 Y236.2120
G01 X89.1499 Y235.9920
G01 X89.0534 Y235.7782
G01 X88.9422 Y235.5717
G01 X88.8168 Y235.3735
G01 X88.6779 Y235.1846
G01 X88.5280 Y235.3175
M107
G00 Z2.0000


;No. 6: Hole 6
G00 X98.3655 Y234.6877 Z2.0000
G00 Z0.5000
G01 Z0.0000 F400
G01 Z-1.8000
M106 S240
G01 X121.7419 F1000
G01 Y236.1877
G01 X99.7084
G01 X118.9608
G01 Y237.6877
G01 X121.7419
G01 Y239.1877
G01 X118.9801
G01 Y240.6877
G01 X121.7419
G01 Y242.1877
G01 X118.2996
G01 X121.7419 Y243.6877
G01 X98.0547
G01 Y245.1877
G01 X101.4969
G01 X100.8164
G01 Y246.6877
G01 X98.0547
G01 Y248.1877
G01 X100.8164
G01 X100.8357 Y249.6877
G01 X98.0547
G01 Y251.1877
G01 X120.0828
G01 X121.4322 Y252.6877
G01 X98.0547
G01 X97.8547 Y252.6688
G01 Y253.6388
G01 X121.9019
G01 X121.8508 Y253.3545
G01 X121.7776 Y253.0751
G01 X121.6827 Y252.8024
G01 X121.5666 Y252.5379
G01 X121.4300 Y252.2834
G01 X121.2739 Y252.0404
G01 X121.0992 Y251.8105
G01 X120.9069 Y251.5950
G01 X120.6983 Y251.3952
G01 X120.4746 Y251.2125
G01 X120.2373 Y251.0480
G01 X119.9877 Y250.9026
G01 X119.7275 Y250.7772
G01 X119.4583 Y250.6728
G01 X119.1817 Y250.5898
G01 X118.8994 Y250.5288
G01 X118.7413 Y250.5059
G01 X118.5824 Y250.4896
G01 X118.4230 Y250.4800
G01 X118.2633 Y250.4770
G01 X102.0164
G01 X101.9728 Y250.4761
G01 X101.9292 Y250.4732
G01 X101.8859 Y250.4685
G01 X101.8427 Y250.4618
G01 X101.8000 Y250.4533
G01 X101.7576 Y250.4429
G01 X101.7157 Y250.4307
G01 X101.6744 Y250.4167
G01 X101.6337 Y250.4009
G01 X101.5938 Y250.3833
G01 X101.5546 Y250.3640
G01 X101.5164 Y250.3430
G01 X101.4791 Y250.3204
G01 X101.4428 Y250.2962
G01 X101.4076 Y250.2704
G01 X101.3736 Y250.2431
G01 X101.3408 Y250.2143
G01 X101.3093 Y250.1841
G01 X101.2791 Y250.1526
G01 X101.2504 Y250.1198
G01 X101.2230 Y250.0858
G01 X101.1972 Y250.0506
G01 X101.1730 Y250.0143
G01 X101.1504 Y249.9770
G01 X101.1294 Y249.9388
G01 X101.1101 Y249.8996
G01 X101.0925 Y249.8597
G01 X101.0767 Y249.8190
G01 X101.0627 Y249.7777
G01 X101.0505 Y249.7358
G01 X101.0401 Y249.6935
G01 X101.0316 Y249.6507
G01 X101.0250 Y249.6075
G01 X101.0202 Y249.5642
G01 X101.0173 Y249.5206
G01 X101.0164 Y249.4770
G01 Y246.2686
G01 X101.0195 Y246.1901
G01 X101.0287 Y246.1121
G01 X101.0440 Y246.0351
G01 X101.0653 Y245.9596
G01 X101.0925 Y245.8859
G01 X101.1254 Y245.8146
G01 X101.1638 Y245.7461
G01 X101.2074 Y245.6808
G01 X101.2560 Y245.6191
G01 X101.3093 Y245.5615
G01 X101.3669 Y245.5082
G01 X101.4286 Y245.4596
G01 X101.4939 Y245.4159
G01 X101.5624 Y245.3776
G01 X101.6337 Y245.3447
G01 X101.7074 Y245.3175
G01 X101.7829 Y245.2962
G01 X101.8600 Y245.2809
G01 X101.9379 Y245.2717
G01 X102.0164 Y245.2686
G01 X121.9419
G01 Y233.7366
G01 X97.8947
G01 X97.8883 Y233.7448
G01 X97.9497 Y234.0674
G01 X98.0396 Y234.3832
G01 X98.1573 Y234.6897
G01 X98.3018 Y234.9845
G01 X98.4721 Y235.2652
G01 X98.6667 Y235.5297
G01 X98.8841 Y235.7758
G01 X99.1225 Y236.0014
G01 X99.3802 Y236.2050
G01 X99.6549 Y236.3847
G01 X99.9446 Y236.5393
G01 X100.2469 Y236.6674
G01 X100.5594 Y236.7681
G01 X100.8797 Y236.8405
G01 X101.2051 Y236.8840
G01 X101.5331 Y236.8984
G01 X117.7801
G01 X117.8237 Y236.8993
G01 X117.8673 Y236.9022
G01 X117.9107 Y236.9069
G01 X117.9538 Y236.9136
G01 X117.9966 Y236.9221
G01 X118.0389 Y236.9325
G01 X118.0808 Y236.9447
G01 X118.1221 Y236.9587
G01 X118.1628 Y236.9745
G01 X118.2027 Y236.9921
G01 X118.2419 Y237.0114
G01 X118.2801 Y237.0324
G01 X118.3174 Y237.0550
G01 X118.3537 Y237.0792
G01 X118.3889 Y237.1050
G01 X118.4229 Y237.1323
G01 X118.4557 Y237.1611
G01 X118.4872 Y237.1913
G01 X118.5174 Y237.2228
G01 X118.5462 Y237.2556
G01 X118.5735 Y237.2896
G01 X118.5993 Y237.3248
G01 X118.6235 Y237.3611
G01 X118.6462 Y237.3984
G01 X118.6671 Y237.4366
G01 X118.6864 Y237.4758
G01 X118.7040 Y237.5157
G01 X118.7198 Y237.5564
G01 X118.7338 Y237.5977
G01 X118.7461 Y237.6396
G01 X118.7564 Y237.6819
G01 X118.7649 Y237.7247
G01 X118.7716 Y237.7679
G01 X118.7763 Y237.8112
G01 X118.7792 Y237.8548
G01 X118.7801 Y237.8984
G01 Y241.1068
G01 X118.7792 Y241.1504
G01 X118.7763 Y241.1940
G01 X118.7716 Y241.2374
G01 X118.7649 Y241.2805
G01 X118.7564 Y241.3233
G01 X118.7461 Y241.3656
G01 X118.7338 Y241.4075
G01 X118.7198 Y241.4488
G01 X118.7040 Y241.4895
G01 X118.6864 Y241.5294
G01 X118.6671 Y241.5686
G01 X118.6462 Y241.6068
G01 X118.6235 Y241.6441
G01 X118.5993 Y241.6804
G01 X118.5735 Y241.7156
G01 X118.5462 Y241.7496
G01 X118.5174 Y241.7824
G01 X118.4872 Y241.8139
G01 X118.4557 Y241.8441
G01 X118.4229 Y241.8729
G01 X118.3889 Y241.9002
G01 X118.3537 Y241.9260
G01 X118.3174 Y241.9502
G01 X118.2801 Y241.9729
G01 X118.2419 Y241.9938
G01 X118.2027 Y242.0131
G01 X118.1628 Y242.0307
G01 X118.1221 Y242.0465
G01 X118.0808 Y242.0605
G01 X118.0389 Y242.0728
G01 X117.9966 Y242.0831
G01 X117.9538 Y242.0916
G01 X117.9107 Y242.0983
G01 X117.8673 Y242.1030
G01 X117.8237 Y242.1059
G01 X117.7801 Y242.1068
G01 X97.8547
G01 Y252.6688
G01 X98.0547 Y252.6877
M107
G00 Z2.0000


;No. 7: Hole 7
G00 X130.5740 Y252.6877 Z2.0000
G00 Z0.5000
G01 Z0.0000 F400
G01 Z-1.8000
M106 S240
G01 X133.3358 F1000
G01 Y251.1877
G01 X130.5740
G01 Y249.6877
G01 X133.3358
G01 Y248.1877
G01 X130.5740
G01 Y246.6877
G01 X133.3358
G01 Y245.1877
G01 X130.5740
G01 Y243.6877
G01 X133.3358
G01 Y242.1877
G01 X130.5740
G01 Y240.6877
G01 X133.3358
G01 Y239.1877
G01 X130.5740
G01 Y237.6877
G01 X133.3551
G01 X130.5740 Y236.1877
G01 X154.0520
G01 X152.9434 Y234.6877
G01 X130.5740
G01 X130.3740 Y234.7074
G01 Y253.6388
G01 X133.5358
G01 Y237.8984
G01 X133.5389 Y237.8194
G01 X133.5482 Y237.7410
G01 X133.5637 Y237.6635
G01 X133.5853 Y237.5875
G01 X133.6128 Y237.5134
G01 X133.6461 Y237.4417
G01 X133.6850 Y237.3729
G01 X133.7291 Y237.3074
G01 X133.7783 Y237.2455
G01 X133.8322 Y237.1877
G01 X133.8905 Y237.1344
G01 X133.9528 Y237.0858
G01 X134.0188 Y237.0423
G01 X134.0880 Y237.0042
G01 X134.1600 Y236.9716
G01 X134.2344 Y236.9449
G01 X134.3106 Y236.9240
G01 X134.3882 Y236.9093
G01 X134.4668 Y236.9007
G01 X134.5458 Y236.8984
G01 X154.4212
G01 X154.3705 Y236.6140
G01 X154.2975 Y236.3345
G01 X154.2028 Y236.0616
G01 X154.0868 Y235.7970
G01 X153.9504 Y235.5424
G01 X153.7943 Y235.2993
G01 X153.6196 Y235.0693
G01 X153.4273 Y234.8537
G01 X153.2186 Y234.6539
G01 X152.9949 Y234.4712
G01 X152.7574 Y234.3067
G01 X152.5078 Y234.1614
G01 X152.2474 Y234.0362
G01 X151.9780 Y233.9319
G01 X151.7013 Y233.8491
G01 X151.4189 Y233.7884
G01 X151.2608 Y233.7655
G01 X151.1019 Y233.7492
G01 X150.9424 Y233.7396
G01 X150.7827 Y233.7366
G01 X130.3740
G01 Y234.7074
G01 X130.5740 Y234.6877
M107
G00 Z2.0000


;No. 8: Helical drill 2
G00 X186.6569 Y266.0000 Z2.0000
G00 Z0.5000
M106 S240
G01 X186.6531 Y265.9128 Z0.4705 F400
G01 X186.6417 Y265.8263 Z0.4410
G01 X186.6229 Y265.7412 Z0.4115
G01 X186.5966 Y265.6580 Z0.3819
G01 X186.5632 Y265.5774 Z0.3524
G01 X186.5230 Y265.5000 Z0.3229
G01 X186.4761 Y265.4264 Z0.2934
G01 X186.4230 Y265.3572 Z0.2639
G01 X186.3640 Y265.2929 Z0.2344
G01 X186.2997 Y265.2339 Z0.2049
G01 X186.2305 Y265.1808 Z0.1753
G01 X186.1569 Y265.1340 Z0.1458
G01 X186.0796 Y265.0937 Z0.1163
G01 X185.9990 Y265.0603 Z0.0868
G01 X185.9158 Y265.0341 Z0.0573
G01 X185.8306 Y265.0152 Z0.0278
G01 X185.7441 Y265.0038 Z-0.0017
G01 X185.6569 Y265.0000 Z-0.0313
G01 X185.5698 Y265.0038 Z-0.0608
G01 X185.4833 Y265.0152 Z-0.0903
G01 X185.3981 Y265.0341 Z-0.1198
G01 X185.3149 Y265.0603 Z-0.1493
G01 X185.2343 Y265.0937 Z-0.1788
G01 X185.1569 Y265.1340 Z-0.2083
G01 X185.1163 Y265.1587 Z-0.2244
G01 X185.0769 Y265.1854 Z-0.2405
G01 X185.0388 Y265.2139 Z-0.2566
G01 X185.0021 Y265.2442 Z-0.2727
G01 X184.9669 Y265.2763 Z-0.2888
G01 X184.9332 Y265.3099 Z-0.3049
G01 X184.9012 Y265.3451 Z-0.3210
G01 X184.8709 Y265.3818 Z-0.3371
G01 X184.8424 Y265.4199 Z-0.3532
G01 X184.8157 Y265.4593 Z-0.3693
G01 X184.7909 Y265.5000 Z-0.3854
G01 X184.7681 Y265.5418 Z-0.4015
G01 X184.7473 Y265.5846 Z-0.4176
G01 X184.7286 Y265.6283 Z-0.4337
G01 X184.7119 Y265.6729 Z-0.4498
G01 X184.6974 Y265.7183 Z-0.4659
G01 X184.6851 Y265.7642 Z-0.4820
G01 X184.6750 Y265.8107 Z-0.4981
G01 X184.6671 Y265.8577 Z-0.5142
G01 X184.6615 Y265.9049 Z-0.5303
G01 X184.6581 Y265.9524 Z-0.5464
G01 X184.6569 Y266.0000 Z-0.5625
G01 X184.6581 Y266.0476 Z-0.5786
G01 X184.6615 Y266.0950 Z-0.5947
G01 X184.6671 Y266.1423 Z-0.6108
G01 X184.6750 Y266.1892 Z-0.6269
G01 X184.6851 Y266.2357 Z-0.6430
G01 X184.6974 Y266.2817 Z-0.6591
G01 X184.7119 Y266.3271 Z-0.6752
G01 X184.7286 Y266.3716 Z-0.6913
G01 X184.7473 Y266.4154 Z-0.7074
G01 X184.7681 Y266.4582 Z-0.7235
G01 X184.7909 Y266.5000 Z-0.7396
G01 X184.8157 Y266.5406 Z-0.7557
G01 X184.8424 Y266.5800 Z-0.7718
G01 X184.8709 Y266.6181 Z-0.7879
G01 X184.9012 Y266.6548 Z-0.8040
G01 X184.9332 Y266.6901 Z-0.8201
G01 X184.9669 Y266.7237 Z-0.8362
G01 X185.0021 Y266.7557 Z-0.8523
G01 X185.0388 Y266.7860 Z-0.8684
G01 X185.0769 Y266.8146 Z-0.8845
G01 X185.1163 Y266.8412 Z-0.9006
G01 X185.1569 Y266.8660 Z-0.9167
G01 X185.1987 Y266.8888 Z-0.9328
G01 X185.2415 Y266.9096 Z-0.9489
G01 X185.2853 Y266.9284 Z-0.9650
G01 X185.3299 Y266.9450 Z-0.9811
G01 X185.3752 Y266.9595 Z-0.9972
G01 X185.4212 Y266.9718 Z-1.0133
G01 X185.4677 Y266.9819 Z-1.0294
G01 X185.5146 Y266.9898 Z-1.0455
G01 X185.5619 Y266.9955 Z-1.0616
G01 X185.6094 Y266.9989 Z-1.0777
G01 X185.6569 Y267.0000 Z-1.0938
G01 X185.7045 Y266.9989 Z-1.1098
G01 X185.7520 Y266.9955 Z-1.1259
G01 X185.7993 Y266.9898 Z-1.1420
G01 X185.8462 Y266.9819 Z-1.1581
G01 X185.8927 Y266.9718 Z-1.1742
G01 X185.9387 Y266.9595 Z-1.1903
G01 X185.9840 Y266.9450 Z-1.2064
G01 X186.0286 Y266.9284 Z-1.2225
G01 X186.0724 Y266.9096 Z-1.2386
G01 X186.1152 Y266.8888 Z-1.2547
G01 X186.1569 Y266.8660 Z-1.2708
G01 X186.1976 Y266.8412 Z-1.2869
G01 X186.2370 Y266.8146 Z-1.3030
G01 X186.2751 Y266.7860 Z-1.3191
G01 X186.3118 Y266.7557 Z-1.3352
G01 X186.3470 Y266.7237 Z-1.3513
G01 X186.3807 Y266.6901 Z-1.3674
G01 X186.4127 Y266.6548 Z-1.3835
G01 X186.4430 Y266.6181 Z-1.3996
G01 X186.4715 Y266.5800 Z-1.4157
G01 X186.4982 Y266.5406 Z-1.4318
G01 X186.5230 Y266.5000 Z-1.4479
G01 X186.5458 Y266.4582 Z-1.4640
G01 X186.5666 Y266.4154 Z-1.4801
G01 X186.5853 Y266.3716 Z-1.4962
G01 X186.6019 Y266.3271 Z-1.5123
G01 X186.6164 Y266.2817 Z-1.5284
G01 X186.6288 Y266.2357 Z-1.5445
G01 X186.6389 Y266.1892 Z-1.5606
G01 X186.6468 Y266.1423 Z-1.5767
G01 X186.6524 Y266.0950 Z-1.5928
G01 X186.6558 Y266.0476 Z-1.6089
G01 X186.6569 Y266.0000 Z-1.6250
G01 X186.6531 Y265.9128
G01 X186.6417 Y265.8263
G01 X186.6229 Y265.7412
G01 X186.5966 Y265.6580
G01 X186.5632 Y265.5774
G01 X186.5230 Y265.5000
G01 X186.4761 Y265.4264
G01 X186.4230 Y265.3572
G01 X186.3640 Y265.2929
G01 X186.2997 Y265.2339
G01 X186.2305 Y265.1808
G01 X186.1569 Y265.1340
G01 X186.0796 Y265.0937
G01 X185.9990 Y265.0603
G01 X185.9158 Y265.0341
G01 X185.8306 Y265.0152
G01 X185.7441 Y265.0038
G01 X185.6569 Y265.0000
G01 X185.5698 Y265.0038
G01 X185.4833 Y265.0152
G01 X185.3981 Y265.0341
G01 X185.3149 Y265.0603
G01 X185.2343 Y265.0937
G01 X185.1569 Y265.1340
G01 X185.1163 Y265.1587
G01 X185.0769 Y265.1854
G01 X185.0388 Y265.2139
G01 X185.0021 Y265.2442
G01 X184.9669 Y265.2763
G01 X184.9332 Y265.3099
G01 X184.9012 Y265.3451
G01 X184.8709 Y265.3818
G01 X184.8424 Y265.4199
G01 X184.8157 Y265.4593
G01 X184.7909 Y265.5000
G01 X184.7681 Y265.5418
G01 X184.7473 Y265.5846
G01 X184.7286 Y265.6283
G01 X184.7119 Y265.6729
G01 X184.6974 Y265.7183
G01 X184.6851 Y265.7642
G01 X184.6750 Y265.8107
G01 X184.6671 Y265.8577
G01 X184.6615 Y265.9049
G01 X184.6581 Y265.9524
G01 X184.6569 Y266.0000
G01 X184.6581 Y266.0476
G01 X184.6615 Y266.0950
G01 X184.6671 Y266.1423
G01 X184.6750 Y266.1892
G01 X184.6851 Y266.2357
G01 X184.6974 Y266.2817
G01 X184.7119 Y266.3271
G01 X184.7286 Y266.3716
G01 X184.7473 Y266.4154
G01 X184.7681 Y266.4582
G01 X184.7909 Y266.5000
G01 X184.8157 Y266.5406
G01 X184.8424 Y266.5800
G01 X184.8709 Y266.6181
G01 X184.9012 Y266.6548
G01 X184.9332 Y266.6901
G01 X184.9669 Y266.7237
G01 X185.0021 Y266.7557
G01 X185.0388 Y266.7860
G01 X185.0769 Y266.8146
G01 X185.1163 Y266.8412
G01 X185.1569 Y266.8660
G01 X185.1987 Y266.8888
G01 X185.2415 Y266.9096
G01 X185.2853 Y266.9284
G01 X185.3299 Y266.9450
G01 X185.3752 Y266.9595
G01 X185.4212 Y266.9718
G01 X185.4677 Y266.9819
G01 X185.5146 Y266.9898
G01 X185.5619 Y266.9955
G01 X185.6094 Y266.9989
G01 X185.6569 Y267.0000
G01 X185.7045 Y266.9989
G01 X185.7520 Y266.9955
G01 X185.7993 Y266.9898
G01 X185.8462 Y266.9819
G01 X185.8927 Y266.9718
G01 X185.9387 Y266.9595
G01 X185.9840 Y266.9450
G01 X186.0286 Y266.9284
G01 X186.0724 Y266.9096
G01 X186.1152 Y266.8888
G01 X186.1569 Y266.8660
G01 X186.1976 Y266.8412
G01 X186.2370 Y266.8146
G01 X186.2751 Y266.7860
G01 X186.3118 Y266.7557
G01 X186.3470 Y266.7237
G01 X186.3807 Y266.6901
G01 X186.4127 Y266.6548
G01 X186.4430 Y266.6181
G01 X186.4715 Y266.5800
G01 X186.4982 Y266.5406
G01 X186.5230 Y266.5000
G01 X186.5458 Y266.4582
G01 X186.5666 Y266.4154
G01 X186.5853 Y266.3716
G01 X186.6019 Y266.3271
G01 X186.6164 Y266.2817
G01 X186.6288 Y266.2357
G01 X186.6389 Y266.1892
G01 X186.6468 Y266.1423
G01 X186.6524 Y266.0950
G01 X186.6558 Y266.0476
G01 X186.6569 Y266.0000
G01 X186.6677 Y265.9484 F1000
G01 X186.6758 Y265.8963
G01 X186.6811 Y265.8439
G01 X186.6838 Y265.7912
G01 Y265.7385
G01 X186.6810 Y265.6859
G01 X186.6756 Y265.6335
G01 X186.6674 Y265.5814
G01 X186.6557 Y265.5254
G01 X186.6412 Y265.4701
G01 X186.6238 Y265.4156
G01 X186.6036 Y265.3621
G01 X186.5808 Y265.3097
G01 X186.5553 Y265.2585
G01 X186.5272 Y265.2086
G01 X186.4966 Y265.1603
G01 X186.4610 Y265.1099
G01 X186.4229 Y265.0614
G01 X186.3824 Y265.0149
G01 X186.3395 Y264.9705
G01 X186.2944 Y264.9283
G01 X186.2473 Y264.8885
G01 X186.1982 Y264.8511
G01 X186.1473 Y264.8163
G01 X186.0908 Y264.7817
G01 X186.0326 Y264.7500
G01 X185.9729 Y264.7213
G01 X185.9118 Y264.6957
G01 X185.8495 Y264.6732
G01 X185.7862 Y264.6539
G01 X185.7219 Y264.6378
G01 X185.6569 Y264.6250
G01 X185.5876 Y264.6180
G01 X185.5179 Y264.6144
G01 X185.4482
G01 X185.3786 Y264.6178
G01 X185.3092 Y264.6246
G01 X185.2402 Y264.6349
G01 X185.1719 Y264.6487
G01 X185.1043 Y264.6658
G01 X185.0395 Y264.6945
G01 X184.9762 Y264.7264
G01 X184.9145 Y264.7613
G01 X184.8546 Y264.7992
G01 X184.7967 Y264.8401
G01 X184.7408 Y264.8837
G01 X184.6871 Y264.9300
G01 X184.6358 Y264.9788
G01 X184.5869 Y265.0302
G01 X184.5406 Y265.0839
G01 X184.4970 Y265.1397
G01 X184.4562 Y265.1977
G01 X184.4183 Y265.2576
G01 X184.3833 Y265.3192
G01 X184.3515 Y265.3825
G01 X184.3228 Y265.4473
G01 X184.2972 Y265.5135
G01 X184.2750 Y265.5808
G01 X184.2561 Y265.6491
G01 X184.2406 Y265.7183
G01 X184.2285 Y265.7881
G01 X184.2198 Y265.8584
G01 X184.2146 Y265.9291
G01 X184.2128 Y266.0000
G01 X184.2146 Y266.0708
G01 X184.2198 Y266.1415
G01 X184.2285 Y266.2119
G01 X184.2406 Y266.2817
G01 X184.2561 Y266.3509
G01 X184.2750 Y266.4192
G01 X184.2972 Y266.4865
G01 X184.3228 Y266.5526
G01 X184.3515 Y266.6174
G01 X184.3833 Y266.6807
G01 X184.4183 Y266.7424
G01 X184.4562 Y266.8023
G01 X184.4970 Y266.8602
G01 X184.5406 Y266.9161
G01 X184.5869 Y266.9698
G01 X184.6358 Y267.0211
G01 X184.6871 Y267.0700
G01 X184.7408 Y267.1163
G01 X184.7967 Y267.1599
G01 X184.8546 Y267.2007
G01 X184.9145 Y267.2386
G01 X184.9762 Y267.2736
G01 X185.0395 Y267.3054
G01 X185.1043 Y267.3342
G01 X185.1704 Y267.3597
G01 X185.2377 Y267.3819
G01 X185.3060 Y267.4008
G01 X185.3752 Y267.4163
G01 X185.4450 Y267.4285
G01 X185.5154 Y267.4371
G01 X185.5861 Y267.4424
G01 X185.6569 Y267.4441
G01 X185.7278 Y267.4424
G01 X185.7985 Y267.4371
G01 X185.8688 Y267.4285
G01 X185.9387 Y267.4163
G01 X186.0078 Y267.4008
G01 X186.0761 Y267.3819
G01 X186.1434 Y267.3597
G01 X186.2096 Y267.3342
G01 X186.2744 Y267.3054
G01 X186.3377 Y267.2736
G01 X186.3994 Y267.2386
G01 X186.4592 Y267.2007
G01 X186.5172 Y267.1599
G01 X186.5731 Y267.1163
G01 X186.6267 Y267.0700
G01 X186.6781 Y267.0211
G01 X186.7270 Y266.9698
G01 X186.7733 Y266.9161
G01 X186.8169 Y266.8602
G01 X186.8577 Y266.8023
G01 X186.8956 Y266.7424
G01 X186.9305 Y266.6807
G01 X186.9624 Y266.6174
G01 X186.9911 Y266.5526
G01 X187.0166 Y266.4865
G01 X187.0389 Y266.4192
G01 X187.0578 Y266.3509
G01 X187.0733 Y266.2817
G01 X187.0854 Y266.2119
G01 X187.0941 Y266.1415
G01 X187.0993 Y266.0708
G01 X187.1011 Y266.0000
G01 X187.0970 Y265.8921
G01 X187.0849 Y265.7848
G01 X187.0648 Y265.6786
G01 X187.0369 Y265.5743
G01 X187.0012 Y265.4724
G01 X186.9580 Y265.3734
G01 X186.9076 Y265.2779
G01 X186.8501 Y265.1865
G01 X186.7860 Y265.0996
G01 X186.7155 Y265.0177
G01 X186.6392 Y264.9414
G01 X186.5573 Y264.8709
G01 X186.4704 Y264.8068
G01 X186.3790 Y264.7493
G01 X186.2835 Y264.6989
G01 X186.1845 Y264.6557
G01 X186.0826 Y264.6200
G01 X185.9783 Y264.5921
G01 X185.8722 Y264.5720
G01 X185.7649 Y264.5599
G01 X185.6569 Y264.5559
G01 X185.5490 Y264.5599
G01 X185.4417 Y264.5720
G01 X185.3356 Y264.5921
G01 X185.2313 Y264.6200
G01 X185.1293 Y264.6557
G01 X185.0304 Y264.6989
G01 X184.9349 Y264.7493
G01 X184.8434 Y264.8068
G01 X184.7566 Y264.8709
G01 X184.6747 Y264.9414
G01 X184.5983 Y265.0177
G01 X184.5279 Y265.0996
G01 X184.4638 Y265.1865
G01 X184.4063 Y265.2779
G01 X184.3558 Y265.3734
G01 X184.3127 Y265.4724
G01 X184.2770 Y265.5743
G01 X184.2490 Y265.6786
G01 X184.2290 Y265.7848
G01 X184.2169 Y265.8921
G01 X184.2128 Y266.0000
G01 X184.2169 Y266.1079
G01 X184.2290 Y266.2152
G01 X184.2490 Y266.3213
G01 X184.2770 Y266.4256
G01 X184.3127 Y266.5276
G01 X184.3558 Y266.6266
G01 X184.4063 Y266.7220
G01 X184.4638 Y266.8135
G01 X184.5279 Y266.9004
G01 X184.5983 Y266.9822
G01 X184.6747 Y267.0586
G01 X184.7566 Y267.1290
G01 X184.8434 Y267.1932
G01 X184.9349 Y267.2506
G01 X185.0304 Y267.3011
G01 X185.1293 Y267.3443
G01 X185.2313 Y267.3799
G01 X185.3356 Y267.4079
G01 X185.4417 Y267.4280
G01 X185.5490 Y267.4401
G01 X185.6569 Y267.4441
G01 X185.7649 Y267.4401
G01 X185.8722 Y267.4280
G01 X185.9783 Y267.4079
G01 X186.0826 Y267.3799
G01 X186.1845 Y267.3443
G01 X186.2835 Y267.3011
G01 X186.3790 Y267.2506
G01 X186.4704 Y267.1932
G01 X186.5573 Y267.1290
G01 X186.6392 Y267.0586
G01 X186.7155 Y266.9822
G01 X186.7860 Y266.9004
G01 X186.8501 Y266.8135
G01 X186.9076 Y266.7220
G01 X186.9580 Y266.6266
G01 X187.0012 Y266.5276
G01 X187.0369 Y266.4256
G01 X187.0648 Y266.3213
G01 X187.0849 Y266.2152
G01 X187.0970 Y266.1079
G01 X187.1011 Y266.0000
G01 X187.0973 Y265.9041
G01 X187.0860 Y265.8088
G01 X187.0673 Y265.7147
G01 X187.0412 Y265.6223
G01 X187.0080 Y265.5323
G01 X186.9679 Y265.4452
G01 X186.9210 Y265.3615
G01 X186.8677 Y265.2817
G01 X186.8083 Y265.2063
G01 X186.7431 Y265.1359
G01 X186.6727 Y265.0707
G01 X186.5973 Y265.0113
G01 X186.5175 Y264.9580
G01 X186.4338 Y264.9111
G01 X186.3467 Y264.8710
G01 X186.2566 Y264.8377
G01 X186.1643 Y264.8117
G01 X186.0702 Y264.7930
G01 X185.9749 Y264.7817
G01 X185.8790 Y264.7779
G01 X185.7831 Y264.7817
G01 X185.6878 Y264.7930
G01 X185.5937 Y264.8117
G01 X185.5014 Y264.8377
G01 X185.4113 Y264.8710
G01 X185.3242 Y264.9111
G01 X185.2405 Y264.9580
G01 X185.1607 Y265.0113
G01 X185.0853 Y265.0707
G01 X185.0149 Y265.1359
G01 X184.9497 Y265.2063
G01 X184.8903 Y265.2817
G01 X184.8370 Y265.3615
G01 X184.7901 Y265.4452
G01 X184.7500 Y265.5323
G01 X184.7168 Y265.6223
G01 X184.6907 Y265.7147
G01 X184.6720 Y265.8088
G01 X184.6607 Y265.9041
G01 X184.6569 Y266.0000
G01 X184.6607 Y266.0871
G01 X184.6721 Y266.1736
G01 X184.6910 Y266.2588
G01 X184.7172 Y266.3420
G01 X184.7506 Y266.4226
G01 X184.7909 Y266.5000
G01 X184.8378 Y266.5736
G01 X184.8909 Y266.6428
G01 X184.9498 Y266.7071
G01 X185.0142 Y266.7660
G01 X185.0834 Y266.8191
G01 X185.1569 Y266.8660
G01 X185.2343 Y266.9063
G01 X185.3149 Y266.9397
G01 X185.3981 Y266.9659
G01 X185.4833 Y266.9848
G01 X185.5698 Y266.9962
G01 X185.6569 Y267.0000
G01 X185.7441 Y266.9962
G01 X185.8306 Y266.9848
G01 X185.9158 Y266.9659
G01 X185.9990 Y266.9397
G01 X186.0796 Y266.9063
G01 X186.1569 Y266.8660
G01 X186.2305 Y266.8191
G01 X186.2997 Y266.7660
G01 X186.3640 Y266.7071
G01 X186.4230 Y266.6428
G01 X186.4761 Y266.5736
G01 X186.5230 Y266.5000
G01 X186.5632 Y266.4226
G01 X186.5966 Y266.3420
G01 X186.6229 Y266.2588
G01 X186.6417 Y266.1736
G01 X186.6531 Y266.0871
G01 X186.6569 Y266.0000
M107
M106 S240
G01 X186.6531 Y265.9128 Z-1.6545 F400
G01 X186.6417 Y265.8263 Z-1.6840
G01 X186.6229 Y265.7412 Z-1.7135
G01 X186.5966 Y265.6580 Z-1.7431
G01 X186.5632 Y265.5774 Z-1.7726
G01 X186.5230 Y265.5000 Z-1.8021
G01 X186.4761 Y265.4264 Z-1.8316
G01 X186.4230 Y265.3572 Z-1.8611
G01 X186.3640 Y265.2929 Z-1.8906
G01 X186.2997 Y265.2339 Z-1.9201
G01 X186.2305 Y265.1808 Z-1.9497
G01 X186.1569 Y265.1340 Z-1.9792
G01 X186.0796 Y265.0937 Z-2.0087
G01 X185.9990 Y265.0603 Z-2.0382
G01 X185.9158 Y265.0341 Z-2.0677
G01 X185.8306 Y265.0152 Z-2.0972
G01 X185.7441 Y265.0038 Z-2.1267
G01 X185.6569 Y265.0000 Z-2.1563
G01 X185.5698 Y265.0038 Z-2.1858
G01 X185.4833 Y265.0152 Z-2.2153
G01 X185.3981 Y265.0341 Z-2.2448
G01 X185.3149 Y265.0603 Z-2.2743
G01 X185.2343 Y265.0937 Z-2.3038
G01 X185.1569 Y265.1340 Z-2.3333
G01 X185.1163 Y265.1587 Z-2.3494
G01 X185.0769 Y265.1854 Z-2.3655
G01 X185.0388 Y265.2139 Z-2.3816
G01 X185.0021 Y265.2442 Z-2.3977
G01 X184.9669 Y265.2763 Z-2.4138
G01 X184.9332 Y265.3099 Z-2.4299
G01 X184.9012 Y265.3451 Z-2.4460
G01 X184.8709 Y265.3818 Z-2.4621
G01 X184.8424 Y265.4199 Z-2.4782
G01 X184.8157 Y265.4593 Z-2.4943
G01 X184.7909 Y265.5000 Z-2.5104
G01 X184.7681 Y265.5418 Z-2.5265
G01 X184.7473 Y265.5846 Z-2.5426
G01 X184.7286 Y265.6283 Z-2.5587
G01 X184.7119 Y265.6729 Z-2.5748
G01 X184.6974 Y265.7183 Z-2.5909
G01 X184.6851 Y265.7642 Z-2.6070
G01 X184.6750 Y265.8107 Z-2.6231
G01 X184.6671 Y265.8577 Z-2.6392
G01 X184.6615 Y265.9049 Z-2.6553
G01 X184.6581 Y265.9524 Z-2.6714
G01 X184.6569 Y266.0000 Z-2.6875
G01 X184.6581 Y266.0476 Z-2.7036
G01 X184.6615 Y266.0950 Z-2.7197
G01 X184.6671 Y266.1423 Z-2.7358
G01 X184.6750 Y266.1892 Z-2.7519
G01 X184.6851 Y266.2357 Z-2.7680
G01 X184.6974 Y266.2817 Z-2.7841
G01 X184.7119 Y266.3271 Z-2.8002
G01 X184.7286 Y266.3716 Z-2.8163
G01 X184.7473 Y266.4154 Z-2.8324
G01 X184.7681 Y266.4582 Z-2.8485
G01 X184.7909 Y266.5000 Z-2.8646
G01 X184.8157 Y266.5406 Z-2.8807
G01 X184.8424 Y266.5800 Z-2.8968
G01 X184.8709 Y266.6181 Z-2.9129
G01 X184.9012 Y266.6548 Z-2.9290
G01 X184.9332 Y266.6901 Z-2.9451
G01 X184.9669 Y266.7237 Z-2.9612
G01 X185.0021 Y266.7557 Z-2.9773
G01 X185.0388 Y266.7860 Z-2.9934
G01 X185.0769 Y266.8146 Z-3.0095
G01 X185.1163 Y266.8412 Z-3.0256
G01 X185.1569 Y266.8660 Z-3.0417
G01 X185.1987 Y266.8888 Z-3.0578
G01 X185.2415 Y266.9096 Z-3.0739
G01 X185.2853 Y266.9284 Z-3.0900
G01 X185.3299 Y266.9450 Z-3.1061
G01 X185.3752 Y266.9595 Z-3.1222
G01 X185.4212 Y266.9718 Z-3.1383
G01 X185.4677 Y266.9819 Z-3.1544
G01 X185.5146 Y266.9898 Z-3.1705
G01 X185.5619 Y266.9955 Z-3.1866
G01 X185.6094 Y266.9989 Z-3.2027
G01 X185.6569 Y267.0000 Z-3.2188
G01 X185.7045 Y266.9989 Z-3.2348
G01 X185.7520 Y266.9955 Z-3.2509
G01 X185.7993 Y266.9898 Z-3.2670
G01 X185.8462 Y266.9819 Z-3.2831
G01 X185.8927 Y266.9718 Z-3.2992
G01 X185.9387 Y266.9595 Z-3.3153
G01 X185.9840 Y266.9450 Z-3.3314
G01 X186.0286 Y266.9284 Z-3.3475
G01 X186.0724 Y266.9096 Z-3.3636
G01 X186.1152 Y266.8888 Z-3.3797
G01 X186.1569 Y266.8660 Z-3.3958
G01 X186.1976 Y266.8412 Z-3.4119
G01 X186.2370 Y266.8146 Z-3.4280
G01 X186.2751 Y266.7860 Z-3.4441
G01 X186.3118 Y266.7557 Z-3.4602
G01 X186.3470 Y266.7237 Z-3.4763
G01 X186.3807 Y266.6901 Z-3.4924
G01 X186.4127 Y266.6548 Z-3.5085
G01 X186.4430 Y266.6181 Z-3.5246
G01 X186.4715 Y266.5800 Z-3.5407
G01 X186.4982 Y266.5406 Z-3.5568
G01 X186.5230 Y266.5000 Z-3.5729
G01 X186.5458 Y266.4582 Z-3.5890
G01 X186.5666 Y266.4154 Z-3.6051
G01 X186.5853 Y266.3716 Z-3.6212
G01 X186.6019 Y266.3271 Z-3.6373
G01 X186.6164 Y266.2817 Z-3.6534
G01 X186.6288 Y266.2357 Z-3.6695
G01 X186.6389 Y266.1892 Z-3.6856
G01 X186.6468 Y266.1423 Z-3.7017
G01 X186.6524 Y266.0950 Z-3.7178
G01 X186.6558 Y266.0476 Z-3.7339
G01 X186.6569 Y266.0000 Z-3.7500
G01 X186.6531 Y265.9128
G01 X186.6417 Y265.8263
G01 X186.6229 Y265.7412
G01 X186.5966 Y265.6580
G01 X186.5632 Y265.5774
G01 X186.5230 Y265.5000
G01 X186.4761 Y265.4264
G01 X186.4230 Y265.3572
G01 X186.3640 Y265.2929
G01 X186.2997 Y265.2339
G01 X186.2305 Y265.1808
G01 X186.1569 Y265.1340
G01 X186.0796 Y265.0937
G01 X185.9990 Y265.0603
G01 X185.9158 Y265.0341
G01 X185.8306 Y265.0152
G01 X185.7441 Y265.0038
G01 X185.6569 Y265.0000
G01 X185.5698 Y265.0038
G01 X185.4833 Y265.0152
G01 X185.3981 Y265.0341
G01 X185.3149 Y265.0603
G01 X185.2343 Y265.0937
G01 X185.1569 Y265.1340
G01 X185.1163 Y265.1587
G01 X185.0769 Y265.1854
G01 X185.0388 Y265.2139
G01 X185.0021 Y265.2442
G01 X184.9669 Y265.2763
G01 X184.9332 Y265.3099
G01 X184.9012 Y265.3451
G01 X184.8709 Y265.3818
G01 X184.8424 Y265.4199
G01 X184.8157 Y265.4593
G01 X184.7909 Y265.5000
G01 X184.7681 Y265.5418
G01 X184.7473 Y265.5846
G01 X184.7286 Y265.6283
G01 X184.7119 Y265.6729
G01 X184.6974 Y265.7183
G01 X184.6851 Y265.7642
G01 X184.6750 Y265.8107
G01 X184.6671 Y265.8577
G01 X184.6615 Y265.9049
G01 X184.6581 Y265.9524
G01 X184.6569 Y266.0000
G01 X184.6581 Y266.0476
G01 X184.6615 Y266.0950
G01 X184.6671 Y266.1423
G01 X184.6750 Y266.1892
G01 X184.6851 Y266.2357
G01 X184.6974 Y266.2817
G01 X184.7119 Y266.3271
G01 X184.7286 Y266.3716
G01 X184.7473 Y266.4154
G01 X184.7681 Y266.4582
G01 X184.7909 Y266.5000
G01 X184.8157 Y266.5406
G01 X184.8424 Y266.5800
G01 X184.8709 Y266.6181
G01 X184.9012 Y266.6548
G01 X184.9332 Y266.6901
G01 X184.9669 Y266.7237
G01 X185.0021 Y266.7557
G01 X185.0388 Y266.7860
G01 X185.0769 Y266.8146
G01 X185.1163 Y266.8412
G01 X185.1569 Y266.8660
G01 X185.1987 Y266.8888
G01 X185.2415 Y266.9096
G01 X185.2853 Y266.9284
G01 X185.3299 Y266.9450
G01 X185.3752 Y266.9595
G01 X185.4212 Y266.9718
G01 X185.4677 Y266.9819
G01 X185.5146 Y266.9898
G01 X185.5619 Y266.9955
G01 X185.6094 Y266.9989
G01 X185.6569 Y267.0000
G01 X185.7045 Y266.9989
G01 X185.7520 Y266.9955
G01 X185.7993 Y266.9898
G01 X185.8462 Y266.9819
G01 X185.8927 Y266.9718
G01 X185.9387 Y266.9595
G01 X185.9840 Y266.9450
G01 X186.0286 Y266.9284
G01 X186.0724 Y266.9096
G01 X186.1152 Y266.8888
G01 X186.1569 Y266.8660
G01 X186.1976 Y266.8412
G01 X186.2370 Y266.8146
G01 X186.2751 Y266.7860
G01 X186.3118 Y266.7557
G01 X186.3470 Y266.7237
G01 X186.3807 Y266.6901
G01 X186.4127 Y266.6548
G01 X186.4430 Y266.6181
G01 X186.4715 Y266.5800
G01 X186.4982 Y266.5406
G01 X186.5230 Y266.5000
G01 X186.5458 Y266.4582
G01 X186.5666 Y266.4154
G01 X186.5853 Y266.3716
G01 X186.6019 Y266.3271
G01 X186.6164 Y266.2817
G01 X186.6288 Y266.2357
G01 X186.6389 Y266.1892
G01 X186.6468 Y266.1423
G01 X186.6524 Y266.0950
G01 X186.6558 Y266.0476
G01 X186.6569 Y266.0000
G01 X186.6677 Y265.9484 F1000
G01 X186.6758 Y265.8963
G01 X186.6811 Y265.8439
G01 X186.6838 Y265.7912
G01 Y265.7385
G01 X186.6810 Y265.6859
G01 X186.6756 Y265.6335
G01 X186.6674 Y265.5814
G01 X186.6557 Y265.5254
G01 X186.6412 Y265.4701
G01 X186.6238 Y265.4156
G01 X186.6036 Y265.3621
G01 X186.5808 Y265.3097
G01 X186.5553 Y265.2585
G01 X186.5272 Y265.2086
G01 X186.4966 Y265.1603
G01 X186.4610 Y265.1099
G01 X186.4229 Y265.0614
G01 X186.3824 Y265.0149
G01 X186.3395 Y264.9705
G01 X186.2944 Y264.9283
G01 X186.2473 Y264.8885
G01 X186.1982 Y264.8511
G01 X186.1473 Y264.8163
G01 X186.0908 Y264.7817
G01 X186.0326 Y264.7500
G01 X185.9729 Y264.7213
G01 X185.9118 Y264.6957
G01 X185.8495 Y264.6732
G01 X185.7862 Y264.6539
G01 X185.7219 Y264.6378
G01 X185.6569 Y264.6250
G01 X185.5876 Y264.6180
G01 X185.5179 Y264.6144
G01 X185.4482
G01 X185.3786 Y264.6178
G01 X185.3092 Y264.6246
G01 X185.2402 Y264.6349
G01 X185.1719 Y264.6487
G01 X185.1043 Y264.6658
G01 X185.0395 Y264.6945
G01 X184.9762 Y264.7264
G01 X184.9145 Y264.7613
G01 X184.8546 Y264.7992
G01 X184.7967 Y264.8401
G01 X184.7408 Y264.8837
G01 X184.6871 Y264.9300
G01 X184.6358 Y264.9788
G01 X184.5869 Y265.0302
G01 X184.5406 Y265.0839
G01 X184.4970 Y265.1397
G01 X184.4562 Y265.1977
G01 X184.4183 Y265.2576
G01 X184.3833 Y265.3192
G01 X184.3515 Y265.3825
G01 X184.3228 Y265.4473
G01 X184.2972 Y265.5135
G01 X184.2750 Y265.5808
G01 X184.2561 Y265.6491
G01 X184.2406 Y265.7183
G01 X184.2285 Y265.7881
G01 X184.2198 Y265.8584
G01 X184.2146 Y265.9291
G01 X184.2128 Y266.0000
G01 X184.2146 Y266.0708
G01 X184.2198 Y266.1415
G01 X184.2285 Y266.2119
G01 X184.2406 Y266.2817
G01 X184.2561 Y266.3509
G01 X184.2750 Y266.4192
G01 X184.2972 Y266.4865
G01 X184.3228 Y266.5526
G01 X184.3515 Y266.6174
G01 X184.3833 Y266.6807
G01 X184.4183 Y266.7424
G01 X184.4562 Y266.8023
G01 X184.4970 Y266.8602
G01 X184.5406 Y266.9161
G01 X184.5869 Y266.9698
G01 X184.6358 Y267.0211
G01 X184.6871 Y267.0700
G01 X184.7408 Y267.1163
G01 X184.7967 Y267.1599
G01 X184.8546 Y267.2007
G01 X184.9145 Y267.2386
G01 X184.9762 Y267.2736
G01 X185.0395 Y267.3054
G01 X185.1043 Y267.3342
G01 X185.1704 Y267.3597
G01 X185.2377 Y267.3819
G01 X185.3060 Y267.4008
G01 X185.3752 Y267.4163
G01 X185.4450 Y267.4285
G01 X185.5154 Y267.4371
G01 X185.5861 Y267.4424
G01 X185.6569 Y267.4441
G01 X185.7278 Y267.4424
G01 X185.7985 Y267.4371
G01 X185.8688 Y267.4285
G01 X185.9387 Y267.4163
G01 X186.0078 Y267.4008
G01 X186.0761 Y267.3819
G01 X186.1434 Y267.3597
G01 X186.2096 Y267.3342
G01 X186.2744 Y267.3054
G01 X186.3377 Y267.2736
G01 X186.3994 Y267.2386
G01 X186.4592 Y267.2007
G01 X186.5172 Y267.1599
G01 X186.5731 Y267.1163
G01 X186.6267 Y267.0700
G01 X186.6781 Y267.0211
G01 X186.7270 Y266.9698
G01 X186.7733 Y266.9161
G01 X186.8169 Y266.8602
G01 X186.8577 Y266.8023
G01 X186.8956 Y266.7424
G01 X186.9305 Y266.6807
G01 X186.9624 Y266.6174
G01 X186.9911 Y266.5526
G01 X187.0166 Y266.4865
G01 X187.0389 Y266.4192
G01 X187.0578 Y266.3509
G01 X187.0733 Y266.2817
G01 X187.0854 Y266.2119
G01 X187.0941 Y266.1415
G01 X187.0993 Y266.0708
G01 X187.1011 Y266.0000
G01 X187.0970 Y265.8921
G01 X187.0849 Y265.7848
G01 X187.0648 Y265.6786
G01 X187.0369 Y265.5743
G01 X187.0012 Y265.4724
G01 X186.9580 Y265.3734
G01 X186.9076 Y265.2779
G01 X186.8501 Y265.1865
G01 X186.7860 Y265.0996
G01 X186.7155 Y265.0177
G01 X186.6392 Y264.9414
G01 X186.5573 Y264.8709
G01 X186.4704 Y264.8068
G01 X186.3790 Y264.7493
G01 X186.2835 Y264.6989
G01 X186.1845 Y264.6557
G01 X186.0826 Y264.6200
G01 X185.9783 Y264.5921
G01 X185.8722 Y264.5720
G01 X185.7649 Y264.5599
G01 X185.6569 Y264.5559
G01 X185.5490 Y264.5599
G01 X185.4417 Y264.5720
G01 X185.3356 Y264.5921
G01 X185.2313 Y264.6200
G01 X185.1293 Y264.6557
G01 X185.0304 Y264.6989
G01 X184.9349 Y264.7493
G01 X184.8434 Y264.8068
G01 X184.7566 Y264.8709
G01 X184.6747 Y264.9414
G01 X184.5983 Y265.0177
G01 X184.5279 Y265.0996
G01 X184.4638 Y265.1865
G01 X184.4063 Y265.2779
G01 X184.3558 Y265.3734
G01 X184.3127 Y265.4724
G01 X184.2770 Y265.5743
G01 X184.2490 Y265.6786
G01 X184.2290 Y265.7848
G01 X184.2169 Y265.8921
G01 X184.2128 Y266.0000
G01 X184.2169 Y266.1079
G01 X184.2290 Y266.2152
G01 X184.2490 Y266.3213
G01 X184.2770 Y266.4256
G01 X184.3127 Y266.5276
G01 X184.3558 Y266.6266
G01 X184.4063 Y266.7220
G01 X184.4638 Y266.8135
G01 X184.5279 Y266.9004
G01 X184.5983 Y266.9822
G01 X184.6747 Y267.0586
G01 X184.7566 Y267.1290
G01 X184.8434 Y267.1932
G01 X184.9349 Y267.2506
G01 X185.0304 Y267.3011
G01 X185.1293 Y267.3443
G01 X185.2313 Y267.3799
G01 X185.3356 Y267.4079
G01 X185.4417 Y267.4280
G01 X185.5490 Y267.4401
G01 X185.6569 Y267.4441
G01 X185.7649 Y267.4401
G01 X185.8722 Y267.4280
G01 X185.9783 Y267.4079
G01 X186.0826 Y267.3799
G01 X186.1845 Y267.3443
G01 X186.2835 Y267.3011
G01 X186.3790 Y267.2506
G01 X186.4704 Y267.1932
G01 X186.5573 Y267.1290
G01 X186.6392 Y267.0586
G01 X186.7155 Y266.9822
G01 X186.7860 Y266.9004
G01 X186.8501 Y266.8135
G01 X186.9076 Y266.7220
G01 X186.9580 Y266.6266
G01 X187.0012 Y266.5276
G01 X187.0369 Y266.4256
G01 X187.0648 Y266.3213
G01 X187.0849 Y266.2152
G01 X187.0970 Y266.1079
G01 X187.1011 Y266.0000
G01 X187.0973 Y265.9041
G01 X187.0860 Y265.8088
G01 X187.0673 Y265.7147
G01 X187.0412 Y265.6223
G01 X187.0080 Y265.5323
G01 X186.9679 Y265.4452
G01 X186.9210 Y265.3615
G01 X186.8677 Y265.2817
G01 X186.8083 Y265.2063
G01 X186.7431 Y265.1359
G01 X186.6727 Y265.0707
G01 X186.5973 Y265.0113
G01 X186.5175 Y264.9580
G01 X186.4338 Y264.9111
G01 X186.3467 Y264.8710
G01 X186.2566 Y264.8377
G01 X186.1643 Y264.8117
G01 X186.0702 Y264.7930
G01 X185.9749 Y264.7817
G01 X185.8790 Y264.7779
G01 X185.7831 Y264.7817
G01 X185.6878 Y264.7930
G01 X185.5937 Y264.8117
G01 X185.5014 Y264.8377
G01 X185.4113 Y264.8710
G01 X185.3242 Y264.9111
G01 X185.2405 Y264.9580
G01 X185.1607 Y265.0113
G01 X185.0853 Y265.0707
G01 X185.0149 Y265.1359
G01 X184.9497 Y265.2063
G01 X184.8903 Y265.2817
G01 X184.8370 Y265.3615
G01 X184.7901 Y265.4452
G01 X184.7500 Y265.5323
G01 X184.7168 Y265.6223
G01 X184.6907 Y265.7147
G01 X184.6720 Y265.8088
G01 X184.6607 Y265.9041
G01 X184.6569 Y266.0000
G01 X184.6607 Y266.0871
G01 X184.6721 Y266.1736
G01 X184.6910 Y266.2588
G01 X184.7172 Y266.3420
G01 X184.7506 Y266.4226
G01 X184.7909 Y266.5000
G01 X184.8378 Y266.5736
G01 X184.8909 Y266.6428
G01 X184.9498 Y266.7071
G01 X185.0142 Y266.7660
G01 X185.0834 Y266.8191
G01 X185.1569 Y266.8660
G01 X185.2343 Y266.9063
G01 X185.3149 Y266.9397
G01 X185.3981 Y266.9659
G01 X185.4833 Y266.9848
G01 X185.5698 Y266.9962
G01 X185.6569 Y267.0000
G01 X185.7441 Y266.9962
G01 X185.8306 Y266.9848
G01 X185.9158 Y266.9659
G01 X185.9990 Y266.9397
G01 X186.0796 Y266.9063
G01 X186.1569 Y266.8660
G01 X186.2305 Y266.8191
G01 X186.2997 Y266.7660
G01 X186.3640 Y266.7071
G01 X186.4230 Y266.6428
G01 X186.4761 Y266.5736
G01 X186.5230 Y266.5000
G01 X186.5632 Y266.4226
G01 X186.5966 Y266.3420
G01 X186.6229 Y266.2588
G01 X186.6417 Y266.1736
G01 X186.6531 Y266.0871
G01 X186.6569 Y266.0000
M107
M106 S240
G01 X186.6531 Y265.9128 Z-3.7795 F400
G01 X186.6417 Y265.8263 Z-3.8090
G01 X186.6229 Y265.7412 Z-3.8385
G01 X186.5966 Y265.6580 Z-3.8681
G01 X186.5632 Y265.5774 Z-3.8976
G01 X186.5230 Y265.5000 Z-3.9271
G01 X186.4761 Y265.4264 Z-3.9566
G01 X186.4230 Y265.3572 Z-3.9861
G01 X186.3640 Y265.2929 Z-4.0156
G01 X186.2997 Y265.2339 Z-4.0451
G01 X186.2305 Y265.1808 Z-4.0747
G01 X186.1569 Y265.1340 Z-4.1042
G01 X186.0796 Y265.0937 Z-4.1337
G01 X185.9990 Y265.0603 Z-4.1632
G01 X185.9158 Y265.0341 Z-4.1927
G01 X185.8306 Y265.0152 Z-4.2222
G01 X185.7441 Y265.0038 Z-4.2517
G01 X185.6569 Y265.0000 Z-4.2813
G01 X185.5698 Y265.0038 Z-4.3108
G01 X185.4833 Y265.0152 Z-4.3403
G01 X185.3981 Y265.0341 Z-4.3698
G01 X185.3149 Y265.0603 Z-4.3993
G01 X185.2343 Y265.0937 Z-4.4288
G01 X185.1569 Y265.1340 Z-4.4583
G01 X185.1163 Y265.1587 Z-4.4744
G01 X185.0769 Y265.1854 Z-4.4905
G01 X185.0388 Y265.2139 Z-4.5066
G01 X185.0021 Y265.2442 Z-4.5227
G01 X184.9669 Y265.2763 Z-4.5388
G01 X184.9332 Y265.3099 Z-4.5549
G01 X184.9012 Y265.3451 Z-4.5710
G01 X184.8709 Y265.3818 Z-4.5871
G01 X184.8424 Y265.4199 Z-4.6032
G01 X184.8157 Y265.4593 Z-4.6193
G01 X184.7909 Y265.5000 Z-4.6354
G01 X184.7681 Y265.5418 Z-4.6515
G01 X184.7473 Y265.5846 Z-4.6676
G01 X184.7286 Y265.6283 Z-4.6837
G01 X184.7119 Y265.6729 Z-4.6998
G01 X184.6974 Y265.7183 Z-4.7159
G01 X184.6851 Y265.7642 Z-4.7320
G01 X184.6750 Y265.8107 Z-4.7481
G01 X184.6671 Y265.8577 Z-4.7642
G01 X184.6615 Y265.9049 Z-4.7803
G01 X184.6581 Y265.9524 Z-4.7964
G01 X184.6569 Y266.0000 Z-4.8125
G01 X184.6581 Y266.0476 Z-4.8286
G01 X184.6615 Y266.0950 Z-4.8447
G01 X184.6671 Y266.1423 Z-4.8608
G01 X184.6750 Y266.1892 Z-4.8769
G01 X184.6851 Y266.2357 Z-4.8930
G01 X184.6974 Y266.2817 Z-4.9091
G01 X184.7119 Y266.3271 Z-4.9252
G01 X184.7286 Y266.3716 Z-4.9413
G01 X184.7473 Y266.4154 Z-4.9574
G01 X184.7681 Y266.4582 Z-4.9735
G01 X184.7909 Y266.5000 Z-4.9896
G01 X184.8157 Y266.5406 Z-5.0057
G01 X184.8424 Y266.5800 Z-5.0218
G01 X184.8709 Y266.6181 Z-5.0379
G01 X184.9012 Y266.6548 Z-5.0540
G01 X184.9332 Y266.6901 Z-5.0701
G01 X184.9669 Y266.7237 Z-5.0862
G01 X185.0021 Y266.7557 Z-5.1023
G01 X185.0388 Y266.7860 Z-5.1184
G01 X185.0769 Y266.8146 Z-5.1345
G01 X185.1163 Y266.8412 Z-5.1506
G01 X185.1569 Y266.8660 Z-5.1667
G01 X185.1987 Y266.8888 Z-5.1828
G01 X185.2415 Y266.9096 Z-5.1989
G01 X185.2853 Y266.9284 Z-5.2150
G01 X185.3299 Y266.9450 Z-5.2311
G01 X185.3752 Y266.9595 Z-5.2472
G01 X185.4212 Y266.9718 Z-5.2633
G01 X185.4677 Y266.9819 Z-5.2794
G01 X185.5146 Y266.9898 Z-5.2955
G01 X185.5619 Y266.9955 Z-5.3116
G01 X185.6094 Y266.9989 Z-5.3277
G01 X185.6569 Y267.0000 Z-5.3438
G01 X185.7045 Y266.9989 Z-5.3598
G01 X185.7520 Y266.9955 Z-5.3759
G01 X185.7993 Y266.9898 Z-5.3920
G01 X185.8462 Y266.9819 Z-5.4081
G01 X185.8927 Y266.9718 Z-5.4242
G01 X185.9387 Y266.9595 Z-5.4403
G01 X185.9840 Y266.9450 Z-5.4564
G01 X186.0286 Y266.9284 Z-5.4725
G01 X186.0724 Y266.9096 Z-5.4886
G01 X186.1152 Y266.8888 Z-5.5047
G01 X186.1569 Y266.8660 Z-5.5208
G01 X186.1976 Y266.8412 Z-5.5369
G01 X186.2370 Y266.8146 Z-5.5530
G01 X186.2751 Y266.7860 Z-5.5691
G01 X186.3118 Y266.7557 Z-5.5852
G01 X186.3470 Y266.7237 Z-5.6013
G01 X186.3807 Y266.6901 Z-5.6174
G01 X186.4127 Y266.6548 Z-5.6335
G01 X186.4430 Y266.6181 Z-5.6496
G01 X186.4715 Y266.5800 Z-5.6657
G01 X186.4982 Y266.5406 Z-5.6818
G01 X186.5230 Y266.5000 Z-5.6979
G01 X186.5458 Y266.4582 Z-5.7140
G01 X186.5666 Y266.4154 Z-5.7301
G01 X186.5853 Y266.3716 Z-5.7462
G01 X186.6019 Y266.3271 Z-5.7623
G01 X186.6164 Y266.2817 Z-5.7784
G01 X186.6288 Y266.2357 Z-5.7945
G01 X186.6389 Y266.1892 Z-5.8106
G01 X186.6468 Y266.1423 Z-5.8267
G01 X186.6524 Y266.0950 Z-5.8428
G01 X186.6558 Y266.0476 Z-5.8589
G01 X186.6569 Y266.0000 Z-5.8750
G01 X186.6531 Y265.9128
G01 X186.6417 Y265.8263
G01 X186.6229 Y265.7412
G01 X186.5966 Y265.6580
G01 X186.5632 Y265.5774
G01 X186.5230 Y265.5000
G01 X186.4761 Y265.4264
G01 X186.4230 Y265.3572
G01 X186.3640 Y265.2929
G01 X186.2997 Y265.2339
G01 X186.2305 Y265.1808
G01 X186.1569 Y265.1340
G01 X186.0796 Y265.0937
G01 X185.9990 Y265.0603
G01 X185.9158 Y265.0341
G01 X185.8306 Y265.0152
G01 X185.7441 Y265.0038
G01 X185.6569 Y265.0000
G01 X185.5698 Y265.0038
G01 X185.4833 Y265.0152
G01 X185.3981 Y265.0341
G01 X185.3149 Y265.0603
G01 X185.2343 Y265.0937
G01 X185.1569 Y265.1340
G01 X185.1163 Y265.1587
G01 X185.0769 Y265.1854
G01 X185.0388 Y265.2139
G01 X185.0021 Y265.2442
G01 X184.9669 Y265.2763
G01 X184.9332 Y265.3099
G01 X184.9012 Y265.3451
G01 X184.8709 Y265.3818
G01 X184.8424 Y265.4199
G01 X184.8157 Y265.4593
G01 X184.7909 Y265.5000
G01 X184.7681 Y265.5418
G01 X184.7473 Y265.5846
G01 X184.7286 Y265.6283
G01 X184.7119 Y265.6729
G01 X184.6974 Y265.7183
G01 X184.6851 Y265.7642
G01 X184.6750 Y265.8107
G01 X184.6671 Y265.8577
G01 X184.6615 Y265.9049
G01 X184.6581 Y265.9524
G01 X184.6569 Y266.0000
G01 X184.6581 Y266.0476
G01 X184.6615 Y266.0950
G01 X184.6671 Y266.1423
G01 X184.6750 Y266.1892
G01 X184.6851 Y266.2357
G01 X184.6974 Y266.2817
G01 X184.7119 Y266.3271
G01 X184.7286 Y266.3716
G01 X184.7473 Y266.4154
G01 X184.7681 Y266.4582
G01 X184.7909 Y266.5000
G01 X184.8157 Y266.5406
G01 X184.8424 Y266.5800
G01 X184.8709 Y266.6181
G01 X184.9012 Y266.6548
G01 X184.9332 Y266.6901
G01 X184.9669 Y266.7237
G01 X185.0021 Y266.7557
G01 X185.0388 Y266.7860
G01 X185.0769 Y266.8146
G01 X185.1163 Y266.8412
G01 X185.1569 Y266.8660
G01 X185.1987 Y266.8888
G01 X185.2415 Y266.9096
G01 X185.2853 Y266.9284
G01 X185.3299 Y266.9450
G01 X185.3752 Y266.9595
G01 X185.4212 Y266.9718
G01 X185.4677 Y266.9819
G01 X185.5146 Y266.9898
G01 X185.5619 Y266.9955
G01 X185.6094 Y266.9989
G01 X185.6569 Y267.0000
G01 X185.7045 Y266.9989
G01 X185.7520 Y266.9955
G01 X185.7993 Y266.9898
G01 X185.8462 Y266.9819
G01 X185.8927 Y266.9718
G01 X185.9387 Y266.9595
G01 X185.9840 Y266.9450
G01 X186.0286 Y266.9284
G01 X186.0724 Y266.9096
G01 X186.1152 Y266.8888
G01 X186.1569 Y266.8660
G01 X186.1976 Y266.8412
G01 X186.2370 Y266.8146
G01 X186.2751 Y266.7860
G01 X186.3118 Y266.7557
G01 X186.3470 Y266.7237
G01 X186.3807 Y266.6901
G01 X186.4127 Y266.6548
G01 X186.4430 Y266.6181
G01 X186.4715 Y266.5800
G01 X186.4982 Y266.5406
G01 X186.5230 Y266.5000
G01 X186.5458 Y266.4582
G01 X186.5666 Y266.4154
G01 X186.5853 Y266.3716
G01 X186.6019 Y266.3271
G01 X186.6164 Y266.2817
G01 X186.6288 Y266.2357
G01 X186.6389 Y266.1892
G01 X186.6468 Y266.1423
G01 X186.6524 Y266.0950
G01 X186.6558 Y266.0476
G01 X186.6569 Y266.0000
G01 X186.6677 Y265.9484 F1000
G01 X186.6758 Y265.8963
G01 X186.6811 Y265.8439
G01 X186.6838 Y265.7912
G01 Y265.7385
G01 X186.6810 Y265.6859
G01 X186.6756 Y265.6335
G01 X186.6674 Y265.5814
G01 X186.6557 Y265.5254
G01 X186.6412 Y265.4701
G01 X186.6238 Y265.4156
G01 X186.6036 Y265.3621
G01 X186.5808 Y265.3097
G01 X186.5553 Y265.2585
G01 X186.5272 Y265.2086
G01 X186.4966 Y265.1603
G01 X186.4610 Y265.1099
G01 X186.4229 Y265.0614
G01 X186.3824 Y265.0149
G01 X186.3395 Y264.9705
G01 X186.2944 Y264.9283
G01 X186.2473 Y264.8885
G01 X186.1982 Y264.8511
G01 X186.1473 Y264.8163
G01 X186.0908 Y264.7817
G01 X186.0326 Y264.7500
G01 X185.9729 Y264.7213
G01 X185.9118 Y264.6957
G01 X185.8495 Y264.6732
G01 X185.7862 Y264.6539
G01 X185.7219 Y264.6378
G01 X185.6569 Y264.6250
G01 X185.5876 Y264.6180
G01 X185.5179 Y264.6144
G01 X185.4482
G01 X185.3786 Y264.6178
G01 X185.3092 Y264.6246
G01 X185.2402 Y264.6349
G01 X185.1719 Y264.6487
G01 X185.1043 Y264.6658
G01 X185.0395 Y264.6945
G01 X184.9762 Y264.7264
G01 X184.9145 Y264.7613
G01 X184.8546 Y264.7992
G01 X184.7967 Y264.8401
G01 X184.7408 Y264.8837
G01 X184.6871 Y264.9300
G01 X184.6358 Y264.9788
G01 X184.5869 Y265.0302
G01 X184.5406 Y265.0839
G01 X184.4970 Y265.1397
G01 X184.4562 Y265.1977
G01 X184.4183 Y265.2576
G01 X184.3833 Y265.3192
G01 X184.3515 Y265.3825
G01 X184.3228 Y265.4473
G01 X184.2972 Y265.5135
G01 X184.2750 Y265.5808
G01 X184.2561 Y265.6491
G01 X184.2406 Y265.7183
G01 X184.2285 Y265.7881
G01 X184.2198 Y265.8584
G01 X184.2146 Y265.9291
G01 X184.2128 Y266.0000
G01 X184.2146 Y266.0708
G01 X184.2198 Y266.1415
G01 X184.2285 Y266.2119
G01 X184.2406 Y266.2817
G01 X184.2561 Y266.3509
G01 X184.2750 Y266.4192
G01 X184.2972 Y266.4865
G01 X184.3228 Y266.5526
G01 X184.3515 Y266.6174
G01 X184.3833 Y266.6807
G01 X184.4183 Y266.7424
G01 X184.4562 Y266.8023
G01 X184.4970 Y266.8602
G01 X184.5406 Y266.9161
G01 X184.5869 Y266.9698
G01 X184.6358 Y267.0211
G01 X184.6871 Y267.0700
G01 X184.7408 Y267.1163
G01 X184.7967 Y267.1599
G01 X184.8546 Y267.2007
G01 X184.9145 Y267.2386
G01 X184.9762 Y267.2736
G01 X185.0395 Y267.3054
G01 X185.1043 Y267.3342
G01 X185.1704 Y267.3597
G01 X185.2377 Y267.3819
G01 X185.3060 Y267.4008
G01 X185.3752 Y267.4163
G01 X185.4450 Y267.4285
G01 X185.5154 Y267.4371
G01 X185.5861 Y267.4424
G01 X185.6569 Y267.4441
G01 X185.7278 Y267.4424
G01 X185.7985 Y267.4371
G01 X185.8688 Y267.4285
G01 X185.9387 Y267.4163
G01 X186.0078 Y267.4008
G01 X186.0761 Y267.3819
G01 X186.1434 Y267.3597
G01 X186.2096 Y267.3342
G01 X186.2744 Y267.3054
G01 X186.3377 Y267.2736
G01 X186.3994 Y267.2386
G01 X186.4592 Y267.2007
G01 X186.5172 Y267.1599
G01 X186.5731 Y267.1163
G01 X186.6267 Y267.0700
G01 X186.6781 Y267.0211
G01 X186.7270 Y266.9698
G01 X186.7733 Y266.9161
G01 X186.8169 Y266.8602
G01 X186.8577 Y266.8023
G01 X186.8956 Y266.7424
G01 X186.9305 Y266.6807
G01 X186.9624 Y266.6174
G01 X186.9911 Y266.5526
G01 X187.0166 Y266.4865
G01 X187.0389 Y266.4192
G01 X187.0578 Y266.3509
G01 X187.0733 Y266.2817
G01 X187.0854 Y266.2119
G01 X187.0941 Y266.1415
G01 X187.0993 Y266.0708
G01 X187.1011 Y266.0000
G01 X187.0970 Y265.8921
G01 X187.0849 Y265.7848
G01 X187.0648 Y265.6786
G01 X187.0369 Y265.5743
G01 X187.0012 Y265.4724
G01 X186.9580 Y265.3734
G01 X186.9076 Y265.2779
G01 X186.8501 Y265.1865
G01 X186.7860 Y265.0996
G01 X186.7155 Y265.0177
G01 X186.6392 Y264.9414
G01 X186.5573 Y264.8709
G01 X186.4704 Y264.8068
G01 X186.3790 Y264.7493
G01 X186.2835 Y264.6989
G01 X186.1845 Y264.6557
G01 X186.0826 Y264.6200
G01 X185.9783 Y264.5921
G01 X185.8722 Y264.5720
G01 X185.7649 Y264.5599
G01 X185.6569 Y264.5559
G01 X185.5490 Y264.5599
G01 X185.4417 Y264.5720
G01 X185.3356 Y264.5921
G01 X185.2313 Y264.6200
G01 X185.1293 Y264.6557
G01 X185.0304 Y264.6989
G01 X184.9349 Y264.7493
G01 X184.8434 Y264.8068
G01 X184.7566 Y264.8709
G01 X184.6747 Y264.9414
G01 X184.5983 Y265.0177
G01 X184.5279 Y265.0996
G01 X184.4638 Y265.1865
G01 X184.4063 Y265.2779
G01 X184.3558 Y265.3734
G01 X184.3127 Y265.4724
