;Project TeslaLogoRot
;Created by Estlcam version 11 build 11,227
;Machining time about 00:10:55 hours

G90
M03 S18000
G00 X0.0000 Y0.0000 Z0.0000
G00 Z2.0000


;No. 1: Helical drill 4
G00 X23.5000 Y22.5000
G00 Z0.5000
M106 S240
G01 X23.4962 Y22.4129 Z0.4782 F400 S18000
G01 X23.4848 Y22.3264 Z0.4565
G01 X23.4659 Y22.2412 Z0.4347
G01 X23.4397 Y22.1580 Z0.4130
G01 X23.4063 Y22.0774 Z0.3912
G01 X23.3660 Y22.0000 Z0.3694
G01 X23.3192 Y21.9265 Z0.3477
G01 X23.2661 Y21.8572 Z0.3259
G01 X23.2071 Y21.7929 Z0.3042
G01 X23.1428 Y21.7340 Z0.2824
G01 X23.0736 Y21.6809 Z0.2606
G01 X23.0000 Y21.6340 Z0.2389
G01 X22.9226 Y21.5937 Z0.2171
G01 X22.8420 Y21.5603 Z0.1954
G01 X22.7588 Y21.5341 Z0.1736
G01 X22.6737 Y21.5152 Z0.1519
G01 X22.5872 Y21.5038 Z0.1301
G01 X22.5000 Y21.5000 Z0.1083
G01 X22.4129 Y21.5038 Z0.0866
G01 X22.3264 Y21.5152 Z0.0648
G01 X22.2412 Y21.5341 Z0.0431
G01 X22.1580 Y21.5603 Z0.0213
G01 X22.0774 Y21.5937 Z-0.0005
G01 X22.0000 Y21.6340 Z-0.0222
G01 X21.9594 Y21.6588 Z-0.0341
G01 X21.9199 Y21.6855 Z-0.0460
G01 X21.8818 Y21.7140 Z-0.0578
G01 X21.8451 Y21.7443 Z-0.0697
G01 X21.8099 Y21.7763 Z-0.0816
G01 X21.7763 Y21.8100 Z-0.0934
G01 X21.7443 Y21.8452 Z-0.1053
G01 X21.7140 Y21.8819 Z-0.1172
G01 X21.6854 Y21.9200 Z-0.1290
G01 X21.6588 Y21.9594 Z-0.1409
G01 X21.6340 Y22.0000 Z-0.1528
G01 X21.6112 Y22.0418 Z-0.1646
G01 X21.5904 Y22.0846 Z-0.1765
G01 X21.5716 Y22.1284 Z-0.1884
G01 X21.5550 Y22.1730 Z-0.2003
G01 X21.5405 Y22.2183 Z-0.2121
G01 X21.5282 Y22.2643 Z-0.2240
G01 X21.5181 Y22.3108 Z-0.2359
G01 X21.5102 Y22.3577 Z-0.2477
G01 X21.5045 Y22.4050 Z-0.2596
G01 X21.5011 Y22.4525 Z-0.2715
G01 X21.5000 Y22.5000 Z-0.2833
G01 X21.5011 Y22.5476 Z-0.2952
G01 X21.5045 Y22.5951 Z-0.3071
G01 X21.5102 Y22.6423 Z-0.3189
G01 X21.5181 Y22.6893 Z-0.3308
G01 X21.5282 Y22.7358 Z-0.3427
G01 X21.5405 Y22.7818 Z-0.3545
G01 X21.5550 Y22.8271 Z-0.3664
G01 X21.5716 Y22.8717 Z-0.3783
G01 X21.5904 Y22.9154 Z-0.3902
G01 X21.6112 Y22.9583 Z-0.4020
G01 X21.6340 Y23.0000 Z-0.4139
G01 X21.6588 Y23.0407 Z-0.4258
G01 X21.6854 Y23.0801 Z-0.4376
G01 X21.7140 Y23.1182 Z-0.4495
G01 X21.7443 Y23.1549 Z-0.4614
G01 X21.7763 Y23.1901 Z-0.4732
G01 X21.8099 Y23.2238 Z-0.4851
G01 X21.8451 Y23.2558 Z-0.4970
G01 X21.8818 Y23.2861 Z-0.5088
G01 X21.9199 Y23.3146 Z-0.5207
G01 X21.9594 Y23.3413 Z-0.5326
G01 X22.0000 Y23.3661 Z-0.5444
G01 X22.0418 Y23.3889 Z-0.5563
G01 X22.0846 Y23.4097 Z-0.5682
G01 X22.1283 Y23.4284 Z-0.5801
G01 X22.1729 Y23.4450 Z-0.5919
G01 X22.2183 Y23.4595 Z-0.6038
G01 X22.2642 Y23.4718 Z-0.6157
G01 X22.3108 Y23.4820 Z-0.6275
G01 X22.3577 Y23.4899 Z-0.6394
G01 X22.4050 Y23.4955 Z-0.6513
G01 X22.4524 Y23.4989 Z-0.6631
G01 X22.5000 Y23.5000 Z-0.6750
G01 X22.5476 Y23.4989 Z-0.6869
G01 X22.5951 Y23.4955 Z-0.6987
G01 X22.6423 Y23.4899 Z-0.7106
G01 X22.6893 Y23.4820 Z-0.7225
G01 X22.7358 Y23.4718 Z-0.7343
G01 X22.7817 Y23.4595 Z-0.7462
G01 X22.8271 Y23.4450 Z-0.7581
G01 X22.8717 Y23.4284 Z-0.7699
G01 X22.9154 Y23.4097 Z-0.7818
G01 X22.9582 Y23.3889 Z-0.7937
G01 X23.0000 Y23.3661 Z-0.8056
G01 X23.0406 Y23.3413 Z-0.8174
G01 X23.0801 Y23.3146 Z-0.8293
G01 X23.1182 Y23.2861 Z-0.8412
G01 X23.1549 Y23.2558 Z-0.8530
G01 X23.1901 Y23.2238 Z-0.8649
G01 X23.2237 Y23.1901 Z-0.8768
G01 X23.2558 Y23.1549 Z-0.8886
G01 X23.2861 Y23.1182 Z-0.9005
G01 X23.3146 Y23.0801 Z-0.9124
G01 X23.3413 Y23.0407 Z-0.9242
G01 X23.3660 Y23.0000 Z-0.9361
G01 X23.3888 Y22.9583 Z-0.9480
G01 X23.4096 Y22.9154 Z-0.9598
G01 X23.4284 Y22.8717 Z-0.9717
G01 X23.4450 Y22.8271 Z-0.9836
G01 X23.4595 Y22.7818 Z-0.9955
G01 X23.4718 Y22.7358 Z-1.0073
G01 X23.4819 Y22.6893 Z-1.0192
G01 X23.4898 Y22.6423 Z-1.0311
G01 X23.4955 Y22.5951 Z-1.0429
G01 X23.4989 Y22.5476 Z-1.0548
G01 X23.5000 Y22.5000 Z-1.0667
G01 X23.4962 Y22.4129
G01 X23.4848 Y22.3264
G01 X23.4659 Y22.2412
G01 X23.4397 Y22.1580
G01 X23.4063 Y22.0774
G01 X23.3660 Y22.0000
G01 X23.3192 Y21.9265
G01 X23.2661 Y21.8572
G01 X23.2071 Y21.7929
G01 X23.1428 Y21.7340
G01 X23.0736 Y21.6809
G01 X23.0000 Y21.6340
G01 X22.9226 Y21.5937
G01 X22.8420 Y21.5603
G01 X22.7588 Y21.5341
G01 X22.6737 Y21.5152
G01 X22.5872 Y21.5038
G01 X22.5000 Y21.5000
G01 X22.4129 Y21.5038
G01 X22.3264 Y21.5152
G01 X22.2412 Y21.5341
G01 X22.1580 Y21.5603
G01 X22.0774 Y21.5937
G01 X22.0000 Y21.6340
G01 X21.9594 Y21.6588
G01 X21.9199 Y21.6855
G01 X21.8818 Y21.7140
G01 X21.8451 Y21.7443
G01 X21.8099 Y21.7763
G01 X21.7763 Y21.8100
G01 X21.7443 Y21.8452
G01 X21.7140 Y21.8819
G01 X21.6854 Y21.9200
G01 X21.6588 Y21.9594
G01 X21.6340 Y22.0000
G01 X21.6112 Y22.0418
G01 X21.5904 Y22.0846
G01 X21.5716 Y22.1284
G01 X21.5550 Y22.1730
G01 X21.5405 Y22.2183
G01 X21.5282 Y22.2643
G01 X21.5181 Y22.3108
G01 X21.5102 Y22.3577
G01 X21.5045 Y22.4050
G01 X21.5011 Y22.4525
G01 X21.5000 Y22.5000
M107
M106 S240
G01 X21.5011 Y22.5476
G01 X21.5045 Y22.5951
G01 X21.5102 Y22.6423
G01 X21.5181 Y22.6893
G01 X21.5282 Y22.7358
G01 X21.5405 Y22.7818
G01 X21.5550 Y22.8271
G01 X21.5716 Y22.8717
G01 X21.5904 Y22.9154
G01 X21.6112 Y22.9583
G01 X21.6340 Y23.0000
G01 X21.6588 Y23.0407
G01 X21.6854 Y23.0801
G01 X21.7140 Y23.1182
G01 X21.7443 Y23.1549
G01 X21.7763 Y23.1901
G01 X21.8099 Y23.2238
G01 X21.8451 Y23.2558
G01 X21.8818 Y23.2861
G01 X21.9199 Y23.3146
G01 X21.9594 Y23.3413
G01 X22.0000 Y23.3661
G01 X22.0418 Y23.3889
G01 X22.0846 Y23.4097
G01 X22.1283 Y23.4284
G01 X22.1729 Y23.4450
G01 X22.2183 Y23.4595
G01 X22.2642 Y23.4718
G01 X22.3108 Y23.4820
G01 X22.3577 Y23.4899
G01 X22.4050 Y23.4955
G01 X22.4524 Y23.4989
G01 X22.5000 Y23.5000
G01 X22.5476 Y23.4989
G01 X22.5951 Y23.4955
G01 X22.6423 Y23.4899
G01 X22.6893 Y23.4820
G01 X22.7358 Y23.4718
G01 X22.7817 Y23.4595
G01 X22.8271 Y23.4450
G01 X22.8717 Y23.4284
G01 X22.9154 Y23.4097
G01 X22.9582 Y23.3889
G01 X23.0000 Y23.3661
G01 X23.0406 Y23.3413
G01 X23.0801 Y23.3146
G01 X23.1182 Y23.2861
G01 X23.1549 Y23.2558
G01 X23.1901 Y23.2238
G01 X23.2237 Y23.1901
G01 X23.2558 Y23.1549
G01 X23.2861 Y23.1182
G01 X23.3146 Y23.0801
G01 X23.3413 Y23.0407
G01 X23.3660 Y23.0000
G01 X23.3888 Y22.9583
G01 X23.4096 Y22.9154
G01 X23.4284 Y22.8717
G01 X23.4450 Y22.8271
G01 X23.4595 Y22.7818
G01 X23.4718 Y22.7358
G01 X23.4819 Y22.6893
G01 X23.4898 Y22.6423
G01 X23.4955 Y22.5951
G01 X23.4989 Y22.5476
G01 X23.5000 Y22.5000
G01 X23.5108 Y22.4484 F1000
G01 X23.5188 Y22.3964
G01 X23.5242 Y22.3439
G01 X23.5269 Y22.2913
G01 Y22.2386
G01 X23.5241 Y22.1860
G01 X23.5186 Y22.1335
G01 X23.5105 Y22.0815
G01 X23.4988 Y22.0255
G01 X23.4842 Y21.9702
G01 X23.4668 Y21.9157
G01 X23.4467 Y21.8621
G01 X23.4239 Y21.8097
G01 X23.3984 Y21.7585
G01 X23.3703 Y21.7087
G01 X23.3397 Y21.6603
G01 X23.3041 Y21.6099
G01 X23.2660 Y21.5614
G01 X23.2254 Y21.5149
G01 X23.1826 Y21.4705
G01 X23.1375 Y21.4283
G01 X23.0904 Y21.3885
G01 X23.0413 Y21.3511
G01 X22.9903 Y21.3163
G01 X22.9338 Y21.2817
G01 X22.8757 Y21.2501
G01 X22.8160 Y21.2214
G01 X22.7549 Y21.1958
G01 X22.6926 Y21.1733
G01 X22.6292 Y21.1539
G01 X22.5650 Y21.1379
G01 X22.5000 Y21.1250
G01 X22.4300 Y21.1149
G01 X22.3595 Y21.1082
G01 X22.2888 Y21.1051
G01 X22.2181 Y21.1056
G01 X22.1474 Y21.1097
G01 X22.0771 Y21.1173
G01 X22.0072 Y21.1284
G01 X21.9379 Y21.1431
G01 X21.8698 Y21.1691
G01 X21.8029 Y21.1983
G01 X21.7376 Y21.2309
G01 X21.6740 Y21.2666
G01 X21.6122 Y21.3054
G01 X21.5524 Y21.3472
G01 X21.4948 Y21.3919
G01 X21.4394 Y21.4394
G01 X21.3886 Y21.4927
G01 X21.3405 Y21.5485
G01 X21.2952 Y21.6065
G01 X21.2528 Y21.6667
G01 X21.2134 Y21.7289
G01 X21.1771 Y21.7929
G01 X21.1440 Y21.8587
G01 X21.1142 Y21.9260
G01 X21.0877 Y21.9947
G01 X21.0646 Y22.0646
G01 X21.0450 Y22.1356
G01 X21.0288 Y22.2074
G01 X21.0163 Y22.2799
G01 X21.0072 Y22.3530
G01 X21.0018 Y22.4264
G01 X21.0000 Y22.5000
G01 X21.0018 Y22.5736
G01 X21.0072 Y22.6471
G01 X21.0163 Y22.7201
G01 X21.0288 Y22.7927
G01 X21.0450 Y22.8645
G01 X21.0646 Y22.9355
G01 X21.0877 Y23.0054
G01 X21.1142 Y23.0741
G01 X21.1440 Y23.1414
G01 X21.1771 Y23.2071
G01 X21.2134 Y23.2712
G01 X21.2528 Y23.3334
G01 X21.2952 Y23.3936
G01 X21.3405 Y23.4516
G01 X21.3886 Y23.5074
G01 X21.4394 Y23.5607
G01 X21.4927 Y23.6114
G01 X21.5484 Y23.6595
G01 X21.6065 Y23.7048
G01 X21.6667 Y23.7472
G01 X21.7289 Y23.7866
G01 X21.7929 Y23.8229
G01 X21.8587 Y23.8560
G01 X21.9260 Y23.8858
G01 X21.9947 Y23.9123
G01 X22.0646 Y23.9354
G01 X22.1355 Y23.9551
G01 X22.2074 Y23.9712
G01 X22.2799 Y23.9838
G01 X22.3530 Y23.9928
G01 X22.4264 Y23.9982
G01 X22.5000 Y24.0000
G01 X22.5736 Y23.9982
G01 X22.6470 Y23.9928
G01 X22.7201 Y23.9838
G01 X22.7926 Y23.9712
G01 X22.8645 Y23.9551
G01 X22.9354 Y23.9354
G01 X23.0053 Y23.9123
G01 X23.0740 Y23.8858
G01 X23.1413 Y23.8560
G01 X23.2071 Y23.8229
G01 X23.2712 Y23.7866
G01 X23.3334 Y23.7472
G01 X23.3935 Y23.7048
G01 X23.4516 Y23.6595
G01 X23.5073 Y23.6114
G01 X23.5607 Y23.5607
G01 X23.6114 Y23.5074
G01 X23.6595 Y23.4516
G01 X23.7048 Y23.3936
G01 X23.7472 Y23.3334
G01 X23.7866 Y23.2712
G01 X23.8229 Y23.2071
G01 X23.8560 Y23.1414
G01 X23.8858 Y23.0741
G01 X23.9123 Y23.0054
G01 X23.9354 Y22.9355
G01 X23.9550 Y22.8645
G01 X23.9712 Y22.7927
G01 X23.9838 Y22.7201
G01 X23.9928 Y22.6471
G01 X23.9982 Y22.5736
G01 X24.0000 Y22.5000
G01 X23.9958 Y22.3879
G01 X23.9832 Y22.2765
G01 X23.9624 Y22.1663
G01 X23.9333 Y22.0579
G01 X23.8963 Y21.9520
G01 X23.8514 Y21.8492
G01 X23.7990 Y21.7500
G01 X23.7394 Y21.6551
G01 X23.6727 Y21.5648
G01 X23.5996 Y21.4798
G01 X23.5203 Y21.4005
G01 X23.4352 Y21.3273
G01 X23.3450 Y21.2607
G01 X23.2500 Y21.2010
G01 X23.1508 Y21.1486
G01 X23.0480 Y21.1037
G01 X22.9421 Y21.0667
G01 X22.8338 Y21.0377
G01 X22.7236 Y21.0168
G01 X22.6121 Y21.0042
G01 X22.5000 Y21.0001
G01 X22.3879 Y21.0042
G01 X22.2764 Y21.0168
G01 X22.1662 Y21.0377
G01 X22.0579 Y21.0667
G01 X21.9520 Y21.1037
G01 X21.8492 Y21.1486
G01 X21.7500 Y21.2010
G01 X21.6550 Y21.2607
G01 X21.5648 Y21.3273
G01 X21.4798 Y21.4005
G01 X21.4004 Y21.4798
G01 X21.3273 Y21.5648
G01 X21.2607 Y21.6551
G01 X21.2010 Y21.7500
G01 X21.1486 Y21.8492
G01 X21.1037 Y21.9520
G01 X21.0667 Y22.0579
G01 X21.0376 Y22.1663
G01 X21.0168 Y22.2765
G01 X21.0042 Y22.3879
G01 X21.0000 Y22.5000
G01 X21.0042 Y22.6121
G01 X21.0168 Y22.7236
G01 X21.0376 Y22.8338
G01 X21.0667 Y22.9422
G01 X21.1037 Y23.0480
G01 X21.1486 Y23.1509
G01 X21.2010 Y23.2500
G01 X21.2607 Y23.3450
G01 X21.3273 Y23.4353
G01 X21.4004 Y23.5203
G01 X21.4798 Y23.5996
G01 X21.5648 Y23.6728
G01 X21.6550 Y23.7394
G01 X21.7500 Y23.7991
G01 X21.8492 Y23.8515
G01 X21.9520 Y23.8963
G01 X22.0579 Y23.9334
G01 X22.1662 Y23.9624
G01 X22.2764 Y23.9833
G01 X22.3879 Y23.9958
G01 X22.5000 Y24.0000
G01 X22.6121 Y23.9958
G01 X22.7236 Y23.9833
G01 X22.8338 Y23.9624
G01 X22.9421 Y23.9334
G01 X23.0480 Y23.8963
G01 X23.1508 Y23.8515
G01 X23.2500 Y23.7991
G01 X23.3450 Y23.7394
G01 X23.4352 Y23.6728
G01 X23.5203 Y23.5996
G01 X23.5996 Y23.5203
G01 X23.6727 Y23.4353
G01 X23.7394 Y23.3450
G01 X23.7990 Y23.2500
G01 X23.8514 Y23.1509
G01 X23.8963 Y23.0480
G01 X23.9333 Y22.9422
G01 X23.9624 Y22.8338
G01 X23.9832 Y22.7236
G01 X23.9958 Y22.6121
G01 X24.0000 Y22.5000
G01 X23.9961 Y22.4020
G01 X23.9846 Y22.3045
G01 X23.9655 Y22.2082
G01 X23.9388 Y22.1138
G01 X23.9048 Y22.0217
G01 X23.8637 Y21.9326
G01 X23.8158 Y21.8469
G01 X23.7613 Y21.7653
G01 X23.7005 Y21.6882
G01 X23.6339 Y21.6162
G01 X23.5618 Y21.5495
G01 X23.4847 Y21.4888
G01 X23.4031 Y21.4342
G01 X23.3175 Y21.3863
G01 X23.2283 Y21.3452
G01 X23.1363 Y21.3112
G01 X23.0418 Y21.2846
G01 X22.9455 Y21.2654
G01 X22.8481 Y21.2539
G01 X22.7500 Y21.2500
G01 X22.6519 Y21.2539
G01 X22.5545 Y21.2654
G01 X22.4582 Y21.2846
G01 X22.3637 Y21.3112
G01 X22.2716 Y21.3452
G01 X22.1825 Y21.3863
G01 X22.0969 Y21.4342
G01 X22.0153 Y21.4888
G01 X21.9382 Y21.5495
G01 X21.8661 Y21.6162
G01 X21.7995 Y21.6882
G01 X21.7387 Y21.7653
G01 X21.6842 Y21.8469
G01 X21.6362 Y21.9326
G01 X21.5952 Y22.0217
G01 X21.5612 Y22.1138
G01 X21.5345 Y22.2082
G01 X21.5154 Y22.3045
G01 X21.5039 Y22.4020
G01 X21.5000 Y22.5000
G01 X21.5011 Y22.5462
G01 X21.5043 Y22.5923
G01 X21.5096 Y22.6382
G01 X21.5170 Y22.6838
G01 X21.5266 Y22.7290
G01 X21.5382 Y22.7737
G01 X21.5518 Y22.8178
G01 X21.5675 Y22.8613
G01 X21.5852 Y22.9040
G01 X21.6048 Y22.9458
G01 X21.6264 Y22.9866
G01 X21.6498 Y23.0265
G01 X21.6750 Y23.0652
G01 X21.7020 Y23.1027
G01 X21.7307 Y23.1389
G01 X21.7610 Y23.1737
G01 X21.7929 Y23.2071
G01 X21.8263 Y23.2390
G01 X21.8612 Y23.2694
G01 X21.8974 Y23.2981
G01 X21.9349 Y23.3250
G01 X21.9736 Y23.3503
G01 X22.0134 Y23.3737
G01 X22.0543 Y23.3952
G01 X22.0961 Y23.4148
G01 X22.1388 Y23.4325
G01 X22.1822 Y23.4482
G01 X22.2263 Y23.4619
G01 X22.2711 Y23.4735
G01 X22.3163 Y23.4830
G01 X22.3619 Y23.4904
G01 X22.4077 Y23.4958
G01 X22.4538 Y23.4990
G01 X22.5000 Y23.5000
G01 X22.5462 Y23.4990
G01 X22.5923 Y23.4958
G01 X22.6382 Y23.4904
G01 X22.6838 Y23.4830
G01 X22.7290 Y23.4735
G01 X22.7737 Y23.4619
G01 X22.8178 Y23.4482
G01 X22.8612 Y23.4325
G01 X22.9039 Y23.4148
G01 X22.9457 Y23.3952
G01 X22.9866 Y23.3737
G01 X23.0264 Y23.3503
G01 X23.0651 Y23.3250
G01 X23.1026 Y23.2981
G01 X23.1389 Y23.2694
G01 X23.1737 Y23.2390
G01 X23.2071 Y23.2071
G01 X23.2390 Y23.1737
G01 X23.2693 Y23.1389
G01 X23.2980 Y23.1027
G01 X23.3250 Y23.0652
G01 X23.3502 Y23.0265
G01 X23.3736 Y22.9866
G01 X23.3952 Y22.9458
G01 X23.4148 Y22.9040
G01 X23.4325 Y22.8613
G01 X23.4482 Y22.8178
G01 X23.4618 Y22.7737
G01 X23.4734 Y22.7290
G01 X23.4830 Y22.6838
G01 X23.4904 Y22.6382
G01 X23.4957 Y22.5923
G01 X23.4989 Y22.5462
G01 X23.5000 Y22.5000
M107
M106 S240
G01 X23.4962 Y22.4129 Z-1.0884 F400
G01 X23.4848 Y22.3264 Z-1.1102
G01 X23.4659 Y22.2412 Z-1.1319
G01 X23.4397 Y22.1580 Z-1.1537
G01 X23.4063 Y22.0774 Z-1.1755
G01 X23.3660 Y22.0000 Z-1.1972
G01 X23.3192 Y21.9265 Z-1.2190
G01 X23.2661 Y21.8572 Z-1.2407
G01 X23.2071 Y21.7929 Z-1.2625
G01 X23.1428 Y21.7340 Z-1.2843
G01 X23.0736 Y21.6809 Z-1.3060
G01 X23.0000 Y21.6340 Z-1.3278
G01 X22.9226 Y21.5937 Z-1.3495
G01 X22.8420 Y21.5603 Z-1.3713
G01 X22.7588 Y21.5341 Z-1.3931
G01 X22.6737 Y21.5152 Z-1.4148
G01 X22.5872 Y21.5038 Z-1.4366
G01 X22.5000 Y21.5000 Z-1.4583
G01 X22.4129 Y21.5038 Z-1.4801
G01 X22.3264 Y21.5152 Z-1.5019
G01 X22.2412 Y21.5341 Z-1.5236
G01 X22.1580 Y21.5603 Z-1.5454
G01 X22.0774 Y21.5937 Z-1.5671
G01 X22.0000 Y21.6340 Z-1.5889
G01 X21.9594 Y21.6588 Z-1.6008
G01 X21.9199 Y21.6855 Z-1.6126
G01 X21.8818 Y21.7140 Z-1.6245
G01 X21.8451 Y21.7443 Z-1.6364
G01 X21.8099 Y21.7763 Z-1.6482
G01 X21.7763 Y21.8100 Z-1.6601
G01 X21.7443 Y21.8452 Z-1.6720
G01 X21.7140 Y21.8819 Z-1.6838
G01 X21.6854 Y21.9200 Z-1.6957
G01 X21.6588 Y21.9594 Z-1.7076
G01 X21.6340 Y22.0000 Z-1.7194
G01 X21.6112 Y22.0418 Z-1.7313
G01 X21.5904 Y22.0846 Z-1.7432
G01 X21.5716 Y22.1284 Z-1.7551
G01 X21.5550 Y22.1730 Z-1.7669
G01 X21.5405 Y22.2183 Z-1.7788
G01 X21.5282 Y22.2643 Z-1.7907
G01 X21.5181 Y22.3108 Z-1.8025
G01 X21.5102 Y22.3577 Z-1.8144
G01 X21.5045 Y22.4050 Z-1.8263
G01 X21.5011 Y22.4525 Z-1.8381
G01 X21.5000 Y22.5000 Z-1.8500
G01 X21.5011 Y22.5476 Z-1.8619
G01 X21.5045 Y22.5951 Z-1.8737
G01 X21.5102 Y22.6423 Z-1.8856
G01 X21.5181 Y22.6893 Z-1.8975
G01 X21.5282 Y22.7358 Z-1.9093
G01 X21.5405 Y22.7818 Z-1.9212
G01 X21.5550 Y22.8271 Z-1.9331
G01 X21.5716 Y22.8717 Z-1.9449
G01 X21.5904 Y22.9154 Z-1.9568
G01 X21.6112 Y22.9583 Z-1.9687
G01 X21.6340 Y23.0000 Z-1.9806
G01 X21.6588 Y23.0407 Z-1.9924
G01 X21.6854 Y23.0801 Z-2.0043
G01 X21.7140 Y23.1182 Z-2.0162
G01 X21.7443 Y23.1549 Z-2.0280
G01 X21.7763 Y23.1901 Z-2.0399
G01 X21.8099 Y23.2238 Z-2.0518
G01 X21.8451 Y23.2558 Z-2.0636
G01 X21.8818 Y23.2861 Z-2.0755
G01 X21.9199 Y23.3146 Z-2.0874
G01 X21.9594 Y23.3413 Z-2.0992
G01 X22.0000 Y23.3661 Z-2.1111
G01 X22.0418 Y23.3889 Z-2.1230
G01 X22.0846 Y23.4097 Z-2.1348
G01 X22.1283 Y23.4284 Z-2.1467
G01 X22.1729 Y23.4450 Z-2.1586
G01 X22.2183 Y23.4595 Z-2.1705
G01 X22.2642 Y23.4718 Z-2.1823
G01 X22.3108 Y23.4820 Z-2.1942
G01 X22.3577 Y23.4899 Z-2.2061
G01 X22.4050 Y23.4955 Z-2.2179
G01 X22.4524 Y23.4989 Z-2.2298
G01 X22.5000 Y23.5000 Z-2.2417
G01 X22.5476 Y23.4989 Z-2.2535
G01 X22.5951 Y23.4955 Z-2.2654
G01 X22.6423 Y23.4899 Z-2.2773
G01 X22.6893 Y23.4820 Z-2.2891
G01 X22.7358 Y23.4718 Z-2.3010
G01 X22.7817 Y23.4595 Z-2.3129
G01 X22.8271 Y23.4450 Z-2.3247
G01 X22.8717 Y23.4284 Z-2.3366
G01 X22.9154 Y23.4097 Z-2.3485
G01 X22.9582 Y23.3889 Z-2.3604
G01 X23.0000 Y23.3661 Z-2.3722
G01 X23.0406 Y23.3413 Z-2.3841
G01 X23.0801 Y23.3146 Z-2.3960
G01 X23.1182 Y23.2861 Z-2.4078
G01 X23.1549 Y23.2558 Z-2.4197
G01 X23.1901 Y23.2238 Z-2.4316
G01 X23.2237 Y23.1901 Z-2.4434
G01 X23.2558 Y23.1549 Z-2.4553
G01 X23.2861 Y23.1182 Z-2.4672
G01 X23.3146 Y23.0801 Z-2.4790
G01 X23.3413 Y23.0407 Z-2.4909
G01 X23.3660 Y23.0000 Z-2.5028
G01 X23.3888 Y22.9583 Z-2.5146
G01 X23.4096 Y22.9154 Z-2.5265
G01 X23.4284 Y22.8717 Z-2.5384
G01 X23.4450 Y22.8271 Z-2.5503
G01 X23.4595 Y22.7818 Z-2.5621
G01 X23.4718 Y22.7358 Z-2.5740
G01 X23.4819 Y22.6893 Z-2.5859
G01 X23.4898 Y22.6423 Z-2.5977
G01 X23.4955 Y22.5951 Z-2.6096
G01 X23.4989 Y22.5476 Z-2.6215
G01 X23.5000 Y22.5000 Z-2.6333
G01 X23.4962 Y22.4129
G01 X23.4848 Y22.3264
G01 X23.4659 Y22.2412
G01 X23.4397 Y22.1580
G01 X23.4063 Y22.0774
G01 X23.3660 Y22.0000
G01 X23.3192 Y21.9265
G01 X23.2661 Y21.8572
G01 X23.2071 Y21.7929
G01 X23.1428 Y21.7340
G01 X23.0736 Y21.6809
G01 X23.0000 Y21.6340
G01 X22.9226 Y21.5937
G01 X22.8420 Y21.5603
G01 X22.7588 Y21.5341
G01 X22.6737 Y21.5152
G01 X22.5872 Y21.5038
G01 X22.5000 Y21.5000
G01 X22.4129 Y21.5038
G01 X22.3264 Y21.5152
G01 X22.2412 Y21.5341
G01 X22.1580 Y21.5603
G01 X22.0774 Y21.5937
G01 X22.0000 Y21.6340
G01 X21.9594 Y21.6588
G01 X21.9199 Y21.6855
G01 X21.8818 Y21.7140
G01 X21.8451 Y21.7443
G01 X21.8099 Y21.7763
G01 X21.7763 Y21.8100
G01 X21.7443 Y21.8452
G01 X21.7140 Y21.8819
G01 X21.6854 Y21.9200
G01 X21.6588 Y21.9594
G01 X21.6340 Y22.0000
G01 X21.6112 Y22.0418
G01 X21.5904 Y22.0846
G01 X21.5716 Y22.1284
G01 X21.5550 Y22.1730
G01 X21.5405 Y22.2183
G01 X21.5282 Y22.2643
G01 X21.5181 Y22.3108
G01 X21.5102 Y22.3577
G01 X21.5045 Y22.4050
G01 X21.5011 Y22.4525
G01 X21.5000 Y22.5000
M107
M106 S240
G01 X21.5011 Y22.5476
G01 X21.5045 Y22.5951
G01 X21.5102 Y22.6423
G01 X21.5181 Y22.6893
G01 X21.5282 Y22.7358
G01 X21.5405 Y22.7818
G01 X21.5550 Y22.8271
G01 X21.5716 Y22.8717
G01 X21.5904 Y22.9154
G01 X21.6112 Y22.9583
G01 X21.6340 Y23.0000
G01 X21.6588 Y23.0407
G01 X21.6854 Y23.0801
G01 X21.7140 Y23.1182
G01 X21.7443 Y23.1549
G01 X21.7763 Y23.1901
G01 X21.8099 Y23.2238
G01 X21.8451 Y23.2558
G01 X21.8818 Y23.2861
G01 X21.9199 Y23.3146
G01 X21.9594 Y23.3413
G01 X22.0000 Y23.3661
G01 X22.0418 Y23.3889
G01 X22.0846 Y23.4097
G01 X22.1283 Y23.4284
G01 X22.1729 Y23.4450
G01 X22.2183 Y23.4595
G01 X22.2642 Y23.4718
G01 X22.3108 Y23.4820
G01 X22.3577 Y23.4899
G01 X22.4050 Y23.4955
G01 X22.4524 Y23.4989
G01 X22.5000 Y23.5000
G01 X22.5476 Y23.4989
G01 X22.5951 Y23.4955
G01 X22.6423 Y23.4899
G01 X22.6893 Y23.4820
G01 X22.7358 Y23.4718
G01 X22.7817 Y23.4595
G01 X22.8271 Y23.4450
G01 X22.8717 Y23.4284
G01 X22.9154 Y23.4097
G01 X22.9582 Y23.3889
G01 X23.0000 Y23.3661
G01 X23.0406 Y23.3413
G01 X23.0801 Y23.3146
G01 X23.1182 Y23.2861
G01 X23.1549 Y23.2558
G01 X23.1901 Y23.2238
G01 X23.2237 Y23.1901
G01 X23.2558 Y23.1549
G01 X23.2861 Y23.1182
G01 X23.3146 Y23.0801
G01 X23.3413 Y23.0407
G01 X23.3660 Y23.0000
G01 X23.3888 Y22.9583
G01 X23.4096 Y22.9154
G01 X23.4284 Y22.8717
G01 X23.4450 Y22.8271
G01 X23.4595 Y22.7818
G01 X23.4718 Y22.7358
G01 X23.4819 Y22.6893
G01 X23.4898 Y22.6423
G01 X23.4955 Y22.5951
G01 X23.4989 Y22.5476
G01 X23.5000 Y22.5000
G01 X23.5108 Y22.4484 F1000
G01 X23.5188 Y22.3964
G01 X23.5242 Y22.3439
G01 X23.5269 Y22.2913
G01 Y22.2386
G01 X23.5241 Y22.1860
G01 X23.5186 Y22.1335
G01 X23.5105 Y22.0815
G01 X23.4988 Y22.0255
G01 X23.4842 Y21.9702
G01 X23.4668 Y21.9157
G01 X23.4467 Y21.8621
G01 X23.4239 Y21.8097
G01 X23.3984 Y21.7585
G01 X23.3703 Y21.7087
G01 X23.3397 Y21.6603
G01 X23.3041 Y21.6099
G01 X23.2660 Y21.5614
G01 X23.2254 Y21.5149
G01 X23.1826 Y21.4705
G01 X23.1375 Y21.4283
G01 X23.0904 Y21.3885
G01 X23.0413 Y21.3511
G01 X22.9903 Y21.3163
G01 X22.9338 Y21.2817
G01 X22.8757 Y21.2501
G01 X22.8160 Y21.2214
G01 X22.7549 Y21.1958
G01 X22.6926 Y21.1733
G01 X22.6292 Y21.1539
G01 X22.5650 Y21.1379
G01 X22.5000 Y21.1250
G01 X22.4300 Y21.1149
G01 X22.3595 Y21.1082
G01 X22.2888 Y21.1051
G01 X22.2181 Y21.1056
G01 X22.1474 Y21.1097
G01 X22.0771 Y21.1173
G01 X22.0072 Y21.1284
G01 X21.9379 Y21.1431
G01 X21.8698 Y21.1691
G01 X21.8029 Y21.1983
G01 X21.7376 Y21.2309
G01 X21.6740 Y21.2666
G01 X21.6122 Y21.3054
G01 X21.5524 Y21.3472
G01 X21.4948 Y21.3919
G01 X21.4394 Y21.4394
G01 X21.3886 Y21.4927
G01 X21.3405 Y21.5485
G01 X21.2952 Y21.6065
G01 X21.2528 Y21.6667
G01 X21.2134 Y21.7289
G01 X21.1771 Y21.7929
G01 X21.1440 Y21.8587
G01 X21.1142 Y21.9260
G01 X21.0877 Y21.9947
G01 X21.0646 Y22.0646
G01 X21.0450 Y22.1356
G01 X21.0288 Y22.2074
G01 X21.0163 Y22.2799
G01 X21.0072 Y22.3530
G01 X21.0018 Y22.4264
G01 X21.0000 Y22.5000
G01 X21.0018 Y22.5736
G01 X21.0072 Y22.6471
G01 X21.0163 Y22.7201
G01 X21.0288 Y22.7927
G01 X21.0450 Y22.8645
G01 X21.0646 Y22.9355
G01 X21.0877 Y23.0054
G01 X21.1142 Y23.0741
G01 X21.1440 Y23.1414
G01 X21.1771 Y23.2071
G01 X21.2134 Y23.2712
G01 X21.2528 Y23.3334
G01 X21.2952 Y23.3936
G01 X21.3405 Y23.4516
G01 X21.3886 Y23.5074
G01 X21.4394 Y23.5607
G01 X21.4927 Y23.6114
G01 X21.5484 Y23.6595
G01 X21.6065 Y23.7048
G01 X21.6667 Y23.7472
G01 X21.7289 Y23.7866
G01 X21.7929 Y23.8229
G01 X21.8587 Y23.8560
G01 X21.9260 Y23.8858
G01 X21.9947 Y23.9123
G01 X22.0646 Y23.9354
G01 X22.1355 Y23.9551
G01 X22.2074 Y23.9712
G01 X22.2799 Y23.9838
G01 X22.3530 Y23.9928
G01 X22.4264 Y23.9982
G01 X22.5000 Y24.0000
G01 X22.5736 Y23.9982
G01 X22.6470 Y23.9928
G01 X22.7201 Y23.9838
G01 X22.7926 Y23.9712
G01 X22.8645 Y23.9551
G01 X22.9354 Y23.9354
G01 X23.0053 Y23.9123
G01 X23.0740 Y23.8858
G01 X23.1413 Y23.8560
G01 X23.2071 Y23.8229
G01 X23.2712 Y23.7866
G01 X23.3334 Y23.7472
G01 X23.3935 Y23.7048
G01 X23.4516 Y23.6595
G01 X23.5073 Y23.6114
G01 X23.5607 Y23.5607
G01 X23.6114 Y23.5074
G01 X23.6595 Y23.4516
G01 X23.7048 Y23.3936
G01 X23.7472 Y23.3334
G01 X23.7866 Y23.2712
G01 X23.8229 Y23.2071
G01 X23.8560 Y23.1414
G01 X23.8858 Y23.0741
G01 X23.9123 Y23.0054
G01 X23.9354 Y22.9355
G01 X23.9550 Y22.8645
G01 X23.9712 Y22.7927
G01 X23.9838 Y22.7201
G01 X23.9928 Y22.6471
G01 X23.9982 Y22.5736
G01 X24.0000 Y22.5000
G01 X23.9958 Y22.3879
G01 X23.9832 Y22.2765
G01 X23.9624 Y22.1663
G01 X23.9333 Y22.0579
G01 X23.8963 Y21.9520
G01 X23.8514 Y21.8492
G01 X23.7990 Y21.7500
G01 X23.7394 Y21.6551
G01 X23.6727 Y21.5648
G01 X23.5996 Y21.4798
G01 X23.5203 Y21.4005
G01 X23.4352 Y21.3273
G01 X23.3450 Y21.2607
G01 X23.2500 Y21.2010
G01 X23.1508 Y21.1486
G01 X23.0480 Y21.1037
G01 X22.9421 Y21.0667
G01 X22.8338 Y21.0377
G01 X22.7236 Y21.0168
G01 X22.6121 Y21.0042
G01 X22.5000 Y21.0001
G01 X22.3879 Y21.0042
G01 X22.2764 Y21.0168
G01 X22.1662 Y21.0377
G01 X22.0579 Y21.0667
G01 X21.9520 Y21.1037
G01 X21.8492 Y21.1486
G01 X21.7500 Y21.2010
G01 X21.6550 Y21.2607
G01 X21.5648 Y21.3273
G01 X21.4798 Y21.4005
G01 X21.4004 Y21.4798
G01 X21.3273 Y21.5648
G01 X21.2607 Y21.6551
G01 X21.2010 Y21.7500
G01 X21.1486 Y21.8492
G01 X21.1037 Y21.9520
G01 X21.0667 Y22.0579
G01 X21.0376 Y22.1663
G01 X21.0168 Y22.2765
G01 X21.0042 Y22.3879
G01 X21.0000 Y22.5000
G01 X21.0042 Y22.6121
G01 X21.0168 Y22.7236
G01 X21.0376 Y22.8338
G01 X21.0667 Y22.9422
G01 X21.1037 Y23.0480
G01 X21.1486 Y23.1509
G01 X21.2010 Y23.2500
G01 X21.2607 Y23.3450
G01 X21.3273 Y23.4353
G01 X21.4004 Y23.5203
G01 X21.4798 Y23.5996
G01 X21.5648 Y23.6728
G01 X21.6550 Y23.7394
G01 X21.7500 Y23.7991
G01 X21.8492 Y23.8515
G01 X21.9520 Y23.8963
G01 X22.0579 Y23.9334
G01 X22.1662 Y23.9624
G01 X22.2764 Y23.9833
G01 X22.3879 Y23.9958
G01 X22.5000 Y24.0000
G01 X22.6121 Y23.9958
G01 X22.7236 Y23.9833
G01 X22.8338 Y23.9624
G01 X22.9421 Y23.9334
G01 X23.0480 Y23.8963
G01 X23.1508 Y23.8515
G01 X23.2500 Y23.7991
G01 X23.3450 Y23.7394
G01 X23.4352 Y23.6728
G01 X23.5203 Y23.5996
G01 X23.5996 Y23.5203
G01 X23.6727 Y23.4353
G01 X23.7394 Y23.3450
G01 X23.7990 Y23.2500
G01 X23.8514 Y23.1509
G01 X23.8963 Y23.0480
G01 X23.9333 Y22.9422
G01 X23.9624 Y22.8338
G01 X23.9832 Y22.7236
G01 X23.9958 Y22.6121
G01 X24.0000 Y22.5000
G01 X23.9961 Y22.4020
G01 X23.9846 Y22.3045
G01 X23.9655 Y22.2082
G01 X23.9388 Y22.1138
G01 X23.9048 Y22.0217
G01 X23.8637 Y21.9326
G01 X23.8158 Y21.8469
G01 X23.7613 Y21.7653
G01 X23.7005 Y21.6882
G01 X23.6339 Y21.6162
G01 X23.5618 Y21.5495
G01 X23.4847 Y21.4888
G01 X23.4031 Y21.4342
G01 X23.3175 Y21.3863
G01 X23.2283 Y21.3452
G01 X23.1363 Y21.3112
G01 X23.0418 Y21.2846
G01 X22.9455 Y21.2654
G01 X22.8481 Y21.2539
G01 X22.7500 Y21.2500
G01 X22.6519 Y21.2539
G01 X22.5545 Y21.2654
G01 X22.4582 Y21.2846
G01 X22.3637 Y21.3112
G01 X22.2716 Y21.3452
G01 X22.1825 Y21.3863
G01 X22.0969 Y21.4342
G01 X22.0153 Y21.4888
G01 X21.9382 Y21.5495
G01 X21.8661 Y21.6162
G01 X21.7995 Y21.6882
G01 X21.7387 Y21.7653
G01 X21.6842 Y21.8469
G01 X21.6362 Y21.9326
G01 X21.5952 Y22.0217
G01 X21.5612 Y22.1138
G01 X21.5345 Y22.2082
G01 X21.5154 Y22.3045
G01 X21.5039 Y22.4020
G01 X21.5000 Y22.5000
G01 X21.5011 Y22.5462
G01 X21.5043 Y22.5923
G01 X21.5096 Y22.6382
G01 X21.5170 Y22.6838
G01 X21.5266 Y22.7290
G01 X21.5382 Y22.7737
G01 X21.5518 Y22.8178
G01 X21.5675 Y22.8613
G01 X21.5852 Y22.9040
G01 X21.6048 Y22.9458
G01 X21.6264 Y22.9866
G01 X21.6498 Y23.0265
G01 X21.6750 Y23.0652
G01 X21.7020 Y23.1027
G01 X21.7307 Y23.1389
G01 X21.7610 Y23.1737
G01 X21.7929 Y23.2071
G01 X21.8263 Y23.2390
G01 X21.8612 Y23.2694
G01 X21.8974 Y23.2981
G01 X21.9349 Y23.3250
G01 X21.9736 Y23.3503
G01 X22.0134 Y23.3737
G01 X22.0543 Y23.3952
G01 X22.0961 Y23.4148
G01 X22.1388 Y23.4325
G01 X22.1822 Y23.4482
G01 X22.2263 Y23.4619
G01 X22.2711 Y23.4735
G01 X22.3163 Y23.4830
G01 X22.3619 Y23.4904
G01 X22.4077 Y23.4958
G01 X22.4538 Y23.4990
G01 X22.5000 Y23.5000
G01 X22.5462 Y23.4990
G01 X22.5923 Y23.4958
G01 X22.6382 Y23.4904
G01 X22.6838 Y23.4830
G01 X22.7290 Y23.4735
G01 X22.7737 Y23.4619
G01 X22.8178 Y23.4482
G01 X22.8612 Y23.4325
G01 X22.9039 Y23.4148
G01 X22.9457 Y23.3952
G01 X22.9866 Y23.3737
G01 X23.0264 Y23.3503
G01 X23.0651 Y23.3250
G01 X23.1026 Y23.2981
G01 X23.1389 Y23.2694
G01 X23.1737 Y23.2390
G01 X23.2071 Y23.2071
G01 X23.2390 Y23.1737
G01 X23.2693 Y23.1389
G01 X23.2980 Y23.1027
G01 X23.3250 Y23.0652
G01 X23.3502 Y23.0265
G01 X23.3736 Y22.9866
G01 X23.3952 Y22.9458
G01 X23.4148 Y22.9040
G01 X23.4325 Y22.8613
G01 X23.4482 Y22.8178
G01 X23.4618 Y22.7737
G01 X23.4734 Y22.7290
G01 X23.4830 Y22.6838
G01 X23.4904 Y22.6382
G01 X23.4957 Y22.5923
G01 X23.4989 Y22.5462
G01 X23.5000 Y22.5000
M107
M106 S240
G01 X23.4962 Y22.4129 Z-2.6551 F400
G01 X23.4848 Y22.3264 Z-2.6769
G01 X23.4659 Y22.2412 Z-2.6986
G01 X23.4397 Y22.1580 Z-2.7204
G01 X23.4063 Y22.0774 Z-2.7421
G01 X23.3660 Y22.0000 Z-2.7639
G01 X23.3192 Y21.9265 Z-2.7856
G01 X23.2661 Y21.8572 Z-2.8074
G01 X23.2071 Y21.7929 Z-2.8292
G01 X23.1428 Y21.7340 Z-2.8509
G01 X23.0736 Y21.6809 Z-2.8727
G01 X23.0000 Y21.6340 Z-2.8944
G01 X22.9226 Y21.5937 Z-2.9162
G01 X22.8420 Y21.5603 Z-2.9380
G01 X22.7588 Y21.5341 Z-2.9597
G01 X22.6737 Y21.5152 Z-2.9815
G01 X22.5872 Y21.5038 Z-3.0032
G01 X22.5000 Y21.5000 Z-3.0250
G01 X22.4129 Y21.5038 Z-3.0468
G01 X22.3264 Y21.5152 Z-3.0685
G01 X22.2412 Y21.5341 Z-3.0903
G01 X22.1580 Y21.5603 Z-3.1120
G01 X22.0774 Y21.5937 Z-3.1338
G01 X22.0000 Y21.6340 Z-3.1556
G01 X21.9594 Y21.6588 Z-3.1674
G01 X21.9199 Y21.6855 Z-3.1793
G01 X21.8818 Y21.7140 Z-3.1912
G01 X21.8451 Y21.7443 Z-3.2030
G01 X21.8099 Y21.7763 Z-3.2149
G01 X21.7763 Y21.8100 Z-3.2268
G01 X21.7443 Y21.8452 Z-3.2386
G01 X21.7140 Y21.8819 Z-3.2505
G01 X21.6854 Y21.9200 Z-3.2624
G01 X21.6588 Y21.9594 Z-3.2742
G01 X21.6340 Y22.0000 Z-3.2861
G01 X21.6112 Y22.0418 Z-3.2980
G01 X21.5904 Y22.0846 Z-3.3098
G01 X21.5716 Y22.1284 Z-3.3217
G01 X21.5550 Y22.1730 Z-3.3336
G01 X21.5405 Y22.2183 Z-3.3455
G01 X21.5282 Y22.2643 Z-3.3573
G01 X21.5181 Y22.3108 Z-3.3692
G01 X21.5102 Y22.3577 Z-3.3811
G01 X21.5045 Y22.4050 Z-3.3929
G01 X21.5011 Y22.4525 Z-3.4048
G01 X21.5000 Y22.5000 Z-3.4167
G01 X21.5011 Y22.5476 Z-3.4285
G01 X21.5045 Y22.5951 Z-3.4404
G01 X21.5102 Y22.6423 Z-3.4523
G01 X21.5181 Y22.6893 Z-3.4641
G01 X21.5282 Y22.7358 Z-3.4760
G01 X21.5405 Y22.7818 Z-3.4879
G01 X21.5550 Y22.8271 Z-3.4997
G01 X21.5716 Y22.8717 Z-3.5116
G01 X21.5904 Y22.9154 Z-3.5235
G01 X21.6112 Y22.9583 Z-3.5354
G01 X21.6340 Y23.0000 Z-3.5472
G01 X21.6588 Y23.0407 Z-3.5591
G01 X21.6854 Y23.0801 Z-3.5710
G01 X21.7140 Y23.1182 Z-3.5828
G01 X21.7443 Y23.1549 Z-3.5947
G01 X21.7763 Y23.1901 Z-3.6066
G01 X21.8099 Y23.2238 Z-3.6184
G01 X21.8451 Y23.2558 Z-3.6303
G01 X21.8818 Y23.2861 Z-3.6422
G01 X21.9199 Y23.3146 Z-3.6540
G01 X21.9594 Y23.3413 Z-3.6659
G01 X22.0000 Y23.3661 Z-3.6778
G01 X22.0418 Y23.3889 Z-3.6896
G01 X22.0846 Y23.4097 Z-3.7015
G01 X22.1283 Y23.4284 Z-3.7134
G01 X22.1729 Y23.4450 Z-3.7253
G01 X22.2183 Y23.4595 Z-3.7371
G01 X22.2642 Y23.4718 Z-3.7490
G01 X22.3108 Y23.4820 Z-3.7609
G01 X22.3577 Y23.4899 Z-3.7727
G01 X22.4050 Y23.4955 Z-3.7846
G01 X22.4524 Y23.4989 Z-3.7965
G01 X22.5000 Y23.5000 Z-3.8083
G01 X22.5476 Y23.4989 Z-3.8202
G01 X22.5951 Y23.4955 Z-3.8321
G01 X22.6423 Y23.4899 Z-3.8439
G01 X22.6893 Y23.4820 Z-3.8558
G01 X22.7358 Y23.4718 Z-3.8677
G01 X22.7817 Y23.4595 Z-3.8795
G01 X22.8271 Y23.4450 Z-3.8914
G01 X22.8717 Y23.4284 Z-3.9033
G01 X22.9154 Y23.4097 Z-3.9152
G01 X22.9582 Y23.3889 Z-3.9270
G01 X23.0000 Y23.3661 Z-3.9389
G01 X23.0406 Y23.3413 Z-3.9508
G01 X23.0801 Y23.3146 Z-3.9626
G01 X23.1182 Y23.2861 Z-3.9745
G01 X23.1549 Y23.2558 Z-3.9864
G01 X23.1901 Y23.2238 Z-3.9982
G01 X23.2237 Y23.1901 Z-4.0101
G01 X23.2558 Y23.1549 Z-4.0220
G01 X23.2861 Y23.1182 Z-4.0338
G01 X23.3146 Y23.0801 Z-4.0457
G01 X23.3413 Y23.0407 Z-4.0576
G01 X23.3660 Y23.0000 Z-4.0694
G01 X23.3888 Y22.9583 Z-4.0813
G01 X23.4096 Y22.9154 Z-4.0932
G01 X23.4284 Y22.8717 Z-4.1051
G01 X23.4450 Y22.8271 Z-4.1169
G01 X23.4595 Y22.7818 Z-4.1288
G01 X23.4718 Y22.7358 Z-4.1407
G01 X23.4819 Y22.6893 Z-4.1525
G01 X23.4898 Y22.6423 Z-4.1644
G01 X23.4955 Y22.5951 Z-4.1763
G01 X23.4989 Y22.5476 Z-4.1881
G01 X23.5000 Y22.5000 Z-4.2000
G01 X23.4962 Y22.4129
G01 X23.4848 Y22.3264
G01 X23.4659 Y22.2412
G01 X23.4397 Y22.1580
G01 X23.4063 Y22.0774
G01 X23.3660 Y22.0000
G01 X23.3192 Y21.9265
G01 X23.2661 Y21.8572
G01 X23.2071 Y21.7929
G01 X23.1428 Y21.7340
G01 X23.0736 Y21.6809
G01 X23.0000 Y21.6340
G01 X22.9226 Y21.5937
G01 X22.8420 Y21.5603
G01 X22.7588 Y21.5341
G01 X22.6737 Y21.5152
G01 X22.5872 Y21.5038
G01 X22.5000 Y21.5000
G01 X22.4129 Y21.5038
G01 X22.3264 Y21.5152
G01 X22.2412 Y21.5341
G01 X22.1580 Y21.5603
G01 X22.0774 Y21.5937
G01 X22.0000 Y21.6340
G01 X21.9594 Y21.6588
G01 X21.9199 Y21.6855
G01 X21.8818 Y21.7140
G01 X21.8451 Y21.7443
G01 X21.8099 Y21.7763
G01 X21.7763 Y21.8100
G01 X21.7443 Y21.8452
G01 X21.7140 Y21.8819
G01 X21.6854 Y21.9200
G01 X21.6588 Y21.9594
G01 X21.6340 Y22.0000
G01 X21.6112 Y22.0418
G01 X21.5904 Y22.0846
G01 X21.5716 Y22.1284
G01 X21.5550 Y22.1730
G01 X21.5405 Y22.2183
G01 X21.5282 Y22.2643
G01 X21.5181 Y22.3108
G01 X21.5102 Y22.3577
G01 X21.5045 Y22.4050
G01 X21.5011 Y22.4525
G01 X21.5000 Y22.5000
G01 X21.5011 Y22.5476
G01 X21.5045 Y22.5951
G01 X21.5102 Y22.6423
G01 X21.5181 Y22.6893
G01 X21.5282 Y22.7358
G01 X21.5405 Y22.7818
G01 X21.5550 Y22.8271
G01 X21.5716 Y22.8717
G01 X21.5904 Y22.9154
G01 X21.6112 Y22.9583
G01 X21.6340 Y23.0000
G01 X21.6588 Y23.0407
G01 X21.6854 Y23.0801
G01 X21.7140 Y23.1182
G01 X21.7443 Y23.1549
G01 X21.7763 Y23.1901
G01 X21.8099 Y23.2238
G01 X21.8451 Y23.2558
G01 X21.8818 Y23.2861
G01 X21.9199 Y23.3146
G01 X21.9594 Y23.3413
G01 X22.0000 Y23.3661
G01 X22.0418 Y23.3889
G01 X22.0846 Y23.4097
G01 X22.1283 Y23.4284
G01 X22.1729 Y23.4450
G01 X22.2183 Y23.4595
G01 X22.2642 Y23.4718
G01 X22.3108 Y23.4820
G01 X22.3577 Y23.4899
G01 X22.4050 Y23.4955
G01 X22.4524 Y23.4989
G01 X22.5000 Y23.5000
G01 X22.5476 Y23.4989
G01 X22.5951 Y23.4955
G01 X22.6423 Y23.4899
G01 X22.6893 Y23.4820
G01 X22.7358 Y23.4718
G01 X22.7817 Y23.4595
G01 X22.8271 Y23.4450
G01 X22.8717 Y23.4284
G01 X22.9154 Y23.4097
G01 X22.9582 Y23.3889
G01 X23.0000 Y23.3661
G01 X23.0406 Y23.3413
G01 X23.0801 Y23.3146
G01 X23.1182 Y23.2861
G01 X23.1549 Y23.2558
G01 X23.1901 Y23.2238
G01 X23.2237 Y23.1901
G01 X23.2558 Y23.1549
G01 X23.2861 Y23.1182
G01 X23.3146 Y23.0801
G01 X23.3413 Y23.0407
G01 X23.3660 Y23.0000
G01 X23.3888 Y22.9583
G01 X23.4096 Y22.9154
G01 X23.4284 Y22.8717
G01 X23.4450 Y22.8271
G01 X23.4595 Y22.7818
G01 X23.4718 Y22.7358
G01 X23.4819 Y22.6893
G01 X23.4898 Y22.6423
G01 X23.4955 Y22.5951
G01 X23.4989 Y22.5476
G01 X23.5000 Y22.5000
G01 X23.5108 Y22.4484 F1000
G01 X23.5188 Y22.3964
G01 X23.5242 Y22.3439
G01 X23.5269 Y22.2913
G01 Y22.2386
G01 X23.5241 Y22.1860
G01 X23.5186 Y22.1335
G01 X23.5105 Y22.0815
G01 X23.4988 Y22.0255
G01 X23.4842 Y21.9702
G01 X23.4668 Y21.9157
G01 X23.4467 Y21.8621
G01 X23.4239 Y21.8097
G01 X23.3984 Y21.7585
G01 X23.3703 Y21.7087
G01 X23.3397 Y21.6603
G01 X23.3041 Y21.6099
G01 X23.2660 Y21.5614
G01 X23.2254 Y21.5149
G01 X23.1826 Y21.4705
G01 X23.1375 Y21.4283
G01 X23.0904 Y21.3885
G01 X23.0413 Y21.3511
G01 X22.9903 Y21.3163
G01 X22.9338 Y21.2817
G01 X22.8757 Y21.2501
G01 X22.8160 Y21.2214
G01 X22.7549 Y21.1958
G01 X22.6926 Y21.1733
G01 X22.6292 Y21.1539
G01 X22.5650 Y21.1379
G01 X22.5000 Y21.1250
G01 X22.4300 Y21.1149
G01 X22.3595 Y21.1082
G01 X22.2888 Y21.1051
G01 X22.2181 Y21.1056
G01 X22.1474 Y21.1097
G01 X22.0771 Y21.1173
G01 X22.0072 Y21.1284
G01 X21.9379 Y21.1431
G01 X21.8698 Y21.1691
G01 X21.8029 Y21.1983
G01 X21.7376 Y21.2309
G01 X21.6740 Y21.2666
G01 X21.6122 Y21.3054
G01 X21.5524 Y21.3472
G01 X21.4948 Y21.3919
G01 X21.4394 Y21.4394
G01 X21.3886 Y21.4927
G01 X21.3405 Y21.5485
G01 X21.2952 Y21.6065
G01 X21.2528 Y21.6667
G01 X21.2134 Y21.7289
G01 X21.1771 Y21.7929
G01 X21.1440 Y21.8587
G01 X21.1142 Y21.9260
G01 X21.0877 Y21.9947
G01 X21.0646 Y22.0646
G01 X21.0450 Y22.1356
G01 X21.0288 Y22.2074
G01 X21.0163 Y22.2799
G01 X21.0072 Y22.3530
G01 X21.0018 Y22.4264
G01 X21.0000 Y22.5000
G01 X21.0018 Y22.5736
G01 X21.0072 Y22.6471
G01 X21.0163 Y22.7201
G01 X21.0288 Y22.7927
G01 X21.0450 Y22.8645
G01 X21.0646 Y22.9355
G01 X21.0877 Y23.0054
G01 X21.1142 Y23.0741
G01 X21.1440 Y23.1414
G01 X21.1771 Y23.2071
G01 X21.2134 Y23.2712
G01 X21.2528 Y23.3334
G01 X21.2952 Y23.3936
G01 X21.3405 Y23.4516
G01 X21.3886 Y23.5074
G01 X21.4394 Y23.5607
G01 X21.4927 Y23.6114
G01 X21.5484 Y23.6595
G01 X21.6065 Y23.7048
G01 X21.6667 Y23.7472
G01 X21.7289 Y23.7866
G01 X21.7929 Y23.8229
G01 X21.8587 Y23.8560
G01 X21.9260 Y23.8858
G01 X21.9947 Y23.9123
G01 X22.0646 Y23.9354
G01 X22.1355 Y23.9551
G01 X22.2074 Y23.9712
G01 X22.2799 Y23.9838
G01 X22.3530 Y23.9928
G01 X22.4264 Y23.9982
G01 X22.5000 Y24.0000
G01 X22.5736 Y23.9982
G01 X22.6470 Y23.9928
G01 X22.7201 Y23.9838
G01 X22.7926 Y23.9712
G01 X22.8645 Y23.9551
G01 X22.9354 Y23.9354
G01 X23.0053 Y23.9123
G01 X23.0740 Y23.8858
G01 X23.1413 Y23.8560
G01 X23.2071 Y23.8229
G01 X23.2712 Y23.7866
G01 X23.3334 Y23.7472
G01 X23.3935 Y23.7048
G01 X23.4516 Y23.6595
G01 X23.5073 Y23.6114
G01 X23.5607 Y23.5607
G01 X23.6114 Y23.5074
G01 X23.6595 Y23.4516
G01 X23.7048 Y23.3936
G01 X23.7472 Y23.3334
G01 X23.7866 Y23.2712
G01 X23.8229 Y23.2071
G01 X23.8560 Y23.1414
G01 X23.8858 Y23.0741
G01 X23.9123 Y23.0054
G01 X23.9354 Y22.9355
G01 X23.9550 Y22.8645
G01 X23.9712 Y22.7927
G01 X23.9838 Y22.7201
G01 X23.9928 Y22.6471
G01 X23.9982 Y22.5736
G01 X24.0000 Y22.5000
G01 X23.9958 Y22.3879
G01 X23.9832 Y22.2765
G01 X23.9624 Y22.1663
G01 X23.9333 Y22.0579
G01 X23.8963 Y21.9520
G01 X23.8514 Y21.8492
G01 X23.7990 Y21.7500
G01 X23.7394 Y21.6551
G01 X23.6727 Y21.5648
G01 X23.5996 Y21.4798
G01 X23.5203 Y21.4005
G01 X23.4352 Y21.3273
G01 X23.3450 Y21.2607
G01 X23.2500 Y21.2010
G01 X23.1508 Y21.1486
G01 X23.0480 Y21.1037
G01 X22.9421 Y21.0667
G01 X22.8338 Y21.0377
G01 X22.7236 Y21.0168
G01 X22.6121 Y21.0042
G01 X22.5000 Y21.0001
G01 X22.3879 Y21.0042
G01 X22.2764 Y21.0168
G01 X22.1662 Y21.0377
G01 X22.0579 Y21.0667
G01 X21.9520 Y21.1037
G01 X21.8492 Y21.1486
G01 X21.7500 Y21.2010
G01 X21.6550 Y21.2607
G01 X21.5648 Y21.3273
G01 X21.4798 Y21.4005
G01 X21.4004 Y21.4798
G01 X21.3273 Y21.5648
G01 X21.2607 Y21.6551
G01 X21.2010 Y21.7500
G01 X21.1486 Y21.8492
G01 X21.1037 Y21.9520
G01 X21.0667 Y22.0579
G01 X21.0376 Y22.1663
G01 X21.0168 Y22.2765
G01 X21.0042 Y22.3879
G01 X21.0000 Y22.5000
G01 X21.0042 Y22.6121
G01 X21.0168 Y22.7236
G01 X21.0376 Y22.8338
G01 X21.0667 Y22.9422
G01 X21.1037 Y23.0480
G01 X21.1486 Y23.1509
G01 X21.2010 Y23.2500
G01 X21.2607 Y23.3450
G01 X21.3273 Y23.4353
G01 X21.4004 Y23.5203
G01 X21.4798 Y23.5996
G01 X21.5648 Y23.6728
G01 X21.6550 Y23.7394
G01 X21.7500 Y23.7991
G01 X21.8492 Y23.8515
G01 X21.9520 Y23.8963
G01 X22.0579 Y23.9334
G01 X22.1662 Y23.9624
G01 X22.2764 Y23.9833
G01 X22.3879 Y23.9958
G01 X22.5000 Y24.0000
G01 X22.6121 Y23.9958
G01 X22.7236 Y23.9833
G01 X22.8338 Y23.9624
G01 X22.9421 Y23.9334
G01 X23.0480 Y23.8963
G01 X23.1508 Y23.8515
G01 X23.2500 Y23.7991
G01 X23.3450 Y23.7394
G01 X23.4352 Y23.6728
G01 X23.5203 Y23.5996
G01 X23.5996 Y23.5203
G01 X23.6727 Y23.4353
G01 X23.7394 Y23.3450
G01 X23.7990 Y23.2500
G01 X23.8514 Y23.1509
G01 X23.8963 Y23.0480
G01 X23.9333 Y22.9422
G01 X23.9624 Y22.8338
G01 X23.9832 Y22.7236
G01 X23.9958 Y22.6121
G01 X24.0000 Y22.5000
M107
M106 S240
G01 X23.9969 Y22.4216 Z-4.1750 F400
M107
M106 S240
G01 X23.9877 Y22.3436 Z-4.1500
M107
M106 S240
G01 X23.9724 Y22.2666 Z-4.1250
M107
M106 S240
G01 X23.9510 Y22.1910 Z-4.1000
M107
M106 S240
G01 X23.9239 Y22.1174 Z-4.0750
M107
M106 S240
G01 X23.8910 Y22.0460 Z-4.0500
M107
M106 S240
G01 X23.8526 Y21.9775 Z-4.0250
M107
M106 S240
G01 X23.8090 Y21.9122 Z-4.0000
M107
M106 S240
G01 X23.7604 Y21.8506 Z-3.9750
M107
M106 S240
G01 X23.7071 Y21.7929 Z-3.9500
M107
M106 S240
G01 X23.6494 Y21.7396 Z-3.9250
M107
M106 S240
G01 X23.5878 Y21.6910 Z-3.9000
M107
M106 S240
G01 X23.5225 Y21.6474 Z-3.8750
M107
M106 S240
G01 X23.4540 Y21.6090 Z-3.8500
M107
M106 S240
G01 X23.3827 Y21.5762 Z-3.8250
M107
M106 S240
G01 X23.3090 Y21.5490 Z-3.8000
M107
M106 S240
G01 X23.2334 Y21.5277 Z-3.7750
M107
M106 S240
G01 X23.1564 Y21.5123 Z-3.7500
M107
M106 S240
G01 X23.0784 Y21.5031 Z-3.7250
M107
M106 S240
G01 X23.0000 Y21.5000 Z-3.7000
M107
G00 Z2.0000


;No. 2: Hole 3
G00 X36.2493 Y41.6781 Z2.0000
G00 Z0.5000
G01 Z0.0000 F400
G01 Z-1.5000
M106 S240
G01 X38.8072 F1000
G01 Y43.1781
G01 X36.2493
G01 Y44.6781
G01 X38.8072
G01 Y46.1781
G01 X36.2493
G01 Y47.6781
G01 X38.8072
G01 Y49.1781
G01 X36.2493
G01 Y50.6781
G01 X38.8072
G01 Y52.1781
G01 X36.2493
G01 Y53.6781
G01 X38.8072
G01 Y55.1781
G01 X36.2493
G01 Y56.6781
G01 X35.2014
G01 X39.8544
G01 Y58.1781
G01 X48.3303
G01 X26.7167
G01 X26.5338 Y58.0930
G01 X26.4402 Y58.2485
G01 X26.3553 Y58.4090
G01 X26.2793 Y58.5738
G01 X26.2124 Y58.7426
G01 X26.1548 Y58.9148
G01 X26.1068 Y59.0898
G01 X26.0684 Y59.2673
G01 X26.0398 Y59.4466
G01 X49.0166
G01 X48.9555 Y59.1433
G01 X48.8678 Y58.8467
G01 X48.7542 Y58.5590
G01 X48.6157 Y58.2824
G01 X48.4532 Y58.0192
G01 X48.2681 Y57.7714
G01 X48.0619 Y57.5409
G01 X47.8361 Y57.3295
G01 X47.5924 Y57.1389
G01 X47.3329 Y56.9705
G01 X47.0596 Y56.8258
G01 X46.7745 Y56.7058
G01 X46.4799 Y56.6114
G01 X46.1781 Y56.5435
G01 X45.8715 Y56.5025
G01 X45.5625 Y56.4887
G01 X40.0072
G01 X39.9636 Y56.4878
G01 X39.9200 Y56.4849
G01 X39.8767 Y56.4801
G01 X39.8335 Y56.4735
G01 X39.7907 Y56.4650
G01 X39.7484 Y56.4546
G01 X39.7065 Y56.4424
G01 X39.6652 Y56.4284
G01 X39.6245 Y56.4126
G01 X39.5846 Y56.3950
G01 X39.5454 Y56.3757
G01 X39.5072 Y56.3547
G01 X39.4699 Y56.3321
G01 X39.4336 Y56.3079
G01 X39.3984 Y56.2821
G01 X39.3644 Y56.2547
G01 X39.3316 Y56.2260
G01 X39.3001 Y56.1958
G01 X39.2699 Y56.1643
G01 X39.2411 Y56.1315
G01 X39.2138 Y56.0975
G01 X39.1880 Y56.0623
G01 X39.1638 Y56.0260
G01 X39.1412 Y55.9887
G01 X39.1202 Y55.9505
G01 X39.1009 Y55.9113
G01 X39.0833 Y55.8714
G01 X39.0675 Y55.8307
G01 X39.0535 Y55.7894
G01 X39.0413 Y55.7475
G01 X39.0309 Y55.7051
G01 X39.0224 Y55.6624
G01 X39.0157 Y55.6192
G01 X39.0110 Y55.5759
G01 X39.0081 Y55.5323
G01 X39.0072 Y55.4887
G01 Y40.4096
G01 X36.0493
G01 Y55.4886
G01 X36.0484 Y55.5322
G01 X36.0455 Y55.5758
G01 X36.0408 Y55.6191
G01 X36.0341 Y55.6623
G01 X36.0256 Y55.7051
G01 X36.0153 Y55.7474
G01 X36.0031 Y55.7893
G01 X35.9890 Y55.8306
G01 X35.9732 Y55.8713
G01 X35.9556 Y55.9112
G01 X35.9363 Y55.9504
G01 X35.9154 Y55.9886
G01 X35.8927 Y56.0259
G01 X35.8685 Y56.0622
G01 X35.8427 Y56.0974
G01 X35.8154 Y56.1314
G01 X35.7866 Y56.1642
G01 X35.7564 Y56.1957
G01 X35.7249 Y56.2259
G01 X35.6921 Y56.2547
G01 X35.6581 Y56.2820
G01 X35.6229 Y56.3078
G01 X35.5866 Y56.3320
G01 X35.5493 Y56.3546
G01 X35.5111 Y56.3756
G01 X35.4720 Y56.3949
G01 X35.4320 Y56.4125
G01 X35.3914 Y56.4283
G01 X35.3500 Y56.4423
G01 X35.3082 Y56.4545
G01 X35.2658 Y56.4649
G01 X35.2230 Y56.4734
G01 X35.1799 Y56.4801
G01 X35.1365 Y56.4848
G01 X35.0930 Y56.4877
G01 X35.0493 Y56.4886
G01 X29.5344 Y56.4881
G01 X29.1850 Y56.4951
G01 X28.8381 Y56.5379
G01 X28.4974 Y56.6160
G01 X28.1666 Y56.7286
G01 X27.8489 Y56.8744
G01 X27.5479 Y57.0520
G01 X27.2666 Y57.2595
G01 X27.0081 Y57.4947
G01 X27.0193 Y57.4828
G01 X26.8860 Y57.6255
G01 X26.7604 Y57.7750
G01 X26.6429 Y57.9310
G01 X26.5338 Y58.0930
G01 X26.7167 Y58.1781
M107
G00 Z2.0000


;No. 3: Hole 4
G00 X58.0993 Y57.9676 Z2.0000
G00 Z0.5000
G01 Z0.0000 F400
G01 Z-1.5000
M106 S240
G01 X79.4135 F1000
G01 X79.5509 Y57.8195
G01 X79.3803 Y57.6183
G01 X79.1949 Y57.4306
G01 X78.9958 Y57.2576
G01 X78.7842 Y57.1000
G01 X78.5612 Y56.9590
G01 X78.3282 Y56.8353
G01 X78.0865 Y56.7296
G01 X77.8375 Y56.6425
G01 X77.5826 Y56.5745
G01 X77.3233 Y56.5260
G01 X77.0610 Y56.4973
G01 X76.7974 Y56.4886
G01 X60.7306
G01 X60.4199 Y56.4971
G01 X60.1113 Y56.5337
G01 X59.8072 Y56.5981
G01 X59.5103 Y56.6898
G01 X59.2228 Y56.8081
G01 X58.9473 Y56.9519
G01 X58.6859 Y57.1201
G01 X58.4409 Y57.3113
G01 X58.2142 Y57.5239
G01 X58.0077 Y57.7561
G01 X57.8230 Y58.0062
G01 X57.6618 Y58.2719
G01 X57.5254 Y58.5511
G01 X57.4148 Y58.8416
G01 X57.3310 Y59.1409
G01 X57.2746 Y59.4466
G01 X80.2515 Y59.4465
G01 X80.2150 Y59.2252
G01 X80.1632 Y59.0070
G01 X80.0964 Y58.7930
G01 X80.0149 Y58.5840
G01 X79.9191 Y58.3813
G01 X79.8095 Y58.1856
G01 X79.6866 Y57.9981
G01 X79.5509 Y57.8195
G01 X79.4135 Y57.9676
M107
G00 Z2.0000


;No. 4: Hole 5
G00 X79.4134 Y49.9280 Z2.0000
G00 Z0.5000
G01 Z0.0000 F400
G01 Z-1.5000
M106 S240
G01 X58.0993 F1000
G01 X57.9468 Y49.7982
G01 X57.8176 Y49.9768
G01 X57.7004 Y50.1636
G01 X57.5958 Y50.3576
G01 X57.5042 Y50.5581
G01 X57.4259 Y50.7642
G01 X57.3614 Y50.9750
G01 X57.3109 Y51.1895
G01 X57.2746 Y51.4070
G01 X80.2515
G01 X80.1906 Y51.1036
G01 X80.1031 Y50.8069
G01 X79.9897 Y50.5190
G01 X79.8512 Y50.2423
G01 X79.6889 Y49.9790
G01 X79.5038 Y49.7310
G01 X79.2975 Y49.5004
G01 X79.0717 Y49.2890
G01 X78.8280 Y49.0983
G01 X78.5684 Y48.9300
G01 X78.2949 Y48.7853
G01 X78.0097 Y48.6654
G01 X77.7150 Y48.5712
G01 X77.4132 Y48.5034
G01 X77.1065 Y48.4626
G01 X76.7974 Y48.4491
G01 X60.7306
G01 X60.4629 Y48.4534
G01 X60.1965 Y48.4788
G01 X59.9328 Y48.5252
G01 X59.6737 Y48.5923
G01 X59.4207 Y48.6797
G01 X59.1754 Y48.7868
G01 X58.9394 Y48.9130
G01 X58.7140 Y49.0574
G01 X58.5008 Y49.2192
G01 X58.3010 Y49.3974
G01 X58.1160 Y49.5908
G01 X57.9468 Y49.7982
G01 X58.0993 Y49.9280
M107
G00 Z2.0000


;No. 5: Hole 6
G00 X58.0993 Y41.8885 Z2.0000
G00 Z0.5000
G01 Z0.0000 F400
G01 Z-1.5000
M106 S240
G01 X79.4134 F1000
G01 X79.5509 Y41.7404
G01 X79.3803 Y41.5392
G01 X79.1949 Y41.3516
G01 X78.9958 Y41.1785
G01 X78.7842 Y41.0209
G01 X78.5612 Y40.8799
G01 X78.3282 Y40.7562
G01 X78.0865 Y40.6505
G01 X77.8375 Y40.5634
G01 X77.5826 Y40.4954
G01 X77.3233 Y40.4469
G01 X77.0610 Y40.4183
G01 X76.7974 Y40.4095
G01 X60.7306
G01 X60.4198 Y40.4177
G01 X60.1110 Y40.4540
G01 X59.8068 Y40.5182
G01 X59.5097 Y40.6098
G01 X59.2222 Y40.7279
G01 X58.9465 Y40.8717
G01 X58.6850 Y41.0398
G01 X58.4399 Y41.2310
G01 X58.2132 Y41.4437
G01 X58.0066 Y41.6761
G01 X57.8221 Y41.9263
G01 X57.6609 Y42.1921
G01 X57.5246 Y42.4715
G01 X57.4142 Y42.7622
G01 X57.3307 Y43.0616
G01 X57.2746 Y43.3674
G01 X80.2515
G01 X80.2150 Y43.1461
G01 X80.1632 Y42.9279
G01 X80.0964 Y42.7139
G01 X80.0149 Y42.5049
G01 X79.9191 Y42.3022
G01 X79.8095 Y42.1065
G01 X79.6866 Y41.9190
G01 X79.5509 Y41.7404
G01 X79.4134 Y41.8885
M107
G00 Z2.0000


;No. 6: Hole 7
G00 X89.1984 Y41.6781 Z2.0000
G00 Z0.5000
G01 Z0.0000 F400
G01 Z-1.5000
M106 S240
G01 X111.3281 F1000
G01 Y43.1781
G01 X107.7231
G01 X108.7703
G01 Y44.6781
G01 X111.3281
G01 Y46.1781
G01 X108.7703
G01 X108.7473 Y47.6781
G01 X111.3281
G01 Y49.1781
G01 X88.6714
G01 Y50.6781
G01 X111.3281
G01 X91.2522
G01 Y52.1781
G01 X88.6714
G01 Y53.6781
G01 X91.2292
G01 Y55.1781
G01 X88.6714
G01 Y56.6781
G01 X92.2764
G01 X88.6714 Y58.1781
G01 X110.8018
G01 X110.9687 Y58.0678
G01 X110.7999 Y57.8328
G01 X110.6123 Y57.6125
G01 X110.4072 Y57.4085
G01 X110.1859 Y57.2220
G01 X109.9500 Y57.0545
G01 X109.7011 Y56.9070
G01 X109.4409 Y56.7805
G01 X109.1711 Y56.6760
G01 X108.8936 Y56.5940
G01 X108.6103 Y56.5353
G01 X108.3231 Y56.5001
G01 X108.0340 Y56.4887
G01 X92.4292
G01 X92.3507 Y56.4856
G01 X92.2728 Y56.4764
G01 X92.1958 Y56.4611
G01 X92.1202 Y56.4398
G01 X92.0465 Y56.4126
G01 X91.9752 Y56.3797
G01 X91.9067 Y56.3413
G01 X91.8414 Y56.2977
G01 X91.7798 Y56.2491
G01 X91.7221 Y56.1958
G01 X91.6688 Y56.1382
G01 X91.6202 Y56.0765
G01 X91.5766 Y56.0112
G01 X91.5382 Y55.9427
G01 X91.5053 Y55.8714
G01 X91.4781 Y55.7977
G01 X91.4568 Y55.7221
G01 X91.4415 Y55.6451
G01 X91.4323 Y55.5672
G01 X91.4292 Y55.4887
G01 Y52.4070
G01 X91.4323 Y52.3285
G01 X91.4415 Y52.2506
G01 X91.4568 Y52.1735
G01 X91.4781 Y52.0980
G01 X91.5053 Y52.0243
G01 X91.5382 Y51.9530
G01 X91.5766 Y51.8845
G01 X91.6202 Y51.8192
G01 X91.6688 Y51.7575
G01 X91.7221 Y51.6999
G01 X91.7798 Y51.6466
G01 X91.8414 Y51.5980
G01 X91.9067 Y51.5543
G01 X91.9752 Y51.5160
G01 X92.0465 Y51.4831
G01 X92.1202 Y51.4559
G01 X92.1958 Y51.4346
G01 X92.2728 Y51.4193
G01 X92.3507 Y51.4101
G01 X92.4292 Y51.4070
G01 X111.5281
G01 Y40.4096
G01 X88.5114
G01 X88.5721 Y40.7130
G01 X88.6595 Y41.0098
G01 X88.7728 Y41.2977
G01 X88.9112 Y41.5745
G01 X89.0735 Y41.8379
G01 X89.2586 Y42.0859
G01 X89.4648 Y42.3166
G01 X89.6907 Y42.5281
G01 X89.9344 Y42.7187
G01 X90.1941 Y42.8870
G01 X90.4676 Y43.0317
G01 X90.7529 Y43.1516
G01 X91.0476 Y43.2457
G01 X91.3496 Y43.3134
G01 X91.6563 Y43.3541
G01 X91.9655 Y43.3674
G01 X107.5703
G01 X107.6487 Y43.3705
G01 X107.7267 Y43.3797
G01 X107.8037 Y43.3950
G01 X107.8793 Y43.4164
G01 X107.9530 Y43.4435
G01 X108.0243 Y43.4764
G01 X108.0928 Y43.5148
G01 X108.1581 Y43.5584
G01 X108.2197 Y43.6070
G01 X108.2774 Y43.6603
G01 X108.3307 Y43.7180
G01 X108.3793 Y43.7796
G01 X108.4229 Y43.8449
G01 X108.4613 Y43.9134
G01 X108.4942 Y43.9847
G01 X108.5213 Y44.0584
G01 X108.5426 Y44.1340
G01 X108.5580 Y44.2110
G01 X108.5672 Y44.2890
G01 X108.5703 Y44.3674
G01 Y47.4491
G01 X108.5693 Y47.4928
G01 X108.5665 Y47.5363
G01 X108.5617 Y47.5797
G01 X108.5551 Y47.6228
G01 X108.5466 Y47.6656
G01 X108.5362 Y47.7080
G01 X108.5240 Y47.7498
G01 X108.5100 Y47.7912
G01 X108.4942 Y47.8318
G01 X108.4766 Y47.8717
G01 X108.4573 Y47.9109
G01 X108.4363 Y47.9491
G01 X108.4137 Y47.9864
G01 X108.3894 Y48.0227
G01 X108.3636 Y48.0579
G01 X108.3363 Y48.0919
G01 X108.3076 Y48.1247
G01 X108.2774 Y48.1562
G01 X108.2459 Y48.1864
G01 X108.2131 Y48.2152
G01 X108.1790 Y48.2425
G01 X108.1439 Y48.2683
G01 X108.1076 Y48.2925
G01 X108.0703 Y48.3152
G01 X108.0320 Y48.3361
G01 X107.9929 Y48.3554
G01 X107.9530 Y48.3730
G01 X107.9123 Y48.3888
G01 X107.8710 Y48.4028
G01 X107.8291 Y48.4151
G01 X107.7867 Y48.4254
G01 X107.7439 Y48.4339
G01 X107.7008 Y48.4406
G01 X107.6574 Y48.4453
G01 X107.6139 Y48.4482
G01 X107.5703 Y48.4491
G01 X88.4714
G01 Y59.4466
G01 X111.4881
G01 X111.4589 Y59.2631
G01 X111.4191 Y59.0816
G01 X111.3689 Y58.9027
G01 X111.3084 Y58.7271
G01 X111.2379 Y58.5552
G01 X111.1576 Y58.3876
G01 X111.0678 Y58.2250
G01 X110.9687 Y58.0678
G01 X110.8018 Y58.1781
M107
G00 Z2.0000


;No. 7: Hole 8
G00 X119.9062 Y58.1781 Z2.0000
G00 Z0.5000
G01 Z0.0000 F400
G01 Z-1.5000
M106 S240
G01 X122.4641 F1000
G01 Y56.6781
G01 X119.9062
G01 Y55.1781
G01 X122.4641
G01 Y53.6781
G01 X119.9062
G01 Y52.1781
G01 X122.4641
G01 Y50.6781
G01 X119.9062
G01 Y49.1781
G01 X122.4641
G01 Y47.6781
G01 X119.9062
G01 Y46.1781
G01 X122.4641
G01 Y44.6781
G01 X119.9062
G01 Y43.1781
G01 X123.5113
G01 X119.9062 Y41.6781
G01 X141.7031
G01 X141.8679 Y41.5617
G01 X141.6989 Y41.3856
G01 X141.5179 Y41.2217
G01 X141.3258 Y41.0711
G01 X141.1235 Y40.9345
G01 X140.9120 Y40.8125
G01 X140.6925 Y40.7057
G01 X140.4659 Y40.6147
G01 X140.2335 Y40.5400
G01 X139.9964 Y40.4818
G01 X139.7558 Y40.4406
G01 X139.5129 Y40.4165
G01 X139.2689 Y40.4096
G01 X119.7062
G01 Y59.4466
G01 X122.6641
G01 Y44.3674
G01 X122.6650 Y44.3238
G01 X122.6679 Y44.2803
G01 X122.6726 Y44.2369
G01 X122.6793 Y44.1938
G01 X122.6878 Y44.1510
G01 X122.6981 Y44.1086
G01 X122.7104 Y44.0667
G01 X122.7244 Y44.0254
G01 X122.7402 Y43.9847
G01 X122.7578 Y43.9448
G01 X122.7771 Y43.9057
G01 X122.7980 Y43.8674
G01 X122.8207 Y43.8301
G01 X122.8449 Y43.7938
G01 X122.8707 Y43.7587
G01 X122.8980 Y43.7246
G01 X122.9268 Y43.6918
G01 X122.9570 Y43.6603
G01 X122.9885 Y43.6301
G01 X123.0213 Y43.6014
G01 X123.0553 Y43.5741
G01 X123.0905 Y43.5483
G01 X123.1268 Y43.5240
G01 X123.1641 Y43.5014
G01 X123.2023 Y43.4804
G01 X123.2415 Y43.4611
G01 X123.2814 Y43.4435
G01 X123.3221 Y43.4277
G01 X123.3634 Y43.4137
G01 X123.4053 Y43.4015
G01 X123.4476 Y43.3911
G01 X123.4904 Y43.3826
G01 X123.5335 Y43.3760
G01 X123.5769 Y43.3712
G01 X123.6205 Y43.3684
G01 X123.6641 Y43.3674
G01 X142.7230
G01 X142.6803 Y43.1173
G01 X142.6182 Y42.8712
G01 X142.5371 Y42.6307
G01 X142.4375 Y42.3973
G01 X142.3200 Y42.1724
G01 X142.1854 Y41.9573
G01 X142.0344 Y41.7533
G01 X141.8679 Y41.5617
G01 X141.7031 Y41.6781
M107
G00 Z2.0000


;No. 8: Hole 9
G00 X151.8059 Y57.9676 Z2.0000
G00 Z0.5000
G01 Z0.0000 F400
G01 Z-1.5000
M106 S240
G01 X173.1201 F1000
G01 X173.2577 Y57.8197
G01 X173.0872 Y57.6185
G01 X172.9019 Y57.4309
G01 X172.7030 Y57.2578
G01 X172.4915 Y57.1003
G01 X172.2687 Y56.9592
G01 X172.0358 Y56.8355
G01 X171.7942 Y56.7298
G01 X171.5454 Y56.6426
G01 X171.2906 Y56.5746
G01 X171.0314 Y56.5261
G01 X170.7692 Y56.4974
G01 X170.5057 Y56.4886
G01 X154.4389
G01 X154.1282 Y56.4971
G01 X153.8196 Y56.5337
G01 X153.5155 Y56.5981
G01 X153.2186 Y56.6898
G01 X152.9311 Y56.8081
G01 X152.6556 Y56.9519
G01 X152.3942 Y57.1201
G01 X152.1492 Y57.3113
G01 X151.9225 Y57.5239
G01 X151.7160 Y57.7561
G01 X151.5313 Y58.0062
G01 X151.3701 Y58.2719
G01 X151.2337 Y58.5511
G01 X151.1231 Y58.8416
G01 X151.0393 Y59.1409
G01 X150.9829 Y59.4466
G01 X173.9598 Y59.4465
G01 X173.9230 Y59.2252
G01 X173.8710 Y59.0070
G01 X173.8040 Y58.7930
G01 X173.7223 Y58.5841
G01 X173.6263 Y58.3813
G01 X173.5165 Y58.1857
G01 X173.3935 Y57.9982
G01 X173.2577 Y57.8197
G01 X173.1201 Y57.9676
M107
G00 Z2.0000


;No. 9: Helical drill 3
G00 X178.5000 Y22.4992 Z2.0000
G00 Z0.5000
M106 S240
G01 X178.4962 Y22.4120 Z0.4782 F400
G01 X178.4848 Y22.3255 Z0.4565
G01 X178.4659 Y22.2404 Z0.4347
G01 X178.4397 Y22.1572 Z0.4130
G01 X178.4063 Y22.0766 Z0.3912
G01 X178.3660 Y21.9992 Z0.3694
G01 X178.3191 Y21.9256 Z0.3477
G01 X178.2660 Y21.8564 Z0.3259
G01 X178.2071 Y21.7921 Z0.3042
G01 X178.1428 Y21.7331 Z0.2824
G01 X178.0736 Y21.6800 Z0.2606
G01 X178.0000 Y21.6332 Z0.2389
G01 X177.9226 Y21.5929 Z0.2171
G01 X177.8420 Y21.5595 Z0.1954
G01 X177.7588 Y21.5333 Z0.1736
G01 X177.6736 Y21.5144 Z0.1519
G01 X177.5871 Y21.5030 Z0.1301
G01 X177.5000 Y21.4992 Z0.1083
G01 X177.4128 Y21.5030 Z0.0866
G01 X177.3263 Y21.5144 Z0.0648
G01 X177.2412 Y21.5333 Z0.0431
G01 X177.1580 Y21.5595 Z0.0213
G01 X177.0774 Y21.5929 Z-0.0005
G01 X177.0000 Y21.6332 Z-0.0222
G01 X176.9594 Y21.6579 Z-0.0341
G01 X176.9199 Y21.6846 Z-0.0460
G01 X176.8818 Y21.7131 Z-0.0578
G01 X176.8451 Y21.7434 Z-0.0697
G01 X176.8099 Y21.7755 Z-0.0816
G01 X176.7763 Y21.8091 Z-0.0934
G01 X176.7442 Y21.8443 Z-0.1053
G01 X176.7139 Y21.8810 Z-0.1172
G01 X176.6854 Y21.9191 Z-0.1290
G01 X176.6587 Y21.9586 Z-0.1409
G01 X176.6340 Y21.9992 Z-0.1528
G01 X176.6112 Y22.0410 Z-0.1646
G01 X176.5904 Y22.0838 Z-0.1765
G01 X176.5716 Y22.1275 Z-0.1884
G01 X176.5550 Y22.1721 Z-0.2003
G01 X176.5405 Y22.2175 Z-0.2121
G01 X176.5282 Y22.2634 Z-0.2240
G01 X176.5181 Y22.3099 Z-0.2359
G01 X176.5102 Y22.3569 Z-0.2477
G01 X176.5045 Y22.4041 Z-0.2596
G01 X176.5011 Y22.4516 Z-0.2715
G01 X176.5000 Y22.4992 Z-0.2833
G01 X176.5011 Y22.5468 Z-0.2952
G01 X176.5045 Y22.5942 Z-0.3071
G01 X176.5102 Y22.6415 Z-0.3189
G01 X176.5181 Y22.6884 Z-0.3308
G01 X176.5282 Y22.7350 Z-0.3427
G01 X176.5405 Y22.7809 Z-0.3545
G01 X176.5550 Y22.8263 Z-0.3664
G01 X176.5716 Y22.8709 Z-0.3783
G01 X176.5904 Y22.9146 Z-0.3902
G01 X176.6112 Y22.9574 Z-0.4020
G01 X176.6340 Y22.9992 Z-0.4139
G01 X176.6587 Y23.0398 Z-0.4258
G01 X176.6854 Y23.0792 Z-0.4376
G01 X176.7139 Y23.1174 Z-0.4495
G01 X176.7442 Y23.1541 Z-0.4614
G01 X176.7763 Y23.1893 Z-0.4732
G01 X176.8099 Y23.2229 Z-0.4851
G01 X176.8451 Y23.2549 Z-0.4970
G01 X176.8818 Y23.2852 Z-0.5088
G01 X176.9199 Y23.3138 Z-0.5207
G01 X176.9594 Y23.3404 Z-0.5326
G01 X177.0000 Y23.3652 Z-0.5444
G01 X177.0418 Y23.3880 Z-0.5563
G01 X177.0846 Y23.4088 Z-0.5682
G01 X177.1283 Y23.4276 Z-0.5801
G01 X177.1729 Y23.4442 Z-0.5919
G01 X177.2183 Y23.4587 Z-0.6038
G01 X177.2642 Y23.4710 Z-0.6157
G01 X177.3107 Y23.4811 Z-0.6275
G01 X177.3577 Y23.4890 Z-0.6394
G01 X177.4049 Y23.4947 Z-0.6513
G01 X177.4524 Y23.4981 Z-0.6631
G01 X177.5000 Y23.4992 Z-0.6750
G01 X177.5476 Y23.4981 Z-0.6869
G01 X177.5950 Y23.4947 Z-0.6987
G01 X177.6423 Y23.4890 Z-0.7106
G01 X177.6892 Y23.4811 Z-0.7225
G01 X177.7358 Y23.4710 Z-0.7343
G01 X177.7817 Y23.4587 Z-0.7462
G01 X177.8271 Y23.4442 Z-0.7581
G01 X177.8717 Y23.4276 Z-0.7699
G01 X177.9154 Y23.4088 Z-0.7818
G01 X177.9582 Y23.3880 Z-0.7937
G01 X178.0000 Y23.3652 Z-0.8056
G01 X178.0406 Y23.3404 Z-0.8174
G01 X178.0801 Y23.3138 Z-0.8293
G01 X178.1182 Y23.2852 Z-0.8412
G01 X178.1549 Y23.2549 Z-0.8530
G01 X178.1901 Y23.2229 Z-0.8649
G01 X178.2237 Y23.1893 Z-0.8768
G01 X178.2557 Y23.1541 Z-0.8886
G01 X178.2860 Y23.1174 Z-0.9005
G01 X178.3146 Y23.0792 Z-0.9124
G01 X178.3412 Y23.0398 Z-0.9242
G01 X178.3660 Y22.9992 Z-0.9361
G01 X178.3888 Y22.9574 Z-0.9480
G01 X178.4096 Y22.9146 Z-0.9598
G01 X178.4284 Y22.8709 Z-0.9717
G01 X178.4450 Y22.8263 Z-0.9836
G01 X178.4595 Y22.7809 Z-0.9955
G01 X178.4718 Y22.7350 Z-1.0073
G01 X178.4819 Y22.6884 Z-1.0192
G01 X178.4898 Y22.6415 Z-1.0311
G01 X178.4955 Y22.5942 Z-1.0429
G01 X178.4989 Y22.5468 Z-1.0548
G01 X178.5000 Y22.4992 Z-1.0667
G01 X178.4962 Y22.4120
G01 X178.4848 Y22.3255
G01 X178.4659 Y22.2404
G01 X178.4397 Y22.1572
G01 X178.4063 Y22.0766
G01 X178.3660 Y21.9992
G01 X178.3191 Y21.9256
G01 X178.2660 Y21.8564
G01 X178.2071 Y21.7921
G01 X178.1428 Y21.7331
G01 X178.0736 Y21.6800
G01 X178.0000 Y21.6332
G01 X177.9226 Y21.5929
G01 X177.8420 Y21.5595
G01 X177.7588 Y21.5333
G01 X177.6736 Y21.5144
G01 X177.5871 Y21.5030
G01 X177.5000 Y21.4992
G01 X177.4128 Y21.5030
G01 X177.3263 Y21.5144
G01 X177.2412 Y21.5333
G01 X177.1580 Y21.5595
G01 X177.0774 Y21.5929
G01 X177.0000 Y21.6332
G01 X176.9594 Y21.6579
G01 X176.9199 Y21.6846
G01 X176.8818 Y21.7131
G01 X176.8451 Y21.7434
G01 X176.8099 Y21.7755
G01 X176.7763 Y21.8091
G01 X176.7442 Y21.8443
G01 X176.7139 Y21.8810
G01 X176.6854 Y21.9191
G01 X176.6587 Y21.9586
G01 X176.6340 Y21.9992
G01 X176.6112 Y22.0410
G01 X176.5904 Y22.0838
G01 X176.5716 Y22.1275
G01 X176.5550 Y22.1721
G01 X176.5405 Y22.2175
G01 X176.5282 Y22.2634
G01 X176.5181 Y22.3099
G01 X176.5102 Y22.3569
G01 X176.5045 Y22.4041
G01 X176.5011 Y22.4516
G01 X176.5000 Y22.4992
M107
M106 S240
G01 X176.5011 Y22.5468
G01 X176.5045 Y22.5942
G01 X176.5102 Y22.6415
G01 X176.5181 Y22.6884
G01 X176.5282 Y22.7350
G01 X176.5405 Y22.7809
G01 X176.5550 Y22.8263
G01 X176.5716 Y22.8709
G01 X176.5904 Y22.9146
G01 X176.6112 Y22.9574
G01 X176.6340 Y22.9992
G01 X176.6587 Y23.0398
G01 X176.6854 Y23.0792
G01 X176.7139 Y23.1174
G01 X176.7442 Y23.1541
G01 X176.7763 Y23.1893
G01 X176.8099 Y23.2229
G01 X176.8451 Y23.2549
G01 X176.8818 Y23.2852
G01 X176.9199 Y23.3138
G01 X176.9594 Y23.3404
G01 X177.0000 Y23.3652
G01 X177.0418 Y23.3880
G01 X177.0846 Y23.4088
G01 X177.1283 Y23.4276
G01 X177.1729 Y23.4442
G01 X177.2183 Y23.4587
G01 X177.2642 Y23.4710
G01 X177.3107 Y23.4811
G01 X177.3577 Y23.4890
G01 X177.4049 Y23.4947
G01 X177.4524 Y23.4981
G01 X177.5000 Y23.4992
G01 X177.5476 Y23.4981
G01 X177.5950 Y23.4947
G01 X177.6423 Y23.4890
G01 X177.6892 Y23.4811
G01 X177.7358 Y23.4710
G01 X177.7817 Y23.4587
G01 X177.8271 Y23.4442
G01 X177.8717 Y23.4276
G01 X177.9154 Y23.4088
G01 X177.9582 Y23.3880
G01 X178.0000 Y23.3652
G01 X178.0406 Y23.3404
G01 X178.0801 Y23.3138
G01 X178.1182 Y23.2852
G01 X178.1549 Y23.2549
G01 X178.1901 Y23.2229
G01 X178.2237 Y23.1893
G01 X178.2557 Y23.1541
G01 X178.2860 Y23.1174
G01 X178.3146 Y23.0792
G01 X178.3412 Y23.0398
G01 X178.3660 Y22.9992
G01 X178.3888 Y22.9574
G01 X178.4096 Y22.9146
G01 X178.4284 Y22.8709
G01 X178.4450 Y22.8263
G01 X178.4595 Y22.7809
G01 X178.4718 Y22.7350
G01 X178.4819 Y22.6884
G01 X178.4898 Y22.6415
G01 X178.4955 Y22.5942
G01 X178.4989 Y22.5468
G01 X178.5000 Y22.4992
G01 X178.5107 Y22.4476 F1000
G01 X178.5188 Y22.3955
G01 X178.5242 Y22.3431
G01 X178.5269 Y22.2905
G01 X178.5268 Y22.2378
G01 X178.5241 Y22.1851
G01 X178.5186 Y22.1327
G01 X178.5105 Y22.0806
G01 X178.4988 Y22.0246
G01 X178.4842 Y21.9693
G01 X178.4668 Y21.9148
G01 X178.4467 Y21.8613
G01 X178.4239 Y21.8089
G01 X178.3984 Y21.7577
G01 X178.3703 Y21.7078
G01 X178.3397 Y21.6595
G01 X178.3041 Y21.6091
G01 X178.2659 Y21.5606
G01 X178.2254 Y21.5141
G01 X178.1826 Y21.4697
G01 X178.1375 Y21.4275
G01 X178.0904 Y21.3877
G01 X178.0412 Y21.3503
G01 X177.9903 Y21.3155
G01 X177.9338 Y21.2809
G01 X177.8756 Y21.2492
G01 X177.8159 Y21.2206
G01 X177.7549 Y21.1949
G01 X177.6926 Y21.1724
G01 X177.6292 Y21.1531
G01 X177.5650 Y21.1370
G01 X177.5000 Y21.1242
G01 X177.4300 Y21.1140
G01 X177.3595 Y21.1074
G01 X177.2888 Y21.1043
G01 X177.2180 Y21.1048
G01 X177.1474 Y21.1088
G01 X177.0770 Y21.1164
G01 X177.0072 Y21.1276
G01 X176.9379 Y21.1422
G01 X176.8698 Y21.1683
G01 X176.8030 Y21.1976
G01 X176.7377 Y21.2302
G01 X176.6741 Y21.2659
G01 X176.6124 Y21.3048
G01 X176.5526 Y21.3466
G01 X176.4950 Y21.3913
G01 X176.4396 Y21.4388
G01 X176.3889 Y21.4922
G01 X176.3408 Y21.5479
G01 X176.2955 Y21.6059
G01 X176.2532 Y21.6661
G01 X176.2138 Y21.7283
G01 X176.1775 Y21.7923
G01 X176.1444 Y21.8581
G01 X176.1146 Y21.9253
G01 X176.0881 Y21.9940
G01 X176.0650 Y22.0639
G01 X176.0454 Y22.1348
G01 X176.0293 Y22.2066
G01 X176.0167 Y22.2792
G01 X176.0077 Y22.3522
G01 X176.0022 Y22.4256
G01 X176.0004 Y22.4992
G01 X176.0022 Y22.5728
G01 X176.0077 Y22.6462
G01 X176.0167 Y22.7192
G01 X176.0293 Y22.7917
G01 X176.0454 Y22.8636
G01 X176.0650 Y22.9345
G01 X176.0881 Y23.0044
G01 X176.1146 Y23.0730
G01 X176.1444 Y23.1403
G01 X176.1775 Y23.2061
G01 X176.2138 Y23.2701
G01 X176.2532 Y23.3323
G01 X176.2955 Y23.3925
G01 X176.3408 Y23.4505
G01 X176.3889 Y23.5062
G01 X176.4396 Y23.5595
G01 X176.4930 Y23.6103
G01 X176.5487 Y23.6584
G01 X176.6067 Y23.7036
G01 X176.6669 Y23.7460
G01 X176.7291 Y23.7854
G01 X176.7931 Y23.8217
G01 X176.8589 Y23.8548
G01 X176.9261 Y23.8846
G01 X176.9948 Y23.9111
G01 X177.0647 Y23.9342
G01 X177.1356 Y23.9538
G01 X177.2074 Y23.9699
G01 X177.2800 Y23.9825
G01 X177.3530 Y23.9915
G01 X177.4264 Y23.9969
G01 X177.5000 Y23.9987
G01 X177.5736 Y23.9969
G01 X177.6470 Y23.9915
G01 X177.7200 Y23.9825
G01 X177.7925 Y23.9699
G01 X177.8644 Y23.9538
G01 X177.9353 Y23.9342
G01 X178.0052 Y23.9111
G01 X178.0738 Y23.8846
G01 X178.1411 Y23.8548
G01 X178.2069 Y23.8217
G01 X178.2709 Y23.7854
G01 X178.3331 Y23.7460
G01 X178.3933 Y23.7036
G01 X178.4513 Y23.6584
G01 X178.5070 Y23.6103
G01 X178.5603 Y23.5595
G01 X178.6111 Y23.5062
G01 X178.6592 Y23.4505
G01 X178.7044 Y23.3925
G01 X178.7468 Y23.3323
G01 X178.7862 Y23.2701
G01 X178.8225 Y23.2061
G01 X178.8556 Y23.1403
G01 X178.8854 Y23.0730
G01 X178.9119 Y23.0044
G01 X178.9350 Y22.9345
G01 X178.9546 Y22.8636
G01 X178.9707 Y22.7917
G01 X178.9833 Y22.7192
G01 X178.9923 Y22.6462
G01 X178.9977 Y22.5728
G01 X178.9995 Y22.4992
G01 X178.9954 Y22.3871
G01 X178.9828 Y22.2757
G01 X178.9619 Y22.1655
G01 X178.9329 Y22.0572
G01 X178.8959 Y21.9513
G01 X178.8510 Y21.8486
G01 X178.7986 Y21.7494
G01 X178.7390 Y21.6545
G01 X178.6724 Y21.5642
G01 X178.5992 Y21.4792
G01 X178.5199 Y21.3999
G01 X178.4349 Y21.3268
G01 X178.3447 Y21.2602
G01 X178.2498 Y21.2005
G01 X178.1506 Y21.1481
G01 X178.0478 Y21.1033
G01 X177.9420 Y21.0663
G01 X177.8337 Y21.0372
G01 X177.7235 Y21.0164
G01 X177.6121 Y21.0038
G01 X177.5000 Y20.9996
G01 X177.3879 Y21.0038
G01 X177.2765 Y21.0164
G01 X177.1663 Y21.0372
G01 X177.0580 Y21.0663
G01 X176.9521 Y21.1033
G01 X176.8494 Y21.1481
G01 X176.7502 Y21.2005
G01 X176.6553 Y21.2602
G01 X176.5650 Y21.3268
G01 X176.4800 Y21.3999
G01 X176.4007 Y21.4792
G01 X176.3276 Y21.5642
G01 X176.2610 Y21.6545
G01 X176.2013 Y21.7494
G01 X176.1489 Y21.8486
G01 X176.1041 Y21.9513
G01 X176.0671 Y22.0572
G01 X176.0380 Y22.1655
G01 X176.0172 Y22.2757
G01 X176.0046 Y22.3871
G01 X176.0004 Y22.4992
G01 X176.0046 Y22.6113
G01 X176.0172 Y22.7227
G01 X176.0380 Y22.8329
G01 X176.0671 Y22.9412
G01 X176.1041 Y23.0470
G01 X176.1489 Y23.1498
G01 X176.2013 Y23.2490
G01 X176.2610 Y23.3439
G01 X176.3276 Y23.4341
G01 X176.4007 Y23.5191
G01 X176.4800 Y23.5984
G01 X176.5650 Y23.6716
G01 X176.6553 Y23.7382
G01 X176.7502 Y23.7978
G01 X176.8494 Y23.8502
G01 X176.9521 Y23.8951
G01 X177.0580 Y23.9321
G01 X177.1663 Y23.9611
G01 X177.2765 Y23.9820
G01 X177.3879 Y23.9946
G01 X177.5000 Y23.9987
G01 X177.6121 Y23.9946
G01 X177.7235 Y23.9820
G01 X177.8337 Y23.9611
G01 X177.9420 Y23.9321
G01 X178.0478 Y23.8951
G01 X178.1506 Y23.8502
G01 X178.2498 Y23.7978
G01 X178.3447 Y23.7382
G01 X178.4349 Y23.6716
G01 X178.5199 Y23.5984
G01 X178.5992 Y23.5191
G01 X178.6724 Y23.4341
G01 X178.7390 Y23.3439
G01 X178.7986 Y23.2490
G01 X178.8510 Y23.1498
G01 X178.8959 Y23.0470
G01 X178.9329 Y22.9412
G01 X178.9619 Y22.8329
G01 X178.9828 Y22.7227
G01 X178.9954 Y22.6113
G01 X178.9995 Y22.4992
G01 X178.9957 Y22.4011
G01 X178.9842 Y22.3037
G01 X178.9650 Y22.2074
G01 X178.9384 Y22.1130
G01 X178.9044 Y22.0209
G01 X178.8633 Y21.9318
G01 X178.8154 Y21.8462
G01 X178.7609 Y21.7646
G01 X178.7001 Y21.6875
G01 X178.6335 Y21.6155
G01 X178.5614 Y21.5489
G01 X178.4844 Y21.4881
G01 X178.4028 Y21.4336
G01 X178.3172 Y21.3856
G01 X178.2280 Y21.3445
G01 X178.1360 Y21.3106
G01 X178.0415 Y21.2839
G01 X177.9453 Y21.2648
G01 X177.8478 Y21.2533
G01 X177.7498 Y21.2494
G01 X177.6517 Y21.2533
G01 X177.5543 Y21.2648
G01 X177.4580 Y21.2839
G01 X177.3636 Y21.3106
G01 X177.2715 Y21.3445
G01 X177.1824 Y21.3856
G01 X177.0968 Y21.4336
G01 X177.0152 Y21.4881
G01 X176.9381 Y21.5489
G01 X176.8660 Y21.6155
G01 X176.7994 Y21.6875
G01 X176.7387 Y21.7646
G01 X176.6842 Y21.8462
G01 X176.6362 Y21.9318
G01 X176.5951 Y22.0209
G01 X176.5612 Y22.1130
G01 X176.5345 Y22.2074
G01 X176.5154 Y22.3037
G01 X176.5038 Y22.4011
G01 X176.5000 Y22.4992
G01 X176.5038 Y22.5863
G01 X176.5152 Y22.6728
G01 X176.5341 Y22.7580
G01 X176.5603 Y22.8412
G01 X176.5937 Y22.9218
G01 X176.6340 Y22.9992
G01 X176.6808 Y23.0728
G01 X176.7339 Y23.1420
G01 X176.7929 Y23.2063
G01 X176.8572 Y23.2652
G01 X176.9264 Y23.3183
G01 X177.0000 Y23.3652
G01 X177.0774 Y23.4055
G01 X177.1580 Y23.4389
G01 X177.2412 Y23.4651
G01 X177.3263 Y23.4840
G01 X177.4128 Y23.4954
G01 X177.5000 Y23.4992
G01 X177.5871 Y23.4954
G01 X177.6736 Y23.4840
G01 X177.7588 Y23.4651
G01 X177.8420 Y23.4389
G01 X177.9226 Y23.4055
G01 X178.0000 Y23.3652
G01 X178.0736 Y23.3183
G01 X178.1428 Y23.2652
G01 X178.2071 Y23.2063
G01 X178.2660 Y23.1420
G01 X178.3191 Y23.0728
G01 X178.3660 Y22.9992
G01 X178.4063 Y22.9218
G01 X178.4397 Y22.8412
G01 X178.4659 Y22.7580
G01 X178.4848 Y22.6728
G01 X178.4962 Y22.5863
G01 X178.5000 Y22.4992
M107
M106 S240
G01 X178.4962 Y22.4120 Z-1.0884 F400
G01 X178.4848 Y22.3255 Z-1.1102
G01 X178.4659 Y22.2404 Z-1.1319
G01 X178.4397 Y22.1572 Z-1.1537
G01 X178.4063 Y22.0766 Z-1.1755
G01 X178.3660 Y21.9992 Z-1.1972
G01 X178.3191 Y21.9256 Z-1.2190
G01 X178.2660 Y21.8564 Z-1.2407
G01 X178.2071 Y21.7921 Z-1.2625
G01 X178.1428 Y21.7331 Z-1.2843
G01 X178.0736 Y21.6800 Z-1.3060
G01 X178.0000 Y21.6332 Z-1.3278
G01 X177.9226 Y21.5929 Z-1.3495
G01 X177.8420 Y21.5595 Z-1.3713
G01 X177.7588 Y21.5333 Z-1.3931
G01 X177.6736 Y21.5144 Z-1.4148
G01 X177.5871 Y21.5030 Z-1.4366
G01 X177.5000 Y21.4992 Z-1.4583
G01 X177.4128 Y21.5030 Z-1.4801
G01 X177.3263 Y21.5144 Z-1.5019
G01 X177.2412 Y21.5333 Z-1.5236
G01 X177.1580 Y21.5595 Z-1.5454
G01 X177.0774 Y21.5929 Z-1.5671
G01 X177.0000 Y21.6332 Z-1.5889
G01 X176.9594 Y21.6579 Z-1.6008
G01 X176.9199 Y21.6846 Z-1.6126
G01 X176.8818 Y21.7131 Z-1.6245
G01 X176.8451 Y21.7434 Z-1.6364
G01 X176.8099 Y21.7755 Z-1.6482
G01 X176.7763 Y21.8091 Z-1.6601
G01 X176.7442 Y21.8443 Z-1.6720
G01 X176.7139 Y21.8810 Z-1.6838
G01 X176.6854 Y21.9191 Z-1.6957
G01 X176.6587 Y21.9586 Z-1.7076
G01 X176.6340 Y21.9992 Z-1.7194
G01 X176.6112 Y22.0410 Z-1.7313
G01 X176.5904 Y22.0838 Z-1.7432
G01 X176.5716 Y22.1275 Z-1.7551
G01 X176.5550 Y22.1721 Z-1.7669
G01 X176.5405 Y22.2175 Z-1.7788
G01 X176.5282 Y22.2634 Z-1.7907
G01 X176.5181 Y22.3099 Z-1.8025
G01 X176.5102 Y22.3569 Z-1.8144
G01 X176.5045 Y22.4041 Z-1.8263
G01 X176.5011 Y22.4516 Z-1.8381
G01 X176.5000 Y22.4992 Z-1.8500
G01 X176.5011 Y22.5468 Z-1.8619
G01 X176.5045 Y22.5942 Z-1.8737
G01 X176.5102 Y22.6415 Z-1.8856
G01 X176.5181 Y22.6884 Z-1.8975
G01 X176.5282 Y22.7350 Z-1.9093
G01 X176.5405 Y22.7809 Z-1.9212
G01 X176.5550 Y22.8263 Z-1.9331
G01 X176.5716 Y22.8709 Z-1.9449
G01 X176.5904 Y22.9146 Z-1.9568
G01 X176.6112 Y22.9574 Z-1.9687
G01 X176.6340 Y22.9992 Z-1.9806
G01 X176.6587 Y23.0398 Z-1.9924
G01 X176.6854 Y23.0792 Z-2.0043
G01 X176.7139 Y23.1174 Z-2.0162
G01 X176.7442 Y23.1541 Z-2.0280
G01 X176.7763 Y23.1893 Z-2.0399
G01 X176.8099 Y23.2229 Z-2.0518
G01 X176.8451 Y23.2549 Z-2.0636
G01 X176.8818 Y23.2852 Z-2.0755
G01 X176.9199 Y23.3138 Z-2.0874
G01 X176.9594 Y23.3404 Z-2.0992
G01 X177.0000 Y23.3652 Z-2.1111
G01 X177.0418 Y23.3880 Z-2.1230
G01 X177.0846 Y23.4088 Z-2.1348
G01 X177.1283 Y23.4276 Z-2.1467
G01 X177.1729 Y23.4442 Z-2.1586
G01 X177.2183 Y23.4587 Z-2.1705
G01 X177.2642 Y23.4710 Z-2.1823
G01 X177.3107 Y23.4811 Z-2.1942
G01 X177.3577 Y23.4890 Z-2.2061
G01 X177.4049 Y23.4947 Z-2.2179
G01 X177.4524 Y23.4981 Z-2.2298
G01 X177.5000 Y23.4992 Z-2.2417
G01 X177.5476 Y23.4981 Z-2.2535
G01 X177.5950 Y23.4947 Z-2.2654
G01 X177.6423 Y23.4890 Z-2.2773
G01 X177.6892 Y23.4811 Z-2.2891
G01 X177.7358 Y23.4710 Z-2.3010
G01 X177.7817 Y23.4587 Z-2.3129
G01 X177.8271 Y23.4442 Z-2.3247
G01 X177.8717 Y23.4276 Z-2.3366
G01 X177.9154 Y23.4088 Z-2.3485
G01 X177.9582 Y23.3880 Z-2.3604
G01 X178.0000 Y23.3652 Z-2.3722
G01 X178.0406 Y23.3404 Z-2.3841
G01 X178.0801 Y23.3138 Z-2.3960
G01 X178.1182 Y23.2852 Z-2.4078
G01 X178.1549 Y23.2549 Z-2.4197
G01 X178.1901 Y23.2229 Z-2.4316
G01 X178.2237 Y23.1893 Z-2.4434
G01 X178.2557 Y23.1541 Z-2.4553
G01 X178.2860 Y23.1174 Z-2.4672
G01 X178.3146 Y23.0792 Z-2.4790
G01 X178.3412 Y23.0398 Z-2.4909
G01 X178.3660 Y22.9992 Z-2.5028
G01 X178.3888 Y22.9574 Z-2.5146
G01 X178.4096 Y22.9146 Z-2.5265
G01 X178.4284 Y22.8709 Z-2.5384
G01 X178.4450 Y22.8263 Z-2.5503
G01 X178.4595 Y22.7809 Z-2.5621
G01 X178.4718 Y22.7350 Z-2.5740
G01 X178.4819 Y22.6884 Z-2.5859
G01 X178.4898 Y22.6415 Z-2.5977
G01 X178.4955 Y22.5942 Z-2.6096
G01 X178.4989 Y22.5468 Z-2.6215
G01 X178.5000 Y22.4992 Z-2.6333
G01 X178.4962 Y22.4120
G01 X178.4848 Y22.3255
G01 X178.4659 Y22.2404
G01 X178.4397 Y22.1572
G01 X178.4063 Y22.0766
G01 X178.3660 Y21.9992
G01 X178.3191 Y21.9256
G01 X178.2660 Y21.8564
G01 X178.2071 Y21.7921
G01 X178.1428 Y21.7331
G01 X178.0736 Y21.6800
G01 X178.0000 Y21.6332
G01 X177.9226 Y21.5929
G01 X177.8420 Y21.5595
G01 X177.7588 Y21.5333
G01 X177.6736 Y21.5144
G01 X177.5871 Y21.5030
G01 X177.5000 Y21.4992
G01 X177.4128 Y21.5030
G01 X177.3263 Y21.5144
G01 X177.2412 Y21.5333
G01 X177.1580 Y21.5595
G01 X177.0774 Y21.5929
G01 X177.0000 Y21.6332
G01 X176.9594 Y21.6579
G01 X176.9199 Y21.6846
G01 X176.8818 Y21.7131
G01 X176.8451 Y21.7434
G01 X176.8099 Y21.7755
G01 X176.7763 Y21.8091
G01 X176.7442 Y21.8443
G01 X176.7139 Y21.8810
G01 X176.6854 Y21.9191
G01 X176.6587 Y21.9586
G01 X176.6340 Y21.9992
G01 X176.6112 Y22.0410
G01 X176.5904 Y22.0838
G01 X176.5716 Y22.1275
G01 X176.5550 Y22.1721
G01 X176.5405 Y22.2175
G01 X176.5282 Y22.2634
G01 X176.5181 Y22.3099
G01 X176.5102 Y22.3569
G01 X176.5045 Y22.4041
G01 X176.5011 Y22.4516
G01 X176.5000 Y22.4992
M107
M106 S240
G01 X176.5011 Y22.5468
G01 X176.5045 Y22.5942
G01 X176.5102 Y22.6415
G01 X176.5181 Y22.6884
G01 X176.5282 Y22.7350
G01 X176.5405 Y22.7809
G01 X176.5550 Y22.8263
G01 X176.5716 Y22.8709
G01 X176.5904 Y22.9146
G01 X176.6112 Y22.9574
G01 X176.6340 Y22.9992
G01 X176.6587 Y23.0398
G01 X176.6854 Y23.0792
G01 X176.7139 Y23.1174
G01 X176.7442 Y23.1541
G01 X176.7763 Y23.1893
G01 X176.8099 Y23.2229
G01 X176.8451 Y23.2549
G01 X176.8818 Y23.2852
G01 X176.9199 Y23.3138
G01 X176.9594 Y23.3404
G01 X177.0000 Y23.3652
G01 X177.0418 Y23.3880
G01 X177.0846 Y23.4088
G01 X177.1283 Y23.4276
G01 X177.1729 Y23.4442
G01 X177.2183 Y23.4587
G01 X177.2642 Y23.4710
G01 X177.3107 Y23.4811
G01 X177.3577 Y23.4890
G01 X177.4049 Y23.4947
G01 X177.4524 Y23.4981
G01 X177.5000 Y23.4992
G01 X177.5476 Y23.4981
G01 X177.5950 Y23.4947
G01 X177.6423 Y23.4890
G01 X177.6892 Y23.4811
G01 X177.7358 Y23.4710
G01 X177.7817 Y23.4587
G01 X177.8271 Y23.4442
G01 X177.8717 Y23.4276
G01 X177.9154 Y23.4088
G01 X177.9582 Y23.3880
G01 X178.0000 Y23.3652
G01 X178.0406 Y23.3404
G01 X178.0801 Y23.3138
G01 X178.1182 Y23.2852
G01 X178.1549 Y23.2549
G01 X178.1901 Y23.2229
G01 X178.2237 Y23.1893
G01 X178.2557 Y23.1541
G01 X178.2860 Y23.1174
G01 X178.3146 Y23.0792
G01 X178.3412 Y23.0398
G01 X178.3660 Y22.9992
G01 X178.3888 Y22.9574
G01 X178.4096 Y22.9146
G01 X178.4284 Y22.8709
G01 X178.4450 Y22.8263
G01 X178.4595 Y22.7809
G01 X178.4718 Y22.7350
G01 X178.4819 Y22.6884
G01 X178.4898 Y22.6415
G01 X178.4955 Y22.5942
G01 X178.4989 Y22.5468
G01 X178.5000 Y22.4992
G01 X178.5107 Y22.4476 F1000
G01 X178.5188 Y22.3955
G01 X178.5242 Y22.3431
G01 X178.5269 Y22.2905
G01 X178.5268 Y22.2378
G01 X178.5241 Y22.1851
G01 X178.5186 Y22.1327
G01 X178.5105 Y22.0806
G01 X178.4988 Y22.0246
G01 X178.4842 Y21.9693
G01 X178.4668 Y21.9148
G01 X178.4467 Y21.8613
G01 X178.4239 Y21.8089
G01 X178.3984 Y21.7577
G01 X178.3703 Y21.7078
G01 X178.3397 Y21.6595
G01 X178.3041 Y21.6091
G01 X178.2659 Y21.5606
G01 X178.2254 Y21.5141
G01 X178.1826 Y21.4697
G01 X178.1375 Y21.4275
G01 X178.0904 Y21.3877
G01 X178.0412 Y21.3503
G01 X177.9903 Y21.3155
G01 X177.9338 Y21.2809
G01 X177.8756 Y21.2492
G01 X177.8159 Y21.2206
G01 X177.7549 Y21.1949
G01 X177.6926 Y21.1724
G01 X177.6292 Y21.1531
G01 X177.5650 Y21.1370
G01 X177.5000 Y21.1242
G01 X177.4300 Y21.1140
G01 X177.3595 Y21.1074
G01 X177.2888 Y21.1043
G01 X177.2180 Y21.1048
G01 X177.1474 Y21.1088
G01 X177.0770 Y21.1164
G01 X177.0072 Y21.1276
G01 X176.9379 Y21.1422
G01 X176.8698 Y21.1683
G01 X176.8030 Y21.1976
G01 X176.7377 Y21.2302
G01 X176.6741 Y21.2659
G01 X176.6124 Y21.3048
G01 X176.5526 Y21.3466
G01 X176.4950 Y21.3913
G01 X176.4396 Y21.4388
G01 X176.3889 Y21.4922
G01 X176.3408 Y21.5479
G01 X176.2955 Y21.6059
G01 X176.2532 Y21.6661
G01 X176.2138 Y21.7283
G01 X176.1775 Y21.7923
G01 X176.1444 Y21.8581
G01 X176.1146 Y21.9253
G01 X176.0881 Y21.9940
G01 X176.0650 Y22.0639
G01 X176.0454 Y22.1348
G01 X176.0293 Y22.2066
G01 X176.0167 Y22.2792
G01 X176.0077 Y22.3522
G01 X176.0022 Y22.4256
G01 X176.0004 Y22.4992
G01 X176.0022 Y22.5728
G01 X176.0077 Y22.6462
G01 X176.0167 Y22.7192
G01 X176.0293 Y22.7917
G01 X176.0454 Y22.8636
G01 X176.0650 Y22.9345
G01 X176.0881 Y23.0044
G01 X176.1146 Y23.0730
G01 X176.1444 Y23.1403
G01 X176.1775 Y23.2061
G01 X176.2138 Y23.2701
G01 X176.2532 Y23.3323
G01 X176.2955 Y23.3925
G01 X176.3408 Y23.4505
G01 X176.3889 Y23.5062
G01 X176.4396 Y23.5595
G01 X176.4930 Y23.6103
G01 X176.5487 Y23.6584
G01 X176.6067 Y23.7036
G01 X176.6669 Y23.7460
G01 X176.7291 Y23.7854
G01 X176.7931 Y23.8217
G01 X176.8589 Y23.8548
G01 X176.9261 Y23.8846
G01 X176.9948 Y23.9111
G01 X177.0647 Y23.9342
G01 X177.1356 Y23.9538
G01 X177.2074 Y23.9699
G01 X177.2800 Y23.9825
G01 X177.3530 Y23.9915
G01 X177.4264 Y23.9969
G01 X177.5000 Y23.9987
G01 X177.5736 Y23.9969
G01 X177.6470 Y23.9915
G01 X177.7200 Y23.9825
G01 X177.7925 Y23.9699
G01 X177.8644 Y23.9538
G01 X177.9353 Y23.9342
G01 X178.0052 Y23.9111
G01 X178.0738 Y23.8846
G01 X178.1411 Y23.8548
G01 X178.2069 Y23.8217
G01 X178.2709 Y23.7854
G01 X178.3331 Y23.7460
G01 X178.3933 Y23.7036
G01 X178.4513 Y23.6584
G01 X178.5070 Y23.6103
G01 X178.5603 Y23.5595
G01 X178.6111 Y23.5062
G01 X178.6592 Y23.4505
G01 X178.7044 Y23.3925
G01 X178.7468 Y23.3323
G01 X178.7862 Y23.2701
G01 X178.8225 Y23.2061
G01 X178.8556 Y23.1403
G01 X178.8854 Y23.0730
G01 X178.9119 Y23.0044
G01 X178.9350 Y22.9345
G01 X178.9546 Y22.8636
G01 X178.9707 Y22.7917
G01 X178.9833 Y22.7192
G01 X178.9923 Y22.6462
G01 X178.9977 Y22.5728
G01 X178.9995 Y22.4992
G01 X178.9954 Y22.3871
G01 X178.9828 Y22.2757
G01 X178.9619 Y22.1655
G01 X178.9329 Y22.0572
G01 X178.8959 Y21.9513
G01 X178.8510 Y21.8486
G01 X178.7986 Y21.7494
G01 X178.7390 Y21.6545
G01 X178.6724 Y21.5642
G01 X178.5992 Y21.4792
G01 X178.5199 Y21.3999
G01 X178.4349 Y21.3268
G01 X178.3447 Y21.2602
G01 X178.2498 Y21.2005
G01 X178.1506 Y21.1481
G01 X178.0478 Y21.1033
G01 X177.9420 Y21.0663
G01 X177.8337 Y21.0372
G01 X177.7235 Y21.0164
G01 X177.6121 Y21.0038
G01 X177.5000 Y20.9996
G01 X177.3879 Y21.0038
G01 X177.2765 Y21.0164
G01 X177.1663 Y21.0372
G01 X177.0580 Y21.0663
G01 X176.9521 Y21.1033
G01 X176.8494 Y21.1481
G01 X176.7502 Y21.2005
G01 X176.6553 Y21.2602
G01 X176.5650 Y21.3268
G01 X176.4800 Y21.3999
G01 X176.4007 Y21.4792
G01 X176.3276 Y21.5642
G01 X176.2610 Y21.6545
G01 X176.2013 Y21.7494
G01 X176.1489 Y21.8486
G01 X176.1041 Y21.9513
G01 X176.0671 Y22.0572
G01 X176.0380 Y22.1655
G01 X176.0172 Y22.2757
G01 X176.0046 Y22.3871
G01 X176.0004 Y22.4992
G01 X176.0046 Y22.6113
G01 X176.0172 Y22.7227
G01 X176.0380 Y22.8329
G01 X176.0671 Y22.9412
G01 X176.1041 Y23.0470
G01 X176.1489 Y23.1498
G01 X176.2013 Y23.2490
G01 X176.2610 Y23.3439
G01 X176.3276 Y23.4341
G01 X176.4007 Y23.5191
G01 X176.4800 Y23.5984
G01 X176.5650 Y23.6716
G01 X176.6553 Y23.7382
G01 X176.7502 Y23.7978
G01 X176.8494 Y23.8502
G01 X176.9521 Y23.8951
G01 X177.0580 Y23.9321
G01 X177.1663 Y23.9611
G01 X177.2765 Y23.9820
G01 X177.3879 Y23.9946
G01 X177.5000 Y23.9987
G01 X177.6121 Y23.9946
G01 X177.7235 Y23.9820
G01 X177.8337 Y23.9611
G01 X177.9420 Y23.9321
G01 X178.0478 Y23.8951
G01 X178.1506 Y23.8502
G01 X178.2498 Y23.7978
G01 X178.3447 Y23.7382
G01 X178.4349 Y23.6716
G01 X178.5199 Y23.5984
G01 X178.5992 Y23.5191
G01 X178.6724 Y23.4341
G01 X178.7390 Y23.3439
G01 X178.7986 Y23.2490
G01 X178.8510 Y23.1498
G01 X178.8959 Y23.0470
G01 X178.9329 Y22.9412
G01 X178.9619 Y22.8329
G01 X178.9828 Y22.7227
G01 X178.9954 Y22.6113
G01 X178.9995 Y22.4992
G01 X178.9957 Y22.4011
G01 X178.9842 Y22.3037
G01 X178.9650 Y22.2074
G01 X178.9384 Y22.1130
G01 X178.9044 Y22.0209
G01 X178.8633 Y21.9318
G01 X178.8154 Y21.8462
G01 X178.7609 Y21.7646
G01 X178.7001 Y21.6875
G01 X178.6335 Y21.6155
G01 X178.5614 Y21.5489
G01 X178.4844 Y21.4881
G01 X178.4028 Y21.4336
G01 X178.3172 Y21.3856
G01 X178.2280 Y21.3445
G01 X178.1360 Y21.3106
G01 X178.0415 Y21.2839
G01 X177.9453 Y21.2648
G01 X177.8478 Y21.2533
G01 X177.7498 Y21.2494
G01 X177.6517 Y21.2533
G01 X177.5543 Y21.2648
G01 X177.4580 Y21.2839
G01 X177.3636 Y21.3106
G01 X177.2715 Y21.3445
G01 X177.1824 Y21.3856
G01 X177.0968 Y21.4336
G01 X177.0152 Y21.4881
G01 X176.9381 Y21.5489
G01 X176.8660 Y21.6155
G01 X176.7994 Y21.6875
G01 X176.7387 Y21.7646
G01 X176.6842 Y21.8462
G01 X176.6362 Y21.9318
G01 X176.5951 Y22.0209
G01 X176.5612 Y22.1130
G01 X176.5345 Y22.2074
G01 X176.5154 Y22.3037
G01 X176.5038 Y22.4011
G01 X176.5000 Y22.4992
G01 X176.5038 Y22.5863
G01 X176.5152 Y22.6728
G01 X176.5341 Y22.7580
G01 X176.5603 Y22.8412
G01 X176.5937 Y22.9218
G01 X176.6340 Y22.9992
G01 X176.6808 Y23.0728
G01 X176.7339 Y23.1420
G01 X176.7929 Y23.2063
G01 X176.8572 Y23.2652
G01 X176.9264 Y23.3183
G01 X177.0000 Y23.3652
G01 X177.0774 Y23.4055
G01 X177.1580 Y23.4389
G01 X177.2412 Y23.4651
G01 X177.3263 Y23.4840
G01 X177.4128 Y23.4954
G01 X177.5000 Y23.4992
G01 X177.5871 Y23.4954
G01 X177.6736 Y23.4840
G01 X177.7588 Y23.4651
G01 X177.8420 Y23.4389
G01 X177.9226 Y23.4055
G01 X178.0000 Y23.3652
G01 X178.0736 Y23.3183
G01 X178.1428 Y23.2652
G01 X178.2071 Y23.2063
G01 X178.2660 Y23.1420
G01 X178.3191 Y23.0728
G01 X178.3660 Y22.9992
G01 X178.4063 Y22.9218
G01 X178.4397 Y22.8412
G01 X178.4659 Y22.7580
G01 X178.4848 Y22.6728
G01 X178.4962 Y22.5863
G01 X178.5000 Y22.4992
M107
M106 S240
G01 X178.4962 Y22.4120 Z-2.6551 F400
G01 X178.4848 Y22.3255 Z-2.6769
G01 X178.4659 Y22.2404 Z-2.6986
G01 X178.4397 Y22.1572 Z-2.7204
G01 X178.4063 Y22.0766 Z-2.7421
G01 X178.3660 Y21.9992 Z-2.7639
G01 X178.3191 Y21.9256 Z-2.7856
G01 X178.2660 Y21.8564 Z-2.8074
G01 X178.2071 Y21.7921 Z-2.8292
G01 X178.1428 Y21.7331 Z-2.8509
G01 X178.0736 Y21.6800 Z-2.8727
G01 X178.0000 Y21.6332 Z-2.8944
G01 X177.9226 Y21.5929 Z-2.9162
G01 X177.8420 Y21.5595 Z-2.9380
G01 X177.7588 Y21.5333 Z-2.9597
G01 X177.6736 Y21.5144 Z-2.9815
G01 X177.5871 Y21.5030 Z-3.0032
G01 X177.5000 Y21.4992 Z-3.0250
G01 X177.4128 Y21.5030 Z-3.0468
G01 X177.3263 Y21.5144 Z-3.0685
G01 X177.2412 Y21.5333 Z-3.0903
G01 X177.1580 Y21.5595 Z-3.1120
G01 X177.0774 Y21.5929 Z-3.1338
G01 X177.0000 Y21.6332 Z-3.1556
G01 X176.9594 Y21.6579 Z-3.1674
G01 X176.9199 Y21.6846 Z-3.1793
G01 X176.8818 Y21.7131 Z-3.1912
G01 X176.8451 Y21.7434 Z-3.2030
G01 X176.8099 Y21.7755 Z-3.2149
G01 X176.7763 Y21.8091 Z-3.2268
G01 X176.7442 Y21.8443 Z-3.2386
G01 X176.7139 Y21.8810 Z-3.2505
G01 X176.6854 Y21.9191 Z-3.2624
G01 X176.6587 Y21.9586 Z-3.2742
G01 X176.6340 Y21.9992 Z-3.2861
G01 X176.6112 Y22.0410 Z-3.2980
G01 X176.5904 Y22.0838 Z-3.3098
G01 X176.5716 Y22.1275 Z-3.3217
G01 X176.5550 Y22.1721 Z-3.3336
G01 X176.5405 Y22.2175 Z-3.3455
G01 X176.5282 Y22.2634 Z-3.3573
G01 X176.5181 Y22.3099 Z-3.3692
G01 X176.5102 Y22.3569 Z-3.3811
G01 X176.5045 Y22.4041 Z-3.3929
G01 X176.5011 Y22.4516 Z-3.4048
G01 X176.5000 Y22.4992 Z-3.4167
G01 X176.5011 Y22.5468 Z-3.4285
G01 X176.5045 Y22.5942 Z-3.4404
G01 X176.5102 Y22.6415 Z-3.4523
G01 X176.5181 Y22.6884 Z-3.4641
G01 X176.5282 Y22.7350 Z-3.4760
G01 X176.5405 Y22.7809 Z-3.4879
G01 X176.5550 Y22.8263 Z-3.4997
G01 X176.5716 Y22.8709 Z-3.5116
G01 X176.5904 Y22.9146 Z-3.5235
G01 X176.6112 Y22.9574 Z-3.5354
G01 X176.6340 Y22.9992 Z-3.5472
G01 X176.6587 Y23.0398 Z-3.5591
G01 X176.6854 Y23.0792 Z-3.5710
G01 X176.7139 Y23.1174 Z-3.5828
G01 X176.7442 Y23.1541 Z-3.5947
G01 X176.7763 Y23.1893 Z-3.6066
G01 X176.8099 Y23.2229 Z-3.6184
G01 X176.8451 Y23.2549 Z-3.6303
G01 X176.8818 Y23.2852 Z-3.6422
G01 X176.9199 Y23.3138 Z-3.6540
G01 X176.9594 Y23.3404 Z-3.6659
G01 X177.0000 Y23.3652 Z-3.6778
G01 X177.0418 Y23.3880 Z-3.6896
G01 X177.0846 Y23.4088 Z-3.7015
G01 X177.1283 Y23.4276 Z-3.7134
G01 X177.1729 Y23.4442 Z-3.7253
G01 X177.2183 Y23.4587 Z-3.7371
G01 X177.2642 Y23.4710 Z-3.7490
G01 X177.3107 Y23.4811 Z-3.7609
G01 X177.3577 Y23.4890 Z-3.7727
G01 X177.4049 Y23.4947 Z-3.7846
G01 X177.4524 Y23.4981 Z-3.7965
G01 X177.5000 Y23.4992 Z-3.8083
G01 X177.5476 Y23.4981 Z-3.8202
G01 X177.5950 Y23.4947 Z-3.8321
G01 X177.6423 Y23.4890 Z-3.8439
G01 X177.6892 Y23.4811 Z-3.8558
G01 X177.7358 Y23.4710 Z-3.8677
G01 X177.7817 Y23.4587 Z-3.8795
G01 X177.8271 Y23.4442 Z-3.8914
G01 X177.8717 Y23.4276 Z-3.9033
G01 X177.9154 Y23.4088 Z-3.9152
G01 X177.9582 Y23.3880 Z-3.9270
G01 X178.0000 Y23.3652 Z-3.9389
G01 X178.0406 Y23.3404 Z-3.9508
G01 X178.0801 Y23.3138 Z-3.9626
G01 X178.1182 Y23.2852 Z-3.9745
G01 X178.1549 Y23.2549 Z-3.9864
G01 X178.1901 Y23.2229 Z-3.9982
G01 X178.2237 Y23.1893 Z-4.0101
G01 X178.2557 Y23.1541 Z-4.0220
G01 X178.2860 Y23.1174 Z-4.0338
G01 X178.3146 Y23.0792 Z-4.0457
G01 X178.3412 Y23.0398 Z-4.0576
G01 X178.3660 Y22.9992 Z-4.0694
G01 X178.3888 Y22.9574 Z-4.0813
G01 X178.4096 Y22.9146 Z-4.0932
G01 X178.4284 Y22.8709 Z-4.1051
G01 X178.4450 Y22.8263 Z-4.1169
G01 X178.4595 Y22.7809 Z-4.1288
G01 X178.4718 Y22.7350 Z-4.1407
G01 X178.4819 Y22.6884 Z-4.1525
G01 X178.4898 Y22.6415 Z-4.1644
G01 X178.4955 Y22.5942 Z-4.1763
G01 X178.4989 Y22.5468 Z-4.1881
G01 X178.5000 Y22.4992 Z-4.2000
G01 X178.4962 Y22.4120
G01 X178.4848 Y22.3255
G01 X178.4659 Y22.2404
G01 X178.4397 Y22.1572
G01 X178.4063 Y22.0766
G01 X178.3660 Y21.9992
G01 X178.3191 Y21.9256
G01 X178.2660 Y21.8564
G01 X178.2071 Y21.7921
G01 X178.1428 Y21.7331
G01 X178.0736 Y21.6800
G01 X178.0000 Y21.6332
G01 X177.9226 Y21.5929
G01 X177.8420 Y21.5595
G01 X177.7588 Y21.5333
G01 X177.6736 Y21.5144
G01 X177.5871 Y21.5030
G01 X177.5000 Y21.4992
G01 X177.4128 Y21.5030
G01 X177.3263 Y21.5144
G01 X177.2412 Y21.5333
G01 X177.1580 Y21.5595
G01 X177.0774 Y21.5929
G01 X177.0000 Y21.6332
G01 X176.9594 Y21.6579
G01 X176.9199 Y21.6846
G01 X176.8818 Y21.7131
G01 X176.8451 Y21.7434
G01 X176.8099 Y21.7755
G01 X176.7763 Y21.8091
G01 X176.7442 Y21.8443
G01 X176.7139 Y21.8810
G01 X176.6854 Y21.9191
G01 X176.6587 Y21.9586
G01 X176.6340 Y21.9992
G01 X176.6112 Y22.0410
G01 X176.5904 Y22.0838
G01 X176.5716 Y22.1275
G01 X176.5550 Y22.1721
G01 X176.5405 Y22.2175
G01 X176.5282 Y22.2634
G01 X176.5181 Y22.3099
G01 X176.5102 Y22.3569
G01 X176.5045 Y22.4041
G01 X176.5011 Y22.4516
G01 X176.5000 Y22.4992
G01 X176.5011 Y22.5468
G01 X176.5045 Y22.5942
G01 X176.5102 Y22.6415
G01 X176.5181 Y22.6884
G01 X176.5282 Y22.7350
G01 X176.5405 Y22.7809
G01 X176.5550 Y22.8263
G01 X176.5716 Y22.8709
G01 X176.5904 Y22.9146
G01 X176.6112 Y22.9574
G01 X176.6340 Y22.9992
G01 X176.6587 Y23.0398
G01 X176.6854 Y23.0792
G01 X176.7139 Y23.1174
G01 X176.7442 Y23.1541
G01 X176.7763 Y23.1893
G01 X176.8099 Y23.2229
G01 X176.8451 Y23.2549
G01 X176.8818 Y23.2852
G01 X176.9199 Y23.3138
G01 X176.9594 Y23.3404
G01 X177.0000 Y23.3652
G01 X177.0418 Y23.3880
G01 X177.0846 Y23.4088
G01 X177.1283 Y23.4276
G01 X177.1729 Y23.4442
G01 X177.2183 Y23.4587
G01 X177.2642 Y23.4710
G01 X177.3107 Y23.4811
G01 X177.3577 Y23.4890
G01 X177.4049 Y23.4947
G01 X177.4524 Y23.4981
G01 X177.5000 Y23.4992
G01 X177.5476 Y23.4981
G01 X177.5950 Y23.4947
G01 X177.6423 Y23.4890
G01 X177.6892 Y23.4811
G01 X177.7358 Y23.4710
G01 X177.7817 Y23.4587
G01 X177.8271 Y23.4442
G01 X177.8717 Y23.4276
G01 X177.9154 Y23.4088
G01 X177.9582 Y23.3880
G01 X178.0000 Y23.3652
G01 X178.0406 Y23.3404
G01 X178.0801 Y23.3138
G01 X178.1182 Y23.2852
G01 X178.1549 Y23.2549
G01 X178.1901 Y23.2229
G01 X178.2237 Y23.1893
G01 X178.2557 Y23.1541
G01 X178.2860 Y23.1174
G01 X178.3146 Y23.0792
G01 X178.3412 Y23.0398
G01 X178.3660 Y22.9992
G01 X178.3888 Y22.9574
G01 X178.4096 Y22.9146
G01 X178.4284 Y22.8709
G01 X178.4450 Y22.8263
G01 X178.4595 Y22.7809
G01 X178.4718 Y22.7350
G01 X178.4819 Y22.6884
G01 X178.4898 Y22.6415
G01 X178.4955 Y22.5942
G01 X178.4989 Y22.5468
G01 X178.5000 Y22.4992
G01 X178.5107 Y22.4476 F1000
G01 X178.5188 Y22.3955
G01 X178.5242 Y22.3431
G01 X178.5269 Y22.2905
G01 X178.5268 Y22.2378
G01 X178.5241 Y22.1851
G01 X178.5186 Y22.1327
G01 X178.5105 Y22.0806
G01 X178.4988 Y22.0246
G01 X178.4842 Y21.9693
G01 X178.4668 Y21.9148
G01 X178.4467 Y21.8613
G01 X178.4239 Y21.8089
G01 X178.3984 Y21.7577
G01 X178.3703 Y21.7078
G01 X178.3397 Y21.6595
G01 X178.3041 Y21.6091
G01 X178.2659 Y21.5606
G01 X178.2254 Y21.5141
G01 X178.1826 Y21.4697
G01 X178.1375 Y21.4275
G01 X178.0904 Y21.3877
G01 X178.0412 Y21.3503
G01 X177.9903 Y21.3155
G01 X177.9338 Y21.2809
G01 X177.8756 Y21.2492
G01 X177.8159 Y21.2206
G01 X177.7549 Y21.1949
G01 X177.6926 Y21.1724
G01 X177.6292 Y21.1531
G01 X177.5650 Y21.1370
G01 X177.5000 Y21.1242
G01 X177.4300 Y21.1140
G01 X177.3595 Y21.1074
G01 X177.2888 Y21.1043
G01 X177.2180 Y21.1048
G01 X177.1474 Y21.1088
G01 X177.0770 Y21.1164
G01 X177.0072 Y21.1276
G01 X176.9379 Y21.1422
G01 X176.8698 Y21.1683
G01 X176.8030 Y21.1976
G01 X176.7377 Y21.2302
G01 X176.6741 Y21.2659
G01 X176.6124 Y21.3048
G01 X176.5526 Y21.3466
G01 X176.4950 Y21.3913
G01 X176.4396 Y21.4388
G01 X176.3889 Y21.4922
G01 X176.3408 Y21.5479
G01 X176.2955 Y21.6059
G01 X176.2532 Y21.6661
G01 X176.2138 Y21.7283
G01 X176.1775 Y21.7923
G01 X176.1444 Y21.8581
G01 X176.1146 Y21.9253
G01 X176.0881 Y21.9940
G01 X176.0650 Y22.0639
G01 X176.0454 Y22.1348
G01 X176.0293 Y22.2066
G01 X176.0167 Y22.2792
G01 X176.0077 Y22.3522
G01 X176.0022 Y22.4256
G01 X176.0004 Y22.4992
G01 X176.0022 Y22.5728
G01 X176.0077 Y22.6462
G01 X176.0167 Y22.7192
G01 X176.0293 Y22.7917
G01 X176.0454 Y22.8636
G01 X176.0650 Y22.9345
G01 X176.0881 Y23.0044
G01 X176.1146 Y23.0730
G01 X176.1444 Y23.1403
G01 X176.1775 Y23.2061
G01 X176.2138 Y23.2701
G01 X176.2532 Y23.3323
G01 X176.2955 Y23.3925
G01 X176.3408 Y23.4505
G01 X176.3889 Y23.5062
G01 X176.4396 Y23.5595
G01 X176.4930 Y23.6103
G01 X176.5487 Y23.6584
G01 X176.6067 Y23.7036
G01 X176.6669 Y23.7460
G01 X176.7291 Y23.7854
G01 X176.7931 Y23.8217
G01 X176.8589 Y23.8548
G01 X176.9261 Y23.8846
G01 X176.9948 Y23.9111
G01 X177.0647 Y23.9342
G01 X177.1356 Y23.9538
G01 X177.2074 Y23.9699
G01 X177.2800 Y23.9825
G01 X177.3530 Y23.9915
G01 X177.4264 Y23.9969
G01 X177.5000 Y23.9987
G01 X177.5736 Y23.9969
G01 X177.6470 Y23.9915
G01 X177.7200 Y23.9825
G01 X177.7925 Y23.9699
G01 X177.8644 Y23.9538
G01 X177.9353 Y23.9342
G01 X178.0052 Y23.9111
G01 X178.0738 Y23.8846
G01 X178.1411 Y23.8548
G01 X178.2069 Y23.8217
G01 X178.2709 Y23.7854
G01 X178.3331 Y23.7460
G01 X178.3933 Y23.7036
G01 X178.4513 Y23.6584
G01 X178.5070 Y23.6103
G01 X178.5603 Y23.5595
G01 X178.6111 Y23.5062
G01 X178.6592 Y23.4505
G01 X178.7044 Y23.3925
G01 X178.7468 Y23.3323
G01 X178.7862 Y23.2701
G01 X178.8225 Y23.2061
G01 X178.8556 Y23.1403
G01 X178.8854 Y23.0730
G01 X178.9119 Y23.0044
G01 X178.9350 Y22.9345
G01 X178.9546 Y22.8636
G01 X178.9707 Y22.7917
G01 X178.9833 Y22.7192
G01 X178.9923 Y22.6462
G01 X178.9977 Y22.5728
G01 X178.9995 Y22.4992
G01 X178.9954 Y22.3871
G01 X178.9828 Y22.2757
G01 X178.9619 Y22.1655
G01 X178.9329 Y22.0572
G01 X178.8959 Y21.9513
G01 X178.8510 Y21.8486
G01 X178.7986 Y21.7494
G01 X178.7390 Y21.6545
G01 X178.6724 Y21.5642
G01 X178.5992 Y21.4792
G01 X178.5199 Y21.3999
G01 X178.4349 Y21.3268
G01 X178.3447 Y21.2602
G01 X178.2498 Y21.2005
G01 X178.1506 Y21.1481
G01 X178.0478 Y21.1033
G01 X177.9420 Y21.0663
G01 X177.8337 Y21.0372
G01 X177.7235 Y21.0164
G01 X177.6121 Y21.0038
G01 X177.5000 Y20.9996
G01 X177.3879 Y21.0038
G01 X177.2765 Y21.0164
G01 X177.1663 Y21.0372
G01 X177.0580 Y21.0663
G01 X176.9521 Y21.1033
G01 X176.8494 Y21.1481
G01 X176.7502 Y21.2005
G01 X176.6553 Y21.2602
G01 X176.5650 Y21.3268
G01 X176.4800 Y21.3999
G01 X176.4007 Y21.4792
G01 X176.3276 Y21.5642
G01 X176.2610 Y21.6545
G01 X176.2013 Y21.7494
G01 X176.1489 Y21.8486
G01 X176.1041 Y21.9513
G01 X176.0671 Y22.0572
G01 X176.0380 Y22.1655
G01 X176.0172 Y22.2757
G01 X176.0046 Y22.3871
G01 X176.0004 Y22.4992
G01 X176.0046 Y22.6113
G01 X176.0172 Y22.7227
G01 X176.0380 Y22.8329
G01 X176.0671 Y22.9412
G01 X176.1041 Y23.0470
G01 X176.1489 Y23.1498
G01 X176.2013 Y23.2490
G01 X176.2610 Y23.3439
G01 X176.3276 Y23.4341
G01 X176.4007 Y23.5191
G01 X176.4800 Y23.5984
G01 X176.5650 Y23.6716
G01 X176.6553 Y23.7382
G01 X176.7502 Y23.7978
G01 X176.8494 Y23.8502
G01 X176.9521 Y23.8951
G01 X177.0580 Y23.9321
G01 X177.1663 Y23.9611
G01 X177.2765 Y23.9820
G01 X177.3879 Y23.9946
G01 X177.5000 Y23.9987
G01 X177.6121 Y23.9946
G01 X177.7235 Y23.9820
G01 X177.8337 Y23.9611
G01 X177.9420 Y23.9321
G01 X178.0478 Y23.8951
G01 X178.1506 Y23.8502
G01 X178.2498 Y23.7978
G01 X178.3447 Y23.7382
G01 X178.4349 Y23.6716
G01 X178.5199 Y23.5984
G01 X178.5992 Y23.5191
G01 X178.6724 Y23.4341
G01 X178.7390 Y23.3439
G01 X178.7986 Y23.2490
G01 X178.8510 Y23.1498
G01 X178.8959 Y23.0470
G01 X178.9329 Y22.9412
G01 X178.9619 Y22.8329
G01 X178.9828 Y22.7227
G01 X178.9954 Y22.6113
G01 X178.9995 Y22.4992
M107
M106 S240
G01 X178.9965 Y22.4207 Z-4.1750 F400
M107
M106 S240
G01 X178.9872 Y22.3428 Z-4.1500
M107
M106 S240
G01 X178.9719 Y22.2657 Z-4.1250
M107
M106 S240
G01 X178.9506 Y22.1902 Z-4.1000
M107
M106 S240
G01 X178.9234 Y22.1165 Z-4.0750
M107
M106 S240
G01 X178.8906 Y22.0452 Z-4.0500
M107
M106 S240
G01 X178.8522 Y21.9767 Z-4.0250
M107
M106 S240
G01 X178.8086 Y21.9114 Z-4.0000
M107
M106 S240
G01 X178.7600 Y21.8497 Z-3.9750
M107
M106 S240
G01 X178.7067 Y21.7921 Z-3.9500
M107
M106 S240
G01 X178.6490 Y21.7388 Z-3.9250
M107
M106 S240
G01 X178.5873 Y21.6902 Z-3.9000
M107
M106 S240
G01 X178.5220 Y21.6466 Z-3.8750
M107
M106 S240
G01 X178.4535 Y21.6082 Z-3.8500
M107
M106 S240
G01 X178.3822 Y21.5753 Z-3.8250
M107
M106 S240
G01 X178.3086 Y21.5481 Z-3.8000
M107
M106 S240
G01 X178.2330 Y21.5268 Z-3.7750
M107
M106 S240
G01 X178.1560 Y21.5115 Z-3.7500
M107
M106 S240
G01 X178.0780 Y21.5023 Z-3.7250
M107
M106 S240
G01 X177.9995 Y21.4992 Z-3.7000
M107
G00 Z2.0000


;No. 10: Hole 10
G00 X173.7997 Y41.4083 Z2.0000
G00 Z0.5000
G01 Z0.0000 F400
G01 Z-1.5000
M106 S240
G01 X171.2418 F1000
G01 Y42.9083
G01 X173.7997
G01 Y44.4083
G01 X171.2418
G01 Y45.9083
G01 X173.7997
G01 Y47.4083
G01 X171.2418
G01 X173.7997 Y48.9083
G01 X151.1429
G01 Y47.4083
G01 X153.7008
G01 Y45.9083
G01 X151.1429
G01 Y44.4083
G01 X153.7008
G01 Y42.9083
G01 X151.1429
G01 Y41.4083
G01 X153.7008
M107
G00 Z2.0000
G00 X151.1429 Y48.9083
G00 Z0.5000
G01 Z-1.5000 F400
M106 S240
G01 Y50.4083 F1000
G01 X173.7997
G01 X173.9997 Y50.3905
G01 Y40.4096
G01 X171.0418
G01 Y47.4491
G01 X171.0388 Y47.5276
G01 X171.0295 Y47.6056
G01 X171.0142 Y47.6826
G01 X170.9929 Y47.7581
G01 X170.9657 Y47.8318
G01 X170.9328 Y47.9031
G01 X170.8945 Y47.9716
G01 X170.8509 Y48.0369
G01 X170.8022 Y48.0986
G01 X170.7489 Y48.1562
G01 X170.6913 Y48.2095
G01 X170.6296 Y48.2581
G01 X170.5643 Y48.3018
G01 X170.4958 Y48.3401
G01 X170.4245 Y48.3730
G01 X170.3509 Y48.4002
G01 X170.2753 Y48.4215
G01 X170.1983 Y48.4368
G01 X170.1203 Y48.4460
G01 X170.0418 Y48.4491
G01 X154.9008
G01 X154.8571 Y48.4482
G01 X154.8136 Y48.4453
G01 X154.7702 Y48.4406
G01 X154.7271 Y48.4339
G01 X154.6843 Y48.4254
G01 X154.6419 Y48.4151
G01 X154.6001 Y48.4028
G01 X154.5587 Y48.3888
G01 X154.5181 Y48.3730
G01 X154.4781 Y48.3554
G01 X154.4390 Y48.3361
G01 X154.4008 Y48.3152
G01 X154.3635 Y48.2925
G01 X154.3272 Y48.2683
G01 X154.2920 Y48.2425
G01 X154.2580 Y48.2152
G01 X154.2252 Y48.1864
G01 X154.1937 Y48.1562
G01 X154.1635 Y48.1247
G01 X154.1347 Y48.0919
G01 X154.1074 Y48.0579
G01 X154.0816 Y48.0227
G01 X154.0574 Y47.9864
G01 X154.0347 Y47.9491
G01 X154.0138 Y47.9109
G01 X153.9945 Y47.8717
G01 X153.9769 Y47.8318
G01 X153.9611 Y47.7912
G01 X153.9470 Y47.7498
G01 X153.9348 Y47.7080
G01 X153.9245 Y47.6656
G01 X153.9160 Y47.6228
G01 X153.9093 Y47.5797
G01 X153.9046 Y47.5363
G01 X153.9017 Y47.4928
G01 X153.9008 Y47.4491
G01 Y40.4096
G01 X150.9429
G01 Y51.4070
G01 X173.9997
G01 Y50.3905
G01 X173.7997 Y50.4083
M107
G00 Z2.0000


;No. 11: Hole 2
G00 X100.4969 Y110.6480 Z2.0000
G00 Z0.5000
G01 Z0.0000 F400
G01 Z-1.8000
M106 S240
G01 X99.4630 F1000
G01 X99.1943 Y112.1480
G01 X100.7628
G01 X101.0288 Y113.6480
G01 X98.9256
G01 X98.6570 Y115.1480
G01 X101.2949
G01 X101.5611 Y116.6480
G01 X98.3883
G01 X98.1196 Y118.1480
G01 X101.8274
G01 X102.0937 Y119.6480
G01 X97.8509
G01 X97.5822 Y121.1480
G01 X102.3601
G01 X102.6266 Y122.6480
G01 X97.3135
G01 X97.0448 Y124.1480
G01 X102.8931
G01 X103.1597 Y125.6480
G01 X96.7762
G01 X96.5075 Y127.1480
G01 X103.4263
G01 X103.6929 Y128.6480
G01 X96.2388
G01 X95.9701 Y130.1480
G01 X103.9596
G01 X104.2263 Y131.6480
G01 X95.7014
G01 X95.4327 Y133.1480
G01 X104.4931
G01 X104.7599 Y134.6480
G01 X95.1640
G01 X94.8954 Y136.1480
G01 X105.0267
G01 X105.2936 Y137.6480
G01 X94.6267
G01 X94.3580 Y139.1480
G01 X105.5605
G01 X105.8274 Y140.6480
G01 X94.0893
G01 X93.8206 Y142.1480
G01 X106.0944
G01 X106.3614 Y143.6480
G01 X93.5519
G01 X93.2832 Y145.1480
G01 X106.6284
G01 X106.8954 Y146.6480
G01 X93.0146
G01 X92.7459 Y148.1480
G01 X107.1625
G01 X107.4296 Y149.6480
G01 X92.4772
G01 X92.2085 Y151.1480
G01 X107.6967
G01 X107.9639 Y152.6480
G01 X91.9398
G01 X91.6711 Y154.1480
G01 X108.2310
G01 X108.4982 Y155.6480
G01 X91.4024
G01 X91.1338 Y157.1480
G01 X108.7654
G01 X109.0327 Y158.6480
G01 X90.8651
G01 X90.5964 Y160.1480
G01 X109.2999
G01 X109.5672 Y161.6480
G01 X90.3277
G01 X90.0590 Y163.1480
G01 X109.8345
G01 X110.1019 Y164.6480
G01 X89.7903
G01 X89.5216 Y166.1480
G01 X110.3692
G01 X110.6366 Y167.6480
G01 X89.2529
G01 X88.9843 Y169.1480
G01 X110.9040
G01 X111.1714 Y170.6480
G01 X88.7156
G01 X88.4469 Y172.1480
G01 X111.4389
G01 X111.7064 Y173.6480
G01 X88.1782
G01 X87.9095 Y175.1480
G01 X111.9739
G01 X112.2414 Y176.6480
G01 X87.6408
G01 X87.3721 Y178.1480
G01 X112.5090
G01 X112.7766 Y179.6480
G01 X87.1035
G01 X86.8348 Y181.1480
G01 X113.0442
G01 X113.3118 Y182.6480
G01 X86.5661
G01 X86.2974 Y184.1480
G01 X113.5795
G01 X113.8472 Y185.6480
G01 X86.0287
G01 X85.7600 Y187.1480
G01 X114.1149
G01 X114.3827 Y188.6480
G01 X85.4913
G01 X85.2227 Y190.1480
G01 X114.6505
G01 X114.9184 Y191.6480
G01 X84.9540
G01 X84.6853 Y193.1480
G01 X115.1863
G01 X115.4542 Y194.6480
G01 X84.4166
G01 X84.1479 Y196.1480
G01 X115.7222
G01 X115.9903 Y197.6480
G01 X83.8792
G01 X83.6105 Y199.1480
G01 X116.2584
G01 X116.5265 Y200.6480
G01 X83.3419
G01 X83.0732 Y202.1480
G01 X116.7948
G01 X117.0631 Y203.6480
G01 X82.8045
G01 X82.5358 Y205.1480
G01 X117.3315
G01 X117.6000 Y206.6480
G01 X82.2671
G01 X81.9984 Y208.1480
G01 X117.8686
G01 X118.1374 Y209.6480
G01 X81.7297
G01 X81.4611 Y211.1480
G01 X118.4064
G01 X118.6756 Y212.6480
G01 X81.1924
G01 X80.9237 Y214.1480
G01 X118.9452
G01 X119.2154 Y215.6480
G01 X101.2638
G01 X102.4962 Y217.1480
G01 X119.4868
G01 X119.8243 Y218.6480
G01 X103.7287
G01 X104.9612 Y220.1480
G01 X165.0459
G01 X166.0121 Y221.6480
G01 X106.1937
G01 X107.4261 Y223.1480
G01 X162.4487
G01 X158.6098 Y224.6480
G01 X108.6586
G01 X109.8904 Y226.1480
G01 X154.3511
G01 X149.5834 Y227.6480
G01 X111.1242
G01 X112.3602 Y229.1480
G01 X144.1281
G01 X137.6458
G01 Y230.6480
G01 X113.5990
G01 X114.8421 Y232.1480
G01 X129.2999
M107
G00 Z2.0000
G00 X135.1835 Y220.1480
G00 Z0.5000
G01 Z-1.8000 F400
M106 S240
G01 Y218.6480 F1000
G01 X163.6674
G01 X162.1032 Y217.1480
G01 X141.6881
G01 X144.6541 Y215.6480
G01 X160.3443
G01 X158.3764 Y214.1480
G01 X146.4050
G01 X147.5312 Y212.6480
G01 X156.1777
G01 X153.6792 Y211.1480
G01 X148.2745
G01 X148.7618 Y209.6480
G01 X150.7837
M107
G00 Z2.0000
G00 X98.8323 Y214.1480
G00 Z0.5000
G01 Z-1.8000 F400
M106 S240
G01 Y215.6480 F1000
G01 X80.6550
G01 X80.3863 Y217.1480
G01 X97.5370
G01 X96.2725 Y218.6480
G01 X80.0757
G01 Y220.1480
G01 X95.0198
G01 X34.9196
G01 X33.9703 Y221.6480
G01 X93.7749
G01 X92.5361 Y223.1480
G01 X37.4792
G01 X41.3027 Y224.6480
G01 X91.3027
G01 X90.0717 Y226.1480
G01 X45.5633
G01 X50.3589
G01 Y227.6480
G01 X88.8407
G01 X87.6097 Y229.1480
G01 X55.8546
G01 X62.3649
G01 Y230.6480
G01 X86.3787
G01 X85.1478 Y232.1480
G01 X70.6847
M107
G00 Z2.0000
G00 X64.7661 Y220.1480
G00 Z0.5000
G01 Z-1.8000 F400
M106 S240
G01 Y218.6480 F1000
G01 X36.2928
G01 X37.8489 Y217.1480
G01 X58.2400
G01 X55.2890 Y215.6480
G01 X39.6030
G01 X41.5736 Y214.1480
G01 X53.5500
G01 X52.4249 Y212.6480
G01 X43.7846
G01 X46.2671 Y211.1480
G01 X51.6528
G01 X51.1819 Y209.6480
G01 X49.1243
G01 X49.0321 Y209.4704
G01 X48.0515 Y209.9588
G01 X47.0817 Y210.4684
G01 X46.1232 Y210.9990
G01 X45.1765 Y211.5502
G01 X44.2420 Y212.1220
G01 X43.3202 Y212.7139
G01 X42.4114 Y213.3258
G01 X41.5162 Y213.9572
G01 X40.6349 Y214.6080
G01 X39.7680 Y215.2779
G01 X38.9159 Y215.9664
G01 X38.0790 Y216.6733
G01 X37.4473 Y217.2397
G01 X36.8308 Y217.8226
G01 X36.2299 Y218.4215
G01 X35.6449 Y219.0361
G01 X35.0764 Y219.6658
G01 X34.5246 Y220.3103
G01 X33.9900 Y220.9691
G01 X33.4730 Y221.6418
G01 X35.4120 Y222.4894
G01 X37.3641 Y223.3065
G01 X39.3287 Y224.0929
G01 X41.3055 Y224.8484
G01 X43.2938 Y225.5729
G01 X45.2933 Y226.2660
G01 X47.3033 Y226.9278
G01 X49.3235 Y227.5579
G01 X51.3534 Y228.1563
G01 X53.3923 Y228.7228
G01 X55.4399 Y229.2573
G01 X57.4956 Y229.7596
G01 X59.6797 Y230.2739
G01 X61.8712 Y230.7555
G01 X64.0696 Y231.2044
G01 X66.2745 Y231.6204
G01 X68.4854 Y232.0035
G01 X70.7017 Y232.3535
G01 X72.9230 Y232.6705
G01 X75.1488 Y232.9542
G01 X77.3785 Y233.2047
G01 X79.6118 Y233.4218
G01 X81.8481 Y233.6057
G01 X84.0868 Y233.7561
G01 X91.4803 Y224.7468
G01 X93.3572 Y222.4595
G01 X95.2492 Y220.1849
G01 X97.1563 Y217.9228
G01 X99.0784 Y215.6735
G01 X99.1463 Y215.5853
G01 X99.2205 Y215.5023
G01 X99.3007 Y215.4250
G01 X99.3864 Y215.3539
G01 X99.4771 Y215.2893
G01 X99.5723 Y215.2317
G01 X99.6716 Y215.1812
G01 X99.7743 Y215.1383
G01 X99.8151 Y215.1264
G01 X99.8563 Y215.1162
G01 X99.8979 Y215.1078
G01 X99.9398 Y215.1011
G01 X99.9820 Y215.0962
G01 X100.0243 Y215.0932
G01 X100.0668 Y215.0919
G01 X100.1092 Y215.0924
G01 X100.1516 Y215.0948
G01 X100.1939 Y215.0989
G01 X100.2359 Y215.1048
G01 X100.2776 Y215.1125
G01 X100.3190 Y215.1220
G01 X100.3600 Y215.1332
G01 X100.4004 Y215.1462
G01 X100.4403 Y215.1608
G01 X100.4795 Y215.1771
G01 X100.5179 Y215.1951
G01 X100.5556 Y215.2147
G01 X100.5924 Y215.2359
G01 X100.6282 Y215.2586
G01 X100.6631 Y215.2828
G01 X100.6969 Y215.3085
G01 X100.7296 Y215.3356
G01 X100.7611 Y215.3640
G01 X100.7914 Y215.3938
G01 X100.8204 Y215.4248
G01 X100.8480 Y215.4570
G01 X108.5040 Y224.7749
G01 X110.3449 Y227.0192
G01 X112.1919 Y229.2585
G01 X114.0449 Y231.4927
G01 X115.9041 Y233.7218
G01 X117.6559 Y233.6255
G01 X119.4062 Y233.5046
G01 X121.1546 Y233.3591
G01 X122.9009 Y233.1892
G01 X124.6445 Y232.9948
G01 X126.3853 Y232.7760
G01 X128.1228 Y232.5328
G01 X129.8568 Y232.2652
G01 X131.8900 Y231.9422
G01 X133.9185 Y231.5906
G01 X135.9418 Y231.2104
G01 X137.9596 Y230.8017
G01 X139.9714 Y230.3645
G01 X141.9768 Y229.8990
G01 X143.9754 Y229.4052
G01 X145.9669 Y228.8833
G01 X147.9508 Y228.3333
G01 X149.9268 Y227.7554
G01 X151.8944 Y227.1497
G01 X153.8532 Y226.5162
G01 X155.8030 Y225.8552
G01 X157.7432 Y225.1667
G01 X159.6735 Y224.4509
G01 X161.5935 Y223.7080
G01 X162.8253 Y223.2129
G01 X164.0521 Y222.7052
G01 X165.2735 Y222.1849
G01 X166.4896 Y221.6521
G01 X165.8183 Y220.7880
G01 X165.1190 Y219.9465
G01 X164.3925 Y219.1284
G01 X163.6394 Y218.3346
G01 X162.8607 Y217.5659
G01 X162.0571 Y216.8233
G01 X161.2296 Y216.1075
G01 X160.3790 Y215.4192
G01 X159.6668 Y214.8572
G01 X158.9440 Y214.3090
G01 X158.2107 Y213.7747
G01 X157.4673 Y213.2547
G01 X156.7141 Y212.7490
G01 X155.9512 Y212.2580
G01 X155.1791 Y211.7817
G01 X154.3979 Y211.3203
G01 X153.6080 Y210.8741
G01 X152.8097 Y210.4431
G01 X152.0032 Y210.0276
G01 X151.1889 Y209.6276
G01 X150.6039 Y209.3340
G01 X150.0168 Y209.0447
G01 X149.4275 Y208.7597
G01 X148.8362 Y208.4791
G01 X148.7433 Y208.9195
G01 X148.6369 Y209.3569
G01 X148.5171 Y209.7908
G01 X148.3839 Y210.2207
G01 X148.2375 Y210.6464
G01 X148.0781 Y211.0673
G01 X147.9057 Y211.4832
G01 X147.7207 Y211.8935
G01 X147.4709 Y212.3498
G01 X147.1971 Y212.7922
G01 X146.9002 Y213.2194
G01 X146.5810 Y213.6302
G01 X146.2403 Y214.0234
G01 X145.8792 Y214.3978
G01 X145.4986 Y214.7526
G01 X145.0997 Y215.0865
G01 X144.6836 Y215.3988
G01 X144.2515 Y215.6884
G01 X143.8045 Y215.9546
G01 X143.3440 Y216.1966
G01 X142.6977 Y216.5002
G01 X142.0414 Y216.7816
G01 X141.3758 Y217.0405
G01 X140.7019 Y217.2765
G01 X140.0202 Y217.4893
G01 X139.3317 Y217.6787
G01 X138.6372 Y217.8446
G01 X137.9374 Y217.9866
G01 X136.7510 Y218.1988
G01 X135.5603 Y218.3854
G01 X134.3658 Y218.5464
G01 X133.1682 Y218.6816
G01 X131.9679 Y218.7909
G01 X130.7656 Y218.8745
G01 X129.5617 Y218.9321
G01 X128.3569 Y218.9638
G01 X126.5041 Y219.0279
G01 X124.6508 Y219.0709
G01 X122.7970 Y219.0930
G01 X120.9431 Y219.0941
G01 X120.8521 Y219.0929
G01 X120.7616 Y219.0837
G01 X120.6722 Y219.0666
G01 X120.5847 Y219.0417
G01 X120.4997 Y219.0092
G01 X120.4179 Y218.9693
G01 X120.3399 Y218.9225
G01 X120.2664 Y218.8689
G01 X120.1978 Y218.8091
G01 X120.1347 Y218.7435
G01 X120.0777 Y218.6726
G01 X120.0271 Y218.5970
G01 X119.9833 Y218.5172
G01 X119.9467 Y218.4339
G01 X119.9176 Y218.3477
G01 X119.8962 Y218.2593
G01 X119.3434 Y215.2002
G01 X118.7917 Y212.1409
G01 X118.2410 Y209.0814
G01 X117.6913 Y206.0217
G01 X117.1426 Y202.9618
G01 X116.5949 Y199.9018
G01 X116.0482 Y196.8416
G01 X115.5026 Y193.7812
G01 X115.2944 Y192.6156
G01 X115.0862 Y191.4501
G01 X114.8781 Y190.2846
G01 X114.6700 Y189.1191
G01 X114.4619 Y187.9535
G01 X114.2538 Y186.7880
G01 X114.0458 Y185.6224
G01 X113.8378 Y184.4569
G01 X113.6298 Y183.2913
G01 X113.4218 Y182.1258
G01 X113.2138 Y180.9602
G01 X113.0059 Y179.7947
G01 X112.7979 Y178.6291
G01 X112.5900 Y177.4636
G01 X112.3821 Y176.2980
G01 X112.1743 Y175.1324
G01 X111.9664 Y173.9669
G01 X111.7585 Y172.8013
G01 X111.5507 Y171.6357
G01 X111.3429 Y170.4701
G01 X111.1351 Y169.3046
G01 X110.9273 Y168.1390
G01 X110.7195 Y166.9734
G01 X110.5117 Y165.8078
G01 X110.3040 Y164.6422
G01 X110.0962 Y163.4766
G01 X109.8885 Y162.3110
G01 X109.6808 Y161.1454
G01 X109.4731 Y159.9799
G01 X109.2654 Y158.8143
G01 X109.0578 Y157.6486
G01 X108.8501 Y156.4830
