;Project TeslaWappen_Loading_Schiefer
;Created by Estlcam version 11 build 11,227
;Machining time about 00:21:13 hours

G90
M03 S18000
G00 X0.0000 Y0.0000 Z0.0000
G00 Z2.0000


;No. 1: Helical drill 1
G00 X32.1671 Y227.0627
G00 Z0.5000
M106 S240
G01 X32.1633 Y226.9755 Z0.4705 F400 S18000
G01 X32.1520 Y226.8890 Z0.4410
G01 X32.1331 Y226.8039 Z0.4115
G01 X32.1068 Y226.7207 Z0.3819
G01 X32.0735 Y226.6401 Z0.3524
G01 X32.0332 Y226.5627 Z0.3229
G01 X31.9863 Y226.4891 Z0.2934
G01 X31.9332 Y226.4199 Z0.2639
G01 X31.8743 Y226.3556 Z0.2344
G01 X31.8099 Y226.2966 Z0.2049
G01 X31.7407 Y226.2435 Z0.1753
G01 X31.6671 Y226.1967 Z0.1458
G01 X31.5898 Y226.1564 Z0.1163
G01 X31.5092 Y226.1230 Z0.0868
G01 X31.4260 Y226.0968 Z0.0573
G01 X31.3408 Y226.0779 Z0.0278
G01 X31.2543 Y226.0665 Z-0.0017
G01 X31.1671 Y226.0627 Z-0.0313
G01 X31.0800 Y226.0665 Z-0.0608
G01 X30.9935 Y226.0779 Z-0.0903
G01 X30.9083 Y226.0968 Z-0.1198
G01 X30.8251 Y226.1230 Z-0.1493
G01 X30.7445 Y226.1564 Z-0.1788
G01 X30.6671 Y226.1967 Z-0.2083
G01 X30.5936 Y226.2435 Z-0.2378
G01 X30.5244 Y226.2966 Z-0.2674
G01 X30.4600 Y226.3556 Z-0.2969
G01 X30.4011 Y226.4199 Z-0.3264
G01 X30.3480 Y226.4891 Z-0.3559
G01 X30.3011 Y226.5627 Z-0.3854
G01 X30.2608 Y226.6401 Z-0.4149
G01 X30.2275 Y226.7207 Z-0.4444
G01 X30.2012 Y226.8039 Z-0.4740
G01 X30.1823 Y226.8890 Z-0.5035
G01 X30.1710 Y226.9755 Z-0.5330
G01 X30.1671 Y227.0627 Z-0.5625
G01 X30.1710 Y227.1498 Z-0.5920
G01 X30.1823 Y227.2363 Z-0.6215
G01 X30.2012 Y227.3215 Z-0.6510
G01 X30.2275 Y227.4047 Z-0.6806
G01 X30.2608 Y227.4853 Z-0.7101
G01 X30.3011 Y227.5627 Z-0.7396
G01 X30.3480 Y227.6363 Z-0.7691
G01 X30.4011 Y227.7055 Z-0.7986
G01 X30.4600 Y227.7698 Z-0.8281
G01 X30.5244 Y227.8287 Z-0.8576
G01 X30.5936 Y227.8818 Z-0.8872
G01 X30.6671 Y227.9287 Z-0.9167
G01 X30.7445 Y227.9690 Z-0.9462
G01 X30.8251 Y228.0024 Z-0.9757
G01 X30.9083 Y228.0286 Z-1.0052
G01 X30.9935 Y228.0475 Z-1.0347
G01 X31.0800 Y228.0589 Z-1.0642
G01 X31.1671 Y228.0627 Z-1.0938
G01 X31.2543 Y228.0589 Z-1.1233
G01 X31.3408 Y228.0475 Z-1.1528
G01 X31.4260 Y228.0286 Z-1.1823
G01 X31.5092 Y228.0024 Z-1.2118
G01 X31.5898 Y227.9690 Z-1.2413
G01 X31.6671 Y227.9287 Z-1.2708
G01 X31.7407 Y227.8818 Z-1.3003
G01 X31.8099 Y227.8287 Z-1.3299
G01 X31.8743 Y227.7698 Z-1.3594
G01 X31.9332 Y227.7055 Z-1.3889
G01 X31.9863 Y227.6363 Z-1.4184
G01 X32.0332 Y227.5627 Z-1.4479
G01 X32.0735 Y227.4853 Z-1.4774
G01 X32.1068 Y227.4047 Z-1.5069
G01 X32.1331 Y227.3215 Z-1.5365
G01 X32.1520 Y227.2363 Z-1.5660
G01 X32.1633 Y227.1498 Z-1.5955
G01 X32.1671 Y227.0627 Z-1.6250
G01 X32.1633 Y226.9755
G01 X32.1520 Y226.8890
G01 X32.1331 Y226.8039
G01 X32.1068 Y226.7207
G01 X32.0735 Y226.6401
G01 X32.0332 Y226.5627
G01 X31.9863 Y226.4891
G01 X31.9332 Y226.4199
G01 X31.8743 Y226.3556
G01 X31.8099 Y226.2966
G01 X31.7407 Y226.2435
G01 X31.6671 Y226.1967
G01 X31.5898 Y226.1564
G01 X31.5092 Y226.1230
G01 X31.4260 Y226.0968
G01 X31.3408 Y226.0779
G01 X31.2543 Y226.0665
G01 X31.1671 Y226.0627
G01 X31.0800 Y226.0665
G01 X30.9935 Y226.0779
G01 X30.9083 Y226.0968
G01 X30.8251 Y226.1230
G01 X30.7445 Y226.1564
G01 X30.6671 Y226.1967
G01 X30.5936 Y226.2435
G01 X30.5244 Y226.2966
G01 X30.4600 Y226.3556
G01 X30.4011 Y226.4199
G01 X30.3480 Y226.4891
G01 X30.3011 Y226.5627
G01 X30.2608 Y226.6401
G01 X30.2275 Y226.7207
G01 X30.2012 Y226.8039
G01 X30.1823 Y226.8890
G01 X30.1710 Y226.9755
G01 X30.1671 Y227.0627
G01 X30.1710 Y227.1498
G01 X30.1823 Y227.2363
G01 X30.2012 Y227.3215
G01 X30.2275 Y227.4047
G01 X30.2608 Y227.4853
G01 X30.3011 Y227.5627
G01 X30.3480 Y227.6363
G01 X30.4011 Y227.7055
G01 X30.4600 Y227.7698
G01 X30.5244 Y227.8287
G01 X30.5936 Y227.8818
G01 X30.6671 Y227.9287
G01 X30.7445 Y227.9690
G01 X30.8251 Y228.0024
G01 X30.9083 Y228.0286
G01 X30.9935 Y228.0475
G01 X31.0800 Y228.0589
G01 X31.1671 Y228.0627
G01 X31.2543 Y228.0589
G01 X31.3408 Y228.0475
G01 X31.4260 Y228.0286
G01 X31.5092 Y228.0024
G01 X31.5898 Y227.9690
G01 X31.6671 Y227.9287
G01 X31.7407 Y227.8818
G01 X31.8099 Y227.8287
G01 X31.8743 Y227.7698
G01 X31.9332 Y227.7055
G01 X31.9863 Y227.6363
G01 X32.0332 Y227.5627
G01 X32.0735 Y227.4853
G01 X32.1068 Y227.4047
G01 X32.1331 Y227.3215
G01 X32.1520 Y227.2363
G01 X32.1633 Y227.1498
G01 X32.1671 Y227.0627
G01 X32.1779 Y227.0111 F1000
G01 X32.1860 Y226.9590
G01 X32.1914 Y226.9066
G01 X32.1940 Y226.8539
G01 Y226.8012
G01 X32.1912 Y226.7486
G01 X32.1858 Y226.6962
G01 X32.1776 Y226.6441
G01 X32.1659 Y226.5881
G01 X32.1514 Y226.5328
G01 X32.1340 Y226.4783
G01 X32.1139 Y226.4248
G01 X32.0910 Y226.3724
G01 X32.0655 Y226.3212
G01 X32.0374 Y226.2713
G01 X32.0068 Y226.2230
G01 X31.9712 Y226.1726
G01 X31.9331 Y226.1241
G01 X31.8926 Y226.0776
G01 X31.8497 Y226.0332
G01 X31.8046 Y225.9910
G01 X31.7575 Y225.9512
G01 X31.7084 Y225.9138
G01 X31.6575 Y225.8790
G01 X31.6010 Y225.8444
G01 X31.5428 Y225.8127
G01 X31.4831 Y225.7840
G01 X31.4220 Y225.7584
G01 X31.3597 Y225.7359
G01 X31.2964 Y225.7166
G01 X31.2321 Y225.7005
G01 X31.1671 Y225.6877
G01 X31.0971 Y225.6775
G01 X31.0267 Y225.6709
G01 X30.9560 Y225.6678
G01 X30.8852 Y225.6683
G01 X30.8146 Y225.6723
G01 X30.7442 Y225.6799
G01 X30.6743 Y225.6911
G01 X30.6051 Y225.7057
G01 X30.5369 Y225.7317
G01 X30.4701 Y225.7610
G01 X30.4048 Y225.7935
G01 X30.3412 Y225.8293
G01 X30.2794 Y225.8681
G01 X30.2196 Y225.9099
G01 X30.1619 Y225.9546
G01 X30.1065 Y226.0020
G01 X30.0557 Y226.0554
G01 X30.0077 Y226.1111
G01 X29.9624 Y226.1692
G01 X29.9200 Y226.2293
G01 X29.8806 Y226.2915
G01 X29.8443 Y226.3556
G01 X29.8112 Y226.4214
G01 X29.7814 Y226.4887
G01 X29.7549 Y226.5574
G01 X29.7318 Y226.6273
G01 X29.7121 Y226.6982
G01 X29.6960 Y226.7701
G01 X29.6834 Y226.8426
G01 X29.6744 Y226.9157
G01 X29.6690 Y226.9891
G01 X29.6672 Y227.0627
G01 X29.6690 Y227.1363
G01 X29.6744 Y227.2097
G01 X29.6834 Y227.2828
G01 X29.6960 Y227.3553
G01 X29.7121 Y227.4271
G01 X29.7318 Y227.4981
G01 X29.7549 Y227.5680
G01 X29.7814 Y227.6367
G01 X29.8112 Y227.7040
G01 X29.8443 Y227.7698
G01 X29.8806 Y227.8338
G01 X29.9200 Y227.8960
G01 X29.9624 Y227.9562
G01 X30.0077 Y228.0143
G01 X30.0557 Y228.0700
G01 X30.1065 Y228.1233
G01 X30.1598 Y228.1741
G01 X30.2156 Y228.2222
G01 X30.2736 Y228.2675
G01 X30.3338 Y228.3099
G01 X30.3960 Y228.3492
G01 X30.4601 Y228.3855
G01 X30.5258 Y228.4186
G01 X30.5931 Y228.4485
G01 X30.6618 Y228.4750
G01 X30.7317 Y228.4981
G01 X30.8027 Y228.5177
G01 X30.8745 Y228.5338
G01 X30.9471 Y228.5464
G01 X31.0201 Y228.5554
G01 X31.0935 Y228.5608
G01 X31.1671 Y228.5627
G01 X31.2407 Y228.5608
G01 X31.3142 Y228.5554
G01 X31.3872 Y228.5464
G01 X31.4598 Y228.5338
G01 X31.5316 Y228.5177
G01 X31.6026 Y228.4981
G01 X31.6725 Y228.4750
G01 X31.7412 Y228.4485
G01 X31.8085 Y228.4186
G01 X31.8742 Y228.3855
G01 X31.9383 Y228.3492
G01 X32.0005 Y228.3099
G01 X32.0607 Y228.2675
G01 X32.1187 Y228.2222
G01 X32.1745 Y228.1741
G01 X32.2278 Y228.1233
G01 X32.2785 Y228.0700
G01 X32.3266 Y228.0143
G01 X32.3719 Y227.9562
G01 X32.4143 Y227.8960
G01 X32.4537 Y227.8338
G01 X32.4900 Y227.7698
G01 X32.5231 Y227.7040
G01 X32.5529 Y227.6367
G01 X32.5794 Y227.5680
G01 X32.6025 Y227.4981
G01 X32.6222 Y227.4271
G01 X32.6383 Y227.3553
G01 X32.6509 Y227.2828
G01 X32.6599 Y227.2097
G01 X32.6653 Y227.1363
G01 X32.6671 Y227.0627
G01 X32.6629 Y226.9506
G01 X32.6504 Y226.8391
G01 X32.6295 Y226.7289
G01 X32.6005 Y226.6206
G01 X32.5634 Y226.5147
G01 X32.5186 Y226.4119
G01 X32.4662 Y226.3127
G01 X32.4065 Y226.2177
G01 X32.3399 Y226.1275
G01 X32.2667 Y226.0424
G01 X32.1874 Y225.9631
G01 X32.1024 Y225.8900
G01 X32.0121 Y225.8234
G01 X31.9171 Y225.7637
G01 X31.8180 Y225.7113
G01 X31.7151 Y225.6664
G01 X31.6093 Y225.6294
G01 X31.5009 Y225.6003
G01 X31.3907 Y225.5795
G01 X31.2792 Y225.5669
G01 X31.1671 Y225.5627
G01 X31.0551 Y225.5669
G01 X30.9436 Y225.5795
G01 X30.8334 Y225.6003
G01 X30.7250 Y225.6294
G01 X30.6191 Y225.6664
G01 X30.5163 Y225.7113
G01 X30.4172 Y225.7637
G01 X30.3222 Y225.8234
G01 X30.2319 Y225.8900
G01 X30.1469 Y225.9631
G01 X30.0676 Y226.0424
G01 X29.9944 Y226.1275
G01 X29.9278 Y226.2177
G01 X29.8681 Y226.3127
G01 X29.8157 Y226.4119
G01 X29.7709 Y226.5147
G01 X29.7338 Y226.6206
G01 X29.7048 Y226.7289
G01 X29.6839 Y226.8391
G01 X29.6714 Y226.9506
G01 X29.6672 Y227.0627
G01 X29.6714 Y227.1748
G01 X29.6839 Y227.2862
G01 X29.7048 Y227.3965
G01 X29.7338 Y227.5048
G01 X29.7709 Y227.6107
G01 X29.8157 Y227.7135
G01 X29.8681 Y227.8127
G01 X29.9278 Y227.9076
G01 X29.9944 Y227.9979
G01 X30.0676 Y228.0829
G01 X30.1469 Y228.1622
G01 X30.2319 Y228.2354
G01 X30.3222 Y228.3020
G01 X30.4172 Y228.3617
G01 X30.5163 Y228.4141
G01 X30.6191 Y228.4590
G01 X30.7250 Y228.4960
G01 X30.8334 Y228.5250
G01 X30.9436 Y228.5459
G01 X31.0551 Y228.5585
G01 X31.1671 Y228.5627
G01 X31.2792 Y228.5585
G01 X31.3907 Y228.5459
G01 X31.5009 Y228.5250
G01 X31.6093 Y228.4960
G01 X31.7151 Y228.4590
G01 X31.8180 Y228.4141
G01 X31.9171 Y228.3617
G01 X32.0121 Y228.3020
G01 X32.1024 Y228.2354
G01 X32.1874 Y228.1622
G01 X32.2667 Y228.0829
G01 X32.3399 Y227.9979
G01 X32.4065 Y227.9076
G01 X32.4662 Y227.8127
G01 X32.5186 Y227.7135
G01 X32.5634 Y227.6107
G01 X32.6005 Y227.5048
G01 X32.6295 Y227.3965
G01 X32.6504 Y227.2862
G01 X32.6629 Y227.1748
G01 X32.6671 Y227.0627
G01 X32.6633 Y226.9646
G01 X32.6517 Y226.8671
G01 X32.6326 Y226.7709
G01 X32.6059 Y226.6764
G01 X32.5720 Y226.5843
G01 X32.5309 Y226.4952
G01 X32.4829 Y226.4096
G01 X32.4284 Y226.3280
G01 X32.3676 Y226.2509
G01 X32.3010 Y226.1788
G01 X32.2289 Y226.1122
G01 X32.1519 Y226.0514
G01 X32.0702 Y225.9969
G01 X31.9846 Y225.9489
G01 X31.8955 Y225.9079
G01 X31.8034 Y225.8739
G01 X31.7089 Y225.8472
G01 X31.6127 Y225.8281
G01 X31.5152 Y225.8166
G01 X31.4171 Y225.8127
G01 X31.3191 Y225.8166
G01 X31.2216 Y225.8281
G01 X31.1253 Y225.8472
G01 X31.0309 Y225.8739
G01 X30.9388 Y225.9079
G01 X30.8497 Y225.9489
G01 X30.7640 Y225.9969
G01 X30.6824 Y226.0514
G01 X30.6053 Y226.1122
G01 X30.5333 Y226.1788
G01 X30.4666 Y226.2509
G01 X30.4059 Y226.3280
G01 X30.3513 Y226.4096
G01 X30.3034 Y226.4952
G01 X30.2623 Y226.5843
G01 X30.2283 Y226.6764
G01 X30.2017 Y226.7709
G01 X30.1825 Y226.8671
G01 X30.1710 Y226.9646
G01 X30.1671 Y227.0627
G01 X30.1682 Y227.1089
G01 X30.1714 Y227.1550
G01 X30.1767 Y227.2008
G01 X30.1842 Y227.2464
G01 X30.1937 Y227.2916
G01 X30.2053 Y227.3363
G01 X30.2190 Y227.3805
G01 X30.2347 Y227.4239
G01 X30.2524 Y227.4666
G01 X30.2720 Y227.5084
G01 X30.2935 Y227.5493
G01 X30.3169 Y227.5891
G01 X30.3422 Y227.6278
G01 X30.3691 Y227.6653
G01 X30.3978 Y227.7015
G01 X30.4281 Y227.7364
G01 X30.4600 Y227.7698
G01 X30.4935 Y227.8017
G01 X30.5283 Y227.8320
G01 X30.5645 Y227.8607
G01 X30.6020 Y227.8877
G01 X30.6407 Y227.9129
G01 X30.6805 Y227.9363
G01 X30.7214 Y227.9578
G01 X30.7632 Y227.9775
G01 X30.8059 Y227.9952
G01 X30.8494 Y228.0108
G01 X30.8935 Y228.0245
G01 X30.9382 Y228.0361
G01 X30.9834 Y228.0457
G01 X31.0290 Y228.0531
G01 X31.0749 Y228.0584
G01 X31.1210 Y228.0616
G01 X31.1671 Y228.0627
G01 X31.2133 Y228.0616
G01 X31.2594 Y228.0584
G01 X31.3053 Y228.0531
G01 X31.3509 Y228.0457
G01 X31.3961 Y228.0361
G01 X31.4408 Y228.0245
G01 X31.4849 Y228.0108
G01 X31.5284 Y227.9952
G01 X31.5711 Y227.9775
G01 X31.6129 Y227.9578
G01 X31.6538 Y227.9363
G01 X31.6936 Y227.9129
G01 X31.7323 Y227.8877
G01 X31.7698 Y227.8607
G01 X31.8060 Y227.8320
G01 X31.8408 Y227.8017
G01 X31.8743 Y227.7698
G01 X31.9062 Y227.7364
G01 X31.9365 Y227.7015
G01 X31.9652 Y227.6653
G01 X31.9921 Y227.6278
G01 X32.0174 Y227.5891
G01 X32.0408 Y227.5493
G01 X32.0623 Y227.5084
G01 X32.0819 Y227.4666
G01 X32.0996 Y227.4239
G01 X32.1153 Y227.3805
G01 X32.1290 Y227.3363
G01 X32.1406 Y227.2916
G01 X32.1501 Y227.2464
G01 X32.1576 Y227.2008
G01 X32.1629 Y227.1550
G01 X32.1661 Y227.1089
G01 X32.1671 Y227.0627
M107
M106 S240
G01 X32.1633 Y226.9755 Z-1.6545 F400
G01 X32.1520 Y226.8890 Z-1.6840
G01 X32.1331 Y226.8039 Z-1.7135
G01 X32.1068 Y226.7207 Z-1.7431
G01 X32.0735 Y226.6401 Z-1.7726
G01 X32.0332 Y226.5627 Z-1.8021
G01 X31.9863 Y226.4891 Z-1.8316
G01 X31.9332 Y226.4199 Z-1.8611
G01 X31.8743 Y226.3556 Z-1.8906
G01 X31.8099 Y226.2966 Z-1.9201
G01 X31.7407 Y226.2435 Z-1.9497
G01 X31.6671 Y226.1967 Z-1.9792
G01 X31.5898 Y226.1564 Z-2.0087
G01 X31.5092 Y226.1230 Z-2.0382
G01 X31.4260 Y226.0968 Z-2.0677
G01 X31.3408 Y226.0779 Z-2.0972
G01 X31.2543 Y226.0665 Z-2.1267
G01 X31.1671 Y226.0627 Z-2.1563
G01 X31.0800 Y226.0665 Z-2.1858
G01 X30.9935 Y226.0779 Z-2.2153
G01 X30.9083 Y226.0968 Z-2.2448
G01 X30.8251 Y226.1230 Z-2.2743
G01 X30.7445 Y226.1564 Z-2.3038
G01 X30.6671 Y226.1967 Z-2.3333
G01 X30.5936 Y226.2435 Z-2.3628
G01 X30.5244 Y226.2966 Z-2.3924
G01 X30.4600 Y226.3556 Z-2.4219
G01 X30.4011 Y226.4199 Z-2.4514
G01 X30.3480 Y226.4891 Z-2.4809
G01 X30.3011 Y226.5627 Z-2.5104
G01 X30.2608 Y226.6401 Z-2.5399
G01 X30.2275 Y226.7207 Z-2.5694
G01 X30.2012 Y226.8039 Z-2.5990
G01 X30.1823 Y226.8890 Z-2.6285
G01 X30.1710 Y226.9755 Z-2.6580
G01 X30.1671 Y227.0627 Z-2.6875
G01 X30.1710 Y227.1498 Z-2.7170
G01 X30.1823 Y227.2363 Z-2.7465
G01 X30.2012 Y227.3215 Z-2.7760
G01 X30.2275 Y227.4047 Z-2.8056
G01 X30.2608 Y227.4853 Z-2.8351
G01 X30.3011 Y227.5627 Z-2.8646
G01 X30.3480 Y227.6363 Z-2.8941
G01 X30.4011 Y227.7055 Z-2.9236
G01 X30.4600 Y227.7698 Z-2.9531
G01 X30.5244 Y227.8287 Z-2.9826
G01 X30.5936 Y227.8818 Z-3.0122
G01 X30.6671 Y227.9287 Z-3.0417
G01 X30.7445 Y227.9690 Z-3.0712
G01 X30.8251 Y228.0024 Z-3.1007
G01 X30.9083 Y228.0286 Z-3.1302
G01 X30.9935 Y228.0475 Z-3.1597
G01 X31.0800 Y228.0589 Z-3.1892
G01 X31.1671 Y228.0627 Z-3.2188
G01 X31.2543 Y228.0589 Z-3.2483
G01 X31.3408 Y228.0475 Z-3.2778
G01 X31.4260 Y228.0286 Z-3.3073
G01 X31.5092 Y228.0024 Z-3.3368
G01 X31.5898 Y227.9690 Z-3.3663
G01 X31.6671 Y227.9287 Z-3.3958
G01 X31.7407 Y227.8818 Z-3.4253
G01 X31.8099 Y227.8287 Z-3.4549
G01 X31.8743 Y227.7698 Z-3.4844
G01 X31.9332 Y227.7055 Z-3.5139
G01 X31.9863 Y227.6363 Z-3.5434
G01 X32.0332 Y227.5627 Z-3.5729
G01 X32.0735 Y227.4853 Z-3.6024
G01 X32.1068 Y227.4047 Z-3.6319
G01 X32.1331 Y227.3215 Z-3.6615
G01 X32.1520 Y227.2363 Z-3.6910
G01 X32.1633 Y227.1498 Z-3.7205
G01 X32.1671 Y227.0627 Z-3.7500
G01 X32.1633 Y226.9755
G01 X32.1520 Y226.8890
G01 X32.1331 Y226.8039
G01 X32.1068 Y226.7207
G01 X32.0735 Y226.6401
G01 X32.0332 Y226.5627
G01 X31.9863 Y226.4891
G01 X31.9332 Y226.4199
G01 X31.8743 Y226.3556
G01 X31.8099 Y226.2966
G01 X31.7407 Y226.2435
G01 X31.6671 Y226.1967
G01 X31.5898 Y226.1564
G01 X31.5092 Y226.1230
G01 X31.4260 Y226.0968
G01 X31.3408 Y226.0779
G01 X31.2543 Y226.0665
G01 X31.1671 Y226.0627
G01 X31.0800 Y226.0665
G01 X30.9935 Y226.0779
G01 X30.9083 Y226.0968
G01 X30.8251 Y226.1230
G01 X30.7445 Y226.1564
G01 X30.6671 Y226.1967
G01 X30.5936 Y226.2435
G01 X30.5244 Y226.2966
G01 X30.4600 Y226.3556
G01 X30.4011 Y226.4199
G01 X30.3480 Y226.4891
G01 X30.3011 Y226.5627
G01 X30.2608 Y226.6401
G01 X30.2275 Y226.7207
G01 X30.2012 Y226.8039
G01 X30.1823 Y226.8890
G01 X30.1710 Y226.9755
G01 X30.1671 Y227.0627
G01 X30.1710 Y227.1498
G01 X30.1823 Y227.2363
G01 X30.2012 Y227.3215
G01 X30.2275 Y227.4047
G01 X30.2608 Y227.4853
G01 X30.3011 Y227.5627
G01 X30.3480 Y227.6363
G01 X30.4011 Y227.7055
G01 X30.4600 Y227.7698
G01 X30.5244 Y227.8287
G01 X30.5936 Y227.8818
G01 X30.6671 Y227.9287
G01 X30.7445 Y227.9690
G01 X30.8251 Y228.0024
G01 X30.9083 Y228.0286
G01 X30.9935 Y228.0475
G01 X31.0800 Y228.0589
G01 X31.1671 Y228.0627
G01 X31.2543 Y228.0589
G01 X31.3408 Y228.0475
G01 X31.4260 Y228.0286
G01 X31.5092 Y228.0024
G01 X31.5898 Y227.9690
G01 X31.6671 Y227.9287
G01 X31.7407 Y227.8818
G01 X31.8099 Y227.8287
G01 X31.8743 Y227.7698
G01 X31.9332 Y227.7055
G01 X31.9863 Y227.6363
G01 X32.0332 Y227.5627
G01 X32.0735 Y227.4853
G01 X32.1068 Y227.4047
G01 X32.1331 Y227.3215
G01 X32.1520 Y227.2363
G01 X32.1633 Y227.1498
G01 X32.1671 Y227.0627
G01 X32.1779 Y227.0111 F1000
G01 X32.1860 Y226.9590
G01 X32.1914 Y226.9066
G01 X32.1940 Y226.8539
G01 Y226.8012
G01 X32.1912 Y226.7486
G01 X32.1858 Y226.6962
G01 X32.1776 Y226.6441
G01 X32.1659 Y226.5881
G01 X32.1514 Y226.5328
G01 X32.1340 Y226.4783
G01 X32.1139 Y226.4248
G01 X32.0910 Y226.3724
G01 X32.0655 Y226.3212
G01 X32.0374 Y226.2713
G01 X32.0068 Y226.2230
G01 X31.9712 Y226.1726
G01 X31.9331 Y226.1241
G01 X31.8926 Y226.0776
G01 X31.8497 Y226.0332
G01 X31.8046 Y225.9910
G01 X31.7575 Y225.9512
G01 X31.7084 Y225.9138
G01 X31.6575 Y225.8790
G01 X31.6010 Y225.8444
G01 X31.5428 Y225.8127
G01 X31.4831 Y225.7840
G01 X31.4220 Y225.7584
G01 X31.3597 Y225.7359
G01 X31.2964 Y225.7166
G01 X31.2321 Y225.7005
G01 X31.1671 Y225.6877
G01 X31.0971 Y225.6775
G01 X31.0267 Y225.6709
G01 X30.9560 Y225.6678
G01 X30.8852 Y225.6683
G01 X30.8146 Y225.6723
G01 X30.7442 Y225.6799
G01 X30.6743 Y225.6911
G01 X30.6051 Y225.7057
G01 X30.5369 Y225.7317
G01 X30.4701 Y225.7610
G01 X30.4048 Y225.7935
G01 X30.3412 Y225.8293
G01 X30.2794 Y225.8681
G01 X30.2196 Y225.9099
G01 X30.1619 Y225.9546
G01 X30.1065 Y226.0020
G01 X30.0557 Y226.0554
G01 X30.0077 Y226.1111
G01 X29.9624 Y226.1692
G01 X29.9200 Y226.2293
G01 X29.8806 Y226.2915
G01 X29.8443 Y226.3556
G01 X29.8112 Y226.4214
G01 X29.7814 Y226.4887
G01 X29.7549 Y226.5574
G01 X29.7318 Y226.6273
G01 X29.7121 Y226.6982
G01 X29.6960 Y226.7701
G01 X29.6834 Y226.8426
G01 X29.6744 Y226.9157
G01 X29.6690 Y226.9891
G01 X29.6672 Y227.0627
G01 X29.6690 Y227.1363
G01 X29.6744 Y227.2097
G01 X29.6834 Y227.2828
G01 X29.6960 Y227.3553
G01 X29.7121 Y227.4271
G01 X29.7318 Y227.4981
G01 X29.7549 Y227.5680
G01 X29.7814 Y227.6367
G01 X29.8112 Y227.7040
G01 X29.8443 Y227.7698
G01 X29.8806 Y227.8338
G01 X29.9200 Y227.8960
G01 X29.9624 Y227.9562
G01 X30.0077 Y228.0143
G01 X30.0557 Y228.0700
G01 X30.1065 Y228.1233
G01 X30.1598 Y228.1741
G01 X30.2156 Y228.2222
G01 X30.2736 Y228.2675
G01 X30.3338 Y228.3099
G01 X30.3960 Y228.3492
G01 X30.4601 Y228.3855
G01 X30.5258 Y228.4186
G01 X30.5931 Y228.4485
G01 X30.6618 Y228.4750
G01 X30.7317 Y228.4981
G01 X30.8027 Y228.5177
G01 X30.8745 Y228.5338
G01 X30.9471 Y228.5464
G01 X31.0201 Y228.5554
G01 X31.0935 Y228.5608
G01 X31.1671 Y228.5627
G01 X31.2407 Y228.5608
G01 X31.3142 Y228.5554
G01 X31.3872 Y228.5464
G01 X31.4598 Y228.5338
G01 X31.5316 Y228.5177
G01 X31.6026 Y228.4981
G01 X31.6725 Y228.4750
G01 X31.7412 Y228.4485
G01 X31.8085 Y228.4186
G01 X31.8742 Y228.3855
G01 X31.9383 Y228.3492
G01 X32.0005 Y228.3099
G01 X32.0607 Y228.2675
G01 X32.1187 Y228.2222
G01 X32.1745 Y228.1741
G01 X32.2278 Y228.1233
G01 X32.2785 Y228.0700
G01 X32.3266 Y228.0143
G01 X32.3719 Y227.9562
G01 X32.4143 Y227.8960
G01 X32.4537 Y227.8338
G01 X32.4900 Y227.7698
G01 X32.5231 Y227.7040
G01 X32.5529 Y227.6367
G01 X32.5794 Y227.5680
G01 X32.6025 Y227.4981
G01 X32.6222 Y227.4271
G01 X32.6383 Y227.3553
G01 X32.6509 Y227.2828
G01 X32.6599 Y227.2097
G01 X32.6653 Y227.1363
G01 X32.6671 Y227.0627
G01 X32.6629 Y226.9506
G01 X32.6504 Y226.8391
G01 X32.6295 Y226.7289
G01 X32.6005 Y226.6206
G01 X32.5634 Y226.5147
G01 X32.5186 Y226.4119
G01 X32.4662 Y226.3127
G01 X32.4065 Y226.2177
G01 X32.3399 Y226.1275
G01 X32.2667 Y226.0424
G01 X32.1874 Y225.9631
G01 X32.1024 Y225.8900
G01 X32.0121 Y225.8234
G01 X31.9171 Y225.7637
G01 X31.8180 Y225.7113
G01 X31.7151 Y225.6664
G01 X31.6093 Y225.6294
G01 X31.5009 Y225.6003
G01 X31.3907 Y225.5795
G01 X31.2792 Y225.5669
G01 X31.1671 Y225.5627
G01 X31.0551 Y225.5669
G01 X30.9436 Y225.5795
G01 X30.8334 Y225.6003
G01 X30.7250 Y225.6294
G01 X30.6191 Y225.6664
G01 X30.5163 Y225.7113
G01 X30.4172 Y225.7637
G01 X30.3222 Y225.8234
G01 X30.2319 Y225.8900
G01 X30.1469 Y225.9631
G01 X30.0676 Y226.0424
G01 X29.9944 Y226.1275
G01 X29.9278 Y226.2177
G01 X29.8681 Y226.3127
G01 X29.8157 Y226.4119
G01 X29.7709 Y226.5147
G01 X29.7338 Y226.6206
G01 X29.7048 Y226.7289
G01 X29.6839 Y226.8391
G01 X29.6714 Y226.9506
G01 X29.6672 Y227.0627
G01 X29.6714 Y227.1748
G01 X29.6839 Y227.2862
G01 X29.7048 Y227.3965
G01 X29.7338 Y227.5048
G01 X29.7709 Y227.6107
G01 X29.8157 Y227.7135
G01 X29.8681 Y227.8127
G01 X29.9278 Y227.9076
G01 X29.9944 Y227.9979
G01 X30.0676 Y228.0829
G01 X30.1469 Y228.1622
G01 X30.2319 Y228.2354
G01 X30.3222 Y228.3020
G01 X30.4172 Y228.3617
G01 X30.5163 Y228.4141
G01 X30.6191 Y228.4590
G01 X30.7250 Y228.4960
G01 X30.8334 Y228.5250
G01 X30.9436 Y228.5459
G01 X31.0551 Y228.5585
G01 X31.1671 Y228.5627
G01 X31.2792 Y228.5585
G01 X31.3907 Y228.5459
G01 X31.5009 Y228.5250
G01 X31.6093 Y228.4960
G01 X31.7151 Y228.4590
G01 X31.8180 Y228.4141
G01 X31.9171 Y228.3617
G01 X32.0121 Y228.3020
G01 X32.1024 Y228.2354
G01 X32.1874 Y228.1622
G01 X32.2667 Y228.0829
G01 X32.3399 Y227.9979
G01 X32.4065 Y227.9076
G01 X32.4662 Y227.8127
G01 X32.5186 Y227.7135
G01 X32.5634 Y227.6107
G01 X32.6005 Y227.5048
G01 X32.6295 Y227.3965
G01 X32.6504 Y227.2862
G01 X32.6629 Y227.1748
G01 X32.6671 Y227.0627
G01 X32.6633 Y226.9646
G01 X32.6517 Y226.8671
G01 X32.6326 Y226.7709
G01 X32.6059 Y226.6764
G01 X32.5720 Y226.5843
G01 X32.5309 Y226.4952
G01 X32.4829 Y226.4096
G01 X32.4284 Y226.3280
G01 X32.3676 Y226.2509
G01 X32.3010 Y226.1788
G01 X32.2289 Y226.1122
G01 X32.1519 Y226.0514
G01 X32.0702 Y225.9969
G01 X31.9846 Y225.9489
G01 X31.8955 Y225.9079
G01 X31.8034 Y225.8739
G01 X31.7089 Y225.8472
G01 X31.6127 Y225.8281
G01 X31.5152 Y225.8166
G01 X31.4171 Y225.8127
G01 X31.3191 Y225.8166
G01 X31.2216 Y225.8281
G01 X31.1253 Y225.8472
G01 X31.0309 Y225.8739
G01 X30.9388 Y225.9079
G01 X30.8497 Y225.9489
G01 X30.7640 Y225.9969
G01 X30.6824 Y226.0514
G01 X30.6053 Y226.1122
G01 X30.5333 Y226.1788
G01 X30.4666 Y226.2509
G01 X30.4059 Y226.3280
G01 X30.3513 Y226.4096
G01 X30.3034 Y226.4952
G01 X30.2623 Y226.5843
G01 X30.2283 Y226.6764
G01 X30.2017 Y226.7709
G01 X30.1825 Y226.8671
G01 X30.1710 Y226.9646
G01 X30.1671 Y227.0627
G01 X30.1682 Y227.1089
G01 X30.1714 Y227.1550
G01 X30.1767 Y227.2008
G01 X30.1842 Y227.2464
G01 X30.1937 Y227.2916
G01 X30.2053 Y227.3363
G01 X30.2190 Y227.3805
G01 X30.2347 Y227.4239
G01 X30.2524 Y227.4666
G01 X30.2720 Y227.5084
G01 X30.2935 Y227.5493
G01 X30.3169 Y227.5891
G01 X30.3422 Y227.6278
G01 X30.3691 Y227.6653
G01 X30.3978 Y227.7015
G01 X30.4281 Y227.7364
G01 X30.4600 Y227.7698
G01 X30.4935 Y227.8017
G01 X30.5283 Y227.8320
G01 X30.5645 Y227.8607
G01 X30.6020 Y227.8877
G01 X30.6407 Y227.9129
G01 X30.6805 Y227.9363
G01 X30.7214 Y227.9578
G01 X30.7632 Y227.9775
G01 X30.8059 Y227.9952
G01 X30.8494 Y228.0108
G01 X30.8935 Y228.0245
G01 X30.9382 Y228.0361
G01 X30.9834 Y228.0457
G01 X31.0290 Y228.0531
G01 X31.0749 Y228.0584
G01 X31.1210 Y228.0616
G01 X31.1671 Y228.0627
G01 X31.2133 Y228.0616
G01 X31.2594 Y228.0584
G01 X31.3053 Y228.0531
G01 X31.3509 Y228.0457
G01 X31.3961 Y228.0361
G01 X31.4408 Y228.0245
G01 X31.4849 Y228.0108
G01 X31.5284 Y227.9952
G01 X31.5711 Y227.9775
G01 X31.6129 Y227.9578
G01 X31.6538 Y227.9363
G01 X31.6936 Y227.9129
G01 X31.7323 Y227.8877
G01 X31.7698 Y227.8607
G01 X31.8060 Y227.8320
G01 X31.8408 Y227.8017
G01 X31.8743 Y227.7698
G01 X31.9062 Y227.7364
G01 X31.9365 Y227.7015
G01 X31.9652 Y227.6653
G01 X31.9921 Y227.6278
G01 X32.0174 Y227.5891
G01 X32.0408 Y227.5493
G01 X32.0623 Y227.5084
G01 X32.0819 Y227.4666
G01 X32.0996 Y227.4239
G01 X32.1153 Y227.3805
G01 X32.1290 Y227.3363
G01 X32.1406 Y227.2916
G01 X32.1501 Y227.2464
G01 X32.1576 Y227.2008
G01 X32.1629 Y227.1550
G01 X32.1661 Y227.1089
G01 X32.1671 Y227.0627
M107
M106 S240
G01 X32.1633 Y226.9755 Z-3.7795 F400
G01 X32.1520 Y226.8890 Z-3.8090
G01 X32.1331 Y226.8039 Z-3.8385
G01 X32.1068 Y226.7207 Z-3.8681
G01 X32.0735 Y226.6401 Z-3.8976
G01 X32.0332 Y226.5627 Z-3.9271
G01 X31.9863 Y226.4891 Z-3.9566
G01 X31.9332 Y226.4199 Z-3.9861
G01 X31.8743 Y226.3556 Z-4.0156
G01 X31.8099 Y226.2966 Z-4.0451
G01 X31.7407 Y226.2435 Z-4.0747
G01 X31.6671 Y226.1967 Z-4.1042
G01 X31.5898 Y226.1564 Z-4.1337
G01 X31.5092 Y226.1230 Z-4.1632
G01 X31.4260 Y226.0968 Z-4.1927
G01 X31.3408 Y226.0779 Z-4.2222
G01 X31.2543 Y226.0665 Z-4.2517
G01 X31.1671 Y226.0627 Z-4.2813
G01 X31.0800 Y226.0665 Z-4.3108
G01 X30.9935 Y226.0779 Z-4.3403
G01 X30.9083 Y226.0968 Z-4.3698
G01 X30.8251 Y226.1230 Z-4.3993
G01 X30.7445 Y226.1564 Z-4.4288
G01 X30.6671 Y226.1967 Z-4.4583
G01 X30.5936 Y226.2435 Z-4.4878
G01 X30.5244 Y226.2966 Z-4.5174
G01 X30.4600 Y226.3556 Z-4.5469
G01 X30.4011 Y226.4199 Z-4.5764
G01 X30.3480 Y226.4891 Z-4.6059
G01 X30.3011 Y226.5627 Z-4.6354
G01 X30.2608 Y226.6401 Z-4.6649
G01 X30.2275 Y226.7207 Z-4.6944
G01 X30.2012 Y226.8039 Z-4.7240
G01 X30.1823 Y226.8890 Z-4.7535
G01 X30.1710 Y226.9755 Z-4.7830
G01 X30.1671 Y227.0627 Z-4.8125
G01 X30.1710 Y227.1498 Z-4.8420
G01 X30.1823 Y227.2363 Z-4.8715
G01 X30.2012 Y227.3215 Z-4.9010
G01 X30.2275 Y227.4047 Z-4.9306
G01 X30.2608 Y227.4853 Z-4.9601
G01 X30.3011 Y227.5627 Z-4.9896
G01 X30.3480 Y227.6363 Z-5.0191
G01 X30.4011 Y227.7055 Z-5.0486
G01 X30.4600 Y227.7698 Z-5.0781
G01 X30.5244 Y227.8287 Z-5.1076
G01 X30.5936 Y227.8818 Z-5.1372
G01 X30.6671 Y227.9287 Z-5.1667
G01 X30.7445 Y227.9690 Z-5.1962
G01 X30.8251 Y228.0024 Z-5.2257
G01 X30.9083 Y228.0286 Z-5.2552
G01 X30.9935 Y228.0475 Z-5.2847
G01 X31.0800 Y228.0589 Z-5.3142
G01 X31.1671 Y228.0627 Z-5.3438
G01 X31.2543 Y228.0589 Z-5.3733
G01 X31.3408 Y228.0475 Z-5.4028
G01 X31.4260 Y228.0286 Z-5.4323
G01 X31.5092 Y228.0024 Z-5.4618
G01 X31.5898 Y227.9690 Z-5.4913
G01 X31.6671 Y227.9287 Z-5.5208
G01 X31.7407 Y227.8818 Z-5.5503
G01 X31.8099 Y227.8287 Z-5.5799
G01 X31.8743 Y227.7698 Z-5.6094
G01 X31.9332 Y227.7055 Z-5.6389
G01 X31.9863 Y227.6363 Z-5.6684
G01 X32.0332 Y227.5627 Z-5.6979
G01 X32.0735 Y227.4853 Z-5.7274
G01 X32.1068 Y227.4047 Z-5.7569
G01 X32.1331 Y227.3215 Z-5.7865
G01 X32.1520 Y227.2363 Z-5.8160
G01 X32.1633 Y227.1498 Z-5.8455
G01 X32.1671 Y227.0627 Z-5.8750
G01 X32.1633 Y226.9755
G01 X32.1520 Y226.8890
G01 X32.1331 Y226.8039
G01 X32.1068 Y226.7207
G01 X32.0735 Y226.6401
G01 X32.0332 Y226.5627
G01 X31.9863 Y226.4891
G01 X31.9332 Y226.4199
G01 X31.8743 Y226.3556
G01 X31.8099 Y226.2966
G01 X31.7407 Y226.2435
G01 X31.6671 Y226.1967
G01 X31.5898 Y226.1564
G01 X31.5092 Y226.1230
G01 X31.4260 Y226.0968
G01 X31.3408 Y226.0779
G01 X31.2543 Y226.0665
G01 X31.1671 Y226.0627
G01 X31.0800 Y226.0665
G01 X30.9935 Y226.0779
G01 X30.9083 Y226.0968
G01 X30.8251 Y226.1230
G01 X30.7445 Y226.1564
G01 X30.6671 Y226.1967
G01 X30.5936 Y226.2435
G01 X30.5244 Y226.2966
G01 X30.4600 Y226.3556
G01 X30.4011 Y226.4199
G01 X30.3480 Y226.4891
G01 X30.3011 Y226.5627
G01 X30.2608 Y226.6401
G01 X30.2275 Y226.7207
G01 X30.2012 Y226.8039
G01 X30.1823 Y226.8890
G01 X30.1710 Y226.9755
G01 X30.1671 Y227.0627
G01 X30.1710 Y227.1498
G01 X30.1823 Y227.2363
G01 X30.2012 Y227.3215
G01 X30.2275 Y227.4047
G01 X30.2608 Y227.4853
G01 X30.3011 Y227.5627
G01 X30.3480 Y227.6363
G01 X30.4011 Y227.7055
G01 X30.4600 Y227.7698
G01 X30.5244 Y227.8287
G01 X30.5936 Y227.8818
G01 X30.6671 Y227.9287
G01 X30.7445 Y227.9690
G01 X30.8251 Y228.0024
G01 X30.9083 Y228.0286
G01 X30.9935 Y228.0475
G01 X31.0800 Y228.0589
G01 X31.1671 Y228.0627
G01 X31.2543 Y228.0589
G01 X31.3408 Y228.0475
G01 X31.4260 Y228.0286
G01 X31.5092 Y228.0024
G01 X31.5898 Y227.9690
G01 X31.6671 Y227.9287
G01 X31.7407 Y227.8818
G01 X31.8099 Y227.8287
G01 X31.8743 Y227.7698
G01 X31.9332 Y227.7055
G01 X31.9863 Y227.6363
G01 X32.0332 Y227.5627
G01 X32.0735 Y227.4853
G01 X32.1068 Y227.4047
G01 X32.1331 Y227.3215
G01 X32.1520 Y227.2363
G01 X32.1633 Y227.1498
G01 X32.1671 Y227.0627
G01 X32.1779 Y227.0111 F1000
G01 X32.1860 Y226.9590
G01 X32.1914 Y226.9066
G01 X32.1940 Y226.8539
G01 Y226.8012
G01 X32.1912 Y226.7486
G01 X32.1858 Y226.6962
G01 X32.1776 Y226.6441
G01 X32.1659 Y226.5881
G01 X32.1514 Y226.5328
G01 X32.1340 Y226.4783
G01 X32.1139 Y226.4248
G01 X32.0910 Y226.3724
G01 X32.0655 Y226.3212
G01 X32.0374 Y226.2713
G01 X32.0068 Y226.2230
G01 X31.9712 Y226.1726
G01 X31.9331 Y226.1241
G01 X31.8926 Y226.0776
G01 X31.8497 Y226.0332
G01 X31.8046 Y225.9910
G01 X31.7575 Y225.9512
G01 X31.7084 Y225.9138
G01 X31.6575 Y225.8790
G01 X31.6010 Y225.8444
G01 X31.5428 Y225.8127
G01 X31.4831 Y225.7840
G01 X31.4220 Y225.7584
G01 X31.3597 Y225.7359
G01 X31.2964 Y225.7166
G01 X31.2321 Y225.7005
G01 X31.1671 Y225.6877
G01 X31.0971 Y225.6775
G01 X31.0267 Y225.6709
G01 X30.9560 Y225.6678
G01 X30.8852 Y225.6683
G01 X30.8146 Y225.6723
G01 X30.7442 Y225.6799
G01 X30.6743 Y225.6911
G01 X30.6051 Y225.7057
G01 X30.5369 Y225.7317
G01 X30.4701 Y225.7610
G01 X30.4048 Y225.7935
G01 X30.3412 Y225.8293
G01 X30.2794 Y225.8681
G01 X30.2196 Y225.9099
G01 X30.1619 Y225.9546
G01 X30.1065 Y226.0020
G01 X30.0557 Y226.0554
G01 X30.0077 Y226.1111
G01 X29.9624 Y226.1692
G01 X29.9200 Y226.2293
G01 X29.8806 Y226.2915
G01 X29.8443 Y226.3556
G01 X29.8112 Y226.4214
G01 X29.7814 Y226.4887
G01 X29.7549 Y226.5574
G01 X29.7318 Y226.6273
G01 X29.7121 Y226.6982
G01 X29.6960 Y226.7701
G01 X29.6834 Y226.8426
G01 X29.6744 Y226.9157
G01 X29.6690 Y226.9891
G01 X29.6672 Y227.0627
G01 X29.6690 Y227.1363
G01 X29.6744 Y227.2097
G01 X29.6834 Y227.2828
G01 X29.6960 Y227.3553
G01 X29.7121 Y227.4271
G01 X29.7318 Y227.4981
G01 X29.7549 Y227.5680
G01 X29.7814 Y227.6367
G01 X29.8112 Y227.7040
G01 X29.8443 Y227.7698
G01 X29.8806 Y227.8338
G01 X29.9200 Y227.8960
G01 X29.9624 Y227.9562
G01 X30.0077 Y228.0143
G01 X30.0557 Y228.0700
G01 X30.1065 Y228.1233
G01 X30.1598 Y228.1741
G01 X30.2156 Y228.2222
G01 X30.2736 Y228.2675
G01 X30.3338 Y228.3099
G01 X30.3960 Y228.3492
G01 X30.4601 Y228.3855
G01 X30.5258 Y228.4186
G01 X30.5931 Y228.4485
G01 X30.6618 Y228.4750
G01 X30.7317 Y228.4981
G01 X30.8027 Y228.5177
G01 X30.8745 Y228.5338
G01 X30.9471 Y228.5464
G01 X31.0201 Y228.5554
G01 X31.0935 Y228.5608
G01 X31.1671 Y228.5627
G01 X31.2407 Y228.5608
G01 X31.3142 Y228.5554
G01 X31.3872 Y228.5464
G01 X31.4598 Y228.5338
G01 X31.5316 Y228.5177
G01 X31.6026 Y228.4981
G01 X31.6725 Y228.4750
G01 X31.7412 Y228.4485
G01 X31.8085 Y228.4186
G01 X31.8742 Y228.3855
G01 X31.9383 Y228.3492
G01 X32.0005 Y228.3099
G01 X32.0607 Y228.2675
G01 X32.1187 Y228.2222
G01 X32.1745 Y228.1741
G01 X32.2278 Y228.1233
G01 X32.2785 Y228.0700
G01 X32.3266 Y228.0143
G01 X32.3719 Y227.9562
G01 X32.4143 Y227.8960
G01 X32.4537 Y227.8338
G01 X32.4900 Y227.7698
G01 X32.5231 Y227.7040
G01 X32.5529 Y227.6367
G01 X32.5794 Y227.5680
G01 X32.6025 Y227.4981
G01 X32.6222 Y227.4271
G01 X32.6383 Y227.3553
G01 X32.6509 Y227.2828
G01 X32.6599 Y227.2097
G01 X32.6653 Y227.1363
G01 X32.6671 Y227.0627
G01 X32.6629 Y226.9506
G01 X32.6504 Y226.8391
G01 X32.6295 Y226.7289
G01 X32.6005 Y226.6206
G01 X32.5634 Y226.5147
G01 X32.5186 Y226.4119
G01 X32.4662 Y226.3127
G01 X32.4065 Y226.2177
G01 X32.3399 Y226.1275
G01 X32.2667 Y226.0424
G01 X32.1874 Y225.9631
G01 X32.1024 Y225.8900
G01 X32.0121 Y225.8234
G01 X31.9171 Y225.7637
G01 X31.8180 Y225.7113
G01 X31.7151 Y225.6664
G01 X31.6093 Y225.6294
G01 X31.5009 Y225.6003
G01 X31.3907 Y225.5795
G01 X31.2792 Y225.5669
G01 X31.1671 Y225.5627
G01 X31.0551 Y225.5669
G01 X30.9436 Y225.5795
G01 X30.8334 Y225.6003
G01 X30.7250 Y225.6294
G01 X30.6191 Y225.6664
G01 X30.5163 Y225.7113
G01 X30.4172 Y225.7637
G01 X30.3222 Y225.8234
G01 X30.2319 Y225.8900
G01 X30.1469 Y225.9631
G01 X30.0676 Y226.0424
G01 X29.9944 Y226.1275
G01 X29.9278 Y226.2177
G01 X29.8681 Y226.3127
G01 X29.8157 Y226.4119
G01 X29.7709 Y226.5147
G01 X29.7338 Y226.6206
G01 X29.7048 Y226.7289
G01 X29.6839 Y226.8391
G01 X29.6714 Y226.9506
G01 X29.6672 Y227.0627
G01 X29.6714 Y227.1748
G01 X29.6839 Y227.2862
G01 X29.7048 Y227.3965
G01 X29.7338 Y227.5048
G01 X29.7709 Y227.6107
G01 X29.8157 Y227.7135
G01 X29.8681 Y227.8127
G01 X29.9278 Y227.9076
G01 X29.9944 Y227.9979
G01 X30.0676 Y228.0829
G01 X30.1469 Y228.1622
G01 X30.2319 Y228.2354
G01 X30.3222 Y228.3020
G01 X30.4172 Y228.3617
G01 X30.5163 Y228.4141
G01 X30.6191 Y228.4590
G01 X30.7250 Y228.4960
G01 X30.8334 Y228.5250
G01 X30.9436 Y228.5459
G01 X31.0551 Y228.5585
G01 X31.1671 Y228.5627
G01 X31.2792 Y228.5585
G01 X31.3907 Y228.5459
G01 X31.5009 Y228.5250
G01 X31.6093 Y228.4960
G01 X31.7151 Y228.4590
G01 X31.8180 Y228.4141
G01 X31.9171 Y228.3617
G01 X32.0121 Y228.3020
G01 X32.1024 Y228.2354
G01 X32.1874 Y228.1622
G01 X32.2667 Y228.0829
G01 X32.3399 Y227.9979
G01 X32.4065 Y227.9076
G01 X32.4662 Y227.8127
G01 X32.5186 Y227.7135
G01 X32.5634 Y227.6107
G01 X32.6005 Y227.5048
G01 X32.6295 Y227.3965
G01 X32.6504 Y227.2862
G01 X32.6629 Y227.1748
G01 X32.6671 Y227.0627
G01 X32.6633 Y226.9646
G01 X32.6517 Y226.8671
G01 X32.6326 Y226.7709
G01 X32.6059 Y226.6764
G01 X32.5720 Y226.5843
G01 X32.5309 Y226.4952
G01 X32.4829 Y226.4096
G01 X32.4284 Y226.3280
G01 X32.3676 Y226.2509
G01 X32.3010 Y226.1788
G01 X32.2289 Y226.1122
G01 X32.1519 Y226.0514
G01 X32.0702 Y225.9969
G01 X31.9846 Y225.9489
G01 X31.8955 Y225.9079
G01 X31.8034 Y225.8739
G01 X31.7089 Y225.8472
G01 X31.6127 Y225.8281
G01 X31.5152 Y225.8166
G01 X31.4171 Y225.8127
G01 X31.3191 Y225.8166
G01 X31.2216 Y225.8281
G01 X31.1253 Y225.8472
G01 X31.0309 Y225.8739
G01 X30.9388 Y225.9079
G01 X30.8497 Y225.9489
G01 X30.7640 Y225.9969
G01 X30.6824 Y226.0514
G01 X30.6053 Y226.1122
G01 X30.5333 Y226.1788
G01 X30.4666 Y226.2509
G01 X30.4059 Y226.3280
G01 X30.3513 Y226.4096
G01 X30.3034 Y226.4952
G01 X30.2623 Y226.5843
G01 X30.2283 Y226.6764
G01 X30.2017 Y226.7709
G01 X30.1825 Y226.8671
G01 X30.1710 Y226.9646
G01 X30.1671 Y227.0627
G01 X30.1682 Y227.1089
G01 X30.1714 Y227.1550
G01 X30.1767 Y227.2008
G01 X30.1842 Y227.2464
G01 X30.1937 Y227.2916
G01 X30.2053 Y227.3363
G01 X30.2190 Y227.3805
G01 X30.2347 Y227.4239
G01 X30.2524 Y227.4666
G01 X30.2720 Y227.5084
G01 X30.2935 Y227.5493
G01 X30.3169 Y227.5891
G01 X30.3422 Y227.6278
G01 X30.3691 Y227.6653
G01 X30.3978 Y227.7015
G01 X30.4281 Y227.7364
G01 X30.4600 Y227.7698
G01 X30.4935 Y227.8017
G01 X30.5283 Y227.8320
G01 X30.5645 Y227.8607
G01 X30.6020 Y227.8877
G01 X30.6407 Y227.9129
G01 X30.6805 Y227.9363
G01 X30.7214 Y227.9578
G01 X30.7632 Y227.9775
G01 X30.8059 Y227.9952
G01 X30.8494 Y228.0108
G01 X30.8935 Y228.0245
G01 X30.9382 Y228.0361
G01 X30.9834 Y228.0457
G01 X31.0290 Y228.0531
G01 X31.0749 Y228.0584
G01 X31.1210 Y228.0616
G01 X31.1671 Y228.0627
G01 X31.2133 Y228.0616
G01 X31.2594 Y228.0584
G01 X31.3053 Y228.0531
G01 X31.3509 Y228.0457
G01 X31.3961 Y228.0361
G01 X31.4408 Y228.0245
G01 X31.4849 Y228.0108
G01 X31.5284 Y227.9952
G01 X31.5711 Y227.9775
G01 X31.6129 Y227.9578
G01 X31.6538 Y227.9363
G01 X31.6936 Y227.9129
G01 X31.7323 Y227.8877
G01 X31.7698 Y227.8607
G01 X31.8060 Y227.8320
G01 X31.8408 Y227.8017
G01 X31.8743 Y227.7698
G01 X31.9062 Y227.7364
G01 X31.9365 Y227.7015
G01 X31.9652 Y227.6653
G01 X31.9921 Y227.6278
G01 X32.0174 Y227.5891
G01 X32.0408 Y227.5493
G01 X32.0623 Y227.5084
G01 X32.0819 Y227.4666
G01 X32.0996 Y227.4239
G01 X32.1153 Y227.3805
G01 X32.1290 Y227.3363
G01 X32.1406 Y227.2916
G01 X32.1501 Y227.2464
G01 X32.1576 Y227.2008
G01 X32.1629 Y227.1550
G01 X32.1661 Y227.1089
G01 X32.1671 Y227.0627
M107
M106 S240
G01 X32.1633 Y226.9755 Z-5.9045 F400
G01 X32.1520 Y226.8890 Z-5.9340
G01 X32.1331 Y226.8039 Z-5.9635
G01 X32.1068 Y226.7207 Z-5.9931
G01 X32.0735 Y226.6401 Z-6.0226
G01 X32.0332 Y226.5627 Z-6.0521
G01 X31.9863 Y226.4891 Z-6.0816
G01 X31.9332 Y226.4199 Z-6.1111
G01 X31.8743 Y226.3556 Z-6.1406
G01 X31.8099 Y226.2966 Z-6.1701
G01 X31.7407 Y226.2435 Z-6.1997
G01 X31.6671 Y226.1967 Z-6.2292
G01 X31.5898 Y226.1564 Z-6.2587
G01 X31.5092 Y226.1230 Z-6.2882
G01 X31.4260 Y226.0968 Z-6.3177
G01 X31.3408 Y226.0779 Z-6.3472
G01 X31.2543 Y226.0665 Z-6.3767
G01 X31.1671 Y226.0627 Z-6.4063
G01 X31.0800 Y226.0665 Z-6.4358
G01 X30.9935 Y226.0779 Z-6.4653
G01 X30.9083 Y226.0968 Z-6.4948
G01 X30.8251 Y226.1230 Z-6.5243
G01 X30.7445 Y226.1564 Z-6.5538
G01 X30.6671 Y226.1967 Z-6.5833
G01 X30.5936 Y226.2435 Z-6.6128
G01 X30.5244 Y226.2966 Z-6.6424
G01 X30.4600 Y226.3556 Z-6.6719
G01 X30.4011 Y226.4199 Z-6.7014
G01 X30.3480 Y226.4891 Z-6.7309
G01 X30.3011 Y226.5627 Z-6.7604
G01 X30.2608 Y226.6401 Z-6.7899
G01 X30.2275 Y226.7207 Z-6.8194
G01 X30.2012 Y226.8039 Z-6.8490
G01 X30.1823 Y226.8890 Z-6.8785
G01 X30.1710 Y226.9755 Z-6.9080
G01 X30.1671 Y227.0627 Z-6.9375
G01 X30.1710 Y227.1498 Z-6.9670
G01 X30.1823 Y227.2363 Z-6.9965
G01 X30.2012 Y227.3215 Z-7.0260
G01 X30.2275 Y227.4047 Z-7.0556
G01 X30.2608 Y227.4853 Z-7.0851
G01 X30.3011 Y227.5627 Z-7.1146
G01 X30.3480 Y227.6363 Z-7.1441
G01 X30.4011 Y227.7055 Z-7.1736
G01 X30.4600 Y227.7698 Z-7.2031
G01 X30.5244 Y227.8287 Z-7.2326
G01 X30.5936 Y227.8818 Z-7.2622
G01 X30.6671 Y227.9287 Z-7.2917
G01 X30.7445 Y227.9690 Z-7.3212
G01 X30.8251 Y228.0024 Z-7.3507
G01 X30.9083 Y228.0286 Z-7.3802
G01 X30.9935 Y228.0475 Z-7.4097
G01 X31.0800 Y228.0589 Z-7.4392
G01 X31.1671 Y228.0627 Z-7.4688
G01 X31.2543 Y228.0589 Z-7.4983
G01 X31.3408 Y228.0475 Z-7.5278
G01 X31.4260 Y228.0286 Z-7.5573
G01 X31.5092 Y228.0024 Z-7.5868
G01 X31.5898 Y227.9690 Z-7.6163
G01 X31.6671 Y227.9287 Z-7.6458
G01 X31.7407 Y227.8818 Z-7.6753
G01 X31.8099 Y227.8287 Z-7.7049
G01 X31.8743 Y227.7698 Z-7.7344
G01 X31.9332 Y227.7055 Z-7.7639
G01 X31.9863 Y227.6363 Z-7.7934
G01 X32.0332 Y227.5627 Z-7.8229
G01 X32.0735 Y227.4853 Z-7.8524
G01 X32.1068 Y227.4047 Z-7.8819
G01 X32.1331 Y227.3215 Z-7.9115
G01 X32.1520 Y227.2363 Z-7.9410
G01 X32.1633 Y227.1498 Z-7.9705
G01 X32.1671 Y227.0627 Z-8.0000
G01 X32.1633 Y226.9755
G01 X32.1520 Y226.8890
G01 X32.1331 Y226.8039
G01 X32.1068 Y226.7207
G01 X32.0735 Y226.6401
G01 X32.0332 Y226.5627
G01 X31.9863 Y226.4891
G01 X31.9332 Y226.4199
G01 X31.8743 Y226.3556
G01 X31.8099 Y226.2966
G01 X31.7407 Y226.2435
G01 X31.6671 Y226.1967
G01 X31.5898 Y226.1564
G01 X31.5092 Y226.1230
G01 X31.4260 Y226.0968
G01 X31.3408 Y226.0779
G01 X31.2543 Y226.0665
G01 X31.1671 Y226.0627
G01 X31.0800 Y226.0665
G01 X30.9935 Y226.0779
G01 X30.9083 Y226.0968
G01 X30.8251 Y226.1230
G01 X30.7445 Y226.1564
G01 X30.6671 Y226.1967
G01 X30.5936 Y226.2435
G01 X30.5244 Y226.2966
G01 X30.4600 Y226.3556
G01 X30.4011 Y226.4199
G01 X30.3480 Y226.4891
G01 X30.3011 Y226.5627
G01 X30.2608 Y226.6401
G01 X30.2275 Y226.7207
G01 X30.2012 Y226.8039
G01 X30.1823 Y226.8890
G01 X30.1710 Y226.9755
G01 X30.1671 Y227.0627
G01 X30.1710 Y227.1498
G01 X30.1823 Y227.2363
G01 X30.2012 Y227.3215
G01 X30.2275 Y227.4047
G01 X30.2608 Y227.4853
G01 X30.3011 Y227.5627
G01 X30.3480 Y227.6363
G01 X30.4011 Y227.7055
G01 X30.4600 Y227.7698
G01 X30.5244 Y227.8287
G01 X30.5936 Y227.8818
G01 X30.6671 Y227.9287
G01 X30.7445 Y227.9690
G01 X30.8251 Y228.0024
G01 X30.9083 Y228.0286
G01 X30.9935 Y228.0475
G01 X31.0800 Y228.0589
G01 X31.1671 Y228.0627
G01 X31.2543 Y228.0589
G01 X31.3408 Y228.0475
G01 X31.4260 Y228.0286
G01 X31.5092 Y228.0024
G01 X31.5898 Y227.9690
G01 X31.6671 Y227.9287
G01 X31.7407 Y227.8818
G01 X31.8099 Y227.8287
G01 X31.8743 Y227.7698
G01 X31.9332 Y227.7055
G01 X31.9863 Y227.6363
G01 X32.0332 Y227.5627
G01 X32.0735 Y227.4853
G01 X32.1068 Y227.4047
G01 X32.1331 Y227.3215
G01 X32.1520 Y227.2363
G01 X32.1633 Y227.1498
G01 X32.1671 Y227.0627
G01 X32.1779 Y227.0111 F1000
G01 X32.1860 Y226.9590
G01 X32.1914 Y226.9066
G01 X32.1940 Y226.8539
G01 Y226.8012
G01 X32.1912 Y226.7486
G01 X32.1858 Y226.6962
G01 X32.1776 Y226.6441
G01 X32.1659 Y226.5881
G01 X32.1514 Y226.5328
G01 X32.1340 Y226.4783
G01 X32.1139 Y226.4248
G01 X32.0910 Y226.3724
G01 X32.0655 Y226.3212
G01 X32.0374 Y226.2713
G01 X32.0068 Y226.2230
G01 X31.9712 Y226.1726
G01 X31.9331 Y226.1241
G01 X31.8926 Y226.0776
G01 X31.8497 Y226.0332
G01 X31.8046 Y225.9910
G01 X31.7575 Y225.9512
G01 X31.7084 Y225.9138
G01 X31.6575 Y225.8790
G01 X31.6010 Y225.8444
G01 X31.5428 Y225.8127
G01 X31.4831 Y225.7840
G01 X31.4220 Y225.7584
G01 X31.3597 Y225.7359
G01 X31.2964 Y225.7166
G01 X31.2321 Y225.7005
G01 X31.1671 Y225.6877
G01 X31.0971 Y225.6775
G01 X31.0267 Y225.6709
G01 X30.9560 Y225.6678
G01 X30.8852 Y225.6683
G01 X30.8146 Y225.6723
G01 X30.7442 Y225.6799
G01 X30.6743 Y225.6911
G01 X30.6051 Y225.7057
G01 X30.5369 Y225.7317
G01 X30.4701 Y225.7610
G01 X30.4048 Y225.7935
G01 X30.3412 Y225.8293
G01 X30.2794 Y225.8681
G01 X30.2196 Y225.9099
G01 X30.1619 Y225.9546
G01 X30.1065 Y226.0020
G01 X30.0557 Y226.0554
G01 X30.0077 Y226.1111
G01 X29.9624 Y226.1692
G01 X29.9200 Y226.2293
G01 X29.8806 Y226.2915
G01 X29.8443 Y226.3556
G01 X29.8112 Y226.4214
G01 X29.7814 Y226.4887
G01 X29.7549 Y226.5574
G01 X29.7318 Y226.6273
G01 X29.7121 Y226.6982
G01 X29.6960 Y226.7701
G01 X29.6834 Y226.8426
G01 X29.6744 Y226.9157
G01 X29.6690 Y226.9891
G01 X29.6672 Y227.0627
G01 X29.6690 Y227.1363
G01 X29.6744 Y227.2097
G01 X29.6834 Y227.2828
G01 X29.6960 Y227.3553
G01 X29.7121 Y227.4271
G01 X29.7318 Y227.4981
G01 X29.7549 Y227.5680
G01 X29.7814 Y227.6367
G01 X29.8112 Y227.7040
G01 X29.8443 Y227.7698
G01 X29.8806 Y227.8338
G01 X29.9200 Y227.8960
G01 X29.9624 Y227.9562
G01 X30.0077 Y228.0143
G01 X30.0557 Y228.0700
G01 X30.1065 Y228.1233
G01 X30.1598 Y228.1741
G01 X30.2156 Y228.2222
G01 X30.2736 Y228.2675
G01 X30.3338 Y228.3099
G01 X30.3960 Y228.3492
G01 X30.4601 Y228.3855
G01 X30.5258 Y228.4186
G01 X30.5931 Y228.4485
G01 X30.6618 Y228.4750
G01 X30.7317 Y228.4981
G01 X30.8027 Y228.5177
G01 X30.8745 Y228.5338
G01 X30.9471 Y228.5464
G01 X31.0201 Y228.5554
G01 X31.0935 Y228.5608
G01 X31.1671 Y228.5627
G01 X31.2407 Y228.5608
G01 X31.3142 Y228.5554
G01 X31.3872 Y228.5464
G01 X31.4598 Y228.5338
G01 X31.5316 Y228.5177
G01 X31.6026 Y228.4981
G01 X31.6725 Y228.4750
G01 X31.7412 Y228.4485
G01 X31.8085 Y228.4186
G01 X31.8742 Y228.3855
G01 X31.9383 Y228.3492
G01 X32.0005 Y228.3099
G01 X32.0607 Y228.2675
G01 X32.1187 Y228.2222
G01 X32.1745 Y228.1741
G01 X32.2278 Y228.1233
G01 X32.2785 Y228.0700
G01 X32.3266 Y228.0143
G01 X32.3719 Y227.9562
G01 X32.4143 Y227.8960
G01 X32.4537 Y227.8338
G01 X32.4900 Y227.7698
G01 X32.5231 Y227.7040
G01 X32.5529 Y227.6367
G01 X32.5794 Y227.5680
G01 X32.6025 Y227.4981
G01 X32.6222 Y227.4271
G01 X32.6383 Y227.3553
G01 X32.6509 Y227.2828
G01 X32.6599 Y227.2097
G01 X32.6653 Y227.1363
G01 X32.6671 Y227.0627
G01 X32.6629 Y226.9506
G01 X32.6504 Y226.8391
G01 X32.6295 Y226.7289
G01 X32.6005 Y226.6206
G01 X32.5634 Y226.5147
G01 X32.5186 Y226.4119
G01 X32.4662 Y226.3127
G01 X32.4065 Y226.2177
G01 X32.3399 Y226.1275
G01 X32.2667 Y226.0424
G01 X32.1874 Y225.9631
G01 X32.1024 Y225.8900
G01 X32.0121 Y225.8234
G01 X31.9171 Y225.7637
G01 X31.8180 Y225.7113
G01 X31.7151 Y225.6664
G01 X31.6093 Y225.6294
G01 X31.5009 Y225.6003
G01 X31.3907 Y225.5795
G01 X31.2792 Y225.5669
G01 X31.1671 Y225.5627
G01 X31.0551 Y225.5669
G01 X30.9436 Y225.5795
G01 X30.8334 Y225.6003
G01 X30.7250 Y225.6294
G01 X30.6191 Y225.6664
G01 X30.5163 Y225.7113
G01 X30.4172 Y225.7637
G01 X30.3222 Y225.8234
G01 X30.2319 Y225.8900
G01 X30.1469 Y225.9631
G01 X30.0676 Y226.0424
G01 X29.9944 Y226.1275
G01 X29.9278 Y226.2177
G01 X29.8681 Y226.3127
G01 X29.8157 Y226.4119
G01 X29.7709 Y226.5147
G01 X29.7338 Y226.6206
G01 X29.7048 Y226.7289
G01 X29.6839 Y226.8391
G01 X29.6714 Y226.9506
G01 X29.6672 Y227.0627
G01 X29.6714 Y227.1748
G01 X29.6839 Y227.2862
G01 X29.7048 Y227.3965
G01 X29.7338 Y227.5048
G01 X29.7709 Y227.6107
G01 X29.8157 Y227.7135
G01 X29.8681 Y227.8127
G01 X29.9278 Y227.9076
G01 X29.9944 Y227.9979
G01 X30.0676 Y228.0829
G01 X30.1469 Y228.1622
G01 X30.2319 Y228.2354
G01 X30.3222 Y228.3020
G01 X30.4172 Y228.3617
G01 X30.5163 Y228.4141
G01 X30.6191 Y228.4590
G01 X30.7250 Y228.4960
G01 X30.8334 Y228.5250
G01 X30.9436 Y228.5459
G01 X31.0551 Y228.5585
G01 X31.1671 Y228.5627
G01 X31.2792 Y228.5585
G01 X31.3907 Y228.5459
G01 X31.5009 Y228.5250
G01 X31.6093 Y228.4960
G01 X31.7151 Y228.4590
G01 X31.8180 Y228.4141
G01 X31.9171 Y228.3617
G01 X32.0121 Y228.3020
G01 X32.1024 Y228.2354
G01 X32.1874 Y228.1622
G01 X32.2667 Y228.0829
G01 X32.3399 Y227.9979
G01 X32.4065 Y227.9076
G01 X32.4662 Y227.8127
G01 X32.5186 Y227.7135
G01 X32.5634 Y227.6107
G01 X32.6005 Y227.5048
G01 X32.6295 Y227.3965
G01 X32.6504 Y227.2862
G01 X32.6629 Y227.1748
G01 X32.6671 Y227.0627
M107
M106 S240
G01 X32.6640 Y226.9842 Z-7.9750 F400
M107
M106 S240
G01 X32.6548 Y226.9063 Z-7.9500
M107
M106 S240
G01 X32.6395 Y226.8292 Z-7.9250
M107
M106 S240
G01 X32.6182 Y226.7537 Z-7.9000
M107
M106 S240
G01 X32.5910 Y226.6800 Z-7.8750
M107
M106 S240
G01 X32.5581 Y226.6087 Z-7.8500
M107
M106 S240
G01 X32.5198 Y226.5402 Z-7.8250
M107
M106 S240
G01 X32.4761 Y226.4749 Z-7.8000
M107
M106 S240
G01 X32.4275 Y226.4132 Z-7.7750
M107
M106 S240
G01 X32.3742 Y226.3556 Z-7.7500
M107
M106 S240
G01 X32.3166 Y226.3023 Z-7.7250
M107
M106 S240
G01 X32.2549 Y226.2537 Z-7.7000
M107
M106 S240
G01 X32.1896 Y226.2100 Z-7.6750
M107
M106 S240
G01 X32.1211 Y226.1717 Z-7.6500
M107
M106 S240
G01 X32.0498 Y226.1388 Z-7.6250
M107
M106 S240
G01 X31.9761 Y226.1116 Z-7.6000
M107
M106 S240
G01 X31.9006 Y226.0903 Z-7.5750
M107
M106 S240
G01 X31.8235 Y226.0750 Z-7.5500
M107
M106 S240
G01 X31.7456 Y226.0658 Z-7.5250
M107
M106 S240
G01 X31.6671 Y226.0627 Z-7.5000
M107
G00 Z2.0000


;No. 2: Hole 1
G00 X42.6862 Y239.4403 Z2.0000
G00 Z0.5000
G01 Z0.0000 F400
G01 Z-2.5000
M106 S240
G01 X45.5120 F1000
G01 Y240.9403
G01 X42.6862
G01 Y242.4403
G01 X45.5120
G01 Y243.9403
G01 X42.6862
G01 Y245.4403
G01 X45.5120
G01 Y246.9403
G01 X42.6862
G01 Y248.4403
G01 X45.5120
G01 Y249.9403
G01 X42.6862
G01 Y251.4403
G01 X45.5120
G01 Y252.9403
G01 X42.6862
G01 X42.6772 Y254.4403
G01 X45.5210
G01 Y255.9403
G01 X54.2826
G01 X33.8725
G01 X32.4554 Y257.4403
G01 X55.7384
G01 X55.9209 Y257.3579
G01 X55.7505 Y257.0582
G01 X55.5534 Y256.7753
G01 X55.3313 Y256.5117
G01 X55.0860 Y256.2694
G01 X54.8196 Y256.0507
G01 X54.5343 Y255.8572
G01 X54.2325 Y255.6906
G01 X53.9167 Y255.5523
G01 X53.5896 Y255.4434
G01 X53.2539 Y255.3649
G01 X52.9125 Y255.3175
G01 X52.5681 Y255.3015
G01 X46.7120
G01 X46.6335 Y255.2984
G01 X46.5556 Y255.2891
G01 X46.4786 Y255.2738
G01 X46.4030 Y255.2525
G01 X46.3293 Y255.2253
G01 X46.2580 Y255.1925
G01 X46.1895 Y255.1541
G01 X46.1242 Y255.1105
G01 X46.0625 Y255.0619
G01 X46.0049 Y255.0086
G01 X45.9516 Y254.9509
G01 X45.9030 Y254.8892
G01 X45.8594 Y254.8239
G01 X45.8210 Y254.7554
G01 X45.7881 Y254.6841
G01 X45.7609 Y254.6105
G01 X45.7396 Y254.5349
G01 X45.7243 Y254.4579
G01 X45.7151 Y254.3799
G01 X45.7120 Y254.3015
G01 Y238.3533
G01 X42.4862
G01 Y254.3014
G01 X42.4831 Y254.3798
G01 X42.4739 Y254.4578
G01 X42.4586 Y254.5348
G01 X42.4373 Y254.6104
G01 X42.4101 Y254.6840
G01 X42.3772 Y254.7553
G01 X42.3388 Y254.8239
G01 X42.2952 Y254.8891
G01 X42.2466 Y254.9508
G01 X42.1933 Y255.0085
G01 X42.1356 Y255.0618
G01 X42.0740 Y255.1104
G01 X42.0087 Y255.1540
G01 X41.9402 Y255.1924
G01 X41.8689 Y255.2252
G01 X41.7952 Y255.2524
G01 X41.7196 Y255.2737
G01 X41.6426 Y255.2890
G01 X41.5647 Y255.2983
G01 X41.4862 Y255.3014
G01 X39.9943 Y255.2877
G01 X38.5023 Y255.2834
G01 X37.0103 Y255.2884
G01 X35.5184 Y255.3028
G01 X35.1899 Y255.3213
G01 X34.8643 Y255.3694
G01 X34.5445 Y255.4465
G01 X34.2329 Y255.5522
G01 X33.9320 Y255.6855
G01 X33.6444 Y255.8453
G01 X33.3723 Y256.0303
G01 X33.1180 Y256.2391
G01 X32.8835 Y256.4700
G01 X32.6708 Y256.7210
G01 X32.4815 Y256.9901
G01 X32.3172 Y257.2752
G01 X32.1793 Y257.5740
G01 X32.0688 Y257.8839
G01 X31.9866 Y258.2025
G01 X31.9335 Y258.5273
G01 X56.2646
G01 X56.2714 Y258.5115
G01 X56.2211 Y258.2129
G01 X56.1455 Y257.9197
G01 X56.0452 Y257.6340
G01 X55.9209 Y257.3579
G01 X55.7384 Y257.4403
M107
G00 Z2.0000


;No. 3: Hole 2
G00 X65.7008 Y256.9143 Z2.0000
G00 Z0.5000
G01 Z0.0000 F400
G01 Z-2.5000
M106 S240
G01 X88.3303 F1000
G01 X88.4694 Y256.7676
G01 X88.2868 Y256.5466
G01 X88.0878 Y256.3403
G01 X87.8736 Y256.1499
G01 X87.6454 Y255.9765
G01 X87.4045 Y255.8212
G01 X87.1524 Y255.6848
G01 X86.8905 Y255.5682
G01 X86.6205 Y255.4720
G01 X86.3439 Y255.3969
G01 X86.0624 Y255.3432
G01 X85.7775 Y255.3113
G01 X85.4911 Y255.3014
G01 X68.5543
G01 X68.2183 Y255.3105
G01 X67.8845 Y255.3506
G01 X67.5559 Y255.4211
G01 X67.2351 Y255.5215
G01 X66.9249 Y255.6509
G01 X66.6279 Y255.8083
G01 X66.3466 Y255.9923
G01 X66.0834 Y256.2014
G01 X65.8406 Y256.4338
G01 X65.6201 Y256.6875
G01 X65.4239 Y256.9604
G01 X65.2535 Y257.2502
G01 X65.1105 Y257.5543
G01 X64.9961 Y257.8704
G01 X64.9112 Y258.1956
G01 X64.8565 Y258.5273
G01 X89.1875 Y258.5272
G01 X89.1946 Y258.5115
G01 X89.1576 Y258.2754
G01 X89.1046 Y258.0424
G01 X89.0358 Y257.8135
G01 X88.9516 Y257.5898
G01 X88.8524 Y257.3724
G01 X88.7386 Y257.1622
G01 X88.6107 Y256.9603
G01 X88.4694 Y256.7676
G01 X88.3303 Y256.9143
M107
G00 Z2.0000


;No. 4: Hole 3
G00 X88.3303 Y248.4403 Z2.0000
G00 Z0.5000
G01 Z0.0000 F400
G01 Z-2.5000
M106 S240
G01 X65.7008 F1000
G01 X65.5496 Y248.3085
G01 X65.4124 Y248.5025
G01 X65.2888 Y248.7052
G01 X65.1791 Y248.9159
G01 X65.0840 Y249.1336
G01 X65.0039 Y249.3572
G01 X64.9390 Y249.5857
G01 X64.8898 Y249.8180
G01 X64.8565 Y250.0532
G01 X89.1875 Y250.0531
G01 X89.1946 Y250.0375
G01 X89.1324 Y249.7095
G01 X89.0413 Y249.3883
G01 X88.9219 Y249.0765
G01 X88.7752 Y248.7766
G01 X88.6023 Y248.4909
G01 X88.4047 Y248.2218
G01 X88.1839 Y247.9714
G01 X87.9416 Y247.7417
G01 X87.6798 Y247.5345
G01 X87.4005 Y247.3514
G01 X87.1061 Y247.1940
G01 X86.7988 Y247.0634
G01 X86.4811 Y246.9608
G01 X86.1555 Y246.8869
G01 X85.8246 Y246.8423
G01 X85.4911 Y246.8273
G01 X68.5542
G01 X68.2641 Y246.8323
G01 X67.9753 Y246.8605
G01 X67.6897 Y246.9117
G01 X67.4092 Y246.9856
G01 X67.1354 Y247.0817
G01 X66.8703 Y247.1995
G01 X66.6154 Y247.3381
G01 X66.3724 Y247.4967
G01 X66.1429 Y247.6742
G01 X65.9284 Y247.8696
G01 X65.7302 Y248.0814
G01 X65.5496 Y248.3085
G01 X65.7008 Y248.4403
M107
G00 Z2.0000


;No. 5: Hole 4
G00 X65.7008 Y239.9662 Z2.0000
G00 Z0.5000
G01 Z0.0000 F400
G01 Z-2.5000
M106 S240
G01 X88.3303 F1000
G01 X88.4694 Y239.8195
G01 X88.2868 Y239.5985
G01 X88.0878 Y239.3922
G01 X87.8736 Y239.2018
G01 X87.6454 Y239.0284
G01 X87.4045 Y238.8731
G01 X87.1524 Y238.7367
G01 X86.8905 Y238.6201
G01 X86.6205 Y238.5239
G01 X86.3439 Y238.4488
G01 X86.0624 Y238.3951
G01 X85.7775 Y238.3632
G01 X85.4911 Y238.3533
G01 X68.5542
G01 X68.2181 Y238.3621
G01 X67.8843 Y238.4019
G01 X67.5555 Y238.4722
G01 X67.2346 Y238.5724
G01 X66.9243 Y238.7018
G01 X66.6271 Y238.8591
G01 X66.3458 Y239.0431
G01 X66.0825 Y239.2523
G01 X65.8396 Y239.4847
G01 X65.6191 Y239.7385
G01 X65.4229 Y240.0115
G01 X65.2527 Y240.3014
G01 X65.1098 Y240.6058
G01 X64.9955 Y240.9220
G01 X64.9109 Y241.2473
G01 X64.8565 Y241.5791
G01 X89.1875
G01 X89.1946 Y241.5635
G01 X89.1576 Y241.3273
G01 X89.1046 Y241.0943
G01 X89.0358 Y240.8654
G01 X88.9516 Y240.6417
G01 X88.8524 Y240.4243
G01 X88.7386 Y240.2141
G01 X88.6107 Y240.0122
G01 X88.4694 Y239.8195
G01 X88.3303 Y239.9662
M107
G00 Z2.0000


;No. 6: Hole 5
G00 X98.3086 Y239.4403 Z2.0000
G00 Z0.5000
G01 Z0.0000 F400
G01 Z-2.5000
M106 S240
G01 X121.9523 F1000
G01 Y240.9403
G01 X99.7578
G01 X119.1175
G01 Y242.4403
G01 X121.9523
G01 Y243.9403
G01 X119.1265
G01 Y245.4403
G01 X121.9523
G01 Y246.9403
G01 X118.3742
G01 X121.9523 Y248.4403
G01 X97.9414
G01 Y249.9403
G01 X101.5194
G01 X100.7672
G01 Y251.4403
G01 X97.9414
G01 Y252.9403
G01 X100.7672
G01 X100.7761 Y254.4403
G01 X97.9414
G01 Y255.9403
G01 X120.1304
G01 X121.5862 Y257.4403
G01 X97.9414
G01 X97.7414 Y257.4239
G01 Y258.5273
G01 X122.1123
G01 X122.1192 Y258.5115
G01 X122.0568 Y258.1836
G01 X121.9655 Y257.8625
G01 X121.8460 Y257.5509
G01 X121.6991 Y257.2511
G01 X121.5262 Y256.9656
G01 X121.3286 Y256.6966
G01 X121.1077 Y256.4463
G01 X120.8655 Y256.2166
G01 X120.6038 Y256.0094
G01 X120.3246 Y255.8264
G01 X120.0303 Y255.6689
G01 X119.7232 Y255.5383
G01 X119.4056 Y255.4355
G01 X119.0801 Y255.3614
G01 X118.7493 Y255.3166
G01 X118.4159 Y255.3015
G01 X101.9672
G01 X101.9235 Y255.3005
G01 X101.8800 Y255.2976
G01 X101.8366 Y255.2929
G01 X101.7935 Y255.2863
G01 X101.7507 Y255.2777
G01 X101.7083 Y255.2674
G01 X101.6664 Y255.2552
G01 X101.6251 Y255.2411
G01 X101.5845 Y255.2253
G01 X101.5445 Y255.2078
G01 X101.5054 Y255.1885
G01 X101.4672 Y255.1675
G01 X101.4299 Y255.1448
G01 X101.3936 Y255.1206
G01 X101.3584 Y255.0948
G01 X101.3244 Y255.0675
G01 X101.2916 Y255.0387
G01 X101.2600 Y255.0086
G01 X101.2299 Y254.9770
G01 X101.2011 Y254.9442
G01 X101.1738 Y254.9102
G01 X101.1480 Y254.8750
G01 X101.1238 Y254.8388
G01 X101.1011 Y254.8015
G01 X101.0801 Y254.7632
G01 X101.0608 Y254.7241
G01 X101.0433 Y254.6841
G01 X101.0275 Y254.6435
G01 X101.0134 Y254.6022
G01 X101.0012 Y254.5603
G01 X100.9909 Y254.5179
G01 X100.9823 Y254.4751
G01 X100.9757 Y254.4320
G01 X100.9710 Y254.3886
G01 X100.9681 Y254.3451
G01 X100.9672 Y254.3015
G01 Y251.0532
G01 X100.9702 Y250.9747
G01 X100.9795 Y250.8968
G01 X100.9948 Y250.8197
G01 X101.0161 Y250.7442
G01 X101.0433 Y250.6705
G01 X101.0761 Y250.5992
G01 X101.1145 Y250.5307
G01 X101.1581 Y250.4654
G01 X101.2067 Y250.4037
G01 X101.2600 Y250.3461
G01 X101.3177 Y250.2928
G01 X101.3794 Y250.2442
G01 X101.4447 Y250.2005
G01 X101.5132 Y250.1622
G01 X101.5845 Y250.1293
G01 X101.6581 Y250.1021
G01 X101.7337 Y250.0808
G01 X101.8107 Y250.0655
G01 X101.8887 Y250.0563
G01 X101.9672 Y250.0532
G01 X122.1523
G01 Y238.3533
G01 X97.7814
G01 X97.8408 Y238.6827
G01 X97.9296 Y239.0054
G01 X98.0470 Y239.3188
G01 X98.1921 Y239.6204
G01 X98.3637 Y239.9077
G01 X98.5604 Y240.1785
G01 X98.7807 Y240.4305
G01 X99.0227 Y240.6617
G01 X99.2845 Y240.8701
G01 X99.5640 Y241.0543
G01 X99.8589 Y241.2126
G01 X100.1668 Y241.3437
G01 X100.4852 Y241.4466
G01 X100.8117 Y241.5205
G01 X101.1434 Y241.5648
G01 X101.4778 Y241.5791
G01 X117.9265
G01 X117.9701 Y241.5801
G01 X118.0137 Y241.5829
G01 X118.0571 Y241.5877
G01 X118.1002 Y241.5943
G01 X118.1430 Y241.6028
G01 X118.1853 Y241.6132
G01 X118.2272 Y241.6254
G01 X118.2685 Y241.6394
G01 X118.3092 Y241.6552
G01 X118.3491 Y241.6728
G01 X118.3883 Y241.6921
G01 X118.4265 Y241.7131
G01 X118.4638 Y241.7357
G01 X118.5001 Y241.7600
G01 X118.5353 Y241.7858
G01 X118.5693 Y241.8131
G01 X118.6021 Y241.8418
G01 X118.6336 Y241.8720
G01 X118.6638 Y241.9035
G01 X118.6926 Y241.9363
G01 X118.7199 Y241.9704
G01 X118.7457 Y242.0055
G01 X118.7699 Y242.0418
G01 X118.7926 Y242.0791
G01 X118.8135 Y242.1174
G01 X118.8328 Y242.1565
G01 X118.8504 Y242.1964
G01 X118.8662 Y242.2371
G01 X118.8802 Y242.2784
G01 X118.8925 Y242.3203
G01 X118.9028 Y242.3627
G01 X118.9113 Y242.4055
G01 X118.9180 Y242.4486
G01 X118.9227 Y242.4920
G01 X118.9256 Y242.5355
G01 X118.9265 Y242.5791
G01 Y245.8274
G01 X118.9256 Y245.8710
G01 X118.9227 Y245.9145
G01 X118.9180 Y245.9579
G01 X118.9113 Y246.0010
G01 X118.9028 Y246.0438
G01 X118.8925 Y246.0862
G01 X118.8802 Y246.1281
G01 X118.8662 Y246.1694
G01 X118.8504 Y246.2101
G01 X118.8328 Y246.2500
G01 X118.8135 Y246.2891
G01 X118.7926 Y246.3274
G01 X118.7699 Y246.3647
G01 X118.7457 Y246.4010
G01 X118.7199 Y246.4361
G01 X118.6926 Y246.4702
G01 X118.6638 Y246.5030
G01 X118.6336 Y246.5345
G01 X118.6021 Y246.5647
G01 X118.5693 Y246.5934
G01 X118.5353 Y246.6207
G01 X118.5001 Y246.6465
G01 X118.4638 Y246.6708
G01 X118.4265 Y246.6934
G01 X118.3883 Y246.7144
G01 X118.3491 Y246.7337
G01 X118.3092 Y246.7513
G01 X118.2685 Y246.7671
G01 X118.2272 Y246.7811
G01 X118.1853 Y246.7933
G01 X118.1430 Y246.8037
G01 X118.1002 Y246.8122
G01 X118.0571 Y246.8188
G01 X118.0137 Y246.8236
G01 X117.9701 Y246.8264
G01 X117.9265 Y246.8274
G01 X97.7414
G01 Y257.4239
G01 X97.9414 Y257.4403
M107
G00 Z2.0000


;No. 7: Hole 6
G00 X130.8643 Y257.4403 Z2.0000
G00 Z0.5000
G01 Z0.0000 F400
G01 Z-2.5000
M106 S240
G01 X133.6901 F1000
G01 Y255.9403
G01 X130.8643
G01 Y254.4403
G01 X133.6901
G01 Y252.9403
G01 X130.8643
G01 Y251.4403
G01 X133.6901
G01 Y249.9403
G01 X130.8643
G01 Y248.4403
G01 X133.6901
G01 Y246.9403
G01 X130.8643
G01 Y245.4403
G01 X133.6901
G01 Y243.9403
G01 X130.8643
G01 Y242.4403
G01 X133.6991
G01 X130.8643 Y240.9403
G01 X154.6971
G01 X153.6827 Y239.4403
G01 X130.8643
G01 X130.6643 Y239.4575
G01 Y258.5273
G01 X133.8901
G01 Y242.5791
G01 X133.8932 Y242.5002
G01 X133.9026 Y242.4217
G01 X133.9181 Y242.3442
G01 X133.9397 Y242.2682
G01 X133.9672 Y242.1941
G01 X134.0005 Y242.1225
G01 X134.0393 Y242.0536
G01 X134.0835 Y241.9881
G01 X134.1326 Y241.9263
G01 X134.1866 Y241.8685
G01 X134.2449 Y241.8151
G01 X134.3072 Y241.7666
G01 X134.3732 Y241.7231
G01 X134.4424 Y241.6849
G01 X134.5144 Y241.6524
G01 X134.5887 Y241.6256
G01 X134.6649 Y241.6048
G01 X134.7426 Y241.5900
G01 X134.8211 Y241.5815
G01 X134.9001 Y241.5791
G01 X155.0353
G01 X155.0423 Y241.5635
G01 X154.9802 Y241.2355
G01 X154.8891 Y240.9143
G01 X154.7697 Y240.6024
G01 X154.6229 Y240.3025
G01 X154.4501 Y240.0169
G01 X154.2524 Y239.7478
G01 X154.0316 Y239.4974
G01 X153.7893 Y239.2676
G01 X153.5275 Y239.0604
G01 X153.2483 Y238.8774
G01 X152.9539 Y238.7199
G01 X152.6466 Y238.5894
G01 X152.3288 Y238.4867
G01 X152.0032 Y238.4128
G01 X151.6724 Y238.3682
G01 X151.3388 Y238.3533
G01 X130.6643
G01 Y239.4575
G01 X130.8643 Y239.4403
M107
G00 Z2.0000


;No. 8: Helical drill 2
G00 X189.7267 Y227.3544 Z2.0000
G00 Z0.5000
M106 S240
G01 X189.7229 Y227.2672 Z0.4705 F400
G01 X189.7115 Y227.1807 Z0.4410
G01 X189.6926 Y227.0955 Z0.4115
G01 X189.6664 Y227.0123 Z0.3819
G01 X189.6330 Y226.9317 Z0.3524
G01 X189.5927 Y226.8544 Z0.3229
G01 X189.5459 Y226.7808 Z0.2934
G01 X189.4927 Y226.7116 Z0.2639
G01 X189.4338 Y226.6473 Z0.2344
G01 X189.3695 Y226.5883 Z0.2049
G01 X189.3003 Y226.5352 Z0.1753
G01 X189.2267 Y226.4883 Z0.1458
G01 X189.1493 Y226.4481 Z0.1163
G01 X189.0687 Y226.4147 Z0.0868
G01 X188.9855 Y226.3884 Z0.0573
G01 X188.9004 Y226.3696 Z0.0278
G01 X188.8139 Y226.3582 Z-0.0017
G01 X188.7267 Y226.3544 Z-0.0313
G01 X188.6395 Y226.3582 Z-0.0608
G01 X188.5531 Y226.3696 Z-0.0903
G01 X188.4679 Y226.3884 Z-0.1198
G01 X188.3847 Y226.4147 Z-0.1493
G01 X188.3041 Y226.4481 Z-0.1788
G01 X188.2267 Y226.4883 Z-0.2083
G01 X188.1531 Y226.5352 Z-0.2378
G01 X188.0839 Y226.5883 Z-0.2674
G01 X188.0196 Y226.6473 Z-0.2969
G01 X187.9607 Y226.7116 Z-0.3264
G01 X187.9075 Y226.7808 Z-0.3559
G01 X187.8607 Y226.8544 Z-0.3854
G01 X187.8204 Y226.9317 Z-0.4149
G01 X187.7870 Y227.0123 Z-0.4444
G01 X187.7608 Y227.0955 Z-0.4740
G01 X187.7419 Y227.1807 Z-0.5035
G01 X187.7305 Y227.2672 Z-0.5330
G01 X187.7267 Y227.3544 Z-0.5625
G01 X187.7305 Y227.4415 Z-0.5920
G01 X187.7419 Y227.5280 Z-0.6215
G01 X187.7608 Y227.6132 Z-0.6510
G01 X187.7870 Y227.6964 Z-0.6806
G01 X187.8204 Y227.7770 Z-0.7101
G01 X187.8607 Y227.8544 Z-0.7396
G01 X187.9075 Y227.9279 Z-0.7691
G01 X187.9607 Y227.9971 Z-0.7986
G01 X188.0196 Y228.0615 Z-0.8281
G01 X188.0839 Y228.1204 Z-0.8576
G01 X188.1531 Y228.1735 Z-0.8872
G01 X188.2267 Y228.2204 Z-0.9167
G01 X188.3041 Y228.2607 Z-0.9462
G01 X188.3847 Y228.2941 Z-0.9757
G01 X188.4679 Y228.3203 Z-1.0052
G01 X188.5531 Y228.3392 Z-1.0347
G01 X188.6395 Y228.3506 Z-1.0642
G01 X188.7267 Y228.3544 Z-1.0938
G01 X188.8139 Y228.3506 Z-1.1233
G01 X188.9004 Y228.3392 Z-1.1528
G01 X188.9855 Y228.3203 Z-1.1823
G01 X189.0687 Y228.2941 Z-1.2118
G01 X189.1493 Y228.2607 Z-1.2413
G01 X189.2267 Y228.2204 Z-1.2708
G01 X189.3003 Y228.1735 Z-1.3003
G01 X189.3695 Y228.1204 Z-1.3299
G01 X189.4338 Y228.0615 Z-1.3594
G01 X189.4927 Y227.9971 Z-1.3889
G01 X189.5459 Y227.9279 Z-1.4184
G01 X189.5927 Y227.8544 Z-1.4479
G01 X189.6330 Y227.7770 Z-1.4774
G01 X189.6664 Y227.6964 Z-1.5069
G01 X189.6926 Y227.6132 Z-1.5365
G01 X189.7115 Y227.5280 Z-1.5660
G01 X189.7229 Y227.4415 Z-1.5955
G01 X189.7267 Y227.3544 Z-1.6250
G01 X189.7229 Y227.2672
G01 X189.7115 Y227.1807
G01 X189.6926 Y227.0955
G01 X189.6664 Y227.0123
G01 X189.6330 Y226.9317
G01 X189.5927 Y226.8544
G01 X189.5459 Y226.7808
G01 X189.4927 Y226.7116
G01 X189.4338 Y226.6473
G01 X189.3695 Y226.5883
G01 X189.3003 Y226.5352
G01 X189.2267 Y226.4883
G01 X189.1493 Y226.4481
G01 X189.0687 Y226.4147
G01 X188.9855 Y226.3884
G01 X188.9004 Y226.3696
G01 X188.8139 Y226.3582
G01 X188.7267 Y226.3544
G01 X188.6395 Y226.3582
G01 X188.5531 Y226.3696
G01 X188.4679 Y226.3884
G01 X188.3847 Y226.4147
G01 X188.3041 Y226.4481
G01 X188.2267 Y226.4883
G01 X188.1531 Y226.5352
G01 X188.0839 Y226.5883
G01 X188.0196 Y226.6473
G01 X187.9607 Y226.7116
G01 X187.9075 Y226.7808
G01 X187.8607 Y226.8544
G01 X187.8204 Y226.9317
G01 X187.7870 Y227.0123
G01 X187.7608 Y227.0955
G01 X187.7419 Y227.1807
G01 X187.7305 Y227.2672
G01 X187.7267 Y227.3544
G01 X187.7305 Y227.4415
G01 X187.7419 Y227.5280
G01 X187.7608 Y227.6132
G01 X187.7870 Y227.6964
G01 X187.8204 Y227.7770
G01 X187.8607 Y227.8544
G01 X187.9075 Y227.9279
G01 X187.9607 Y227.9971
G01 X188.0196 Y228.0615
G01 X188.0839 Y228.1204
G01 X188.1531 Y228.1735
G01 X188.2267 Y228.2204
G01 X188.3041 Y228.2607
G01 X188.3847 Y228.2941
G01 X188.4679 Y228.3203
G01 X188.5531 Y228.3392
G01 X188.6395 Y228.3506
G01 X188.7267 Y228.3544
G01 X188.8139 Y228.3506
G01 X188.9004 Y228.3392
G01 X188.9855 Y228.3203
G01 X189.0687 Y228.2941
G01 X189.1493 Y228.2607
G01 X189.2267 Y228.2204
G01 X189.3003 Y228.1735
G01 X189.3695 Y228.1204
G01 X189.4338 Y228.0615
G01 X189.4927 Y227.9971
G01 X189.5459 Y227.9279
G01 X189.5927 Y227.8544
G01 X189.6330 Y227.7770
G01 X189.6664 Y227.6964
G01 X189.6926 Y227.6132
G01 X189.7115 Y227.5280
G01 X189.7229 Y227.4415
G01 X189.7267 Y227.3544
G01 X189.7374 Y227.3028 F1000
G01 X189.7455 Y227.2507
G01 X189.7509 Y227.1983
G01 X189.7536 Y227.1456
G01 X189.7535 Y227.0929
G01 X189.7508 Y227.0403
G01 X189.7453 Y226.9879
G01 X189.7372 Y226.9358
G01 X189.7255 Y226.8798
G01 X189.7109 Y226.8245
G01 X189.6935 Y226.7700
G01 X189.6734 Y226.7165
G01 X189.6506 Y226.6640
G01 X189.6251 Y226.6128
G01 X189.5970 Y226.5630
G01 X189.5664 Y226.5147
G01 X189.5308 Y226.4643
G01 X189.4927 Y226.4157
G01 X189.4521 Y226.3692
G01 X189.4093 Y226.3248
G01 X189.3642 Y226.2827
G01 X189.3171 Y226.2428
G01 X189.2680 Y226.2055
G01 X189.2170 Y226.1706
G01 X189.1605 Y226.1361
G01 X189.1023 Y226.1044
G01 X189.0426 Y226.0757
G01 X188.9816 Y226.0501
G01 X188.9193 Y226.0276
G01 X188.8559 Y226.0083
G01 X188.7917 Y225.9922
G01 X188.7267 Y225.9794
G01 X188.6567 Y225.9692
G01 X188.5862 Y225.9625
G01 X188.5155 Y225.9595
G01 X188.4448 Y225.9599
G01 X188.3741 Y225.9640
G01 X188.3038 Y225.9716
G01 X188.2339 Y225.9828
G01 X188.1646 Y225.9974
G01 X188.0965 Y226.0234
G01 X188.0296 Y226.0527
G01 X187.9643 Y226.0852
G01 X187.9007 Y226.1209
G01 X187.8389 Y226.1597
G01 X187.7791 Y226.2015
G01 X187.7215 Y226.2462
G01 X187.6661 Y226.2937
G01 X187.6153 Y226.3470
G01 X187.5672 Y226.4028
G01 X187.5219 Y226.4608
G01 X187.4795 Y226.5210
G01 X187.4401 Y226.5832
G01 X187.4038 Y226.6473
G01 X187.3707 Y226.7130
G01 X187.3409 Y226.7803
G01 X187.3144 Y226.8490
G01 X187.2913 Y226.9189
G01 X187.2717 Y226.9899
G01 X187.2555 Y227.0617
G01 X187.2430 Y227.1343
G01 X187.2339 Y227.2073
G01 X187.2285 Y227.2808
G01 X187.2267 Y227.3544
G01 X187.2285 Y227.4280
G01 X187.2339 Y227.5014
G01 X187.2430 Y227.5745
G01 X187.2555 Y227.6470
G01 X187.2717 Y227.7188
G01 X187.2913 Y227.7898
G01 X187.3144 Y227.8597
G01 X187.3409 Y227.9284
G01 X187.3707 Y227.9957
G01 X187.4038 Y228.0614
G01 X187.4401 Y228.1255
G01 X187.4795 Y228.1877
G01 X187.5219 Y228.2479
G01 X187.5672 Y228.3059
G01 X187.6153 Y228.3617
G01 X187.6661 Y228.4150
G01 X187.7194 Y228.4658
G01 X187.7751 Y228.5139
G01 X187.8332 Y228.5592
G01 X187.8934 Y228.6015
G01 X187.9556 Y228.6409
G01 X188.0196 Y228.6772
G01 X188.0854 Y228.7103
G01 X188.1527 Y228.7402
G01 X188.2214 Y228.7667
G01 X188.2913 Y228.7898
G01 X188.3622 Y228.8094
G01 X188.4341 Y228.8255
G01 X188.5066 Y228.8381
G01 X188.5797 Y228.8471
G01 X188.6531 Y228.8525
G01 X188.7267 Y228.8543
G01 X188.8003 Y228.8525
G01 X188.8737 Y228.8471
G01 X188.9468 Y228.8381
G01 X189.0193 Y228.8255
G01 X189.0912 Y228.8094
G01 X189.1621 Y228.7898
G01 X189.2320 Y228.7667
G01 X189.3007 Y228.7402
G01 X189.3680 Y228.7103
G01 X189.4338 Y228.6772
G01 X189.4978 Y228.6409
G01 X189.5600 Y228.6015
G01 X189.6202 Y228.5592
G01 X189.6783 Y228.5139
G01 X189.7340 Y228.4658
G01 X189.7873 Y228.4150
G01 X189.8381 Y228.3617
G01 X189.8862 Y228.3059
G01 X189.9315 Y228.2479
G01 X189.9739 Y228.1877
G01 X190.0133 Y228.1255
G01 X190.0496 Y228.0614
G01 X190.0827 Y227.9957
G01 X190.1125 Y227.9284
G01 X190.1390 Y227.8597
G01 X190.1621 Y227.7898
G01 X190.1817 Y227.7188
G01 X190.1979 Y227.6470
G01 X190.2104 Y227.5745
G01 X190.2195 Y227.5014
G01 X190.2249 Y227.4280
G01 X190.2267 Y227.3544
G01 X190.2225 Y227.2423
G01 X190.2099 Y227.1308
G01 X190.1891 Y227.0206
G01 X190.1600 Y226.9122
G01 X190.1230 Y226.8064
G01 X190.0781 Y226.7035
G01 X190.0257 Y226.6044
G01 X189.9660 Y226.5094
G01 X189.8994 Y226.4191
G01 X189.8263 Y226.3341
G01 X189.7469 Y226.2548
G01 X189.6619 Y226.1816
G01 X189.5717 Y226.1150
G01 X189.4767 Y226.0553
G01 X189.3775 Y226.0029
G01 X189.2747 Y225.9581
G01 X189.1688 Y225.9210
G01 X189.0605 Y225.8920
G01 X188.9503 Y225.8711
G01 X188.8388 Y225.8586
G01 X188.7267 Y225.8544
G01 X188.6146 Y225.8586
G01 X188.5031 Y225.8711
G01 X188.3929 Y225.8920
G01 X188.2846 Y225.9210
G01 X188.1787 Y225.9581
G01 X188.0759 Y226.0029
G01 X187.9767 Y226.0553
G01 X187.8817 Y226.1150
G01 X187.7915 Y226.1816
G01 X187.7065 Y226.2548
G01 X187.6271 Y226.3341
G01 X187.5540 Y226.4191
G01 X187.4874 Y226.5094
G01 X187.4277 Y226.6044
G01 X187.3753 Y226.7035
G01 X187.3304 Y226.8064
G01 X187.2934 Y226.9122
G01 X187.2643 Y227.0206
G01 X187.2435 Y227.1308
G01 X187.2309 Y227.2423
G01 X187.2267 Y227.3544
G01 X187.2309 Y227.4665
G01 X187.2435 Y227.5779
G01 X187.2643 Y227.6881
G01 X187.2934 Y227.7965
G01 X187.3304 Y227.9024
G01 X187.3753 Y228.0052
G01 X187.4277 Y228.1043
G01 X187.4874 Y228.1993
G01 X187.5540 Y228.2896
G01 X187.6271 Y228.3746
G01 X187.7065 Y228.4539
G01 X187.7915 Y228.5271
G01 X187.8817 Y228.5937
G01 X187.9767 Y228.6534
G01 X188.0759 Y228.7058
G01 X188.1787 Y228.7507
G01 X188.2846 Y228.7877
G01 X188.3929 Y228.8167
G01 X188.5031 Y228.8376
G01 X188.6146 Y228.8501
G01 X188.7267 Y228.8543
G01 X188.8388 Y228.8501
G01 X188.9503 Y228.8376
G01 X189.0605 Y228.8167
G01 X189.1688 Y228.7877
G01 X189.2747 Y228.7507
G01 X189.3775 Y228.7058
G01 X189.4767 Y228.6534
G01 X189.5717 Y228.5937
G01 X189.6619 Y228.5271
G01 X189.7469 Y228.4539
G01 X189.8263 Y228.3746
G01 X189.8994 Y228.2896
G01 X189.9660 Y228.1993
G01 X190.0257 Y228.1043
G01 X190.0781 Y228.0052
G01 X190.1230 Y227.9024
G01 X190.1600 Y227.7965
G01 X190.1891 Y227.6881
G01 X190.2099 Y227.5779
G01 X190.2225 Y227.4665
G01 X190.2267 Y227.3544
G01 X190.2228 Y227.2563
G01 X190.2113 Y227.1588
G01 X190.1921 Y227.0626
G01 X190.1655 Y226.9681
G01 X190.1315 Y226.8760
G01 X190.0904 Y226.7869
G01 X190.0425 Y226.7012
G01 X189.9880 Y226.6196
G01 X189.9272 Y226.5426
G01 X189.8606 Y226.4705
G01 X189.7885 Y226.4039
G01 X189.7114 Y226.3431
G01 X189.6298 Y226.2886
G01 X189.5442 Y226.2406
G01 X189.4550 Y226.1995
G01 X189.3630 Y226.1655
G01 X189.2685 Y226.1389
G01 X189.1722 Y226.1198
G01 X189.0748 Y226.1082
G01 X188.9767 Y226.1044
G01 X188.8786 Y226.1082
G01 X188.7812 Y226.1198
G01 X188.6849 Y226.1389
G01 X188.5904 Y226.1655
G01 X188.4983 Y226.1995
G01 X188.4092 Y226.2406
G01 X188.3236 Y226.2886
G01 X188.2420 Y226.3431
G01 X188.1649 Y226.4039
G01 X188.0928 Y226.4705
G01 X188.0262 Y226.5426
G01 X187.9654 Y226.6196
G01 X187.9109 Y226.7012
G01 X187.8629 Y226.7869
G01 X187.8219 Y226.8760
G01 X187.7879 Y226.9681
G01 X187.7612 Y227.0626
G01 X187.7421 Y227.1588
G01 X187.7306 Y227.2563
G01 X187.7267 Y227.3544
G01 X187.7305 Y227.4415
G01 X187.7419 Y227.5280
G01 X187.7608 Y227.6132
G01 X187.7870 Y227.6964
G01 X187.8204 Y227.7770
G01 X187.8607 Y227.8544
G01 X187.9075 Y227.9279
G01 X187.9607 Y227.9971
G01 X188.0196 Y228.0615
G01 X188.0839 Y228.1204
G01 X188.1531 Y228.1735
G01 X188.2267 Y228.2204
G01 X188.3041 Y228.2607
G01 X188.3847 Y228.2941
G01 X188.4679 Y228.3203
G01 X188.5531 Y228.3392
G01 X188.6395 Y228.3506
G01 X188.7267 Y228.3544
G01 X188.8139 Y228.3506
G01 X188.9004 Y228.3392
G01 X188.9855 Y228.3203
G01 X189.0687 Y228.2941
G01 X189.1493 Y228.2607
G01 X189.2267 Y228.2204
G01 X189.3003 Y228.1735
G01 X189.3695 Y228.1204
G01 X189.4338 Y228.0615
G01 X189.4927 Y227.9971
G01 X189.5459 Y227.9279
G01 X189.5927 Y227.8544
G01 X189.6330 Y227.7770
G01 X189.6664 Y227.6964
G01 X189.6926 Y227.6132
G01 X189.7115 Y227.5280
G01 X189.7229 Y227.4415
G01 X189.7267 Y227.3544
M107
M106 S240
G01 X189.7229 Y227.2672 Z-1.6545 F400
G01 X189.7115 Y227.1807 Z-1.6840
G01 X189.6926 Y227.0955 Z-1.7135
G01 X189.6664 Y227.0123 Z-1.7431
G01 X189.6330 Y226.9317 Z-1.7726
G01 X189.5927 Y226.8544 Z-1.8021
G01 X189.5459 Y226.7808 Z-1.8316
G01 X189.4927 Y226.7116 Z-1.8611
G01 X189.4338 Y226.6473 Z-1.8906
G01 X189.3695 Y226.5883 Z-1.9201
G01 X189.3003 Y226.5352 Z-1.9497
G01 X189.2267 Y226.4883 Z-1.9792
G01 X189.1493 Y226.4481 Z-2.0087
G01 X189.0687 Y226.4147 Z-2.0382
G01 X188.9855 Y226.3884 Z-2.0677
G01 X188.9004 Y226.3696 Z-2.0972
G01 X188.8139 Y226.3582 Z-2.1267
G01 X188.7267 Y226.3544 Z-2.1563
G01 X188.6395 Y226.3582 Z-2.1858
G01 X188.5531 Y226.3696 Z-2.2153
G01 X188.4679 Y226.3884 Z-2.2448
G01 X188.3847 Y226.4147 Z-2.2743
G01 X188.3041 Y226.4481 Z-2.3038
G01 X188.2267 Y226.4883 Z-2.3333
G01 X188.1531 Y226.5352 Z-2.3628
G01 X188.0839 Y226.5883 Z-2.3924
G01 X188.0196 Y226.6473 Z-2.4219
G01 X187.9607 Y226.7116 Z-2.4514
G01 X187.9075 Y226.7808 Z-2.4809
G01 X187.8607 Y226.8544 Z-2.5104
G01 X187.8204 Y226.9317 Z-2.5399
G01 X187.7870 Y227.0123 Z-2.5694
G01 X187.7608 Y227.0955 Z-2.5990
G01 X187.7419 Y227.1807 Z-2.6285
G01 X187.7305 Y227.2672 Z-2.6580
G01 X187.7267 Y227.3544 Z-2.6875
G01 X187.7305 Y227.4415 Z-2.7170
G01 X187.7419 Y227.5280 Z-2.7465
G01 X187.7608 Y227.6132 Z-2.7760
G01 X187.7870 Y227.6964 Z-2.8056
G01 X187.8204 Y227.7770 Z-2.8351
G01 X187.8607 Y227.8544 Z-2.8646
G01 X187.9075 Y227.9279 Z-2.8941
G01 X187.9607 Y227.9971 Z-2.9236
G01 X188.0196 Y228.0615 Z-2.9531
G01 X188.0839 Y228.1204 Z-2.9826
G01 X188.1531 Y228.1735 Z-3.0122
G01 X188.2267 Y228.2204 Z-3.0417
G01 X188.3041 Y228.2607 Z-3.0712
G01 X188.3847 Y228.2941 Z-3.1007
G01 X188.4679 Y228.3203 Z-3.1302
G01 X188.5531 Y228.3392 Z-3.1597
G01 X188.6395 Y228.3506 Z-3.1892
G01 X188.7267 Y228.3544 Z-3.2188
G01 X188.8139 Y228.3506 Z-3.2483
G01 X188.9004 Y228.3392 Z-3.2778
G01 X188.9855 Y228.3203 Z-3.3073
G01 X189.0687 Y228.2941 Z-3.3368
G01 X189.1493 Y228.2607 Z-3.3663
G01 X189.2267 Y228.2204 Z-3.3958
G01 X189.3003 Y228.1735 Z-3.4253
G01 X189.3695 Y228.1204 Z-3.4549
G01 X189.4338 Y228.0615 Z-3.4844
G01 X189.4927 Y227.9971 Z-3.5139
G01 X189.5459 Y227.9279 Z-3.5434
G01 X189.5927 Y227.8544 Z-3.5729
G01 X189.6330 Y227.7770 Z-3.6024
G01 X189.6664 Y227.6964 Z-3.6319
G01 X189.6926 Y227.6132 Z-3.6615
G01 X189.7115 Y227.5280 Z-3.6910
G01 X189.7229 Y227.4415 Z-3.7205
G01 X189.7267 Y227.3544 Z-3.7500
G01 X189.7229 Y227.2672
G01 X189.7115 Y227.1807
G01 X189.6926 Y227.0955
G01 X189.6664 Y227.0123
G01 X189.6330 Y226.9317
G01 X189.5927 Y226.8544
G01 X189.5459 Y226.7808
G01 X189.4927 Y226.7116
G01 X189.4338 Y226.6473
G01 X189.3695 Y226.5883
G01 X189.3003 Y226.5352
G01 X189.2267 Y226.4883
G01 X189.1493 Y226.4481
G01 X189.0687 Y226.4147
G01 X188.9855 Y226.3884
G01 X188.9004 Y226.3696
G01 X188.8139 Y226.3582
G01 X188.7267 Y226.3544
G01 X188.6395 Y226.3582
G01 X188.5531 Y226.3696
G01 X188.4679 Y226.3884
G01 X188.3847 Y226.4147
G01 X188.3041 Y226.4481
G01 X188.2267 Y226.4883
G01 X188.1531 Y226.5352
G01 X188.0839 Y226.5883
G01 X188.0196 Y226.6473
G01 X187.9607 Y226.7116
G01 X187.9075 Y226.7808
G01 X187.8607 Y226.8544
G01 X187.8204 Y226.9317
G01 X187.7870 Y227.0123
G01 X187.7608 Y227.0955
G01 X187.7419 Y227.1807
G01 X187.7305 Y227.2672
G01 X187.7267 Y227.3544
G01 X187.7305 Y227.4415
G01 X187.7419 Y227.5280
G01 X187.7608 Y227.6132
G01 X187.7870 Y227.6964
G01 X187.8204 Y227.7770
G01 X187.8607 Y227.8544
G01 X187.9075 Y227.9279
G01 X187.9607 Y227.9971
G01 X188.0196 Y228.0615
G01 X188.0839 Y228.1204
G01 X188.1531 Y228.1735
G01 X188.2267 Y228.2204
G01 X188.3041 Y228.2607
G01 X188.3847 Y228.2941
G01 X188.4679 Y228.3203
G01 X188.5531 Y228.3392
G01 X188.6395 Y228.3506
G01 X188.7267 Y228.3544
G01 X188.8139 Y228.3506
G01 X188.9004 Y228.3392
G01 X188.9855 Y228.3203
G01 X189.0687 Y228.2941
G01 X189.1493 Y228.2607
G01 X189.2267 Y228.2204
G01 X189.3003 Y228.1735
G01 X189.3695 Y228.1204
G01 X189.4338 Y228.0615
G01 X189.4927 Y227.9971
G01 X189.5459 Y227.9279
G01 X189.5927 Y227.8544
G01 X189.6330 Y227.7770
G01 X189.6664 Y227.6964
G01 X189.6926 Y227.6132
G01 X189.7115 Y227.5280
G01 X189.7229 Y227.4415
G01 X189.7267 Y227.3544
G01 X189.7374 Y227.3028 F1000
G01 X189.7455 Y227.2507
G01 X189.7509 Y227.1983
G01 X189.7536 Y227.1456
G01 X189.7535 Y227.0929
G01 X189.7508 Y227.0403
G01 X189.7453 Y226.9879
G01 X189.7372 Y226.9358
G01 X189.7255 Y226.8798
G01 X189.7109 Y226.8245
G01 X189.6935 Y226.7700
G01 X189.6734 Y226.7165
G01 X189.6506 Y226.6640
G01 X189.6251 Y226.6128
G01 X189.5970 Y226.5630
G01 X189.5664 Y226.5147
G01 X189.5308 Y226.4643
G01 X189.4927 Y226.4157
G01 X189.4521 Y226.3692
G01 X189.4093 Y226.3248
G01 X189.3642 Y226.2827
G01 X189.3171 Y226.2428
G01 X189.2680 Y226.2055
G01 X189.2170 Y226.1706
G01 X189.1605 Y226.1361
G01 X189.1023 Y226.1044
G01 X189.0426 Y226.0757
G01 X188.9816 Y226.0501
G01 X188.9193 Y226.0276
G01 X188.8559 Y226.0083
G01 X188.7917 Y225.9922
G01 X188.7267 Y225.9794
G01 X188.6567 Y225.9692
G01 X188.5862 Y225.9625
G01 X188.5155 Y225.9595
G01 X188.4448 Y225.9599
G01 X188.3741 Y225.9640
G01 X188.3038 Y225.9716
G01 X188.2339 Y225.9828
G01 X188.1646 Y225.9974
G01 X188.0965 Y226.0234
G01 X188.0296 Y226.0527
G01 X187.9643 Y226.0852
G01 X187.9007 Y226.1209
G01 X187.8389 Y226.1597
G01 X187.7791 Y226.2015
G01 X187.7215 Y226.2462
G01 X187.6661 Y226.2937
G01 X187.6153 Y226.3470
G01 X187.5672 Y226.4028
G01 X187.5219 Y226.4608
G01 X187.4795 Y226.5210
G01 X187.4401 Y226.5832
G01 X187.4038 Y226.6473
G01 X187.3707 Y226.7130
G01 X187.3409 Y226.7803
G01 X187.3144 Y226.8490
G01 X187.2913 Y226.9189
G01 X187.2717 Y226.9899
G01 X187.2555 Y227.0617
G01 X187.2430 Y227.1343
G01 X187.2339 Y227.2073
G01 X187.2285 Y227.2808
G01 X187.2267 Y227.3544
G01 X187.2285 Y227.4280
G01 X187.2339 Y227.5014
G01 X187.2430 Y227.5745
G01 X187.2555 Y227.6470
G01 X187.2717 Y227.7188
G01 X187.2913 Y227.7898
G01 X187.3144 Y227.8597
G01 X187.3409 Y227.9284
G01 X187.3707 Y227.9957
G01 X187.4038 Y228.0614
G01 X187.4401 Y228.1255
G01 X187.4795 Y228.1877
G01 X187.5219 Y228.2479
G01 X187.5672 Y228.3059
G01 X187.6153 Y228.3617
G01 X187.6661 Y228.4150
G01 X187.7194 Y228.4658
G01 X187.7751 Y228.5139
G01 X187.8332 Y228.5592
G01 X187.8934 Y228.6015
G01 X187.9556 Y228.6409
G01 X188.0196 Y228.6772
G01 X188.0854 Y228.7103
G01 X188.1527 Y228.7402
G01 X188.2214 Y228.7667
G01 X188.2913 Y228.7898
G01 X188.3622 Y228.8094
G01 X188.4341 Y228.8255
G01 X188.5066 Y228.8381
G01 X188.5797 Y228.8471
G01 X188.6531 Y228.8525
G01 X188.7267 Y228.8543
G01 X188.8003 Y228.8525
G01 X188.8737 Y228.8471
G01 X188.9468 Y228.8381
G01 X189.0193 Y228.8255
G01 X189.0912 Y228.8094
G01 X189.1621 Y228.7898
G01 X189.2320 Y228.7667
G01 X189.3007 Y228.7402
G01 X189.3680 Y228.7103
G01 X189.4338 Y228.6772
G01 X189.4978 Y228.6409
G01 X189.5600 Y228.6015
G01 X189.6202 Y228.5592
G01 X189.6783 Y228.5139
G01 X189.7340 Y228.4658
G01 X189.7873 Y228.4150
G01 X189.8381 Y228.3617
G01 X189.8862 Y228.3059
G01 X189.9315 Y228.2479
G01 X189.9739 Y228.1877
G01 X190.0133 Y228.1255
G01 X190.0496 Y228.0614
G01 X190.0827 Y227.9957
G01 X190.1125 Y227.9284
G01 X190.1390 Y227.8597
G01 X190.1621 Y227.7898
G01 X190.1817 Y227.7188
G01 X190.1979 Y227.6470
G01 X190.2104 Y227.5745
G01 X190.2195 Y227.5014
G01 X190.2249 Y227.4280
G01 X190.2267 Y227.3544
G01 X190.2225 Y227.2423
G01 X190.2099 Y227.1308
G01 X190.1891 Y227.0206
G01 X190.1600 Y226.9122
G01 X190.1230 Y226.8064
G01 X190.0781 Y226.7035
G01 X190.0257 Y226.6044
G01 X189.9660 Y226.5094
G01 X189.8994 Y226.4191
G01 X189.8263 Y226.3341
G01 X189.7469 Y226.2548
G01 X189.6619 Y226.1816
G01 X189.5717 Y226.1150
G01 X189.4767 Y226.0553
G01 X189.3775 Y226.0029
G01 X189.2747 Y225.9581
G01 X189.1688 Y225.9210
G01 X189.0605 Y225.8920
G01 X188.9503 Y225.8711
G01 X188.8388 Y225.8586
G01 X188.7267 Y225.8544
G01 X188.6146 Y225.8586
G01 X188.5031 Y225.8711
G01 X188.3929 Y225.8920
G01 X188.2846 Y225.9210
G01 X188.1787 Y225.9581
G01 X188.0759 Y226.0029
G01 X187.9767 Y226.0553
G01 X187.8817 Y226.1150
G01 X187.7915 Y226.1816
G01 X187.7065 Y226.2548
G01 X187.6271 Y226.3341
G01 X187.5540 Y226.4191
G01 X187.4874 Y226.5094
G01 X187.4277 Y226.6044
G01 X187.3753 Y226.7035
G01 X187.3304 Y226.8064
G01 X187.2934 Y226.9122
G01 X187.2643 Y227.0206
G01 X187.2435 Y227.1308
G01 X187.2309 Y227.2423
G01 X187.2267 Y227.3544
G01 X187.2309 Y227.4665
G01 X187.2435 Y227.5779
G01 X187.2643 Y227.6881
G01 X187.2934 Y227.7965
G01 X187.3304 Y227.9024
G01 X187.3753 Y228.0052
G01 X187.4277 Y228.1043
G01 X187.4874 Y228.1993
G01 X187.5540 Y228.2896
G01 X187.6271 Y228.3746
G01 X187.7065 Y228.4539
G01 X187.7915 Y228.5271
G01 X187.8817 Y228.5937
G01 X187.9767 Y228.6534
G01 X188.0759 Y228.7058
G01 X188.1787 Y228.7507
G01 X188.2846 Y228.7877
G01 X188.3929 Y228.8167
G01 X188.5031 Y228.8376
G01 X188.6146 Y228.8501
G01 X188.7267 Y228.8543
G01 X188.8388 Y228.8501
G01 X188.9503 Y228.8376
G01 X189.0605 Y228.8167
G01 X189.1688 Y228.7877
G01 X189.2747 Y228.7507
G01 X189.3775 Y228.7058
G01 X189.4767 Y228.6534
G01 X189.5717 Y228.5937
G01 X189.6619 Y228.5271
G01 X189.7469 Y228.4539
G01 X189.8263 Y228.3746
G01 X189.8994 Y228.2896
G01 X189.9660 Y228.1993
G01 X190.0257 Y228.1043
G01 X190.0781 Y228.0052
G01 X190.1230 Y227.9024
G01 X190.1600 Y227.7965
G01 X190.1891 Y227.6881
G01 X190.2099 Y227.5779
G01 X190.2225 Y227.4665
G01 X190.2267 Y227.3544
G01 X190.2228 Y227.2563
G01 X190.2113 Y227.1588
G01 X190.1921 Y227.0626
G01 X190.1655 Y226.9681
G01 X190.1315 Y226.8760
G01 X190.0904 Y226.7869
G01 X190.0425 Y226.7012
G01 X189.9880 Y226.6196
G01 X189.9272 Y226.5426
G01 X189.8606 Y226.4705
G01 X189.7885 Y226.4039
G01 X189.7114 Y226.3431
G01 X189.6298 Y226.2886
G01 X189.5442 Y226.2406
G01 X189.4550 Y226.1995
G01 X189.3630 Y226.1655
G01 X189.2685 Y226.1389
G01 X189.1722 Y226.1198
G01 X189.0748 Y226.1082
G01 X188.9767 Y226.1044
G01 X188.8786 Y226.1082
G01 X188.7812 Y226.1198
G01 X188.6849 Y226.1389
G01 X188.5904 Y226.1655
G01 X188.4983 Y226.1995
G01 X188.4092 Y226.2406
G01 X188.3236 Y226.2886
G01 X188.2420 Y226.3431
G01 X188.1649 Y226.4039
G01 X188.0928 Y226.4705
G01 X188.0262 Y226.5426
G01 X187.9654 Y226.6196
G01 X187.9109 Y226.7012
G01 X187.8629 Y226.7869
G01 X187.8219 Y226.8760
G01 X187.7879 Y226.9681
G01 X187.7612 Y227.0626
G01 X187.7421 Y227.1588
G01 X187.7306 Y227.2563
G01 X187.7267 Y227.3544
G01 X187.7305 Y227.4415
G01 X187.7419 Y227.5280
G01 X187.7608 Y227.6132
G01 X187.7870 Y227.6964
G01 X187.8204 Y227.7770
G01 X187.8607 Y227.8544
G01 X187.9075 Y227.9279
G01 X187.9607 Y227.9971
G01 X188.0196 Y228.0615
G01 X188.0839 Y228.1204
G01 X188.1531 Y228.1735
G01 X188.2267 Y228.2204
G01 X188.3041 Y228.2607
G01 X188.3847 Y228.2941
G01 X188.4679 Y228.3203
G01 X188.5531 Y228.3392
G01 X188.6395 Y228.3506
G01 X188.7267 Y228.3544
G01 X188.8139 Y228.3506
G01 X188.9004 Y228.3392
G01 X188.9855 Y228.3203
G01 X189.0687 Y228.2941
G01 X189.1493 Y228.2607
G01 X189.2267 Y228.2204
G01 X189.3003 Y228.1735
G01 X189.3695 Y228.1204
G01 X189.4338 Y228.0615
G01 X189.4927 Y227.9971
G01 X189.5459 Y227.9279
G01 X189.5927 Y227.8544
G01 X189.6330 Y227.7770
G01 X189.6664 Y227.6964
G01 X189.6926 Y227.6132
G01 X189.7115 Y227.5280
G01 X189.7229 Y227.4415
G01 X189.7267 Y227.3544
M107
M106 S240
G01 X189.7229 Y227.2672 Z-3.7795 F400
G01 X189.7115 Y227.1807 Z-3.8090
G01 X189.6926 Y227.0955 Z-3.8385
G01 X189.6664 Y227.0123 Z-3.8681
G01 X189.6330 Y226.9317 Z-3.8976
G01 X189.5927 Y226.8544 Z-3.9271
G01 X189.5459 Y226.7808 Z-3.9566
G01 X189.4927 Y226.7116 Z-3.9861
G01 X189.4338 Y226.6473 Z-4.0156
G01 X189.3695 Y226.5883 Z-4.0451
G01 X189.3003 Y226.5352 Z-4.0747
G01 X189.2267 Y226.4883 Z-4.1042
G01 X189.1493 Y226.4481 Z-4.1337
G01 X189.0687 Y226.4147 Z-4.1632
G01 X188.9855 Y226.3884 Z-4.1927
G01 X188.9004 Y226.3696 Z-4.2222
G01 X188.8139 Y226.3582 Z-4.2517
G01 X188.7267 Y226.3544 Z-4.2813
G01 X188.6395 Y226.3582 Z-4.3108
G01 X188.5531 Y226.3696 Z-4.3403
G01 X188.4679 Y226.3884 Z-4.3698
G01 X188.3847 Y226.4147 Z-4.3993
G01 X188.3041 Y226.4481 Z-4.4288
G01 X188.2267 Y226.4883 Z-4.4583
G01 X188.1531 Y226.5352 Z-4.4878
G01 X188.0839 Y226.5883 Z-4.5174
G01 X188.0196 Y226.6473 Z-4.5469
G01 X187.9607 Y226.7116 Z-4.5764
G01 X187.9075 Y226.7808 Z-4.6059
G01 X187.8607 Y226.8544 Z-4.6354
G01 X187.8204 Y226.9317 Z-4.6649
G01 X187.7870 Y227.0123 Z-4.6944
G01 X187.7608 Y227.0955 Z-4.7240
G01 X187.7419 Y227.1807 Z-4.7535
G01 X187.7305 Y227.2672 Z-4.7830
G01 X187.7267 Y227.3544 Z-4.8125
G01 X187.7305 Y227.4415 Z-4.8420
G01 X187.7419 Y227.5280 Z-4.8715
G01 X187.7608 Y227.6132 Z-4.9010
G01 X187.7870 Y227.6964 Z-4.9306
G01 X187.8204 Y227.7770 Z-4.9601
G01 X187.8607 Y227.8544 Z-4.9896
G01 X187.9075 Y227.9279 Z-5.0191
G01 X187.9607 Y227.9971 Z-5.0486
G01 X188.0196 Y228.0615 Z-5.0781
G01 X188.0839 Y228.1204 Z-5.1076
G01 X188.1531 Y228.1735 Z-5.1372
G01 X188.2267 Y228.2204 Z-5.1667
G01 X188.3041 Y228.2607 Z-5.1962
G01 X188.3847 Y228.2941 Z-5.2257
G01 X188.4679 Y228.3203 Z-5.2552
G01 X188.5531 Y228.3392 Z-5.2847
G01 X188.6395 Y228.3506 Z-5.3142
G01 X188.7267 Y228.3544 Z-5.3438
G01 X188.8139 Y228.3506 Z-5.3733
G01 X188.9004 Y228.3392 Z-5.4028
G01 X188.9855 Y228.3203 Z-5.4323
G01 X189.0687 Y228.2941 Z-5.4618
G01 X189.1493 Y228.2607 Z-5.4913
G01 X189.2267 Y228.2204 Z-5.5208
G01 X189.3003 Y228.1735 Z-5.5503
G01 X189.3695 Y228.1204 Z-5.5799
G01 X189.4338 Y228.0615 Z-5.6094
G01 X189.4927 Y227.9971 Z-5.6389
G01 X189.5459 Y227.9279 Z-5.6684
G01 X189.5927 Y227.8544 Z-5.6979
G01 X189.6330 Y227.7770 Z-5.7274
G01 X189.6664 Y227.6964 Z-5.7569
G01 X189.6926 Y227.6132 Z-5.7865
G01 X189.7115 Y227.5280 Z-5.8160
G01 X189.7229 Y227.4415 Z-5.8455
G01 X189.7267 Y227.3544 Z-5.8750
G01 X189.7229 Y227.2672
G01 X189.7115 Y227.1807
G01 X189.6926 Y227.0955
G01 X189.6664 Y227.0123
G01 X189.6330 Y226.9317
G01 X189.5927 Y226.8544
G01 X189.5459 Y226.7808
G01 X189.4927 Y226.7116
G01 X189.4338 Y226.6473
G01 X189.3695 Y226.5883
G01 X189.3003 Y226.5352
G01 X189.2267 Y226.4883
G01 X189.1493 Y226.4481
G01 X189.0687 Y226.4147
G01 X188.9855 Y226.3884
G01 X188.9004 Y226.3696
G01 X188.8139 Y226.3582
G01 X188.7267 Y226.3544
G01 X188.6395 Y226.3582
G01 X188.5531 Y226.3696
G01 X188.4679 Y226.3884
G01 X188.3847 Y226.4147
G01 X188.3041 Y226.4481
G01 X188.2267 Y226.4883
G01 X188.1531 Y226.5352
G01 X188.0839 Y226.5883
G01 X188.0196 Y226.6473
G01 X187.9607 Y226.7116
G01 X187.9075 Y226.7808
G01 X187.8607 Y226.8544
G01 X187.8204 Y226.9317
G01 X187.7870 Y227.0123
G01 X187.7608 Y227.0955
G01 X187.7419 Y227.1807
G01 X187.7305 Y227.2672
G01 X187.7267 Y227.3544
G01 X187.7305 Y227.4415
G01 X187.7419 Y227.5280
G01 X187.7608 Y227.6132
G01 X187.7870 Y227.6964
G01 X187.8204 Y227.7770
G01 X187.8607 Y227.8544
G01 X187.9075 Y227.9279
G01 X187.9607 Y227.9971
G01 X188.0196 Y228.0615
G01 X188.0839 Y228.1204
G01 X188.1531 Y228.1735
G01 X188.2267 Y228.2204
G01 X188.3041 Y228.2607
G01 X188.3847 Y228.2941
G01 X188.4679 Y228.3203
G01 X188.5531 Y228.3392
G01 X188.6395 Y228.3506
G01 X188.7267 Y228.3544
G01 X188.8139 Y228.3506
G01 X188.9004 Y228.3392
G01 X188.9855 Y228.3203
G01 X189.0687 Y228.2941
G01 X189.1493 Y228.2607
G01 X189.2267 Y228.2204
G01 X189.3003 Y228.1735
G01 X189.3695 Y228.1204
G01 X189.4338 Y228.0615
G01 X189.4927 Y227.9971
G01 X189.5459 Y227.9279
G01 X189.5927 Y227.8544
G01 X189.6330 Y227.7770
G01 X189.6664 Y227.6964
G01 X189.6926 Y227.6132
G01 X189.7115 Y227.5280
G01 X189.7229 Y227.4415
G01 X189.7267 Y227.3544
G01 X189.7374 Y227.3028 F1000
G01 X189.7455 Y227.2507
G01 X189.7509 Y227.1983
G01 X189.7536 Y227.1456
G01 X189.7535 Y227.0929
G01 X189.7508 Y227.0403
G01 X189.7453 Y226.9879
G01 X189.7372 Y226.9358
G01 X189.7255 Y226.8798
G01 X189.7109 Y226.8245
G01 X189.6935 Y226.7700
G01 X189.6734 Y226.7165
G01 X189.6506 Y226.6640
G01 X189.6251 Y226.6128
G01 X189.5970 Y226.5630
G01 X189.5664 Y226.5147
G01 X189.5308 Y226.4643
G01 X189.4927 Y226.4157
G01 X189.4521 Y226.3692
G01 X189.4093 Y226.3248
G01 X189.3642 Y226.2827
G01 X189.3171 Y226.2428
G01 X189.2680 Y226.2055
G01 X189.2170 Y226.1706
G01 X189.1605 Y226.1361
G01 X189.1023 Y226.1044
G01 X189.0426 Y226.0757
G01 X188.9816 Y226.0501
G01 X188.9193 Y226.0276
G01 X188.8559 Y226.0083
G01 X188.7917 Y225.9922
G01 X188.7267 Y225.9794
G01 X188.6567 Y225.9692
G01 X188.5862 Y225.9625
G01 X188.5155 Y225.9595
G01 X188.4448 Y225.9599
G01 X188.3741 Y225.9640
G01 X188.3038 Y225.9716
G01 X188.2339 Y225.9828
G01 X188.1646 Y225.9974
G01 X188.0965 Y226.0234
G01 X188.0296 Y226.0527
G01 X187.9643 Y226.0852
G01 X187.9007 Y226.1209
G01 X187.8389 Y226.1597
G01 X187.7791 Y226.2015
G01 X187.7215 Y226.2462
G01 X187.6661 Y226.2937
G01 X187.6153 Y226.3470
G01 X187.5672 Y226.4028
G01 X187.5219 Y226.4608
G01 X187.4795 Y226.5210
G01 X187.4401 Y226.5832
G01 X187.4038 Y226.6473
G01 X187.3707 Y226.7130
G01 X187.3409 Y226.7803
G01 X187.3144 Y226.8490
G01 X187.2913 Y226.9189
G01 X187.2717 Y226.9899
G01 X187.2555 Y227.0617
G01 X187.2430 Y227.1343
G01 X187.2339 Y227.2073
G01 X187.2285 Y227.2808
G01 X187.2267 Y227.3544
G01 X187.2285 Y227.4280
G01 X187.2339 Y227.5014
G01 X187.2430 Y227.5745
G01 X187.2555 Y227.6470
G01 X187.2717 Y227.7188
G01 X187.2913 Y227.7898
G01 X187.3144 Y227.8597
G01 X187.3409 Y227.9284
G01 X187.3707 Y227.9957
G01 X187.4038 Y228.0614
G01 X187.4401 Y228.1255
G01 X187.4795 Y228.1877
G01 X187.5219 Y228.2479
G01 X187.5672 Y228.3059
G01 X187.6153 Y228.3617
G01 X187.6661 Y228.4150
G01 X187.7194 Y228.4658
G01 X187.7751 Y228.5139
G01 X187.8332 Y228.5592
G01 X187.8934 Y228.6015
G01 X187.9556 Y228.6409
G01 X188.0196 Y228.6772
G01 X188.0854 Y228.7103
G01 X188.1527 Y228.7402
G01 X188.2214 Y228.7667
G01 X188.2913 Y228.7898
G01 X188.3622 Y228.8094
G01 X188.4341 Y228.8255
G01 X188.5066 Y228.8381
G01 X188.5797 Y228.8471
G01 X188.6531 Y228.8525
G01 X188.7267 Y228.8543
G01 X188.8003 Y228.8525
G01 X188.8737 Y228.8471
G01 X188.9468 Y228.8381
G01 X189.0193 Y228.8255
G01 X189.0912 Y228.8094
G01 X189.1621 Y228.7898
G01 X189.2320 Y228.7667
G01 X189.3007 Y228.7402
G01 X189.3680 Y228.7103
G01 X189.4338 Y228.6772
G01 X189.4978 Y228.6409
G01 X189.5600 Y228.6015
G01 X189.6202 Y228.5592
G01 X189.6783 Y228.5139
G01 X189.7340 Y228.4658
G01 X189.7873 Y228.4150
G01 X189.8381 Y228.3617
G01 X189.8862 Y228.3059
G01 X189.9315 Y228.2479
G01 X189.9739 Y228.1877
G01 X190.0133 Y228.1255
G01 X190.0496 Y228.0614
G01 X190.0827 Y227.9957
G01 X190.1125 Y227.9284
G01 X190.1390 Y227.8597
G01 X190.1621 Y227.7898
G01 X190.1817 Y227.7188
G01 X190.1979 Y227.6470
G01 X190.2104 Y227.5745
G01 X190.2195 Y227.5014
G01 X190.2249 Y227.4280
G01 X190.2267 Y227.3544
G01 X190.2225 Y227.2423
G01 X190.2099 Y227.1308
G01 X190.1891 Y227.0206
G01 X190.1600 Y226.9122
G01 X190.1230 Y226.8064
G01 X190.0781 Y226.7035
G01 X190.0257 Y226.6044
G01 X189.9660 Y226.5094
G01 X189.8994 Y226.4191
G01 X189.8263 Y226.3341
G01 X189.7469 Y226.2548
G01 X189.6619 Y226.1816
G01 X189.5717 Y226.1150
G01 X189.4767 Y226.0553
G01 X189.3775 Y226.0029
G01 X189.2747 Y225.9581
G01 X189.1688 Y225.9210
G01 X189.0605 Y225.8920
G01 X188.9503 Y225.8711
G01 X188.8388 Y225.8586
G01 X188.7267 Y225.8544
G01 X188.6146 Y225.8586
G01 X188.5031 Y225.8711
G01 X188.3929 Y225.8920
G01 X188.2846 Y225.9210
G01 X188.1787 Y225.9581
G01 X188.0759 Y226.0029
G01 X187.9767 Y226.0553
G01 X187.8817 Y226.1150
G01 X187.7915 Y226.1816
G01 X187.7065 Y226.2548
G01 X187.6271 Y226.3341
G01 X187.5540 Y226.4191
G01 X187.4874 Y226.5094
G01 X187.4277 Y226.6044
G01 X187.3753 Y226.7035
G01 X187.3304 Y226.8064
G01 X187.2934 Y226.9122
G01 X187.2643 Y227.0206
G01 X187.2435 Y227.1308
G01 X187.2309 Y227.2423
G01 X187.2267 Y227.3544
G01 X187.2309 Y227.4665
G01 X187.2435 Y227.5779
G01 X187.2643 Y227.6881
G01 X187.2934 Y227.7965
G01 X187.3304 Y227.9024
G01 X187.3753 Y228.0052
G01 X187.4277 Y228.1043
G01 X187.4874 Y228.1993
G01 X187.5540 Y228.2896
G01 X187.6271 Y228.3746
G01 X187.7065 Y228.4539
G01 X187.7915 Y228.5271
G01 X187.8817 Y228.5937
G01 X187.9767 Y228.6534
G01 X188.0759 Y228.7058
G01 X188.1787 Y228.7507
G01 X188.2846 Y228.7877
G01 X188.3929 Y228.8167
G01 X188.5031 Y228.8376
G01 X188.6146 Y228.8501
G01 X188.7267 Y228.8543
G01 X188.8388 Y228.8501
G01 X188.9503 Y228.8376
G01 X189.0605 Y228.8167
G01 X189.1688 Y228.7877
G01 X189.2747 Y228.7507
G01 X189.3775 Y228.7058
G01 X189.4767 Y228.6534
G01 X189.5717 Y228.5937
G01 X189.6619 Y228.5271
G01 X189.7469 Y228.4539
G01 X189.8263 Y228.3746
G01 X189.8994 Y228.2896
G01 X189.9660 Y228.1993
G01 X190.0257 Y228.1043
G01 X190.0781 Y228.0052
G01 X190.1230 Y227.9024
G01 X190.1600 Y227.7965
G01 X190.1891 Y227.6881
G01 X190.2099 Y227.5779
G01 X190.2225 Y227.4665
G01 X190.2267 Y227.3544
G01 X190.2228 Y227.2563
G01 X190.2113 Y227.1588
G01 X190.1921 Y227.0626
G01 X190.1655 Y226.9681
G01 X190.1315 Y226.8760
G01 X190.0904 Y226.7869
G01 X190.0425 Y226.7012
G01 X189.9880 Y226.6196
G01 X189.9272 Y226.5426
G01 X189.8606 Y226.4705
G01 X189.7885 Y226.4039
G01 X189.7114 Y226.3431
G01 X189.6298 Y226.2886
G01 X189.5442 Y226.2406
G01 X189.4550 Y226.1995
G01 X189.3630 Y226.1655
G01 X189.2685 Y226.1389
G01 X189.1722 Y226.1198
G01 X189.0748 Y226.1082
G01 X188.9767 Y226.1044
G01 X188.8786 Y226.1082
G01 X188.7812 Y226.1198
G01 X188.6849 Y226.1389
G01 X188.5904 Y226.1655
G01 X188.4983 Y226.1995
G01 X188.4092 Y226.2406
G01 X188.3236 Y226.2886
G01 X188.2420 Y226.3431
G01 X188.1649 Y226.4039
G01 X188.0928 Y226.4705
G01 X188.0262 Y226.5426
G01 X187.9654 Y226.6196
G01 X187.9109 Y226.7012
G01 X187.8629 Y226.7869
G01 X187.8219 Y226.8760
G01 X187.7879 Y226.9681
G01 X187.7612 Y227.0626
G01 X187.7421 Y227.1588
G01 X187.7306 Y227.2563
G01 X187.7267 Y227.3544
G01 X187.7305 Y227.4415
G01 X187.7419 Y227.5280
G01 X187.7608 Y227.6132
G01 X187.7870 Y227.6964
G01 X187.8204 Y227.7770
G01 X187.8607 Y227.8544
G01 X187.9075 Y227.9279
G01 X187.9607 Y227.9971
G01 X188.0196 Y228.0615
G01 X188.0839 Y228.1204
G01 X188.1531 Y228.1735
G01 X188.2267 Y228.2204
G01 X188.3041 Y228.2607
G01 X188.3847 Y228.2941
G01 X188.4679 Y228.3203
G01 X188.5531 Y228.3392
G01 X188.6395 Y228.3506
G01 X188.7267 Y228.3544
G01 X188.8139 Y228.3506
G01 X188.9004 Y228.3392
G01 X188.9855 Y228.3203
G01 X189.0687 Y228.2941
G01 X189.1493 Y228.2607
G01 X189.2267 Y228.2204
G01 X189.3003 Y228.1735
G01 X189.3695 Y228.1204
G01 X189.4338 Y228.0615
G01 X189.4927 Y227.9971
G01 X189.5459 Y227.9279
G01 X189.5927 Y227.8544
G01 X189.6330 Y227.7770
G01 X189.6664 Y227.6964
G01 X189.6926 Y227.6132
G01 X189.7115 Y227.5280
G01 X189.7229 Y227.4415
G01 X189.7267 Y227.3544
M107
M106 S240
G01 X189.7229 Y227.2672 Z-5.9045 F400
G01 X189.7115 Y227.1807 Z-5.9340
G01 X189.6926 Y227.0955 Z-5.9635
G01 X189.6664 Y227.0123 Z-5.9931
G01 X189.6330 Y226.9317 Z-6.0226
G01 X189.5927 Y226.8544 Z-6.0521
G01 X189.5459 Y226.7808 Z-6.0816
G01 X189.4927 Y226.7116 Z-6.1111
G01 X189.4338 Y226.6473 Z-6.1406
G01 X189.3695 Y226.5883 Z-6.1701
G01 X189.3003 Y226.5352 Z-6.1997
G01 X189.2267 Y226.4883 Z-6.2292
G01 X189.1493 Y226.4481 Z-6.2587
G01 X189.0687 Y226.4147 Z-6.2882
G01 X188.9855 Y226.3884 Z-6.3177
G01 X188.9004 Y226.3696 Z-6.3472
G01 X188.8139 Y226.3582 Z-6.3767
G01 X188.7267 Y226.3544 Z-6.4063
G01 X188.6395 Y226.3582 Z-6.4358
G01 X188.5531 Y226.3696 Z-6.4653
G01 X188.4679 Y226.3884 Z-6.4948
G01 X188.3847 Y226.4147 Z-6.5243
G01 X188.3041 Y226.4481 Z-6.5538
G01 X188.2267 Y226.4883 Z-6.5833
G01 X188.1531 Y226.5352 Z-6.6128
G01 X188.0839 Y226.5883 Z-6.6424
G01 X188.0196 Y226.6473 Z-6.6719
G01 X187.9607 Y226.7116 Z-6.7014
G01 X187.9075 Y226.7808 Z-6.7309
G01 X187.8607 Y226.8544 Z-6.7604
G01 X187.8204 Y226.9317 Z-6.7899
G01 X187.7870 Y227.0123 Z-6.8194
G01 X187.7608 Y227.0955 Z-6.8490
G01 X187.7419 Y227.1807 Z-6.8785
G01 X187.7305 Y227.2672 Z-6.9080
G01 X187.7267 Y227.3544 Z-6.9375
G01 X187.7305 Y227.4415 Z-6.9670
G01 X187.7419 Y227.5280 Z-6.9965
G01 X187.7608 Y227.6132 Z-7.0260
G01 X187.7870 Y227.6964 Z-7.0556
G01 X187.8204 Y227.7770 Z-7.0851
G01 X187.8607 Y227.8544 Z-7.1146
G01 X187.9075 Y227.9279 Z-7.1441
G01 X187.9607 Y227.9971 Z-7.1736
G01 X188.0196 Y228.0615 Z-7.2031
G01 X188.0839 Y228.1204 Z-7.2326
G01 X188.1531 Y228.1735 Z-7.2622
G01 X188.2267 Y228.2204 Z-7.2917
G01 X188.3041 Y228.2607 Z-7.3212
G01 X188.3847 Y228.2941 Z-7.3507
G01 X188.4679 Y228.3203 Z-7.3802
G01 X188.5531 Y228.3392 Z-7.4097
G01 X188.6395 Y228.3506 Z-7.4392
G01 X188.7267 Y228.3544 Z-7.4688
G01 X188.8139 Y228.3506 Z-7.4983
G01 X188.9004 Y228.3392 Z-7.5278
G01 X188.9855 Y228.3203 Z-7.5573
G01 X189.0687 Y228.2941 Z-7.5868
G01 X189.1493 Y228.2607 Z-7.6163
G01 X189.2267 Y228.2204 Z-7.6458
G01 X189.3003 Y228.1735 Z-7.6753
G01 X189.3695 Y228.1204 Z-7.7049
G01 X189.4338 Y228.0615 Z-7.7344
G01 X189.4927 Y227.9971 Z-7.7639
G01 X189.5459 Y227.9279 Z-7.7934
G01 X189.5927 Y227.8544 Z-7.8229
G01 X189.6330 Y227.7770 Z-7.8524
G01 X189.6664 Y227.6964 Z-7.8819
G01 X189.6926 Y227.6132 Z-7.9115
G01 X189.7115 Y227.5280 Z-7.9410
G01 X189.7229 Y227.4415 Z-7.9705
G01 X189.7267 Y227.3544 Z-8.0000
G01 X189.7229 Y227.2672
G01 X189.7115 Y227.1807
G01 X189.6926 Y227.0955
G01 X189.6664 Y227.0123
G01 X189.6330 Y226.9317
G01 X189.5927 Y226.8544
G01 X189.5459 Y226.7808
G01 X189.4927 Y226.7116
G01 X189.4338 Y226.6473
G01 X189.3695 Y226.5883
G01 X189.3003 Y226.5352
G01 X189.2267 Y226.4883
G01 X189.1493 Y226.4481
G01 X189.0687 Y226.4147
G01 X188.9855 Y226.3884
G01 X188.9004 Y226.3696
G01 X188.8139 Y226.3582
G01 X188.7267 Y226.3544
G01 X188.6395 Y226.3582
G01 X188.5531 Y226.3696
G01 X188.4679 Y226.3884
G01 X188.3847 Y226.4147
G01 X188.3041 Y226.4481
G01 X188.2267 Y226.4883
G01 X188.1531 Y226.5352
G01 X188.0839 Y226.5883
G01 X188.0196 Y226.6473
G01 X187.9607 Y226.7116
G01 X187.9075 Y226.7808
G01 X187.8607 Y226.8544
G01 X187.8204 Y226.9317
G01 X187.7870 Y227.0123
G01 X187.7608 Y227.0955
G01 X187.7419 Y227.1807
G01 X187.7305 Y227.2672
G01 X187.7267 Y227.3544
G01 X187.7305 Y227.4415
G01 X187.7419 Y227.5280
G01 X187.7608 Y227.6132
G01 X187.7870 Y227.6964
G01 X187.8204 Y227.7770
G01 X187.8607 Y227.8544
G01 X187.9075 Y227.9279
G01 X187.9607 Y227.9971
G01 X188.0196 Y228.0615
G01 X188.0839 Y228.1204
G01 X188.1531 Y228.1735
G01 X188.2267 Y228.2204
G01 X188.3041 Y228.2607
G01 X188.3847 Y228.2941
G01 X188.4679 Y228.3203
G01 X188.5531 Y228.3392
G01 X188.6395 Y228.3506
G01 X188.7267 Y228.3544
G01 X188.8139 Y228.3506
G01 X188.9004 Y228.3392
G01 X188.9855 Y228.3203
G01 X189.0687 Y228.2941
G01 X189.1493 Y228.2607
G01 X189.2267 Y228.2204
G01 X189.3003 Y228.1735
G01 X189.3695 Y228.1204
G01 X189.4338 Y228.0615
G01 X189.4927 Y227.9971
G01 X189.5459 Y227.9279
G01 X189.5927 Y227.8544
G01 X189.6330 Y227.7770
G01 X189.6664 Y227.6964
G01 X189.6926 Y227.6132
G01 X189.7115 Y227.5280
G01 X189.7229 Y227.4415
G01 X189.7267 Y227.3544
G01 X189.7374 Y227.3028 F1000
G01 X189.7455 Y227.2507
G01 X189.7509 Y227.1983
G01 X189.7536 Y227.1456
G01 X189.7535 Y227.0929
G01 X189.7508 Y227.0403
G01 X189.7453 Y226.9879
G01 X189.7372 Y226.9358
G01 X189.7255 Y226.8798
G01 X189.7109 Y226.8245
G01 X189.6935 Y226.7700
G01 X189.6734 Y226.7165
G01 X189.6506 Y226.6640
G01 X189.6251 Y226.6128
G01 X189.5970 Y226.5630
G01 X189.5664 Y226.5147
G01 X189.5308 Y226.4643
G01 X189.4927 Y226.4157
G01 X189.4521 Y226.3692
G01 X189.4093 Y226.3248
G01 X189.3642 Y226.2827
G01 X189.3171 Y226.2428
G01 X189.2680 Y226.2055
G01 X189.2170 Y226.1706
G01 X189.1605 Y226.1361
G01 X189.1023 Y226.1044
G01 X189.0426 Y226.0757
G01 X188.9816 Y226.0501
G01 X188.9193 Y226.0276
G01 X188.8559 Y226.0083
G01 X188.7917 Y225.9922
G01 X188.7267 Y225.9794
G01 X188.6567 Y225.9692
G01 X188.5862 Y225.9625
G01 X188.5155 Y225.9595
G01 X188.4448 Y225.9599
G01 X188.3741 Y225.9640
G01 X188.3038 Y225.9716
G01 X188.2339 Y225.9828
G01 X188.1646 Y225.9974
G01 X188.0965 Y226.0234
G01 X188.0296 Y226.0527
G01 X187.9643 Y226.0852
G01 X187.9007 Y226.1209
G01 X187.8389 Y226.1597
G01 X187.7791 Y226.2015
G01 X187.7215 Y226.2462
G01 X187.6661 Y226.2937
G01 X187.6153 Y226.3470
G01 X187.5672 Y226.4028
G01 X187.5219 Y226.4608
G01 X187.4795 Y226.5210
G01 X187.4401 Y226.5832
G01 X187.4038 Y226.6473
G01 X187.3707 Y226.7130
G01 X187.3409 Y226.7803
G01 X187.3144 Y226.8490
G01 X187.2913 Y226.9189
G01 X187.2717 Y226.9899
G01 X187.2555 Y227.0617
G01 X187.2430 Y227.1343
G01 X187.2339 Y227.2073
G01 X187.2285 Y227.2808
G01 X187.2267 Y227.3544
G01 X187.2285 Y227.4280
G01 X187.2339 Y227.5014
G01 X187.2430 Y227.5745
G01 X187.2555 Y227.6470
G01 X187.2717 Y227.7188
G01 X187.2913 Y227.7898
G01 X187.3144 Y227.8597
G01 X187.3409 Y227.9284
G01 X187.3707 Y227.9957
G01 X187.4038 Y228.0614
G01 X187.4401 Y228.1255
G01 X187.4795 Y228.1877
G01 X187.5219 Y228.2479
G01 X187.5672 Y228.3059
G01 X187.6153 Y228.3617
G01 X187.6661 Y228.4150
G01 X187.7194 Y228.4658
G01 X187.7751 Y228.5139
G01 X187.8332 Y228.5592
G01 X187.8934 Y228.6015
G01 X187.9556 Y228.6409
G01 X188.0196 Y228.6772
G01 X188.0854 Y228.7103
G01 X188.1527 Y228.7402
G01 X188.2214 Y228.7667
G01 X188.2913 Y228.7898
G01 X188.3622 Y228.8094
G01 X188.4341 Y228.8255
G01 X188.5066 Y228.8381
G01 X188.5797 Y228.8471
G01 X188.6531 Y228.8525
G01 X188.7267 Y228.8543
G01 X188.8003 Y228.8525
G01 X188.8737 Y228.8471
G01 X188.9468 Y228.8381
G01 X189.0193 Y228.8255
G01 X189.0912 Y228.8094
G01 X189.1621 Y228.7898
G01 X189.2320 Y228.7667
G01 X189.3007 Y228.7402
G01 X189.3680 Y228.7103
G01 X189.4338 Y228.6772
G01 X189.4978 Y228.6409
G01 X189.5600 Y228.6015
G01 X189.6202 Y228.5592
G01 X189.6783 Y228.5139
G01 X189.7340 Y228.4658
G01 X189.7873 Y228.4150
G01 X189.8381 Y228.3617
G01 X189.8862 Y228.3059
G01 X189.9315 Y228.2479
G01 X189.9739 Y228.1877
G01 X190.0133 Y228.1255
G01 X190.0496 Y228.0614
G01 X190.0827 Y227.9957
G01 X190.1125 Y227.9284
G01 X190.1390 Y227.8597
G01 X190.1621 Y227.7898
G01 X190.1817 Y227.7188
G01 X190.1979 Y227.6470
G01 X190.2104 Y227.5745
G01 X190.2195 Y227.5014
G01 X190.2249 Y227.4280
G01 X190.2267 Y227.3544
G01 X190.2225 Y227.2423
G01 X190.2099 Y227.1308
G01 X190.1891 Y227.0206
G01 X190.1600 Y226.9122
G01 X190.1230 Y226.8064
G01 X190.0781 Y226.7035
G01 X190.0257 Y226.6044
G01 X189.9660 Y226.5094
G01 X189.8994 Y226.4191
G01 X189.8263 Y226.3341
G01 X189.7469 Y226.2548
G01 X189.6619 Y226.1816
G01 X189.5717 Y226.1150
G01 X189.4767 Y226.0553
G01 X189.3775 Y226.0029
G01 X189.2747 Y225.9581
G01 X189.1688 Y225.9210
G01 X189.0605 Y225.8920
G01 X188.9503 Y225.8711
G01 X188.8388 Y225.8586
G01 X188.7267 Y225.8544
G01 X188.6146 Y225.8586
G01 X188.5031 Y225.8711
G01 X188.3929 Y225.8920
G01 X188.2846 Y225.9210
G01 X188.1787 Y225.9581
G01 X188.0759 Y226.0029
G01 X187.9767 Y226.0553
G01 X187.8817 Y226.1150
G01 X187.7915 Y226.1816
G01 X187.7065 Y226.2548
G01 X187.6271 Y226.3341
G01 X187.5540 Y226.4191
G01 X187.4874 Y226.5094
G01 X187.4277 Y226.6044
G01 X187.3753 Y226.7035
G01 X187.3304 Y226.8064
G01 X187.2934 Y226.9122
G01 X187.2643 Y227.0206
G01 X187.2435 Y227.1308
G01 X187.2309 Y227.2423
G01 X187.2267 Y227.3544
G01 X187.2309 Y227.4665
G01 X187.2435 Y227.5779
G01 X187.2643 Y227.6881
G01 X187.2934 Y227.7965
G01 X187.3304 Y227.9024
G01 X187.3753 Y228.0052
G01 X187.4277 Y228.1043
G01 X187.4874 Y228.1993
G01 X187.5540 Y228.2896
G01 X187.6271 Y228.3746
G01 X187.7065 Y228.4539
G01 X187.7915 Y228.5271
G01 X187.8817 Y228.5937
G01 X187.9767 Y228.6534
G01 X188.0759 Y228.7058
G01 X188.1787 Y228.7507
G01 X188.2846 Y228.7877
G01 X188.3929 Y228.8167
G01 X188.5031 Y228.8376
G01 X188.6146 Y228.8501
G01 X188.7267 Y228.8543
G01 X188.8388 Y228.8501
G01 X188.9503 Y228.8376
G01 X189.0605 Y228.8167
G01 X189.1688 Y228.7877
G01 X189.2747 Y228.7507
G01 X189.3775 Y228.7058
G01 X189.4767 Y228.6534
G01 X189.5717 Y228.5937
G01 X189.6619 Y228.5271
G01 X189.7469 Y228.4539
G01 X189.8263 Y228.3746
G01 X189.8994 Y228.2896
G01 X189.9660 Y228.1993
G01 X190.0257 Y228.1043
G01 X190.0781 Y228.0052
G01 X190.1230 Y227.9024
G01 X190.1600 Y227.7965
G01 X190.1891 Y227.6881
G01 X190.2099 Y227.5779
G01 X190.2225 Y227.4665
G01 X190.2267 Y227.3544
M107
M106 S240
G01 X190.2236 Y227.2759 Z-7.9750 F400
M107
M106 S240
G01 X190.2144 Y227.1979 Z-7.9500
M107
M106 S240
G01 X190.1991 Y227.1209 Z-7.9250
M107
M106 S240
G01 X190.1777 Y227.0453 Z-7.9000
M107
M106 S240
G01 X190.1506 Y226.9717 Z-7.8750
M107
M106 S240
G01 X190.1177 Y226.9004 Z-7.8500
M107
M106 S240
G01 X190.0793 Y226.8319 Z-7.8250
M107
M106 S240
G01 X190.0357 Y226.7666 Z-7.8000
M107
M106 S240
G01 X189.9871 Y226.7049 Z-7.7750
M107
M106 S240
G01 X189.9338 Y226.6473 Z-7.7500
M107
M106 S240
G01 X189.8761 Y226.5940 Z-7.7250
M107
M106 S240
G01 X189.8145 Y226.5453 Z-7.7000
M107
M106 S240
G01 X189.7492 Y226.5017 Z-7.6750
M107
M106 S240
G01 X189.6807 Y226.4634 Z-7.6500
M107
M106 S240
G01 X189.6094 Y226.4305 Z-7.6250
M107
M106 S240
G01 X189.5357 Y226.4033 Z-7.6000
M107
M106 S240
G01 X189.4601 Y226.3820 Z-7.5750
M107
M106 S240
G01 X189.3831 Y226.3667 Z-7.5500
M107
M106 S240
G01 X189.3051 Y226.3574 Z-7.5250
M107
M106 S240
G01 X189.2267 Y226.3544 Z-7.5000
M107
G00 Z2.0000


;No. 9: Hole 7
G00 X187.1013 Y256.9143 Z2.0000
G00 Z0.5000
G01 Z0.0000 F400
G01 Z-2.5000
M106 S240
G01 X164.4718 F1000
G01 X164.3210 Y256.7819
G01 X164.1840 Y256.9760
G01 X164.0604 Y257.1788
G01 X163.9509 Y257.3896
G01 X163.8559 Y257.6073
G01 X163.7759 Y257.8310
G01 X163.7113 Y258.0596
G01 X163.6623 Y258.2920
G01 X163.6292 Y258.5273
G01 X187.9603 Y258.5272
G01 X187.9672 Y258.5114
G01 X187.9048 Y258.1835
G01 X187.8135 Y257.8624
G01 X187.6939 Y257.5508
G01 X187.5471 Y257.2510
G01 X187.3742 Y256.9655
G01 X187.1765 Y256.6965
G01 X186.9557 Y256.4462
G01 X186.7134 Y256.2166
G01 X186.4517 Y256.0094
G01 X186.1726 Y255.8263
G01 X185.8783 Y255.6689
G01 X185.5711 Y255.5382
G01 X185.2535 Y255.4355
G01 X184.9281 Y255.3614
G01 X184.5973 Y255.3165
G01 X184.2638 Y255.3014
G01 X167.3270
G01 X167.0806 Y255.3047
G01 X166.8350 Y255.3247
G01 X166.5913 Y255.3612
G01 X166.3506 Y255.4142
G01 X166.1140 Y255.4832
