;Project TeslaParkPlatz
;Created by Estlcam version 11 build 11,227
;Machining time about 00:29:33 hours

G90
M03 S18000
G00 X0.0000 Y0.0000 Z0.0000
G00 Z2.0000


;No. 1: Helical drill 4
G00 X34.8279 Y34.0056
G00 Z0.5000
M106 S240
G01 X34.8241 Y33.9184 Z0.4774 F400 S18000
G01 X34.8127 Y33.8319 Z0.4549
G01 X34.7939 Y33.7468 Z0.4323
G01 X34.7676 Y33.6636 Z0.4097
G01 X34.7342 Y33.5830 Z0.3872
G01 X34.6940 Y33.5056 Z0.3646
G01 X34.6471 Y33.4320 Z0.3420
G01 X34.5940 Y33.3628 Z0.3194
G01 X34.5350 Y33.2985 Z0.2969
G01 X34.4707 Y33.2396 Z0.2743
G01 X34.4015 Y33.1864 Z0.2517
G01 X34.3279 Y33.1396 Z0.2292
G01 X34.2506 Y33.0993 Z0.2066
G01 X34.1700 Y33.0659 Z0.1840
G01 X34.0868 Y33.0397 Z0.1615
G01 X34.0016 Y33.0208 Z0.1389
G01 X33.9151 Y33.0094 Z0.1163
G01 X33.8279 Y33.0056 Z0.0938
G01 X33.7408 Y33.0094 Z0.0712
G01 X33.6543 Y33.0208 Z0.0486
G01 X33.5691 Y33.0397 Z0.0260
G01 X33.4859 Y33.0659 Z0.0035
G01 X33.4053 Y33.0993 Z-0.0191
G01 X33.3279 Y33.1396 Z-0.0417
G01 X33.2544 Y33.1864 Z-0.0642
G01 X33.1852 Y33.2396 Z-0.0868
G01 X33.1208 Y33.2985 Z-0.1094
G01 X33.0619 Y33.3628 Z-0.1319
G01 X33.0088 Y33.4320 Z-0.1545
G01 X32.9619 Y33.5056 Z-0.1771
G01 X32.9216 Y33.5830 Z-0.1997
G01 X32.8882 Y33.6636 Z-0.2222
G01 X32.8620 Y33.7468 Z-0.2448
G01 X32.8431 Y33.8319 Z-0.2674
G01 X32.8317 Y33.9184 Z-0.2899
G01 X32.8279 Y34.0056 Z-0.3125
G01 X32.8317 Y34.0928 Z-0.3351
G01 X32.8431 Y34.1792 Z-0.3576
G01 X32.8620 Y34.2644 Z-0.3802
G01 X32.8882 Y34.3476 Z-0.4028
G01 X32.9216 Y34.4282 Z-0.4253
G01 X32.9619 Y34.5056 Z-0.4479
G01 X33.0088 Y34.5792 Z-0.4705
G01 X33.0619 Y34.6484 Z-0.4931
G01 X33.1208 Y34.7127 Z-0.5156
G01 X33.1852 Y34.7716 Z-0.5382
G01 X33.2544 Y34.8247 Z-0.5608
G01 X33.3279 Y34.8716 Z-0.5833
G01 X33.4053 Y34.9119 Z-0.6059
G01 X33.4859 Y34.9453 Z-0.6285
G01 X33.5691 Y34.9715 Z-0.6510
G01 X33.6543 Y34.9904 Z-0.6736
G01 X33.7408 Y35.0018 Z-0.6962
G01 X33.8279 Y35.0056 Z-0.7188
G01 X33.9151 Y35.0018 Z-0.7413
G01 X34.0016 Y34.9904 Z-0.7639
G01 X34.0868 Y34.9715 Z-0.7865
G01 X34.1700 Y34.9453 Z-0.8090
G01 X34.2506 Y34.9119 Z-0.8316
G01 X34.3279 Y34.8716 Z-0.8542
G01 X34.4015 Y34.8247 Z-0.8767
G01 X34.4707 Y34.7716 Z-0.8993
G01 X34.5350 Y34.7127 Z-0.9219
G01 X34.5940 Y34.6484 Z-0.9444
G01 X34.6471 Y34.5792 Z-0.9670
G01 X34.6940 Y34.5056 Z-0.9896
G01 X34.7342 Y34.4282 Z-1.0122
G01 X34.7676 Y34.3476 Z-1.0347
G01 X34.7939 Y34.2644 Z-1.0573
G01 X34.8127 Y34.1792 Z-1.0799
G01 X34.8241 Y34.0928 Z-1.1024
G01 X34.8279 Y34.0056 Z-1.1250
G01 X34.8241 Y33.9184
G01 X34.8127 Y33.8319
G01 X34.7939 Y33.7468
G01 X34.7676 Y33.6636
G01 X34.7342 Y33.5830
G01 X34.6940 Y33.5056
G01 X34.6471 Y33.4320
G01 X34.5940 Y33.3628
G01 X34.5350 Y33.2985
G01 X34.4707 Y33.2396
G01 X34.4015 Y33.1864
G01 X34.3279 Y33.1396
G01 X34.2506 Y33.0993
G01 X34.1700 Y33.0659
G01 X34.0868 Y33.0397
G01 X34.0016 Y33.0208
G01 X33.9151 Y33.0094
G01 X33.8279 Y33.0056
G01 X33.7408 Y33.0094
G01 X33.6543 Y33.0208
G01 X33.5691 Y33.0397
G01 X33.4859 Y33.0659
G01 X33.4053 Y33.0993
G01 X33.3279 Y33.1396
G01 X33.2544 Y33.1864
G01 X33.1852 Y33.2396
G01 X33.1208 Y33.2985
G01 X33.0619 Y33.3628
G01 X33.0088 Y33.4320
G01 X32.9619 Y33.5056
G01 X32.9216 Y33.5830
G01 X32.8882 Y33.6636
G01 X32.8620 Y33.7468
G01 X32.8431 Y33.8319
G01 X32.8317 Y33.9184
G01 X32.8279 Y34.0056
G01 X32.8317 Y34.0928
G01 X32.8431 Y34.1792
G01 X32.8620 Y34.2644
G01 X32.8882 Y34.3476
G01 X32.9216 Y34.4282
G01 X32.9619 Y34.5056
G01 X33.0088 Y34.5792
G01 X33.0619 Y34.6484
G01 X33.1208 Y34.7127
G01 X33.1852 Y34.7716
G01 X33.2544 Y34.8247
G01 X33.3279 Y34.8716
G01 X33.4053 Y34.9119
G01 X33.4859 Y34.9453
G01 X33.5691 Y34.9715
G01 X33.6543 Y34.9904
G01 X33.7408 Y35.0018
G01 X33.8279 Y35.0056
G01 X33.9151 Y35.0018
G01 X34.0016 Y34.9904
G01 X34.0868 Y34.9715
G01 X34.1700 Y34.9453
G01 X34.2506 Y34.9119
G01 X34.3279 Y34.8716
G01 X34.4015 Y34.8247
G01 X34.4707 Y34.7716
G01 X34.5350 Y34.7127
G01 X34.5940 Y34.6484
G01 X34.6471 Y34.5792
G01 X34.6940 Y34.5056
G01 X34.7342 Y34.4282
G01 X34.7676 Y34.3476
G01 X34.7939 Y34.2644
G01 X34.8127 Y34.1792
G01 X34.8241 Y34.0928
G01 X34.8279 Y34.0056
G01 X34.8387 Y33.9540 F1000
G01 X34.8468 Y33.9019
G01 X34.8521 Y33.8495
G01 X34.8548 Y33.7969
G01 Y33.7442
G01 X34.8520 Y33.6915
G01 X34.8466 Y33.6391
G01 X34.8384 Y33.5870
G01 X34.8267 Y33.5310
G01 X34.8122 Y33.4757
G01 X34.7948 Y33.4212
G01 X34.7746 Y33.3677
G01 X34.7518 Y33.3153
G01 X34.7263 Y33.2641
G01 X34.6982 Y33.2142
G01 X34.6676 Y33.1659
G01 X34.6320 Y33.1155
G01 X34.5939 Y33.0670
G01 X34.5534 Y33.0205
G01 X34.5105 Y32.9761
G01 X34.4654 Y32.9339
G01 X34.4183 Y32.8941
G01 X34.3692 Y32.8567
G01 X34.3183 Y32.8219
G01 X34.2618 Y32.7873
G01 X34.2036 Y32.7556
G01 X34.1439 Y32.7270
G01 X34.0828 Y32.7013
G01 X34.0205 Y32.6788
G01 X33.9572 Y32.6595
G01 X33.8929 Y32.6434
G01 X33.8279 Y32.6306
G01 X33.7583 Y32.6224
G01 X33.6884 Y32.6176
G01 X33.6183 Y32.6164
G01 X33.5482 Y32.6187
G01 X33.4783 Y32.6245
G01 X33.4088 Y32.6338
G01 X33.3399 Y32.6465
G01 X33.2717 Y32.6627
G01 X33.2065 Y32.6916
G01 X33.1427 Y32.7237
G01 X33.0807 Y32.7588
G01 X33.0204 Y32.7970
G01 X32.9621 Y32.8381
G01 X32.9058 Y32.8820
G01 X32.8518 Y32.9286
G01 X32.8001 Y32.9778
G01 X32.7509 Y33.0294
G01 X32.7043 Y33.0835
G01 X32.6604 Y33.1397
G01 X32.6193 Y33.1980
G01 X32.5812 Y33.2583
G01 X32.5460 Y33.3204
G01 X32.5139 Y33.3841
G01 X32.4850 Y33.4493
G01 X32.4593 Y33.5159
G01 X32.4370 Y33.5836
G01 X32.4179 Y33.6524
G01 X32.4023 Y33.7220
G01 X32.3901 Y33.7923
G01 X32.3814 Y33.8631
G01 X32.3761 Y33.9343
G01 X32.3744 Y34.0056
G01 X32.3761 Y34.0769
G01 X32.3814 Y34.1481
G01 X32.3901 Y34.2189
G01 X32.4023 Y34.2892
G01 X32.4179 Y34.3588
G01 X32.4370 Y34.4275
G01 X32.4593 Y34.4953
G01 X32.4850 Y34.5618
G01 X32.5139 Y34.6271
G01 X32.5460 Y34.6908
G01 X32.5812 Y34.7529
G01 X32.6193 Y34.8132
G01 X32.6604 Y34.8715
G01 X32.7043 Y34.9277
G01 X32.7509 Y34.9817
G01 X32.8001 Y35.0334
G01 X32.8518 Y35.0826
G01 X32.9058 Y35.1292
G01 X32.9621 Y35.1731
G01 X33.0204 Y35.2142
G01 X33.0807 Y35.2524
G01 X33.1427 Y35.2875
G01 X33.2065 Y35.3196
G01 X33.2717 Y35.3485
G01 X33.3382 Y35.3742
G01 X33.4060 Y35.3966
G01 X33.4748 Y35.4156
G01 X33.5444 Y35.4312
G01 X33.6147 Y35.4434
G01 X33.6855 Y35.4522
G01 X33.7566 Y35.4574
G01 X33.8279 Y35.4592
G01 X33.8993 Y35.4574
G01 X33.9704 Y35.4522
G01 X34.0412 Y35.4434
G01 X34.1115 Y35.4312
G01 X34.1811 Y35.4156
G01 X34.2499 Y35.3966
G01 X34.3176 Y35.3742
G01 X34.3842 Y35.3485
G01 X34.4494 Y35.3196
G01 X34.5131 Y35.2875
G01 X34.5752 Y35.2524
G01 X34.6355 Y35.2142
G01 X34.6938 Y35.1731
G01 X34.7501 Y35.1292
G01 X34.8041 Y35.0826
G01 X34.8558 Y35.0334
G01 X34.9050 Y34.9817
G01 X34.9516 Y34.9277
G01 X34.9955 Y34.8715
G01 X35.0365 Y34.8132
G01 X35.0747 Y34.7529
G01 X35.1099 Y34.6908
G01 X35.1419 Y34.6271
G01 X35.1709 Y34.5618
G01 X35.1965 Y34.4953
G01 X35.2189 Y34.4275
G01 X35.2379 Y34.3588
G01 X35.2536 Y34.2892
G01 X35.2658 Y34.2189
G01 X35.2745 Y34.1481
G01 X35.2798 Y34.0769
G01 X35.2815 Y34.0056
G01 X35.2774 Y33.8970
G01 X35.2653 Y33.7890
G01 X35.2451 Y33.6821
G01 X35.2169 Y33.5771
G01 X35.1810 Y33.4745
G01 X35.1376 Y33.3749
G01 X35.0868 Y33.2788
G01 X35.0289 Y33.1868
G01 X34.9644 Y33.0993
G01 X34.8935 Y33.0169
G01 X34.8166 Y32.9401
G01 X34.7342 Y32.8692
G01 X34.6468 Y32.8046
G01 X34.5547 Y32.7468
G01 X34.4586 Y32.6960
G01 X34.3590 Y32.6525
G01 X34.2564 Y32.6166
G01 X34.1514 Y32.5885
G01 X34.0446 Y32.5683
G01 X33.9366 Y32.5561
G01 X33.8279 Y32.5520
G01 X33.7193 Y32.5561
G01 X33.6113 Y32.5683
G01 X33.5045 Y32.5885
G01 X33.3995 Y32.6166
G01 X33.2969 Y32.6525
G01 X33.1973 Y32.6960
G01 X33.1012 Y32.7468
G01 X33.0091 Y32.8046
G01 X32.9217 Y32.8692
G01 X32.8393 Y32.9401
G01 X32.7624 Y33.0169
G01 X32.6915 Y33.0993
G01 X32.6269 Y33.1868
G01 X32.5691 Y33.2788
G01 X32.5183 Y33.3749
G01 X32.4749 Y33.4745
G01 X32.4390 Y33.5771
G01 X32.4108 Y33.6821
G01 X32.3906 Y33.7890
G01 X32.3784 Y33.8970
G01 X32.3744 Y34.0056
G01 X32.3784 Y34.1142
G01 X32.3906 Y34.2222
G01 X32.4108 Y34.3290
G01 X32.4390 Y34.4340
G01 X32.4749 Y34.5366
G01 X32.5183 Y34.6363
G01 X32.5691 Y34.7324
G01 X32.6269 Y34.8244
G01 X32.6915 Y34.9119
G01 X32.7624 Y34.9943
G01 X32.8393 Y35.0711
G01 X32.9217 Y35.1420
G01 X33.0091 Y35.2066
G01 X33.1012 Y35.2644
G01 X33.1973 Y35.3152
G01 X33.2969 Y35.3587
G01 X33.3995 Y35.3946
G01 X33.5045 Y35.4227
G01 X33.6113 Y35.4429
G01 X33.7193 Y35.4551
G01 X33.8279 Y35.4592
G01 X33.9366 Y35.4551
G01 X34.0446 Y35.4429
G01 X34.1514 Y35.4227
G01 X34.2564 Y35.3946
G01 X34.3590 Y35.3587
G01 X34.4586 Y35.3152
G01 X34.5547 Y35.2644
G01 X34.6468 Y35.2066
G01 X34.7342 Y35.1420
G01 X34.8166 Y35.0711
G01 X34.8935 Y34.9943
G01 X34.9644 Y34.9119
G01 X35.0289 Y34.8244
G01 X35.0868 Y34.7324
G01 X35.1376 Y34.6363
G01 X35.1810 Y34.5366
G01 X35.2169 Y34.4340
G01 X35.2451 Y34.3290
G01 X35.2653 Y34.2222
G01 X35.2774 Y34.1142
G01 X35.2815 Y34.0056
G01 X35.2777 Y33.9093
G01 X35.2664 Y33.8137
G01 X35.2476 Y33.7192
G01 X35.2215 Y33.6265
G01 X35.1881 Y33.5361
G01 X35.1478 Y33.4486
G01 X35.1007 Y33.3646
G01 X35.0472 Y33.2845
G01 X34.9876 Y33.2089
G01 X34.9222 Y33.1381
G01 X34.8515 Y33.0727
G01 X34.7758 Y33.0131
G01 X34.6957 Y32.9596
G01 X34.6117 Y32.9125
G01 X34.5242 Y32.8722
G01 X34.4338 Y32.8389
G01 X34.3411 Y32.8127
G01 X34.2466 Y32.7939
G01 X34.1510 Y32.7826
G01 X34.0547 Y32.7788
G01 X33.9585 Y32.7826
G01 X33.8628 Y32.7939
G01 X33.7683 Y32.8127
G01 X33.6756 Y32.8389
G01 X33.5853 Y32.8722
G01 X33.4978 Y32.9125
G01 X33.4137 Y32.9596
G01 X33.3336 Y33.0131
G01 X33.2580 Y33.0727
G01 X33.1873 Y33.1381
G01 X33.1219 Y33.2089
G01 X33.0622 Y33.2845
G01 X33.0087 Y33.3646
G01 X32.9617 Y33.4486
G01 X32.9213 Y33.5361
G01 X32.8880 Y33.6265
G01 X32.8618 Y33.7192
G01 X32.8430 Y33.8137
G01 X32.8317 Y33.9093
G01 X32.8279 Y34.0056
G01 X32.8317 Y34.0928
G01 X32.8431 Y34.1792
G01 X32.8620 Y34.2644
G01 X32.8882 Y34.3476
G01 X32.9216 Y34.4282
G01 X32.9619 Y34.5056
G01 X33.0088 Y34.5792
G01 X33.0619 Y34.6484
G01 X33.1208 Y34.7127
G01 X33.1852 Y34.7716
G01 X33.2544 Y34.8247
G01 X33.3279 Y34.8716
G01 X33.4053 Y34.9119
G01 X33.4859 Y34.9453
G01 X33.5691 Y34.9715
G01 X33.6543 Y34.9904
G01 X33.7408 Y35.0018
G01 X33.8279 Y35.0056
G01 X33.9151 Y35.0018
G01 X34.0016 Y34.9904
G01 X34.0868 Y34.9715
G01 X34.1700 Y34.9453
G01 X34.2506 Y34.9119
G01 X34.3279 Y34.8716
G01 X34.4015 Y34.8247
G01 X34.4707 Y34.7716
G01 X34.5350 Y34.7127
G01 X34.5940 Y34.6484
G01 X34.6471 Y34.5792
G01 X34.6940 Y34.5056
G01 X34.7342 Y34.4282
G01 X34.7676 Y34.3476
G01 X34.7939 Y34.2644
G01 X34.8127 Y34.1792
G01 X34.8241 Y34.0928
G01 X34.8279 Y34.0056
M107
M106 S240
G01 X34.8241 Y33.9184 Z-1.1476 F400
G01 X34.8127 Y33.8319 Z-1.1701
G01 X34.7939 Y33.7468 Z-1.1927
G01 X34.7676 Y33.6636 Z-1.2153
G01 X34.7342 Y33.5830 Z-1.2378
G01 X34.6940 Y33.5056 Z-1.2604
G01 X34.6471 Y33.4320 Z-1.2830
G01 X34.5940 Y33.3628 Z-1.3056
G01 X34.5350 Y33.2985 Z-1.3281
G01 X34.4707 Y33.2396 Z-1.3507
G01 X34.4015 Y33.1864 Z-1.3733
G01 X34.3279 Y33.1396 Z-1.3958
G01 X34.2506 Y33.0993 Z-1.4184
G01 X34.1700 Y33.0659 Z-1.4410
G01 X34.0868 Y33.0397 Z-1.4635
G01 X34.0016 Y33.0208 Z-1.4861
G01 X33.9151 Y33.0094 Z-1.5087
G01 X33.8279 Y33.0056 Z-1.5313
G01 X33.7408 Y33.0094 Z-1.5538
G01 X33.6543 Y33.0208 Z-1.5764
G01 X33.5691 Y33.0397 Z-1.5990
G01 X33.4859 Y33.0659 Z-1.6215
G01 X33.4053 Y33.0993 Z-1.6441
G01 X33.3279 Y33.1396 Z-1.6667
G01 X33.2544 Y33.1864 Z-1.6892
G01 X33.1852 Y33.2396 Z-1.7118
G01 X33.1208 Y33.2985 Z-1.7344
G01 X33.0619 Y33.3628 Z-1.7569
G01 X33.0088 Y33.4320 Z-1.7795
G01 X32.9619 Y33.5056 Z-1.8021
G01 X32.9216 Y33.5830 Z-1.8247
G01 X32.8882 Y33.6636 Z-1.8472
G01 X32.8620 Y33.7468 Z-1.8698
G01 X32.8431 Y33.8319 Z-1.8924
G01 X32.8317 Y33.9184 Z-1.9149
G01 X32.8279 Y34.0056 Z-1.9375
G01 X32.8317 Y34.0928 Z-1.9601
G01 X32.8431 Y34.1792 Z-1.9826
G01 X32.8620 Y34.2644 Z-2.0052
G01 X32.8882 Y34.3476 Z-2.0278
G01 X32.9216 Y34.4282 Z-2.0503
G01 X32.9619 Y34.5056 Z-2.0729
G01 X33.0088 Y34.5792 Z-2.0955
G01 X33.0619 Y34.6484 Z-2.1181
G01 X33.1208 Y34.7127 Z-2.1406
G01 X33.1852 Y34.7716 Z-2.1632
G01 X33.2544 Y34.8247 Z-2.1858
G01 X33.3279 Y34.8716 Z-2.2083
G01 X33.4053 Y34.9119 Z-2.2309
G01 X33.4859 Y34.9453 Z-2.2535
G01 X33.5691 Y34.9715 Z-2.2760
G01 X33.6543 Y34.9904 Z-2.2986
G01 X33.7408 Y35.0018 Z-2.3212
G01 X33.8279 Y35.0056 Z-2.3438
G01 X33.9151 Y35.0018 Z-2.3663
G01 X34.0016 Y34.9904 Z-2.3889
G01 X34.0868 Y34.9715 Z-2.4115
G01 X34.1700 Y34.9453 Z-2.4340
G01 X34.2506 Y34.9119 Z-2.4566
G01 X34.3279 Y34.8716 Z-2.4792
G01 X34.4015 Y34.8247 Z-2.5017
G01 X34.4707 Y34.7716 Z-2.5243
G01 X34.5350 Y34.7127 Z-2.5469
G01 X34.5940 Y34.6484 Z-2.5694
G01 X34.6471 Y34.5792 Z-2.5920
G01 X34.6940 Y34.5056 Z-2.6146
G01 X34.7342 Y34.4282 Z-2.6372
G01 X34.7676 Y34.3476 Z-2.6597
G01 X34.7939 Y34.2644 Z-2.6823
G01 X34.8127 Y34.1792 Z-2.7049
G01 X34.8241 Y34.0928 Z-2.7274
G01 X34.8279 Y34.0056 Z-2.7500
G01 X34.8241 Y33.9184
G01 X34.8127 Y33.8319
G01 X34.7939 Y33.7468
G01 X34.7676 Y33.6636
G01 X34.7342 Y33.5830
G01 X34.6940 Y33.5056
G01 X34.6471 Y33.4320
G01 X34.5940 Y33.3628
G01 X34.5350 Y33.2985
G01 X34.4707 Y33.2396
G01 X34.4015 Y33.1864
G01 X34.3279 Y33.1396
G01 X34.2506 Y33.0993
G01 X34.1700 Y33.0659
G01 X34.0868 Y33.0397
G01 X34.0016 Y33.0208
G01 X33.9151 Y33.0094
G01 X33.8279 Y33.0056
G01 X33.7408 Y33.0094
G01 X33.6543 Y33.0208
G01 X33.5691 Y33.0397
G01 X33.4859 Y33.0659
G01 X33.4053 Y33.0993
G01 X33.3279 Y33.1396
G01 X33.2544 Y33.1864
G01 X33.1852 Y33.2396
G01 X33.1208 Y33.2985
G01 X33.0619 Y33.3628
G01 X33.0088 Y33.4320
G01 X32.9619 Y33.5056
G01 X32.9216 Y33.5830
G01 X32.8882 Y33.6636
G01 X32.8620 Y33.7468
G01 X32.8431 Y33.8319
G01 X32.8317 Y33.9184
G01 X32.8279 Y34.0056
G01 X32.8317 Y34.0928
G01 X32.8431 Y34.1792
G01 X32.8620 Y34.2644
G01 X32.8882 Y34.3476
G01 X32.9216 Y34.4282
G01 X32.9619 Y34.5056
G01 X33.0088 Y34.5792
G01 X33.0619 Y34.6484
G01 X33.1208 Y34.7127
G01 X33.1852 Y34.7716
G01 X33.2544 Y34.8247
G01 X33.3279 Y34.8716
G01 X33.4053 Y34.9119
G01 X33.4859 Y34.9453
G01 X33.5691 Y34.9715
G01 X33.6543 Y34.9904
G01 X33.7408 Y35.0018
G01 X33.8279 Y35.0056
G01 X33.9151 Y35.0018
G01 X34.0016 Y34.9904
G01 X34.0868 Y34.9715
G01 X34.1700 Y34.9453
G01 X34.2506 Y34.9119
G01 X34.3279 Y34.8716
G01 X34.4015 Y34.8247
G01 X34.4707 Y34.7716
G01 X34.5350 Y34.7127
G01 X34.5940 Y34.6484
G01 X34.6471 Y34.5792
G01 X34.6940 Y34.5056
G01 X34.7342 Y34.4282
G01 X34.7676 Y34.3476
G01 X34.7939 Y34.2644
G01 X34.8127 Y34.1792
G01 X34.8241 Y34.0928
G01 X34.8279 Y34.0056
G01 X34.8387 Y33.9540 F1000
G01 X34.8468 Y33.9019
G01 X34.8521 Y33.8495
G01 X34.8548 Y33.7969
G01 Y33.7442
G01 X34.8520 Y33.6915
G01 X34.8466 Y33.6391
G01 X34.8384 Y33.5870
G01 X34.8267 Y33.5310
G01 X34.8122 Y33.4757
G01 X34.7948 Y33.4212
G01 X34.7746 Y33.3677
G01 X34.7518 Y33.3153
G01 X34.7263 Y33.2641
G01 X34.6982 Y33.2142
G01 X34.6676 Y33.1659
G01 X34.6320 Y33.1155
G01 X34.5939 Y33.0670
G01 X34.5534 Y33.0205
G01 X34.5105 Y32.9761
G01 X34.4654 Y32.9339
G01 X34.4183 Y32.8941
G01 X34.3692 Y32.8567
G01 X34.3183 Y32.8219
G01 X34.2618 Y32.7873
G01 X34.2036 Y32.7556
G01 X34.1439 Y32.7270
G01 X34.0828 Y32.7013
G01 X34.0205 Y32.6788
G01 X33.9572 Y32.6595
G01 X33.8929 Y32.6434
G01 X33.8279 Y32.6306
G01 X33.7583 Y32.6224
G01 X33.6884 Y32.6176
G01 X33.6183 Y32.6164
G01 X33.5482 Y32.6187
G01 X33.4783 Y32.6245
G01 X33.4088 Y32.6338
G01 X33.3399 Y32.6465
G01 X33.2717 Y32.6627
G01 X33.2065 Y32.6916
G01 X33.1427 Y32.7237
G01 X33.0807 Y32.7588
G01 X33.0204 Y32.7970
G01 X32.9621 Y32.8381
G01 X32.9058 Y32.8820
G01 X32.8518 Y32.9286
G01 X32.8001 Y32.9778
G01 X32.7509 Y33.0294
G01 X32.7043 Y33.0835
G01 X32.6604 Y33.1397
G01 X32.6193 Y33.1980
G01 X32.5812 Y33.2583
G01 X32.5460 Y33.3204
G01 X32.5139 Y33.3841
G01 X32.4850 Y33.4493
G01 X32.4593 Y33.5159
G01 X32.4370 Y33.5836
G01 X32.4179 Y33.6524
G01 X32.4023 Y33.7220
G01 X32.3901 Y33.7923
G01 X32.3814 Y33.8631
G01 X32.3761 Y33.9343
G01 X32.3744 Y34.0056
G01 X32.3761 Y34.0769
G01 X32.3814 Y34.1481
G01 X32.3901 Y34.2189
G01 X32.4023 Y34.2892
G01 X32.4179 Y34.3588
G01 X32.4370 Y34.4275
G01 X32.4593 Y34.4953
G01 X32.4850 Y34.5618
G01 X32.5139 Y34.6271
G01 X32.5460 Y34.6908
G01 X32.5812 Y34.7529
G01 X32.6193 Y34.8132
G01 X32.6604 Y34.8715
G01 X32.7043 Y34.9277
G01 X32.7509 Y34.9817
G01 X32.8001 Y35.0334
G01 X32.8518 Y35.0826
G01 X32.9058 Y35.1292
G01 X32.9621 Y35.1731
G01 X33.0204 Y35.2142
G01 X33.0807 Y35.2524
G01 X33.1427 Y35.2875
G01 X33.2065 Y35.3196
G01 X33.2717 Y35.3485
G01 X33.3382 Y35.3742
G01 X33.4060 Y35.3966
G01 X33.4748 Y35.4156
G01 X33.5444 Y35.4312
G01 X33.6147 Y35.4434
G01 X33.6855 Y35.4522
G01 X33.7566 Y35.4574
G01 X33.8279 Y35.4592
G01 X33.8993 Y35.4574
G01 X33.9704 Y35.4522
G01 X34.0412 Y35.4434
G01 X34.1115 Y35.4312
G01 X34.1811 Y35.4156
G01 X34.2499 Y35.3966
G01 X34.3176 Y35.3742
G01 X34.3842 Y35.3485
G01 X34.4494 Y35.3196
G01 X34.5131 Y35.2875
G01 X34.5752 Y35.2524
G01 X34.6355 Y35.2142
G01 X34.6938 Y35.1731
G01 X34.7501 Y35.1292
G01 X34.8041 Y35.0826
G01 X34.8558 Y35.0334
G01 X34.9050 Y34.9817
G01 X34.9516 Y34.9277
G01 X34.9955 Y34.8715
G01 X35.0365 Y34.8132
G01 X35.0747 Y34.7529
G01 X35.1099 Y34.6908
G01 X35.1419 Y34.6271
G01 X35.1709 Y34.5618
G01 X35.1965 Y34.4953
G01 X35.2189 Y34.4275
G01 X35.2379 Y34.3588
G01 X35.2536 Y34.2892
G01 X35.2658 Y34.2189
G01 X35.2745 Y34.1481
G01 X35.2798 Y34.0769
G01 X35.2815 Y34.0056
G01 X35.2774 Y33.8970
G01 X35.2653 Y33.7890
G01 X35.2451 Y33.6821
G01 X35.2169 Y33.5771
G01 X35.1810 Y33.4745
G01 X35.1376 Y33.3749
G01 X35.0868 Y33.2788
G01 X35.0289 Y33.1868
G01 X34.9644 Y33.0993
G01 X34.8935 Y33.0169
G01 X34.8166 Y32.9401
G01 X34.7342 Y32.8692
G01 X34.6468 Y32.8046
G01 X34.5547 Y32.7468
G01 X34.4586 Y32.6960
G01 X34.3590 Y32.6525
G01 X34.2564 Y32.6166
G01 X34.1514 Y32.5885
G01 X34.0446 Y32.5683
G01 X33.9366 Y32.5561
G01 X33.8279 Y32.5520
G01 X33.7193 Y32.5561
G01 X33.6113 Y32.5683
G01 X33.5045 Y32.5885
G01 X33.3995 Y32.6166
G01 X33.2969 Y32.6525
G01 X33.1973 Y32.6960
G01 X33.1012 Y32.7468
G01 X33.0091 Y32.8046
G01 X32.9217 Y32.8692
G01 X32.8393 Y32.9401
G01 X32.7624 Y33.0169
G01 X32.6915 Y33.0993
G01 X32.6269 Y33.1868
G01 X32.5691 Y33.2788
G01 X32.5183 Y33.3749
G01 X32.4749 Y33.4745
G01 X32.4390 Y33.5771
G01 X32.4108 Y33.6821
G01 X32.3906 Y33.7890
G01 X32.3784 Y33.8970
G01 X32.3744 Y34.0056
G01 X32.3784 Y34.1142
G01 X32.3906 Y34.2222
G01 X32.4108 Y34.3290
G01 X32.4390 Y34.4340
G01 X32.4749 Y34.5366
G01 X32.5183 Y34.6363
G01 X32.5691 Y34.7324
G01 X32.6269 Y34.8244
G01 X32.6915 Y34.9119
G01 X32.7624 Y34.9943
G01 X32.8393 Y35.0711
G01 X32.9217 Y35.1420
G01 X33.0091 Y35.2066
G01 X33.1012 Y35.2644
G01 X33.1973 Y35.3152
G01 X33.2969 Y35.3587
G01 X33.3995 Y35.3946
G01 X33.5045 Y35.4227
G01 X33.6113 Y35.4429
G01 X33.7193 Y35.4551
G01 X33.8279 Y35.4592
G01 X33.9366 Y35.4551
G01 X34.0446 Y35.4429
G01 X34.1514 Y35.4227
G01 X34.2564 Y35.3946
G01 X34.3590 Y35.3587
G01 X34.4586 Y35.3152
G01 X34.5547 Y35.2644
G01 X34.6468 Y35.2066
G01 X34.7342 Y35.1420
G01 X34.8166 Y35.0711
G01 X34.8935 Y34.9943
G01 X34.9644 Y34.9119
G01 X35.0289 Y34.8244
G01 X35.0868 Y34.7324
G01 X35.1376 Y34.6363
G01 X35.1810 Y34.5366
G01 X35.2169 Y34.4340
G01 X35.2451 Y34.3290
G01 X35.2653 Y34.2222
G01 X35.2774 Y34.1142
G01 X35.2815 Y34.0056
G01 X35.2777 Y33.9093
G01 X35.2664 Y33.8137
G01 X35.2476 Y33.7192
G01 X35.2215 Y33.6265
G01 X35.1881 Y33.5361
G01 X35.1478 Y33.4486
G01 X35.1007 Y33.3646
G01 X35.0472 Y33.2845
G01 X34.9876 Y33.2089
G01 X34.9222 Y33.1381
G01 X34.8515 Y33.0727
G01 X34.7758 Y33.0131
G01 X34.6957 Y32.9596
G01 X34.6117 Y32.9125
G01 X34.5242 Y32.8722
G01 X34.4338 Y32.8389
G01 X34.3411 Y32.8127
G01 X34.2466 Y32.7939
G01 X34.1510 Y32.7826
G01 X34.0547 Y32.7788
G01 X33.9585 Y32.7826
G01 X33.8628 Y32.7939
G01 X33.7683 Y32.8127
G01 X33.6756 Y32.8389
G01 X33.5853 Y32.8722
G01 X33.4978 Y32.9125
G01 X33.4137 Y32.9596
G01 X33.3336 Y33.0131
G01 X33.2580 Y33.0727
G01 X33.1873 Y33.1381
G01 X33.1219 Y33.2089
G01 X33.0622 Y33.2845
G01 X33.0087 Y33.3646
G01 X32.9617 Y33.4486
G01 X32.9213 Y33.5361
G01 X32.8880 Y33.6265
G01 X32.8618 Y33.7192
G01 X32.8430 Y33.8137
G01 X32.8317 Y33.9093
G01 X32.8279 Y34.0056
G01 X32.8317 Y34.0928
G01 X32.8431 Y34.1792
G01 X32.8620 Y34.2644
G01 X32.8882 Y34.3476
G01 X32.9216 Y34.4282
G01 X32.9619 Y34.5056
G01 X33.0088 Y34.5792
G01 X33.0619 Y34.6484
G01 X33.1208 Y34.7127
G01 X33.1852 Y34.7716
G01 X33.2544 Y34.8247
G01 X33.3279 Y34.8716
G01 X33.4053 Y34.9119
G01 X33.4859 Y34.9453
G01 X33.5691 Y34.9715
G01 X33.6543 Y34.9904
G01 X33.7408 Y35.0018
G01 X33.8279 Y35.0056
G01 X33.9151 Y35.0018
G01 X34.0016 Y34.9904
G01 X34.0868 Y34.9715
G01 X34.1700 Y34.9453
G01 X34.2506 Y34.9119
G01 X34.3279 Y34.8716
G01 X34.4015 Y34.8247
G01 X34.4707 Y34.7716
G01 X34.5350 Y34.7127
G01 X34.5940 Y34.6484
G01 X34.6471 Y34.5792
G01 X34.6940 Y34.5056
G01 X34.7342 Y34.4282
G01 X34.7676 Y34.3476
G01 X34.7939 Y34.2644
G01 X34.8127 Y34.1792
G01 X34.8241 Y34.0928
G01 X34.8279 Y34.0056
M107
M106 S240
G01 X34.8241 Y33.9184 Z-2.7726 F400
G01 X34.8127 Y33.8319 Z-2.7951
G01 X34.7939 Y33.7468 Z-2.8177
G01 X34.7676 Y33.6636 Z-2.8403
G01 X34.7342 Y33.5830 Z-2.8628
G01 X34.6940 Y33.5056 Z-2.8854
G01 X34.6471 Y33.4320 Z-2.9080
G01 X34.5940 Y33.3628 Z-2.9306
G01 X34.5350 Y33.2985 Z-2.9531
G01 X34.4707 Y33.2396 Z-2.9757
G01 X34.4015 Y33.1864 Z-2.9983
G01 X34.3279 Y33.1396 Z-3.0208
G01 X34.2506 Y33.0993 Z-3.0434
G01 X34.1700 Y33.0659 Z-3.0660
G01 X34.0868 Y33.0397 Z-3.0885
G01 X34.0016 Y33.0208 Z-3.1111
G01 X33.9151 Y33.0094 Z-3.1337
G01 X33.8279 Y33.0056 Z-3.1563
G01 X33.7408 Y33.0094 Z-3.1788
G01 X33.6543 Y33.0208 Z-3.2014
G01 X33.5691 Y33.0397 Z-3.2240
G01 X33.4859 Y33.0659 Z-3.2465
G01 X33.4053 Y33.0993 Z-3.2691
G01 X33.3279 Y33.1396 Z-3.2917
G01 X33.2544 Y33.1864 Z-3.3142
G01 X33.1852 Y33.2396 Z-3.3368
G01 X33.1208 Y33.2985 Z-3.3594
G01 X33.0619 Y33.3628 Z-3.3819
G01 X33.0088 Y33.4320 Z-3.4045
G01 X32.9619 Y33.5056 Z-3.4271
G01 X32.9216 Y33.5830 Z-3.4497
G01 X32.8882 Y33.6636 Z-3.4722
G01 X32.8620 Y33.7468 Z-3.4948
G01 X32.8431 Y33.8319 Z-3.5174
G01 X32.8317 Y33.9184 Z-3.5399
G01 X32.8279 Y34.0056 Z-3.5625
G01 X32.8317 Y34.0928 Z-3.5851
G01 X32.8431 Y34.1792 Z-3.6076
G01 X32.8620 Y34.2644 Z-3.6302
G01 X32.8882 Y34.3476 Z-3.6528
G01 X32.9216 Y34.4282 Z-3.6753
G01 X32.9619 Y34.5056 Z-3.6979
G01 X33.0088 Y34.5792 Z-3.7205
G01 X33.0619 Y34.6484 Z-3.7431
G01 X33.1208 Y34.7127 Z-3.7656
G01 X33.1852 Y34.7716 Z-3.7882
G01 X33.2544 Y34.8247 Z-3.8108
G01 X33.3279 Y34.8716 Z-3.8333
G01 X33.4053 Y34.9119 Z-3.8559
G01 X33.4859 Y34.9453 Z-3.8785
G01 X33.5691 Y34.9715 Z-3.9010
G01 X33.6543 Y34.9904 Z-3.9236
G01 X33.7408 Y35.0018 Z-3.9462
G01 X33.8279 Y35.0056 Z-3.9688
G01 X33.9151 Y35.0018 Z-3.9913
G01 X34.0016 Y34.9904 Z-4.0139
G01 X34.0868 Y34.9715 Z-4.0365
G01 X34.1700 Y34.9453 Z-4.0590
G01 X34.2506 Y34.9119 Z-4.0816
G01 X34.3279 Y34.8716 Z-4.1042
G01 X34.4015 Y34.8247 Z-4.1267
G01 X34.4707 Y34.7716 Z-4.1493
G01 X34.5350 Y34.7127 Z-4.1719
G01 X34.5940 Y34.6484 Z-4.1944
G01 X34.6471 Y34.5792 Z-4.2170
G01 X34.6940 Y34.5056 Z-4.2396
G01 X34.7342 Y34.4282 Z-4.2622
G01 X34.7676 Y34.3476 Z-4.2847
G01 X34.7939 Y34.2644 Z-4.3073
G01 X34.8127 Y34.1792 Z-4.3299
G01 X34.8241 Y34.0928 Z-4.3524
G01 X34.8279 Y34.0056 Z-4.3750
G01 X34.8241 Y33.9184
G01 X34.8127 Y33.8319
G01 X34.7939 Y33.7468
G01 X34.7676 Y33.6636
G01 X34.7342 Y33.5830
G01 X34.6940 Y33.5056
G01 X34.6471 Y33.4320
G01 X34.5940 Y33.3628
G01 X34.5350 Y33.2985
G01 X34.4707 Y33.2396
G01 X34.4015 Y33.1864
G01 X34.3279 Y33.1396
G01 X34.2506 Y33.0993
G01 X34.1700 Y33.0659
G01 X34.0868 Y33.0397
G01 X34.0016 Y33.0208
G01 X33.9151 Y33.0094
G01 X33.8279 Y33.0056
G01 X33.7408 Y33.0094
G01 X33.6543 Y33.0208
G01 X33.5691 Y33.0397
G01 X33.4859 Y33.0659
G01 X33.4053 Y33.0993
G01 X33.3279 Y33.1396
G01 X33.2544 Y33.1864
G01 X33.1852 Y33.2396
G01 X33.1208 Y33.2985
G01 X33.0619 Y33.3628
G01 X33.0088 Y33.4320
G01 X32.9619 Y33.5056
G01 X32.9216 Y33.5830
G01 X32.8882 Y33.6636
G01 X32.8620 Y33.7468
G01 X32.8431 Y33.8319
G01 X32.8317 Y33.9184
G01 X32.8279 Y34.0056
G01 X32.8317 Y34.0928
G01 X32.8431 Y34.1792
G01 X32.8620 Y34.2644
G01 X32.8882 Y34.3476
G01 X32.9216 Y34.4282
G01 X32.9619 Y34.5056
G01 X33.0088 Y34.5792
G01 X33.0619 Y34.6484
G01 X33.1208 Y34.7127
G01 X33.1852 Y34.7716
G01 X33.2544 Y34.8247
G01 X33.3279 Y34.8716
G01 X33.4053 Y34.9119
G01 X33.4859 Y34.9453
G01 X33.5691 Y34.9715
G01 X33.6543 Y34.9904
G01 X33.7408 Y35.0018
G01 X33.8279 Y35.0056
G01 X33.9151 Y35.0018
G01 X34.0016 Y34.9904
G01 X34.0868 Y34.9715
G01 X34.1700 Y34.9453
G01 X34.2506 Y34.9119
G01 X34.3279 Y34.8716
G01 X34.4015 Y34.8247
G01 X34.4707 Y34.7716
G01 X34.5350 Y34.7127
G01 X34.5940 Y34.6484
G01 X34.6471 Y34.5792
G01 X34.6940 Y34.5056
G01 X34.7342 Y34.4282
G01 X34.7676 Y34.3476
G01 X34.7939 Y34.2644
G01 X34.8127 Y34.1792
G01 X34.8241 Y34.0928
G01 X34.8279 Y34.0056
G01 X34.8387 Y33.9540 F1000
G01 X34.8468 Y33.9019
G01 X34.8521 Y33.8495
G01 X34.8548 Y33.7969
G01 Y33.7442
G01 X34.8520 Y33.6915
G01 X34.8466 Y33.6391
G01 X34.8384 Y33.5870
G01 X34.8267 Y33.5310
G01 X34.8122 Y33.4757
G01 X34.7948 Y33.4212
G01 X34.7746 Y33.3677
G01 X34.7518 Y33.3153
G01 X34.7263 Y33.2641
G01 X34.6982 Y33.2142
G01 X34.6676 Y33.1659
G01 X34.6320 Y33.1155
G01 X34.5939 Y33.0670
G01 X34.5534 Y33.0205
G01 X34.5105 Y32.9761
G01 X34.4654 Y32.9339
G01 X34.4183 Y32.8941
G01 X34.3692 Y32.8567
G01 X34.3183 Y32.8219
G01 X34.2618 Y32.7873
G01 X34.2036 Y32.7556
G01 X34.1439 Y32.7270
G01 X34.0828 Y32.7013
G01 X34.0205 Y32.6788
G01 X33.9572 Y32.6595
G01 X33.8929 Y32.6434
G01 X33.8279 Y32.6306
G01 X33.7583 Y32.6224
G01 X33.6884 Y32.6176
G01 X33.6183 Y32.6164
G01 X33.5482 Y32.6187
G01 X33.4783 Y32.6245
G01 X33.4088 Y32.6338
G01 X33.3399 Y32.6465
G01 X33.2717 Y32.6627
G01 X33.2065 Y32.6916
G01 X33.1427 Y32.7237
G01 X33.0807 Y32.7588
G01 X33.0204 Y32.7970
G01 X32.9621 Y32.8381
G01 X32.9058 Y32.8820
G01 X32.8518 Y32.9286
G01 X32.8001 Y32.9778
G01 X32.7509 Y33.0294
G01 X32.7043 Y33.0835
G01 X32.6604 Y33.1397
G01 X32.6193 Y33.1980
G01 X32.5812 Y33.2583
G01 X32.5460 Y33.3204
G01 X32.5139 Y33.3841
G01 X32.4850 Y33.4493
G01 X32.4593 Y33.5159
G01 X32.4370 Y33.5836
G01 X32.4179 Y33.6524
G01 X32.4023 Y33.7220
G01 X32.3901 Y33.7923
G01 X32.3814 Y33.8631
G01 X32.3761 Y33.9343
G01 X32.3744 Y34.0056
G01 X32.3761 Y34.0769
G01 X32.3814 Y34.1481
G01 X32.3901 Y34.2189
G01 X32.4023 Y34.2892
G01 X32.4179 Y34.3588
G01 X32.4370 Y34.4275
G01 X32.4593 Y34.4953
G01 X32.4850 Y34.5618
G01 X32.5139 Y34.6271
G01 X32.5460 Y34.6908
G01 X32.5812 Y34.7529
G01 X32.6193 Y34.8132
G01 X32.6604 Y34.8715
G01 X32.7043 Y34.9277
G01 X32.7509 Y34.9817
G01 X32.8001 Y35.0334
G01 X32.8518 Y35.0826
G01 X32.9058 Y35.1292
G01 X32.9621 Y35.1731
G01 X33.0204 Y35.2142
G01 X33.0807 Y35.2524
G01 X33.1427 Y35.2875
G01 X33.2065 Y35.3196
G01 X33.2717 Y35.3485
G01 X33.3382 Y35.3742
G01 X33.4060 Y35.3966
G01 X33.4748 Y35.4156
G01 X33.5444 Y35.4312
G01 X33.6147 Y35.4434
G01 X33.6855 Y35.4522
G01 X33.7566 Y35.4574
G01 X33.8279 Y35.4592
G01 X33.8993 Y35.4574
G01 X33.9704 Y35.4522
G01 X34.0412 Y35.4434
G01 X34.1115 Y35.4312
G01 X34.1811 Y35.4156
G01 X34.2499 Y35.3966
G01 X34.3176 Y35.3742
G01 X34.3842 Y35.3485
G01 X34.4494 Y35.3196
G01 X34.5131 Y35.2875
G01 X34.5752 Y35.2524
G01 X34.6355 Y35.2142
G01 X34.6938 Y35.1731
G01 X34.7501 Y35.1292
G01 X34.8041 Y35.0826
G01 X34.8558 Y35.0334
G01 X34.9050 Y34.9817
G01 X34.9516 Y34.9277
G01 X34.9955 Y34.8715
G01 X35.0365 Y34.8132
G01 X35.0747 Y34.7529
G01 X35.1099 Y34.6908
G01 X35.1419 Y34.6271
G01 X35.1709 Y34.5618
G01 X35.1965 Y34.4953
G01 X35.2189 Y34.4275
G01 X35.2379 Y34.3588
G01 X35.2536 Y34.2892
G01 X35.2658 Y34.2189
G01 X35.2745 Y34.1481
G01 X35.2798 Y34.0769
G01 X35.2815 Y34.0056
G01 X35.2774 Y33.8970
G01 X35.2653 Y33.7890
G01 X35.2451 Y33.6821
G01 X35.2169 Y33.5771
G01 X35.1810 Y33.4745
G01 X35.1376 Y33.3749
G01 X35.0868 Y33.2788
G01 X35.0289 Y33.1868
G01 X34.9644 Y33.0993
G01 X34.8935 Y33.0169
G01 X34.8166 Y32.9401
G01 X34.7342 Y32.8692
G01 X34.6468 Y32.8046
G01 X34.5547 Y32.7468
G01 X34.4586 Y32.6960
G01 X34.3590 Y32.6525
G01 X34.2564 Y32.6166
G01 X34.1514 Y32.5885
G01 X34.0446 Y32.5683
G01 X33.9366 Y32.5561
G01 X33.8279 Y32.5520
G01 X33.7193 Y32.5561
G01 X33.6113 Y32.5683
G01 X33.5045 Y32.5885
G01 X33.3995 Y32.6166
G01 X33.2969 Y32.6525
G01 X33.1973 Y32.6960
G01 X33.1012 Y32.7468
G01 X33.0091 Y32.8046
G01 X32.9217 Y32.8692
G01 X32.8393 Y32.9401
G01 X32.7624 Y33.0169
G01 X32.6915 Y33.0993
G01 X32.6269 Y33.1868
G01 X32.5691 Y33.2788
G01 X32.5183 Y33.3749
G01 X32.4749 Y33.4745
G01 X32.4390 Y33.5771
G01 X32.4108 Y33.6821
G01 X32.3906 Y33.7890
G01 X32.3784 Y33.8970
G01 X32.3744 Y34.0056
G01 X32.3784 Y34.1142
G01 X32.3906 Y34.2222
G01 X32.4108 Y34.3290
G01 X32.4390 Y34.4340
G01 X32.4749 Y34.5366
G01 X32.5183 Y34.6363
G01 X32.5691 Y34.7324
G01 X32.6269 Y34.8244
G01 X32.6915 Y34.9119
G01 X32.7624 Y34.9943
G01 X32.8393 Y35.0711
G01 X32.9217 Y35.1420
G01 X33.0091 Y35.2066
G01 X33.1012 Y35.2644
G01 X33.1973 Y35.3152
G01 X33.2969 Y35.3587
G01 X33.3995 Y35.3946
G01 X33.5045 Y35.4227
G01 X33.6113 Y35.4429
G01 X33.7193 Y35.4551
G01 X33.8279 Y35.4592
G01 X33.9366 Y35.4551
G01 X34.0446 Y35.4429
G01 X34.1514 Y35.4227
G01 X34.2564 Y35.3946
G01 X34.3590 Y35.3587
G01 X34.4586 Y35.3152
G01 X34.5547 Y35.2644
G01 X34.6468 Y35.2066
G01 X34.7342 Y35.1420
G01 X34.8166 Y35.0711
G01 X34.8935 Y34.9943
G01 X34.9644 Y34.9119
G01 X35.0289 Y34.8244
G01 X35.0868 Y34.7324
G01 X35.1376 Y34.6363
G01 X35.1810 Y34.5366
G01 X35.2169 Y34.4340
G01 X35.2451 Y34.3290
G01 X35.2653 Y34.2222
G01 X35.2774 Y34.1142
G01 X35.2815 Y34.0056
G01 X35.2777 Y33.9093
G01 X35.2664 Y33.8137
G01 X35.2476 Y33.7192
G01 X35.2215 Y33.6265
G01 X35.1881 Y33.5361
G01 X35.1478 Y33.4486
G01 X35.1007 Y33.3646
G01 X35.0472 Y33.2845
G01 X34.9876 Y33.2089
G01 X34.9222 Y33.1381
G01 X34.8515 Y33.0727
G01 X34.7758 Y33.0131
G01 X34.6957 Y32.9596
G01 X34.6117 Y32.9125
G01 X34.5242 Y32.8722
G01 X34.4338 Y32.8389
G01 X34.3411 Y32.8127
G01 X34.2466 Y32.7939
G01 X34.1510 Y32.7826
G01 X34.0547 Y32.7788
G01 X33.9585 Y32.7826
G01 X33.8628 Y32.7939
G01 X33.7683 Y32.8127
G01 X33.6756 Y32.8389
G01 X33.5853 Y32.8722
G01 X33.4978 Y32.9125
G01 X33.4137 Y32.9596
G01 X33.3336 Y33.0131
G01 X33.2580 Y33.0727
G01 X33.1873 Y33.1381
G01 X33.1219 Y33.2089
G01 X33.0622 Y33.2845
G01 X33.0087 Y33.3646
G01 X32.9617 Y33.4486
G01 X32.9213 Y33.5361
G01 X32.8880 Y33.6265
G01 X32.8618 Y33.7192
G01 X32.8430 Y33.8137
G01 X32.8317 Y33.9093
G01 X32.8279 Y34.0056
G01 X32.8317 Y34.0928
G01 X32.8431 Y34.1792
G01 X32.8620 Y34.2644
G01 X32.8882 Y34.3476
G01 X32.9216 Y34.4282
G01 X32.9619 Y34.5056
G01 X33.0088 Y34.5792
G01 X33.0619 Y34.6484
G01 X33.1208 Y34.7127
G01 X33.1852 Y34.7716
G01 X33.2544 Y34.8247
G01 X33.3279 Y34.8716
G01 X33.4053 Y34.9119
G01 X33.4859 Y34.9453
G01 X33.5691 Y34.9715
G01 X33.6543 Y34.9904
G01 X33.7408 Y35.0018
G01 X33.8279 Y35.0056
G01 X33.9151 Y35.0018
G01 X34.0016 Y34.9904
G01 X34.0868 Y34.9715
G01 X34.1700 Y34.9453
G01 X34.2506 Y34.9119
G01 X34.3279 Y34.8716
G01 X34.4015 Y34.8247
G01 X34.4707 Y34.7716
G01 X34.5350 Y34.7127
G01 X34.5940 Y34.6484
G01 X34.6471 Y34.5792
G01 X34.6940 Y34.5056
G01 X34.7342 Y34.4282
G01 X34.7676 Y34.3476
G01 X34.7939 Y34.2644
G01 X34.8127 Y34.1792
G01 X34.8241 Y34.0928
G01 X34.8279 Y34.0056
M107
M106 S240
G01 X34.8241 Y33.9184 Z-4.3976 F400
G01 X34.8127 Y33.8319 Z-4.4201
G01 X34.7939 Y33.7468 Z-4.4427
G01 X34.7676 Y33.6636 Z-4.4653
G01 X34.7342 Y33.5830 Z-4.4878
G01 X34.6940 Y33.5056 Z-4.5104
G01 X34.6471 Y33.4320 Z-4.5330
G01 X34.5940 Y33.3628 Z-4.5556
G01 X34.5350 Y33.2985 Z-4.5781
G01 X34.4707 Y33.2396 Z-4.6007
G01 X34.4015 Y33.1864 Z-4.6233
G01 X34.3279 Y33.1396 Z-4.6458
G01 X34.2506 Y33.0993 Z-4.6684
G01 X34.1700 Y33.0659 Z-4.6910
G01 X34.0868 Y33.0397 Z-4.7135
G01 X34.0016 Y33.0208 Z-4.7361
G01 X33.9151 Y33.0094 Z-4.7587
G01 X33.8279 Y33.0056 Z-4.7813
G01 X33.7408 Y33.0094 Z-4.8038
G01 X33.6543 Y33.0208 Z-4.8264
G01 X33.5691 Y33.0397 Z-4.8490
G01 X33.4859 Y33.0659 Z-4.8715
G01 X33.4053 Y33.0993 Z-4.8941
G01 X33.3279 Y33.1396 Z-4.9167
G01 X33.2544 Y33.1864 Z-4.9392
G01 X33.1852 Y33.2396 Z-4.9618
G01 X33.1208 Y33.2985 Z-4.9844
G01 X33.0619 Y33.3628 Z-5.0069
G01 X33.0088 Y33.4320 Z-5.0295
G01 X32.9619 Y33.5056 Z-5.0521
G01 X32.9216 Y33.5830 Z-5.0747
G01 X32.8882 Y33.6636 Z-5.0972
G01 X32.8620 Y33.7468 Z-5.1198
G01 X32.8431 Y33.8319 Z-5.1424
G01 X32.8317 Y33.9184 Z-5.1649
G01 X32.8279 Y34.0056 Z-5.1875
G01 X32.8317 Y34.0928 Z-5.2101
G01 X32.8431 Y34.1792 Z-5.2326
G01 X32.8620 Y34.2644 Z-5.2552
G01 X32.8882 Y34.3476 Z-5.2778
G01 X32.9216 Y34.4282 Z-5.3003
G01 X32.9619 Y34.5056 Z-5.3229
G01 X33.0088 Y34.5792 Z-5.3455
G01 X33.0619 Y34.6484 Z-5.3681
G01 X33.1208 Y34.7127 Z-5.3906
G01 X33.1852 Y34.7716 Z-5.4132
G01 X33.2544 Y34.8247 Z-5.4358
G01 X33.3279 Y34.8716 Z-5.4583
G01 X33.4053 Y34.9119 Z-5.4809
G01 X33.4859 Y34.9453 Z-5.5035
G01 X33.5691 Y34.9715 Z-5.5260
G01 X33.6543 Y34.9904 Z-5.5486
G01 X33.7408 Y35.0018 Z-5.5712
G01 X33.8279 Y35.0056 Z-5.5938
G01 X33.9151 Y35.0018 Z-5.6163
G01 X34.0016 Y34.9904 Z-5.6389
G01 X34.0868 Y34.9715 Z-5.6615
G01 X34.1700 Y34.9453 Z-5.6840
G01 X34.2506 Y34.9119 Z-5.7066
G01 X34.3279 Y34.8716 Z-5.7292
G01 X34.4015 Y34.8247 Z-5.7517
G01 X34.4707 Y34.7716 Z-5.7743
G01 X34.5350 Y34.7127 Z-5.7969
G01 X34.5940 Y34.6484 Z-5.8194
G01 X34.6471 Y34.5792 Z-5.8420
G01 X34.6940 Y34.5056 Z-5.8646
G01 X34.7342 Y34.4282 Z-5.8872
G01 X34.7676 Y34.3476 Z-5.9097
G01 X34.7939 Y34.2644 Z-5.9323
G01 X34.8127 Y34.1792 Z-5.9549
G01 X34.8241 Y34.0928 Z-5.9774
G01 X34.8279 Y34.0056 Z-6.0000
G01 X34.8241 Y33.9184
G01 X34.8127 Y33.8319
G01 X34.7939 Y33.7468
G01 X34.7676 Y33.6636
G01 X34.7342 Y33.5830
G01 X34.6940 Y33.5056
G01 X34.6471 Y33.4320
G01 X34.5940 Y33.3628
G01 X34.5350 Y33.2985
G01 X34.4707 Y33.2396
G01 X34.4015 Y33.1864
G01 X34.3279 Y33.1396
G01 X34.2506 Y33.0993
G01 X34.1700 Y33.0659
G01 X34.0868 Y33.0397
G01 X34.0016 Y33.0208
G01 X33.9151 Y33.0094
G01 X33.8279 Y33.0056
G01 X33.7408 Y33.0094
G01 X33.6543 Y33.0208
G01 X33.5691 Y33.0397
G01 X33.4859 Y33.0659
G01 X33.4053 Y33.0993
G01 X33.3279 Y33.1396
G01 X33.2544 Y33.1864
G01 X33.1852 Y33.2396
G01 X33.1208 Y33.2985
G01 X33.0619 Y33.3628
G01 X33.0088 Y33.4320
G01 X32.9619 Y33.5056
G01 X32.9216 Y33.5830
G01 X32.8882 Y33.6636
G01 X32.8620 Y33.7468
G01 X32.8431 Y33.8319
G01 X32.8317 Y33.9184
G01 X32.8279 Y34.0056
G01 X32.8317 Y34.0928
G01 X32.8431 Y34.1792
G01 X32.8620 Y34.2644
G01 X32.8882 Y34.3476
G01 X32.9216 Y34.4282
G01 X32.9619 Y34.5056
G01 X33.0088 Y34.5792
G01 X33.0619 Y34.6484
G01 X33.1208 Y34.7127
G01 X33.1852 Y34.7716
G01 X33.2544 Y34.8247
G01 X33.3279 Y34.8716
G01 X33.4053 Y34.9119
G01 X33.4859 Y34.9453
G01 X33.5691 Y34.9715
G01 X33.6543 Y34.9904
G01 X33.7408 Y35.0018
G01 X33.8279 Y35.0056
G01 X33.9151 Y35.0018
G01 X34.0016 Y34.9904
G01 X34.0868 Y34.9715
G01 X34.1700 Y34.9453
G01 X34.2506 Y34.9119
G01 X34.3279 Y34.8716
G01 X34.4015 Y34.8247
G01 X34.4707 Y34.7716
G01 X34.5350 Y34.7127
G01 X34.5940 Y34.6484
G01 X34.6471 Y34.5792
G01 X34.6940 Y34.5056
G01 X34.7342 Y34.4282
G01 X34.7676 Y34.3476
G01 X34.7939 Y34.2644
G01 X34.8127 Y34.1792
G01 X34.8241 Y34.0928
G01 X34.8279 Y34.0056
G01 X34.8387 Y33.9540 F1000
G01 X34.8468 Y33.9019
G01 X34.8521 Y33.8495
G01 X34.8548 Y33.7969
G01 Y33.7442
G01 X34.8520 Y33.6915
G01 X34.8466 Y33.6391
G01 X34.8384 Y33.5870
G01 X34.8267 Y33.5310
G01 X34.8122 Y33.4757
G01 X34.7948 Y33.4212
G01 X34.7746 Y33.3677
G01 X34.7518 Y33.3153
G01 X34.7263 Y33.2641
G01 X34.6982 Y33.2142
G01 X34.6676 Y33.1659
G01 X34.6320 Y33.1155
G01 X34.5939 Y33.0670
G01 X34.5534 Y33.0205
G01 X34.5105 Y32.9761
G01 X34.4654 Y32.9339
G01 X34.4183 Y32.8941
G01 X34.3692 Y32.8567
G01 X34.3183 Y32.8219
G01 X34.2618 Y32.7873
G01 X34.2036 Y32.7556
G01 X34.1439 Y32.7270
G01 X34.0828 Y32.7013
G01 X34.0205 Y32.6788
G01 X33.9572 Y32.6595
G01 X33.8929 Y32.6434
G01 X33.8279 Y32.6306
G01 X33.7583 Y32.6224
G01 X33.6884 Y32.6176
G01 X33.6183 Y32.6164
G01 X33.5482 Y32.6187
G01 X33.4783 Y32.6245
G01 X33.4088 Y32.6338
G01 X33.3399 Y32.6465
G01 X33.2717 Y32.6627
G01 X33.2065 Y32.6916
G01 X33.1427 Y32.7237
G01 X33.0807 Y32.7588
G01 X33.0204 Y32.7970
G01 X32.9621 Y32.8381
G01 X32.9058 Y32.8820
G01 X32.8518 Y32.9286
G01 X32.8001 Y32.9778
G01 X32.7509 Y33.0294
G01 X32.7043 Y33.0835
G01 X32.6604 Y33.1397
G01 X32.6193 Y33.1980
G01 X32.5812 Y33.2583
G01 X32.5460 Y33.3204
G01 X32.5139 Y33.3841
G01 X32.4850 Y33.4493
G01 X32.4593 Y33.5159
G01 X32.4370 Y33.5836
G01 X32.4179 Y33.6524
G01 X32.4023 Y33.7220
G01 X32.3901 Y33.7923
G01 X32.3814 Y33.8631
G01 X32.3761 Y33.9343
G01 X32.3744 Y34.0056
G01 X32.3761 Y34.0769
G01 X32.3814 Y34.1481
G01 X32.3901 Y34.2189
G01 X32.4023 Y34.2892
G01 X32.4179 Y34.3588
G01 X32.4370 Y34.4275
G01 X32.4593 Y34.4953
G01 X32.4850 Y34.5618
G01 X32.5139 Y34.6271
G01 X32.5460 Y34.6908
G01 X32.5812 Y34.7529
G01 X32.6193 Y34.8132
G01 X32.6604 Y34.8715
G01 X32.7043 Y34.9277
G01 X32.7509 Y34.9817
G01 X32.8001 Y35.0334
G01 X32.8518 Y35.0826
G01 X32.9058 Y35.1292
G01 X32.9621 Y35.1731
G01 X33.0204 Y35.2142
G01 X33.0807 Y35.2524
G01 X33.1427 Y35.2875
G01 X33.2065 Y35.3196
G01 X33.2717 Y35.3485
G01 X33.3382 Y35.3742
G01 X33.4060 Y35.3966
G01 X33.4748 Y35.4156
G01 X33.5444 Y35.4312
G01 X33.6147 Y35.4434
G01 X33.6855 Y35.4522
G01 X33.7566 Y35.4574
G01 X33.8279 Y35.4592
G01 X33.8993 Y35.4574
G01 X33.9704 Y35.4522
G01 X34.0412 Y35.4434
G01 X34.1115 Y35.4312
G01 X34.1811 Y35.4156
G01 X34.2499 Y35.3966
G01 X34.3176 Y35.3742
G01 X34.3842 Y35.3485
G01 X34.4494 Y35.3196
G01 X34.5131 Y35.2875
G01 X34.5752 Y35.2524
G01 X34.6355 Y35.2142
G01 X34.6938 Y35.1731
G01 X34.7501 Y35.1292
G01 X34.8041 Y35.0826
G01 X34.8558 Y35.0334
G01 X34.9050 Y34.9817
G01 X34.9516 Y34.9277
G01 X34.9955 Y34.8715
G01 X35.0365 Y34.8132
G01 X35.0747 Y34.7529
G01 X35.1099 Y34.6908
G01 X35.1419 Y34.6271
G01 X35.1709 Y34.5618
G01 X35.1965 Y34.4953
G01 X35.2189 Y34.4275
G01 X35.2379 Y34.3588
G01 X35.2536 Y34.2892
G01 X35.2658 Y34.2189
G01 X35.2745 Y34.1481
G01 X35.2798 Y34.0769
G01 X35.2815 Y34.0056
G01 X35.2774 Y33.8970
G01 X35.2653 Y33.7890
G01 X35.2451 Y33.6821
G01 X35.2169 Y33.5771
G01 X35.1810 Y33.4745
G01 X35.1376 Y33.3749
G01 X35.0868 Y33.2788
G01 X35.0289 Y33.1868
G01 X34.9644 Y33.0993
G01 X34.8935 Y33.0169
G01 X34.8166 Y32.9401
G01 X34.7342 Y32.8692
G01 X34.6468 Y32.8046
G01 X34.5547 Y32.7468
G01 X34.4586 Y32.6960
G01 X34.3590 Y32.6525
G01 X34.2564 Y32.6166
G01 X34.1514 Y32.5885
G01 X34.0446 Y32.5683
G01 X33.9366 Y32.5561
G01 X33.8279 Y32.5520
G01 X33.7193 Y32.5561
G01 X33.6113 Y32.5683
G01 X33.5045 Y32.5885
G01 X33.3995 Y32.6166
G01 X33.2969 Y32.6525
G01 X33.1973 Y32.6960
G01 X33.1012 Y32.7468
G01 X33.0091 Y32.8046
G01 X32.9217 Y32.8692
G01 X32.8393 Y32.9401
G01 X32.7624 Y33.0169
G01 X32.6915 Y33.0993
G01 X32.6269 Y33.1868
G01 X32.5691 Y33.2788
G01 X32.5183 Y33.3749
G01 X32.4749 Y33.4745
G01 X32.4390 Y33.5771
G01 X32.4108 Y33.6821
G01 X32.3906 Y33.7890
G01 X32.3784 Y33.8970
G01 X32.3744 Y34.0056
G01 X32.3784 Y34.1142
G01 X32.3906 Y34.2222
G01 X32.4108 Y34.3290
G01 X32.4390 Y34.4340
G01 X32.4749 Y34.5366
G01 X32.5183 Y34.6363
G01 X32.5691 Y34.7324
G01 X32.6269 Y34.8244
G01 X32.6915 Y34.9119
G01 X32.7624 Y34.9943
G01 X32.8393 Y35.0711
G01 X32.9217 Y35.1420
G01 X33.0091 Y35.2066
G01 X33.1012 Y35.2644
G01 X33.1973 Y35.3152
G01 X33.2969 Y35.3587
G01 X33.3995 Y35.3946
G01 X33.5045 Y35.4227
G01 X33.6113 Y35.4429
G01 X33.7193 Y35.4551
G01 X33.8279 Y35.4592
G01 X33.9366 Y35.4551
G01 X34.0446 Y35.4429
G01 X34.1514 Y35.4227
G01 X34.2564 Y35.3946
G01 X34.3590 Y35.3587
G01 X34.4586 Y35.3152
G01 X34.5547 Y35.2644
G01 X34.6468 Y35.2066
G01 X34.7342 Y35.1420
G01 X34.8166 Y35.0711
G01 X34.8935 Y34.9943
G01 X34.9644 Y34.9119
G01 X35.0289 Y34.8244
G01 X35.0868 Y34.7324
G01 X35.1376 Y34.6363
G01 X35.1810 Y34.5366
G01 X35.2169 Y34.4340
G01 X35.2451 Y34.3290
G01 X35.2653 Y34.2222
G01 X35.2774 Y34.1142
G01 X35.2815 Y34.0056
M107
M106 S240
G01 X35.2784 Y33.9271 Z-5.9750 F400
M107
M106 S240
G01 X35.2692 Y33.8492 Z-5.9500
M107
M106 S240
G01 X35.2539 Y33.7721 Z-5.9250
M107
M106 S240
G01 X35.2326 Y33.6966 Z-5.9000
M107
M106 S240
G01 X35.2054 Y33.6229 Z-5.8750
M107
M106 S240
G01 X35.1725 Y33.5516 Z-5.8500
M107
M106 S240
G01 X35.1341 Y33.4831 Z-5.8250
M107
M106 S240
G01 X35.0905 Y33.4178 Z-5.8000
M107
M106 S240
G01 X35.0419 Y33.3561 Z-5.7750
M107
M106 S240
G01 X34.9886 Y33.2985 Z-5.7500
M107
M106 S240
G01 X34.9310 Y33.2452 Z-5.7250
M107
M106 S240
G01 X34.8693 Y33.1966 Z-5.7000
M107
M106 S240
G01 X34.8040 Y33.1530 Z-5.6750
M107
M106 S240
G01 X34.7355 Y33.1146 Z-5.6500
M107
M106 S240
G01 X34.6642 Y33.0817 Z-5.6250
M107
M106 S240
G01 X34.5905 Y33.0545 Z-5.6000
M107
M106 S240
G01 X34.5149 Y33.0332 Z-5.5750
M107
M106 S240
G01 X34.4379 Y33.0179 Z-5.5500
M107
M106 S240
G01 X34.3600 Y33.0087 Z-5.5250
M107
M106 S240
G01 X34.2815 Y33.0056 Z-5.5000
M107
G00 Z2.0000


;No. 2: Hole 17
G00 X33.5459 Y46.8907 Z2.0000
G00 Z0.5000
G01 Z0.0000 F400
G01 Z-1.5000
M106 S240
G01 X37.5033 F1000
G01 Y48.3907
G01 X33.5459
G01 Y49.8907
G01 X37.5033
G01 X37.5785 Y51.3907
G01 X33.5459
G01 Y52.8907
G01 X46.1525
G01 X48.6042 Y54.3907
G01 X33.5459
G01 Y55.8907
G01 X37.5059
G01 X37.5033 Y57.3907
G01 X33.5459
G01 Y58.8907
G01 X37.5033
G01 Y60.3907
G01 X33.5459
G01 Y61.8907
G01 X37.5033
G01 X33.5459 Y63.3907
G01 X49.2423
G01 X50.0741 Y61.8907
G01 X45.4557
G01 X46.3519
G01 Y60.3907
G01 X50.4433
G01 X50.5063 Y58.8907
G01 X46.5551
G01 X46.2710 Y57.3907
G01 X50.3077
G01 X49.7471 Y55.8907
G01 X45.2014
G01 X45.0346 Y56.0119
G01 X45.2632 Y56.2250
G01 X45.4736 Y56.4560
G01 X45.6645 Y56.7035
G01 X45.8346 Y56.9657
G01 X45.9828 Y57.2408
G01 X46.1080 Y57.5272
G01 X46.2094 Y57.8228
G01 X46.2865 Y58.1257
G01 X46.3385 Y58.4338
G01 X46.3653 Y58.7452
G01 X46.3665 Y59.0577
G01 X46.3423 Y59.3693
G01 X46.3180 Y59.6551
G01 X46.2715 Y59.9381
G01 X46.2030 Y60.2166
G01 X46.1129 Y60.4889
G01 X46.0019 Y60.7534
G01 X45.8705 Y61.0083
G01 X45.7197 Y61.2522
G01 X45.5503 Y61.4836
G01 X45.3633 Y61.7011
G01 X45.1599 Y61.9033
G01 X44.9413 Y62.0890
G01 X44.7089 Y62.2571
G01 X44.4640 Y62.4065
G01 X44.2083 Y62.5363
G01 X43.9432 Y62.6457
G01 X43.6704 Y62.7342
G01 X43.4288 Y62.8029
G01 X43.1849 Y62.8623
G01 X42.9388 Y62.9122
G01 X42.6910 Y62.9527
G01 X42.4418 Y62.9836
G01 X42.1916 Y63.0050
G01 X41.9408 Y63.0167
G01 X41.6897 Y63.0188
G01 X38.7033
G01 X38.6597 Y63.0178
G01 X38.6161 Y63.0150
G01 X38.5728 Y63.0102
G01 X38.5297 Y63.0036
G01 X38.4869 Y62.9951
G01 X38.4445 Y62.9847
G01 X38.4026 Y62.9725
G01 X38.3613 Y62.9585
G01 X38.3206 Y62.9426
G01 X38.2807 Y62.9251
G01 X38.2416 Y62.9058
G01 X38.2033 Y62.8848
G01 X38.1660 Y62.8622
G01 X38.1297 Y62.8379
G01 X38.0945 Y62.8121
G01 X38.0605 Y62.7848
G01 X38.0277 Y62.7560
G01 X37.9962 Y62.7259
G01 X37.9660 Y62.6944
G01 X37.9373 Y62.6615
G01 X37.9099 Y62.6275
G01 X37.8841 Y62.5923
G01 X37.8599 Y62.5561
G01 X37.8373 Y62.5188
G01 X37.8163 Y62.4805
G01 X37.7970 Y62.4414
G01 X37.7794 Y62.4014
G01 X37.7636 Y62.3608
G01 X37.7496 Y62.3195
G01 X37.7374 Y62.2776
G01 X37.7270 Y62.2352
G01 X37.7185 Y62.1924
G01 X37.7119 Y62.1493
G01 X37.7071 Y62.1059
G01 X37.7043 Y62.0624
G01 X37.7033 Y62.0188
G01 Y55.9563
G01 X37.7064 Y55.8778
G01 X37.7156 Y55.7998
G01 X37.7309 Y55.7228
G01 X37.7522 Y55.6472
G01 X37.7794 Y55.5736
G01 X37.8123 Y55.5023
G01 X37.8507 Y55.4338
G01 X37.8943 Y55.3685
G01 X37.9429 Y55.3068
G01 X37.9962 Y55.2491
G01 X38.0539 Y55.1958
G01 X38.1155 Y55.1472
G01 X38.1808 Y55.1036
G01 X38.2493 Y55.0652
G01 X38.3206 Y55.0324
G01 X38.3943 Y55.0052
G01 X38.4699 Y54.9839
G01 X38.5469 Y54.9686
G01 X38.6249 Y54.9593
G01 X38.7033 Y54.9563
G01 X39.5435 Y54.9410
G01 X40.3837 Y54.9373
G01 X41.2240 Y54.9452
G01 X42.0640 Y54.9647
G01 X42.4641 Y54.9861
G01 X42.8611 Y55.0401
G01 X43.2525 Y55.1262
G01 X43.6355 Y55.2439
G01 X44.0076 Y55.3924
G01 X44.3664 Y55.5707
G01 X44.7095 Y55.7777
G01 X45.0346 Y56.0119
G01 X45.2014 Y55.8907
M107
G00 Z2.0000
G00 X47.5334 Y63.3907
G00 Z0.5000
G01 Z-1.5000 F400
M106 S240
G01 Y64.8907 F1000
G01 X33.5459
G01 X33.3459 Y64.8782
G01 Y66.3603
G01 X35.6198 Y66.3817
G01 X37.8939 Y66.3884
G01 X40.1680 Y66.3805
G01 X42.4419 Y66.3580
G01 X43.0706 Y66.3455
G01 X43.6975 Y66.2964
G01 X44.3205 Y66.2108
G01 X44.9374 Y66.0891
G01 X45.5461 Y65.9315
G01 X46.1447 Y65.7388
G01 X46.7310 Y65.5115
G01 X47.3030 Y65.2503
G01 X47.6515 Y65.0592
G01 X47.9870 Y64.8460
G01 X48.3081 Y64.6117
G01 X48.6134 Y64.3572
G01 X48.9018 Y64.0836
G01 X49.1719 Y63.7920
G01 X49.4228 Y63.4836
G01 X49.6532 Y63.1597
G01 X49.8624 Y62.8217
G01 X50.0494 Y62.4709
G01 X50.2134 Y62.1089
G01 X50.3538 Y61.7370
G01 X50.4700 Y61.3568
G01 X50.5615 Y60.9700
G01 X50.6279 Y60.5781
G01 X50.6690 Y60.1827
G01 X50.7060 Y59.8074
G01 X50.7247 Y59.4308
G01 X50.7250 Y59.0537
G01 X50.7070 Y58.6770
G01 X50.6707 Y58.3016
G01 X50.6163 Y57.9285
G01 X50.5437 Y57.5584
G01 X50.4533 Y57.1923
G01 X50.3451 Y56.8311
G01 X50.2196 Y56.4755
G01 X50.0768 Y56.1264
G01 X49.9173 Y55.7847
G01 X49.7106 Y55.4410
G01 X49.4839 Y55.1102
G01 X49.2378 Y54.7935
G01 X48.9734 Y54.4919
G01 X48.6916 Y54.2066
G01 X48.3932 Y53.9386
G01 X48.0795 Y53.6887
G01 X47.7515 Y53.4580
G01 X47.4103 Y53.2471
G01 X47.0572 Y53.0569
G01 X46.6935 Y52.8880
G01 X46.3203 Y52.7411
G01 X45.7808 Y52.5556
G01 X45.2333 Y52.3952
G01 X44.6790 Y52.2603
G01 X44.1190 Y52.1510
G01 X43.5546 Y52.0678
G01 X42.9870 Y52.0106
G01 X42.4173 Y51.9797
G01 X41.8469 Y51.9752
G01 X38.7033
G01 X38.6248 Y51.9721
G01 X38.5469 Y51.9629
G01 X38.4699 Y51.9475
G01 X38.3943 Y51.9262
G01 X38.3206 Y51.8990
G01 X38.2493 Y51.8662
G01 X38.1808 Y51.8278
G01 X38.1155 Y51.7842
G01 X38.0539 Y51.7356
G01 X37.9962 Y51.6823
G01 X37.9429 Y51.6246
G01 X37.8943 Y51.5630
G01 X37.8507 Y51.4977
G01 X37.8123 Y51.4292
G01 X37.7794 Y51.3579
G01 X37.7522 Y51.2842
G01 X37.7309 Y51.2086
G01 X37.7156 Y51.1316
G01 X37.7064 Y51.0536
G01 X37.7033 Y50.9752
G01 Y45.4211
G01 X33.3459
G01 Y64.8782
G01 X33.5459 Y64.8907
M107
G00 Z2.0000


;No. 3: Hole 18
G00 X55.7375 Y59.9700 Z2.0000
G00 Z0.5000
G01 Z0.0000 F400
G01 Z-1.5000
M106 S240
G01 X66.5701 F1000
G01 X67.9862 Y58.4700
G01 X62.5916
G01 X64.4918
G01 Y56.9700
G01 X68.5671
G01 X68.7794 Y55.4700
G01 X65.0263
G01 X64.9773 Y53.9700
G01 X68.8056
G01 Y52.4700
G01 X64.8311
G01 X65.1431
G01 Y50.9700
G01 X68.8056
G01 Y49.4700
G01 X64.9298
G01 Y47.9700
G01 X64.0247
G01 X68.8056
G01 Y46.4700
G01 X65.0252
M107
G00 Z2.0000
G00 X57.2134 Y59.9700
G00 Z0.5000
G01 Z-1.5000 F400
M106 S240
G01 Y58.4700 F1000
G01 X56.1741
M107
G00 Z2.0000
G00 X54.9621 Y52.4700
G00 Z0.5000
G01 Z0.0000 F400
G01 Z-1.5000
M106 S240
G01 X58.6897 F1000
G01 X57.6297
G01 Y50.9700
G01 X54.0637
G01 X53.8704 Y49.4700
G01 X57.4900
G01 Y47.9700
G01 X58.0862
G01 X58.2492 Y48.0862
G01 X58.4148 Y47.9032
G01 X58.5939 Y47.7333
G01 X58.7853 Y47.5774
G01 X58.9881 Y47.4366
G01 X59.2009 Y47.3116
G01 X59.4226 Y47.2031
G01 X59.6520 Y47.1118
G01 X59.8876 Y47.0381
G01 X60.1281 Y46.9826
G01 X60.3721 Y46.9455
G01 X60.6183 Y46.9270
G01 X60.8651 Y46.9273
G01 X61.1928 Y46.9285
G01 X61.5192 Y46.9563
G01 X61.8424 Y47.0105
G01 X62.1600 Y47.0908
G01 X62.4701 Y47.1967
G01 X62.7705 Y47.3274
G01 X63.0593 Y47.4821
G01 X63.3346 Y47.6597
G01 X63.5946 Y47.8591
G01 X63.8375 Y48.0790
G01 X64.0617 Y48.3179
G01 X64.2658 Y48.5743
G01 X64.4237 Y48.8289
G01 X64.5620 Y49.0947
G01 X64.6798 Y49.3702
G01 X64.7765 Y49.6538
G01 X64.8516 Y49.9439
G01 X64.9045 Y50.2388
G01 X64.9351 Y50.5369
G01 X64.9431 Y50.8365
G01 X64.9656 Y51.0985
G01 X64.9689 Y51.3614
G01 X64.9532 Y51.6239
G01 X64.9183 Y51.8845
G01 X64.8907 Y51.9781
G01 X64.8545 Y52.0688
G01 X64.8103 Y52.1558
G01 X64.7582 Y52.2384
G01 X64.6988 Y52.3158
G01 X64.6325 Y52.3875
G01 X64.5599 Y52.4528
G01 X64.4817 Y52.5112
G01 X64.3984 Y52.5621
G01 X64.3108 Y52.6052
G01 X64.2197 Y52.6401
G01 X64.1257 Y52.6665
G01 X63.6581 Y52.8221
G01 X63.1809 Y52.9452
G01 X62.6964 Y53.0353
G01 X62.2069 Y53.0918
G01 X61.7146 Y53.1146
G01 X61.2219 Y53.1034
G01 X60.7311 Y53.0585
G01 X60.2446 Y52.9799
G01 X59.9881 Y52.9203
G01 X59.7373 Y52.8400
G01 X59.4938 Y52.7394
G01 X59.2594 Y52.6193
G01 X59.0356 Y52.4804
G01 X58.8239 Y52.3238
G01 X58.6256 Y52.1504
G01 X58.4422 Y51.9613
G01 X58.2748 Y51.7579
G01 X58.1246 Y51.5416
G01 X57.9926 Y51.3137
G01 X57.8796 Y51.0758
G01 X57.7930 Y50.8287
G01 X57.7273 Y50.5752
G01 X57.6831 Y50.3172
G01 X57.6605 Y50.0564
G01 X57.6599 Y49.7945
G01 X57.6811 Y49.5336
G01 X57.7241 Y49.2753
G01 X57.7885 Y49.0216
G01 X57.8738 Y48.7741
G01 X57.9796 Y48.5346
G01 X58.1050 Y48.3047
G01 X58.2492 Y48.0862
G01 X58.0862 Y47.9700
G01 X54.0992
G01 X55.0342 Y46.4700
G01 X62.3402
G01 X62.4849 Y46.3303
G01 X62.1964 Y46.1104
G01 X61.8948 Y45.9088
G01 X61.5813 Y45.7262
G01 X61.2571 Y45.5634
G01 X60.9235 Y45.4210
G01 X60.5816 Y45.2995
G01 X60.2329 Y45.1995
G01 X59.8787 Y45.1212
G01 X59.5203 Y45.0650
G01 X59.1591 Y45.0311
G01 X58.7965 Y45.0196
G01 X58.4339 Y45.0306
G01 X58.1256 Y45.0356
G01 X57.8180 Y45.0585
G01 X57.5123 Y45.0991
G01 X57.2095 Y45.1573
G01 X56.9105 Y45.2329
G01 X56.6164 Y45.3258
G01 X56.3282 Y45.4354
G01 X56.0468 Y45.5616
G01 X55.7732 Y45.7039
G01 X55.5083 Y45.8617
G01 X55.2529 Y46.0347
G01 X55.0080 Y46.2221
G01 X54.8018 Y46.4263
G01 X54.6104 Y46.6444
G01 X54.4347 Y46.8753
G01 X54.2755 Y47.1180
G01 X54.1337 Y47.3712
G01 X54.0098 Y47.6336
G01 X53.9046 Y47.9041
G01 X53.8186 Y48.1812
G01 X53.7521 Y48.4637
G01 X53.7055 Y48.7501
G01 X53.6790 Y49.0391
G01 X53.6727 Y49.3293
G01 X53.6598 Y49.7069
G01 X53.6794 Y50.0842
G01 X53.7311 Y50.4585
G01 X53.8148 Y50.8269
G01 X53.9297 Y51.1868
G01 X54.0751 Y51.5356
G01 X54.2498 Y51.8706
G01 X54.4525 Y52.1894
G01 X54.7219 Y52.4935
G01 X55.0162 Y52.7737
G01 X55.3331 Y53.0280
G01 X55.6703 Y53.2545
G01 X56.0256 Y53.4517
G01 X56.3963 Y53.6180
G01 X56.7797 Y53.7523
G01 X57.1732 Y53.8537
G01 X57.6196 Y53.9442
G01 X58.0691 Y54.0172
G01 X58.5212 Y54.0728
G01 X58.9751 Y54.1109
G01 X59.4301 Y54.1314
G01 X59.8856 Y54.1343
G01 X60.3408 Y54.1195
G01 X60.7951 Y54.0872
G01 X61.2479 Y54.0373
G01 X61.6983 Y53.9699
G01 X62.1459 Y53.8851
G01 X62.5898 Y53.7831
G01 X62.8772 Y53.7064
G01 X63.1639 Y53.6269
G01 X63.4497 Y53.5444
G01 X63.7347 Y53.4591
G01 X63.8200 Y53.4505
G01 X63.9057 Y53.4492
G01 X63.9911 Y53.4553
G01 X64.0758 Y53.4687
G01 X64.1590 Y53.4892
G01 X64.2401 Y53.5169
G01 X64.3186 Y53.5513
G01 X64.3938 Y53.5924
G01 X64.4652 Y53.6397
G01 X64.5323 Y53.6930
G01 X64.5946 Y53.7518
G01 X64.6517 Y53.8158
G01 X64.7030 Y53.8844
G01 X64.7483 Y53.9571
G01 X64.7872 Y54.0335
G01 X64.8194 Y54.1129
G01 X64.8447 Y54.1948
G01 X64.8629 Y54.2785
G01 X64.8739 Y54.3635
G01 X64.8776 Y54.4491
G01 X64.8918 Y54.7896
G01 X64.8773 Y55.1300
G01 X64.8341 Y55.4679
G01 X64.7625 Y55.8010
G01 X64.6632 Y56.1269
G01 X64.5367 Y56.4433
G01 X64.3839 Y56.7478
G01 X64.2060 Y57.0384
G01 X64.0424 Y57.2353
G01 X63.8662 Y57.4212
G01 X63.6784 Y57.5953
G01 X63.4796 Y57.7567
G01 X63.2708 Y57.9049
G01 X63.0527 Y58.0392
G01 X62.8264 Y58.1591
G01 X62.5928 Y58.2639
G01 X62.3529 Y58.3534
G01 X62.1076 Y58.4271
G01 X61.8581 Y58.4846
G01 X61.6053 Y58.5259
G01 X61.1230 Y58.5773
G01 X60.6390 Y58.6090
G01 X60.1541 Y58.6207
G01 X59.6691 Y58.6126
G01 X59.1848 Y58.5845
G01 X58.7021 Y58.5366
G01 X58.2218 Y58.4690
G01 X57.7446 Y58.3817
G01 X57.3338 Y58.2926
G01 X56.9258 Y58.1909
G01 X56.5212 Y58.0768
G01 X56.1203 Y57.9504
G01 X56.1095 Y57.9760
G01 X56.1167 Y57.9513
G01 X55.3948 Y60.4318
G01 X56.0882 Y60.6577
G01 X56.7903 Y60.8546
G01 X57.5001 Y61.0222
G01 X58.2162 Y61.1602
G01 X58.9373 Y61.2684
G01 X59.6624 Y61.3465
G01 X60.3901 Y61.3944
G01 X61.1191 Y61.4121
G01 X61.8483 Y61.3995
G01 X62.5763 Y61.3567
G01 X63.3018 Y61.2837
G01 X64.0238 Y61.1806
G01 X64.4707 Y61.0949
G01 X64.9105 Y60.9777
G01 X65.3409 Y60.8296
G01 X65.7597 Y60.6514
G01 X66.1648 Y60.4440
G01 X66.5542 Y60.2084
G01 X66.9259 Y59.9459
G01 X67.2781 Y59.6576
G01 X67.4880 Y59.4469
G01 X67.6856 Y59.2246
G01 X67.8700 Y58.9913
G01 X68.0409 Y58.7479
G01 X68.1975 Y58.4950
G01 X68.3394 Y58.2337
G01 X68.4661 Y57.9646
G01 X68.5772 Y57.6887
G01 X68.6724 Y57.4070
G01 X68.7512 Y57.1202
G01 X68.8136 Y56.8294
G01 X68.8592 Y56.5355
G01 X68.9259 Y56.0571
G01 X68.9726 Y55.5762
G01 X68.9992 Y55.0939
G01 X69.0056 Y54.6108
G01 Y45.4211
G01 X64.8448
G01 X64.8646 Y45.6724
G01 X64.8688 Y45.9244
G01 X64.8573 Y46.1761
G01 X64.8301 Y46.4267
G01 X64.8118 Y46.5093
G01 X64.7866 Y46.5900
G01 X64.7547 Y46.6683
G01 X64.7164 Y46.7437
G01 X64.6719 Y46.8156
G01 X64.6215 Y46.8835
G01 X64.5656 Y46.9470
G01 X64.5046 Y47.0055
G01 X64.4389 Y47.0587
G01 X64.3690 Y47.1063
G01 X64.2953 Y47.1478
G01 X64.2184 Y47.1829
G01 X64.1388 Y47.2115
G01 X64.0571 Y47.2334
G01 X63.9739 Y47.2483
G01 X63.8897 Y47.2562
G01 X63.8051 Y47.2570
G01 X63.7208 Y47.2507
G01 X63.6373 Y47.2373
G01 X63.5552 Y47.2170
G01 X63.4751 Y47.1899
G01 X63.3976 Y47.1562
G01 X63.3231 Y47.1161
G01 X63.2523 Y47.0699
G01 X63.1856 Y47.0179
G01 X63.1235 Y46.9605
G01 X63.0664 Y46.8981
G01 X63.0148 Y46.8312
G01 X62.8881 Y46.7000
G01 X62.7575 Y46.5727
G01 X62.6230 Y46.4494
G01 X62.4849 Y46.3303
G01 X62.3402 Y46.4700
M107
G00 Z2.0000


;No. 4: Hole 12
G00 X74.4043 Y46.6518 Z2.0000
G00 Z0.5000
G01 Z0.0000 F400
G01 Z-1.5000
M106 S240
G01 X78.2306 F1000
G01 Y48.1518
G01 X74.4043
G01 Y49.6518
G01 X78.2306
G01 X78.2860 Y51.1518
G01 X74.4043
G01 Y52.6518
G01 X78.5416
G01 X79.1099 Y54.1518
G01 X74.4043
G01 Y55.6518
G01 X80.2634
G01 Y57.1518
G01 X83.8343
G01 X74.4043
G01 Y58.6518
G01 X78.2306
G01 Y60.1518
G01 X74.4043
M107
G00 Z2.0000
G00 X80.7828 Y57.1518
G00 Z0.5000
G01 Z-1.5000 F400
M106 S240
G01 Y58.6518 F1000
G01 X83.8323
G01 X83.8303 Y60.1518
G01 X81.8175
G01 X81.6768 Y60.2940
G01 X81.9206 Y60.5197
G01 X82.1829 Y60.7235
G01 X82.4619 Y60.9039
G01 X82.7554 Y61.0595
G01 X83.0613 Y61.1891
G01 X83.3772 Y61.2918
G01 X83.7009 Y61.3668
G01 X84.0298 Y61.4136
G01 X84.0344 Y56.8907
G01 X83.6252 Y56.8610
G01 X83.2189 Y56.8046
G01 X82.8172 Y56.7216
G01 X82.4218 Y56.6125
G01 X82.0343 Y56.4776
G01 X81.6566 Y56.3176
G01 X81.2902 Y56.1332
G01 X80.9366 Y55.9252
G01 X80.6555 Y55.7105
G01 X80.3886 Y55.4784
G01 X80.1367 Y55.2300
G01 X79.9011 Y54.9662
G01 X79.6825 Y54.6881
G01 X79.4819 Y54.3968
G01 X79.3001 Y54.0934
G01 X79.1377 Y53.7791
G01 X78.9955 Y53.4553
G01 X78.8740 Y53.1231
G01 X78.7736 Y52.7839
G01 X78.6949 Y52.4390
G01 X78.5752 Y51.8182
G01 X78.4911 Y51.1916
G01 X78.4429 Y50.5612
G01 X78.4306 Y49.9290
G01 Y45.4211
G01 X74.2043
G01 Y61.1499
G01 X78.4306
G01 Y58.5779
G01 X78.4351 Y58.4882
G01 X78.4475 Y58.3992
G01 X78.4678 Y58.3117
G01 X78.4958 Y58.2264
G01 X78.5314 Y58.1439
G01 X78.5741 Y58.0649
G01 X78.6238 Y57.9901
G01 X78.6799 Y57.9199
G01 X78.7421 Y57.8551
G01 X78.8098 Y57.7961
G01 X78.8825 Y57.7433
G01 X78.9596 Y57.6973
G01 X79.0405 Y57.6583
G01 X79.1246 Y57.6267
G01 X79.2111 Y57.6028
G01 X79.2995 Y57.5866
G01 X79.3889 Y57.5784
G01 X79.4788 Y57.5783
G01 X79.5682 Y57.5861
G01 X79.6567 Y57.6019
G01 X79.7433 Y57.6255
G01 X79.8275 Y57.6568
G01 X79.9086 Y57.6955
G01 X79.9859 Y57.7412
G01 X80.0588 Y57.7937
G01 X80.1267 Y57.8525
G01 X80.1891 Y57.9171
G01 X80.2455 Y57.9870
G01 X80.2954 Y58.0616
G01 X80.3385 Y58.1405
G01 X80.3744 Y58.2228
G01 X80.4027 Y58.3080
G01 X80.5202 Y58.5804
G01 X80.6502 Y58.8470
G01 X80.7926 Y59.1073
G01 X80.9469 Y59.3606
G01 X81.1128 Y59.6065
G01 X81.2901 Y59.8443
G01 X81.4782 Y60.0737
G01 X81.6768 Y60.2940
G01 X81.8175 Y60.1518
M107
G00 Z2.0000


;No. 5: Hole 13
G00 X88.4213 Y60.1323 Z2.0000
G00 Z0.5000
G01 Z0.0000 F400
G01 Z-1.5000
M106 S240
G01 X92.2476 F1000
G01 Y58.6323
G01 X88.4213
G01 Y57.1323
G01 X92.2476
G01 X92.4015 Y55.6323
G01 X88.4213
G01 Y54.1323
G01 X98.2928
G01 X98.1078
G01 Y55.6323
G01 X94.5175
G01 X95.7357 Y57.1323
G01 X99.3757
G01 X100.6753 Y58.6323
G01 X96.9539
G01 X98.1722 Y60.1323
G01 X101.9748
M107
G00 Z2.0000
G00 X92.2476
G00 Z0.5000
G01 Z-1.5000 F400
M106 S240
G01 Y61.6323 F1000
G01 X88.4213
G01 Y63.1323
G01 X92.2476
G01 Y64.6323
G01 X88.4213
G01 Y66.1323
G01 X92.2476
M107
G00 Z2.0000
G00 X88.4213 Y54.1323
G00 Z0.5000
G01 Z-1.5000 F400
M106 S240
G01 Y52.6323 F1000
G01 X99.1863
G01 X100.0799 Y51.1323
G01 X96.0406
G01 X96.9330 Y49.6323
G01 X100.9734
G01 X101.8669 Y48.1323
G01 X97.8216
G01 X98.7102 Y46.6323
G01 X102.7604
M107
G00 Z2.0000
G00 X94.0567 Y52.6323
G00 Z0.5000
G01 Z-1.5000 F400
M106 S240
G01 Y51.1323 F1000
G01 X88.4213
G01 Y49.6323
G01 X92.7672
G01 X92.2476
G01 Y48.1323
G01 X88.4213
G01 Y46.6323
G01 X92.2476
G01 X92.4476 Y46.6384
G01 Y45.4211
G01 X88.2213
G01 Y67.3434
G01 X92.4476
G01 Y56.2184
G01 X92.4487 Y56.1711
G01 X92.4521 Y56.1240
G01 X92.4577 Y56.0770
G01 X92.4655 Y56.0304
G01 X92.4755 Y55.9841
G01 X92.4876 Y55.9384
G01 X92.5019 Y55.8934
G01 X92.5184 Y55.8490
G01 X92.5369 Y55.8055
G01 X92.5574 Y55.7629
G01 X92.5799 Y55.7213
G01 X92.6044 Y55.6808
G01 X92.6308 Y55.6416
G01 X92.6590 Y55.6036
G01 X92.6889 Y55.5670
G01 X92.7206 Y55.5318
G01 X92.7538 Y55.4982
G01 X92.7887 Y55.4662
G01 X92.8250 Y55.4359
G01 X92.8627 Y55.4074
G01 X92.9017 Y55.3806
G01 X92.9419 Y55.3557
G01 X92.9832 Y55.3328
G01 X93.0256 Y55.3118
G01 X93.0690 Y55.2929
G01 X93.1131 Y55.2760
G01 X93.1581 Y55.2613
G01 X93.2037 Y55.2486
G01 X93.2498 Y55.2382
G01 X93.2963 Y55.2299
G01 X93.3433 Y55.2239
G01 X93.3904 Y55.2201
G01 X93.4377 Y55.2185
G01 X93.4849 Y55.2191
G01 X93.5322 Y55.2220
G01 X93.5792 Y55.2271
G01 X93.6259 Y55.2344
G01 X93.6722 Y55.2440
G01 X93.7180 Y55.2557
G01 X93.7633 Y55.2695
G01 X93.8078 Y55.2855
G01 X93.8515 Y55.3036
G01 X93.8943 Y55.3237
G01 X93.9361 Y55.3458
G01 X93.9768 Y55.3699
G01 X94.0163 Y55.3959
G01 X94.0546 Y55.4237
G01 X94.0915 Y55.4533
G01 X94.1269 Y55.4846
G01 X94.1609 Y55.5175
G01 X94.1932 Y55.5520
G01 X94.2239 Y55.5880
G01 X98.7410 Y61.1499
G01 X103.1210
G01 X98.3939 Y55.6935
G01 X98.3654 Y55.6591
G01 X98.3384 Y55.6234
G01 X98.3131 Y55.5866
G01 X98.2895 Y55.5487
G01 X98.2676 Y55.5098
G01 X98.2474 Y55.4699
G01 X98.2290 Y55.4291
G01 X98.2125 Y55.3876
G01 X98.1979 Y55.3454
G01 X98.1851 Y55.3026
G01 X98.1743 Y55.2593
G01 X98.1654 Y55.2155
G01 X98.1585 Y55.1713
G01 X98.1536 Y55.1269
G01 X98.1506 Y55.0823
G01 X98.1497 Y55.0377
G01 X98.1507 Y54.9930
G01 X98.1537 Y54.9484
G01 X98.1588 Y54.9040
G01 X98.1658 Y54.8599
G01 X98.1747 Y54.8161
G01 X98.1857 Y54.7728
G01 X98.1985 Y54.7300
G01 X98.2132 Y54.6878
G01 X98.2298 Y54.6463
G01 X98.2483 Y54.6056
G01 X98.2685 Y54.5658
G01 X98.2905 Y54.5269
G01 X103.7147 Y45.4211
G01 X99.1952
G01 X95.9137 Y50.9605
G01 X95.8886 Y51.0007
G01 X95.8616 Y51.0397
G01 X95.8328 Y51.0774
G01 X95.8022 Y51.1136
G01 X95.7700 Y51.1483
G01 X95.7361 Y51.1815
G01 X95.7007 Y51.2131
G01 X95.6638 Y51.2429
G01 X95.6256 Y51.2709
G01 X95.5861 Y51.2971
G01 X95.5454 Y51.3214
G01 X95.5036 Y51.3438
G01 X95.4607 Y51.3641
G01 X95.4170 Y51.3824
G01 X95.3724 Y51.3986
G01 X95.3271 Y51.4126
G01 X95.2812 Y51.4245
G01 X95.2348 Y51.4342
G01 X95.1880 Y51.4417
G01 X95.1409 Y51.4470
G01 X95.0936 Y51.4500
G01 X95.0462 Y51.4508
G01 X94.9988 Y51.4494
G01 X94.9515 Y51.4456
G01 X94.9045 Y51.4397
G01 X94.8578 Y51.4315
G01 X94.8115 Y51.4212
G01 X94.7658 Y51.4086
G01 X94.7207 Y51.3939
G01 X94.6764 Y51.3771
G01 X94.6329 Y51.3582
G01 X94.5904 Y51.3372
G01 X94.5489 Y51.3143
G01 X94.5085 Y51.2894
G01 X94.4694 Y51.2626
G01 X94.4316 Y51.2340
G01 X94.3951 Y51.2037
G01 X94.3602 Y51.1716
G01 X94.3268 Y51.1379
G01 X94.2951 Y51.1027
G01 X92.6893 Y49.2348
G01 X92.6345 Y49.1650
G01 X92.5861 Y49.0907
G01 X92.5445 Y49.0123
G01 X92.5100 Y48.9306
G01 X92.4829 Y48.8461
G01 X92.4633 Y48.7595
G01 X92.4516 Y48.6716
G01 X92.4476 Y48.5829
G01 Y46.6384
G01 X92.2476 Y46.6323
M107
G00 Z2.0000


;No. 6: Hole 19
G00 X108.1987 Y46.3604 Z2.0000
G00 Z0.5000
G01 Z0.0000 F400
G01 Z-1.5000
M106 S240
G01 X112.0250 F1000
G01 Y44.8604
G01 X108.1987
G01 Y43.3604
G01 X112.0250
G01 Y41.8604
G01 X108.1987
M107
G00 Z2.0000
G00 Y46.3604
G00 Z0.5000
G01 Z-1.5000 F400
M106 S240
G01 Y47.8604 F1000
G01 X123.6773
G01 X124.5194 Y49.3604
G01 X119.9825
G01 X121.0325 Y50.8604
G01 X125.0010
G01 X125.2273 Y52.3604
G01 X121.4704
G01 X121.5133 Y53.8604
G01 X125.2538
G01 X125.0858 Y55.3604
G01 X121.1775
G01 X120.3016 Y56.8604
G01 X124.6732
G01 X123.9275 Y58.3604
G01 X117.9708
G01 X114.9110 Y59.8604
G01 X122.6246
G01 X115.4405
G01 Y58.3604
G01 X108.1987
G01 Y56.8604
G01 X113.1251
G01 X112.2524 Y55.3604
G01 X108.1987
G01 Y53.8604
G01 X111.9169
G01 X111.9607 Y52.3604
G01 X108.1987
G01 Y50.8604
G01 X112.4034
G01 X113.4543 Y49.3604
G01 X113.6071 Y49.4909
G01 X113.8926 Y49.2402
G01 X114.1982 Y49.0144
G01 X114.5217 Y48.8152
G01 X114.8608 Y48.6438
G01 X115.2131 Y48.5015
G01 X115.5761 Y48.3894
G01 X115.9473 Y48.3082
G01 X116.3239 Y48.2585
G01 X116.7035 Y48.2406
G01 X117.0831 Y48.2548
G01 X117.4603 Y48.3008
G01 X117.8322 Y48.3783
G01 X118.1963 Y48.4869
G01 X118.5500 Y48.6256
G01 X118.8908 Y48.7937
G01 X119.2162 Y48.9897
G01 X119.5240 Y49.2125
G01 X119.8120 Y49.4604
G01 X120.0781 Y49.7315
G01 X120.3205 Y50.0241
G01 X120.5374 Y50.3361
G01 X120.7273 Y50.6652
G01 X120.8888 Y51.0090
G01 X121.0209 Y51.3653
G01 X121.1474 Y51.7725
G01 X121.2432 Y52.1880
G01 X121.3078 Y52.6095
G01 X121.3408 Y53.0346
G01 X121.3421 Y53.4610
G01 X121.3116 Y53.8863
G01 X121.2496 Y54.3081
G01 X121.1563 Y54.7242
G01 X121.0323 Y55.1322
G01 X120.8783 Y55.5298
G01 X120.6951 Y55.9148
G01 X120.4837 Y56.2851
G01 X120.2774 Y56.5762
G01 X120.0487 Y56.8501
G01 X119.7990 Y57.1050
G01 X119.5299 Y57.3394
G01 X119.2432 Y57.5517
G01 X118.9406 Y57.7407
G01 X118.6239 Y57.9052
G01 X118.2953 Y58.0442
G01 X117.9567 Y58.1567
G01 X117.6102 Y58.2421
G01 X117.2581 Y58.2998
G01 X116.9025 Y58.3295
G01 X116.5457 Y58.3310
G01 X116.1899 Y58.3042
G01 X115.8373 Y58.2494
G01 X115.4902 Y58.1669
G01 X115.1507 Y58.0572
G01 X114.8209 Y57.9210
G01 X114.5029 Y57.7592
G01 X114.1987 Y57.5727
G01 X113.9102 Y57.3627
G01 X113.6392 Y57.1306
G01 X113.3874 Y56.8778
G01 X113.1564 Y56.6058
G01 X112.9476 Y56.3164
G01 X112.7624 Y56.0115
G01 X112.6019 Y55.6928
G01 X112.4670 Y55.3625
G01 X112.3274 Y54.9488
G01 X112.2195 Y54.5258
G01 X112.1438 Y54.0959
G01 X112.1009 Y53.6615
G01 X112.0910 Y53.2250
G01 X112.1140 Y52.7891
G01 X112.1700 Y52.3561
G01 X112.2586 Y51.9287
G01 X112.3792 Y51.5091
G01 X112.5312 Y51.0999
G01 X112.7137 Y50.7033
G01 X112.9256 Y50.3217
G01 X113.0777 Y50.0996
G01 X113.2423 Y49.8866
G01 X113.4190 Y49.6835
G01 X113.6071 Y49.4909
G01 X113.4543 Y49.3604
G01 X108.1987
M107
G00 Z2.0000
G00 X115.1610 Y47.8604
G00 Z0.5000
G01 Z-1.5000 F400
M106 S240
G01 Y46.3604 F1000
G01 X122.1760
M107
G00 Z2.0000
G00 X112.0250 Y58.3604
G00 Z0.5000
G01 Z-1.5000 F400
M106 S240
G01 Y59.8604 F1000
G01 X108.1987
G01 X107.9987 Y59.8460
G01 Y61.1498
G01 X112.2250
G01 X112.2071 Y60.7866
G01 X112.2018 Y60.4230
G01 X112.2093 Y60.0594
G01 X112.2294 Y59.6963
G01 X112.2426 Y59.6071
G01 X112.2636 Y59.5193
G01 X112.2923 Y59.4338
G01 X112.3286 Y59.3512
G01 X112.3721 Y59.2722
G01 X112.4225 Y59.1974
G01 X112.4794 Y59.1273
G01 X112.5422 Y59.0626
G01 X112.6106 Y59.0038
G01 X112.6840 Y58.9513
G01 X112.7618 Y58.9056
G01 X112.8433 Y58.8670
G01 X112.9280 Y58.8358
G01 X113.0151 Y58.8123
G01 X113.1039 Y58.7967
G01 X113.1938 Y58.7890
G01 X113.2840 Y58.7895
G01 X113.3738 Y58.7979
G01 X113.4625 Y58.8143
G01 X113.5494 Y58.8386
G01 X113.6338 Y58.8706
G01 X113.7150 Y58.9099
G01 X113.7923 Y58.9563
G01 X113.8652 Y59.0095
G01 X113.9331 Y59.0689
G01 X113.9954 Y59.1341
G01 X114.0516 Y59.2047
G01 X114.1013 Y59.2800
G01 X114.3476 Y59.5804
G01 X114.6124 Y59.8646
G01 X114.8945 Y60.1316
G01 X115.1929 Y60.3804
G01 X115.5064 Y60.6098
G01 X115.8337 Y60.8190
G01 X116.1735 Y61.0072
G01 X116.5245 Y61.1736
G01 X116.9358 Y61.3044
G01 X117.3551 Y61.4067
G01 X117.7803 Y61.4802
G01 X118.2096 Y61.5244
G01 X118.6410 Y61.5392
G01 X119.0723 Y61.5245
G01 X119.5016 Y61.4803
G01 X119.9269 Y61.4069
G01 X120.3461 Y61.3046
G01 X120.7574 Y61.1739
G01 X121.1588 Y61.0153
G01 X121.5485 Y60.8297
G01 X121.9245 Y60.6179
G01 X122.2852 Y60.3809
G01 X122.6288 Y60.1198
G01 X122.9538 Y59.8358
G01 X123.2814 Y59.4977
G01 X123.5890 Y59.1411
G01 X123.8754 Y58.7674
G01 X124.1397 Y58.3777
G01 X124.3810 Y57.9734
G01 X124.5985 Y57.5558
G01 X124.7915 Y57.1263
G01 X124.9594 Y56.6863
G01 X125.1015 Y56.2374
G01 X125.2174 Y55.7811
G01 X125.3067 Y55.3188
G01 X125.3691 Y54.8521
G01 X125.4254 Y54.3760
G01 X125.4609 Y53.8979
G01 X125.4754 Y53.4187
G01 X125.4689 Y52.9394
G01 X125.4414 Y52.4608
G01 X125.3930 Y51.9838
G01 X125.3239 Y51.5095
G01 X125.2340 Y51.0386
G01 X125.1236 Y50.5721
G01 X124.9929 Y50.1108
G01 X124.8422 Y49.6558
G01 X124.6717 Y49.2077
G01 X124.4745 Y48.7665
G01 X124.2465 Y48.3404
G01 X123.9887 Y47.9316
G01 X123.7025 Y47.5422
G01 X123.3893 Y47.1742
G01 X123.0507 Y46.8293
G01 X122.6885 Y46.5095
G01 X122.3044 Y46.2162
G01 X121.9004 Y45.9509
G01 X121.4786 Y45.7151
G01 X121.0411 Y45.5099
G01 X120.5900 Y45.3363
G01 X120.1990 Y45.2213
G01 X119.8012 Y45.1319
G01 X119.3985 Y45.0686
G01 X118.9926 Y45.0316
G01 X118.5851 Y45.0211
G01 X118.1778 Y45.0370
G01 X117.7723 Y45.0795
G01 X117.3705 Y45.1482
G01 X116.9740 Y45.2429
G01 X116.5845 Y45.3632
G01 X116.2037 Y45.5085
G01 X115.8331 Y45.6783
G01 X115.5628 Y45.8401
G01 X115.3004 Y46.0145
G01 X115.0464 Y46.2009
G01 X114.8015 Y46.3992
G01 X114.5662 Y46.6086
G01 X114.3410 Y46.8290
G01 X114.1265 Y47.0596
G01 X113.9229 Y47.3001
G01 X113.8900 Y47.3308
G01 X113.8556 Y47.3600
G01 X113.8200 Y47.3877
G01 X113.7832 Y47.4136
G01 X113.7453 Y47.4380
G01 X113.7063 Y47.4605
G01 X113.6663 Y47.4813
G01 X113.6254 Y47.5003
G01 X113.5838 Y47.5174
G01 X113.5413 Y47.5326
G01 X113.4983 Y47.5459
G01 X113.4547 Y47.5572
G01 X113.4106 Y47.5666
G01 X113.3661 Y47.5739
G01 X113.3214 Y47.5793
G01 X113.2765 Y47.5826
G01 X113.2314 Y47.5839
G01 X113.1864 Y47.5832
G01 X113.1414 Y47.5804
G01 X113.0966 Y47.5757
G01 X113.0521 Y47.5689
G01 X113.0079 Y47.5601
G01 X112.9641 Y47.5493
G01 X112.9209 Y47.5366
G01 X112.8783 Y47.5219
G01 X112.8364 Y47.5053
G01 X112.7953 Y47.4869
G01 X112.7550 Y47.4666
G01 X112.7157 Y47.4446
G01 X112.6775 Y47.4207
G01 X112.6404 Y47.3952
G01 X112.6044 Y47.3681
G01 X112.5697 Y47.3393
G01 X112.5363 Y47.3090
G01 X112.5044 Y47.2773
G01 X112.4739 Y47.2441
G01 X112.4449 Y47.2096
G01 X112.4175 Y47.1738
G01 X112.3918 Y47.1368
G01 X112.3677 Y47.0987
G01 X112.3454 Y47.0596
G01 X112.3248 Y47.0195
G01 X112.3061 Y46.9785
G01 X112.2893 Y46.9367
G01 X112.2744 Y46.8942
G01 X112.2614 Y46.8510
G01 X112.2503 Y46.8074
G01 X112.2412 Y46.7632
G01 X112.2341 Y46.7187
G01 X112.2291 Y46.6740
G01 X112.2260 Y46.6290
G01 X112.2250 Y46.5840
G01 Y40.1779
G01 X107.9987
G01 Y59.8460
G01 X108.1987 Y59.8604
M107
G00 Z2.0000


;No. 7: Hole 14
G00 X130.4753 Y60.1323 Z2.0000
G00 Z0.5000
G01 Z0.0000 F400
G01 Z-1.5000
M106 S240
G01 X134.3017 F1000
G01 Y58.6323
G01 X130.4753
G01 Y57.1323
G01 X134.3017
G01 Y55.6323
G01 X130.4753
G01 Y54.1323
G01 X134.3017
G01 Y52.6323
G01 X130.4753
G01 Y51.1323
G01 X134.3017
G01 Y49.6323
G01 X130.4753
G01 Y48.1323
G01 X134.3017
G01 Y46.6323
G01 X130.4753
M107
G00 Z2.0000
G00 Y60.1323
G00 Z0.5000
G01 Z-1.5000 F400
M106 S240
G01 Y61.6323 F1000
G01 X134.3017
G01 Y63.1323
G01 X130.4753
G01 Y64.6323
G01 X134.3017
G01 Y66.1323
G01 X130.4753
G01 X130.2753 Y66.1168
G01 Y67.3434
G01 X134.5017
G01 Y45.4211
G01 X130.2753
G01 Y66.1168
G01 X130.4753 Y66.1323
M107
G00 Z2.0000


;No. 8: Hole 20
G00 X141.1835 Y59.9700 Z2.0000
G00 Z0.5000
G01 Z0.0000 F400
G01 Z-1.5000
M106 S240
G01 X152.0161 F1000
G01 X153.4322 Y58.4700
G01 X148.0377
G01 X149.9378
G01 Y56.9700
G01 X154.0131
G01 X154.2254 Y55.4700
G01 X150.4723
G01 X150.4233 Y53.9700
G01 X154.2516
G01 Y52.4700
G01 X150.2772
G01 X150.5891
G01 Y50.9700
G01 X154.2516
G01 Y49.4700
G01 X150.3758
G01 Y47.9700
G01 X149.4706
G01 X154.2516
G01 Y46.4700
G01 X150.4712
M107
G00 Z2.0000
G00 X142.6593 Y59.9700
G00 Z0.5000
G01 Z-1.5000 F400
M106 S240
G01 Y58.4700 F1000
G01 X141.6201
M107
G00 Z2.0000
G00 X140.4080 Y52.4700
G00 Z0.5000
G01 Z0.0000 F400
G01 Z-1.5000
M106 S240
G01 X144.1356 F1000
G01 X143.0757
G01 Y50.9700
G01 X139.5097
G01 X139.3164 Y49.4700
G01 X142.9360
G01 Y47.9700
G01 X143.5322
G01 X143.6952 Y48.0862
G01 X143.8608 Y47.9032
G01 X144.0399 Y47.7332
G01 X144.2313 Y47.5774
G01 X144.4341 Y47.4366
G01 X144.6469 Y47.3116
G01 X144.8686 Y47.2031
G01 X145.0980 Y47.1118
G01 X145.3336 Y47.0381
G01 X145.5741 Y46.9826
G01 X145.8181 Y46.9455
G01 X146.0643 Y46.9270
G01 X146.3111 Y46.9273
G01 X146.6388 Y46.9285
G01 X146.9652 Y46.9563
G01 X147.2884 Y47.0105
G01 X147.6060 Y47.0908
G01 X147.9161 Y47.1967
G01 X148.2165 Y47.3274
G01 X148.5053 Y47.4821
G01 X148.7806 Y47.6597
G01 X149.0406 Y47.8591
G01 X149.2835 Y48.0790
G01 X149.5077 Y48.3179
G01 X149.7118 Y48.5743
G01 X149.8697 Y48.8289
G01 X150.0080 Y49.0947
G01 X150.1258 Y49.3702
G01 X150.2225 Y49.6538
G01 X150.2976 Y49.9439
G01 X150.3505 Y50.2388
G01 X150.3811 Y50.5369
G01 X150.3891 Y50.8365
G01 X150.4116 Y51.0985
G01 X150.4149 Y51.3614
G01 X150.3992 Y51.6239
G01 X150.3643 Y51.8845
G01 X150.3367 Y51.9781
G01 X150.3005 Y52.0688
G01 X150.2563 Y52.1558
G01 X150.2042 Y52.2384
G01 X150.1448 Y52.3158
G01 X150.0785 Y52.3875
G01 X150.0059 Y52.4528
G01 X149.9277 Y52.5112
G01 X149.8444 Y52.5621
G01 X149.7568 Y52.6052
G01 X149.6657 Y52.6401
G01 X149.5717 Y52.6665
G01 X149.1041 Y52.8221
G01 X148.6269 Y52.9452
G01 X148.1424 Y53.0353
G01 X147.6529 Y53.0918
G01 X147.1606 Y53.1146
G01 X146.6679 Y53.1034
G01 X146.1772 Y53.0585
G01 X145.6906 Y52.9799
G01 X145.4341 Y52.9203
G01 X145.1833 Y52.8400
G01 X144.9398 Y52.7394
G01 X144.7054 Y52.6193
G01 X144.4816 Y52.4804
G01 X144.2699 Y52.3238
G01 X144.0716 Y52.1504
G01 X143.8882 Y51.9613
G01 X143.7209 Y51.7579
G01 X143.5706 Y51.5416
G01 X143.4386 Y51.3137
G01 X143.3256 Y51.0758
G01 X143.2390 Y50.8287
G01 X143.1733 Y50.5752
G01 X143.1291 Y50.3172
G01 X143.1065 Y50.0564
G01 X143.1059 Y49.7945
G01 X143.1271 Y49.5336
G01 X143.1701 Y49.2753
G01 X143.2345 Y49.0216
G01 X143.3198 Y48.7741
G01 X143.4256 Y48.5346
G01 X143.5510 Y48.3047
G01 X143.6952 Y48.0862
G01 X143.5322 Y47.9700
G01 X139.5452
G01 X140.4803 Y46.4700
G01 X147.7862
G01 X147.9309 Y46.3303
G01 X147.6424 Y46.1104
G01 X147.3408 Y45.9088
G01 X147.0273 Y45.7262
G01 X146.7031 Y45.5634
G01 X146.3695 Y45.4210
G01 X146.0276 Y45.2995
G01 X145.6789 Y45.1995
G01 X145.3247 Y45.1212
G01 X144.9663 Y45.0650
G01 X144.6051 Y45.0311
G01 X144.2425 Y45.0196
G01 X143.8799 Y45.0306
G01 X143.5716 Y45.0356
G01 X143.2641 Y45.0585
G01 X142.9583 Y45.0991
G01 X142.6555 Y45.1573
G01 X142.3565 Y45.2329
G01 X142.0624 Y45.3258
G01 X141.7742 Y45.4354
G01 X141.4928 Y45.5616
G01 X141.2192 Y45.7039
G01 X140.9543 Y45.8617
G01 X140.6989 Y46.0347
G01 X140.4540 Y46.2221
G01 X140.2478 Y46.4263
G01 X140.0564 Y46.6444
G01 X139.8807 Y46.8753
G01 X139.7215 Y47.1180
G01 X139.5797 Y47.3712
G01 X139.4558 Y47.6336
G01 X139.3506 Y47.9041
G01 X139.2646 Y48.1812
G01 X139.1981 Y48.4637
G01 X139.1515 Y48.7501
G01 X139.1250 Y49.0391
G01 X139.1187 Y49.3293
G01 X139.1058 Y49.7069
G01 X139.1254 Y50.0842
G01 X139.1772 Y50.4585
G01 X139.2608 Y50.8269
G01 X139.3757 Y51.1868
G01 X139.5211 Y51.5356
G01 X139.6958 Y51.8706
G01 X139.8985 Y52.1894
G01 X140.1679 Y52.4935
G01 X140.4622 Y52.7737
G01 X140.7791 Y53.0280
G01 X141.1163 Y53.2545
G01 X141.4716 Y53.4517
G01 X141.8423 Y53.6180
G01 X142.2257 Y53.7523
G01 X142.6192 Y53.8537
G01 X143.0656 Y53.9442
G01 X143.5151 Y54.0172
G01 X143.9672 Y54.0728
G01 X144.4211 Y54.1109
G01 X144.8761 Y54.1314
G01 X145.3316 Y54.1343
G01 X145.7868 Y54.1195
G01 X146.2411 Y54.0872
G01 X146.6939 Y54.0373
G01 X147.1443 Y53.9699
G01 X147.5919 Y53.8851
G01 X148.0358 Y53.7831
G01 X148.3232 Y53.7064
G01 X148.6099 Y53.6269
G01 X148.8957 Y53.5444
G01 X149.1807 Y53.4591
G01 X149.2280 Y53.4534
G01 X149.2755 Y53.4500
G01 X149.3231 Y53.4488
G01 X149.3707 Y53.4499
G01 X149.4182 Y53.4533
G01 X149.4655 Y53.4589
G01 X149.5124 Y53.4668
G01 X149.5590 Y53.4769
G01 X149.6050 Y53.4892
G01 X149.6503 Y53.5037
G01 X149.6950 Y53.5204
G01 X149.7387 Y53.5391
G01 X149.7816 Y53.5599
G01 X149.8234 Y53.5827
G01 X149.8640 Y53.6075
G01 X149.9035 Y53.6342
G01 X149.9416 Y53.6627
G01 X149.9783 Y53.6930
G01 X150.0136 Y53.7250
G01 X150.0472 Y53.7587
G01 X150.0793 Y53.7939
G01 X150.1096 Y53.8307
G01 X150.1381 Y53.8688
G01 X150.1648 Y53.9082
G01 X150.1896 Y53.9489
G01 X150.2124 Y53.9907
G01 X150.2332 Y54.0335
G01 X150.2520 Y54.0773
G01 X150.2686 Y54.1219
G01 X150.2831 Y54.1673
G01 X150.2954 Y54.2133
G01 X150.3055 Y54.2598
G01 X150.3134 Y54.3068
G01 X150.3190 Y54.3540
G01 X150.3224 Y54.4015
G01 X150.3235 Y54.4491
G01 X150.3378 Y54.7896
G01 X150.3233 Y55.1300
G01 X150.2801 Y55.4679
G01 X150.2085 Y55.8010
G01 X150.1092 Y56.1269
G01 X149.9827 Y56.4433
G01 X149.8299 Y56.7478
G01 X149.6520 Y57.0384
G01 X149.4884 Y57.2353
G01 X149.3122 Y57.4212
G01 X149.1244 Y57.5953
G01 X148.9256 Y57.7567
G01 X148.7168 Y57.9049
G01 X148.4987 Y58.0392
G01 X148.2724 Y58.1591
G01 X148.0388 Y58.2639
G01 X147.7989 Y58.3534
G01 X147.5536 Y58.4271
G01 X147.3041 Y58.4846
G01 X147.0513 Y58.5259
G01 X146.5690 Y58.5773
G01 X146.0850 Y58.6090
G01 X145.6001 Y58.6207
G01 X145.1151 Y58.6126
G01 X144.6308 Y58.5845
G01 X144.1481 Y58.5366
G01 X143.6678 Y58.4690
G01 X143.1906 Y58.3817
G01 X142.7798 Y58.2926
G01 X142.3719 Y58.1909
G01 X141.9672 Y58.0768
G01 X141.5663 Y57.9504
G01 X141.5555 Y57.9760
G01 X141.5627 Y57.9513
G01 X140.8408 Y60.4318
G01 X141.5341 Y60.6579
G01 X142.2363 Y60.8549
G01 X142.9460 Y61.0227
G01 X143.6621 Y61.1607
G01 X144.3833 Y61.2690
G01 X145.1083 Y61.3471
G01 X145.8360 Y61.3950
G01 X146.5651 Y61.4127
G01 X147.2943 Y61.4000
G01 X148.0223 Y61.3570
G01 X148.7479 Y61.2839
G01 X149.4698 Y61.1806
G01 X149.9167 Y61.0949
G01 X150.3565 Y60.9777
G01 X150.7869 Y60.8296
G01 X151.2057 Y60.6514
G01 X151.6108 Y60.4440
G01 X152.0002 Y60.2084
G01 X152.3719 Y59.9459
G01 X152.7241 Y59.6576
G01 X152.9340 Y59.4469
G01 X153.1316 Y59.2246
G01 X153.3160 Y58.9913
G01 X153.4869 Y58.7479
G01 X153.6435 Y58.4950
G01 X153.7854 Y58.2337
G01 X153.9121 Y57.9646
G01 X154.0232 Y57.6887
G01 X154.1184 Y57.4070
G01 X154.1973 Y57.1202
G01 X154.2596 Y56.8294
G01 X154.3052 Y56.5355
G01 X154.3719 Y56.0571
G01 X154.4186 Y55.5762
G01 X154.4452 Y55.0939
G01 X154.4516 Y54.6108
G01 Y45.4211
G01 X150.2908
G01 X150.3106 Y45.6724
G01 X150.3148 Y45.9244
G01 X150.3033 Y46.1761
G01 X150.2761 Y46.4267
G01 X150.2578 Y46.5093
G01 X150.2326 Y46.5900
G01 X150.2007 Y46.6683
G01 X150.1624 Y46.7437
G01 X150.1179 Y46.8156
G01 X150.0675 Y46.8835
G01 X150.0116 Y46.9470
G01 X149.9506 Y47.0055
G01 X149.8849 Y47.0587
G01 X149.8150 Y47.1063
G01 X149.7413 Y47.1478
G01 X149.6644 Y47.1829
G01 X149.5848 Y47.2115
G01 X149.5031 Y47.2334
G01 X149.4199 Y47.2483
G01 X149.3357 Y47.2562
G01 X149.2511 Y47.2570
G01 X149.1668 Y47.2507
G01 X149.0833 Y47.2373
G01 X149.0012 Y47.2170
G01 X148.9211 Y47.1899
G01 X148.8436 Y47.1562
G01 X148.7691 Y47.1161
G01 X148.6983 Y47.0699
G01 X148.6316 Y47.0179
G01 X148.5695 Y46.9605
G01 X148.5124 Y46.8981
G01 X148.4608 Y46.8312
G01 X148.3341 Y46.7000
G01 X148.2035 Y46.5727
G01 X148.0690 Y46.4494
G01 X147.9309 Y46.3303
G01 X147.7862 Y46.4700
M107
G00 Z2.0000


;No. 9: Hole 15
G00 X160.7564 Y49.3500 Z2.0000
G00 Z0.5000
G01 Z0.0000 F400
G01 Z-1.5000
M106 S240
G01 X165.0147 F1000
G01 X164.5750
G01 Y50.8500
G01 X160.7397
G01 Y52.3500
G01 X164.5661
G01 Y53.8500
G01 X160.7397
G01 Y55.3500
G01 X164.5661
G01 Y56.8500
G01 X160.7397
G01 Y58.3500
G01 X158.6424
G01 X168.6951
G01 Y59.8500
G01 X158.6424
G01 X160.4332 Y61.3500
G01 X164.8725
G01 X164.5661
G01 Y62.8500
G01 X160.7397
G01 Y64.3500
G01 X164.5661
M107
G00 Z2.0000
G00 X161.0045 Y49.3500
G00 Z0.5000
G01 Z-1.5000 F400
M106 S240
G01 Y47.8500 F1000
G01 X168.6296
G01 Y46.3500
G01 X161.8717
G01 X161.7521 Y46.1877
G01 X161.5225 Y46.4487
G01 X161.3157 Y46.7280
G01 X161.1331 Y47.0238
G01 X160.9760 Y47.3339
G01 X160.8456 Y47.6560
G01 X160.7428 Y47.9881
G01 X160.6683 Y48.3276
G01 X160.6226 Y48.6721
G01 X160.5854 Y48.9851
G01 X160.5592 Y49.2992
G01 X160.5440 Y49.6141
G01 X160.5397 Y49.9293
G01 Y57.1360
G01 X160.5366 Y57.2144
G01 X160.5274 Y57.2924
G01 X160.5121 Y57.3694
G01 X160.4908 Y57.4450
G01 X160.4636 Y57.5187
G01 X160.4307 Y57.5900
G01 X160.3923 Y57.6585
G01 X160.3487 Y57.7238
G01 X160.3001 Y57.7854
G01 X160.2468 Y57.8431
G01 X160.1891 Y57.8964
G01 X160.1275 Y57.9450
G01 X160.0622 Y57.9886
G01 X159.9937 Y58.0270
G01 X159.9224 Y58.0599
G01 X159.8487 Y58.0870
G01 X159.7731 Y58.1084
G01 X159.6961 Y58.1237
G01 X159.6182 Y58.1329
G01 X159.5397 Y58.1360
G01 X158.4424
G01 Y61.1499
G01 X159.5397
G01 X159.5833 Y61.1508
G01 X159.6269 Y61.1537
G01 X159.6702 Y61.1584
G01 X159.7133 Y61.1650
G01 X159.7561 Y61.1736
G01 X159.7985 Y61.1839
G01 X159.8404 Y61.1961
G01 X159.8817 Y61.2102
G01 X159.9224 Y61.2260
G01 X159.9623 Y61.2435
G01 X160.0014 Y61.2628
G01 X160.0397 Y61.2838
G01 X160.0770 Y61.3065
G01 X160.1133 Y61.3307
G01 X160.1485 Y61.3565
G01 X160.1825 Y61.3838
G01 X160.2153 Y61.4126
G01 X160.2468 Y61.4427
G01 X160.2770 Y61.4743
G01 X160.3057 Y61.5071
G01 X160.3331 Y61.5411
G01 X160.3589 Y61.5763
G01 X160.3831 Y61.6126
G01 X160.4057 Y61.6498
G01 X160.4267 Y61.6881
G01 X160.4460 Y61.7272
G01 X160.4636 Y61.7672
G01 X160.4794 Y61.8078
G01 X160.4934 Y61.8491
G01 X160.5056 Y61.8910
G01 X160.5160 Y61.9334
G01 X160.5245 Y61.9762
G01 X160.5311 Y62.0193
G01 X160.5359 Y62.0627
G01 X160.5387 Y62.1062
G01 X160.5397 Y62.1499
G01 Y65.6394
G01 X164.7661
G01 Y62.1499
G01 X164.7670 Y62.1062
G01 X164.7699 Y62.0627
G01 X164.7746 Y62.0193
G01 X164.7812 Y61.9762
G01 X164.7898 Y61.9334
G01 X164.8001 Y61.8910
G01 X164.8123 Y61.8491
G01 X164.8264 Y61.8078
G01 X164.8422 Y61.7672
G01 X164.8597 Y61.7272
G01 X164.8790 Y61.6881
G01 X164.9000 Y61.6498
G01 X164.9227 Y61.6126
G01 X164.9469 Y61.5763
G01 X164.9727 Y61.5411
G01 X165.0000 Y61.5071
G01 X165.0288 Y61.4743
G01 X165.0589 Y61.4427
G01 X165.0905 Y61.4126
G01 X165.1233 Y61.3838
G01 X165.1573 Y61.3565
G01 X165.1925 Y61.3307
G01 X165.2288 Y61.3065
G01 X165.2661 Y61.2838
G01 X165.3043 Y61.2628
G01 X165.3434 Y61.2435
G01 X165.3834 Y61.2260
G01 X165.4240 Y61.2102
G01 X165.4653 Y61.1961
G01 X165.5072 Y61.1839
G01 X165.5496 Y61.1736
G01 X165.5924 Y61.1650
G01 X165.6355 Y61.1584
G01 X165.6789 Y61.1537
G01 X165.7224 Y61.1508
G01 X165.7661 Y61.1498
G01 X168.8951 Y61.1499
G01 Y58.1360
G01 X165.7661
G01 X165.6876 Y58.1329
G01 X165.6096 Y58.1237
G01 X165.5326 Y58.1084
G01 X165.4570 Y58.0870
G01 X165.3834 Y58.0599
G01 X165.3121 Y58.0270
G01 X165.2436 Y57.9886
G01 X165.1783 Y57.9450
G01 X165.1166 Y57.8964
G01 X165.0589 Y57.8431
G01 X165.0056 Y57.7854
G01 X164.9570 Y57.7238
G01 X164.9134 Y57.6585
G01 X164.8750 Y57.5900
G01 X164.8422 Y57.5187
G01 X164.8150 Y57.4450
G01 X164.7937 Y57.3694
G01 X164.7784 Y57.2924
G01 X164.7691 Y57.2144
G01 X164.7661 Y57.1360
G01 Y51.1279
G01 X164.7621 Y50.9912
G01 X164.7647 Y50.8545
G01 X164.7739 Y50.7180
G01 X164.7894 Y50.5821
G01 X164.8115 Y50.4472
G01 X164.8399 Y50.3134
G01 X164.8747 Y50.1811
G01 X164.9157 Y50.0507
G01 X164.9629 Y49.9223
G01 X165.0162 Y49.7964
G01 X165.0753 Y49.6731
G01 X165.1403 Y49.5527
G01 X165.2110 Y49.4356
G01 X165.2871 Y49.3220
G01 X165.3685 Y49.2121
G01 X165.4551 Y49.1063
G01 X165.5614 Y49.0118
G01 X165.6724 Y48.9229
G01 X165.7878 Y48.8399
G01 X165.9074 Y48.7630
G01 X166.0308 Y48.6923
G01 X166.1576 Y48.6281
G01 X166.2876 Y48.5706
G01 X166.4204 Y48.5198
G01 X166.5557 Y48.4760
G01 X166.6931 Y48.4392
G01 X166.8321 Y48.4095
G01 X166.9725 Y48.3871
G01 X167.1139 Y48.3719
G01 X167.2559 Y48.3641
G01 X167.3980 Y48.3636
G01 X167.5401 Y48.3705
G01 X167.8637 Y48.3843
G01 X168.1860 Y48.4165
G01 X168.5059 Y48.4670
G01 X168.8225 Y48.5356
G01 X168.8296 Y48.3840
G01 Y48.5293
G01 Y45.6965
G01 X168.4220 Y45.5453
G01 X168.0076 Y45.4139
G01 X167.5874 Y45.3026
G01 X167.1623 Y45.2117
G01 X166.7333 Y45.1413
G01 X166.3014 Y45.0917
G01 X165.8676 Y45.0630
G01 X165.4330 Y45.0551
G01 X164.9984 Y45.0682
G01 X164.5650 Y45.1022
G01 X164.1338 Y45.1570
G01 X163.7057 Y45.2325
G01 X163.4366 Y45.2905
G01 X163.1721 Y45.3670
G01 X162.9136 Y45.4616
G01 X162.6623 Y45.5739
G01 X162.4193 Y45.7033
G01 X162.1859 Y45.8492
G01 X161.9631 Y46.0110
G01 X161.7521 Y46.1877
G01 X161.8717 Y46.3500
M107
G00 Z2.0000


;No. 10: Helical drill 3
G00 X186.8566 Y34.2918 Z2.0000
G00 Z0.5000
M106 S240
G01 X186.8528 Y34.2047 Z0.4774 F400
G01 X186.8414 Y34.1182 Z0.4549
G01 X186.8225 Y34.0330 Z0.4323
G01 X186.7963 Y33.9498 Z0.4097
G01 X186.7629 Y33.8692 Z0.3872
G01 X186.7226 Y33.7918 Z0.3646
G01 X186.6757 Y33.7182 Z0.3420
G01 X186.6226 Y33.6490 Z0.3194
G01 X186.5637 Y33.5847 Z0.2969
G01 X186.4993 Y33.5258 Z0.2743
G01 X186.4301 Y33.4727 Z0.2517
G01 X186.3566 Y33.4258 Z0.2292
G01 X186.2792 Y33.3855 Z0.2066
G01 X186.1986 Y33.3521 Z0.1840
G01 X186.1154 Y33.3259 Z0.1615
G01 X186.0302 Y33.3070 Z0.1389
G01 X185.9437 Y33.2956 Z0.1163
G01 X185.8566 Y33.2918 Z0.0938
G01 X185.7694 Y33.2956 Z0.0712
G01 X185.6829 Y33.3070 Z0.0486
G01 X185.5977 Y33.3259 Z0.0260
G01 X185.5145 Y33.3521 Z0.0035
G01 X185.4339 Y33.3855 Z-0.0191
G01 X185.3566 Y33.4258 Z-0.0417
G01 X185.2830 Y33.4727 Z-0.0642
G01 X185.2138 Y33.5258 Z-0.0868
G01 X185.1495 Y33.5847 Z-0.1094
G01 X185.0905 Y33.6490 Z-0.1319
G01 X185.0374 Y33.7182 Z-0.1545
G01 X184.9905 Y33.7918 Z-0.1771
G01 X184.9503 Y33.8692 Z-0.1997
G01 X184.9169 Y33.9498 Z-0.2222
G01 X184.8906 Y34.0330 Z-0.2448
G01 X184.8718 Y34.1182 Z-0.2674
G01 X184.8604 Y34.2047 Z-0.2899
G01 X184.8566 Y34.2918 Z-0.3125
G01 X184.8604 Y34.3790 Z-0.3351
G01 X184.8718 Y34.4655 Z-0.3576
G01 X184.8906 Y34.5506 Z-0.3802
G01 X184.9169 Y34.6338 Z-0.4028
G01 X184.9503 Y34.7144 Z-0.4253
G01 X184.9905 Y34.7918 Z-0.4479
G01 X185.0374 Y34.8654 Z-0.4705
G01 X185.0905 Y34.9346 Z-0.4931
G01 X185.1495 Y34.9989 Z-0.5156
G01 X185.2138 Y35.0579 Z-0.5382
G01 X185.2830 Y35.1110 Z-0.5608
G01 X185.3566 Y35.1578 Z-0.5833
G01 X185.4339 Y35.1981 Z-0.6059
G01 X185.5145 Y35.2315 Z-0.6285
G01 X185.5977 Y35.2577 Z-0.6510
G01 X185.6829 Y35.2766 Z-0.6736
G01 X185.7694 Y35.2880 Z-0.6962
G01 X185.8566 Y35.2918 Z-0.7188
G01 X185.9437 Y35.2880 Z-0.7413
G01 X186.0302 Y35.2766 Z-0.7639
G01 X186.1154 Y35.2577 Z-0.7865
G01 X186.1986 Y35.2315 Z-0.8090
G01 X186.2792 Y35.1981 Z-0.8316
G01 X186.3566 Y35.1578 Z-0.8542
G01 X186.4301 Y35.1110 Z-0.8767
G01 X186.4993 Y35.0579 Z-0.8993
G01 X186.5637 Y34.9989 Z-0.9219
G01 X186.6226 Y34.9346 Z-0.9444
G01 X186.6757 Y34.8654 Z-0.9670
G01 X186.7226 Y34.7918 Z-0.9896
G01 X186.7629 Y34.7144 Z-1.0122
G01 X186.7963 Y34.6338 Z-1.0347
G01 X186.8225 Y34.5506 Z-1.0573
G01 X186.8414 Y34.4655 Z-1.0799
G01 X186.8528 Y34.3790 Z-1.1024
G01 X186.8566 Y34.2918 Z-1.1250
G01 X186.8528 Y34.2047
G01 X186.8414 Y34.1182
G01 X186.8225 Y34.0330
G01 X186.7963 Y33.9498
G01 X186.7629 Y33.8692
G01 X186.7226 Y33.7918
G01 X186.6757 Y33.7182
G01 X186.6226 Y33.6490
G01 X186.5637 Y33.5847
G01 X186.4993 Y33.5258
G01 X186.4301 Y33.4727
G01 X186.3566 Y33.4258
G01 X186.2792 Y33.3855
G01 X186.1986 Y33.3521
G01 X186.1154 Y33.3259
G01 X186.0302 Y33.3070
G01 X185.9437 Y33.2956
G01 X185.8566 Y33.2918
G01 X185.7694 Y33.2956
G01 X185.6829 Y33.3070
G01 X185.5977 Y33.3259
G01 X185.5145 Y33.3521
G01 X185.4339 Y33.3855
G01 X185.3566 Y33.4258
G01 X185.2830 Y33.4727
G01 X185.2138 Y33.5258
G01 X185.1495 Y33.5847
G01 X185.0905 Y33.6490
G01 X185.0374 Y33.7182
G01 X184.9905 Y33.7918
G01 X184.9503 Y33.8692
G01 X184.9169 Y33.9498
G01 X184.8906 Y34.0330
G01 X184.8718 Y34.1182
G01 X184.8604 Y34.2047
G01 X184.8566 Y34.2918
G01 X184.8604 Y34.3790
G01 X184.8718 Y34.4655
G01 X184.8906 Y34.5506
G01 X184.9169 Y34.6338
G01 X184.9503 Y34.7144
G01 X184.9905 Y34.7918
G01 X185.0374 Y34.8654
G01 X185.0905 Y34.9346
G01 X185.1495 Y34.9989
G01 X185.2138 Y35.0579
G01 X185.2830 Y35.1110
G01 X185.3566 Y35.1578
G01 X185.4339 Y35.1981
G01 X185.5145 Y35.2315
G01 X185.5977 Y35.2577
G01 X185.6829 Y35.2766
G01 X185.7694 Y35.2880
G01 X185.8566 Y35.2918
G01 X185.9437 Y35.2880
G01 X186.0302 Y35.2766
G01 X186.1154 Y35.2577
G01 X186.1986 Y35.2315
G01 X186.2792 Y35.1981
G01 X186.3566 Y35.1578
G01 X186.4301 Y35.1110
G01 X186.4993 Y35.0579
G01 X186.5637 Y34.9989
G01 X186.6226 Y34.9346
G01 X186.6757 Y34.8654
G01 X186.7226 Y34.7918
G01 X186.7629 Y34.7144
G01 X186.7963 Y34.6338
G01 X186.8225 Y34.5506
G01 X186.8414 Y34.4655
G01 X186.8528 Y34.3790
G01 X186.8566 Y34.2918
G01 X186.8673 Y34.2402 F1000
G01 X186.8754 Y34.1881
G01 X186.8808 Y34.1357
G01 X186.8834 Y34.0831
G01 Y34.0304
G01 X186.8807 Y33.9777
G01 X186.8752 Y33.9253
G01 X186.8671 Y33.8733
G01 X186.8553 Y33.8173
G01 X186.8408 Y33.7620
G01 X186.8234 Y33.7075
G01 X186.8033 Y33.6539
G01 X186.7804 Y33.6015
G01 X186.7549 Y33.5503
G01 X186.7268 Y33.5005
G01 X186.6962 Y33.4521
G01 X186.6606 Y33.4017
G01 X186.6225 Y33.3532
G01 X186.5820 Y33.3067
G01 X186.5391 Y33.2623
G01 X186.4941 Y33.2201
G01 X186.4469 Y33.1803
G01 X186.3978 Y33.1429
G01 X186.3469 Y33.1081
G01 X186.2904 Y33.0735
G01 X186.2322 Y33.0419
G01 X186.1725 Y33.0132
G01 X186.1114 Y32.9876
G01 X186.0491 Y32.9651
G01 X185.9858 Y32.9457
G01 X185.9215 Y32.9296
G01 X185.8566 Y32.9168
G01 X185.7869 Y32.9086
G01 X185.7170 Y32.9039
G01 X185.6469 Y32.9026
G01 X185.5768 Y32.9049
G01 X185.5070 Y32.9107
G01 X185.4375 Y32.9200
G01 X185.3685 Y32.9327
G01 X185.3003 Y32.9489
G01 X185.2351 Y32.9778
G01 X185.1713 Y33.0099
G01 X185.1093 Y33.0450
G01 X185.0490 Y33.0832
G01 X184.9907 Y33.1243
G01 X184.9344 Y33.1682
G01 X184.8804 Y33.2148
G01 X184.8287 Y33.2640
G01 X184.7795 Y33.3157
G01 X184.7329 Y33.3697
G01 X184.6890 Y33.4259
G01 X184.6480 Y33.4843
G01 X184.6098 Y33.5445
G01 X184.5746 Y33.6066
G01 X184.5425 Y33.6703
G01 X184.5136 Y33.7356
G01 X184.4879 Y33.8021
G01 X184.4656 Y33.8699
G01 X184.4465 Y33.9386
G01 X184.4309 Y34.0082
G01 X184.4187 Y34.0785
G01 X184.4100 Y34.1493
G01 X184.4047 Y34.2205
G01 X184.4030 Y34.2918
G01 X184.4047 Y34.3631
G01 X184.4100 Y34.4343
G01 X184.4187 Y34.5051
G01 X184.4309 Y34.5754
G01 X184.4465 Y34.6450
G01 X184.4656 Y34.7138
G01 X184.4879 Y34.7815
G01 X184.5136 Y34.8481
G01 X184.5425 Y34.9133
G01 X184.5746 Y34.9770
G01 X184.6098 Y35.0391
G01 X184.6480 Y35.0994
G01 X184.6890 Y35.1577
G01 X184.7329 Y35.2140
G01 X184.7795 Y35.2680
G01 X184.8287 Y35.3197
G01 X184.8804 Y35.3689
G01 X184.9344 Y35.4155
G01 X184.9907 Y35.4593
G01 X185.0490 Y35.5004
G01 X185.1093 Y35.5386
G01 X185.1713 Y35.5738
G01 X185.2351 Y35.6058
G01 X185.3003 Y35.6348
G01 X185.3669 Y35.6604
G01 X185.4346 Y35.6828
G01 X185.5034 Y35.7018
G01 X185.5730 Y35.7175
G01 X185.6433 Y35.7297
G01 X185.7141 Y35.7384
G01 X185.7852 Y35.7437
G01 X185.8566 Y35.7454
G01 X185.9279 Y35.7437
G01 X185.9990 Y35.7384
G01 X186.0698 Y35.7297
G01 X186.1401 Y35.7175
G01 X186.2098 Y35.7018
G01 X186.2785 Y35.6828
G01 X186.3463 Y35.6604
G01 X186.4128 Y35.6348
G01 X186.4780 Y35.6058
G01 X186.5418 Y35.5738
G01 X186.6039 Y35.5386
G01 X186.6641 Y35.5004
G01 X186.7225 Y35.4593
G01 X186.7787 Y35.4155
G01 X186.8327 Y35.3689
G01 X186.8844 Y35.3197
G01 X186.9336 Y35.2680
G01 X186.9802 Y35.2140
G01 X187.0241 Y35.1577
G01 X187.0652 Y35.0994
G01 X187.1033 Y35.0391
G01 X187.1385 Y34.9770
G01 X187.1706 Y34.9133
G01 X187.1995 Y34.8481
G01 X187.2252 Y34.7815
G01 X187.2476 Y34.7138
G01 X187.2666 Y34.6450
G01 X187.2822 Y34.5754
G01 X187.2944 Y34.5051
G01 X187.3031 Y34.4343
G01 X187.3084 Y34.3631
G01 X187.3101 Y34.2918
G01 X187.3061 Y34.1832
G01 X187.2939 Y34.0752
G01 X187.2737 Y33.9684
G01 X187.2456 Y33.8634
G01 X187.2097 Y33.7608
G01 X187.1662 Y33.6611
G01 X187.1154 Y33.5650
G01 X187.0576 Y33.4730
G01 X186.9930 Y33.3855
G01 X186.9221 Y33.3031
G01 X186.8452 Y33.2263
G01 X186.7629 Y33.1554
G01 X186.6754 Y33.0908
G01 X186.5834 Y33.0330
G01 X186.4872 Y32.9822
G01 X186.3876 Y32.9387
G01 X186.2850 Y32.9028
G01 X186.1800 Y32.8747
G01 X186.0732 Y32.8545
G01 X185.9652 Y32.8423
G01 X185.8566 Y32.8382
G01 X185.7479 Y32.8423
G01 X185.6399 Y32.8545
G01 X185.5331 Y32.8747
G01 X185.4281 Y32.9028
G01 X185.3255 Y32.9387
G01 X185.2259 Y32.9822
G01 X185.1298 Y33.0330
G01 X185.0377 Y33.0908
G01 X184.9503 Y33.1554
G01 X184.8679 Y33.2263
G01 X184.7910 Y33.3031
G01 X184.7201 Y33.3855
G01 X184.6556 Y33.4730
G01 X184.5977 Y33.5650
G01 X184.5469 Y33.6611
G01 X184.5035 Y33.7608
G01 X184.4676 Y33.8634
G01 X184.4394 Y33.9684
G01 X184.4192 Y34.0752
G01 X184.4070 Y34.1832
G01 X184.4030 Y34.2918
G01 X184.4070 Y34.4004
G01 X184.4192 Y34.5085
G01 X184.4394 Y34.6153
G01 X184.4676 Y34.7203
G01 X184.5035 Y34.8229
G01 X184.5469 Y34.9225
G01 X184.5977 Y35.0186
G01 X184.6556 Y35.1107
G01 X184.7201 Y35.1981
G01 X184.7910 Y35.2805
G01 X184.8679 Y35.3574
G01 X184.9503 Y35.4283
G01 X185.0377 Y35.4928
G01 X185.1298 Y35.5507
G01 X185.2259 Y35.6015
G01 X185.3255 Y35.6449
G01 X185.4281 Y35.6808
G01 X185.5331 Y35.7090
G01 X185.6399 Y35.7292
G01 X185.7479 Y35.7413
G01 X185.8566 Y35.7454
G01 X185.9652 Y35.7413
G01 X186.0732 Y35.7292
G01 X186.1800 Y35.7090
G01 X186.2850 Y35.6808
G01 X186.3876 Y35.6449
G01 X186.4872 Y35.6015
G01 X186.5834 Y35.5507
G01 X186.6754 Y35.4928
G01 X186.7629 Y35.4283
G01 X186.8452 Y35.3574
G01 X186.9221 Y35.2805
G01 X186.9930 Y35.1981
G01 X187.0576 Y35.1107
G01 X187.1154 Y35.0186
G01 X187.1662 Y34.9225
G01 X187.2097 Y34.8229
G01 X187.2456 Y34.7203
G01 X187.2737 Y34.6153
G01 X187.2939 Y34.5085
G01 X187.3061 Y34.4004
G01 X187.3101 Y34.2918
G01 X187.3064 Y34.1956
G01 X187.2950 Y34.0999
G01 X187.2762 Y34.0054
G01 X187.2501 Y33.9127
G01 X187.2168 Y33.8223
G01 X187.1764 Y33.7349
G01 X187.1294 Y33.6508
G01 X187.0758 Y33.5707
G01 X187.0162 Y33.4951
G01 X186.9508 Y33.4243
G01 X186.8801 Y33.3590
G01 X186.8044 Y33.2993
G01 X186.7243 Y33.2458
G01 X186.6403 Y33.1987
G01 X186.5528 Y33.1584
G01 X186.4625 Y33.1251
G01 X186.3697 Y33.0989
G01 X186.2753 Y33.0801
G01 X186.1796 Y33.0688
G01 X186.0834 Y33.0650
G01 X185.9871 Y33.0688
G01 X185.8914 Y33.0801
G01 X185.7970 Y33.0989
G01 X185.7043 Y33.1251
G01 X185.6139 Y33.1584
G01 X185.5264 Y33.1987
G01 X185.4424 Y33.2458
G01 X185.3623 Y33.2993
G01 X185.2866 Y33.3590
G01 X185.2159 Y33.4243
G01 X185.1505 Y33.4951
G01 X185.0909 Y33.5707
G01 X185.0373 Y33.6508
G01 X184.9903 Y33.7349
G01 X184.9499 Y33.8223
G01 X184.9166 Y33.9127
G01 X184.8905 Y34.0054
G01 X184.8717 Y34.0999
G01 X184.8603 Y34.1956
G01 X184.8566 Y34.2918
G01 X184.8604 Y34.3790
G01 X184.8718 Y34.4655
G01 X184.8906 Y34.5506
G01 X184.9169 Y34.6338
G01 X184.9503 Y34.7144
G01 X184.9905 Y34.7918
G01 X185.0374 Y34.8654
G01 X185.0905 Y34.9346
G01 X185.1495 Y34.9989
G01 X185.2138 Y35.0579
G01 X185.2830 Y35.1110
G01 X185.3566 Y35.1578
G01 X185.4339 Y35.1981
G01 X185.5145 Y35.2315
G01 X185.5977 Y35.2577
G01 X185.6829 Y35.2766
G01 X185.7694 Y35.2880
G01 X185.8566 Y35.2918
G01 X185.9437 Y35.2880
G01 X186.0302 Y35.2766
G01 X186.1154 Y35.2577
G01 X186.1986 Y35.2315
G01 X186.2792 Y35.1981
G01 X186.3566 Y35.1578
G01 X186.4301 Y35.1110
G01 X186.4993 Y35.0579
G01 X186.5637 Y34.9989
G01 X186.6226 Y34.9346
G01 X186.6757 Y34.8654
G01 X186.7226 Y34.7918
G01 X186.7629 Y34.7144
G01 X186.7963 Y34.6338
G01 X186.8225 Y34.5506
G01 X186.8414 Y34.4655
G01 X186.8528 Y34.3790
G01 X186.8566 Y34.2918
M107
M106 S240
G01 X186.8528 Y34.2047 Z-1.1476 F400
G01 X186.8414 Y34.1182 Z-1.1701
G01 X186.8225 Y34.0330 Z-1.1927
G01 X186.7963 Y33.9498 Z-1.2153
G01 X186.7629 Y33.8692 Z-1.2378
G01 X186.7226 Y33.7918 Z-1.2604
G01 X186.6757 Y33.7182 Z-1.2830
G01 X186.6226 Y33.6490 Z-1.3056
G01 X186.5637 Y33.5847 Z-1.3281
G01 X186.4993 Y33.5258 Z-1.3507
G01 X186.4301 Y33.4727 Z-1.3733
G01 X186.3566 Y33.4258 Z-1.3958
G01 X186.2792 Y33.3855 Z-1.4184
G01 X186.1986 Y33.3521 Z-1.4410
G01 X186.1154 Y33.3259 Z-1.4635
G01 X186.0302 Y33.3070 Z-1.4861
G01 X185.9437 Y33.2956 Z-1.5087
G01 X185.8566 Y33.2918 Z-1.5313
G01 X185.7694 Y33.2956 Z-1.5538
G01 X185.6829 Y33.3070 Z-1.5764
G01 X185.5977 Y33.3259 Z-1.5990
G01 X185.5145 Y33.3521 Z-1.6215
G01 X185.4339 Y33.3855 Z-1.6441
G01 X185.3566 Y33.4258 Z-1.6667
G01 X185.2830 Y33.4727 Z-1.6892
G01 X185.2138 Y33.5258 Z-1.7118
G01 X185.1495 Y33.5847 Z-1.7344
G01 X185.0905 Y33.6490 Z-1.7569
G01 X185.0374 Y33.7182 Z-1.7795
G01 X184.9905 Y33.7918 Z-1.8021
G01 X184.9503 Y33.8692 Z-1.8247
G01 X184.9169 Y33.9498 Z-1.8472
G01 X184.8906 Y34.0330 Z-1.8698
G01 X184.8718 Y34.1182 Z-1.8924
G01 X184.8604 Y34.2047 Z-1.9149
G01 X184.8566 Y34.2918 Z-1.9375
G01 X184.8604 Y34.3790 Z-1.9601
G01 X184.8718 Y34.4655 Z-1.9826
G01 X184.8906 Y34.5506 Z-2.0052
G01 X184.9169 Y34.6338 Z-2.0278
G01 X184.9503 Y34.7144 Z-2.0503
G01 X184.9905 Y34.7918 Z-2.0729
G01 X185.0374 Y34.8654 Z-2.0955
G01 X185.0905 Y34.9346 Z-2.1181
G01 X185.1495 Y34.9989 Z-2.1406
G01 X185.2138 Y35.0579 Z-2.1632
G01 X185.2830 Y35.1110 Z-2.1858
G01 X185.3566 Y35.1578 Z-2.2083
G01 X185.4339 Y35.1981 Z-2.2309
G01 X185.5145 Y35.2315 Z-2.2535
G01 X185.5977 Y35.2577 Z-2.2760
G01 X185.6829 Y35.2766 Z-2.2986
G01 X185.7694 Y35.2880 Z-2.3212
G01 X185.8566 Y35.2918 Z-2.3438
G01 X185.9437 Y35.2880 Z-2.3663
G01 X186.0302 Y35.2766 Z-2.3889
G01 X186.1154 Y35.2577 Z-2.4115
G01 X186.1986 Y35.2315 Z-2.4340
G01 X186.2792 Y35.1981 Z-2.4566
G01 X186.3566 Y35.1578 Z-2.4792
G01 X186.4301 Y35.1110 Z-2.5017
G01 X186.4993 Y35.0579 Z-2.5243
G01 X186.5637 Y34.9989 Z-2.5469
G01 X186.6226 Y34.9346 Z-2.5694
G01 X186.6757 Y34.8654 Z-2.5920
G01 X186.7226 Y34.7918 Z-2.6146
G01 X186.7629 Y34.7144 Z-2.6372
G01 X186.7963 Y34.6338 Z-2.6597
G01 X186.8225 Y34.5506 Z-2.6823
G01 X186.8414 Y34.4655 Z-2.7049
G01 X186.8528 Y34.3790 Z-2.7274
G01 X186.8566 Y34.2918 Z-2.7500
G01 X186.8528 Y34.2047
G01 X186.8414 Y34.1182
G01 X186.8225 Y34.0330
G01 X186.7963 Y33.9498
G01 X186.7629 Y33.8692
G01 X186.7226 Y33.7918
G01 X186.6757 Y33.7182
G01 X186.6226 Y33.6490
G01 X186.5637 Y33.5847
G01 X186.4993 Y33.5258
G01 X186.4301 Y33.4727
G01 X186.3566 Y33.4258
G01 X186.2792 Y33.3855
G01 X186.1986 Y33.3521
G01 X186.1154 Y33.3259
G01 X186.0302 Y33.3070
G01 X185.9437 Y33.2956
G01 X185.8566 Y33.2918
G01 X185.7694 Y33.2956
G01 X185.6829 Y33.3070
G01 X185.5977 Y33.3259
G01 X185.5145 Y33.3521
G01 X185.4339 Y33.3855
G01 X185.3566 Y33.4258
G01 X185.2830 Y33.4727
G01 X185.2138 Y33.5258
G01 X185.1495 Y33.5847
G01 X185.0905 Y33.6490
G01 X185.0374 Y33.7182
G01 X184.9905 Y33.7918
G01 X184.9503 Y33.8692
G01 X184.9169 Y33.9498
G01 X184.8906 Y34.0330
G01 X184.8718 Y34.1182
G01 X184.8604 Y34.2047
G01 X184.8566 Y34.2918
G01 X184.8604 Y34.3790
G01 X184.8718 Y34.4655
G01 X184.8906 Y34.5506
G01 X184.9169 Y34.6338
G01 X184.9503 Y34.7144
G01 X184.9905 Y34.7918
G01 X185.0374 Y34.8654
G01 X185.0905 Y34.9346
G01 X185.1495 Y34.9989
G01 X185.2138 Y35.0579
G01 X185.2830 Y35.1110
G01 X185.3566 Y35.1578
G01 X185.4339 Y35.1981
G01 X185.5145 Y35.2315
G01 X185.5977 Y35.2577
G01 X185.6829 Y35.2766
G01 X185.7694 Y35.2880
G01 X185.8566 Y35.2918
G01 X185.9437 Y35.2880
G01 X186.0302 Y35.2766
G01 X186.1154 Y35.2577
G01 X186.1986 Y35.2315
G01 X186.2792 Y35.1981
G01 X186.3566 Y35.1578
G01 X186.4301 Y35.1110
G01 X186.4993 Y35.0579
G01 X186.5637 Y34.9989
G01 X186.6226 Y34.9346
G01 X186.6757 Y34.8654
G01 X186.7226 Y34.7918
G01 X186.7629 Y34.7144
G01 X186.7963 Y34.6338
G01 X186.8225 Y34.5506
G01 X186.8414 Y34.4655
G01 X186.8528 Y34.3790
G01 X186.8566 Y34.2918
G01 X186.8673 Y34.2402 F1000
G01 X186.8754 Y34.1881
G01 X186.8808 Y34.1357
G01 X186.8834 Y34.0831
G01 Y34.0304
G01 X186.8807 Y33.9777
G01 X186.8752 Y33.9253
G01 X186.8671 Y33.8733
G01 X186.8553 Y33.8173
G01 X186.8408 Y33.7620
G01 X186.8234 Y33.7075
G01 X186.8033 Y33.6539
G01 X186.7804 Y33.6015
G01 X186.7549 Y33.5503
G01 X186.7268 Y33.5005
G01 X186.6962 Y33.4521
G01 X186.6606 Y33.4017
G01 X186.6225 Y33.3532
G01 X186.5820 Y33.3067
G01 X186.5391 Y33.2623
G01 X186.4941 Y33.2201
G01 X186.4469 Y33.1803
G01 X186.3978 Y33.1429
G01 X186.3469 Y33.1081
G01 X186.2904 Y33.0735
G01 X186.2322 Y33.0419
G01 X186.1725 Y33.0132
G01 X186.1114 Y32.9876
G01 X186.0491 Y32.9651
G01 X185.9858 Y32.9457
G01 X185.9215 Y32.9296
G01 X185.8566 Y32.9168
G01 X185.7869 Y32.9086
G01 X185.7170 Y32.9039
G01 X185.6469 Y32.9026
G01 X185.5768 Y32.9049
G01 X185.5070 Y32.9107
G01 X185.4375 Y32.9200
G01 X185.3685 Y32.9327
G01 X185.3003 Y32.9489
G01 X185.2351 Y32.9778
G01 X185.1713 Y33.0099
G01 X185.1093 Y33.0450
G01 X185.0490 Y33.0832
G01 X184.9907 Y33.1243
G01 X184.9344 Y33.1682
G01 X184.8804 Y33.2148
G01 X184.8287 Y33.2640
G01 X184.7795 Y33.3157
G01 X184.7329 Y33.3697
G01 X184.6890 Y33.4259
G01 X184.6480 Y33.4843
G01 X184.6098 Y33.5445
G01 X184.5746 Y33.6066
G01 X184.5425 Y33.6703
G01 X184.5136 Y33.7356
G01 X184.4879 Y33.8021
G01 X184.4656 Y33.8699
G01 X184.4465 Y33.9386
G01 X184.4309 Y34.0082
G01 X184.4187 Y34.0785
G01 X184.4100 Y34.1493
G01 X184.4047 Y34.2205
G01 X184.4030 Y34.2918
G01 X184.4047 Y34.3631
G01 X184.4100 Y34.4343
G01 X184.4187 Y34.5051
G01 X184.4309 Y34.5754
G01 X184.4465 Y34.6450
G01 X184.4656 Y34.7138
G01 X184.4879 Y34.7815
G01 X184.5136 Y34.8481
G01 X184.5425 Y34.9133
G01 X184.5746 Y34.9770
G01 X184.6098 Y35.0391
G01 X184.6480 Y35.0994
G01 X184.6890 Y35.1577
G01 X184.7329 Y35.2140
G01 X184.7795 Y35.2680
G01 X184.8287 Y35.3197
G01 X184.8804 Y35.3689
G01 X184.9344 Y35.4155
G01 X184.9907 Y35.4593
G01 X185.0490 Y35.5004
G01 X185.1093 Y35.5386
G01 X185.1713 Y35.5738
G01 X185.2351 Y35.6058
G01 X185.3003 Y35.6348
G01 X185.3669 Y35.6604
G01 X185.4346 Y35.6828
G01 X185.5034 Y35.7018
G01 X185.5730 Y35.7175
G01 X185.6433 Y35.7297
G01 X185.7141 Y35.7384
G01 X185.7852 Y35.7437
G01 X185.8566 Y35.7454
G01 X185.9279 Y35.7437
G01 X185.9990 Y35.7384
G01 X186.0698 Y35.7297
G01 X186.1401 Y35.7175
G01 X186.2098 Y35.7018
G01 X186.2785 Y35.6828
G01 X186.3463 Y35.6604
G01 X186.4128 Y35.6348
G01 X186.4780 Y35.6058
G01 X186.5418 Y35.5738
G01 X186.6039 Y35.5386
G01 X186.6641 Y35.5004
G01 X186.7225 Y35.4593
G01 X186.7787 Y35.4155
G01 X186.8327 Y35.3689
G01 X186.8844 Y35.3197
G01 X186.9336 Y35.2680
G01 X186.9802 Y35.2140
G01 X187.0241 Y35.1577
G01 X187.0652 Y35.0994
G01 X187.1033 Y35.0391
G01 X187.1385 Y34.9770
G01 X187.1706 Y34.9133
G01 X187.1995 Y34.8481
G01 X187.2252 Y34.7815
G01 X187.2476 Y34.7138
G01 X187.2666 Y34.6450
G01 X187.2822 Y34.5754
G01 X187.2944 Y34.5051
G01 X187.3031 Y34.4343
G01 X187.3084 Y34.3631
G01 X187.3101 Y34.2918
G01 X187.3061 Y34.1832
G01 X187.2939 Y34.0752
G01 X187.2737 Y33.9684
G01 X187.2456 Y33.8634
G01 X187.2097 Y33.7608
G01 X187.1662 Y33.6611
G01 X187.1154 Y33.5650
G01 X187.0576 Y33.4730
G01 X186.9930 Y33.3855
G01 X186.9221 Y33.3031
G01 X186.8452 Y33.2263
G01 X186.7629 Y33.1554
G01 X186.6754 Y33.0908
G01 X186.5834 Y33.0330
G01 X186.4872 Y32.9822
G01 X186.3876 Y32.9387
G01 X186.2850 Y32.9028
G01 X186.1800 Y32.8747
G01 X186.0732 Y32.8545
G01 X185.9652 Y32.8423
G01 X185.8566 Y32.8382
G01 X185.7479 Y32.8423
G01 X185.6399 Y32.8545
G01 X185.5331 Y32.8747
G01 X185.4281 Y32.9028
G01 X185.3255 Y32.9387
G01 X185.2259 Y32.9822
G01 X185.1298 Y33.0330
G01 X185.0377 Y33.0908
G01 X184.9503 Y33.1554
G01 X184.8679 Y33.2263
G01 X184.7910 Y33.3031
G01 X184.7201 Y33.3855
G01 X184.6556 Y33.4730
G01 X184.5977 Y33.5650
G01 X184.5469 Y33.6611
G01 X184.5035 Y33.7608
G01 X184.4676 Y33.8634
G01 X184.4394 Y33.9684
G01 X184.4192 Y34.0752
G01 X184.4070 Y34.1832
G01 X184.4030 Y34.2918
G01 X184.4070 Y34.4004
G01 X184.4192 Y34.5085
G01 X184.4394 Y34.6153
G01 X184.4676 Y34.7203
G01 X184.5035 Y34.8229
G01 X184.5469 Y34.9225
G01 X184.5977 Y35.0186
G01 X184.6556 Y35.1107
G01 X184.7201 Y35.1981
G01 X184.7910 Y35.2805
G01 X184.8679 Y35.3574
G01 X184.9503 Y35.4283
G01 X185.0377 Y35.4928
G01 X185.1298 Y35.5507
G01 X185.2259 Y35.6015
G01 X185.3255 Y35.6449
G01 X185.4281 Y35.6808
G01 X185.5331 Y35.7090
G01 X185.6399 Y35.7292
G01 X185.7479 Y35.7413
G01 X185.8566 Y35.7454
G01 X185.9652 Y35.7413
G01 X186.0732 Y35.7292
G01 X186.1800 Y35.7090
G01 X186.2850 Y35.6808
G01 X186.3876 Y35.6449
G01 X186.4872 Y35.6015
G01 X186.5834 Y35.5507
G01 X186.6754 Y35.4928
G01 X186.7629 Y35.4283
G01 X186.8452 Y35.3574
G01 X186.9221 Y35.2805
G01 X186.9930 Y35.1981
G01 X187.0576 Y35.1107
G01 X187.1154 Y35.0186
G01 X187.1662 Y34.9225
G01 X187.2097 Y34.8229
G01 X187.2456 Y34.7203
G01 X187.2737 Y34.6153
G01 X187.2939 Y34.5085
G01 X187.3061 Y34.4004
G01 X187.3101 Y34.2918
G01 X187.3064 Y34.1956
G01 X187.2950 Y34.0999
G01 X187.2762 Y34.0054
G01 X187.2501 Y33.9127
G01 X187.2168 Y33.8223
G01 X187.1764 Y33.7349
G01 X187.1294 Y33.6508
G01 X187.0758 Y33.5707
G01 X187.0162 Y33.4951
G01 X186.9508 Y33.4243
G01 X186.8801 Y33.3590
G01 X186.8044 Y33.2993
G01 X186.7243 Y33.2458
G01 X186.6403 Y33.1987
G01 X186.5528 Y33.1584
G01 X186.4625 Y33.1251
G01 X186.3697 Y33.0989
G01 X186.2753 Y33.0801
G01 X186.1796 Y33.0688
G01 X186.0834 Y33.0650
G01 X185.9871 Y33.0688
G01 X185.8914 Y33.0801
G01 X185.7970 Y33.0989
G01 X185.7043 Y33.1251
G01 X185.6139 Y33.1584
G01 X185.5264 Y33.1987
G01 X185.4424 Y33.2458
G01 X185.3623 Y33.2993
G01 X185.2866 Y33.3590
G01 X185.2159 Y33.4243
G01 X185.1505 Y33.4951
G01 X185.0909 Y33.5707
G01 X185.0373 Y33.6508
G01 X184.9903 Y33.7349
G01 X184.9499 Y33.8223
G01 X184.9166 Y33.9127
G01 X184.8905 Y34.0054
G01 X184.8717 Y34.0999
G01 X184.8603 Y34.1956
G01 X184.8566 Y34.2918
G01 X184.8604 Y34.3790
G01 X184.8718 Y34.4655
G01 X184.8906 Y34.5506
G01 X184.9169 Y34.6338
G01 X184.9503 Y34.7144
G01 X184.9905 Y34.7918
G01 X185.0374 Y34.8654
G01 X185.0905 Y34.9346
G01 X185.1495 Y34.9989
G01 X185.2138 Y35.0579
G01 X185.2830 Y35.1110
G01 X185.3566 Y35.1578
G01 X185.4339 Y35.1981
G01 X185.5145 Y35.2315
G01 X185.5977 Y35.2577
G01 X185.6829 Y35.2766
G01 X185.7694 Y35.2880
G01 X185.8566 Y35.2918
G01 X185.9437 Y35.2880
G01 X186.0302 Y35.2766
G01 X186.1154 Y35.2577
G01 X186.1986 Y35.2315
G01 X186.2792 Y35.1981
G01 X186.3566 Y35.1578
G01 X186.4301 Y35.1110
G01 X186.4993 Y35.0579
G01 X186.5637 Y34.9989
G01 X186.6226 Y34.9346
G01 X186.6757 Y34.8654
G01 X186.7226 Y34.7918
G01 X186.7629 Y34.7144
G01 X186.7963 Y34.6338
G01 X186.8225 Y34.5506
G01 X186.8414 Y34.4655
G01 X186.8528 Y34.3790
G01 X186.8566 Y34.2918
M107
M106 S240
G01 X186.8528 Y34.2047 Z-2.7726 F400
G01 X186.8414 Y34.1182 Z-2.7951
G01 X186.8225 Y34.0330 Z-2.8177
