;Project TeslaEVParking
;Created by Estlcam version 11 build 11,233
;Machining time about 00:10:10 hours

G90
M03 S18000
G00 X0.0000 Y0.0000 Z0.0000
G00 Z2.0000


;No. 1: Hole 49
G00 X55.6718 Y33.8304
G00 Z0.5000
G01 Z0.0000 F400 S18000
G01 Z-4.0000
M106 S240
G01 X57.5657 F1000
G01 X56.6782
G01 Y35.3304
G01 X55.6718
G01 Y36.8304
G01 X56.6782
G01 Y38.3304
G01 X55.6718
M107
G00 Z2.0000
G00 X68.3611 Y33.8304
G00 Z0.5000
G01 Z0.0000 F400
G01 Z-4.0000
M106 S240
G01 X70.2550 F1000
G01 Y35.3304
G01 X69.2486
G01 Y36.8304
G01 X70.2550
G01 Y38.3304
G01 X69.2486
G01 X69.0486 Y38.3233
G01 Y39.8534
G01 X70.4550
G01 Y32.3074
G01 X55.4718
G01 Y39.8534
G01 X56.8782
G01 Y34.9881
G01 X56.8812 Y34.9097
G01 X56.8905 Y34.8317
G01 X56.9058 Y34.7547
G01 X56.9271 Y34.6791
G01 X56.9543 Y34.6054
G01 X56.9872 Y34.5341
G01 X57.0255 Y34.4656
G01 X57.0691 Y34.4003
G01 X57.1178 Y34.3387
G01 X57.1711 Y34.2810
G01 X57.2287 Y34.2277
G01 X57.2904 Y34.1791
G01 X57.3557 Y34.1355
G01 X57.4242 Y34.0971
G01 X57.4955 Y34.0642
G01 X57.5691 Y34.0371
G01 X57.6447 Y34.0158
G01 X57.7217 Y34.0004
G01 X57.7997 Y33.9912
G01 X57.8782 Y33.9881
G01 X68.0486
G01 X68.1271 Y33.9912
G01 X68.2051 Y34.0004
G01 X68.2821 Y34.0158
G01 X68.3577 Y34.0371
G01 X68.4313 Y34.0642
G01 X68.5026 Y34.0971
G01 X68.5711 Y34.1355
G01 X68.6364 Y34.1791
G01 X68.6981 Y34.2277
G01 X68.7557 Y34.2810
G01 X68.8090 Y34.3387
G01 X68.8577 Y34.4003
G01 X68.9013 Y34.4656
G01 X68.9396 Y34.5341
G01 X68.9725 Y34.6054
G01 X68.9997 Y34.6791
G01 X69.0210 Y34.7547
G01 X69.0363 Y34.8317
G01 X69.0456 Y34.9097
G01 X69.0486 Y34.9881
G01 Y38.3233
G01 X69.2486 Y38.3304
M107
G00 Z2.0000


;No. 2: Hole 48


;No. 3: Hole 48
G00 X56.0179 Y44.7630 Z2.0000
G00 Z0.5000
G01 Z0.0000 F400
G01 Z-4.0000
M106 S240
G01 X55.9350 Y44.8685 F1000
G01 X55.8587 Y44.9789
G01 X55.7892 Y45.0937
G01 X55.7267 Y45.2124
G01 X55.6716 Y45.3348
G01 X55.6239 Y45.4603
G01 X55.5839 Y45.5884
G01 X55.5518 Y45.7187
G01 X70.3752
G01 X70.3802 Y45.7069
G01 X70.3472 Y45.5784
G01 X70.3062 Y45.4521
G01 X70.2575 Y45.3286
G01 X70.2013 Y45.2083
G01 X70.1377 Y45.0917
G01 X70.0671 Y44.9793
G01 X69.9896 Y44.8715
G01 X69.9056 Y44.7687
G01 X69.8155 Y44.6712
G01 X69.7195 Y44.5795
G01 X69.6180 Y44.4939
G01 X69.5114 Y44.4148
G01 X69.4001 Y44.3424
G01 X69.2845 Y44.2770
G01 X69.1652 Y44.2189
G01 X69.0424 Y44.1682
G01 X68.9168 Y44.1253
G01 X68.7888 Y44.0902
G01 X68.6588 Y44.0630
G01 X68.5274 Y44.0440
G01 X68.4611 Y44.0407
G01 X68.3861 Y44.0394
G01 X57.5446
G01 X57.4426 Y44.0403
G01 X57.3409 Y44.0467
G01 X57.2397 Y44.0586
G01 X57.1392 Y44.0758
G01 X57.0399 Y44.0985
G01 X56.9418 Y44.1264
G01 X56.8454 Y44.1596
G01 X56.7510 Y44.1979
G01 X56.6587 Y44.2412
G01 X56.5689 Y44.2894
G01 X56.4818 Y44.3423
G01 X56.3977 Y44.3999
G01 X56.3168 Y44.4619
G01 X56.2393 Y44.5281
G01 X56.1655 Y44.5984
G01 X56.0956 Y44.6726
G01 X56.1048 Y44.6620
G01 X56.0179 Y44.7630
M107
G00 Z2.0000


;No. 4: Hole 50
G00 X76.9003 Y44.2630 Z2.0000
G00 Z0.5000
G01 Z0.0000 F400
G01 Z-4.0000
M106 S240
G01 X78.6804 F1000
G01 X77.3953 Y42.7630
G01 X80.0691
G01 X81.4579 Y41.2630
G01 X77.3953
G01 Y39.7630
G01 X78.4166
G01 X78.4016 Y38.2630
G01 X77.3953
G01 Y36.7630
G01 X78.4016
G01 Y35.2630
G01 X77.3953
G01 Y33.7630
G01 X78.4016
M107
G00 Z2.0000
G00 X81.0664 Y41.2630
G00 Z0.5000
G01 Z-4.0000 F400
M106 S240
G01 Y39.7630 F1000
G01 X82.8466
G01 X82.4552 Y38.2630
G01 X84.2353
G01 X83.8439 Y36.7630
G01 X85.6241
G01 X85.2326 Y35.2630
G01 X89.2634
G01 Y33.7630
G01 X86.6214
G01 X88.2364 Y36.7630
G01 X89.2634
G01 Y38.2630
G01 X88.2570
G01 Y39.7630
G01 X89.2634
G01 Y41.2630
G01 X88.2570
G01 Y42.7630
G01 X89.2634
G01 Y44.2630
G01 X88.2570
G01 X88.0570 Y44.2521
G01 Y45.7187
G01 X89.4634
G01 Y32.3074
G01 X87.6965
G01 X80.3354 Y40.2582
G01 X80.3034 Y40.2913
G01 X80.2698 Y40.3228
G01 X80.2349 Y40.3528
G01 X80.1986 Y40.3811
G01 X80.1610 Y40.4078
G01 X80.1223 Y40.4326
G01 X80.0824 Y40.4557
G01 X80.0415 Y40.4769
G01 X79.9997 Y40.4962
G01 X79.9571 Y40.5136
G01 X79.9137 Y40.5289
G01 X79.8696 Y40.5423
G01 X79.8250 Y40.5536
G01 X79.7798 Y40.5628
G01 X79.7344 Y40.5700
G01 X79.6886 Y40.5751
G01 X79.6426 Y40.5780
G01 X79.5966 Y40.5788
G01 X79.5506 Y40.5775
G01 X79.5046 Y40.5741
G01 X79.4589 Y40.5686
G01 X79.4135 Y40.5610
G01 X79.3685 Y40.5513
G01 X79.3240 Y40.5395
G01 X79.2801 Y40.5257
G01 X79.2368 Y40.5099
G01 X79.1943 Y40.4921
G01 X79.1527 Y40.4724
G01 X79.1121 Y40.4508
G01 X79.0724 Y40.4273
G01 X79.0339 Y40.4021
G01 X78.9966 Y40.3751
G01 X78.9606 Y40.3464
G01 X78.9260 Y40.3161
G01 X78.8927 Y40.2842
G01 X78.8610 Y40.2508
G01 X78.8309 Y40.2160
G01 X78.8024 Y40.1798
G01 X78.7755 Y40.1424
G01 X78.7505 Y40.1038
G01 X78.7272 Y40.0640
G01 X78.7058 Y40.0233
G01 X78.6863 Y39.9816
G01 X78.6687 Y39.9390
G01 X78.6531 Y39.8957
G01 X78.6396 Y39.8517
G01 X78.6280 Y39.8071
G01 X78.6185 Y39.7620
G01 X78.6112 Y39.7166
G01 X78.6059 Y39.6708
G01 X78.6027 Y39.6249
G01 X78.6016 Y39.5789
G01 Y32.3074
G01 X77.1953
G01 Y43.2581
G01 X77.1909 Y43.3514
G01 X77.1779 Y43.4438
G01 X77.1563 Y43.5346
G01 X77.1263 Y43.6230
G01 X77.0883 Y43.7082
G01 X77.0424 Y43.7895
G01 X76.9892 Y43.8661
G01 X76.9291 Y43.9375
G01 X75.2800 Y45.7187
G01 X77.6053
G01 X86.3232 Y36.3023
G01 X86.3839 Y36.2421
G01 X86.4496 Y36.1873
G01 X86.5196 Y36.1383
G01 X86.5936 Y36.0955
G01 X86.6710 Y36.0591
G01 X86.7512 Y36.0295
G01 X86.8337 Y36.0069
G01 X86.9178 Y35.9914
G01 X87.0029 Y35.9831
G01 X87.0884 Y35.9821
G01 X87.1736 Y35.9884
G01 X87.2580 Y36.0020
G01 X87.3410 Y36.0228
G01 X87.4218 Y36.0505
G01 X87.5000 Y36.0851
G01 X87.5750 Y36.1262
G01 X87.6462 Y36.1736
G01 X87.7130 Y36.2269
G01 X87.7751 Y36.2857
G01 X87.8319 Y36.3496
G01 X87.8831 Y36.4181
G01 X87.9282 Y36.4907
G01 X87.9670 Y36.5669
G01 X87.9991 Y36.6462
G01 X88.0243 Y36.7279
G01 X88.0424 Y36.8114
G01 X88.0534 Y36.8962
G01 X88.0570 Y36.9816
G01 Y44.2521
G01 X88.2570 Y44.2630
M107
G00 Z2.0000


;No. 5: Hole 51
G00 X93.6872 Y44.2630 Z2.0000
G00 Z0.5000
G01 Z0.0000 F400
G01 Z-4.0000
M106 S240
G01 X94.6949 F1000
G01 Y42.7630
G01 X93.6872
G01 Y41.2630
G01 X94.6949
G01 Y39.7630
G01 X93.6872
G01 Y38.2630
G01 X94.6949
G01 Y36.7630
G01 X93.6872
G01 Y35.2630
G01 X94.6949
G01 X93.6872 Y33.7630
G01 X108.1199
G01 X108.3005 Y33.6759
G01 X108.2544 Y33.5606
G01 X108.2015 Y33.4483
G01 X108.1420 Y33.3393
G01 X108.0762 Y33.2340
G01 X108.0042 Y33.1328
G01 X107.9263 Y33.0361
G01 X107.8428 Y32.9442
G01 X107.7539 Y32.8574
G01 X107.6601 Y32.7761
G01 X107.5616 Y32.7005
G01 X107.4587 Y32.6309
G01 X107.3519 Y32.5675
G01 X107.2415 Y32.5106
G01 X107.1280 Y32.4604
G01 X107.0116 Y32.4170
G01 X106.8929 Y32.3807
G01 X106.7722 Y32.3514
G01 X106.6499 Y32.3294
G01 X106.5266 Y32.3147
G01 X106.4027 Y32.3074
G01 X93.4872
G01 Y45.7187
G01 X94.8949
G01 Y34.9881
G01 X94.8980 Y34.9097
G01 X94.9072 Y34.8317
G01 X94.9225 Y34.7547
G01 X94.9439 Y34.6791
G01 X94.9710 Y34.6054
G01 X95.0039 Y34.5341
G01 X95.0423 Y34.4656
G01 X95.0859 Y34.4003
G01 X95.1345 Y34.3387
G01 X95.1878 Y34.2810
G01 X95.2455 Y34.2277
G01 X95.3071 Y34.1791
G01 X95.3724 Y34.1355
G01 X95.4409 Y34.0971
G01 X95.5122 Y34.0642
G01 X95.5859 Y34.0371
G01 X95.6615 Y34.0158
G01 X95.7385 Y34.0004
G01 X95.8164 Y33.9912
G01 X95.8949 Y33.9881
G01 X108.3917
G01 X108.3963 Y33.9755
G01 X108.3763 Y33.8994
G01 X108.3537 Y33.8240
G01 X108.3284 Y33.7495
G01 X108.3005 Y33.6759
G01 X108.1199 Y33.7630
M107
G00 Z2.0000


;No. 6: Hole 53
G00 X114.8701 Y40.7908 Z2.0000
G00 Z0.5000
G01 Z0.0000 F400
G01 Z-4.0000
M106 S240
G01 X117.7405 F1000
G01 X119.1292 Y39.2908
G01 X116.2589
G01 X117.6476 Y37.7908
G01 X122.3267
G01 X120.9786 Y36.2908
G01 X118.9958
G01 X119.0840 Y34.7908
G01 X120.8903
G01 Y33.2908
G01 X119.0840
M107
G00 Z2.0000
G00 X120.8464 Y37.7908
G00 Z0.5000
G01 Z-4.0000 F400
M106 S240
G01 Y39.2908 F1000
G01 X123.7155
G01 X125.1042 Y40.7908
G01 X122.2347
G01 X123.6231 Y42.2908
G01 X126.4929
G01 Y43.7908
G01 X127.6788
G01 X125.0114
G01 X125.8724 Y45.2908
G01 X127.6788
M107
G00 Z2.0000
G00 X116.3518 Y40.7908
G00 Z0.5000
G01 Z-4.0000 F400
M106 S240
G01 Y42.2908 F1000
G01 X113.4814
G01 Y43.7908
G01 X112.2956
G01 X114.9630
G01 X114.1019 Y45.2908
G01 X112.2956
G01 X112.4956 Y45.2589
G01 Y45.7187
G01 X113.9019
G01 X113.8859 Y45.5988
G01 X113.8758 Y45.4782
G01 X113.8717 Y45.3573
G01 X113.8737 Y45.2363
G01 X113.8815 Y45.1156
G01 X113.8954 Y44.9955
G01 X113.9152 Y44.8761
G01 X113.9409 Y44.7579
G01 X113.9524 Y44.7207
G01 X113.9653 Y44.6840
G01 X113.9796 Y44.6479
G01 X113.9953 Y44.6123
G01 X114.0124 Y44.5774
G01 X114.0309 Y44.5431
G01 X114.0507 Y44.5096
G01 X114.0717 Y44.4769
G01 X114.0940 Y44.4450
G01 X114.1175 Y44.4141
G01 X114.1423 Y44.3840
G01 X114.1681 Y44.3550
G01 X119.2540 Y38.8616
G01 X119.3124 Y38.8035
G01 X119.3754 Y38.7504
G01 X119.4426 Y38.7027
G01 X119.5134 Y38.6606
G01 X119.5875 Y38.6246
G01 X119.6642 Y38.5947
G01 X119.7432 Y38.5713
G01 X119.8239 Y38.5545
G01 X119.9056 Y38.5443
G01 X119.9879 Y38.5409
G01 X120.0702 Y38.5443
G01 X120.1519 Y38.5545
G01 X120.2326 Y38.5713
G01 X120.3115 Y38.5948
G01 X120.3883 Y38.6246
G01 X120.4624 Y38.6607
G01 X120.5332 Y38.7027
G01 X120.6003 Y38.7505
G01 X120.6633 Y38.8036
G01 X120.7217 Y38.8617
G01 X125.8063 Y44.3551
G01 X125.8664 Y44.4264
G01 X125.9196 Y44.5031
G01 X125.9654 Y44.5844
G01 X126.0035 Y44.6696
G01 X126.0334 Y44.7579
G01 X126.0550 Y44.8487
G01 X126.0680 Y44.9411
G01 X126.0724 Y45.0343
G01 Y45.7187
G01 X127.4788
G01 Y43.6500
G01 X120.9565 Y36.6052
G01 X120.9256 Y36.5702
G01 X120.8964 Y36.5338
G01 X120.8689 Y36.4961
G01 X120.8432 Y36.4571
G01 X120.8193 Y36.4170
G01 X120.7973 Y36.3759
G01 X120.7773 Y36.3337
G01 X120.7593 Y36.2906
G01 X120.7433 Y36.2468
G01 X120.7293 Y36.2023
G01 X120.7175 Y36.1571
G01 X120.7077 Y36.1115
G01 X120.7001 Y36.0654
G01 X120.6947 Y36.0190
G01 X120.6914 Y35.9725
G01 X120.6903 Y35.9258
G01 Y32.3074
G01 X119.2840
G01 Y35.9258
G01 X119.2829 Y35.9725
G01 X119.2796 Y36.0190
G01 X119.2742 Y36.0654
G01 X119.2666 Y36.1115
G01 X119.2569 Y36.1571
G01 X119.2450 Y36.2023
G01 X119.2311 Y36.2468
G01 X119.2151 Y36.2906
G01 X119.1970 Y36.3337
G01 X119.1770 Y36.3759
G01 X119.1550 Y36.4170
G01 X119.1311 Y36.4571
G01 X119.1054 Y36.4961
G01 X119.0779 Y36.5338
G01 X119.0487 Y36.5702
G01 X119.0178 Y36.6052
G01 X112.4956 Y43.6500
G01 Y45.2589
G01 X112.2956 Y45.2908
M107
G00 Z2.0000
G00 X149.4624 Y16.7908
G00 Z0.5000
G01 Z0.0000 F400
G01 Z-4.0000
M106 S240
G01 X156.9472 F1000
G01 X159.1049 Y18.2908
G01 X153.2928
G01 X155.8957 Y19.7908
G01 X160.8904
G01 X162.4049 Y21.2908
G01 X157.9161
G01 X159.5645 Y22.7908
G01 X163.7069
G01 X164.8318 Y24.2908
G01 X160.9413
G01 X162.1060 Y25.7908
G01 X165.8063
G01 X166.6481 Y27.2908
G01 X163.0945
G01 X163.9309 Y28.7908
G01 X167.3701
G01 X167.9826 Y30.2908
G01 X164.6327
G01 X165.2123 Y31.7908
G01 X168.4935
G01 X168.9069 Y33.2908
G01 X165.6798
G01 X166.0420 Y34.7908
G01 X169.2294
G01 X169.4642 Y36.2908
G01 X166.3043
G01 X166.4706 Y37.7908
G01 X169.6131
G01 X169.6797 Y39.2908
G01 X166.5440
G01 X166.5488 Y40.7908
G01 X169.6839
G01 Y42.2908
G01 X166.5488
G01 Y43.7908
G01 X169.6839
G01 Y45.2908
G01 X166.5488
G01 Y46.7908
G01 X169.6839
G01 Y48.2908
G01 X166.5488
G01 Y49.7908
G01 X169.6839
G01 Y51.2908
G01 X166.5488
G01 Y52.7908
G01 X169.6839
G01 Y54.2908
G01 X166.5488
G01 Y55.7908
G01 X169.6839
G01 Y57.2908
G01 X166.5488
G01 Y58.7908
G01 X169.6839
G01 Y60.2908
G01 X166.5488
G01 Y61.7908
G01 X169.6839
G01 Y63.2908
G01 X166.5488
G01 Y64.7908
G01 X169.6839
G01 Y66.2908
G01 X166.5488
G01 Y67.7908
G01 X169.6839
G01 Y69.2908
G01 X166.5488
G01 Y70.7908
G01 X169.6839
G01 Y72.2908
G01 X166.5488
G01 Y73.7908
G01 X169.6839
G01 Y75.2908
G01 X166.5488
G01 Y76.7908
G01 X169.6839
G01 Y78.2908
G01 X166.5488
G01 Y79.7908
G01 X169.6839
G01 Y81.2908
G01 X166.5488
G01 Y82.7908
G01 X169.6839
G01 Y84.2908
G01 X166.5488
G01 Y85.7908
G01 X169.6839
G01 Y87.2908
G01 X166.5488
G01 Y88.7908
G01 X169.6839
G01 Y90.2908
G01 X166.5488
G01 Y91.7908
G01 X169.6839
G01 Y93.2908
G01 X166.5488
G01 Y94.7908
G01 X169.6839
G01 Y96.2908
G01 X166.5488
G01 Y97.7908
G01 X169.6839
G01 Y99.2908
G01 X166.5488
G01 Y100.7908
G01 X169.6839
G01 Y102.2908
G01 X166.5488
G01 Y103.7908
G01 X169.6839
G01 Y105.2908
G01 X166.5488
G01 Y106.7908
G01 X169.6839
G01 Y108.2908
G01 X166.5488
G01 Y109.7908
G01 X169.6839
G01 Y111.2908
G01 X166.5488
G01 Y112.7908
G01 X169.6839
G01 Y114.2908
G01 X166.5488
G01 Y115.7908
G01 X169.6839
G01 Y117.2908
G01 X166.5488
G01 Y118.7908
G01 X169.6839
G01 Y120.2908
G01 X166.5488
G01 Y121.7908
G01 X169.6839
G01 Y123.2908
G01 X166.5488
G01 Y124.7908
G01 X169.6839
G01 Y126.2908
G01 X166.5488
G01 Y127.7908
G01 X169.6839
G01 Y129.2908
G01 X166.5488
G01 Y130.7908
G01 X169.6839
G01 Y132.2908
G01 X166.5488
G01 Y133.7908
G01 X169.6839
G01 Y135.2908
G01 X166.5488
G01 Y136.7908
G01 X169.6839
G01 Y138.2908
G01 X166.5488
G01 Y139.7908
G01 X169.6839
G01 Y141.2908
G01 X166.5488
G01 Y142.7908
G01 X169.6839
G01 Y144.2908
G01 X166.5488
G01 Y145.7908
G01 X169.6839
G01 Y147.2908
G01 X166.5488
G01 Y148.7908
G01 X169.6839
G01 Y150.2908
G01 X166.5488
G01 Y151.7908
G01 X169.6839
G01 Y153.2908
G01 X166.5488
G01 Y154.7908
G01 X169.6839
G01 Y156.2908
G01 X166.5488
G01 Y157.7908
G01 X169.6839
G01 Y159.2908
G01 X166.5488
G01 Y160.7908
G01 X169.6839
G01 Y162.2908
G01 X166.5488
G01 Y163.7908
G01 X169.6839
G01 Y165.2908
G01 X166.5488
G01 Y166.7908
G01 X169.6839
G01 Y168.2908
G01 X166.5488
G01 Y169.7908
G01 X169.6839
G01 Y171.2908
G01 X166.5488
G01 Y172.7908
G01 X169.6839
G01 Y174.2908
G01 X166.5488
G01 Y175.7908
G01 X169.6839
G01 Y177.2908
G01 X166.5488
G01 Y178.7908
G01 X169.6839
G01 Y180.2908
G01 X166.5488
G01 Y181.7908
G01 X169.6839
G01 Y183.2908
G01 X166.5488
G01 Y184.7908
G01 X169.6839
G01 Y186.2908
G01 X166.5488
G01 Y187.7908
G01 X169.6839
G01 Y189.2908
G01 X166.5488
G01 Y190.7908
G01 X169.6839
G01 Y192.2908
G01 X166.5488
G01 Y193.7908
G01 X169.6839
G01 Y195.2908
G01 X166.5488
G01 Y196.7908
G01 X169.6839
G01 Y198.2908
G01 X166.5488
G01 Y199.7908
G01 X169.6839
G01 Y201.2908
G01 X166.5488
G01 Y202.7908
G01 X169.6839
G01 Y204.2908
G01 X166.5488
G01 Y205.7908
G01 X169.6839
G01 Y207.2908
G01 X166.5488
G01 Y208.7908
G01 X169.6839
G01 X169.6797 Y210.2908
G01 X166.5440
G01 X166.4706 Y211.7908
G01 X169.6131
G01 X169.4642 Y213.2908
G01 X166.3043
G01 X166.0420 Y214.7908
G01 X169.2294
G01 X168.9069 Y216.2908
G01 X165.6798
G01 X165.2123 Y217.7908
G01 X168.4935
G01 X167.9826 Y219.2908
G01 X164.6327
G01 X163.9310 Y220.7908
G01 X167.3701
G01 X166.6481 Y222.2908
G01 X163.0945
G01 X162.1060 Y223.7908
G01 X165.8063
G01 X164.8318 Y225.2908
G01 X160.9413
G01 X159.5645 Y226.7908
G01 X163.7069
G01 X162.4048 Y228.2908
G01 X157.9161
G01 X155.8957 Y229.7908
G01 X160.8904
G01 X159.1049 Y231.2908
G01 X153.2929
G01 X156.9472 Y232.7908
G01 X149.4624
G01 X154.2122 Y234.2908
G01 X28.7390
G01 X26.0040 Y232.7908
G01 X33.4888
G01 X29.6584 Y231.2908
G01 X23.8463
G01 X22.0609 Y229.7908
G01 X27.0555
G01 X25.0351 Y228.2908
G01 X20.5464
G01 X19.2443 Y226.7908
G01 X23.3867
G01 X22.0099 Y225.2908
G01 X18.1194
G01 X17.1449 Y223.7908
G01 X20.8452
G01 X19.8567 Y222.2908
G01 X16.3031
G01 X15.5811 Y220.7908
G01 X19.0203
G01 X18.3186 Y219.2908
G01 X14.9686
G01 X14.4577 Y217.7908
G01 X17.7389
G01 X17.2714 Y216.2908
G01 X14.0443
G01 X13.7218 Y214.7908
G01 X16.9092
G01 X16.6469 Y213.2908
G01 X13.4870
G01 X13.3381 Y211.7908
G01 X16.4806
G01 X16.4072 Y210.2908
G01 X13.2715
G01 X13.2673 Y208.7908
G01 X16.4025
G01 Y207.2908
G01 X13.2673
G01 Y205.7908
G01 X16.4025
G01 Y204.2908
G01 X13.2673
G01 Y202.7908
G01 X16.4025
G01 Y201.2908
G01 X13.2673
G01 Y199.7908
G01 X16.4025
G01 Y198.2908
G01 X13.2673
G01 Y196.7908
G01 X16.4025
G01 Y195.2908
G01 X13.2673
G01 Y193.7908
G01 X16.4025
G01 Y192.2908
G01 X13.2673
G01 Y190.7908
G01 X16.4025
G01 Y189.2908
G01 X13.2673
G01 Y187.7908
G01 X16.4025
G01 Y186.2908
G01 X13.2673
G01 Y184.7908
G01 X16.4025
G01 Y183.2908
G01 X13.2673
G01 Y181.7908
G01 X16.4025
G01 Y180.2908
G01 X13.2673
G01 Y178.7908
G01 X16.4025
G01 Y177.2908
G01 X13.2673
G01 Y175.7908
G01 X16.4025
G01 Y174.2908
G01 X13.2673
G01 Y172.7908
G01 X16.4025
G01 Y171.2908
G01 X13.2673
G01 Y169.7908
G01 X16.4025
G01 Y168.2908
G01 X13.2673
G01 Y166.7908
G01 X16.4025
G01 Y165.2908
G01 X13.2673
G01 Y163.7908
G01 X16.4025
G01 Y162.2908
G01 X13.2673
G01 Y160.7908
G01 X16.4025
G01 Y159.2908
G01 X13.2673
G01 Y157.7908
G01 X16.4025
G01 Y156.2908
G01 X13.2673
G01 Y154.7908
G01 X16.4025
G01 Y153.2908
G01 X13.2673
G01 Y151.7908
G01 X16.4025
G01 Y150.2908
G01 X13.2673
G01 Y148.7908
G01 X16.4025
G01 Y147.2908
G01 X13.2673
G01 Y145.7908
G01 X16.4025
G01 Y144.2908
G01 X13.2673
G01 Y142.7908
G01 X16.4025
G01 Y141.2908
G01 X13.2673
G01 Y139.7908
G01 X16.4025
G01 Y138.2908
G01 X13.2673
G01 Y136.7908
G01 X16.4025
G01 Y135.2908
G01 X13.2673
G01 Y133.7908
G01 X16.4025
G01 Y132.2908
G01 X13.2673
G01 Y130.7908
G01 X16.4025
G01 Y129.2908
G01 X13.2673
G01 Y127.7908
G01 X16.4025
G01 Y126.2908
G01 X13.2673
G01 Y124.7908
G01 X16.4025
G01 Y123.2908
G01 X13.2673
G01 Y121.7908
G01 X16.4025
G01 Y120.2908
G01 X13.2673
G01 Y118.7908
G01 X16.4025
G01 Y117.2908
G01 X13.2673
G01 Y115.7908
G01 X16.4025
G01 Y114.2908
G01 X13.2673
G01 Y112.7908
G01 X16.4025
G01 Y111.2908
G01 X13.2673
G01 Y109.7908
G01 X16.4025
G01 Y108.2908
G01 X13.2673
G01 Y106.7908
G01 X16.4025
G01 Y105.2908
G01 X13.2673
G01 Y103.7908
G01 X16.4025
G01 Y102.2908
G01 X13.2673
G01 Y100.7908
G01 X16.4025
G01 Y99.2908
G01 X13.2673
G01 Y97.7908
G01 X16.4025
G01 Y96.2908
G01 X13.2673
G01 Y94.7908
G01 X16.4025
G01 Y93.2908
G01 X13.2673
G01 Y91.7908
G01 X16.4025
G01 Y90.2908
G01 X13.2673
G01 Y88.7908
G01 X16.4025
G01 Y87.2908
G01 X13.2673
G01 Y85.7908
G01 X16.4025
G01 Y84.2908
G01 X13.2673
G01 Y82.7908
G01 X16.4025
G01 Y81.2908
G01 X13.2673
G01 Y79.7908
G01 X16.4025
G01 Y78.2908
G01 X13.2673
G01 Y76.7908
G01 X16.4025
G01 Y75.2908
G01 X13.2673
G01 Y73.7908
G01 X16.4025
G01 Y72.2908
G01 X13.2673
G01 Y70.7908
G01 X16.4025
G01 Y69.2908
G01 X13.2673
G01 Y67.7908
G01 X16.4025
G01 Y66.2908
G01 X13.2673
G01 Y64.7908
G01 X16.4025
G01 Y63.2908
G01 X13.2673
G01 Y61.7908
G01 X16.4025
G01 Y60.2908
G01 X13.2673
G01 Y58.7908
G01 X16.4025
G01 Y57.2908
G01 X13.2673
G01 Y55.7908
G01 X16.4025
G01 Y54.2908
G01 X13.2673
G01 Y52.7908
G01 X16.4025
G01 Y51.2908
G01 X13.2673
G01 Y49.7908
G01 X16.4025
G01 Y48.2908
G01 X13.2673
G01 Y46.7908
G01 X16.4025
G01 Y45.2908
G01 X13.2673
G01 Y43.7908
G01 X16.4025
G01 Y42.2908
G01 X13.2673
G01 Y40.7908
G01 X16.4025
G01 X16.4072 Y39.2908
G01 X13.2715
G01 X13.3381 Y37.7908
G01 X16.4806
G01 X16.6469 Y36.2908
G01 X13.4870
G01 X13.7218 Y34.7908
G01 X16.9092
G01 X17.2714 Y33.2908
G01 X14.0443
G01 X14.4577 Y31.7908
G01 X17.7389
G01 X18.3186 Y30.2908
G01 X14.9686
G01 X15.5811 Y28.7908
G01 X19.0203
G01 X19.8567 Y27.2908
G01 X16.3031
G01 X17.1449 Y25.7908
G01 X20.8452
G01 X22.0099 Y24.2908
G01 X18.1195
G01 X19.2443 Y22.7908
G01 X23.3867
G01 X25.0351 Y21.2908
G01 X20.5464
G01 X22.0608 Y19.7908
G01 X27.0555
G01 X29.6584 Y18.2908
G01 X23.8463
G01 X26.0040 Y16.7908
G01 X33.4888
G01 X33.5564 Y16.9793
G01 X34.3900 Y16.7505
G01 X35.2312 Y16.5517
G01 X36.0790 Y16.3833
G01 X36.9323 Y16.2453
G01 X37.7900 Y16.1381
G01 X38.6510 Y16.0616
G01 X39.5142 Y16.0161
G01 X40.3785 Y16.0016
G01 X142.5727
G01 X143.4219 Y16.0125
G01 X144.2702 Y16.0539
G01 X145.1164 Y16.1256
G01 X145.9595 Y16.2277
G01 X146.7984 Y16.3600
G01 X147.6320 Y16.5224
G01 X148.4592 Y16.7145
G01 X149.2790 Y16.9362
G01 X150.0903 Y17.1872
G01 X150.8921 Y17.4672
G01 X151.6833 Y17.7758
G01 X152.4629 Y18.1126
G01 X153.2299 Y18.4771
G01 X153.9834 Y18.8689
G01 X154.7223 Y19.2876
G01 X155.4457 Y19.7325
G01 X156.1527 Y20.2030
G01 X156.8423 Y20.6987
G01 X157.5137 Y21.2187
G01 X158.1659 Y21.7626
G01 X158.7983 Y22.3295
G01 X159.4099 Y22.9187
G01 X159.9999 Y23.5295
G01 X160.5676 Y24.1611
G01 X161.1123 Y24.8127
G01 X161.6332 Y25.4834
G01 X162.1298 Y26.1724
G01 X162.6013 Y26.8788
G01 X163.0471 Y27.6016
G01 X163.4667 Y28.3399
G01 X163.8595 Y29.0929
G01 X164.2250 Y29.8594
G01 X164.5628 Y30.6386
G01 X164.8724 Y31.4294
G01 X165.1534 Y32.2309
G01 X165.4055 Y33.0418
G01 X165.6282 Y33.8614
G01 X165.8215 Y34.6883
G01 X165.9849 Y35.5217
G01 X166.1183 Y36.3604
G01 X166.2215 Y37.2034
G01 X166.2943 Y38.0495
G01 X166.3368 Y38.8977
G01 X166.3488 Y39.7469
G01 Y209.8346
G01 X166.3368 Y210.6838
G01 X166.2943 Y211.5320
G01 X166.2215 Y212.3781
G01 X166.1183 Y213.2211
G01 X165.9849 Y214.0598
G01 X165.8215 Y214.8932
G01 X165.6282 Y215.7201
G01 X165.4054 Y216.5397
G01 X165.1534 Y217.3506
G01 X164.8724 Y218.1521
G01 X164.5628 Y218.9429
G01 X164.2250 Y219.7221
G01 X163.8595 Y220.4886
G01 X163.4667 Y221.2416
G01 X163.0471 Y221.9799
G01 X162.6012 Y222.7027
G01 X162.1298 Y223.4091
G01 X161.6332 Y224.0981
G01 X161.1123 Y224.7688
G01 X160.5676 Y225.4203
G01 X159.9999 Y226.0519
G01 X159.4098 Y226.6628
G01 X158.7983 Y227.2520
G01 X158.1659 Y227.8189
G01 X157.5136 Y228.3627
G01 X156.8423 Y228.8828
G01 X156.1527 Y229.3785
G01 X155.4457 Y229.8490
G01 X154.7223 Y230.2939
G01 X153.9834 Y230.7126
G01 X153.2299 Y231.1044
G01 X152.4629 Y231.4689
G01 X151.6833 Y231.8057
G01 X150.8921 Y232.1143
G01 X150.0903 Y232.3942
G01 X149.2790 Y232.6453
G01 X148.4592 Y232.8670
G01 X147.6319 Y233.0591
G01 X146.7984 Y233.2215
G01 X145.9595 Y233.3538
G01 X145.1164 Y233.4559
G01 X144.2702 Y233.5276
G01 X143.4219 Y233.5690
G01 X142.5727 Y233.5799
G01 X40.3785
G01 X39.5293 Y233.5690
G01 X38.6810 Y233.5277
G01 X37.8348 Y233.4559
G01 X36.9917 Y233.3538
G01 X36.1529 Y233.2215
G01 X35.3193 Y233.0591
G01 X34.4920 Y232.8670
G01 X33.6722 Y232.6453
G01 X32.8609 Y232.3943
G01 X32.0591 Y232.1143
G01 X31.2679 Y231.8057
G01 X30.4883 Y231.4690
G01 X29.7213 Y231.1044
G01 X28.9678 Y230.7126
G01 X28.2289 Y230.2939
G01 X27.5055 Y229.8491
G01 X26.7985 Y229.3785
G01 X26.1089 Y228.8828
G01 X25.4375 Y228.3628
G01 X24.7853 Y227.8189
G01 X24.1529 Y227.2520
G01 X23.5414 Y226.6628
G01 X22.9513 Y226.0520
G01 X22.3836 Y225.4204
G01 X21.8389 Y224.7688
G01 X21.3180 Y224.0981
G01 X20.8214 Y223.4091
G01 X20.3499 Y222.7028
G01 X19.9041 Y221.9799
G01 X19.4845 Y221.2416
G01 X19.0917 Y220.4886
G01 X18.7262 Y219.7221
G01 X18.3884 Y218.9429
G01 X18.0788 Y218.1521
G01 X17.7978 Y217.3506
G01 X17.5458 Y216.5397
G01 X17.3230 Y215.7201
G01 X17.1298 Y214.8932
G01 X16.9663 Y214.0598
G01 X16.8330 Y213.2211
G01 X16.7298 Y212.3781
G01 X16.6569 Y211.5320
G01 X16.6144 Y210.6838
G01 X16.6025 Y209.8346
G01 Y39.7469
G01 X16.6140 Y38.9012
G01 X16.6557 Y38.0564
G01 X16.7277 Y37.2137
G01 X16.8298 Y36.3740
G01 X16.9619 Y35.5386
G01 X17.1238 Y34.7085
G01 X17.3153 Y33.8846
G01 X17.5361 Y33.0682
G01 X17.7861 Y32.2601
G01 X18.0648 Y31.4616
G01 X18.3719 Y30.6735
G01 X18.7070 Y29.8969
G01 X19.0697 Y29.1328
G01 X19.4595 Y28.3822
G01 X19.8759 Y27.6460
G01 X20.3184 Y26.9252
G01 X20.7865 Y26.2207
G01 X21.2794 Y25.5334
G01 X21.7966 Y24.8642
G01 X22.3375 Y24.2139
G01 X22.9012 Y23.5834
G01 X23.4872 Y22.9734
G01 X24.0946 Y22.3849
G01 X24.7227 Y21.8184
G01 X25.3707 Y21.2748
G01 X26.0377 Y20.7547
G01 X26.7229 Y20.2589
G01 X27.4254 Y19.7878
G01 X28.1443 Y19.3423
G01 X28.8787 Y18.9227
G01 X29.6277 Y18.5297
G01 X30.3902 Y18.1637
G01 X31.1653 Y17.8253
G01 X31.9521 Y17.5148
G01 X32.7495 Y17.2327
G01 X33.5564 Y16.9793
G01 X33.4888 Y16.7908
G01 X28.7390 Y15.2908
G01 X154.2122
G01 X150.2991 Y13.7908
G01 X32.6522
M107
G00 Z2.0000
G00 X32.6521 Y234.2908
G00 Z0.5000
G01 Z-4.0000 F400
M106 S240
G01 Y235.7908 F1000
G01 X150.2991
G01 X150.3736 Y235.9772
G01 X151.2995 Y235.6838
G01 X152.2145 Y235.3576
G01 X153.1173 Y234.9991
G01 X154.0067 Y234.6087
G01 X154.8817 Y234.1868
G01 X155.7411 Y233.7341
G01 X156.5838 Y233.2511
G01 X157.4089 Y232.7383
G01 X158.2151 Y232.1966
G01 X159.0016 Y231.6265
G01 X159.7673 Y231.0288
G01 X160.5112 Y230.4042
G01 X161.2324 Y229.7535
G01 X161.9300 Y229.0776
G01 X162.6031 Y228.3772
G01 X163.2509 Y227.6534
G01 X163.8725 Y226.9069
G01 X164.4671 Y226.1389
G01 X165.0340 Y225.3501
G01 X165.5725 Y224.5416
G01 X166.0819 Y223.7146
G01 X166.5615 Y222.8699
G01 X167.0107 Y222.0086
G01 X167.4290 Y221.1319
G01 X167.8159 Y220.2409
G01 X168.1708 Y219.3367
G01 X168.4933 Y218.4205
G01 X168.7829 Y217.4933
G01 X169.0394 Y216.5564
G01 X169.2624 Y215.6110
G01 X169.4516 Y214.6582
G01 X169.6068 Y213.6993
G01 X169.7277 Y212.7355
G01 X169.8143 Y211.7680
G01 X169.8664 Y210.7981
G01 X169.8839 Y209.8269
G01 Y39.7546
G01 X169.8659 Y38.7802
G01 X169.8132 Y37.8070
G01 X169.7258 Y36.8364
G01 X169.6038 Y35.8695
G01 X169.4474 Y34.9075
G01 X169.2567 Y33.9518
G01 X169.0320 Y33.0034
G01 X168.7736 Y32.0637
G01 X168.4818 Y31.1338
G01 X168.1570 Y30.2150
G01 X167.7996 Y29.3083
G01 X167.4101 Y28.4149
G01 X166.9889 Y27.5360
G01 X166.5366 Y26.6727
G01 X166.0538 Y25.8262
G01 X165.5411 Y24.9973
G01 X164.9991 Y24.1874
G01 X164.4285 Y23.3972
G01 X163.8301 Y22.6280
G01 X163.2046 Y21.8806
G01 X162.5529 Y21.1560
G01 X161.8757 Y20.4552
G01 X161.1739 Y19.7789
G01 X160.4484 Y19.1282
G01 X159.7001 Y18.5037
G01 X158.9300 Y17.9064
G01 X158.1391 Y17.3370
G01 X157.3284 Y16.7961
G01 X156.4988 Y16.2845
G01 X155.6516 Y15.8029
G01 X154.7877 Y15.3518
G01 X153.9082 Y14.9319
G01 X153.0143 Y14.5436
G01 X152.1071 Y14.1875
G01 X151.1878 Y13.8640
G01 X150.2575 Y13.5735
G01 X149.3174 Y13.3164
G01 X148.3688 Y13.0931
G01 X147.4127 Y12.9037
G01 X146.4506 Y12.7486
G01 X145.4835 Y12.6279
G01 X144.5127 Y12.5419
G01 X143.5395 Y12.4905
G01 X142.5650 Y12.4740
G01 X40.3862
G01 X39.4117 Y12.4905
G01 X38.4385 Y12.5419
G01 X37.4677 Y12.6279
G01 X36.5006 Y12.7486
G01 X35.5385 Y12.9037
G01 X34.5825 Y13.0931
G01 X33.6338 Y13.3164
G01 X32.6937 Y13.5735
G01 X31.7635 Y13.8640
G01 X30.8441 Y14.1875
G01 X29.9369 Y14.5436
G01 X29.0430 Y14.9319
G01 X28.1636 Y15.3519
G01 X27.2996 Y15.8029
G01 X26.4524 Y16.2846
G01 X25.6229 Y16.7961
G01 X24.8121 Y17.3370
G01 X24.0212 Y17.9064
G01 X23.2511 Y18.5038
G01 X22.5029 Y19.1282
G01 X21.7774 Y19.7789
G01 X21.0756 Y20.4552
G01 X20.3983 Y21.1560
G01 X19.7466 Y21.8806
G01 X19.1211 Y22.6280
G01 X18.5227 Y23.3973
G01 X17.9521 Y24.1874
G01 X17.4101 Y24.9974
G01 X16.8974 Y25.8262
G01 X16.4146 Y26.6728
G01 X15.9623 Y27.5360
G01 X15.5412 Y28.4149
G01 X15.1516 Y29.3083
G01 X14.7942 Y30.2150
G01 X14.4694 Y31.1338
G01 X14.1776 Y32.0637
G01 X13.9192 Y33.0034
G01 X13.6946 Y33.9518
G01 X13.5039 Y34.9075
G01 X13.3474 Y35.8695
G01 X13.2254 Y36.8364
G01 X13.1380 Y37.8070
G01 X13.0853 Y38.7802
G01 X13.0673 Y39.7546
G01 Y209.8269
G01 X13.0853 Y210.8013
G01 X13.1380 Y211.7745
G01 X13.2254 Y212.7451
G01 X13.3474 Y213.7121
G01 X13.5039 Y214.6740
G01 X13.6945 Y215.6297
G01 X13.9192 Y216.5781
G01 X14.1776 Y217.5178
G01 X14.4694 Y218.4477
G01 X14.7942 Y219.3665
G01 X15.1516 Y220.2732
G01 X15.5411 Y221.1666
G01 X15.9623 Y222.0455
G01 X16.4146 Y222.9088
G01 X16.8974 Y223.7554
G01 X17.4101 Y224.5842
G01 X17.9521 Y225.3941
G01 X18.5227 Y226.1843
G01 X19.1211 Y226.9535
G01 X19.7466 Y227.7009
G01 X20.3983 Y228.4255
G01 X21.0755 Y229.1263
G01 X21.7774 Y229.8026
G01 X22.5028 Y230.4533
G01 X23.2511 Y231.0778
G01 X24.0212 Y231.6751
G01 X24.8121 Y232.2445
G01 X25.6229 Y232.7854
G01 X26.4524 Y233.2970
G01 X27.2996 Y233.7786
G01 X28.1636 Y234.2297
G01 X29.0430 Y234.6496
G01 X29.9369 Y235.0379
G01 X30.8441 Y235.3940
G01 X31.7635 Y235.7175
G01 X32.6937 Y236.0080
G01 X33.6338 Y236.2651
G01 X34.5825 Y236.4884
G01 X35.5385 Y236.6778
G01 X36.5006 Y236.8329
G01 X37.4677 Y236.9536
G01 X38.4385 Y237.0396
G01 X39.4117 Y237.0910
G01 X40.3862 Y237.1075
G01 X142.5650
G01 X143.5545 Y237.0908
G01 X144.5428 Y237.0382
G01 X145.5285 Y236.9499
G01 X146.5103 Y236.8259
G01 X147.4870 Y236.6664
G01 X148.4573 Y236.4716
G01 X149.4199 Y236.2418
G01 X150.3736 Y235.9772
G01 X150.2991 Y235.7908
M107
G00 Z2.0000


;No. 7: Hole 39
G00 X149.0022 Y59.5413 Z2.0000
G00 Z0.5000
G01 Z0.0000 F400
G01 Z-4.0000
M106 S240
G01 X147.1141 F1000
G01 X147.9959
G01 Y58.0413
G01 X149.0022
G01 Y56.5413
G01 X147.9959
G01 Y55.0413
G01 X147.1078
G01 X149.0022
M107
G00 Z2.0000
G00 X137.2068
G00 Z0.5000
G01 Z0.0000 F400
G01 Z-4.0000
M106 S240
G01 X134.5447 F1000
G01 X134.4190 Y56.5413
G01 X135.5374
G01 X135.4255 Y58.0413
G01 X134.4190
G01 Y59.5413
G01 X135.4255
G01 X135.6255 Y59.5370
G01 Y57.2770
G01 X135.6252 Y57.1432
G01 X135.6339 Y57.0096
G01 X135.6515 Y56.8769
G01 X135.6779 Y56.7456
G01 X135.7130 Y56.6164
G01 X135.7566 Y56.4899
G01 X135.8085 Y56.3665
G01 X135.8686 Y56.2469
G01 X135.9365 Y56.1315
G01 X136.0119 Y56.0209
G01 X136.0945 Y55.9156
G01 X136.1840 Y55.8160
G01 X136.2799 Y55.7226
G01 X136.3818 Y55.6358
G01 X136.4893 Y55.5560
G01 X136.6018 Y55.4835
G01 X136.7190 Y55.4187
G01 X136.8402 Y55.3618
G01 X136.9649 Y55.3132
G01 X137.0925 Y55.2729
G01 X137.2226 Y55.2413
G01 X137.3545 Y55.2184
G01 X137.4876 Y55.2043
G01 X137.6214 Y55.1992
G01 X146.7959
G01 X146.8396 Y55.2001
G01 X146.8831 Y55.2030
G01 X146.9265 Y55.2077
G01 X146.9696 Y55.2144
G01 X147.0124 Y55.2229
G01 X147.0548 Y55.2332
G01 X147.0966 Y55.2455
G01 X147.1380 Y55.2595
G01 X147.1786 Y55.2753
G01 X147.2186 Y55.2929
G01 X147.2577 Y55.3122
G01 X147.2959 Y55.3331
G01 X147.3332 Y55.3558
G01 X147.3695 Y55.3800
G01 X147.4047 Y55.4058
G01 X147.4387 Y55.4331
G01 X147.4715 Y55.4619
G01 X147.5030 Y55.4921
G01 X147.5332 Y55.5236
G01 X147.5620 Y55.5564
G01 X147.5893 Y55.5904
G01 X147.6151 Y55.6256
G01 X147.6393 Y55.6619
G01 X147.6620 Y55.6992
G01 X147.6829 Y55.7374
G01 X147.7022 Y55.7766
G01 X147.7198 Y55.8165
G01 X147.7356 Y55.8571
G01 X147.7497 Y55.8985
G01 X147.7619 Y55.9404
G01 X147.7722 Y55.9827
G01 X147.7807 Y56.0255
G01 X147.7874 Y56.0686
G01 X147.7921 Y56.1120
G01 X147.7950 Y56.1556
G01 X147.7959 Y56.1992
G01 Y58.3852
G01 X147.7929 Y58.4636
G01 X147.7836 Y58.5416
G01 X147.7683 Y58.6186
G01 X147.7470 Y58.6942
G01 X147.7198 Y58.7678
G01 X147.6869 Y58.8392
G01 X147.6486 Y58.9077
G01 X147.6050 Y58.9729
G01 X147.5563 Y59.0346
G01 X147.5030 Y59.0923
G01 X147.4454 Y59.1456
G01 X147.3837 Y59.1942
G01 X147.3184 Y59.2378
G01 X147.2499 Y59.2762
G01 X147.1786 Y59.3090
G01 X147.1050 Y59.3362
G01 X147.0294 Y59.3575
G01 X146.9524 Y59.3729
G01 X146.8744 Y59.3821
G01 X146.7959 Y59.3852
G01 X145.4987 Y59.3630
G01 X144.2012 Y59.3561
G01 X142.9038 Y59.3644
G01 X141.6065 Y59.3879
G01 X141.4723 Y59.4028
G01 X141.3394 Y59.4263
G01 X141.2082 Y59.4584
G01 X141.0794 Y59.4989
G01 X140.9535 Y59.5477
G01 X140.8310 Y59.6044
G01 X140.7124 Y59.6690
G01 X140.5982 Y59.7411
G01 X140.4890 Y59.8205
G01 X140.3851 Y59.9067
G01 X140.2870 Y59.9995
G01 X140.1951 Y60.0984
G01 X140.1098 Y60.2031
G01 X140.0314 Y60.3131
G01 X139.9603 Y60.4279
G01 X139.8968 Y60.5470
G01 X139.8411 Y60.6700
G01 X139.7935 Y60.7964
G01 X139.7542 Y60.9256
G01 X139.7232 Y61.0570
G01 X149.2022 Y61.0644
G01 Y53.5184
G01 X136.2916
G01 X136.1553 Y53.5216
G01 X136.1747 Y53.5211
G01 X136.0490 Y53.5306
G01 X135.9242 Y53.5485
G01 X135.8009 Y53.5746
G01 X135.6796 Y53.6088
G01 X135.5608 Y53.6511
G01 X135.4451 Y53.7012
G01 X135.3331 Y53.7589
G01 X135.2251 Y53.8239
G01 X135.1216 Y53.8959
G01 X135.0232 Y53.9747
G01 X134.9303 Y54.0599
G01 X134.8433 Y54.1511
G01 X134.8538 Y54.1388
G01 X134.7780 Y54.2263
G01 X134.7065 Y54.3173
G01 X134.6393 Y54.4116
G01 X134.5767 Y54.5090
G01 X134.5187 Y54.6092
G01 X134.4656 Y54.7121
G01 X134.4173 Y54.8173
G01 X134.3741 Y54.9248
G01 X134.3361 Y55.0341
G01 X134.3032 Y55.1451
G01 X134.2757 Y55.2576
G01 X134.2535 Y55.3712
G01 X134.2367 Y55.4857
G01 X134.2253 Y55.6010
G01 X134.2194 Y55.7166
G01 X134.2190 Y55.8324
G01 Y61.0644
G01 X135.6255
G01 Y59.5370
G01 X135.4255 Y59.5413
M107
G00 Z2.0000


;No. 8: Hole 38


;No. 9: Hole 38
G00 X134.2190 Y65.2503 Z2.0000
G00 Z0.5000
G01 Z0.0000 F400
G01 Z-4.0000
M106 S240
G01 Y66.9311 F1000
G01 X149.1222
G01 X149.1271 Y66.9181
G01 X149.0940 Y66.7895
G01 X149.0531 Y66.6632
G01 X149.0045 Y66.5396
G01 X148.9483 Y66.4194
G01 X148.8847 Y66.3028
G01 X148.8141 Y66.1903
G01 X148.7367 Y66.0825
G01 X148.6527 Y65.9796
G01 X148.5625 Y65.8822
G01 X148.4665 Y65.7904
G01 X148.3650 Y65.7048
G01 X148.2584 Y65.6257
G01 X148.1472 Y65.5533
G01 X148.0316 Y65.4879
G01 X147.9122 Y65.4297
G01 X147.7895 Y65.3791
G01 X147.6639 Y65.3361
G01 X147.5358 Y65.3010
G01 X147.4058 Y65.2739
G01 X147.2744 Y65.2549
G01 X147.2081 Y65.2516
G01 X147.1332 Y65.2503
G01 X134.2190
M107
G00 Z2.0000


;No. 10: Hole 40
G00 X129.9952 Y65.4747 Z2.0000
G00 Z0.5000
G01 Z0.0000 F400
G01 Z-4.0000
M106 S240
G01 X128.9875 F1000
G01 Y63.9747
G01 X129.9952
G01 Y62.4747
G01 X128.9875
G01 Y60.9747
G01 X129.9952
G01 Y59.4747
G01 X128.9875
G01 X128.9670 Y57.9747
G01 X129.9952
G01 Y56.4747
G01 X125.9630
G01 X126.3540 Y57.9747
G01 X124.5745
G01 X124.9654 Y59.4747
G01 X123.1860
G01 X123.5769 Y60.9747
G01 X121.7975
G01 X122.1884 Y62.4747
G01 X118.1258
G01 Y60.9747
G01 X119.1485
G01 X119.1335 Y59.4747
G01 X118.1258
G01 Y57.9747
G01 X119.1335
G01 Y56.4747
G01 X118.1258
G01 Y54.9747
G01 X119.1335
M107
G00 Z2.0000
G00 X118.1258 Y62.4747
G00 Z0.5000
G01 Z-4.0000 F400
M106 S240
G01 Y63.9747 F1000
G01 X120.7999
G01 X119.4113 Y65.4747
G01 X117.6301
M107
G00 Z2.0000
G00 X127.3514 Y56.4747
G00 Z0.5000
G01 Z-4.0000 F400
M106 S240
G01 Y54.9747 F1000
G01 X129.9952
G01 X130.1952 Y54.9867
G01 Y53.5183
G01 X128.4270
G01 X121.0673 Y61.4691
G01 X121.0353 Y61.5022
G01 X121.0017 Y61.5337
G01 X120.9668 Y61.5637
G01 X120.9305 Y61.5920
G01 X120.8929 Y61.6187
G01 X120.8542 Y61.6435
G01 X120.8143 Y61.6666
G01 X120.7734 Y61.6878
G01 X120.7316 Y61.7071
G01 X120.6890 Y61.7245
G01 X120.6456 Y61.7398
G01 X120.6015 Y61.7532
G01 X120.5569 Y61.7645
G01 X120.5117 Y61.7738
G01 X120.4663 Y61.7809
G01 X120.4205 Y61.7860
G01 X120.3745 Y61.7889
G01 X120.3285 Y61.7898
G01 X120.2825 Y61.7885
G01 X120.2365 Y61.7851
G01 X120.1908 Y61.7796
G01 X120.1454 Y61.7719
G01 X120.1004 Y61.7623
G01 X120.0559 Y61.7505
G01 X120.0119 Y61.7367
G01 X119.9687 Y61.7209
G01 X119.9262 Y61.7031
G01 X119.8846 Y61.6834
G01 X119.8439 Y61.6618
G01 X119.8043 Y61.6383
G01 X119.7658 Y61.6130
G01 X119.7285 Y61.5860
G01 X119.6925 Y61.5573
G01 X119.6578 Y61.5270
G01 X119.6246 Y61.4951
G01 X119.5929 Y61.4618
G01 X119.5627 Y61.4269
G01 X119.5342 Y61.3908
G01 X119.5074 Y61.3534
G01 X119.4823 Y61.3147
G01 X119.4591 Y61.2750
G01 X119.4377 Y61.2342
G01 X119.4181 Y61.1925
G01 X119.4006 Y61.1499
G01 X119.3850 Y61.1066
G01 X119.3714 Y61.0626
G01 X119.3599 Y61.0180
G01 X119.3504 Y60.9730
G01 X119.3430 Y60.9275
G01 X119.3377 Y60.8818
G01 X119.3345 Y60.8358
G01 X119.3335 Y60.7898
G01 Y53.5183
G01 X117.9258
G01 Y64.4691
G01 X117.9247 Y64.5157
G01 X117.9214 Y64.5623
G01 X117.9160 Y64.6086
G01 X117.9084 Y64.6547
G01 X117.8987 Y64.7003
G01 X117.8868 Y64.7454
G01 X117.8729 Y64.7900
G01 X117.8569 Y64.8338
G01 X117.8388 Y64.8768
G01 X117.8188 Y64.9190
G01 X117.7969 Y64.9602
G01 X117.7730 Y65.0003
G01 X117.7473 Y65.0392
G01 X117.7198 Y65.0769
G01 X117.6906 Y65.1133
G01 X117.6597 Y65.1483
G01 X116.0099 Y66.9311
G01 X118.3357
G01 X127.0536 Y57.5132
G01 X127.0857 Y57.4802
G01 X127.1192 Y57.4486
G01 X127.1542 Y57.4187
G01 X127.1905 Y57.3903
G01 X127.2281 Y57.3637
G01 X127.2668 Y57.3388
G01 X127.3067 Y57.3157
G01 X127.3475 Y57.2945
G01 X127.3893 Y57.2752
G01 X127.4320 Y57.2579
G01 X127.4754 Y57.2425
G01 X127.5195 Y57.2291
G01 X127.5641 Y57.2178
G01 X127.6092 Y57.2086
G01 X127.6547 Y57.2014
G01 X127.7005 Y57.1964
G01 X127.7464 Y57.1934
G01 X127.7925 Y57.1926
G01 X127.8385 Y57.1939
G01 X127.8844 Y57.1973
G01 X127.9301 Y57.2028
G01 X127.9756 Y57.2104
G01 X128.0206 Y57.2201
G01 X128.0651 Y57.2319
G01 X128.1090 Y57.2457
G01 X128.1523 Y57.2615
G01 X128.1948 Y57.2793
G01 X128.2364 Y57.2990
G01 X128.2770 Y57.3206
G01 X128.3167 Y57.3440
G01 X128.3552 Y57.3693
G01 X128.3925 Y57.3963
G01 X128.4285 Y57.4250
G01 X128.4631 Y57.4553
G01 X128.4964 Y57.4872
G01 X128.5281 Y57.5206
G01 X128.5582 Y57.5554
G01 X128.5867 Y57.5916
G01 X128.6136 Y57.6290
G01 X128.6386 Y57.6676
G01 X128.6619 Y57.7074
G01 X128.6833 Y57.7481
G01 X128.7028 Y57.7898
G01 X128.7204 Y57.8324
G01 X128.7360 Y57.8757
G01 X128.7496 Y57.9197
G01 X128.7611 Y57.9643
G01 X128.7706 Y58.0094
G01 X128.7780 Y58.0548
G01 X128.7833 Y58.1006
G01 X128.7864 Y58.1465
G01 X128.7875 Y58.1926
G01 Y66.9311
G01 X130.1952
G01 Y54.9867
G01 X129.9952 Y54.9747
M107
G00 Z2.0000


;No. 11: Hole 41
G00 X110.9868 Y54.9747 Z2.0000
G00 Z0.5000
G01 Z0.0000 F400
G01 Z-4.0000
M106 S240
G01 X109.9805 F1000
G01 Y56.4747
G01 X110.9868
G01 Y57.9747
G01 X109.9805
G01 Y59.4747
G01 X110.9868
G01 Y60.9747
G01 X109.9805
G01 Y62.4747
G01 X110.9868
G01 Y63.9747
G01 X109.9805
G01 Y65.4747
G01 X110.9868
G01 X111.1868 Y65.4627
G01 Y53.5183
G01 X109.7805
G01 Y66.9311
G01 X111.1868
G01 Y65.4627
G01 X110.9868 Y65.4747
M107
G00 Z2.0000


;No. 12: Hole 42
G00 X103.3359 Y65.4747 Z2.0000
G00 Z0.5000
G01 Z0.0000 F400
G01 Z-4.0000
M106 S240
G01 X101.5557 F1000
G01 X101.9472 Y63.9747
G01 X100.1670
G01 X100.5577 Y62.4747
G01 X98.7783
G01 X99.1705 Y60.9747
G01 X97.3895
G01 X97.3906 Y59.4747
G01 X99.1739
G01 X98.7791 Y57.9747
G01 X100.5584
G01 X100.1676 Y56.4747
G01 X101.9472
G01 X101.5560 Y54.9747
G01 X103.3359
G01 X103.4787 Y55.1149
G01 X104.9568 Y53.5183
G01 X102.6316
G01 X96.4232 Y60.2254
G01 X102.6315 Y66.9311
G01 X104.9568
G01 X100.6856 Y62.3177
G01 X100.3227 Y61.9478
G01 X99.9679 Y61.5700
G01 X99.6214 Y61.1846
G01 X99.2834 Y60.7917
G01 X99.2388 Y60.7203
G01 X99.2004 Y60.6454
G01 X99.1684 Y60.5675
G01 X99.1431 Y60.4873
G01 X99.1247 Y60.4051
G01 X99.1132 Y60.3218
G01 X99.1087 Y60.2377
G01 X99.1113 Y60.1536
G01 X99.1210 Y60.0700
G01 X99.1377 Y59.9875
G01 X99.1613 Y59.9067
G01 X99.1916 Y59.8282
G01 X99.2284 Y59.7525
G01 X99.2714 Y59.6801
G01 X99.3203 Y59.6116
G01 X99.3748 Y59.5475
G01 X103.4787 Y55.1149
G01 X103.3359 Y54.9747
M107
G00 Z2.0000


;No. 13: Hole 43
G00 X91.9785 Y54.9747 Z2.0000
G00 Z0.5000
G01 Z0.0000 F400
G01 Z-4.0000
M106 S240
G01 X90.9721 F1000
G01 Y56.4747
G01 X91.9785
G01 Y57.9747
G01 X90.9721
G01 Y59.4747
G01 X91.9785
G01 Y60.9747
G01 X90.9721
G01 Y62.4747
G01 X91.9785
G01 Y63.9747
G01 X90.9721
G01 Y65.4747
G01 X91.9785
G01 X92.1785 Y65.4627
G01 Y53.5183
G01 X90.7721
G01 Y66.9311
G01 X92.1785
G01 Y65.4627
G01 X91.9785 Y65.4747
M107
G00 Z2.0000


;No. 14: Hole 44
G00 X86.5485 Y65.4747 Z2.0000
G00 Z0.5000
G01 Z0.0000 F400
G01 Z-4.0000
M106 S240
G01 X73.5238 F1000
G01 X85.5422
G01 Y63.9747
G01 X86.5485
G01 Y62.4747
G01 X85.4461
G01 X86.4439 Y60.9747
G01 X84.0204
G01 X78.2563 Y59.4747
G01 X82.3046
G01 X81.6788
G01 Y57.9747
G01 X79.7702
G01 X81.1589 Y56.4747
G01 X82.9391
G01 X82.5476 Y54.9747
G01 X84.3278
M107
G00 Z2.0000
G00 X72.9717
G00 Z0.5000
G01 Z0.0000 F400
G01 Z-4.0000
M106 S240
G01 X71.9640 F1000
G01 Y56.4747
G01 X72.9717
G01 Y57.9747
G01 X71.9640
G01 Y59.4747
G01 X73.6712
G01 X73.7534 Y59.2926
G01 X73.7108 Y59.2718
G01 X73.6692 Y59.2490
G01 X73.6287 Y59.2242
G01 X73.5895 Y59.1976
G01 X73.5515 Y59.1691
G01 X73.5150 Y59.1388
G01 X73.4799 Y59.1068
G01 X73.4464 Y59.0733
G01 X73.4145 Y59.0381
G01 X73.3844 Y59.0015
G01 X73.3560 Y58.9635
G01 X73.3295 Y58.9242
G01 X73.3048 Y58.8836
G01 X73.2821 Y58.8420
G01 X73.2614 Y58.7993
G01 X73.2428 Y58.7556
G01 X73.2263 Y58.7112
G01 X73.2119 Y58.6660
G01 X73.1996 Y58.6201
G01 X73.1896 Y58.5737
G01 X73.1817 Y58.5270
G01 X73.1761 Y58.4798
G01 X73.1728 Y58.4325
G01 X73.1717 Y58.3851
G01 Y53.5184
G01 X71.7640
G01 Y61.0644
G01 X83.3469
G01 X83.4800 Y61.0716
G01 X83.6123 Y61.0876
G01 X83.7433 Y61.1121
G01 X83.8724 Y61.1452
G01 X83.9991 Y61.1866
G01 X84.1228 Y61.2362
G01 X84.2430 Y61.2937
G01 X84.3592 Y61.3590
G01 X84.4709 Y61.4317
G01 X84.5776 Y61.5116
G01 X84.6788 Y61.5983
G01 X84.7742 Y61.6913
G01 X84.8633 Y61.7905
G01 X84.9457 Y61.8952
G01 X85.0212 Y62.0051
G01 X85.0893 Y62.1196
G01 X85.1497 Y62.2384
G01 X85.2023 Y62.3609
G01 X85.2468 Y62.4865
G01 X85.2830 Y62.6148
G01 X85.3107 Y62.7451
G01 X85.3299 Y62.8770
G01 X85.3404 Y63.0099
G01 X85.3422 Y63.1431
G01 Y64.2504
G01 X85.3391 Y64.3288
G01 X85.3299 Y64.4068
G01 X85.3145 Y64.4838
G01 X85.2932 Y64.5594
G01 X85.2661 Y64.6330
G01 X85.2332 Y64.7044
G01 X85.1948 Y64.7729
G01 X85.1512 Y64.8381
G01 X85.1026 Y64.8998
G01 X85.0493 Y64.9575
G01 X84.9916 Y65.0108
G01 X84.9300 Y65.0594
G01 X84.8647 Y65.1030
G01 X84.7962 Y65.1414
G01 X84.7249 Y65.1742
G01 X84.6512 Y65.2014
G01 X84.5756 Y65.2227
G01 X84.4986 Y65.2380
G01 X84.4206 Y65.2473
G01 X84.3422 Y65.2504
G01 X73.8327 Y65.2505
G01 X73.7156 Y65.2562
G01 X73.5990 Y65.2685
G01 X73.4833 Y65.2874
G01 X73.3689 Y65.3128
G01 X73.2561 Y65.3445
G01 X73.1452 Y65.3826
G01 X73.0367 Y65.4269
G01 X72.9308 Y65.4773
G01 X72.8279 Y65.5335
G01 X72.7284 Y65.5954
G01 X72.6325 Y65.6629
G01 X72.5406 Y65.7356
G01 X72.4530 Y65.8135
G01 X72.3698 Y65.8961
G01 X72.2915 Y65.9833
G01 X72.2182 Y66.0748
G01 X72.1502 Y66.1703
G01 X72.0876 Y66.2694
G01 X72.0308 Y66.3720
G01 X71.9799 Y66.4775
G01 X71.9349 Y66.5858
G01 X71.8962 Y66.6965
G01 X71.8637 Y66.8091
G01 X71.8377 Y66.9234
G01 X86.7485 Y66.9311
G01 Y61.7035
G01 Y61.5775
G01 X86.7418 Y61.4518
G01 X86.7284 Y61.3266
G01 X86.7084 Y61.2023
G01 X86.6819 Y61.0792
G01 X86.6488 Y60.9577
G01 X86.6094 Y60.8381
G01 X86.5636 Y60.7208
G01 X86.5117 Y60.6061
G01 X86.4538 Y60.4943
G01 X86.3900 Y60.3857
G01 X86.3205 Y60.2807
G01 X86.2456 Y60.1795
G01 X86.1654 Y60.0824
G01 X86.0802 Y59.9898
G01 X85.9902 Y59.9017
G01 X85.8956 Y59.8186
G01 X85.7967 Y59.7406
G01 X85.6939 Y59.6680
G01 X85.5873 Y59.6009
G01 X85.4773 Y59.5396
G01 X85.3642 Y59.4842
G01 X85.2484 Y59.4349
G01 X85.1301 Y59.3918
G01 X85.0993 Y59.3857
G01 X85.0684 Y59.3805
G01 X85.0374 Y59.3762
G01 X85.0062 Y59.3730
G01 X84.9749 Y59.3707
G01 X84.9436 Y59.3695
G01 X84.9123 Y59.3692
G01 X84.8809 Y59.3699
G01 X84.8960 Y59.3689
G01 X84.3531 Y59.3921
G01 X83.8097 Y59.4020
G01 X83.2663 Y59.3985
G01 X82.7231 Y59.3817
G01 X82.6307 Y59.3697
G01 X82.5399 Y59.3491
G01 X82.4515 Y59.3202
G01 X82.3660 Y59.2832
G01 X82.2844 Y59.2385
G01 X82.2073 Y59.1863
G01 X82.1354 Y59.1272
G01 X82.0693 Y59.0616
G01 X82.0096 Y58.9902
G01 X81.9568 Y58.9136
G01 X81.9113 Y58.8323
G01 X81.8736 Y58.7472
G01 X81.8440 Y58.6590
G01 X81.8227 Y58.5684
G01 X81.8099 Y58.4762
G01 X81.8057 Y58.3832
G01 X81.8102 Y58.2902
G01 X81.8234 Y58.1980
G01 X81.8450 Y58.1075
G01 X81.8750 Y58.0194
G01 X81.9131 Y57.9344
G01 X81.9588 Y57.8533
G01 X82.0119 Y57.7769
G01 X82.0719 Y57.7057
G01 X85.9487 Y53.5184
G01 X83.6234
G01 X78.4887 Y59.0645
G01 X78.4404 Y59.1132
G01 X78.3888 Y59.1585
G01 X78.3343 Y59.2002
G01 X78.2770 Y59.2380
G01 X78.2172 Y59.2718
G01 X78.1553 Y59.3014
G01 X78.0915 Y59.3267
G01 X78.0261 Y59.3476
G01 X77.9594 Y59.3640
G01 X77.8918 Y59.3757
G01 X77.8235 Y59.3827
G01 X77.7549 Y59.3851
G01 X74.1717
G01 X74.1357 Y59.3846
G01 X74.0998 Y59.3828
G01 X74.0639 Y59.3796
G01 X74.0282 Y59.3751
G01 X73.9927 Y59.3693
G01 X73.9574 Y59.3622
G01 X73.9224 Y59.3538
G01 X73.8877 Y59.3440
G01 X73.8535 Y59.3331
G01 X73.8196 Y59.3208
G01 X73.7863 Y59.3073
G01 X73.7534 Y59.2926
G01 X73.6712 Y59.4747
M107
G00 Z2.0000


;No. 15: Hole 45


;No. 16: Hole 45
G00 X53.5756 Y65.6977 Z2.0000
G00 Z0.5000
G01 Z0.0000 F400
G01 Z-4.0000
M106 S240
G01 X53.5247 Y65.7419 F1000
G01 X53.4753 Y65.7876
G01 X53.4272 Y65.8348
G01 X53.3806 Y65.8835
G01 X53.3915 Y65.8708
G01 X53.3242 Y65.9460
G01 X53.2604 Y66.0242
G01 X53.2002 Y66.1052
G01 X53.1436 Y66.1888
G01 X53.0909 Y66.2749
G01 X53.0421 Y66.3633
G01 X52.9973 Y66.4537
G01 X52.9567 Y66.5461
G01 X52.9202 Y66.6402
G01 X52.8880 Y66.7359
G01 X52.8602 Y66.8329
G01 X52.8367 Y66.9311
G01 X67.6601
G01 X67.6649 Y66.9181
G01 X67.6316 Y66.7897
G01 X67.5905 Y66.6635
G01 X67.5416 Y66.5401
G01 X67.4853 Y66.4200
G01 X67.4216 Y66.3035
G01 X67.3509 Y66.1912
G01 X67.2734 Y66.0835
G01 X67.1894 Y65.9807
G01 X67.0993 Y65.8833
G01 X67.0033 Y65.7917
G01 X66.9019 Y65.7061
G01 X66.7954 Y65.6270
G01 X66.6842 Y65.5545
G01 X66.5687 Y65.4890
G01 X66.4495 Y65.4308
G01 X66.3269 Y65.3800
G01 X66.2014 Y65.3369
G01 X66.0735 Y65.3016
G01 X65.9436 Y65.2742
G01 X65.8123 Y65.2549
G01 X65.7460 Y65.2516
G01 X65.6710 Y65.2504
G01 X54.8295
G01 X54.7161 Y65.2515
G01 X54.6030 Y65.2594
G01 X54.4905 Y65.2742
G01 X54.3792 Y65.2958
G01 X54.2694 Y65.3240
G01 X54.1614 Y65.3589
G01 X54.0558 Y65.4002
G01 X53.9529 Y65.4479
G01 X53.8531 Y65.5016
G01 X53.7567 Y65.5613
G01 X53.6641 Y65.6268
G01 X53.5756 Y65.6977
M107
G00 Z2.0000


;No. 17: Hole 47
G00 X52.9567 Y59.5413 Z2.0000
G00 Z0.5000
G01 Z0.0000 F400
G01 Z-4.0000
M106 S240
G01 X54.8455 F1000
G01 X53.9631
G01 Y58.0413
G01 X52.9567
G01 Y56.5413
G01 X53.9631
G01 Y55.0413
G01 X52.9567
M107
G00 Z2.0000
G00 X65.6512 Y59.5413
G00 Z0.5000
G01 Z0.0000 F400
G01 Z-4.0000
M106 S240
G01 X67.5399 F1000
G01 Y58.0413
G01 X66.5335
G01 Y56.5413
G01 X67.5399
G01 Y55.0413
G01 X66.5335
G01 X66.3335 Y55.0484
G01 Y58.3851
G01 X66.3326 Y58.4287
G01 X66.3297 Y58.4722
G01 X66.3250 Y58.5156
G01 X66.3184 Y58.5587
G01 X66.3098 Y58.6015
G01 X66.2995 Y58.6439
G01 X66.2873 Y58.6858
G01 X66.2732 Y58.7271
G01 X66.2574 Y58.7677
G01 X66.2399 Y58.8077
G01 X66.2206 Y58.8468
G01 X66.1996 Y58.8851
G01 X66.1769 Y58.9224
G01 X66.1527 Y58.9586
G01 X66.1269 Y58.9938
G01 X66.0996 Y59.0279
G01 X66.0708 Y59.0607
G01 X66.0407 Y59.0922
G01 X66.0091 Y59.1223
G01 X65.9763 Y59.1511
G01 X65.9423 Y59.1784
G01 X65.9071 Y59.2042
G01 X65.8708 Y59.2285
G01 X65.8335 Y59.2511
G01 X65.7953 Y59.2721
G01 X65.7562 Y59.2914
G01 X65.7162 Y59.3089
G01 X65.6756 Y59.3248
G01 X65.6343 Y59.3388
G01 X65.5924 Y59.3510
G01 X65.5500 Y59.3614
G01 X65.5072 Y59.3699
G01 X65.4641 Y59.3765
G01 X65.4207 Y59.3813
G01 X65.3772 Y59.3841
G01 X65.3335 Y59.3851
G01 X55.1631
G01 X55.0846 Y59.3820
G01 X55.0066 Y59.3728
G01 X54.9296 Y59.3574
G01 X54.8541 Y59.3361
G01 X54.7804 Y59.3089
G01 X54.7091 Y59.2761
G01 X54.6406 Y59.2377
G01 X54.5753 Y59.1941
G01 X54.5136 Y59.1455
G01 X54.4560 Y59.0922
G01 X54.4027 Y59.0345
G01 X54.3541 Y58.9728
G01 X54.3104 Y58.9076
G01 X54.2721 Y58.8391
G01 X54.2392 Y58.7677
G01 X54.2120 Y58.6941
G01 X54.1907 Y58.6185
G01 X54.1754 Y58.5415
G01 X54.1662 Y58.4635
G01 X54.1631 Y58.3851
G01 Y53.5183
G01 X52.7567
G01 Y61.0643
G01 X67.7399
G01 Y53.5183
G01 X66.3335
G01 Y55.0484
G01 X66.5335 Y55.0413
M107
G00 Z2.0000


;No. 18: Hole 46
G00 X48.4283 Y60.9747 Z2.0000
G00 Z0.5000
G01 Z0.0000 F400
G01 Z-4.0000
M106 S240
G01 X46.0048 F1000
G01 X47.4297
G01 Y62.4747
G01 X48.5329
G01 Y63.9747
G01 X47.5252
G01 X48.5329 Y65.4747
G01 X33.9483
M107
G00 Z2.0000
G00 Y59.4747
G00 Z0.5000
G01 Z0.0000 F400
G01 Z-4.0000
M106 S240
G01 X35.6542 F1000
G01 X34.9547
G01 Y57.9747
G01 X33.9483
G01 Y56.4747
G01 X34.9547
G01 Y54.9747
G01 X33.9483
G01 X33.7483 Y54.9851
G01 Y61.0643
G01 X45.3312
G01 X45.4643 Y61.0716
G01 X45.5966 Y61.0875
G01 X45.7276 Y61.1120
G01 X45.8567 Y61.1450
G01 X45.9834 Y61.1864
G01 X46.1071 Y61.2360
G01 X46.2273 Y61.2935
G01 X46.3435 Y61.3588
G01 X46.4551 Y61.4316
G01 X46.5618 Y61.5114
G01 X46.6630 Y61.5981
G01 X46.7584 Y61.6912
G01 X46.8474 Y61.7904
G01 X46.9298 Y61.8951
G01 X47.0052 Y62.0050
G01 X47.0732 Y62.1197
G01 X47.1336 Y62.2385
G01 X47.1861 Y62.3609
G01 X47.2304 Y62.4866
G01 X47.2665 Y62.6149
G01 X47.2941 Y62.7453
G01 X47.3131 Y62.8772
G01 X47.3235 Y63.0100
G01 X47.3252 Y63.1433
G01 Y64.2503
G01 X47.3242 Y64.2939
G01 X47.3214 Y64.3375
G01 X47.3166 Y64.3809
G01 X47.3100 Y64.4240
G01 X47.3015 Y64.4668
G01 X47.2911 Y64.5091
G01 X47.2789 Y64.5510
G01 X47.2649 Y64.5923
G01 X47.2491 Y64.6330
G01 X47.2315 Y64.6729
G01 X47.2122 Y64.7121
G01 X47.1912 Y64.7503
G01 X47.1686 Y64.7876
G01 X47.1443 Y64.8239
G01 X47.1185 Y64.8591
G01 X47.0912 Y64.8931
G01 X47.0624 Y64.9259
G01 X47.0323 Y64.9574
G01 X47.0008 Y64.9876
G01 X46.9680 Y65.0164
G01 X46.9339 Y65.0437
G01 X46.8987 Y65.0695
G01 X46.8625 Y65.0937
G01 X46.8252 Y65.1163
G01 X46.7869 Y65.1373
G01 X46.7478 Y65.1566
G01 X46.7079 Y65.1742
G01 X46.6672 Y65.1900
G01 X46.6259 Y65.2040
G01 X46.5840 Y65.2162
G01 X46.5416 Y65.2266
G01 X46.4988 Y65.2351
G01 X46.4557 Y65.2418
G01 X46.4123 Y65.2465
G01 X46.3688 Y65.2494
G01 X46.3252 Y65.2503
G01 X33.7483
G01 Y66.9311
G01 X48.7329
G01 Y61.7035
G01 X48.7351 Y61.5736
G01 X48.7298 Y61.4438
G01 X48.7171 Y61.3145
G01 X48.6968 Y61.1862
G01 X48.6692 Y61.0593
G01 X48.6343 Y60.9341
G01 X48.5922 Y60.8112
G01 X48.5431 Y60.6910
G01 X48.4871 Y60.5738
G01 X48.4244 Y60.4600
G01 X48.3553 Y60.3500
G01 X48.2799 Y60.2442
G01 X48.1985 Y60.1430
G01 X48.1114 Y60.0466
G01 X48.0188 Y59.9555
G01 X47.9212 Y59.8698
G01 X47.8187 Y59.7899
G01 X47.7118 Y59.7161
G01 X47.6009 Y59.6486
G01 X47.4862 Y59.5876
G01 X47.3681 Y59.5334
G01 X47.2472 Y59.4860
G01 X47.1236 Y59.4458
G01 X46.9980 Y59.4127
G01 X46.9147 Y59.4004
G01 X46.8308 Y59.3917
G01 X46.7467 Y59.3866
G01 X46.6625 Y59.3851
G01 X36.1547
G01 X36.0762 Y59.3820
G01 X35.9983 Y59.3728
G01 X35.9213 Y59.3574
G01 X35.8457 Y59.3361
G01 X35.7720 Y59.3089
G01 X35.7007 Y59.2761
G01 X35.6322 Y59.2377
G01 X35.5669 Y59.1941
G01 X35.5053 Y59.1455
G01 X35.4476 Y59.0922
G01 X35.3943 Y59.0345
G01 X35.3457 Y58.9728
G01 X35.3021 Y58.9076
G01 X35.2637 Y58.8391
G01 X35.2308 Y58.7677
G01 X35.2037 Y58.6941
G01 X35.1823 Y58.6185
G01 X35.1670 Y58.5415
G01 X35.1578 Y58.4635
G01 X35.1547 Y58.3851
G01 Y53.5183
G01 X33.7483
G01 Y54.9851
G01 X33.9483 Y54.9747
M107
G00 Z2.0000


;No. 19: Hole 30
G00 X36.0669 Y83.1462 Z2.0000
G00 Z0.5000
G01 Z0.0000 F400
G01 Z-4.0000
M106 S240
G01 X37.9880 F1000
G01 Y84.6462
G01 X36.0669
G01 Y86.1462
G01 X37.9880
G01 Y87.6462
G01 X36.0669
G01 Y89.1462
G01 X37.9880
G01 Y90.6462
G01 X36.0669
G01 Y92.1462
G01 X37.9880
G01 Y93.6462
G01 X36.0669
G01 X35.9960 Y95.1462
G01 X38.0588
G01 Y96.6462
G01 X45.8541
G01 X28.1711
G01 X28.0293 Y96.5049
G01 X27.9223 Y96.6098
G01 X27.8208 Y96.7202
G01 X27.7253 Y96.8357
G01 X27.6358 Y96.9560
G01 X27.5527 Y97.0808
G01 X27.4762 Y97.2098
G01 X27.4065 Y97.3425
G01 X27.3438 Y97.4787
G01 X27.2883 Y97.6179
G01 X27.2400 Y97.7599
G01 X27.1992 Y97.9041
G01 X27.1659 Y98.0503
G01 X27.1680 Y98.0638
G01 X46.8868
G01 X46.8891 Y98.0520
G01 X46.8557 Y97.9141
G01 X46.8157 Y97.7779
G01 X46.7691 Y97.6439
G01 X46.7160 Y97.5122
G01 X46.6567 Y97.3833
G01 X46.5912 Y97.2574
G01 X46.5197 Y97.1348
G01 X46.4423 Y97.0158
G01 X46.3592 Y96.9007
G01 X46.2707 Y96.7898
G01 X46.1769 Y96.6833
G01 X46.0780 Y96.5815
G01 X45.9743 Y96.4845
G01 X45.8661 Y96.3927
G01 X45.7535 Y96.3063
G01 X45.6369 Y96.2254
G01 X45.5165 Y96.1502
G01 X45.3926 Y96.0810
G01 X45.2655 Y96.0178
G01 X45.1355 Y95.9609
G01 X45.0029 Y95.9104
G01 X44.8680 Y95.8663
G01 X44.7311 Y95.8288
G01 X44.5925 Y95.7980
G01 X44.4527 Y95.7739
G01 X44.3118 Y95.7566
G01 X44.1703 Y95.7462
G01 X44.0284 Y95.7427
G01 X39.1880
G01 X39.1444 Y95.7417
G01 X39.1008 Y95.7389
G01 X39.0575 Y95.7341
G01 X39.0143 Y95.7275
G01 X38.9715 Y95.7190
G01 X38.9292 Y95.7086
G01 X38.8873 Y95.6964
G01 X38.8460 Y95.6824
G01 X38.8053 Y95.6665
G01 X38.7654 Y95.6490
G01 X38.7262 Y95.6297
G01 X38.6880 Y95.6087
G01 X38.6507 Y95.5861
G01 X38.6144 Y95.5618
G01 X38.5792 Y95.5360
G01 X38.5452 Y95.5087
G01 X38.5124 Y95.4799
G01 X38.4809 Y95.4498
G01 X38.4507 Y95.4183
G01 X38.4219 Y95.3854
G01 X38.3946 Y95.3514
G01 X38.3688 Y95.3162
G01 X38.3446 Y95.2800
G01 X38.3220 Y95.2427
G01 X38.3010 Y95.2044
G01 X38.2817 Y95.1653
G01 X38.2641 Y95.1253
G01 X38.2483 Y95.0847
G01 X38.2343 Y95.0434
G01 X38.2221 Y95.0015
G01 X38.2117 Y94.9591
G01 X38.2032 Y94.9163
G01 X38.1965 Y94.8732
G01 X38.1918 Y94.8298
G01 X38.1889 Y94.7863
G01 X38.1880 Y94.7427
G01 Y81.7286
G01 X35.8669
G01 Y94.7426
G01 X35.8659 Y94.7862
G01 X35.8631 Y94.8297
G01 X35.8583 Y94.8731
G01 X35.8517 Y94.9162
G01 X35.8432 Y94.9590
G01 X35.8328 Y95.0014
G01 X35.8206 Y95.0433
G01 X35.8066 Y95.0846
G01 X35.7907 Y95.1253
G01 X35.7732 Y95.1652
G01 X35.7539 Y95.2043
G01 X35.7329 Y95.2426
G01 X35.7103 Y95.2799
G01 X35.6860 Y95.3162
G01 X35.6602 Y95.3513
G01 X35.6329 Y95.3854
G01 X35.6041 Y95.4182
G01 X35.5740 Y95.4497
G01 X35.5425 Y95.4799
G01 X35.5097 Y95.5086
G01 X35.4756 Y95.5359
G01 X35.4404 Y95.5617
G01 X35.4042 Y95.5860
G01 X35.3669 Y95.6086
G01 X35.3286 Y95.6296
G01 X35.2895 Y95.6489
G01 X35.2495 Y95.6665
G01 X35.2089 Y95.6823
G01 X35.1676 Y95.6963
G01 X35.1257 Y95.7085
G01 X35.0833 Y95.7189
G01 X35.0405 Y95.7274
G01 X34.9974 Y95.7340
G01 X34.9540 Y95.7388
G01 X34.9105 Y95.7416
G01 X34.8669 Y95.7426
G01 X33.6186 Y95.7235
G01 X32.3702 Y95.7177
G01 X31.1218 Y95.7252
G01 X29.8735 Y95.7460
G01 X29.7463 Y95.7524
G01 X29.6195 Y95.7646
G01 X29.4933 Y95.7825
G01 X29.3681 Y95.8062
G01 X29.2441 Y95.8354
G01 X29.1216 Y95.8703
G01 X29.0008 Y95.9106
G01 X28.8819 Y95.9564
G01 X28.7652 Y96.0076
G01 X28.6509 Y96.0640
G01 X28.5394 Y96.1254
G01 X28.4307 Y96.1919
G01 X28.3251 Y96.2633
G01 X28.2229 Y96.3393
G01 X28.1242 Y96.4199
G01 X28.0293 Y96.5049
G01 X28.1711 Y96.6462
M107
G00 Z2.0000


;No. 20: Hole 34
G00 X55.1532 Y82.8891 Z2.0000
G00 Z0.5000
G01 Z0.0000 F400
G01 Z-4.0000
M106 S240
G01 X73.3327 F1000
G01 X73.4905 Y82.7658
G01 X73.3849 Y82.6465
G01 X73.2730 Y82.5331
G01 X73.1550 Y82.4261
G01 X73.0313 Y82.3258
G01 X72.9023 Y82.2324
G01 X72.7683 Y82.1462
G01 X72.6298 Y82.0676
G01 X72.4872 Y81.9967
G01 X72.3408 Y81.9337
G01 X72.1913 Y81.8789
G01 X72.0390 Y81.8324
G01 X71.8843 Y81.7943
G01 X71.7277 Y81.7648
G01 X71.5698 Y81.7440
G01 X71.4110 Y81.7319
G01 X71.2518 Y81.7285
G01 X57.2545
G01 X57.1118 Y81.7291
G01 X56.9692 Y81.7368
G01 X56.8273 Y81.7515
G01 X56.6863 Y81.7734
G01 X56.5465 Y81.8023
G01 X56.4083 Y81.8381
G01 X56.2721 Y81.8807
G01 X56.1382 Y81.9301
G01 X56.0070 Y81.9862
G01 X55.8787 Y82.0487
G01 X55.7536 Y82.1175
G01 X55.6322 Y82.1925
G01 X55.5147 Y82.2734
G01 X55.4013 Y82.3602
G01 X55.2924 Y82.4524
G01 X55.1883 Y82.5500
G01 X55.0892 Y82.6527
G01 X54.9953 Y82.7602
G01 X54.9069 Y82.8722
G01 X54.8242 Y82.9885
G01 X54.7474 Y83.1088
G01 X54.6767 Y83.2328
G01 X54.6122 Y83.3602
G01 X54.5543 Y83.4906
G01 X54.5029 Y83.6237
G01 X54.4582 Y83.7593
G01 X54.4203 Y83.8969
G01 X54.3893 Y84.0362
G01 X54.3914 Y84.0497
G01 X74.1102 Y84.0496
G01 X74.1127 Y84.0378
G01 X74.0874 Y83.9211
G01 X74.0571 Y83.8057
G01 X74.0216 Y83.6917
G01 X73.9813 Y83.5793
G01 X73.9360 Y83.4689
G01 X73.8859 Y83.3605
G01 X73.8311 Y83.2545
G01 X73.7717 Y83.1509
G01 X73.7078 Y83.0501
G01 X73.6395 Y82.9522
G01 X73.5670 Y82.8573
G01 X73.4905 Y82.7658
G01 X73.3327 Y82.8891
M107
G00 Z2.0000


;No. 21: Hole 33
G00 X73.3327 Y89.8962 Z2.0000
G00 Z0.5000
G01 Z0.0000 F400
G01 Z-4.0000
M106 S240
G01 X55.1532 F1000
G01 X55.0101 Y89.7554
G01 X54.9342 Y89.8489
G01 X54.8623 Y89.9455
G01 X54.7946 Y90.0451
G01 X54.7312 Y90.1474
G01 X54.6721 Y90.2523
G01 X54.6175 Y90.3597
G01 X54.5675 Y90.4692
G01 X54.5222 Y90.5808
G01 X54.4817 Y90.6942
G01 X54.4460 Y90.8092
G01 X54.4152 Y90.9256
G01 X54.3893 Y91.0432
G01 X54.3914 Y91.0567
G01 X74.1102
G01 X74.1127 Y91.0448
G01 X74.0794 Y90.9068
G01 X74.0394 Y90.7706
G01 X73.9929 Y90.6365
G01 X73.9399 Y90.5048
G01 X73.8807 Y90.3758
G01 X73.8152 Y90.2498
G01 X73.7437 Y90.1272
G01 X73.6663 Y90.0082
G01 X73.5832 Y89.8931
G01 X73.4947 Y89.7821
G01 X73.4009 Y89.6756
G01 X73.3020 Y89.5737
G01 X73.1983 Y89.4767
G01 X73.0901 Y89.3849
G01 X72.9775 Y89.2985
G01 X72.8608 Y89.2176
G01 X72.7404 Y89.1424
G01 X72.6164 Y89.0732
G01 X72.4893 Y89.0101
G01 X72.3592 Y88.9532
G01 X72.2266 Y88.9027
G01 X72.0916 Y88.8587
G01 X71.9547 Y88.8212
G01 X71.8161 Y88.7905
G01 X71.6762 Y88.7665
G01 X71.5353 Y88.7493
G01 X71.3937 Y88.7390
G01 X71.2518 Y88.7356
G01 X57.2545
G01 X57.0950 Y88.7359
G01 X56.9359 Y88.7452
G01 X56.7775 Y88.7636
G01 X56.6204 Y88.7908
G01 X56.4651 Y88.8270
G01 X56.3121 Y88.8718
G01 X56.1618 Y88.9252
G01 X56.0149 Y88.9870
G01 X55.8716 Y89.0571
G01 X55.7326 Y89.1351
G01 X55.5982 Y89.2209
G01 X55.4688 Y89.3141
G01 X55.3450 Y89.4145
G01 X55.2270 Y89.5218
G01 X55.1152 Y89.6355
G01 X55.0101 Y89.7554
G01 X55.1532 Y89.8962
M107
G00 Z2.0000


;No. 22: Hole 31
G00 X55.1532 Y96.9032 Z2.0000
G00 Z0.5000
G01 Z0.0000 F400
G01 Z-4.0000
M106 S240
G01 X73.3327 F1000
G01 X73.4905 Y96.7798
G01 X73.3850 Y96.6604
G01 X73.2731 Y96.5470
G01 X73.1552 Y96.4400
G01 X73.0315 Y96.3396
G01 X72.9025 Y96.2461
G01 X72.7685 Y96.1600
G01 X72.6300 Y96.0813
G01 X72.4873 Y96.0103
G01 X72.3410 Y95.9474
G01 X72.1914 Y95.8926
G01 X72.0391 Y95.8461
G01 X71.8844 Y95.8081
G01 X71.7278 Y95.7786
G01 X71.5699 Y95.7579
G01 X71.4110 Y95.7458
G01 X71.2518 Y95.7426
G01 X57.2546
G01 X57.1119 Y95.7433
G01 X56.9694 Y95.7511
G01 X56.8275 Y95.7660
G01 X56.6865 Y95.7880
G01 X56.5468 Y95.8170
G01 X56.4087 Y95.8528
G01 X56.2726 Y95.8956
G01 X56.1387 Y95.9450
G01 X56.0075 Y96.0011
G01 X55.8793 Y96.0636
G01 X55.7543 Y96.1325
G01 X55.6329 Y96.2075
G01 X55.5154 Y96.2884
G01 X55.4021 Y96.3751
G01 X55.2932 Y96.4674
G01 X55.1891 Y96.5649
G01 X55.0900 Y96.6676
G01 X54.9961 Y96.7750
G01 X54.9076 Y96.8870
G01 X54.8249 Y97.0032
G01 X54.7481 Y97.1234
G01 X54.6773 Y97.2474
G01 X54.6128 Y97.3746
G01 X54.5547 Y97.5050
G01 X54.5032 Y97.6380
G01 X54.4584 Y97.7735
G01 X54.4204 Y97.9110
G01 X54.3893 Y98.0503
G01 X54.3914 Y98.0638
G01 X74.1102 Y98.0637
G01 X74.1127 Y98.0518
G01 X74.0874 Y97.9352
G01 X74.0571 Y97.8197
G01 X74.0216 Y97.7057
G01 X73.9813 Y97.5934
G01 X73.9360 Y97.4829
G01 X73.8859 Y97.3746
G01 X73.8311 Y97.2685
G01 X73.7717 Y97.1650
G01 X73.7078 Y97.0642
G01 X73.6395 Y96.9662
G01 X73.5670 Y96.8714
G01 X73.4905 Y96.7798
G01 X73.3327 Y96.9032
M107
G00 Z2.0000


;No. 23: Hole 32
G00 X81.7564 Y96.6462 Z2.0000
G00 Z0.5000
G01 Z0.0000 F400
G01 Z-4.0000
M106 S240
G01 X100.3024 F1000
G01 X83.7483
G01 Y95.1462
G01 X81.7564
G01 Y93.6462
G01 X83.6775
G01 Y92.1462
G01 X81.7564
G01 Y90.6462
G01 X101.1951
G01 Y89.1462
G01 X81.7564
G01 X99.2740
G01 Y87.6462
G01 X101.1951
G01 Y86.1462
G01 X99.2740
G01 X99.2032 Y84.6462
G01 X101.1951
G01 Y83.1462
G01 X82.6470
G01 X82.5336 Y83.3130
G01 X82.6339 Y83.4001
G01 X82.7382 Y83.4824
G01 X82.8462 Y83.5597
G01 X82.9578 Y83.6319
G01 X83.0726 Y83.6987
G01 X83.1905 Y83.7601
G01 X83.3111 Y83.8158
G01 X83.4341 Y83.8659
G01 X83.5594 Y83.9101
G01 X83.6866 Y83.9483
G01 X83.8155 Y83.9806
G01 X83.9458 Y84.0068
G01 X84.0771 Y84.0268
G01 X84.2092 Y84.0407
G01 X84.3419 Y84.0483
G01 X84.4747 Y84.0497
G01 X98.0740
G01 X98.1176 Y84.0506
G01 X98.1611 Y84.0535
G01 X98.2045 Y84.0582
G01 X98.2476 Y84.0649
G01 X98.2904 Y84.0734
G01 X98.3328 Y84.0838
G01 X98.3747 Y84.0960
G01 X98.4160 Y84.1100
G01 X98.4567 Y84.1258
G01 X98.4966 Y84.1434
G01 X98.5357 Y84.1627
G01 X98.5740 Y84.1837
G01 X98.6113 Y84.2063
G01 X98.6476 Y84.2305
G01 X98.6827 Y84.2563
G01 X98.7168 Y84.2836
G01 X98.7496 Y84.3124
G01 X98.7811 Y84.3426
G01 X98.8113 Y84.3741
G01 X98.8400 Y84.4069
G01 X98.8673 Y84.4409
G01 X98.8931 Y84.4761
G01 X98.9174 Y84.5124
G01 X98.9400 Y84.5497
G01 X98.9610 Y84.5879
G01 X98.9803 Y84.6271
G01 X98.9979 Y84.6670
G01 X99.0137 Y84.7077
G01 X99.0277 Y84.7490
G01 X99.0399 Y84.7909
G01 X99.0503 Y84.8332
G01 X99.0588 Y84.8760
G01 X99.0654 Y84.9191
G01 X99.0702 Y84.9625
G01 X99.0730 Y85.0061
G01 X99.0740 Y85.0497
G01 Y87.7356
G01 X99.0730 Y87.7792
G01 X99.0702 Y87.8228
G01 X99.0654 Y87.8661
G01 X99.0588 Y87.9093
G01 X99.0503 Y87.9520
G01 X99.0399 Y87.9944
G01 X99.0277 Y88.0363
G01 X99.0137 Y88.0776
G01 X98.9979 Y88.1183
G01 X98.9803 Y88.1582
G01 X98.9610 Y88.1974
G01 X98.9400 Y88.2356
G01 X98.9174 Y88.2729
G01 X98.8931 Y88.3092
G01 X98.8673 Y88.3444
G01 X98.8400 Y88.3784
G01 X98.8113 Y88.4112
G01 X98.7811 Y88.4427
G01 X98.7496 Y88.4729
G01 X98.7168 Y88.5017
G01 X98.6827 Y88.5290
G01 X98.6476 Y88.5548
G01 X98.6113 Y88.5790
G01 X98.5740 Y88.6016
G01 X98.5357 Y88.6226
G01 X98.4966 Y88.6419
G01 X98.4567 Y88.6595
G01 X98.4160 Y88.6753
G01 X98.3747 Y88.6893
G01 X98.3328 Y88.7015
G01 X98.2904 Y88.7119
G01 X98.2476 Y88.7204
G01 X98.2045 Y88.7271
G01 X98.1611 Y88.7318
G01 X98.1176 Y88.7347
G01 X98.0740 Y88.7356
G01 X81.5564
G01 Y98.0638
G01 X101.3351
G01 X101.3374 Y98.0520
G01 X101.3040 Y97.9141
G01 X101.2640 Y97.7779
G01 X101.2174 Y97.6439
G01 X101.1643 Y97.5122
G01 X101.1050 Y97.3833
G01 X101.0395 Y97.2574
G01 X100.9680 Y97.1348
G01 X100.8906 Y97.0158
G01 X100.8075 Y96.9007
G01 X100.7190 Y96.7898
G01 X100.6252 Y96.6833
G01 X100.5263 Y96.5815
G01 X100.4226 Y96.4845
G01 X100.3144 Y96.3927
G01 X100.2018 Y96.3063
G01 X100.0852 Y96.2254
G01 X99.9648 Y96.1502
G01 X99.8409 Y96.0810
G01 X99.7138 Y96.0178
G01 X99.5838 Y95.9609
G01 X99.4512 Y95.9104
G01 X99.3163 Y95.8663
G01 X99.1794 Y95.8288
G01 X99.0408 Y95.7980
G01 X98.9010 Y95.7739
G01 X98.7601 Y95.7566
G01 X98.6186 Y95.7462
G01 X98.4767 Y95.7427
G01 X84.8775
G01 X84.7990 Y95.7396
G01 X84.7210 Y95.7303
G01 X84.6440 Y95.7150
G01 X84.5685 Y95.6937
G01 X84.4948 Y95.6665
G01 X84.4235 Y95.6337
G01 X84.3550 Y95.5953
G01 X84.2897 Y95.5517
G01 X84.2280 Y95.5031
G01 X84.1704 Y95.4498
G01 X84.1171 Y95.3921
G01 X84.0685 Y95.3304
G01 X84.0248 Y95.2652
G01 X83.9865 Y95.1967
G01 X83.9536 Y95.1253
G01 X83.9264 Y95.0517
G01 X83.9051 Y94.9761
G01 X83.8898 Y94.8991
G01 X83.8806 Y94.8211
G01 X83.8775 Y94.7427
G01 Y92.0567
G01 X83.8806 Y91.9783
G01 X83.8898 Y91.9003
G01 X83.9051 Y91.8233
G01 X83.9264 Y91.7477
G01 X83.9536 Y91.6740
G01 X83.9865 Y91.6027
G01 X84.0248 Y91.5342
G01 X84.0685 Y91.4689
G01 X84.1171 Y91.4073
G01 X84.1704 Y91.3496
G01 X84.2280 Y91.2963
G01 X84.2897 Y91.2477
G01 X84.3550 Y91.2041
G01 X84.4235 Y91.1657
G01 X84.4948 Y91.1329
G01 X84.5685 Y91.1057
G01 X84.6440 Y91.0844
G01 X84.7210 Y91.0690
G01 X84.7990 Y91.0598
G01 X84.8775 Y91.0567
G01 X101.3951
G01 Y81.7286
G01 X81.6164
G01 X81.6498 Y81.8804
G01 X81.6918 Y82.0300
G01 X81.7420 Y82.1772
G01 X81.8003 Y82.3212
G01 X81.8667 Y82.4618
G01 X81.9408 Y82.5985
G01 X82.0224 Y82.7308
G01 X82.1112 Y82.8583
G01 X82.2071 Y82.9807
G01 X82.3097 Y83.0975
G01 X82.4186 Y83.2084
G01 X82.5336 Y83.3130
G01 X82.6470 Y83.1462
M107
G00 Z2.0000


;No. 24: Hole 35
G00 X108.9797 Y83.1462 Z2.0000
G00 Z0.5000
G01 Z0.0000 F400
G01 Z-4.0000
M106 S240
G01 X127.9791 F1000
G01 X110.9717
G01 Y84.6462
G01 X108.9797
G01 Y86.1462
G01 X110.9009
G01 Y87.6462
G01 X108.9797
G01 Y89.1462
G01 X110.9009
G01 Y90.6462
G01 X108.9797
G01 Y92.1462
G01 X110.9009
G01 Y93.6462
G01 X108.9797
G01 Y95.1462
G01 X110.9009
G01 Y96.6462
G01 X108.9797
G01 X108.7797 Y96.6335
G01 Y98.0638
G01 X111.1009
G01 Y85.0497
G01 X111.1039 Y84.9712
G01 X111.1132 Y84.8932
G01 X111.1285 Y84.8162
G01 X111.1498 Y84.7407
G01 X111.1770 Y84.6670
G01 X111.2099 Y84.5957
G01 X111.2482 Y84.5272
G01 X111.2918 Y84.4619
G01 X111.3405 Y84.4002
G01 X111.3938 Y84.3426
G01 X111.4514 Y84.2893
G01 X111.5131 Y84.2407
G01 X111.5784 Y84.1970
G01 X111.6469 Y84.1587
G01 X111.7182 Y84.1258
G01 X111.7918 Y84.0986
G01 X111.8674 Y84.0773
G01 X111.9444 Y84.0620
G01 X112.0224 Y84.0528
G01 X112.1009 Y84.0497
G01 X128.5585
G01 X128.5610 Y84.0378
G01 X128.5277 Y83.8998
G01 X128.4877 Y83.7636
G01 X128.4412 Y83.6295
G01 X128.3883 Y83.4978
G01 X128.3290 Y83.3688
G01 X128.2635 Y83.2428
G01 X128.1920 Y83.1202
G01 X128.1146 Y83.0012
G01 X128.0316 Y82.8860
G01 X127.9430 Y82.7751
G01 X127.8492 Y82.6685
G01 X127.7503 Y82.5667
G01 X127.6466 Y82.4697
G01 X127.5384 Y82.3779
G01 X127.4258 Y82.2914
G01 X127.3091 Y82.2105
G01 X127.1887 Y82.1354
G01 X127.0648 Y82.0662
G01 X126.9376 Y82.0031
G01 X126.8075 Y81.9462
G01 X126.6749 Y81.8957
G01 X126.5399 Y81.8516
G01 X126.4030 Y81.8142
G01 X126.2644 Y81.7835
G01 X126.1245 Y81.7595
G01 X125.9836 Y81.7423
G01 X125.8420 Y81.7320
G01 X125.7001 Y81.7286
G01 X108.7797
G01 Y96.6335
G01 X108.9797 Y96.6462
M107
G00 Z2.0000


;No. 25: Hole 36
G00 X136.8250 Y96.9032 Z2.0000
G00 Z0.5000
G01 Z0.0000 F400
G01 Z-4.0000
M106 S240
G01 X155.0046 F1000
G01 X155.1625 Y96.7800
G01 X155.0570 Y96.6607
G01 X154.9452 Y96.5474
G01 X154.8273 Y96.4404
G01 X154.7037 Y96.3400
G01 X154.5748 Y96.2466
G01 X154.4409 Y96.1605
G01 X154.3025 Y96.0818
G01 X154.1599 Y96.0109
G01 X154.0137 Y95.9479
G01 X153.8642 Y95.8931
G01 X153.7120 Y95.8465
G01 X153.5574 Y95.8085
G01 X153.4009 Y95.7790
G01 X153.2431 Y95.7581
G01 X153.0843 Y95.7460
G01 X152.9252 Y95.7426
G01 X138.9280
G01 X138.7853 Y95.7433
G01 X138.6428 Y95.7511
G01 X138.5010 Y95.7661
G01 X138.3600 Y95.7880
G01 X138.2203 Y95.8170
G01 X138.0822 Y95.8529
G01 X137.9461 Y95.8956
G01 X137.8123 Y95.9450
G01 X137.6811 Y96.0011
G01 X137.5528 Y96.0636
G01 X137.4279 Y96.1324
G01 X137.3065 Y96.2074
G01 X137.1890 Y96.2883
G01 X137.0757 Y96.3750
G01 X136.9668 Y96.4672
G01 X136.8627 Y96.5648
G01 X136.7635 Y96.6673
G01 X136.6696 Y96.7747
G01 X136.5812 Y96.8867
G01 X136.4984 Y97.0029
G01 X136.4215 Y97.1231
G01 X136.3508 Y97.2470
G01 X136.2862 Y97.3742
G01 X136.2281 Y97.5045
G01 X136.1766 Y97.6376
G01 X136.1317 Y97.7730
G01 X136.0937 Y97.9105
G01 X136.0626 Y98.0497
G01 X136.0647 Y98.0638
G01 X155.7836 Y98.0637
G01 X155.7859 Y98.0520
G01 X155.7605 Y97.9353
G01 X155.7300 Y97.8198
G01 X155.6945 Y97.7058
G01 X155.6540 Y97.5935
G01 X155.6086 Y97.4831
G01 X155.5584 Y97.3747
G01 X155.5035 Y97.2687
G01 X155.4440 Y97.1651
G01 X155.3800 Y97.0643
G01 X155.3117 Y96.9664
G01 X155.2391 Y96.8715
G01 X155.1625 Y96.7800
G01 X155.0046 Y96.9032
M107
G00 Z2.0000


;No. 26: Hole 37
G00 X155.6435 Y89.3926 Z2.0000
G00 Z0.5000
G01 Z0.0000 F400
G01 Z-4.0000
M106 S240
G01 X136.2047 F1000
G01 Y87.8926
G01 X138.1370
G01 X138.1258 Y86.3926
G01 X136.2047
G01 Y84.8926
G01 X138.1258
G01 Y83.3926
G01 X136.2047
M107
G00 Z2.0000
G00 X153.7112 Y89.3926
G00 Z0.5000
G01 Z-4.0000 F400
M106 S240
G01 Y87.8926 F1000
G01 X155.6435
G01 Y86.3926
G01 X153.7224
G01 Y84.8926
G01 X155.6435
G01 Y83.3926
G01 X153.7224
G01 X153.5224 Y83.4000
G01 Y87.7356
G01 X153.5214 Y87.7792
G01 X153.5186 Y87.8228
G01 X153.5138 Y87.8661
G01 X153.5072 Y87.9093
G01 X153.4987 Y87.9520
G01 X153.4883 Y87.9944
G01 X153.4761 Y88.0363
G01 X153.4621 Y88.0776
G01 X153.4462 Y88.1183
G01 X153.4287 Y88.1582
G01 X153.4094 Y88.1974
G01 X153.3884 Y88.2356
G01 X153.3658 Y88.2729
G01 X153.3415 Y88.3092
G01 X153.3157 Y88.3444
G01 X153.2884 Y88.3784
G01 X153.2596 Y88.4112
G01 X153.2295 Y88.4427
G01 X153.1980 Y88.4729
G01 X153.1652 Y88.5017
G01 X153.1311 Y88.5290
G01 X153.0959 Y88.5548
G01 X153.0597 Y88.5790
G01 X153.0224 Y88.6016
G01 X152.9841 Y88.6226
G01 X152.9450 Y88.6419
G01 X152.9050 Y88.6595
G01 X152.8644 Y88.6753
G01 X152.8231 Y88.6893
G01 X152.7812 Y88.7015
G01 X152.7388 Y88.7119
G01 X152.6960 Y88.7204
G01 X152.6529 Y88.7271
G01 X152.6095 Y88.7318
G01 X152.5660 Y88.7347
G01 X152.5224 Y88.7356
G01 X139.3258
G01 X139.2474 Y88.7325
G01 X139.1694 Y88.7233
G01 X139.0924 Y88.7080
G01 X139.0168 Y88.6867
G01 X138.9432 Y88.6595
G01 X138.8719 Y88.6266
G01 X138.8033 Y88.5882
G01 X138.7381 Y88.5446
G01 X138.6764 Y88.4960
G01 X138.6187 Y88.4427
G01 X138.5654 Y88.3851
G01 X138.5168 Y88.3234
G01 X138.4732 Y88.2581
G01 X138.4348 Y88.1896
G01 X138.4020 Y88.1183
G01 X138.3748 Y88.0446
G01 X138.3535 Y87.9691
G01 X138.3382 Y87.8920
G01 X138.3289 Y87.8141
G01 X138.3258 Y87.7356
G01 Y81.7286
G01 X136.0047
G01 Y91.0567
G01 X155.8435
G01 Y81.7286
G01 X153.5224
G01 Y83.4000
G01 X153.7224 Y83.3926
M107
G00 Z2.0000


;No. 27: Hole 29
G00 X91.9078 Y120.2816 Z2.0000
G00 Z0.5000
G01 Z0.0000 F400
G01 Z-4.0000
M106 S240
G01 X91.0100 F1000
G01 X90.7413 Y121.7816
G01 X92.1739
G01 X92.4401 Y123.2816
G01 X90.4726
G01 X90.2039 Y124.7816
G01 X92.7064
G01 X92.9728 Y126.2816
G01 X89.9352
G01 X89.6665 Y127.7816
G01 X93.2393
G01 X93.5059 Y129.2816
G01 X89.3979
G01 X89.1292 Y130.7816
G01 X93.7725
G01 X94.0392 Y132.2816
G01 X88.8605
G01 X88.5918 Y133.7816
G01 X94.3059
G01 X94.5727 Y135.2816
G01 X88.3231
G01 X88.0544 Y136.7816
G01 X94.8395
G01 X95.1064 Y138.2816
G01 X87.7857
G01 X87.5170 Y139.7816
G01 X95.3733
G01 X95.6403 Y141.2816
G01 X87.2484
G01 X86.9797 Y142.7816
G01 X95.9072
G01 X96.1743 Y144.2816
G01 X86.7110
G01 X86.4423 Y145.7816
G01 X96.4413
G01 X96.7084 Y147.2816
G01 X86.1736
G01 X85.9049 Y148.7816
G01 X96.9756
G01 X97.2427 Y150.2816
G01 X85.6362
G01 X85.3675 Y151.7816
G01 X97.5099
G01 X97.7772 Y153.2816
G01 X85.0989
G01 X84.8302 Y154.7816
G01 X98.0444
G01 X98.3117 Y156.2816
G01 X84.5615
G01 X84.2928 Y157.7816
G01 X98.5790
G01 X98.8464 Y159.2816
G01 X84.0241
G01 X83.7554 Y160.7816
G01 X99.1138
G01 X99.3812 Y162.2816
G01 X83.4867
G01 X83.2180 Y163.7816
G01 X99.6487
G01 X99.9162 Y165.2816
G01 X82.9493
G01 X82.6807 Y166.7816
G01 X100.1837
G01 X100.4513 Y168.2816
G01 X82.4120
G01 X82.1433 Y169.7816
G01 X100.7189
G01 X100.9865 Y171.2816
G01 X81.8746
G01 X81.6059 Y172.7816
G01 X101.2542
G01 X101.5219 Y174.2816
G01 X81.3372
G01 X81.0685 Y175.7816
G01 X101.7897
G01 X102.0575 Y177.2816
G01 X80.7998
G01 X80.5312 Y178.7816
G01 X102.3254
G01 X102.5934 Y180.2816
G01 X80.2625
G01 X79.9938 Y181.7816
G01 X102.8614
G01 X103.1295 Y183.2816
G01 X79.7251
G01 X79.4564 Y184.7816
G01 X103.3976
G01 X103.6659 Y186.2816
G01 X79.1877
G01 X78.9190 Y187.7816
G01 X103.9343
G01 X104.2028 Y189.2816
G01 X78.6503
G01 X78.3817 Y190.7816
G01 X104.4716
G01 X104.7405 Y192.2816
G01 X78.1130
G01 X77.8443 Y193.7816
G01 X105.0098
G01 X105.2798 Y195.2816
G01 X92.6859
G01 X93.9184 Y196.7816
G01 X105.5518
G01 Y198.2816
G01 X106.2813
G01 X95.1508
G01 X96.3833 Y199.7816
G01 X139.4877
G01 X138.5400 Y198.2816
G01 X113.9451
G01 X122.4475
G01 Y196.7816
G01 X137.0111
G01 X135.2146 Y195.2816
G01 X125.1089
G01 X126.5050 Y193.7816
G01 X133.1210
G01 X130.6393 Y192.2816
G01 X127.3120
M107
G00 Z2.0000
G00 X135.8235 Y199.7816
G00 Z0.5000
G01 Z-4.0000 F400
M106 S240
G01 Y201.2816 F1000
G01 X97.6158
G01 X98.8478 Y202.7816
G01 X131.6846
G01 X126.8531
G01 Y204.2816
G01 X100.0816
G01 X101.3185 Y205.7816
G01 X120.9691
G01 X113.0037
G01 Y207.2816
G01 X102.5603
M107
G00 Z2.0000
G00 X90.3328 Y193.7816
G00 Z0.5000
G01 Z-4.0000 F400
M106 S240
G01 Y195.2816 F1000
G01 X77.5756
G01 X77.3069 Y196.7816
G01 X89.0465
G01 X87.7894 Y198.2816
G01 X76.6508
G01 Y199.7816
G01 X86.5440
G01 X43.4674
G01 X44.3839 Y198.2816
G01 X68.8463
G01 X60.4514
G01 Y196.7816
G01 X45.9047
G01 X47.6976 Y195.2816
G01 X57.8043
G01 X56.4174 Y193.7816
G01 X49.7991
G01 X52.2610 Y192.2816
G01 X55.5860
M107
G00 Z2.0000
G00 X47.0626 Y199.7816
G00 Z0.5000
G01 Z-4.0000 F400
M106 S240
G01 Y201.2816 F1000
G01 X85.3067
G01 X84.0753 Y202.7816
G01 X51.2025
G01 X56.0635
G01 Y204.2816
G01 X82.8443
G01 X81.6133 Y205.7816
G01 X61.9851
G01 X69.9365
G01 Y207.2816
G01 X80.3823
G01 X80.5440 Y207.3999
G01 X84.9965 Y201.9744
G01 X86.4069 Y200.2541
G01 X87.8304 Y198.5445
G01 X89.2669 Y196.8460
G01 X90.7163 Y195.1584
G01 X90.7753 Y195.0892
G01 X90.8403 Y195.0255
G01 X90.9107 Y194.9679
G01 X90.9859 Y194.9168
G01 X91.0654 Y194.8726
G01 X91.1485 Y194.8357
G01 X91.2346 Y194.8063
G01 X91.3229 Y194.7847
G01 X91.4129 Y194.7711
G01 X91.5036 Y194.7655
G01 X91.5946 Y194.7680
G01 X91.6849 Y194.7786
G01 X91.7739 Y194.7972
G01 X91.8609 Y194.8237
G01 X91.9452 Y194.8578
G01 X92.0262 Y194.8993
G01 X92.1031 Y194.9479
G01 X92.1754 Y195.0031
G01 X92.2424 Y195.0645
G01 X92.3038 Y195.1316
G01 X93.7619 Y196.9049
G01 X95.2196 Y198.6786
G01 X96.6769 Y200.4527
G01 X98.1336 Y202.2271
G01 X99.4216 Y203.7961
G01 X100.7129 Y205.3623
G01 X102.0077 Y206.9257
G01 X103.3060 Y208.4862
G01 X104.6400 Y208.4057
G01 X105.9729 Y208.3078
G01 X107.3043 Y208.1924
G01 X108.6342 Y208.0596
G01 X109.9622 Y207.9094
G01 X111.2881 Y207.7418
G01 X112.6117 Y207.5569
G01 X113.9328 Y207.3547
G01 X115.2511 Y207.1352
G01 X116.5664 Y206.8985
G01 X117.8785 Y206.6445
G01 X119.1872 Y206.3734
G01 X120.9731 Y205.9932
G01 X122.7520 Y205.5814
G01 X124.5233 Y205.1381
G01 X126.2865 Y204.6636
G01 X128.0410 Y204.1580
G01 X129.7862 Y203.6213
G01 X131.5218 Y203.0539
G01 X133.2469 Y202.4558
G01 X134.9613 Y201.8273
G01 X136.6642 Y201.1685
G01 X138.3552 Y200.4797
G01 X140.0338 Y199.7611
G01 X140.0434 Y199.7506
G01 X139.4172 Y198.9880
G01 X138.7635 Y198.2490
G01 X138.0831 Y197.5344
G01 X137.3769 Y196.8453
G01 X136.6458 Y196.1826
G01 X135.8910 Y195.5472
G01 X135.1133 Y194.9400
G01 X134.3138 Y194.3617
G01 X133.6739 Y193.9093
G01 X133.0237 Y193.4717
G01 X132.3635 Y193.0493
G01 X131.6938 Y192.6422
G01 X131.0149 Y192.2508
G01 X130.3270 Y191.8751
G01 X129.6307 Y191.5154
G01 X128.9263 Y191.1720
G01 X128.6044 Y191.0110
G01 X128.2817 Y190.8517
G01 X127.9583 Y190.6940
G01 X127.6340 Y190.5379
G01 X127.5212 Y191.0448
G01 X127.3766 Y191.5436
G01 X127.2008 Y192.0323
G01 X126.9945 Y192.5089
G01 X126.7585 Y192.9715
G01 X126.4938 Y193.4183
G01 X126.2014 Y193.8474
G01 X125.8825 Y194.2573
G01 X125.4887 Y194.6596
G01 X125.0703 Y195.0364
G01 X124.6291 Y195.3860
G01 X124.1666 Y195.7072
G01 X123.6849 Y195.9985
G01 X123.1858 Y196.2590
G01 X122.6712 Y196.4874
G01 X122.1433 Y196.6830
G01 X121.4576 Y196.9026
G01 X120.7658 Y197.1023
G01 X120.0686 Y197.2819
G01 X119.3664 Y197.4412
G01 X118.6600 Y197.5801
G01 X117.9498 Y197.6986
G01 X117.2365 Y197.7964
G01 X116.5206 Y197.8735
G01 X115.1352 Y197.9953
G01 X113.7476 Y198.0887
G01 X112.3583 Y198.1535
G01 X110.9681 Y198.1898
G01 X109.9513 Y198.2200
G01 X108.9342 Y198.2387
G01 X107.9170 Y198.2459
G01 X106.8998 Y198.2416
G01 X106.8101 Y198.2395
G01 X106.7209 Y198.2296
G01 X106.6330 Y198.2119
G01 X106.5469 Y198.1866
G01 X106.4634 Y198.1538
G01 X106.3830 Y198.1139
G01 X106.3065 Y198.0672
G01 X106.2343 Y198.0139
G01 X106.1670 Y197.9545
G01 X106.1052 Y197.8895
G01 X106.0494 Y197.8193
G01 X105.9998 Y197.7445
G01 X105.9570 Y197.6656
G01 X105.9212 Y197.5834
G01 X105.8928 Y197.4983
G01 X105.8719 Y197.4110
G01 X105.3494 Y194.5137
G01 X104.8277 Y191.6162
G01 X104.3068 Y188.7185
G01 X103.7868 Y185.8207
G01 X103.2677 Y182.9228
G01 X102.7494 Y180.0247
G01 X102.2320 Y177.1264
G01 X101.7155 Y174.2280
G01 X101.5623 Y173.3695
G01 X101.4090 Y172.5109
G01 X101.2558 Y171.6524
G01 X101.1026 Y170.7939
G01 X100.9494 Y169.9353
G01 X100.7963 Y169.0768
G01 X100.6431 Y168.2183
G01 X100.4900 Y167.3597
G01 X100.3368 Y166.5012
G01 X100.1837 Y165.6426
G01 X100.0306 Y164.7841
G01 X99.8775 Y163.9256
G01 X99.7244 Y163.0670
G01 X99.5713 Y162.2085
G01 X99.4182 Y161.3499
G01 X99.2652 Y160.4914
G01 X99.1121 Y159.6328
G01 X98.9591 Y158.7742
G01 X98.8061 Y157.9157
G01 X98.6531 Y157.0571
G01 X98.5001 Y156.1986
G01 X98.3471 Y155.3400
G01 X98.1941 Y154.4814
G01 X98.0411 Y153.6229
G01 X97.8881 Y152.7643
G01 X97.7352 Y151.9057
G01 X97.5822 Y151.0472
G01 X97.4293 Y150.1886
G01 X97.2764 Y149.3300
G01 X97.1235 Y148.4714
G01 X96.9706 Y147.6128
G01 X96.8177 Y146.7543
G01 X96.6648 Y145.8957
G01 X96.5119 Y145.0371
G01 X96.3591 Y144.1785
G01 X96.2062 Y143.3199
G01 X96.0534 Y142.4613
G01 X95.9005 Y141.6027
G01 X95.7477 Y140.7441
G01 X95.5949 Y139.8855
G01 X95.4421 Y139.0269
G01 X95.2894 Y138.1683
G01 X95.1366 Y137.3097
G01 X94.9839 Y136.4511
G01 X94.8311 Y135.5925
G01 X94.6784 Y134.7338
G01 X94.5257 Y133.8752
G01 X94.3730 Y133.0166
G01 X94.2203 Y132.1580
G01 X94.0677 Y131.2993
G01 X93.9150 Y130.4407
G01 X93.7624 Y129.5821
G01 X93.6098 Y128.7234
G01 X93.4572 Y127.8648
G01 X93.3047 Y127.0061
G01 X93.1521 Y126.1474
G01 X92.9996 Y125.2888
G01 X92.8471 Y124.4301
G01 X92.6947 Y123.5714
G01 X92.5422 Y122.7127
G01 X92.3898 Y121.8540
G01 X92.2375 Y120.9953
G01 X92.0852 Y120.1366
G01 X91.9329 Y119.2779
G01 X91.7806 Y118.4191
G01 X91.7009 Y117.9695
G01 X91.6213 Y117.5199
G01 X91.5416 Y117.0703
G01 X91.4620 Y116.6207
G01 X76.9838 Y197.4511
G01 X76.9657 Y197.5316
G01 X76.9410 Y197.6103
G01 X76.9101 Y197.6867
G01 X76.8730 Y197.7604
G01 X76.8300 Y197.8308
G01 X76.7813 Y197.8974
G01 X76.7275 Y197.9599
G01 X76.6687 Y198.0177
G01 X76.6054 Y198.0706
G01 X76.5379 Y198.1181
G01 X76.4669 Y198.1599
G01 X76.3926 Y198.1958
G01 X76.3157 Y198.2256
G01 X76.2366 Y198.2489
G01 X76.1558 Y198.2658
G01 X76.0740 Y198.2759
G01 X75.2236 Y198.2887
G01 X74.3732 Y198.2882
G01 X73.5229 Y198.2745
G01 X72.6729 Y198.2474
G01 X71.7079 Y198.2246
G01 X70.7433 Y198.1884
G01 X69.7794 Y198.1388
G01 X68.8162 Y198.0758
G01 X67.8540 Y197.9994
G01 X66.8929 Y197.9096
G01 X65.9332 Y197.8064
G01 X64.9750 Y197.6900
G01 X64.3147 Y197.5964
G01 X63.6582 Y197.4796
G01 X63.0061 Y197.3400
G01 X62.3593 Y197.1776
G01 X61.7187 Y196.9926
G01 X61.0849 Y196.7853
G01 X60.4587 Y196.5559
G01 X59.8410 Y196.3046
G01 X59.4214 Y196.1106
G01 X59.0143 Y195.8916
G01 X58.6211 Y195.6486
G01 X58.2432 Y195.3824
G01 X57.8820 Y195.0939
G01 X57.5389 Y194.7842
G01 X57.2149 Y194.4544
G01 X56.9114 Y194.1058
G01 X56.6295 Y193.7395
G01 X56.3700 Y193.3569
G01 X56.1340 Y192.9594
G01 X55.9224 Y192.5485
G01 X55.7192 Y192.0604
G01 X55.5452 Y191.5613
G01 X55.4012 Y191.0526
G01 X55.2876 Y190.5363
G01 X54.4466 Y190.9229
G01 X53.6153 Y191.3300
G01 X52.7943 Y191.7575
G01 X51.9841 Y192.2051
G01 X51.1852 Y192.6724
G01 X50.3980 Y193.1593
G01 X49.6231 Y193.6655
G01 X48.8608 Y194.1905
G01 X48.1117 Y194.7342
G01 X47.3762 Y195.2962
G01 X46.6548 Y195.8761
G01 X45.9479 Y196.4736
G01 X45.5314 Y196.8503
G01 X45.1240 Y197.2369
G01 X44.7259 Y197.6329
G01 X44.3372 Y198.0383
G01 X43.9583 Y198.4528
G01 X43.5892 Y198.8761
G01 X43.2303 Y199.3080
G01 X42.8817 Y199.7483
G01 X44.4221 Y200.4124
G01 X45.9733 Y201.0507
G01 X47.5350 Y201.6632
G01 X49.1065 Y202.2497
G01 X50.6876 Y202.8100
G01 X52.2778 Y203.3440
G01 X53.8766 Y203.8514
G01 X55.4837 Y204.3322
G01 X57.0985 Y204.7863
G01 X58.7206 Y205.2135
G01 X60.3496 Y205.6136
G01 X61.9851 Y205.9867
G01 X63.4378 Y206.3061
G01 X64.8947 Y206.6058
G01 X66.3556 Y206.8857
G01 X67.8201 Y207.1458
G01 X69.2881 Y207.3859
G01 X70.7591 Y207.6061
G01 X72.2330 Y207.8063
G01 X73.7095 Y207.9865
G01 X75.1883 Y208.1467
G01 X76.6692 Y208.2867
G01 X78.1518 Y208.4067
G01 X79.6359 Y208.5065
G01 X80.5440 Y207.3999
G01 X80.3823 Y207.2816
M107
G00 Z2.0000


;No. 28: Hole 28
G00 X70.6897 Y213.3270 Z2.0000
G00 Z0.5000
G01 Z0.0000 F400
G01 Z-4.0000
M106 S240
G01 X51.6408 F1000
G01 Y211.8270
G01 X46.6593
G01 X62.4645
G01 X56.3014
G01 Y210.3270
G01 X42.2154
G01 X38.1744 Y208.8270
G01 X51.1960
G01 X46.7602 Y207.3270
G01 X38.7917
G01 X39.5316 Y205.8270
G01 X42.7965
M107
G00 Z2.0000
G00 X57.3803 Y213.3270
G00 Z0.5000
G01 Z-4.0000 F400
M106 S240
G01 Y214.8270 F1000
G01 X125.5714
G01 Y213.3270
G01 X131.2801
G01 X112.2441
G01 X120.4066
G01 Y211.8270
G01 X136.2422
G01 X140.6924 Y210.3270
G01 X126.5884
G01 X131.7263
G01 Y208.8270
G01 X144.7470
G01 X144.1438 Y207.3270
G01 X136.1805
G01 X140.1362 Y205.8270
G01 X143.4183
M107
G00 Z2.0000
G00 X118.6368 Y214.8270
G00 Z0.5000
G01 Z-4.0000 F400
M106 S240
G01 Y216.3270 F1000
G01 X64.3360
G01 X73.8381
G01 Y217.8270
G01 X109.1060
G01 X109.0497 Y218.0355
G01 X111.3587 Y217.7297
G01 X113.6627 Y217.3881
G01 X115.9611 Y217.0108
G01 X118.2533 Y216.5979
G01 X120.5389 Y216.1495
G01 X122.8172 Y215.6657
G01 X125.0878 Y215.1466
G01 X127.3500 Y214.5923
G01 X129.6034 Y214.0031
G01 X131.8474 Y213.3789
G01 X134.0814 Y212.7200
G01 X136.3049 Y212.0266
G01 X138.5174 Y211.2987
G01 X140.7183 Y210.5366
G01 X142.9072 Y209.7405
G01 X145.0834 Y208.9105
G01 X144.5765 Y207.7868
G01 X144.0521 Y206.6712
G01 X143.5103 Y205.5639
G01 X142.9512 Y204.4653
G01 X142.1292 Y204.7910
G01 X141.3091 Y205.1213
G01 X140.4908 Y205.4562
G01 X139.6744 Y205.7957
G01 X137.8584 Y206.4891
G01 X136.0321 Y207.1550
G01 X134.1958 Y207.7930
G01 X132.3501 Y208.4031
G01 X130.4954 Y208.9851
G01 X128.6320 Y209.5389
G01 X126.7605 Y210.0643
G01 X124.8812 Y210.5613
G01 X122.9945 Y211.0297
G01 X121.1010 Y211.4694
G01 X119.2010 Y211.8804
G01 X117.2950 Y212.2624
G01 X115.3834 Y212.6155
G01 X113.4667 Y212.9395
G01 X111.5453 Y213.2345
G01 X109.6196 Y213.5002
G01 X107.6902 Y213.7366
G01 X105.7573 Y213.9438
G01 X103.8216 Y214.1216
G01 X101.8833 Y214.2700
G01 X99.6761 Y214.3767
G01 X97.4678 Y214.4595
G01 X95.2587 Y214.5182
G01 X93.0491 Y214.5528
G01 X90.8393 Y214.5635
G01 X88.6295 Y214.5500
G01 X86.4200 Y214.5125
G01 X84.2110 Y214.4510
G01 X82.0727 Y214.3380
G01 X79.9366 Y214.1895
G01 X77.8032 Y214.0055
G01 X75.6732 Y213.7861
G01 X73.5471 Y213.5314
G01 X71.4256 Y213.2413
G01 X69.3092 Y212.9160
G01 X67.1984 Y212.5557
G01 X65.0940 Y212.1602
G01 X62.9964 Y211.7299
G01 X60.9062 Y211.2648
G01 X58.8240 Y210.7650
G01 X56.7505 Y210.2307
G01 X54.6861 Y209.6620
G01 X52.6315 Y209.0591
G01 X50.5871 Y208.4221
G01 X49.2486 Y207.9743
G01 X47.9145 Y207.5139
G01 X46.5847 Y207.0407
G01 X45.2596 Y206.5548
G01 X43.9391 Y206.0564
G01 X42.6235 Y205.5454
G01 X41.3128 Y205.0219
G01 X40.0071 Y204.4860
G01 X39.4384 Y205.5778
G01 X38.8861 Y206.6780
G01 X38.3504 Y207.7864
G01 X37.8313 Y208.9027
G01 X39.8810 Y209.6860
G01 X41.9419 Y210.4392
G01 X44.0136 Y211.1620
G01 X46.0957 Y211.8544
G01 X48.1878 Y212.5161
G01 X50.2893 Y213.1471
G01 X52.3998 Y213.7472
G01 X54.5190 Y214.3163
G01 X56.6462 Y214.8542
G01 X58.7812 Y215.3608
G01 X60.9233 Y215.8361
G01 X63.0721 Y216.2799
G01 X65.2273 Y216.6921
G01 X67.3883 Y217.0727
G01 X69.5546 Y217.4215
G01 X71.7258 Y217.7385
G01 X73.9014 Y218.0237
G01 X76.0809 Y218.2768
G01 X78.2640 Y218.4980
G01 X80.4500 Y218.6872
G01 X82.6386 Y218.8442
G01 X84.8292 Y218.9691
G01 X87.0215 Y219.0619
G01 X89.2149 Y219.1225
G01 X90.8715 Y219.1392
G01 X92.5283 Y219.1363
G01 X94.1849 Y219.1140
G01 X95.8411 Y219.0721
G01 X97.4967 Y219.0107
G01 X99.1515 Y218.9298
G01 X100.8052 Y218.8294
G01 X102.4577 Y218.7095
G01 X104.1085 Y218.5701
G01 X105.7577 Y218.4113
G01 X107.4048 Y218.2331
G01 X109.0497 Y218.0355
G01 X109.1060 Y217.8270
M107
G00 Z2.0000
G00 X0.0000 Y0.0000
G00 Z0.0000

M05
