;Project TeslaParkingV5_2xSteingrau
;Created by Estlcam version 11 build 11,235
;Machining time about 00:42:42 hours

G90
M03 S18000
G00 X0.0000 Y0.0000 Z0.0000
G00 Z2.0000


;No. 1: Helical drill 8
G00 X23.8458 Y32.6458
G00 Z0.5000
M106 S240
G01 X23.8412 Y32.5412 Z0.4722 F400 S18000
G01 X23.8276 Y32.4375 Z0.4444
G01 X23.8049 Y32.3353 Z0.4167
G01 X23.7734 Y32.2354 Z0.3889
G01 X23.7334 Y32.1387 Z0.3611
G01 X23.6850 Y32.0458 Z0.3333
G01 X23.6288 Y31.9576 Z0.3056
G01 X23.5651 Y31.8745 Z0.2778
G01 X23.4943 Y31.7973 Z0.2500
G01 X23.4172 Y31.7266 Z0.2222
G01 X23.3341 Y31.6629 Z0.1944
G01 X23.2458 Y31.6066 Z0.1667
G01 X23.1530 Y31.5583 Z0.1389
G01 X23.0562 Y31.5182 Z0.1111
G01 X22.9564 Y31.4867 Z0.0833
G01 X22.8542 Y31.4641 Z0.0556
G01 X22.7504 Y31.4504 Z0.0278
G01 X22.6458 Y31.4459 Z0.0000
G01 X22.5413 Y31.4504 Z-0.0278
G01 X22.4375 Y31.4641 Z-0.0556
G01 X22.3353 Y31.4867 Z-0.0833
G01 X22.2354 Y31.5182 Z-0.1111
G01 X22.1387 Y31.5583 Z-0.1389
G01 X22.0459 Y31.6066 Z-0.1667
G01 X21.9576 Y31.6629 Z-0.1944
G01 X21.8745 Y31.7266 Z-0.2222
G01 X21.7973 Y31.7973 Z-0.2500
G01 X21.7266 Y31.8745 Z-0.2778
G01 X21.6629 Y31.9576 Z-0.3056
G01 X21.6066 Y32.0458 Z-0.3333
G01 X21.5583 Y32.1387 Z-0.3611
G01 X21.5182 Y32.2354 Z-0.3889
G01 X21.4868 Y32.3353 Z-0.4167
G01 X21.4641 Y32.4375 Z-0.4444
G01 X21.4504 Y32.5412 Z-0.4722
G01 X21.4459 Y32.6458 Z-0.5000
G01 X21.4504 Y32.7504 Z-0.5278
G01 X21.4641 Y32.8542 Z-0.5556
G01 X21.4868 Y32.9564 Z-0.5833
G01 X21.5182 Y33.0562 Z-0.6111
G01 X21.5583 Y33.1530 Z-0.6389
G01 X21.6066 Y33.2458 Z-0.6667
G01 X21.6629 Y33.3341 Z-0.6944
G01 X21.7266 Y33.4172 Z-0.7222
G01 X21.7973 Y33.4943 Z-0.7500
G01 X21.8745 Y33.5651 Z-0.7778
G01 X21.9576 Y33.6288 Z-0.8056
G01 X22.0459 Y33.6850 Z-0.8333
G01 X22.1387 Y33.7334 Z-0.8611
G01 X22.2354 Y33.7734 Z-0.8889
G01 X22.3353 Y33.8049 Z-0.9167
G01 X22.4375 Y33.8276 Z-0.9444
G01 X22.5413 Y33.8412 Z-0.9722
G01 X22.6458 Y33.8458 Z-1.0000
G01 X22.7504 Y33.8412 Z-1.0278
G01 X22.8542 Y33.8276 Z-1.0556
G01 X22.9564 Y33.8049 Z-1.0833
G01 X23.0562 Y33.7734 Z-1.1111
G01 X23.1530 Y33.7334 Z-1.1389
G01 X23.2458 Y33.6850 Z-1.1667
G01 X23.3341 Y33.6288 Z-1.1944
G01 X23.4172 Y33.5651 Z-1.2222
G01 X23.4943 Y33.4943 Z-1.2500
G01 X23.5651 Y33.4172 Z-1.2778
G01 X23.6288 Y33.3341 Z-1.3056
G01 X23.6850 Y33.2458 Z-1.3333
G01 X23.7334 Y33.1530 Z-1.3611
G01 X23.7734 Y33.0562 Z-1.3889
G01 X23.8049 Y32.9564 Z-1.4167
G01 X23.8276 Y32.8542 Z-1.4444
G01 X23.8412 Y32.7504 Z-1.4722
G01 X23.8458 Y32.6458 Z-1.5000
G01 X23.8412 Y32.5412 Z-1.5278
G01 X23.8276 Y32.4375 Z-1.5556
G01 X23.8049 Y32.3353 Z-1.5833
G01 X23.7734 Y32.2354 Z-1.6111
G01 X23.7334 Y32.1387 Z-1.6389
G01 X23.6850 Y32.0458 Z-1.6667
G01 X23.6288 Y31.9576 Z-1.6944
G01 X23.5651 Y31.8745 Z-1.7222
G01 X23.4943 Y31.7973 Z-1.7500
G01 X23.4172 Y31.7266 Z-1.7778
G01 X23.3341 Y31.6629 Z-1.8056
G01 X23.2458 Y31.6066 Z-1.8333
G01 X23.1530 Y31.5583 Z-1.8611
G01 X23.0562 Y31.5182 Z-1.8889
G01 X22.9564 Y31.4867 Z-1.9167
G01 X22.8542 Y31.4641 Z-1.9444
G01 X22.7504 Y31.4504 Z-1.9722
G01 X22.6458 Y31.4459 Z-2.0000
G01 X22.5413 Y31.4504 Z-2.0278
G01 X22.4375 Y31.4641 Z-2.0556
G01 X22.3353 Y31.4867 Z-2.0833
G01 X22.2354 Y31.5182 Z-2.1111
G01 X22.1387 Y31.5583 Z-2.1389
G01 X22.0459 Y31.6066 Z-2.1667
G01 X21.9576 Y31.6629 Z-2.1944
G01 X21.8745 Y31.7266 Z-2.2222
G01 X21.7973 Y31.7973 Z-2.2500
G01 X21.7266 Y31.8745 Z-2.2778
G01 X21.6629 Y31.9576 Z-2.3056
G01 X21.6066 Y32.0458 Z-2.3333
G01 X21.5583 Y32.1387 Z-2.3611
G01 X21.5182 Y32.2354 Z-2.3889
G01 X21.4868 Y32.3353 Z-2.4167
G01 X21.4641 Y32.4375 Z-2.4444
G01 X21.4504 Y32.5412 Z-2.4722
G01 X21.4459 Y32.6458 Z-2.5000
G01 X21.4504 Y32.7504 Z-2.5278
G01 X21.4641 Y32.8542 Z-2.5556
G01 X21.4868 Y32.9564 Z-2.5833
G01 X21.5182 Y33.0562 Z-2.6111
G01 X21.5583 Y33.1530 Z-2.6389
G01 X21.6066 Y33.2458 Z-2.6667
G01 X21.6629 Y33.3341 Z-2.6944
G01 X21.7266 Y33.4172 Z-2.7222
G01 X21.7973 Y33.4943 Z-2.7500
G01 X21.8745 Y33.5651 Z-2.7778
G01 X21.9576 Y33.6288 Z-2.8056
G01 X22.0459 Y33.6850 Z-2.8333
G01 X22.1387 Y33.7334 Z-2.8611
G01 X22.2354 Y33.7734 Z-2.8889
G01 X22.3353 Y33.8049 Z-2.9167
G01 X22.4375 Y33.8276 Z-2.9444
G01 X22.5413 Y33.8412 Z-2.9722
G01 X22.6458 Y33.8458 Z-3.0000
G01 X22.7504 Y33.8412 Z-3.0278
G01 X22.8542 Y33.8276 Z-3.0556
G01 X22.9564 Y33.8049 Z-3.0833
G01 X23.0562 Y33.7734 Z-3.1111
G01 X23.1530 Y33.7334 Z-3.1389
G01 X23.2458 Y33.6850 Z-3.1667
G01 X23.3341 Y33.6288 Z-3.1944
G01 X23.4172 Y33.5651 Z-3.2222
G01 X23.4943 Y33.4943 Z-3.2500
G01 X23.5651 Y33.4172 Z-3.2778
G01 X23.6288 Y33.3341 Z-3.3056
G01 X23.6850 Y33.2458 Z-3.3333
G01 X23.7334 Y33.1530 Z-3.3611
G01 X23.7734 Y33.0562 Z-3.3889
G01 X23.8049 Y32.9564 Z-3.4167
G01 X23.8276 Y32.8542 Z-3.4444
G01 X23.8412 Y32.7504 Z-3.4722
G01 X23.8458 Y32.6458 Z-3.5000
G01 X23.8412 Y32.5412 Z-3.5278
G01 X23.8276 Y32.4375 Z-3.5556
G01 X23.8049 Y32.3353 Z-3.5833
G01 X23.7734 Y32.2354 Z-3.6111
G01 X23.7334 Y32.1387 Z-3.6389
G01 X23.6850 Y32.0458 Z-3.6667
G01 X23.6288 Y31.9576 Z-3.6944
G01 X23.5651 Y31.8745 Z-3.7222
G01 X23.4943 Y31.7973 Z-3.7500
G01 X23.4172 Y31.7266 Z-3.7778
G01 X23.3341 Y31.6629 Z-3.8056
G01 X23.2458 Y31.6066 Z-3.8333
G01 X23.1530 Y31.5583 Z-3.8611
G01 X23.0562 Y31.5182 Z-3.8889
G01 X22.9564 Y31.4867 Z-3.9167
G01 X22.8542 Y31.4641 Z-3.9444
G01 X22.7504 Y31.4504 Z-3.9722
G01 X22.6458 Y31.4459 Z-4.0000
G01 X22.5413 Y31.4504 Z-4.0278
G01 X22.4375 Y31.4641 Z-4.0556
G01 X22.3353 Y31.4867 Z-4.0833
G01 X22.2354 Y31.5182 Z-4.1111
G01 X22.1387 Y31.5583 Z-4.1389
G01 X22.0459 Y31.6066 Z-4.1667
G01 X21.9576 Y31.6629 Z-4.1944
G01 X21.8745 Y31.7266 Z-4.2222
G01 X21.7973 Y31.7973 Z-4.2500
G01 X21.7266 Y31.8745 Z-4.2778
G01 X21.6629 Y31.9576 Z-4.3056
G01 X21.6066 Y32.0458 Z-4.3333
G01 X21.5583 Y32.1387 Z-4.3611
G01 X21.5182 Y32.2354 Z-4.3889
G01 X21.4868 Y32.3353 Z-4.4167
G01 X21.4641 Y32.4375 Z-4.4444
G01 X21.4504 Y32.5412 Z-4.4722
G01 X21.4459 Y32.6458 Z-4.5000
G01 X21.4504 Y32.7504 Z-4.5278
G01 X21.4641 Y32.8542 Z-4.5556
G01 X21.4868 Y32.9564 Z-4.5833
G01 X21.5182 Y33.0562 Z-4.6111
G01 X21.5583 Y33.1530 Z-4.6389
G01 X21.6066 Y33.2458 Z-4.6667
G01 X21.6629 Y33.3341 Z-4.6944
G01 X21.7266 Y33.4172 Z-4.7222
G01 X21.7973 Y33.4943 Z-4.7500
G01 X21.8745 Y33.5651 Z-4.7778
G01 X21.9576 Y33.6288 Z-4.8056
G01 X22.0459 Y33.6850 Z-4.8333
G01 X22.1387 Y33.7334 Z-4.8611
G01 X22.2354 Y33.7734 Z-4.8889
G01 X22.3353 Y33.8049 Z-4.9167
G01 X22.4375 Y33.8276 Z-4.9444
G01 X22.5413 Y33.8412 Z-4.9722
G01 X22.6458 Y33.8458 Z-5.0000
G01 X22.7504 Y33.8412 Z-5.0278
G01 X22.8542 Y33.8276 Z-5.0556
G01 X22.9564 Y33.8049 Z-5.0833
G01 X23.0562 Y33.7734 Z-5.1111
G01 X23.1530 Y33.7334 Z-5.1389
G01 X23.2458 Y33.6850 Z-5.1667
G01 X23.3341 Y33.6288 Z-5.1944
G01 X23.4172 Y33.5651 Z-5.2222
G01 X23.4943 Y33.4943 Z-5.2500
G01 X23.5651 Y33.4172 Z-5.2778
G01 X23.6288 Y33.3341 Z-5.3056
G01 X23.6850 Y33.2458 Z-5.3333
G01 X23.7334 Y33.1530 Z-5.3611
G01 X23.7734 Y33.0562 Z-5.3889
G01 X23.8049 Y32.9564 Z-5.4167
G01 X23.8276 Y32.8542 Z-5.4444
G01 X23.8412 Y32.7504 Z-5.4722
G01 X23.8458 Y32.6458 Z-5.5000
G01 X23.8412 Y32.5412
G01 X23.8276 Y32.4375
G01 X23.8049 Y32.3353
G01 X23.7734 Y32.2354
G01 X23.7334 Y32.1387
G01 X23.6850 Y32.0458
G01 X23.6288 Y31.9576
G01 X23.5651 Y31.8745
G01 X23.4943 Y31.7973
G01 X23.4172 Y31.7266
G01 X23.3341 Y31.6629
G01 X23.2458 Y31.6066
G01 X23.1530 Y31.5583
G01 X23.0562 Y31.5182
G01 X22.9564 Y31.4867
G01 X22.8542 Y31.4641
G01 X22.7504 Y31.4504
G01 X22.6458 Y31.4459
G01 X22.5413 Y31.4504
G01 X22.4375 Y31.4641
G01 X22.3353 Y31.4867
G01 X22.2354 Y31.5182
G01 X22.1387 Y31.5583
G01 X22.0459 Y31.6066
G01 X21.9576 Y31.6629
G01 X21.8745 Y31.7266
G01 X21.7973 Y31.7973
G01 X21.7266 Y31.8745
G01 X21.6629 Y31.9576
G01 X21.6066 Y32.0458
G01 X21.5583 Y32.1387
G01 X21.5182 Y32.2354
G01 X21.4868 Y32.3353
G01 X21.4641 Y32.4375
G01 X21.4504 Y32.5412
G01 X21.4459 Y32.6458
G01 X21.4504 Y32.7504
G01 X21.4641 Y32.8542
G01 X21.4868 Y32.9564
G01 X21.5182 Y33.0562
G01 X21.5583 Y33.1530
G01 X21.6066 Y33.2458
G01 X21.6629 Y33.3341
G01 X21.7266 Y33.4172
G01 X21.7973 Y33.4943
G01 X21.8745 Y33.5651
G01 X21.9576 Y33.6288
G01 X22.0459 Y33.6850
G01 X22.1387 Y33.7334
G01 X22.2354 Y33.7734
G01 X22.3353 Y33.8049
G01 X22.4375 Y33.8276
G01 X22.5413 Y33.8412
G01 X22.6458 Y33.8458
G01 X22.7504 Y33.8412
G01 X22.8542 Y33.8276
G01 X22.9564 Y33.8049
G01 X23.0562 Y33.7734
G01 X23.1530 Y33.7334
G01 X23.2458 Y33.6850
G01 X23.3341 Y33.6288
G01 X23.4172 Y33.5651
G01 X23.4943 Y33.4943
G01 X23.5651 Y33.4172
G01 X23.6288 Y33.3341
G01 X23.6850 Y33.2458
G01 X23.7334 Y33.1530
G01 X23.7734 Y33.0562
G01 X23.8049 Y32.9564
G01 X23.8276 Y32.8542
G01 X23.8412 Y32.7504
G01 X23.8458 Y32.6458
M107
M106 S240
G01 X23.8427 Y32.5674 Z-5.4750
M107
M106 S240
G01 X23.8335 Y32.4894 Z-5.4500
M107
M106 S240
G01 X23.8182 Y32.4124 Z-5.4250
M107
M106 S240
G01 X23.7969 Y32.3368 Z-5.4000
M107
M106 S240
G01 X23.7697 Y32.2631 Z-5.3750
M107
M106 S240
G01 X23.7368 Y32.1918 Z-5.3500
M107
M106 S240
G01 X23.6984 Y32.1233 Z-5.3250
M107
M106 S240
G01 X23.6548 Y32.0580 Z-5.3000
M107
M106 S240
G01 X23.6062 Y31.9964 Z-5.2750
M107
M106 S240
G01 X23.5529 Y31.9387 Z-5.2500
M107
M106 S240
G01 X23.4953 Y31.8854 Z-5.2250
M107
M106 S240
G01 X23.4336 Y31.8368 Z-5.2000
M107
M106 S240
G01 X23.3683 Y31.7932 Z-5.1750
M107
M106 S240
G01 X23.2998 Y31.7548 Z-5.1500
M107
M106 S240
G01 X23.2285 Y31.7220 Z-5.1250
M107
M106 S240
G01 X23.1548 Y31.6948 Z-5.1000
M107
M106 S240
G01 X23.0792 Y31.6735 Z-5.0750
M107
M106 S240
G01 X23.0022 Y31.6581 Z-5.0500
M107
M106 S240
G01 X22.9243 Y31.6489 Z-5.0250
M107
M106 S240
G01 X22.8458 Y31.6458 Z-5.0000
M107
G00 Z2.0000


;No. 2: Helical drill 8
G00 X24.1458 Y32.6458 Z2.0000
G00 Z0.5000
M106 S240
G01 X24.1416 Y32.5337 Z0.4286 F400
G01 X24.1290 Y32.4223 Z0.3571
G01 X24.1082 Y32.3121 Z0.2857
G01 X24.0792 Y32.2037 Z0.2143
G01 X24.0421 Y32.0978 Z0.1429
G01 X23.9973 Y31.9950 Z0.0714
G01 X23.9448 Y31.8958 Z0.0000
G01 X23.8852 Y31.8009 Z-0.0714
G01 X23.8186 Y31.7106 Z-0.1429
G01 X23.7454 Y31.6256 Z-0.2143
G01 X23.6661 Y31.5463 Z-0.2857
G01 X23.5810 Y31.4731 Z-0.3571
G01 X23.4908 Y31.4065 Z-0.4286
G01 X23.3958 Y31.3468 Z-0.5000
G01 X23.2966 Y31.2944 Z-0.5714
G01 X23.1938 Y31.2495 Z-0.6429
G01 X23.0880 Y31.2125 Z-0.7143
G01 X22.9796 Y31.1835 Z-0.7857
G01 X22.8694 Y31.1626 Z-0.8571
G01 X22.7579 Y31.1501 Z-0.9286
G01 X22.6458 Y31.1459 Z-1.0000
G01 X22.5337 Y31.1501 Z-1.0714
G01 X22.4223 Y31.1626 Z-1.1429
G01 X22.3121 Y31.1835 Z-1.2143
G01 X22.2037 Y31.2125 Z-1.2857
G01 X22.0978 Y31.2495 Z-1.3571
G01 X21.9950 Y31.2944 Z-1.4286
G01 X21.8959 Y31.3468 Z-1.5000
G01 X21.8009 Y31.4065 Z-1.5714
G01 X21.7106 Y31.4731 Z-1.6429
G01 X21.6256 Y31.5463 Z-1.7143
G01 X21.5463 Y31.6256 Z-1.7857
G01 X21.4731 Y31.7106 Z-1.8571
G01 X21.4065 Y31.8009 Z-1.9286
G01 X21.3468 Y31.8958 Z-2.0000
G01 X21.2944 Y31.9950 Z-2.0714
G01 X21.2496 Y32.0978 Z-2.1429
G01 X21.2125 Y32.2037 Z-2.2143
G01 X21.1835 Y32.3121 Z-2.2857
G01 X21.1626 Y32.4223 Z-2.3571
G01 X21.1501 Y32.5337 Z-2.4286
G01 X21.1459 Y32.6458 Z-2.5000
G01 X21.1501 Y32.7579 Z-2.5714
G01 X21.1626 Y32.8694 Z-2.6429
G01 X21.1835 Y32.9796 Z-2.7143
G01 X21.2125 Y33.0880 Z-2.7857
G01 X21.2496 Y33.1938 Z-2.8571
G01 X21.2944 Y33.2966 Z-2.9286
G01 X21.3468 Y33.3958 Z-3.0000
G01 X21.4065 Y33.4908 Z-3.0714
G01 X21.4731 Y33.5810 Z-3.1429
G01 X21.5463 Y33.6661 Z-3.2143
G01 X21.6256 Y33.7454 Z-3.2857
G01 X21.7106 Y33.8186 Z-3.3571
G01 X21.8009 Y33.8852 Z-3.4286
G01 X21.8959 Y33.9448 Z-3.5000
G01 X21.9950 Y33.9973 Z-3.5714
G01 X22.0978 Y34.0421 Z-3.6429
G01 X22.2037 Y34.0792 Z-3.7143
G01 X22.3121 Y34.1082 Z-3.7857
G01 X22.4223 Y34.1290 Z-3.8571
G01 X22.5337 Y34.1416 Z-3.9286
G01 X22.6458 Y34.1458 Z-4.0000
G01 X22.7579 Y34.1416 Z-4.0714
G01 X22.8694 Y34.1290 Z-4.1429
G01 X22.9796 Y34.1082 Z-4.2143
G01 X23.0880 Y34.0792 Z-4.2857
G01 X23.1938 Y34.0421 Z-4.3571
G01 X23.2966 Y33.9973 Z-4.4286
G01 X23.3958 Y33.9448 Z-4.5000
G01 X23.4908 Y33.8852 Z-4.5714
G01 X23.5810 Y33.8186 Z-4.6429
G01 X23.6661 Y33.7454 Z-4.7143
G01 X23.7454 Y33.6661 Z-4.7857
G01 X23.8186 Y33.5810 Z-4.8571
G01 X23.8852 Y33.4908 Z-4.9286
G01 X23.9448 Y33.3958 Z-5.0000
G01 X23.9973 Y33.2966 Z-5.0714
G01 X24.0421 Y33.1938 Z-5.1429
G01 X24.0792 Y33.0880 Z-5.2143
G01 X24.1082 Y32.9796 Z-5.2857
G01 X24.1290 Y32.8694 Z-5.3571
G01 X24.1416 Y32.7579 Z-5.4286
G01 X24.1458 Y32.6458 Z-5.5000
G01 X24.1416 Y32.5337
G01 X24.1290 Y32.4223
G01 X24.1082 Y32.3121
G01 X24.0792 Y32.2037
G01 X24.0421 Y32.0978
G01 X23.9973 Y31.9950
G01 X23.9448 Y31.8958
G01 X23.8852 Y31.8009
G01 X23.8186 Y31.7106
G01 X23.7454 Y31.6256
G01 X23.6661 Y31.5463
G01 X23.5810 Y31.4731
G01 X23.4908 Y31.4065
G01 X23.3958 Y31.3468
G01 X23.2966 Y31.2944
G01 X23.1938 Y31.2495
G01 X23.0880 Y31.2125
G01 X22.9796 Y31.1835
G01 X22.8694 Y31.1626
G01 X22.7579 Y31.1501
G01 X22.6458 Y31.1459
G01 X22.5337 Y31.1501
G01 X22.4223 Y31.1626
G01 X22.3121 Y31.1835
G01 X22.2037 Y31.2125
G01 X22.0978 Y31.2495
G01 X21.9950 Y31.2944
G01 X21.8959 Y31.3468
G01 X21.8009 Y31.4065
G01 X21.7106 Y31.4731
G01 X21.6256 Y31.5463
G01 X21.5463 Y31.6256
G01 X21.4731 Y31.7106
G01 X21.4065 Y31.8009
G01 X21.3468 Y31.8958
G01 X21.2944 Y31.9950
G01 X21.2496 Y32.0978
G01 X21.2125 Y32.2037
G01 X21.1835 Y32.3121
G01 X21.1626 Y32.4223
G01 X21.1501 Y32.5337
G01 X21.1459 Y32.6458
G01 X21.1501 Y32.7579
G01 X21.1626 Y32.8694
G01 X21.1835 Y32.9796
G01 X21.2125 Y33.0880
G01 X21.2496 Y33.1938
G01 X21.2944 Y33.2966
G01 X21.3468 Y33.3958
G01 X21.4065 Y33.4908
G01 X21.4731 Y33.5810
G01 X21.5463 Y33.6661
G01 X21.6256 Y33.7454
G01 X21.7106 Y33.8186
G01 X21.8009 Y33.8852
G01 X21.8959 Y33.9448
G01 X21.9950 Y33.9973
G01 X22.0978 Y34.0421
G01 X22.2037 Y34.0792
G01 X22.3121 Y34.1082
G01 X22.4223 Y34.1290
G01 X22.5337 Y34.1416
G01 X22.6458 Y34.1458
G01 X22.7579 Y34.1416
G01 X22.8694 Y34.1290
G01 X22.9796 Y34.1082
G01 X23.0880 Y34.0792
G01 X23.1938 Y34.0421
G01 X23.2966 Y33.9973
G01 X23.3958 Y33.9448
G01 X23.4908 Y33.8852
G01 X23.5810 Y33.8186
G01 X23.6661 Y33.7454
G01 X23.7454 Y33.6661
G01 X23.8186 Y33.5810
G01 X23.8852 Y33.4908
G01 X23.9448 Y33.3958
G01 X23.9973 Y33.2966
G01 X24.0421 Y33.1938
G01 X24.0792 Y33.0880
G01 X24.1082 Y32.9796
G01 X24.1290 Y32.8694
G01 X24.1416 Y32.7579
G01 X24.1458 Y32.6458
M107
M106 S240
G01 X24.1427 Y32.5674 Z-5.4750
M107
M106 S240
G01 X24.1335 Y32.4894 Z-5.4500
M107
M106 S240
G01 X24.1182 Y32.4124 Z-5.4250
M107
M106 S240
G01 X24.0969 Y32.3368 Z-5.4000
M107
M106 S240
G01 X24.0697 Y32.2631 Z-5.3750
M107
M106 S240
G01 X24.0368 Y32.1918 Z-5.3500
M107
M106 S240
G01 X23.9984 Y32.1233 Z-5.3250
M107
M106 S240
G01 X23.9548 Y32.0580 Z-5.3000
M107
M106 S240
G01 X23.9062 Y31.9964 Z-5.2750
M107
M106 S240
G01 X23.8529 Y31.9387 Z-5.2500
M107
M106 S240
G01 X23.7953 Y31.8854 Z-5.2250
M107
M106 S240
G01 X23.7336 Y31.8368 Z-5.2000
M107
M106 S240
G01 X23.6683 Y31.7932 Z-5.1750
M107
M106 S240
G01 X23.5998 Y31.7548 Z-5.1500
M107
M106 S240
G01 X23.5285 Y31.7220 Z-5.1250
M107
M106 S240
G01 X23.4548 Y31.6948 Z-5.1000
M107
M106 S240
G01 X23.3792 Y31.6735 Z-5.0750
M107
M106 S240
G01 X23.3022 Y31.6581 Z-5.0500
M107
M106 S240
G01 X23.2243 Y31.6489 Z-5.0250
M107
M106 S240
G01 X23.1458 Y31.6458 Z-5.0000
M107
G00 Z2.0000


;No. 3: Hole 24
G00 X55.8655 Y46.0889 Z2.0000
G00 Z0.5000
G01 Z0.0000 F400
G01 Z-1.1000
M106 S240
G01 X73.7176 F1000
G01 Y47.5889
G01 X72.6230
G01 X72.6312 Y49.0889
G01 X73.7176
G01 Y50.5889
G01 X72.6312
G01 Y52.0889
G01 X73.7176
M107
G00 Z2.0000
G00 X56.9601 Y46.0889
G00 Z0.5000
G01 Z-1.1000 F400
M106 S240
G01 Y47.5889 F1000
G01 X55.8655
G01 Y49.0889
G01 X56.9520
G01 Y50.5889
G01 X55.8655
G01 Y52.0889
G01 X56.9520
G01 X57.2120 Y52.0756
G01 Y47.7401
G01 X57.2160 Y47.6381
G01 X57.2280 Y47.5367
G01 X57.2479 Y47.4366
G01 X57.2756 Y47.3384
G01 X57.3109 Y47.2426
G01 X57.3536 Y47.1499
G01 X57.4035 Y47.0609
G01 X57.4602 Y46.9760
G01 X57.5234 Y46.8958
G01 X57.5927 Y46.8209
G01 X57.6677 Y46.7516
G01 X57.7478 Y46.6884
G01 X57.8327 Y46.6317
G01 X57.9218 Y46.5818
G01 X58.0145 Y46.5391
G01 X58.1102 Y46.5037
G01 X58.2085 Y46.4760
G01 X58.3086 Y46.4561
G01 X58.4100 Y46.4441
G01 X58.5120 Y46.4401
G01 X71.0712
G01 X71.1732 Y46.4441
G01 X71.2745 Y46.4561
G01 X71.3747 Y46.4760
G01 X71.4729 Y46.5037
G01 X71.5687 Y46.5391
G01 X71.6614 Y46.5818
G01 X71.7504 Y46.6317
G01 X71.8353 Y46.6884
G01 X71.9155 Y46.7516
G01 X71.9904 Y46.8209
G01 X72.0597 Y46.8958
G01 X72.1229 Y46.9760
G01 X72.1796 Y47.0609
G01 X72.2295 Y47.1499
G01 X72.2722 Y47.2426
G01 X72.3076 Y47.3384
G01 X72.3353 Y47.4366
G01 X72.3552 Y47.5367
G01 X72.3672 Y47.6381
G01 X72.3712 Y47.7401
G01 Y53.6830
G01 X73.9776
G01 Y44.4949
G01 X55.6055
G01 Y53.6830
G01 X57.2120
G01 Y52.0756
G01 X56.9520 Y52.0889
M107
G00 Z2.0000


;No. 4: Hole 24
G00 X55.6055 Y44.4949 Z2.0000
G00 Z0.5000
G01 Z-1.1000 F400
M106 S240
G01 X55.3055 Y44.1949 F1000
G01 Y53.9830
G01 X57.5120
G01 Y47.7401
G01 X57.5150 Y47.6617
G01 X57.5243 Y47.5837
G01 X57.5396 Y47.5067
G01 X57.5609 Y47.4311
G01 X57.5881 Y47.3574
G01 X57.6209 Y47.2861
G01 X57.6593 Y47.2176
G01 X57.7029 Y47.1523
G01 X57.7516 Y47.0907
G01 X57.8048 Y47.0330
G01 X57.8625 Y46.9797
G01 X57.9242 Y46.9311
G01 X57.9895 Y46.8875
G01 X58.0580 Y46.8491
G01 X58.1293 Y46.8162
G01 X58.2029 Y46.7891
G01 X58.2785 Y46.7677
G01 X58.3555 Y46.7524
G01 X58.4335 Y46.7432
G01 X58.5120 Y46.7401
G01 X71.0712
G01 X71.1148 Y46.7411
G01 X71.1583 Y46.7439
G01 X71.2017 Y46.7487
G01 X71.2448 Y46.7553
G01 X71.2876 Y46.7638
G01 X71.3300 Y46.7742
G01 X71.3719 Y46.7864
G01 X71.4132 Y46.8004
G01 X71.4539 Y46.8162
G01 X71.4938 Y46.8338
G01 X71.5329 Y46.8531
G01 X71.5712 Y46.8741
G01 X71.6085 Y46.8967
G01 X71.6448 Y46.9210
G01 X71.6799 Y46.9468
G01 X71.7140 Y46.9741
G01 X71.7468 Y47.0028
G01 X71.7783 Y47.0330
G01 X71.8085 Y47.0645
G01 X71.8372 Y47.0973
G01 X71.8645 Y47.1313
G01 X71.8903 Y47.1665
G01 X71.9146 Y47.2028
G01 X71.9372 Y47.2401
G01 X71.9582 Y47.2784
G01 X71.9775 Y47.3175
G01 X71.9951 Y47.3574
G01 X72.0109 Y47.3981
G01 X72.0249 Y47.4394
G01 X72.0371 Y47.4813
G01 X72.0475 Y47.5237
G01 X72.0560 Y47.5665
G01 X72.0626 Y47.6096
G01 X72.0674 Y47.6530
G01 X72.0702 Y47.6965
G01 X72.0712 Y47.7401
G01 Y53.9830
G01 X74.2776
G01 Y44.1949
G01 X55.3055
G01 X55.6055 Y44.4949
M107
G00 Z0.0000
G00 Z2.0000


;No. 5: Hole 23


;No. 6: Hole 23
G00 X56.4969 Y59.6050 Z2.0000
G00 Z0.5000
G01 Z0.0000 F400
G01 Z-1.1000
M106 S240
G01 X56.4613 Y59.6387 F1000
G01 X56.4264 Y59.6731
G01 X56.3920 Y59.7081
G01 X56.3583 Y59.7436
G01 X56.3714 Y59.7285
G01 X56.2952 Y59.8145
G01 X56.2226 Y59.9035
G01 X56.1536 Y59.9954
G01 X56.0885 Y60.0901
G01 X56.0272 Y60.1873
G01 X55.9700 Y60.2869
G01 X55.9169 Y60.3888
G01 X55.8679 Y60.4927
G01 X55.8232 Y60.5986
G01 X55.7829 Y60.7062
G01 X55.7470 Y60.8153
G01 X55.7155 Y60.9258
G01 X73.8701 Y60.9256
G01 X73.8287 Y60.7798
G01 X73.7788 Y60.6367
G01 X73.7207 Y60.4967
G01 X73.6545 Y60.3604
G01 X73.5805 Y60.2281
G01 X73.4989 Y60.1004
G01 X73.4100 Y59.9777
G01 X73.3141 Y59.8604
G01 X73.2114 Y59.7488
G01 X73.1025 Y59.6435
G01 X72.9876 Y59.5446
G01 X72.8672 Y59.4527
G01 X72.7415 Y59.3679
G01 X72.6112 Y59.2906
G01 X72.4765 Y59.2210
G01 X72.3381 Y59.1594
G01 X72.1962 Y59.1060
G01 X72.0515 Y59.0609
G01 X71.9045 Y59.0244
G01 X71.7555 Y58.9965
G01 X71.6892 Y58.9902
G01 X71.6227 Y58.9858
G01 X71.5561 Y58.9832
G01 X71.4894 Y58.9824
G01 X58.1034 Y58.9823
G01 X57.9929 Y58.9826
G01 X57.8826 Y58.9883
G01 X57.7727 Y58.9994
G01 X57.6634 Y59.0158
G01 X57.5551 Y59.0376
G01 X57.4480 Y59.0647
G01 X57.3423 Y59.0969
G01 X57.2384 Y59.1343
G01 X57.1364 Y59.1768
G01 X57.0366 Y59.2241
G01 X56.9392 Y59.2763
G01 X56.8445 Y59.3332
G01 X56.7528 Y59.3947
G01 X56.6641 Y59.4606
G01 X56.5787 Y59.5307
G01 X56.4969 Y59.6050
M107
G00 Z2.0000


;No. 7: Hole 23
G00 X56.4969 Y59.6050 Z2.0000
G00 Z0.5000
G01 Z-1.1000 F400
M106 S240
G01 X56.2925 Y59.3853 F1000
G01 X56.2524 Y59.4234
G01 X56.2130 Y59.4622
G01 X56.1742 Y59.5017
G01 X56.1362 Y59.5418
G01 X56.1448 Y59.5319
G01 X55.9912 Y59.7132
G01 X55.8515 Y59.9054
G01 X55.7267 Y60.1076
G01 X55.6173 Y60.3185
G01 X55.5240 Y60.5371
G01 X55.4474 Y60.7620
G01 X55.3878 Y60.9920
G01 X55.3455 Y61.2258
G01 X74.2381 Y61.2224
G01 X74.2149 Y61.0760
G01 X74.1844 Y60.9309
G01 X74.1467 Y60.7875
G01 X74.1019 Y60.6462
G01 X74.0501 Y60.5073
G01 X73.9914 Y60.3711
G01 X73.9260 Y60.2381
G01 X73.8541 Y60.1084
G01 X73.7757 Y59.9826
G01 X73.6912 Y59.8608
G01 X73.6006 Y59.7434
G01 X73.5044 Y59.6306
G01 X73.4026 Y59.5228
G01 X73.2955 Y59.4203
G01 X73.1835 Y59.3232
G01 X73.0667 Y59.2318
G01 X72.9456 Y59.1464
G01 X72.8203 Y59.0671
G01 X72.6912 Y58.9942
G01 X72.5586 Y58.9278
G01 X72.4229 Y58.8681
G01 X72.2844 Y58.8153
G01 X72.1434 Y58.7694
G01 X72.0003 Y58.7307
G01 X71.8741 Y58.7093
G01 X71.7471 Y58.6941
G01 X71.6194 Y58.6851
G01 X71.4915 Y58.6824
G01 X58.0941
G01 X57.9702 Y58.6834
G01 X57.8464 Y58.6904
G01 X57.7232 Y58.7034
G01 X57.6007 Y58.7224
G01 X57.4793 Y58.7473
G01 X57.3592 Y58.7780
G01 X57.2408 Y58.8146
G01 X57.1242 Y58.8568
G01 X57.0099 Y58.9046
G01 X56.8980 Y58.9580
G01 X56.7889 Y59.0167
G01 X56.6827 Y59.0806
G01 X56.5797 Y59.1496
G01 X56.4802 Y59.2235
G01 X56.3844 Y59.3021
G01 X56.2925 Y59.3853
G01 X56.4969 Y59.6050
M107
G00 Z0.0000
G00 Z2.0000


;No. 8: Hole 23
G00 X56.4969 Y59.6050 Z2.0000
G00 Z0.5000
G01 Z-1.1000 F400
M106 S240
G01 X56.2925 Y59.3853 F1000
G01 X56.2524 Y59.4234
G01 X56.2130 Y59.4622
G01 X56.1742 Y59.5017
G01 X56.1362 Y59.5418
G01 X56.1448 Y59.5319
G01 X55.9912 Y59.7132
G01 X55.8515 Y59.9054
G01 X55.7267 Y60.1076
G01 X55.6173 Y60.3185
G01 X55.5240 Y60.5371
G01 X55.4474 Y60.7620
G01 X55.3878 Y60.9920
G01 X55.3455 Y61.2258
G01 X74.2381 Y61.2224
G01 X74.2149 Y61.0760
G01 X74.1844 Y60.9309
G01 X74.1467 Y60.7875
G01 X74.1019 Y60.6462
G01 X74.0501 Y60.5073
G01 X73.9914 Y60.3711
G01 X73.9260 Y60.2381
G01 X73.8541 Y60.1084
G01 X73.7757 Y59.9826
G01 X73.6912 Y59.8608
G01 X73.6006 Y59.7434
G01 X73.5044 Y59.6306
G01 X73.4026 Y59.5228
G01 X73.2955 Y59.4203
G01 X73.1835 Y59.3232
G01 X73.0667 Y59.2318
G01 X72.9456 Y59.1464
G01 X72.8203 Y59.0671
G01 X72.6912 Y58.9942
G01 X72.5586 Y58.9278
G01 X72.4229 Y58.8681
G01 X72.2844 Y58.8153
G01 X72.1434 Y58.7694
G01 X72.0003 Y58.7307
G01 X71.8741 Y58.7093
G01 X71.7471 Y58.6941
G01 X71.6194 Y58.6851
G01 X71.4915 Y58.6824
G01 X58.0941
G01 X57.9702 Y58.6834
G01 X57.8464 Y58.6904
G01 X57.7232 Y58.7034
G01 X57.6007 Y58.7224
G01 X57.4793 Y58.7473
G01 X57.3592 Y58.7780
G01 X57.2408 Y58.8146
G01 X57.1242 Y58.8568
G01 X57.0099 Y58.9046
G01 X56.8980 Y58.9580
G01 X56.7889 Y59.0167
G01 X56.6827 Y59.0806
G01 X56.5797 Y59.1496
G01 X56.4802 Y59.2235
G01 X56.3844 Y59.3021
G01 X56.2925 Y59.3853
G01 X56.4969 Y59.6050
M107
G00 Z0.0000
G00 Z2.0000


;No. 9: Hole 25
G00 X81.8612 Y59.4603 Z2.0000
G00 Z0.5000
G01 Z0.0000 F400
G01 Z-1.1000
M106 S240
G01 X83.8464 F1000
G01 X82.6910 Y57.9603
G01 X85.2352
G01 X86.6239 Y56.4603
G01 X82.6912
G01 Y54.9603
G01 X85.1825
G01 X83.7796
G01 Y53.4603
G01 X82.6912
G01 Y51.9603
G01 X83.7776
G01 Y50.4603
G01 X82.6912
G01 Y48.9603
G01 X83.7776
G01 Y47.4603
G01 X82.6912
G01 Y45.9603
G01 X83.7776
M107
G00 Z2.0000
G00 X85.4931 Y56.4603
G00 Z0.5000
G01 Z-1.1000 F400
M106 S240
G01 Y54.9603 F1000
G01 X88.0126
G01 X87.4161 Y53.4603
G01 X89.4013
G01 X88.8048 Y51.9603
G01 X90.7901
G01 X90.1936 Y50.4603
G01 X92.1788
G01 X91.5823 Y48.9603
G01 X93.6010
G01 X92.9710 Y47.4603
G01 X97.1905
G01 Y45.9603
G01 X94.3597
G01 X95.4872 Y48.9603
G01 X97.1905
G01 Y50.4603
G01 X96.1041
G01 Y51.9603
G01 X97.1905
G01 Y53.4603
G01 X96.1041
G01 Y54.9603
G01 X97.1905
G01 Y56.4603
G01 X96.1041
G01 Y57.9603
G01 X97.1905
G01 Y59.4603
G01 X96.1041
G01 X95.8441 Y59.4411
G01 Y60.9258
G01 X97.4505
G01 Y44.4949
G01 X95.3622
G01 X86.2916 Y54.2922
G01 X86.2229 Y54.3611
G01 X86.1492 Y54.4246
G01 X86.0710 Y54.4824
G01 X85.9887 Y54.5343
G01 X85.9028 Y54.5798
G01 X85.8137 Y54.6188
G01 X85.7219 Y54.6510
G01 X85.6280 Y54.6762
G01 X85.5324 Y54.6944
G01 X85.4358 Y54.7054
G01 X85.3386 Y54.7091
G01 X85.2414 Y54.7055
G01 X85.1447 Y54.6947
G01 X85.0492 Y54.6766
G01 X84.9552 Y54.6515
G01 X84.8634 Y54.6195
G01 X84.7742 Y54.5806
G01 X84.6882 Y54.5352
G01 X84.6058 Y54.4835
G01 X84.5275 Y54.4258
G01 X84.4538 Y54.3624
G01 X84.3850 Y54.2936
G01 X84.3215 Y54.2199
G01 X84.2637 Y54.1417
G01 X84.2120 Y54.0593
G01 X84.1665 Y53.9734
G01 X84.1276 Y53.8842
G01 X84.0955 Y53.7924
G01 X84.0703 Y53.6985
G01 X84.0522 Y53.6029
G01 X84.0413 Y53.5063
G01 X84.0376 Y53.4091
G01 Y44.4949
G01 X82.4312
G01 Y57.9525
G01 X82.4287 Y58.0334
G01 X82.4212 Y58.1139
G01 X82.4086 Y58.1938
G01 X82.3912 Y58.2728
G01 X82.3688 Y58.3506
G01 X82.3416 Y58.4268
G01 X82.3098 Y58.5012
G01 X82.2734 Y58.5734
G01 X82.2325 Y58.6432
G01 X82.1875 Y58.7104
G01 X82.1383 Y58.7746
G01 X82.0852 Y58.8357
G01 X80.1501 Y60.9258
G01 X82.8440
G01 X93.5901 Y49.3186
G01 X93.6588 Y49.2498
G01 X93.7325 Y49.1863
G01 X93.8107 Y49.1284
G01 X93.8930 Y49.0766
G01 X93.9790 Y49.0311
G01 X94.0681 Y48.9921
G01 X94.1598 Y48.9599
G01 X94.2538 Y48.9346
G01 X94.3493 Y48.9165
G01 X94.4460 Y48.9055
G01 X94.5431 Y48.9018
G01 X94.6403 Y48.9054
G01 X94.7370 Y48.9162
G01 X94.8326 Y48.9342
G01 X94.9265 Y48.9593
G01 X95.0184 Y48.9914
G01 X95.1075 Y49.0303
G01 X95.1935 Y49.0757
G01 X95.2759 Y49.1274
G01 X95.3542 Y49.1851
G01 X95.4280 Y49.2485
G01 X95.4968 Y49.3173
G01 X95.5602 Y49.3910
G01 X95.6180 Y49.4692
G01 X95.6698 Y49.5515
G01 X95.7152 Y49.6375
G01 X95.7541 Y49.7267
G01 X95.7863 Y49.8185
G01 X95.8115 Y49.9124
G01 X95.8296 Y50.0080
G01 X95.8404 Y50.1046
G01 X95.8441 Y50.2018
G01 Y59.4411
G01 X96.1041 Y59.4603
M107
G00 Z2.0000


;No. 10: Hole 25
G00 X82.4312 Y44.4949 Z2.0000
G00 Z0.5000
G01 Z-1.1000 F400
M106 S240
G01 X82.1312 Y44.1949 F1000
G01 Y57.9525
G01 X82.1269 Y58.0457
G01 X82.1139 Y58.1381
G01 X82.0923 Y58.2289
G01 X82.0623 Y58.3173
G01 X82.0242 Y58.4025
G01 X81.9784 Y58.4838
G01 X81.9252 Y58.5605
G01 X81.8650 Y58.6319
G01 X79.4635 Y61.2258
G01 X82.9750
G01 X93.8103 Y49.5224
G01 X93.8710 Y49.4623
G01 X93.9366 Y49.4075
G01 X94.0067 Y49.3585
G01 X94.0807 Y49.3157
G01 X94.1581 Y49.2793
G01 X94.2383 Y49.2497
G01 X94.3208 Y49.2271
G01 X94.4048 Y49.2116
G01 X94.4899 Y49.2033
G01 X94.5754 Y49.2023
G01 X94.6607 Y49.2086
G01 X94.7451 Y49.2222
G01 X94.8281 Y49.2430
G01 X94.9089 Y49.2707
G01 X94.9871 Y49.3053
G01 X95.0621 Y49.3464
G01 X95.1333 Y49.3938
G01 X95.2001 Y49.4471
G01 X95.2622 Y49.5059
G01 X95.3190 Y49.5698
G01 X95.3702 Y49.6383
G01 X95.4153 Y49.7109
G01 X95.4540 Y49.7871
G01 X95.4861 Y49.8664
G01 X95.5114 Y49.9480
G01 X95.5295 Y50.0316
G01 X95.5404 Y50.1164
G01 X95.5441 Y50.2018
G01 Y61.2258
G01 X97.7505
G01 Y44.1949
G01 X95.2311
G01 X86.0714 Y54.0884
G01 X86.0107 Y54.1486
G01 X85.9451 Y54.2034
G01 X85.8750 Y54.2524
G01 X85.8010 Y54.2952
G01 X85.7236 Y54.3316
G01 X85.6434 Y54.3612
G01 X85.5610 Y54.3838
G01 X85.4769 Y54.3993
G01 X85.3918 Y54.4076
G01 X85.3063 Y54.4086
G01 X85.2210 Y54.4022
G01 X85.1366 Y54.3887
G01 X85.0537 Y54.3679
G01 X84.9728 Y54.3401
G01 X84.8946 Y54.3056
G01 X84.8197 Y54.2645
G01 X84.7485 Y54.2171
G01 X84.6816 Y54.1638
G01 X84.6195 Y54.1050
G01 X84.5627 Y54.0411
G01 X84.5116 Y53.9726
G01 X84.4664 Y53.9000
G01 X84.4277 Y53.8238
G01 X84.3956 Y53.7445
G01 X84.3704 Y53.6628
G01 X84.3522 Y53.5793
G01 X84.3413 Y53.4945
G01 X84.3376 Y53.4091
G01 Y44.1949
G01 X82.1312
G01 X82.4312 Y44.4949
M107
G00 Z0.0000
G00 Z2.0000


;No. 11: Hole 26
G00 X102.8097 Y45.9603 Z2.0000
G00 Z0.5000
G01 Z0.0000 F400
G01 Z-1.1000
M106 S240
G01 X120.3437 F1000
G01 X103.9237
G01 Y47.4603
G01 X102.8097
G01 Y48.9603
G01 X103.8978
G01 Y50.4603
G01 X102.8097
G01 Y51.9603
G01 X103.8978
G01 Y53.4603
G01 X102.8097
G01 Y54.9603
G01 X103.8978
G01 Y56.4603
G01 X102.8097
G01 Y57.9603
G01 X103.8978
G01 Y59.4603
G01 X102.8097
G01 X102.5497 Y59.4397
G01 Y60.9258
G01 X104.1578
G01 Y47.7401
G01 X104.1618 Y47.6376
G01 X104.1739 Y47.5358
G01 X104.1940 Y47.4352
G01 X104.2220 Y47.3365
G01 X104.2577 Y47.2403
G01 X104.3008 Y47.1472
G01 X104.3512 Y47.0579
G01 X104.4084 Y46.9728
G01 X104.4722 Y46.8924
G01 X104.5421 Y46.8173
G01 X104.6177 Y46.7480
G01 X104.6985 Y46.6849
G01 X104.7841 Y46.6283
G01 X104.8738 Y46.5786
G01 X104.9672 Y46.5362
G01 X105.0637 Y46.5013
G01 X105.1626 Y46.4740
G01 X105.2633 Y46.4547
G01 X105.3652 Y46.4434
G01 X105.4678 Y46.4401
G01 X120.8151 Y46.4388
G01 X120.7741 Y46.2962
G01 X120.7252 Y46.1562
G01 X120.6684 Y46.0191
G01 X120.6039 Y45.8855
G01 X120.5320 Y45.7558
G01 X120.4528 Y45.6303
G01 X120.3667 Y45.5095
G01 X120.2738 Y45.3938
G01 X120.1746 Y45.2836
G01 X120.0692 Y45.1791
G01 X119.9581 Y45.0808
G01 X119.8417 Y44.9889
G01 X119.7202 Y44.9038
G01 X119.5941 Y44.8256
G01 X119.4637 Y44.7548
G01 X119.3296 Y44.6914
G01 X119.1921 Y44.6358
G01 X119.0516 Y44.5880
G01 X118.9087 Y44.5483
G01 X118.7637 Y44.5167
G01 X118.6819 Y44.5070
G01 X118.5997 Y44.5001
G01 X118.5174 Y44.4960
G01 X118.4350 Y44.4949
G01 X102.5497
G01 Y59.4397
G01 X102.8097 Y59.4603
M107
G00 Z2.0000


;No. 12: Hole 26
G00 X102.5497 Y44.4949 Z2.0000
G00 Z0.5000
G01 Z-1.1000 F400
M106 S240
G01 X102.2497 Y44.1949 F1000
G01 Y61.2258
G01 X104.4578
G01 Y47.7401
G01 X104.4609 Y47.6612
G01 X104.4702 Y47.5827
G01 X104.4857 Y47.5052
G01 X104.5073 Y47.4292
G01 X104.5348 Y47.3551
G01 X104.5681 Y47.2834
G01 X104.6070 Y47.2146
G01 X104.6511 Y47.1491
G01 X104.7003 Y47.0872
G01 X104.7542 Y47.0295
G01 X104.8125 Y46.9761
G01 X104.8748 Y46.9276
G01 X104.9408 Y46.8841
G01 X105.0100 Y46.8459
G01 X105.0820 Y46.8134
G01 X105.1564 Y46.7866
G01 X105.2326 Y46.7658
G01 X105.3102 Y46.7510
G01 X105.3888 Y46.7424
G01 X105.4678 Y46.7401
G01 X121.1833 Y46.7353
G01 X121.1600 Y46.5889
G01 X121.1294 Y46.4438
G01 X121.0917 Y46.3005
G01 X121.0468 Y46.1592
G01 X120.9949 Y46.0203
G01 X120.9362 Y45.8842
G01 X120.8707 Y45.7512
G01 X120.7987 Y45.6216
G01 X120.7204 Y45.4958
G01 X120.6358 Y45.3741
G01 X120.5453 Y45.2567
G01 X120.4491 Y45.1439
G01 X120.3473 Y45.0361
G01 X120.2403 Y44.9335
G01 X120.1283 Y44.8364
G01 X120.0116 Y44.7450
G01 X119.8905 Y44.6595
G01 X119.7653 Y44.5802
G01 X119.6363 Y44.5072
G01 X119.5038 Y44.4407
G01 X119.3681 Y44.3809
G01 X119.2297 Y44.3280
G01 X119.0887 Y44.2820
G01 X118.9457 Y44.2431
G01 X118.8196 Y44.2217
G01 X118.6926 Y44.2065
G01 X118.5649 Y44.1975
G01 X118.4370 Y44.1949
G01 X102.2497
G01 X102.5497 Y44.4949
M107
G00 Z0.0000
G00 Z2.0000


;No. 13: Hole 27
G00 X126.8412 Y57.9603 Z2.0000
G00 Z0.5000
G01 Z0.0000 F400
G01 Z-1.1000
M106 S240
G01 X128.8265 F1000
G01 X128.2300 Y56.4603
G01 X130.2152
G01 X129.6187 Y54.9603
G01 X131.6040
G01 X131.0074 Y53.4603
G01 X132.9927
G01 X132.3962 Y51.9603
G01 X134.5271
G01 X133.7849 Y50.4603
G01 X136.6323
G01 X135.8917 Y51.9603
G01 X138.0210
G01 X137.4259 Y53.4603
G01 X139.4098
G01 X138.8143 Y54.9603
G01 X140.7985
G01 X140.2026 Y56.4603
G01 X142.1872
G01 X141.5910 Y57.9603
G01 X143.5760
G01 X144.1346 Y59.4603
G01 X142.8888
M107
G00 Z2.0000
G00 X135.7537 Y50.4603
G00 Z0.5000
G01 Z-1.1000 F400
M106 S240
G01 Y48.9603 F1000
G01 X134.6634
G01 X134.6654 Y47.4603
G01 X135.7518
G01 Y45.9603
G01 X134.6654
M107
G00 Z2.0000
G00 X127.5284 Y57.9603
G00 Z0.5000
G01 Z-1.1000 F400
M106 S240
G01 Y59.4603 F1000
G01 X126.2826
G01 X126.0226 Y59.4706
G01 Y60.9258
G01 X127.6290
G01 X127.6113 Y60.6705
G01 X127.6092 Y60.4145
G01 X127.6226 Y60.1589
G01 X127.6516 Y59.9046
G01 X127.6716 Y59.8158
G01 X127.6978 Y59.7286
G01 X127.7300 Y59.6435
G01 X127.7681 Y59.5608
G01 X127.8119 Y59.4811
G01 X127.8611 Y59.4045
G01 X127.9156 Y59.3316
G01 X127.9750 Y59.2627
G01 X134.2555 Y52.4791
G01 X134.3314 Y52.4035
G01 X134.4133 Y52.3345
G01 X134.5006 Y52.2725
G01 X134.5927 Y52.2179
G01 X134.6890 Y52.1710
G01 X134.7888 Y52.1322
G01 X134.8914 Y52.1017
G01 X134.9963 Y52.0798
G01 X135.1025 Y52.0666
G01 X135.2095 Y52.0622
G01 X135.3165 Y52.0667
G01 X135.4228 Y52.0799
G01 X135.5276 Y52.1018
G01 X135.6303 Y52.1322
G01 X135.7301 Y52.1710
G01 X135.8263 Y52.2179
G01 X135.9184 Y52.2726
G01 X136.0057 Y52.3346
G01 X136.0876 Y52.4037
G01 X136.1635 Y52.4792
G01 X142.4423 Y59.2628
G01 X142.4953 Y59.3239
G01 X142.5445 Y59.3881
G01 X142.5896 Y59.4553
G01 X142.6304 Y59.5251
G01 X142.6668 Y59.5973
G01 X142.6986 Y59.6717
G01 X142.7258 Y59.7479
G01 X142.7481 Y59.8256
G01 X142.7656 Y59.9046
G01 X142.7782 Y59.9845
G01 X142.7857 Y60.0650
G01 X142.7882 Y60.1459
G01 Y60.9258
G01 X144.3946
G01 Y58.4619
G01 X136.3579 Y49.7812
G01 X136.3048 Y49.7202
G01 X136.2556 Y49.6559
G01 X136.2105 Y49.5888
G01 X136.1697 Y49.5189
G01 X136.1333 Y49.4467
G01 X136.1014 Y49.3723
G01 X136.0743 Y49.2961
G01 X136.0519 Y49.2184
G01 X136.0344 Y49.1394
G01 X136.0219 Y49.0594
G01 X136.0143 Y48.9789
G01 X136.0118 Y48.8980
G01 Y44.4949
G01 X134.4054
G01 Y48.8980
G01 X134.4029 Y48.9789
G01 X134.3953 Y49.0594
G01 X134.3828 Y49.1394
G01 X134.3653 Y49.2184
G01 X134.3429 Y49.2961
G01 X134.3158 Y49.3723
G01 X134.2839 Y49.4467
G01 X134.2475 Y49.5189
G01 X134.2067 Y49.5888
G01 X134.1616 Y49.6559
G01 X134.1124 Y49.7202
G01 X134.0593 Y49.7812
G01 X126.0226 Y58.4619
G01 Y59.4706
G01 X126.2826 Y59.4603
M107
G00 Z2.0000


;No. 14: Hole 27
G00 X126.0226 Y58.4619 Z2.0000
G00 Z0.5000
G01 Z-1.1000 F400
M106 S240
G01 X125.7226 Y58.3443 F1000
G01 Y61.2258
G01 X127.9290
G01 X127.9103 Y60.9211
G01 X127.9057 Y60.6158
G01 X127.9152 Y60.3107
G01 X127.9388 Y60.0063
G01 X127.9522 Y59.9317
G01 X127.9712 Y59.8583
G01 X127.9958 Y59.7865
G01 X128.0257 Y59.7168
G01 X128.0608 Y59.6496
G01 X128.1009 Y59.5852
G01 X128.1458 Y59.5241
G01 X128.1952 Y59.4665
G01 X134.4756 Y52.6829
G01 X134.5340 Y52.6248
G01 X134.5970 Y52.5717
G01 X134.6642 Y52.5240
G01 X134.7350 Y52.4819
G01 X134.8091 Y52.4459
G01 X134.8858 Y52.4160
G01 X134.9648 Y52.3926
G01 X135.0454 Y52.3758
G01 X135.1272 Y52.3656
G01 X135.2095 Y52.3622
G01 X135.2918 Y52.3656
G01 X135.3735 Y52.3758
G01 X135.4542 Y52.3927
G01 X135.5331 Y52.4161
G01 X135.6099 Y52.4459
G01 X135.6840 Y52.4820
G01 X135.7548 Y52.5241
G01 X135.8219 Y52.5718
G01 X135.8849 Y52.6249
G01 X135.9433 Y52.6830
G01 X142.2221 Y59.4666
G01 X142.2822 Y59.5380
G01 X142.3354 Y59.6146
G01 X142.3813 Y59.6959
G01 X142.4193 Y59.7811
G01 X142.4493 Y59.8695
G01 X142.4708 Y59.9603
G01 X142.4839 Y60.0527
G01 X142.4882 Y60.1459
G01 Y61.2258
G01 X144.6946
G01 Y58.3443
G01 X136.5780 Y49.5774
G01 X136.5179 Y49.5060
G01 X136.4646 Y49.4294
G01 X136.4188 Y49.3481
G01 X136.3807 Y49.2629
G01 X136.3508 Y49.1745
G01 X136.3292 Y49.0837
G01 X136.3162 Y48.9913
G01 X136.3118 Y48.8980
G01 Y44.1949
G01 X134.1054
G01 Y48.8980
G01 X134.1043 Y48.9447
G01 X134.1010 Y48.9913
G01 X134.0956 Y49.0376
G01 X134.0880 Y49.0837
G01 X134.0783 Y49.1293
G01 X134.0664 Y49.1745
G01 X134.0525 Y49.2190
G01 X134.0365 Y49.2629
G01 X134.0184 Y49.3059
G01 X133.9984 Y49.3481
G01 X133.9764 Y49.3893
G01 X133.9526 Y49.4294
G01 X133.9268 Y49.4683
G01 X133.8993 Y49.5060
G01 X133.8701 Y49.5424
G01 X133.8392 Y49.5774
G01 X125.7226 Y58.3443
G01 X126.0226 Y58.4619
M107
G00 Z0.0000
G00 Z2.0000


;No. 15: Helical drill 7
G00 X178.5543 Y32.6465 Z2.0000
G00 Z0.5000
M106 S240
G01 X178.5497 Y32.5419 Z0.4722 F400
G01 X178.5360 Y32.4382 Z0.4444
G01 X178.5134 Y32.3360 Z0.4167
G01 X178.4819 Y32.2362 Z0.3889
G01 X178.4419 Y32.1395 Z0.3611
G01 X178.3935 Y32.0467 Z0.3333
G01 X178.3373 Y31.9584 Z0.3056
G01 X178.2736 Y31.8754 Z0.2778
G01 X178.2029 Y31.7983 Z0.2500
G01 X178.1258 Y31.7276 Z0.2222
G01 X178.0427 Y31.6639 Z0.1944
G01 X177.9545 Y31.6076 Z0.1667
G01 X177.8617 Y31.5593 Z0.1389
G01 X177.7650 Y31.5193 Z0.1111
G01 X177.6652 Y31.4878 Z0.0833
G01 X177.5630 Y31.4652 Z0.0556
G01 X177.4592 Y31.4515 Z0.0278
G01 X177.3547 Y31.4469 Z0.0000
G01 X177.2502 Y31.4515 Z-0.0278
G01 X177.1464 Y31.4652 Z-0.0556
G01 X177.0442 Y31.4878 Z-0.0833
G01 X176.9444 Y31.5193 Z-0.1111
G01 X176.8478 Y31.5593 Z-0.1389
G01 X176.7549 Y31.6076 Z-0.1667
G01 X176.6667 Y31.6639 Z-0.1944
G01 X176.5836 Y31.7276 Z-0.2222
G01 X176.5065 Y31.7983 Z-0.2500
G01 X176.4358 Y31.8754 Z-0.2778
G01 X176.3721 Y31.9584 Z-0.3056
G01 X176.3159 Y32.0467 Z-0.3333
G01 X176.2675 Y32.1395 Z-0.3611
G01 X176.2275 Y32.2362 Z-0.3889
G01 X176.1960 Y32.3360 Z-0.4167
G01 X176.1734 Y32.4382 Z-0.4444
G01 X176.1597 Y32.5419 Z-0.4722
G01 X176.1552 Y32.6465 Z-0.5000
G01 X176.1597 Y32.7510 Z-0.5278
G01 X176.1734 Y32.8548 Z-0.5556
G01 X176.1960 Y32.9569 Z-0.5833
G01 X176.2275 Y33.0567 Z-0.6111
G01 X176.2675 Y33.1534 Z-0.6389
G01 X176.3159 Y33.2462 Z-0.6667
G01 X176.3721 Y33.3345 Z-0.6944
G01 X176.4358 Y33.4175 Z-0.7222
G01 X176.5065 Y33.4947 Z-0.7500
G01 X176.5836 Y33.5654 Z-0.7778
G01 X176.6667 Y33.6291 Z-0.8056
G01 X176.7549 Y33.6853 Z-0.8333
G01 X176.8478 Y33.7336 Z-0.8611
G01 X176.9444 Y33.7737 Z-0.8889
G01 X177.0442 Y33.8051 Z-0.9167
G01 X177.1464 Y33.8278 Z-0.9444
G01 X177.2502 Y33.8415 Z-0.9722
G01 X177.3547 Y33.8460 Z-1.0000
G01 X177.4592 Y33.8415 Z-1.0278
G01 X177.5630 Y33.8278 Z-1.0556
G01 X177.6652 Y33.8051 Z-1.0833
G01 X177.7650 Y33.7737 Z-1.1111
G01 X177.8617 Y33.7336 Z-1.1389
G01 X177.9545 Y33.6853 Z-1.1667
G01 X178.0427 Y33.6291 Z-1.1944
G01 X178.1258 Y33.5654 Z-1.2222
G01 X178.2029 Y33.4947 Z-1.2500
G01 X178.2736 Y33.4175 Z-1.2778
G01 X178.3373 Y33.3345 Z-1.3056
G01 X178.3935 Y33.2462 Z-1.3333
G01 X178.4419 Y33.1534 Z-1.3611
G01 X178.4819 Y33.0567 Z-1.3889
G01 X178.5134 Y32.9569 Z-1.4167
G01 X178.5360 Y32.8548 Z-1.4444
G01 X178.5497 Y32.7510 Z-1.4722
G01 X178.5543 Y32.6465 Z-1.5000
G01 X178.5497 Y32.5419 Z-1.5278
G01 X178.5360 Y32.4382 Z-1.5556
G01 X178.5134 Y32.3360 Z-1.5833
G01 X178.4819 Y32.2362 Z-1.6111
G01 X178.4419 Y32.1395 Z-1.6389
G01 X178.3935 Y32.0467 Z-1.6667
G01 X178.3373 Y31.9584 Z-1.6944
G01 X178.2736 Y31.8754 Z-1.7222
G01 X178.2029 Y31.7983 Z-1.7500
G01 X178.1258 Y31.7276 Z-1.7778
G01 X178.0427 Y31.6639 Z-1.8056
G01 X177.9545 Y31.6076 Z-1.8333
G01 X177.8617 Y31.5593 Z-1.8611
G01 X177.7650 Y31.5193 Z-1.8889
G01 X177.6652 Y31.4878 Z-1.9167
G01 X177.5630 Y31.4652 Z-1.9444
G01 X177.4592 Y31.4515 Z-1.9722
G01 X177.3547 Y31.4469 Z-2.0000
G01 X177.2502 Y31.4515 Z-2.0278
G01 X177.1464 Y31.4652 Z-2.0556
G01 X177.0442 Y31.4878 Z-2.0833
G01 X176.9444 Y31.5193 Z-2.1111
G01 X176.8478 Y31.5593 Z-2.1389
G01 X176.7549 Y31.6076 Z-2.1667
G01 X176.6667 Y31.6639 Z-2.1944
G01 X176.5836 Y31.7276 Z-2.2222
G01 X176.5065 Y31.7983 Z-2.2500
G01 X176.4358 Y31.8754 Z-2.2778
G01 X176.3721 Y31.9584 Z-2.3056
G01 X176.3159 Y32.0467 Z-2.3333
G01 X176.2675 Y32.1395 Z-2.3611
G01 X176.2275 Y32.2362 Z-2.3889
G01 X176.1960 Y32.3360 Z-2.4167
G01 X176.1734 Y32.4382 Z-2.4444
G01 X176.1597 Y32.5419 Z-2.4722
G01 X176.1552 Y32.6465 Z-2.5000
G01 X176.1597 Y32.7510 Z-2.5278
G01 X176.1734 Y32.8548 Z-2.5556
G01 X176.1960 Y32.9569 Z-2.5833
G01 X176.2275 Y33.0567 Z-2.6111
G01 X176.2675 Y33.1534 Z-2.6389
G01 X176.3159 Y33.2462 Z-2.6667
G01 X176.3721 Y33.3345 Z-2.6944
G01 X176.4358 Y33.4175 Z-2.7222
G01 X176.5065 Y33.4947 Z-2.7500
G01 X176.5836 Y33.5654 Z-2.7778
G01 X176.6667 Y33.6291 Z-2.8056
G01 X176.7549 Y33.6853 Z-2.8333
G01 X176.8478 Y33.7336 Z-2.8611
G01 X176.9444 Y33.7737 Z-2.8889
G01 X177.0442 Y33.8051 Z-2.9167
G01 X177.1464 Y33.8278 Z-2.9444
G01 X177.2502 Y33.8415 Z-2.9722
G01 X177.3547 Y33.8460 Z-3.0000
G01 X177.4592 Y33.8415 Z-3.0278
G01 X177.5630 Y33.8278 Z-3.0556
G01 X177.6652 Y33.8051 Z-3.0833
G01 X177.7650 Y33.7737 Z-3.1111
G01 X177.8617 Y33.7336 Z-3.1389
G01 X177.9545 Y33.6853 Z-3.1667
G01 X178.0427 Y33.6291 Z-3.1944
G01 X178.1258 Y33.5654 Z-3.2222
G01 X178.2029 Y33.4947 Z-3.2500
G01 X178.2736 Y33.4175 Z-3.2778
G01 X178.3373 Y33.3345 Z-3.3056
G01 X178.3935 Y33.2462 Z-3.3333
G01 X178.4419 Y33.1534 Z-3.3611
G01 X178.4819 Y33.0567 Z-3.3889
G01 X178.5134 Y32.9569 Z-3.4167
G01 X178.5360 Y32.8548 Z-3.4444
G01 X178.5497 Y32.7510 Z-3.4722
G01 X178.5543 Y32.6465 Z-3.5000
G01 X178.5497 Y32.5419 Z-3.5278
G01 X178.5360 Y32.4382 Z-3.5556
G01 X178.5134 Y32.3360 Z-3.5833
G01 X178.4819 Y32.2362 Z-3.6111
G01 X178.4419 Y32.1395 Z-3.6389
G01 X178.3935 Y32.0467 Z-3.6667
G01 X178.3373 Y31.9584 Z-3.6944
G01 X178.2736 Y31.8754 Z-3.7222
G01 X178.2029 Y31.7983 Z-3.7500
G01 X178.1258 Y31.7276 Z-3.7778
G01 X178.0427 Y31.6639 Z-3.8056
G01 X177.9545 Y31.6076 Z-3.8333
G01 X177.8617 Y31.5593 Z-3.8611
G01 X177.7650 Y31.5193 Z-3.8889
G01 X177.6652 Y31.4878 Z-3.9167
G01 X177.5630 Y31.4652 Z-3.9444
G01 X177.4592 Y31.4515 Z-3.9722
G01 X177.3547 Y31.4469 Z-4.0000
G01 X177.2502 Y31.4515 Z-4.0278
G01 X177.1464 Y31.4652 Z-4.0556
G01 X177.0442 Y31.4878 Z-4.0833
G01 X176.9444 Y31.5193 Z-4.1111
G01 X176.8478 Y31.5593 Z-4.1389
G01 X176.7549 Y31.6076 Z-4.1667
G01 X176.6667 Y31.6639 Z-4.1944
G01 X176.5836 Y31.7276 Z-4.2222
G01 X176.5065 Y31.7983 Z-4.2500
G01 X176.4358 Y31.8754 Z-4.2778
G01 X176.3721 Y31.9584 Z-4.3056
G01 X176.3159 Y32.0467 Z-4.3333
G01 X176.2675 Y32.1395 Z-4.3611
G01 X176.2275 Y32.2362 Z-4.3889
G01 X176.1960 Y32.3360 Z-4.4167
G01 X176.1734 Y32.4382 Z-4.4444
G01 X176.1597 Y32.5419 Z-4.4722
G01 X176.1552 Y32.6465 Z-4.5000
G01 X176.1597 Y32.7510 Z-4.5278
G01 X176.1734 Y32.8548 Z-4.5556
G01 X176.1960 Y32.9569 Z-4.5833
G01 X176.2275 Y33.0567 Z-4.6111
G01 X176.2675 Y33.1534 Z-4.6389
G01 X176.3159 Y33.2462 Z-4.6667
G01 X176.3721 Y33.3345 Z-4.6944
G01 X176.4358 Y33.4175 Z-4.7222
G01 X176.5065 Y33.4947 Z-4.7500
G01 X176.5836 Y33.5654 Z-4.7778
G01 X176.6667 Y33.6291 Z-4.8056
G01 X176.7549 Y33.6853 Z-4.8333
G01 X176.8478 Y33.7336 Z-4.8611
G01 X176.9444 Y33.7737 Z-4.8889
G01 X177.0442 Y33.8051 Z-4.9167
G01 X177.1464 Y33.8278 Z-4.9444
G01 X177.2502 Y33.8415 Z-4.9722
G01 X177.3547 Y33.8460 Z-5.0000
G01 X177.4592 Y33.8415 Z-5.0278
G01 X177.5630 Y33.8278 Z-5.0556
G01 X177.6652 Y33.8051 Z-5.0833
G01 X177.7650 Y33.7737 Z-5.1111
G01 X177.8617 Y33.7336 Z-5.1389
G01 X177.9545 Y33.6853 Z-5.1667
G01 X178.0427 Y33.6291 Z-5.1944
G01 X178.1258 Y33.5654 Z-5.2222
G01 X178.2029 Y33.4947 Z-5.2500
G01 X178.2736 Y33.4175 Z-5.2778
G01 X178.3373 Y33.3345 Z-5.3056
G01 X178.3935 Y33.2462 Z-5.3333
G01 X178.4419 Y33.1534 Z-5.3611
G01 X178.4819 Y33.0567 Z-5.3889
G01 X178.5134 Y32.9569 Z-5.4167
G01 X178.5360 Y32.8548 Z-5.4444
G01 X178.5497 Y32.7510 Z-5.4722
G01 X178.5543 Y32.6465 Z-5.5000
G01 X178.5497 Y32.5419
G01 X178.5360 Y32.4382
G01 X178.5134 Y32.3360
G01 X178.4819 Y32.2362
G01 X178.4419 Y32.1395
G01 X178.3935 Y32.0467
G01 X178.3373 Y31.9584
G01 X178.2736 Y31.8754
G01 X178.2029 Y31.7983
G01 X178.1258 Y31.7276
G01 X178.0427 Y31.6639
G01 X177.9545 Y31.6076
G01 X177.8617 Y31.5593
G01 X177.7650 Y31.5193
G01 X177.6652 Y31.4878
G01 X177.5630 Y31.4652
G01 X177.4592 Y31.4515
G01 X177.3547 Y31.4469
G01 X177.2502 Y31.4515
G01 X177.1464 Y31.4652
G01 X177.0442 Y31.4878
G01 X176.9444 Y31.5193
G01 X176.8478 Y31.5593
G01 X176.7549 Y31.6076
G01 X176.6667 Y31.6639
G01 X176.5836 Y31.7276
G01 X176.5065 Y31.7983
G01 X176.4358 Y31.8754
G01 X176.3721 Y31.9584
G01 X176.3159 Y32.0467
G01 X176.2675 Y32.1395
G01 X176.2275 Y32.2362
G01 X176.1960 Y32.3360
G01 X176.1734 Y32.4382
G01 X176.1597 Y32.5419
G01 X176.1552 Y32.6465
G01 X176.1597 Y32.7510
G01 X176.1734 Y32.8548
G01 X176.1960 Y32.9569
G01 X176.2275 Y33.0567
G01 X176.2675 Y33.1534
G01 X176.3159 Y33.2462
G01 X176.3721 Y33.3345
G01 X176.4358 Y33.4175
G01 X176.5065 Y33.4947
G01 X176.5836 Y33.5654
G01 X176.6667 Y33.6291
G01 X176.7549 Y33.6853
G01 X176.8478 Y33.7336
G01 X176.9444 Y33.7737
G01 X177.0442 Y33.8051
G01 X177.1464 Y33.8278
G01 X177.2502 Y33.8415
G01 X177.3547 Y33.8460
G01 X177.4592 Y33.8415
G01 X177.5630 Y33.8278
G01 X177.6652 Y33.8051
G01 X177.7650 Y33.7737
G01 X177.8617 Y33.7336
G01 X177.9545 Y33.6853
G01 X178.0427 Y33.6291
G01 X178.1258 Y33.5654
G01 X178.2029 Y33.4947
G01 X178.2736 Y33.4175
G01 X178.3373 Y33.3345
G01 X178.3935 Y33.2462
G01 X178.4419 Y33.1534
G01 X178.4819 Y33.0567
G01 X178.5134 Y32.9569
G01 X178.5360 Y32.8548
G01 X178.5497 Y32.7510
G01 X178.5543 Y32.6465
M107
M106 S240
G01 X178.5512 Y32.5680 Z-5.4750
M107
M106 S240
G01 X178.5419 Y32.4900 Z-5.4500
M107
M106 S240
G01 X178.5266 Y32.4130 Z-5.4250
M107
M106 S240
G01 X178.5053 Y32.3375 Z-5.4000
M107
M106 S240
G01 X178.4781 Y32.2638 Z-5.3750
M107
M106 S240
G01 X178.4453 Y32.1925 Z-5.3500
M107
M106 S240
G01 X178.4069 Y32.1240 Z-5.3250
M107
M106 S240
G01 X178.3633 Y32.0587 Z-5.3000
M107
M106 S240
G01 X178.3147 Y31.9970 Z-5.2750
M107
M106 S240
G01 X178.2614 Y31.9394 Z-5.2500
M107
M106 S240
G01 X178.2037 Y31.8861 Z-5.2250
M107
M106 S240
G01 X178.1420 Y31.8375 Z-5.2000
M107
M106 S240
G01 X178.0767 Y31.7938 Z-5.1750
M107
M106 S240
G01 X178.0082 Y31.7555 Z-5.1500
M107
M106 S240
G01 X177.9369 Y31.7226 Z-5.1250
M107
M106 S240
G01 X177.8633 Y31.6954 Z-5.1000
M107
M106 S240
G01 X177.7877 Y31.6741 Z-5.0750
M107
M106 S240
G01 X177.7107 Y31.6588 Z-5.0500
M107
M106 S240
G01 X177.6327 Y31.6496 Z-5.0250
M107
M106 S240
G01 X177.5543 Y31.6465 Z-5.0000
M107
G00 Z2.0000


;No. 16: Helical drill 7
G00 X178.8543 Y32.6465 Z2.0000
G00 Z0.5000
M106 S240
G01 X178.8501 Y32.5344 Z0.4286 F400
G01 X178.8375 Y32.4230 Z0.3571
G01 X178.8167 Y32.3128 Z0.2857
G01 X178.7876 Y32.2045 Z0.2143
G01 X178.7506 Y32.0986 Z0.1429
G01 X178.7057 Y31.9958 Z0.0714
G01 X178.6533 Y31.8967 Z0.0000
G01 X178.5937 Y31.8017 Z-0.0714
G01 X178.5271 Y31.7115 Z-0.1429
G01 X178.4539 Y31.6265 Z-0.2143
G01 X178.3747 Y31.5472 Z-0.2857
G01 X178.2897 Y31.4741 Z-0.3571
G01 X178.1994 Y31.4075 Z-0.4286
G01 X178.1045 Y31.3478 Z-0.5000
G01 X178.0053 Y31.2954 Z-0.5714
G01 X177.9025 Y31.2506 Z-0.6429
G01 X177.7967 Y31.2135 Z-0.7143
G01 X177.6884 Y31.1845 Z-0.7857
G01 X177.5782 Y31.1637 Z-0.8571
G01 X177.4668 Y31.1511 Z-0.9286
G01 X177.3547 Y31.1469 Z-1.0000
G01 X177.2426 Y31.1511 Z-1.0714
G01 X177.1312 Y31.1637 Z-1.1429
G01 X177.0210 Y31.1845 Z-1.2143
G01 X176.9127 Y31.2135 Z-1.2857
G01 X176.8069 Y31.2506 Z-1.3571
G01 X176.7041 Y31.2954 Z-1.4286
G01 X176.6049 Y31.3478 Z-1.5000
G01 X176.5100 Y31.4075 Z-1.5714
G01 X176.4197 Y31.4741 Z-1.6429
G01 X176.3348 Y31.5472 Z-1.7143
G01 X176.2555 Y31.6265 Z-1.7857
G01 X176.1823 Y31.7115 Z-1.8571
G01 X176.1157 Y31.8017 Z-1.9286
G01 X176.0561 Y31.8967 Z-2.0000
G01 X176.0037 Y31.9958 Z-2.0714
G01 X175.9588 Y32.0986 Z-2.1429
G01 X175.9218 Y32.2045 Z-2.2143
G01 X175.8928 Y32.3128 Z-2.2857
G01 X175.8719 Y32.4230 Z-2.3571
G01 X175.8593 Y32.5344 Z-2.4286
G01 X175.8552 Y32.6465 Z-2.5000
G01 X175.8593 Y32.7585 Z-2.5714
G01 X175.8719 Y32.8700 Z-2.6429
G01 X175.8928 Y32.9802 Z-2.7143
G01 X175.9218 Y33.0885 Z-2.7857
G01 X175.9588 Y33.1943 Z-2.8571
G01 X176.0037 Y33.2971 Z-2.9286
G01 X176.0561 Y33.3962 Z-3.0000
G01 X176.1157 Y33.4912 Z-3.0714
G01 X176.1823 Y33.5814 Z-3.1429
G01 X176.2555 Y33.6664 Z-3.2143
G01 X176.3348 Y33.7457 Z-3.2857
G01 X176.4197 Y33.8189 Z-3.3571
G01 X176.5100 Y33.8855 Z-3.4286
G01 X176.6049 Y33.9451 Z-3.5000
G01 X176.7041 Y33.9975 Z-3.5714
G01 X176.8069 Y34.0424 Z-3.6429
G01 X176.9127 Y34.0794 Z-3.7143
G01 X177.0210 Y34.1084 Z-3.7857
G01 X177.1312 Y34.1293 Z-3.8571
G01 X177.2426 Y34.1418 Z-3.9286
G01 X177.3547 Y34.1460 Z-4.0000
G01 X177.4668 Y34.1418 Z-4.0714
G01 X177.5782 Y34.1293 Z-4.1429
G01 X177.6884 Y34.1084 Z-4.2143
G01 X177.7967 Y34.0794 Z-4.2857
G01 X177.9025 Y34.0424 Z-4.3571
G01 X178.0053 Y33.9975 Z-4.4286
G01 X178.1045 Y33.9451 Z-4.5000
G01 X178.1994 Y33.8855 Z-4.5714
G01 X178.2897 Y33.8189 Z-4.6429
G01 X178.3747 Y33.7457 Z-4.7143
G01 X178.4539 Y33.6664 Z-4.7857
G01 X178.5271 Y33.5814 Z-4.8571
G01 X178.5937 Y33.4912 Z-4.9286
G01 X178.6533 Y33.3962 Z-5.0000
G01 X178.7057 Y33.2971 Z-5.0714
G01 X178.7506 Y33.1943 Z-5.1429
G01 X178.7876 Y33.0885 Z-5.2143
G01 X178.8167 Y32.9802 Z-5.2857
G01 X178.8375 Y32.8700 Z-5.3571
G01 X178.8501 Y32.7585 Z-5.4286
G01 X178.8543 Y32.6465 Z-5.5000
G01 X178.8501 Y32.5344
G01 X178.8375 Y32.4230
G01 X178.8167 Y32.3128
G01 X178.7876 Y32.2045
G01 X178.7506 Y32.0986
G01 X178.7057 Y31.9958
G01 X178.6533 Y31.8967
G01 X178.5937 Y31.8017
G01 X178.5271 Y31.7115
G01 X178.4539 Y31.6265
G01 X178.3747 Y31.5472
G01 X178.2897 Y31.4741
G01 X178.1994 Y31.4075
G01 X178.1045 Y31.3478
G01 X178.0053 Y31.2954
G01 X177.9025 Y31.2506
G01 X177.7967 Y31.2135
G01 X177.6884 Y31.1845
G01 X177.5782 Y31.1637
G01 X177.4668 Y31.1511
G01 X177.3547 Y31.1469
G01 X177.2426 Y31.1511
G01 X177.1312 Y31.1637
G01 X177.0210 Y31.1845
G01 X176.9127 Y31.2135
G01 X176.8069 Y31.2506
G01 X176.7041 Y31.2954
G01 X176.6049 Y31.3478
G01 X176.5100 Y31.4075
G01 X176.4197 Y31.4741
G01 X176.3348 Y31.5472
G01 X176.2555 Y31.6265
G01 X176.1823 Y31.7115
G01 X176.1157 Y31.8017
G01 X176.0561 Y31.8967
G01 X176.0037 Y31.9958
G01 X175.9588 Y32.0986
G01 X175.9218 Y32.2045
G01 X175.8928 Y32.3128
G01 X175.8719 Y32.4230
G01 X175.8593 Y32.5344
G01 X175.8552 Y32.6465
G01 X175.8593 Y32.7585
G01 X175.8719 Y32.8700
G01 X175.8928 Y32.9802
G01 X175.9218 Y33.0885
G01 X175.9588 Y33.1943
G01 X176.0037 Y33.2971
G01 X176.0561 Y33.3962
G01 X176.1157 Y33.4912
G01 X176.1823 Y33.5814
G01 X176.2555 Y33.6664
G01 X176.3348 Y33.7457
G01 X176.4197 Y33.8189
G01 X176.5100 Y33.8855
G01 X176.6049 Y33.9451
G01 X176.7041 Y33.9975
G01 X176.8069 Y34.0424
G01 X176.9127 Y34.0794
G01 X177.0210 Y34.1084
G01 X177.1312 Y34.1293
G01 X177.2426 Y34.1418
G01 X177.3547 Y34.1460
G01 X177.4668 Y34.1418
G01 X177.5782 Y34.1293
G01 X177.6884 Y34.1084
G01 X177.7967 Y34.0794
G01 X177.9025 Y34.0424
G01 X178.0053 Y33.9975
G01 X178.1045 Y33.9451
G01 X178.1994 Y33.8855
G01 X178.2897 Y33.8189
G01 X178.3747 Y33.7457
G01 X178.4539 Y33.6664
G01 X178.5271 Y33.5814
G01 X178.5937 Y33.4912
G01 X178.6533 Y33.3962
G01 X178.7057 Y33.2971
G01 X178.7506 Y33.1943
G01 X178.7876 Y33.0885
G01 X178.8167 Y32.9802
G01 X178.8375 Y32.8700
G01 X178.8501 Y32.7585
G01 X178.8543 Y32.6465
M107
M106 S240
G01 X178.8512 Y32.5680 Z-5.4750
M107
M106 S240
G01 X178.8419 Y32.4900 Z-5.4500
M107
M106 S240
G01 X178.8266 Y32.4130 Z-5.4250
M107
M106 S240
G01 X178.8053 Y32.3375 Z-5.4000
M107
M106 S240
G01 X178.7781 Y32.2638 Z-5.3750
M107
M106 S240
G01 X178.7453 Y32.1925 Z-5.3500
M107
M106 S240
G01 X178.7069 Y32.1240 Z-5.3250
M107
M106 S240
G01 X178.6633 Y32.0587 Z-5.3000
M107
M106 S240
G01 X178.6147 Y31.9970 Z-5.2750
M107
M106 S240
G01 X178.5614 Y31.9394 Z-5.2500
M107
M106 S240
G01 X178.5037 Y31.8861 Z-5.2250
M107
M106 S240
G01 X178.4420 Y31.8375 Z-5.2000
M107
M106 S240
G01 X178.3767 Y31.7938 Z-5.1750
M107
M106 S240
G01 X178.3082 Y31.7555 Z-5.1500
M107
M106 S240
G01 X178.2369 Y31.7226 Z-5.1250
M107
M106 S240
G01 X178.1633 Y31.6954 Z-5.1000
M107
M106 S240
G01 X178.0877 Y31.6741 Z-5.0750
M107
M106 S240
G01 X178.0107 Y31.6588 Z-5.0500
M107
M106 S240
G01 X177.9327 Y31.6496 Z-5.0250
M107
M106 S240
G01 X177.8543 Y31.6465 Z-5.0000
M107
G00 Z2.0000


;No. 17: Helical drill 6
G00 X211.5833 Y40.3833 Z2.0000
G00 Z0.5000
M106 S240
G01 X211.5788 Y40.2787 Z0.4722 F400
G01 X211.5651 Y40.1749 Z0.4444
G01 X211.5425 Y40.0727 Z0.4167
G01 X211.5110 Y39.9729 Z0.3889
G01 X211.4709 Y39.8762 Z0.3611
G01 X211.4226 Y39.7833 Z0.3333
G01 X211.3663 Y39.6950 Z0.3056
G01 X211.3026 Y39.6120 Z0.2778
G01 X211.2319 Y39.5348 Z0.2500
G01 X211.1547 Y39.4641 Z0.2222
G01 X211.0716 Y39.4004 Z0.1944
G01 X210.9834 Y39.3441 Z0.1667
G01 X210.8905 Y39.2958 Z0.1389
G01 X210.7938 Y39.2557 Z0.1111
G01 X210.6939 Y39.2242 Z0.0833
G01 X210.5917 Y39.2016 Z0.0556
G01 X210.4879 Y39.1879 Z0.0278
G01 X210.3834 Y39.1833 Z0.0000
G01 X210.2788 Y39.1879 Z-0.0278
G01 X210.1750 Y39.2016 Z-0.0556
G01 X210.0728 Y39.2242 Z-0.0833
G01 X209.9729 Y39.2557 Z-0.1111
G01 X209.8762 Y39.2958 Z-0.1389
G01 X209.7834 Y39.3441 Z-0.1667
G01 X209.6951 Y39.4004 Z-0.1944
G01 X209.6120 Y39.4641 Z-0.2222
G01 X209.5348 Y39.5348 Z-0.2500
G01 X209.4641 Y39.6120 Z-0.2778
G01 X209.4004 Y39.6950 Z-0.3056
G01 X209.3441 Y39.7833 Z-0.3333
G01 X209.2958 Y39.8762 Z-0.3611
G01 X209.2557 Y39.9729 Z-0.3889
G01 X209.2243 Y40.0727 Z-0.4167
G01 X209.2016 Y40.1749 Z-0.4444
G01 X209.1879 Y40.2787 Z-0.4722
G01 X209.1834 Y40.3833 Z-0.5000
G01 X209.1879 Y40.4879 Z-0.5278
G01 X209.2016 Y40.5917 Z-0.5556
G01 X209.2243 Y40.6939 Z-0.5833
G01 X209.2557 Y40.7937 Z-0.6111
G01 X209.2958 Y40.8905 Z-0.6389
G01 X209.3441 Y40.9833 Z-0.6667
G01 X209.4004 Y41.0716 Z-0.6944
G01 X209.4641 Y41.1547 Z-0.7222
G01 X209.5348 Y41.2318 Z-0.7500
G01 X209.6120 Y41.3026 Z-0.7778
G01 X209.6951 Y41.3663 Z-0.8056
G01 X209.7834 Y41.4225 Z-0.8333
G01 X209.8762 Y41.4709 Z-0.8611
G01 X209.9729 Y41.5109 Z-0.8889
G01 X210.0728 Y41.5424 Z-0.9167
G01 X210.1750 Y41.5651 Z-0.9444
G01 X210.2788 Y41.5787 Z-0.9722
G01 X210.3834 Y41.5833 Z-1.0000
G01 X210.4879 Y41.5787 Z-1.0278
G01 X210.5917 Y41.5651 Z-1.0556
G01 X210.6939 Y41.5424 Z-1.0833
G01 X210.7938 Y41.5109 Z-1.1111
G01 X210.8905 Y41.4709 Z-1.1389
G01 X210.9834 Y41.4225 Z-1.1667
G01 X211.0716 Y41.3663 Z-1.1944
G01 X211.1547 Y41.3026 Z-1.2222
G01 X211.2319 Y41.2318 Z-1.2500
G01 X211.3026 Y41.1547 Z-1.2778
G01 X211.3663 Y41.0716 Z-1.3056
G01 X211.4226 Y40.9833 Z-1.3333
G01 X211.4709 Y40.8905 Z-1.3611
G01 X211.5110 Y40.7937 Z-1.3889
G01 X211.5425 Y40.6939 Z-1.4167
G01 X211.5651 Y40.5917 Z-1.4444
G01 X211.5788 Y40.4879 Z-1.4722
G01 X211.5833 Y40.3833 Z-1.5000
G01 X211.5788 Y40.2787 Z-1.5278
G01 X211.5651 Y40.1749 Z-1.5556
G01 X211.5425 Y40.0727 Z-1.5833
G01 X211.5110 Y39.9729 Z-1.6111
G01 X211.4709 Y39.8762 Z-1.6389
G01 X211.4226 Y39.7833 Z-1.6667
G01 X211.3663 Y39.6950 Z-1.6944
G01 X211.3026 Y39.6120 Z-1.7222
G01 X211.2319 Y39.5348 Z-1.7500
G01 X211.1547 Y39.4641 Z-1.7778
G01 X211.0716 Y39.4004 Z-1.8056
G01 X210.9834 Y39.3441 Z-1.8333
G01 X210.8905 Y39.2958 Z-1.8611
G01 X210.7938 Y39.2557 Z-1.8889
G01 X210.6939 Y39.2242 Z-1.9167
G01 X210.5917 Y39.2016 Z-1.9444
G01 X210.4879 Y39.1879 Z-1.9722
G01 X210.3834 Y39.1833 Z-2.0000
G01 X210.2788 Y39.1879 Z-2.0278
G01 X210.1750 Y39.2016 Z-2.0556
G01 X210.0728 Y39.2242 Z-2.0833
G01 X209.9729 Y39.2557 Z-2.1111
G01 X209.8762 Y39.2958 Z-2.1389
G01 X209.7834 Y39.3441 Z-2.1667
G01 X209.6951 Y39.4004 Z-2.1944
G01 X209.6120 Y39.4641 Z-2.2222
G01 X209.5348 Y39.5348 Z-2.2500
G01 X209.4641 Y39.6120 Z-2.2778
G01 X209.4004 Y39.6950 Z-2.3056
G01 X209.3441 Y39.7833 Z-2.3333
G01 X209.2958 Y39.8762 Z-2.3611
G01 X209.2557 Y39.9729 Z-2.3889
G01 X209.2243 Y40.0727 Z-2.4167
G01 X209.2016 Y40.1749 Z-2.4444
G01 X209.1879 Y40.2787 Z-2.4722
G01 X209.1834 Y40.3833 Z-2.5000
G01 X209.1879 Y40.4879 Z-2.5278
G01 X209.2016 Y40.5917 Z-2.5556
G01 X209.2243 Y40.6939 Z-2.5833
G01 X209.2557 Y40.7937 Z-2.6111
G01 X209.2958 Y40.8905 Z-2.6389
G01 X209.3441 Y40.9833 Z-2.6667
G01 X209.4004 Y41.0716 Z-2.6944
G01 X209.4641 Y41.1547 Z-2.7222
G01 X209.5348 Y41.2318 Z-2.7500
G01 X209.6120 Y41.3026 Z-2.7778
G01 X209.6951 Y41.3663 Z-2.8056
G01 X209.7834 Y41.4225 Z-2.8333
G01 X209.8762 Y41.4709 Z-2.8611
G01 X209.9729 Y41.5109 Z-2.8889
G01 X210.0728 Y41.5424 Z-2.9167
G01 X210.1750 Y41.5651 Z-2.9444
G01 X210.2788 Y41.5787 Z-2.9722
G01 X210.3834 Y41.5833 Z-3.0000
G01 X210.4879 Y41.5787 Z-3.0278
G01 X210.5917 Y41.5651 Z-3.0556
G01 X210.6939 Y41.5424 Z-3.0833
G01 X210.7938 Y41.5109 Z-3.1111
G01 X210.8905 Y41.4709 Z-3.1389
G01 X210.9834 Y41.4225 Z-3.1667
G01 X211.0716 Y41.3663 Z-3.1944
G01 X211.1547 Y41.3026 Z-3.2222
G01 X211.2319 Y41.2318 Z-3.2500
G01 X211.3026 Y41.1547 Z-3.2778
G01 X211.3663 Y41.0716 Z-3.3056
G01 X211.4226 Y40.9833 Z-3.3333
G01 X211.4709 Y40.8905 Z-3.3611
G01 X211.5110 Y40.7937 Z-3.3889
G01 X211.5425 Y40.6939 Z-3.4167
G01 X211.5651 Y40.5917 Z-3.4444
G01 X211.5788 Y40.4879 Z-3.4722
G01 X211.5833 Y40.3833 Z-3.5000
G01 X211.5788 Y40.2787 Z-3.5278
G01 X211.5651 Y40.1749 Z-3.5556
G01 X211.5425 Y40.0727 Z-3.5833
G01 X211.5110 Y39.9729 Z-3.6111
G01 X211.4709 Y39.8762 Z-3.6389
G01 X211.4226 Y39.7833 Z-3.6667
G01 X211.3663 Y39.6950 Z-3.6944
G01 X211.3026 Y39.6120 Z-3.7222
G01 X211.2319 Y39.5348 Z-3.7500
G01 X211.1547 Y39.4641 Z-3.7778
G01 X211.0716 Y39.4004 Z-3.8056
G01 X210.9834 Y39.3441 Z-3.8333
G01 X210.8905 Y39.2958 Z-3.8611
G01 X210.7938 Y39.2557 Z-3.8889
G01 X210.6939 Y39.2242 Z-3.9167
G01 X210.5917 Y39.2016 Z-3.9444
G01 X210.4879 Y39.1879 Z-3.9722
G01 X210.3834 Y39.1833 Z-4.0000
G01 X210.2788 Y39.1879 Z-4.0278
G01 X210.1750 Y39.2016 Z-4.0556
G01 X210.0728 Y39.2242 Z-4.0833
G01 X209.9729 Y39.2557 Z-4.1111
G01 X209.8762 Y39.2958 Z-4.1389
G01 X209.7834 Y39.3441 Z-4.1667
G01 X209.6951 Y39.4004 Z-4.1944
G01 X209.6120 Y39.4641 Z-4.2222
G01 X209.5348 Y39.5348 Z-4.2500
G01 X209.4641 Y39.6120 Z-4.2778
G01 X209.4004 Y39.6950 Z-4.3056
G01 X209.3441 Y39.7833 Z-4.3333
G01 X209.2958 Y39.8762 Z-4.3611
G01 X209.2557 Y39.9729 Z-4.3889
G01 X209.2243 Y40.0727 Z-4.4167
G01 X209.2016 Y40.1749 Z-4.4444
G01 X209.1879 Y40.2787 Z-4.4722
G01 X209.1834 Y40.3833 Z-4.5000
G01 X209.1879 Y40.4879 Z-4.5278
G01 X209.2016 Y40.5917 Z-4.5556
G01 X209.2243 Y40.6939 Z-4.5833
G01 X209.2557 Y40.7937 Z-4.6111
G01 X209.2958 Y40.8905 Z-4.6389
G01 X209.3441 Y40.9833 Z-4.6667
G01 X209.4004 Y41.0716 Z-4.6944
G01 X209.4641 Y41.1547 Z-4.7222
G01 X209.5348 Y41.2318 Z-4.7500
G01 X209.6120 Y41.3026 Z-4.7778
G01 X209.6951 Y41.3663 Z-4.8056
G01 X209.7834 Y41.4225 Z-4.8333
G01 X209.8762 Y41.4709 Z-4.8611
G01 X209.9729 Y41.5109 Z-4.8889
G01 X210.0728 Y41.5424 Z-4.9167
G01 X210.1750 Y41.5651 Z-4.9444
G01 X210.2788 Y41.5787 Z-4.9722
G01 X210.3834 Y41.5833 Z-5.0000
G01 X210.4879 Y41.5787 Z-5.0278
G01 X210.5917 Y41.5651 Z-5.0556
G01 X210.6939 Y41.5424 Z-5.0833
G01 X210.7938 Y41.5109 Z-5.1111
G01 X210.8905 Y41.4709 Z-5.1389
G01 X210.9834 Y41.4225 Z-5.1667
G01 X211.0716 Y41.3663 Z-5.1944
G01 X211.1547 Y41.3026 Z-5.2222
G01 X211.2319 Y41.2318 Z-5.2500
G01 X211.3026 Y41.1547 Z-5.2778
G01 X211.3663 Y41.0716 Z-5.3056
G01 X211.4226 Y40.9833 Z-5.3333
G01 X211.4709 Y40.8905 Z-5.3611
G01 X211.5110 Y40.7937 Z-5.3889
G01 X211.5425 Y40.6939 Z-5.4167
G01 X211.5651 Y40.5917 Z-5.4444
G01 X211.5788 Y40.4879 Z-5.4722
G01 X211.5833 Y40.3833 Z-5.5000
G01 X211.5788 Y40.2787
G01 X211.5651 Y40.1749
G01 X211.5425 Y40.0727
G01 X211.5110 Y39.9729
G01 X211.4709 Y39.8762
G01 X211.4226 Y39.7833
G01 X211.3663 Y39.6950
G01 X211.3026 Y39.6120
G01 X211.2319 Y39.5348
G01 X211.1547 Y39.4641
G01 X211.0716 Y39.4004
G01 X210.9834 Y39.3441
G01 X210.8905 Y39.2958
G01 X210.7938 Y39.2557
G01 X210.6939 Y39.2242
G01 X210.5917 Y39.2016
G01 X210.4879 Y39.1879
G01 X210.3834 Y39.1833
G01 X210.2788 Y39.1879
G01 X210.1750 Y39.2016
G01 X210.0728 Y39.2242
G01 X209.9729 Y39.2557
G01 X209.8762 Y39.2958
G01 X209.7834 Y39.3441
G01 X209.6951 Y39.4004
G01 X209.6120 Y39.4641
G01 X209.5348 Y39.5348
G01 X209.4641 Y39.6120
G01 X209.4004 Y39.6950
G01 X209.3441 Y39.7833
G01 X209.2958 Y39.8762
G01 X209.2557 Y39.9729
G01 X209.2243 Y40.0727
G01 X209.2016 Y40.1749
G01 X209.1879 Y40.2787
G01 X209.1834 Y40.3833
G01 X209.1879 Y40.4879
G01 X209.2016 Y40.5917
G01 X209.2243 Y40.6939
G01 X209.2557 Y40.7937
G01 X209.2958 Y40.8905
G01 X209.3441 Y40.9833
G01 X209.4004 Y41.0716
G01 X209.4641 Y41.1547
G01 X209.5348 Y41.2318
G01 X209.6120 Y41.3026
G01 X209.6951 Y41.3663
G01 X209.7834 Y41.4225
G01 X209.8762 Y41.4709
G01 X209.9729 Y41.5109
G01 X210.0728 Y41.5424
G01 X210.1750 Y41.5651
G01 X210.2788 Y41.5787
G01 X210.3834 Y41.5833
G01 X210.4879 Y41.5787
G01 X210.5917 Y41.5651
G01 X210.6939 Y41.5424
G01 X210.7938 Y41.5109
G01 X210.8905 Y41.4709
G01 X210.9834 Y41.4225
G01 X211.0716 Y41.3663
G01 X211.1547 Y41.3026
G01 X211.2319 Y41.2318
G01 X211.3026 Y41.1547
G01 X211.3663 Y41.0716
G01 X211.4226 Y40.9833
G01 X211.4709 Y40.8905
G01 X211.5110 Y40.7937
G01 X211.5425 Y40.6939
G01 X211.5651 Y40.5917
G01 X211.5788 Y40.4879
G01 X211.5833 Y40.3833
M107
M106 S240
G01 X211.5803 Y40.3049 Z-5.4750
M107
M106 S240
G01 X211.5710 Y40.2269 Z-5.4500
M107
M106 S240
G01 X211.5557 Y40.1499 Z-5.4250
M107
M106 S240
G01 X211.5344 Y40.0743 Z-5.4000
M107
M106 S240
G01 X211.5072 Y40.0006 Z-5.3750
M107
M106 S240
G01 X211.4743 Y39.9293 Z-5.3500
M107
M106 S240
G01 X211.4360 Y39.8608 Z-5.3250
M107
M106 S240
G01 X211.3924 Y39.7955 Z-5.3000
M107
M106 S240
G01 X211.3437 Y39.7339 Z-5.2750
M107
M106 S240
G01 X211.2904 Y39.6762 Z-5.2500
M107
M106 S240
G01 X211.2328 Y39.6229 Z-5.2250
M107
M106 S240
G01 X211.1711 Y39.5743 Z-5.2000
M107
M106 S240
G01 X211.1058 Y39.5307 Z-5.1750
M107
M106 S240
G01 X211.0373 Y39.4923 Z-5.1500
M107
M106 S240
G01 X210.9660 Y39.4594 Z-5.1250
M107
M106 S240
G01 X210.8924 Y39.4323 Z-5.1000
M107
M106 S240
G01 X210.8168 Y39.4109 Z-5.0750
M107
M106 S240
G01 X210.7398 Y39.3956 Z-5.0500
M107
M106 S240
G01 X210.6618 Y39.3864 Z-5.0250
M107
M106 S240
G01 X210.5833 Y39.3833 Z-5.0000
M107
G00 Z2.0000


;No. 18: Helical drill 6
G00 X211.8833 Y40.3833 Z2.0000
G00 Z0.5000
M106 S240
G01 X211.8791 Y40.2712 Z0.4286 F400
G01 X211.8666 Y40.1598 Z0.3571
G01 X211.8457 Y40.0495 Z0.2857
G01 X211.8167 Y39.9412 Z0.2143
G01 X211.7797 Y39.8353 Z0.1429
G01 X211.7348 Y39.7325 Z0.0714
G01 X211.6824 Y39.6333 Z0.0000
G01 X211.6227 Y39.5383 Z-0.0714
G01 X211.5561 Y39.4481 Z-0.1429
G01 X211.4829 Y39.3631 Z-0.2143
G01 X211.4036 Y39.2838 Z-0.2857
G01 X211.3186 Y39.2106 Z-0.3571
G01 X211.2283 Y39.1440 Z-0.4286
G01 X211.1334 Y39.0843 Z-0.5000
G01 X211.0342 Y39.0319 Z-0.5714
G01 X210.9314 Y38.9870 Z-0.6429
G01 X210.8255 Y38.9500 Z-0.7143
G01 X210.7171 Y38.9209 Z-0.7857
G01 X210.6069 Y38.9001 Z-0.8571
G01 X210.4955 Y38.8875 Z-0.9286
G01 X210.3834 Y38.8833 Z-1.0000
G01 X210.2713 Y38.8875 Z-1.0714
G01 X210.1598 Y38.9001 Z-1.1429
G01 X210.0496 Y38.9209 Z-1.2143
G01 X209.9412 Y38.9500 Z-1.2857
G01 X209.8354 Y38.9870 Z-1.3571
G01 X209.7325 Y39.0319 Z-1.4286
G01 X209.6334 Y39.0843 Z-1.5000
G01 X209.5384 Y39.1440 Z-1.5714
G01 X209.4481 Y39.2106 Z-1.6429
G01 X209.3631 Y39.2838 Z-1.7143
G01 X209.2838 Y39.3631 Z-1.7857
G01 X209.2106 Y39.4481 Z-1.8571
G01 X209.1440 Y39.5383 Z-1.9286
G01 X209.0843 Y39.6333 Z-2.0000
G01 X209.0319 Y39.7325 Z-2.0714
G01 X208.9871 Y39.8353 Z-2.1429
G01 X208.9500 Y39.9412 Z-2.2143
G01 X208.9210 Y40.0495 Z-2.2857
G01 X208.9001 Y40.1598 Z-2.3571
G01 X208.8876 Y40.2712 Z-2.4286
G01 X208.8834 Y40.3833 Z-2.5000
G01 X208.8876 Y40.4954 Z-2.5714
G01 X208.9001 Y40.6069 Z-2.6429
G01 X208.9210 Y40.7171 Z-2.7143
G01 X208.9500 Y40.8254 Z-2.7857
G01 X208.9871 Y40.9313 Z-2.8571
G01 X209.0319 Y41.0341 Z-2.9286
G01 X209.0843 Y41.1333 Z-3.0000
G01 X209.1440 Y41.2283 Z-3.0714
G01 X209.2106 Y41.3185 Z-3.1429
G01 X209.2838 Y41.4036 Z-3.2143
G01 X209.3631 Y41.4829 Z-3.2857
G01 X209.4481 Y41.5561 Z-3.3571
G01 X209.5384 Y41.6227 Z-3.4286
G01 X209.6334 Y41.6823 Z-3.5000
G01 X209.7325 Y41.7348 Z-3.5714
G01 X209.8354 Y41.7796 Z-3.6429
G01 X209.9412 Y41.8167 Z-3.7143
G01 X210.0496 Y41.8457 Z-3.7857
G01 X210.1598 Y41.8665 Z-3.8571
G01 X210.2713 Y41.8791 Z-3.9286
G01 X210.3834 Y41.8833 Z-4.0000
G01 X210.4955 Y41.8791 Z-4.0714
G01 X210.6069 Y41.8665 Z-4.1429
G01 X210.7171 Y41.8457 Z-4.2143
G01 X210.8255 Y41.8167 Z-4.2857
G01 X210.9314 Y41.7796 Z-4.3571
G01 X211.0342 Y41.7348 Z-4.4286
G01 X211.1334 Y41.6823 Z-4.5000
G01 X211.2283 Y41.6227 Z-4.5714
G01 X211.3186 Y41.5561 Z-4.6429
G01 X211.4036 Y41.4829 Z-4.7143
G01 X211.4829 Y41.4036 Z-4.7857
G01 X211.5561 Y41.3185 Z-4.8571
G01 X211.6227 Y41.2283 Z-4.9286
G01 X211.6824 Y41.1333 Z-5.0000
G01 X211.7348 Y41.0341 Z-5.0714
G01 X211.7797 Y40.9313 Z-5.1429
G01 X211.8167 Y40.8254 Z-5.2143
G01 X211.8457 Y40.7171 Z-5.2857
G01 X211.8666 Y40.6069 Z-5.3571
G01 X211.8791 Y40.4954 Z-5.4286
G01 X211.8833 Y40.3833 Z-5.5000
G01 X211.8791 Y40.2712
G01 X211.8666 Y40.1598
G01 X211.8457 Y40.0495
G01 X211.8167 Y39.9412
G01 X211.7797 Y39.8353
G01 X211.7348 Y39.7325
G01 X211.6824 Y39.6333
G01 X211.6227 Y39.5383
G01 X211.5561 Y39.4481
G01 X211.4829 Y39.3631
G01 X211.4036 Y39.2838
G01 X211.3186 Y39.2106
G01 X211.2283 Y39.1440
G01 X211.1334 Y39.0843
G01 X211.0342 Y39.0319
G01 X210.9314 Y38.9870
G01 X210.8255 Y38.9500
G01 X210.7171 Y38.9209
G01 X210.6069 Y38.9001
G01 X210.4955 Y38.8875
G01 X210.3834 Y38.8833
G01 X210.2713 Y38.8875
G01 X210.1598 Y38.9001
G01 X210.0496 Y38.9209
G01 X209.9412 Y38.9500
G01 X209.8354 Y38.9870
G01 X209.7325 Y39.0319
G01 X209.6334 Y39.0843
G01 X209.5384 Y39.1440
G01 X209.4481 Y39.2106
G01 X209.3631 Y39.2838
G01 X209.2838 Y39.3631
G01 X209.2106 Y39.4481
G01 X209.1440 Y39.5383
G01 X209.0843 Y39.6333
G01 X209.0319 Y39.7325
G01 X208.9871 Y39.8353
G01 X208.9500 Y39.9412
G01 X208.9210 Y40.0495
G01 X208.9001 Y40.1598
G01 X208.8876 Y40.2712
G01 X208.8834 Y40.3833
G01 X208.8876 Y40.4954
G01 X208.9001 Y40.6069
G01 X208.9210 Y40.7171
G01 X208.9500 Y40.8254
G01 X208.9871 Y40.9313
G01 X209.0319 Y41.0341
G01 X209.0843 Y41.1333
G01 X209.1440 Y41.2283
G01 X209.2106 Y41.3185
G01 X209.2838 Y41.4036
G01 X209.3631 Y41.4829
G01 X209.4481 Y41.5561
G01 X209.5384 Y41.6227
G01 X209.6334 Y41.6823
G01 X209.7325 Y41.7348
G01 X209.8354 Y41.7796
G01 X209.9412 Y41.8167
G01 X210.0496 Y41.8457
G01 X210.1598 Y41.8665
G01 X210.2713 Y41.8791
G01 X210.3834 Y41.8833
G01 X210.4955 Y41.8791
G01 X210.6069 Y41.8665
G01 X210.7171 Y41.8457
G01 X210.8255 Y41.8167
G01 X210.9314 Y41.7796
G01 X211.0342 Y41.7348
G01 X211.1334 Y41.6823
G01 X211.2283 Y41.6227
G01 X211.3186 Y41.5561
G01 X211.4036 Y41.4829
G01 X211.4829 Y41.4036
G01 X211.5561 Y41.3185
G01 X211.6227 Y41.2283
G01 X211.6824 Y41.1333
G01 X211.7348 Y41.0341
G01 X211.7797 Y40.9313
G01 X211.8167 Y40.8254
G01 X211.8457 Y40.7171
G01 X211.8666 Y40.6069
G01 X211.8791 Y40.4954
G01 X211.8833 Y40.3833
M107
M106 S240
G01 X211.8803 Y40.3049 Z-5.4750
M107
M106 S240
G01 X211.8710 Y40.2269 Z-5.4500
M107
M106 S240
G01 X211.8557 Y40.1499 Z-5.4250
M107
M106 S240
G01 X211.8344 Y40.0743 Z-5.4000
M107
M106 S240
G01 X211.8072 Y40.0006 Z-5.3750
M107
M106 S240
G01 X211.7743 Y39.9293 Z-5.3500
M107
M106 S240
G01 X211.7360 Y39.8608 Z-5.3250
M107
M106 S240
G01 X211.6924 Y39.7955 Z-5.3000
M107
M106 S240
G01 X211.6437 Y39.7339 Z-5.2750
M107
M106 S240
G01 X211.5904 Y39.6762 Z-5.2500
M107
M106 S240
G01 X211.5328 Y39.6229 Z-5.2250
M107
M106 S240
G01 X211.4711 Y39.5743 Z-5.2000
M107
M106 S240
G01 X211.4058 Y39.5307 Z-5.1750
M107
M106 S240
G01 X211.3373 Y39.4923 Z-5.1500
M107
M106 S240
G01 X211.2660 Y39.4594 Z-5.1250
M107
M106 S240
G01 X211.1924 Y39.4323 Z-5.1000
M107
M106 S240
G01 X211.1168 Y39.4109 Z-5.0750
M107
M106 S240
G01 X211.0398 Y39.3956 Z-5.0500
M107
M106 S240
G01 X210.9618 Y39.3864 Z-5.0250
M107
M106 S240
G01 X210.8833 Y39.3833 Z-5.0000
M107
G00 Z2.0000


;No. 19: Hole 49
G00 X235.8656 Y46.0889 Z2.0000
G00 Z0.5000
G01 Z0.0000 F400
G01 Z-1.1000
M106 S240
G01 X253.7176 F1000
G01 Y47.5889
G01 X252.6230
G01 X252.6312 Y49.0889
G01 X253.7176
G01 Y50.5889
G01 X252.6312
G01 Y52.0889
G01 X253.7176
M107
G00 Z2.0000
G00 X236.9602 Y46.0889
G00 Z0.5000
G01 Z-1.1000 F400
M106 S240
G01 Y47.5889 F1000
G01 X235.8656
G01 Y49.0889
G01 X236.9520
G01 Y50.5889
G01 X235.8656
G01 Y52.0889
G01 X236.9520
G01 X237.2120 Y52.0756
G01 Y47.7401
G01 X237.2160 Y47.6381
G01 X237.2280 Y47.5367
G01 X237.2479 Y47.4366
G01 X237.2756 Y47.3384
G01 X237.3109 Y47.2426
G01 X237.3537 Y47.1499
G01 X237.4035 Y47.0609
G01 X237.4603 Y46.9760
G01 X237.5234 Y46.8958
G01 X237.5927 Y46.8209
G01 X237.6677 Y46.7516
G01 X237.7479 Y46.6884
G01 X237.8327 Y46.6317
G01 X237.9218 Y46.5818
G01 X238.0145 Y46.5391
G01 X238.1103 Y46.5037
G01 X238.2085 Y46.4760
G01 X238.3086 Y46.4561
G01 X238.4100 Y46.4441
G01 X238.5120 Y46.4401
G01 X251.0712
G01 X251.1732 Y46.4441
G01 X251.2746 Y46.4561
G01 X251.3747 Y46.4760
G01 X251.4729 Y46.5037
G01 X251.5687 Y46.5391
G01 X251.6614 Y46.5818
G01 X251.7504 Y46.6317
G01 X251.8353 Y46.6884
G01 X251.9155 Y46.7516
G01 X251.9904 Y46.8209
G01 X252.0597 Y46.8958
G01 X252.1229 Y46.9760
G01 X252.1796 Y47.0609
G01 X252.2295 Y47.1499
G01 X252.2722 Y47.2426
G01 X252.3076 Y47.3384
G01 X252.3353 Y47.4366
G01 X252.3552 Y47.5367
G01 X252.3672 Y47.6381
G01 X252.3712 Y47.7401
G01 Y53.6830
G01 X253.9776
G01 Y44.4949
G01 X235.6056
G01 Y53.6830
G01 X237.2120
G01 Y52.0756
G01 X236.9520 Y52.0889
M107
G00 Z2.0000


;No. 20: Hole 49
G00 X235.6056 Y44.4949 Z2.0000
G00 Z0.5000
G01 Z-1.1000 F400
M106 S240
G01 X235.3056 Y44.1949 F1000
G01 Y53.9830
G01 X237.5120
G01 Y47.7401
G01 X237.5151 Y47.6617
G01 X237.5243 Y47.5837
G01 X237.5396 Y47.5067
G01 X237.5609 Y47.4311
G01 X237.5881 Y47.3574
G01 X237.6210 Y47.2861
G01 X237.6593 Y47.2176
G01 X237.7030 Y47.1523
G01 X237.7516 Y47.0907
G01 X237.8049 Y47.0330
G01 X237.8625 Y46.9797
G01 X237.9242 Y46.9311
G01 X237.9895 Y46.8875
G01 X238.0580 Y46.8491
G01 X238.1293 Y46.8162
G01 X238.2030 Y46.7891
G01 X238.2785 Y46.7677
G01 X238.3555 Y46.7524
G01 X238.4335 Y46.7432
G01 X238.5120 Y46.7401
G01 X251.0712
G01 X251.1497 Y46.7432
G01 X251.2276 Y46.7524
G01 X251.3046 Y46.7677
G01 X251.3802 Y46.7891
G01 X251.4539 Y46.8162
G01 X251.5252 Y46.8491
G01 X251.5937 Y46.8875
G01 X251.6590 Y46.9311
G01 X251.7206 Y46.9797
G01 X251.7783 Y47.0330
G01 X251.8316 Y47.0907
G01 X251.8802 Y47.1523
G01 X251.9238 Y47.2176
G01 X251.9622 Y47.2861
G01 X251.9951 Y47.3574
G01 X252.0223 Y47.4311
G01 X252.0436 Y47.5067
G01 X252.0589 Y47.5837
G01 X252.0681 Y47.6617
G01 X252.0712 Y47.7401
G01 Y53.9830
G01 X254.2776
G01 Y44.1949
G01 X235.3056
G01 X235.6056 Y44.4949
M107
G00 Z0.0000
G00 Z2.0000


;No. 21: Hole 48


;No. 22: Hole 48
G00 X235.7156 Y60.9258 Z2.0000
G00 Z0.5000
G01 Z0.0000 F400
G01 Z-1.1000
M106 S240
G01 X253.8701 Y60.9256 F1000
G01 X253.8287 Y60.7798
G01 X253.7788 Y60.6367
G01 X253.7207 Y60.4967
G01 X253.6545 Y60.3604
G01 X253.5805 Y60.2281
G01 X253.4989 Y60.1004
G01 X253.4100 Y59.9777
G01 X253.3141 Y59.8604
G01 X253.2115 Y59.7488
G01 X253.1025 Y59.6435
G01 X252.9876 Y59.5446
G01 X252.8672 Y59.4527
G01 X252.7416 Y59.3679
G01 X252.6112 Y59.2906
G01 X252.4766 Y59.2210
G01 X252.3381 Y59.1594
G01 X252.1963 Y59.1060
G01 X252.0516 Y59.0609
G01 X251.9045 Y59.0244
G01 X251.7555 Y58.9965
G01 X251.6892 Y58.9902
G01 X251.6227 Y58.9858
G01 X251.5561 Y58.9832
G01 X251.4895 Y58.9824
G01 X238.1045 Y58.9823
G01 X237.9750 Y58.9867
G01 X237.8459 Y58.9979
G01 X237.7175 Y59.0159
G01 X237.5903 Y59.0406
G01 X237.4646 Y59.0721
G01 X237.3408 Y59.1101
G01 X237.2191 Y59.1546
G01 X237.0999 Y59.2055
G01 X236.9836 Y59.2626
G01 X236.8705 Y59.3258
G01 X236.7608 Y59.3949
G01 X236.6550 Y59.4697
G01 X236.5533 Y59.5499
G01 X236.4559 Y59.6354
G01 X236.3632 Y59.7260
G01 X236.2754 Y59.8213
G01 X236.1928 Y59.9211
G01 X236.1156 Y60.0252
G01 X236.0439 Y60.1331
G01 X235.9781 Y60.2447
G01 X235.9183 Y60.3597
G01 X235.8646 Y60.4776
G01 X235.8172 Y60.5982
G01 X235.7762 Y60.7212
G01 X235.7584 Y60.7715
G01 X235.7424 Y60.8225
G01 X235.7281 Y60.8739
G01 X235.7156 Y60.9258
M107
G00 Z2.0000


;No. 23: Hole 48
G00 X235.7156 Y60.9258 Z2.0000
G00 Z0.5000
G01 Z-1.1000 F400
M106 S240
G01 X235.4061 Y60.9147 F1000
G01 X235.3880 Y60.9919
G01 X235.3718 Y61.0695
G01 X235.3577 Y61.1475
G01 X235.3456 Y61.2258
G01 X254.2381 Y61.2224
G01 X254.2149 Y61.0760
G01 X254.1845 Y60.9309
G01 X254.1468 Y60.7875
G01 X254.1020 Y60.6462
G01 X254.0501 Y60.5073
G01 X253.9915 Y60.3711
G01 X253.9261 Y60.2381
G01 X253.8541 Y60.1084
G01 X253.7757 Y59.9826
G01 X253.6912 Y59.8608
G01 X253.6006 Y59.7434
G01 X253.5044 Y59.6306
G01 X253.4026 Y59.5228
G01 X253.2955 Y59.4203
G01 X253.1835 Y59.3232
G01 X253.0668 Y59.2318
G01 X252.9456 Y59.1464
G01 X252.8203 Y59.0671
G01 X252.6912 Y58.9942
G01 X252.5587 Y58.9278
G01 X252.4229 Y58.8681
G01 X252.2844 Y58.8153
G01 X252.1434 Y58.7694
G01 X252.0003 Y58.7307
G01 X251.8741 Y58.7093
G01 X251.7471 Y58.6941
G01 X251.6194 Y58.6851
G01 X251.4915 Y58.6824
G01 X238.0945
G01 X237.9500 Y58.6877
G01 X237.8060 Y58.7005
G01 X237.6628 Y58.7209
G01 X237.5209 Y58.7488
G01 X237.3807 Y58.7840
G01 X237.2426 Y58.8266
G01 X237.1068 Y58.8765
G01 X236.9739 Y58.9333
G01 X236.8441 Y58.9971
G01 X236.7179 Y59.0676
G01 X236.5955 Y59.1446
G01 X236.4774 Y59.2280
G01 X236.3638 Y59.3174
G01 X236.2550 Y59.4127
G01 X236.1514 Y59.5136
G01 X236.0533 Y59.6197
G01 X235.9609 Y59.7309
G01 X235.8744 Y59.8468
G01 X235.7941 Y59.9671
G01 X235.7203 Y60.0914
G01 X235.6531 Y60.2194
G01 X235.5927 Y60.3508
G01 X235.5393 Y60.4851
G01 X235.4930 Y60.6221
G01 X235.4687 Y60.6945
G01 X235.4461 Y60.7674
G01 X235.4252 Y60.8408
G01 X235.4061 Y60.9147
G01 X235.7156 Y60.9258
M107
G00 Z0.0000
G00 Z2.0000


;No. 24: Hole 48
G00 X235.7156 Y60.9258 Z2.0000
G00 Z0.5000
G01 Z-1.1000 F400
M106 S240
G01 X235.4061 Y60.9147 F1000
G01 X235.3880 Y60.9919
G01 X235.3718 Y61.0695
G01 X235.3577 Y61.1475
G01 X235.3456 Y61.2258
G01 X254.2381 Y61.2224
G01 X254.2149 Y61.0760
G01 X254.1845 Y60.9309
G01 X254.1468 Y60.7875
G01 X254.1020 Y60.6462
G01 X254.0501 Y60.5073
G01 X253.9915 Y60.3711
G01 X253.9261 Y60.2381
G01 X253.8541 Y60.1084
G01 X253.7757 Y59.9826
G01 X253.6912 Y59.8608
G01 X253.6006 Y59.7434
G01 X253.5044 Y59.6306
G01 X253.4026 Y59.5228
G01 X253.2955 Y59.4203
G01 X253.1835 Y59.3232
G01 X253.0668 Y59.2318
G01 X252.9456 Y59.1464
G01 X252.8203 Y59.0671
G01 X252.6912 Y58.9942
G01 X252.5587 Y58.9278
G01 X252.4229 Y58.8681
G01 X252.2844 Y58.8153
G01 X252.1434 Y58.7694
G01 X252.0003 Y58.7307
G01 X251.8741 Y58.7093
G01 X251.7471 Y58.6941
G01 X251.6194 Y58.6851
G01 X251.4915 Y58.6824
G01 X238.0945
G01 X237.9500 Y58.6877
G01 X237.8060 Y58.7005
G01 X237.6628 Y58.7209
G01 X237.5209 Y58.7488
G01 X237.3807 Y58.7840
G01 X237.2426 Y58.8266
G01 X237.1068 Y58.8765
G01 X236.9739 Y58.9333
G01 X236.8441 Y58.9971
G01 X236.7179 Y59.0676
G01 X236.5955 Y59.1446
G01 X236.4774 Y59.2280
G01 X236.3638 Y59.3174
G01 X236.2550 Y59.4127
G01 X236.1514 Y59.5136
G01 X236.0533 Y59.6197
G01 X235.9609 Y59.7309
G01 X235.8744 Y59.8468
G01 X235.7941 Y59.9671
G01 X235.7203 Y60.0914
G01 X235.6531 Y60.2194
G01 X235.5927 Y60.3508
G01 X235.5393 Y60.4851
G01 X235.4930 Y60.6221
G01 X235.4687 Y60.6945
G01 X235.4461 Y60.7674
G01 X235.4252 Y60.8408
G01 X235.4061 Y60.9147
G01 X235.7156 Y60.9258
M107
G00 Z0.0000
G00 Z2.0000


;No. 25: Hole 50
G00 X261.8612 Y59.4603 Z2.0000
G00 Z0.5000
G01 Z0.0000 F400
G01 Z-1.1000
M106 S240
G01 X263.8464 F1000
G01 X262.6910 Y57.9603
G01 X265.2352
G01 X266.6239 Y56.4603
G01 X262.6913
G01 Y54.9603
G01 X265.1825
G01 X263.7796
G01 Y53.4603
G01 X262.6913
G01 Y51.9603
G01 X263.7777
G01 Y50.4603
G01 X262.6913
G01 Y48.9603
G01 X263.7777
G01 Y47.4603
G01 X262.6913
G01 Y45.9603
G01 X263.7777
M107
G00 Z2.0000
G00 X265.4931 Y56.4603
G00 Z0.5000
G01 Z-1.1000 F400
M106 S240
G01 Y54.9603 F1000
G01 X268.0126
G01 X267.4161 Y53.4603
G01 X269.4014
G01 X268.8048 Y51.9603
G01 X270.7901
G01 X270.1936 Y50.4603
G01 X272.1788
G01 X271.5823 Y48.9603
G01 X273.6011
G01 X272.9710 Y47.4603
G01 X277.1905
G01 Y45.9603
G01 X274.3598
G01 X275.4872 Y48.9603
G01 X277.1905
G01 Y50.4603
G01 X276.1041
G01 Y51.9603
G01 X277.1905
G01 Y53.4603
G01 X276.1041
G01 Y54.9603
G01 X277.1905
G01 Y56.4603
G01 X276.1041
G01 Y57.9603
G01 X277.1905
G01 Y59.4603
G01 X276.1041
G01 X275.8441 Y59.4411
G01 Y60.9258
G01 X277.4505
G01 Y44.4949
G01 X275.3622
G01 X266.2916 Y54.2922
G01 X266.2229 Y54.3611
G01 X266.1493 Y54.4246
G01 X266.0711 Y54.4824
G01 X265.9887 Y54.5343
G01 X265.9028 Y54.5798
G01 X265.8137 Y54.6188
G01 X265.7219 Y54.6510
G01 X265.6280 Y54.6762
G01 X265.5324 Y54.6944
G01 X265.4358 Y54.7054
G01 X265.3386 Y54.7091
G01 X265.2414 Y54.7055
G01 X265.1448 Y54.6947
G01 X265.0492 Y54.6766
G01 X264.9552 Y54.6515
G01 X264.8634 Y54.6195
G01 X264.7742 Y54.5806
G01 X264.6882 Y54.5352
G01 X264.6058 Y54.4835
G01 X264.5275 Y54.4258
G01 X264.4538 Y54.3624
G01 X264.3850 Y54.2936
G01 X264.3215 Y54.2199
G01 X264.2638 Y54.1417
G01 X264.2120 Y54.0593
G01 X264.1665 Y53.9734
G01 X264.1276 Y53.8842
G01 X264.0955 Y53.7924
G01 X264.0703 Y53.6985
G01 X264.0522 Y53.6029
G01 X264.0413 Y53.5063
G01 X264.0377 Y53.4091
G01 Y44.4949
G01 X262.4313
G01 Y57.9525
G01 X262.4287 Y58.0334
G01 X262.4212 Y58.1139
G01 X262.4087 Y58.1938
G01 X262.3912 Y58.2728
G01 X262.3688 Y58.3506
G01 X262.3417 Y58.4268
G01 X262.3098 Y58.5012
G01 X262.2734 Y58.5734
G01 X262.2326 Y58.6432
G01 X262.1875 Y58.7104
G01 X262.1383 Y58.7746
G01 X262.0852 Y58.8357
G01 X260.1501 Y60.9258
G01 X262.8440
G01 X273.5902 Y49.3186
G01 X273.6589 Y49.2498
G01 X273.7325 Y49.1863
G01 X273.8107 Y49.1284
G01 X273.8930 Y49.0766
G01 X273.9790 Y49.0311
G01 X274.0681 Y48.9921
G01 X274.1599 Y48.9599
G01 X274.2538 Y48.9346
G01 X274.3493 Y48.9165
G01 X274.4460 Y48.9055
G01 X274.5432 Y48.9018
G01 X274.6404 Y48.9054
G01 X274.7370 Y48.9162
G01 X274.8326 Y48.9342
G01 X274.9266 Y48.9593
G01 X275.0184 Y48.9914
G01 X275.1076 Y49.0303
G01 X275.1936 Y49.0757
G01 X275.2759 Y49.1274
G01 X275.3542 Y49.1851
G01 X275.4280 Y49.2485
G01 X275.4968 Y49.3173
G01 X275.5602 Y49.3910
G01 X275.6180 Y49.4692
G01 X275.6698 Y49.5515
G01 X275.7152 Y49.6375
G01 X275.7542 Y49.7267
G01 X275.7863 Y49.8185
G01 X275.8115 Y49.9124
G01 X275.8296 Y50.0080
G01 X275.8405 Y50.1046
G01 X275.8441 Y50.2018
G01 Y59.4411
G01 X276.1041 Y59.4603
M107
G00 Z2.0000


;No. 26: Hole 50
G00 X260.1501 Y60.9258 Z2.0000
G00 Z0.5000
G01 Z-1.1000 F400
M106 S240
G01 X259.4635 Y61.2258 F1000
G01 X262.9751
G01 X273.8103 Y49.5224
G01 X273.8710 Y49.4623
G01 X273.9367 Y49.4075
G01 X274.0067 Y49.3585
G01 X274.0807 Y49.3157
G01 X274.1581 Y49.2793
G01 X274.2383 Y49.2497
G01 X274.3208 Y49.2271
G01 X274.4049 Y49.2116
G01 X274.4900 Y49.2033
G01 X274.5755 Y49.2023
G01 X274.6607 Y49.2086
G01 X274.7451 Y49.2222
G01 X274.8281 Y49.2430
G01 X274.9089 Y49.2707
G01 X274.9871 Y49.3053
G01 X275.0621 Y49.3464
G01 X275.1333 Y49.3938
G01 X275.2001 Y49.4471
G01 X275.2622 Y49.5059
G01 X275.3190 Y49.5698
G01 X275.3702 Y49.6383
G01 X275.4153 Y49.7109
G01 X275.4541 Y49.7871
G01 X275.4862 Y49.8664
G01 X275.5114 Y49.9480
G01 X275.5295 Y50.0316
G01 X275.5405 Y50.1164
G01 X275.5441 Y50.2018
G01 Y61.2258
G01 X277.7505
G01 Y44.1949
G01 X275.2311
G01 X266.0715 Y54.0884
G01 X266.0394 Y54.1215
G01 X266.0059 Y54.1530
G01 X265.9709 Y54.1830
G01 X265.9346 Y54.2113
G01 X265.8970 Y54.2380
G01 X265.8583 Y54.2628
G01 X265.8184 Y54.2859
G01 X265.7776 Y54.3071
G01 X265.7358 Y54.3264
G01 X265.6931 Y54.3438
G01 X265.6497 Y54.3591
G01 X265.6056 Y54.3725
G01 X265.5610 Y54.3838
G01 X265.5159 Y54.3931
G01 X265.4704 Y54.4002
G01 X265.4246 Y54.4053
G01 X265.3787 Y54.4082
G01 X265.3326 Y54.4091
G01 X265.2866 Y54.4078
G01 X265.2407 Y54.4044
G01 X265.1950 Y54.3988
G01 X265.1496 Y54.3912
G01 X265.1045 Y54.3815
G01 X265.0600 Y54.3697
G01 X265.0161 Y54.3559
G01 X264.9728 Y54.3401
G01 X264.9304 Y54.3224
G01 X264.8888 Y54.3026
G01 X264.8481 Y54.2810
G01 X264.8085 Y54.2576
G01 X264.7700 Y54.2323
G01 X264.7327 Y54.2053
G01 X264.6967 Y54.1766
G01 X264.6620 Y54.1463
G01 X264.6288 Y54.1144
G01 X264.5971 Y54.0810
G01 X264.5669 Y54.0462
G01 X264.5384 Y54.0100
G01 X264.5116 Y53.9726
G01 X264.4865 Y53.9340
G01 X264.4633 Y53.8942
G01 X264.4418 Y53.8535
G01 X264.4223 Y53.8118
G01 X264.4048 Y53.7692
G01 X264.3892 Y53.7259
G01 X264.3756 Y53.6819
G01 X264.3641 Y53.6373
G01 X264.3546 Y53.5922
G01 X264.3472 Y53.5468
G01 X264.3419 Y53.5010
G01 X264.3387 Y53.4551
G01 X264.3377 Y53.4091
G01 Y44.1949
G01 X262.1313
G01 Y57.9525
G01 X262.1269 Y58.0457
G01 X262.1139 Y58.1381
G01 X262.0923 Y58.2289
G01 X262.0623 Y58.3173
G01 X262.0243 Y58.4025
G01 X261.9784 Y58.4838
G01 X261.9252 Y58.5605
G01 X261.8651 Y58.6319
G01 X259.4635 Y61.2258
G01 X260.1501 Y60.9258
M107
G00 Z0.0000
G00 Z2.0000


;No. 27: Hole 51
G00 X282.8097 Y59.4603 Z2.0000
G00 Z0.5000
G01 Z0.0000 F400
G01 Z-1.1000
M106 S240
G01 X283.8978 F1000
G01 Y57.9603
G01 X282.8097
G01 Y56.4603
G01 X283.8978
G01 Y54.9603
G01 X282.8097
G01 Y53.4603
G01 X283.8978
G01 Y51.9603
G01 X282.8097
G01 Y50.4603
G01 X283.8978
G01 Y48.9603
G01 X282.8097
G01 Y47.4603
G01 X283.9237
G01 X282.8097 Y45.9603
G01 X300.3438
G01 X300.5751 Y45.8415
G01 X300.5119 Y45.7247
G01 X300.4425 Y45.6115
G01 X300.3671 Y45.5023
G01 X300.2859 Y45.3972
G01 X300.1992 Y45.2967
G01 X300.1071 Y45.2010
G01 X300.0101 Y45.1104
G01 X299.9082 Y45.0252
G01 X299.8019 Y44.9456
G01 X299.6915 Y44.8719
G01 X299.5773 Y44.8043
G01 X299.4595 Y44.7429
G01 X299.3387 Y44.6879
G01 X299.2150 Y44.6396
G01 X299.0889 Y44.5980
G01 X298.9607 Y44.5633
G01 X298.8309 Y44.5356
G01 X298.6997 Y44.5149
G01 X298.5677 Y44.5013
G01 X298.4350 Y44.4949
G01 X282.5497
G01 Y60.9258
G01 X284.1578
G01 Y47.7401
G01 X284.1618 Y47.6376
G01 X284.1739 Y47.5358
G01 X284.1941 Y47.4352
G01 X284.2220 Y47.3365
G01 X284.2577 Y47.2403
G01 X284.3008 Y47.1472
G01 X284.3512 Y47.0579
G01 X284.4084 Y46.9728
G01 X284.4722 Y46.8924
G01 X284.5421 Y46.8173
G01 X284.6177 Y46.7480
G01 X284.6985 Y46.6849
G01 X284.7841 Y46.6283
G01 X284.8738 Y46.5786
G01 X284.9672 Y46.5362
G01 X285.0637 Y46.5013
G01 X285.1626 Y46.4740
G01 X285.2633 Y46.4547
G01 X285.3653 Y46.4434
G01 X285.4678 Y46.4401
G01 X300.8151 Y46.4388
G01 X300.7929 Y46.3613
G01 X300.7685 Y46.2844
G01 X300.7418 Y46.2083
G01 X300.7129 Y46.1330
G01 X300.6817 Y46.0587
G01 X300.6483 Y45.9852
G01 X300.6128 Y45.9128
G01 X300.5751 Y45.8415
G01 X300.3438 Y45.9603
M107
G00 Z2.0000


;No. 28: Hole 51
G00 X282.5497 Y44.4949 Z2.0000
G00 Z0.5000
G01 Z-1.1000 F400
M106 S240
G01 X282.2497 Y44.1949 F1000
G01 Y61.2258
G01 X284.4578
G01 Y47.7401
G01 X284.4609 Y47.6612
G01 X284.4703 Y47.5827
G01 X284.4858 Y47.5052
G01 X284.5073 Y47.4292
G01 X284.5349 Y47.3551
G01 X284.5681 Y47.2834
G01 X284.6070 Y47.2146
G01 X284.6511 Y47.1491
G01 X284.7003 Y47.0872
G01 X284.7542 Y47.0295
G01 X284.8125 Y46.9761
G01 X284.8749 Y46.9276
G01 X284.9408 Y46.8841
G01 X285.0100 Y46.8459
G01 X285.0820 Y46.8134
G01 X285.1564 Y46.7866
G01 X285.2326 Y46.7658
G01 X285.3102 Y46.7510
G01 X285.3888 Y46.7424
G01 X285.4678 Y46.7401
G01 X301.1834 Y46.7353
G01 X301.1600 Y46.5889
G01 X301.1295 Y46.4438
G01 X301.0917 Y46.3005
G01 X301.0468 Y46.1592
G01 X300.9949 Y46.0203
G01 X300.9362 Y45.8842
G01 X300.8708 Y45.7512
G01 X300.7988 Y45.6216
G01 X300.7204 Y45.4958
G01 X300.6358 Y45.3741
G01 X300.5453 Y45.2567
G01 X300.4491 Y45.1439
G01 X300.3473 Y45.0361
G01 X300.2403 Y44.9335
G01 X300.1283 Y44.8364
G01 X300.0116 Y44.7450
G01 X299.8905 Y44.6595
G01 X299.7653 Y44.5802
G01 X299.6363 Y44.5072
G01 X299.5038 Y44.4407
G01 X299.3681 Y44.3809
G01 X299.2297 Y44.3280
G01 X299.0888 Y44.2820
G01 X298.9457 Y44.2431
G01 X298.8196 Y44.2217
G01 X298.6926 Y44.2065
G01 X298.5650 Y44.1975
G01 X298.4371 Y44.1949
G01 X282.2497
G01 X282.5497 Y44.4949
M107
G00 Z0.0000
G00 Z2.0000


;No. 29: Hole 52
G00 X306.8413 Y57.9603 Z2.0000
G00 Z0.5000
G01 Z0.0000 F400
G01 Z-1.1000
M106 S240
G01 X308.8265 F1000
G01 X308.2300 Y56.4603
G01 X310.2152
G01 X309.6187 Y54.9603
G01 X311.6040
G01 X311.0074 Y53.4603
G01 X312.9927
G01 X312.3962 Y51.9603
G01 X314.5272
G01 X313.7849 Y50.4603
G01 X316.6323
G01 X315.8917 Y51.9603
G01 X318.0211
G01 X317.4259 Y53.4603
G01 X319.4098
G01 X318.8143 Y54.9603
G01 X320.7985
G01 X320.2026 Y56.4603
G01 X322.1872
G01 X321.5910 Y57.9603
G01 X323.5760
G01 X324.1346 Y59.4603
G01 X322.8888
M107
G00 Z2.0000
G00 X315.7538 Y50.4603
G00 Z0.5000
G01 Z-1.1000 F400
M106 S240
G01 Y48.9603 F1000
G01 X314.6635
G01 X314.6654 Y47.4603
G01 X315.7518
G01 Y45.9603
G01 X314.6654
M107
G00 Z2.0000
G00 X307.5284 Y57.9603
G00 Z0.5000
G01 Z-1.1000 F400
M106 S240
G01 Y59.4603 F1000
G01 X306.2826
G01 X306.0226 Y59.4706
G01 Y60.9258
G01 X307.6290
G01 X307.6113 Y60.6705
G01 X307.6092 Y60.4145
G01 X307.6227 Y60.1589
G01 X307.6516 Y59.9046
G01 X307.6716 Y59.8158
G01 X307.6978 Y59.7286
G01 X307.7300 Y59.6435
G01 X307.7681 Y59.5608
G01 X307.8119 Y59.4811
G01 X307.8611 Y59.4045
G01 X307.9156 Y59.3316
G01 X307.9751 Y59.2627
G01 X314.2555 Y52.4791
G01 X314.3314 Y52.4035
G01 X314.4133 Y52.3345
G01 X314.5006 Y52.2725
G01 X314.5927 Y52.2179
G01 X314.6890 Y52.1710
G01 X314.7888 Y52.1322
G01 X314.8914 Y52.1017
G01 X314.9963 Y52.0798
G01 X315.1025 Y52.0666
G01 X315.2095 Y52.0622
G01 X315.3165 Y52.0667
G01 X315.4228 Y52.0799
G01 X315.5276 Y52.1018
G01 X315.6303 Y52.1322
G01 X315.7301 Y52.1710
G01 X315.8264 Y52.2179
G01 X315.9184 Y52.2726
G01 X316.0057 Y52.3346
G01 X316.0876 Y52.4037
G01 X316.1635 Y52.4792
G01 X322.4423 Y59.2628
G01 X322.4954 Y59.3239
G01 X322.5445 Y59.3881
G01 X322.5896 Y59.4553
G01 X322.6304 Y59.5251
G01 X322.6668 Y59.5973
G01 X322.6987 Y59.6717
G01 X322.7258 Y59.7479
G01 X322.7482 Y59.8256
G01 X322.7656 Y59.9046
G01 X322.7782 Y59.9845
G01 X322.7857 Y60.0650
G01 X322.7882 Y60.1459
G01 Y60.9258
G01 X324.3946
G01 Y58.4619
G01 X316.3579 Y49.7812
G01 X316.3048 Y49.7202
G01 X316.2556 Y49.6559
G01 X316.2105 Y49.5888
G01 X316.1697 Y49.5189
G01 X316.1333 Y49.4467
G01 X316.1014 Y49.3723
G01 X316.0743 Y49.2961
G01 X316.0519 Y49.2184
G01 X316.0344 Y49.1394
G01 X316.0219 Y49.0594
G01 X316.0143 Y48.9789
G01 X316.0118 Y48.8980
G01 Y44.4949
G01 X314.4054
G01 Y48.8980
G01 X314.4029 Y48.9789
G01 X314.3953 Y49.0594
G01 X314.3828 Y49.1394
G01 X314.3653 Y49.2184
G01 X314.3430 Y49.2961
G01 X314.3158 Y49.3723
G01 X314.2840 Y49.4467
G01 X314.2476 Y49.5189
G01 X314.2067 Y49.5888
G01 X314.1616 Y49.6559
G01 X314.1124 Y49.7202
G01 X314.0593 Y49.7812
G01 X306.0226 Y58.4619
G01 Y59.4706
G01 X306.2826 Y59.4603
M107
G00 Z2.0000


;No. 30: Hole 52
G00 X306.0226 Y58.4619 Z2.0000
G00 Z0.5000
G01 Z-1.1000 F400
M106 S240
G01 X305.7226 Y58.3443 F1000
G01 Y61.2258
G01 X307.9290
G01 Y60.1459
G01 X307.9301 Y60.0992
G01 X307.9334 Y60.0527
G01 X307.9388 Y60.0063
G01 X307.9464 Y59.9603
G01 X307.9561 Y59.9146
G01 X307.9680 Y59.8695
G01 X307.9819 Y59.8249
G01 X307.9979 Y59.7811
G01 X308.0160 Y59.7380
G01 X308.0360 Y59.6959
G01 X308.0580 Y59.6547
G01 X308.0818 Y59.6146
G01 X308.1076 Y59.5756
G01 X308.1351 Y59.5379
G01 X308.1643 Y59.5015
G01 X308.1952 Y59.4665
G01 X314.4756 Y52.6829
G01 X314.5341 Y52.6248
G01 X314.5970 Y52.5717
G01 X314.6642 Y52.5240
G01 X314.7350 Y52.4819
G01 X314.8091 Y52.4459
G01 X314.8859 Y52.4160
G01 X314.9648 Y52.3926
G01 X315.0455 Y52.3758
G01 X315.1272 Y52.3656
G01 X315.2095 Y52.3622
G01 X315.2918 Y52.3656
G01 X315.3736 Y52.3758
G01 X315.4542 Y52.3927
G01 X315.5332 Y52.4161
G01 X315.6099 Y52.4459
G01 X315.6840 Y52.4820
G01 X315.7548 Y52.5241
G01 X315.8220 Y52.5718
G01 X315.8849 Y52.6249
G01 X315.9433 Y52.6830
G01 X322.2221 Y59.4666
G01 X322.2530 Y59.5016
G01 X322.2822 Y59.5380
G01 X322.3097 Y59.5757
G01 X322.3354 Y59.6146
G01 X322.3593 Y59.6547
G01 X322.3813 Y59.6959
G01 X322.4013 Y59.7381
G01 X322.4193 Y59.7811
G01 X322.4353 Y59.8250
G01 X322.4493 Y59.8695
G01 X322.4611 Y59.9146
G01 X322.4709 Y59.9603
G01 X322.4784 Y60.0063
G01 X322.4839 Y60.0527
G01 X322.4871 Y60.0992
G01 X322.4882 Y60.1459
G01 Y61.2258
G01 X324.6946
G01 Y58.3443
G01 X316.5780 Y49.5774
G01 X316.5471 Y49.5424
G01 X316.5179 Y49.5060
G01 X316.4904 Y49.4683
G01 X316.4647 Y49.4294
G01 X316.4408 Y49.3893
G01 X316.4188 Y49.3481
G01 X316.3988 Y49.3059
G01 X316.3807 Y49.2629
G01 X316.3647 Y49.2190
G01 X316.3508 Y49.1745
G01 X316.3389 Y49.1293
G01 X316.3292 Y49.0837
G01 X316.3216 Y49.0376
G01 X316.3162 Y48.9913
G01 X316.3129 Y48.9447
G01 X316.3118 Y48.8980
G01 Y44.1949
G01 X314.1054
G01 Y48.8980
G01 X314.1011 Y48.9913
G01 X314.0880 Y49.0837
G01 X314.0664 Y49.1745
G01 X314.0365 Y49.2629
G01 X313.9984 Y49.3481
G01 X313.9526 Y49.4294
G01 X313.8993 Y49.5060
G01 X313.8392 Y49.5774
G01 X305.7226 Y58.3443
G01 X306.0226 Y58.4619
M107
G00 Z0.0000
G00 Z2.0000


;No. 31: Helical drill 5
G00 X350.8167 Y40.3833 Z2.0000
G00 Z0.5000
M106 S240
G01 X350.8121 Y40.2787 Z0.4722 F400
G01 X350.7985 Y40.1749 Z0.4444
G01 X350.7758 Y40.0727 Z0.4167
G01 X350.7443 Y39.9729 Z0.3889
G01 X350.7043 Y39.8762 Z0.3611
G01 X350.6559 Y39.7833 Z0.3333
G01 X350.5997 Y39.6950 Z0.3056
G01 X350.5359 Y39.6120 Z0.2778
G01 X350.4652 Y39.5348 Z0.2500
G01 X350.3880 Y39.4641 Z0.2222
G01 X350.3050 Y39.4003 Z0.1944
G01 X350.2167 Y39.3441 Z0.1667
G01 X350.1238 Y39.2957 Z0.1389
G01 X350.0271 Y39.2557 Z0.1111
G01 X349.9273 Y39.2242 Z0.0833
G01 X349.8251 Y39.2016 Z0.0556
G01 X349.7213 Y39.1879 Z0.0278
G01 X349.6167 Y39.1833 Z0.0000
G01 X349.5121 Y39.1879 Z-0.0278
G01 X349.4083 Y39.2016 Z-0.0556
G01 X349.3061 Y39.2242 Z-0.0833
G01 X349.2063 Y39.2557 Z-0.1111
G01 X349.1096 Y39.2957 Z-0.1389
G01 X349.0167 Y39.3441 Z-0.1667
G01 X348.9284 Y39.4003 Z-0.1944
G01 X348.8454 Y39.4641 Z-0.2222
G01 X348.7682 Y39.5348 Z-0.2500
G01 X348.6975 Y39.6120 Z-0.2778
G01 X348.6338 Y39.6950 Z-0.3056
G01 X348.5775 Y39.7833 Z-0.3333
G01 X348.5292 Y39.8762 Z-0.3611
G01 X348.4891 Y39.9729 Z-0.3889
G01 X348.4576 Y40.0727 Z-0.4167
G01 X348.4350 Y40.1749 Z-0.4444
G01 X348.4213 Y40.2787 Z-0.4722
G01 X348.4167 Y40.3833 Z-0.5000
G01 X348.4213 Y40.4879 Z-0.5278
G01 X348.4350 Y40.5917 Z-0.5556
G01 X348.4576 Y40.6939 Z-0.5833
G01 X348.4891 Y40.7937 Z-0.6111
G01 X348.5292 Y40.8904 Z-0.6389
G01 X348.5775 Y40.9833 Z-0.6667
G01 X348.6338 Y41.0716 Z-0.6944
G01 X348.6975 Y41.1546 Z-0.7222
G01 X348.7682 Y41.2318 Z-0.7500
G01 X348.8454 Y41.3025 Z-0.7778
G01 X348.9284 Y41.3663 Z-0.8056
G01 X349.0167 Y41.4225 Z-0.8333
G01 X349.1096 Y41.4708 Z-0.8611
G01 X349.2063 Y41.5109 Z-0.8889
G01 X349.3061 Y41.5424 Z-0.9167
G01 X349.4083 Y41.5650 Z-0.9444
G01 X349.5121 Y41.5787 Z-0.9722
G01 X349.6167 Y41.5833 Z-1.0000
G01 X349.7213 Y41.5787 Z-1.0278
G01 X349.8251 Y41.5650 Z-1.0556
G01 X349.9273 Y41.5424 Z-1.0833
G01 X350.0271 Y41.5109 Z-1.1111
G01 X350.1238 Y41.4708 Z-1.1389
G01 X350.2167 Y41.4225 Z-1.1667
G01 X350.3050 Y41.3663 Z-1.1944
G01 X350.3880 Y41.3025 Z-1.2222
G01 X350.4652 Y41.2318 Z-1.2500
G01 X350.5359 Y41.1546 Z-1.2778
G01 X350.5997 Y41.0716 Z-1.3056
G01 X350.6559 Y40.9833 Z-1.3333
G01 X350.7043 Y40.8904 Z-1.3611
G01 X350.7443 Y40.7937 Z-1.3889
G01 X350.7758 Y40.6939 Z-1.4167
G01 X350.7985 Y40.5917 Z-1.4444
G01 X350.8121 Y40.4879 Z-1.4722
G01 X350.8167 Y40.3833 Z-1.5000
G01 X350.8121 Y40.2787 Z-1.5278
G01 X350.7985 Y40.1749 Z-1.5556
G01 X350.7758 Y40.0727 Z-1.5833
G01 X350.7443 Y39.9729 Z-1.6111
G01 X350.7043 Y39.8762 Z-1.6389
G01 X350.6559 Y39.7833 Z-1.6667
G01 X350.5997 Y39.6950 Z-1.6944
G01 X350.5359 Y39.6120 Z-1.7222
G01 X350.4652 Y39.5348 Z-1.7500
G01 X350.3880 Y39.4641 Z-1.7778
G01 X350.3050 Y39.4003 Z-1.8056
G01 X350.2167 Y39.3441 Z-1.8333
G01 X350.1238 Y39.2957 Z-1.8611
G01 X350.0271 Y39.2557 Z-1.8889
G01 X349.9273 Y39.2242 Z-1.9167
G01 X349.8251 Y39.2016 Z-1.9444
G01 X349.7213 Y39.1879 Z-1.9722
G01 X349.6167 Y39.1833 Z-2.0000
G01 X349.5121 Y39.1879 Z-2.0278
G01 X349.4083 Y39.2016 Z-2.0556
G01 X349.3061 Y39.2242 Z-2.0833
G01 X349.2063 Y39.2557 Z-2.1111
G01 X349.1096 Y39.2957 Z-2.1389
G01 X349.0167 Y39.3441 Z-2.1667
G01 X348.9284 Y39.4003 Z-2.1944
G01 X348.8454 Y39.4641 Z-2.2222
G01 X348.7682 Y39.5348 Z-2.2500
G01 X348.6975 Y39.6120 Z-2.2778
G01 X348.6338 Y39.6950 Z-2.3056
G01 X348.5775 Y39.7833 Z-2.3333
G01 X348.5292 Y39.8762 Z-2.3611
G01 X348.4891 Y39.9729 Z-2.3889
G01 X348.4576 Y40.0727 Z-2.4167
G01 X348.4350 Y40.1749 Z-2.4444
G01 X348.4213 Y40.2787 Z-2.4722
G01 X348.4167 Y40.3833 Z-2.5000
G01 X348.4213 Y40.4879 Z-2.5278
G01 X348.4350 Y40.5917 Z-2.5556
G01 X348.4576 Y40.6939 Z-2.5833
G01 X348.4891 Y40.7937 Z-2.6111
G01 X348.5292 Y40.8904 Z-2.6389
G01 X348.5775 Y40.9833 Z-2.6667
G01 X348.6338 Y41.0716 Z-2.6944
G01 X348.6975 Y41.1546 Z-2.7222
G01 X348.7682 Y41.2318 Z-2.7500
G01 X348.8454 Y41.3025 Z-2.7778
G01 X348.9284 Y41.3663 Z-2.8056
G01 X349.0167 Y41.4225 Z-2.8333
G01 X349.1096 Y41.4708 Z-2.8611
G01 X349.2063 Y41.5109 Z-2.8889
G01 X349.3061 Y41.5424 Z-2.9167
G01 X349.4083 Y41.5650 Z-2.9444
G01 X349.5121 Y41.5787 Z-2.9722
G01 X349.6167 Y41.5833 Z-3.0000
G01 X349.7213 Y41.5787 Z-3.0278
G01 X349.8251 Y41.5650 Z-3.0556
G01 X349.9273 Y41.5424 Z-3.0833
G01 X350.0271 Y41.5109 Z-3.1111
G01 X350.1238 Y41.4708 Z-3.1389
G01 X350.2167 Y41.4225 Z-3.1667
G01 X350.3050 Y41.3663 Z-3.1944
G01 X350.3880 Y41.3025 Z-3.2222
G01 X350.4652 Y41.2318 Z-3.2500
G01 X350.5359 Y41.1546 Z-3.2778
G01 X350.5997 Y41.0716 Z-3.3056
G01 X350.6559 Y40.9833 Z-3.3333
G01 X350.7043 Y40.8904 Z-3.3611
G01 X350.7443 Y40.7937 Z-3.3889
G01 X350.7758 Y40.6939 Z-3.4167
G01 X350.7985 Y40.5917 Z-3.4444
G01 X350.8121 Y40.4879 Z-3.4722
G01 X350.8167 Y40.3833 Z-3.5000
G01 X350.8121 Y40.2787 Z-3.5278
G01 X350.7985 Y40.1749 Z-3.5556
G01 X350.7758 Y40.0727 Z-3.5833
G01 X350.7443 Y39.9729 Z-3.6111
G01 X350.7043 Y39.8762 Z-3.6389
G01 X350.6559 Y39.7833 Z-3.6667
G01 X350.5997 Y39.6950 Z-3.6944
G01 X350.5359 Y39.6120 Z-3.7222
G01 X350.4652 Y39.5348 Z-3.7500
G01 X350.3880 Y39.4641 Z-3.7778
G01 X350.3050 Y39.4003 Z-3.8056
G01 X350.2167 Y39.3441 Z-3.8333
G01 X350.1238 Y39.2957 Z-3.8611
G01 X350.0271 Y39.2557 Z-3.8889
G01 X349.9273 Y39.2242 Z-3.9167
G01 X349.8251 Y39.2016 Z-3.9444
G01 X349.7213 Y39.1879 Z-3.9722
G01 X349.6167 Y39.1833 Z-4.0000
G01 X349.5121 Y39.1879 Z-4.0278
G01 X349.4083 Y39.2016 Z-4.0556
G01 X349.3061 Y39.2242 Z-4.0833
G01 X349.2063 Y39.2557 Z-4.1111
G01 X349.1096 Y39.2957 Z-4.1389
G01 X349.0167 Y39.3441 Z-4.1667
G01 X348.9284 Y39.4003 Z-4.1944
G01 X348.8454 Y39.4641 Z-4.2222
G01 X348.7682 Y39.5348 Z-4.2500
G01 X348.6975 Y39.6120 Z-4.2778
G01 X348.6338 Y39.6950 Z-4.3056
G01 X348.5775 Y39.7833 Z-4.3333
G01 X348.5292 Y39.8762 Z-4.3611
G01 X348.4891 Y39.9729 Z-4.3889
G01 X348.4576 Y40.0727 Z-4.4167
G01 X348.4350 Y40.1749 Z-4.4444
G01 X348.4213 Y40.2787 Z-4.4722
G01 X348.4167 Y40.3833 Z-4.5000
G01 X348.4213 Y40.4879 Z-4.5278
G01 X348.4350 Y40.5917 Z-4.5556
G01 X348.4576 Y40.6939 Z-4.5833
G01 X348.4891 Y40.7937 Z-4.6111
G01 X348.5292 Y40.8904 Z-4.6389
G01 X348.5775 Y40.9833 Z-4.6667
G01 X348.6338 Y41.0716 Z-4.6944
G01 X348.6975 Y41.1546 Z-4.7222
G01 X348.7682 Y41.2318 Z-4.7500
G01 X348.8454 Y41.3025 Z-4.7778
G01 X348.9284 Y41.3663 Z-4.8056
G01 X349.0167 Y41.4225 Z-4.8333
G01 X349.1096 Y41.4708 Z-4.8611
G01 X349.2063 Y41.5109 Z-4.8889
G01 X349.3061 Y41.5424 Z-4.9167
G01 X349.4083 Y41.5650 Z-4.9444
G01 X349.5121 Y41.5787 Z-4.9722
G01 X349.6167 Y41.5833 Z-5.0000
G01 X349.7213 Y41.5787 Z-5.0278
G01 X349.8251 Y41.5650 Z-5.0556
G01 X349.9273 Y41.5424 Z-5.0833
G01 X350.0271 Y41.5109 Z-5.1111
G01 X350.1238 Y41.4708 Z-5.1389
G01 X350.2167 Y41.4225 Z-5.1667
G01 X350.3050 Y41.3663 Z-5.1944
G01 X350.3880 Y41.3025 Z-5.2222
G01 X350.4652 Y41.2318 Z-5.2500
G01 X350.5359 Y41.1546 Z-5.2778
G01 X350.5997 Y41.0716 Z-5.3056
G01 X350.6559 Y40.9833 Z-5.3333
G01 X350.7043 Y40.8904 Z-5.3611
G01 X350.7443 Y40.7937 Z-5.3889
G01 X350.7758 Y40.6939 Z-5.4167
G01 X350.7985 Y40.5917 Z-5.4444
G01 X350.8121 Y40.4879 Z-5.4722
G01 X350.8167 Y40.3833 Z-5.5000
G01 X350.8121 Y40.2787
G01 X350.7985 Y40.1749
G01 X350.7758 Y40.0727
G01 X350.7443 Y39.9729
G01 X350.7043 Y39.8762
G01 X350.6559 Y39.7833
G01 X350.5997 Y39.6950
G01 X350.5359 Y39.6120
G01 X350.4652 Y39.5348
G01 X350.3880 Y39.4641
G01 X350.3050 Y39.4003
G01 X350.2167 Y39.3441
G01 X350.1238 Y39.2957
G01 X350.0271 Y39.2557
G01 X349.9273 Y39.2242
G01 X349.8251 Y39.2016
G01 X349.7213 Y39.1879
G01 X349.6167 Y39.1833
G01 X349.5121 Y39.1879
G01 X349.4083 Y39.2016
G01 X349.3061 Y39.2242
G01 X349.2063 Y39.2557
G01 X349.1096 Y39.2957
G01 X349.0167 Y39.3441
G01 X348.9284 Y39.4003
G01 X348.8454 Y39.4641
G01 X348.7682 Y39.5348
G01 X348.6975 Y39.6120
G01 X348.6338 Y39.6950
G01 X348.5775 Y39.7833
G01 X348.5292 Y39.8762
G01 X348.4891 Y39.9729
G01 X348.4576 Y40.0727
G01 X348.4350 Y40.1749
G01 X348.4213 Y40.2787
G01 X348.4167 Y40.3833
G01 X348.4213 Y40.4879
G01 X348.4350 Y40.5917
G01 X348.4576 Y40.6939
G01 X348.4891 Y40.7937
G01 X348.5292 Y40.8904
G01 X348.5775 Y40.9833
G01 X348.6338 Y41.0716
G01 X348.6975 Y41.1546
G01 X348.7682 Y41.2318
G01 X348.8454 Y41.3025
G01 X348.9284 Y41.3663
G01 X349.0167 Y41.4225
G01 X349.1096 Y41.4708
G01 X349.2063 Y41.5109
G01 X349.3061 Y41.5424
G01 X349.4083 Y41.5650
G01 X349.5121 Y41.5787
G01 X349.6167 Y41.5833
G01 X349.7213 Y41.5787
G01 X349.8251 Y41.5650
G01 X349.9273 Y41.5424
G01 X350.0271 Y41.5109
G01 X350.1238 Y41.4708
G01 X350.2167 Y41.4225
G01 X350.3050 Y41.3663
G01 X350.3880 Y41.3025
G01 X350.4652 Y41.2318
G01 X350.5359 Y41.1546
G01 X350.5997 Y41.0716
G01 X350.6559 Y40.9833
G01 X350.7043 Y40.8904
G01 X350.7443 Y40.7937
G01 X350.7758 Y40.6939
G01 X350.7985 Y40.5917
G01 X350.8121 Y40.4879
G01 X350.8167 Y40.3833
M107
M106 S240
G01 X350.8136 Y40.3048 Z-5.4750
M107
M106 S240
G01 X350.8044 Y40.2269 Z-5.4500
M107
M106 S240
G01 X350.7891 Y40.1498 Z-5.4250
M107
M106 S240
G01 X350.7677 Y40.0743 Z-5.4000
M107
M106 S240
G01 X350.7406 Y40.0006 Z-5.3750
M107
M106 S240
G01 X350.7077 Y39.9293 Z-5.3500
M107
M106 S240
G01 X350.6693 Y39.8608 Z-5.3250
M107
M106 S240
G01 X350.6257 Y39.7955 Z-5.3000
M107
M106 S240
G01 X350.5771 Y39.7338 Z-5.2750
M107
M106 S240
G01 X350.5238 Y39.6762 Z-5.2500
M107
M106 S240
G01 X350.4661 Y39.6229 Z-5.2250
M107
M106 S240
G01 X350.4045 Y39.5743 Z-5.2000
M107
M106 S240
G01 X350.3392 Y39.5307 Z-5.1750
M107
M106 S240
G01 X350.2707 Y39.4923 Z-5.1500
M107
M106 S240
G01 X350.1994 Y39.4594 Z-5.1250
M107
M106 S240
G01 X350.1257 Y39.4322 Z-5.1000
M107
M106 S240
G01 X350.0501 Y39.4109 Z-5.0750
M107
M106 S240
G01 X349.9731 Y39.3956 Z-5.0500
M107
M106 S240
G01 X349.8951 Y39.3864 Z-5.0250
M107
M106 S240
G01 X349.8167 Y39.3833 Z-5.0000
M107
G00 Z2.0000


;No. 32: Helical drill 5
G00 X351.1167 Y40.3833 Z2.0000
G00 Z0.5000
M106 S240
G01 X351.1125 Y40.2712 Z0.4286 F400
G01 X351.0999 Y40.1597 Z0.3571
G01 X351.0791 Y40.0495 Z0.2857
G01 X351.0500 Y39.9412 Z0.2143
G01 X351.0130 Y39.8353 Z0.1429
G01 X350.9681 Y39.7325 Z0.0714
G01 X350.9157 Y39.6333 Z0.0000
G01 X350.8561 Y39.5383 Z-0.0714
G01 X350.7894 Y39.4481 Z-0.1429
G01 X350.7163 Y39.3631 Z-0.2143
G01 X350.6370 Y39.2837 Z-0.2857
G01 X350.5519 Y39.2106 Z-0.3571
G01 X350.4617 Y39.1440 Z-0.4286
G01 X350.3667 Y39.0843 Z-0.5000
G01 X350.2675 Y39.0319 Z-0.5714
G01 X350.1647 Y38.9870 Z-0.6429
G01 X350.0588 Y38.9500 Z-0.7143
G01 X349.9505 Y38.9209 Z-0.7857
G01 X349.8403 Y38.9001 Z-0.8571
G01 X349.7288 Y38.8875 Z-0.9286
G01 X349.6167 Y38.8833 Z-1.0000
G01 X349.5046 Y38.8875 Z-1.0714
G01 X349.3932 Y38.9001 Z-1.1429
G01 X349.2829 Y38.9209 Z-1.2143
G01 X349.1746 Y38.9500 Z-1.2857
G01 X349.0687 Y38.9870 Z-1.3571
G01 X348.9659 Y39.0319 Z-1.4286
G01 X348.8667 Y39.0843 Z-1.5000
G01 X348.7718 Y39.1440 Z-1.5714
G01 X348.6815 Y39.2106 Z-1.6429
G01 X348.5965 Y39.2837 Z-1.7143
G01 X348.5172 Y39.3631 Z-1.7857
G01 X348.4440 Y39.4481 Z-1.8571
G01 X348.3774 Y39.5383 Z-1.9286
G01 X348.3177 Y39.6333 Z-2.0000
G01 X348.2653 Y39.7325 Z-2.0714
G01 X348.2204 Y39.8353 Z-2.1429
G01 X348.1834 Y39.9412 Z-2.2143
G01 X348.1543 Y40.0495 Z-2.2857
G01 X348.1335 Y40.1597 Z-2.3571
G01 X348.1209 Y40.2712 Z-2.4286
G01 X348.1167 Y40.3833 Z-2.5000
G01 X348.1209 Y40.4954 Z-2.5714
G01 X348.1335 Y40.6069 Z-2.6429
G01 X348.1543 Y40.7171 Z-2.7143
G01 X348.1834 Y40.8254 Z-2.7857
G01 X348.2204 Y40.9313 Z-2.8571
G01 X348.2653 Y41.0341 Z-2.9286
G01 X348.3177 Y41.1333 Z-3.0000
G01 X348.3774 Y41.2283 Z-3.0714
G01 X348.4440 Y41.3185 Z-3.1429
G01 X348.5172 Y41.4035 Z-3.2143
G01 X348.5965 Y41.4829 Z-3.2857
G01 X348.6815 Y41.5560 Z-3.3571
G01 X348.7718 Y41.6226 Z-3.4286
G01 X348.8667 Y41.6823 Z-3.5000
G01 X348.9659 Y41.7347 Z-3.5714
G01 X349.0687 Y41.7796 Z-3.6429
G01 X349.1746 Y41.8166 Z-3.7143
G01 X349.2829 Y41.8457 Z-3.7857
G01 X349.3932 Y41.8665 Z-3.8571
G01 X349.5046 Y41.8791 Z-3.9286
G01 X349.6167 Y41.8833 Z-4.0000
G01 X349.7288 Y41.8791 Z-4.0714
G01 X349.8403 Y41.8665 Z-4.1429
G01 X349.9505 Y41.8457 Z-4.2143
G01 X350.0588 Y41.8166 Z-4.2857
G01 X350.1647 Y41.7796 Z-4.3571
G01 X350.2675 Y41.7347 Z-4.4286
G01 X350.3667 Y41.6823 Z-4.5000
G01 X350.4617 Y41.6226 Z-4.5714
G01 X350.5519 Y41.5560 Z-4.6429
G01 X350.6370 Y41.4829 Z-4.7143
G01 X350.7163 Y41.4035 Z-4.7857
G01 X350.7894 Y41.3185 Z-4.8571
G01 X350.8561 Y41.2283 Z-4.9286
G01 X350.9157 Y41.1333 Z-5.0000
G01 X350.9681 Y41.0341 Z-5.0714
G01 X351.0130 Y40.9313 Z-5.1429
G01 X351.0500 Y40.8254 Z-5.2143
G01 X351.0791 Y40.7171 Z-5.2857
G01 X351.0999 Y40.6069 Z-5.3571
G01 X351.1125 Y40.4954 Z-5.4286
G01 X351.1167 Y40.3833 Z-5.5000
G01 X351.1125 Y40.2712
G01 X351.0999 Y40.1597
G01 X351.0791 Y40.0495
G01 X351.0500 Y39.9412
G01 X351.0130 Y39.8353
G01 X350.9681 Y39.7325
G01 X350.9157 Y39.6333
G01 X350.8561 Y39.5383
G01 X350.7894 Y39.4481
G01 X350.7163 Y39.3631
G01 X350.6370 Y39.2837
G01 X350.5519 Y39.2106
G01 X350.4617 Y39.1440
G01 X350.3667 Y39.0843
G01 X350.2675 Y39.0319
G01 X350.1647 Y38.9870
G01 X350.0588 Y38.9500
G01 X349.9505 Y38.9209
G01 X349.8403 Y38.9001
G01 X349.7288 Y38.8875
G01 X349.6167 Y38.8833
G01 X349.5046 Y38.8875
G01 X349.3932 Y38.9001
G01 X349.2829 Y38.9209
G01 X349.1746 Y38.9500
G01 X349.0687 Y38.9870
G01 X348.9659 Y39.0319
G01 X348.8667 Y39.0843
G01 X348.7718 Y39.1440
G01 X348.6815 Y39.2106
G01 X348.5965 Y39.2837
G01 X348.5172 Y39.3631
G01 X348.4440 Y39.4481
G01 X348.3774 Y39.5383
G01 X348.3177 Y39.6333
G01 X348.2653 Y39.7325
G01 X348.2204 Y39.8353
G01 X348.1834 Y39.9412
G01 X348.1543 Y40.0495
G01 X348.1335 Y40.1597
G01 X348.1209 Y40.2712
G01 X348.1167 Y40.3833
G01 X348.1209 Y40.4954
G01 X348.1335 Y40.6069
G01 X348.1543 Y40.7171
G01 X348.1834 Y40.8254
G01 X348.2204 Y40.9313
G01 X348.2653 Y41.0341
G01 X348.3177 Y41.1333
G01 X348.3774 Y41.2283
G01 X348.4440 Y41.3185
G01 X348.5172 Y41.4035
G01 X348.5965 Y41.4829
G01 X348.6815 Y41.5560
G01 X348.7718 Y41.6226
G01 X348.8667 Y41.6823
G01 X348.9659 Y41.7347
G01 X349.0687 Y41.7796
G01 X349.1746 Y41.8166
G01 X349.2829 Y41.8457
G01 X349.3932 Y41.8665
G01 X349.5046 Y41.8791
G01 X349.6167 Y41.8833
G01 X349.7288 Y41.8791
G01 X349.8403 Y41.8665
G01 X349.9505 Y41.8457
G01 X350.0588 Y41.8166
G01 X350.1647 Y41.7796
G01 X350.2675 Y41.7347
G01 X350.3667 Y41.6823
G01 X350.4617 Y41.6226
G01 X350.5519 Y41.5560
G01 X350.6370 Y41.4829
G01 X350.7163 Y41.4035
G01 X350.7894 Y41.3185
G01 X350.8561 Y41.2283
G01 X350.9157 Y41.1333
G01 X350.9681 Y41.0341
G01 X351.0130 Y40.9313
G01 X351.0500 Y40.8254
G01 X351.0791 Y40.7171
G01 X351.0999 Y40.6069
G01 X351.1125 Y40.4954
G01 X351.1167 Y40.3833
M107
M106 S240
G01 X351.1136 Y40.3048 Z-5.4750
M107
M106 S240
G01 X351.1044 Y40.2269 Z-5.4500
M107
M106 S240
G01 X351.0891 Y40.1498 Z-5.4250
M107
M106 S240
G01 X351.0677 Y40.0743 Z-5.4000
M107
M106 S240
G01 X351.0406 Y40.0006 Z-5.3750
M107
M106 S240
G01 X351.0077 Y39.9293 Z-5.3500
M107
M106 S240
G01 X350.9693 Y39.8608 Z-5.3250
M107
M106 S240
G01 X350.9257 Y39.7955 Z-5.3000
M107
M106 S240
G01 X350.8771 Y39.7338 Z-5.2750
M107
M106 S240
G01 X350.8238 Y39.6762 Z-5.2500
M107
M106 S240
G01 X350.7661 Y39.6229 Z-5.2250
M107
M106 S240
G01 X350.7045 Y39.5743 Z-5.2000
M107
M106 S240
G01 X350.6392 Y39.5307 Z-5.1750
