;Project TeslaParkingV3_LSmm
;Created by Estlcam version 11 build 11,227
;Machining time about 00:36:58 hours

G90
M03 S18000
G00 X0.0000 Y0.0000 Z0.0000
G00 Z2.0000


;No. 1: Helical drill 8
G00 X13.2625 Y17.5000
G00 Z0.5000
M106 S240
G01 X13.2587 Y17.4128 Z0.4722 F400 S18000
G01 X13.2473 Y17.3264 Z0.4444
G01 X13.2284 Y17.2412 Z0.4167
G01 X13.2022 Y17.1580 Z0.3889
G01 X13.1688 Y17.0774 Z0.3611
G01 X13.1285 Y17.0000 Z0.3333
G01 X13.0817 Y16.9264 Z0.3056
G01 X13.0285 Y16.8572 Z0.2778
G01 X12.9696 Y16.7929 Z0.2500
G01 X12.9053 Y16.7340 Z0.2222
G01 X12.8361 Y16.6809 Z0.1944
G01 X12.7625 Y16.6340 Z0.1667
G01 X12.6851 Y16.5937 Z0.1389
G01 X12.6045 Y16.5603 Z0.1111
G01 X12.5213 Y16.5341 Z0.0833
G01 X12.4362 Y16.5152 Z0.0556
G01 X12.3497 Y16.5038 Z0.0278
G01 X12.2625 Y16.5000 Z0.0000
G01 X12.1753 Y16.5038 Z-0.0278
G01 X12.0889 Y16.5152 Z-0.0556
G01 X12.0037 Y16.5341 Z-0.0833
G01 X11.9205 Y16.5603 Z-0.1111
G01 X11.8399 Y16.5937 Z-0.1389
G01 X11.7625 Y16.6340 Z-0.1667
G01 X11.7219 Y16.6588 Z-0.1818
G01 X11.6824 Y16.6854 Z-0.1970
G01 X11.6443 Y16.7140 Z-0.2121
G01 X11.6076 Y16.7443 Z-0.2273
G01 X11.5724 Y16.7763 Z-0.2424
G01 X11.5388 Y16.8099 Z-0.2576
G01 X11.5068 Y16.8451 Z-0.2727
G01 X11.4764 Y16.8818 Z-0.2879
G01 X11.4479 Y16.9199 Z-0.3030
G01 X11.4212 Y16.9594 Z-0.3182
G01 X11.3965 Y17.0000 Z-0.3333
G01 X11.3737 Y17.0418 Z-0.3485
G01 X11.3529 Y17.0846 Z-0.3636
G01 X11.3341 Y17.1283 Z-0.3788
G01 X11.3175 Y17.1729 Z-0.3939
G01 X11.3030 Y17.2183 Z-0.4091
G01 X11.2907 Y17.2642 Z-0.4242
G01 X11.2806 Y17.3108 Z-0.4394
G01 X11.2727 Y17.3577 Z-0.4545
G01 X11.2670 Y17.4049 Z-0.4697
G01 X11.2636 Y17.4524 Z-0.4848
G01 X11.2625 Y17.5000 Z-0.5000
G01 X11.2636 Y17.5476 Z-0.5152
G01 X11.2670 Y17.5951 Z-0.5303
G01 X11.2727 Y17.6423 Z-0.5455
G01 X11.2806 Y17.6893 Z-0.5606
G01 X11.2907 Y17.7358 Z-0.5758
G01 X11.3030 Y17.7817 Z-0.5909
G01 X11.3175 Y17.8271 Z-0.6061
G01 X11.3341 Y17.8717 Z-0.6212
G01 X11.3529 Y17.9154 Z-0.6364
G01 X11.3737 Y17.9582 Z-0.6515
G01 X11.3965 Y18.0000 Z-0.6667
G01 X11.4212 Y18.0406 Z-0.6818
G01 X11.4479 Y18.0801 Z-0.6970
G01 X11.4764 Y18.1182 Z-0.7121
G01 X11.5068 Y18.1549 Z-0.7273
G01 X11.5388 Y18.1901 Z-0.7424
G01 X11.5724 Y18.2237 Z-0.7576
G01 X11.6076 Y18.2558 Z-0.7727
G01 X11.6443 Y18.2861 Z-0.7879
G01 X11.6824 Y18.3146 Z-0.8030
G01 X11.7219 Y18.3413 Z-0.8182
G01 X11.7625 Y18.3660 Z-0.8333
G01 X11.8043 Y18.3888 Z-0.8485
G01 X11.8471 Y18.4096 Z-0.8636
G01 X11.8908 Y18.4284 Z-0.8788
G01 X11.9354 Y18.4450 Z-0.8939
G01 X11.9808 Y18.4595 Z-0.9091
G01 X12.0267 Y18.4718 Z-0.9242
G01 X12.0733 Y18.4819 Z-0.9394
G01 X12.1202 Y18.4898 Z-0.9545
G01 X12.1674 Y18.4955 Z-0.9697
G01 X12.2149 Y18.4989 Z-0.9848
G01 X12.2625 Y18.5000 Z-1.0000
G01 X12.3101 Y18.4989 Z-1.0152
G01 X12.3576 Y18.4955 Z-1.0303
G01 X12.4048 Y18.4898 Z-1.0455
G01 X12.4518 Y18.4819 Z-1.0606
G01 X12.4983 Y18.4718 Z-1.0758
G01 X12.5442 Y18.4595 Z-1.0909
G01 X12.5896 Y18.4450 Z-1.1061
G01 X12.6342 Y18.4284 Z-1.1212
G01 X12.6779 Y18.4096 Z-1.1364
G01 X12.7207 Y18.3888 Z-1.1515
G01 X12.7625 Y18.3660 Z-1.1667
G01 X12.8031 Y18.3413 Z-1.1818
G01 X12.8426 Y18.3146 Z-1.1970
G01 X12.8807 Y18.2861 Z-1.2121
G01 X12.9174 Y18.2558 Z-1.2273
G01 X12.9526 Y18.2237 Z-1.2424
G01 X12.9862 Y18.1901 Z-1.2576
G01 X13.0183 Y18.1549 Z-1.2727
G01 X13.0486 Y18.1182 Z-1.2879
G01 X13.0771 Y18.0801 Z-1.3030
G01 X13.1038 Y18.0406 Z-1.3182
G01 X13.1285 Y18.0000 Z-1.3333
G01 X13.1513 Y17.9582 Z-1.3485
G01 X13.1721 Y17.9154 Z-1.3636
G01 X13.1909 Y17.8717 Z-1.3788
G01 X13.2075 Y17.8271 Z-1.3939
G01 X13.2220 Y17.7817 Z-1.4091
G01 X13.2343 Y17.7358 Z-1.4242
G01 X13.2444 Y17.6893 Z-1.4394
G01 X13.2523 Y17.6423 Z-1.4545
G01 X13.2580 Y17.5951 Z-1.4697
G01 X13.2614 Y17.5476 Z-1.4848
G01 X13.2625 Y17.5000 Z-1.5000
G01 X13.2587 Y17.4128
G01 X13.2473 Y17.3264
G01 X13.2284 Y17.2412
G01 X13.2022 Y17.1580
G01 X13.1688 Y17.0774
G01 X13.1285 Y17.0000
G01 X13.0817 Y16.9264
G01 X13.0285 Y16.8572
G01 X12.9696 Y16.7929
G01 X12.9053 Y16.7340
G01 X12.8361 Y16.6809
G01 X12.7625 Y16.6340
G01 X12.6851 Y16.5937
G01 X12.6045 Y16.5603
G01 X12.5213 Y16.5341
G01 X12.4362 Y16.5152
G01 X12.3497 Y16.5038
G01 X12.2625 Y16.5000
G01 X12.1753 Y16.5038
G01 X12.0889 Y16.5152
G01 X12.0037 Y16.5341
G01 X11.9205 Y16.5603
G01 X11.8399 Y16.5937
G01 X11.7625 Y16.6340
G01 X11.7219 Y16.6588
G01 X11.6824 Y16.6854
G01 X11.6443 Y16.7140
G01 X11.6076 Y16.7443
G01 X11.5724 Y16.7763
G01 X11.5388 Y16.8099
G01 X11.5068 Y16.8451
G01 X11.4764 Y16.8818
G01 X11.4479 Y16.9199
G01 X11.4212 Y16.9594
G01 X11.3965 Y17.0000
G01 X11.3737 Y17.0418
G01 X11.3529 Y17.0846
G01 X11.3341 Y17.1283
G01 X11.3175 Y17.1729
G01 X11.3030 Y17.2183
G01 X11.2907 Y17.2642
G01 X11.2806 Y17.3108
G01 X11.2727 Y17.3577
G01 X11.2670 Y17.4049
G01 X11.2636 Y17.4524
G01 X11.2625 Y17.5000
G01 X11.2636 Y17.5476
G01 X11.2670 Y17.5951
G01 X11.2727 Y17.6423
G01 X11.2806 Y17.6893
G01 X11.2907 Y17.7358
G01 X11.3030 Y17.7817
G01 X11.3175 Y17.8271
G01 X11.3341 Y17.8717
G01 X11.3529 Y17.9154
G01 X11.3737 Y17.9582
G01 X11.3965 Y18.0000
G01 X11.4212 Y18.0406
G01 X11.4479 Y18.0801
G01 X11.4764 Y18.1182
G01 X11.5068 Y18.1549
G01 X11.5388 Y18.1901
G01 X11.5724 Y18.2237
G01 X11.6076 Y18.2558
G01 X11.6443 Y18.2861
G01 X11.6824 Y18.3146
G01 X11.7219 Y18.3413
G01 X11.7625 Y18.3660
G01 X11.8043 Y18.3888
G01 X11.8471 Y18.4096
G01 X11.8908 Y18.4284
G01 X11.9354 Y18.4450
G01 X11.9808 Y18.4595
G01 X12.0267 Y18.4718
G01 X12.0733 Y18.4819
G01 X12.1202 Y18.4898
G01 X12.1674 Y18.4955
G01 X12.2149 Y18.4989
G01 X12.2625 Y18.5000
G01 X12.3101 Y18.4989
G01 X12.3576 Y18.4955
G01 X12.4048 Y18.4898
G01 X12.4518 Y18.4819
G01 X12.4983 Y18.4718
G01 X12.5442 Y18.4595
G01 X12.5896 Y18.4450
G01 X12.6342 Y18.4284
G01 X12.6779 Y18.4096
G01 X12.7207 Y18.3888
G01 X12.7625 Y18.3660
G01 X12.8031 Y18.3413
G01 X12.8426 Y18.3146
G01 X12.8807 Y18.2861
G01 X12.9174 Y18.2558
G01 X12.9526 Y18.2237
G01 X12.9862 Y18.1901
G01 X13.0183 Y18.1549
G01 X13.0486 Y18.1182
G01 X13.0771 Y18.0801
G01 X13.1038 Y18.0406
G01 X13.1285 Y18.0000
G01 X13.1513 Y17.9582
G01 X13.1721 Y17.9154
G01 X13.1909 Y17.8717
G01 X13.2075 Y17.8271
G01 X13.2220 Y17.7817
G01 X13.2343 Y17.7358
G01 X13.2444 Y17.6893
G01 X13.2523 Y17.6423
G01 X13.2580 Y17.5951
G01 X13.2614 Y17.5476
G01 X13.2625 Y17.5000
G01 X13.2732 Y17.4484 F1000
G01 X13.2813 Y17.3963
G01 X13.2867 Y17.3439
G01 X13.2894 Y17.2913
G01 X13.2893 Y17.2386
G01 X13.2866 Y17.1859
G01 X13.2811 Y17.1335
G01 X13.2730 Y17.0814
G01 X13.2613 Y17.0255
G01 X13.2467 Y16.9701
G01 X13.2293 Y16.9157
G01 X13.2092 Y16.8621
G01 X13.1864 Y16.8097
G01 X13.1609 Y16.7585
G01 X13.1328 Y16.7086
G01 X13.1022 Y16.6603
G01 X13.0666 Y16.6099
G01 X13.0285 Y16.5614
G01 X12.9879 Y16.5149
G01 X12.9451 Y16.4705
G01 X12.9000 Y16.4283
G01 X12.8529 Y16.3885
G01 X12.8038 Y16.3511
G01 X12.7528 Y16.3163
G01 X12.6963 Y16.2817
G01 X12.6381 Y16.2500
G01 X12.5784 Y16.2214
G01 X12.5174 Y16.1957
G01 X12.4551 Y16.1732
G01 X12.3917 Y16.1539
G01 X12.3275 Y16.1378
G01 X12.2625 Y16.1250
G01 X12.1925 Y16.1148
G01 X12.1220 Y16.1082
G01 X12.0513 Y16.1051
G01 X11.9806 Y16.1056
G01 X11.9099 Y16.1096
G01 X11.8396 Y16.1173
G01 X11.7697 Y16.1284
G01 X11.7004 Y16.1431
G01 X11.6323 Y16.1690
G01 X11.5654 Y16.1983
G01 X11.5001 Y16.2309
G01 X11.4365 Y16.2666
G01 X11.3747 Y16.3054
G01 X11.3149 Y16.3472
G01 X11.2573 Y16.3919
G01 X11.2019 Y16.4394
G01 X11.1511 Y16.4927
G01 X11.1030 Y16.5484
G01 X11.0577 Y16.6065
G01 X11.0153 Y16.6667
G01 X10.9759 Y16.7289
G01 X10.9396 Y16.7929
G01 X10.9065 Y16.8587
G01 X10.8767 Y16.9260
G01 X10.8502 Y16.9947
G01 X10.8271 Y17.0646
G01 X10.8075 Y17.1355
G01 X10.7914 Y17.2074
G01 X10.7788 Y17.2799
G01 X10.7698 Y17.3530
G01 X10.7643 Y17.4264
G01 X10.7625 Y17.5000
G01 X10.7643 Y17.5736
G01 X10.7698 Y17.6470
G01 X10.7788 Y17.7201
G01 X10.7914 Y17.7926
G01 X10.8075 Y17.8645
G01 X10.8271 Y17.9354
G01 X10.8502 Y18.0053
G01 X10.8767 Y18.0740
G01 X10.9065 Y18.1413
G01 X10.9396 Y18.2071
G01 X10.9759 Y18.2711
G01 X11.0153 Y18.3333
G01 X11.0577 Y18.3935
G01 X11.1030 Y18.4516
G01 X11.1511 Y18.5073
G01 X11.2019 Y18.5606
G01 X11.2552 Y18.6114
G01 X11.3109 Y18.6595
G01 X11.3690 Y18.7048
G01 X11.4292 Y18.7472
G01 X11.4914 Y18.7866
G01 X11.5554 Y18.8229
G01 X11.6212 Y18.8560
G01 X11.6885 Y18.8858
G01 X11.7572 Y18.9123
G01 X11.8271 Y18.9354
G01 X11.8980 Y18.9550
G01 X11.9699 Y18.9712
G01 X12.0424 Y18.9837
G01 X12.1155 Y18.9928
G01 X12.1889 Y18.9982
G01 X12.2625 Y19.0000
G01 X12.3361 Y18.9982
G01 X12.4095 Y18.9928
G01 X12.4826 Y18.9837
G01 X12.5551 Y18.9712
G01 X12.6270 Y18.9550
G01 X12.6979 Y18.9354
G01 X12.7678 Y18.9123
G01 X12.8365 Y18.8858
G01 X12.9038 Y18.8560
G01 X12.9696 Y18.8229
G01 X13.0336 Y18.7866
G01 X13.0958 Y18.7472
G01 X13.1560 Y18.7048
G01 X13.2141 Y18.6595
G01 X13.2698 Y18.6114
G01 X13.3231 Y18.5606
G01 X13.3739 Y18.5073
G01 X13.4220 Y18.4516
G01 X13.4673 Y18.3935
G01 X13.5097 Y18.3333
G01 X13.5491 Y18.2711
G01 X13.5854 Y18.2071
G01 X13.6185 Y18.1413
G01 X13.6483 Y18.0740
G01 X13.6748 Y18.0053
G01 X13.6979 Y17.9354
G01 X13.7175 Y17.8645
G01 X13.7336 Y17.7926
G01 X13.7462 Y17.7201
G01 X13.7552 Y17.6470
G01 X13.7607 Y17.5736
G01 X13.7625 Y17.5000
G01 X13.7583 Y17.3879
G01 X13.7457 Y17.2764
G01 X13.7249 Y17.1662
G01 X13.6958 Y17.0579
G01 X13.6588 Y16.9520
G01 X13.6139 Y16.8492
G01 X13.5615 Y16.7500
G01 X13.5018 Y16.6550
G01 X13.4352 Y16.5648
G01 X13.3621 Y16.4798
G01 X13.2827 Y16.4005
G01 X13.1977 Y16.3273
G01 X13.1075 Y16.2607
G01 X13.0125 Y16.2010
G01 X12.9133 Y16.1486
G01 X12.8105 Y16.1037
G01 X12.7046 Y16.0667
G01 X12.5963 Y16.0376
G01 X12.4861 Y16.0168
G01 X12.3746 Y16.0042
G01 X12.2625 Y16.0000
G01 X12.1504 Y16.0042
G01 X12.0389 Y16.0168
G01 X11.9287 Y16.0376
G01 X11.8204 Y16.0667
G01 X11.7145 Y16.1037
G01 X11.6117 Y16.1486
G01 X11.5125 Y16.2010
G01 X11.4175 Y16.2607
G01 X11.3273 Y16.3273
G01 X11.2423 Y16.4005
G01 X11.1629 Y16.4798
G01 X11.0898 Y16.5648
G01 X11.0232 Y16.6550
G01 X10.9635 Y16.7500
G01 X10.9111 Y16.8492
G01 X10.8662 Y16.9520
G01 X10.8292 Y17.0579
G01 X10.8001 Y17.1662
G01 X10.7793 Y17.2764
G01 X10.7667 Y17.3879
G01 X10.7625 Y17.5000
G01 X10.7667 Y17.6121
G01 X10.7793 Y17.7236
G01 X10.8001 Y17.8338
G01 X10.8292 Y17.9421
G01 X10.8662 Y18.0480
G01 X10.9111 Y18.1508
G01 X10.9635 Y18.2500
G01 X11.0232 Y18.3450
G01 X11.0898 Y18.4352
G01 X11.1629 Y18.5202
G01 X11.2423 Y18.5996
G01 X11.3273 Y18.6727
G01 X11.4175 Y18.7393
G01 X11.5125 Y18.7990
G01 X11.6117 Y18.8514
G01 X11.7145 Y18.8963
G01 X11.8204 Y18.9333
G01 X11.9287 Y18.9624
G01 X12.0389 Y18.9832
G01 X12.1504 Y18.9958
G01 X12.2625 Y19.0000
G01 X12.3746 Y18.9958
G01 X12.4861 Y18.9832
G01 X12.5963 Y18.9624
G01 X12.7046 Y18.9333
G01 X12.8105 Y18.8963
G01 X12.9133 Y18.8514
G01 X13.0125 Y18.7990
G01 X13.1075 Y18.7393
G01 X13.1977 Y18.6727
G01 X13.2827 Y18.5996
G01 X13.3621 Y18.5202
G01 X13.4352 Y18.4352
G01 X13.5018 Y18.3450
G01 X13.5615 Y18.2500
G01 X13.6139 Y18.1508
G01 X13.6588 Y18.0480
G01 X13.6958 Y17.9421
G01 X13.7249 Y17.8338
G01 X13.7457 Y17.7236
G01 X13.7583 Y17.6121
G01 X13.7625 Y17.5000
G01 X13.7586 Y17.4019
G01 X13.7471 Y17.3045
G01 X13.7279 Y17.2082
G01 X13.7013 Y17.1137
G01 X13.6673 Y17.0217
G01 X13.6262 Y16.9325
G01 X13.5783 Y16.8469
G01 X13.5237 Y16.7653
G01 X13.4630 Y16.6882
G01 X13.3964 Y16.6161
G01 X13.3243 Y16.5495
G01 X13.2472 Y16.4887
G01 X13.1656 Y16.4342
G01 X13.0800 Y16.3863
G01 X12.9908 Y16.3452
G01 X12.8988 Y16.3112
G01 X12.8043 Y16.2846
G01 X12.7080 Y16.2654
G01 X12.6106 Y16.2539
G01 X12.5125 Y16.2500
G01 X12.4144 Y16.2539
G01 X12.3169 Y16.2654
G01 X12.2207 Y16.2846
G01 X12.1262 Y16.3112
G01 X12.0341 Y16.3452
G01 X11.9450 Y16.3863
G01 X11.8594 Y16.4342
G01 X11.7778 Y16.4887
G01 X11.7007 Y16.5495
G01 X11.6286 Y16.6161
G01 X11.5620 Y16.6882
G01 X11.5012 Y16.7653
G01 X11.4467 Y16.8469
G01 X11.3987 Y16.9325
G01 X11.3577 Y17.0217
G01 X11.3237 Y17.1137
G01 X11.2970 Y17.2082
G01 X11.2779 Y17.3045
G01 X11.2664 Y17.4019
G01 X11.2625 Y17.5000
G01 X11.2663 Y17.5872
G01 X11.2777 Y17.6737
G01 X11.2966 Y17.7588
G01 X11.3228 Y17.8420
G01 X11.3562 Y17.9226
G01 X11.3965 Y18.0000
G01 X11.4434 Y18.0736
G01 X11.4965 Y18.1428
G01 X11.5554 Y18.2071
G01 X11.6197 Y18.2660
G01 X11.6889 Y18.3192
G01 X11.7625 Y18.3660
G01 X11.8399 Y18.4063
G01 X11.9205 Y18.4397
G01 X12.0037 Y18.4659
G01 X12.0889 Y18.4848
G01 X12.1753 Y18.4962
G01 X12.2625 Y18.5000
G01 X12.3497 Y18.4962
G01 X12.4362 Y18.4848
G01 X12.5213 Y18.4659
G01 X12.6045 Y18.4397
G01 X12.6851 Y18.4063
G01 X12.7625 Y18.3660
G01 X12.8361 Y18.3192
G01 X12.9053 Y18.2660
G01 X12.9696 Y18.2071
G01 X13.0285 Y18.1428
G01 X13.0817 Y18.0736
G01 X13.1285 Y18.0000
G01 X13.1688 Y17.9226
G01 X13.2022 Y17.8420
G01 X13.2284 Y17.7588
G01 X13.2473 Y17.6737
G01 X13.2587 Y17.5872
G01 X13.2625 Y17.5000
M107
M106 S240
G01 X13.2587 Y17.4128 Z-1.5278 F400
G01 X13.2473 Y17.3264 Z-1.5556
G01 X13.2284 Y17.2412 Z-1.5833
G01 X13.2022 Y17.1580 Z-1.6111
G01 X13.1688 Y17.0774 Z-1.6389
G01 X13.1285 Y17.0000 Z-1.6667
G01 X13.0817 Y16.9264 Z-1.6944
G01 X13.0285 Y16.8572 Z-1.7222
G01 X12.9696 Y16.7929 Z-1.7500
G01 X12.9053 Y16.7340 Z-1.7778
G01 X12.8361 Y16.6809 Z-1.8056
G01 X12.7625 Y16.6340 Z-1.8333
G01 X12.6851 Y16.5937 Z-1.8611
G01 X12.6045 Y16.5603 Z-1.8889
G01 X12.5213 Y16.5341 Z-1.9167
G01 X12.4362 Y16.5152 Z-1.9444
G01 X12.3497 Y16.5038 Z-1.9722
G01 X12.2625 Y16.5000 Z-2.0000
G01 X12.1753 Y16.5038 Z-2.0278
G01 X12.0889 Y16.5152 Z-2.0556
G01 X12.0037 Y16.5341 Z-2.0833
G01 X11.9205 Y16.5603 Z-2.1111
G01 X11.8399 Y16.5937 Z-2.1389
G01 X11.7625 Y16.6340 Z-2.1667
G01 X11.7219 Y16.6588 Z-2.1818
G01 X11.6824 Y16.6854 Z-2.1970
G01 X11.6443 Y16.7140 Z-2.2121
G01 X11.6076 Y16.7443 Z-2.2273
G01 X11.5724 Y16.7763 Z-2.2424
G01 X11.5388 Y16.8099 Z-2.2576
G01 X11.5068 Y16.8451 Z-2.2727
G01 X11.4764 Y16.8818 Z-2.2879
G01 X11.4479 Y16.9199 Z-2.3030
G01 X11.4212 Y16.9594 Z-2.3182
G01 X11.3965 Y17.0000 Z-2.3333
G01 X11.3737 Y17.0418 Z-2.3485
G01 X11.3529 Y17.0846 Z-2.3636
G01 X11.3341 Y17.1283 Z-2.3788
G01 X11.3175 Y17.1729 Z-2.3939
G01 X11.3030 Y17.2183 Z-2.4091
G01 X11.2907 Y17.2642 Z-2.4242
G01 X11.2806 Y17.3108 Z-2.4394
G01 X11.2727 Y17.3577 Z-2.4545
G01 X11.2670 Y17.4049 Z-2.4697
G01 X11.2636 Y17.4524 Z-2.4848
G01 X11.2625 Y17.5000 Z-2.5000
G01 X11.2636 Y17.5476 Z-2.5152
G01 X11.2670 Y17.5951 Z-2.5303
G01 X11.2727 Y17.6423 Z-2.5455
G01 X11.2806 Y17.6893 Z-2.5606
G01 X11.2907 Y17.7358 Z-2.5758
G01 X11.3030 Y17.7817 Z-2.5909
G01 X11.3175 Y17.8271 Z-2.6061
G01 X11.3341 Y17.8717 Z-2.6212
G01 X11.3529 Y17.9154 Z-2.6364
G01 X11.3737 Y17.9582 Z-2.6515
G01 X11.3965 Y18.0000 Z-2.6667
G01 X11.4212 Y18.0406 Z-2.6818
G01 X11.4479 Y18.0801 Z-2.6970
G01 X11.4764 Y18.1182 Z-2.7121
G01 X11.5068 Y18.1549 Z-2.7273
G01 X11.5388 Y18.1901 Z-2.7424
G01 X11.5724 Y18.2237 Z-2.7576
G01 X11.6076 Y18.2558 Z-2.7727
G01 X11.6443 Y18.2861 Z-2.7879
G01 X11.6824 Y18.3146 Z-2.8030
G01 X11.7219 Y18.3413 Z-2.8182
G01 X11.7625 Y18.3660 Z-2.8333
G01 X11.8043 Y18.3888 Z-2.8485
G01 X11.8471 Y18.4096 Z-2.8636
G01 X11.8908 Y18.4284 Z-2.8788
G01 X11.9354 Y18.4450 Z-2.8939
G01 X11.9808 Y18.4595 Z-2.9091
G01 X12.0267 Y18.4718 Z-2.9242
G01 X12.0733 Y18.4819 Z-2.9394
G01 X12.1202 Y18.4898 Z-2.9545
G01 X12.1674 Y18.4955 Z-2.9697
G01 X12.2149 Y18.4989 Z-2.9848
G01 X12.2625 Y18.5000 Z-3.0000
G01 X12.3101 Y18.4989 Z-3.0152
G01 X12.3576 Y18.4955 Z-3.0303
G01 X12.4048 Y18.4898 Z-3.0455
G01 X12.4518 Y18.4819 Z-3.0606
G01 X12.4983 Y18.4718 Z-3.0758
G01 X12.5442 Y18.4595 Z-3.0909
G01 X12.5896 Y18.4450 Z-3.1061
G01 X12.6342 Y18.4284 Z-3.1212
G01 X12.6779 Y18.4096 Z-3.1364
G01 X12.7207 Y18.3888 Z-3.1515
G01 X12.7625 Y18.3660 Z-3.1667
G01 X12.8031 Y18.3413 Z-3.1818
G01 X12.8426 Y18.3146 Z-3.1970
G01 X12.8807 Y18.2861 Z-3.2121
G01 X12.9174 Y18.2558 Z-3.2273
G01 X12.9526 Y18.2237 Z-3.2424
G01 X12.9862 Y18.1901 Z-3.2576
G01 X13.0183 Y18.1549 Z-3.2727
G01 X13.0486 Y18.1182 Z-3.2879
G01 X13.0771 Y18.0801 Z-3.3030
G01 X13.1038 Y18.0406 Z-3.3182
G01 X13.1285 Y18.0000 Z-3.3333
G01 X13.1513 Y17.9582 Z-3.3485
G01 X13.1721 Y17.9154 Z-3.3636
G01 X13.1909 Y17.8717 Z-3.3788
G01 X13.2075 Y17.8271 Z-3.3939
G01 X13.2220 Y17.7817 Z-3.4091
G01 X13.2343 Y17.7358 Z-3.4242
G01 X13.2444 Y17.6893 Z-3.4394
G01 X13.2523 Y17.6423 Z-3.4545
G01 X13.2580 Y17.5951 Z-3.4697
G01 X13.2614 Y17.5476 Z-3.4848
G01 X13.2625 Y17.5000 Z-3.5000
G01 X13.2587 Y17.4128
G01 X13.2473 Y17.3264
G01 X13.2284 Y17.2412
G01 X13.2022 Y17.1580
G01 X13.1688 Y17.0774
G01 X13.1285 Y17.0000
G01 X13.0817 Y16.9264
G01 X13.0285 Y16.8572
G01 X12.9696 Y16.7929
G01 X12.9053 Y16.7340
G01 X12.8361 Y16.6809
G01 X12.7625 Y16.6340
G01 X12.6851 Y16.5937
G01 X12.6045 Y16.5603
G01 X12.5213 Y16.5341
G01 X12.4362 Y16.5152
G01 X12.3497 Y16.5038
G01 X12.2625 Y16.5000
G01 X12.1753 Y16.5038
G01 X12.0889 Y16.5152
G01 X12.0037 Y16.5341
G01 X11.9205 Y16.5603
G01 X11.8399 Y16.5937
G01 X11.7625 Y16.6340
G01 X11.7219 Y16.6588
G01 X11.6824 Y16.6854
G01 X11.6443 Y16.7140
G01 X11.6076 Y16.7443
G01 X11.5724 Y16.7763
G01 X11.5388 Y16.8099
G01 X11.5068 Y16.8451
G01 X11.4764 Y16.8818
G01 X11.4479 Y16.9199
G01 X11.4212 Y16.9594
G01 X11.3965 Y17.0000
G01 X11.3737 Y17.0418
G01 X11.3529 Y17.0846
G01 X11.3341 Y17.1283
G01 X11.3175 Y17.1729
G01 X11.3030 Y17.2183
G01 X11.2907 Y17.2642
G01 X11.2806 Y17.3108
G01 X11.2727 Y17.3577
G01 X11.2670 Y17.4049
G01 X11.2636 Y17.4524
G01 X11.2625 Y17.5000
G01 X11.2636 Y17.5476
G01 X11.2670 Y17.5951
G01 X11.2727 Y17.6423
G01 X11.2806 Y17.6893
G01 X11.2907 Y17.7358
G01 X11.3030 Y17.7817
G01 X11.3175 Y17.8271
G01 X11.3341 Y17.8717
G01 X11.3529 Y17.9154
G01 X11.3737 Y17.9582
G01 X11.3965 Y18.0000
G01 X11.4212 Y18.0406
G01 X11.4479 Y18.0801
G01 X11.4764 Y18.1182
G01 X11.5068 Y18.1549
G01 X11.5388 Y18.1901
G01 X11.5724 Y18.2237
G01 X11.6076 Y18.2558
G01 X11.6443 Y18.2861
G01 X11.6824 Y18.3146
G01 X11.7219 Y18.3413
G01 X11.7625 Y18.3660
G01 X11.8043 Y18.3888
G01 X11.8471 Y18.4096
G01 X11.8908 Y18.4284
G01 X11.9354 Y18.4450
G01 X11.9808 Y18.4595
G01 X12.0267 Y18.4718
G01 X12.0733 Y18.4819
G01 X12.1202 Y18.4898
G01 X12.1674 Y18.4955
G01 X12.2149 Y18.4989
G01 X12.2625 Y18.5000
G01 X12.3101 Y18.4989
G01 X12.3576 Y18.4955
G01 X12.4048 Y18.4898
G01 X12.4518 Y18.4819
G01 X12.4983 Y18.4718
G01 X12.5442 Y18.4595
G01 X12.5896 Y18.4450
G01 X12.6342 Y18.4284
G01 X12.6779 Y18.4096
G01 X12.7207 Y18.3888
G01 X12.7625 Y18.3660
G01 X12.8031 Y18.3413
G01 X12.8426 Y18.3146
G01 X12.8807 Y18.2861
G01 X12.9174 Y18.2558
G01 X12.9526 Y18.2237
G01 X12.9862 Y18.1901
G01 X13.0183 Y18.1549
G01 X13.0486 Y18.1182
G01 X13.0771 Y18.0801
G01 X13.1038 Y18.0406
G01 X13.1285 Y18.0000
G01 X13.1513 Y17.9582
G01 X13.1721 Y17.9154
G01 X13.1909 Y17.8717
G01 X13.2075 Y17.8271
G01 X13.2220 Y17.7817
G01 X13.2343 Y17.7358
G01 X13.2444 Y17.6893
G01 X13.2523 Y17.6423
G01 X13.2580 Y17.5951
G01 X13.2614 Y17.5476
G01 X13.2625 Y17.5000
G01 X13.2732 Y17.4484 F1000
G01 X13.2813 Y17.3963
G01 X13.2867 Y17.3439
G01 X13.2894 Y17.2913
G01 X13.2893 Y17.2386
G01 X13.2866 Y17.1859
G01 X13.2811 Y17.1335
G01 X13.2730 Y17.0814
G01 X13.2613 Y17.0255
G01 X13.2467 Y16.9701
G01 X13.2293 Y16.9157
G01 X13.2092 Y16.8621
G01 X13.1864 Y16.8097
G01 X13.1609 Y16.7585
G01 X13.1328 Y16.7086
G01 X13.1022 Y16.6603
G01 X13.0666 Y16.6099
G01 X13.0285 Y16.5614
G01 X12.9879 Y16.5149
G01 X12.9451 Y16.4705
G01 X12.9000 Y16.4283
G01 X12.8529 Y16.3885
G01 X12.8038 Y16.3511
G01 X12.7528 Y16.3163
G01 X12.6963 Y16.2817
G01 X12.6381 Y16.2500
G01 X12.5784 Y16.2214
G01 X12.5174 Y16.1957
G01 X12.4551 Y16.1732
G01 X12.3917 Y16.1539
G01 X12.3275 Y16.1378
G01 X12.2625 Y16.1250
G01 X12.1925 Y16.1148
G01 X12.1220 Y16.1082
G01 X12.0513 Y16.1051
G01 X11.9806 Y16.1056
G01 X11.9099 Y16.1096
G01 X11.8396 Y16.1173
G01 X11.7697 Y16.1284
G01 X11.7004 Y16.1431
G01 X11.6323 Y16.1690
G01 X11.5654 Y16.1983
G01 X11.5001 Y16.2309
G01 X11.4365 Y16.2666
G01 X11.3747 Y16.3054
G01 X11.3149 Y16.3472
G01 X11.2573 Y16.3919
G01 X11.2019 Y16.4394
G01 X11.1511 Y16.4927
G01 X11.1030 Y16.5484
G01 X11.0577 Y16.6065
G01 X11.0153 Y16.6667
G01 X10.9759 Y16.7289
G01 X10.9396 Y16.7929
G01 X10.9065 Y16.8587
G01 X10.8767 Y16.9260
G01 X10.8502 Y16.9947
G01 X10.8271 Y17.0646
G01 X10.8075 Y17.1355
G01 X10.7914 Y17.2074
G01 X10.7788 Y17.2799
G01 X10.7698 Y17.3530
G01 X10.7643 Y17.4264
G01 X10.7625 Y17.5000
G01 X10.7643 Y17.5736
G01 X10.7698 Y17.6470
G01 X10.7788 Y17.7201
G01 X10.7914 Y17.7926
G01 X10.8075 Y17.8645
G01 X10.8271 Y17.9354
G01 X10.8502 Y18.0053
G01 X10.8767 Y18.0740
G01 X10.9065 Y18.1413
G01 X10.9396 Y18.2071
G01 X10.9759 Y18.2711
G01 X11.0153 Y18.3333
G01 X11.0577 Y18.3935
G01 X11.1030 Y18.4516
G01 X11.1511 Y18.5073
G01 X11.2019 Y18.5606
G01 X11.2552 Y18.6114
G01 X11.3109 Y18.6595
G01 X11.3690 Y18.7048
G01 X11.4292 Y18.7472
G01 X11.4914 Y18.7866
G01 X11.5554 Y18.8229
G01 X11.6212 Y18.8560
G01 X11.6885 Y18.8858
G01 X11.7572 Y18.9123
G01 X11.8271 Y18.9354
G01 X11.8980 Y18.9550
G01 X11.9699 Y18.9712
G01 X12.0424 Y18.9837
G01 X12.1155 Y18.9928
G01 X12.1889 Y18.9982
G01 X12.2625 Y19.0000
G01 X12.3361 Y18.9982
G01 X12.4095 Y18.9928
G01 X12.4826 Y18.9837
G01 X12.5551 Y18.9712
G01 X12.6270 Y18.9550
G01 X12.6979 Y18.9354
G01 X12.7678 Y18.9123
G01 X12.8365 Y18.8858
G01 X12.9038 Y18.8560
G01 X12.9696 Y18.8229
G01 X13.0336 Y18.7866
G01 X13.0958 Y18.7472
G01 X13.1560 Y18.7048
G01 X13.2141 Y18.6595
G01 X13.2698 Y18.6114
G01 X13.3231 Y18.5606
G01 X13.3739 Y18.5073
G01 X13.4220 Y18.4516
G01 X13.4673 Y18.3935
G01 X13.5097 Y18.3333
G01 X13.5491 Y18.2711
G01 X13.5854 Y18.2071
G01 X13.6185 Y18.1413
G01 X13.6483 Y18.0740
G01 X13.6748 Y18.0053
G01 X13.6979 Y17.9354
G01 X13.7175 Y17.8645
G01 X13.7336 Y17.7926
G01 X13.7462 Y17.7201
G01 X13.7552 Y17.6470
G01 X13.7607 Y17.5736
G01 X13.7625 Y17.5000
G01 X13.7583 Y17.3879
G01 X13.7457 Y17.2764
G01 X13.7249 Y17.1662
G01 X13.6958 Y17.0579
G01 X13.6588 Y16.9520
G01 X13.6139 Y16.8492
G01 X13.5615 Y16.7500
G01 X13.5018 Y16.6550
G01 X13.4352 Y16.5648
G01 X13.3621 Y16.4798
G01 X13.2827 Y16.4005
G01 X13.1977 Y16.3273
G01 X13.1075 Y16.2607
G01 X13.0125 Y16.2010
G01 X12.9133 Y16.1486
G01 X12.8105 Y16.1037
G01 X12.7046 Y16.0667
G01 X12.5963 Y16.0376
G01 X12.4861 Y16.0168
G01 X12.3746 Y16.0042
G01 X12.2625 Y16.0000
G01 X12.1504 Y16.0042
G01 X12.0389 Y16.0168
G01 X11.9287 Y16.0376
G01 X11.8204 Y16.0667
G01 X11.7145 Y16.1037
G01 X11.6117 Y16.1486
G01 X11.5125 Y16.2010
G01 X11.4175 Y16.2607
G01 X11.3273 Y16.3273
G01 X11.2423 Y16.4005
G01 X11.1629 Y16.4798
G01 X11.0898 Y16.5648
G01 X11.0232 Y16.6550
G01 X10.9635 Y16.7500
G01 X10.9111 Y16.8492
G01 X10.8662 Y16.9520
G01 X10.8292 Y17.0579
G01 X10.8001 Y17.1662
G01 X10.7793 Y17.2764
G01 X10.7667 Y17.3879
G01 X10.7625 Y17.5000
G01 X10.7667 Y17.6121
G01 X10.7793 Y17.7236
G01 X10.8001 Y17.8338
G01 X10.8292 Y17.9421
G01 X10.8662 Y18.0480
G01 X10.9111 Y18.1508
G01 X10.9635 Y18.2500
G01 X11.0232 Y18.3450
G01 X11.0898 Y18.4352
G01 X11.1629 Y18.5202
G01 X11.2423 Y18.5996
G01 X11.3273 Y18.6727
G01 X11.4175 Y18.7393
G01 X11.5125 Y18.7990
G01 X11.6117 Y18.8514
G01 X11.7145 Y18.8963
G01 X11.8204 Y18.9333
G01 X11.9287 Y18.9624
G01 X12.0389 Y18.9832
G01 X12.1504 Y18.9958
G01 X12.2625 Y19.0000
G01 X12.3746 Y18.9958
G01 X12.4861 Y18.9832
G01 X12.5963 Y18.9624
G01 X12.7046 Y18.9333
G01 X12.8105 Y18.8963
G01 X12.9133 Y18.8514
G01 X13.0125 Y18.7990
G01 X13.1075 Y18.7393
G01 X13.1977 Y18.6727
G01 X13.2827 Y18.5996
G01 X13.3621 Y18.5202
G01 X13.4352 Y18.4352
G01 X13.5018 Y18.3450
G01 X13.5615 Y18.2500
G01 X13.6139 Y18.1508
G01 X13.6588 Y18.0480
G01 X13.6958 Y17.9421
G01 X13.7249 Y17.8338
G01 X13.7457 Y17.7236
G01 X13.7583 Y17.6121
G01 X13.7625 Y17.5000
G01 X13.7586 Y17.4019
G01 X13.7471 Y17.3045
G01 X13.7279 Y17.2082
G01 X13.7013 Y17.1137
G01 X13.6673 Y17.0217
G01 X13.6262 Y16.9325
G01 X13.5783 Y16.8469
G01 X13.5237 Y16.7653
G01 X13.4630 Y16.6882
G01 X13.3964 Y16.6161
G01 X13.3243 Y16.5495
G01 X13.2472 Y16.4887
G01 X13.1656 Y16.4342
G01 X13.0800 Y16.3863
G01 X12.9908 Y16.3452
G01 X12.8988 Y16.3112
G01 X12.8043 Y16.2846
G01 X12.7080 Y16.2654
G01 X12.6106 Y16.2539
G01 X12.5125 Y16.2500
G01 X12.4144 Y16.2539
G01 X12.3169 Y16.2654
G01 X12.2207 Y16.2846
G01 X12.1262 Y16.3112
G01 X12.0341 Y16.3452
G01 X11.9450 Y16.3863
G01 X11.8594 Y16.4342
G01 X11.7778 Y16.4887
G01 X11.7007 Y16.5495
G01 X11.6286 Y16.6161
G01 X11.5620 Y16.6882
G01 X11.5012 Y16.7653
G01 X11.4467 Y16.8469
G01 X11.3987 Y16.9325
G01 X11.3577 Y17.0217
G01 X11.3237 Y17.1137
G01 X11.2970 Y17.2082
G01 X11.2779 Y17.3045
G01 X11.2664 Y17.4019
G01 X11.2625 Y17.5000
G01 X11.2663 Y17.5872
G01 X11.2777 Y17.6737
G01 X11.2966 Y17.7588
G01 X11.3228 Y17.8420
G01 X11.3562 Y17.9226
G01 X11.3965 Y18.0000
G01 X11.4434 Y18.0736
G01 X11.4965 Y18.1428
G01 X11.5554 Y18.2071
G01 X11.6197 Y18.2660
G01 X11.6889 Y18.3192
G01 X11.7625 Y18.3660
G01 X11.8399 Y18.4063
G01 X11.9205 Y18.4397
G01 X12.0037 Y18.4659
G01 X12.0889 Y18.4848
G01 X12.1753 Y18.4962
G01 X12.2625 Y18.5000
G01 X12.3497 Y18.4962
G01 X12.4362 Y18.4848
G01 X12.5213 Y18.4659
G01 X12.6045 Y18.4397
G01 X12.6851 Y18.4063
G01 X12.7625 Y18.3660
G01 X12.8361 Y18.3192
G01 X12.9053 Y18.2660
G01 X12.9696 Y18.2071
G01 X13.0285 Y18.1428
G01 X13.0817 Y18.0736
G01 X13.1285 Y18.0000
G01 X13.1688 Y17.9226
G01 X13.2022 Y17.8420
G01 X13.2284 Y17.7588
G01 X13.2473 Y17.6737
G01 X13.2587 Y17.5872
G01 X13.2625 Y17.5000
M107
M106 S240
G01 X13.2587 Y17.4128 Z-3.5278 F400
G01 X13.2473 Y17.3264 Z-3.5556
G01 X13.2284 Y17.2412 Z-3.5833
G01 X13.2022 Y17.1580 Z-3.6111
G01 X13.1688 Y17.0774 Z-3.6389
G01 X13.1285 Y17.0000 Z-3.6667
G01 X13.0817 Y16.9264 Z-3.6944
G01 X13.0285 Y16.8572 Z-3.7222
G01 X12.9696 Y16.7929 Z-3.7500
G01 X12.9053 Y16.7340 Z-3.7778
G01 X12.8361 Y16.6809 Z-3.8056
G01 X12.7625 Y16.6340 Z-3.8333
G01 X12.6851 Y16.5937 Z-3.8611
G01 X12.6045 Y16.5603 Z-3.8889
G01 X12.5213 Y16.5341 Z-3.9167
G01 X12.4362 Y16.5152 Z-3.9444
G01 X12.3497 Y16.5038 Z-3.9722
G01 X12.2625 Y16.5000 Z-4.0000
G01 X12.1753 Y16.5038 Z-4.0278
G01 X12.0889 Y16.5152 Z-4.0556
G01 X12.0037 Y16.5341 Z-4.0833
G01 X11.9205 Y16.5603 Z-4.1111
G01 X11.8399 Y16.5937 Z-4.1389
G01 X11.7625 Y16.6340 Z-4.1667
G01 X11.7219 Y16.6588 Z-4.1818
G01 X11.6824 Y16.6854 Z-4.1970
G01 X11.6443 Y16.7140 Z-4.2121
G01 X11.6076 Y16.7443 Z-4.2273
G01 X11.5724 Y16.7763 Z-4.2424
G01 X11.5388 Y16.8099 Z-4.2576
G01 X11.5068 Y16.8451 Z-4.2727
G01 X11.4764 Y16.8818 Z-4.2879
G01 X11.4479 Y16.9199 Z-4.3030
G01 X11.4212 Y16.9594 Z-4.3182
G01 X11.3965 Y17.0000 Z-4.3333
G01 X11.3737 Y17.0418 Z-4.3485
G01 X11.3529 Y17.0846 Z-4.3636
G01 X11.3341 Y17.1283 Z-4.3788
G01 X11.3175 Y17.1729 Z-4.3939
G01 X11.3030 Y17.2183 Z-4.4091
G01 X11.2907 Y17.2642 Z-4.4242
G01 X11.2806 Y17.3108 Z-4.4394
G01 X11.2727 Y17.3577 Z-4.4545
G01 X11.2670 Y17.4049 Z-4.4697
G01 X11.2636 Y17.4524 Z-4.4848
G01 X11.2625 Y17.5000 Z-4.5000
G01 X11.2636 Y17.5476 Z-4.5152
G01 X11.2670 Y17.5951 Z-4.5303
G01 X11.2727 Y17.6423 Z-4.5455
G01 X11.2806 Y17.6893 Z-4.5606
G01 X11.2907 Y17.7358 Z-4.5758
G01 X11.3030 Y17.7817 Z-4.5909
G01 X11.3175 Y17.8271 Z-4.6061
G01 X11.3341 Y17.8717 Z-4.6212
G01 X11.3529 Y17.9154 Z-4.6364
G01 X11.3737 Y17.9582 Z-4.6515
G01 X11.3965 Y18.0000 Z-4.6667
G01 X11.4212 Y18.0406 Z-4.6818
G01 X11.4479 Y18.0801 Z-4.6970
G01 X11.4764 Y18.1182 Z-4.7121
G01 X11.5068 Y18.1549 Z-4.7273
G01 X11.5388 Y18.1901 Z-4.7424
G01 X11.5724 Y18.2237 Z-4.7576
G01 X11.6076 Y18.2558 Z-4.7727
G01 X11.6443 Y18.2861 Z-4.7879
G01 X11.6824 Y18.3146 Z-4.8030
G01 X11.7219 Y18.3413 Z-4.8182
G01 X11.7625 Y18.3660 Z-4.8333
G01 X11.8043 Y18.3888 Z-4.8485
G01 X11.8471 Y18.4096 Z-4.8636
G01 X11.8908 Y18.4284 Z-4.8788
G01 X11.9354 Y18.4450 Z-4.8939
G01 X11.9808 Y18.4595 Z-4.9091
G01 X12.0267 Y18.4718 Z-4.9242
G01 X12.0733 Y18.4819 Z-4.9394
G01 X12.1202 Y18.4898 Z-4.9545
G01 X12.1674 Y18.4955 Z-4.9697
G01 X12.2149 Y18.4989 Z-4.9848
G01 X12.2625 Y18.5000 Z-5.0000
G01 X12.3101 Y18.4989 Z-5.0152
G01 X12.3576 Y18.4955 Z-5.0303
G01 X12.4048 Y18.4898 Z-5.0455
G01 X12.4518 Y18.4819 Z-5.0606
G01 X12.4983 Y18.4718 Z-5.0758
G01 X12.5442 Y18.4595 Z-5.0909
G01 X12.5896 Y18.4450 Z-5.1061
G01 X12.6342 Y18.4284 Z-5.1212
G01 X12.6779 Y18.4096 Z-5.1364
G01 X12.7207 Y18.3888 Z-5.1515
G01 X12.7625 Y18.3660 Z-5.1667
G01 X12.8031 Y18.3413 Z-5.1818
G01 X12.8426 Y18.3146 Z-5.1970
G01 X12.8807 Y18.2861 Z-5.2121
G01 X12.9174 Y18.2558 Z-5.2273
G01 X12.9526 Y18.2237 Z-5.2424
G01 X12.9862 Y18.1901 Z-5.2576
G01 X13.0183 Y18.1549 Z-5.2727
G01 X13.0486 Y18.1182 Z-5.2879
G01 X13.0771 Y18.0801 Z-5.3030
G01 X13.1038 Y18.0406 Z-5.3182
G01 X13.1285 Y18.0000 Z-5.3333
G01 X13.1513 Y17.9582 Z-5.3485
G01 X13.1721 Y17.9154 Z-5.3636
G01 X13.1909 Y17.8717 Z-5.3788
G01 X13.2075 Y17.8271 Z-5.3939
G01 X13.2220 Y17.7817 Z-5.4091
G01 X13.2343 Y17.7358 Z-5.4242
G01 X13.2444 Y17.6893 Z-5.4394
G01 X13.2523 Y17.6423 Z-5.4545
G01 X13.2580 Y17.5951 Z-5.4697
G01 X13.2614 Y17.5476 Z-5.4848
G01 X13.2625 Y17.5000 Z-5.5000
G01 X13.2587 Y17.4128
G01 X13.2473 Y17.3264
G01 X13.2284 Y17.2412
G01 X13.2022 Y17.1580
G01 X13.1688 Y17.0774
G01 X13.1285 Y17.0000
G01 X13.0817 Y16.9264
G01 X13.0285 Y16.8572
G01 X12.9696 Y16.7929
G01 X12.9053 Y16.7340
G01 X12.8361 Y16.6809
G01 X12.7625 Y16.6340
G01 X12.6851 Y16.5937
G01 X12.6045 Y16.5603
G01 X12.5213 Y16.5341
G01 X12.4362 Y16.5152
G01 X12.3497 Y16.5038
G01 X12.2625 Y16.5000
G01 X12.1753 Y16.5038
G01 X12.0889 Y16.5152
G01 X12.0037 Y16.5341
G01 X11.9205 Y16.5603
G01 X11.8399 Y16.5937
G01 X11.7625 Y16.6340
G01 X11.7219 Y16.6588
G01 X11.6824 Y16.6854
G01 X11.6443 Y16.7140
G01 X11.6076 Y16.7443
G01 X11.5724 Y16.7763
G01 X11.5388 Y16.8099
G01 X11.5068 Y16.8451
G01 X11.4764 Y16.8818
G01 X11.4479 Y16.9199
G01 X11.4212 Y16.9594
G01 X11.3965 Y17.0000
G01 X11.3737 Y17.0418
G01 X11.3529 Y17.0846
G01 X11.3341 Y17.1283
G01 X11.3175 Y17.1729
G01 X11.3030 Y17.2183
G01 X11.2907 Y17.2642
G01 X11.2806 Y17.3108
G01 X11.2727 Y17.3577
G01 X11.2670 Y17.4049
G01 X11.2636 Y17.4524
G01 X11.2625 Y17.5000
G01 X11.2636 Y17.5476
G01 X11.2670 Y17.5951
G01 X11.2727 Y17.6423
G01 X11.2806 Y17.6893
G01 X11.2907 Y17.7358
G01 X11.3030 Y17.7817
G01 X11.3175 Y17.8271
G01 X11.3341 Y17.8717
G01 X11.3529 Y17.9154
G01 X11.3737 Y17.9582
G01 X11.3965 Y18.0000
G01 X11.4212 Y18.0406
G01 X11.4479 Y18.0801
G01 X11.4764 Y18.1182
G01 X11.5068 Y18.1549
G01 X11.5388 Y18.1901
G01 X11.5724 Y18.2237
G01 X11.6076 Y18.2558
G01 X11.6443 Y18.2861
G01 X11.6824 Y18.3146
G01 X11.7219 Y18.3413
G01 X11.7625 Y18.3660
G01 X11.8043 Y18.3888
G01 X11.8471 Y18.4096
G01 X11.8908 Y18.4284
G01 X11.9354 Y18.4450
G01 X11.9808 Y18.4595
G01 X12.0267 Y18.4718
G01 X12.0733 Y18.4819
G01 X12.1202 Y18.4898
G01 X12.1674 Y18.4955
G01 X12.2149 Y18.4989
G01 X12.2625 Y18.5000
G01 X12.3101 Y18.4989
G01 X12.3576 Y18.4955
G01 X12.4048 Y18.4898
G01 X12.4518 Y18.4819
G01 X12.4983 Y18.4718
G01 X12.5442 Y18.4595
G01 X12.5896 Y18.4450
G01 X12.6342 Y18.4284
G01 X12.6779 Y18.4096
G01 X12.7207 Y18.3888
G01 X12.7625 Y18.3660
G01 X12.8031 Y18.3413
G01 X12.8426 Y18.3146
G01 X12.8807 Y18.2861
G01 X12.9174 Y18.2558
G01 X12.9526 Y18.2237
G01 X12.9862 Y18.1901
G01 X13.0183 Y18.1549
G01 X13.0486 Y18.1182
G01 X13.0771 Y18.0801
G01 X13.1038 Y18.0406
G01 X13.1285 Y18.0000
G01 X13.1513 Y17.9582
G01 X13.1721 Y17.9154
G01 X13.1909 Y17.8717
G01 X13.2075 Y17.8271
G01 X13.2220 Y17.7817
G01 X13.2343 Y17.7358
G01 X13.2444 Y17.6893
G01 X13.2523 Y17.6423
G01 X13.2580 Y17.5951
G01 X13.2614 Y17.5476
G01 X13.2625 Y17.5000
G01 X13.2732 Y17.4484 F1000
G01 X13.2813 Y17.3963
G01 X13.2867 Y17.3439
G01 X13.2894 Y17.2913
G01 X13.2893 Y17.2386
G01 X13.2866 Y17.1859
G01 X13.2811 Y17.1335
G01 X13.2730 Y17.0814
G01 X13.2613 Y17.0255
G01 X13.2467 Y16.9701
G01 X13.2293 Y16.9157
G01 X13.2092 Y16.8621
G01 X13.1864 Y16.8097
G01 X13.1609 Y16.7585
G01 X13.1328 Y16.7086
G01 X13.1022 Y16.6603
G01 X13.0666 Y16.6099
G01 X13.0285 Y16.5614
G01 X12.9879 Y16.5149
G01 X12.9451 Y16.4705
G01 X12.9000 Y16.4283
G01 X12.8529 Y16.3885
G01 X12.8038 Y16.3511
G01 X12.7528 Y16.3163
G01 X12.6963 Y16.2817
G01 X12.6381 Y16.2500
G01 X12.5784 Y16.2214
G01 X12.5174 Y16.1957
G01 X12.4551 Y16.1732
G01 X12.3917 Y16.1539
G01 X12.3275 Y16.1378
G01 X12.2625 Y16.1250
G01 X12.1925 Y16.1148
G01 X12.1220 Y16.1082
G01 X12.0513 Y16.1051
G01 X11.9806 Y16.1056
G01 X11.9099 Y16.1096
G01 X11.8396 Y16.1173
G01 X11.7697 Y16.1284
G01 X11.7004 Y16.1431
G01 X11.6323 Y16.1690
G01 X11.5654 Y16.1983
G01 X11.5001 Y16.2309
G01 X11.4365 Y16.2666
G01 X11.3747 Y16.3054
G01 X11.3149 Y16.3472
G01 X11.2573 Y16.3919
G01 X11.2019 Y16.4394
G01 X11.1511 Y16.4927
G01 X11.1030 Y16.5484
G01 X11.0577 Y16.6065
G01 X11.0153 Y16.6667
G01 X10.9759 Y16.7289
G01 X10.9396 Y16.7929
G01 X10.9065 Y16.8587
G01 X10.8767 Y16.9260
G01 X10.8502 Y16.9947
G01 X10.8271 Y17.0646
G01 X10.8075 Y17.1355
G01 X10.7914 Y17.2074
G01 X10.7788 Y17.2799
G01 X10.7698 Y17.3530
G01 X10.7643 Y17.4264
G01 X10.7625 Y17.5000
G01 X10.7643 Y17.5736
G01 X10.7698 Y17.6470
G01 X10.7788 Y17.7201
G01 X10.7914 Y17.7926
G01 X10.8075 Y17.8645
G01 X10.8271 Y17.9354
G01 X10.8502 Y18.0053
G01 X10.8767 Y18.0740
G01 X10.9065 Y18.1413
G01 X10.9396 Y18.2071
G01 X10.9759 Y18.2711
G01 X11.0153 Y18.3333
G01 X11.0577 Y18.3935
G01 X11.1030 Y18.4516
G01 X11.1511 Y18.5073
G01 X11.2019 Y18.5606
G01 X11.2552 Y18.6114
G01 X11.3109 Y18.6595
G01 X11.3690 Y18.7048
G01 X11.4292 Y18.7472
G01 X11.4914 Y18.7866
G01 X11.5554 Y18.8229
G01 X11.6212 Y18.8560
G01 X11.6885 Y18.8858
G01 X11.7572 Y18.9123
G01 X11.8271 Y18.9354
G01 X11.8980 Y18.9550
G01 X11.9699 Y18.9712
G01 X12.0424 Y18.9837
G01 X12.1155 Y18.9928
G01 X12.1889 Y18.9982
G01 X12.2625 Y19.0000
G01 X12.3361 Y18.9982
G01 X12.4095 Y18.9928
G01 X12.4826 Y18.9837
G01 X12.5551 Y18.9712
G01 X12.6270 Y18.9550
G01 X12.6979 Y18.9354
G01 X12.7678 Y18.9123
G01 X12.8365 Y18.8858
G01 X12.9038 Y18.8560
G01 X12.9696 Y18.8229
G01 X13.0336 Y18.7866
G01 X13.0958 Y18.7472
G01 X13.1560 Y18.7048
G01 X13.2141 Y18.6595
G01 X13.2698 Y18.6114
G01 X13.3231 Y18.5606
G01 X13.3739 Y18.5073
G01 X13.4220 Y18.4516
G01 X13.4673 Y18.3935
G01 X13.5097 Y18.3333
G01 X13.5491 Y18.2711
G01 X13.5854 Y18.2071
G01 X13.6185 Y18.1413
G01 X13.6483 Y18.0740
G01 X13.6748 Y18.0053
G01 X13.6979 Y17.9354
G01 X13.7175 Y17.8645
G01 X13.7336 Y17.7926
G01 X13.7462 Y17.7201
G01 X13.7552 Y17.6470
G01 X13.7607 Y17.5736
G01 X13.7625 Y17.5000
G01 X13.7583 Y17.3879
G01 X13.7457 Y17.2764
G01 X13.7249 Y17.1662
G01 X13.6958 Y17.0579
G01 X13.6588 Y16.9520
G01 X13.6139 Y16.8492
G01 X13.5615 Y16.7500
G01 X13.5018 Y16.6550
G01 X13.4352 Y16.5648
G01 X13.3621 Y16.4798
G01 X13.2827 Y16.4005
G01 X13.1977 Y16.3273
G01 X13.1075 Y16.2607
G01 X13.0125 Y16.2010
G01 X12.9133 Y16.1486
G01 X12.8105 Y16.1037
G01 X12.7046 Y16.0667
G01 X12.5963 Y16.0376
G01 X12.4861 Y16.0168
G01 X12.3746 Y16.0042
G01 X12.2625 Y16.0000
G01 X12.1504 Y16.0042
G01 X12.0389 Y16.0168
G01 X11.9287 Y16.0376
G01 X11.8204 Y16.0667
G01 X11.7145 Y16.1037
G01 X11.6117 Y16.1486
G01 X11.5125 Y16.2010
G01 X11.4175 Y16.2607
G01 X11.3273 Y16.3273
G01 X11.2423 Y16.4005
G01 X11.1629 Y16.4798
G01 X11.0898 Y16.5648
G01 X11.0232 Y16.6550
G01 X10.9635 Y16.7500
G01 X10.9111 Y16.8492
G01 X10.8662 Y16.9520
G01 X10.8292 Y17.0579
G01 X10.8001 Y17.1662
G01 X10.7793 Y17.2764
G01 X10.7667 Y17.3879
G01 X10.7625 Y17.5000
G01 X10.7667 Y17.6121
G01 X10.7793 Y17.7236
G01 X10.8001 Y17.8338
G01 X10.8292 Y17.9421
G01 X10.8662 Y18.0480
G01 X10.9111 Y18.1508
G01 X10.9635 Y18.2500
G01 X11.0232 Y18.3450
G01 X11.0898 Y18.4352
G01 X11.1629 Y18.5202
G01 X11.2423 Y18.5996
G01 X11.3273 Y18.6727
G01 X11.4175 Y18.7393
G01 X11.5125 Y18.7990
G01 X11.6117 Y18.8514
G01 X11.7145 Y18.8963
G01 X11.8204 Y18.9333
G01 X11.9287 Y18.9624
G01 X12.0389 Y18.9832
G01 X12.1504 Y18.9958
G01 X12.2625 Y19.0000
G01 X12.3746 Y18.9958
G01 X12.4861 Y18.9832
G01 X12.5963 Y18.9624
G01 X12.7046 Y18.9333
G01 X12.8105 Y18.8963
G01 X12.9133 Y18.8514
G01 X13.0125 Y18.7990
G01 X13.1075 Y18.7393
G01 X13.1977 Y18.6727
G01 X13.2827 Y18.5996
G01 X13.3621 Y18.5202
G01 X13.4352 Y18.4352
G01 X13.5018 Y18.3450
G01 X13.5615 Y18.2500
G01 X13.6139 Y18.1508
G01 X13.6588 Y18.0480
G01 X13.6958 Y17.9421
G01 X13.7249 Y17.8338
G01 X13.7457 Y17.7236
G01 X13.7583 Y17.6121
G01 X13.7625 Y17.5000
M107
M106 S240
G01 X13.7594 Y17.4215 Z-5.4750 F400
M107
M106 S240
G01 X13.7502 Y17.3436 Z-5.4500
M107
M106 S240
G01 X13.7348 Y17.2666 Z-5.4250
M107
M106 S240
G01 X13.7135 Y17.1910 Z-5.4000
M107
M106 S240
G01 X13.6864 Y17.1173 Z-5.3750
M107
M106 S240
G01 X13.6535 Y17.0460 Z-5.3500
M107
M106 S240
G01 X13.6151 Y16.9775 Z-5.3250
M107
M106 S240
G01 X13.5715 Y16.9122 Z-5.3000
M107
M106 S240
G01 X13.5229 Y16.8506 Z-5.2750
M107
M106 S240
G01 X13.4696 Y16.7929 Z-5.2500
M107
M106 S240
G01 X13.4119 Y16.7396 Z-5.2250
M107
M106 S240
G01 X13.3503 Y16.6910 Z-5.2000
M107
M106 S240
G01 X13.2850 Y16.6474 Z-5.1750
M107
M106 S240
G01 X13.2165 Y16.6090 Z-5.1500
M107
M106 S240
G01 X13.1452 Y16.5761 Z-5.1250
M107
M106 S240
G01 X13.0715 Y16.5489 Z-5.1000
M107
M106 S240
G01 X12.9959 Y16.5276 Z-5.0750
M107
M106 S240
G01 X12.9189 Y16.5123 Z-5.0500
M107
M106 S240
G01 X12.8409 Y16.5031 Z-5.0250
M107
M106 S240
G01 X12.7625 Y16.5000 Z-5.0000
M107
G00 Z2.0000


;No. 2: Hole 29
G00 X46.0670 Y30.8519 Z2.0000
G00 Z0.5000
G01 Z0.0000 F400
G01 Z-2.0000
M106 S240
G01 X63.8737 F1000
G01 Y32.3519
G01 X62.3990
G01 X62.4127 Y33.8519
G01 X63.8737
G01 Y35.3519
G01 X62.4127
G01 Y36.8519
G01 X63.8737
M107
G00 Z2.0000
G00 X47.5418 Y30.8519
G00 Z0.5000
G01 Z-2.0000 F400
M106 S240
G01 Y32.3519 F1000
G01 X46.0670
G01 Y33.8519
G01 X47.5281
G01 Y35.3519
G01 X46.0670
G01 Y36.8519
G01 X47.5281
G01 X47.7481 Y36.8428
G01 Y32.5368
G01 X47.7515 Y32.4505
G01 X47.7616 Y32.3648
G01 X47.7785 Y32.2801
G01 X47.8019 Y32.1969
G01 X47.8318 Y32.1159
G01 X47.8680 Y32.0375
G01 X47.9102 Y31.9621
G01 X47.9582 Y31.8903
G01 X48.0116 Y31.8224
G01 X48.0703 Y31.7590
G01 X48.1337 Y31.7004
G01 X48.2015 Y31.6469
G01 X48.2733 Y31.5989
G01 X48.3487 Y31.5567
G01 X48.4271 Y31.5206
G01 X48.5082 Y31.4907
G01 X48.5913 Y31.4672
G01 X48.6760 Y31.4504
G01 X48.7618 Y31.4402
G01 X48.8481 Y31.4368
G01 X61.0927
G01 X61.1790 Y31.4402
G01 X61.2647 Y31.4504
G01 X61.3495 Y31.4672
G01 X61.4326 Y31.4907
G01 X61.5136 Y31.5206
G01 X61.5921 Y31.5567
G01 X61.6674 Y31.5989
G01 X61.7392 Y31.6469
G01 X61.8071 Y31.7004
G01 X61.8705 Y31.7590
G01 X61.9291 Y31.8224
G01 X61.9826 Y31.8903
G01 X62.0306 Y31.9621
G01 X62.0728 Y32.0375
G01 X62.1089 Y32.1159
G01 X62.1388 Y32.1969
G01 X62.1623 Y32.2801
G01 X62.1791 Y32.3648
G01 X62.1893 Y32.4505
G01 X62.1927 Y32.5368
G01 Y38.4983
G01 X64.0937
G01 Y29.2055
G01 X45.8470
G01 Y38.4983
G01 X47.7481
G01 Y36.8428
G01 X47.5281 Y36.8519
G01 Z-4.0000 F400
G01 X46.0670 F1000
G01 Y35.3519
G01 X47.5281
G01 Y33.8519
G01 X46.0670
G01 Y32.3519
G01 X47.5418
G01 X46.0670 Y30.8519
G01 X63.8737
G01 Y32.3519
G01 X62.3990
G01 X62.4127 Y33.8519
G01 X63.8737
G01 Y35.3519
G01 X62.4127
G01 Y36.8519
G01 X63.8737
G01 X64.0937 Y36.8404
G01 Y29.2055
G01 X45.8470
G01 Y38.4983
G01 X47.7481
G01 Y32.5368
G01 X47.7515 Y32.4505
G01 X47.7616 Y32.3648
G01 X47.7785 Y32.2801
G01 X47.8019 Y32.1969
G01 X47.8318 Y32.1159
G01 X47.8680 Y32.0375
G01 X47.9102 Y31.9621
G01 X47.9582 Y31.8903
G01 X48.0116 Y31.8224
G01 X48.0703 Y31.7590
G01 X48.1337 Y31.7004
G01 X48.2015 Y31.6469
G01 X48.2733 Y31.5989
G01 X48.3487 Y31.5567
G01 X48.4271 Y31.5206
G01 X48.5082 Y31.4907
G01 X48.5913 Y31.4672
G01 X48.6760 Y31.4504
G01 X48.7618 Y31.4402
G01 X48.8481 Y31.4368
G01 X61.0927
G01 X61.1790 Y31.4402
G01 X61.2647 Y31.4504
G01 X61.3495 Y31.4672
G01 X61.4326 Y31.4907
G01 X61.5136 Y31.5206
G01 X61.5921 Y31.5567
G01 X61.6674 Y31.5989
G01 X61.7392 Y31.6469
G01 X61.8071 Y31.7004
G01 X61.8705 Y31.7590
G01 X61.9291 Y31.8224
G01 X61.9826 Y31.8903
G01 X62.0306 Y31.9621
G01 X62.0728 Y32.0375
G01 X62.1089 Y32.1159
G01 X62.1388 Y32.1969
G01 X62.1623 Y32.2801
G01 X62.1791 Y32.3648
G01 X62.1893 Y32.4505
G01 X62.1927 Y32.5368
G01 Y38.4983
G01 X64.0937
G01 Y36.8404
G01 X63.8737 Y36.8519
G01 Z-5.5000 F400
G01 X62.4127 F1000
G01 Y35.3519
G01 X63.8737
G01 Y33.8519
G01 X62.4127
G01 X62.3990 Y32.3519
G01 X63.8737
G01 Y30.8519
G01 X46.0670
G01 Y32.3519
G01 X47.5418
G01 X47.5281 Y33.8519
G01 X46.0670
G01 Y35.3519
G01 X47.5281
G01 Y36.8519
G01 X46.0670
G01 X45.8470 Y36.8404
G01 Y38.4983
G01 X47.7481
G01 Y32.5368
G01 X47.7515 Y32.4505
G01 X47.7616 Y32.3648
G01 X47.7785 Y32.2801
G01 X47.8019 Y32.1969
G01 X47.8318 Y32.1159
G01 X47.8680 Y32.0375
G01 X47.9102 Y31.9621
G01 X47.9582 Y31.8903
G01 X48.0116 Y31.8224
G01 X48.0703 Y31.7590
G01 X48.1337 Y31.7004
G01 X48.2015 Y31.6469
G01 X48.2733 Y31.5989
G01 X48.3487 Y31.5567
G01 X48.4271 Y31.5206
G01 X48.5082 Y31.4907
G01 X48.5913 Y31.4672
G01 X48.6760 Y31.4504
G01 X48.7618 Y31.4402
G01 X48.8481 Y31.4368
G01 X61.0927
G01 X61.1790 Y31.4402
G01 X61.2647 Y31.4504
G01 X61.3495 Y31.4672
G01 X61.4326 Y31.4907
G01 X61.5136 Y31.5206
G01 X61.5921 Y31.5567
G01 X61.6674 Y31.5989
G01 X61.7392 Y31.6469
G01 X61.8071 Y31.7004
G01 X61.8705 Y31.7590
G01 X61.9291 Y31.8224
G01 X61.9826 Y31.8903
G01 X62.0306 Y31.9621
G01 X62.0728 Y32.0375
G01 X62.1089 Y32.1159
G01 X62.1388 Y32.1969
G01 X62.1623 Y32.2801
G01 X62.1791 Y32.3648
G01 X62.1893 Y32.4505
G01 X62.1927 Y32.5368
G01 Y38.4983
G01 X64.0937
G01 Y29.2055
G01 X45.8470
G01 Y36.8404
G01 X46.0670 Y36.8519
M107
G00 Z2.0000


;No. 3: Hole 29
G00 X45.8470 Y29.2055 Z2.0000
G00 Z0.5000
G01 Z-2.0000 F400
M106 S240
G01 X45.7470 Y29.1055 F1000
G01 Y38.5983
G01 X47.8481
G01 Y32.5368
G01 X47.8512 Y32.4584
G01 X47.8604 Y32.3804
G01 X47.8757 Y32.3034
G01 X47.8970 Y32.2278
G01 X47.9242 Y32.1542
G01 X47.9571 Y32.0829
G01 X47.9954 Y32.0143
G01 X48.0391 Y31.9491
G01 X48.0877 Y31.8874
G01 X48.1410 Y31.8297
G01 X48.1986 Y31.7764
G01 X48.2603 Y31.7278
G01 X48.3256 Y31.6842
G01 X48.3941 Y31.6458
G01 X48.4654 Y31.6130
G01 X48.5391 Y31.5858
G01 X48.6146 Y31.5645
G01 X48.6916 Y31.5492
G01 X48.7696 Y31.5399
G01 X48.8481 Y31.5368
G01 X61.0927
G01 X61.1711 Y31.5399
G01 X61.2491 Y31.5492
G01 X61.3261 Y31.5645
G01 X61.4017 Y31.5858
G01 X61.4754 Y31.6130
G01 X61.5467 Y31.6458
G01 X61.6152 Y31.6842
G01 X61.6805 Y31.7278
G01 X61.7421 Y31.7764
G01 X61.7998 Y31.8297
G01 X61.8531 Y31.8874
G01 X61.9017 Y31.9491
G01 X61.9453 Y32.0143
G01 X61.9837 Y32.0829
G01 X62.0165 Y32.1542
G01 X62.0437 Y32.2278
G01 X62.0650 Y32.3034
G01 X62.0804 Y32.3804
G01 X62.0896 Y32.4584
G01 X62.0927 Y32.5368
G01 Y38.5983
G01 X64.1937
G01 Y29.1055
G01 X45.7470
G01 X45.8470 Y29.2055
M107
G00 Z0.0000
G01 Z-4.0000 F400
M106 S240
G01 X45.7470 Y29.1055 F1000
G01 Y38.5983
G01 X47.8481
G01 Y32.5368
G01 X47.8512 Y32.4584
G01 X47.8604 Y32.3804
G01 X47.8757 Y32.3034
G01 X47.8970 Y32.2278
G01 X47.9242 Y32.1542
G01 X47.9571 Y32.0829
G01 X47.9954 Y32.0143
G01 X48.0391 Y31.9491
G01 X48.0877 Y31.8874
G01 X48.1410 Y31.8297
G01 X48.1986 Y31.7764
G01 X48.2603 Y31.7278
G01 X48.3256 Y31.6842
G01 X48.3941 Y31.6458
G01 X48.4654 Y31.6130
G01 X48.5391 Y31.5858
G01 X48.6146 Y31.5645
G01 X48.6916 Y31.5492
G01 X48.7696 Y31.5399
G01 X48.8481 Y31.5368
G01 X61.0927
G01 X61.1711 Y31.5399
G01 X61.2491 Y31.5492
G01 X61.3261 Y31.5645
G01 X61.4017 Y31.5858
G01 X61.4754 Y31.6130
G01 X61.5467 Y31.6458
G01 X61.6152 Y31.6842
G01 X61.6805 Y31.7278
G01 X61.7421 Y31.7764
G01 X61.7998 Y31.8297
G01 X61.8531 Y31.8874
G01 X61.9017 Y31.9491
G01 X61.9453 Y32.0143
G01 X61.9837 Y32.0829
G01 X62.0165 Y32.1542
G01 X62.0437 Y32.2278
G01 X62.0650 Y32.3034
G01 X62.0804 Y32.3804
G01 X62.0896 Y32.4584
G01 X62.0927 Y32.5368
G01 Y38.5983
G01 X64.1937
G01 Y29.1055
G01 X45.7470
G01 X45.8470 Y29.2055
M107
G00 Z0.0000
G01 Z-5.5000 F400
M106 S240
G01 X45.7470 Y29.1055 F1000
G01 Y38.5983
G01 X47.8481
G01 Y32.5368
G01 X47.8512 Y32.4584
G01 X47.8604 Y32.3804
G01 X47.8757 Y32.3034
G01 X47.8970 Y32.2278
G01 X47.9242 Y32.1542
G01 X47.9571 Y32.0829
G01 X47.9954 Y32.0143
G01 X48.0391 Y31.9491
G01 X48.0877 Y31.8874
G01 X48.1410 Y31.8297
G01 X48.1986 Y31.7764
G01 X48.2603 Y31.7278
G01 X48.3256 Y31.6842
G01 X48.3941 Y31.6458
G01 X48.4654 Y31.6130
G01 X48.5391 Y31.5858
G01 X48.6146 Y31.5645
G01 X48.6916 Y31.5492
G01 X48.7696 Y31.5399
G01 X48.8481 Y31.5368
G01 X61.0927
G01 X61.1711 Y31.5399
G01 X61.2491 Y31.5492
G01 X61.3261 Y31.5645
G01 X61.4017 Y31.5858
G01 X61.4754 Y31.6130
G01 X61.5467 Y31.6458
G01 X61.6152 Y31.6842
G01 X61.6805 Y31.7278
G01 X61.7421 Y31.7764
G01 X61.7998 Y31.8297
G01 X61.8531 Y31.8874
G01 X61.9017 Y31.9491
G01 X61.9453 Y32.0143
G01 X61.9837 Y32.0829
G01 X62.0165 Y32.1542
G01 X62.0437 Y32.2278
G01 X62.0650 Y32.3034
G01 X62.0804 Y32.3804
G01 X62.0896 Y32.4584
G01 X62.0927 Y32.5368
G01 Y38.5983
G01 X64.1937
G01 Y29.1055
G01 X45.7470
G01 X45.8470 Y29.2055
M107
G00 Z0.0000
G00 Z2.0000


;No. 4: Hole 30
G00 X46.6458 Y44.4449 Z2.0000
G00 Z0.5000
G01 Z0.0000 F400
G01 Z-2.0000
M106 S240
G01 X63.2797 F1000
G01 X63.4674 Y44.3274
G01 X63.3790 Y44.2152
G01 X63.2843 Y44.1083
G01 X63.1836 Y44.0071
G01 X63.0772 Y43.9118
G01 X62.9654 Y43.8229
G01 X62.8487 Y43.7406
G01 X62.7274 Y43.6652
G01 X62.6020 Y43.5969
G01 X62.4728 Y43.5360
G01 X62.3403 Y43.4827
G01 X62.2050 Y43.4372
G01 X62.0672 Y43.3995
G01 X61.9275 Y43.3699
G01 X61.7863 Y43.3484
G01 X61.6441 Y43.3351
G01 X61.5014 Y43.3301
G01 X48.4429
G01 X48.3151 Y43.3315
G01 X48.1875 Y43.3398
G01 X48.0605 Y43.3549
G01 X47.9345 Y43.3767
G01 X47.8099 Y43.4053
G01 X47.6869 Y43.4405
G01 X47.5661 Y43.4822
G01 X47.4476 Y43.5303
G01 X47.3319 Y43.5848
G01 X47.2192 Y43.6453
G01 X47.1100 Y43.7117
G01 X47.0045 Y43.7840
G01 X46.9030 Y43.8617
G01 X46.8058 Y43.9448
G01 X46.7132 Y44.0330
G01 X46.6254 Y44.1260
G01 X46.6366 Y44.1129
G01 X46.5462 Y44.2151
G01 X46.4607 Y44.3216
G01 X46.3804 Y44.4320
G01 X46.3055 Y44.5460
G01 X46.2361 Y44.6636
G01 X46.1724 Y44.7843
G01 X46.1145 Y44.9080
G01 X46.0626 Y45.0342
G01 X46.0169 Y45.1628
G01 X45.9773 Y45.2935
G01 X45.9440 Y45.4258
G01 X45.9170 Y45.5597
G01 X64.0239
G01 X64.0023 Y45.4479
G01 X63.9760 Y45.3371
G01 X63.9450 Y45.2275
G01 X63.9093 Y45.1193
G01 X63.8692 Y45.0127
G01 X63.8245 Y44.9080
G01 X63.7754 Y44.8052
G01 X63.7220 Y44.7046
G01 X63.6644 Y44.6063
G01 X63.6027 Y44.5106
G01 X63.5370 Y44.4176
G01 X63.4674 Y44.3274
G01 X63.2797 Y44.4449
G01 Z-4.0000 F400
G01 X46.6458 F1000
G01 X46.4678 Y44.3155
G01 X46.3993 Y44.4073
G01 X46.3346 Y44.5018
G01 X46.2738 Y44.5988
G01 X46.2170 Y44.6983
G01 X46.1644 Y44.8000
G01 X46.1159 Y44.9037
G01 X46.0717 Y45.0094
G01 X46.0318 Y45.1167
G01 X45.9964 Y45.2256
G01 X45.9654 Y45.3358
G01 X45.9389 Y45.4473
G01 X45.9170 Y45.5597
G01 X64.0239
G01 X63.9975 Y45.4279
G01 X63.9647 Y45.2976
G01 X63.9255 Y45.1691
G01 X63.8800 Y45.0426
G01 X63.8283 Y44.9186
G01 X63.7706 Y44.7972
G01 X63.7070 Y44.6788
G01 X63.6376 Y44.5637
G01 X63.5626 Y44.4522
G01 X63.4822 Y44.3445
G01 X63.3966 Y44.2409
G01 X63.3060 Y44.1416
G01 X63.2107 Y44.0469
G01 X63.1108 Y43.9570
G01 X63.0065 Y43.8722
G01 X62.8982 Y43.7926
G01 X62.7862 Y43.7184
G01 X62.6706 Y43.6499
G01 X62.5518 Y43.5871
G01 X62.4300 Y43.5302
G01 X62.3056 Y43.4794
G01 X62.1788 Y43.4348
G01 X62.0500 Y43.3966
G01 X61.9194 Y43.3647
G01 X61.8155 Y43.3493
G01 X61.7111 Y43.3384
G01 X61.6063 Y43.3320
G01 X61.5014 Y43.3301
G01 X48.4429
G01 X48.3151 Y43.3315
G01 X48.1875 Y43.3398
G01 X48.0605 Y43.3549
G01 X47.9345 Y43.3767
G01 X47.8099 Y43.4053
G01 X47.6869 Y43.4405
G01 X47.5661 Y43.4822
G01 X47.4476 Y43.5303
G01 X47.3319 Y43.5848
G01 X47.2192 Y43.6453
G01 X47.1100 Y43.7117
G01 X47.0045 Y43.7840
G01 X46.9030 Y43.8617
G01 X46.8058 Y43.9448
G01 X46.7132 Y44.0330
G01 X46.6254 Y44.1260
G01 X46.6366 Y44.1129
G01 X46.5928 Y44.1622
G01 X46.5501 Y44.2125
G01 X46.5084 Y44.2636
G01 X46.4678 Y44.3155
G01 X46.6458 Y44.4449
G01 Z-5.5000 F400
G01 X63.2797 F1000
G01 X63.4674 Y44.3274
G01 X63.3790 Y44.2152
G01 X63.2843 Y44.1083
G01 X63.1836 Y44.0071
G01 X63.0772 Y43.9118
G01 X62.9654 Y43.8229
G01 X62.8487 Y43.7406
G01 X62.7274 Y43.6652
G01 X62.6020 Y43.5969
G01 X62.4728 Y43.5360
G01 X62.3403 Y43.4827
G01 X62.2050 Y43.4372
G01 X62.0672 Y43.3995
G01 X61.9275 Y43.3699
G01 X61.7863 Y43.3484
G01 X61.6441 Y43.3351
G01 X61.5014 Y43.3301
G01 X48.4429
G01 X48.3151 Y43.3315
G01 X48.1875 Y43.3398
G01 X48.0605 Y43.3549
G01 X47.9345 Y43.3767
G01 X47.8099 Y43.4053
G01 X47.6869 Y43.4405
G01 X47.5661 Y43.4822
G01 X47.4476 Y43.5303
G01 X47.3319 Y43.5848
G01 X47.2192 Y43.6453
G01 X47.1100 Y43.7117
G01 X47.0045 Y43.7840
G01 X46.9030 Y43.8617
G01 X46.8058 Y43.9448
G01 X46.7132 Y44.0330
G01 X46.6254 Y44.1260
G01 X46.6366 Y44.1129
G01 X46.5462 Y44.2151
G01 X46.4607 Y44.3216
G01 X46.3804 Y44.4320
G01 X46.3055 Y44.5460
G01 X46.2361 Y44.6636
G01 X46.1724 Y44.7843
G01 X46.1145 Y44.9080
G01 X46.0626 Y45.0342
G01 X46.0169 Y45.1628
G01 X45.9773 Y45.2935
G01 X45.9440 Y45.4258
G01 X45.9170 Y45.5597
G01 X64.0239
G01 X64.0023 Y45.4479
G01 X63.9760 Y45.3371
G01 X63.9450 Y45.2275
G01 X63.9093 Y45.1193
G01 X63.8692 Y45.0127
G01 X63.8245 Y44.9080
G01 X63.7754 Y44.8052
G01 X63.7220 Y44.7046
G01 X63.6644 Y44.6063
G01 X63.6027 Y44.5106
G01 X63.5370 Y44.4176
G01 X63.4674 Y44.3274
G01 X63.2797 Y44.4449
M107
G00 Z2.0000


;No. 5: Hole 30
G00 X46.6254 Y44.1260 Z2.0000
G00 Z0.5000
G01 Z-2.0000 F400
M106 S240
G01 X46.5513 Y44.0588 F1000
G01 X46.5609 Y44.0476
G01 X46.4614 Y44.1611
G01 X46.3677 Y44.2794
G01 X46.2800 Y44.4023
G01 X46.1988 Y44.5295
G01 X46.1240 Y44.6606
G01 X46.0559 Y44.7953
G01 X45.9948 Y44.9333
G01 X45.9406 Y45.0742
G01 X45.8937 Y45.2177
G01 X45.8540 Y45.3633
G01 X45.8218 Y45.5108
G01 X45.7970 Y45.6597
G01 X64.1511 Y45.6567
G01 X64.1273 Y45.5142
G01 X64.0964 Y45.3731
G01 X64.0583 Y45.2337
G01 X64.0132 Y45.0964
G01 X63.9613 Y44.9616
G01 X63.9026 Y44.8296
G01 X63.8373 Y44.7007
G01 X63.7656 Y44.5753
G01 X63.6876 Y44.4536
G01 X63.6035 Y44.3361
G01 X63.5137 Y44.2230
G01 X63.4182 Y44.1145
G01 X63.3173 Y44.0110
G01 X63.2114 Y43.9128
G01 X63.1006 Y43.8200
G01 X62.9853 Y43.7330
G01 X62.8657 Y43.6519
G01 X62.7422 Y43.5770
G01 X62.6150 Y43.5084
G01 X62.4845 Y43.4463
G01 X62.3511 Y43.3909
G01 X62.2150 Y43.3423
G01 X62.0767 Y43.3007
G01 X61.9364 Y43.2661
G01 X61.8285 Y43.2502
G01 X61.7200 Y43.2388
G01 X61.6111 Y43.2321
G01 X61.5021 Y43.2301
G01 X48.4420
G01 X48.3089 Y43.2317
G01 X48.1762 Y43.2404
G01 X48.0441 Y43.2562
G01 X47.9131 Y43.2790
G01 X47.7834 Y43.3088
G01 X47.6556 Y43.3455
G01 X47.5298 Y43.3890
G01 X47.4066 Y43.4391
G01 X47.2862 Y43.4958
G01 X47.1691 Y43.5587
G01 X47.0555 Y43.6279
G01 X46.9457 Y43.7030
G01 X46.8401 Y43.7839
G01 X46.7390 Y43.8704
G01 X46.6426 Y43.9621
G01 X46.5513 Y44.0588
G01 X46.6254 Y44.1260
M107
G00 Z0.0000
G01 Z-4.0000 F400
M106 S240
G01 X46.5513 Y44.0588 F1000
G01 X46.5609 Y44.0476
G01 X46.4614 Y44.1611
G01 X46.3677 Y44.2794
G01 X46.2800 Y44.4023
G01 X46.1988 Y44.5295
G01 X46.1240 Y44.6606
G01 X46.0559 Y44.7953
G01 X45.9948 Y44.9333
G01 X45.9406 Y45.0742
G01 X45.8937 Y45.2177
G01 X45.8540 Y45.3633
G01 X45.8218 Y45.5108
G01 X45.7970 Y45.6597
G01 X64.1511 Y45.6567
G01 X64.1273 Y45.5142
G01 X64.0964 Y45.3731
G01 X64.0583 Y45.2337
G01 X64.0132 Y45.0964
G01 X63.9613 Y44.9616
G01 X63.9026 Y44.8296
G01 X63.8373 Y44.7007
G01 X63.7656 Y44.5753
G01 X63.6876 Y44.4536
G01 X63.6035 Y44.3361
G01 X63.5137 Y44.2230
G01 X63.4182 Y44.1145
G01 X63.3173 Y44.0110
G01 X63.2114 Y43.9128
G01 X63.1006 Y43.8200
G01 X62.9853 Y43.7330
G01 X62.8657 Y43.6519
G01 X62.7422 Y43.5770
G01 X62.6150 Y43.5084
G01 X62.4845 Y43.4463
G01 X62.3511 Y43.3909
G01 X62.2150 Y43.3423
G01 X62.0767 Y43.3007
G01 X61.9364 Y43.2661
G01 X61.8285 Y43.2502
G01 X61.7200 Y43.2388
G01 X61.6111 Y43.2321
G01 X61.5021 Y43.2301
G01 X48.4420
G01 X48.3089 Y43.2317
G01 X48.1762 Y43.2404
G01 X48.0441 Y43.2562
G01 X47.9131 Y43.2790
G01 X47.7834 Y43.3088
G01 X47.6556 Y43.3455
G01 X47.5298 Y43.3890
G01 X47.4066 Y43.4391
G01 X47.2862 Y43.4958
G01 X47.1691 Y43.5587
G01 X47.0555 Y43.6279
G01 X46.9457 Y43.7030
G01 X46.8401 Y43.7839
G01 X46.7390 Y43.8704
G01 X46.6426 Y43.9621
G01 X46.5513 Y44.0588
G01 X46.6254 Y44.1260
M107
G00 Z0.0000
G01 Z-5.5000 F400
M106 S240
G01 X46.5513 Y44.0588 F1000
G01 X46.5609 Y44.0476
G01 X46.4614 Y44.1611
G01 X46.3677 Y44.2794
G01 X46.2800 Y44.4023
G01 X46.1988 Y44.5295
G01 X46.1240 Y44.6606
G01 X46.0559 Y44.7953
G01 X45.9948 Y44.9333
G01 X45.9406 Y45.0742
G01 X45.8937 Y45.2177
G01 X45.8540 Y45.3633
G01 X45.8218 Y45.5108
G01 X45.7970 Y45.6597
G01 X64.1511 Y45.6567
G01 X64.1273 Y45.5142
G01 X64.0964 Y45.3731
G01 X64.0583 Y45.2337
G01 X64.0132 Y45.0964
G01 X63.9613 Y44.9616
G01 X63.9026 Y44.8296
G01 X63.8373 Y44.7007
G01 X63.7656 Y44.5753
G01 X63.6876 Y44.4536
G01 X63.6035 Y44.3361
G01 X63.5137 Y44.2230
G01 X63.4182 Y44.1145
G01 X63.3173 Y44.0110
G01 X63.2114 Y43.9128
G01 X63.1006 Y43.8200
G01 X62.9853 Y43.7330
G01 X62.8657 Y43.6519
G01 X62.7422 Y43.5770
G01 X62.6150 Y43.5084
G01 X62.4845 Y43.4463
G01 X62.3511 Y43.3909
G01 X62.2150 Y43.3423
G01 X62.0767 Y43.3007
G01 X61.9364 Y43.2661
G01 X61.8285 Y43.2502
G01 X61.7200 Y43.2388
G01 X61.6111 Y43.2321
G01 X61.5021 Y43.2301
G01 X48.4420
G01 X48.3089 Y43.2317
G01 X48.1762 Y43.2404
G01 X48.0441 Y43.2562
G01 X47.9131 Y43.2790
G01 X47.7834 Y43.3088
G01 X47.6556 Y43.3455
G01 X47.5298 Y43.3890
G01 X47.4066 Y43.4391
G01 X47.2862 Y43.4958
G01 X47.1691 Y43.5587
G01 X47.0555 Y43.6279
G01 X46.9457 Y43.7030
G01 X46.8401 Y43.7839
G01 X46.7390 Y43.8704
G01 X46.6426 Y43.9621
G01 X46.5513 Y44.0588
G01 X46.6254 Y44.1260
M107
G00 Z0.0000
G00 Z2.0000


;No. 6: Hole 28
G00 X71.1820 Y44.1326 Z2.0000
G00 Z0.5000
G01 Z0.0000 F400
G01 Z-2.0000
M106 S240
G01 X73.6651 F1000
G01 X75.0538 Y42.6326
G01 X72.2128
G01 X72.2207 Y41.1326
G01 X76.4426
G01 X77.8313 Y39.6326
G01 X72.2207
G01 Y38.1326
G01 X73.6843
G01 X73.6817 Y36.6326
G01 X72.2207
G01 Y35.1326
G01 X73.6817
G01 Y33.6326
G01 X72.2207
G01 Y32.1326
G01 X73.6817
G01 Y30.6326
G01 X72.2207
M107
G00 Z2.0000
G00 X76.7369 Y39.6326
G00 Z0.5000
G01 Z-2.0000 F400
M106 S240
G01 Y38.1326 F1000
G01 X79.2200
G01 X78.1256 Y36.6326
G01 X80.6088
G01 X79.5144 Y35.1326
G01 X81.9975
G01 X80.9031 Y33.6326
G01 X83.7756
G01 X82.2918 Y32.1326
G01 X86.7586
G01 Y30.6326
G01 X83.6806
G01 X84.1791 Y33.6326
G01 X86.7586
G01 Y35.1326
G01 X85.2975
G01 Y36.6326
G01 X86.7586
G01 Y38.1326
G01 X85.2975
G01 Y39.6326
G01 X86.7586
G01 Y41.1326
G01 X85.2975
G01 Y42.6326
G01 X86.7586
G01 Y44.1326
G01 X85.2975
G01 X85.0775 Y44.1183
G01 Y45.5597
G01 X86.9786
G01 Y29.2055
G01 X84.7020
G01 X75.8089 Y38.8111
G01 X75.7421 Y38.8773
G01 X75.6699 Y38.9376
G01 X75.5928 Y38.9915
G01 X75.5114 Y39.0386
G01 X75.4263 Y39.0785
G01 X75.3381 Y39.1111
G01 X75.2474 Y39.1360
G01 X75.1549 Y39.1531
G01 X75.0613 Y39.1622
G01 X74.9673 Y39.1632
G01 X74.8735 Y39.1563
G01 X74.7806 Y39.1413
G01 X74.6894 Y39.1185
G01 X74.6004 Y39.0880
G01 X74.5144 Y39.0499
G01 X74.4319 Y39.0047
G01 X74.3537 Y38.9526
G01 X74.2801 Y38.8940
G01 X74.2118 Y38.8293
G01 X74.1493 Y38.7590
G01 X74.0930 Y38.6837
G01 X74.0434 Y38.6038
G01 X74.0008 Y38.5200
G01 X73.9655 Y38.4328
G01 X73.9377 Y38.3429
G01 X73.9178 Y38.2510
G01 X73.9058 Y38.1577
G01 X73.9017 Y38.0638
G01 Y29.2055
G01 X72.0007
G01 Y42.4934
G01 X71.9986 Y42.5618
G01 X71.9922 Y42.6300
G01 X71.9816 Y42.6976
G01 X71.9668 Y42.7644
G01 X71.9479 Y42.8302
G01 X71.9249 Y42.8947
G01 X71.8979 Y42.9576
G01 X71.8671 Y43.0188
G01 X71.8326 Y43.0779
G01 X71.7944 Y43.1347
G01 X71.7528 Y43.1890
G01 X71.7079 Y43.2407
G01 X69.5609 Y45.5597
G01 X72.6437
G01 X83.1704 Y34.1896
G01 X83.2371 Y34.1234
G01 X83.3093 Y34.0631
G01 X83.3864 Y34.0092
G01 X83.4678 Y33.9621
G01 X83.5530 Y33.9221
G01 X83.6412 Y33.8896
G01 X83.7319 Y33.8647
G01 X83.8244 Y33.8476
G01 X83.9180 Y33.8385
G01 X84.0120 Y33.8374
G01 X84.1058 Y33.8444
G01 X84.1987 Y33.8593
G01 X84.2899 Y33.8822
G01 X84.3788 Y33.9127
G01 X84.4649 Y33.9507
G01 X84.5473 Y33.9960
G01 X84.6256 Y34.0481
G01 X84.6992 Y34.1067
G01 X84.7674 Y34.1713
G01 X84.8300 Y34.2416
G01 X84.8862 Y34.3170
G01 X84.9359 Y34.3969
G01 X84.9785 Y34.4807
G01 X85.0138 Y34.5679
G01 X85.0415 Y34.6577
G01 X85.0615 Y34.7496
G01 X85.0735 Y34.8429
G01 X85.0775 Y34.9369
G01 Y44.1183
G01 X85.2975 Y44.1326
G01 Z-4.0000 F400
G01 X86.7586 F1000
G01 Y42.6326
G01 X85.2975
G01 Y41.1326
G01 X86.7586
G01 Y39.6326
G01 X85.2975
G01 Y38.1326
G01 X86.7586
G01 Y36.6326
G01 X85.2975
G01 Y35.1326
G01 X86.7586
G01 Y33.6326
G01 X84.1791
G01 X82.2918 Y32.1326
G01 X86.7586
G01 Y30.6326
G01 X83.6806
G01 X80.9031 Y33.6326
G01 X83.7756
G01 X81.9975
G01 Y35.1326
G01 X79.5144
G01 X80.6088 Y36.6326
G01 X78.1256
G01 X79.2200 Y38.1326
G01 X76.7369
G01 X77.8313 Y39.6326
G01 X72.2207
G01 Y38.1326
G01 X73.6843
G01 X73.6817 Y36.6326
G01 X72.2207
G01 Y35.1326
G01 X73.6817
G01 Y33.6326
G01 X72.2207
G01 Y32.1326
G01 X73.6817
G01 Y30.6326
G01 X72.2207
M107
G00 Z2.0000
G00 Y39.6326
G00 Z-1.5000
G01 Z-4.0000 F400
M106 S240
G01 Y41.1326 F1000
G01 X76.4426
G01 X75.0538 Y42.6326
G01 X72.2128
G01 Y44.1326
G01 X71.1820
G01 X73.6651
G01 X73.8348 Y44.2732
G01 X83.1704 Y34.1896
G01 X83.2371 Y34.1234
G01 X83.3093 Y34.0631
G01 X83.3864 Y34.0092
G01 X83.4678 Y33.9621
G01 X83.5530 Y33.9221
G01 X83.6412 Y33.8896
G01 X83.7319 Y33.8647
G01 X83.8244 Y33.8476
G01 X83.9180 Y33.8385
G01 X84.0120 Y33.8374
G01 X84.1058 Y33.8444
G01 X84.1987 Y33.8593
G01 X84.2899 Y33.8822
G01 X84.3788 Y33.9127
G01 X84.4649 Y33.9507
G01 X84.5473 Y33.9960
G01 X84.6256 Y34.0481
G01 X84.6992 Y34.1067
G01 X84.7674 Y34.1713
G01 X84.8300 Y34.2416
G01 X84.8862 Y34.3170
G01 X84.9359 Y34.3969
G01 X84.9785 Y34.4807
G01 X85.0138 Y34.5679
G01 X85.0415 Y34.6577
G01 X85.0615 Y34.7496
G01 X85.0735 Y34.8429
G01 X85.0775 Y34.9369
G01 Y45.5597
G01 X86.9786
G01 Y29.2055
G01 X84.7020
G01 X75.8089 Y38.8111
G01 X75.7421 Y38.8773
G01 X75.6699 Y38.9376
G01 X75.5928 Y38.9915
G01 X75.5114 Y39.0386
G01 X75.4263 Y39.0785
G01 X75.3381 Y39.1111
G01 X75.2474 Y39.1360
G01 X75.1549 Y39.1531
G01 X75.0613 Y39.1622
G01 X74.9673 Y39.1632
G01 X74.8735 Y39.1563
G01 X74.7806 Y39.1413
G01 X74.6894 Y39.1185
G01 X74.6004 Y39.0880
G01 X74.5144 Y39.0499
G01 X74.4319 Y39.0047
G01 X74.3537 Y38.9526
G01 X74.2801 Y38.8940
G01 X74.2118 Y38.8293
G01 X74.1493 Y38.7590
G01 X74.0930 Y38.6837
G01 X74.0434 Y38.6038
G01 X74.0008 Y38.5200
G01 X73.9655 Y38.4328
G01 X73.9377 Y38.3429
G01 X73.9178 Y38.2510
G01 X73.9058 Y38.1577
G01 X73.9017 Y38.0638
G01 Y29.2055
G01 X72.0007
G01 Y42.4934
G01 X71.9986 Y42.5618
G01 X71.9922 Y42.6300
G01 X71.9816 Y42.6976
G01 X71.9668 Y42.7644
G01 X71.9479 Y42.8302
G01 X71.9249 Y42.8947
G01 X71.8979 Y42.9576
G01 X71.8671 Y43.0188
G01 X71.8326 Y43.0779
G01 X71.7944 Y43.1347
G01 X71.7528 Y43.1890
G01 X71.7079 Y43.2407
G01 X69.5609 Y45.5597
G01 X72.6437
G01 X73.8348 Y44.2732
G01 X73.6651 Y44.1326
G01 Z-5.5000 F400
G01 X71.1820 F1000
G01 X72.2128
G01 Y42.6326
G01 X75.0538
G01 X76.4426 Y41.1326
G01 X72.2207
G01 Y39.6326
G01 X77.8313
G01 X76.7369 Y38.1326
G01 X79.2200
G01 X78.1256 Y36.6326
G01 X80.6088
G01 X79.5144 Y35.1326
G01 X81.9975
G01 X80.9031 Y33.6326
G01 X83.7756
G01 X82.2918 Y32.1326
G01 X86.7586
G01 Y30.6326
G01 X83.6806
G01 X84.1791 Y33.6326
G01 X86.7586
G01 Y35.1326
G01 X85.2975
G01 Y36.6326
G01 X86.7586
G01 Y38.1326
G01 X85.2975
G01 Y39.6326
G01 X86.7586
G01 Y41.1326
G01 X85.2975
G01 Y42.6326
G01 X86.7586
G01 Y44.1326
G01 X85.2975
M107
G00 Z2.0000
G00 X73.6843 Y39.6326
G00 Z-3.5000
G01 Z-5.5000 F400
M106 S240
G01 Y38.1326 F1000
G01 X72.2207
G01 Y36.6326
G01 X73.6817
G01 Y35.1326
G01 X72.2207
G01 Y33.6326
G01 X73.6817
G01 Y32.1326
G01 X72.2207
G01 Y30.6326
G01 X73.6817
G01 X73.9017 Y30.6461
G01 Y29.2055
G01 X72.0007
G01 Y42.4934
G01 X71.9986 Y42.5618
G01 X71.9922 Y42.6300
G01 X71.9816 Y42.6976
G01 X71.9668 Y42.7644
G01 X71.9479 Y42.8302
G01 X71.9249 Y42.8947
G01 X71.8979 Y42.9576
G01 X71.8671 Y43.0188
G01 X71.8326 Y43.0779
G01 X71.7944 Y43.1347
G01 X71.7528 Y43.1890
G01 X71.7079 Y43.2407
G01 X69.5609 Y45.5597
G01 X72.6437
G01 X83.1704 Y34.1896
G01 X83.2371 Y34.1234
G01 X83.3093 Y34.0631
G01 X83.3864 Y34.0092
G01 X83.4678 Y33.9621
G01 X83.5530 Y33.9221
G01 X83.6412 Y33.8896
G01 X83.7319 Y33.8647
G01 X83.8244 Y33.8476
G01 X83.9180 Y33.8385
G01 X84.0120 Y33.8374
G01 X84.1058 Y33.8444
G01 X84.1987 Y33.8593
G01 X84.2899 Y33.8822
G01 X84.3788 Y33.9127
G01 X84.4649 Y33.9507
G01 X84.5473 Y33.9960
G01 X84.6256 Y34.0481
G01 X84.6992 Y34.1067
G01 X84.7674 Y34.1713
G01 X84.8300 Y34.2416
G01 X84.8862 Y34.3170
G01 X84.9359 Y34.3969
G01 X84.9785 Y34.4807
G01 X85.0138 Y34.5679
G01 X85.0415 Y34.6577
G01 X85.0615 Y34.7496
G01 X85.0735 Y34.8429
G01 X85.0775 Y34.9369
G01 Y45.5597
G01 X86.9786
G01 Y29.2055
G01 X84.7020
G01 X75.8089 Y38.8111
G01 X75.7421 Y38.8773
G01 X75.6699 Y38.9376
G01 X75.5928 Y38.9915
G01 X75.5114 Y39.0386
G01 X75.4263 Y39.0785
G01 X75.3381 Y39.1111
G01 X75.2474 Y39.1360
G01 X75.1549 Y39.1531
G01 X75.0613 Y39.1622
G01 X74.9673 Y39.1632
G01 X74.8735 Y39.1563
G01 X74.7806 Y39.1413
G01 X74.6894 Y39.1185
G01 X74.6004 Y39.0880
G01 X74.5144 Y39.0499
G01 X74.4319 Y39.0047
G01 X74.3537 Y38.9526
G01 X74.2801 Y38.8940
G01 X74.2118 Y38.8293
G01 X74.1493 Y38.7590
G01 X74.0930 Y38.6837
G01 X74.0434 Y38.6038
G01 X74.0008 Y38.5200
G01 X73.9655 Y38.4328
G01 X73.9377 Y38.3429
G01 X73.9178 Y38.2510
G01 X73.9058 Y38.1577
G01 X73.9017 Y38.0638
G01 Y30.6461
G01 X73.6817 Y30.6326
M107
G00 Z2.0000


;No. 7: Hole 28
G00 X72.0007 Y29.2055 Z2.0000
G00 Z0.5000
G01 Z-2.0000 F400
M106 S240
G01 X71.9007 Y29.1055 F1000
G01 Y42.4934
G01 X71.8996 Y42.5401
G01 X71.8963 Y42.5866
G01 X71.8909 Y42.6330
G01 X71.8833 Y42.6790
G01 X71.8736 Y42.7247
G01 X71.8617 Y42.7698
G01 X71.8478 Y42.8144
G01 X71.8318 Y42.8582
G01 X71.8137 Y42.9013
G01 X71.7937 Y42.9434
G01 X71.7717 Y42.9846
G01 X71.7479 Y43.0247
G01 X71.7221 Y43.0637
G01 X71.6946 Y43.1014
G01 X71.6654 Y43.1378
G01 X71.6345 Y43.1728
G01 X69.3321 Y45.6597
G01 X72.6874
G01 X83.2437 Y34.2575
G01 X83.3045 Y34.1973
G01 X83.3701 Y34.1425
G01 X83.4402 Y34.0935
G01 X83.5142 Y34.0507
G01 X83.5916 Y34.0144
G01 X83.6718 Y33.9848
G01 X83.7542 Y33.9621
G01 X83.8383 Y33.9466
G01 X83.9234 Y33.9383
G01 X84.0089 Y33.9374
G01 X84.0941 Y33.9437
G01 X84.1786 Y33.9573
G01 X84.2615 Y33.9780
G01 X84.3424 Y34.0058
G01 X84.4206 Y34.0404
G01 X84.4955 Y34.0815
G01 X84.5667 Y34.1289
G01 X84.6336 Y34.1821
G01 X84.6956 Y34.2409
G01 X84.7525 Y34.3048
G01 X84.8036 Y34.3733
G01 X84.8487 Y34.4460
G01 X84.8875 Y34.5222
G01 X84.9196 Y34.6014
G01 X84.9448 Y34.6831
G01 X84.9629 Y34.7667
G01 X84.9739 Y34.8515
G01 X84.9775 Y34.9369
G01 Y45.6597
G01 X87.0786
G01 Y29.1055
G01 X84.6583
G01 X75.7355 Y38.7431
G01 X75.6748 Y38.8033
G01 X75.6092 Y38.8581
G01 X75.5391 Y38.9071
G01 X75.4651 Y38.9499
G01 X75.3877 Y38.9863
G01 X75.3075 Y39.0159
G01 X75.2251 Y39.0385
G01 X75.1410 Y39.0540
G01 X75.0559 Y39.0623
G01 X74.9704 Y39.0633
G01 X74.8851 Y39.0570
G01 X74.8007 Y39.0434
G01 X74.7178 Y39.0226
G01 X74.6369 Y38.9949
G01 X74.5587 Y38.9603
G01 X74.4837 Y38.9192
G01 X74.4126 Y38.8718
G01 X74.3457 Y38.8185
G01 X74.2836 Y38.7597
G01 X74.2268 Y38.6958
G01 X74.1757 Y38.6273
G01 X74.1305 Y38.5547
G01 X74.0918 Y38.4785
G01 X74.0597 Y38.3992
G01 X74.0345 Y38.3175
G01 X74.0163 Y38.2340
G01 X74.0054 Y38.1492
G01 X74.0017 Y38.0638
G01 Y29.1055
G01 X71.9007
G01 X72.0007 Y29.2055
M107
G00 Z0.0000
G01 Z-4.0000 F400
M106 S240
G01 X71.9007 Y29.1055 F1000
G01 Y42.4934
G01 X71.8996 Y42.5401
G01 X71.8963 Y42.5866
G01 X71.8909 Y42.6330
G01 X71.8833 Y42.6790
G01 X71.8736 Y42.7247
G01 X71.8617 Y42.7698
G01 X71.8478 Y42.8144
G01 X71.8318 Y42.8582
G01 X71.8137 Y42.9013
G01 X71.7937 Y42.9434
G01 X71.7717 Y42.9846
G01 X71.7479 Y43.0247
G01 X71.7221 Y43.0637
G01 X71.6946 Y43.1014
G01 X71.6654 Y43.1378
G01 X71.6345 Y43.1728
G01 X69.3321 Y45.6597
G01 X72.6874
G01 X83.2437 Y34.2575
G01 X83.3045 Y34.1973
G01 X83.3701 Y34.1425
G01 X83.4402 Y34.0935
G01 X83.5142 Y34.0507
G01 X83.5916 Y34.0144
G01 X83.6718 Y33.9848
G01 X83.7542 Y33.9621
G01 X83.8383 Y33.9466
G01 X83.9234 Y33.9383
G01 X84.0089 Y33.9374
G01 X84.0941 Y33.9437
G01 X84.1786 Y33.9573
G01 X84.2615 Y33.9780
G01 X84.3424 Y34.0058
G01 X84.4206 Y34.0404
G01 X84.4955 Y34.0815
G01 X84.5667 Y34.1289
G01 X84.6336 Y34.1821
G01 X84.6956 Y34.2409
G01 X84.7525 Y34.3048
G01 X84.8036 Y34.3733
G01 X84.8487 Y34.4460
G01 X84.8875 Y34.5222
G01 X84.9196 Y34.6014
G01 X84.9448 Y34.6831
G01 X84.9629 Y34.7667
G01 X84.9739 Y34.8515
G01 X84.9775 Y34.9369
G01 Y45.6597
G01 X87.0786
G01 Y29.1055
G01 X84.6583
G01 X75.7355 Y38.7431
G01 X75.6748 Y38.8033
G01 X75.6092 Y38.8581
G01 X75.5391 Y38.9071
G01 X75.4651 Y38.9499
G01 X75.3877 Y38.9863
G01 X75.3075 Y39.0159
G01 X75.2251 Y39.0385
G01 X75.1410 Y39.0540
G01 X75.0559 Y39.0623
G01 X74.9704 Y39.0633
G01 X74.8851 Y39.0570
G01 X74.8007 Y39.0434
G01 X74.7178 Y39.0226
G01 X74.6369 Y38.9949
G01 X74.5587 Y38.9603
G01 X74.4837 Y38.9192
G01 X74.4126 Y38.8718
G01 X74.3457 Y38.8185
G01 X74.2836 Y38.7597
G01 X74.2268 Y38.6958
G01 X74.1757 Y38.6273
G01 X74.1305 Y38.5547
G01 X74.0918 Y38.4785
G01 X74.0597 Y38.3992
G01 X74.0345 Y38.3175
G01 X74.0163 Y38.2340
G01 X74.0054 Y38.1492
G01 X74.0017 Y38.0638
G01 Y29.1055
G01 X71.9007
G01 X72.0007 Y29.2055
M107
G00 Z0.0000
G01 Z-5.5000 F400
M106 S240
G01 X71.9007 Y29.1055 F1000
G01 Y42.4934
G01 X71.8996 Y42.5401
G01 X71.8963 Y42.5866
G01 X71.8909 Y42.6330
G01 X71.8833 Y42.6790
G01 X71.8736 Y42.7247
G01 X71.8617 Y42.7698
G01 X71.8478 Y42.8144
G01 X71.8318 Y42.8582
G01 X71.8137 Y42.9013
G01 X71.7937 Y42.9434
G01 X71.7717 Y42.9846
G01 X71.7479 Y43.0247
G01 X71.7221 Y43.0637
G01 X71.6946 Y43.1014
G01 X71.6654 Y43.1378
G01 X71.6345 Y43.1728
G01 X69.3321 Y45.6597
G01 X72.6874
G01 X83.2437 Y34.2575
G01 X83.3045 Y34.1973
G01 X83.3701 Y34.1425
G01 X83.4402 Y34.0935
G01 X83.5142 Y34.0507
G01 X83.5916 Y34.0144
G01 X83.6718 Y33.9848
G01 X83.7542 Y33.9621
G01 X83.8383 Y33.9466
G01 X83.9234 Y33.9383
G01 X84.0089 Y33.9374
G01 X84.0941 Y33.9437
G01 X84.1786 Y33.9573
G01 X84.2615 Y33.9780
G01 X84.3424 Y34.0058
G01 X84.4206 Y34.0404
G01 X84.4955 Y34.0815
G01 X84.5667 Y34.1289
G01 X84.6336 Y34.1821
G01 X84.6956 Y34.2409
G01 X84.7525 Y34.3048
G01 X84.8036 Y34.3733
G01 X84.8487 Y34.4460
G01 X84.8875 Y34.5222
G01 X84.9196 Y34.6014
G01 X84.9448 Y34.6831
G01 X84.9629 Y34.7667
G01 X84.9739 Y34.8515
G01 X84.9775 Y34.9369
G01 Y45.6597
G01 X87.0786
G01 Y29.1055
G01 X84.6583
G01 X75.7355 Y38.7431
G01 X75.6748 Y38.8033
G01 X75.6092 Y38.8581
G01 X75.5391 Y38.9071
G01 X75.4651 Y38.9499
G01 X75.3877 Y38.9863
G01 X75.3075 Y39.0159
G01 X75.2251 Y39.0385
G01 X75.1410 Y39.0540
G01 X75.0559 Y39.0623
G01 X74.9704 Y39.0633
G01 X74.8851 Y39.0570
G01 X74.8007 Y39.0434
G01 X74.7178 Y39.0226
G01 X74.6369 Y38.9949
G01 X74.5587 Y38.9603
G01 X74.4837 Y38.9192
G01 X74.4126 Y38.8718
G01 X74.3457 Y38.8185
G01 X74.2836 Y38.7597
G01 X74.2268 Y38.6958
G01 X74.1757 Y38.6273
G01 X74.1305 Y38.5547
G01 X74.0918 Y38.4785
G01 X74.0597 Y38.3992
G01 X74.0345 Y38.3175
G01 X74.0163 Y38.2340
G01 X74.0054 Y38.1492
G01 X74.0017 Y38.0638
G01 Y29.1055
G01 X71.9007
G01 X72.0007 Y29.2055
M107
G00 Z0.0000
G00 Z2.0000


;No. 8: Hole 27
G00 X91.8351 Y30.6326 Z2.0000
G00 Z0.5000
G01 Z0.0000 F400
G01 Z-2.0000
M106 S240
G01 X109.2657 F1000
G01 X93.3614
G01 Y32.1326
G01 X91.8351
G01 Y33.6326
G01 X93.2978
G01 Y35.1326
G01 X91.8351
G01 Y36.6326
G01 X93.2978
G01 Y38.1326
G01 X91.8351
G01 Y39.6326
G01 X93.2978
G01 Y41.1326
G01 X91.8351
G01 Y42.6326
G01 X93.2978
G01 Y44.1326
G01 X91.8351
G01 X91.6151 Y44.1173
G01 Y45.5597
G01 X93.5178
G01 Y32.5368
G01 X93.5212 Y32.4505
G01 X93.5313 Y32.3648
G01 X93.5482 Y32.2801
G01 X93.5716 Y32.1969
G01 X93.6015 Y32.1159
G01 X93.6377 Y32.0375
G01 X93.6799 Y31.9621
G01 X93.7279 Y31.8903
G01 X93.7814 Y31.8224
G01 X93.8400 Y31.7590
G01 X93.9034 Y31.7004
G01 X93.9712 Y31.6469
G01 X94.0430 Y31.5989
G01 X94.1184 Y31.5567
G01 X94.1968 Y31.5206
G01 X94.2779 Y31.4907
G01 X94.3610 Y31.4672
G01 X94.4457 Y31.4504
G01 X94.5315 Y31.4402
G01 X94.6178 Y31.4368
G01 X109.7934
G01 X109.7666 Y31.3022
G01 X109.7331 Y31.1691
G01 X109.6928 Y31.0379
G01 X109.6460 Y30.9089
G01 X109.5927 Y30.7824
G01 X109.5332 Y30.6588
G01 X109.4674 Y30.5383
G01 X109.3957 Y30.4213
G01 X109.3181 Y30.3080
G01 X109.2349 Y30.1989
G01 X109.1464 Y30.0940
G01 X109.0526 Y29.9938
G01 X108.9539 Y29.8984
G01 X108.8505 Y29.8081
G01 X108.7427 Y29.7232
G01 X108.6308 Y29.6438
G01 X108.5149 Y29.5701
G01 X108.3956 Y29.5024
G01 X108.2729 Y29.4408
G01 X108.1473 Y29.3855
G01 X108.0190 Y29.3366
G01 X107.8885 Y29.2942
G01 X107.7560 Y29.2585
G01 X107.6218 Y29.2295
G01 X107.5345 Y29.2188
G01 X107.4468 Y29.2112
G01 X107.3589 Y29.2068
G01 X107.2709 Y29.2055
G01 X91.6151
G01 Y44.1173
G01 X91.8351 Y44.1326
G01 Z-4.0000 F400
G01 X93.2978 F1000
G01 Y42.6326
G01 X91.8351
G01 Y41.1326
G01 X93.2978
G01 Y39.6326
G01 X91.8351
G01 Y38.1326
G01 X93.2978
G01 Y36.6326
G01 X91.8351
G01 Y35.1326
G01 X93.2978
G01 Y33.6326
G01 X91.8351
G01 Y32.1326
G01 X93.3614
G01 X91.8351 Y30.6326
G01 X109.2657
G01 X109.4416 Y30.4983
G01 X109.3738 Y30.3848
G01 X109.3002 Y30.2749
G01 X109.2210 Y30.1690
G01 X109.1364 Y30.0674
G01 X109.0466 Y29.9704
G01 X108.9518 Y29.8781
G01 X108.8524 Y29.7910
G01 X108.7486 Y29.7091
G01 X108.6406 Y29.6328
G01 X108.5288 Y29.5622
G01 X108.4135 Y29.4975
G01 X108.2949 Y29.4389
G01 X108.1735 Y29.3866
G01 X108.0495 Y29.3407
G01 X107.9232 Y29.3013
G01 X107.7951 Y29.2686
G01 X107.6655 Y29.2425
G01 X107.5347 Y29.2233
G01 X107.4030 Y29.2109
G01 X107.2709 Y29.2055
G01 X91.6151
G01 Y45.5597
G01 X93.5178
G01 Y32.5368
G01 X93.5212 Y32.4505
G01 X93.5313 Y32.3648
G01 X93.5482 Y32.2801
G01 X93.5716 Y32.1969
G01 X93.6015 Y32.1159
G01 X93.6377 Y32.0375
G01 X93.6799 Y31.9621
G01 X93.7279 Y31.8903
G01 X93.7814 Y31.8224
G01 X93.8400 Y31.7590
G01 X93.9034 Y31.7004
G01 X93.9712 Y31.6469
G01 X94.0430 Y31.5989
G01 X94.1184 Y31.5567
G01 X94.1968 Y31.5206
G01 X94.2779 Y31.4907
G01 X94.3610 Y31.4672
G01 X94.4457 Y31.4504
G01 X94.5315 Y31.4402
G01 X94.6178 Y31.4368
G01 X109.7934
G01 X109.7695 Y31.3131
G01 X109.7397 Y31.1906
G01 X109.7040 Y31.0697
G01 X109.6626 Y30.9507
G01 X109.6155 Y30.8337
G01 X109.5629 Y30.7192
G01 X109.5049 Y30.6073
G01 X109.4416 Y30.4983
G01 X109.2657 Y30.6326
G01 Z-5.5000 F400
G01 X91.8351 F1000
G01 Y32.1326
G01 X93.3614
G01 X93.2978 Y33.6326
G01 X91.8351
G01 Y35.1326
G01 X93.2978
G01 Y36.6326
G01 X91.8351
G01 Y38.1326
G01 X93.2978
G01 Y39.6326
G01 X91.8351
G01 Y41.1326
G01 X93.2978
G01 Y42.6326
G01 X91.8351
G01 Y44.1326
G01 X93.2978
G01 X93.5178 Y44.1178
G01 Y32.5368
G01 X93.5212 Y32.4505
G01 X93.5313 Y32.3648
G01 X93.5482 Y32.2801
G01 X93.5716 Y32.1969
G01 X93.6015 Y32.1159
G01 X93.6377 Y32.0375
G01 X93.6799 Y31.9621
G01 X93.7279 Y31.8903
G01 X93.7814 Y31.8224
G01 X93.8400 Y31.7590
G01 X93.9034 Y31.7004
G01 X93.9712 Y31.6469
G01 X94.0430 Y31.5989
G01 X94.1184 Y31.5567
G01 X94.1968 Y31.5206
G01 X94.2779 Y31.4907
G01 X94.3610 Y31.4672
G01 X94.4457 Y31.4504
G01 X94.5315 Y31.4402
G01 X94.6178 Y31.4368
G01 X109.7934
G01 X109.7666 Y31.3022
G01 X109.7331 Y31.1691
G01 X109.6928 Y31.0379
G01 X109.6460 Y30.9089
G01 X109.5927 Y30.7824
G01 X109.5332 Y30.6588
G01 X109.4674 Y30.5383
G01 X109.3957 Y30.4213
G01 X109.3181 Y30.3080
G01 X109.2349 Y30.1989
G01 X109.1464 Y30.0940
G01 X109.0526 Y29.9938
G01 X108.9539 Y29.8984
G01 X108.8505 Y29.8081
G01 X108.7427 Y29.7232
G01 X108.6308 Y29.6438
G01 X108.5149 Y29.5701
G01 X108.3956 Y29.5024
G01 X108.2729 Y29.4408
G01 X108.1473 Y29.3855
G01 X108.0190 Y29.3366
G01 X107.8885 Y29.2942
G01 X107.7560 Y29.2585
G01 X107.6218 Y29.2295
G01 X107.5345 Y29.2188
G01 X107.4468 Y29.2112
G01 X107.3589 Y29.2068
G01 X107.2709 Y29.2055
G01 X91.6151
G01 Y45.5597
G01 X93.5178
G01 Y44.1178
G01 X93.2978 Y44.1326
M107
G00 Z2.0000


;No. 9: Hole 27
G00 X91.6151 Y29.2055 Z2.0000
G00 Z0.5000
G01 Z-2.0000 F400
M106 S240
G01 X91.5151 Y29.1055 F1000
G01 Y45.6597
G01 X93.6178
G01 Y32.5368
G01 X93.6209 Y32.4579
G01 X93.6303 Y32.3794
G01 X93.6458 Y32.3019
G01 X93.6674 Y32.2259
G01 X93.6949 Y32.1518
G01 X93.7282 Y32.0802
G01 X93.7670 Y32.0114
G01 X93.8111 Y31.9458
G01 X93.8603 Y31.8840
G01 X93.9142 Y31.8262
G01 X93.9725 Y31.7729
G01 X94.0349 Y31.7243
G01 X94.1009 Y31.6808
G01 X94.1701 Y31.6427
G01 X94.2421 Y31.6101
G01 X94.3164 Y31.5833
G01 X94.3926 Y31.5625
G01 X94.4703 Y31.5477
G01 X94.5488 Y31.5392
G01 X94.6278 Y31.5368
G01 X109.9202 Y31.5326
G01 X109.8968 Y31.3930
G01 X109.8664 Y31.2547
G01 X109.8293 Y31.1181
G01 X109.7855 Y30.9835
G01 X109.7351 Y30.8512
G01 X109.6783 Y30.7216
G01 X109.6151 Y30.5949
G01 X109.5457 Y30.4715
G01 X109.4704 Y30.3517
G01 X109.3892 Y30.2357
G01 X109.3025 Y30.1239
G01 X109.2103 Y30.0164
G01 X109.1129 Y29.9137
G01 X109.0106 Y29.8159
G01 X108.9035 Y29.7232
G01 X108.7921 Y29.6360
G01 X108.6764 Y29.5543
G01 X108.5569 Y29.4785
G01 X108.4338 Y29.4086
G01 X108.3074 Y29.3449
G01 X108.1780 Y29.2875
G01 X108.0460 Y29.2365
G01 X107.9115 Y29.1922
G01 X107.7751 Y29.1545
G01 X107.6503 Y29.1327
G01 X107.5246 Y29.1173
G01 X107.3982 Y29.1082
G01 X107.2716 Y29.1055
G01 X91.5151
G01 X91.6151 Y29.2055
M107
G00 Z0.0000
G01 Z-4.0000 F400
M106 S240
G01 X91.5151 Y29.1055 F1000
G01 Y45.6597
G01 X93.6178
G01 Y32.5368
G01 X93.6209 Y32.4579
G01 X93.6303 Y32.3794
G01 X93.6458 Y32.3019
G01 X93.6674 Y32.2259
G01 X93.6949 Y32.1518
G01 X93.7282 Y32.0802
G01 X93.7670 Y32.0114
G01 X93.8111 Y31.9458
G01 X93.8603 Y31.8840
G01 X93.9142 Y31.8262
G01 X93.9725 Y31.7729
G01 X94.0349 Y31.7243
G01 X94.1009 Y31.6808
G01 X94.1701 Y31.6427
G01 X94.2421 Y31.6101
G01 X94.3164 Y31.5833
G01 X94.3926 Y31.5625
G01 X94.4703 Y31.5477
G01 X94.5488 Y31.5392
G01 X94.6278 Y31.5368
G01 X109.9202 Y31.5326
G01 X109.8968 Y31.3930
G01 X109.8664 Y31.2547
G01 X109.8293 Y31.1181
G01 X109.7855 Y30.9835
G01 X109.7351 Y30.8512
G01 X109.6783 Y30.7216
G01 X109.6151 Y30.5949
G01 X109.5457 Y30.4715
G01 X109.4704 Y30.3517
G01 X109.3892 Y30.2357
G01 X109.3025 Y30.1239
G01 X109.2103 Y30.0164
G01 X109.1129 Y29.9137
G01 X109.0106 Y29.8159
G01 X108.9035 Y29.7232
G01 X108.7921 Y29.6360
G01 X108.6764 Y29.5543
G01 X108.5569 Y29.4785
G01 X108.4338 Y29.4086
G01 X108.3074 Y29.3449
G01 X108.1780 Y29.2875
G01 X108.0460 Y29.2365
G01 X107.9115 Y29.1922
G01 X107.7751 Y29.1545
G01 X107.6503 Y29.1327
G01 X107.5246 Y29.1173
G01 X107.3982 Y29.1082
G01 X107.2716 Y29.1055
G01 X91.5151
G01 X91.6151 Y29.2055
M107
G00 Z0.0000
G01 Z-5.5000 F400
M106 S240
G01 X91.5151 Y29.1055 F1000
G01 Y45.6597
G01 X93.6178
G01 Y32.5368
G01 X93.6209 Y32.4579
G01 X93.6303 Y32.3794
G01 X93.6458 Y32.3019
G01 X93.6674 Y32.2259
G01 X93.6949 Y32.1518
G01 X93.7282 Y32.0802
G01 X93.7670 Y32.0114
G01 X93.8111 Y31.9458
G01 X93.8603 Y31.8840
G01 X93.9142 Y31.8262
G01 X93.9725 Y31.7729
G01 X94.0349 Y31.7243
G01 X94.1009 Y31.6808
G01 X94.1701 Y31.6427
G01 X94.2421 Y31.6101
G01 X94.3164 Y31.5833
G01 X94.3926 Y31.5625
G01 X94.4703 Y31.5477
G01 X94.5488 Y31.5392
G01 X94.6278 Y31.5368
G01 X109.9202 Y31.5326
G01 X109.8968 Y31.3930
G01 X109.8664 Y31.2547
G01 X109.8293 Y31.1181
G01 X109.7855 Y30.9835
G01 X109.7351 Y30.8512
G01 X109.6783 Y30.7216
G01 X109.6151 Y30.5949
G01 X109.5457 Y30.4715
G01 X109.4704 Y30.3517
G01 X109.3892 Y30.2357
G01 X109.3025 Y30.1239
G01 X109.2103 Y30.0164
G01 X109.1129 Y29.9137
G01 X109.0106 Y29.8159
G01 X108.9035 Y29.7232
G01 X108.7921 Y29.6360
G01 X108.6764 Y29.5543
G01 X108.5569 Y29.4785
G01 X108.4338 Y29.4086
G01 X108.3074 Y29.3449
G01 X108.1780 Y29.2875
G01 X108.0460 Y29.2365
G01 X107.9115 Y29.1922
G01 X107.7751 Y29.1545
G01 X107.6503 Y29.1327
G01 X107.5246 Y29.1173
G01 X107.3982 Y29.1082
G01 X107.2716 Y29.1055
G01 X91.5151
G01 X91.6151 Y29.2055
M107
G00 Z0.0000
G00 Z2.0000


;No. 10: Hole 26
G00 X115.0700 Y42.6326 Z2.0000
G00 Z0.5000
G01 Z0.0000 F400
G01 Z-2.0000
M106 S240
G01 X117.5531 F1000
G01 X116.4587 Y41.1326
G01 X118.9419
G01 X117.8475 Y39.6326
G01 X120.3306
G01 X119.2362 Y38.1326
G01 X121.7193
G01 X120.6249 Y36.6326
G01 X126.6217
G01 X125.5287 Y38.1326
G01 X128.0104
G01 X126.9171 Y39.6326
G01 X129.3992
G01 X128.3054 Y41.1326
G01 X130.7879
G01 X129.6938 Y42.6326
G01 X132.1766
G01 X132.5267 Y44.1326
G01 X130.9671
M107
G00 Z2.0000
G00 X125.2330 Y36.6326
G00 Z0.5000
G01 Z-2.0000 F400
M106 S240
G01 Y35.1326 F1000
G01 X122.0137
G01 X122.8928
G01 Y33.6326
G01 X124.3538
G01 Y32.1326
G01 X122.8928
G01 Y30.6326
G01 X124.3538
M107
G00 Z2.0000
G00 X116.2796 Y42.6326
G00 Z0.5000
G01 Z-2.0000 F400
M106 S240
G01 Y44.1326 F1000
G01 X114.7200
G01 X114.5000 Y44.1355
G01 Y45.5597
G01 X116.4010
G01 X116.3798 Y45.2767
G01 X116.3759 Y44.9931
G01 X116.3894 Y44.7097
G01 X116.4201 Y44.4276
G01 X116.4371 Y44.3525
G01 X116.4592 Y44.2788
G01 X116.4865 Y44.2067
G01 X116.5187 Y44.1368
G01 X116.5558 Y44.0693
G01 X116.5974 Y44.0045
G01 X116.6435 Y43.9428
G01 X116.6938 Y43.8845
G01 X122.8170 Y37.2708
G01 X122.8812 Y37.2069
G01 X122.9505 Y37.1485
G01 X123.0243 Y37.0960
G01 X123.1023 Y37.0498
G01 X123.1837 Y37.0101
G01 X123.2682 Y36.9773
G01 X123.3551 Y36.9515
G01 X123.4438 Y36.9330
G01 X123.5337 Y36.9219
G01 X123.6242 Y36.9181
G01 X123.7147 Y36.9219
G01 X123.8047 Y36.9330
G01 X123.8934 Y36.9516
G01 X123.9802 Y36.9774
G01 X124.0647 Y37.0102
G01 X124.1461 Y37.0499
G01 X124.2241 Y37.0961
G01 X124.2979 Y37.1486
G01 X124.3672 Y37.2070
G01 X124.4314 Y37.2709
G01 X130.5529 Y43.8846
G01 X130.5978 Y43.9363
G01 X130.6394 Y43.9906
G01 X130.6776 Y44.0475
G01 X130.7121 Y44.1066
G01 X130.7429 Y44.1677
G01 X130.7698 Y44.2306
G01 X130.7928 Y44.2951
G01 X130.8117 Y44.3608
G01 X130.8265 Y44.4277
G01 X130.8371 Y44.4953
G01 X130.8435 Y44.5634
G01 X130.8456 Y44.6318
G01 Y45.5597
G01 X132.7467
G01 Y42.9244
G01 X124.8667 Y34.4131
G01 X124.8217 Y34.3614
G01 X124.7801 Y34.3071
G01 X124.7420 Y34.2502
G01 X124.7074 Y34.1911
G01 X124.6766 Y34.1300
G01 X124.6497 Y34.0671
G01 X124.6267 Y34.0026
G01 X124.6078 Y33.9368
G01 X124.5930 Y33.8700
G01 X124.5824 Y33.8023
G01 X124.5760 Y33.7342
G01 X124.5738 Y33.6658
G01 Y29.2055
G01 X122.6728
G01 Y33.6658
G01 X122.6707 Y33.7342
G01 X122.6643 Y33.8023
G01 X122.6537 Y33.8700
G01 X122.6389 Y33.9368
G01 X122.6200 Y34.0026
G01 X122.5970 Y34.0671
G01 X122.5700 Y34.1300
G01 X122.5392 Y34.1911
G01 X122.5047 Y34.2502
G01 X122.4665 Y34.3071
G01 X122.4249 Y34.3614
G01 X122.3800 Y34.4131
G01 X114.5000 Y42.9244
G01 Y44.1355
G01 X114.7200 Y44.1326
G01 Z-4.0000 F400
G01 X116.2796 F1000
G01 X115.0700 Y42.6326
G01 X117.5531
G01 X116.4587 Y41.1326
G01 X118.9419
G01 X117.8475 Y39.6326
G01 X120.3306
G01 X119.2362 Y38.1326
G01 X121.7193
G01 X120.6249 Y36.6326
G01 X126.6217
G01 X125.5287 Y38.1326
G01 X128.0104
G01 X126.9171 Y39.6326
G01 X129.3992
G01 X128.3054 Y41.1326
G01 X130.7879
G01 X129.6938 Y42.6326
G01 X132.1766
G01 X132.5267 Y44.1326
G01 X130.9671
M107
G00 Z2.0000
G00 X125.2330 Y36.6326
G00 Z-1.5000
G01 Z-4.0000 F400
M106 S240
G01 Y35.1326 F1000
G01 X122.0137
G01 X122.8928
G01 Y33.6326
G01 X124.3538
G01 Y32.1326
G01 X122.8928
G01 Y30.6326
G01 X124.3538
G01 X124.5738 Y30.6414
G01 Y29.2055
G01 X122.6728
G01 Y33.6658
G01 X122.6707 Y33.7342
G01 X122.6643 Y33.8023
G01 X122.6537 Y33.8700
G01 X122.6389 Y33.9368
G01 X122.6200 Y34.0026
G01 X122.5970 Y34.0671
G01 X122.5700 Y34.1300
G01 X122.5392 Y34.1911
G01 X122.5047 Y34.2502
G01 X122.4665 Y34.3071
G01 X122.4249 Y34.3614
G01 X122.3800 Y34.4131
G01 X114.5000 Y42.9244
G01 Y45.5597
G01 X116.4010
G01 X116.3798 Y45.2767
G01 X116.3759 Y44.9931
G01 X116.3894 Y44.7097
G01 X116.4201 Y44.4276
G01 X116.4371 Y44.3525
G01 X116.4592 Y44.2788
G01 X116.4865 Y44.2067
G01 X116.5187 Y44.1368
G01 X116.5558 Y44.0693
G01 X116.5974 Y44.0045
G01 X116.6435 Y43.9428
G01 X116.6938 Y43.8845
G01 X122.8170 Y37.2708
G01 X122.8812 Y37.2069
G01 X122.9505 Y37.1485
G01 X123.0243 Y37.0960
G01 X123.1023 Y37.0498
G01 X123.1837 Y37.0101
G01 X123.2682 Y36.9773
G01 X123.3551 Y36.9515
G01 X123.4438 Y36.9330
G01 X123.5337 Y36.9219
G01 X123.6242 Y36.9181
G01 X123.7147 Y36.9219
G01 X123.8047 Y36.9330
G01 X123.8934 Y36.9516
G01 X123.9802 Y36.9774
G01 X124.0647 Y37.0102
G01 X124.1461 Y37.0499
G01 X124.2241 Y37.0961
G01 X124.2979 Y37.1486
G01 X124.3672 Y37.2070
G01 X124.4314 Y37.2709
G01 X130.5529 Y43.8846
G01 X130.5978 Y43.9363
G01 X130.6394 Y43.9906
G01 X130.6776 Y44.0475
G01 X130.7121 Y44.1066
G01 X130.7429 Y44.1677
G01 X130.7698 Y44.2306
G01 X130.7928 Y44.2951
G01 X130.8117 Y44.3608
G01 X130.8265 Y44.4277
G01 X130.8371 Y44.4953
G01 X130.8435 Y44.5634
G01 X130.8456 Y44.6318
G01 Y45.5597
G01 X132.7467
G01 Y42.9244
G01 X124.8667 Y34.4131
G01 X124.8217 Y34.3614
G01 X124.7801 Y34.3071
G01 X124.7420 Y34.2502
G01 X124.7074 Y34.1911
G01 X124.6766 Y34.1300
G01 X124.6497 Y34.0671
G01 X124.6267 Y34.0026
G01 X124.6078 Y33.9368
G01 X124.5930 Y33.8700
G01 X124.5824 Y33.8023
G01 X124.5760 Y33.7342
G01 X124.5738 Y33.6658
G01 Y30.6414
G01 X124.3538 Y30.6326
G01 Z-5.5000 F400
G01 X122.8928 F1000
G01 Y32.1326
G01 X124.3538
G01 Y33.6326
G01 X122.8928
G01 Y35.1326
G01 X122.0137
G01 X125.2330
G01 X126.6217 Y36.6326
G01 X120.6249
G01 X121.7193 Y38.1326
G01 X119.2362
G01 X120.3306 Y39.6326
G01 X117.8475
G01 X118.9419 Y41.1326
G01 X116.4587
G01 X117.5531 Y42.6326
G01 X115.0700
G01 X114.7200 Y44.1326
G01 X116.2796
M107
G00 Z2.0000
G00 X125.5287 Y36.6326
G00 Z-3.5000
G01 Z-5.5000 F400
M106 S240
G01 Y38.1326 F1000
G01 X128.0104
G01 X126.9171 Y39.6326
G01 X129.3992
G01 X128.3054 Y41.1326
G01 X130.7879
G01 X129.6938 Y42.6326
G01 X132.1766
G01 X132.5267 Y44.1326
G01 X130.9671
G01 X130.7566 Y44.1996
G01 X130.7773 Y44.2511
G01 X130.7953 Y44.3037
G01 X130.8106 Y44.3571
G01 X130.8232 Y44.4112
G01 X130.8331 Y44.4658
G01 X130.8401 Y44.5209
G01 X130.8443 Y44.5763
G01 X130.8456 Y44.6318
G01 Y45.5597
G01 X132.7467
G01 Y42.9244
G01 X124.8667 Y34.4131
G01 X124.8217 Y34.3614
G01 X124.7801 Y34.3071
G01 X124.7420 Y34.2502
G01 X124.7074 Y34.1911
G01 X124.6766 Y34.1300
G01 X124.6497 Y34.0671
G01 X124.6267 Y34.0026
G01 X124.6078 Y33.9368
G01 X124.5930 Y33.8700
G01 X124.5824 Y33.8023
G01 X124.5760 Y33.7342
G01 X124.5738 Y33.6658
G01 Y29.2055
G01 X122.6728
G01 Y33.6658
G01 X122.6707 Y33.7342
G01 X122.6643 Y33.8023
G01 X122.6537 Y33.8700
G01 X122.6389 Y33.9368
G01 X122.6200 Y34.0026
G01 X122.5970 Y34.0671
G01 X122.5700 Y34.1300
G01 X122.5392 Y34.1911
G01 X122.5047 Y34.2502
G01 X122.4665 Y34.3071
G01 X122.4249 Y34.3614
G01 X122.3800 Y34.4131
G01 X114.5000 Y42.9244
G01 Y45.5597
G01 X116.4010
G01 X116.3798 Y45.2767
G01 X116.3759 Y44.9931
G01 X116.3894 Y44.7097
G01 X116.4201 Y44.4276
G01 X116.4371 Y44.3525
G01 X116.4592 Y44.2788
G01 X116.4865 Y44.2067
G01 X116.5187 Y44.1368
G01 X116.5558 Y44.0693
G01 X116.5974 Y44.0045
G01 X116.6435 Y43.9428
G01 X116.6938 Y43.8845
G01 X122.8170 Y37.2708
G01 X122.8812 Y37.2069
G01 X122.9505 Y37.1485
G01 X123.0243 Y37.0960
G01 X123.1023 Y37.0498
G01 X123.1837 Y37.0101
G01 X123.2682 Y36.9773
G01 X123.3551 Y36.9515
G01 X123.4438 Y36.9330
G01 X123.5337 Y36.9219
G01 X123.6242 Y36.9181
G01 X123.7147 Y36.9219
G01 X123.8047 Y36.9330
G01 X123.8934 Y36.9516
G01 X123.9802 Y36.9774
G01 X124.0647 Y37.0102
G01 X124.1461 Y37.0499
G01 X124.2241 Y37.0961
G01 X124.2979 Y37.1486
G01 X124.3672 Y37.2070
G01 X124.4314 Y37.2709
G01 X130.5529 Y43.8846
G01 X130.6141 Y43.9563
G01 X130.6687 Y44.0331
G01 X130.7163 Y44.1144
G01 X130.7566 Y44.1996
G01 X130.9671 Y44.1326
M107
G00 Z2.0000


;No. 11: Hole 26
G00 X114.5000 Y42.9244 Z2.0000
G00 Z0.5000
G01 Z-2.0000 F400
M106 S240
G01 X114.4000 Y42.8852 F1000
G01 Y45.6597
G01 X116.5010
G01 X116.4832 Y45.3680
G01 X116.4789 Y45.0757
G01 X116.4881 Y44.7836
G01 X116.5108 Y44.4922
G01 X116.5242 Y44.4176
G01 X116.5433 Y44.3442
G01 X116.5678 Y44.2724
G01 X116.5978 Y44.2028
G01 X116.6329 Y44.1355
G01 X116.6730 Y44.0712
G01 X116.7179 Y44.0100
G01 X116.7672 Y43.9525
G01 X122.8903 Y37.3388
G01 X122.9222 Y37.3059
G01 X122.9555 Y37.2745
G01 X122.9902 Y37.2447
G01 X123.0263 Y37.2165
G01 X123.0636 Y37.1900
G01 X123.1021 Y37.1652
G01 X123.1417 Y37.1422
G01 X123.1823 Y37.1211
G01 X123.2238 Y37.1018
G01 X123.2661 Y37.0844
G01 X123.3092 Y37.0690
G01 X123.3530 Y37.0556
G01 X123.3973 Y37.0442
G01 X123.4421 Y37.0348
G01 X123.4873 Y37.0275
G01 X123.5328 Y37.0223
G01 X123.5784 Y37.0192
G01 X123.6242 Y37.0181
G01 X123.6700 Y37.0192
G01 X123.7156 Y37.0223
G01 X123.7611 Y37.0276
G01 X123.8063 Y37.0349
G01 X123.8511 Y37.0442
G01 X123.8954 Y37.0556
G01 X123.9392 Y37.0690
G01 X123.9823 Y37.0845
G01 X124.0246 Y37.1018
G01 X124.0661 Y37.1211
G01 X124.1067 Y37.1423
G01 X124.1463 Y37.1653
G01 X124.1848 Y37.1901
G01 X124.2221 Y37.2166
G01 X124.2581 Y37.2448
G01 X124.2928 Y37.2746
G01 X124.3262 Y37.3060
G01 X124.3580 Y37.3389
G01 X130.4795 Y43.9526
G01 X130.5396 Y44.0239
G01 X130.5928 Y44.1006
G01 X130.6387 Y44.1819
G01 X130.6767 Y44.2671
G01 X130.7067 Y44.3554
G01 X130.7282 Y44.4462
G01 X130.7413 Y44.5386
G01 X130.7456 Y44.6318
G01 Y45.6597
G01 X132.8467
G01 Y42.8852
G01 X124.9400 Y34.3451
G01 X124.8799 Y34.2738
G01 X124.8267 Y34.1971
G01 X124.7808 Y34.1158
G01 X124.7428 Y34.0306
G01 X124.7128 Y33.9422
G01 X124.6912 Y33.8514
G01 X124.6782 Y33.7590
G01 X124.6738 Y33.6658
G01 Y29.1055
G01 X122.5728
G01 Y33.6658
G01 X122.5684 Y33.7590
G01 X122.5554 Y33.8514
G01 X122.5338 Y33.9422
G01 X122.5039 Y34.0306
G01 X122.4658 Y34.1158
G01 X122.4200 Y34.1971
G01 X122.3667 Y34.2738
G01 X122.3066 Y34.3451
G01 X114.4000 Y42.8852
G01 X114.5000 Y42.9244
M107
G00 Z0.0000
G01 Z-4.0000 F400
M106 S240
G01 X114.4000 Y42.8852 F1000
G01 Y45.6597
G01 X116.5010
G01 X116.4832 Y45.3680
G01 X116.4789 Y45.0757
G01 X116.4881 Y44.7836
G01 X116.5108 Y44.4922
G01 X116.5242 Y44.4176
G01 X116.5433 Y44.3442
G01 X116.5678 Y44.2724
G01 X116.5978 Y44.2028
G01 X116.6329 Y44.1355
G01 X116.6730 Y44.0712
G01 X116.7179 Y44.0100
G01 X116.7672 Y43.9525
G01 X122.8903 Y37.3388
G01 X122.9222 Y37.3059
G01 X122.9555 Y37.2745
G01 X122.9902 Y37.2447
G01 X123.0263 Y37.2165
G01 X123.0636 Y37.1900
G01 X123.1021 Y37.1652
G01 X123.1417 Y37.1422
G01 X123.1823 Y37.1211
G01 X123.2238 Y37.1018
G01 X123.2661 Y37.0844
G01 X123.3092 Y37.0690
G01 X123.3530 Y37.0556
G01 X123.3973 Y37.0442
G01 X123.4421 Y37.0348
G01 X123.4873 Y37.0275
G01 X123.5328 Y37.0223
G01 X123.5784 Y37.0192
G01 X123.6242 Y37.0181
G01 X123.6700 Y37.0192
G01 X123.7156 Y37.0223
G01 X123.7611 Y37.0276
G01 X123.8063 Y37.0349
G01 X123.8511 Y37.0442
G01 X123.8954 Y37.0556
G01 X123.9392 Y37.0690
G01 X123.9823 Y37.0845
G01 X124.0246 Y37.1018
G01 X124.0661 Y37.1211
G01 X124.1067 Y37.1423
G01 X124.1463 Y37.1653
G01 X124.1848 Y37.1901
G01 X124.2221 Y37.2166
G01 X124.2581 Y37.2448
G01 X124.2928 Y37.2746
G01 X124.3262 Y37.3060
G01 X124.3580 Y37.3389
G01 X130.4795 Y43.9526
G01 X130.5396 Y44.0239
G01 X130.5928 Y44.1006
G01 X130.6387 Y44.1819
G01 X130.6767 Y44.2671
G01 X130.7067 Y44.3554
G01 X130.7282 Y44.4462
G01 X130.7413 Y44.5386
G01 X130.7456 Y44.6318
G01 Y45.6597
G01 X132.8467
G01 Y42.8852
G01 X124.9400 Y34.3451
G01 X124.8799 Y34.2738
G01 X124.8267 Y34.1971
G01 X124.7808 Y34.1158
G01 X124.7428 Y34.0306
G01 X124.7128 Y33.9422
G01 X124.6912 Y33.8514
G01 X124.6782 Y33.7590
G01 X124.6738 Y33.6658
G01 Y29.1055
G01 X122.5728
G01 Y33.6658
G01 X122.5684 Y33.7590
G01 X122.5554 Y33.8514
G01 X122.5338 Y33.9422
G01 X122.5039 Y34.0306
G01 X122.4658 Y34.1158
G01 X122.4200 Y34.1971
G01 X122.3667 Y34.2738
G01 X122.3066 Y34.3451
G01 X114.4000 Y42.8852
G01 X114.5000 Y42.9244
M107
G00 Z0.0000
G01 Z-5.5000 F400
M106 S240
G01 X114.4000 Y42.8852 F1000
G01 Y45.6597
G01 X116.5010
G01 X116.4832 Y45.3680
G01 X116.4789 Y45.0757
G01 X116.4881 Y44.7836
G01 X116.5108 Y44.4922
G01 X116.5242 Y44.4176
G01 X116.5433 Y44.3442
G01 X116.5678 Y44.2724
G01 X116.5978 Y44.2028
G01 X116.6329 Y44.1355
G01 X116.6730 Y44.0712
G01 X116.7179 Y44.0100
G01 X116.7672 Y43.9525
G01 X122.8903 Y37.3388
G01 X122.9222 Y37.3059
G01 X122.9555 Y37.2745
G01 X122.9902 Y37.2447
G01 X123.0263 Y37.2165
G01 X123.0636 Y37.1900
G01 X123.1021 Y37.1652
G01 X123.1417 Y37.1422
G01 X123.1823 Y37.1211
G01 X123.2238 Y37.1018
G01 X123.2661 Y37.0844
G01 X123.3092 Y37.0690
G01 X123.3530 Y37.0556
G01 X123.3973 Y37.0442
G01 X123.4421 Y37.0348
G01 X123.4873 Y37.0275
G01 X123.5328 Y37.0223
G01 X123.5784 Y37.0192
G01 X123.6242 Y37.0181
G01 X123.6700 Y37.0192
G01 X123.7156 Y37.0223
G01 X123.7611 Y37.0276
G01 X123.8063 Y37.0349
G01 X123.8511 Y37.0442
G01 X123.8954 Y37.0556
G01 X123.9392 Y37.0690
G01 X123.9823 Y37.0845
G01 X124.0246 Y37.1018
G01 X124.0661 Y37.1211
G01 X124.1067 Y37.1423
G01 X124.1463 Y37.1653
G01 X124.1848 Y37.1901
G01 X124.2221 Y37.2166
G01 X124.2581 Y37.2448
G01 X124.2928 Y37.2746
G01 X124.3262 Y37.3060
G01 X124.3580 Y37.3389
G01 X130.4795 Y43.9526
G01 X130.5396 Y44.0239
G01 X130.5928 Y44.1006
G01 X130.6387 Y44.1819
G01 X130.6767 Y44.2671
G01 X130.7067 Y44.3554
G01 X130.7282 Y44.4462
G01 X130.7413 Y44.5386
G01 X130.7456 Y44.6318
G01 Y45.6597
G01 X132.8467
G01 Y42.8852
G01 X124.9400 Y34.3451
G01 X124.8799 Y34.2738
G01 X124.8267 Y34.1971
G01 X124.7808 Y34.1158
G01 X124.7428 Y34.0306
G01 X124.7128 Y33.9422
G01 X124.6912 Y33.8514
G01 X124.6782 Y33.7590
G01 X124.6738 Y33.6658
G01 Y29.1055
G01 X122.5728
G01 Y33.6658
G01 X122.5684 Y33.7590
G01 X122.5554 Y33.8514
G01 X122.5338 Y33.9422
G01 X122.5039 Y34.0306
G01 X122.4658 Y34.1158
G01 X122.4200 Y34.1971
G01 X122.3667 Y34.2738
G01 X122.3066 Y34.3451
G01 X114.4000 Y42.8852
G01 X114.5000 Y42.9244
M107
G00 Z0.0000
G00 Z2.0000


;No. 12: Helical drill 7
G00 X168.2374 Y17.2494 Z2.0000
G00 Z0.5000
M106 S240
G01 X168.2336 Y17.1622 Z0.4722 F400
G01 X168.2222 Y17.0757 Z0.4444
G01 X168.2033 Y16.9906 Z0.4167
G01 X168.1771 Y16.9074 Z0.3889
G01 X168.1437 Y16.8268 Z0.3611
G01 X168.1034 Y16.7494 Z0.3333
G01 X168.0565 Y16.6758 Z0.3056
G01 X168.0034 Y16.6066 Z0.2778
G01 X167.9445 Y16.5423 Z0.2500
G01 X167.8802 Y16.4833 Z0.2222
G01 X167.8110 Y16.4302 Z0.1944
G01 X167.7374 Y16.3833 Z0.1667
G01 X167.6600 Y16.3431 Z0.1389
G01 X167.5794 Y16.3097 Z0.1111
G01 X167.4962 Y16.2834 Z0.0833
G01 X167.4110 Y16.2646 Z0.0556
G01 X167.3245 Y16.2532 Z0.0278
G01 X167.2374 Y16.2494 Z0.0000
G01 X167.1502 Y16.2532 Z-0.0278
G01 X167.0637 Y16.2646 Z-0.0556
G01 X166.9786 Y16.2834 Z-0.0833
G01 X166.8954 Y16.3097 Z-0.1111
G01 X166.8148 Y16.3431 Z-0.1389
G01 X166.7374 Y16.3833 Z-0.1667
G01 X166.6967 Y16.4081 Z-0.1818
G01 X166.6573 Y16.4348 Z-0.1970
G01 X166.6192 Y16.4633 Z-0.2121
G01 X166.5825 Y16.4936 Z-0.2273
G01 X166.5473 Y16.5256 Z-0.2424
G01 X166.5137 Y16.5593 Z-0.2576
G01 X166.4816 Y16.5945 Z-0.2727
G01 X166.4513 Y16.6312 Z-0.2879
G01 X166.4228 Y16.6693 Z-0.3030
G01 X166.3961 Y16.7087 Z-0.3182
G01 X166.3714 Y16.7494 Z-0.3333
G01 X166.3486 Y16.7911 Z-0.3485
G01 X166.3278 Y16.8340 Z-0.3636
G01 X166.3090 Y16.8777 Z-0.3788
G01 X166.2924 Y16.9223 Z-0.3939
G01 X166.2779 Y16.9676 Z-0.4091
G01 X166.2656 Y17.0136 Z-0.4242
G01 X166.2555 Y17.0601 Z-0.4394
G01 X166.2476 Y17.1071 Z-0.4545
G01 X166.2419 Y17.1543 Z-0.4697
G01 X166.2385 Y17.2018 Z-0.4848
G01 X166.2374 Y17.2494 Z-0.5000
G01 X166.2385 Y17.2970 Z-0.5152
G01 X166.2419 Y17.3444 Z-0.5303
G01 X166.2476 Y17.3917 Z-0.5455
G01 X166.2555 Y17.4386 Z-0.5606
G01 X166.2656 Y17.4851 Z-0.5758
G01 X166.2779 Y17.5311 Z-0.5909
G01 X166.2924 Y17.5764 Z-0.6061
G01 X166.3090 Y17.6210 Z-0.6212
G01 X166.3278 Y17.6648 Z-0.6364
G01 X166.3486 Y17.7076 Z-0.6515
G01 X166.3714 Y17.7494 Z-0.6667
G01 X166.3961 Y17.7900 Z-0.6818
G01 X166.4228 Y17.8294 Z-0.6970
G01 X166.4513 Y17.8675 Z-0.7121
G01 X166.4816 Y17.9042 Z-0.7273
G01 X166.5137 Y17.9395 Z-0.7424
G01 X166.5473 Y17.9731 Z-0.7576
G01 X166.5825 Y18.0051 Z-0.7727
G01 X166.6192 Y18.0354 Z-0.7879
G01 X166.6573 Y18.0639 Z-0.8030
G01 X166.6967 Y18.0906 Z-0.8182
G01 X166.7374 Y18.1154 Z-0.8333
G01 X166.7792 Y18.1382 Z-0.8485
G01 X166.8220 Y18.1590 Z-0.8636
G01 X166.8657 Y18.1777 Z-0.8788
G01 X166.9103 Y18.1944 Z-0.8939
G01 X166.9557 Y18.2089 Z-0.9091
G01 X167.0016 Y18.2212 Z-0.9242
G01 X167.0481 Y18.2313 Z-0.9394
G01 X167.0951 Y18.2392 Z-0.9545
G01 X167.1423 Y18.2448 Z-0.9697
G01 X167.1898 Y18.2482 Z-0.9848
G01 X167.2374 Y18.2494 Z-1.0000
G01 X167.2850 Y18.2482 Z-1.0152
G01 X167.3324 Y18.2448 Z-1.0303
G01 X167.3797 Y18.2392 Z-1.0455
G01 X167.4266 Y18.2313 Z-1.0606
G01 X167.4731 Y18.2212 Z-1.0758
G01 X167.5191 Y18.2089 Z-1.0909
G01 X167.5645 Y18.1944 Z-1.1061
G01 X167.6091 Y18.1777 Z-1.1212
G01 X167.6528 Y18.1590 Z-1.1364
G01 X167.6956 Y18.1382 Z-1.1515
G01 X167.7374 Y18.1154 Z-1.1667
G01 X167.7780 Y18.0906 Z-1.1818
G01 X167.8174 Y18.0639 Z-1.1970
G01 X167.8555 Y18.0354 Z-1.2121
G01 X167.8923 Y18.0051 Z-1.2273
G01 X167.9275 Y17.9731 Z-1.2424
G01 X167.9611 Y17.9395 Z-1.2576
G01 X167.9931 Y17.9042 Z-1.2727
G01 X168.0234 Y17.8675 Z-1.2879
G01 X168.0520 Y17.8294 Z-1.3030
G01 X168.0786 Y17.7900 Z-1.3182
G01 X168.1034 Y17.7494 Z-1.3333
G01 X168.1262 Y17.7076 Z-1.3485
G01 X168.1470 Y17.6648 Z-1.3636
G01 X168.1658 Y17.6210 Z-1.3788
G01 X168.1824 Y17.5764 Z-1.3939
G01 X168.1969 Y17.5311 Z-1.4091
G01 X168.2092 Y17.4851 Z-1.4242
G01 X168.2193 Y17.4386 Z-1.4394
G01 X168.2272 Y17.3917 Z-1.4545
G01 X168.2329 Y17.3444 Z-1.4697
G01 X168.2363 Y17.2970 Z-1.4848
G01 X168.2374 Y17.2494 Z-1.5000
G01 X168.2336 Y17.1622
G01 X168.2222 Y17.0757
G01 X168.2033 Y16.9906
G01 X168.1771 Y16.9074
G01 X168.1437 Y16.8268
G01 X168.1034 Y16.7494
G01 X168.0565 Y16.6758
G01 X168.0034 Y16.6066
G01 X167.9445 Y16.5423
G01 X167.8802 Y16.4833
G01 X167.8110 Y16.4302
G01 X167.7374 Y16.3833
G01 X167.6600 Y16.3431
G01 X167.5794 Y16.3097
G01 X167.4962 Y16.2834
G01 X167.4110 Y16.2646
G01 X167.3245 Y16.2532
G01 X167.2374 Y16.2494
G01 X167.1502 Y16.2532
G01 X167.0637 Y16.2646
G01 X166.9786 Y16.2834
G01 X166.8954 Y16.3097
G01 X166.8148 Y16.3431
G01 X166.7374 Y16.3833
G01 X166.6967 Y16.4081
G01 X166.6573 Y16.4348
G01 X166.6192 Y16.4633
G01 X166.5825 Y16.4936
G01 X166.5473 Y16.5256
G01 X166.5137 Y16.5593
G01 X166.4816 Y16.5945
G01 X166.4513 Y16.6312
G01 X166.4228 Y16.6693
G01 X166.3961 Y16.7087
G01 X166.3714 Y16.7494
G01 X166.3486 Y16.7911
G01 X166.3278 Y16.8340
G01 X166.3090 Y16.8777
G01 X166.2924 Y16.9223
G01 X166.2779 Y16.9676
G01 X166.2656 Y17.0136
G01 X166.2555 Y17.0601
G01 X166.2476 Y17.1071
G01 X166.2419 Y17.1543
G01 X166.2385 Y17.2018
G01 X166.2374 Y17.2494
G01 X166.2385 Y17.2970
G01 X166.2419 Y17.3444
G01 X166.2476 Y17.3917
G01 X166.2555 Y17.4386
G01 X166.2656 Y17.4851
G01 X166.2779 Y17.5311
G01 X166.2924 Y17.5764
G01 X166.3090 Y17.6210
G01 X166.3278 Y17.6648
G01 X166.3486 Y17.7076
G01 X166.3714 Y17.7494
G01 X166.3961 Y17.7900
G01 X166.4228 Y17.8294
G01 X166.4513 Y17.8675
G01 X166.4816 Y17.9042
G01 X166.5137 Y17.9395
G01 X166.5473 Y17.9731
G01 X166.5825 Y18.0051
G01 X166.6192 Y18.0354
G01 X166.6573 Y18.0639
G01 X166.6967 Y18.0906
G01 X166.7374 Y18.1154
G01 X166.7792 Y18.1382
G01 X166.8220 Y18.1590
G01 X166.8657 Y18.1777
G01 X166.9103 Y18.1944
G01 X166.9557 Y18.2089
G01 X167.0016 Y18.2212
G01 X167.0481 Y18.2313
G01 X167.0951 Y18.2392
G01 X167.1423 Y18.2448
G01 X167.1898 Y18.2482
G01 X167.2374 Y18.2494
G01 X167.2850 Y18.2482
G01 X167.3324 Y18.2448
G01 X167.3797 Y18.2392
G01 X167.4266 Y18.2313
G01 X167.4731 Y18.2212
G01 X167.5191 Y18.2089
G01 X167.5645 Y18.1944
G01 X167.6091 Y18.1777
G01 X167.6528 Y18.1590
G01 X167.6956 Y18.1382
G01 X167.7374 Y18.1154
G01 X167.7780 Y18.0906
G01 X167.8174 Y18.0639
G01 X167.8555 Y18.0354
G01 X167.8923 Y18.0051
G01 X167.9275 Y17.9731
G01 X167.9611 Y17.9395
G01 X167.9931 Y17.9042
G01 X168.0234 Y17.8675
G01 X168.0520 Y17.8294
G01 X168.0786 Y17.7900
G01 X168.1034 Y17.7494
G01 X168.1262 Y17.7076
G01 X168.1470 Y17.6648
G01 X168.1658 Y17.6210
G01 X168.1824 Y17.5764
G01 X168.1969 Y17.5311
G01 X168.2092 Y17.4851
G01 X168.2193 Y17.4386
G01 X168.2272 Y17.3917
G01 X168.2329 Y17.3444
G01 X168.2363 Y17.2970
G01 X168.2374 Y17.2494
G01 X168.2481 Y17.1978 F1000
G01 X168.2562 Y17.1457
G01 X168.2616 Y17.0933
G01 X168.2643 Y17.0406
G01 X168.2642 Y16.9879
G01 X168.2615 Y16.9353
G01 X168.2560 Y16.8829
G01 X168.2479 Y16.8308
G01 X168.2362 Y16.7748
G01 X168.2216 Y16.7195
G01 X168.2042 Y16.6650
G01 X168.1841 Y16.6115
G01 X168.1612 Y16.5590
G01 X168.1358 Y16.5078
G01 X168.1077 Y16.4580
G01 X168.0771 Y16.4097
G01 X168.0415 Y16.3593
G01 X168.0033 Y16.3108
G01 X167.9628 Y16.2642
G01 X167.9199 Y16.2198
G01 X167.8749 Y16.1777
G01 X167.8277 Y16.1379
G01 X167.7786 Y16.1005
G01 X167.7277 Y16.0657
G01 X167.6712 Y16.0311
G01 X167.6130 Y15.9994
G01 X167.5533 Y15.9707
G01 X167.4923 Y15.9451
G01 X167.4300 Y15.9226
G01 X167.3666 Y15.9033
G01 X167.3024 Y15.8872
G01 X167.2374 Y15.8744
G01 X167.1674 Y15.8642
G01 X167.0969 Y15.8575
G01 X167.0262 Y15.8545
G01 X166.9554 Y15.8550
G01 X166.8848 Y15.8590
G01 X166.8144 Y15.8666
G01 X166.7446 Y15.8778
G01 X166.6753 Y15.8924
G01 X166.6071 Y15.9184
G01 X166.5403 Y15.9477
G01 X166.4750 Y15.9802
G01 X166.4114 Y16.0160
G01 X166.3496 Y16.0548
G01 X166.2898 Y16.0966
G01 X166.2321 Y16.1413
G01 X166.1767 Y16.1887
G01 X166.1260 Y16.2420
G01 X166.0779 Y16.2978
G01 X166.0326 Y16.3558
G01 X165.9902 Y16.4160
G01 X165.9508 Y16.4782
G01 X165.9145 Y16.5423
G01 X165.8814 Y16.6080
G01 X165.8516 Y16.6754
G01 X165.8251 Y16.7440
G01 X165.8020 Y16.8140
G01 X165.7824 Y16.8849
G01 X165.7662 Y16.9567
G01 X165.7536 Y17.0293
G01 X165.7446 Y17.1023
G01 X165.7392 Y17.1758
G01 X165.7374 Y17.2494
G01 X165.7392 Y17.3230
G01 X165.7446 Y17.3964
G01 X165.7536 Y17.4695
G01 X165.7662 Y17.5420
G01 X165.7824 Y17.6138
G01 X165.8020 Y17.6848
G01 X165.8251 Y17.7547
G01 X165.8516 Y17.8234
G01 X165.8814 Y17.8907
G01 X165.9145 Y17.9565
G01 X165.9508 Y18.0205
G01 X165.9902 Y18.0827
G01 X166.0326 Y18.1429
G01 X166.0779 Y18.2009
G01 X166.1260 Y18.2567
G01 X166.1767 Y18.3100
G01 X166.2301 Y18.3608
G01 X166.2858 Y18.4089
G01 X166.3439 Y18.4542
G01 X166.4040 Y18.4966
G01 X166.4662 Y18.5359
G01 X166.5303 Y18.5722
G01 X166.5961 Y18.6053
G01 X166.6634 Y18.6352
G01 X166.7321 Y18.6617
G01 X166.8020 Y18.6848
G01 X166.8729 Y18.7044
G01 X166.9448 Y18.7205
G01 X167.0173 Y18.7331
G01 X167.0904 Y18.7421
G01 X167.1638 Y18.7475
G01 X167.2374 Y18.7493
G01 X167.3110 Y18.7475
G01 X167.3844 Y18.7421
G01 X167.4575 Y18.7331
G01 X167.5300 Y18.7205
G01 X167.6019 Y18.7044
G01 X167.6728 Y18.6848
G01 X167.7427 Y18.6617
G01 X167.8114 Y18.6352
G01 X167.8787 Y18.6053
G01 X167.9445 Y18.5722
G01 X168.0085 Y18.5359
G01 X168.0707 Y18.4966
G01 X168.1309 Y18.4542
G01 X168.1890 Y18.4089
G01 X168.2447 Y18.3608
G01 X168.2980 Y18.3100
G01 X168.3488 Y18.2567
G01 X168.3969 Y18.2009
G01 X168.4422 Y18.1429
G01 X168.4846 Y18.0827
G01 X168.5240 Y18.0205
G01 X168.5603 Y17.9565
G01 X168.5934 Y17.8907
G01 X168.6232 Y17.8234
G01 X168.6497 Y17.7547
G01 X168.6728 Y17.6848
G01 X168.6924 Y17.6138
G01 X168.7085 Y17.5420
G01 X168.7211 Y17.4695
G01 X168.7301 Y17.3964
G01 X168.7356 Y17.3230
G01 X168.7374 Y17.2494
G01 X168.7332 Y17.1373
G01 X168.7206 Y17.0258
G01 X168.6998 Y16.9156
G01 X168.6707 Y16.8072
G01 X168.6337 Y16.7014
G01 X168.5888 Y16.5986
G01 X168.5364 Y16.4994
G01 X168.4767 Y16.4044
G01 X168.4101 Y16.3142
G01 X168.3370 Y16.2291
G01 X168.2576 Y16.1498
G01 X168.1726 Y16.0766
G01 X168.0824 Y16.0100
G01 X167.9874 Y15.9504
G01 X167.8882 Y15.8979
G01 X167.7854 Y15.8531
G01 X167.6795 Y15.8160
G01 X167.5712 Y15.7870
G01 X167.4610 Y15.7661
G01 X167.3495 Y15.7536
G01 X167.2374 Y15.7494
G01 X167.1253 Y15.7536
G01 X167.0138 Y15.7661
G01 X166.9036 Y15.7870
G01 X166.7953 Y15.8160
G01 X166.6894 Y15.8531
G01 X166.5866 Y15.8979
G01 X166.4874 Y15.9504
G01 X166.3924 Y16.0100
G01 X166.3022 Y16.0766
G01 X166.2171 Y16.1498
G01 X166.1378 Y16.2291
G01 X166.0647 Y16.3142
G01 X165.9981 Y16.4044
G01 X165.9384 Y16.4994
G01 X165.8860 Y16.5986
G01 X165.8411 Y16.7014
G01 X165.8041 Y16.8072
G01 X165.7750 Y16.9156
G01 X165.7542 Y17.0258
G01 X165.7416 Y17.1373
G01 X165.7374 Y17.2494
G01 X165.7416 Y17.3615
G01 X165.7542 Y17.4729
G01 X165.7750 Y17.5831
G01 X165.8041 Y17.6915
G01 X165.8411 Y17.7974
G01 X165.8860 Y17.9002
G01 X165.9384 Y17.9994
G01 X165.9981 Y18.0943
G01 X166.0647 Y18.1846
G01 X166.1378 Y18.2696
G01 X166.2171 Y18.3489
G01 X166.3022 Y18.4221
G01 X166.3924 Y18.4887
G01 X166.4874 Y18.5484
G01 X166.5866 Y18.6008
G01 X166.6894 Y18.6457
G01 X166.7953 Y18.6827
G01 X166.9036 Y18.7117
G01 X167.0138 Y18.7326
G01 X167.1253 Y18.7452
G01 X167.2374 Y18.7493
G01 X167.3495 Y18.7452
G01 X167.4610 Y18.7326
G01 X167.5712 Y18.7117
G01 X167.6795 Y18.6827
G01 X167.7854 Y18.6457
G01 X167.8882 Y18.6008
G01 X167.9874 Y18.5484
G01 X168.0824 Y18.4887
G01 X168.1726 Y18.4221
G01 X168.2576 Y18.3489
G01 X168.3370 Y18.2696
G01 X168.4101 Y18.1846
G01 X168.4767 Y18.0943
G01 X168.5364 Y17.9994
G01 X168.5888 Y17.9002
G01 X168.6337 Y17.7974
G01 X168.6707 Y17.6915
G01 X168.6998 Y17.5831
G01 X168.7206 Y17.4729
G01 X168.7332 Y17.3615
G01 X168.7374 Y17.2494
G01 X168.7335 Y17.1513
G01 X168.7220 Y17.0538
G01 X168.7028 Y16.9576
G01 X168.6762 Y16.8631
G01 X168.6422 Y16.7710
G01 X168.6011 Y16.6819
G01 X168.5532 Y16.5963
G01 X168.4986 Y16.5146
G01 X168.4379 Y16.4376
G01 X168.3713 Y16.3655
G01 X168.2992 Y16.2989
G01 X168.2221 Y16.2381
G01 X168.1405 Y16.1836
G01 X168.0549 Y16.1356
G01 X167.9657 Y16.0945
G01 X167.8736 Y16.0606
G01 X167.7792 Y16.0339
G01 X167.6829 Y16.0148
G01 X167.5855 Y16.0032
G01 X167.4874 Y15.9994
G01 X167.3893 Y16.0032
G01 X167.2918 Y16.0148
G01 X167.1956 Y16.0339
G01 X167.1011 Y16.0606
G01 X167.0090 Y16.0945
G01 X166.9199 Y16.1356
G01 X166.8343 Y16.1836
G01 X166.7527 Y16.2381
G01 X166.6756 Y16.2989
G01 X166.6035 Y16.3655
G01 X166.5369 Y16.4376
G01 X166.4761 Y16.5146
G01 X166.4216 Y16.5963
G01 X166.3736 Y16.6819
G01 X166.3325 Y16.7710
G01 X166.2986 Y16.8631
G01 X166.2719 Y16.9576
G01 X166.2528 Y17.0538
G01 X166.2412 Y17.1513
G01 X166.2374 Y17.2494
G01 X166.2412 Y17.3365
G01 X166.2526 Y17.4230
G01 X166.2715 Y17.5082
G01 X166.2977 Y17.5914
G01 X166.3311 Y17.6720
G01 X166.3714 Y17.7494
G01 X166.4182 Y17.8229
G01 X166.4713 Y17.8922
G01 X166.5303 Y17.9565
G01 X166.5946 Y18.0154
G01 X166.6638 Y18.0685
G01 X166.7374 Y18.1154
G01 X166.8148 Y18.1557
G01 X166.8954 Y18.1891
G01 X166.9786 Y18.2153
G01 X167.0637 Y18.2342
G01 X167.1502 Y18.2456
G01 X167.2374 Y18.2494
G01 X167.3245 Y18.2456
G01 X167.4110 Y18.2342
G01 X167.4962 Y18.2153
G01 X167.5794 Y18.1891
G01 X167.6600 Y18.1557
G01 X167.7374 Y18.1154
G01 X167.8110 Y18.0685
G01 X167.8802 Y18.0154
