;Project TeslaChargingHere
;Created by Estlcam version 11 build 11,227
;Machining time about 00:18:14 hours

G90
M03 S18000
G00 X0.0000 Y0.0000 Z0.0000
G00 Z2.0000


;No. 1: Helical drill 1
G00 X33.3285 Y268.7729
G00 Z0.5000
M106 S240
G01 X33.3247 Y268.6857 Z0.4774 F400 S18000
G01 X33.3133 Y268.5992 Z0.4549
G01 X33.2944 Y268.5141 Z0.4323
G01 X33.2682 Y268.4309 Z0.4097
G01 X33.2348 Y268.3503 Z0.3872
G01 X33.1945 Y268.2729 Z0.3646
G01 X33.1476 Y268.1993 Z0.3420
G01 X33.0945 Y268.1301 Z0.3194
G01 X33.0356 Y268.0658 Z0.2969
G01 X32.9713 Y268.0069 Z0.2743
G01 X32.9021 Y267.9537 Z0.2517
G01 X32.8285 Y267.9069 Z0.2292
G01 X32.7511 Y267.8666 Z0.2066
G01 X32.6705 Y267.8332 Z0.1840
G01 X32.5873 Y267.8070 Z0.1615
G01 X32.5021 Y267.7881 Z0.1389
G01 X32.4156 Y267.7767 Z0.1163
G01 X32.3285 Y267.7729 Z0.0938
G01 X32.2413 Y267.7767 Z0.0712
G01 X32.1548 Y267.7881 Z0.0486
G01 X32.0697 Y267.8070 Z0.0260
G01 X31.9865 Y267.8332 Z0.0035
G01 X31.9059 Y267.8666 Z-0.0191
G01 X31.8285 Y267.9069 Z-0.0417
G01 X31.7879 Y267.9316 Z-0.0540
G01 X31.7484 Y267.9583 Z-0.0663
G01 X31.7103 Y267.9868 Z-0.0786
G01 X31.6736 Y268.0171 Z-0.0909
G01 X31.6384 Y268.0492 Z-0.1032
G01 X31.6048 Y268.0828 Z-0.1155
G01 X31.5727 Y268.1180 Z-0.1278
G01 X31.5424 Y268.1547 Z-0.1402
G01 X31.5139 Y268.1928 Z-0.1525
G01 X31.4872 Y268.2323 Z-0.1648
G01 X31.4625 Y268.2729 Z-0.1771
G01 X31.4397 Y268.3147 Z-0.1894
G01 X31.4189 Y268.3575 Z-0.2017
G01 X31.4001 Y268.4012 Z-0.2140
G01 X31.3835 Y268.4458 Z-0.2263
G01 X31.3690 Y268.4912 Z-0.2386
G01 X31.3567 Y268.5371 Z-0.2509
G01 X31.3466 Y268.5836 Z-0.2633
G01 X31.3387 Y268.6306 Z-0.2756
G01 X31.3330 Y268.6778 Z-0.2879
G01 X31.3296 Y268.7253 Z-0.3002
G01 X31.3285 Y268.7729 Z-0.3125
G01 X31.3296 Y268.8205 Z-0.3248
G01 X31.3330 Y268.8680 Z-0.3371
G01 X31.3387 Y268.9152 Z-0.3494
G01 X31.3466 Y268.9621 Z-0.3617
G01 X31.3567 Y269.0087 Z-0.3741
G01 X31.3690 Y269.0546 Z-0.3864
G01 X31.3835 Y269.1000 Z-0.3987
G01 X31.4001 Y269.1446 Z-0.4110
G01 X31.4189 Y269.1883 Z-0.4233
G01 X31.4397 Y269.2311 Z-0.4356
G01 X31.4625 Y269.2729 Z-0.4479
G01 X31.4872 Y269.3135 Z-0.4602
G01 X31.5139 Y269.3530 Z-0.4725
G01 X31.5424 Y269.3911 Z-0.4848
G01 X31.5727 Y269.4278 Z-0.4972
G01 X31.6048 Y269.4630 Z-0.5095
G01 X31.6384 Y269.4966 Z-0.5218
G01 X31.6736 Y269.5286 Z-0.5341
G01 X31.7103 Y269.5589 Z-0.5464
G01 X31.7484 Y269.5875 Z-0.5587
G01 X31.7879 Y269.6141 Z-0.5710
G01 X31.8285 Y269.6389 Z-0.5833
G01 X31.8703 Y269.6617 Z-0.5956
G01 X31.9131 Y269.6825 Z-0.6080
G01 X31.9568 Y269.7013 Z-0.6203
G01 X32.0014 Y269.7179 Z-0.6326
G01 X32.0468 Y269.7324 Z-0.6449
G01 X32.0927 Y269.7447 Z-0.6572
G01 X32.1392 Y269.7548 Z-0.6695
G01 X32.1862 Y269.7627 Z-0.6818
G01 X32.2334 Y269.7684 Z-0.6941
G01 X32.2809 Y269.7718 Z-0.7064
G01 X32.3285 Y269.7729 Z-0.7188
G01 X32.3761 Y269.7718 Z-0.7311
G01 X32.4235 Y269.7684 Z-0.7434
G01 X32.4708 Y269.7627 Z-0.7557
G01 X32.5177 Y269.7548 Z-0.7680
G01 X32.5643 Y269.7447 Z-0.7803
G01 X32.6102 Y269.7324 Z-0.7926
G01 X32.6556 Y269.7179 Z-0.8049
G01 X32.7002 Y269.7013 Z-0.8172
G01 X32.7439 Y269.6825 Z-0.8295
G01 X32.7867 Y269.6617 Z-0.8419
G01 X32.8285 Y269.6389 Z-0.8542
G01 X32.8691 Y269.6141 Z-0.8665
G01 X32.9086 Y269.5875 Z-0.8788
G01 X32.9467 Y269.5589 Z-0.8911
G01 X32.9834 Y269.5286 Z-0.9034
G01 X33.0186 Y269.4966 Z-0.9157
G01 X33.0522 Y269.4630 Z-0.9280
G01 X33.0842 Y269.4278 Z-0.9403
G01 X33.1145 Y269.3911 Z-0.9527
G01 X33.1431 Y269.3530 Z-0.9650
G01 X33.1697 Y269.3135 Z-0.9773
G01 X33.1945 Y269.2729 Z-0.9896
G01 X33.2173 Y269.2311 Z-1.0019
G01 X33.2381 Y269.1883 Z-1.0142
G01 X33.2569 Y269.1446 Z-1.0265
G01 X33.2735 Y269.1000 Z-1.0388
G01 X33.2880 Y269.0546 Z-1.0511
G01 X33.3003 Y269.0087 Z-1.0634
G01 X33.3104 Y268.9621 Z-1.0758
G01 X33.3183 Y268.9152 Z-1.0881
G01 X33.3240 Y268.8680 Z-1.1004
G01 X33.3274 Y268.8205 Z-1.1127
G01 X33.3285 Y268.7729 Z-1.1250
G01 X33.3247 Y268.6857
G01 X33.3133 Y268.5992
G01 X33.2944 Y268.5141
G01 X33.2682 Y268.4309
G01 X33.2348 Y268.3503
G01 X33.1945 Y268.2729
G01 X33.1476 Y268.1993
G01 X33.0945 Y268.1301
G01 X33.0356 Y268.0658
G01 X32.9713 Y268.0069
G01 X32.9021 Y267.9537
G01 X32.8285 Y267.9069
G01 X32.7511 Y267.8666
G01 X32.6705 Y267.8332
G01 X32.5873 Y267.8070
G01 X32.5021 Y267.7881
G01 X32.4156 Y267.7767
G01 X32.3285 Y267.7729
G01 X32.2413 Y267.7767
G01 X32.1548 Y267.7881
G01 X32.0697 Y267.8070
G01 X31.9865 Y267.8332
G01 X31.9059 Y267.8666
G01 X31.8285 Y267.9069
G01 X31.7879 Y267.9316
G01 X31.7484 Y267.9583
G01 X31.7103 Y267.9868
G01 X31.6736 Y268.0171
G01 X31.6384 Y268.0492
G01 X31.6048 Y268.0828
G01 X31.5727 Y268.1180
G01 X31.5424 Y268.1547
G01 X31.5139 Y268.1928
G01 X31.4872 Y268.2323
G01 X31.4625 Y268.2729
G01 X31.4397 Y268.3147
G01 X31.4189 Y268.3575
G01 X31.4001 Y268.4012
G01 X31.3835 Y268.4458
G01 X31.3690 Y268.4912
G01 X31.3567 Y268.5371
G01 X31.3466 Y268.5836
G01 X31.3387 Y268.6306
G01 X31.3330 Y268.6778
G01 X31.3296 Y268.7253
G01 X31.3285 Y268.7729
G01 X31.3296 Y268.8205
G01 X31.3330 Y268.8680
G01 X31.3387 Y268.9152
G01 X31.3466 Y268.9621
G01 X31.3567 Y269.0087
G01 X31.3690 Y269.0546
G01 X31.3835 Y269.1000
G01 X31.4001 Y269.1446
G01 X31.4189 Y269.1883
G01 X31.4397 Y269.2311
G01 X31.4625 Y269.2729
G01 X31.4872 Y269.3135
G01 X31.5139 Y269.3530
G01 X31.5424 Y269.3911
G01 X31.5727 Y269.4278
G01 X31.6048 Y269.4630
G01 X31.6384 Y269.4966
G01 X31.6736 Y269.5286
G01 X31.7103 Y269.5589
G01 X31.7484 Y269.5875
G01 X31.7879 Y269.6141
G01 X31.8285 Y269.6389
G01 X31.8703 Y269.6617
G01 X31.9131 Y269.6825
G01 X31.9568 Y269.7013
G01 X32.0014 Y269.7179
G01 X32.0468 Y269.7324
G01 X32.0927 Y269.7447
G01 X32.1392 Y269.7548
G01 X32.1862 Y269.7627
G01 X32.2334 Y269.7684
G01 X32.2809 Y269.7718
G01 X32.3285 Y269.7729
G01 X32.3761 Y269.7718
G01 X32.4235 Y269.7684
G01 X32.4708 Y269.7627
G01 X32.5177 Y269.7548
G01 X32.5643 Y269.7447
G01 X32.6102 Y269.7324
G01 X32.6556 Y269.7179
G01 X32.7002 Y269.7013
G01 X32.7439 Y269.6825
G01 X32.7867 Y269.6617
G01 X32.8285 Y269.6389
G01 X32.8691 Y269.6141
G01 X32.9086 Y269.5875
G01 X32.9467 Y269.5589
G01 X32.9834 Y269.5286
G01 X33.0186 Y269.4966
G01 X33.0522 Y269.4630
G01 X33.0842 Y269.4278
G01 X33.1145 Y269.3911
G01 X33.1431 Y269.3530
G01 X33.1697 Y269.3135
G01 X33.1945 Y269.2729
G01 X33.2173 Y269.2311
G01 X33.2381 Y269.1883
G01 X33.2569 Y269.1446
G01 X33.2735 Y269.1000
G01 X33.2880 Y269.0546
G01 X33.3003 Y269.0087
G01 X33.3104 Y268.9621
G01 X33.3183 Y268.9152
G01 X33.3240 Y268.8680
G01 X33.3274 Y268.8205
G01 X33.3285 Y268.7729
G01 X33.3392 Y268.7213 F1000
G01 X33.3473 Y268.6692
G01 X33.3527 Y268.6168
G01 X33.3554 Y268.5642
G01 X33.3553 Y268.5115
G01 X33.3526 Y268.4588
G01 X33.3471 Y268.4064
G01 X33.3390 Y268.3543
G01 X33.3273 Y268.2984
G01 X33.3127 Y268.2430
G01 X33.2953 Y268.1885
G01 X33.2752 Y268.1350
G01 X33.2524 Y268.0826
G01 X33.2269 Y268.0314
G01 X33.1988 Y267.9815
G01 X33.1682 Y267.9332
G01 X33.1326 Y267.8828
G01 X33.0944 Y267.8343
G01 X33.0539 Y267.7878
G01 X33.0111 Y267.7434
G01 X32.9660 Y267.7012
G01 X32.9189 Y267.6614
G01 X32.8697 Y267.6240
G01 X32.8188 Y267.5892
G01 X32.7623 Y267.5546
G01 X32.7041 Y267.5229
G01 X32.6444 Y267.4943
G01 X32.5834 Y267.4686
G01 X32.5211 Y267.4461
G01 X32.4577 Y267.4268
G01 X32.3935 Y267.4107
G01 X32.3285 Y267.3979
G01 X32.2585 Y267.3877
G01 X32.1880 Y267.3811
G01 X32.1173 Y267.3780
G01 X32.0465 Y267.3785
G01 X31.9759 Y267.3825
G01 X31.9055 Y267.3901
G01 X31.8357 Y267.4013
G01 X31.7664 Y267.4159
G01 X31.6980 Y267.4416
G01 X31.6310 Y267.4706
G01 X31.5654 Y267.5029
G01 X31.5016 Y267.5383
G01 X31.4395 Y267.5769
G01 X31.3794 Y267.6184
G01 X31.3215 Y267.6629
G01 X31.2658 Y267.7102
G01 X31.2149 Y267.7636
G01 X31.1667 Y267.8194
G01 X31.1213 Y267.8776
G01 X31.0789 Y267.9379
G01 X31.0394 Y268.0002
G01 X31.0030 Y268.0644
G01 X30.9699 Y268.1303
G01 X30.9400 Y268.1977
G01 X30.9134 Y268.2666
G01 X30.8903 Y268.3366
G01 X30.8706 Y268.4077
G01 X30.8544 Y268.4797
G01 X30.8418 Y268.5524
G01 X30.8328 Y268.6256
G01 X30.8274 Y268.6992
G01 X30.8256 Y268.7729
G01 X30.8274 Y268.8466
G01 X30.8328 Y268.9202
G01 X30.8418 Y268.9934
G01 X30.8544 Y269.0661
G01 X30.8706 Y269.1381
G01 X30.8903 Y269.2092
G01 X30.9134 Y269.2792
G01 X30.9400 Y269.3480
G01 X30.9699 Y269.4155
G01 X31.0030 Y269.4814
G01 X31.0394 Y269.5456
G01 X31.0789 Y269.6079
G01 X31.1213 Y269.6682
G01 X31.1667 Y269.7263
G01 X31.2149 Y269.7822
G01 X31.2658 Y269.8356
G01 X31.3192 Y269.8865
G01 X31.3750 Y269.9347
G01 X31.4332 Y269.9801
G01 X31.4935 Y270.0225
G01 X31.5558 Y270.0620
G01 X31.6200 Y270.0984
G01 X31.6859 Y270.1315
G01 X31.7533 Y270.1614
G01 X31.8222 Y270.1880
G01 X31.8922 Y270.2111
G01 X31.9633 Y270.2308
G01 X32.0353 Y270.2469
G01 X32.1080 Y270.2596
G01 X32.1812 Y270.2686
G01 X32.2547 Y270.2740
G01 X32.3285 Y270.2758
G01 X32.4022 Y270.2740
G01 X32.4758 Y270.2686
G01 X32.5490 Y270.2596
G01 X32.6217 Y270.2469
G01 X32.6937 Y270.2308
G01 X32.7648 Y270.2111
G01 X32.8348 Y270.1880
G01 X32.9036 Y270.1614
G01 X32.9711 Y270.1315
G01 X33.0370 Y270.0984
G01 X33.1012 Y270.0620
G01 X33.1635 Y270.0225
G01 X33.2238 Y269.9801
G01 X33.2819 Y269.9347
G01 X33.3378 Y269.8865
G01 X33.3912 Y269.8356
G01 X33.4421 Y269.7822
G01 X33.4903 Y269.7263
G01 X33.5357 Y269.6682
G01 X33.5781 Y269.6079
G01 X33.6176 Y269.5456
G01 X33.6540 Y269.4814
G01 X33.6871 Y269.4155
G01 X33.7170 Y269.3480
G01 X33.7436 Y269.2792
G01 X33.7667 Y269.2092
G01 X33.7864 Y269.1381
G01 X33.8025 Y269.0661
G01 X33.8152 Y268.9934
G01 X33.8242 Y268.9202
G01 X33.8296 Y268.8466
G01 X33.8314 Y268.7729
G01 X33.8272 Y268.6606
G01 X33.8146 Y268.5489
G01 X33.7937 Y268.4385
G01 X33.7647 Y268.3299
G01 X33.7275 Y268.2238
G01 X33.6826 Y268.1208
G01 X33.6301 Y268.0214
G01 X33.5703 Y267.9263
G01 X33.5035 Y267.8358
G01 X33.4302 Y267.7506
G01 X33.3507 Y267.6712
G01 X33.2656 Y267.5979
G01 X33.1751 Y267.5311
G01 X33.0800 Y267.4713
G01 X32.9806 Y267.4188
G01 X32.8776 Y267.3739
G01 X32.7715 Y267.3367
G01 X32.6629 Y267.3076
G01 X32.5525 Y267.2868
G01 X32.4408 Y267.2742
G01 X32.3285 Y267.2700
G01 X32.2162 Y267.2742
G01 X32.1045 Y267.2868
G01 X31.9941 Y267.3076
G01 X31.8855 Y267.3367
G01 X31.7794 Y267.3739
G01 X31.6764 Y267.4188
G01 X31.5770 Y267.4713
G01 X31.4819 Y267.5311
G01 X31.3914 Y267.5979
G01 X31.3062 Y267.6712
G01 X31.2268 Y267.7506
G01 X31.1535 Y267.8358
G01 X31.0867 Y267.9263
G01 X31.0269 Y268.0214
G01 X30.9744 Y268.1208
G01 X30.9295 Y268.2238
G01 X30.8923 Y268.3299
G01 X30.8632 Y268.4385
G01 X30.8423 Y268.5489
G01 X30.8298 Y268.6606
G01 X30.8256 Y268.7729
G01 X30.8298 Y268.8852
G01 X30.8423 Y268.9969
G01 X30.8632 Y269.1073
G01 X30.8923 Y269.2159
G01 X30.9295 Y269.3220
G01 X30.9744 Y269.4250
G01 X31.0269 Y269.5244
G01 X31.0867 Y269.6195
G01 X31.1535 Y269.7100
G01 X31.2268 Y269.7951
G01 X31.3062 Y269.8746
G01 X31.3914 Y269.9479
G01 X31.4819 Y270.0147
G01 X31.5770 Y270.0745
G01 X31.6764 Y270.1270
G01 X31.7794 Y270.1719
G01 X31.8855 Y270.2091
G01 X31.9941 Y270.2381
G01 X32.1045 Y270.2590
G01 X32.2162 Y270.2716
G01 X32.3285 Y270.2758
G01 X32.4408 Y270.2716
G01 X32.5525 Y270.2590
G01 X32.6629 Y270.2381
G01 X32.7715 Y270.2091
G01 X32.8776 Y270.1719
G01 X32.9806 Y270.1270
G01 X33.0800 Y270.0745
G01 X33.1751 Y270.0147
G01 X33.2656 Y269.9479
G01 X33.3507 Y269.8746
G01 X33.4302 Y269.7951
G01 X33.5035 Y269.7100
G01 X33.5703 Y269.6195
G01 X33.6301 Y269.5244
G01 X33.6826 Y269.4250
G01 X33.7275 Y269.3220
G01 X33.7647 Y269.2159
G01 X33.7937 Y269.1073
G01 X33.8146 Y268.9969
G01 X33.8272 Y268.8852
G01 X33.8314 Y268.7729
G01 X33.8276 Y268.6747
G01 X33.8160 Y268.5771
G01 X33.7968 Y268.4807
G01 X33.7702 Y268.3862
G01 X33.7362 Y268.2940
G01 X33.6950 Y268.2047
G01 X33.6470 Y268.1190
G01 X33.5924 Y268.0373
G01 X33.5316 Y267.9601
G01 X33.4649 Y267.8880
G01 X33.3927 Y267.8213
G01 X33.3156 Y267.7604
G01 X33.2338 Y267.7058
G01 X33.1481 Y267.6578
G01 X33.0589 Y267.6167
G01 X32.9667 Y267.5827
G01 X32.8721 Y267.5560
G01 X32.7757 Y267.5368
G01 X32.6781 Y267.5253
G01 X32.5800 Y267.5214
G01 X32.4818 Y267.5253
G01 X32.3842 Y267.5368
G01 X32.2878 Y267.5560
G01 X32.1932 Y267.5827
G01 X32.1010 Y267.6167
G01 X32.0118 Y267.6578
G01 X31.9261 Y267.7058
G01 X31.8444 Y267.7604
G01 X31.7672 Y267.8213
G01 X31.6950 Y267.8880
G01 X31.6283 Y267.9601
G01 X31.5675 Y268.0373
G01 X31.5129 Y268.1190
G01 X31.4649 Y268.2047
G01 X31.4238 Y268.2940
G01 X31.3897 Y268.3862
G01 X31.3631 Y268.4807
G01 X31.3439 Y268.5771
G01 X31.3324 Y268.6747
G01 X31.3285 Y268.7729
G01 X31.3323 Y268.8601
G01 X31.3437 Y268.9465
G01 X31.3626 Y269.0317
G01 X31.3888 Y269.1149
G01 X31.4222 Y269.1955
G01 X31.4625 Y269.2729
G01 X31.5093 Y269.3465
G01 X31.5624 Y269.4157
G01 X31.6214 Y269.4800
G01 X31.6857 Y269.5389
G01 X31.7549 Y269.5920
G01 X31.8285 Y269.6389
G01 X31.9059 Y269.6792
G01 X31.9865 Y269.7126
G01 X32.0697 Y269.7388
G01 X32.1548 Y269.7577
G01 X32.2413 Y269.7691
G01 X32.3285 Y269.7729
G01 X32.4156 Y269.7691
G01 X32.5021 Y269.7577
G01 X32.5873 Y269.7388
G01 X32.6705 Y269.7126
G01 X32.7511 Y269.6792
G01 X32.8285 Y269.6389
G01 X32.9021 Y269.5920
G01 X32.9713 Y269.5389
G01 X33.0356 Y269.4800
G01 X33.0945 Y269.4157
G01 X33.1476 Y269.3465
G01 X33.1945 Y269.2729
G01 X33.2348 Y269.1955
G01 X33.2682 Y269.1149
G01 X33.2944 Y269.0317
G01 X33.3133 Y268.9465
G01 X33.3247 Y268.8601
G01 X33.3285 Y268.7729
M107
M106 S240
G01 X33.3247 Y268.6857 Z-1.1476 F400
G01 X33.3133 Y268.5992 Z-1.1701
G01 X33.2944 Y268.5141 Z-1.1927
G01 X33.2682 Y268.4309 Z-1.2153
G01 X33.2348 Y268.3503 Z-1.2378
G01 X33.1945 Y268.2729 Z-1.2604
G01 X33.1476 Y268.1993 Z-1.2830
G01 X33.0945 Y268.1301 Z-1.3056
G01 X33.0356 Y268.0658 Z-1.3281
G01 X32.9713 Y268.0069 Z-1.3507
G01 X32.9021 Y267.9537 Z-1.3733
G01 X32.8285 Y267.9069 Z-1.3958
G01 X32.7511 Y267.8666 Z-1.4184
G01 X32.6705 Y267.8332 Z-1.4410
G01 X32.5873 Y267.8070 Z-1.4635
G01 X32.5021 Y267.7881 Z-1.4861
G01 X32.4156 Y267.7767 Z-1.5087
G01 X32.3285 Y267.7729 Z-1.5313
G01 X32.2413 Y267.7767 Z-1.5538
G01 X32.1548 Y267.7881 Z-1.5764
G01 X32.0697 Y267.8070 Z-1.5990
G01 X31.9865 Y267.8332 Z-1.6215
G01 X31.9059 Y267.8666 Z-1.6441
G01 X31.8285 Y267.9069 Z-1.6667
G01 X31.7879 Y267.9316 Z-1.6790
G01 X31.7484 Y267.9583 Z-1.6913
G01 X31.7103 Y267.9868 Z-1.7036
G01 X31.6736 Y268.0171 Z-1.7159
G01 X31.6384 Y268.0492 Z-1.7282
G01 X31.6048 Y268.0828 Z-1.7405
G01 X31.5727 Y268.1180 Z-1.7528
G01 X31.5424 Y268.1547 Z-1.7652
G01 X31.5139 Y268.1928 Z-1.7775
G01 X31.4872 Y268.2323 Z-1.7898
G01 X31.4625 Y268.2729 Z-1.8021
G01 X31.4397 Y268.3147 Z-1.8144
G01 X31.4189 Y268.3575 Z-1.8267
G01 X31.4001 Y268.4012 Z-1.8390
G01 X31.3835 Y268.4458 Z-1.8513
G01 X31.3690 Y268.4912 Z-1.8636
G01 X31.3567 Y268.5371 Z-1.8759
G01 X31.3466 Y268.5836 Z-1.8883
G01 X31.3387 Y268.6306 Z-1.9006
G01 X31.3330 Y268.6778 Z-1.9129
G01 X31.3296 Y268.7253 Z-1.9252
G01 X31.3285 Y268.7729 Z-1.9375
G01 X31.3296 Y268.8205 Z-1.9498
G01 X31.3330 Y268.8680 Z-1.9621
G01 X31.3387 Y268.9152 Z-1.9744
G01 X31.3466 Y268.9621 Z-1.9867
G01 X31.3567 Y269.0087 Z-1.9991
G01 X31.3690 Y269.0546 Z-2.0114
G01 X31.3835 Y269.1000 Z-2.0237
G01 X31.4001 Y269.1446 Z-2.0360
G01 X31.4189 Y269.1883 Z-2.0483
G01 X31.4397 Y269.2311 Z-2.0606
G01 X31.4625 Y269.2729 Z-2.0729
G01 X31.4872 Y269.3135 Z-2.0852
G01 X31.5139 Y269.3530 Z-2.0975
G01 X31.5424 Y269.3911 Z-2.1098
G01 X31.5727 Y269.4278 Z-2.1222
G01 X31.6048 Y269.4630 Z-2.1345
G01 X31.6384 Y269.4966 Z-2.1468
G01 X31.6736 Y269.5286 Z-2.1591
G01 X31.7103 Y269.5589 Z-2.1714
G01 X31.7484 Y269.5875 Z-2.1837
G01 X31.7879 Y269.6141 Z-2.1960
G01 X31.8285 Y269.6389 Z-2.2083
G01 X31.8703 Y269.6617 Z-2.2206
G01 X31.9131 Y269.6825 Z-2.2330
G01 X31.9568 Y269.7013 Z-2.2453
G01 X32.0014 Y269.7179 Z-2.2576
G01 X32.0468 Y269.7324 Z-2.2699
G01 X32.0927 Y269.7447 Z-2.2822
G01 X32.1392 Y269.7548 Z-2.2945
G01 X32.1862 Y269.7627 Z-2.3068
G01 X32.2334 Y269.7684 Z-2.3191
G01 X32.2809 Y269.7718 Z-2.3314
G01 X32.3285 Y269.7729 Z-2.3438
G01 X32.3761 Y269.7718 Z-2.3561
G01 X32.4235 Y269.7684 Z-2.3684
G01 X32.4708 Y269.7627 Z-2.3807
G01 X32.5177 Y269.7548 Z-2.3930
G01 X32.5643 Y269.7447 Z-2.4053
G01 X32.6102 Y269.7324 Z-2.4176
G01 X32.6556 Y269.7179 Z-2.4299
G01 X32.7002 Y269.7013 Z-2.4422
G01 X32.7439 Y269.6825 Z-2.4545
G01 X32.7867 Y269.6617 Z-2.4669
G01 X32.8285 Y269.6389 Z-2.4792
G01 X32.8691 Y269.6141 Z-2.4915
G01 X32.9086 Y269.5875 Z-2.5038
G01 X32.9467 Y269.5589 Z-2.5161
G01 X32.9834 Y269.5286 Z-2.5284
G01 X33.0186 Y269.4966 Z-2.5407
G01 X33.0522 Y269.4630 Z-2.5530
G01 X33.0842 Y269.4278 Z-2.5653
G01 X33.1145 Y269.3911 Z-2.5777
G01 X33.1431 Y269.3530 Z-2.5900
G01 X33.1697 Y269.3135 Z-2.6023
G01 X33.1945 Y269.2729 Z-2.6146
G01 X33.2173 Y269.2311 Z-2.6269
G01 X33.2381 Y269.1883 Z-2.6392
G01 X33.2569 Y269.1446 Z-2.6515
G01 X33.2735 Y269.1000 Z-2.6638
G01 X33.2880 Y269.0546 Z-2.6761
G01 X33.3003 Y269.0087 Z-2.6884
G01 X33.3104 Y268.9621 Z-2.7008
G01 X33.3183 Y268.9152 Z-2.7131
G01 X33.3240 Y268.8680 Z-2.7254
G01 X33.3274 Y268.8205 Z-2.7377
G01 X33.3285 Y268.7729 Z-2.7500
G01 X33.3247 Y268.6857
G01 X33.3133 Y268.5992
G01 X33.2944 Y268.5141
G01 X33.2682 Y268.4309
G01 X33.2348 Y268.3503
G01 X33.1945 Y268.2729
G01 X33.1476 Y268.1993
G01 X33.0945 Y268.1301
G01 X33.0356 Y268.0658
G01 X32.9713 Y268.0069
G01 X32.9021 Y267.9537
G01 X32.8285 Y267.9069
G01 X32.7511 Y267.8666
G01 X32.6705 Y267.8332
G01 X32.5873 Y267.8070
G01 X32.5021 Y267.7881
G01 X32.4156 Y267.7767
G01 X32.3285 Y267.7729
G01 X32.2413 Y267.7767
G01 X32.1548 Y267.7881
G01 X32.0697 Y267.8070
G01 X31.9865 Y267.8332
G01 X31.9059 Y267.8666
G01 X31.8285 Y267.9069
G01 X31.7879 Y267.9316
G01 X31.7484 Y267.9583
G01 X31.7103 Y267.9868
G01 X31.6736 Y268.0171
G01 X31.6384 Y268.0492
G01 X31.6048 Y268.0828
G01 X31.5727 Y268.1180
G01 X31.5424 Y268.1547
G01 X31.5139 Y268.1928
G01 X31.4872 Y268.2323
G01 X31.4625 Y268.2729
G01 X31.4397 Y268.3147
G01 X31.4189 Y268.3575
G01 X31.4001 Y268.4012
G01 X31.3835 Y268.4458
G01 X31.3690 Y268.4912
G01 X31.3567 Y268.5371
G01 X31.3466 Y268.5836
G01 X31.3387 Y268.6306
G01 X31.3330 Y268.6778
G01 X31.3296 Y268.7253
G01 X31.3285 Y268.7729
G01 X31.3296 Y268.8205
G01 X31.3330 Y268.8680
G01 X31.3387 Y268.9152
G01 X31.3466 Y268.9621
G01 X31.3567 Y269.0087
G01 X31.3690 Y269.0546
G01 X31.3835 Y269.1000
G01 X31.4001 Y269.1446
G01 X31.4189 Y269.1883
G01 X31.4397 Y269.2311
G01 X31.4625 Y269.2729
G01 X31.4872 Y269.3135
G01 X31.5139 Y269.3530
G01 X31.5424 Y269.3911
G01 X31.5727 Y269.4278
G01 X31.6048 Y269.4630
G01 X31.6384 Y269.4966
G01 X31.6736 Y269.5286
G01 X31.7103 Y269.5589
G01 X31.7484 Y269.5875
G01 X31.7879 Y269.6141
G01 X31.8285 Y269.6389
G01 X31.8703 Y269.6617
G01 X31.9131 Y269.6825
G01 X31.9568 Y269.7013
G01 X32.0014 Y269.7179
G01 X32.0468 Y269.7324
G01 X32.0927 Y269.7447
G01 X32.1392 Y269.7548
G01 X32.1862 Y269.7627
G01 X32.2334 Y269.7684
G01 X32.2809 Y269.7718
G01 X32.3285 Y269.7729
G01 X32.3761 Y269.7718
G01 X32.4235 Y269.7684
G01 X32.4708 Y269.7627
G01 X32.5177 Y269.7548
G01 X32.5643 Y269.7447
G01 X32.6102 Y269.7324
G01 X32.6556 Y269.7179
G01 X32.7002 Y269.7013
G01 X32.7439 Y269.6825
G01 X32.7867 Y269.6617
G01 X32.8285 Y269.6389
G01 X32.8691 Y269.6141
G01 X32.9086 Y269.5875
G01 X32.9467 Y269.5589
G01 X32.9834 Y269.5286
G01 X33.0186 Y269.4966
G01 X33.0522 Y269.4630
G01 X33.0842 Y269.4278
G01 X33.1145 Y269.3911
G01 X33.1431 Y269.3530
G01 X33.1697 Y269.3135
G01 X33.1945 Y269.2729
G01 X33.2173 Y269.2311
G01 X33.2381 Y269.1883
G01 X33.2569 Y269.1446
G01 X33.2735 Y269.1000
G01 X33.2880 Y269.0546
G01 X33.3003 Y269.0087
G01 X33.3104 Y268.9621
G01 X33.3183 Y268.9152
G01 X33.3240 Y268.8680
G01 X33.3274 Y268.8205
G01 X33.3285 Y268.7729
G01 X33.3392 Y268.7213 F1000
G01 X33.3473 Y268.6692
G01 X33.3527 Y268.6168
G01 X33.3554 Y268.5642
G01 X33.3553 Y268.5115
G01 X33.3526 Y268.4588
G01 X33.3471 Y268.4064
G01 X33.3390 Y268.3543
G01 X33.3273 Y268.2984
G01 X33.3127 Y268.2430
G01 X33.2953 Y268.1885
G01 X33.2752 Y268.1350
G01 X33.2524 Y268.0826
G01 X33.2269 Y268.0314
G01 X33.1988 Y267.9815
G01 X33.1682 Y267.9332
G01 X33.1326 Y267.8828
G01 X33.0944 Y267.8343
G01 X33.0539 Y267.7878
G01 X33.0111 Y267.7434
G01 X32.9660 Y267.7012
G01 X32.9189 Y267.6614
G01 X32.8697 Y267.6240
G01 X32.8188 Y267.5892
G01 X32.7623 Y267.5546
G01 X32.7041 Y267.5229
G01 X32.6444 Y267.4943
G01 X32.5834 Y267.4686
G01 X32.5211 Y267.4461
G01 X32.4577 Y267.4268
G01 X32.3935 Y267.4107
G01 X32.3285 Y267.3979
G01 X32.2585 Y267.3877
G01 X32.1880 Y267.3811
G01 X32.1173 Y267.3780
G01 X32.0465 Y267.3785
G01 X31.9759 Y267.3825
G01 X31.9055 Y267.3901
G01 X31.8357 Y267.4013
G01 X31.7664 Y267.4159
G01 X31.6980 Y267.4416
G01 X31.6310 Y267.4706
G01 X31.5654 Y267.5029
G01 X31.5016 Y267.5383
G01 X31.4395 Y267.5769
G01 X31.3794 Y267.6184
G01 X31.3215 Y267.6629
G01 X31.2658 Y267.7102
G01 X31.2149 Y267.7636
G01 X31.1667 Y267.8194
G01 X31.1213 Y267.8776
G01 X31.0789 Y267.9379
G01 X31.0394 Y268.0002
G01 X31.0030 Y268.0644
G01 X30.9699 Y268.1303
G01 X30.9400 Y268.1977
G01 X30.9134 Y268.2666
G01 X30.8903 Y268.3366
G01 X30.8706 Y268.4077
G01 X30.8544 Y268.4797
G01 X30.8418 Y268.5524
G01 X30.8328 Y268.6256
G01 X30.8274 Y268.6992
G01 X30.8256 Y268.7729
G01 X30.8274 Y268.8466
G01 X30.8328 Y268.9202
G01 X30.8418 Y268.9934
G01 X30.8544 Y269.0661
G01 X30.8706 Y269.1381
G01 X30.8903 Y269.2092
G01 X30.9134 Y269.2792
G01 X30.9400 Y269.3480
G01 X30.9699 Y269.4155
G01 X31.0030 Y269.4814
G01 X31.0394 Y269.5456
G01 X31.0789 Y269.6079
G01 X31.1213 Y269.6682
G01 X31.1667 Y269.7263
G01 X31.2149 Y269.7822
G01 X31.2658 Y269.8356
G01 X31.3192 Y269.8865
G01 X31.3750 Y269.9347
G01 X31.4332 Y269.9801
G01 X31.4935 Y270.0225
G01 X31.5558 Y270.0620
G01 X31.6200 Y270.0984
G01 X31.6859 Y270.1315
G01 X31.7533 Y270.1614
G01 X31.8222 Y270.1880
G01 X31.8922 Y270.2111
G01 X31.9633 Y270.2308
G01 X32.0353 Y270.2469
G01 X32.1080 Y270.2596
G01 X32.1812 Y270.2686
G01 X32.2547 Y270.2740
G01 X32.3285 Y270.2758
G01 X32.4022 Y270.2740
G01 X32.4758 Y270.2686
G01 X32.5490 Y270.2596
G01 X32.6217 Y270.2469
G01 X32.6937 Y270.2308
G01 X32.7648 Y270.2111
G01 X32.8348 Y270.1880
G01 X32.9036 Y270.1614
G01 X32.9711 Y270.1315
G01 X33.0370 Y270.0984
G01 X33.1012 Y270.0620
G01 X33.1635 Y270.0225
G01 X33.2238 Y269.9801
G01 X33.2819 Y269.9347
G01 X33.3378 Y269.8865
G01 X33.3912 Y269.8356
G01 X33.4421 Y269.7822
G01 X33.4903 Y269.7263
G01 X33.5357 Y269.6682
G01 X33.5781 Y269.6079
G01 X33.6176 Y269.5456
G01 X33.6540 Y269.4814
G01 X33.6871 Y269.4155
G01 X33.7170 Y269.3480
G01 X33.7436 Y269.2792
G01 X33.7667 Y269.2092
G01 X33.7864 Y269.1381
G01 X33.8025 Y269.0661
G01 X33.8152 Y268.9934
G01 X33.8242 Y268.9202
G01 X33.8296 Y268.8466
G01 X33.8314 Y268.7729
G01 X33.8272 Y268.6606
G01 X33.8146 Y268.5489
G01 X33.7937 Y268.4385
G01 X33.7647 Y268.3299
G01 X33.7275 Y268.2238
G01 X33.6826 Y268.1208
G01 X33.6301 Y268.0214
G01 X33.5703 Y267.9263
G01 X33.5035 Y267.8358
G01 X33.4302 Y267.7506
G01 X33.3507 Y267.6712
G01 X33.2656 Y267.5979
G01 X33.1751 Y267.5311
G01 X33.0800 Y267.4713
G01 X32.9806 Y267.4188
G01 X32.8776 Y267.3739
G01 X32.7715 Y267.3367
G01 X32.6629 Y267.3076
G01 X32.5525 Y267.2868
G01 X32.4408 Y267.2742
G01 X32.3285 Y267.2700
G01 X32.2162 Y267.2742
G01 X32.1045 Y267.2868
G01 X31.9941 Y267.3076
G01 X31.8855 Y267.3367
G01 X31.7794 Y267.3739
G01 X31.6764 Y267.4188
G01 X31.5770 Y267.4713
G01 X31.4819 Y267.5311
G01 X31.3914 Y267.5979
G01 X31.3062 Y267.6712
G01 X31.2268 Y267.7506
G01 X31.1535 Y267.8358
G01 X31.0867 Y267.9263
G01 X31.0269 Y268.0214
G01 X30.9744 Y268.1208
G01 X30.9295 Y268.2238
G01 X30.8923 Y268.3299
G01 X30.8632 Y268.4385
G01 X30.8423 Y268.5489
G01 X30.8298 Y268.6606
G01 X30.8256 Y268.7729
G01 X30.8298 Y268.8852
G01 X30.8423 Y268.9969
G01 X30.8632 Y269.1073
G01 X30.8923 Y269.2159
G01 X30.9295 Y269.3220
G01 X30.9744 Y269.4250
G01 X31.0269 Y269.5244
G01 X31.0867 Y269.6195
G01 X31.1535 Y269.7100
G01 X31.2268 Y269.7951
G01 X31.3062 Y269.8746
G01 X31.3914 Y269.9479
G01 X31.4819 Y270.0147
G01 X31.5770 Y270.0745
G01 X31.6764 Y270.1270
G01 X31.7794 Y270.1719
G01 X31.8855 Y270.2091
G01 X31.9941 Y270.2381
G01 X32.1045 Y270.2590
G01 X32.2162 Y270.2716
G01 X32.3285 Y270.2758
G01 X32.4408 Y270.2716
G01 X32.5525 Y270.2590
G01 X32.6629 Y270.2381
G01 X32.7715 Y270.2091
G01 X32.8776 Y270.1719
G01 X32.9806 Y270.1270
G01 X33.0800 Y270.0745
G01 X33.1751 Y270.0147
G01 X33.2656 Y269.9479
G01 X33.3507 Y269.8746
G01 X33.4302 Y269.7951
G01 X33.5035 Y269.7100
G01 X33.5703 Y269.6195
G01 X33.6301 Y269.5244
G01 X33.6826 Y269.4250
G01 X33.7275 Y269.3220
G01 X33.7647 Y269.2159
G01 X33.7937 Y269.1073
G01 X33.8146 Y268.9969
G01 X33.8272 Y268.8852
G01 X33.8314 Y268.7729
G01 X33.8276 Y268.6747
G01 X33.8160 Y268.5771
G01 X33.7968 Y268.4807
G01 X33.7702 Y268.3862
G01 X33.7362 Y268.2940
G01 X33.6950 Y268.2047
G01 X33.6470 Y268.1190
G01 X33.5924 Y268.0373
G01 X33.5316 Y267.9601
G01 X33.4649 Y267.8880
G01 X33.3927 Y267.8213
G01 X33.3156 Y267.7604
G01 X33.2338 Y267.7058
G01 X33.1481 Y267.6578
G01 X33.0589 Y267.6167
G01 X32.9667 Y267.5827
G01 X32.8721 Y267.5560
G01 X32.7757 Y267.5368
G01 X32.6781 Y267.5253
G01 X32.5800 Y267.5214
G01 X32.4818 Y267.5253
G01 X32.3842 Y267.5368
G01 X32.2878 Y267.5560
G01 X32.1932 Y267.5827
G01 X32.1010 Y267.6167
G01 X32.0118 Y267.6578
G01 X31.9261 Y267.7058
G01 X31.8444 Y267.7604
G01 X31.7672 Y267.8213
G01 X31.6950 Y267.8880
G01 X31.6283 Y267.9601
G01 X31.5675 Y268.0373
G01 X31.5129 Y268.1190
G01 X31.4649 Y268.2047
G01 X31.4238 Y268.2940
G01 X31.3897 Y268.3862
G01 X31.3631 Y268.4807
G01 X31.3439 Y268.5771
G01 X31.3324 Y268.6747
G01 X31.3285 Y268.7729
G01 X31.3323 Y268.8601
G01 X31.3437 Y268.9465
G01 X31.3626 Y269.0317
G01 X31.3888 Y269.1149
G01 X31.4222 Y269.1955
G01 X31.4625 Y269.2729
G01 X31.5093 Y269.3465
G01 X31.5624 Y269.4157
G01 X31.6214 Y269.4800
G01 X31.6857 Y269.5389
G01 X31.7549 Y269.5920
G01 X31.8285 Y269.6389
G01 X31.9059 Y269.6792
G01 X31.9865 Y269.7126
G01 X32.0697 Y269.7388
G01 X32.1548 Y269.7577
G01 X32.2413 Y269.7691
G01 X32.3285 Y269.7729
G01 X32.4156 Y269.7691
G01 X32.5021 Y269.7577
G01 X32.5873 Y269.7388
G01 X32.6705 Y269.7126
G01 X32.7511 Y269.6792
G01 X32.8285 Y269.6389
G01 X32.9021 Y269.5920
G01 X32.9713 Y269.5389
G01 X33.0356 Y269.4800
G01 X33.0945 Y269.4157
G01 X33.1476 Y269.3465
G01 X33.1945 Y269.2729
G01 X33.2348 Y269.1955
G01 X33.2682 Y269.1149
G01 X33.2944 Y269.0317
G01 X33.3133 Y268.9465
G01 X33.3247 Y268.8601
G01 X33.3285 Y268.7729
M107
M106 S240
G01 X33.3247 Y268.6857 Z-2.7726 F400
G01 X33.3133 Y268.5992 Z-2.7951
G01 X33.2944 Y268.5141 Z-2.8177
G01 X33.2682 Y268.4309 Z-2.8403
G01 X33.2348 Y268.3503 Z-2.8628
G01 X33.1945 Y268.2729 Z-2.8854
G01 X33.1476 Y268.1993 Z-2.9080
G01 X33.0945 Y268.1301 Z-2.9306
G01 X33.0356 Y268.0658 Z-2.9531
G01 X32.9713 Y268.0069 Z-2.9757
G01 X32.9021 Y267.9537 Z-2.9983
G01 X32.8285 Y267.9069 Z-3.0208
G01 X32.7511 Y267.8666 Z-3.0434
G01 X32.6705 Y267.8332 Z-3.0660
G01 X32.5873 Y267.8070 Z-3.0885
G01 X32.5021 Y267.7881 Z-3.1111
G01 X32.4156 Y267.7767 Z-3.1337
G01 X32.3285 Y267.7729 Z-3.1563
G01 X32.2413 Y267.7767 Z-3.1788
G01 X32.1548 Y267.7881 Z-3.2014
G01 X32.0697 Y267.8070 Z-3.2240
G01 X31.9865 Y267.8332 Z-3.2465
G01 X31.9059 Y267.8666 Z-3.2691
G01 X31.8285 Y267.9069 Z-3.2917
G01 X31.7879 Y267.9316 Z-3.3040
G01 X31.7484 Y267.9583 Z-3.3163
G01 X31.7103 Y267.9868 Z-3.3286
G01 X31.6736 Y268.0171 Z-3.3409
G01 X31.6384 Y268.0492 Z-3.3532
G01 X31.6048 Y268.0828 Z-3.3655
G01 X31.5727 Y268.1180 Z-3.3778
G01 X31.5424 Y268.1547 Z-3.3902
G01 X31.5139 Y268.1928 Z-3.4025
G01 X31.4872 Y268.2323 Z-3.4148
G01 X31.4625 Y268.2729 Z-3.4271
G01 X31.4397 Y268.3147 Z-3.4394
G01 X31.4189 Y268.3575 Z-3.4517
G01 X31.4001 Y268.4012 Z-3.4640
G01 X31.3835 Y268.4458 Z-3.4763
G01 X31.3690 Y268.4912 Z-3.4886
G01 X31.3567 Y268.5371 Z-3.5009
G01 X31.3466 Y268.5836 Z-3.5133
G01 X31.3387 Y268.6306 Z-3.5256
G01 X31.3330 Y268.6778 Z-3.5379
G01 X31.3296 Y268.7253 Z-3.5502
G01 X31.3285 Y268.7729 Z-3.5625
G01 X31.3296 Y268.8205 Z-3.5748
G01 X31.3330 Y268.8680 Z-3.5871
G01 X31.3387 Y268.9152 Z-3.5994
G01 X31.3466 Y268.9621 Z-3.6117
G01 X31.3567 Y269.0087 Z-3.6241
G01 X31.3690 Y269.0546 Z-3.6364
G01 X31.3835 Y269.1000 Z-3.6487
G01 X31.4001 Y269.1446 Z-3.6610
G01 X31.4189 Y269.1883 Z-3.6733
G01 X31.4397 Y269.2311 Z-3.6856
G01 X31.4625 Y269.2729 Z-3.6979
G01 X31.4872 Y269.3135 Z-3.7102
G01 X31.5139 Y269.3530 Z-3.7225
G01 X31.5424 Y269.3911 Z-3.7348
G01 X31.5727 Y269.4278 Z-3.7472
G01 X31.6048 Y269.4630 Z-3.7595
G01 X31.6384 Y269.4966 Z-3.7718
G01 X31.6736 Y269.5286 Z-3.7841
G01 X31.7103 Y269.5589 Z-3.7964
G01 X31.7484 Y269.5875 Z-3.8087
G01 X31.7879 Y269.6141 Z-3.8210
G01 X31.8285 Y269.6389 Z-3.8333
G01 X31.8703 Y269.6617 Z-3.8456
G01 X31.9131 Y269.6825 Z-3.8580
G01 X31.9568 Y269.7013 Z-3.8703
G01 X32.0014 Y269.7179 Z-3.8826
G01 X32.0468 Y269.7324 Z-3.8949
G01 X32.0927 Y269.7447 Z-3.9072
G01 X32.1392 Y269.7548 Z-3.9195
G01 X32.1862 Y269.7627 Z-3.9318
G01 X32.2334 Y269.7684 Z-3.9441
G01 X32.2809 Y269.7718 Z-3.9564
G01 X32.3285 Y269.7729 Z-3.9688
G01 X32.3761 Y269.7718 Z-3.9811
G01 X32.4235 Y269.7684 Z-3.9934
G01 X32.4708 Y269.7627 Z-4.0057
G01 X32.5177 Y269.7548 Z-4.0180
G01 X32.5643 Y269.7447 Z-4.0303
G01 X32.6102 Y269.7324 Z-4.0426
G01 X32.6556 Y269.7179 Z-4.0549
G01 X32.7002 Y269.7013 Z-4.0672
G01 X32.7439 Y269.6825 Z-4.0795
G01 X32.7867 Y269.6617 Z-4.0919
G01 X32.8285 Y269.6389 Z-4.1042
G01 X32.8691 Y269.6141 Z-4.1165
G01 X32.9086 Y269.5875 Z-4.1288
G01 X32.9467 Y269.5589 Z-4.1411
G01 X32.9834 Y269.5286 Z-4.1534
G01 X33.0186 Y269.4966 Z-4.1657
G01 X33.0522 Y269.4630 Z-4.1780
G01 X33.0842 Y269.4278 Z-4.1903
G01 X33.1145 Y269.3911 Z-4.2027
G01 X33.1431 Y269.3530 Z-4.2150
G01 X33.1697 Y269.3135 Z-4.2273
G01 X33.1945 Y269.2729 Z-4.2396
G01 X33.2173 Y269.2311 Z-4.2519
G01 X33.2381 Y269.1883 Z-4.2642
G01 X33.2569 Y269.1446 Z-4.2765
G01 X33.2735 Y269.1000 Z-4.2888
G01 X33.2880 Y269.0546 Z-4.3011
G01 X33.3003 Y269.0087 Z-4.3134
G01 X33.3104 Y268.9621 Z-4.3258
G01 X33.3183 Y268.9152 Z-4.3381
G01 X33.3240 Y268.8680 Z-4.3504
G01 X33.3274 Y268.8205 Z-4.3627
G01 X33.3285 Y268.7729 Z-4.3750
G01 X33.3247 Y268.6857
G01 X33.3133 Y268.5992
G01 X33.2944 Y268.5141
G01 X33.2682 Y268.4309
G01 X33.2348 Y268.3503
G01 X33.1945 Y268.2729
G01 X33.1476 Y268.1993
G01 X33.0945 Y268.1301
G01 X33.0356 Y268.0658
G01 X32.9713 Y268.0069
G01 X32.9021 Y267.9537
G01 X32.8285 Y267.9069
G01 X32.7511 Y267.8666
G01 X32.6705 Y267.8332
G01 X32.5873 Y267.8070
G01 X32.5021 Y267.7881
G01 X32.4156 Y267.7767
G01 X32.3285 Y267.7729
G01 X32.2413 Y267.7767
G01 X32.1548 Y267.7881
G01 X32.0697 Y267.8070
G01 X31.9865 Y267.8332
G01 X31.9059 Y267.8666
G01 X31.8285 Y267.9069
G01 X31.7879 Y267.9316
G01 X31.7484 Y267.9583
G01 X31.7103 Y267.9868
G01 X31.6736 Y268.0171
G01 X31.6384 Y268.0492
G01 X31.6048 Y268.0828
G01 X31.5727 Y268.1180
G01 X31.5424 Y268.1547
G01 X31.5139 Y268.1928
G01 X31.4872 Y268.2323
G01 X31.4625 Y268.2729
G01 X31.4397 Y268.3147
G01 X31.4189 Y268.3575
G01 X31.4001 Y268.4012
G01 X31.3835 Y268.4458
G01 X31.3690 Y268.4912
G01 X31.3567 Y268.5371
G01 X31.3466 Y268.5836
G01 X31.3387 Y268.6306
G01 X31.3330 Y268.6778
G01 X31.3296 Y268.7253
G01 X31.3285 Y268.7729
G01 X31.3296 Y268.8205
G01 X31.3330 Y268.8680
G01 X31.3387 Y268.9152
G01 X31.3466 Y268.9621
G01 X31.3567 Y269.0087
G01 X31.3690 Y269.0546
G01 X31.3835 Y269.1000
G01 X31.4001 Y269.1446
G01 X31.4189 Y269.1883
G01 X31.4397 Y269.2311
G01 X31.4625 Y269.2729
G01 X31.4872 Y269.3135
G01 X31.5139 Y269.3530
G01 X31.5424 Y269.3911
G01 X31.5727 Y269.4278
G01 X31.6048 Y269.4630
G01 X31.6384 Y269.4966
G01 X31.6736 Y269.5286
G01 X31.7103 Y269.5589
G01 X31.7484 Y269.5875
G01 X31.7879 Y269.6141
G01 X31.8285 Y269.6389
G01 X31.8703 Y269.6617
G01 X31.9131 Y269.6825
G01 X31.9568 Y269.7013
G01 X32.0014 Y269.7179
G01 X32.0468 Y269.7324
G01 X32.0927 Y269.7447
G01 X32.1392 Y269.7548
G01 X32.1862 Y269.7627
G01 X32.2334 Y269.7684
G01 X32.2809 Y269.7718
G01 X32.3285 Y269.7729
G01 X32.3761 Y269.7718
G01 X32.4235 Y269.7684
G01 X32.4708 Y269.7627
G01 X32.5177 Y269.7548
G01 X32.5643 Y269.7447
G01 X32.6102 Y269.7324
G01 X32.6556 Y269.7179
G01 X32.7002 Y269.7013
G01 X32.7439 Y269.6825
G01 X32.7867 Y269.6617
G01 X32.8285 Y269.6389
G01 X32.8691 Y269.6141
G01 X32.9086 Y269.5875
G01 X32.9467 Y269.5589
G01 X32.9834 Y269.5286
G01 X33.0186 Y269.4966
G01 X33.0522 Y269.4630
G01 X33.0842 Y269.4278
G01 X33.1145 Y269.3911
G01 X33.1431 Y269.3530
G01 X33.1697 Y269.3135
G01 X33.1945 Y269.2729
G01 X33.2173 Y269.2311
G01 X33.2381 Y269.1883
G01 X33.2569 Y269.1446
G01 X33.2735 Y269.1000
G01 X33.2880 Y269.0546
G01 X33.3003 Y269.0087
G01 X33.3104 Y268.9621
G01 X33.3183 Y268.9152
G01 X33.3240 Y268.8680
G01 X33.3274 Y268.8205
G01 X33.3285 Y268.7729
G01 X33.3392 Y268.7213 F1000
G01 X33.3473 Y268.6692
G01 X33.3527 Y268.6168
G01 X33.3554 Y268.5642
G01 X33.3553 Y268.5115
G01 X33.3526 Y268.4588
G01 X33.3471 Y268.4064
G01 X33.3390 Y268.3543
G01 X33.3273 Y268.2984
G01 X33.3127 Y268.2430
G01 X33.2953 Y268.1885
G01 X33.2752 Y268.1350
G01 X33.2524 Y268.0826
G01 X33.2269 Y268.0314
G01 X33.1988 Y267.9815
G01 X33.1682 Y267.9332
G01 X33.1326 Y267.8828
G01 X33.0944 Y267.8343
G01 X33.0539 Y267.7878
G01 X33.0111 Y267.7434
G01 X32.9660 Y267.7012
G01 X32.9189 Y267.6614
G01 X32.8697 Y267.6240
G01 X32.8188 Y267.5892
G01 X32.7623 Y267.5546
G01 X32.7041 Y267.5229
G01 X32.6444 Y267.4943
G01 X32.5834 Y267.4686
G01 X32.5211 Y267.4461
G01 X32.4577 Y267.4268
G01 X32.3935 Y267.4107
G01 X32.3285 Y267.3979
G01 X32.2585 Y267.3877
G01 X32.1880 Y267.3811
G01 X32.1173 Y267.3780
G01 X32.0465 Y267.3785
G01 X31.9759 Y267.3825
G01 X31.9055 Y267.3901
G01 X31.8357 Y267.4013
G01 X31.7664 Y267.4159
G01 X31.6980 Y267.4416
G01 X31.6310 Y267.4706
G01 X31.5654 Y267.5029
G01 X31.5016 Y267.5383
G01 X31.4395 Y267.5769
G01 X31.3794 Y267.6184
G01 X31.3215 Y267.6629
G01 X31.2658 Y267.7102
G01 X31.2149 Y267.7636
G01 X31.1667 Y267.8194
G01 X31.1213 Y267.8776
G01 X31.0789 Y267.9379
G01 X31.0394 Y268.0002
G01 X31.0030 Y268.0644
G01 X30.9699 Y268.1303
G01 X30.9400 Y268.1977
G01 X30.9134 Y268.2666
G01 X30.8903 Y268.3366
G01 X30.8706 Y268.4077
G01 X30.8544 Y268.4797
G01 X30.8418 Y268.5524
G01 X30.8328 Y268.6256
G01 X30.8274 Y268.6992
G01 X30.8256 Y268.7729
G01 X30.8274 Y268.8466
G01 X30.8328 Y268.9202
G01 X30.8418 Y268.9934
G01 X30.8544 Y269.0661
G01 X30.8706 Y269.1381
G01 X30.8903 Y269.2092
G01 X30.9134 Y269.2792
G01 X30.9400 Y269.3480
G01 X30.9699 Y269.4155
G01 X31.0030 Y269.4814
G01 X31.0394 Y269.5456
G01 X31.0789 Y269.6079
G01 X31.1213 Y269.6682
G01 X31.1667 Y269.7263
G01 X31.2149 Y269.7822
G01 X31.2658 Y269.8356
G01 X31.3192 Y269.8865
G01 X31.3750 Y269.9347
G01 X31.4332 Y269.9801
G01 X31.4935 Y270.0225
G01 X31.5558 Y270.0620
G01 X31.6200 Y270.0984
G01 X31.6859 Y270.1315
G01 X31.7533 Y270.1614
G01 X31.8222 Y270.1880
G01 X31.8922 Y270.2111
G01 X31.9633 Y270.2308
G01 X32.0353 Y270.2469
G01 X32.1080 Y270.2596
G01 X32.1812 Y270.2686
G01 X32.2547 Y270.2740
G01 X32.3285 Y270.2758
G01 X32.4022 Y270.2740
G01 X32.4758 Y270.2686
G01 X32.5490 Y270.2596
G01 X32.6217 Y270.2469
G01 X32.6937 Y270.2308
G01 X32.7648 Y270.2111
G01 X32.8348 Y270.1880
G01 X32.9036 Y270.1614
G01 X32.9711 Y270.1315
G01 X33.0370 Y270.0984
G01 X33.1012 Y270.0620
G01 X33.1635 Y270.0225
G01 X33.2238 Y269.9801
G01 X33.2819 Y269.9347
G01 X33.3378 Y269.8865
G01 X33.3912 Y269.8356
G01 X33.4421 Y269.7822
G01 X33.4903 Y269.7263
G01 X33.5357 Y269.6682
G01 X33.5781 Y269.6079
G01 X33.6176 Y269.5456
G01 X33.6540 Y269.4814
G01 X33.6871 Y269.4155
G01 X33.7170 Y269.3480
G01 X33.7436 Y269.2792
G01 X33.7667 Y269.2092
G01 X33.7864 Y269.1381
G01 X33.8025 Y269.0661
G01 X33.8152 Y268.9934
G01 X33.8242 Y268.9202
G01 X33.8296 Y268.8466
G01 X33.8314 Y268.7729
G01 X33.8272 Y268.6606
G01 X33.8146 Y268.5489
G01 X33.7937 Y268.4385
G01 X33.7647 Y268.3299
G01 X33.7275 Y268.2238
G01 X33.6826 Y268.1208
G01 X33.6301 Y268.0214
G01 X33.5703 Y267.9263
G01 X33.5035 Y267.8358
G01 X33.4302 Y267.7506
G01 X33.3507 Y267.6712
G01 X33.2656 Y267.5979
G01 X33.1751 Y267.5311
G01 X33.0800 Y267.4713
G01 X32.9806 Y267.4188
G01 X32.8776 Y267.3739
G01 X32.7715 Y267.3367
G01 X32.6629 Y267.3076
G01 X32.5525 Y267.2868
G01 X32.4408 Y267.2742
G01 X32.3285 Y267.2700
G01 X32.2162 Y267.2742
G01 X32.1045 Y267.2868
G01 X31.9941 Y267.3076
G01 X31.8855 Y267.3367
G01 X31.7794 Y267.3739
G01 X31.6764 Y267.4188
G01 X31.5770 Y267.4713
G01 X31.4819 Y267.5311
G01 X31.3914 Y267.5979
G01 X31.3062 Y267.6712
G01 X31.2268 Y267.7506
G01 X31.1535 Y267.8358
G01 X31.0867 Y267.9263
G01 X31.0269 Y268.0214
G01 X30.9744 Y268.1208
G01 X30.9295 Y268.2238
G01 X30.8923 Y268.3299
G01 X30.8632 Y268.4385
G01 X30.8423 Y268.5489
G01 X30.8298 Y268.6606
G01 X30.8256 Y268.7729
G01 X30.8298 Y268.8852
G01 X30.8423 Y268.9969
G01 X30.8632 Y269.1073
G01 X30.8923 Y269.2159
G01 X30.9295 Y269.3220
G01 X30.9744 Y269.4250
G01 X31.0269 Y269.5244
G01 X31.0867 Y269.6195
G01 X31.1535 Y269.7100
G01 X31.2268 Y269.7951
G01 X31.3062 Y269.8746
G01 X31.3914 Y269.9479
G01 X31.4819 Y270.0147
G01 X31.5770 Y270.0745
G01 X31.6764 Y270.1270
G01 X31.7794 Y270.1719
G01 X31.8855 Y270.2091
G01 X31.9941 Y270.2381
G01 X32.1045 Y270.2590
G01 X32.2162 Y270.2716
G01 X32.3285 Y270.2758
G01 X32.4408 Y270.2716
G01 X32.5525 Y270.2590
G01 X32.6629 Y270.2381
G01 X32.7715 Y270.2091
G01 X32.8776 Y270.1719
G01 X32.9806 Y270.1270
G01 X33.0800 Y270.0745
G01 X33.1751 Y270.0147
G01 X33.2656 Y269.9479
G01 X33.3507 Y269.8746
G01 X33.4302 Y269.7951
G01 X33.5035 Y269.7100
G01 X33.5703 Y269.6195
G01 X33.6301 Y269.5244
G01 X33.6826 Y269.4250
G01 X33.7275 Y269.3220
G01 X33.7647 Y269.2159
G01 X33.7937 Y269.1073
G01 X33.8146 Y268.9969
G01 X33.8272 Y268.8852
G01 X33.8314 Y268.7729
G01 X33.8276 Y268.6747
G01 X33.8160 Y268.5771
G01 X33.7968 Y268.4807
G01 X33.7702 Y268.3862
G01 X33.7362 Y268.2940
G01 X33.6950 Y268.2047
G01 X33.6470 Y268.1190
G01 X33.5924 Y268.0373
G01 X33.5316 Y267.9601
G01 X33.4649 Y267.8880
G01 X33.3927 Y267.8213
G01 X33.3156 Y267.7604
G01 X33.2338 Y267.7058
G01 X33.1481 Y267.6578
G01 X33.0589 Y267.6167
G01 X32.9667 Y267.5827
G01 X32.8721 Y267.5560
G01 X32.7757 Y267.5368
G01 X32.6781 Y267.5253
G01 X32.5800 Y267.5214
G01 X32.4818 Y267.5253
G01 X32.3842 Y267.5368
G01 X32.2878 Y267.5560
G01 X32.1932 Y267.5827
G01 X32.1010 Y267.6167
G01 X32.0118 Y267.6578
G01 X31.9261 Y267.7058
G01 X31.8444 Y267.7604
G01 X31.7672 Y267.8213
G01 X31.6950 Y267.8880
G01 X31.6283 Y267.9601
G01 X31.5675 Y268.0373
G01 X31.5129 Y268.1190
G01 X31.4649 Y268.2047
G01 X31.4238 Y268.2940
G01 X31.3897 Y268.3862
G01 X31.3631 Y268.4807
G01 X31.3439 Y268.5771
G01 X31.3324 Y268.6747
G01 X31.3285 Y268.7729
G01 X31.3323 Y268.8601
G01 X31.3437 Y268.9465
G01 X31.3626 Y269.0317
G01 X31.3888 Y269.1149
G01 X31.4222 Y269.1955
G01 X31.4625 Y269.2729
G01 X31.5093 Y269.3465
G01 X31.5624 Y269.4157
G01 X31.6214 Y269.4800
G01 X31.6857 Y269.5389
G01 X31.7549 Y269.5920
G01 X31.8285 Y269.6389
G01 X31.9059 Y269.6792
G01 X31.9865 Y269.7126
G01 X32.0697 Y269.7388
G01 X32.1548 Y269.7577
G01 X32.2413 Y269.7691
G01 X32.3285 Y269.7729
G01 X32.4156 Y269.7691
G01 X32.5021 Y269.7577
G01 X32.5873 Y269.7388
G01 X32.6705 Y269.7126
G01 X32.7511 Y269.6792
G01 X32.8285 Y269.6389
G01 X32.9021 Y269.5920
G01 X32.9713 Y269.5389
G01 X33.0356 Y269.4800
G01 X33.0945 Y269.4157
G01 X33.1476 Y269.3465
G01 X33.1945 Y269.2729
G01 X33.2348 Y269.1955
G01 X33.2682 Y269.1149
G01 X33.2944 Y269.0317
G01 X33.3133 Y268.9465
G01 X33.3247 Y268.8601
G01 X33.3285 Y268.7729
M107
M106 S240
G01 X33.3247 Y268.6857 Z-4.3976 F400
G01 X33.3133 Y268.5992 Z-4.4201
G01 X33.2944 Y268.5141 Z-4.4427
G01 X33.2682 Y268.4309 Z-4.4653
G01 X33.2348 Y268.3503 Z-4.4878
G01 X33.1945 Y268.2729 Z-4.5104
G01 X33.1476 Y268.1993 Z-4.5330
G01 X33.0945 Y268.1301 Z-4.5556
G01 X33.0356 Y268.0658 Z-4.5781
G01 X32.9713 Y268.0069 Z-4.6007
G01 X32.9021 Y267.9537 Z-4.6233
G01 X32.8285 Y267.9069 Z-4.6458
G01 X32.7511 Y267.8666 Z-4.6684
G01 X32.6705 Y267.8332 Z-4.6910
G01 X32.5873 Y267.8070 Z-4.7135
G01 X32.5021 Y267.7881 Z-4.7361
G01 X32.4156 Y267.7767 Z-4.7587
G01 X32.3285 Y267.7729 Z-4.7813
G01 X32.2413 Y267.7767 Z-4.8038
G01 X32.1548 Y267.7881 Z-4.8264
G01 X32.0697 Y267.8070 Z-4.8490
G01 X31.9865 Y267.8332 Z-4.8715
G01 X31.9059 Y267.8666 Z-4.8941
G01 X31.8285 Y267.9069 Z-4.9167
G01 X31.7879 Y267.9316 Z-4.9290
G01 X31.7484 Y267.9583 Z-4.9413
G01 X31.7103 Y267.9868 Z-4.9536
G01 X31.6736 Y268.0171 Z-4.9659
G01 X31.6384 Y268.0492 Z-4.9782
G01 X31.6048 Y268.0828 Z-4.9905
G01 X31.5727 Y268.1180 Z-5.0028
G01 X31.5424 Y268.1547 Z-5.0152
G01 X31.5139 Y268.1928 Z-5.0275
G01 X31.4872 Y268.2323 Z-5.0398
G01 X31.4625 Y268.2729 Z-5.0521
G01 X31.4397 Y268.3147 Z-5.0644
G01 X31.4189 Y268.3575 Z-5.0767
G01 X31.4001 Y268.4012 Z-5.0890
G01 X31.3835 Y268.4458 Z-5.1013
G01 X31.3690 Y268.4912 Z-5.1136
G01 X31.3567 Y268.5371 Z-5.1259
G01 X31.3466 Y268.5836 Z-5.1383
G01 X31.3387 Y268.6306 Z-5.1506
G01 X31.3330 Y268.6778 Z-5.1629
G01 X31.3296 Y268.7253 Z-5.1752
G01 X31.3285 Y268.7729 Z-5.1875
G01 X31.3296 Y268.8205 Z-5.1998
G01 X31.3330 Y268.8680 Z-5.2121
G01 X31.3387 Y268.9152 Z-5.2244
G01 X31.3466 Y268.9621 Z-5.2367
G01 X31.3567 Y269.0087 Z-5.2491
G01 X31.3690 Y269.0546 Z-5.2614
G01 X31.3835 Y269.1000 Z-5.2737
G01 X31.4001 Y269.1446 Z-5.2860
G01 X31.4189 Y269.1883 Z-5.2983
G01 X31.4397 Y269.2311 Z-5.3106
G01 X31.4625 Y269.2729 Z-5.3229
G01 X31.4872 Y269.3135 Z-5.3352
G01 X31.5139 Y269.3530 Z-5.3475
G01 X31.5424 Y269.3911 Z-5.3598
G01 X31.5727 Y269.4278 Z-5.3722
G01 X31.6048 Y269.4630 Z-5.3845
G01 X31.6384 Y269.4966 Z-5.3968
G01 X31.6736 Y269.5286 Z-5.4091
G01 X31.7103 Y269.5589 Z-5.4214
G01 X31.7484 Y269.5875 Z-5.4337
G01 X31.7879 Y269.6141 Z-5.4460
G01 X31.8285 Y269.6389 Z-5.4583
G01 X31.8703 Y269.6617 Z-5.4706
G01 X31.9131 Y269.6825 Z-5.4830
G01 X31.9568 Y269.7013 Z-5.4953
G01 X32.0014 Y269.7179 Z-5.5076
G01 X32.0468 Y269.7324 Z-5.5199
G01 X32.0927 Y269.7447 Z-5.5322
G01 X32.1392 Y269.7548 Z-5.5445
G01 X32.1862 Y269.7627 Z-5.5568
G01 X32.2334 Y269.7684 Z-5.5691
G01 X32.2809 Y269.7718 Z-5.5814
G01 X32.3285 Y269.7729 Z-5.5938
G01 X32.3761 Y269.7718 Z-5.6061
G01 X32.4235 Y269.7684 Z-5.6184
G01 X32.4708 Y269.7627 Z-5.6307
G01 X32.5177 Y269.7548 Z-5.6430
G01 X32.5643 Y269.7447 Z-5.6553
G01 X32.6102 Y269.7324 Z-5.6676
G01 X32.6556 Y269.7179 Z-5.6799
G01 X32.7002 Y269.7013 Z-5.6922
G01 X32.7439 Y269.6825 Z-5.7045
G01 X32.7867 Y269.6617 Z-5.7169
G01 X32.8285 Y269.6389 Z-5.7292
G01 X32.8691 Y269.6141 Z-5.7415
G01 X32.9086 Y269.5875 Z-5.7538
G01 X32.9467 Y269.5589 Z-5.7661
G01 X32.9834 Y269.5286 Z-5.7784
G01 X33.0186 Y269.4966 Z-5.7907
G01 X33.0522 Y269.4630 Z-5.8030
G01 X33.0842 Y269.4278 Z-5.8153
G01 X33.1145 Y269.3911 Z-5.8277
G01 X33.1431 Y269.3530 Z-5.8400
G01 X33.1697 Y269.3135 Z-5.8523
G01 X33.1945 Y269.2729 Z-5.8646
G01 X33.2173 Y269.2311 Z-5.8769
G01 X33.2381 Y269.1883 Z-5.8892
G01 X33.2569 Y269.1446 Z-5.9015
G01 X33.2735 Y269.1000 Z-5.9138
G01 X33.2880 Y269.0546 Z-5.9261
G01 X33.3003 Y269.0087 Z-5.9384
G01 X33.3104 Y268.9621 Z-5.9508
G01 X33.3183 Y268.9152 Z-5.9631
G01 X33.3240 Y268.8680 Z-5.9754
G01 X33.3274 Y268.8205 Z-5.9877
G01 X33.3285 Y268.7729 Z-6.0000
G01 X33.3247 Y268.6857
G01 X33.3133 Y268.5992
G01 X33.2944 Y268.5141
G01 X33.2682 Y268.4309
G01 X33.2348 Y268.3503
G01 X33.1945 Y268.2729
G01 X33.1476 Y268.1993
G01 X33.0945 Y268.1301
G01 X33.0356 Y268.0658
G01 X32.9713 Y268.0069
G01 X32.9021 Y267.9537
G01 X32.8285 Y267.9069
G01 X32.7511 Y267.8666
G01 X32.6705 Y267.8332
G01 X32.5873 Y267.8070
G01 X32.5021 Y267.7881
G01 X32.4156 Y267.7767
G01 X32.3285 Y267.7729
G01 X32.2413 Y267.7767
G01 X32.1548 Y267.7881
G01 X32.0697 Y267.8070
G01 X31.9865 Y267.8332
G01 X31.9059 Y267.8666
G01 X31.8285 Y267.9069
G01 X31.7879 Y267.9316
G01 X31.7484 Y267.9583
G01 X31.7103 Y267.9868
G01 X31.6736 Y268.0171
G01 X31.6384 Y268.0492
G01 X31.6048 Y268.0828
G01 X31.5727 Y268.1180
G01 X31.5424 Y268.1547
G01 X31.5139 Y268.1928
G01 X31.4872 Y268.2323
G01 X31.4625 Y268.2729
G01 X31.4397 Y268.3147
G01 X31.4189 Y268.3575
G01 X31.4001 Y268.4012
G01 X31.3835 Y268.4458
G01 X31.3690 Y268.4912
G01 X31.3567 Y268.5371
G01 X31.3466 Y268.5836
G01 X31.3387 Y268.6306
G01 X31.3330 Y268.6778
G01 X31.3296 Y268.7253
G01 X31.3285 Y268.7729
G01 X31.3296 Y268.8205
G01 X31.3330 Y268.8680
G01 X31.3387 Y268.9152
G01 X31.3466 Y268.9621
G01 X31.3567 Y269.0087
G01 X31.3690 Y269.0546
G01 X31.3835 Y269.1000
G01 X31.4001 Y269.1446
G01 X31.4189 Y269.1883
G01 X31.4397 Y269.2311
G01 X31.4625 Y269.2729
G01 X31.4872 Y269.3135
G01 X31.5139 Y269.3530
G01 X31.5424 Y269.3911
G01 X31.5727 Y269.4278
G01 X31.6048 Y269.4630
G01 X31.6384 Y269.4966
G01 X31.6736 Y269.5286
G01 X31.7103 Y269.5589
G01 X31.7484 Y269.5875
G01 X31.7879 Y269.6141
G01 X31.8285 Y269.6389
G01 X31.8703 Y269.6617
G01 X31.9131 Y269.6825
G01 X31.9568 Y269.7013
G01 X32.0014 Y269.7179
G01 X32.0468 Y269.7324
G01 X32.0927 Y269.7447
G01 X32.1392 Y269.7548
G01 X32.1862 Y269.7627
G01 X32.2334 Y269.7684
G01 X32.2809 Y269.7718
G01 X32.3285 Y269.7729
G01 X32.3761 Y269.7718
G01 X32.4235 Y269.7684
G01 X32.4708 Y269.7627
G01 X32.5177 Y269.7548
G01 X32.5643 Y269.7447
G01 X32.6102 Y269.7324
G01 X32.6556 Y269.7179
G01 X32.7002 Y269.7013
G01 X32.7439 Y269.6825
G01 X32.7867 Y269.6617
G01 X32.8285 Y269.6389
G01 X32.8691 Y269.6141
G01 X32.9086 Y269.5875
G01 X32.9467 Y269.5589
G01 X32.9834 Y269.5286
G01 X33.0186 Y269.4966
G01 X33.0522 Y269.4630
G01 X33.0842 Y269.4278
G01 X33.1145 Y269.3911
G01 X33.1431 Y269.3530
G01 X33.1697 Y269.3135
G01 X33.1945 Y269.2729
G01 X33.2173 Y269.2311
G01 X33.2381 Y269.1883
G01 X33.2569 Y269.1446
G01 X33.2735 Y269.1000
G01 X33.2880 Y269.0546
G01 X33.3003 Y269.0087
G01 X33.3104 Y268.9621
G01 X33.3183 Y268.9152
G01 X33.3240 Y268.8680
G01 X33.3274 Y268.8205
G01 X33.3285 Y268.7729
G01 X33.3392 Y268.7213 F1000
G01 X33.3473 Y268.6692
G01 X33.3527 Y268.6168
G01 X33.3554 Y268.5642
G01 X33.3553 Y268.5115
G01 X33.3526 Y268.4588
G01 X33.3471 Y268.4064
G01 X33.3390 Y268.3543
G01 X33.3273 Y268.2984
G01 X33.3127 Y268.2430
G01 X33.2953 Y268.1885
G01 X33.2752 Y268.1350
G01 X33.2524 Y268.0826
G01 X33.2269 Y268.0314
G01 X33.1988 Y267.9815
G01 X33.1682 Y267.9332
G01 X33.1326 Y267.8828
G01 X33.0944 Y267.8343
G01 X33.0539 Y267.7878
G01 X33.0111 Y267.7434
G01 X32.9660 Y267.7012
G01 X32.9189 Y267.6614
G01 X32.8697 Y267.6240
G01 X32.8188 Y267.5892
G01 X32.7623 Y267.5546
G01 X32.7041 Y267.5229
G01 X32.6444 Y267.4943
G01 X32.5834 Y267.4686
G01 X32.5211 Y267.4461
G01 X32.4577 Y267.4268
G01 X32.3935 Y267.4107
G01 X32.3285 Y267.3979
G01 X32.2585 Y267.3877
G01 X32.1880 Y267.3811
G01 X32.1173 Y267.3780
G01 X32.0465 Y267.3785
G01 X31.9759 Y267.3825
G01 X31.9055 Y267.3901
G01 X31.8357 Y267.4013
G01 X31.7664 Y267.4159
G01 X31.6980 Y267.4416
G01 X31.6310 Y267.4706
G01 X31.5654 Y267.5029
G01 X31.5016 Y267.5383
G01 X31.4395 Y267.5769
G01 X31.3794 Y267.6184
G01 X31.3215 Y267.6629
G01 X31.2658 Y267.7102
G01 X31.2149 Y267.7636
G01 X31.1667 Y267.8194
G01 X31.1213 Y267.8776
G01 X31.0789 Y267.9379
G01 X31.0394 Y268.0002
G01 X31.0030 Y268.0644
G01 X30.9699 Y268.1303
G01 X30.9400 Y268.1977
G01 X30.9134 Y268.2666
G01 X30.8903 Y268.3366
G01 X30.8706 Y268.4077
G01 X30.8544 Y268.4797
G01 X30.8418 Y268.5524
G01 X30.8328 Y268.6256
G01 X30.8274 Y268.6992
G01 X30.8256 Y268.7729
G01 X30.8274 Y268.8466
G01 X30.8328 Y268.9202
G01 X30.8418 Y268.9934
G01 X30.8544 Y269.0661
G01 X30.8706 Y269.1381
G01 X30.8903 Y269.2092
G01 X30.9134 Y269.2792
G01 X30.9400 Y269.3480
G01 X30.9699 Y269.4155
G01 X31.0030 Y269.4814
G01 X31.0394 Y269.5456
G01 X31.0789 Y269.6079
G01 X31.1213 Y269.6682
G01 X31.1667 Y269.7263
G01 X31.2149 Y269.7822
G01 X31.2658 Y269.8356
G01 X31.3192 Y269.8865
G01 X31.3750 Y269.9347
G01 X31.4332 Y269.9801
G01 X31.4935 Y270.0225
G01 X31.5558 Y270.0620
G01 X31.6200 Y270.0984
G01 X31.6859 Y270.1315
G01 X31.7533 Y270.1614
G01 X31.8222 Y270.1880
G01 X31.8922 Y270.2111
G01 X31.9633 Y270.2308
G01 X32.0353 Y270.2469
G01 X32.1080 Y270.2596
G01 X32.1812 Y270.2686
G01 X32.2547 Y270.2740
G01 X32.3285 Y270.2758
G01 X32.4022 Y270.2740
G01 X32.4758 Y270.2686
G01 X32.5490 Y270.2596
G01 X32.6217 Y270.2469
G01 X32.6937 Y270.2308
G01 X32.7648 Y270.2111
G01 X32.8348 Y270.1880
G01 X32.9036 Y270.1614
G01 X32.9711 Y270.1315
G01 X33.0370 Y270.0984
G01 X33.1012 Y270.0620
G01 X33.1635 Y270.0225
G01 X33.2238 Y269.9801
G01 X33.2819 Y269.9347
G01 X33.3378 Y269.8865
G01 X33.3912 Y269.8356
G01 X33.4421 Y269.7822
G01 X33.4903 Y269.7263
G01 X33.5357 Y269.6682
G01 X33.5781 Y269.6079
G01 X33.6176 Y269.5456
G01 X33.6540 Y269.4814
G01 X33.6871 Y269.4155
G01 X33.7170 Y269.3480
G01 X33.7436 Y269.2792
G01 X33.7667 Y269.2092
G01 X33.7864 Y269.1381
G01 X33.8025 Y269.0661
G01 X33.8152 Y268.9934
G01 X33.8242 Y268.9202
G01 X33.8296 Y268.8466
G01 X33.8314 Y268.7729
G01 X33.8272 Y268.6606
G01 X33.8146 Y268.5489
G01 X33.7937 Y268.4385
G01 X33.7647 Y268.3299
G01 X33.7275 Y268.2238
G01 X33.6826 Y268.1208
G01 X33.6301 Y268.0214
G01 X33.5703 Y267.9263
G01 X33.5035 Y267.8358
G01 X33.4302 Y267.7506
G01 X33.3507 Y267.6712
G01 X33.2656 Y267.5979
G01 X33.1751 Y267.5311
G01 X33.0800 Y267.4713
G01 X32.9806 Y267.4188
G01 X32.8776 Y267.3739
G01 X32.7715 Y267.3367
G01 X32.6629 Y267.3076
G01 X32.5525 Y267.2868
G01 X32.4408 Y267.2742
G01 X32.3285 Y267.2700
G01 X32.2162 Y267.2742
G01 X32.1045 Y267.2868
G01 X31.9941 Y267.3076
G01 X31.8855 Y267.3367
G01 X31.7794 Y267.3739
G01 X31.6764 Y267.4188
G01 X31.5770 Y267.4713
G01 X31.4819 Y267.5311
G01 X31.3914 Y267.5979
G01 X31.3062 Y267.6712
G01 X31.2268 Y267.7506
G01 X31.1535 Y267.8358
G01 X31.0867 Y267.9263
G01 X31.0269 Y268.0214
G01 X30.9744 Y268.1208
G01 X30.9295 Y268.2238
G01 X30.8923 Y268.3299
G01 X30.8632 Y268.4385
G01 X30.8423 Y268.5489
G01 X30.8298 Y268.6606
G01 X30.8256 Y268.7729
G01 X30.8298 Y268.8852
G01 X30.8423 Y268.9969
G01 X30.8632 Y269.1073
G01 X30.8923 Y269.2159
G01 X30.9295 Y269.3220
G01 X30.9744 Y269.4250
G01 X31.0269 Y269.5244
G01 X31.0867 Y269.6195
G01 X31.1535 Y269.7100
G01 X31.2268 Y269.7951
G01 X31.3062 Y269.8746
G01 X31.3914 Y269.9479
G01 X31.4819 Y270.0147
G01 X31.5770 Y270.0745
G01 X31.6764 Y270.1270
G01 X31.7794 Y270.1719
G01 X31.8855 Y270.2091
G01 X31.9941 Y270.2381
G01 X32.1045 Y270.2590
G01 X32.2162 Y270.2716
G01 X32.3285 Y270.2758
G01 X32.4408 Y270.2716
G01 X32.5525 Y270.2590
G01 X32.6629 Y270.2381
G01 X32.7715 Y270.2091
G01 X32.8776 Y270.1719
G01 X32.9806 Y270.1270
G01 X33.0800 Y270.0745
G01 X33.1751 Y270.0147
G01 X33.2656 Y269.9479
G01 X33.3507 Y269.8746
G01 X33.4302 Y269.7951
G01 X33.5035 Y269.7100
G01 X33.5703 Y269.6195
G01 X33.6301 Y269.5244
G01 X33.6826 Y269.4250
G01 X33.7275 Y269.3220
G01 X33.7647 Y269.2159
G01 X33.7937 Y269.1073
G01 X33.8146 Y268.9969
G01 X33.8272 Y268.8852
G01 X33.8314 Y268.7729
M107
M106 S240
G01 X33.8283 Y268.6944 Z-5.9750 F400
M107
M106 S240
G01 X33.8191 Y268.6165 Z-5.9500
M107
M106 S240
G01 X33.8038 Y268.5395 Z-5.9250
M107
M106 S240
G01 X33.7825 Y268.4639 Z-5.9000
M107
M106 S240
G01 X33.7553 Y268.3902 Z-5.8750
M107
M106 S240
G01 X33.7224 Y268.3189 Z-5.8500
M107
M106 S240
G01 X33.6841 Y268.2504 Z-5.8250
M107
M106 S240
G01 X33.6404 Y268.1851 Z-5.8000
M107
M106 S240
G01 X33.5918 Y268.1234 Z-5.7750
M107
M106 S240
G01 X33.5385 Y268.0658 Z-5.7500
M107
M106 S240
G01 X33.4809 Y268.0125 Z-5.7250
M107
M106 S240
G01 X33.4192 Y267.9639 Z-5.7000
M107
M106 S240
G01 X33.3539 Y267.9203 Z-5.6750
M107
M106 S240
G01 X33.2854 Y267.8819 Z-5.6500
M107
M106 S240
G01 X33.2141 Y267.8490 Z-5.6250
M107
M106 S240
G01 X33.1404 Y267.8218 Z-5.6000
M107
M106 S240
G01 X33.0649 Y267.8005 Z-5.5750
M107
M106 S240
G01 X32.9879 Y267.7852 Z-5.5500
M107
M106 S240
G01 X32.9099 Y267.7760 Z-5.5250
M107
M106 S240
G01 X32.8314 Y267.7729 Z-5.5000
M107
G00 Z2.0000


;No. 2: Hole 2
G00 X31.2761 Y254.9277 Z2.0000
G00 Z0.5000
G01 Z0.0000 F400
G01 Z-1.8000
M106 S240
G01 X54.7474 F1000
G01 X53.1828 Y253.4277
G01 X32.8029
G01 X41.5690
G01 Y251.9277
G01 X44.4598
G01 X44.4570 Y250.4277
G01 X41.5718
G01 Y248.9277
G01 X44.4570
G01 Y247.4277
G01 X41.5718
G01 Y245.9277
G01 X44.4570
G01 Y244.4277
G01 X41.5718
G01 Y242.9277
G01 X44.4570
G01 Y241.4277
G01 X41.5718
G01 Y239.9277
G01 X44.4570
G01 Y238.4277
G01 X41.5718
G01 Y236.9277
G01 X44.4570
G01 X44.6570 Y236.9428
G01 Y235.7148
G01 X41.3718
G01 Y251.8554
G01 X41.3687 Y251.9338
G01 X41.3595 Y252.0118
G01 X41.3442 Y252.0888
G01 X41.3229 Y252.1644
G01 X41.2957 Y252.2381
G01 X41.2628 Y252.3094
G01 X41.2245 Y252.3779
G01 X41.1808 Y252.4432
G01 X41.1322 Y252.5048
G01 X41.0789 Y252.5625
G01 X41.0213 Y252.6158
G01 X40.9596 Y252.6644
G01 X40.8943 Y252.7080
G01 X40.8258 Y252.7464
G01 X40.7545 Y252.7793
G01 X40.6808 Y252.8064
G01 X40.6053 Y252.8277
G01 X40.5283 Y252.8431
G01 X40.4503 Y252.8523
G01 X40.3718 Y252.8554
G01 X38.8541 Y252.8374
G01 X37.3362 Y252.8318
G01 X35.8184 Y252.8386
G01 X34.3006 Y252.8579
G01 X33.9688 Y252.8802
G01 X33.6403 Y252.9321
G01 X33.3177 Y253.0131
G01 X33.0037 Y253.1226
G01 X32.7007 Y253.2597
G01 X32.4111 Y253.4232
G01 X32.1373 Y253.6120
G01 X31.8814 Y253.8245
G01 X31.6456 Y254.0589
G01 X31.4316 Y254.3135
G01 X31.2412 Y254.5862
G01 X31.0758 Y254.8748
G01 X30.9370 Y255.1770
G01 X30.8256 Y255.4904
G01 X30.7427 Y255.8124
G01 X30.6888 Y256.1406
G01 X55.3399
G01 X55.2788 Y255.8057
G01 X55.1880 Y255.4777
G01 X55.0682 Y255.1590
G01 X54.9204 Y254.8524
G01 X54.7457 Y254.5603
G01 X54.5455 Y254.2849
G01 X54.3215 Y254.0286
G01 X54.0754 Y253.7934
G01 X53.8093 Y253.5811
G01 X53.5253 Y253.3936
G01 X53.2255 Y253.2322
G01 X52.9126 Y253.0983
G01 X52.5889 Y252.9929
G01 X52.2571 Y252.9170
G01 X51.9198 Y252.8710
G01 X51.5797 Y252.8555
G01 X45.6570
G01 X45.5785 Y252.8524
G01 X45.5005 Y252.8432
G01 X45.4235 Y252.8278
G01 X45.3480 Y252.8065
G01 X45.2743 Y252.7793
G01 X45.2030 Y252.7465
G01 X45.1345 Y252.7081
G01 X45.0692 Y252.6645
G01 X45.0075 Y252.6159
G01 X44.9499 Y252.5626
G01 X44.8966 Y252.5049
G01 X44.8480 Y252.4433
G01 X44.8043 Y252.3780
G01 X44.7660 Y252.3095
G01 X44.7331 Y252.2382
G01 X44.7059 Y252.1645
G01 X44.6846 Y252.0889
G01 X44.6693 Y252.0119
G01 X44.6601 Y251.9339
G01 X44.6570 Y251.8555
G01 Y236.9428
G01 X44.4570 Y236.9277
M107
G00 Z2.0000


;No. 3: Hole 3
G00 X64.8446 Y254.4980 Z2.0000
G00 Z0.5000
G01 Z0.0000 F400
G01 Z-1.8000
M106 S240
G01 X87.7651 F1000
G01 X87.9408 Y254.3988
G01 X87.7558 Y254.1668
G01 X87.5533 Y253.9501
G01 X87.3344 Y253.7499
G01 X87.1005 Y253.5674
G01 X86.8531 Y253.4038
G01 X86.5936 Y253.2600
G01 X86.3236 Y253.1371
G01 X86.0448 Y253.0356
G01 X85.7590 Y252.9563
G01 X85.4678 Y252.8996
G01 X85.1731 Y252.8659
G01 X84.8766 Y252.8554
G01 X67.7492
G01 X67.4073 Y252.8652
G01 X67.0677 Y252.9064
G01 X66.7333 Y252.9785
G01 X66.4069 Y253.0810
G01 X66.0913 Y253.2130
G01 X65.7892 Y253.3734
G01 X65.5030 Y253.5609
G01 X65.2352 Y253.7737
G01 X64.9881 Y254.0103
G01 X64.7638 Y254.2685
G01 X64.5640 Y254.5462
G01 X64.3906 Y254.8411
G01 X64.2449 Y255.1506
G01 X64.1283 Y255.4722
G01 X64.0416 Y255.8031
G01 X63.9857 Y256.1406
G01 X88.6367 Y256.1405
G01 X88.6020 Y255.9059
G01 X88.5518 Y255.6740
G01 X88.4862 Y255.4461
G01 X88.4056 Y255.2230
G01 X88.3102 Y255.0058
G01 X88.2007 Y254.7954
G01 X88.0773 Y254.5927
G01 X87.9408 Y254.3988
G01 X87.7651 Y254.4980
M107
G00 Z2.0000


;No. 4: Hole 4
G00 X87.7651 Y245.9277 Z2.0000
G00 Z0.5000
G01 Z0.0000 F400
G01 Z-1.8000
M106 S240
G01 X64.8446 F1000
G01 X64.6833 Y245.8094
G01 X64.5472 Y246.0064
G01 X64.4242 Y246.2118
G01 X64.3148 Y246.4247
G01 X64.2195 Y246.6443
G01 X64.1386 Y246.8696
G01 X64.0725 Y247.0997
G01 X64.0214 Y247.3336
G01 X63.9857 Y247.5703
G01 X88.6367
G01 X88.5759 Y247.2353
G01 X88.4854 Y246.9071
G01 X88.3657 Y246.5883
G01 X88.2180 Y246.2815
G01 X88.0434 Y245.9892
G01 X87.8432 Y245.7138
G01 X87.6192 Y245.4574
G01 X87.3731 Y245.2221
G01 X87.1069 Y245.0098
G01 X86.8228 Y244.8222
G01 X86.5230 Y244.6609
G01 X86.2099 Y244.5271
G01 X85.8861 Y244.4219
G01 X85.5541 Y244.3461
G01 X85.2167 Y244.3004
G01 X84.8766 Y244.2851
G01 X67.7491
G01 X67.4524 Y244.2902
G01 X67.1571 Y244.3192
G01 X66.8651 Y244.3719
G01 X66.5783 Y244.4480
G01 X66.2986 Y244.5470
G01 X66.0278 Y244.6683
G01 X65.7676 Y244.8110
G01 X65.5199 Y244.9743
G01 X65.2861 Y245.1570
G01 X65.0678 Y245.3580
G01 X64.8664 Y245.5759
G01 X64.6833 Y245.8094
G01 X64.8446 Y245.9277
M107
G00 Z2.0000


;No. 5: Hole 5
G00 X64.8446 Y237.3574 Z2.0000
G00 Z0.5000
G01 Z0.0000 F400
G01 Z-1.8000
M106 S240
G01 X87.7651 F1000
G01 X87.9408 Y237.2582
G01 X87.7558 Y237.0263
G01 X87.5533 Y236.8095
G01 X87.3344 Y236.6093
G01 X87.1005 Y236.4268
G01 X86.8531 Y236.2632
G01 X86.5936 Y236.1195
G01 X86.3236 Y235.9965
G01 X86.0448 Y235.8951
G01 X85.7590 Y235.8157
G01 X85.4678 Y235.7591
G01 X85.1731 Y235.7253
G01 X84.8766 Y235.7148
G01 X67.7491
G01 X67.4071 Y235.7243
G01 X67.0674 Y235.7652
G01 X66.7329 Y235.8372
G01 X66.4064 Y235.9395
G01 X66.0907 Y236.0714
G01 X65.7884 Y236.2318
G01 X65.5021 Y236.4192
G01 X65.2343 Y236.6321
G01 X64.9871 Y236.8687
G01 X64.7628 Y237.1271
G01 X64.5631 Y237.4049
G01 X64.3897 Y237.6999
G01 X64.2442 Y238.0096
G01 X64.1278 Y238.3313
G01 X64.0413 Y238.6624
G01 X63.9857 Y239.0000
G01 X88.6367
G01 X88.6020 Y238.7653
G01 X88.5518 Y238.5335
G01 X88.4862 Y238.3055
G01 X88.4056 Y238.0824
G01 X88.3102 Y237.8652
G01 X88.2007 Y237.6548
G01 X88.0773 Y237.4522
G01 X87.9408 Y237.2582
G01 X87.7651 Y237.3574
M107
G00 Z2.0000


;No. 6: Hole 6
G00 X97.8784 Y236.9277 Z2.0000
G00 Z0.5000
G01 Z0.0000 F400
G01 Z-1.8000
M106 S240
G01 X121.7655 F1000
G01 Y238.4277
G01 X99.4357
G01 X118.8775
G01 Y239.9277
G01 X121.7655
G01 Y241.4277
G01 X118.8803
G01 Y242.9277
G01 X121.7655
G01 Y244.4277
G01 X118.0465
G01 X121.7655 Y245.9277
G01 X97.4545
G01 Y247.4277
G01 X101.1735
G01 X100.3397
G01 Y248.9277
G01 X97.4545
G01 Y250.4277
G01 X100.3397
G01 X100.3425 Y251.9277
G01 X97.4545
G01 Y253.4277
G01 X119.7784
G01 X121.3430 Y254.9277
G01 X97.4545
G01 X97.2545 Y254.9132
G01 Y256.1406
G01 X121.9355
G01 X121.8744 Y255.8057
G01 X121.7836 Y255.4777
G01 X121.6638 Y255.1590
G01 X121.5160 Y254.8524
G01 X121.3413 Y254.5603
G01 X121.1411 Y254.2849
G01 X120.9171 Y254.0286
G01 X120.6711 Y253.7934
G01 X120.4049 Y253.5811
G01 X120.1209 Y253.3936
G01 X119.8211 Y253.2322
G01 X119.5082 Y253.0983
G01 X119.1845 Y252.9929
G01 X118.8527 Y252.9170
G01 X118.5154 Y252.8710
G01 X118.1753 Y252.8555
G01 X101.5397
G01 X101.4612 Y252.8524
G01 X101.3833 Y252.8432
G01 X101.3062 Y252.8278
G01 X101.2307 Y252.8065
G01 X101.1570 Y252.7793
G01 X101.0857 Y252.7465
G01 X101.0172 Y252.7081
G01 X100.9519 Y252.6645
G01 X100.8902 Y252.6159
G01 X100.8326 Y252.5626
G01 X100.7793 Y252.5049
G01 X100.7307 Y252.4433
G01 X100.6870 Y252.3780
G01 X100.6487 Y252.3095
G01 X100.6158 Y252.2382
G01 X100.5886 Y252.1645
G01 X100.5673 Y252.0889
G01 X100.5520 Y252.0119
G01 X100.5428 Y251.9339
G01 X100.5397 Y251.8555
G01 Y248.5703
G01 X100.5406 Y248.5267
G01 X100.5435 Y248.4832
G01 X100.5482 Y248.4398
G01 X100.5549 Y248.3967
G01 X100.5634 Y248.3539
G01 X100.5738 Y248.3115
G01 X100.5860 Y248.2696
G01 X100.6000 Y248.2283
G01 X100.6158 Y248.1876
G01 X100.6334 Y248.1477
G01 X100.6527 Y248.1086
G01 X100.6737 Y248.0703
G01 X100.6963 Y248.0330
G01 X100.7205 Y247.9967
G01 X100.7463 Y247.9616
G01 X100.7736 Y247.9275
G01 X100.8024 Y247.8947
G01 X100.8326 Y247.8632
G01 X100.8641 Y247.8330
G01 X100.8969 Y247.8043
G01 X100.9309 Y247.7770
G01 X100.9661 Y247.7512
G01 X101.0024 Y247.7269
G01 X101.0397 Y247.7043
G01 X101.0779 Y247.6833
G01 X101.1171 Y247.6640
G01 X101.1570 Y247.6464
G01 X101.1977 Y247.6306
G01 X101.2390 Y247.6166
G01 X101.2809 Y247.6044
G01 X101.3233 Y247.5940
G01 X101.3660 Y247.5855
G01 X101.4092 Y247.5789
G01 X101.4525 Y247.5741
G01 X101.4961 Y247.5713
G01 X101.5397 Y247.5703
G01 X121.9655
G01 Y235.7148
G01 X97.2845
G01 X97.3452 Y236.0499
G01 X97.4356 Y236.3782
G01 X97.5551 Y236.6971
G01 X97.7028 Y237.0039
G01 X97.8774 Y237.2963
G01 X98.0775 Y237.5718
G01 X98.3015 Y237.8283
G01 X98.5476 Y238.0636
G01 X98.8139 Y238.2759
G01 X99.0981 Y238.4635
G01 X99.3979 Y238.6248
G01 X99.7111 Y238.7585
G01 X100.0350 Y238.8637
G01 X100.3670 Y238.9393
G01 X100.7045 Y238.9849
G01 X101.0446 Y239.0000
G01 X117.6803
G01 X117.7239 Y239.0010
G01 X117.7675 Y239.0038
G01 X117.8108 Y239.0086
G01 X117.8540 Y239.0152
G01 X117.8968 Y239.0237
G01 X117.9391 Y239.0341
G01 X117.9810 Y239.0463
G01 X118.0223 Y239.0603
G01 X118.0630 Y239.0761
G01 X118.1029 Y239.0937
G01 X118.1421 Y239.1130
G01 X118.1803 Y239.1340
G01 X118.2176 Y239.1566
G01 X118.2539 Y239.1808
G01 X118.2891 Y239.2066
G01 X118.3231 Y239.2340
G01 X118.3559 Y239.2627
G01 X118.3874 Y239.2929
G01 X118.4176 Y239.3244
G01 X118.4464 Y239.3572
G01 X118.4737 Y239.3912
G01 X118.4995 Y239.4264
G01 X118.5237 Y239.4627
G01 X118.5463 Y239.5000
G01 X118.5673 Y239.5383
G01 X118.5866 Y239.5774
G01 X118.6042 Y239.6173
G01 X118.6200 Y239.6580
G01 X118.6340 Y239.6993
G01 X118.6462 Y239.7412
G01 X118.6566 Y239.7836
G01 X118.6651 Y239.8264
G01 X118.6718 Y239.8695
G01 X118.6765 Y239.9128
G01 X118.6794 Y239.9564
G01 X118.6803 Y240.0000
G01 Y243.2852
G01 X118.6794 Y243.3288
G01 X118.6765 Y243.3723
G01 X118.6718 Y243.4157
G01 X118.6651 Y243.4588
G01 X118.6566 Y243.5016
G01 X118.6462 Y243.5440
G01 X118.6340 Y243.5859
G01 X118.6200 Y243.6272
G01 X118.6042 Y243.6678
G01 X118.5866 Y243.7078
G01 X118.5673 Y243.7469
G01 X118.5463 Y243.7852
G01 X118.5237 Y243.8225
G01 X118.4995 Y243.8587
G01 X118.4737 Y243.8939
G01 X118.4464 Y243.9279
G01 X118.4176 Y243.9607
G01 X118.3874 Y243.9923
G01 X118.3559 Y244.0224
G01 X118.3231 Y244.0512
G01 X118.2891 Y244.0785
G01 X118.2539 Y244.1043
G01 X118.2176 Y244.1285
G01 X118.1803 Y244.1512
G01 X118.1421 Y244.1722
G01 X118.1029 Y244.1915
G01 X118.0630 Y244.2090
G01 X118.0223 Y244.2248
G01 X117.9810 Y244.2389
G01 X117.9391 Y244.2511
G01 X117.8968 Y244.2615
G01 X117.8540 Y244.2700
G01 X117.8108 Y244.2766
G01 X117.7675 Y244.2814
G01 X117.7239 Y244.2842
G01 X117.6803 Y244.2852
G01 X97.2545
G01 Y254.9132
G01 X97.4545 Y254.9277
M107
G00 Z2.0000


;No. 7: Hole 7
G00 X130.7514 Y254.9277 Z2.0000
G00 Z0.5000
G01 Z0.0000 F400
G01 Z-1.8000
M106 S240
G01 X133.6366 F1000
G01 Y253.4277
G01 X130.7514
G01 Y251.9277
G01 X133.6366
G01 Y250.4277
G01 X130.7514
G01 Y248.9277
G01 X133.6366
G01 Y247.4277
G01 X130.7514
G01 Y245.9277
G01 X133.6366
G01 Y244.4277
G01 X130.7514
G01 Y242.9277
G01 X133.6366
G01 Y241.4277
G01 X130.7514
G01 Y239.9277
G01 X133.6394
G01 X130.7514 Y238.4277
G01 X154.9096
G01 X153.9740 Y236.9277
G01 X130.7514
G01 X130.5514 Y236.9431
G01 Y256.1406
G01 X133.8366
G01 Y240.0000
G01 X133.8397 Y239.9210
G01 X133.8490 Y239.8426
G01 X133.8646 Y239.7651
G01 X133.8861 Y239.6891
G01 X133.9137 Y239.6150
G01 X133.9469 Y239.5433
G01 X133.9858 Y239.4745
G01 X134.0299 Y239.4090
G01 X134.0791 Y239.3471
G01 X134.1330 Y239.2894
G01 X134.1913 Y239.2360
G01 X134.2537 Y239.1875
G01 X134.3196 Y239.1440
G01 X134.3888 Y239.1058
G01 X134.4608 Y239.0733
G01 X134.5352 Y239.0465
G01 X134.6114 Y239.0256
G01 X134.6890 Y239.0109
G01 X134.7676 Y239.0023
G01 X134.8466 Y239.0000
G01 X155.2324
G01 X155.1715 Y238.6647
G01 X155.0808 Y238.3362
G01 X154.9610 Y238.0172
G01 X154.8130 Y237.7102
G01 X154.6381 Y237.4177
G01 X154.4377 Y237.1420
G01 X154.2133 Y236.8855
G01 X153.9669 Y236.6502
G01 X153.7003 Y236.4379
G01 X153.4157 Y236.2504
G01 X153.1155 Y236.0891
G01 X152.8020 Y235.9555
G01 X152.4778 Y235.8505
G01 X152.1454 Y235.7750
G01 X151.8077 Y235.7297
G01 X151.4672 Y235.7148
G01 X130.5514
G01 Y236.9431
G01 X130.7514 Y236.9277
M107
G00 Z2.0000


;No. 8: Helical drill 2
G00 X188.4681 Y268.7730 Z2.0000
G00 Z0.5000
M106 S240
G01 X188.4643 Y268.6858 Z0.4774 F400
G01 X188.4529 Y268.5993 Z0.4549
G01 X188.4340 Y268.5142 Z0.4323
G01 X188.4078 Y268.4310 Z0.4097
G01 X188.3744 Y268.3504 Z0.3872
G01 X188.3341 Y268.2730 Z0.3646
G01 X188.2872 Y268.1994 Z0.3420
G01 X188.2341 Y268.1302 Z0.3194
G01 X188.1752 Y268.0659 Z0.2969
G01 X188.1109 Y268.0069 Z0.2743
G01 X188.0417 Y267.9538 Z0.2517
G01 X187.9681 Y267.9070 Z0.2292
G01 X187.8907 Y267.8667 Z0.2066
G01 X187.8101 Y267.8333 Z0.1840
G01 X187.7269 Y267.8071 Z0.1615
G01 X187.6417 Y267.7882 Z0.1389
G01 X187.5552 Y267.7768 Z0.1163
G01 X187.4681 Y267.7730 Z0.0938
G01 X187.3809 Y267.7768 Z0.0712
G01 X187.2944 Y267.7882 Z0.0486
G01 X187.2093 Y267.8071 Z0.0260
G01 X187.1261 Y267.8333 Z0.0035
G01 X187.0455 Y267.8667 Z-0.0191
G01 X186.9681 Y267.9070 Z-0.0417
G01 X186.9275 Y267.9317 Z-0.0540
G01 X186.8880 Y267.9584 Z-0.0663
G01 X186.8499 Y267.9869 Z-0.0786
G01 X186.8132 Y268.0172 Z-0.0909
G01 X186.7780 Y268.0492 Z-0.1032
G01 X186.7444 Y268.0829 Z-0.1155
G01 X186.7123 Y268.1181 Z-0.1278
G01 X186.6820 Y268.1548 Z-0.1402
G01 X186.6535 Y268.1929 Z-0.1525
G01 X186.6268 Y268.2323 Z-0.1648
G01 X186.6021 Y268.2730 Z-0.1771
G01 X186.5793 Y268.3148 Z-0.1894
G01 X186.5585 Y268.3576 Z-0.2017
G01 X186.5397 Y268.4013 Z-0.2140
G01 X186.5231 Y268.4459 Z-0.2263
G01 X186.5086 Y268.4912 Z-0.2386
G01 X186.4963 Y268.5372 Z-0.2509
G01 X186.4862 Y268.5837 Z-0.2633
G01 X186.4783 Y268.6307 Z-0.2756
G01 X186.4726 Y268.6779 Z-0.2879
G01 X186.4692 Y268.7254 Z-0.3002
G01 X186.4681 Y268.7730 Z-0.3125
G01 X186.4692 Y268.8206 Z-0.3248
G01 X186.4726 Y268.8680 Z-0.3371
G01 X186.4783 Y268.9153 Z-0.3494
G01 X186.4862 Y268.9622 Z-0.3617
G01 X186.4963 Y269.0087 Z-0.3741
G01 X186.5086 Y269.0547 Z-0.3864
G01 X186.5231 Y269.1000 Z-0.3987
G01 X186.5397 Y269.1446 Z-0.4110
G01 X186.5585 Y269.1884 Z-0.4233
G01 X186.5793 Y269.2312 Z-0.4356
G01 X186.6021 Y269.2730 Z-0.4479
G01 X186.6268 Y269.3136 Z-0.4602
G01 X186.6535 Y269.3530 Z-0.4725
G01 X186.6820 Y269.3911 Z-0.4848
G01 X186.7123 Y269.4278 Z-0.4972
G01 X186.7444 Y269.4631 Z-0.5095
G01 X186.7780 Y269.4967 Z-0.5218
G01 X186.8132 Y269.5287 Z-0.5341
G01 X186.8499 Y269.5590 Z-0.5464
G01 X186.8880 Y269.5876 Z-0.5587
G01 X186.9275 Y269.6142 Z-0.5710
G01 X186.9681 Y269.6390 Z-0.5833
G01 X187.0099 Y269.6618 Z-0.5956
G01 X187.0527 Y269.6826 Z-0.6080
G01 X187.0964 Y269.7013 Z-0.6203
G01 X187.1410 Y269.7180 Z-0.6326
G01 X187.1864 Y269.7325 Z-0.6449
G01 X187.2323 Y269.7448 Z-0.6572
G01 X187.2788 Y269.7549 Z-0.6695
G01 X187.3258 Y269.7628 Z-0.6818
G01 X187.3730 Y269.7685 Z-0.6941
G01 X187.4205 Y269.7718 Z-0.7064
G01 X187.4681 Y269.7730 Z-0.7188
G01 X187.5157 Y269.7718 Z-0.7311
G01 X187.5631 Y269.7685 Z-0.7434
G01 X187.6104 Y269.7628 Z-0.7557
G01 X187.6573 Y269.7549 Z-0.7680
G01 X187.7039 Y269.7448 Z-0.7803
G01 X187.7498 Y269.7325 Z-0.7926
G01 X187.7952 Y269.7180 Z-0.8049
G01 X187.8398 Y269.7013 Z-0.8172
G01 X187.8835 Y269.6826 Z-0.8295
G01 X187.9263 Y269.6618 Z-0.8419
G01 X187.9681 Y269.6390 Z-0.8542
G01 X188.0087 Y269.6142 Z-0.8665
G01 X188.0481 Y269.5876 Z-0.8788
G01 X188.0863 Y269.5590 Z-0.8911
G01 X188.1230 Y269.5287 Z-0.9034
G01 X188.1582 Y269.4967 Z-0.9157
G01 X188.1918 Y269.4631 Z-0.9280
G01 X188.2238 Y269.4278 Z-0.9403
G01 X188.2541 Y269.3911 Z-0.9527
G01 X188.2827 Y269.3530 Z-0.9650
G01 X188.3093 Y269.3136 Z-0.9773
G01 X188.3341 Y269.2730 Z-0.9896
G01 X188.3569 Y269.2312 Z-1.0019
G01 X188.3777 Y269.1884 Z-1.0142
G01 X188.3965 Y269.1446 Z-1.0265
G01 X188.4131 Y269.1000 Z-1.0388
G01 X188.4276 Y269.0547 Z-1.0511
G01 X188.4399 Y269.0087 Z-1.0634
G01 X188.4500 Y268.9622 Z-1.0758
G01 X188.4579 Y268.9153 Z-1.0881
G01 X188.4636 Y268.8680 Z-1.1004
G01 X188.4670 Y268.8206 Z-1.1127
G01 X188.4681 Y268.7730 Z-1.1250
G01 X188.4643 Y268.6858
G01 X188.4529 Y268.5993
G01 X188.4340 Y268.5142
G01 X188.4078 Y268.4310
G01 X188.3744 Y268.3504
G01 X188.3341 Y268.2730
G01 X188.2872 Y268.1994
G01 X188.2341 Y268.1302
G01 X188.1752 Y268.0659
G01 X188.1109 Y268.0069
G01 X188.0417 Y267.9538
G01 X187.9681 Y267.9070
G01 X187.8907 Y267.8667
G01 X187.8101 Y267.8333
G01 X187.7269 Y267.8071
G01 X187.6417 Y267.7882
G01 X187.5552 Y267.7768
G01 X187.4681 Y267.7730
G01 X187.3809 Y267.7768
G01 X187.2944 Y267.7882
G01 X187.2093 Y267.8071
G01 X187.1261 Y267.8333
G01 X187.0455 Y267.8667
G01 X186.9681 Y267.9070
G01 X186.9275 Y267.9317
G01 X186.8880 Y267.9584
G01 X186.8499 Y267.9869
G01 X186.8132 Y268.0172
G01 X186.7780 Y268.0492
G01 X186.7444 Y268.0829
G01 X186.7123 Y268.1181
G01 X186.6820 Y268.1548
G01 X186.6535 Y268.1929
G01 X186.6268 Y268.2323
G01 X186.6021 Y268.2730
G01 X186.5793 Y268.3148
G01 X186.5585 Y268.3576
G01 X186.5397 Y268.4013
G01 X186.5231 Y268.4459
G01 X186.5086 Y268.4912
G01 X186.4963 Y268.5372
G01 X186.4862 Y268.5837
G01 X186.4783 Y268.6307
G01 X186.4726 Y268.6779
G01 X186.4692 Y268.7254
G01 X186.4681 Y268.7730
G01 X186.4692 Y268.8206
G01 X186.4726 Y268.8680
G01 X186.4783 Y268.9153
G01 X186.4862 Y268.9622
G01 X186.4963 Y269.0087
G01 X186.5086 Y269.0547
G01 X186.5231 Y269.1000
G01 X186.5397 Y269.1446
G01 X186.5585 Y269.1884
G01 X186.5793 Y269.2312
G01 X186.6021 Y269.2730
G01 X186.6268 Y269.3136
G01 X186.6535 Y269.3530
G01 X186.6820 Y269.3911
G01 X186.7123 Y269.4278
G01 X186.7444 Y269.4631
G01 X186.7780 Y269.4967
G01 X186.8132 Y269.5287
G01 X186.8499 Y269.5590
G01 X186.8880 Y269.5876
G01 X186.9275 Y269.6142
G01 X186.9681 Y269.6390
G01 X187.0099 Y269.6618
G01 X187.0527 Y269.6826
G01 X187.0964 Y269.7013
G01 X187.1410 Y269.7180
G01 X187.1864 Y269.7325
G01 X187.2323 Y269.7448
G01 X187.2788 Y269.7549
G01 X187.3258 Y269.7628
G01 X187.3730 Y269.7685
G01 X187.4205 Y269.7718
G01 X187.4681 Y269.7730
G01 X187.5157 Y269.7718
G01 X187.5631 Y269.7685
G01 X187.6104 Y269.7628
G01 X187.6573 Y269.7549
G01 X187.7039 Y269.7448
G01 X187.7498 Y269.7325
G01 X187.7952 Y269.7180
G01 X187.8398 Y269.7013
G01 X187.8835 Y269.6826
G01 X187.9263 Y269.6618
G01 X187.9681 Y269.6390
G01 X188.0087 Y269.6142
G01 X188.0481 Y269.5876
G01 X188.0863 Y269.5590
G01 X188.1230 Y269.5287
G01 X188.1582 Y269.4967
G01 X188.1918 Y269.4631
G01 X188.2238 Y269.4278
G01 X188.2541 Y269.3911
G01 X188.2827 Y269.3530
G01 X188.3093 Y269.3136
G01 X188.3341 Y269.2730
G01 X188.3569 Y269.2312
G01 X188.3777 Y269.1884
G01 X188.3965 Y269.1446
G01 X188.4131 Y269.1000
G01 X188.4276 Y269.0547
G01 X188.4399 Y269.0087
G01 X188.4500 Y268.9622
G01 X188.4579 Y268.9153
G01 X188.4636 Y268.8680
G01 X188.4670 Y268.8206
G01 X188.4681 Y268.7730
G01 X188.4788 Y268.7214 F1000
G01 X188.4869 Y268.6693
G01 X188.4923 Y268.6169
G01 X188.4950 Y268.5642
G01 X188.4949 Y268.5115
G01 X188.4922 Y268.4589
G01 X188.4867 Y268.4065
G01 X188.4786 Y268.3544
G01 X188.4669 Y268.2984
G01 X188.4523 Y268.2431
G01 X188.4349 Y268.1886
G01 X188.4148 Y268.1351
G01 X188.3920 Y268.0827
G01 X188.3665 Y268.0314
G01 X188.3384 Y267.9816
G01 X188.3078 Y267.9333
G01 X188.2722 Y267.8829
G01 X188.2340 Y267.8344
G01 X188.1935 Y267.7878
G01 X188.1506 Y267.7434
G01 X188.1056 Y267.7013
G01 X188.0585 Y267.6615
G01 X188.0093 Y267.6241
G01 X187.9584 Y267.5893
G01 X187.9019 Y267.5547
G01 X187.8437 Y267.5230
G01 X187.7840 Y267.4943
G01 X187.7230 Y267.4687
G01 X187.6607 Y267.4462
G01 X187.5973 Y267.4269
G01 X187.5331 Y267.4108
G01 X187.4681 Y267.3980
G01 X187.3981 Y267.3878
G01 X187.3276 Y267.3812
G01 X187.2569 Y267.3781
G01 X187.1861 Y267.3786
G01 X187.1155 Y267.3826
G01 X187.0451 Y267.3902
G01 X186.9753 Y267.4014
G01 X186.9060 Y267.4160
G01 X186.8376 Y267.4417
G01 X186.7706 Y267.4707
G01 X186.7051 Y267.5030
G01 X186.6412 Y267.5384
G01 X186.5791 Y267.5770
G01 X186.5191 Y267.6186
G01 X186.4611 Y267.6630
G01 X186.4054 Y267.7103
G01 X186.3546 Y267.7637
G01 X186.3064 Y267.8196
G01 X186.2610 Y267.8777
G01 X186.2185 Y267.9381
G01 X186.1791 Y268.0004
G01 X186.1427 Y268.0645
G01 X186.1096 Y268.1304
G01 X186.0797 Y268.1979
G01 X186.0531 Y268.2667
G01 X186.0300 Y268.3367
G01 X186.0103 Y268.4078
G01 X185.9941 Y268.4798
G01 X185.9815 Y268.5525
G01 X185.9725 Y268.6257
G01 X185.9671 Y268.6992
G01 X185.9653 Y268.7730
G01 X185.9671 Y268.8467
G01 X185.9725 Y268.9203
G01 X185.9815 Y268.9935
G01 X185.9941 Y269.0662
G01 X186.0103 Y269.1381
G01 X186.0300 Y269.2092
G01 X186.0531 Y269.2793
G01 X186.0797 Y269.3481
G01 X186.1096 Y269.4155
G01 X186.1427 Y269.4814
G01 X186.1791 Y269.5456
G01 X186.2185 Y269.6079
G01 X186.2610 Y269.6682
G01 X186.3064 Y269.7264
G01 X186.3546 Y269.7822
G01 X186.4054 Y269.8356
G01 X186.4589 Y269.8865
G01 X186.5147 Y269.9347
G01 X186.5729 Y269.9801
G01 X186.6332 Y270.0225
G01 X186.6955 Y270.0620
G01 X186.7597 Y270.0984
G01 X186.8255 Y270.1315
G01 X186.8930 Y270.1614
G01 X186.9618 Y270.1880
G01 X187.0318 Y270.2111
G01 X187.1029 Y270.2308
G01 X187.1749 Y270.2469
G01 X187.2476 Y270.2595
G01 X187.3208 Y270.2686
G01 X187.3944 Y270.2740
G01 X187.4681 Y270.2758
G01 X187.5418 Y270.2740
G01 X187.6154 Y270.2686
G01 X187.6886 Y270.2595
G01 X187.7613 Y270.2469
G01 X187.8333 Y270.2308
G01 X187.9043 Y270.2111
G01 X187.9744 Y270.1880
G01 X188.0432 Y270.1614
G01 X188.1106 Y270.1315
G01 X188.1765 Y270.0984
G01 X188.2407 Y270.0620
G01 X188.3030 Y270.0225
G01 X188.3633 Y269.9801
G01 X188.4215 Y269.9347
G01 X188.4773 Y269.8865
G01 X188.5308 Y269.8356
G01 X188.5816 Y269.7822
G01 X188.6298 Y269.7264
G01 X188.6752 Y269.6682
G01 X188.7176 Y269.6079
G01 X188.7571 Y269.5456
G01 X188.7935 Y269.4814
G01 X188.8266 Y269.4155
G01 X188.8565 Y269.3481
G01 X188.8831 Y269.2793
G01 X188.9062 Y269.2092
G01 X188.9259 Y269.1381
G01 X188.9420 Y269.0662
G01 X188.9547 Y268.9935
G01 X188.9637 Y268.9203
G01 X188.9691 Y268.8467
G01 X188.9709 Y268.7730
G01 X188.9667 Y268.6607
G01 X188.9541 Y268.5490
G01 X188.9332 Y268.4386
G01 X188.9042 Y268.3300
G01 X188.8670 Y268.2239
G01 X188.8221 Y268.1209
G01 X188.7696 Y268.0216
G01 X188.7098 Y267.9264
G01 X188.6431 Y267.8360
G01 X188.5697 Y267.7508
G01 X188.4903 Y267.6713
G01 X188.4051 Y267.5980
G01 X188.3147 Y267.5313
G01 X188.2195 Y267.4715
G01 X188.1201 Y267.4190
G01 X188.0171 Y267.3740
G01 X187.9111 Y267.3369
G01 X187.8025 Y267.3078
G01 X187.6921 Y267.2869
G01 X187.5804 Y267.2744
G01 X187.4681 Y267.2701
G01 X187.3558 Y267.2744
G01 X187.2441 Y267.2869
G01 X187.1337 Y267.3078
G01 X187.0251 Y267.3369
G01 X186.9190 Y267.3740
G01 X186.8160 Y267.4190
G01 X186.7167 Y267.4715
G01 X186.6215 Y267.5313
G01 X186.5311 Y267.5980
G01 X186.4459 Y267.6713
G01 X186.3664 Y267.7508
G01 X186.2931 Y267.8360
G01 X186.2264 Y267.9264
G01 X186.1666 Y268.0216
G01 X186.1141 Y268.1209
G01 X186.0691 Y268.2239
G01 X186.0320 Y268.3300
G01 X186.0029 Y268.4386
G01 X185.9820 Y268.5490
G01 X185.9695 Y268.6607
G01 X185.9653 Y268.7730
G01 X185.9695 Y268.8853
G01 X185.9820 Y268.9970
G01 X186.0029 Y269.1074
G01 X186.0320 Y269.2159
G01 X186.0691 Y269.3220
G01 X186.1141 Y269.4250
G01 X186.1666 Y269.5244
G01 X186.2264 Y269.6196
G01 X186.2931 Y269.7100
G01 X186.3664 Y269.7952
G01 X186.4459 Y269.8746
G01 X186.5311 Y269.9479
G01 X186.6215 Y270.0147
G01 X186.7167 Y270.0745
G01 X186.8160 Y270.1270
G01 X186.9190 Y270.1719
G01 X187.0251 Y270.2090
G01 X187.1337 Y270.2381
G01 X187.2441 Y270.2590
G01 X187.3558 Y270.2716
G01 X187.4681 Y270.2758
G01 X187.5804 Y270.2716
G01 X187.6921 Y270.2590
G01 X187.8025 Y270.2381
G01 X187.9111 Y270.2090
G01 X188.0171 Y270.1719
G01 X188.1201 Y270.1270
G01 X188.2195 Y270.0745
G01 X188.3147 Y270.0147
G01 X188.4051 Y269.9479
G01 X188.4903 Y269.8746
G01 X188.5697 Y269.7952
G01 X188.6431 Y269.7100
G01 X188.7098 Y269.6196
G01 X188.7696 Y269.5244
G01 X188.8221 Y269.4250
G01 X188.8670 Y269.3220
G01 X188.9042 Y269.2159
G01 X188.9332 Y269.1074
G01 X188.9541 Y268.9970
G01 X188.9667 Y268.8853
G01 X188.9709 Y268.7730
G01 X188.9671 Y268.6748
G01 X188.9555 Y268.5772
G01 X188.9363 Y268.4808
G01 X188.9097 Y268.3863
G01 X188.8757 Y268.2941
G01 X188.8345 Y268.2048
G01 X188.7865 Y268.1191
G01 X188.7319 Y268.0374
G01 X188.6711 Y267.9602
G01 X188.6044 Y267.8881
G01 X188.5322 Y267.8214
G01 X188.4551 Y267.7606
G01 X188.3734 Y267.7060
G01 X188.2876 Y267.6580
G01 X188.1984 Y267.6168
G01 X188.1062 Y267.5828
G01 X188.0116 Y267.5561
G01 X187.9153 Y267.5370
G01 X187.8177 Y267.5254
G01 X187.7195 Y267.5216
G01 X187.6213 Y267.5254
G01 X187.5237 Y267.5370
G01 X187.4274 Y267.5561
G01 X187.3328 Y267.5828
G01 X187.2406 Y267.6168
G01 X187.1514 Y267.6580
G01 X187.0656 Y267.7060
G01 X186.9839 Y267.7606
G01 X186.9068 Y267.8214
G01 X186.8346 Y267.8881
G01 X186.7679 Y267.9602
G01 X186.7071 Y268.0374
G01 X186.6525 Y268.1191
G01 X186.6045 Y268.2048
G01 X186.5634 Y268.2941
G01 X186.5293 Y268.3863
G01 X186.5027 Y268.4808
G01 X186.4835 Y268.5772
G01 X186.4719 Y268.6748
G01 X186.4681 Y268.7730
G01 X186.4692 Y268.8192
G01 X186.4724 Y268.8652
G01 X186.4777 Y268.9111
G01 X186.4851 Y268.9567
G01 X186.4947 Y269.0019
G01 X186.5063 Y269.0466
G01 X186.5199 Y269.0908
G01 X186.5356 Y269.1342
G01 X186.5533 Y269.1769
G01 X186.5729 Y269.2187
G01 X186.5945 Y269.2596
G01 X186.6179 Y269.2994
G01 X186.6431 Y269.3381
G01 X186.6701 Y269.3756
G01 X186.6988 Y269.4118
G01 X186.7291 Y269.4467
G01 X186.7610 Y269.4801
G01 X186.7944 Y269.5120
G01 X186.8292 Y269.5423
G01 X186.8655 Y269.5710
G01 X186.9030 Y269.5980
G01 X186.9417 Y269.6232
G01 X186.9815 Y269.6466
G01 X187.0224 Y269.6681
G01 X187.0642 Y269.6878
G01 X187.1069 Y269.7055
G01 X187.1503 Y269.7211
G01 X187.1944 Y269.7348
G01 X187.2391 Y269.7464
G01 X187.2843 Y269.7560
G01 X187.3299 Y269.7634
G01 X187.3758 Y269.7687
G01 X187.4219 Y269.7719
G01 X187.4681 Y269.7730
G01 X187.5143 Y269.7719
G01 X187.5604 Y269.7687
G01 X187.6062 Y269.7634
G01 X187.6518 Y269.7560
G01 X187.6970 Y269.7464
G01 X187.7418 Y269.7348
G01 X187.7859 Y269.7211
G01 X187.8293 Y269.7055
G01 X187.8720 Y269.6878
G01 X187.9138 Y269.6681
G01 X187.9547 Y269.6466
G01 X187.9945 Y269.6232
G01 X188.0332 Y269.5980
G01 X188.0707 Y269.5710
G01 X188.1069 Y269.5423
G01 X188.1418 Y269.5120
G01 X188.1752 Y269.4801
G01 X188.2071 Y269.4467
G01 X188.2374 Y269.4118
G01 X188.2661 Y269.3756
G01 X188.2931 Y269.3381
G01 X188.3183 Y269.2994
G01 X188.3417 Y269.2596
G01 X188.3633 Y269.2187
G01 X188.3829 Y269.1769
G01 X188.4006 Y269.1342
G01 X188.4163 Y269.0908
G01 X188.4299 Y269.0466
G01 X188.4415 Y269.0019
G01 X188.4511 Y268.9567
G01 X188.4585 Y268.9111
G01 X188.4638 Y268.8652
G01 X188.4670 Y268.8192
G01 X188.4681 Y268.7730
M107
M106 S240
G01 X188.4643 Y268.6858 Z-1.1476 F400
G01 X188.4529 Y268.5993 Z-1.1701
G01 X188.4340 Y268.5142 Z-1.1927
G01 X188.4078 Y268.4310 Z-1.2153
G01 X188.3744 Y268.3504 Z-1.2378
G01 X188.3341 Y268.2730 Z-1.2604
G01 X188.2872 Y268.1994 Z-1.2830
G01 X188.2341 Y268.1302 Z-1.3056
G01 X188.1752 Y268.0659 Z-1.3281
G01 X188.1109 Y268.0069 Z-1.3507
G01 X188.0417 Y267.9538 Z-1.3733
G01 X187.9681 Y267.9070 Z-1.3958
G01 X187.8907 Y267.8667 Z-1.4184
G01 X187.8101 Y267.8333 Z-1.4410
G01 X187.7269 Y267.8071 Z-1.4635
G01 X187.6417 Y267.7882 Z-1.4861
G01 X187.5552 Y267.7768 Z-1.5087
G01 X187.4681 Y267.7730 Z-1.5313
G01 X187.3809 Y267.7768 Z-1.5538
G01 X187.2944 Y267.7882 Z-1.5764
G01 X187.2093 Y267.8071 Z-1.5990
G01 X187.1261 Y267.8333 Z-1.6215
G01 X187.0455 Y267.8667 Z-1.6441
G01 X186.9681 Y267.9070 Z-1.6667
G01 X186.9275 Y267.9317 Z-1.6790
G01 X186.8880 Y267.9584 Z-1.6913
G01 X186.8499 Y267.9869 Z-1.7036
G01 X186.8132 Y268.0172 Z-1.7159
G01 X186.7780 Y268.0492 Z-1.7282
G01 X186.7444 Y268.0829 Z-1.7405
G01 X186.7123 Y268.1181 Z-1.7528
G01 X186.6820 Y268.1548 Z-1.7652
G01 X186.6535 Y268.1929 Z-1.7775
G01 X186.6268 Y268.2323 Z-1.7898
G01 X186.6021 Y268.2730 Z-1.8021
G01 X186.5793 Y268.3148 Z-1.8144
G01 X186.5585 Y268.3576 Z-1.8267
G01 X186.5397 Y268.4013 Z-1.8390
G01 X186.5231 Y268.4459 Z-1.8513
G01 X186.5086 Y268.4912 Z-1.8636
G01 X186.4963 Y268.5372 Z-1.8759
G01 X186.4862 Y268.5837 Z-1.8883
G01 X186.4783 Y268.6307 Z-1.9006
G01 X186.4726 Y268.6779 Z-1.9129
G01 X186.4692 Y268.7254 Z-1.9252
G01 X186.4681 Y268.7730 Z-1.9375
G01 X186.4692 Y268.8206 Z-1.9498
G01 X186.4726 Y268.8680 Z-1.9621
G01 X186.4783 Y268.9153 Z-1.9744
G01 X186.4862 Y268.9622 Z-1.9867
G01 X186.4963 Y269.0087 Z-1.9991
G01 X186.5086 Y269.0547 Z-2.0114
G01 X186.5231 Y269.1000 Z-2.0237
G01 X186.5397 Y269.1446 Z-2.0360
G01 X186.5585 Y269.1884 Z-2.0483
G01 X186.5793 Y269.2312 Z-2.0606
G01 X186.6021 Y269.2730 Z-2.0729
G01 X186.6268 Y269.3136 Z-2.0852
G01 X186.6535 Y269.3530 Z-2.0975
G01 X186.6820 Y269.3911 Z-2.1098
G01 X186.7123 Y269.4278 Z-2.1222
G01 X186.7444 Y269.4631 Z-2.1345
G01 X186.7780 Y269.4967 Z-2.1468
G01 X186.8132 Y269.5287 Z-2.1591
G01 X186.8499 Y269.5590 Z-2.1714
G01 X186.8880 Y269.5876 Z-2.1837
G01 X186.9275 Y269.6142 Z-2.1960
G01 X186.9681 Y269.6390 Z-2.2083
G01 X187.0099 Y269.6618 Z-2.2206
G01 X187.0527 Y269.6826 Z-2.2330
G01 X187.0964 Y269.7013 Z-2.2453
G01 X187.1410 Y269.7180 Z-2.2576
G01 X187.1864 Y269.7325 Z-2.2699
G01 X187.2323 Y269.7448 Z-2.2822
G01 X187.2788 Y269.7549 Z-2.2945
G01 X187.3258 Y269.7628 Z-2.3068
G01 X187.3730 Y269.7685 Z-2.3191
G01 X187.4205 Y269.7718 Z-2.3314
G01 X187.4681 Y269.7730 Z-2.3438
G01 X187.5157 Y269.7718 Z-2.3561
G01 X187.5631 Y269.7685 Z-2.3684
G01 X187.6104 Y269.7628 Z-2.3807
G01 X187.6573 Y269.7549 Z-2.3930
G01 X187.7039 Y269.7448 Z-2.4053
G01 X187.7498 Y269.7325 Z-2.4176
G01 X187.7952 Y269.7180 Z-2.4299
G01 X187.8398 Y269.7013 Z-2.4422
G01 X187.8835 Y269.6826 Z-2.4545
G01 X187.9263 Y269.6618 Z-2.4669
G01 X187.9681 Y269.6390 Z-2.4792
G01 X188.0087 Y269.6142 Z-2.4915
G01 X188.0481 Y269.5876 Z-2.5038
G01 X188.0863 Y269.5590 Z-2.5161
G01 X188.1230 Y269.5287 Z-2.5284
G01 X188.1582 Y269.4967 Z-2.5407
G01 X188.1918 Y269.4631 Z-2.5530
G01 X188.2238 Y269.4278 Z-2.5653
G01 X188.2541 Y269.3911 Z-2.5777
G01 X188.2827 Y269.3530 Z-2.5900
G01 X188.3093 Y269.3136 Z-2.6023
G01 X188.3341 Y269.2730 Z-2.6146
G01 X188.3569 Y269.2312 Z-2.6269
G01 X188.3777 Y269.1884 Z-2.6392
G01 X188.3965 Y269.1446 Z-2.6515
G01 X188.4131 Y269.1000 Z-2.6638
G01 X188.4276 Y269.0547 Z-2.6761
G01 X188.4399 Y269.0087 Z-2.6884
G01 X188.4500 Y268.9622 Z-2.7008
G01 X188.4579 Y268.9153 Z-2.7131
G01 X188.4636 Y268.8680 Z-2.7254
G01 X188.4670 Y268.8206 Z-2.7377
G01 X188.4681 Y268.7730 Z-2.7500
G01 X188.4643 Y268.6858
G01 X188.4529 Y268.5993
G01 X188.4340 Y268.5142
G01 X188.4078 Y268.4310
G01 X188.3744 Y268.3504
G01 X188.3341 Y268.2730
G01 X188.2872 Y268.1994
G01 X188.2341 Y268.1302
G01 X188.1752 Y268.0659
G01 X188.1109 Y268.0069
G01 X188.0417 Y267.9538
G01 X187.9681 Y267.9070
G01 X187.8907 Y267.8667
G01 X187.8101 Y267.8333
G01 X187.7269 Y267.8071
G01 X187.6417 Y267.7882
G01 X187.5552 Y267.7768
G01 X187.4681 Y267.7730
G01 X187.3809 Y267.7768
G01 X187.2944 Y267.7882
G01 X187.2093 Y267.8071
G01 X187.1261 Y267.8333
G01 X187.0455 Y267.8667
G01 X186.9681 Y267.9070
G01 X186.9275 Y267.9317
G01 X186.8880 Y267.9584
G01 X186.8499 Y267.9869
G01 X186.8132 Y268.0172
G01 X186.7780 Y268.0492
G01 X186.7444 Y268.0829
G01 X186.7123 Y268.1181
G01 X186.6820 Y268.1548
G01 X186.6535 Y268.1929
G01 X186.6268 Y268.2323
G01 X186.6021 Y268.2730
G01 X186.5793 Y268.3148
G01 X186.5585 Y268.3576
G01 X186.5397 Y268.4013
G01 X186.5231 Y268.4459
G01 X186.5086 Y268.4912
G01 X186.4963 Y268.5372
G01 X186.4862 Y268.5837
G01 X186.4783 Y268.6307
G01 X186.4726 Y268.6779
G01 X186.4692 Y268.7254
G01 X186.4681 Y268.7730
G01 X186.4692 Y268.8206
G01 X186.4726 Y268.8680
G01 X186.4783 Y268.9153
G01 X186.4862 Y268.9622
G01 X186.4963 Y269.0087
G01 X186.5086 Y269.0547
G01 X186.5231 Y269.1000
G01 X186.5397 Y269.1446
G01 X186.5585 Y269.1884
G01 X186.5793 Y269.2312
G01 X186.6021 Y269.2730
G01 X186.6268 Y269.3136
G01 X186.6535 Y269.3530
G01 X186.6820 Y269.3911
G01 X186.7123 Y269.4278
G01 X186.7444 Y269.4631
G01 X186.7780 Y269.4967
G01 X186.8132 Y269.5287
G01 X186.8499 Y269.5590
G01 X186.8880 Y269.5876
G01 X186.9275 Y269.6142
G01 X186.9681 Y269.6390
G01 X187.0099 Y269.6618
G01 X187.0527 Y269.6826
G01 X187.0964 Y269.7013
G01 X187.1410 Y269.7180
G01 X187.1864 Y269.7325
G01 X187.2323 Y269.7448
G01 X187.2788 Y269.7549
G01 X187.3258 Y269.7628
G01 X187.3730 Y269.7685
G01 X187.4205 Y269.7718
G01 X187.4681 Y269.7730
G01 X187.5157 Y269.7718
G01 X187.5631 Y269.7685
G01 X187.6104 Y269.7628
G01 X187.6573 Y269.7549
G01 X187.7039 Y269.7448
G01 X187.7498 Y269.7325
G01 X187.7952 Y269.7180
G01 X187.8398 Y269.7013
G01 X187.8835 Y269.6826
G01 X187.9263 Y269.6618
G01 X187.9681 Y269.6390
G01 X188.0087 Y269.6142
G01 X188.0481 Y269.5876
G01 X188.0863 Y269.5590
G01 X188.1230 Y269.5287
G01 X188.1582 Y269.4967
G01 X188.1918 Y269.4631
G01 X188.2238 Y269.4278
G01 X188.2541 Y269.3911
G01 X188.2827 Y269.3530
G01 X188.3093 Y269.3136
G01 X188.3341 Y269.2730
G01 X188.3569 Y269.2312
G01 X188.3777 Y269.1884
G01 X188.3965 Y269.1446
G01 X188.4131 Y269.1000
G01 X188.4276 Y269.0547
G01 X188.4399 Y269.0087
G01 X188.4500 Y268.9622
G01 X188.4579 Y268.9153
G01 X188.4636 Y268.8680
G01 X188.4670 Y268.8206
G01 X188.4681 Y268.7730
G01 X188.4788 Y268.7214 F1000
G01 X188.4869 Y268.6693
G01 X188.4923 Y268.6169
G01 X188.4950 Y268.5642
G01 X188.4949 Y268.5115
G01 X188.4922 Y268.4589
G01 X188.4867 Y268.4065
G01 X188.4786 Y268.3544
G01 X188.4669 Y268.2984
G01 X188.4523 Y268.2431
G01 X188.4349 Y268.1886
G01 X188.4148 Y268.1351
G01 X188.3920 Y268.0827
G01 X188.3665 Y268.0314
G01 X188.3384 Y267.9816
G01 X188.3078 Y267.9333
G01 X188.2722 Y267.8829
G01 X188.2340 Y267.8344
G01 X188.1935 Y267.7878
G01 X188.1506 Y267.7434
G01 X188.1056 Y267.7013
G01 X188.0585 Y267.6615
G01 X188.0093 Y267.6241
G01 X187.9584 Y267.5893
G01 X187.9019 Y267.5547
G01 X187.8437 Y267.5230
G01 X187.7840 Y267.4943
G01 X187.7230 Y267.4687
G01 X187.6607 Y267.4462
G01 X187.5973 Y267.4269
G01 X187.5331 Y267.4108
G01 X187.4681 Y267.3980
G01 X187.3981 Y267.3878
G01 X187.3276 Y267.3812
G01 X187.2569 Y267.3781
G01 X187.1861 Y267.3786
G01 X187.1155 Y267.3826
G01 X187.0451 Y267.3902
G01 X186.9753 Y267.4014
G01 X186.9060 Y267.4160
G01 X186.8376 Y267.4417
G01 X186.7706 Y267.4707
G01 X186.7051 Y267.5030
G01 X186.6412 Y267.5384
G01 X186.5791 Y267.5770
G01 X186.5191 Y267.6186
G01 X186.4611 Y267.6630
G01 X186.4054 Y267.7103
G01 X186.3546 Y267.7637
G01 X186.3064 Y267.8196
G01 X186.2610 Y267.8777
G01 X186.2185 Y267.9381
G01 X186.1791 Y268.0004
G01 X186.1427 Y268.0645
G01 X186.1096 Y268.1304
G01 X186.0797 Y268.1979
G01 X186.0531 Y268.2667
G01 X186.0300 Y268.3367
G01 X186.0103 Y268.4078
G01 X185.9941 Y268.4798
G01 X185.9815 Y268.5525
G01 X185.9725 Y268.6257
G01 X185.9671 Y268.6992
G01 X185.9653 Y268.7730
G01 X185.9671 Y268.8467
G01 X185.9725 Y268.9203
G01 X185.9815 Y268.9935
G01 X185.9941 Y269.0662
G01 X186.0103 Y269.1381
G01 X186.0300 Y269.2092
G01 X186.0531 Y269.2793
G01 X186.0797 Y269.3481
G01 X186.1096 Y269.4155
G01 X186.1427 Y269.4814
G01 X186.1791 Y269.5456
G01 X186.2185 Y269.6079
G01 X186.2610 Y269.6682
G01 X186.3064 Y269.7264
G01 X186.3546 Y269.7822
G01 X186.4054 Y269.8356
G01 X186.4589 Y269.8865
G01 X186.5147 Y269.9347
G01 X186.5729 Y269.9801
G01 X186.6332 Y270.0225
G01 X186.6955 Y270.0620
G01 X186.7597 Y270.0984
G01 X186.8255 Y270.1315
G01 X186.8930 Y270.1614
G01 X186.9618 Y270.1880
G01 X187.0318 Y270.2111
G01 X187.1029 Y270.2308
G01 X187.1749 Y270.2469
G01 X187.2476 Y270.2595
G01 X187.3208 Y270.2686
G01 X187.3944 Y270.2740
G01 X187.4681 Y270.2758
G01 X187.5418 Y270.2740
G01 X187.6154 Y270.2686
G01 X187.6886 Y270.2595
G01 X187.7613 Y270.2469
G01 X187.8333 Y270.2308
G01 X187.9043 Y270.2111
G01 X187.9744 Y270.1880
G01 X188.0432 Y270.1614
G01 X188.1106 Y270.1315
G01 X188.1765 Y270.0984
G01 X188.2407 Y270.0620
G01 X188.3030 Y270.0225
G01 X188.3633 Y269.9801
G01 X188.4215 Y269.9347
G01 X188.4773 Y269.8865
G01 X188.5308 Y269.8356
G01 X188.5816 Y269.7822
G01 X188.6298 Y269.7264
G01 X188.6752 Y269.6682
G01 X188.7176 Y269.6079
G01 X188.7571 Y269.5456
G01 X188.7935 Y269.4814
G01 X188.8266 Y269.4155
G01 X188.8565 Y269.3481
G01 X188.8831 Y269.2793
G01 X188.9062 Y269.2092
G01 X188.9259 Y269.1381
G01 X188.9420 Y269.0662
G01 X188.9547 Y268.9935
G01 X188.9637 Y268.9203
G01 X188.9691 Y268.8467
G01 X188.9709 Y268.7730
G01 X188.9667 Y268.6607
G01 X188.9541 Y268.5490
G01 X188.9332 Y268.4386
G01 X188.9042 Y268.3300
G01 X188.8670 Y268.2239
G01 X188.8221 Y268.1209
G01 X188.7696 Y268.0216
G01 X188.7098 Y267.9264
G01 X188.6431 Y267.8360
G01 X188.5697 Y267.7508
G01 X188.4903 Y267.6713
G01 X188.4051 Y267.5980
G01 X188.3147 Y267.5313
G01 X188.2195 Y267.4715
G01 X188.1201 Y267.4190
G01 X188.0171 Y267.3740
G01 X187.9111 Y267.3369
G01 X187.8025 Y267.3078
G01 X187.6921 Y267.2869
G01 X187.5804 Y267.2744
G01 X187.4681 Y267.2701
G01 X187.3558 Y267.2744
G01 X187.2441 Y267.2869
G01 X187.1337 Y267.3078
G01 X187.0251 Y267.3369
G01 X186.9190 Y267.3740
G01 X186.8160 Y267.4190
G01 X186.7167 Y267.4715
G01 X186.6215 Y267.5313
G01 X186.5311 Y267.5980
G01 X186.4459 Y267.6713
G01 X186.3664 Y267.7508
G01 X186.2931 Y267.8360
G01 X186.2264 Y267.9264
G01 X186.1666 Y268.0216
G01 X186.1141 Y268.1209
G01 X186.0691 Y268.2239
G01 X186.0320 Y268.3300
G01 X186.0029 Y268.4386
G01 X185.9820 Y268.5490
G01 X185.9695 Y268.6607
G01 X185.9653 Y268.7730
G01 X185.9695 Y268.8853
G01 X185.9820 Y268.9970
G01 X186.0029 Y269.1074
G01 X186.0320 Y269.2159
G01 X186.0691 Y269.3220
G01 X186.1141 Y269.4250
G01 X186.1666 Y269.5244
G01 X186.2264 Y269.6196
G01 X186.2931 Y269.7100
G01 X186.3664 Y269.7952
G01 X186.4459 Y269.8746
G01 X186.5311 Y269.9479
G01 X186.6215 Y270.0147
G01 X186.7167 Y270.0745
G01 X186.8160 Y270.1270
G01 X186.9190 Y270.1719
G01 X187.0251 Y270.2090
G01 X187.1337 Y270.2381
G01 X187.2441 Y270.2590
G01 X187.3558 Y270.2716
G01 X187.4681 Y270.2758
G01 X187.5804 Y270.2716
G01 X187.6921 Y270.2590
G01 X187.8025 Y270.2381
G01 X187.9111 Y270.2090
G01 X188.0171 Y270.1719
G01 X188.1201 Y270.1270
G01 X188.2195 Y270.0745
G01 X188.3147 Y270.0147
G01 X188.4051 Y269.9479
G01 X188.4903 Y269.8746
G01 X188.5697 Y269.7952
G01 X188.6431 Y269.7100
G01 X188.7098 Y269.6196
G01 X188.7696 Y269.5244
G01 X188.8221 Y269.4250
G01 X188.8670 Y269.3220
G01 X188.9042 Y269.2159
G01 X188.9332 Y269.1074
G01 X188.9541 Y268.9970
G01 X188.9667 Y268.8853
G01 X188.9709 Y268.7730
G01 X188.9671 Y268.6748
G01 X188.9555 Y268.5772
G01 X188.9363 Y268.4808
G01 X188.9097 Y268.3863
G01 X188.8757 Y268.2941
G01 X188.8345 Y268.2048
G01 X188.7865 Y268.1191
G01 X188.7319 Y268.0374
G01 X188.6711 Y267.9602
G01 X188.6044 Y267.8881
G01 X188.5322 Y267.8214
G01 X188.4551 Y267.7606
G01 X188.3734 Y267.7060
G01 X188.2876 Y267.6580
G01 X188.1984 Y267.6168
G01 X188.1062 Y267.5828
G01 X188.0116 Y267.5561
G01 X187.9153 Y267.5370
G01 X187.8177 Y267.5254
G01 X187.7195 Y267.5216
G01 X187.6213 Y267.5254
G01 X187.5237 Y267.5370
G01 X187.4274 Y267.5561
G01 X187.3328 Y267.5828
G01 X187.2406 Y267.6168
G01 X187.1514 Y267.6580
G01 X187.0656 Y267.7060
G01 X186.9839 Y267.7606
G01 X186.9068 Y267.8214
G01 X186.8346 Y267.8881
G01 X186.7679 Y267.9602
G01 X186.7071 Y268.0374
G01 X186.6525 Y268.1191
G01 X186.6045 Y268.2048
G01 X186.5634 Y268.2941
G01 X186.5293 Y268.3863
G01 X186.5027 Y268.4808
G01 X186.4835 Y268.5772
G01 X186.4719 Y268.6748
G01 X186.4681 Y268.7730
G01 X186.4692 Y268.8192
G01 X186.4724 Y268.8652
G01 X186.4777 Y268.9111
G01 X186.4851 Y268.9567
G01 X186.4947 Y269.0019
G01 X186.5063 Y269.0466
G01 X186.5199 Y269.0908
G01 X186.5356 Y269.1342
G01 X186.5533 Y269.1769
G01 X186.5729 Y269.2187
G01 X186.5945 Y269.2596
G01 X186.6179 Y269.2994
G01 X186.6431 Y269.3381
G01 X186.6701 Y269.3756
G01 X186.6988 Y269.4118
G01 X186.7291 Y269.4467
G01 X186.7610 Y269.4801
G01 X186.7944 Y269.5120
G01 X186.8292 Y269.5423
G01 X186.8655 Y269.5710
G01 X186.9030 Y269.5980
G01 X186.9417 Y269.6232
G01 X186.9815 Y269.6466
G01 X187.0224 Y269.6681
G01 X187.0642 Y269.6878
G01 X187.1069 Y269.7055
G01 X187.1503 Y269.7211
G01 X187.1944 Y269.7348
G01 X187.2391 Y269.7464
G01 X187.2843 Y269.7560
G01 X187.3299 Y269.7634
G01 X187.3758 Y269.7687
G01 X187.4219 Y269.7719
G01 X187.4681 Y269.7730
G01 X187.5143 Y269.7719
G01 X187.5604 Y269.7687
G01 X187.6062 Y269.7634
G01 X187.6518 Y269.7560
G01 X187.6970 Y269.7464
G01 X187.7418 Y269.7348
G01 X187.7859 Y269.7211
G01 X187.8293 Y269.7055
G01 X187.8720 Y269.6878
G01 X187.9138 Y269.6681
G01 X187.9547 Y269.6466
G01 X187.9945 Y269.6232
G01 X188.0332 Y269.5980
G01 X188.0707 Y269.5710
G01 X188.1069 Y269.5423
G01 X188.1418 Y269.5120
G01 X188.1752 Y269.4801
G01 X188.2071 Y269.4467
G01 X188.2374 Y269.4118
G01 X188.2661 Y269.3756
G01 X188.2931 Y269.3381
G01 X188.3183 Y269.2994
G01 X188.3417 Y269.2596
G01 X188.3633 Y269.2187
G01 X188.3829 Y269.1769
G01 X188.4006 Y269.1342
G01 X188.4163 Y269.0908
G01 X188.4299 Y269.0466
G01 X188.4415 Y269.0019
G01 X188.4511 Y268.9567
G01 X188.4585 Y268.9111
G01 X188.4638 Y268.8652
G01 X188.4670 Y268.8192
G01 X188.4681 Y268.7730
M107
M106 S240
G01 X188.4643 Y268.6858 Z-2.7726 F400
G01 X188.4529 Y268.5993 Z-2.7951
G01 X188.4340 Y268.5142 Z-2.8177
G01 X188.4078 Y268.4310 Z-2.8403
G01 X188.3744 Y268.3504 Z-2.8628
G01 X188.3341 Y268.2730 Z-2.8854
G01 X188.2872 Y268.1994 Z-2.9080
G01 X188.2341 Y268.1302 Z-2.9306
G01 X188.1752 Y268.0659 Z-2.9531
G01 X188.1109 Y268.0069 Z-2.9757
G01 X188.0417 Y267.9538 Z-2.9983
G01 X187.9681 Y267.9070 Z-3.0208
G01 X187.8907 Y267.8667 Z-3.0434
G01 X187.8101 Y267.8333 Z-3.0660
G01 X187.7269 Y267.8071 Z-3.0885
G01 X187.6417 Y267.7882 Z-3.1111
G01 X187.5552 Y267.7768 Z-3.1337
G01 X187.4681 Y267.7730 Z-3.1563
G01 X187.3809 Y267.7768 Z-3.1788
G01 X187.2944 Y267.7882 Z-3.2014
G01 X187.2093 Y267.8071 Z-3.2240
G01 X187.1261 Y267.8333 Z-3.2465
G01 X187.0455 Y267.8667 Z-3.2691
G01 X186.9681 Y267.9070 Z-3.2917
G01 X186.9275 Y267.9317 Z-3.3040
G01 X186.8880 Y267.9584 Z-3.3163
G01 X186.8499 Y267.9869 Z-3.3286
G01 X186.8132 Y268.0172 Z-3.3409
G01 X186.7780 Y268.0492 Z-3.3532
G01 X186.7444 Y268.0829 Z-3.3655
G01 X186.7123 Y268.1181 Z-3.3778
G01 X186.6820 Y268.1548 Z-3.3902
G01 X186.6535 Y268.1929 Z-3.4025
G01 X186.6268 Y268.2323 Z-3.4148
G01 X186.6021 Y268.2730 Z-3.4271
G01 X186.5793 Y268.3148 Z-3.4394
G01 X186.5585 Y268.3576 Z-3.4517
G01 X186.5397 Y268.4013 Z-3.4640
G01 X186.5231 Y268.4459 Z-3.4763
G01 X186.5086 Y268.4912 Z-3.4886
G01 X186.4963 Y268.5372 Z-3.5009
G01 X186.4862 Y268.5837 Z-3.5133
G01 X186.4783 Y268.6307 Z-3.5256
G01 X186.4726 Y268.6779 Z-3.5379
G01 X186.4692 Y268.7254 Z-3.5502
G01 X186.4681 Y268.7730 Z-3.5625
G01 X186.4692 Y268.8206 Z-3.5748
G01 X186.4726 Y268.8680 Z-3.5871
G01 X186.4783 Y268.9153 Z-3.5994
G01 X186.4862 Y268.9622 Z-3.6117
G01 X186.4963 Y269.0087 Z-3.6241
G01 X186.5086 Y269.0547 Z-3.6364
G01 X186.5231 Y269.1000 Z-3.6487
G01 X186.5397 Y269.1446 Z-3.6610
G01 X186.5585 Y269.1884 Z-3.6733
G01 X186.5793 Y269.2312 Z-3.6856
G01 X186.6021 Y269.2730 Z-3.6979
G01 X186.6268 Y269.3136 Z-3.7102
G01 X186.6535 Y269.3530 Z-3.7225
G01 X186.6820 Y269.3911 Z-3.7348
G01 X186.7123 Y269.4278 Z-3.7472
G01 X186.7444 Y269.4631 Z-3.7595
G01 X186.7780 Y269.4967 Z-3.7718
G01 X186.8132 Y269.5287 Z-3.7841
G01 X186.8499 Y269.5590 Z-3.7964
G01 X186.8880 Y269.5876 Z-3.8087
G01 X186.9275 Y269.6142 Z-3.8210
G01 X186.9681 Y269.6390 Z-3.8333
G01 X187.0099 Y269.6618 Z-3.8456
G01 X187.0527 Y269.6826 Z-3.8580
G01 X187.0964 Y269.7013 Z-3.8703
G01 X187.1410 Y269.7180 Z-3.8826
G01 X187.1864 Y269.7325 Z-3.8949
G01 X187.2323 Y269.7448 Z-3.9072
G01 X187.2788 Y269.7549 Z-3.9195
G01 X187.3258 Y269.7628 Z-3.9318
G01 X187.3730 Y269.7685 Z-3.9441
G01 X187.4205 Y269.7718 Z-3.9564
G01 X187.4681 Y269.7730 Z-3.9688
G01 X187.5157 Y269.7718 Z-3.9811
G01 X187.5631 Y269.7685 Z-3.9934
G01 X187.6104 Y269.7628 Z-4.0057
G01 X187.6573 Y269.7549 Z-4.0180
G01 X187.7039 Y269.7448 Z-4.0303
G01 X187.7498 Y269.7325 Z-4.0426
G01 X187.7952 Y269.7180 Z-4.0549
G01 X187.8398 Y269.7013 Z-4.0672
G01 X187.8835 Y269.6826 Z-4.0795
G01 X187.9263 Y269.6618 Z-4.0919
G01 X187.9681 Y269.6390 Z-4.1042
G01 X188.0087 Y269.6142 Z-4.1165
G01 X188.0481 Y269.5876 Z-4.1288
G01 X188.0863 Y269.5590 Z-4.1411
G01 X188.1230 Y269.5287 Z-4.1534
G01 X188.1582 Y269.4967 Z-4.1657
G01 X188.1918 Y269.4631 Z-4.1780
G01 X188.2238 Y269.4278 Z-4.1903
G01 X188.2541 Y269.3911 Z-4.2027
G01 X188.2827 Y269.3530 Z-4.2150
G01 X188.3093 Y269.3136 Z-4.2273
G01 X188.3341 Y269.2730 Z-4.2396
G01 X188.3569 Y269.2312 Z-4.2519
G01 X188.3777 Y269.1884 Z-4.2642
G01 X188.3965 Y269.1446 Z-4.2765
G01 X188.4131 Y269.1000 Z-4.2888
G01 X188.4276 Y269.0547 Z-4.3011
G01 X188.4399 Y269.0087 Z-4.3134
G01 X188.4500 Y268.9622 Z-4.3258
G01 X188.4579 Y268.9153 Z-4.3381
G01 X188.4636 Y268.8680 Z-4.3504
G01 X188.4670 Y268.8206 Z-4.3627
G01 X188.4681 Y268.7730 Z-4.3750
G01 X188.4643 Y268.6858
G01 X188.4529 Y268.5993
G01 X188.4340 Y268.5142
G01 X188.4078 Y268.4310
G01 X188.3744 Y268.3504
G01 X188.3341 Y268.2730
G01 X188.2872 Y268.1994
G01 X188.2341 Y268.1302
G01 X188.1752 Y268.0659
G01 X188.1109 Y268.0069
G01 X188.0417 Y267.9538
G01 X187.9681 Y267.9070
G01 X187.8907 Y267.8667
G01 X187.8101 Y267.8333
G01 X187.7269 Y267.8071
G01 X187.6417 Y267.7882
G01 X187.5552 Y267.7768
G01 X187.4681 Y267.7730
G01 X187.3809 Y267.7768
G01 X187.2944 Y267.7882
G01 X187.2093 Y267.8071
G01 X187.1261 Y267.8333
G01 X187.0455 Y267.8667
G01 X186.9681 Y267.9070
G01 X186.9275 Y267.9317
G01 X186.8880 Y267.9584
G01 X186.8499 Y267.9869
G01 X186.8132 Y268.0172
G01 X186.7780 Y268.0492
G01 X186.7444 Y268.0829
G01 X186.7123 Y268.1181
G01 X186.6820 Y268.1548
G01 X186.6535 Y268.1929
G01 X186.6268 Y268.2323
G01 X186.6021 Y268.2730
G01 X186.5793 Y268.3148
G01 X186.5585 Y268.3576
G01 X186.5397 Y268.4013
G01 X186.5231 Y268.4459
G01 X186.5086 Y268.4912
G01 X186.4963 Y268.5372
G01 X186.4862 Y268.5837
G01 X186.4783 Y268.6307
G01 X186.4726 Y268.6779
G01 X186.4692 Y268.7254
G01 X186.4681 Y268.7730
G01 X186.4692 Y268.8206
G01 X186.4726 Y268.8680
G01 X186.4783 Y268.9153
G01 X186.4862 Y268.9622
G01 X186.4963 Y269.0087
G01 X186.5086 Y269.0547
G01 X186.5231 Y269.1000
G01 X186.5397 Y269.1446
G01 X186.5585 Y269.1884
G01 X186.5793 Y269.2312
G01 X186.6021 Y269.2730
G01 X186.6268 Y269.3136
G01 X186.6535 Y269.3530
G01 X186.6820 Y269.3911
G01 X186.7123 Y269.4278
G01 X186.7444 Y269.4631
G01 X186.7780 Y269.4967
G01 X186.8132 Y269.5287
G01 X186.8499 Y269.5590
G01 X186.8880 Y269.5876
G01 X186.9275 Y269.6142
G01 X186.9681 Y269.6390
G01 X187.0099 Y269.6618
G01 X187.0527 Y269.6826
G01 X187.0964 Y269.7013
G01 X187.1410 Y269.7180
G01 X187.1864 Y269.7325
G01 X187.2323 Y269.7448
G01 X187.2788 Y269.7549
G01 X187.3258 Y269.7628
G01 X187.3730 Y269.7685
G01 X187.4205 Y269.7718
G01 X187.4681 Y269.7730
G01 X187.5157 Y269.7718
G01 X187.5631 Y269.7685
G01 X187.6104 Y269.7628
G01 X187.6573 Y269.7549
G01 X187.7039 Y269.7448
G01 X187.7498 Y269.7325
G01 X187.7952 Y269.7180
G01 X187.8398 Y269.7013
G01 X187.8835 Y269.6826
G01 X187.9263 Y269.6618
G01 X187.9681 Y269.6390
G01 X188.0087 Y269.6142
G01 X188.0481 Y269.5876
G01 X188.0863 Y269.5590
G01 X188.1230 Y269.5287
G01 X188.1582 Y269.4967
G01 X188.1918 Y269.4631
G01 X188.2238 Y269.4278
G01 X188.2541 Y269.3911
G01 X188.2827 Y269.3530
G01 X188.3093 Y269.3136
G01 X188.3341 Y269.2730
G01 X188.3569 Y269.2312
G01 X188.3777 Y269.1884
G01 X188.3965 Y269.1446
G01 X188.4131 Y269.1000
G01 X188.4276 Y269.0547
G01 X188.4399 Y269.0087
G01 X188.4500 Y268.9622
G01 X188.4579 Y268.9153
G01 X188.4636 Y268.8680
G01 X188.4670 Y268.8206
G01 X188.4681 Y268.7730
G01 X188.4788 Y268.7214 F1000
G01 X188.4869 Y268.6693
G01 X188.4923 Y268.6169
G01 X188.4950 Y268.5642
G01 X188.4949 Y268.5115
G01 X188.4922 Y268.4589
G01 X188.4867 Y268.4065
G01 X188.4786 Y268.3544
G01 X188.4669 Y268.2984
G01 X188.4523 Y268.2431
G01 X188.4349 Y268.1886
G01 X188.4148 Y268.1351
G01 X188.3920 Y268.0827
G01 X188.3665 Y268.0314
G01 X188.3384 Y267.9816
G01 X188.3078 Y267.9333
G01 X188.2722 Y267.8829
G01 X188.2340 Y267.8344
G01 X188.1935 Y267.7878
G01 X188.1506 Y267.7434
G01 X188.1056 Y267.7013
G01 X188.0585 Y267.6615
G01 X188.0093 Y267.6241
G01 X187.9584 Y267.5893
G01 X187.9019 Y267.5547
G01 X187.8437 Y267.5230
G01 X187.7840 Y267.4943
G01 X187.7230 Y267.4687
G01 X187.6607 Y267.4462
G01 X187.5973 Y267.4269
G01 X187.5331 Y267.4108
G01 X187.4681 Y267.3980
G01 X187.3981 Y267.3878
G01 X187.3276 Y267.3812
G01 X187.2569 Y267.3781
G01 X187.1861 Y267.3786
G01 X187.1155 Y267.3826
G01 X187.0451 Y267.3902
G01 X186.9753 Y267.4014
G01 X186.9060 Y267.4160
G01 X186.8376 Y267.4417
G01 X186.7706 Y267.4707
G01 X186.7051 Y267.5030
G01 X186.6412 Y267.5384
G01 X186.5791 Y267.5770
G01 X186.5191 Y267.6186
G01 X186.4611 Y267.6630
G01 X186.4054 Y267.7103
G01 X186.3546 Y267.7637
G01 X186.3064 Y267.8196
G01 X186.2610 Y267.8777
G01 X186.2185 Y267.9381
G01 X186.1791 Y268.0004
G01 X186.1427 Y268.0645
G01 X186.1096 Y268.1304
G01 X186.0797 Y268.1979
G01 X186.0531 Y268.2667
G01 X186.0300 Y268.3367
G01 X186.0103 Y268.4078
G01 X185.9941 Y268.4798
G01 X185.9815 Y268.5525
G01 X185.9725 Y268.6257
G01 X185.9671 Y268.6992
G01 X185.9653 Y268.7730
G01 X185.9671 Y268.8467
G01 X185.9725 Y268.9203
G01 X185.9815 Y268.9935
G01 X185.9941 Y269.0662
G01 X186.0103 Y269.1381
G01 X186.0300 Y269.2092
G01 X186.0531 Y269.2793
G01 X186.0797 Y269.3481
G01 X186.1096 Y269.4155
G01 X186.1427 Y269.4814
G01 X186.1791 Y269.5456
G01 X186.2185 Y269.6079
G01 X186.2610 Y269.6682
G01 X186.3064 Y269.7264
G01 X186.3546 Y269.7822
G01 X186.4054 Y269.8356
G01 X186.4589 Y269.8865
G01 X186.5147 Y269.9347
G01 X186.5729 Y269.9801
G01 X186.6332 Y270.0225
G01 X186.6955 Y270.0620
G01 X186.7597 Y270.0984
G01 X186.8255 Y270.1315
G01 X186.8930 Y270.1614
G01 X186.9618 Y270.1880
G01 X187.0318 Y270.2111
G01 X187.1029 Y270.2308
G01 X187.1749 Y270.2469
G01 X187.2476 Y270.2595
G01 X187.3208 Y270.2686
G01 X187.3944 Y270.2740
G01 X187.4681 Y270.2758
G01 X187.5418 Y270.2740
G01 X187.6154 Y270.2686
G01 X187.6886 Y270.2595
G01 X187.7613 Y270.2469
G01 X187.8333 Y270.2308
G01 X187.9043 Y270.2111
G01 X187.9744 Y270.1880
G01 X188.0432 Y270.1614
G01 X188.1106 Y270.1315
G01 X188.1765 Y270.0984
G01 X188.2407 Y270.0620
G01 X188.3030 Y270.0225
G01 X188.3633 Y269.9801
G01 X188.4215 Y269.9347
G01 X188.4773 Y269.8865
G01 X188.5308 Y269.8356
G01 X188.5816 Y269.7822
G01 X188.6298 Y269.7264
G01 X188.6752 Y269.6682
G01 X188.7176 Y269.6079
G01 X188.7571 Y269.5456
G01 X188.7935 Y269.4814
G01 X188.8266 Y269.4155
G01 X188.8565 Y269.3481
G01 X188.8831 Y269.2793
G01 X188.9062 Y269.2092
G01 X188.9259 Y269.1381
G01 X188.9420 Y269.0662
G01 X188.9547 Y268.9935
G01 X188.9637 Y268.9203
G01 X188.9691 Y268.8467
G01 X188.9709 Y268.7730
G01 X188.9667 Y268.6607
G01 X188.9541 Y268.5490
G01 X188.9332 Y268.4386
G01 X188.9042 Y268.3300
