;Project TeslaParkingV5_2xSteingrau
;Created by Estlcam version 11 build 11,235
;Machining time about 00:34:26 hours

G90
M03 S18000
G00 X0.0000 Y0.0000 Z0.0000
G00 Z2.0000


;No. 1: Helical drill 8
G00 X23.6458 Y32.6458
G00 Z0.5000
M106 S240
G01 X23.6420 Y32.5587 Z0.4722 F400 S18000
G01 X23.6306 Y32.4722 Z0.4444
G01 X23.6118 Y32.3870 Z0.4167
G01 X23.5855 Y32.3038 Z0.3889
G01 X23.5521 Y32.2232 Z0.3611
G01 X23.5119 Y32.1458 Z0.3333
G01 X23.4650 Y32.0723 Z0.3056
G01 X23.4119 Y32.0030 Z0.2778
G01 X23.3529 Y31.9387 Z0.2500
G01 X23.2886 Y31.8798 Z0.2222
G01 X23.2194 Y31.8267 Z0.1944
G01 X23.1458 Y31.7798 Z0.1667
G01 X23.0685 Y31.7395 Z0.1389
G01 X22.9879 Y31.7061 Z0.1111
G01 X22.9047 Y31.6799 Z0.0833
G01 X22.8195 Y31.6610 Z0.0556
G01 X22.7330 Y31.6496 Z0.0278
G01 X22.6458 Y31.6458 Z0.0000
G01 X22.5587 Y31.6496 Z-0.0278
G01 X22.4722 Y31.6610 Z-0.0556
G01 X22.3870 Y31.6799 Z-0.0833
G01 X22.3038 Y31.7061 Z-0.1111
G01 X22.2232 Y31.7395 Z-0.1389
G01 X22.1458 Y31.7798 Z-0.1667
G01 X22.1052 Y31.8046 Z-0.1818
G01 X22.0658 Y31.8313 Z-0.1970
G01 X22.0277 Y31.8598 Z-0.2121
G01 X21.9910 Y31.8901 Z-0.2273
G01 X21.9558 Y31.9221 Z-0.2424
G01 X21.9221 Y31.9558 Z-0.2576
G01 X21.8901 Y31.9910 Z-0.2727
G01 X21.8598 Y32.0277 Z-0.2879
G01 X21.8313 Y32.0658 Z-0.3030
G01 X21.8046 Y32.1052 Z-0.3182
G01 X21.7798 Y32.1458 Z-0.3333
G01 X21.7570 Y32.1876 Z-0.3485
G01 X21.7362 Y32.2304 Z-0.3636
G01 X21.7175 Y32.2742 Z-0.3788
G01 X21.7008 Y32.3188 Z-0.3939
G01 X21.6863 Y32.3641 Z-0.4091
G01 X21.6740 Y32.4101 Z-0.4242
G01 X21.6639 Y32.4566 Z-0.4394
G01 X21.6560 Y32.5035 Z-0.4545
G01 X21.6504 Y32.5508 Z-0.4697
G01 X21.6470 Y32.5982 Z-0.4848
G01 X21.6458 Y32.6458 Z-0.5000
G01 X21.6470 Y32.6934 Z-0.5152
G01 X21.6504 Y32.7409 Z-0.5303
G01 X21.6560 Y32.7881 Z-0.5455
G01 X21.6639 Y32.8351 Z-0.5606
G01 X21.6740 Y32.8816 Z-0.5758
G01 X21.6863 Y32.9276 Z-0.5909
G01 X21.7008 Y32.9729 Z-0.6061
G01 X21.7175 Y33.0175 Z-0.6212
G01 X21.7362 Y33.0612 Z-0.6364
G01 X21.7570 Y33.1041 Z-0.6515
G01 X21.7798 Y33.1458 Z-0.6667
G01 X21.8046 Y33.1865 Z-0.6818
G01 X21.8313 Y33.2259 Z-0.6970
G01 X21.8598 Y33.2640 Z-0.7121
G01 X21.8901 Y33.3007 Z-0.7273
G01 X21.9221 Y33.3359 Z-0.7424
G01 X21.9558 Y33.3696 Z-0.7576
G01 X21.9910 Y33.4016 Z-0.7727
G01 X22.0277 Y33.4319 Z-0.7879
G01 X22.0658 Y33.4604 Z-0.8030
G01 X22.1052 Y33.4871 Z-0.8182
G01 X22.1458 Y33.5119 Z-0.8333
G01 X22.2232 Y33.5521 Z-0.8611
G01 X22.3038 Y33.5855 Z-0.8889
G01 X22.3870 Y33.6118 Z-0.9167
G01 X22.4722 Y33.6306 Z-0.9444
G01 X22.5587 Y33.6420 Z-0.9722
G01 X22.6458 Y33.6458 Z-1.0000
G01 X22.7330 Y33.6420 Z-1.0278
G01 X22.8195 Y33.6306 Z-1.0556
G01 X22.9047 Y33.6118 Z-1.0833
G01 X22.9879 Y33.5855 Z-1.1111
G01 X23.0685 Y33.5521 Z-1.1389
G01 X23.1458 Y33.5119 Z-1.1667
G01 X23.2194 Y33.4650 Z-1.1944
G01 X23.2886 Y33.4119 Z-1.2222
G01 X23.3529 Y33.3529 Z-1.2500
G01 X23.4119 Y33.2886 Z-1.2778
G01 X23.4650 Y33.2194 Z-1.3056
G01 X23.5119 Y33.1458 Z-1.3333
G01 X23.5521 Y33.0684 Z-1.3611
G01 X23.5855 Y32.9879 Z-1.3889
G01 X23.6118 Y32.9046 Z-1.4167
G01 X23.6306 Y32.8195 Z-1.4444
G01 X23.6420 Y32.7330 Z-1.4722
G01 X23.6458 Y32.6458 Z-1.5000
G01 X23.6420 Y32.5587
G01 X23.6306 Y32.4722
G01 X23.6118 Y32.3870
G01 X23.5855 Y32.3038
G01 X23.5521 Y32.2232
G01 X23.5119 Y32.1458
G01 X23.4650 Y32.0723
G01 X23.4119 Y32.0030
G01 X23.3529 Y31.9387
G01 X23.2886 Y31.8798
G01 X23.2194 Y31.8267
G01 X23.1458 Y31.7798
G01 X23.0685 Y31.7395
G01 X22.9879 Y31.7061
G01 X22.9047 Y31.6799
G01 X22.8195 Y31.6610
G01 X22.7330 Y31.6496
G01 X22.6458 Y31.6458
G01 X22.5587 Y31.6496
G01 X22.4722 Y31.6610
G01 X22.3870 Y31.6799
G01 X22.3038 Y31.7061
G01 X22.2232 Y31.7395
G01 X22.1458 Y31.7798
G01 X22.1052 Y31.8046
G01 X22.0658 Y31.8313
G01 X22.0277 Y31.8598
G01 X21.9910 Y31.8901
G01 X21.9558 Y31.9221
G01 X21.9221 Y31.9558
G01 X21.8901 Y31.9910
G01 X21.8598 Y32.0277
G01 X21.8313 Y32.0658
G01 X21.8046 Y32.1052
G01 X21.7798 Y32.1458
G01 X21.7570 Y32.1876
G01 X21.7362 Y32.2304
G01 X21.7175 Y32.2742
G01 X21.7008 Y32.3188
G01 X21.6863 Y32.3641
G01 X21.6740 Y32.4101
G01 X21.6639 Y32.4566
G01 X21.6560 Y32.5035
G01 X21.6504 Y32.5508
G01 X21.6470 Y32.5982
G01 X21.6458 Y32.6458
G01 X21.6470 Y32.6934
G01 X21.6504 Y32.7409
G01 X21.6560 Y32.7881
G01 X21.6639 Y32.8351
G01 X21.6740 Y32.8816
G01 X21.6863 Y32.9276
G01 X21.7008 Y32.9729
G01 X21.7175 Y33.0175
G01 X21.7362 Y33.0612
G01 X21.7570 Y33.1041
G01 X21.7798 Y33.1458
G01 X21.8046 Y33.1865
G01 X21.8313 Y33.2259
G01 X21.8598 Y33.2640
G01 X21.8901 Y33.3007
G01 X21.9221 Y33.3359
G01 X21.9558 Y33.3696
G01 X21.9910 Y33.4016
G01 X22.0277 Y33.4319
G01 X22.0658 Y33.4604
G01 X22.1052 Y33.4871
G01 X22.1458 Y33.5119
G01 X22.2232 Y33.5521
G01 X22.3038 Y33.5855
G01 X22.3870 Y33.6118
G01 X22.4722 Y33.6306
G01 X22.5587 Y33.6420
G01 X22.6458 Y33.6458
G01 X22.7330 Y33.6420
G01 X22.8195 Y33.6306
G01 X22.9047 Y33.6118
G01 X22.9879 Y33.5855
G01 X23.0685 Y33.5521
G01 X23.1458 Y33.5119
G01 X23.2194 Y33.4650
G01 X23.2886 Y33.4119
G01 X23.3529 Y33.3529
G01 X23.4119 Y33.2886
G01 X23.4650 Y33.2194
G01 X23.5119 Y33.1458
G01 X23.5521 Y33.0684
G01 X23.5855 Y32.9879
G01 X23.6118 Y32.9046
G01 X23.6306 Y32.8195
G01 X23.6420 Y32.7330
G01 X23.6458 Y32.6458
G01 X23.6566 Y32.5942 F1000
G01 X23.6647 Y32.5422
G01 X23.6700 Y32.4897
G01 X23.6727 Y32.4371
G01 Y32.3844
G01 X23.6699 Y32.3318
G01 X23.6645 Y32.2793
G01 X23.6563 Y32.2273
G01 X23.6446 Y32.1713
G01 X23.6300 Y32.1160
G01 X23.6127 Y32.0615
G01 X23.5925 Y32.0079
G01 X23.5697 Y31.9555
G01 X23.5442 Y31.9043
G01 X23.5161 Y31.8545
G01 X23.4855 Y31.8061
G01 X23.4499 Y31.7557
G01 X23.4118 Y31.7072
G01 X23.3712 Y31.6607
G01 X23.3284 Y31.6163
G01 X23.2833 Y31.5741
G01 X23.2362 Y31.5343
G01 X23.1871 Y31.4969
G01 X23.1361 Y31.4621
G01 X23.0797 Y31.4275
G01 X23.0215 Y31.3959
G01 X22.9618 Y31.3672
G01 X22.9007 Y31.3416
G01 X22.8384 Y31.3191
G01 X22.7751 Y31.2997
G01 X22.7108 Y31.2836
G01 X22.6458 Y31.2708
G01 X22.5758 Y31.2606
G01 X22.5054 Y31.2540
G01 X22.4347 Y31.2509
G01 X22.3639 Y31.2514
G01 X22.2932 Y31.2555
G01 X22.2229 Y31.2631
G01 X22.1530 Y31.2742
G01 X22.0838 Y31.2889
G01 X22.0156 Y31.3149
G01 X21.9488 Y31.3441
G01 X21.8835 Y31.3767
G01 X21.8198 Y31.4124
G01 X21.7581 Y31.4512
G01 X21.6983 Y31.4930
G01 X21.6406 Y31.5377
G01 X21.5852 Y31.5852
G01 X21.5344 Y31.6385
G01 X21.4863 Y31.6943
G01 X21.4410 Y31.7523
G01 X21.3987 Y31.8125
G01 X21.3593 Y31.8747
G01 X21.3230 Y31.9387
G01 X21.2899 Y32.0045
G01 X21.2600 Y32.0718
G01 X21.2335 Y32.1405
G01 X21.2105 Y32.2104
G01 X21.1908 Y32.2814
G01 X21.1747 Y32.3532
G01 X21.1621 Y32.4257
G01 X21.1531 Y32.4988
G01 X21.1477 Y32.5722
G01 X21.1459 Y32.6458
G01 X21.1477 Y32.7194
G01 X21.1531 Y32.7929
G01 X21.1621 Y32.8659
G01 X21.1747 Y32.9385
G01 X21.1908 Y33.0103
G01 X21.2105 Y33.0812
G01 X21.2335 Y33.1512
G01 X21.2600 Y33.2198
G01 X21.2899 Y33.2871
G01 X21.3230 Y33.3529
G01 X21.3593 Y33.4170
G01 X21.3987 Y33.4792
G01 X21.4410 Y33.5394
G01 X21.4863 Y33.5974
G01 X21.5344 Y33.6531
G01 X21.5852 Y33.7065
G01 X21.6385 Y33.7572
G01 X21.6943 Y33.8053
G01 X21.7523 Y33.8506
G01 X21.8125 Y33.8930
G01 X21.8747 Y33.9324
G01 X21.9388 Y33.9687
G01 X22.0045 Y34.0018
G01 X22.0718 Y34.0316
G01 X22.1405 Y34.0581
G01 X22.2104 Y34.0812
G01 X22.2814 Y34.1008
G01 X22.3532 Y34.1170
G01 X22.4257 Y34.1296
G01 X22.4988 Y34.1386
G01 X22.5722 Y34.1440
G01 X22.6458 Y34.1458
G01 X22.7194 Y34.1440
G01 X22.7929 Y34.1386
G01 X22.8659 Y34.1296
G01 X22.9385 Y34.1170
G01 X23.0103 Y34.1008
G01 X23.0813 Y34.0812
G01 X23.1512 Y34.0581
G01 X23.2198 Y34.0316
G01 X23.2872 Y34.0018
G01 X23.3529 Y33.9687
G01 X23.4170 Y33.9324
G01 X23.4792 Y33.8930
G01 X23.5394 Y33.8506
G01 X23.5974 Y33.8053
G01 X23.6532 Y33.7572
G01 X23.7065 Y33.7065
G01 X23.7572 Y33.6531
G01 X23.8053 Y33.5974
G01 X23.8506 Y33.5394
G01 X23.8930 Y33.4792
G01 X23.9324 Y33.4170
G01 X23.9687 Y33.3529
G01 X24.0018 Y33.2871
G01 X24.0316 Y33.2198
G01 X24.0581 Y33.1512
G01 X24.0812 Y33.0812
G01 X24.1009 Y33.0103
G01 X24.1170 Y32.9385
G01 X24.1296 Y32.8659
G01 X24.1386 Y32.7929
G01 X24.1440 Y32.7194
G01 X24.1458 Y32.6458
G01 X24.1416 Y32.5337
G01 X24.1290 Y32.4223
G01 X24.1082 Y32.3121
G01 X24.0792 Y32.2037
G01 X24.0421 Y32.0978
G01 X23.9973 Y31.9950
G01 X23.9448 Y31.8958
G01 X23.8852 Y31.8009
G01 X23.8186 Y31.7106
G01 X23.7454 Y31.6256
G01 X23.6661 Y31.5463
G01 X23.5810 Y31.4731
G01 X23.4908 Y31.4065
G01 X23.3958 Y31.3468
G01 X23.2966 Y31.2944
G01 X23.1938 Y31.2495
G01 X23.0880 Y31.2125
G01 X22.9796 Y31.1835
G01 X22.8694 Y31.1626
G01 X22.7579 Y31.1501
G01 X22.6458 Y31.1459
G01 X22.5337 Y31.1501
G01 X22.4223 Y31.1626
G01 X22.3121 Y31.1835
G01 X22.2037 Y31.2125
G01 X22.0978 Y31.2495
G01 X21.9950 Y31.2944
G01 X21.8959 Y31.3468
G01 X21.8009 Y31.4065
G01 X21.7106 Y31.4731
G01 X21.6256 Y31.5463
G01 X21.5463 Y31.6256
G01 X21.4731 Y31.7106
G01 X21.4065 Y31.8009
G01 X21.3468 Y31.8958
G01 X21.2944 Y31.9950
G01 X21.2496 Y32.0978
G01 X21.2125 Y32.2037
G01 X21.1835 Y32.3121
G01 X21.1626 Y32.4223
G01 X21.1501 Y32.5337
G01 X21.1459 Y32.6458
G01 X21.1501 Y32.7579
G01 X21.1626 Y32.8694
G01 X21.1835 Y32.9796
G01 X21.2125 Y33.0880
G01 X21.2496 Y33.1938
G01 X21.2944 Y33.2966
G01 X21.3468 Y33.3958
G01 X21.4065 Y33.4908
G01 X21.4731 Y33.5810
G01 X21.5463 Y33.6661
G01 X21.6256 Y33.7454
G01 X21.7106 Y33.8186
G01 X21.8009 Y33.8852
G01 X21.8959 Y33.9448
G01 X21.9950 Y33.9973
G01 X22.0978 Y34.0421
G01 X22.2037 Y34.0792
G01 X22.3121 Y34.1082
G01 X22.4223 Y34.1290
G01 X22.5337 Y34.1416
G01 X22.6458 Y34.1458
G01 X22.7579 Y34.1416
G01 X22.8694 Y34.1290
G01 X22.9796 Y34.1082
G01 X23.0880 Y34.0792
G01 X23.1938 Y34.0421
G01 X23.2966 Y33.9973
G01 X23.3958 Y33.9448
G01 X23.4908 Y33.8852
G01 X23.5810 Y33.8186
G01 X23.6661 Y33.7454
G01 X23.7454 Y33.6661
G01 X23.8186 Y33.5810
G01 X23.8852 Y33.4908
G01 X23.9448 Y33.3958
G01 X23.9973 Y33.2966
G01 X24.0421 Y33.1938
G01 X24.0792 Y33.0880
G01 X24.1082 Y32.9796
G01 X24.1290 Y32.8694
G01 X24.1416 Y32.7579
G01 X24.1458 Y32.6458
G01 X24.1419 Y32.5478
G01 X24.1304 Y32.4503
G01 X24.1113 Y32.3540
G01 X24.0846 Y32.2596
G01 X24.0507 Y32.1675
G01 X24.0096 Y32.0783
G01 X23.9616 Y31.9927
G01 X23.9071 Y31.9111
G01 X23.8463 Y31.8340
G01 X23.7797 Y31.7620
G01 X23.7076 Y31.6953
G01 X23.6305 Y31.6346
G01 X23.5489 Y31.5800
G01 X23.4633 Y31.5321
G01 X23.3742 Y31.4910
G01 X23.2821 Y31.4570
G01 X23.1876 Y31.4304
G01 X23.0914 Y31.4112
G01 X22.9939 Y31.3997
G01 X22.8958 Y31.3958
G01 X22.7977 Y31.3997
G01 X22.7003 Y31.4112
G01 X22.6040 Y31.4304
G01 X22.5096 Y31.4570
G01 X22.4175 Y31.4910
G01 X22.3283 Y31.5321
G01 X22.2427 Y31.5800
G01 X22.1611 Y31.6346
G01 X22.0840 Y31.6953
G01 X22.0119 Y31.7620
G01 X21.9453 Y31.8340
G01 X21.8846 Y31.9111
G01 X21.8300 Y31.9927
G01 X21.7821 Y32.0783
G01 X21.7410 Y32.1675
G01 X21.7070 Y32.2596
G01 X21.6804 Y32.3540
G01 X21.6612 Y32.4503
G01 X21.6497 Y32.5478
G01 X21.6458 Y32.6458
G01 X21.6469 Y32.6920
G01 X21.6501 Y32.7381
G01 X21.6554 Y32.7840
G01 X21.6629 Y32.8296
G01 X21.6724 Y32.8748
G01 X21.6840 Y32.9195
G01 X21.6977 Y32.9636
G01 X21.7134 Y33.0071
G01 X21.7310 Y33.0498
G01 X21.7507 Y33.0916
G01 X21.7722 Y33.1324
G01 X21.7956 Y33.1723
G01 X21.8208 Y33.2110
G01 X21.8478 Y33.2485
G01 X21.8765 Y33.2847
G01 X21.9068 Y33.3195
G01 X21.9387 Y33.3529
G01 X21.9721 Y33.3848
G01 X22.0070 Y33.4152
G01 X22.0432 Y33.4438
G01 X22.0807 Y33.4708
G01 X22.1194 Y33.4960
G01 X22.1592 Y33.5195
G01 X22.2001 Y33.5410
G01 X22.2419 Y33.5606
G01 X22.2846 Y33.5783
G01 X22.3280 Y33.5940
G01 X22.3722 Y33.6077
G01 X22.4169 Y33.6193
G01 X22.4621 Y33.6288
G01 X22.5077 Y33.6362
G01 X22.5536 Y33.6416
G01 X22.5997 Y33.6448
G01 X22.6458 Y33.6458
G01 X22.6920 Y33.6448
G01 X22.7381 Y33.6416
G01 X22.7840 Y33.6362
G01 X22.8296 Y33.6288
G01 X22.8748 Y33.6193
G01 X22.9195 Y33.6077
G01 X22.9636 Y33.5940
G01 X23.0071 Y33.5783
G01 X23.0498 Y33.5606
G01 X23.0916 Y33.5410
G01 X23.1324 Y33.5195
G01 X23.1723 Y33.4960
G01 X23.2110 Y33.4708
G01 X23.2485 Y33.4438
G01 X23.2847 Y33.4152
G01 X23.3195 Y33.3848
G01 X23.3529 Y33.3529
G01 X23.3848 Y33.3195
G01 X23.4152 Y33.2847
G01 X23.4439 Y33.2485
G01 X23.4708 Y33.2110
G01 X23.4961 Y33.1723
G01 X23.5195 Y33.1324
G01 X23.5410 Y33.0916
G01 X23.5606 Y33.0498
G01 X23.5783 Y33.0071
G01 X23.5940 Y32.9636
G01 X23.6077 Y32.9195
G01 X23.6193 Y32.8748
G01 X23.6288 Y32.8296
G01 X23.6362 Y32.7840
G01 X23.6416 Y32.7381
G01 X23.6448 Y32.6920
G01 X23.6458 Y32.6458
M107
M106 S240
G01 X23.6420 Y32.5587 Z-1.5278 F400
G01 X23.6306 Y32.4722 Z-1.5556
G01 X23.6118 Y32.3870 Z-1.5833
G01 X23.5855 Y32.3038 Z-1.6111
G01 X23.5521 Y32.2232 Z-1.6389
G01 X23.5119 Y32.1458 Z-1.6667
G01 X23.4650 Y32.0723 Z-1.6944
G01 X23.4119 Y32.0030 Z-1.7222
G01 X23.3529 Y31.9387 Z-1.7500
G01 X23.2886 Y31.8798 Z-1.7778
G01 X23.2194 Y31.8267 Z-1.8056
G01 X23.1458 Y31.7798 Z-1.8333
G01 X23.0685 Y31.7395 Z-1.8611
G01 X22.9879 Y31.7061 Z-1.8889
G01 X22.9047 Y31.6799 Z-1.9167
G01 X22.8195 Y31.6610 Z-1.9444
G01 X22.7330 Y31.6496 Z-1.9722
G01 X22.6458 Y31.6458 Z-2.0000
G01 X22.5587 Y31.6496 Z-2.0278
G01 X22.4722 Y31.6610 Z-2.0556
G01 X22.3870 Y31.6799 Z-2.0833
G01 X22.3038 Y31.7061 Z-2.1111
G01 X22.2232 Y31.7395 Z-2.1389
G01 X22.1458 Y31.7798 Z-2.1667
G01 X22.1052 Y31.8046 Z-2.1818
G01 X22.0658 Y31.8313 Z-2.1970
G01 X22.0277 Y31.8598 Z-2.2121
G01 X21.9910 Y31.8901 Z-2.2273
G01 X21.9558 Y31.9221 Z-2.2424
G01 X21.9221 Y31.9558 Z-2.2576
G01 X21.8901 Y31.9910 Z-2.2727
G01 X21.8598 Y32.0277 Z-2.2879
G01 X21.8313 Y32.0658 Z-2.3030
G01 X21.8046 Y32.1052 Z-2.3182
G01 X21.7798 Y32.1458 Z-2.3333
G01 X21.7570 Y32.1876 Z-2.3485
G01 X21.7362 Y32.2304 Z-2.3636
G01 X21.7175 Y32.2742 Z-2.3788
G01 X21.7008 Y32.3188 Z-2.3939
G01 X21.6863 Y32.3641 Z-2.4091
G01 X21.6740 Y32.4101 Z-2.4242
G01 X21.6639 Y32.4566 Z-2.4394
G01 X21.6560 Y32.5035 Z-2.4545
G01 X21.6504 Y32.5508 Z-2.4697
G01 X21.6470 Y32.5982 Z-2.4848
G01 X21.6458 Y32.6458 Z-2.5000
G01 X21.6470 Y32.6934 Z-2.5152
G01 X21.6504 Y32.7409 Z-2.5303
G01 X21.6560 Y32.7881 Z-2.5455
G01 X21.6639 Y32.8351 Z-2.5606
G01 X21.6740 Y32.8816 Z-2.5758
G01 X21.6863 Y32.9276 Z-2.5909
G01 X21.7008 Y32.9729 Z-2.6061
G01 X21.7175 Y33.0175 Z-2.6212
G01 X21.7362 Y33.0612 Z-2.6364
G01 X21.7570 Y33.1041 Z-2.6515
G01 X21.7798 Y33.1458 Z-2.6667
G01 X21.8046 Y33.1865 Z-2.6818
G01 X21.8313 Y33.2259 Z-2.6970
G01 X21.8598 Y33.2640 Z-2.7121
G01 X21.8901 Y33.3007 Z-2.7273
G01 X21.9221 Y33.3359 Z-2.7424
G01 X21.9558 Y33.3696 Z-2.7576
G01 X21.9910 Y33.4016 Z-2.7727
G01 X22.0277 Y33.4319 Z-2.7879
G01 X22.0658 Y33.4604 Z-2.8030
G01 X22.1052 Y33.4871 Z-2.8182
G01 X22.1458 Y33.5119 Z-2.8333
G01 X22.2232 Y33.5521 Z-2.8611
G01 X22.3038 Y33.5855 Z-2.8889
G01 X22.3870 Y33.6118 Z-2.9167
G01 X22.4722 Y33.6306 Z-2.9444
G01 X22.5587 Y33.6420 Z-2.9722
G01 X22.6458 Y33.6458 Z-3.0000
G01 X22.7330 Y33.6420 Z-3.0278
G01 X22.8195 Y33.6306 Z-3.0556
G01 X22.9047 Y33.6118 Z-3.0833
G01 X22.9879 Y33.5855 Z-3.1111
G01 X23.0685 Y33.5521 Z-3.1389
G01 X23.1458 Y33.5119 Z-3.1667
G01 X23.2194 Y33.4650 Z-3.1944
G01 X23.2886 Y33.4119 Z-3.2222
G01 X23.3529 Y33.3529 Z-3.2500
G01 X23.4119 Y33.2886 Z-3.2778
G01 X23.4650 Y33.2194 Z-3.3056
G01 X23.5119 Y33.1458 Z-3.3333
G01 X23.5521 Y33.0684 Z-3.3611
G01 X23.5855 Y32.9879 Z-3.3889
G01 X23.6118 Y32.9046 Z-3.4167
G01 X23.6306 Y32.8195 Z-3.4444
G01 X23.6420 Y32.7330 Z-3.4722
G01 X23.6458 Y32.6458 Z-3.5000
G01 X23.6420 Y32.5587
G01 X23.6306 Y32.4722
G01 X23.6118 Y32.3870
G01 X23.5855 Y32.3038
G01 X23.5521 Y32.2232
G01 X23.5119 Y32.1458
G01 X23.4650 Y32.0723
G01 X23.4119 Y32.0030
G01 X23.3529 Y31.9387
G01 X23.2886 Y31.8798
G01 X23.2194 Y31.8267
G01 X23.1458 Y31.7798
G01 X23.0685 Y31.7395
G01 X22.9879 Y31.7061
G01 X22.9047 Y31.6799
G01 X22.8195 Y31.6610
G01 X22.7330 Y31.6496
G01 X22.6458 Y31.6458
G01 X22.5587 Y31.6496
G01 X22.4722 Y31.6610
G01 X22.3870 Y31.6799
G01 X22.3038 Y31.7061
G01 X22.2232 Y31.7395
G01 X22.1458 Y31.7798
G01 X22.1052 Y31.8046
G01 X22.0658 Y31.8313
G01 X22.0277 Y31.8598
G01 X21.9910 Y31.8901
G01 X21.9558 Y31.9221
G01 X21.9221 Y31.9558
G01 X21.8901 Y31.9910
G01 X21.8598 Y32.0277
G01 X21.8313 Y32.0658
G01 X21.8046 Y32.1052
G01 X21.7798 Y32.1458
G01 X21.7570 Y32.1876
G01 X21.7362 Y32.2304
G01 X21.7175 Y32.2742
G01 X21.7008 Y32.3188
G01 X21.6863 Y32.3641
G01 X21.6740 Y32.4101
G01 X21.6639 Y32.4566
G01 X21.6560 Y32.5035
G01 X21.6504 Y32.5508
G01 X21.6470 Y32.5982
G01 X21.6458 Y32.6458
G01 X21.6470 Y32.6934
G01 X21.6504 Y32.7409
G01 X21.6560 Y32.7881
G01 X21.6639 Y32.8351
G01 X21.6740 Y32.8816
G01 X21.6863 Y32.9276
G01 X21.7008 Y32.9729
G01 X21.7175 Y33.0175
G01 X21.7362 Y33.0612
G01 X21.7570 Y33.1041
G01 X21.7798 Y33.1458
G01 X21.8046 Y33.1865
G01 X21.8313 Y33.2259
G01 X21.8598 Y33.2640
G01 X21.8901 Y33.3007
G01 X21.9221 Y33.3359
G01 X21.9558 Y33.3696
G01 X21.9910 Y33.4016
G01 X22.0277 Y33.4319
G01 X22.0658 Y33.4604
G01 X22.1052 Y33.4871
G01 X22.1458 Y33.5119
G01 X22.2232 Y33.5521
G01 X22.3038 Y33.5855
G01 X22.3870 Y33.6118
G01 X22.4722 Y33.6306
G01 X22.5587 Y33.6420
G01 X22.6458 Y33.6458
G01 X22.7330 Y33.6420
G01 X22.8195 Y33.6306
G01 X22.9047 Y33.6118
G01 X22.9879 Y33.5855
G01 X23.0685 Y33.5521
G01 X23.1458 Y33.5119
G01 X23.2194 Y33.4650
G01 X23.2886 Y33.4119
G01 X23.3529 Y33.3529
G01 X23.4119 Y33.2886
G01 X23.4650 Y33.2194
G01 X23.5119 Y33.1458
G01 X23.5521 Y33.0684
G01 X23.5855 Y32.9879
G01 X23.6118 Y32.9046
G01 X23.6306 Y32.8195
G01 X23.6420 Y32.7330
G01 X23.6458 Y32.6458
G01 X23.6566 Y32.5942 F1000
G01 X23.6647 Y32.5422
G01 X23.6700 Y32.4897
G01 X23.6727 Y32.4371
G01 Y32.3844
G01 X23.6699 Y32.3318
G01 X23.6645 Y32.2793
G01 X23.6563 Y32.2273
G01 X23.6446 Y32.1713
G01 X23.6300 Y32.1160
G01 X23.6127 Y32.0615
G01 X23.5925 Y32.0079
G01 X23.5697 Y31.9555
G01 X23.5442 Y31.9043
G01 X23.5161 Y31.8545
G01 X23.4855 Y31.8061
G01 X23.4499 Y31.7557
G01 X23.4118 Y31.7072
G01 X23.3712 Y31.6607
G01 X23.3284 Y31.6163
G01 X23.2833 Y31.5741
G01 X23.2362 Y31.5343
G01 X23.1871 Y31.4969
G01 X23.1361 Y31.4621
G01 X23.0797 Y31.4275
G01 X23.0215 Y31.3959
G01 X22.9618 Y31.3672
G01 X22.9007 Y31.3416
G01 X22.8384 Y31.3191
G01 X22.7751 Y31.2997
G01 X22.7108 Y31.2836
G01 X22.6458 Y31.2708
G01 X22.5758 Y31.2606
G01 X22.5054 Y31.2540
G01 X22.4347 Y31.2509
G01 X22.3639 Y31.2514
G01 X22.2932 Y31.2555
G01 X22.2229 Y31.2631
G01 X22.1530 Y31.2742
G01 X22.0838 Y31.2889
G01 X22.0156 Y31.3149
G01 X21.9488 Y31.3441
G01 X21.8835 Y31.3767
G01 X21.8198 Y31.4124
G01 X21.7581 Y31.4512
G01 X21.6983 Y31.4930
G01 X21.6406 Y31.5377
G01 X21.5852 Y31.5852
G01 X21.5344 Y31.6385
G01 X21.4863 Y31.6943
G01 X21.4410 Y31.7523
G01 X21.3987 Y31.8125
G01 X21.3593 Y31.8747
G01 X21.3230 Y31.9387
G01 X21.2899 Y32.0045
G01 X21.2600 Y32.0718
G01 X21.2335 Y32.1405
G01 X21.2105 Y32.2104
G01 X21.1908 Y32.2814
G01 X21.1747 Y32.3532
G01 X21.1621 Y32.4257
G01 X21.1531 Y32.4988
G01 X21.1477 Y32.5722
G01 X21.1459 Y32.6458
G01 X21.1477 Y32.7194
G01 X21.1531 Y32.7929
G01 X21.1621 Y32.8659
G01 X21.1747 Y32.9385
G01 X21.1908 Y33.0103
G01 X21.2105 Y33.0812
G01 X21.2335 Y33.1512
G01 X21.2600 Y33.2198
G01 X21.2899 Y33.2871
G01 X21.3230 Y33.3529
G01 X21.3593 Y33.4170
G01 X21.3987 Y33.4792
G01 X21.4410 Y33.5394
G01 X21.4863 Y33.5974
G01 X21.5344 Y33.6531
G01 X21.5852 Y33.7065
G01 X21.6385 Y33.7572
G01 X21.6943 Y33.8053
G01 X21.7523 Y33.8506
G01 X21.8125 Y33.8930
G01 X21.8747 Y33.9324
G01 X21.9388 Y33.9687
G01 X22.0045 Y34.0018
G01 X22.0718 Y34.0316
G01 X22.1405 Y34.0581
G01 X22.2104 Y34.0812
G01 X22.2814 Y34.1008
G01 X22.3532 Y34.1170
G01 X22.4257 Y34.1296
G01 X22.4988 Y34.1386
G01 X22.5722 Y34.1440
G01 X22.6458 Y34.1458
G01 X22.7194 Y34.1440
G01 X22.7929 Y34.1386
G01 X22.8659 Y34.1296
G01 X22.9385 Y34.1170
G01 X23.0103 Y34.1008
G01 X23.0813 Y34.0812
G01 X23.1512 Y34.0581
G01 X23.2198 Y34.0316
G01 X23.2872 Y34.0018
G01 X23.3529 Y33.9687
G01 X23.4170 Y33.9324
G01 X23.4792 Y33.8930
G01 X23.5394 Y33.8506
G01 X23.5974 Y33.8053
G01 X23.6532 Y33.7572
G01 X23.7065 Y33.7065
G01 X23.7572 Y33.6531
G01 X23.8053 Y33.5974
G01 X23.8506 Y33.5394
G01 X23.8930 Y33.4792
G01 X23.9324 Y33.4170
G01 X23.9687 Y33.3529
G01 X24.0018 Y33.2871
G01 X24.0316 Y33.2198
G01 X24.0581 Y33.1512
G01 X24.0812 Y33.0812
G01 X24.1009 Y33.0103
G01 X24.1170 Y32.9385
G01 X24.1296 Y32.8659
G01 X24.1386 Y32.7929
G01 X24.1440 Y32.7194
G01 X24.1458 Y32.6458
G01 X24.1416 Y32.5337
G01 X24.1290 Y32.4223
G01 X24.1082 Y32.3121
G01 X24.0792 Y32.2037
G01 X24.0421 Y32.0978
G01 X23.9973 Y31.9950
G01 X23.9448 Y31.8958
G01 X23.8852 Y31.8009
G01 X23.8186 Y31.7106
G01 X23.7454 Y31.6256
G01 X23.6661 Y31.5463
G01 X23.5810 Y31.4731
G01 X23.4908 Y31.4065
G01 X23.3958 Y31.3468
G01 X23.2966 Y31.2944
G01 X23.1938 Y31.2495
G01 X23.0880 Y31.2125
G01 X22.9796 Y31.1835
G01 X22.8694 Y31.1626
G01 X22.7579 Y31.1501
G01 X22.6458 Y31.1459
G01 X22.5337 Y31.1501
G01 X22.4223 Y31.1626
G01 X22.3121 Y31.1835
G01 X22.2037 Y31.2125
G01 X22.0978 Y31.2495
G01 X21.9950 Y31.2944
G01 X21.8959 Y31.3468
G01 X21.8009 Y31.4065
G01 X21.7106 Y31.4731
G01 X21.6256 Y31.5463
G01 X21.5463 Y31.6256
G01 X21.4731 Y31.7106
G01 X21.4065 Y31.8009
G01 X21.3468 Y31.8958
G01 X21.2944 Y31.9950
G01 X21.2496 Y32.0978
G01 X21.2125 Y32.2037
G01 X21.1835 Y32.3121
G01 X21.1626 Y32.4223
G01 X21.1501 Y32.5337
G01 X21.1459 Y32.6458
G01 X21.1501 Y32.7579
G01 X21.1626 Y32.8694
G01 X21.1835 Y32.9796
G01 X21.2125 Y33.0880
G01 X21.2496 Y33.1938
G01 X21.2944 Y33.2966
G01 X21.3468 Y33.3958
G01 X21.4065 Y33.4908
G01 X21.4731 Y33.5810
G01 X21.5463 Y33.6661
G01 X21.6256 Y33.7454
G01 X21.7106 Y33.8186
G01 X21.8009 Y33.8852
G01 X21.8959 Y33.9448
G01 X21.9950 Y33.9973
G01 X22.0978 Y34.0421
G01 X22.2037 Y34.0792
G01 X22.3121 Y34.1082
G01 X22.4223 Y34.1290
G01 X22.5337 Y34.1416
G01 X22.6458 Y34.1458
G01 X22.7579 Y34.1416
G01 X22.8694 Y34.1290
G01 X22.9796 Y34.1082
G01 X23.0880 Y34.0792
G01 X23.1938 Y34.0421
G01 X23.2966 Y33.9973
G01 X23.3958 Y33.9448
G01 X23.4908 Y33.8852
G01 X23.5810 Y33.8186
G01 X23.6661 Y33.7454
G01 X23.7454 Y33.6661
G01 X23.8186 Y33.5810
G01 X23.8852 Y33.4908
G01 X23.9448 Y33.3958
G01 X23.9973 Y33.2966
G01 X24.0421 Y33.1938
G01 X24.0792 Y33.0880
G01 X24.1082 Y32.9796
G01 X24.1290 Y32.8694
G01 X24.1416 Y32.7579
G01 X24.1458 Y32.6458
G01 X24.1419 Y32.5478
G01 X24.1304 Y32.4503
G01 X24.1113 Y32.3540
G01 X24.0846 Y32.2596
G01 X24.0507 Y32.1675
G01 X24.0096 Y32.0783
G01 X23.9616 Y31.9927
G01 X23.9071 Y31.9111
G01 X23.8463 Y31.8340
G01 X23.7797 Y31.7620
G01 X23.7076 Y31.6953
G01 X23.6305 Y31.6346
G01 X23.5489 Y31.5800
G01 X23.4633 Y31.5321
G01 X23.3742 Y31.4910
G01 X23.2821 Y31.4570
G01 X23.1876 Y31.4304
G01 X23.0914 Y31.4112
G01 X22.9939 Y31.3997
G01 X22.8958 Y31.3958
G01 X22.7977 Y31.3997
G01 X22.7003 Y31.4112
G01 X22.6040 Y31.4304
G01 X22.5096 Y31.4570
G01 X22.4175 Y31.4910
G01 X22.3283 Y31.5321
G01 X22.2427 Y31.5800
G01 X22.1611 Y31.6346
G01 X22.0840 Y31.6953
G01 X22.0119 Y31.7620
G01 X21.9453 Y31.8340
G01 X21.8846 Y31.9111
G01 X21.8300 Y31.9927
G01 X21.7821 Y32.0783
G01 X21.7410 Y32.1675
G01 X21.7070 Y32.2596
G01 X21.6804 Y32.3540
G01 X21.6612 Y32.4503
G01 X21.6497 Y32.5478
G01 X21.6458 Y32.6458
G01 X21.6469 Y32.6920
G01 X21.6501 Y32.7381
G01 X21.6554 Y32.7840
G01 X21.6629 Y32.8296
G01 X21.6724 Y32.8748
G01 X21.6840 Y32.9195
G01 X21.6977 Y32.9636
G01 X21.7134 Y33.0071
G01 X21.7310 Y33.0498
G01 X21.7507 Y33.0916
G01 X21.7722 Y33.1324
G01 X21.7956 Y33.1723
G01 X21.8208 Y33.2110
G01 X21.8478 Y33.2485
G01 X21.8765 Y33.2847
G01 X21.9068 Y33.3195
G01 X21.9387 Y33.3529
G01 X21.9721 Y33.3848
G01 X22.0070 Y33.4152
G01 X22.0432 Y33.4438
G01 X22.0807 Y33.4708
G01 X22.1194 Y33.4960
G01 X22.1592 Y33.5195
G01 X22.2001 Y33.5410
G01 X22.2419 Y33.5606
G01 X22.2846 Y33.5783
G01 X22.3280 Y33.5940
G01 X22.3722 Y33.6077
G01 X22.4169 Y33.6193
G01 X22.4621 Y33.6288
G01 X22.5077 Y33.6362
G01 X22.5536 Y33.6416
G01 X22.5997 Y33.6448
G01 X22.6458 Y33.6458
G01 X22.6920 Y33.6448
G01 X22.7381 Y33.6416
G01 X22.7840 Y33.6362
G01 X22.8296 Y33.6288
G01 X22.8748 Y33.6193
G01 X22.9195 Y33.6077
G01 X22.9636 Y33.5940
G01 X23.0071 Y33.5783
G01 X23.0498 Y33.5606
G01 X23.0916 Y33.5410
G01 X23.1324 Y33.5195
G01 X23.1723 Y33.4960
G01 X23.2110 Y33.4708
G01 X23.2485 Y33.4438
G01 X23.2847 Y33.4152
G01 X23.3195 Y33.3848
G01 X23.3529 Y33.3529
G01 X23.3848 Y33.3195
G01 X23.4152 Y33.2847
G01 X23.4439 Y33.2485
G01 X23.4708 Y33.2110
G01 X23.4961 Y33.1723
G01 X23.5195 Y33.1324
G01 X23.5410 Y33.0916
G01 X23.5606 Y33.0498
G01 X23.5783 Y33.0071
G01 X23.5940 Y32.9636
G01 X23.6077 Y32.9195
G01 X23.6193 Y32.8748
G01 X23.6288 Y32.8296
G01 X23.6362 Y32.7840
G01 X23.6416 Y32.7381
G01 X23.6448 Y32.6920
G01 X23.6458 Y32.6458
M107
M106 S240
G01 X23.6420 Y32.5587 Z-3.5278 F400
G01 X23.6306 Y32.4722 Z-3.5556
G01 X23.6118 Y32.3870 Z-3.5833
G01 X23.5855 Y32.3038 Z-3.6111
G01 X23.5521 Y32.2232 Z-3.6389
G01 X23.5119 Y32.1458 Z-3.6667
G01 X23.4650 Y32.0723 Z-3.6944
G01 X23.4119 Y32.0030 Z-3.7222
G01 X23.3529 Y31.9387 Z-3.7500
G01 X23.2886 Y31.8798 Z-3.7778
G01 X23.2194 Y31.8267 Z-3.8056
G01 X23.1458 Y31.7798 Z-3.8333
G01 X23.0685 Y31.7395 Z-3.8611
G01 X22.9879 Y31.7061 Z-3.8889
G01 X22.9047 Y31.6799 Z-3.9167
G01 X22.8195 Y31.6610 Z-3.9444
G01 X22.7330 Y31.6496 Z-3.9722
G01 X22.6458 Y31.6458 Z-4.0000
G01 X22.5587 Y31.6496 Z-4.0278
G01 X22.4722 Y31.6610 Z-4.0556
G01 X22.3870 Y31.6799 Z-4.0833
G01 X22.3038 Y31.7061 Z-4.1111
G01 X22.2232 Y31.7395 Z-4.1389
G01 X22.1458 Y31.7798 Z-4.1667
G01 X22.1052 Y31.8046 Z-4.1818
G01 X22.0658 Y31.8313 Z-4.1970
G01 X22.0277 Y31.8598 Z-4.2121
G01 X21.9910 Y31.8901 Z-4.2273
G01 X21.9558 Y31.9221 Z-4.2424
G01 X21.9221 Y31.9558 Z-4.2576
G01 X21.8901 Y31.9910 Z-4.2727
G01 X21.8598 Y32.0277 Z-4.2879
G01 X21.8313 Y32.0658 Z-4.3030
G01 X21.8046 Y32.1052 Z-4.3182
G01 X21.7798 Y32.1458 Z-4.3333
G01 X21.7570 Y32.1876 Z-4.3485
G01 X21.7362 Y32.2304 Z-4.3636
G01 X21.7175 Y32.2742 Z-4.3788
G01 X21.7008 Y32.3188 Z-4.3939
G01 X21.6863 Y32.3641 Z-4.4091
G01 X21.6740 Y32.4101 Z-4.4242
G01 X21.6639 Y32.4566 Z-4.4394
G01 X21.6560 Y32.5035 Z-4.4545
G01 X21.6504 Y32.5508 Z-4.4697
G01 X21.6470 Y32.5982 Z-4.4848
G01 X21.6458 Y32.6458 Z-4.5000
G01 X21.6470 Y32.6934 Z-4.5152
G01 X21.6504 Y32.7409 Z-4.5303
G01 X21.6560 Y32.7881 Z-4.5455
G01 X21.6639 Y32.8351 Z-4.5606
G01 X21.6740 Y32.8816 Z-4.5758
G01 X21.6863 Y32.9276 Z-4.5909
G01 X21.7008 Y32.9729 Z-4.6061
G01 X21.7175 Y33.0175 Z-4.6212
G01 X21.7362 Y33.0612 Z-4.6364
G01 X21.7570 Y33.1041 Z-4.6515
G01 X21.7798 Y33.1458 Z-4.6667
G01 X21.8046 Y33.1865 Z-4.6818
G01 X21.8313 Y33.2259 Z-4.6970
G01 X21.8598 Y33.2640 Z-4.7121
G01 X21.8901 Y33.3007 Z-4.7273
G01 X21.9221 Y33.3359 Z-4.7424
G01 X21.9558 Y33.3696 Z-4.7576
G01 X21.9910 Y33.4016 Z-4.7727
G01 X22.0277 Y33.4319 Z-4.7879
G01 X22.0658 Y33.4604 Z-4.8030
G01 X22.1052 Y33.4871 Z-4.8182
G01 X22.1458 Y33.5119 Z-4.8333
G01 X22.2232 Y33.5521 Z-4.8611
G01 X22.3038 Y33.5855 Z-4.8889
G01 X22.3870 Y33.6118 Z-4.9167
G01 X22.4722 Y33.6306 Z-4.9444
G01 X22.5587 Y33.6420 Z-4.9722
G01 X22.6458 Y33.6458 Z-5.0000
G01 X22.7330 Y33.6420 Z-5.0278
G01 X22.8195 Y33.6306 Z-5.0556
G01 X22.9047 Y33.6118 Z-5.0833
G01 X22.9879 Y33.5855 Z-5.1111
G01 X23.0685 Y33.5521 Z-5.1389
G01 X23.1458 Y33.5119 Z-5.1667
G01 X23.2194 Y33.4650 Z-5.1944
G01 X23.2886 Y33.4119 Z-5.2222
G01 X23.3529 Y33.3529 Z-5.2500
G01 X23.4119 Y33.2886 Z-5.2778
G01 X23.4650 Y33.2194 Z-5.3056
G01 X23.5119 Y33.1458 Z-5.3333
G01 X23.5521 Y33.0684 Z-5.3611
G01 X23.5855 Y32.9879 Z-5.3889
G01 X23.6118 Y32.9046 Z-5.4167
G01 X23.6306 Y32.8195 Z-5.4444
G01 X23.6420 Y32.7330 Z-5.4722
G01 X23.6458 Y32.6458 Z-5.5000
G01 X23.6420 Y32.5587
G01 X23.6306 Y32.4722
G01 X23.6118 Y32.3870
G01 X23.5855 Y32.3038
G01 X23.5521 Y32.2232
G01 X23.5119 Y32.1458
G01 X23.4650 Y32.0723
G01 X23.4119 Y32.0030
G01 X23.3529 Y31.9387
G01 X23.2886 Y31.8798
G01 X23.2194 Y31.8267
G01 X23.1458 Y31.7798
G01 X23.0685 Y31.7395
G01 X22.9879 Y31.7061
G01 X22.9047 Y31.6799
G01 X22.8195 Y31.6610
G01 X22.7330 Y31.6496
G01 X22.6458 Y31.6458
G01 X22.5587 Y31.6496
G01 X22.4722 Y31.6610
G01 X22.3870 Y31.6799
G01 X22.3038 Y31.7061
G01 X22.2232 Y31.7395
G01 X22.1458 Y31.7798
G01 X22.1052 Y31.8046
G01 X22.0658 Y31.8313
G01 X22.0277 Y31.8598
G01 X21.9910 Y31.8901
G01 X21.9558 Y31.9221
G01 X21.9221 Y31.9558
G01 X21.8901 Y31.9910
G01 X21.8598 Y32.0277
G01 X21.8313 Y32.0658
G01 X21.8046 Y32.1052
G01 X21.7798 Y32.1458
G01 X21.7570 Y32.1876
G01 X21.7362 Y32.2304
G01 X21.7175 Y32.2742
G01 X21.7008 Y32.3188
G01 X21.6863 Y32.3641
G01 X21.6740 Y32.4101
G01 X21.6639 Y32.4566
G01 X21.6560 Y32.5035
G01 X21.6504 Y32.5508
G01 X21.6470 Y32.5982
G01 X21.6458 Y32.6458
G01 X21.6470 Y32.6934
G01 X21.6504 Y32.7409
G01 X21.6560 Y32.7881
G01 X21.6639 Y32.8351
G01 X21.6740 Y32.8816
G01 X21.6863 Y32.9276
G01 X21.7008 Y32.9729
G01 X21.7175 Y33.0175
G01 X21.7362 Y33.0612
G01 X21.7570 Y33.1041
G01 X21.7798 Y33.1458
G01 X21.8046 Y33.1865
G01 X21.8313 Y33.2259
G01 X21.8598 Y33.2640
G01 X21.8901 Y33.3007
G01 X21.9221 Y33.3359
G01 X21.9558 Y33.3696
G01 X21.9910 Y33.4016
G01 X22.0277 Y33.4319
G01 X22.0658 Y33.4604
G01 X22.1052 Y33.4871
G01 X22.1458 Y33.5119
G01 X22.2232 Y33.5521
G01 X22.3038 Y33.5855
G01 X22.3870 Y33.6118
G01 X22.4722 Y33.6306
G01 X22.5587 Y33.6420
G01 X22.6458 Y33.6458
G01 X22.7330 Y33.6420
G01 X22.8195 Y33.6306
G01 X22.9047 Y33.6118
G01 X22.9879 Y33.5855
G01 X23.0685 Y33.5521
G01 X23.1458 Y33.5119
G01 X23.2194 Y33.4650
G01 X23.2886 Y33.4119
G01 X23.3529 Y33.3529
G01 X23.4119 Y33.2886
G01 X23.4650 Y33.2194
G01 X23.5119 Y33.1458
G01 X23.5521 Y33.0684
G01 X23.5855 Y32.9879
G01 X23.6118 Y32.9046
G01 X23.6306 Y32.8195
G01 X23.6420 Y32.7330
G01 X23.6458 Y32.6458
G01 X23.6566 Y32.5942 F1000
G01 X23.6647 Y32.5422
G01 X23.6700 Y32.4897
G01 X23.6727 Y32.4371
G01 Y32.3844
G01 X23.6699 Y32.3318
G01 X23.6645 Y32.2793
G01 X23.6563 Y32.2273
G01 X23.6446 Y32.1713
G01 X23.6300 Y32.1160
G01 X23.6127 Y32.0615
G01 X23.5925 Y32.0079
G01 X23.5697 Y31.9555
G01 X23.5442 Y31.9043
G01 X23.5161 Y31.8545
G01 X23.4855 Y31.8061
G01 X23.4499 Y31.7557
G01 X23.4118 Y31.7072
G01 X23.3712 Y31.6607
G01 X23.3284 Y31.6163
G01 X23.2833 Y31.5741
G01 X23.2362 Y31.5343
G01 X23.1871 Y31.4969
G01 X23.1361 Y31.4621
G01 X23.0797 Y31.4275
G01 X23.0215 Y31.3959
G01 X22.9618 Y31.3672
G01 X22.9007 Y31.3416
G01 X22.8384 Y31.3191
G01 X22.7751 Y31.2997
G01 X22.7108 Y31.2836
G01 X22.6458 Y31.2708
G01 X22.5758 Y31.2606
G01 X22.5054 Y31.2540
G01 X22.4347 Y31.2509
G01 X22.3639 Y31.2514
G01 X22.2932 Y31.2555
G01 X22.2229 Y31.2631
G01 X22.1530 Y31.2742
G01 X22.0838 Y31.2889
G01 X22.0156 Y31.3149
G01 X21.9488 Y31.3441
G01 X21.8835 Y31.3767
G01 X21.8198 Y31.4124
G01 X21.7581 Y31.4512
G01 X21.6983 Y31.4930
G01 X21.6406 Y31.5377
G01 X21.5852 Y31.5852
G01 X21.5344 Y31.6385
G01 X21.4863 Y31.6943
G01 X21.4410 Y31.7523
G01 X21.3987 Y31.8125
G01 X21.3593 Y31.8747
G01 X21.3230 Y31.9387
G01 X21.2899 Y32.0045
G01 X21.2600 Y32.0718
G01 X21.2335 Y32.1405
G01 X21.2105 Y32.2104
G01 X21.1908 Y32.2814
G01 X21.1747 Y32.3532
G01 X21.1621 Y32.4257
G01 X21.1531 Y32.4988
G01 X21.1477 Y32.5722
G01 X21.1459 Y32.6458
G01 X21.1477 Y32.7194
G01 X21.1531 Y32.7929
G01 X21.1621 Y32.8659
G01 X21.1747 Y32.9385
G01 X21.1908 Y33.0103
G01 X21.2105 Y33.0812
G01 X21.2335 Y33.1512
G01 X21.2600 Y33.2198
G01 X21.2899 Y33.2871
G01 X21.3230 Y33.3529
G01 X21.3593 Y33.4170
G01 X21.3987 Y33.4792
G01 X21.4410 Y33.5394
G01 X21.4863 Y33.5974
G01 X21.5344 Y33.6531
G01 X21.5852 Y33.7065
G01 X21.6385 Y33.7572
G01 X21.6943 Y33.8053
G01 X21.7523 Y33.8506
G01 X21.8125 Y33.8930
G01 X21.8747 Y33.9324
G01 X21.9388 Y33.9687
G01 X22.0045 Y34.0018
G01 X22.0718 Y34.0316
G01 X22.1405 Y34.0581
G01 X22.2104 Y34.0812
G01 X22.2814 Y34.1008
G01 X22.3532 Y34.1170
G01 X22.4257 Y34.1296
G01 X22.4988 Y34.1386
G01 X22.5722 Y34.1440
G01 X22.6458 Y34.1458
G01 X22.7194 Y34.1440
G01 X22.7929 Y34.1386
G01 X22.8659 Y34.1296
G01 X22.9385 Y34.1170
G01 X23.0103 Y34.1008
G01 X23.0813 Y34.0812
G01 X23.1512 Y34.0581
G01 X23.2198 Y34.0316
G01 X23.2872 Y34.0018
G01 X23.3529 Y33.9687
G01 X23.4170 Y33.9324
G01 X23.4792 Y33.8930
G01 X23.5394 Y33.8506
G01 X23.5974 Y33.8053
G01 X23.6532 Y33.7572
G01 X23.7065 Y33.7065
G01 X23.7572 Y33.6531
G01 X23.8053 Y33.5974
G01 X23.8506 Y33.5394
G01 X23.8930 Y33.4792
G01 X23.9324 Y33.4170
G01 X23.9687 Y33.3529
G01 X24.0018 Y33.2871
G01 X24.0316 Y33.2198
G01 X24.0581 Y33.1512
G01 X24.0812 Y33.0812
G01 X24.1009 Y33.0103
G01 X24.1170 Y32.9385
G01 X24.1296 Y32.8659
G01 X24.1386 Y32.7929
G01 X24.1440 Y32.7194
G01 X24.1458 Y32.6458
G01 X24.1416 Y32.5337
G01 X24.1290 Y32.4223
G01 X24.1082 Y32.3121
G01 X24.0792 Y32.2037
G01 X24.0421 Y32.0978
G01 X23.9973 Y31.9950
G01 X23.9448 Y31.8958
G01 X23.8852 Y31.8009
G01 X23.8186 Y31.7106
G01 X23.7454 Y31.6256
G01 X23.6661 Y31.5463
G01 X23.5810 Y31.4731
G01 X23.4908 Y31.4065
G01 X23.3958 Y31.3468
G01 X23.2966 Y31.2944
G01 X23.1938 Y31.2495
G01 X23.0880 Y31.2125
G01 X22.9796 Y31.1835
G01 X22.8694 Y31.1626
G01 X22.7579 Y31.1501
G01 X22.6458 Y31.1459
G01 X22.5337 Y31.1501
G01 X22.4223 Y31.1626
G01 X22.3121 Y31.1835
G01 X22.2037 Y31.2125
G01 X22.0978 Y31.2495
G01 X21.9950 Y31.2944
G01 X21.8959 Y31.3468
G01 X21.8009 Y31.4065
G01 X21.7106 Y31.4731
G01 X21.6256 Y31.5463
G01 X21.5463 Y31.6256
G01 X21.4731 Y31.7106
G01 X21.4065 Y31.8009
G01 X21.3468 Y31.8958
G01 X21.2944 Y31.9950
G01 X21.2496 Y32.0978
G01 X21.2125 Y32.2037
G01 X21.1835 Y32.3121
G01 X21.1626 Y32.4223
G01 X21.1501 Y32.5337
G01 X21.1459 Y32.6458
G01 X21.1501 Y32.7579
G01 X21.1626 Y32.8694
G01 X21.1835 Y32.9796
G01 X21.2125 Y33.0880
G01 X21.2496 Y33.1938
G01 X21.2944 Y33.2966
G01 X21.3468 Y33.3958
G01 X21.4065 Y33.4908
G01 X21.4731 Y33.5810
G01 X21.5463 Y33.6661
G01 X21.6256 Y33.7454
G01 X21.7106 Y33.8186
G01 X21.8009 Y33.8852
G01 X21.8959 Y33.9448
G01 X21.9950 Y33.9973
G01 X22.0978 Y34.0421
G01 X22.2037 Y34.0792
G01 X22.3121 Y34.1082
G01 X22.4223 Y34.1290
G01 X22.5337 Y34.1416
G01 X22.6458 Y34.1458
G01 X22.7579 Y34.1416
G01 X22.8694 Y34.1290
G01 X22.9796 Y34.1082
G01 X23.0880 Y34.0792
G01 X23.1938 Y34.0421
G01 X23.2966 Y33.9973
G01 X23.3958 Y33.9448
G01 X23.4908 Y33.8852
G01 X23.5810 Y33.8186
G01 X23.6661 Y33.7454
G01 X23.7454 Y33.6661
G01 X23.8186 Y33.5810
G01 X23.8852 Y33.4908
G01 X23.9448 Y33.3958
G01 X23.9973 Y33.2966
G01 X24.0421 Y33.1938
G01 X24.0792 Y33.0880
G01 X24.1082 Y32.9796
G01 X24.1290 Y32.8694
G01 X24.1416 Y32.7579
G01 X24.1458 Y32.6458
M107
M106 S240
G01 X24.1427 Y32.5674 Z-5.4750 F400
M107
M106 S240
G01 X24.1335 Y32.4894 Z-5.4500
M107
M106 S240
G01 X24.1182 Y32.4124 Z-5.4250
M107
M106 S240
G01 X24.0969 Y32.3368 Z-5.4000
M107
M106 S240
G01 X24.0697 Y32.2631 Z-5.3750
M107
M106 S240
G01 X24.0368 Y32.1918 Z-5.3500
M107
M106 S240
G01 X23.9984 Y32.1233 Z-5.3250
M107
M106 S240
G01 X23.9548 Y32.0580 Z-5.3000
M107
M106 S240
G01 X23.9062 Y31.9964 Z-5.2750
M107
M106 S240
G01 X23.8529 Y31.9387 Z-5.2500
M107
M106 S240
G01 X23.7953 Y31.8854 Z-5.2250
M107
M106 S240
G01 X23.7336 Y31.8368 Z-5.2000
M107
M106 S240
G01 X23.6683 Y31.7932 Z-5.1750
M107
M106 S240
G01 X23.5998 Y31.7548 Z-5.1500
M107
M106 S240
G01 X23.5285 Y31.7220 Z-5.1250
M107
M106 S240
G01 X23.4548 Y31.6948 Z-5.1000
M107
M106 S240
G01 X23.3792 Y31.6735 Z-5.0750
M107
M106 S240
G01 X23.3022 Y31.6581 Z-5.0500
M107
M106 S240
G01 X23.2243 Y31.6489 Z-5.0250
M107
M106 S240
G01 X23.1458 Y31.6458 Z-5.0000
M107
G00 Z2.0000


;No. 2: Hole 24
G00 X55.5055 Y45.3389 Z2.0000
G00 Z0.5000
G01 Z0.0000 F400
G01 Z-1.1000
M106 S240
G01 X74.0776 F1000
G01 Y46.8389
G01 X71.8627
G01 X72.2712
G01 Y48.3389
G01 X74.0776
G01 Y49.8389
G01 X72.2712
G01 Y51.3389
G01 X74.0776
G01 Y52.8389
G01 X72.2712
M107
G00 Z2.0000
G00 X57.7204 Y45.3389
G00 Z0.5000
G01 Z-1.1000 F400
M106 S240
G01 Y46.8389 F1000
G01 X55.5055
G01 Y48.3389
G01 X57.3120
G01 Y49.8389
G01 X55.5055
G01 Y51.3389
G01 X57.3120
G01 Y52.8389
G01 X55.5055
G01 X55.3055 Y52.8239
G01 Y53.9830
G01 X57.5120
G01 Y47.7401
G01 X57.5150 Y47.6617
G01 X57.5243 Y47.5837
G01 X57.5396 Y47.5067
G01 X57.5609 Y47.4311
G01 X57.5881 Y47.3574
G01 X57.6209 Y47.2861
G01 X57.6593 Y47.2176
G01 X57.7029 Y47.1523
G01 X57.7516 Y47.0907
G01 X57.8048 Y47.0330
G01 X57.8625 Y46.9797
G01 X57.9242 Y46.9311
G01 X57.9895 Y46.8875
G01 X58.0580 Y46.8491
G01 X58.1293 Y46.8162
G01 X58.2029 Y46.7891
G01 X58.2785 Y46.7677
G01 X58.3555 Y46.7524
G01 X58.4335 Y46.7432
G01 X58.5120 Y46.7401
G01 X71.0712
G01 X71.1148 Y46.7411
G01 X71.1583 Y46.7439
G01 X71.2017 Y46.7487
G01 X71.2448 Y46.7553
G01 X71.2876 Y46.7638
G01 X71.3300 Y46.7742
G01 X71.3719 Y46.7864
G01 X71.4132 Y46.8004
G01 X71.4539 Y46.8162
G01 X71.4938 Y46.8338
G01 X71.5329 Y46.8531
G01 X71.5712 Y46.8741
G01 X71.6085 Y46.8967
G01 X71.6448 Y46.9210
G01 X71.6799 Y46.9468
G01 X71.7140 Y46.9741
G01 X71.7468 Y47.0028
G01 X71.7783 Y47.0330
G01 X71.8085 Y47.0645
G01 X71.8372 Y47.0973
G01 X71.8645 Y47.1313
G01 X71.8903 Y47.1665
G01 X71.9146 Y47.2028
G01 X71.9372 Y47.2401
G01 X71.9582 Y47.2784
G01 X71.9775 Y47.3175
G01 X71.9951 Y47.3574
G01 X72.0109 Y47.3981
G01 X72.0249 Y47.4394
G01 X72.0371 Y47.4813
G01 X72.0475 Y47.5237
G01 X72.0560 Y47.5665
G01 X72.0626 Y47.6096
G01 X72.0674 Y47.6530
G01 X72.0702 Y47.6965
G01 X72.0712 Y47.7401
G01 Y53.9830
G01 X74.2776
G01 Y44.1949
G01 X55.3055
G01 Y52.8239
G01 X55.5055 Y52.8389
M107
G00 Z2.0000


;No. 3: Hole 23
G00 X56.0617 Y59.9541 Z2.0000
G00 Z0.5000
G01 Z0.0000 F400
G01 Z-1.1000
M106 S240
G01 X73.5094 F1000
G01 X73.6504 Y59.8091
G01 X73.5748 Y59.7077
G01 X73.4945 Y59.6101
G01 X73.4097 Y59.5163
G01 X73.3206 Y59.4267
G01 X73.2273 Y59.3414
G01 X73.1302 Y59.2606
G01 X73.0293 Y59.1844
G01 X72.9249 Y59.1131
G01 X72.8172 Y59.0469
G01 X72.7066 Y58.9858
G01 X72.5932 Y58.9299
G01 X72.4772 Y58.8795
G01 X72.3591 Y58.8347
G01 X72.2389 Y58.7955
G01 X72.1170 Y58.7620
G01 X71.9937 Y58.7343
G01 X71.8692 Y58.7124
G01 X71.7438 Y58.6965
G01 X71.6178 Y58.6865
G01 X71.4915 Y58.6824
G01 X58.0941
G01 X57.9563 Y58.6842
G01 X57.8189 Y58.6933
G01 X57.6821 Y58.7098
G01 X57.5463 Y58.7335
G01 X57.4121 Y58.7645
G01 X57.2797 Y58.8025
G01 X57.1495 Y58.8476
G01 X57.0219 Y58.8996
G01 X56.8972 Y58.9584
G01 X56.7759 Y59.0237
G01 X56.6582 Y59.0954
G01 X56.5446 Y59.1732
G01 X56.4352 Y59.2571
G01 X56.3305 Y59.3466
G01 X56.2307 Y59.4416
G01 X56.1362 Y59.5418
G01 X56.1448 Y59.5319
G01 X55.9912 Y59.7132
G01 X55.8515 Y59.9054
G01 X55.7267 Y60.1076
G01 X55.6173 Y60.3185
G01 X55.5240 Y60.5371
G01 X55.4474 Y60.7620
G01 X55.3878 Y60.9920
G01 X55.3455 Y61.2258
G01 X74.2381 Y61.2224
G01 X74.2051 Y61.0319
G01 X74.1600 Y60.8438
G01 X74.1031 Y60.6590
G01 X74.0345 Y60.4782
G01 X73.9547 Y60.3021
G01 X73.8637 Y60.1314
G01 X73.7622 Y59.9668
G01 X73.6504 Y59.8091
G01 X73.5094 Y59.9541
M107
G00 Z2.0000


;No. 4: Hole 25
G00 X80.6762 Y60.2103 Z2.0000
G00 Z0.5000
G01 Z0.0000 F400
G01 Z-1.1000
M106 S240
G01 X83.6427 F1000
G01 X85.0314 Y58.7103
G01 X82.0616
G01 X82.3312
G01 Y57.2103
G01 X86.4201
G01 X87.8088 Y55.7103
G01 X82.3312
G01 Y54.2103
G01 X84.4458
G01 X84.1376
G01 Y52.7103
G01 X82.3312
G01 Y51.2103
G01 X84.1376
G01 Y49.7103
G01 X82.3312
G01 Y48.2103
G01 X84.1376
G01 Y46.7103
G01 X82.3312
G01 Y45.2103
G01 X84.1376
M107
G00 Z2.0000
G00 X86.2311 Y55.7103
G00 Z0.5000
G01 Z-1.1000 F400
M106 S240
G01 Y54.2103 F1000
G01 X89.1976
G01 X90.5863 Y52.7103
G01 X87.6199
G01 X89.0086 Y51.2103
G01 X91.9750
G01 X93.3638 Y49.7103
G01 X90.3973
G01 X91.7861 Y48.2103
G01 X97.5505
G01 Y46.7103
G01 X93.1748
G01 X94.5635 Y45.2103
G01 X97.5505
G01 X95.6385 Y49.7103
G01 X97.5505
G01 Y51.2103
G01 X95.7441
G01 Y52.7103
G01 X97.5505
G01 Y54.2103
G01 X95.7441
G01 Y55.7103
G01 X97.5505
G01 Y57.2103
G01 X95.7441
G01 Y58.7103
G01 X97.5505
G01 Y60.2103
G01 X95.7441
G01 X95.5441 Y60.1929
G01 Y61.2258
G01 X97.7505
G01 Y44.1949
G01 X95.2311
G01 X86.0714 Y54.0884
G01 X86.0107 Y54.1486
G01 X85.9451 Y54.2034
G01 X85.8750 Y54.2524
G01 X85.8010 Y54.2952
G01 X85.7236 Y54.3316
G01 X85.6434 Y54.3612
G01 X85.5610 Y54.3838
G01 X85.4769 Y54.3993
G01 X85.3918 Y54.4076
G01 X85.3063 Y54.4086
G01 X85.2210 Y54.4022
G01 X85.1366 Y54.3887
G01 X85.0537 Y54.3679
G01 X84.9728 Y54.3401
G01 X84.8946 Y54.3056
G01 X84.8197 Y54.2645
G01 X84.7485 Y54.2171
G01 X84.6816 Y54.1638
G01 X84.6195 Y54.1050
G01 X84.5627 Y54.0411
G01 X84.5116 Y53.9726
G01 X84.4664 Y53.9000
G01 X84.4277 Y53.8238
G01 X84.3956 Y53.7445
G01 X84.3704 Y53.6628
G01 X84.3522 Y53.5793
G01 X84.3413 Y53.4945
G01 X84.3376 Y53.4091
G01 Y44.1949
G01 X82.1312
G01 Y57.9525
G01 X82.1269 Y58.0457
G01 X82.1139 Y58.1381
G01 X82.0923 Y58.2289
G01 X82.0623 Y58.3173
G01 X82.0242 Y58.4025
G01 X81.9784 Y58.4838
G01 X81.9252 Y58.5605
G01 X81.8650 Y58.6319
G01 X79.4635 Y61.2258
G01 X82.9750
G01 X93.8103 Y49.5224
G01 X93.8710 Y49.4623
G01 X93.9366 Y49.4075
G01 X94.0067 Y49.3585
G01 X94.0807 Y49.3157
G01 X94.1581 Y49.2793
G01 X94.2383 Y49.2497
G01 X94.3208 Y49.2271
G01 X94.4048 Y49.2116
G01 X94.4899 Y49.2033
G01 X94.5754 Y49.2023
G01 X94.6607 Y49.2086
G01 X94.7451 Y49.2222
G01 X94.8281 Y49.2430
G01 X94.9089 Y49.2707
G01 X94.9871 Y49.3053
G01 X95.0621 Y49.3464
G01 X95.1333 Y49.3938
G01 X95.2001 Y49.4471
G01 X95.2622 Y49.5059
G01 X95.3190 Y49.5698
G01 X95.3702 Y49.6383
G01 X95.4153 Y49.7109
G01 X95.4540 Y49.7871
G01 X95.4861 Y49.8664
G01 X95.5114 Y49.9480
G01 X95.5295 Y50.0316
G01 X95.5404 Y50.1164
G01 X95.5441 Y50.2018
G01 Y60.1929
G01 X95.7441 Y60.2103
M107
G00 Z2.0000


;No. 5: Hole 26
G00 X102.4497 Y60.2103 Z2.0000
G00 Z0.5000
G01 Z0.0000 F400
G01 Z-1.1000
M106 S240
G01 X104.2578 F1000
G01 Y58.7103
G01 X102.4497
G01 Y57.2103
G01 X104.2578
G01 Y55.7103
G01 X102.4497
G01 Y54.2103
G01 X104.2578
G01 Y52.7103
G01 X102.4497
G01 Y51.2103
G01 X104.2578
G01 Y49.7103
G01 X102.4497
G01 Y48.2103
G01 X104.2578
G01 Y46.7103
G01 X104.8425
G01 X102.4497
G01 Y45.2103
G01 X120.2388
G01 X120.4031 Y45.0936
G01 X120.3090 Y44.9909
G01 X120.2096 Y44.8933
G01 X120.1052 Y44.8012
G01 X119.9959 Y44.7147
G01 X119.8822 Y44.6343
G01 X119.7644 Y44.5600
G01 X119.6427 Y44.4921
G01 X119.5176 Y44.4308
G01 X119.3894 Y44.3763
G01 X119.2585 Y44.3287
G01 X119.1252 Y44.2882
G01 X118.9900 Y44.2549
G01 X118.8532 Y44.2288
G01 X118.7151 Y44.2101
G01 X118.5763 Y44.1988
G01 X118.4370 Y44.1949
G01 X102.2497
G01 Y61.2258
G01 X104.4578
G01 Y47.7401
G01 X104.4609 Y47.6612
G01 X104.4702 Y47.5827
G01 X104.4857 Y47.5052
G01 X104.5073 Y47.4292
G01 X104.5348 Y47.3551
G01 X104.5681 Y47.2834
G01 X104.6070 Y47.2146
G01 X104.6511 Y47.1491
G01 X104.7003 Y47.0872
G01 X104.7542 Y47.0295
G01 X104.8125 Y46.9761
G01 X104.8748 Y46.9276
G01 X104.9408 Y46.8841
G01 X105.0100 Y46.8459
G01 X105.0820 Y46.8134
G01 X105.1564 Y46.7866
G01 X105.2326 Y46.7658
G01 X105.3102 Y46.7510
G01 X105.3888 Y46.7424
G01 X105.4678 Y46.7401
G01 X121.1833 Y46.7353
G01 X121.1425 Y46.5082
G01 X121.0845 Y46.2850
G01 X121.0098 Y46.0667
G01 X120.9188 Y45.8548
G01 X120.8119 Y45.6504
G01 X120.6899 Y45.4546
G01 X120.5533 Y45.2687
G01 X120.4031 Y45.0936
G01 X120.2388 Y45.2103
M107
G00 Z2.0000


;No. 6: Hole 27
G00 X129.8225 Y54.2103 Z2.0000
G00 Z0.5000
G01 Z0.0000 F400
G01 Z-1.1000
M106 S240
G01 X132.7889 F1000
G01 X131.4002 Y55.7103
G01 X128.4337
G01 X127.0450 Y57.2103
G01 X130.0115
G01 X128.6227 Y58.7103
G01 X125.9226
G01 Y60.2103
G01 X127.7290
M107
G00 Z2.0000
G00 X131.2112 Y54.2103
G00 Z0.5000
G01 Z-1.1000 F400
M106 S240
G01 Y52.7103 F1000
G01 X134.1776
G01 X132.5999 Y51.2103
G01 X137.8173
G01 X136.4287 Y49.7103
G01 X133.9885
G01 X134.3054
G01 Y48.2103
G01 X136.1118
G01 Y46.7103
G01 X134.3054
G01 Y45.2103
G01 X136.1118
M107
G00 Z2.0000
G00 X136.2412 Y51.2103
G00 Z0.5000
G01 Z-1.1000 F400
M106 S240
G01 Y52.7103 F1000
G01 X139.2060
G01 X140.5947 Y54.2103
G01 X137.6295
G01 X139.0179 Y55.7103
G01 X141.9835
G01 X143.3722 Y57.2103
G01 X140.4063
G01 X141.7946 Y58.7103
G01 X144.4946
G01 Y60.2103
G01 X142.6882
G01 X142.4882 Y60.3281
G01 Y61.2258
G01 X144.6946
G01 Y58.3443
G01 X136.5780 Y49.5774
G01 X136.5179 Y49.5060
G01 X136.4646 Y49.4294
G01 X136.4188 Y49.3481
G01 X136.3807 Y49.2629
G01 X136.3508 Y49.1745
G01 X136.3292 Y49.0837
G01 X136.3162 Y48.9913
G01 X136.3118 Y48.8980
G01 Y44.1949
G01 X134.1054
G01 Y48.8980
G01 X134.1043 Y48.9447
G01 X134.1010 Y48.9913
G01 X134.0956 Y49.0376
G01 X134.0880 Y49.0837
G01 X134.0783 Y49.1293
G01 X134.0664 Y49.1745
G01 X134.0525 Y49.2190
G01 X134.0365 Y49.2629
G01 X134.0184 Y49.3059
G01 X133.9984 Y49.3481
G01 X133.9764 Y49.3893
G01 X133.9526 Y49.4294
G01 X133.9268 Y49.4683
G01 X133.8993 Y49.5060
G01 X133.8701 Y49.5424
G01 X133.8392 Y49.5774
G01 X125.7226 Y58.3443
G01 Y61.2258
G01 X127.9290
G01 X127.9103 Y60.9211
G01 X127.9057 Y60.6158
G01 X127.9152 Y60.3107
G01 X127.9388 Y60.0063
G01 X127.9522 Y59.9317
G01 X127.9712 Y59.8583
G01 X127.9958 Y59.7865
G01 X128.0257 Y59.7168
G01 X128.0608 Y59.6496
G01 X128.1009 Y59.5852
G01 X128.1458 Y59.5241
G01 X128.1952 Y59.4665
G01 X134.4756 Y52.6829
G01 X134.5340 Y52.6248
G01 X134.5970 Y52.5717
G01 X134.6642 Y52.5240
G01 X134.7350 Y52.4819
G01 X134.8091 Y52.4459
G01 X134.8858 Y52.4160
G01 X134.9648 Y52.3926
G01 X135.0454 Y52.3758
G01 X135.1272 Y52.3656
G01 X135.2095 Y52.3622
G01 X135.2918 Y52.3656
G01 X135.3735 Y52.3758
G01 X135.4542 Y52.3927
G01 X135.5331 Y52.4161
G01 X135.6099 Y52.4459
G01 X135.6840 Y52.4820
G01 X135.7548 Y52.5241
G01 X135.8219 Y52.5718
G01 X135.8849 Y52.6249
G01 X135.9433 Y52.6830
G01 X142.2221 Y59.4666
G01 X142.2716 Y59.5263
G01 X142.3167 Y59.5893
G01 X142.3571 Y59.6553
G01 X142.3928 Y59.7241
G01 X142.4234 Y59.7953
G01 X142.4489 Y59.8684
G01 X142.4691 Y59.9432
G01 X142.4839 Y60.0193
G01 X142.4933 Y60.0962
G01 X142.4971 Y60.1735
G01 X142.4954 Y60.2510
G01 X142.4882 Y60.3281
G01 X142.6882 Y60.2103
M107
G00 Z2.0000


;No. 7: Helical drill 7
G00 X178.3547 Y32.6465 Z2.0000
G00 Z0.5000
M106 S240
G01 X178.3509 Y32.5593 Z0.4722 F400
G01 X178.3395 Y32.4728 Z0.4444
G01 X178.3206 Y32.3877 Z0.4167
G01 X178.2944 Y32.3045 Z0.3889
G01 X178.2610 Y32.2239 Z0.3611
G01 X178.2207 Y32.1465 Z0.3333
G01 X178.1739 Y32.0729 Z0.3056
G01 X178.1207 Y32.0037 Z0.2778
G01 X178.0618 Y31.9394 Z0.2500
G01 X177.9975 Y31.8804 Z0.2222
G01 X177.9283 Y31.8273 Z0.1944
G01 X177.8547 Y31.7804 Z0.1667
G01 X177.7773 Y31.7402 Z0.1389
G01 X177.6967 Y31.7068 Z0.1111
G01 X177.6135 Y31.6805 Z0.0833
G01 X177.5284 Y31.6617 Z0.0556
G01 X177.4419 Y31.6503 Z0.0278
G01 X177.3547 Y31.6465 Z0.0000
G01 X177.2675 Y31.6503 Z-0.0278
G01 X177.1811 Y31.6617 Z-0.0556
G01 X177.0959 Y31.6805 Z-0.0833
G01 X177.0127 Y31.7068 Z-0.1111
G01 X176.9321 Y31.7402 Z-0.1389
G01 X176.8547 Y31.7804 Z-0.1667
G01 X176.8141 Y31.8052 Z-0.1818
G01 X176.7746 Y31.8319 Z-0.1970
G01 X176.7365 Y31.8604 Z-0.2121
G01 X176.6998 Y31.8907 Z-0.2273
G01 X176.6646 Y31.9227 Z-0.2424
G01 X176.6310 Y31.9564 Z-0.2576
G01 X176.5990 Y31.9916 Z-0.2727
G01 X176.5686 Y32.0283 Z-0.2879
G01 X176.5401 Y32.0664 Z-0.3030
G01 X176.5134 Y32.1058 Z-0.3182
G01 X176.4887 Y32.1465 Z-0.3333
G01 X176.4659 Y32.1882 Z-0.3485
G01 X176.4451 Y32.2311 Z-0.3636
G01 X176.4263 Y32.2748 Z-0.3788
G01 X176.4097 Y32.3194 Z-0.3939
G01 X176.3952 Y32.3647 Z-0.4091
G01 X176.3829 Y32.4107 Z-0.4242
G01 X176.3728 Y32.4572 Z-0.4394
G01 X176.3649 Y32.5042 Z-0.4545
G01 X176.3592 Y32.5514 Z-0.4697
G01 X176.3558 Y32.5989 Z-0.4848
G01 X176.3547 Y32.6465 Z-0.5000
G01 X176.3558 Y32.6941 Z-0.5152
G01 X176.3592 Y32.7415 Z-0.5303
G01 X176.3649 Y32.7888 Z-0.5455
G01 X176.3728 Y32.8357 Z-0.5606
G01 X176.3829 Y32.8822 Z-0.5758
G01 X176.3952 Y32.9282 Z-0.5909
G01 X176.4097 Y32.9735 Z-0.6061
G01 X176.4263 Y33.0181 Z-0.6212
G01 X176.4451 Y33.0619 Z-0.6364
G01 X176.4659 Y33.1047 Z-0.6515
G01 X176.4887 Y33.1465 Z-0.6667
G01 X176.5134 Y33.1871 Z-0.6818
G01 X176.5401 Y33.2265 Z-0.6970
G01 X176.5686 Y33.2646 Z-0.7121
G01 X176.5990 Y33.3013 Z-0.7273
G01 X176.6310 Y33.3366 Z-0.7424
G01 X176.6646 Y33.3702 Z-0.7576
G01 X176.6998 Y33.4022 Z-0.7727
G01 X176.7365 Y33.4325 Z-0.7879
G01 X176.7746 Y33.4611 Z-0.8030
G01 X176.8141 Y33.4877 Z-0.8182
G01 X176.8547 Y33.5125 Z-0.8333
G01 X176.9321 Y33.5528 Z-0.8611
G01 X177.0127 Y33.5862 Z-0.8889
G01 X177.0959 Y33.6124 Z-0.9167
G01 X177.1811 Y33.6313 Z-0.9444
G01 X177.2675 Y33.6427 Z-0.9722
G01 X177.3547 Y33.6465 Z-1.0000
G01 X177.4419 Y33.6427 Z-1.0278
G01 X177.5284 Y33.6313 Z-1.0556
G01 X177.6135 Y33.6124 Z-1.0833
G01 X177.6967 Y33.5862 Z-1.1111
G01 X177.7773 Y33.5528 Z-1.1389
G01 X177.8547 Y33.5125 Z-1.1667
G01 X177.9283 Y33.4656 Z-1.1944
G01 X177.9975 Y33.4125 Z-1.2222
G01 X178.0618 Y33.3536 Z-1.2500
G01 X178.1207 Y33.2893 Z-1.2778
G01 X178.1739 Y33.2201 Z-1.3056
G01 X178.2207 Y33.1465 Z-1.3333
G01 X178.2610 Y33.0691 Z-1.3611
G01 X178.2944 Y32.9885 Z-1.3889
G01 X178.3206 Y32.9053 Z-1.4167
G01 X178.3395 Y32.8201 Z-1.4444
G01 X178.3509 Y32.7336 Z-1.4722
G01 X178.3547 Y32.6465 Z-1.5000
G01 X178.3509 Y32.5593
G01 X178.3395 Y32.4728
G01 X178.3206 Y32.3877
G01 X178.2944 Y32.3045
G01 X178.2610 Y32.2239
G01 X178.2207 Y32.1465
G01 X178.1739 Y32.0729
G01 X178.1207 Y32.0037
G01 X178.0618 Y31.9394
G01 X177.9975 Y31.8804
G01 X177.9283 Y31.8273
G01 X177.8547 Y31.7804
G01 X177.7773 Y31.7402
G01 X177.6967 Y31.7068
G01 X177.6135 Y31.6805
G01 X177.5284 Y31.6617
G01 X177.4419 Y31.6503
G01 X177.3547 Y31.6465
G01 X177.2675 Y31.6503
G01 X177.1811 Y31.6617
G01 X177.0959 Y31.6805
G01 X177.0127 Y31.7068
G01 X176.9321 Y31.7402
G01 X176.8547 Y31.7804
G01 X176.8141 Y31.8052
G01 X176.7746 Y31.8319
G01 X176.7365 Y31.8604
G01 X176.6998 Y31.8907
G01 X176.6646 Y31.9227
G01 X176.6310 Y31.9564
G01 X176.5990 Y31.9916
G01 X176.5686 Y32.0283
G01 X176.5401 Y32.0664
G01 X176.5134 Y32.1058
G01 X176.4887 Y32.1465
G01 X176.4659 Y32.1882
G01 X176.4451 Y32.2311
G01 X176.4263 Y32.2748
G01 X176.4097 Y32.3194
G01 X176.3952 Y32.3647
G01 X176.3829 Y32.4107
G01 X176.3728 Y32.4572
G01 X176.3649 Y32.5042
G01 X176.3592 Y32.5514
G01 X176.3558 Y32.5989
G01 X176.3547 Y32.6465
G01 X176.3558 Y32.6941
G01 X176.3592 Y32.7415
G01 X176.3649 Y32.7888
G01 X176.3728 Y32.8357
G01 X176.3829 Y32.8822
G01 X176.3952 Y32.9282
G01 X176.4097 Y32.9735
G01 X176.4263 Y33.0181
G01 X176.4451 Y33.0619
G01 X176.4659 Y33.1047
G01 X176.4887 Y33.1465
G01 X176.5134 Y33.1871
G01 X176.5401 Y33.2265
G01 X176.5686 Y33.2646
G01 X176.5990 Y33.3013
G01 X176.6310 Y33.3366
G01 X176.6646 Y33.3702
G01 X176.6998 Y33.4022
G01 X176.7365 Y33.4325
G01 X176.7746 Y33.4611
G01 X176.8141 Y33.4877
G01 X176.8547 Y33.5125
G01 X176.9321 Y33.5528
G01 X177.0127 Y33.5862
G01 X177.0959 Y33.6124
G01 X177.1811 Y33.6313
G01 X177.2675 Y33.6427
G01 X177.3547 Y33.6465
G01 X177.4419 Y33.6427
G01 X177.5284 Y33.6313
G01 X177.6135 Y33.6124
G01 X177.6967 Y33.5862
G01 X177.7773 Y33.5528
G01 X177.8547 Y33.5125
G01 X177.9283 Y33.4656
G01 X177.9975 Y33.4125
G01 X178.0618 Y33.3536
G01 X178.1207 Y33.2893
G01 X178.1739 Y33.2201
G01 X178.2207 Y33.1465
G01 X178.2610 Y33.0691
G01 X178.2944 Y32.9885
G01 X178.3206 Y32.9053
G01 X178.3395 Y32.8201
G01 X178.3509 Y32.7336
G01 X178.3547 Y32.6465
G01 X178.3654 Y32.5949 F1000
G01 X178.3735 Y32.5428
G01 X178.3789 Y32.4904
G01 X178.3816 Y32.4377
G01 X178.3815 Y32.3850
G01 X178.3788 Y32.3324
G01 X178.3733 Y32.2800
G01 X178.3652 Y32.2279
G01 X178.3535 Y32.1719
G01 X178.3389 Y32.1166
G01 X178.3215 Y32.0621
G01 X178.3014 Y32.0086
G01 X178.2786 Y31.9561
G01 X178.2531 Y31.9049
G01 X178.2250 Y31.8551
G01 X178.1944 Y31.8068
G01 X178.1588 Y31.7564
G01 X178.1207 Y31.7079
G01 X178.0801 Y31.6613
G01 X178.0373 Y31.6169
G01 X177.9922 Y31.5748
G01 X177.9451 Y31.5350
G01 X177.8960 Y31.4976
G01 X177.8450 Y31.4628
G01 X177.7885 Y31.4282
G01 X177.7303 Y31.3965
G01 X177.6706 Y31.3678
G01 X177.6096 Y31.3422
G01 X177.5473 Y31.3197
G01 X177.4839 Y31.3004
G01 X177.4197 Y31.2843
G01 X177.3547 Y31.2715
G01 X177.2847 Y31.2613
G01 X177.2142 Y31.2547
G01 X177.1435 Y31.2516
G01 X177.0728 Y31.2521
G01 X177.0021 Y31.2561
G01 X176.9318 Y31.2637
G01 X176.8619 Y31.2749
G01 X176.7926 Y31.2895
G01 X176.7245 Y31.3155
G01 X176.6577 Y31.3449
G01 X176.5924 Y31.3775
G01 X176.5289 Y31.4132
G01 X176.4671 Y31.4521
G01 X176.4073 Y31.4939
G01 X176.3497 Y31.5386
G01 X176.2944 Y31.5861
G01 X176.2436 Y31.6394
G01 X176.1955 Y31.6952
G01 X176.1503 Y31.7532
G01 X176.1079 Y31.8134
G01 X176.0685 Y31.8756
G01 X176.0322 Y31.9396
G01 X175.9991 Y32.0053
G01 X175.9693 Y32.0726
G01 X175.9428 Y32.1413
G01 X175.9197 Y32.2112
G01 X175.9001 Y32.2821
G01 X175.8840 Y32.3539
G01 X175.8714 Y32.4264
G01 X175.8624 Y32.4995
G01 X175.8570 Y32.5729
G01 X175.8552 Y32.6465
G01 X175.8570 Y32.7201
G01 X175.8624 Y32.7935
G01 X175.8714 Y32.8665
G01 X175.8840 Y32.9390
G01 X175.9001 Y33.0108
G01 X175.9197 Y33.0818
G01 X175.9428 Y33.1517
G01 X175.9693 Y33.2203
G01 X175.9991 Y33.2876
G01 X176.0322 Y33.3534
G01 X176.0685 Y33.4174
G01 X176.1079 Y33.4796
G01 X176.1503 Y33.5398
G01 X176.1955 Y33.5978
G01 X176.2436 Y33.6535
G01 X176.2944 Y33.7068
G01 X176.3477 Y33.7576
G01 X176.4034 Y33.8056
G01 X176.4614 Y33.8509
G01 X176.5216 Y33.8933
G01 X176.5838 Y33.9327
G01 X176.6478 Y33.9690
G01 X176.7136 Y34.0021
G01 X176.7808 Y34.0319
G01 X176.8495 Y34.0584
G01 X176.9194 Y34.0815
G01 X176.9903 Y34.1011
G01 X177.0622 Y34.1172
G01 X177.1347 Y34.1298
G01 X177.2077 Y34.1388
G01 X177.2811 Y34.1442
G01 X177.3547 Y34.1460
G01 X177.4283 Y34.1442
G01 X177.5017 Y34.1388
G01 X177.5747 Y34.1298
G01 X177.6472 Y34.1172
G01 X177.7191 Y34.1011
G01 X177.7900 Y34.0815
G01 X177.8599 Y34.0584
G01 X177.9286 Y34.0319
G01 X177.9958 Y34.0021
G01 X178.0616 Y33.9690
G01 X178.1256 Y33.9327
G01 X178.1878 Y33.8933
G01 X178.2480 Y33.8509
G01 X178.3060 Y33.8056
G01 X178.3617 Y33.7576
G01 X178.4150 Y33.7068
G01 X178.4658 Y33.6535
G01 X178.5139 Y33.5978
G01 X178.5592 Y33.5398
G01 X178.6015 Y33.4796
G01 X178.6409 Y33.4174
G01 X178.6772 Y33.3534
G01 X178.7103 Y33.2876
G01 X178.7401 Y33.2203
G01 X178.7666 Y33.1517
G01 X178.7897 Y33.0818
G01 X178.8093 Y33.0108
G01 X178.8254 Y32.9390
G01 X178.8380 Y32.8665
G01 X178.8470 Y32.7935
G01 X178.8524 Y32.7201
G01 X178.8543 Y32.6465
G01 X178.8501 Y32.5344
G01 X178.8375 Y32.4230
G01 X178.8167 Y32.3128
G01 X178.7876 Y32.2045
G01 X178.7506 Y32.0986
G01 X178.7057 Y31.9958
G01 X178.6533 Y31.8967
G01 X178.5937 Y31.8017
G01 X178.5271 Y31.7115
G01 X178.4539 Y31.6265
G01 X178.3747 Y31.5472
G01 X178.2897 Y31.4741
G01 X178.1994 Y31.4075
G01 X178.1045 Y31.3478
G01 X178.0053 Y31.2954
G01 X177.9025 Y31.2506
G01 X177.7967 Y31.2135
G01 X177.6884 Y31.1845
G01 X177.5782 Y31.1637
G01 X177.4668 Y31.1511
G01 X177.3547 Y31.1469
G01 X177.2426 Y31.1511
G01 X177.1312 Y31.1637
G01 X177.0210 Y31.1845
G01 X176.9127 Y31.2135
G01 X176.8069 Y31.2506
G01 X176.7041 Y31.2954
G01 X176.6049 Y31.3478
G01 X176.5100 Y31.4075
G01 X176.4197 Y31.4741
G01 X176.3348 Y31.5472
G01 X176.2555 Y31.6265
G01 X176.1823 Y31.7115
G01 X176.1157 Y31.8017
G01 X176.0561 Y31.8967
G01 X176.0037 Y31.9958
G01 X175.9588 Y32.0986
G01 X175.9218 Y32.2045
G01 X175.8928 Y32.3128
G01 X175.8719 Y32.4230
G01 X175.8593 Y32.5344
G01 X175.8552 Y32.6465
G01 X175.8593 Y32.7585
G01 X175.8719 Y32.8700
G01 X175.8928 Y32.9802
G01 X175.9218 Y33.0885
G01 X175.9588 Y33.1943
G01 X176.0037 Y33.2971
G01 X176.0561 Y33.3962
G01 X176.1157 Y33.4912
G01 X176.1823 Y33.5814
G01 X176.2555 Y33.6664
G01 X176.3348 Y33.7457
G01 X176.4197 Y33.8189
G01 X176.5100 Y33.8855
G01 X176.6049 Y33.9451
G01 X176.7041 Y33.9975
G01 X176.8069 Y34.0424
G01 X176.9127 Y34.0794
G01 X177.0210 Y34.1084
G01 X177.1312 Y34.1293
G01 X177.2426 Y34.1418
G01 X177.3547 Y34.1460
G01 X177.4668 Y34.1418
G01 X177.5782 Y34.1293
G01 X177.6884 Y34.1084
G01 X177.7967 Y34.0794
G01 X177.9025 Y34.0424
G01 X178.0053 Y33.9975
G01 X178.1045 Y33.9451
G01 X178.1994 Y33.8855
G01 X178.2897 Y33.8189
G01 X178.3747 Y33.7457
G01 X178.4539 Y33.6664
G01 X178.5271 Y33.5814
G01 X178.5937 Y33.4912
G01 X178.6533 Y33.3962
G01 X178.7057 Y33.2971
G01 X178.7506 Y33.1943
G01 X178.7876 Y33.0885
G01 X178.8167 Y32.9802
G01 X178.8375 Y32.8700
G01 X178.8501 Y32.7585
G01 X178.8543 Y32.6465
G01 X178.8504 Y32.5484
G01 X178.8389 Y32.4510
G01 X178.8197 Y32.3547
G01 X178.7931 Y32.2603
G01 X178.7591 Y32.1682
G01 X178.7180 Y32.0791
G01 X178.6701 Y31.9935
G01 X178.6156 Y31.9119
G01 X178.5548 Y31.8348
G01 X178.4882 Y31.7628
G01 X178.4161 Y31.6961
G01 X178.3391 Y31.6354
G01 X178.2575 Y31.5809
G01 X178.1719 Y31.5329
G01 X178.0827 Y31.4918
G01 X177.9907 Y31.4579
G01 X177.8962 Y31.4312
G01 X177.8000 Y31.4121
G01 X177.7025 Y31.4006
G01 X177.6045 Y31.3967
G01 X177.5064 Y31.4006
G01 X177.4090 Y31.4121
G01 X177.3127 Y31.4312
G01 X177.2183 Y31.4579
G01 X177.1262 Y31.4918
G01 X177.0371 Y31.5329
G01 X176.9515 Y31.5809
G01 X176.8699 Y31.6354
G01 X176.7928 Y31.6961
G01 X176.7208 Y31.7628
G01 X176.6541 Y31.8348
G01 X176.5934 Y31.9119
G01 X176.5389 Y31.9935
G01 X176.4909 Y32.0791
G01 X176.4498 Y32.1682
G01 X176.4159 Y32.2603
G01 X176.3892 Y32.3547
G01 X176.3701 Y32.4510
G01 X176.3586 Y32.5484
G01 X176.3547 Y32.6465
G01 X176.3585 Y32.7336
G01 X176.3699 Y32.8201
G01 X176.3888 Y32.9053
G01 X176.4150 Y32.9885
G01 X176.4484 Y33.0691
G01 X176.4887 Y33.1465
G01 X176.5356 Y33.2201
G01 X176.5887 Y33.2893
G01 X176.6476 Y33.3536
G01 X176.7119 Y33.4125
G01 X176.7811 Y33.4656
G01 X176.8547 Y33.5125
G01 X176.9321 Y33.5528
G01 X177.0127 Y33.5862
G01 X177.0959 Y33.6124
G01 X177.1811 Y33.6313
G01 X177.2675 Y33.6427
G01 X177.3547 Y33.6465
G01 X177.4419 Y33.6427
G01 X177.5284 Y33.6313
G01 X177.6135 Y33.6124
G01 X177.6967 Y33.5862
G01 X177.7773 Y33.5528
G01 X177.8547 Y33.5125
G01 X177.9283 Y33.4656
G01 X177.9975 Y33.4125
G01 X178.0618 Y33.3536
G01 X178.1207 Y33.2893
G01 X178.1739 Y33.2201
G01 X178.2207 Y33.1465
G01 X178.2610 Y33.0691
G01 X178.2944 Y32.9885
G01 X178.3206 Y32.9053
G01 X178.3395 Y32.8201
G01 X178.3509 Y32.7336
G01 X178.3547 Y32.6465
M107
M106 S240
G01 X178.3509 Y32.5593 Z-1.5278 F400
G01 X178.3395 Y32.4728 Z-1.5556
G01 X178.3206 Y32.3877 Z-1.5833
G01 X178.2944 Y32.3045 Z-1.6111
G01 X178.2610 Y32.2239 Z-1.6389
G01 X178.2207 Y32.1465 Z-1.6667
G01 X178.1739 Y32.0729 Z-1.6944
G01 X178.1207 Y32.0037 Z-1.7222
G01 X178.0618 Y31.9394 Z-1.7500
G01 X177.9975 Y31.8804 Z-1.7778
G01 X177.9283 Y31.8273 Z-1.8056
G01 X177.8547 Y31.7804 Z-1.8333
G01 X177.7773 Y31.7402 Z-1.8611
G01 X177.6967 Y31.7068 Z-1.8889
G01 X177.6135 Y31.6805 Z-1.9167
G01 X177.5284 Y31.6617 Z-1.9444
G01 X177.4419 Y31.6503 Z-1.9722
G01 X177.3547 Y31.6465 Z-2.0000
G01 X177.2675 Y31.6503 Z-2.0278
G01 X177.1811 Y31.6617 Z-2.0556
G01 X177.0959 Y31.6805 Z-2.0833
G01 X177.0127 Y31.7068 Z-2.1111
G01 X176.9321 Y31.7402 Z-2.1389
G01 X176.8547 Y31.7804 Z-2.1667
G01 X176.8141 Y31.8052 Z-2.1818
G01 X176.7746 Y31.8319 Z-2.1970
G01 X176.7365 Y31.8604 Z-2.2121
G01 X176.6998 Y31.8907 Z-2.2273
G01 X176.6646 Y31.9227 Z-2.2424
G01 X176.6310 Y31.9564 Z-2.2576
G01 X176.5990 Y31.9916 Z-2.2727
G01 X176.5686 Y32.0283 Z-2.2879
G01 X176.5401 Y32.0664 Z-2.3030
G01 X176.5134 Y32.1058 Z-2.3182
G01 X176.4887 Y32.1465 Z-2.3333
G01 X176.4659 Y32.1882 Z-2.3485
G01 X176.4451 Y32.2311 Z-2.3636
G01 X176.4263 Y32.2748 Z-2.3788
G01 X176.4097 Y32.3194 Z-2.3939
G01 X176.3952 Y32.3647 Z-2.4091
G01 X176.3829 Y32.4107 Z-2.4242
G01 X176.3728 Y32.4572 Z-2.4394
G01 X176.3649 Y32.5042 Z-2.4545
G01 X176.3592 Y32.5514 Z-2.4697
G01 X176.3558 Y32.5989 Z-2.4848
G01 X176.3547 Y32.6465 Z-2.5000
G01 X176.3558 Y32.6941 Z-2.5152
G01 X176.3592 Y32.7415 Z-2.5303
G01 X176.3649 Y32.7888 Z-2.5455
G01 X176.3728 Y32.8357 Z-2.5606
G01 X176.3829 Y32.8822 Z-2.5758
G01 X176.3952 Y32.9282 Z-2.5909
G01 X176.4097 Y32.9735 Z-2.6061
G01 X176.4263 Y33.0181 Z-2.6212
G01 X176.4451 Y33.0619 Z-2.6364
G01 X176.4659 Y33.1047 Z-2.6515
G01 X176.4887 Y33.1465 Z-2.6667
G01 X176.5134 Y33.1871 Z-2.6818
G01 X176.5401 Y33.2265 Z-2.6970
G01 X176.5686 Y33.2646 Z-2.7121
G01 X176.5990 Y33.3013 Z-2.7273
G01 X176.6310 Y33.3366 Z-2.7424
G01 X176.6646 Y33.3702 Z-2.7576
G01 X176.6998 Y33.4022 Z-2.7727
G01 X176.7365 Y33.4325 Z-2.7879
G01 X176.7746 Y33.4611 Z-2.8030
G01 X176.8141 Y33.4877 Z-2.8182
G01 X176.8547 Y33.5125 Z-2.8333
G01 X176.9321 Y33.5528 Z-2.8611
G01 X177.0127 Y33.5862 Z-2.8889
G01 X177.0959 Y33.6124 Z-2.9167
G01 X177.1811 Y33.6313 Z-2.9444
G01 X177.2675 Y33.6427 Z-2.9722
G01 X177.3547 Y33.6465 Z-3.0000
G01 X177.4419 Y33.6427 Z-3.0278
G01 X177.5284 Y33.6313 Z-3.0556
G01 X177.6135 Y33.6124 Z-3.0833
G01 X177.6967 Y33.5862 Z-3.1111
G01 X177.7773 Y33.5528 Z-3.1389
G01 X177.8547 Y33.5125 Z-3.1667
G01 X177.9283 Y33.4656 Z-3.1944
G01 X177.9975 Y33.4125 Z-3.2222
G01 X178.0618 Y33.3536 Z-3.2500
G01 X178.1207 Y33.2893 Z-3.2778
G01 X178.1739 Y33.2201 Z-3.3056
G01 X178.2207 Y33.1465 Z-3.3333
G01 X178.2610 Y33.0691 Z-3.3611
G01 X178.2944 Y32.9885 Z-3.3889
G01 X178.3206 Y32.9053 Z-3.4167
G01 X178.3395 Y32.8201 Z-3.4444
G01 X178.3509 Y32.7336 Z-3.4722
G01 X178.3547 Y32.6465 Z-3.5000
G01 X178.3509 Y32.5593
G01 X178.3395 Y32.4728
G01 X178.3206 Y32.3877
G01 X178.2944 Y32.3045
G01 X178.2610 Y32.2239
G01 X178.2207 Y32.1465
G01 X178.1739 Y32.0729
G01 X178.1207 Y32.0037
G01 X178.0618 Y31.9394
G01 X177.9975 Y31.8804
G01 X177.9283 Y31.8273
G01 X177.8547 Y31.7804
G01 X177.7773 Y31.7402
G01 X177.6967 Y31.7068
G01 X177.6135 Y31.6805
G01 X177.5284 Y31.6617
G01 X177.4419 Y31.6503
G01 X177.3547 Y31.6465
G01 X177.2675 Y31.6503
G01 X177.1811 Y31.6617
G01 X177.0959 Y31.6805
G01 X177.0127 Y31.7068
G01 X176.9321 Y31.7402
G01 X176.8547 Y31.7804
G01 X176.8141 Y31.8052
G01 X176.7746 Y31.8319
G01 X176.7365 Y31.8604
G01 X176.6998 Y31.8907
G01 X176.6646 Y31.9227
G01 X176.6310 Y31.9564
G01 X176.5990 Y31.9916
G01 X176.5686 Y32.0283
G01 X176.5401 Y32.0664
G01 X176.5134 Y32.1058
G01 X176.4887 Y32.1465
G01 X176.4659 Y32.1882
G01 X176.4451 Y32.2311
G01 X176.4263 Y32.2748
G01 X176.4097 Y32.3194
G01 X176.3952 Y32.3647
G01 X176.3829 Y32.4107
G01 X176.3728 Y32.4572
G01 X176.3649 Y32.5042
G01 X176.3592 Y32.5514
G01 X176.3558 Y32.5989
G01 X176.3547 Y32.6465
G01 X176.3558 Y32.6941
G01 X176.3592 Y32.7415
G01 X176.3649 Y32.7888
G01 X176.3728 Y32.8357
G01 X176.3829 Y32.8822
G01 X176.3952 Y32.9282
G01 X176.4097 Y32.9735
G01 X176.4263 Y33.0181
G01 X176.4451 Y33.0619
G01 X176.4659 Y33.1047
G01 X176.4887 Y33.1465
G01 X176.5134 Y33.1871
G01 X176.5401 Y33.2265
G01 X176.5686 Y33.2646
G01 X176.5990 Y33.3013
G01 X176.6310 Y33.3366
G01 X176.6646 Y33.3702
G01 X176.6998 Y33.4022
G01 X176.7365 Y33.4325
G01 X176.7746 Y33.4611
G01 X176.8141 Y33.4877
G01 X176.8547 Y33.5125
G01 X176.9321 Y33.5528
G01 X177.0127 Y33.5862
G01 X177.0959 Y33.6124
G01 X177.1811 Y33.6313
G01 X177.2675 Y33.6427
G01 X177.3547 Y33.6465
G01 X177.4419 Y33.6427
G01 X177.5284 Y33.6313
G01 X177.6135 Y33.6124
G01 X177.6967 Y33.5862
G01 X177.7773 Y33.5528
G01 X177.8547 Y33.5125
G01 X177.9283 Y33.4656
G01 X177.9975 Y33.4125
G01 X178.0618 Y33.3536
G01 X178.1207 Y33.2893
G01 X178.1739 Y33.2201
G01 X178.2207 Y33.1465
G01 X178.2610 Y33.0691
G01 X178.2944 Y32.9885
G01 X178.3206 Y32.9053
G01 X178.3395 Y32.8201
G01 X178.3509 Y32.7336
G01 X178.3547 Y32.6465
G01 X178.3654 Y32.5949 F1000
G01 X178.3735 Y32.5428
G01 X178.3789 Y32.4904
G01 X178.3816 Y32.4377
G01 X178.3815 Y32.3850
G01 X178.3788 Y32.3324
G01 X178.3733 Y32.2800
G01 X178.3652 Y32.2279
G01 X178.3535 Y32.1719
G01 X178.3389 Y32.1166
G01 X178.3215 Y32.0621
G01 X178.3014 Y32.0086
G01 X178.2786 Y31.9561
G01 X178.2531 Y31.9049
G01 X178.2250 Y31.8551
G01 X178.1944 Y31.8068
G01 X178.1588 Y31.7564
G01 X178.1207 Y31.7079
G01 X178.0801 Y31.6613
G01 X178.0373 Y31.6169
G01 X177.9922 Y31.5748
G01 X177.9451 Y31.5350
G01 X177.8960 Y31.4976
G01 X177.8450 Y31.4628
G01 X177.7885 Y31.4282
G01 X177.7303 Y31.3965
G01 X177.6706 Y31.3678
G01 X177.6096 Y31.3422
G01 X177.5473 Y31.3197
G01 X177.4839 Y31.3004
G01 X177.4197 Y31.2843
G01 X177.3547 Y31.2715
G01 X177.2847 Y31.2613
G01 X177.2142 Y31.2547
G01 X177.1435 Y31.2516
G01 X177.0728 Y31.2521
G01 X177.0021 Y31.2561
G01 X176.9318 Y31.2637
G01 X176.8619 Y31.2749
G01 X176.7926 Y31.2895
G01 X176.7245 Y31.3155
G01 X176.6577 Y31.3449
G01 X176.5924 Y31.3775
G01 X176.5289 Y31.4132
G01 X176.4671 Y31.4521
G01 X176.4073 Y31.4939
G01 X176.3497 Y31.5386
G01 X176.2944 Y31.5861
G01 X176.2436 Y31.6394
G01 X176.1955 Y31.6952
G01 X176.1503 Y31.7532
G01 X176.1079 Y31.8134
G01 X176.0685 Y31.8756
G01 X176.0322 Y31.9396
G01 X175.9991 Y32.0053
G01 X175.9693 Y32.0726
G01 X175.9428 Y32.1413
G01 X175.9197 Y32.2112
G01 X175.9001 Y32.2821
G01 X175.8840 Y32.3539
G01 X175.8714 Y32.4264
G01 X175.8624 Y32.4995
G01 X175.8570 Y32.5729
G01 X175.8552 Y32.6465
G01 X175.8570 Y32.7201
G01 X175.8624 Y32.7935
G01 X175.8714 Y32.8665
G01 X175.8840 Y32.9390
G01 X175.9001 Y33.0108
G01 X175.9197 Y33.0818
G01 X175.9428 Y33.1517
G01 X175.9693 Y33.2203
G01 X175.9991 Y33.2876
G01 X176.0322 Y33.3534
G01 X176.0685 Y33.4174
G01 X176.1079 Y33.4796
G01 X176.1503 Y33.5398
G01 X176.1955 Y33.5978
G01 X176.2436 Y33.6535
G01 X176.2944 Y33.7068
G01 X176.3477 Y33.7576
G01 X176.4034 Y33.8056
G01 X176.4614 Y33.8509
G01 X176.5216 Y33.8933
G01 X176.5838 Y33.9327
G01 X176.6478 Y33.9690
G01 X176.7136 Y34.0021
G01 X176.7808 Y34.0319
G01 X176.8495 Y34.0584
G01 X176.9194 Y34.0815
G01 X176.9903 Y34.1011
G01 X177.0622 Y34.1172
G01 X177.1347 Y34.1298
G01 X177.2077 Y34.1388
G01 X177.2811 Y34.1442
G01 X177.3547 Y34.1460
G01 X177.4283 Y34.1442
G01 X177.5017 Y34.1388
G01 X177.5747 Y34.1298
G01 X177.6472 Y34.1172
G01 X177.7191 Y34.1011
G01 X177.7900 Y34.0815
G01 X177.8599 Y34.0584
G01 X177.9286 Y34.0319
G01 X177.9958 Y34.0021
G01 X178.0616 Y33.9690
G01 X178.1256 Y33.9327
G01 X178.1878 Y33.8933
G01 X178.2480 Y33.8509
G01 X178.3060 Y33.8056
G01 X178.3617 Y33.7576
G01 X178.4150 Y33.7068
G01 X178.4658 Y33.6535
G01 X178.5139 Y33.5978
G01 X178.5592 Y33.5398
G01 X178.6015 Y33.4796
G01 X178.6409 Y33.4174
G01 X178.6772 Y33.3534
G01 X178.7103 Y33.2876
G01 X178.7401 Y33.2203
G01 X178.7666 Y33.1517
G01 X178.7897 Y33.0818
G01 X178.8093 Y33.0108
G01 X178.8254 Y32.9390
G01 X178.8380 Y32.8665
G01 X178.8470 Y32.7935
G01 X178.8524 Y32.7201
G01 X178.8543 Y32.6465
G01 X178.8501 Y32.5344
G01 X178.8375 Y32.4230
G01 X178.8167 Y32.3128
G01 X178.7876 Y32.2045
G01 X178.7506 Y32.0986
G01 X178.7057 Y31.9958
G01 X178.6533 Y31.8967
G01 X178.5937 Y31.8017
G01 X178.5271 Y31.7115
G01 X178.4539 Y31.6265
G01 X178.3747 Y31.5472
G01 X178.2897 Y31.4741
G01 X178.1994 Y31.4075
G01 X178.1045 Y31.3478
G01 X178.0053 Y31.2954
G01 X177.9025 Y31.2506
G01 X177.7967 Y31.2135
G01 X177.6884 Y31.1845
G01 X177.5782 Y31.1637
G01 X177.4668 Y31.1511
G01 X177.3547 Y31.1469
G01 X177.2426 Y31.1511
G01 X177.1312 Y31.1637
G01 X177.0210 Y31.1845
G01 X176.9127 Y31.2135
G01 X176.8069 Y31.2506
G01 X176.7041 Y31.2954
G01 X176.6049 Y31.3478
G01 X176.5100 Y31.4075
G01 X176.4197 Y31.4741
G01 X176.3348 Y31.5472
G01 X176.2555 Y31.6265
G01 X176.1823 Y31.7115
G01 X176.1157 Y31.8017
G01 X176.0561 Y31.8967
G01 X176.0037 Y31.9958
G01 X175.9588 Y32.0986
G01 X175.9218 Y32.2045
G01 X175.8928 Y32.3128
G01 X175.8719 Y32.4230
G01 X175.8593 Y32.5344
G01 X175.8552 Y32.6465
G01 X175.8593 Y32.7585
G01 X175.8719 Y32.8700
G01 X175.8928 Y32.9802
G01 X175.9218 Y33.0885
G01 X175.9588 Y33.1943
G01 X176.0037 Y33.2971
G01 X176.0561 Y33.3962
G01 X176.1157 Y33.4912
G01 X176.1823 Y33.5814
G01 X176.2555 Y33.6664
G01 X176.3348 Y33.7457
G01 X176.4197 Y33.8189
G01 X176.5100 Y33.8855
G01 X176.6049 Y33.9451
G01 X176.7041 Y33.9975
G01 X176.8069 Y34.0424
G01 X176.9127 Y34.0794
G01 X177.0210 Y34.1084
G01 X177.1312 Y34.1293
G01 X177.2426 Y34.1418
G01 X177.3547 Y34.1460
G01 X177.4668 Y34.1418
G01 X177.5782 Y34.1293
G01 X177.6884 Y34.1084
G01 X177.7967 Y34.0794
G01 X177.9025 Y34.0424
G01 X178.0053 Y33.9975
G01 X178.1045 Y33.9451
G01 X178.1994 Y33.8855
G01 X178.2897 Y33.8189
G01 X178.3747 Y33.7457
G01 X178.4539 Y33.6664
G01 X178.5271 Y33.5814
G01 X178.5937 Y33.4912
G01 X178.6533 Y33.3962
G01 X178.7057 Y33.2971
G01 X178.7506 Y33.1943
G01 X178.7876 Y33.0885
G01 X178.8167 Y32.9802
G01 X178.8375 Y32.8700
G01 X178.8501 Y32.7585
G01 X178.8543 Y32.6465
G01 X178.8504 Y32.5484
G01 X178.8389 Y32.4510
G01 X178.8197 Y32.3547
G01 X178.7931 Y32.2603
G01 X178.7591 Y32.1682
G01 X178.7180 Y32.0791
G01 X178.6701 Y31.9935
G01 X178.6156 Y31.9119
G01 X178.5548 Y31.8348
G01 X178.4882 Y31.7628
G01 X178.4161 Y31.6961
G01 X178.3391 Y31.6354
G01 X178.2575 Y31.5809
G01 X178.1719 Y31.5329
G01 X178.0827 Y31.4918
G01 X177.9907 Y31.4579
G01 X177.8962 Y31.4312
G01 X177.8000 Y31.4121
G01 X177.7025 Y31.4006
G01 X177.6045 Y31.3967
G01 X177.5064 Y31.4006
G01 X177.4090 Y31.4121
G01 X177.3127 Y31.4312
G01 X177.2183 Y31.4579
G01 X177.1262 Y31.4918
G01 X177.0371 Y31.5329
G01 X176.9515 Y31.5809
G01 X176.8699 Y31.6354
G01 X176.7928 Y31.6961
G01 X176.7208 Y31.7628
G01 X176.6541 Y31.8348
G01 X176.5934 Y31.9119
G01 X176.5389 Y31.9935
G01 X176.4909 Y32.0791
G01 X176.4498 Y32.1682
G01 X176.4159 Y32.2603
G01 X176.3892 Y32.3547
G01 X176.3701 Y32.4510
G01 X176.3586 Y32.5484
G01 X176.3547 Y32.6465
G01 X176.3585 Y32.7336
G01 X176.3699 Y32.8201
G01 X176.3888 Y32.9053
G01 X176.4150 Y32.9885
G01 X176.4484 Y33.0691
G01 X176.4887 Y33.1465
G01 X176.5356 Y33.2201
G01 X176.5887 Y33.2893
G01 X176.6476 Y33.3536
G01 X176.7119 Y33.4125
G01 X176.7811 Y33.4656
G01 X176.8547 Y33.5125
G01 X176.9321 Y33.5528
G01 X177.0127 Y33.5862
G01 X177.0959 Y33.6124
G01 X177.1811 Y33.6313
G01 X177.2675 Y33.6427
G01 X177.3547 Y33.6465
G01 X177.4419 Y33.6427
G01 X177.5284 Y33.6313
G01 X177.6135 Y33.6124
G01 X177.6967 Y33.5862
G01 X177.7773 Y33.5528
G01 X177.8547 Y33.5125
G01 X177.9283 Y33.4656
G01 X177.9975 Y33.4125
G01 X178.0618 Y33.3536
G01 X178.1207 Y33.2893
G01 X178.1739 Y33.2201
G01 X178.2207 Y33.1465
G01 X178.2610 Y33.0691
G01 X178.2944 Y32.9885
G01 X178.3206 Y32.9053
G01 X178.3395 Y32.8201
G01 X178.3509 Y32.7336
G01 X178.3547 Y32.6465
M107
M106 S240
G01 X178.3509 Y32.5593 Z-3.5278 F400
G01 X178.3395 Y32.4728 Z-3.5556
G01 X178.3206 Y32.3877 Z-3.5833
G01 X178.2944 Y32.3045 Z-3.6111
G01 X178.2610 Y32.2239 Z-3.6389
G01 X178.2207 Y32.1465 Z-3.6667
G01 X178.1739 Y32.0729 Z-3.6944
G01 X178.1207 Y32.0037 Z-3.7222
G01 X178.0618 Y31.9394 Z-3.7500
G01 X177.9975 Y31.8804 Z-3.7778
G01 X177.9283 Y31.8273 Z-3.8056
G01 X177.8547 Y31.7804 Z-3.8333
G01 X177.7773 Y31.7402 Z-3.8611
G01 X177.6967 Y31.7068 Z-3.8889
G01 X177.6135 Y31.6805 Z-3.9167
G01 X177.5284 Y31.6617 Z-3.9444
G01 X177.4419 Y31.6503 Z-3.9722
G01 X177.3547 Y31.6465 Z-4.0000
G01 X177.2675 Y31.6503 Z-4.0278
G01 X177.1811 Y31.6617 Z-4.0556
G01 X177.0959 Y31.6805 Z-4.0833
G01 X177.0127 Y31.7068 Z-4.1111
G01 X176.9321 Y31.7402 Z-4.1389
G01 X176.8547 Y31.7804 Z-4.1667
G01 X176.8141 Y31.8052 Z-4.1818
G01 X176.7746 Y31.8319 Z-4.1970
G01 X176.7365 Y31.8604 Z-4.2121
G01 X176.6998 Y31.8907 Z-4.2273
G01 X176.6646 Y31.9227 Z-4.2424
G01 X176.6310 Y31.9564 Z-4.2576
G01 X176.5990 Y31.9916 Z-4.2727
G01 X176.5686 Y32.0283 Z-4.2879
G01 X176.5401 Y32.0664 Z-4.3030
G01 X176.5134 Y32.1058 Z-4.3182
G01 X176.4887 Y32.1465 Z-4.3333
G01 X176.4659 Y32.1882 Z-4.3485
G01 X176.4451 Y32.2311 Z-4.3636
G01 X176.4263 Y32.2748 Z-4.3788
G01 X176.4097 Y32.3194 Z-4.3939
G01 X176.3952 Y32.3647 Z-4.4091
G01 X176.3829 Y32.4107 Z-4.4242
G01 X176.3728 Y32.4572 Z-4.4394
G01 X176.3649 Y32.5042 Z-4.4545
G01 X176.3592 Y32.5514 Z-4.4697
G01 X176.3558 Y32.5989 Z-4.4848
G01 X176.3547 Y32.6465 Z-4.5000
G01 X176.3558 Y32.6941 Z-4.5152
G01 X176.3592 Y32.7415 Z-4.5303
G01 X176.3649 Y32.7888 Z-4.5455
G01 X176.3728 Y32.8357 Z-4.5606
G01 X176.3829 Y32.8822 Z-4.5758
G01 X176.3952 Y32.9282 Z-4.5909
G01 X176.4097 Y32.9735 Z-4.6061
G01 X176.4263 Y33.0181 Z-4.6212
G01 X176.4451 Y33.0619 Z-4.6364
G01 X176.4659 Y33.1047 Z-4.6515
G01 X176.4887 Y33.1465 Z-4.6667
G01 X176.5134 Y33.1871 Z-4.6818
G01 X176.5401 Y33.2265 Z-4.6970
G01 X176.5686 Y33.2646 Z-4.7121
G01 X176.5990 Y33.3013 Z-4.7273
G01 X176.6310 Y33.3366 Z-4.7424
G01 X176.6646 Y33.3702 Z-4.7576
G01 X176.6998 Y33.4022 Z-4.7727
G01 X176.7365 Y33.4325 Z-4.7879
G01 X176.7746 Y33.4611 Z-4.8030
G01 X176.8141 Y33.4877 Z-4.8182
G01 X176.8547 Y33.5125 Z-4.8333
G01 X176.9321 Y33.5528 Z-4.8611
G01 X177.0127 Y33.5862 Z-4.8889
G01 X177.0959 Y33.6124 Z-4.9167
G01 X177.1811 Y33.6313 Z-4.9444
G01 X177.2675 Y33.6427 Z-4.9722
G01 X177.3547 Y33.6465 Z-5.0000
G01 X177.4419 Y33.6427 Z-5.0278
G01 X177.5284 Y33.6313 Z-5.0556
G01 X177.6135 Y33.6124 Z-5.0833
G01 X177.6967 Y33.5862 Z-5.1111
G01 X177.7773 Y33.5528 Z-5.1389
G01 X177.8547 Y33.5125 Z-5.1667
G01 X177.9283 Y33.4656 Z-5.1944
G01 X177.9975 Y33.4125 Z-5.2222
G01 X178.0618 Y33.3536 Z-5.2500
G01 X178.1207 Y33.2893 Z-5.2778
G01 X178.1739 Y33.2201 Z-5.3056
G01 X178.2207 Y33.1465 Z-5.3333
G01 X178.2610 Y33.0691 Z-5.3611
G01 X178.2944 Y32.9885 Z-5.3889
G01 X178.3206 Y32.9053 Z-5.4167
G01 X178.3395 Y32.8201 Z-5.4444
G01 X178.3509 Y32.7336 Z-5.4722
G01 X178.3547 Y32.6465 Z-5.5000
G01 X178.3509 Y32.5593
G01 X178.3395 Y32.4728
G01 X178.3206 Y32.3877
G01 X178.2944 Y32.3045
G01 X178.2610 Y32.2239
G01 X178.2207 Y32.1465
G01 X178.1739 Y32.0729
G01 X178.1207 Y32.0037
G01 X178.0618 Y31.9394
G01 X177.9975 Y31.8804
G01 X177.9283 Y31.8273
G01 X177.8547 Y31.7804
G01 X177.7773 Y31.7402
G01 X177.6967 Y31.7068
G01 X177.6135 Y31.6805
G01 X177.5284 Y31.6617
G01 X177.4419 Y31.6503
G01 X177.3547 Y31.6465
G01 X177.2675 Y31.6503
G01 X177.1811 Y31.6617
G01 X177.0959 Y31.6805
G01 X177.0127 Y31.7068
G01 X176.9321 Y31.7402
G01 X176.8547 Y31.7804
G01 X176.8141 Y31.8052
G01 X176.7746 Y31.8319
G01 X176.7365 Y31.8604
G01 X176.6998 Y31.8907
G01 X176.6646 Y31.9227
G01 X176.6310 Y31.9564
G01 X176.5990 Y31.9916
G01 X176.5686 Y32.0283
G01 X176.5401 Y32.0664
G01 X176.5134 Y32.1058
G01 X176.4887 Y32.1465
G01 X176.4659 Y32.1882
G01 X176.4451 Y32.2311
G01 X176.4263 Y32.2748
G01 X176.4097 Y32.3194
G01 X176.3952 Y32.3647
G01 X176.3829 Y32.4107
G01 X176.3728 Y32.4572
G01 X176.3649 Y32.5042
G01 X176.3592 Y32.5514
G01 X176.3558 Y32.5989
G01 X176.3547 Y32.6465
G01 X176.3558 Y32.6941
G01 X176.3592 Y32.7415
G01 X176.3649 Y32.7888
G01 X176.3728 Y32.8357
G01 X176.3829 Y32.8822
G01 X176.3952 Y32.9282
G01 X176.4097 Y32.9735
G01 X176.4263 Y33.0181
G01 X176.4451 Y33.0619
G01 X176.4659 Y33.1047
G01 X176.4887 Y33.1465
G01 X176.5134 Y33.1871
G01 X176.5401 Y33.2265
G01 X176.5686 Y33.2646
G01 X176.5990 Y33.3013
G01 X176.6310 Y33.3366
G01 X176.6646 Y33.3702
G01 X176.6998 Y33.4022
G01 X176.7365 Y33.4325
G01 X176.7746 Y33.4611
G01 X176.8141 Y33.4877
G01 X176.8547 Y33.5125
G01 X176.9321 Y33.5528
G01 X177.0127 Y33.5862
G01 X177.0959 Y33.6124
G01 X177.1811 Y33.6313
G01 X177.2675 Y33.6427
G01 X177.3547 Y33.6465
G01 X177.4419 Y33.6427
G01 X177.5284 Y33.6313
G01 X177.6135 Y33.6124
G01 X177.6967 Y33.5862
G01 X177.7773 Y33.5528
G01 X177.8547 Y33.5125
G01 X177.9283 Y33.4656
G01 X177.9975 Y33.4125
G01 X178.0618 Y33.3536
G01 X178.1207 Y33.2893
G01 X178.1739 Y33.2201
G01 X178.2207 Y33.1465
G01 X178.2610 Y33.0691
G01 X178.2944 Y32.9885
G01 X178.3206 Y32.9053
G01 X178.3395 Y32.8201
G01 X178.3509 Y32.7336
G01 X178.3547 Y32.6465
G01 X178.3654 Y32.5949 F1000
G01 X178.3735 Y32.5428
G01 X178.3789 Y32.4904
G01 X178.3816 Y32.4377
G01 X178.3815 Y32.3850
G01 X178.3788 Y32.3324
G01 X178.3733 Y32.2800
G01 X178.3652 Y32.2279
G01 X178.3535 Y32.1719
G01 X178.3389 Y32.1166
G01 X178.3215 Y32.0621
G01 X178.3014 Y32.0086
G01 X178.2786 Y31.9561
G01 X178.2531 Y31.9049
G01 X178.2250 Y31.8551
G01 X178.1944 Y31.8068
G01 X178.1588 Y31.7564
G01 X178.1207 Y31.7079
G01 X178.0801 Y31.6613
G01 X178.0373 Y31.6169
G01 X177.9922 Y31.5748
G01 X177.9451 Y31.5350
G01 X177.8960 Y31.4976
G01 X177.8450 Y31.4628
G01 X177.7885 Y31.4282
G01 X177.7303 Y31.3965
G01 X177.6706 Y31.3678
G01 X177.6096 Y31.3422
G01 X177.5473 Y31.3197
G01 X177.4839 Y31.3004
G01 X177.4197 Y31.2843
G01 X177.3547 Y31.2715
G01 X177.2847 Y31.2613
G01 X177.2142 Y31.2547
G01 X177.1435 Y31.2516
G01 X177.0728 Y31.2521
G01 X177.0021 Y31.2561
G01 X176.9318 Y31.2637
G01 X176.8619 Y31.2749
G01 X176.7926 Y31.2895
G01 X176.7245 Y31.3155
G01 X176.6577 Y31.3449
G01 X176.5924 Y31.3775
G01 X176.5289 Y31.4132
G01 X176.4671 Y31.4521
G01 X176.4073 Y31.4939
G01 X176.3497 Y31.5386
G01 X176.2944 Y31.5861
G01 X176.2436 Y31.6394
G01 X176.1955 Y31.6952
G01 X176.1503 Y31.7532
G01 X176.1079 Y31.8134
G01 X176.0685 Y31.8756
G01 X176.0322 Y31.9396
G01 X175.9991 Y32.0053
G01 X175.9693 Y32.0726
G01 X175.9428 Y32.1413
G01 X175.9197 Y32.2112
G01 X175.9001 Y32.2821
G01 X175.8840 Y32.3539
G01 X175.8714 Y32.4264
G01 X175.8624 Y32.4995
G01 X175.8570 Y32.5729
G01 X175.8552 Y32.6465
G01 X175.8570 Y32.7201
G01 X175.8624 Y32.7935
G01 X175.8714 Y32.8665
G01 X175.8840 Y32.9390
G01 X175.9001 Y33.0108
G01 X175.9197 Y33.0818
G01 X175.9428 Y33.1517
G01 X175.9693 Y33.2203
G01 X175.9991 Y33.2876
G01 X176.0322 Y33.3534
G01 X176.0685 Y33.4174
G01 X176.1079 Y33.4796
G01 X176.1503 Y33.5398
G01 X176.1955 Y33.5978
G01 X176.2436 Y33.6535
G01 X176.2944 Y33.7068
G01 X176.3477 Y33.7576
G01 X176.4034 Y33.8056
G01 X176.4614 Y33.8509
G01 X176.5216 Y33.8933
G01 X176.5838 Y33.9327
G01 X176.6478 Y33.9690
G01 X176.7136 Y34.0021
G01 X176.7808 Y34.0319
G01 X176.8495 Y34.0584
G01 X176.9194 Y34.0815
G01 X176.9903 Y34.1011
G01 X177.0622 Y34.1172
G01 X177.1347 Y34.1298
G01 X177.2077 Y34.1388
G01 X177.2811 Y34.1442
G01 X177.3547 Y34.1460
G01 X177.4283 Y34.1442
G01 X177.5017 Y34.1388
G01 X177.5747 Y34.1298
G01 X177.6472 Y34.1172
G01 X177.7191 Y34.1011
G01 X177.7900 Y34.0815
G01 X177.8599 Y34.0584
G01 X177.9286 Y34.0319
G01 X177.9958 Y34.0021
G01 X178.0616 Y33.9690
G01 X178.1256 Y33.9327
G01 X178.1878 Y33.8933
G01 X178.2480 Y33.8509
G01 X178.3060 Y33.8056
G01 X178.3617 Y33.7576
G01 X178.4150 Y33.7068
G01 X178.4658 Y33.6535
G01 X178.5139 Y33.5978
G01 X178.5592 Y33.5398
G01 X178.6015 Y33.4796
G01 X178.6409 Y33.4174
G01 X178.6772 Y33.3534
G01 X178.7103 Y33.2876
G01 X178.7401 Y33.2203
G01 X178.7666 Y33.1517
G01 X178.7897 Y33.0818
G01 X178.8093 Y33.0108
G01 X178.8254 Y32.9390
G01 X178.8380 Y32.8665
G01 X178.8470 Y32.7935
G01 X178.8524 Y32.7201
G01 X178.8543 Y32.6465
G01 X178.8501 Y32.5344
G01 X178.8375 Y32.4230
G01 X178.8167 Y32.3128
G01 X178.7876 Y32.2045
G01 X178.7506 Y32.0986
G01 X178.7057 Y31.9958
G01 X178.6533 Y31.8967
G01 X178.5937 Y31.8017
G01 X178.5271 Y31.7115
G01 X178.4539 Y31.6265
G01 X178.3747 Y31.5472
G01 X178.2897 Y31.4741
G01 X178.1994 Y31.4075
G01 X178.1045 Y31.3478
G01 X178.0053 Y31.2954
G01 X177.9025 Y31.2506
G01 X177.7967 Y31.2135
G01 X177.6884 Y31.1845
G01 X177.5782 Y31.1637
G01 X177.4668 Y31.1511
G01 X177.3547 Y31.1469
G01 X177.2426 Y31.1511
G01 X177.1312 Y31.1637
G01 X177.0210 Y31.1845
G01 X176.9127 Y31.2135
G01 X176.8069 Y31.2506
G01 X176.7041 Y31.2954
G01 X176.6049 Y31.3478
G01 X176.5100 Y31.4075
G01 X176.4197 Y31.4741
G01 X176.3348 Y31.5472
G01 X176.2555 Y31.6265
G01 X176.1823 Y31.7115
G01 X176.1157 Y31.8017
G01 X176.0561 Y31.8967
G01 X176.0037 Y31.9958
G01 X175.9588 Y32.0986
G01 X175.9218 Y32.2045
G01 X175.8928 Y32.3128
G01 X175.8719 Y32.4230
G01 X175.8593 Y32.5344
G01 X175.8552 Y32.6465
G01 X175.8593 Y32.7585
G01 X175.8719 Y32.8700
G01 X175.8928 Y32.9802
G01 X175.9218 Y33.0885
G01 X175.9588 Y33.1943
G01 X176.0037 Y33.2971
G01 X176.0561 Y33.3962
G01 X176.1157 Y33.4912
G01 X176.1823 Y33.5814
G01 X176.2555 Y33.6664
G01 X176.3348 Y33.7457
G01 X176.4197 Y33.8189
G01 X176.5100 Y33.8855
G01 X176.6049 Y33.9451
G01 X176.7041 Y33.9975
G01 X176.8069 Y34.0424
G01 X176.9127 Y34.0794
G01 X177.0210 Y34.1084
G01 X177.1312 Y34.1293
G01 X177.2426 Y34.1418
G01 X177.3547 Y34.1460
G01 X177.4668 Y34.1418
G01 X177.5782 Y34.1293
G01 X177.6884 Y34.1084
G01 X177.7967 Y34.0794
G01 X177.9025 Y34.0424
G01 X178.0053 Y33.9975
G01 X178.1045 Y33.9451
G01 X178.1994 Y33.8855
G01 X178.2897 Y33.8189
G01 X178.3747 Y33.7457
G01 X178.4539 Y33.6664
G01 X178.5271 Y33.5814
G01 X178.5937 Y33.4912
G01 X178.6533 Y33.3962
G01 X178.7057 Y33.2971
G01 X178.7506 Y33.1943
G01 X178.7876 Y33.0885
G01 X178.8167 Y32.9802
G01 X178.8375 Y32.8700
G01 X178.8501 Y32.7585
G01 X178.8543 Y32.6465
M107
M106 S240
G01 X178.8512 Y32.5680 Z-5.4750 F400
M107
M106 S240
G01 X178.8419 Y32.4900 Z-5.4500
M107
M106 S240
G01 X178.8266 Y32.4130 Z-5.4250
M107
M106 S240
G01 X178.8053 Y32.3375 Z-5.4000
M107
M106 S240
G01 X178.7781 Y32.2638 Z-5.3750
M107
M106 S240
G01 X178.7453 Y32.1925 Z-5.3500
M107
M106 S240
G01 X178.7069 Y32.1240 Z-5.3250
M107
M106 S240
G01 X178.6633 Y32.0587 Z-5.3000
M107
M106 S240
G01 X178.6147 Y31.9970 Z-5.2750
M107
M106 S240
G01 X178.5614 Y31.9394 Z-5.2500
M107
M106 S240
G01 X178.5037 Y31.8861 Z-5.2250
M107
M106 S240
G01 X178.4420 Y31.8375 Z-5.2000
M107
M106 S240
G01 X178.3767 Y31.7938 Z-5.1750
M107
M106 S240
G01 X178.3082 Y31.7555 Z-5.1500
M107
M106 S240
G01 X178.2369 Y31.7226 Z-5.1250
M107
M106 S240
G01 X178.1633 Y31.6954 Z-5.1000
M107
M106 S240
G01 X178.0877 Y31.6741 Z-5.0750
M107
M106 S240
G01 X178.0107 Y31.6588 Z-5.0500
M107
M106 S240
G01 X177.9327 Y31.6496 Z-5.0250
M107
M106 S240
G01 X177.8543 Y31.6465 Z-5.0000
M107
G00 Z2.0000


;No. 8: Helical drill 6
G00 X211.3834 Y40.3833 Z2.0000
G00 Z0.5000
M106 S240
G01 X211.3796 Y40.2962 Z0.4722 F400
G01 X211.3682 Y40.2097 Z0.4444
G01 X211.3493 Y40.1245 Z0.4167
G01 X211.3231 Y40.0413 Z0.3889
G01 X211.2897 Y39.9607 Z0.3611
G01 X211.2494 Y39.8833 Z0.3333
G01 X211.2025 Y39.8097 Z0.3056
G01 X211.1494 Y39.7405 Z0.2778
G01 X211.0905 Y39.6762 Z0.2500
G01 X211.0261 Y39.6173 Z0.2222
G01 X210.9569 Y39.5642 Z0.1944
G01 X210.8834 Y39.5173 Z0.1667
G01 X210.8060 Y39.4770 Z0.1389
G01 X210.7254 Y39.4436 Z0.1111
G01 X210.6422 Y39.4174 Z0.0833
G01 X210.5570 Y39.3985 Z0.0556
G01 X210.4705 Y39.3871 Z0.0278
G01 X210.3834 Y39.3833 Z0.0000
G01 X210.2962 Y39.3871 Z-0.0278
G01 X210.2097 Y39.3985 Z-0.0556
G01 X210.1245 Y39.4174 Z-0.0833
G01 X210.0413 Y39.4436 Z-0.1111
G01 X209.9607 Y39.4770 Z-0.1389
G01 X209.8834 Y39.5173 Z-0.1667
G01 X209.8098 Y39.5642 Z-0.1944
G01 X209.7406 Y39.6173 Z-0.2222
G01 X209.6763 Y39.6762 Z-0.2500
G01 X209.6173 Y39.7405 Z-0.2778
G01 X209.5642 Y39.8097 Z-0.3056
G01 X209.5173 Y39.8833 Z-0.3333
G01 X209.4771 Y39.9607 Z-0.3611
G01 X209.4437 Y40.0413 Z-0.3889
G01 X209.4174 Y40.1245 Z-0.4167
G01 X209.3986 Y40.2097 Z-0.4444
G01 X209.3872 Y40.2962 Z-0.4722
G01 X209.3834 Y40.3833 Z-0.5000
G01 X209.3872 Y40.4705 Z-0.5278
G01 X209.3986 Y40.5570 Z-0.5556
G01 X209.4174 Y40.6421 Z-0.5833
G01 X209.4437 Y40.7253 Z-0.6111
G01 X209.4771 Y40.8059 Z-0.6389
G01 X209.5173 Y40.8833 Z-0.6667
G01 X209.5642 Y40.9569 Z-0.6944
G01 X209.6173 Y41.0261 Z-0.7222
G01 X209.6763 Y41.0904 Z-0.7500
G01 X209.7406 Y41.1494 Z-0.7778
G01 X209.8098 Y41.2025 Z-0.8056
G01 X209.8834 Y41.2493 Z-0.8333
G01 X209.9607 Y41.2896 Z-0.8611
G01 X210.0413 Y41.3230 Z-0.8889
G01 X210.1245 Y41.3492 Z-0.9167
G01 X210.2097 Y41.3681 Z-0.9444
G01 X210.2962 Y41.3795 Z-0.9722
G01 X210.3834 Y41.3833 Z-1.0000
G01 X210.4705 Y41.3795 Z-1.0278
G01 X210.5570 Y41.3681 Z-1.0556
G01 X210.6422 Y41.3492 Z-1.0833
G01 X210.7254 Y41.3230 Z-1.1111
G01 X210.8060 Y41.2896 Z-1.1389
G01 X210.8834 Y41.2493 Z-1.1667
G01 X210.9569 Y41.2025 Z-1.1944
G01 X211.0261 Y41.1494 Z-1.2222
G01 X211.0905 Y41.0904 Z-1.2500
G01 X211.1494 Y41.0261 Z-1.2778
G01 X211.2025 Y40.9569 Z-1.3056
G01 X211.2494 Y40.8833 Z-1.3333
G01 X211.2897 Y40.8059 Z-1.3611
G01 X211.3231 Y40.7253 Z-1.3889
G01 X211.3493 Y40.6421 Z-1.4167
G01 X211.3682 Y40.5570 Z-1.4444
G01 X211.3796 Y40.4705 Z-1.4722
G01 X211.3834 Y40.3833 Z-1.5000
G01 X211.3796 Y40.2962
G01 X211.3682 Y40.2097
G01 X211.3493 Y40.1245
G01 X211.3231 Y40.0413
G01 X211.2897 Y39.9607
G01 X211.2494 Y39.8833
G01 X211.2025 Y39.8097
G01 X211.1494 Y39.7405
G01 X211.0905 Y39.6762
G01 X211.0261 Y39.6173
G01 X210.9569 Y39.5642
G01 X210.8834 Y39.5173
G01 X210.8060 Y39.4770
G01 X210.7254 Y39.4436
G01 X210.6422 Y39.4174
G01 X210.5570 Y39.3985
G01 X210.4705 Y39.3871
G01 X210.3834 Y39.3833
G01 X210.2962 Y39.3871
G01 X210.2097 Y39.3985
G01 X210.1245 Y39.4174
G01 X210.0413 Y39.4436
G01 X209.9607 Y39.4770
G01 X209.8834 Y39.5173
G01 X209.8098 Y39.5642
G01 X209.7406 Y39.6173
G01 X209.6763 Y39.6762
G01 X209.6173 Y39.7405
G01 X209.5642 Y39.8097
G01 X209.5173 Y39.8833
G01 X209.4771 Y39.9607
G01 X209.4437 Y40.0413
G01 X209.4174 Y40.1245
G01 X209.3986 Y40.2097
G01 X209.3872 Y40.2962
G01 X209.3834 Y40.3833
G01 X209.3872 Y40.4705
G01 X209.3986 Y40.5570
G01 X209.4174 Y40.6421
G01 X209.4437 Y40.7253
G01 X209.4771 Y40.8059
G01 X209.5173 Y40.8833
G01 X209.5642 Y40.9569
G01 X209.6173 Y41.0261
G01 X209.6763 Y41.0904
G01 X209.7406 Y41.1494
G01 X209.8098 Y41.2025
G01 X209.8834 Y41.2493
G01 X209.9607 Y41.2896
G01 X210.0413 Y41.3230
G01 X210.1245 Y41.3492
G01 X210.2097 Y41.3681
G01 X210.2962 Y41.3795
G01 X210.3834 Y41.3833
G01 X210.4705 Y41.3795
G01 X210.5570 Y41.3681
G01 X210.6422 Y41.3492
G01 X210.7254 Y41.3230
G01 X210.8060 Y41.2896
G01 X210.8834 Y41.2493
G01 X210.9569 Y41.2025
G01 X211.0261 Y41.1494
G01 X211.0905 Y41.0904
G01 X211.1494 Y41.0261
G01 X211.2025 Y40.9569
G01 X211.2494 Y40.8833
G01 X211.2897 Y40.8059
G01 X211.3231 Y40.7253
G01 X211.3493 Y40.6421
G01 X211.3682 Y40.5570
G01 X211.3796 Y40.4705
G01 X211.3834 Y40.3833
G01 X211.3941 Y40.3317 F1000
G01 X211.4022 Y40.2796
G01 X211.4076 Y40.2272
G01 X211.4102 Y40.1746
G01 Y40.1219
G01 X211.4075 Y40.0692
G01 X211.4020 Y40.0168
G01 X211.3939 Y39.9648
G01 X211.3821 Y39.9088
G01 X211.3676 Y39.8535
G01 X211.3502 Y39.7990
G01 X211.3301 Y39.7454
G01 X211.3072 Y39.6930
G01 X211.2817 Y39.6418
G01 X211.2536 Y39.5920
G01 X211.2230 Y39.5436
G01 X211.1874 Y39.4932
G01 X211.1493 Y39.4447
G01 X211.1088 Y39.3982
G01 X211.0659 Y39.3538
G01 X211.0209 Y39.3116
G01 X210.9737 Y39.2718
G01 X210.9246 Y39.2344
G01 X210.8737 Y39.1996
G01 X210.8172 Y39.1650
G01 X210.7590 Y39.1334
G01 X210.6993 Y39.1047
G01 X210.6382 Y39.0791
G01 X210.5759 Y39.0566
G01 X210.5126 Y39.0372
G01 X210.4483 Y39.0211
G01 X210.3834 Y39.0083
G01 X210.3133 Y38.9981
G01 X210.2429 Y38.9915
G01 X210.1722 Y38.9884
G01 X210.1014 Y38.9889
G01 X210.0308 Y38.9930
G01 X209.9604 Y39.0006
G01 X209.8905 Y39.0117
G01 X209.8213 Y39.0264
G01 X209.7531 Y39.0523
G01 X209.6863 Y39.0816
G01 X209.6210 Y39.1142
G01 X209.5574 Y39.1499
G01 X209.4956 Y39.1887
G01 X209.4358 Y39.2305
G01 X209.3781 Y39.2752
G01 X209.3227 Y39.3227
G01 X209.2719 Y39.3760
G01 X209.2239 Y39.4317
G01 X209.1786 Y39.4898
G01 X209.1362 Y39.5500
G01 X209.0968 Y39.6122
G01 X209.0605 Y39.6762
G01 X209.0274 Y39.7420
G01 X208.9976 Y39.8093
G01 X208.9711 Y39.8780
G01 X208.9480 Y39.9479
G01 X208.9283 Y40.0189
G01 X208.9122 Y40.0907
G01 X208.8996 Y40.1632
G01 X208.8906 Y40.2363
G01 X208.8852 Y40.3097
G01 X208.8834 Y40.3833
G01 X208.8852 Y40.4569
G01 X208.8906 Y40.5303
G01 X208.8996 Y40.6034
G01 X208.9122 Y40.6760
G01 X208.9283 Y40.7478
G01 X208.9480 Y40.8187
G01 X208.9711 Y40.8886
G01 X208.9976 Y40.9573
G01 X209.0274 Y41.0246
G01 X209.0605 Y41.0904
G01 X209.0968 Y41.1545
G01 X209.1362 Y41.2167
G01 X209.1786 Y41.2769
G01 X209.2239 Y41.3349
G01 X209.2719 Y41.3906
G01 X209.3227 Y41.4440
G01 X209.3760 Y41.4947
G01 X209.4318 Y41.5428
G01 X209.4898 Y41.5881
G01 X209.5500 Y41.6305
G01 X209.6122 Y41.6699
G01 X209.6763 Y41.7062
G01 X209.7420 Y41.7393
G01 X209.8093 Y41.7691
G01 X209.8780 Y41.7956
G01 X209.9479 Y41.8187
G01 X210.0189 Y41.8383
G01 X210.0907 Y41.8545
G01 X210.1633 Y41.8671
G01 X210.2363 Y41.8761
G01 X210.3098 Y41.8815
G01 X210.3834 Y41.8833
G01 X210.4570 Y41.8815
G01 X210.5304 Y41.8761
G01 X210.6035 Y41.8671
G01 X210.6760 Y41.8545
G01 X210.7478 Y41.8383
G01 X210.8188 Y41.8187
G01 X210.8887 Y41.7956
G01 X210.9574 Y41.7691
G01 X211.0247 Y41.7393
G01 X211.0904 Y41.7062
G01 X211.1545 Y41.6699
G01 X211.2167 Y41.6305
G01 X211.2769 Y41.5881
G01 X211.3349 Y41.5428
G01 X211.3907 Y41.4947
G01 X211.4440 Y41.4440
G01 X211.4948 Y41.3906
G01 X211.5429 Y41.3349
G01 X211.5882 Y41.2769
G01 X211.6305 Y41.2167
G01 X211.6699 Y41.1545
G01 X211.7062 Y41.0904
G01 X211.7393 Y41.0246
G01 X211.7692 Y40.9573
G01 X211.7957 Y40.8886
G01 X211.8188 Y40.8187
G01 X211.8384 Y40.7478
G01 X211.8545 Y40.6760
G01 X211.8671 Y40.6034
G01 X211.8761 Y40.5303
G01 X211.8815 Y40.4569
G01 X211.8833 Y40.3833
G01 X211.8791 Y40.2712
G01 X211.8666 Y40.1598
G01 X211.8457 Y40.0495
G01 X211.8167 Y39.9412
G01 X211.7797 Y39.8353
G01 X211.7348 Y39.7325
G01 X211.6824 Y39.6333
G01 X211.6227 Y39.5383
G01 X211.5561 Y39.4481
G01 X211.4829 Y39.3631
G01 X211.4036 Y39.2838
G01 X211.3186 Y39.2106
G01 X211.2283 Y39.1440
G01 X211.1334 Y39.0843
G01 X211.0342 Y39.0319
G01 X210.9314 Y38.9870
G01 X210.8255 Y38.9500
G01 X210.7171 Y38.9209
G01 X210.6069 Y38.9001
G01 X210.4955 Y38.8875
G01 X210.3834 Y38.8833
G01 X210.2713 Y38.8875
G01 X210.1598 Y38.9001
G01 X210.0496 Y38.9209
G01 X209.9412 Y38.9500
G01 X209.8354 Y38.9870
G01 X209.7325 Y39.0319
G01 X209.6334 Y39.0843
G01 X209.5384 Y39.1440
G01 X209.4481 Y39.2106
G01 X209.3631 Y39.2838
G01 X209.2838 Y39.3631
G01 X209.2106 Y39.4481
G01 X209.1440 Y39.5383
G01 X209.0843 Y39.6333
G01 X209.0319 Y39.7325
G01 X208.9871 Y39.8353
G01 X208.9500 Y39.9412
G01 X208.9210 Y40.0495
G01 X208.9001 Y40.1598
G01 X208.8876 Y40.2712
G01 X208.8834 Y40.3833
G01 X208.8876 Y40.4954
G01 X208.9001 Y40.6069
G01 X208.9210 Y40.7171
G01 X208.9500 Y40.8254
G01 X208.9871 Y40.9313
G01 X209.0319 Y41.0341
G01 X209.0843 Y41.1333
G01 X209.1440 Y41.2283
G01 X209.2106 Y41.3185
G01 X209.2838 Y41.4036
G01 X209.3631 Y41.4829
G01 X209.4481 Y41.5561
G01 X209.5384 Y41.6227
G01 X209.6334 Y41.6823
G01 X209.7325 Y41.7348
G01 X209.8354 Y41.7796
G01 X209.9412 Y41.8167
G01 X210.0496 Y41.8457
G01 X210.1598 Y41.8665
G01 X210.2713 Y41.8791
G01 X210.3834 Y41.8833
G01 X210.4955 Y41.8791
G01 X210.6069 Y41.8665
G01 X210.7171 Y41.8457
G01 X210.8255 Y41.8167
G01 X210.9314 Y41.7796
G01 X211.0342 Y41.7348
G01 X211.1334 Y41.6823
G01 X211.2283 Y41.6227
G01 X211.3186 Y41.5561
G01 X211.4036 Y41.4829
G01 X211.4829 Y41.4036
G01 X211.5561 Y41.3185
G01 X211.6227 Y41.2283
G01 X211.6824 Y41.1333
G01 X211.7348 Y41.0341
G01 X211.7797 Y40.9313
G01 X211.8167 Y40.8254
G01 X211.8457 Y40.7171
G01 X211.8666 Y40.6069
G01 X211.8791 Y40.4954
G01 X211.8833 Y40.3833
G01 X211.8795 Y40.2852
G01 X211.8680 Y40.1878
G01 X211.8488 Y40.0915
G01 X211.8222 Y39.9971
G01 X211.7882 Y39.9050
G01 X211.7471 Y39.8158
G01 X211.6991 Y39.7302
G01 X211.6446 Y39.6486
G01 X211.5839 Y39.5715
G01 X211.5172 Y39.4994
G01 X211.4452 Y39.4328
G01 X211.3681 Y39.3721
G01 X211.2865 Y39.3175
G01 X211.2008 Y39.2696
G01 X211.1117 Y39.2285
G01 X211.0196 Y39.1945
G01 X210.9252 Y39.1679
G01 X210.8289 Y39.1487
G01 X210.7314 Y39.1372
G01 X210.6334 Y39.1333
G01 X210.5353 Y39.1372
G01 X210.4378 Y39.1487
G01 X210.3415 Y39.1679
G01 X210.2471 Y39.1945
G01 X210.1550 Y39.2285
G01 X210.0659 Y39.2696
G01 X209.9802 Y39.3175
G01 X209.8986 Y39.3721
G01 X209.8215 Y39.4328
G01 X209.7495 Y39.4994
G01 X209.6828 Y39.5715
G01 X209.6221 Y39.6486
G01 X209.5676 Y39.7302
G01 X209.5196 Y39.8158
G01 X209.4785 Y39.9050
G01 X209.4445 Y39.9971
G01 X209.4179 Y40.0915
G01 X209.3987 Y40.1878
G01 X209.3872 Y40.2852
G01 X209.3834 Y40.3833
G01 X209.3872 Y40.4705
G01 X209.3986 Y40.5570
G01 X209.4174 Y40.6421
G01 X209.4437 Y40.7253
G01 X209.4771 Y40.8059
G01 X209.5173 Y40.8833
G01 X209.5642 Y40.9569
G01 X209.6173 Y41.0261
G01 X209.6763 Y41.0904
G01 X209.7406 Y41.1494
G01 X209.8098 Y41.2025
G01 X209.8834 Y41.2493
G01 X209.9607 Y41.2896
G01 X210.0413 Y41.3230
G01 X210.1245 Y41.3492
G01 X210.2097 Y41.3681
G01 X210.2962 Y41.3795
G01 X210.3834 Y41.3833
G01 X210.4705 Y41.3795
G01 X210.5570 Y41.3681
G01 X210.6422 Y41.3492
G01 X210.7254 Y41.3230
G01 X210.8060 Y41.2896
G01 X210.8834 Y41.2493
G01 X210.9569 Y41.2025
G01 X211.0261 Y41.1494
G01 X211.0905 Y41.0904
G01 X211.1494 Y41.0261
G01 X211.2025 Y40.9569
G01 X211.2494 Y40.8833
G01 X211.2897 Y40.8059
G01 X211.3231 Y40.7253
G01 X211.3493 Y40.6421
G01 X211.3682 Y40.5570
G01 X211.3796 Y40.4705
G01 X211.3834 Y40.3833
M107
M106 S240
G01 X211.3796 Y40.2962 Z-1.5278 F400
G01 X211.3682 Y40.2097 Z-1.5556
G01 X211.3493 Y40.1245 Z-1.5833
G01 X211.3231 Y40.0413 Z-1.6111
G01 X211.2897 Y39.9607 Z-1.6389
G01 X211.2494 Y39.8833 Z-1.6667
G01 X211.2025 Y39.8097 Z-1.6944
G01 X211.1494 Y39.7405 Z-1.7222
G01 X211.0905 Y39.6762 Z-1.7500
G01 X211.0261 Y39.6173 Z-1.7778
G01 X210.9569 Y39.5642 Z-1.8056
G01 X210.8834 Y39.5173 Z-1.8333
G01 X210.8060 Y39.4770 Z-1.8611
G01 X210.7254 Y39.4436 Z-1.8889
G01 X210.6422 Y39.4174 Z-1.9167
G01 X210.5570 Y39.3985 Z-1.9444
G01 X210.4705 Y39.3871 Z-1.9722
G01 X210.3834 Y39.3833 Z-2.0000
G01 X210.2962 Y39.3871 Z-2.0278
G01 X210.2097 Y39.3985 Z-2.0556
G01 X210.1245 Y39.4174 Z-2.0833
G01 X210.0413 Y39.4436 Z-2.1111
G01 X209.9607 Y39.4770 Z-2.1389
G01 X209.8834 Y39.5173 Z-2.1667
G01 X209.8098 Y39.5642 Z-2.1944
G01 X209.7406 Y39.6173 Z-2.2222
G01 X209.6763 Y39.6762 Z-2.2500
G01 X209.6173 Y39.7405 Z-2.2778
G01 X209.5642 Y39.8097 Z-2.3056
G01 X209.5173 Y39.8833 Z-2.3333
G01 X209.4771 Y39.9607 Z-2.3611
G01 X209.4437 Y40.0413 Z-2.3889
G01 X209.4174 Y40.1245 Z-2.4167
G01 X209.3986 Y40.2097 Z-2.4444
G01 X209.3872 Y40.2962 Z-2.4722
G01 X209.3834 Y40.3833 Z-2.5000
G01 X209.3872 Y40.4705 Z-2.5278
G01 X209.3986 Y40.5570 Z-2.5556
G01 X209.4174 Y40.6421 Z-2.5833
G01 X209.4437 Y40.7253 Z-2.6111
G01 X209.4771 Y40.8059 Z-2.6389
G01 X209.5173 Y40.8833 Z-2.6667
G01 X209.5642 Y40.9569 Z-2.6944
G01 X209.6173 Y41.0261 Z-2.7222
G01 X209.6763 Y41.0904 Z-2.7500
G01 X209.7406 Y41.1494 Z-2.7778
G01 X209.8098 Y41.2025 Z-2.8056
G01 X209.8834 Y41.2493 Z-2.8333
G01 X209.9607 Y41.2896 Z-2.8611
G01 X210.0413 Y41.3230 Z-2.8889
G01 X210.1245 Y41.3492 Z-2.9167
G01 X210.2097 Y41.3681 Z-2.9444
G01 X210.2962 Y41.3795 Z-2.9722
G01 X210.3834 Y41.3833 Z-3.0000
G01 X210.4705 Y41.3795 Z-3.0278
G01 X210.5570 Y41.3681 Z-3.0556
G01 X210.6422 Y41.3492 Z-3.0833
G01 X210.7254 Y41.3230 Z-3.1111
G01 X210.8060 Y41.2896 Z-3.1389
G01 X210.8834 Y41.2493 Z-3.1667
G01 X210.9569 Y41.2025 Z-3.1944
G01 X211.0261 Y41.1494 Z-3.2222
G01 X211.0905 Y41.0904 Z-3.2500
G01 X211.1494 Y41.0261 Z-3.2778
G01 X211.2025 Y40.9569 Z-3.3056
G01 X211.2494 Y40.8833 Z-3.3333
G01 X211.2897 Y40.8059 Z-3.3611
G01 X211.3231 Y40.7253 Z-3.3889
G01 X211.3493 Y40.6421 Z-3.4167
G01 X211.3682 Y40.5570 Z-3.4444
G01 X211.3796 Y40.4705 Z-3.4722
G01 X211.3834 Y40.3833 Z-3.5000
G01 X211.3796 Y40.2962
G01 X211.3682 Y40.2097
G01 X211.3493 Y40.1245
G01 X211.3231 Y40.0413
G01 X211.2897 Y39.9607
G01 X211.2494 Y39.8833
G01 X211.2025 Y39.8097
G01 X211.1494 Y39.7405
G01 X211.0905 Y39.6762
G01 X211.0261 Y39.6173
G01 X210.9569 Y39.5642
G01 X210.8834 Y39.5173
G01 X210.8060 Y39.4770
G01 X210.7254 Y39.4436
G01 X210.6422 Y39.4174
G01 X210.5570 Y39.3985
G01 X210.4705 Y39.3871
G01 X210.3834 Y39.3833
G01 X210.2962 Y39.3871
G01 X210.2097 Y39.3985
G01 X210.1245 Y39.4174
G01 X210.0413 Y39.4436
G01 X209.9607 Y39.4770
G01 X209.8834 Y39.5173
G01 X209.8098 Y39.5642
G01 X209.7406 Y39.6173
G01 X209.6763 Y39.6762
G01 X209.6173 Y39.7405
G01 X209.5642 Y39.8097
G01 X209.5173 Y39.8833
G01 X209.4771 Y39.9607
G01 X209.4437 Y40.0413
G01 X209.4174 Y40.1245
G01 X209.3986 Y40.2097
G01 X209.3872 Y40.2962
G01 X209.3834 Y40.3833
G01 X209.3872 Y40.4705
G01 X209.3986 Y40.5570
G01 X209.4174 Y40.6421
G01 X209.4437 Y40.7253
G01 X209.4771 Y40.8059
G01 X209.5173 Y40.8833
G01 X209.5642 Y40.9569
G01 X209.6173 Y41.0261
G01 X209.6763 Y41.0904
G01 X209.7406 Y41.1494
G01 X209.8098 Y41.2025
G01 X209.8834 Y41.2493
G01 X209.9607 Y41.2896
G01 X210.0413 Y41.3230
G01 X210.1245 Y41.3492
G01 X210.2097 Y41.3681
G01 X210.2962 Y41.3795
G01 X210.3834 Y41.3833
G01 X210.4705 Y41.3795
G01 X210.5570 Y41.3681
G01 X210.6422 Y41.3492
G01 X210.7254 Y41.3230
G01 X210.8060 Y41.2896
G01 X210.8834 Y41.2493
G01 X210.9569 Y41.2025
G01 X211.0261 Y41.1494
G01 X211.0905 Y41.0904
G01 X211.1494 Y41.0261
G01 X211.2025 Y40.9569
G01 X211.2494 Y40.8833
G01 X211.2897 Y40.8059
G01 X211.3231 Y40.7253
G01 X211.3493 Y40.6421
G01 X211.3682 Y40.5570
G01 X211.3796 Y40.4705
G01 X211.3834 Y40.3833
G01 X211.3941 Y40.3317 F1000
G01 X211.4022 Y40.2796
G01 X211.4076 Y40.2272
G01 X211.4102 Y40.1746
G01 Y40.1219
G01 X211.4075 Y40.0692
G01 X211.4020 Y40.0168
G01 X211.3939 Y39.9648
G01 X211.3821 Y39.9088
G01 X211.3676 Y39.8535
G01 X211.3502 Y39.7990
G01 X211.3301 Y39.7454
G01 X211.3072 Y39.6930
G01 X211.2817 Y39.6418
G01 X211.2536 Y39.5920
G01 X211.2230 Y39.5436
G01 X211.1874 Y39.4932
G01 X211.1493 Y39.4447
G01 X211.1088 Y39.3982
G01 X211.0659 Y39.3538
G01 X211.0209 Y39.3116
G01 X210.9737 Y39.2718
G01 X210.9246 Y39.2344
G01 X210.8737 Y39.1996
G01 X210.8172 Y39.1650
G01 X210.7590 Y39.1334
G01 X210.6993 Y39.1047
G01 X210.6382 Y39.0791
G01 X210.5759 Y39.0566
G01 X210.5126 Y39.0372
G01 X210.4483 Y39.0211
G01 X210.3834 Y39.0083
G01 X210.3133 Y38.9981
G01 X210.2429 Y38.9915
G01 X210.1722 Y38.9884
G01 X210.1014 Y38.9889
G01 X210.0308 Y38.9930
G01 X209.9604 Y39.0006
G01 X209.8905 Y39.0117
G01 X209.8213 Y39.0264
G01 X209.7531 Y39.0523
G01 X209.6863 Y39.0816
G01 X209.6210 Y39.1142
G01 X209.5574 Y39.1499
G01 X209.4956 Y39.1887
G01 X209.4358 Y39.2305
G01 X209.3781 Y39.2752
G01 X209.3227 Y39.3227
G01 X209.2719 Y39.3760
G01 X209.2239 Y39.4317
G01 X209.1786 Y39.4898
G01 X209.1362 Y39.5500
G01 X209.0968 Y39.6122
G01 X209.0605 Y39.6762
G01 X209.0274 Y39.7420
G01 X208.9976 Y39.8093
G01 X208.9711 Y39.8780
G01 X208.9480 Y39.9479
G01 X208.9283 Y40.0189
G01 X208.9122 Y40.0907
G01 X208.8996 Y40.1632
G01 X208.8906 Y40.2363
G01 X208.8852 Y40.3097
G01 X208.8834 Y40.3833
G01 X208.8852 Y40.4569
G01 X208.8906 Y40.5303
G01 X208.8996 Y40.6034
G01 X208.9122 Y40.6760
G01 X208.9283 Y40.7478
G01 X208.9480 Y40.8187
G01 X208.9711 Y40.8886
G01 X208.9976 Y40.9573
G01 X209.0274 Y41.0246
G01 X209.0605 Y41.0904
G01 X209.0968 Y41.1545
G01 X209.1362 Y41.2167
G01 X209.1786 Y41.2769
G01 X209.2239 Y41.3349
G01 X209.2719 Y41.3906
G01 X209.3227 Y41.4440
G01 X209.3760 Y41.4947
G01 X209.4318 Y41.5428
G01 X209.4898 Y41.5881
G01 X209.5500 Y41.6305
G01 X209.6122 Y41.6699
G01 X209.6763 Y41.7062
G01 X209.7420 Y41.7393
G01 X209.8093 Y41.7691
G01 X209.8780 Y41.7956
G01 X209.9479 Y41.8187
G01 X210.0189 Y41.8383
G01 X210.0907 Y41.8545
G01 X210.1633 Y41.8671
G01 X210.2363 Y41.8761
G01 X210.3098 Y41.8815
G01 X210.3834 Y41.8833
G01 X210.4570 Y41.8815
G01 X210.5304 Y41.8761
G01 X210.6035 Y41.8671
G01 X210.6760 Y41.8545
G01 X210.7478 Y41.8383
G01 X210.8188 Y41.8187
G01 X210.8887 Y41.7956
G01 X210.9574 Y41.7691
G01 X211.0247 Y41.7393
G01 X211.0904 Y41.7062
G01 X211.1545 Y41.6699
G01 X211.2167 Y41.6305
G01 X211.2769 Y41.5881
G01 X211.3349 Y41.5428
G01 X211.3907 Y41.4947
G01 X211.4440 Y41.4440
G01 X211.4948 Y41.3906
G01 X211.5429 Y41.3349
G01 X211.5882 Y41.2769
G01 X211.6305 Y41.2167
G01 X211.6699 Y41.1545
G01 X211.7062 Y41.0904
G01 X211.7393 Y41.0246
G01 X211.7692 Y40.9573
G01 X211.7957 Y40.8886
G01 X211.8188 Y40.8187
G01 X211.8384 Y40.7478
G01 X211.8545 Y40.6760
G01 X211.8671 Y40.6034
G01 X211.8761 Y40.5303
G01 X211.8815 Y40.4569
G01 X211.8833 Y40.3833
G01 X211.8791 Y40.2712
G01 X211.8666 Y40.1598
G01 X211.8457 Y40.0495
G01 X211.8167 Y39.9412
G01 X211.7797 Y39.8353
G01 X211.7348 Y39.7325
G01 X211.6824 Y39.6333
G01 X211.6227 Y39.5383
G01 X211.5561 Y39.4481
G01 X211.4829 Y39.3631
G01 X211.4036 Y39.2838
G01 X211.3186 Y39.2106
G01 X211.2283 Y39.1440
G01 X211.1334 Y39.0843
G01 X211.0342 Y39.0319
G01 X210.9314 Y38.9870
G01 X210.8255 Y38.9500
G01 X210.7171 Y38.9209
G01 X210.6069 Y38.9001
G01 X210.4955 Y38.8875
G01 X210.3834 Y38.8833
G01 X210.2713 Y38.8875
G01 X210.1598 Y38.9001
G01 X210.0496 Y38.9209
G01 X209.9412 Y38.9500
G01 X209.8354 Y38.9870
G01 X209.7325 Y39.0319
G01 X209.6334 Y39.0843
G01 X209.5384 Y39.1440
G01 X209.4481 Y39.2106
G01 X209.3631 Y39.2838
G01 X209.2838 Y39.3631
G01 X209.2106 Y39.4481
G01 X209.1440 Y39.5383
G01 X209.0843 Y39.6333
G01 X209.0319 Y39.7325
G01 X208.9871 Y39.8353
G01 X208.9500 Y39.9412
G01 X208.9210 Y40.0495
G01 X208.9001 Y40.1598
G01 X208.8876 Y40.2712
G01 X208.8834 Y40.3833
G01 X208.8876 Y40.4954
G01 X208.9001 Y40.6069
G01 X208.9210 Y40.7171
G01 X208.9500 Y40.8254
G01 X208.9871 Y40.9313
G01 X209.0319 Y41.0341
G01 X209.0843 Y41.1333
G01 X209.1440 Y41.2283
G01 X209.2106 Y41.3185
G01 X209.2838 Y41.4036
G01 X209.3631 Y41.4829
G01 X209.4481 Y41.5561
G01 X209.5384 Y41.6227
G01 X209.6334 Y41.6823
G01 X209.7325 Y41.7348
G01 X209.8354 Y41.7796
G01 X209.9412 Y41.8167
G01 X210.0496 Y41.8457
G01 X210.1598 Y41.8665
G01 X210.2713 Y41.8791
G01 X210.3834 Y41.8833
G01 X210.4955 Y41.8791
G01 X210.6069 Y41.8665
G01 X210.7171 Y41.8457
G01 X210.8255 Y41.8167
G01 X210.9314 Y41.7796
G01 X211.0342 Y41.7348
G01 X211.1334 Y41.6823
G01 X211.2283 Y41.6227
G01 X211.3186 Y41.5561
G01 X211.4036 Y41.4829
G01 X211.4829 Y41.4036
G01 X211.5561 Y41.3185
G01 X211.6227 Y41.2283
G01 X211.6824 Y41.1333
G01 X211.7348 Y41.0341
G01 X211.7797 Y40.9313
G01 X211.8167 Y40.8254
G01 X211.8457 Y40.7171
G01 X211.8666 Y40.6069
G01 X211.8791 Y40.4954
G01 X211.8833 Y40.3833
G01 X211.8795 Y40.2852
G01 X211.8680 Y40.1878
G01 X211.8488 Y40.0915
G01 X211.8222 Y39.9971
G01 X211.7882 Y39.9050
G01 X211.7471 Y39.8158
G01 X211.6991 Y39.7302
G01 X211.6446 Y39.6486
G01 X211.5839 Y39.5715
G01 X211.5172 Y39.4994
G01 X211.4452 Y39.4328
G01 X211.3681 Y39.3721
G01 X211.2865 Y39.3175
G01 X211.2008 Y39.2696
G01 X211.1117 Y39.2285
G01 X211.0196 Y39.1945
G01 X210.9252 Y39.1679
G01 X210.8289 Y39.1487
G01 X210.7314 Y39.1372
G01 X210.6334 Y39.1333
G01 X210.5353 Y39.1372
G01 X210.4378 Y39.1487
G01 X210.3415 Y39.1679
G01 X210.2471 Y39.1945
G01 X210.1550 Y39.2285
G01 X210.0659 Y39.2696
G01 X209.9802 Y39.3175
G01 X209.8986 Y39.3721
G01 X209.8215 Y39.4328
G01 X209.7495 Y39.4994
G01 X209.6828 Y39.5715
G01 X209.6221 Y39.6486
G01 X209.5676 Y39.7302
G01 X209.5196 Y39.8158
G01 X209.4785 Y39.9050
G01 X209.4445 Y39.9971
G01 X209.4179 Y40.0915
G01 X209.3987 Y40.1878
G01 X209.3872 Y40.2852
G01 X209.3834 Y40.3833
G01 X209.3872 Y40.4705
G01 X209.3986 Y40.5570
G01 X209.4174 Y40.6421
G01 X209.4437 Y40.7253
G01 X209.4771 Y40.8059
G01 X209.5173 Y40.8833
G01 X209.5642 Y40.9569
G01 X209.6173 Y41.0261
G01 X209.6763 Y41.0904
G01 X209.7406 Y41.1494
G01 X209.8098 Y41.2025
G01 X209.8834 Y41.2493
G01 X209.9607 Y41.2896
G01 X210.0413 Y41.3230
G01 X210.1245 Y41.3492
G01 X210.2097 Y41.3681
G01 X210.2962 Y41.3795
G01 X210.3834 Y41.3833
G01 X210.4705 Y41.3795
G01 X210.5570 Y41.3681
G01 X210.6422 Y41.3492
G01 X210.7254 Y41.3230
