;Project TeslaParkingV3_Schwarz
;Created by Estlcam version 11 build 11,233
;Machining time about 00:39:43 hours

G90
M03 S18000
G00 X0.0000 Y0.0000 Z0.0000
G00 Z2.0000


;No. 1: Helical drill 8
G00 X31.0068 Y44.7561
G00 Z0.5000
M106 S240
G01 X31.0030 Y44.6690 Z0.4745 F400 S18000
G01 X30.9916 Y44.5825 Z0.4491
G01 X30.9727 Y44.4973 Z0.4236
G01 X30.9465 Y44.4141 Z0.3981
G01 X30.9131 Y44.3335 Z0.3727
G01 X30.8728 Y44.2561 Z0.3472
G01 X30.8260 Y44.1826 Z0.3218
G01 X30.7729 Y44.1134 Z0.2963
G01 X30.7139 Y44.0490 Z0.2708
G01 X30.6496 Y43.9901 Z0.2454
G01 X30.5804 Y43.9370 Z0.2199
G01 X30.5068 Y43.8901 Z0.1944
G01 X30.4294 Y43.8498 Z0.1690
G01 X30.3488 Y43.8165 Z0.1435
G01 X30.2656 Y43.7902 Z0.1181
G01 X30.1805 Y43.7713 Z0.0926
G01 X30.0940 Y43.7599 Z0.0671
G01 X30.0068 Y43.7561 Z0.0417
G01 X29.9197 Y43.7599 Z0.0162
G01 X29.8332 Y43.7713 Z-0.0093
G01 X29.7480 Y43.7902 Z-0.0347
G01 X29.6648 Y43.8165 Z-0.0602
G01 X29.5842 Y43.8498 Z-0.0856
G01 X29.5068 Y43.8901 Z-0.1111
G01 X29.4332 Y43.9370 Z-0.1366
G01 X29.3640 Y43.9901 Z-0.1620
G01 X29.2997 Y44.0490 Z-0.1875
G01 X29.2408 Y44.1134 Z-0.2130
G01 X29.1877 Y44.1826 Z-0.2384
G01 X29.1408 Y44.2561 Z-0.2639
G01 X29.1005 Y44.3335 Z-0.2894
G01 X29.0671 Y44.4141 Z-0.3148
G01 X29.0409 Y44.4973 Z-0.3403
G01 X29.0220 Y44.5825 Z-0.3657
G01 X29.0106 Y44.6690 Z-0.3912
G01 X29.0068 Y44.7561 Z-0.4167
G01 X29.0106 Y44.8433 Z-0.4421
G01 X29.0220 Y44.9298 Z-0.4676
G01 X29.0409 Y45.0150 Z-0.4931
G01 X29.0671 Y45.0982 Z-0.5185
G01 X29.1005 Y45.1788 Z-0.5440
G01 X29.1408 Y45.2561 Z-0.5694
G01 X29.1877 Y45.3297 Z-0.5949
G01 X29.2408 Y45.3989 Z-0.6204
G01 X29.2997 Y45.4632 Z-0.6458
G01 X29.3640 Y45.5222 Z-0.6713
G01 X29.4332 Y45.5753 Z-0.6968
G01 X29.5068 Y45.6222 Z-0.7222
G01 X29.5842 Y45.6625 Z-0.7477
G01 X29.6648 Y45.6958 Z-0.7731
G01 X29.7480 Y45.7221 Z-0.7986
G01 X29.8332 Y45.7410 Z-0.8241
G01 X29.9197 Y45.7523 Z-0.8495
G01 X30.0068 Y45.7561 Z-0.8750
G01 X30.0940 Y45.7523 Z-0.9005
G01 X30.1805 Y45.7410 Z-0.9259
G01 X30.2656 Y45.7221 Z-0.9514
G01 X30.3488 Y45.6958 Z-0.9769
G01 X30.4294 Y45.6625 Z-1.0023
G01 X30.5068 Y45.6222 Z-1.0278
G01 X30.5804 Y45.5753 Z-1.0532
G01 X30.6496 Y45.5222 Z-1.0787
G01 X30.7139 Y45.4632 Z-1.1042
G01 X30.7729 Y45.3989 Z-1.1296
G01 X30.8260 Y45.3297 Z-1.1551
G01 X30.8728 Y45.2561 Z-1.1806
G01 X30.9131 Y45.1788 Z-1.2060
G01 X30.9465 Y45.0982 Z-1.2315
G01 X30.9727 Y45.0150 Z-1.2569
G01 X30.9916 Y44.9298 Z-1.2824
G01 X31.0030 Y44.8433 Z-1.3079
G01 X31.0068 Y44.7561 Z-1.3333
G01 X31.0030 Y44.6690
G01 X30.9916 Y44.5825
G01 X30.9727 Y44.4973
G01 X30.9465 Y44.4141
G01 X30.9131 Y44.3335
G01 X30.8728 Y44.2561
G01 X30.8260 Y44.1826
G01 X30.7729 Y44.1134
G01 X30.7139 Y44.0490
G01 X30.6496 Y43.9901
G01 X30.5804 Y43.9370
G01 X30.5068 Y43.8901
G01 X30.4294 Y43.8498
G01 X30.3488 Y43.8165
G01 X30.2656 Y43.7902
G01 X30.1805 Y43.7713
G01 X30.0940 Y43.7599
G01 X30.0068 Y43.7561
G01 X29.9197 Y43.7599
G01 X29.8332 Y43.7713
G01 X29.7480 Y43.7902
G01 X29.6648 Y43.8165
G01 X29.5842 Y43.8498
G01 X29.5068 Y43.8901
G01 X29.4332 Y43.9370
G01 X29.3640 Y43.9901
G01 X29.2997 Y44.0490
G01 X29.2408 Y44.1134
G01 X29.1877 Y44.1826
G01 X29.1408 Y44.2561
G01 X29.1005 Y44.3335
G01 X29.0671 Y44.4141
G01 X29.0409 Y44.4973
G01 X29.0220 Y44.5825
G01 X29.0106 Y44.6690
G01 X29.0068 Y44.7561
G01 X29.0106 Y44.8433
G01 X29.0220 Y44.9298
G01 X29.0409 Y45.0150
G01 X29.0671 Y45.0982
G01 X29.1005 Y45.1788
G01 X29.1408 Y45.2561
G01 X29.1877 Y45.3297
G01 X29.2408 Y45.3989
G01 X29.2997 Y45.4632
G01 X29.3640 Y45.5222
G01 X29.4332 Y45.5753
G01 X29.5068 Y45.6222
G01 X29.5842 Y45.6625
G01 X29.6648 Y45.6958
G01 X29.7480 Y45.7221
G01 X29.8332 Y45.7410
G01 X29.9197 Y45.7523
G01 X30.0068 Y45.7561
G01 X30.0940 Y45.7523
G01 X30.1805 Y45.7410
G01 X30.2656 Y45.7221
G01 X30.3488 Y45.6958
G01 X30.4294 Y45.6625
G01 X30.5068 Y45.6222
G01 X30.5804 Y45.5753
G01 X30.6496 Y45.5222
G01 X30.7139 Y45.4632
G01 X30.7729 Y45.3989
G01 X30.8260 Y45.3297
G01 X30.8728 Y45.2561
G01 X30.9131 Y45.1788
G01 X30.9465 Y45.0982
G01 X30.9727 Y45.0150
G01 X30.9916 Y44.9298
G01 X31.0030 Y44.8433
G01 X31.0068 Y44.7561
G01 X31.0176 Y44.7045 F1000
G01 X31.0256 Y44.6525
G01 X31.0310 Y44.6000
G01 X31.0337 Y44.5474
G01 Y44.4947
G01 X31.0309 Y44.4421
G01 X31.0255 Y44.3897
G01 X31.0173 Y44.3376
G01 X31.0044 Y44.2824
G01 X30.9887 Y44.2279
G01 X30.9703 Y44.1743
G01 X30.9492 Y44.1217
G01 X30.9254 Y44.0702
G01 X30.8991 Y44.0201
G01 X30.8703 Y43.9713
G01 X30.8390 Y43.9240
G01 X30.7971 Y43.8842
G01 X30.7534 Y43.8464
G01 X30.7079 Y43.8109
G01 X30.6606 Y43.7776
G01 X30.6118 Y43.7467
G01 X30.5616 Y43.7183
G01 X30.5100 Y43.6923
G01 X30.4572 Y43.6689
G01 X30.4033 Y43.6481
G01 X30.3484 Y43.6300
G01 X30.2928 Y43.6146
G01 X30.2364 Y43.6019
G01 X30.1795 Y43.5920
G01 X30.1222 Y43.5850
G01 X30.0646 Y43.5807
G01 X30.0068 Y43.5793
G01 X29.9491 Y43.5807
G01 X29.8915 Y43.5850
G01 X29.8341 Y43.5920
G01 X29.7772 Y43.6019
G01 X29.7209 Y43.6146
G01 X29.6652 Y43.6300
G01 X29.6104 Y43.6481
G01 X29.5565 Y43.6689
G01 X29.5037 Y43.6923
G01 X29.4521 Y43.7183
G01 X29.4018 Y43.7467
G01 X29.3530 Y43.7776
G01 X29.3058 Y43.8109
G01 X29.2602 Y43.8464
G01 X29.2165 Y43.8842
G01 X29.1747 Y43.9240
G01 X29.1348 Y43.9658
G01 X29.0971 Y44.0096
G01 X29.0616 Y44.0551
G01 X29.0283 Y44.1023
G01 X28.9974 Y44.1511
G01 X28.9689 Y44.2014
G01 X28.9430 Y44.2530
G01 X28.9196 Y44.3058
G01 X28.8988 Y44.3597
G01 X28.8807 Y44.4145
G01 X28.8652 Y44.4702
G01 X28.8526 Y44.5266
G01 X28.8427 Y44.5835
G01 X28.8356 Y44.6408
G01 X28.8314 Y44.6984
G01 X28.8300 Y44.7561
G01 X28.8314 Y44.8139
G01 X28.8356 Y44.8715
G01 X28.8427 Y44.9288
G01 X28.8526 Y44.9857
G01 X28.8652 Y45.0421
G01 X28.8807 Y45.0978
G01 X28.8988 Y45.1526
G01 X28.9196 Y45.2065
G01 X28.9430 Y45.2593
G01 X28.9689 Y45.3109
G01 X28.9974 Y45.3612
G01 X29.0283 Y45.4100
G01 X29.0616 Y45.4572
G01 X29.0971 Y45.5027
G01 X29.1348 Y45.5465
G01 X29.1747 Y45.5883
G01 X29.2165 Y45.6281
G01 X29.2602 Y45.6659
G01 X29.3058 Y45.7014
G01 X29.3530 Y45.7347
G01 X29.4018 Y45.7656
G01 X29.4521 Y45.7940
G01 X29.5037 Y45.8200
G01 X29.5565 Y45.8434
G01 X29.6104 Y45.8642
G01 X29.6652 Y45.8823
G01 X29.7209 Y45.8977
G01 X29.7772 Y45.9104
G01 X29.8341 Y45.9202
G01 X29.8915 Y45.9273
G01 X29.9491 Y45.9316
G01 X30.0068 Y45.9330
G01 X30.0646 Y45.9316
G01 X30.1222 Y45.9273
G01 X30.1795 Y45.9202
G01 X30.2364 Y45.9104
G01 X30.2928 Y45.8977
G01 X30.3484 Y45.8823
G01 X30.4033 Y45.8642
G01 X30.4572 Y45.8434
G01 X30.5100 Y45.8200
G01 X30.5616 Y45.7940
G01 X30.6118 Y45.7656
G01 X30.6606 Y45.7347
G01 X30.7079 Y45.7014
G01 X30.7534 Y45.6659
G01 X30.7971 Y45.6281
G01 X30.8390 Y45.5883
G01 X30.8788 Y45.5465
G01 X30.9165 Y45.5027
G01 X30.9521 Y45.4572
G01 X30.9853 Y45.4100
G01 X31.0162 Y45.3612
G01 X31.0447 Y45.3109
G01 X31.0707 Y45.2593
G01 X31.0941 Y45.2065
G01 X31.1149 Y45.1526
G01 X31.1330 Y45.0978
G01 X31.1484 Y45.0421
G01 X31.1610 Y44.9857
G01 X31.1709 Y44.9288
G01 X31.1780 Y44.8715
G01 X31.1822 Y44.8139
G01 X31.1837 Y44.7561
G01 X31.1792 Y44.6536
G01 X31.1658 Y44.5518
G01 X31.1436 Y44.4516
G01 X31.1127 Y44.3536
G01 X31.0734 Y44.2588
G01 X31.0260 Y44.1677
G01 X30.9708 Y44.0811
G01 X30.9083 Y43.9997
G01 X30.8390 Y43.9240
G01 X30.7633 Y43.8546
G01 X30.6818 Y43.7921
G01 X30.5952 Y43.7370
G01 X30.5042 Y43.6896
G01 X30.4093 Y43.6503
G01 X30.3114 Y43.6194
G01 X30.2112 Y43.5972
G01 X30.1094 Y43.5838
G01 X30.0068 Y43.5793
G01 X29.9043 Y43.5838
G01 X29.8025 Y43.5972
G01 X29.7022 Y43.6194
G01 X29.6043 Y43.6503
G01 X29.5095 Y43.6896
G01 X29.4184 Y43.7370
G01 X29.3318 Y43.7921
G01 X29.2504 Y43.8546
G01 X29.1747 Y43.9240
G01 X29.1053 Y43.9997
G01 X29.0428 Y44.0811
G01 X28.9876 Y44.1677
G01 X28.9402 Y44.2588
G01 X28.9009 Y44.3536
G01 X28.8701 Y44.4516
G01 X28.8479 Y44.5518
G01 X28.8345 Y44.6536
G01 X28.8300 Y44.7561
G01 X28.8345 Y44.8587
G01 X28.8479 Y44.9605
G01 X28.8701 Y45.0607
G01 X28.9009 Y45.1586
G01 X28.9402 Y45.2535
G01 X28.9876 Y45.3446
G01 X29.0428 Y45.4312
G01 X29.1053 Y45.5126
G01 X29.1747 Y45.5883
G01 X29.2504 Y45.6577
G01 X29.3318 Y45.7202
G01 X29.4184 Y45.7753
G01 X29.5095 Y45.8227
G01 X29.6043 Y45.8620
G01 X29.7022 Y45.8929
G01 X29.8025 Y45.9151
G01 X29.9043 Y45.9285
G01 X30.0068 Y45.9330
G01 X30.1094 Y45.9285
G01 X30.2112 Y45.9151
G01 X30.3114 Y45.8929
G01 X30.4093 Y45.8620
G01 X30.5042 Y45.8227
G01 X30.5952 Y45.7753
G01 X30.6818 Y45.7202
G01 X30.7633 Y45.6577
G01 X30.8390 Y45.5883
G01 X30.9083 Y45.5126
G01 X30.9708 Y45.4312
G01 X31.0260 Y45.3446
G01 X31.0734 Y45.2535
G01 X31.1127 Y45.1586
G01 X31.1436 Y45.0607
G01 X31.1658 Y44.9605
G01 X31.1792 Y44.8587
G01 X31.1837 Y44.7561
G01 X31.1795 Y44.6613
G01 X31.1671 Y44.5671
G01 X31.1466 Y44.4744
G01 X31.1180 Y44.3839
G01 X31.0817 Y44.2962
G01 X31.0378 Y44.2119
G01 X30.9868 Y44.1319
G01 X30.9290 Y44.0565
G01 X30.8649 Y43.9865
G01 X30.7949 Y43.9224
G01 X30.7195 Y43.8646
G01 X30.6395 Y43.8135
G01 X30.5552 Y43.7697
G01 X30.4675 Y43.7334
G01 X30.3769 Y43.7048
G01 X30.2842 Y43.6843
G01 X30.1901 Y43.6719
G01 X30.0952 Y43.6677
G01 X30.0004 Y43.6719
G01 X29.9062 Y43.6843
G01 X29.8135 Y43.7048
G01 X29.7230 Y43.7334
G01 X29.6353 Y43.7697
G01 X29.5510 Y43.8135
G01 X29.4709 Y43.8646
G01 X29.3956 Y43.9224
G01 X29.3256 Y43.9865
G01 X29.2615 Y44.0565
G01 X29.2037 Y44.1319
G01 X29.1526 Y44.2119
G01 X29.1088 Y44.2962
G01 X29.0725 Y44.3839
G01 X29.0439 Y44.4744
G01 X29.0234 Y44.5671
G01 X29.0110 Y44.6613
G01 X29.0068 Y44.7561
G01 X29.0079 Y44.8023
G01 X29.0111 Y44.8484
G01 X29.0164 Y44.8943
G01 X29.0238 Y44.9399
G01 X29.0334 Y44.9851
G01 X29.0450 Y45.0298
G01 X29.0587 Y45.0739
G01 X29.0743 Y45.1174
G01 X29.0920 Y45.1601
G01 X29.1117 Y45.2019
G01 X29.1332 Y45.2427
G01 X29.1566 Y45.2826
G01 X29.1818 Y45.3213
G01 X29.2088 Y45.3588
G01 X29.2375 Y45.3950
G01 X29.2678 Y45.4298
G01 X29.2997 Y45.4632
G01 X29.3331 Y45.4952
G01 X29.3680 Y45.5255
G01 X29.4042 Y45.5542
G01 X29.4417 Y45.5811
G01 X29.4804 Y45.6064
G01 X29.5202 Y45.6298
G01 X29.5611 Y45.6513
G01 X29.6029 Y45.6709
G01 X29.6456 Y45.6886
G01 X29.6890 Y45.7043
G01 X29.7332 Y45.7180
G01 X29.7779 Y45.7296
G01 X29.8231 Y45.7391
G01 X29.8687 Y45.7466
G01 X29.9146 Y45.7519
G01 X29.9606 Y45.7551
G01 X30.0068 Y45.7561
G01 X30.0530 Y45.7551
G01 X30.0991 Y45.7519
G01 X30.1450 Y45.7466
G01 X30.1906 Y45.7391
G01 X30.2358 Y45.7296
G01 X30.2805 Y45.7180
G01 X30.3246 Y45.7043
G01 X30.3681 Y45.6886
G01 X30.4107 Y45.6709
G01 X30.4526 Y45.6513
G01 X30.4934 Y45.6298
G01 X30.5333 Y45.6064
G01 X30.5720 Y45.5811
G01 X30.6095 Y45.5542
G01 X30.6457 Y45.5255
G01 X30.6805 Y45.4952
G01 X30.7139 Y45.4632
G01 X30.7458 Y45.4298
G01 X30.7762 Y45.3950
G01 X30.8048 Y45.3588
G01 X30.8318 Y45.3213
G01 X30.8570 Y45.2826
G01 X30.8804 Y45.2427
G01 X30.9020 Y45.2019
G01 X30.9216 Y45.1601
G01 X30.9393 Y45.1174
G01 X30.9550 Y45.0739
G01 X30.9686 Y45.0298
G01 X30.9803 Y44.9851
G01 X30.9898 Y44.9399
G01 X30.9972 Y44.8943
G01 X31.0026 Y44.8484
G01 X31.0058 Y44.8023
G01 X31.0068 Y44.7561
M107
M106 S240
G01 X31.0030 Y44.6690 Z-1.3588 F400
G01 X30.9916 Y44.5825 Z-1.3843
G01 X30.9727 Y44.4973 Z-1.4097
G01 X30.9465 Y44.4141 Z-1.4352
G01 X30.9131 Y44.3335 Z-1.4606
G01 X30.8728 Y44.2561 Z-1.4861
G01 X30.8260 Y44.1826 Z-1.5116
G01 X30.7729 Y44.1134 Z-1.5370
G01 X30.7139 Y44.0490 Z-1.5625
G01 X30.6496 Y43.9901 Z-1.5880
G01 X30.5804 Y43.9370 Z-1.6134
G01 X30.5068 Y43.8901 Z-1.6389
G01 X30.4294 Y43.8498 Z-1.6644
G01 X30.3488 Y43.8165 Z-1.6898
G01 X30.2656 Y43.7902 Z-1.7153
G01 X30.1805 Y43.7713 Z-1.7407
G01 X30.0940 Y43.7599 Z-1.7662
G01 X30.0068 Y43.7561 Z-1.7917
G01 X29.9197 Y43.7599 Z-1.8171
G01 X29.8332 Y43.7713 Z-1.8426
G01 X29.7480 Y43.7902 Z-1.8681
G01 X29.6648 Y43.8165 Z-1.8935
G01 X29.5842 Y43.8498 Z-1.9190
G01 X29.5068 Y43.8901 Z-1.9444
G01 X29.4332 Y43.9370 Z-1.9699
G01 X29.3640 Y43.9901 Z-1.9954
G01 X29.2997 Y44.0490 Z-2.0208
G01 X29.2408 Y44.1134 Z-2.0463
G01 X29.1877 Y44.1826 Z-2.0718
G01 X29.1408 Y44.2561 Z-2.0972
G01 X29.1005 Y44.3335 Z-2.1227
G01 X29.0671 Y44.4141 Z-2.1481
G01 X29.0409 Y44.4973 Z-2.1736
G01 X29.0220 Y44.5825 Z-2.1991
G01 X29.0106 Y44.6690 Z-2.2245
G01 X29.0068 Y44.7561 Z-2.2500
G01 X29.0106 Y44.8433 Z-2.2755
G01 X29.0220 Y44.9298 Z-2.3009
G01 X29.0409 Y45.0150 Z-2.3264
G01 X29.0671 Y45.0982 Z-2.3519
G01 X29.1005 Y45.1788 Z-2.3773
G01 X29.1408 Y45.2561 Z-2.4028
G01 X29.1877 Y45.3297 Z-2.4282
G01 X29.2408 Y45.3989 Z-2.4537
G01 X29.2997 Y45.4632 Z-2.4792
G01 X29.3640 Y45.5222 Z-2.5046
G01 X29.4332 Y45.5753 Z-2.5301
G01 X29.5068 Y45.6222 Z-2.5556
G01 X29.5842 Y45.6625 Z-2.5810
G01 X29.6648 Y45.6958 Z-2.6065
G01 X29.7480 Y45.7221 Z-2.6319
G01 X29.8332 Y45.7410 Z-2.6574
G01 X29.9197 Y45.7523 Z-2.6829
G01 X30.0068 Y45.7561 Z-2.7083
G01 X30.0940 Y45.7523 Z-2.7338
G01 X30.1805 Y45.7410 Z-2.7593
G01 X30.2656 Y45.7221 Z-2.7847
G01 X30.3488 Y45.6958 Z-2.8102
G01 X30.4294 Y45.6625 Z-2.8356
G01 X30.5068 Y45.6222 Z-2.8611
G01 X30.5804 Y45.5753 Z-2.8866
G01 X30.6496 Y45.5222 Z-2.9120
G01 X30.7139 Y45.4632 Z-2.9375
G01 X30.7729 Y45.3989 Z-2.9630
G01 X30.8260 Y45.3297 Z-2.9884
G01 X30.8728 Y45.2561 Z-3.0139
G01 X30.9131 Y45.1788 Z-3.0394
G01 X30.9465 Y45.0982 Z-3.0648
G01 X30.9727 Y45.0150 Z-3.0903
G01 X30.9916 Y44.9298 Z-3.1157
G01 X31.0030 Y44.8433 Z-3.1412
G01 X31.0068 Y44.7561 Z-3.1667
G01 X31.0030 Y44.6690
G01 X30.9916 Y44.5825
G01 X30.9727 Y44.4973
G01 X30.9465 Y44.4141
G01 X30.9131 Y44.3335
G01 X30.8728 Y44.2561
G01 X30.8260 Y44.1826
G01 X30.7729 Y44.1134
G01 X30.7139 Y44.0490
G01 X30.6496 Y43.9901
G01 X30.5804 Y43.9370
G01 X30.5068 Y43.8901
G01 X30.4294 Y43.8498
G01 X30.3488 Y43.8165
G01 X30.2656 Y43.7902
G01 X30.1805 Y43.7713
G01 X30.0940 Y43.7599
G01 X30.0068 Y43.7561
G01 X29.9197 Y43.7599
G01 X29.8332 Y43.7713
G01 X29.7480 Y43.7902
G01 X29.6648 Y43.8165
G01 X29.5842 Y43.8498
G01 X29.5068 Y43.8901
G01 X29.4332 Y43.9370
G01 X29.3640 Y43.9901
G01 X29.2997 Y44.0490
G01 X29.2408 Y44.1134
G01 X29.1877 Y44.1826
G01 X29.1408 Y44.2561
G01 X29.1005 Y44.3335
G01 X29.0671 Y44.4141
G01 X29.0409 Y44.4973
G01 X29.0220 Y44.5825
G01 X29.0106 Y44.6690
G01 X29.0068 Y44.7561
G01 X29.0106 Y44.8433
G01 X29.0220 Y44.9298
G01 X29.0409 Y45.0150
G01 X29.0671 Y45.0982
G01 X29.1005 Y45.1788
G01 X29.1408 Y45.2561
G01 X29.1877 Y45.3297
G01 X29.2408 Y45.3989
G01 X29.2997 Y45.4632
G01 X29.3640 Y45.5222
G01 X29.4332 Y45.5753
G01 X29.5068 Y45.6222
G01 X29.5842 Y45.6625
G01 X29.6648 Y45.6958
G01 X29.7480 Y45.7221
G01 X29.8332 Y45.7410
G01 X29.9197 Y45.7523
G01 X30.0068 Y45.7561
G01 X30.0940 Y45.7523
G01 X30.1805 Y45.7410
G01 X30.2656 Y45.7221
G01 X30.3488 Y45.6958
G01 X30.4294 Y45.6625
G01 X30.5068 Y45.6222
G01 X30.5804 Y45.5753
G01 X30.6496 Y45.5222
G01 X30.7139 Y45.4632
G01 X30.7729 Y45.3989
G01 X30.8260 Y45.3297
G01 X30.8728 Y45.2561
G01 X30.9131 Y45.1788
G01 X30.9465 Y45.0982
G01 X30.9727 Y45.0150
G01 X30.9916 Y44.9298
G01 X31.0030 Y44.8433
G01 X31.0068 Y44.7561
G01 X31.0176 Y44.7045 F1000
G01 X31.0256 Y44.6525
G01 X31.0310 Y44.6000
G01 X31.0337 Y44.5474
G01 Y44.4947
G01 X31.0309 Y44.4421
G01 X31.0255 Y44.3897
G01 X31.0173 Y44.3376
G01 X31.0044 Y44.2824
G01 X30.9887 Y44.2279
G01 X30.9703 Y44.1743
G01 X30.9492 Y44.1217
G01 X30.9254 Y44.0702
G01 X30.8991 Y44.0201
G01 X30.8703 Y43.9713
G01 X30.8390 Y43.9240
G01 X30.7971 Y43.8842
G01 X30.7534 Y43.8464
G01 X30.7079 Y43.8109
G01 X30.6606 Y43.7776
G01 X30.6118 Y43.7467
G01 X30.5616 Y43.7183
G01 X30.5100 Y43.6923
G01 X30.4572 Y43.6689
G01 X30.4033 Y43.6481
G01 X30.3484 Y43.6300
G01 X30.2928 Y43.6146
G01 X30.2364 Y43.6019
G01 X30.1795 Y43.5920
G01 X30.1222 Y43.5850
G01 X30.0646 Y43.5807
G01 X30.0068 Y43.5793
G01 X29.9491 Y43.5807
G01 X29.8915 Y43.5850
G01 X29.8341 Y43.5920
G01 X29.7772 Y43.6019
G01 X29.7209 Y43.6146
G01 X29.6652 Y43.6300
G01 X29.6104 Y43.6481
G01 X29.5565 Y43.6689
G01 X29.5037 Y43.6923
G01 X29.4521 Y43.7183
G01 X29.4018 Y43.7467
G01 X29.3530 Y43.7776
G01 X29.3058 Y43.8109
G01 X29.2602 Y43.8464
G01 X29.2165 Y43.8842
G01 X29.1747 Y43.9240
G01 X29.1348 Y43.9658
G01 X29.0971 Y44.0096
G01 X29.0616 Y44.0551
G01 X29.0283 Y44.1023
G01 X28.9974 Y44.1511
G01 X28.9689 Y44.2014
G01 X28.9430 Y44.2530
G01 X28.9196 Y44.3058
G01 X28.8988 Y44.3597
G01 X28.8807 Y44.4145
G01 X28.8652 Y44.4702
G01 X28.8526 Y44.5266
G01 X28.8427 Y44.5835
G01 X28.8356 Y44.6408
G01 X28.8314 Y44.6984
G01 X28.8300 Y44.7561
G01 X28.8314 Y44.8139
G01 X28.8356 Y44.8715
G01 X28.8427 Y44.9288
G01 X28.8526 Y44.9857
G01 X28.8652 Y45.0421
G01 X28.8807 Y45.0978
G01 X28.8988 Y45.1526
G01 X28.9196 Y45.2065
G01 X28.9430 Y45.2593
G01 X28.9689 Y45.3109
G01 X28.9974 Y45.3612
G01 X29.0283 Y45.4100
G01 X29.0616 Y45.4572
G01 X29.0971 Y45.5027
G01 X29.1348 Y45.5465
G01 X29.1747 Y45.5883
G01 X29.2165 Y45.6281
G01 X29.2602 Y45.6659
G01 X29.3058 Y45.7014
G01 X29.3530 Y45.7347
G01 X29.4018 Y45.7656
G01 X29.4521 Y45.7940
G01 X29.5037 Y45.8200
G01 X29.5565 Y45.8434
G01 X29.6104 Y45.8642
G01 X29.6652 Y45.8823
G01 X29.7209 Y45.8977
G01 X29.7772 Y45.9104
G01 X29.8341 Y45.9202
G01 X29.8915 Y45.9273
G01 X29.9491 Y45.9316
G01 X30.0068 Y45.9330
G01 X30.0646 Y45.9316
G01 X30.1222 Y45.9273
G01 X30.1795 Y45.9202
G01 X30.2364 Y45.9104
G01 X30.2928 Y45.8977
G01 X30.3484 Y45.8823
G01 X30.4033 Y45.8642
G01 X30.4572 Y45.8434
G01 X30.5100 Y45.8200
G01 X30.5616 Y45.7940
G01 X30.6118 Y45.7656
G01 X30.6606 Y45.7347
G01 X30.7079 Y45.7014
G01 X30.7534 Y45.6659
G01 X30.7971 Y45.6281
G01 X30.8390 Y45.5883
G01 X30.8788 Y45.5465
G01 X30.9165 Y45.5027
G01 X30.9521 Y45.4572
G01 X30.9853 Y45.4100
G01 X31.0162 Y45.3612
G01 X31.0447 Y45.3109
G01 X31.0707 Y45.2593
G01 X31.0941 Y45.2065
G01 X31.1149 Y45.1526
G01 X31.1330 Y45.0978
G01 X31.1484 Y45.0421
G01 X31.1610 Y44.9857
G01 X31.1709 Y44.9288
G01 X31.1780 Y44.8715
G01 X31.1822 Y44.8139
G01 X31.1837 Y44.7561
G01 X31.1792 Y44.6536
G01 X31.1658 Y44.5518
G01 X31.1436 Y44.4516
G01 X31.1127 Y44.3536
G01 X31.0734 Y44.2588
G01 X31.0260 Y44.1677
G01 X30.9708 Y44.0811
G01 X30.9083 Y43.9997
G01 X30.8390 Y43.9240
G01 X30.7633 Y43.8546
G01 X30.6818 Y43.7921
G01 X30.5952 Y43.7370
G01 X30.5042 Y43.6896
G01 X30.4093 Y43.6503
G01 X30.3114 Y43.6194
G01 X30.2112 Y43.5972
G01 X30.1094 Y43.5838
G01 X30.0068 Y43.5793
G01 X29.9043 Y43.5838
G01 X29.8025 Y43.5972
G01 X29.7022 Y43.6194
G01 X29.6043 Y43.6503
G01 X29.5095 Y43.6896
G01 X29.4184 Y43.7370
G01 X29.3318 Y43.7921
G01 X29.2504 Y43.8546
G01 X29.1747 Y43.9240
G01 X29.1053 Y43.9997
G01 X29.0428 Y44.0811
G01 X28.9876 Y44.1677
G01 X28.9402 Y44.2588
G01 X28.9009 Y44.3536
G01 X28.8701 Y44.4516
G01 X28.8479 Y44.5518
G01 X28.8345 Y44.6536
G01 X28.8300 Y44.7561
G01 X28.8345 Y44.8587
G01 X28.8479 Y44.9605
G01 X28.8701 Y45.0607
G01 X28.9009 Y45.1586
G01 X28.9402 Y45.2535
G01 X28.9876 Y45.3446
G01 X29.0428 Y45.4312
G01 X29.1053 Y45.5126
G01 X29.1747 Y45.5883
G01 X29.2504 Y45.6577
G01 X29.3318 Y45.7202
G01 X29.4184 Y45.7753
G01 X29.5095 Y45.8227
G01 X29.6043 Y45.8620
G01 X29.7022 Y45.8929
G01 X29.8025 Y45.9151
G01 X29.9043 Y45.9285
G01 X30.0068 Y45.9330
G01 X30.1094 Y45.9285
G01 X30.2112 Y45.9151
G01 X30.3114 Y45.8929
G01 X30.4093 Y45.8620
G01 X30.5042 Y45.8227
G01 X30.5952 Y45.7753
G01 X30.6818 Y45.7202
G01 X30.7633 Y45.6577
G01 X30.8390 Y45.5883
G01 X30.9083 Y45.5126
G01 X30.9708 Y45.4312
G01 X31.0260 Y45.3446
G01 X31.0734 Y45.2535
G01 X31.1127 Y45.1586
G01 X31.1436 Y45.0607
G01 X31.1658 Y44.9605
G01 X31.1792 Y44.8587
G01 X31.1837 Y44.7561
G01 X31.1795 Y44.6613
G01 X31.1671 Y44.5671
G01 X31.1466 Y44.4744
G01 X31.1180 Y44.3839
G01 X31.0817 Y44.2962
G01 X31.0378 Y44.2119
G01 X30.9868 Y44.1319
G01 X30.9290 Y44.0565
G01 X30.8649 Y43.9865
G01 X30.7949 Y43.9224
G01 X30.7195 Y43.8646
G01 X30.6395 Y43.8135
G01 X30.5552 Y43.7697
G01 X30.4675 Y43.7334
G01 X30.3769 Y43.7048
G01 X30.2842 Y43.6843
G01 X30.1901 Y43.6719
G01 X30.0952 Y43.6677
G01 X30.0004 Y43.6719
G01 X29.9062 Y43.6843
G01 X29.8135 Y43.7048
G01 X29.7230 Y43.7334
G01 X29.6353 Y43.7697
G01 X29.5510 Y43.8135
G01 X29.4709 Y43.8646
G01 X29.3956 Y43.9224
G01 X29.3256 Y43.9865
G01 X29.2615 Y44.0565
G01 X29.2037 Y44.1319
G01 X29.1526 Y44.2119
G01 X29.1088 Y44.2962
G01 X29.0725 Y44.3839
G01 X29.0439 Y44.4744
G01 X29.0234 Y44.5671
G01 X29.0110 Y44.6613
G01 X29.0068 Y44.7561
G01 X29.0079 Y44.8023
G01 X29.0111 Y44.8484
G01 X29.0164 Y44.8943
G01 X29.0238 Y44.9399
G01 X29.0334 Y44.9851
G01 X29.0450 Y45.0298
G01 X29.0587 Y45.0739
G01 X29.0743 Y45.1174
G01 X29.0920 Y45.1601
G01 X29.1117 Y45.2019
G01 X29.1332 Y45.2427
G01 X29.1566 Y45.2826
G01 X29.1818 Y45.3213
G01 X29.2088 Y45.3588
G01 X29.2375 Y45.3950
G01 X29.2678 Y45.4298
G01 X29.2997 Y45.4632
G01 X29.3331 Y45.4952
G01 X29.3680 Y45.5255
G01 X29.4042 Y45.5542
G01 X29.4417 Y45.5811
G01 X29.4804 Y45.6064
G01 X29.5202 Y45.6298
G01 X29.5611 Y45.6513
G01 X29.6029 Y45.6709
G01 X29.6456 Y45.6886
G01 X29.6890 Y45.7043
G01 X29.7332 Y45.7180
G01 X29.7779 Y45.7296
G01 X29.8231 Y45.7391
G01 X29.8687 Y45.7466
G01 X29.9146 Y45.7519
G01 X29.9606 Y45.7551
G01 X30.0068 Y45.7561
G01 X30.0530 Y45.7551
G01 X30.0991 Y45.7519
G01 X30.1450 Y45.7466
G01 X30.1906 Y45.7391
G01 X30.2358 Y45.7296
G01 X30.2805 Y45.7180
G01 X30.3246 Y45.7043
G01 X30.3681 Y45.6886
G01 X30.4107 Y45.6709
G01 X30.4526 Y45.6513
G01 X30.4934 Y45.6298
G01 X30.5333 Y45.6064
G01 X30.5720 Y45.5811
G01 X30.6095 Y45.5542
G01 X30.6457 Y45.5255
G01 X30.6805 Y45.4952
G01 X30.7139 Y45.4632
G01 X30.7458 Y45.4298
G01 X30.7762 Y45.3950
G01 X30.8048 Y45.3588
G01 X30.8318 Y45.3213
G01 X30.8570 Y45.2826
G01 X30.8804 Y45.2427
G01 X30.9020 Y45.2019
G01 X30.9216 Y45.1601
G01 X30.9393 Y45.1174
G01 X30.9550 Y45.0739
G01 X30.9686 Y45.0298
G01 X30.9803 Y44.9851
G01 X30.9898 Y44.9399
G01 X30.9972 Y44.8943
G01 X31.0026 Y44.8484
G01 X31.0058 Y44.8023
G01 X31.0068 Y44.7561
M107
M106 S240
G01 X31.0030 Y44.6690 Z-3.1921 F400
G01 X30.9916 Y44.5825 Z-3.2176
G01 X30.9727 Y44.4973 Z-3.2431
G01 X30.9465 Y44.4141 Z-3.2685
G01 X30.9131 Y44.3335 Z-3.2940
G01 X30.8728 Y44.2561 Z-3.3194
G01 X30.8260 Y44.1826 Z-3.3449
G01 X30.7729 Y44.1134 Z-3.3704
G01 X30.7139 Y44.0490 Z-3.3958
G01 X30.6496 Y43.9901 Z-3.4213
G01 X30.5804 Y43.9370 Z-3.4468
G01 X30.5068 Y43.8901 Z-3.4722
G01 X30.4294 Y43.8498 Z-3.4977
G01 X30.3488 Y43.8165 Z-3.5231
G01 X30.2656 Y43.7902 Z-3.5486
G01 X30.1805 Y43.7713 Z-3.5741
G01 X30.0940 Y43.7599 Z-3.5995
G01 X30.0068 Y43.7561 Z-3.6250
G01 X29.9197 Y43.7599 Z-3.6505
G01 X29.8332 Y43.7713 Z-3.6759
G01 X29.7480 Y43.7902 Z-3.7014
G01 X29.6648 Y43.8165 Z-3.7269
G01 X29.5842 Y43.8498 Z-3.7523
G01 X29.5068 Y43.8901 Z-3.7778
G01 X29.4332 Y43.9370 Z-3.8032
G01 X29.3640 Y43.9901 Z-3.8287
G01 X29.2997 Y44.0490 Z-3.8542
G01 X29.2408 Y44.1134 Z-3.8796
G01 X29.1877 Y44.1826 Z-3.9051
G01 X29.1408 Y44.2561 Z-3.9306
G01 X29.1005 Y44.3335 Z-3.9560
G01 X29.0671 Y44.4141 Z-3.9815
G01 X29.0409 Y44.4973 Z-4.0069
G01 X29.0220 Y44.5825 Z-4.0324
G01 X29.0106 Y44.6690 Z-4.0579
G01 X29.0068 Y44.7561 Z-4.0833
G01 X29.0106 Y44.8433 Z-4.1088
G01 X29.0220 Y44.9298 Z-4.1343
G01 X29.0409 Y45.0150 Z-4.1597
G01 X29.0671 Y45.0982 Z-4.1852
G01 X29.1005 Y45.1788 Z-4.2106
G01 X29.1408 Y45.2561 Z-4.2361
G01 X29.1877 Y45.3297 Z-4.2616
G01 X29.2408 Y45.3989 Z-4.2870
G01 X29.2997 Y45.4632 Z-4.3125
G01 X29.3640 Y45.5222 Z-4.3380
G01 X29.4332 Y45.5753 Z-4.3634
G01 X29.5068 Y45.6222 Z-4.3889
G01 X29.5842 Y45.6625 Z-4.4144
G01 X29.6648 Y45.6958 Z-4.4398
G01 X29.7480 Y45.7221 Z-4.4653
G01 X29.8332 Y45.7410 Z-4.4907
G01 X29.9197 Y45.7523 Z-4.5162
G01 X30.0068 Y45.7561 Z-4.5417
G01 X30.0940 Y45.7523 Z-4.5671
G01 X30.1805 Y45.7410 Z-4.5926
G01 X30.2656 Y45.7221 Z-4.6181
G01 X30.3488 Y45.6958 Z-4.6435
G01 X30.4294 Y45.6625 Z-4.6690
G01 X30.5068 Y45.6222 Z-4.6944
G01 X30.5804 Y45.5753 Z-4.7199
G01 X30.6496 Y45.5222 Z-4.7454
G01 X30.7139 Y45.4632 Z-4.7708
G01 X30.7729 Y45.3989 Z-4.7963
G01 X30.8260 Y45.3297 Z-4.8218
G01 X30.8728 Y45.2561 Z-4.8472
G01 X30.9131 Y45.1788 Z-4.8727
G01 X30.9465 Y45.0982 Z-4.8981
G01 X30.9727 Y45.0150 Z-4.9236
G01 X30.9916 Y44.9298 Z-4.9491
G01 X31.0030 Y44.8433 Z-4.9745
G01 X31.0068 Y44.7561 Z-5.0000
G01 X31.0030 Y44.6690
G01 X30.9916 Y44.5825
G01 X30.9727 Y44.4973
G01 X30.9465 Y44.4141
G01 X30.9131 Y44.3335
G01 X30.8728 Y44.2561
G01 X30.8260 Y44.1826
G01 X30.7729 Y44.1134
G01 X30.7139 Y44.0490
G01 X30.6496 Y43.9901
G01 X30.5804 Y43.9370
G01 X30.5068 Y43.8901
G01 X30.4294 Y43.8498
G01 X30.3488 Y43.8165
G01 X30.2656 Y43.7902
G01 X30.1805 Y43.7713
G01 X30.0940 Y43.7599
G01 X30.0068 Y43.7561
G01 X29.9197 Y43.7599
G01 X29.8332 Y43.7713
G01 X29.7480 Y43.7902
G01 X29.6648 Y43.8165
G01 X29.5842 Y43.8498
G01 X29.5068 Y43.8901
G01 X29.4332 Y43.9370
G01 X29.3640 Y43.9901
G01 X29.2997 Y44.0490
G01 X29.2408 Y44.1134
G01 X29.1877 Y44.1826
G01 X29.1408 Y44.2561
G01 X29.1005 Y44.3335
G01 X29.0671 Y44.4141
G01 X29.0409 Y44.4973
G01 X29.0220 Y44.5825
G01 X29.0106 Y44.6690
G01 X29.0068 Y44.7561
G01 X29.0106 Y44.8433
G01 X29.0220 Y44.9298
G01 X29.0409 Y45.0150
G01 X29.0671 Y45.0982
G01 X29.1005 Y45.1788
G01 X29.1408 Y45.2561
G01 X29.1877 Y45.3297
G01 X29.2408 Y45.3989
G01 X29.2997 Y45.4632
G01 X29.3640 Y45.5222
G01 X29.4332 Y45.5753
G01 X29.5068 Y45.6222
G01 X29.5842 Y45.6625
G01 X29.6648 Y45.6958
G01 X29.7480 Y45.7221
G01 X29.8332 Y45.7410
G01 X29.9197 Y45.7523
G01 X30.0068 Y45.7561
G01 X30.0940 Y45.7523
G01 X30.1805 Y45.7410
G01 X30.2656 Y45.7221
G01 X30.3488 Y45.6958
G01 X30.4294 Y45.6625
G01 X30.5068 Y45.6222
G01 X30.5804 Y45.5753
G01 X30.6496 Y45.5222
G01 X30.7139 Y45.4632
G01 X30.7729 Y45.3989
G01 X30.8260 Y45.3297
G01 X30.8728 Y45.2561
G01 X30.9131 Y45.1788
G01 X30.9465 Y45.0982
G01 X30.9727 Y45.0150
G01 X30.9916 Y44.9298
G01 X31.0030 Y44.8433
G01 X31.0068 Y44.7561
G01 X31.0176 Y44.7045 F1000
G01 X31.0256 Y44.6525
G01 X31.0310 Y44.6000
G01 X31.0337 Y44.5474
G01 Y44.4947
G01 X31.0309 Y44.4421
G01 X31.0255 Y44.3897
G01 X31.0173 Y44.3376
G01 X31.0044 Y44.2824
G01 X30.9887 Y44.2279
G01 X30.9703 Y44.1743
G01 X30.9492 Y44.1217
G01 X30.9254 Y44.0702
G01 X30.8991 Y44.0201
G01 X30.8703 Y43.9713
G01 X30.8390 Y43.9240
G01 X30.7971 Y43.8842
G01 X30.7534 Y43.8464
G01 X30.7079 Y43.8109
G01 X30.6606 Y43.7776
G01 X30.6118 Y43.7467
G01 X30.5616 Y43.7183
G01 X30.5100 Y43.6923
G01 X30.4572 Y43.6689
G01 X30.4033 Y43.6481
G01 X30.3484 Y43.6300
G01 X30.2928 Y43.6146
G01 X30.2364 Y43.6019
G01 X30.1795 Y43.5920
G01 X30.1222 Y43.5850
G01 X30.0646 Y43.5807
G01 X30.0068 Y43.5793
G01 X29.9491 Y43.5807
G01 X29.8915 Y43.5850
G01 X29.8341 Y43.5920
G01 X29.7772 Y43.6019
G01 X29.7209 Y43.6146
G01 X29.6652 Y43.6300
G01 X29.6104 Y43.6481
G01 X29.5565 Y43.6689
G01 X29.5037 Y43.6923
G01 X29.4521 Y43.7183
G01 X29.4018 Y43.7467
G01 X29.3530 Y43.7776
G01 X29.3058 Y43.8109
G01 X29.2602 Y43.8464
G01 X29.2165 Y43.8842
G01 X29.1747 Y43.9240
G01 X29.1348 Y43.9658
G01 X29.0971 Y44.0096
G01 X29.0616 Y44.0551
G01 X29.0283 Y44.1023
G01 X28.9974 Y44.1511
G01 X28.9689 Y44.2014
G01 X28.9430 Y44.2530
G01 X28.9196 Y44.3058
G01 X28.8988 Y44.3597
G01 X28.8807 Y44.4145
G01 X28.8652 Y44.4702
G01 X28.8526 Y44.5266
G01 X28.8427 Y44.5835
G01 X28.8356 Y44.6408
G01 X28.8314 Y44.6984
G01 X28.8300 Y44.7561
G01 X28.8314 Y44.8139
G01 X28.8356 Y44.8715
G01 X28.8427 Y44.9288
G01 X28.8526 Y44.9857
G01 X28.8652 Y45.0421
G01 X28.8807 Y45.0978
G01 X28.8988 Y45.1526
G01 X28.9196 Y45.2065
G01 X28.9430 Y45.2593
G01 X28.9689 Y45.3109
G01 X28.9974 Y45.3612
G01 X29.0283 Y45.4100
G01 X29.0616 Y45.4572
G01 X29.0971 Y45.5027
G01 X29.1348 Y45.5465
G01 X29.1747 Y45.5883
G01 X29.2165 Y45.6281
G01 X29.2602 Y45.6659
G01 X29.3058 Y45.7014
G01 X29.3530 Y45.7347
G01 X29.4018 Y45.7656
G01 X29.4521 Y45.7940
G01 X29.5037 Y45.8200
G01 X29.5565 Y45.8434
G01 X29.6104 Y45.8642
G01 X29.6652 Y45.8823
G01 X29.7209 Y45.8977
G01 X29.7772 Y45.9104
G01 X29.8341 Y45.9202
G01 X29.8915 Y45.9273
G01 X29.9491 Y45.9316
G01 X30.0068 Y45.9330
G01 X30.0646 Y45.9316
G01 X30.1222 Y45.9273
G01 X30.1795 Y45.9202
G01 X30.2364 Y45.9104
G01 X30.2928 Y45.8977
G01 X30.3484 Y45.8823
G01 X30.4033 Y45.8642
G01 X30.4572 Y45.8434
G01 X30.5100 Y45.8200
G01 X30.5616 Y45.7940
G01 X30.6118 Y45.7656
G01 X30.6606 Y45.7347
G01 X30.7079 Y45.7014
G01 X30.7534 Y45.6659
G01 X30.7971 Y45.6281
G01 X30.8390 Y45.5883
G01 X30.8788 Y45.5465
G01 X30.9165 Y45.5027
G01 X30.9521 Y45.4572
G01 X30.9853 Y45.4100
G01 X31.0162 Y45.3612
G01 X31.0447 Y45.3109
G01 X31.0707 Y45.2593
G01 X31.0941 Y45.2065
G01 X31.1149 Y45.1526
G01 X31.1330 Y45.0978
G01 X31.1484 Y45.0421
G01 X31.1610 Y44.9857
G01 X31.1709 Y44.9288
G01 X31.1780 Y44.8715
G01 X31.1822 Y44.8139
G01 X31.1837 Y44.7561
G01 X31.1792 Y44.6536
G01 X31.1658 Y44.5518
G01 X31.1436 Y44.4516
G01 X31.1127 Y44.3536
G01 X31.0734 Y44.2588
G01 X31.0260 Y44.1677
G01 X30.9708 Y44.0811
G01 X30.9083 Y43.9997
G01 X30.8390 Y43.9240
G01 X30.7633 Y43.8546
G01 X30.6818 Y43.7921
G01 X30.5952 Y43.7370
G01 X30.5042 Y43.6896
G01 X30.4093 Y43.6503
G01 X30.3114 Y43.6194
G01 X30.2112 Y43.5972
G01 X30.1094 Y43.5838
G01 X30.0068 Y43.5793
G01 X29.9043 Y43.5838
G01 X29.8025 Y43.5972
G01 X29.7022 Y43.6194
G01 X29.6043 Y43.6503
G01 X29.5095 Y43.6896
G01 X29.4184 Y43.7370
G01 X29.3318 Y43.7921
G01 X29.2504 Y43.8546
G01 X29.1747 Y43.9240
G01 X29.1053 Y43.9997
G01 X29.0428 Y44.0811
G01 X28.9876 Y44.1677
G01 X28.9402 Y44.2588
G01 X28.9009 Y44.3536
G01 X28.8701 Y44.4516
G01 X28.8479 Y44.5518
G01 X28.8345 Y44.6536
G01 X28.8300 Y44.7561
G01 X28.8345 Y44.8587
G01 X28.8479 Y44.9605
G01 X28.8701 Y45.0607
G01 X28.9009 Y45.1586
G01 X28.9402 Y45.2535
G01 X28.9876 Y45.3446
G01 X29.0428 Y45.4312
G01 X29.1053 Y45.5126
G01 X29.1747 Y45.5883
G01 X29.2504 Y45.6577
G01 X29.3318 Y45.7202
G01 X29.4184 Y45.7753
G01 X29.5095 Y45.8227
G01 X29.6043 Y45.8620
G01 X29.7022 Y45.8929
G01 X29.8025 Y45.9151
G01 X29.9043 Y45.9285
G01 X30.0068 Y45.9330
G01 X30.1094 Y45.9285
G01 X30.2112 Y45.9151
G01 X30.3114 Y45.8929
G01 X30.4093 Y45.8620
G01 X30.5042 Y45.8227
G01 X30.5952 Y45.7753
G01 X30.6818 Y45.7202
G01 X30.7633 Y45.6577
G01 X30.8390 Y45.5883
G01 X30.9083 Y45.5126
G01 X30.9708 Y45.4312
G01 X31.0260 Y45.3446
G01 X31.0734 Y45.2535
G01 X31.1127 Y45.1586
G01 X31.1436 Y45.0607
G01 X31.1658 Y44.9605
G01 X31.1792 Y44.8587
G01 X31.1837 Y44.7561
M107
M106 S240
G01 X31.1806 Y44.6777 Z-4.9750 F400
M107
M106 S240
G01 X31.1714 Y44.5997 Z-4.9500
M107
M106 S240
G01 X31.1560 Y44.5227 Z-4.9250
M107
M106 S240
G01 X31.1347 Y44.4471 Z-4.9000
M107
M106 S240
G01 X31.1075 Y44.3735 Z-4.8750
M107
M106 S240
G01 X31.0747 Y44.3022 Z-4.8500
M107
M106 S240
G01 X31.0363 Y44.2336 Z-4.8250
M107
M106 S240
G01 X30.9927 Y44.1684 Z-4.8000
M107
M106 S240
G01 X30.9441 Y44.1067 Z-4.7750
M107
M106 S240
G01 X30.8908 Y44.0490 Z-4.7500
M107
M106 S240
G01 X30.8331 Y43.9957 Z-4.7250
M107
M106 S240
G01 X30.7714 Y43.9471 Z-4.7000
M107
M106 S240
G01 X30.7062 Y43.9035 Z-4.6750
M107
M106 S240
G01 X30.6377 Y43.8651 Z-4.6500
M107
M106 S240
G01 X30.5663 Y43.8323 Z-4.6250
M107
M106 S240
G01 X30.4927 Y43.8051 Z-4.6000
M107
M106 S240
G01 X30.4171 Y43.7838 Z-4.5750
M107
M106 S240
G01 X30.3401 Y43.7685 Z-4.5500
M107
M106 S240
G01 X30.2621 Y43.7592 Z-4.5250
M107
M106 S240
G01 X30.1837 Y43.7561 Z-4.5000
M107
G00 Z2.0000


;No. 2: Hole 49
G00 X54.0177 Y46.3521 Z2.0000
G00 Z0.5000
G01 Z0.0000 F400
G01 Z-1.1000
M106 S240
G01 X71.7207 F1000
G01 Y47.8521
G01 X70.4603
G01 X70.4723 Y49.3521
G01 X71.7207
G01 Y50.8521
G01 X70.4723
G01 Y52.3521
G01 X71.7207
M107
G00 Z2.0000
G00 X55.2780 Y46.3521
G00 Z0.5000
G01 Z-1.1000 F400
M106 S240
G01 Y47.8521 F1000
G01 X54.0177
G01 Y49.3521
G01 X55.2661
G01 Y50.8521
G01 X54.0177
G01 Y52.3521
G01 X55.2661
G01 X55.5061 Y52.3408
G01 Y48.0284
G01 X55.5097 Y47.9342
G01 X55.5208 Y47.8406
G01 X55.5392 Y47.7482
G01 X55.5648 Y47.6575
G01 X55.5974 Y47.5691
G01 X55.6368 Y47.4836
G01 X55.6829 Y47.4014
G01 X55.7352 Y47.3230
G01 X55.7936 Y47.2490
G01 X55.8575 Y47.1798
G01 X55.9267 Y47.1159
G01 X56.0007 Y47.0575
G01 X56.0791 Y47.0052
G01 X56.1613 Y46.9592
G01 X56.2468 Y46.9197
G01 X56.3352 Y46.8871
G01 X56.4259 Y46.8615
G01 X56.5183 Y46.8431
G01 X56.6119 Y46.8321
G01 X56.7061 Y46.8284
G01 X69.0323
G01 X69.1264 Y46.8321
G01 X69.2200 Y46.8431
G01 X69.3124 Y46.8615
G01 X69.4031 Y46.8871
G01 X69.4915 Y46.9197
G01 X69.5771 Y46.9592
G01 X69.6593 Y47.0052
G01 X69.7376 Y47.0575
G01 X69.8116 Y47.1159
G01 X69.8808 Y47.1798
G01 X69.9448 Y47.2490
G01 X70.0031 Y47.3230
G01 X70.0554 Y47.4014
G01 X70.1015 Y47.4836
G01 X70.1409 Y47.5691
G01 X70.1735 Y47.6575
G01 X70.1991 Y47.7482
G01 X70.2175 Y47.8406
G01 X70.2286 Y47.9342
G01 X70.2323 Y48.0284
G01 Y53.9369
G01 X71.9607
G01 Y44.7674
G01 X53.7777
G01 Y53.9369
G01 X55.5061
G01 Y52.3408
G01 X55.2661 Y52.3521
M107
G00 Z2.0000


;No. 3: Hole 49
G00 X53.7777 Y44.7674 Z2.0000
G00 Z0.5000
G01 Z-1.1000 F400
M106 S240
G01 X53.5777 Y44.5674 F1000
G01 Y54.1369
G01 X55.7061
G01 Y48.0284
G01 X55.7091 Y47.9499
G01 X55.7184 Y47.8719
G01 X55.7337 Y47.7949
G01 X55.7550 Y47.7193
G01 X55.7822 Y47.6457
G01 X55.8150 Y47.5744
G01 X55.8534 Y47.5059
G01 X55.8970 Y47.4406
G01 X55.9456 Y47.3789
G01 X55.9989 Y47.3213
G01 X56.0566 Y47.2680
G01 X56.1183 Y47.2193
G01 X56.1836 Y47.1757
G01 X56.2521 Y47.1374
G01 X56.3234 Y47.1045
G01 X56.3970 Y47.0773
G01 X56.4726 Y47.0560
G01 X56.5496 Y47.0407
G01 X56.6276 Y47.0314
G01 X56.7061 Y47.0284
G01 X69.0323
G01 X69.1107 Y47.0314
G01 X69.1887 Y47.0407
G01 X69.2657 Y47.0560
G01 X69.3413 Y47.0773
G01 X69.4150 Y47.1045
G01 X69.4863 Y47.1374
G01 X69.5548 Y47.1757
G01 X69.6201 Y47.2193
G01 X69.6817 Y47.2680
G01 X69.7394 Y47.3213
G01 X69.7927 Y47.3789
G01 X69.8413 Y47.4406
G01 X69.8849 Y47.5059
G01 X69.9233 Y47.5744
G01 X69.9562 Y47.6457
G01 X69.9833 Y47.7193
G01 X70.0046 Y47.7949
G01 X70.0200 Y47.8719
G01 X70.0292 Y47.9499
G01 X70.0323 Y48.0284
G01 Y54.1369
G01 X72.1607
G01 Y44.5674
G01 X53.5777
G01 X53.7777 Y44.7674
M107
G00 Z0.0000
G00 Z2.0000


;No. 4: Hole 48
G00 X54.6309 Y60.0158 Z2.0000
G00 Z0.5000
G01 Z0.0000 F400
G01 Z-1.1000
M106 S240
G01 X71.0883 F1000
G01 X71.2598 Y59.8474
G01 X71.1746 Y59.7496
G01 X71.0841 Y59.6566
G01 X70.9886 Y59.5686
G01 X70.8885 Y59.4861
G01 X70.7840 Y59.4091
G01 X70.6755 Y59.3380
G01 X70.5632 Y59.2730
G01 X70.4475 Y59.2142
G01 X70.3288 Y59.1619
G01 X70.2073 Y59.1161
G01 X70.0836 Y59.0771
G01 X69.9579 Y59.0449
G01 X69.8306 Y59.0197
G01 X69.7021 Y59.0014
G01 X69.5728 Y58.9903
G01 X69.4431 Y58.9862
G01 X56.3006
G01 X56.1707 Y58.9908
G01 X56.0411 Y59.0021
G01 X55.9124 Y59.0202
G01 X55.7847 Y59.0451
G01 X55.6586 Y59.0766
G01 X55.5342 Y59.1146
G01 X55.4121 Y59.1592
G01 X55.2924 Y59.2101
G01 X55.1756 Y59.2671
G01 X55.0619 Y59.3303
G01 X54.9517 Y59.3993
G01 X54.8453 Y59.4740
G01 X54.7429 Y59.5541
G01 X54.6449 Y59.6396
G01 X54.5515 Y59.7300
G01 X54.4629 Y59.8252
G01 X54.3795 Y59.9250
G01 X54.3014 Y60.0289
G01 X54.2289 Y60.1368
G01 X54.1621 Y60.2484
G01 X54.1013 Y60.3633
G01 X54.0465 Y60.4813
G01 X53.9981 Y60.6019
G01 X53.9560 Y60.7250
G01 X53.9277 Y60.8032
G01 X53.9035 Y60.8828
G01 X53.8834 Y60.9636
G01 X53.8677 Y61.0453
G01 X71.8764 Y61.0437
G01 X71.8486 Y60.9338
G01 X71.8163 Y60.8252
G01 X71.7796 Y60.7180
G01 X71.7384 Y60.6125
G01 X71.6928 Y60.5087
G01 X71.6430 Y60.4069
G01 X71.5890 Y60.3073
G01 X71.5309 Y60.2100
G01 X71.4688 Y60.1152
G01 X71.4029 Y60.0231
G01 X71.3332 Y59.9338
G01 X71.2598 Y59.8474
G01 X71.0883 Y60.0158
M107
G00 Z2.0000


;No. 5: Hole 48
G00 X54.6795 Y59.6149 Z2.0000
G00 Z0.5000
G01 Z-1.1000 F400
M106 S240
G01 X54.5435 Y59.4683 F1000
G01 X54.4525 Y59.5575
G01 X54.3655 Y59.6505
G01 X54.2825 Y59.7471
G01 X54.2036 Y59.8472
G01 X54.1291 Y59.9505
G01 X54.0591 Y60.0569
G01 X53.9936 Y60.1661
G01 X53.9328 Y60.2781
G01 X53.8769 Y60.3926
G01 X53.8259 Y60.5093
G01 X53.7799 Y60.6281
G01 X53.7390 Y60.7487
G01 X53.7033 Y60.8710
G01 X53.6728 Y60.9947
G01 X53.6476 Y61.1195
G01 X53.6277 Y61.2453
G01 X72.1109 Y61.2454
G01 X72.1157 Y61.2225
G01 X72.0912 Y61.0792
G01 X72.0595 Y60.9373
G01 X72.0207 Y60.7972
G01 X71.9748 Y60.6592
G01 X71.9221 Y60.5237
G01 X71.8625 Y60.3911
G01 X71.7964 Y60.2616
G01 X71.7238 Y60.1356
G01 X71.6449 Y60.0134
G01 X71.5600 Y59.8954
G01 X71.4693 Y59.7818
G01 X71.3729 Y59.6730
G01 X71.2711 Y59.5691
G01 X71.1643 Y59.4705
G01 X71.0526 Y59.3774
G01 X70.9363 Y59.2901
G01 X70.8158 Y59.2088
G01 X70.6913 Y59.1336
G01 X70.5632 Y59.0648
G01 X70.4318 Y59.0026
G01 X70.2975 Y58.9471
G01 X70.1605 Y58.8984
G01 X70.0212 Y58.8567
G01 X69.8799 Y58.8221
G01 X69.7718 Y58.8062
G01 X69.6630 Y58.7949
G01 X69.5538 Y58.7883
G01 X69.4445 Y58.7862
G01 X56.2994
G01 X56.1787 Y58.7870
G01 X56.0582 Y58.7937
G01 X55.9381 Y58.8062
G01 X55.8187 Y58.8245
G01 X55.7004 Y58.8485
G01 X55.5834 Y58.8783
G01 X55.4680 Y58.9137
G01 X55.3544 Y58.9547
G01 X55.2430 Y59.0011
G01 X55.1339 Y59.0529
G01 X55.0275 Y59.1099
G01 X54.9240 Y59.1720
G01 X54.8236 Y59.2391
G01 X54.7265 Y59.3109
G01 X54.6331 Y59.3874
G01 X54.5435 Y59.4683
G01 X54.6795 Y59.6149
M107
G00 Z0.0000
G00 Z2.0000


;No. 6: Hole 50
G00 X79.3821 Y59.6564 Z2.0000
G00 Z0.5000
G01 Z0.0000 F400
G01 Z-1.1000
M106 S240
G01 X81.5786 F1000
G01 X80.3414 Y58.1564
G01 X82.9674
G01 X84.3561 Y56.6564
G01 X80.3457
G01 Y55.1564
G01 X85.7448
G01 X84.9370 Y53.6564
G01 X87.1336
G01 X86.3257 Y52.1564
G01 X88.5223
G01 X87.7144 Y50.6564
G01 X89.9110
G01 X89.1032 Y49.1564
G01 X91.4271
G01 X90.4919 Y47.6564
G01 X94.7581
G01 Y46.1564
G01 X91.8806
G01 X92.7122 Y49.1564
G01 X94.7581
G01 Y50.6564
G01 X93.5097
G01 Y52.1564
G01 X94.7581
G01 Y53.6564
G01 X93.5097
G01 Y55.1564
G01 X94.7581
G01 Y56.6564
G01 X93.5097
G01 Y58.1564
G01 X94.7581
G01 Y59.6564
G01 X93.5097
M107
G00 Z2.0000
G00 X81.5965 Y55.1564
G00 Z0.5000
G01 Z-1.1000 F400
M106 S240
G01 Y53.6564 F1000
G01 X80.3457
G01 Y52.1564
G01 X81.5941
G01 Y50.6564
G01 X80.3457
G01 Y49.1564
G01 X81.5941
G01 Y47.6564
G01 X80.3457
G01 Y46.1564
G01 X81.5941
G01 X81.8341 Y46.1731
G01 Y44.7674
G01 X80.1057
G01 Y58.0513
G01 X80.1034 Y58.1259
G01 X80.0964 Y58.2003
G01 X80.0848 Y58.2741
G01 X80.0687 Y58.3470
G01 X80.0480 Y58.4187
G01 X80.0230 Y58.4891
G01 X79.9936 Y58.5577
G01 X79.9600 Y58.6244
G01 X79.9223 Y58.6889
G01 X79.8807 Y58.7509
G01 X79.8352 Y58.8102
G01 X79.7862 Y58.8665
G01 X77.7691 Y61.0453
G01 X80.6198
G01 X91.1891 Y49.6292
G01 X91.2620 Y49.5569
G01 X91.3408 Y49.4912
G01 X91.4248 Y49.4324
G01 X91.5136 Y49.3810
G01 X91.6065 Y49.3374
G01 X91.7028 Y49.3019
G01 X91.8017 Y49.2747
G01 X91.9026 Y49.2561
G01 X92.0047 Y49.2462
G01 X92.1073 Y49.2450
G01 X92.2096 Y49.2526
G01 X92.3109 Y49.2689
G01 X92.4105 Y49.2938
G01 X92.5075 Y49.3271
G01 X92.6013 Y49.3686
G01 X92.6913 Y49.4179
G01 X92.7767 Y49.4748
G01 X92.8569 Y49.5387
G01 X92.9314 Y49.6093
G01 X92.9996 Y49.6859
G01 X93.0610 Y49.7681
G01 X93.1151 Y49.8553
G01 X93.1616 Y49.9467
G01 X93.2002 Y50.0418
G01 X93.2304 Y50.1399
G01 X93.2522 Y50.2401
G01 X93.2653 Y50.3419
G01 X93.2697 Y50.4444
G01 Y61.0453
G01 X94.9981
G01 Y44.7674
G01 X92.8395
G01 X83.9146 Y54.4074
G01 X83.8418 Y54.4796
G01 X83.7630 Y54.5454
G01 X83.6789 Y54.6042
G01 X83.5901 Y54.6555
G01 X83.4972 Y54.6991
G01 X83.4010 Y54.7347
G01 X83.3020 Y54.7618
G01 X83.2012 Y54.7805
G01 X83.0990 Y54.7904
G01 X82.9964 Y54.7916
G01 X82.8941 Y54.7840
G01 X82.7928 Y54.7676
G01 X82.6933 Y54.7427
G01 X82.5963 Y54.7094
G01 X82.5024 Y54.6680
G01 X82.4125 Y54.6186
G01 X82.3271 Y54.5618
G01 X82.2468 Y54.4978
G01 X82.1723 Y54.4273
G01 X82.1041 Y54.3506
G01 X82.0428 Y54.2684
G01 X81.9886 Y54.1813
G01 X81.9421 Y54.0898
G01 X81.9036 Y53.9947
G01 X81.8733 Y53.8967
G01 X81.8516 Y53.7964
G01 X81.8384 Y53.6946
G01 X81.8341 Y53.5921
G01 Y46.1731
G01 X81.5941 Y46.1564
M107
G00 Z2.0000


;No. 7: Hole 50
G00 X80.1057 Y44.7674 Z2.0000
G00 Z0.5000
G01 Z-1.1000 F400
M106 S240
G01 X79.9057 Y44.5674 F1000
G01 Y58.0513
G01 X79.9013 Y58.1445
G01 X79.8883 Y58.2369
G01 X79.8667 Y58.3277
G01 X79.8368 Y58.4161
G01 X79.7987 Y58.5013
G01 X79.7528 Y58.5826
G01 X79.6996 Y58.6593
G01 X79.6395 Y58.7307
G01 X77.3113 Y61.2453
G01 X80.7072
G01 X91.3359 Y49.7650
G01 X91.3680 Y49.7320
G01 X91.4015 Y49.7004
G01 X91.4364 Y49.6704
G01 X91.4727 Y49.6421
G01 X91.5103 Y49.6155
G01 X91.5491 Y49.5906
G01 X91.5889 Y49.5676
G01 X91.6298 Y49.5463
G01 X91.6716 Y49.5270
G01 X91.7143 Y49.5097
G01 X91.7577 Y49.4943
G01 X91.8017 Y49.4810
G01 X91.8464 Y49.4697
G01 X91.8915 Y49.4604
G01 X91.9370 Y49.4532
G01 X91.9827 Y49.4482
G01 X92.0287 Y49.4452
G01 X92.0747 Y49.4444
G01 X92.1208 Y49.4457
G01 X92.1667 Y49.4491
G01 X92.2124 Y49.4546
G01 X92.2578 Y49.4622
G01 X92.3028 Y49.4720
G01 X92.3473 Y49.4837
G01 X92.3913 Y49.4975
G01 X92.4345 Y49.5133
G01 X92.4770 Y49.5311
G01 X92.5186 Y49.5508
G01 X92.5593 Y49.5724
G01 X92.5989 Y49.5959
G01 X92.6374 Y49.6212
G01 X92.6747 Y49.6482
G01 X92.7107 Y49.6769
G01 X92.7454 Y49.7072
G01 X92.7786 Y49.7391
G01 X92.8103 Y49.7725
G01 X92.8404 Y49.8073
G01 X92.8690 Y49.8434
G01 X92.8958 Y49.8808
G01 X92.9208 Y49.9195
G01 X92.9441 Y49.9592
G01 X92.9655 Y50.0000
G01 X92.9850 Y50.0417
G01 X93.0026 Y50.0843
G01 X93.0182 Y50.1276
G01 X93.0318 Y50.1716
G01 X93.0433 Y50.2162
G01 X93.0528 Y50.2612
G01 X93.0602 Y50.3067
G01 X93.0655 Y50.3524
G01 X93.0686 Y50.3984
G01 X93.0697 Y50.4444
G01 Y61.2453
G01 X95.1981
G01 Y44.5674
G01 X92.7521
G01 X83.7679 Y54.2715
G01 X83.7358 Y54.3046
G01 X83.7023 Y54.3361
G01 X83.6673 Y54.3661
G01 X83.6310 Y54.3944
G01 X83.5934 Y54.4211
G01 X83.5547 Y54.4459
G01 X83.5148 Y54.4690
G01 X83.4740 Y54.4902
G01 X83.4321 Y54.5095
G01 X83.3895 Y54.5268
G01 X83.3461 Y54.5422
G01 X83.3020 Y54.5556
G01 X83.2574 Y54.5669
G01 X83.2123 Y54.5761
G01 X83.1668 Y54.5833
G01 X83.1210 Y54.5884
G01 X83.0751 Y54.5913
G01 X83.0290 Y54.5921
G01 X82.9830 Y54.5908
G01 X82.9371 Y54.5874
G01 X82.8914 Y54.5819
G01 X82.8459 Y54.5743
G01 X82.8009 Y54.5646
G01 X82.7564 Y54.5528
G01 X82.7125 Y54.5390
G01 X82.6692 Y54.5232
G01 X82.6268 Y54.5054
G01 X82.5851 Y54.4857
G01 X82.5445 Y54.4641
G01 X82.5049 Y54.4406
G01 X82.4664 Y54.4154
G01 X82.4291 Y54.3884
G01 X82.3931 Y54.3597
G01 X82.3584 Y54.3294
G01 X82.3252 Y54.2975
G01 X82.2935 Y54.2641
G01 X82.2633 Y54.2293
G01 X82.2348 Y54.1931
G01 X82.2080 Y54.1557
G01 X82.1829 Y54.1171
G01 X82.1596 Y54.0773
G01 X82.1382 Y54.0366
G01 X82.1187 Y53.9948
G01 X82.1012 Y53.9523
G01 X82.0856 Y53.9090
G01 X82.0720 Y53.8650
G01 X82.0605 Y53.8204
G01 X82.0510 Y53.7753
G01 X82.0436 Y53.7299
G01 X82.0383 Y53.6841
G01 X82.0351 Y53.6382
G01 X82.0341 Y53.5921
G01 Y44.5674
G01 X79.9057
G01 X80.1057 Y44.7674
M107
G00 Z0.0000
G00 Z2.0000


;No. 8: Hole 51
G00 X100.0909 Y46.1564 Z2.0000
G00 Z0.5000
G01 Z0.0000 F400
G01 Z-1.1000
M106 S240
G01 X117.4237 F1000
G01 X101.3908
G01 Y47.6564
G01 X100.0909
G01 Y49.1564
G01 X101.3409
G01 Y50.6564
G01 X100.0909
G01 Y52.1564
G01 X101.3409
G01 Y53.6564
G01 X100.0909
G01 Y55.1564
G01 X101.3409
G01 Y56.6564
G01 X100.0909
G01 Y58.1564
G01 X101.3409
G01 Y59.6564
G01 X100.0909
G01 X99.8509 Y59.6377
G01 Y61.0453
G01 X101.5809
G01 Y48.0284
G01 X101.5846 Y47.9337
G01 X101.5958 Y47.8397
G01 X101.6144 Y47.7468
G01 X101.6402 Y47.6556
G01 X101.6732 Y47.5668
G01 X101.7131 Y47.4809
G01 X101.7596 Y47.3984
G01 X101.8124 Y47.3198
G01 X101.8713 Y47.2456
G01 X101.9359 Y47.1763
G01 X102.0057 Y47.1123
G01 X102.0804 Y47.0540
G01 X102.1594 Y47.0018
G01 X102.2424 Y46.9560
G01 X102.3286 Y46.9168
G01 X102.4177 Y46.8846
G01 X102.5090 Y46.8595
G01 X102.6021 Y46.8417
G01 X102.6962 Y46.8313
G01 X102.7909 Y46.8284
G01 X117.9505 Y46.8256
G01 X117.9128 Y46.6757
G01 X117.8665 Y46.5282
G01 X117.8116 Y46.3837
G01 X117.7484 Y46.2426
G01 X117.6771 Y46.1054
G01 X117.5980 Y45.9727
G01 X117.5112 Y45.8447
G01 X117.4172 Y45.7220
G01 X117.3162 Y45.6050
G01 X117.2085 Y45.4941
G01 X117.0946 Y45.3897
G01 X116.9747 Y45.2920
G01 X116.8494 Y45.2015
G01 X116.7190 Y45.1184
G01 X116.5841 Y45.0431
G01 X116.4449 Y44.9758
G01 X116.3021 Y44.9166
G01 X116.1561 Y44.8659
G01 X116.0073 Y44.8238
G01 X115.8564 Y44.7904
G01 X115.7721 Y44.7802
G01 X115.6875 Y44.7729
G01 X115.6027 Y44.7687
G01 X115.5177 Y44.7674
G01 X99.8509
G01 Y59.6377
G01 X100.0909 Y59.6564
M107
G00 Z2.0000


;No. 9: Hole 51
G00 X99.8509 Y44.7674 Z2.0000
G00 Z0.5000
G01 Z-1.1000 F400
M106 S240
G01 X99.6509 Y44.5674 F1000
G01 Y61.2453
G01 X101.7809
G01 Y48.0284
G01 X101.7840 Y47.9499
G01 X101.7932 Y47.8719
G01 X101.8085 Y47.7949
G01 X101.8298 Y47.7193
G01 X101.8570 Y47.6457
G01 X101.8899 Y47.5744
G01 X101.9282 Y47.5059
G01 X101.9719 Y47.4406
G01 X102.0205 Y47.3789
G01 X102.0738 Y47.3213
G01 X102.1314 Y47.2680
G01 X102.1931 Y47.2193
G01 X102.2584 Y47.1757
G01 X102.3269 Y47.1374
G01 X102.3982 Y47.1045
G01 X102.4719 Y47.0773
G01 X102.5474 Y47.0560
G01 X102.6245 Y47.0407
G01 X102.7024 Y47.0314
G01 X102.7809 Y47.0284
G01 X118.1855
G01 X118.1900 Y47.0042
G01 X118.1658 Y46.8638
G01 X118.1347 Y46.7248
G01 X118.0968 Y46.5875
G01 X118.0522 Y46.4522
G01 X118.0010 Y46.3192
G01 X117.9434 Y46.1890
G01 X117.8794 Y46.0617
G01 X117.8092 Y45.9377
G01 X117.7330 Y45.8174
G01 X117.6509 Y45.7009
G01 X117.5633 Y45.5886
G01 X117.4702 Y45.4808
G01 X117.3719 Y45.3776
G01 X117.2687 Y45.2795
G01 X117.1608 Y45.1865
G01 X117.0484 Y45.0989
G01 X116.9318 Y45.0170
G01 X116.8114 Y44.9410
G01 X116.6873 Y44.8709
G01 X116.5600 Y44.8070
G01 X116.4297 Y44.7495
G01 X116.2967 Y44.6984
G01 X116.1614 Y44.6540
G01 X116.0240 Y44.6162
G01 X115.8988 Y44.5946
G01 X115.7728 Y44.5792
G01 X115.6461 Y44.5701
G01 X115.5191 Y44.5674
G01 X99.6509
G01 X99.8509 Y44.7674
M107
G00 Z0.0000
G00 Z2.0000


;No. 10: Hole 52
G00 X123.5534 Y58.1564 Z2.0000
G00 Z0.5000
G01 Z0.0000 F400
G01 Z-1.1000
M106 S240
G01 X125.7500 F1000
G01 X124.9421 Y56.6564
G01 X127.1387
G01 X126.3308 Y55.1564
G01 X128.5275
G01 X127.7196 Y53.6564
G01 X129.9162
G01 X129.1083 Y52.1564
G01 X131.6054
G01 X130.4970 Y50.6564
G01 X133.4625
G01 X132.6040
G01 Y49.1564
G01 X131.3556
G01 Y47.6564
G01 X132.6040
G01 Y46.1564
G01 X131.3556
M107
G00 Z2.0000
G00 X132.3557 Y50.6564
G00 Z0.5000
G01 Z-1.1000 F400
M106 S240
G01 Y52.1564 F1000
G01 X134.8512
G01 X134.0447 Y53.6564
G01 X136.2400
G01 X135.4331 Y55.1564
G01 X137.6287
G01 X136.8215 Y56.6564
G01 X139.0174
G01 X138.2098 Y58.1564
G01 X140.4062
G01 X140.8313 Y59.6564
G01 X139.4741
M107
G00 Z2.0000
G00 X124.4854 Y58.1564
G00 Z0.5000
G01 Z-1.1000 F400
M106 S240
G01 Y59.6564 F1000
G01 X123.1283
G01 X122.8883 Y59.6609
G01 Y61.0453
G01 X124.6167
G01 X124.5975 Y60.7793
G01 X124.5946 Y60.5126
G01 X124.6080 Y60.2463
G01 X124.6375 Y59.9812
G01 X124.6560 Y59.8993
G01 X124.6802 Y59.8188
G01 X124.7099 Y59.7402
G01 X124.7451 Y59.6639
G01 X124.7855 Y59.5903
G01 X124.8309 Y59.5196
G01 X124.8812 Y59.4524
G01 X124.9361 Y59.3887
G01 X131.1000 Y52.7309
G01 X131.1701 Y52.6612
G01 X131.2457 Y52.5975
G01 X131.3263 Y52.5403
G01 X131.4113 Y52.4898
G01 X131.5002 Y52.4466
G01 X131.5923 Y52.4107
G01 X131.6871 Y52.3826
G01 X131.7838 Y52.3624
G01 X131.8819 Y52.3503
G01 X131.9807 Y52.3462
G01 X132.0794 Y52.3503
G01 X132.1775 Y52.3625
G01 X132.2743 Y52.3827
G01 X132.3691 Y52.4108
G01 X132.4612 Y52.4466
G01 X132.5500 Y52.4899
G01 X132.6350 Y52.5404
G01 X132.7156 Y52.5976
G01 X132.7912 Y52.6613
G01 X132.8613 Y52.7311
G01 X139.0236 Y59.3889
G01 X139.0725 Y59.4452
G01 X139.1179 Y59.5045
G01 X139.1595 Y59.5665
G01 X139.1972 Y59.6309
G01 X139.2308 Y59.6976
G01 X139.2602 Y59.7663
G01 X139.2853 Y59.8366
G01 X139.3059 Y59.9084
G01 X139.3220 Y59.9813
G01 X139.3336 Y60.0550
G01 X139.3406 Y60.1294
G01 X139.3429 Y60.2040
G01 Y61.0453
G01 X141.0713
G01 Y58.5215
G01 X133.1634 Y49.9800
G01 X133.1144 Y49.9237
G01 X133.0690 Y49.8644
G01 X133.0274 Y49.8024
G01 X132.9897 Y49.7379
G01 X132.9561 Y49.6712
G01 X132.9267 Y49.6026
G01 X132.9016 Y49.5322
G01 X132.8810 Y49.4605
G01 X132.8648 Y49.3876
G01 X132.8533 Y49.3138
G01 X132.8463 Y49.2394
G01 X132.8440 Y49.1648
G01 Y44.7674
G01 X131.1156
G01 Y49.1648
G01 X131.1133 Y49.2394
G01 X131.1063 Y49.3138
G01 X131.0947 Y49.3876
G01 X131.0786 Y49.4605
G01 X131.0579 Y49.5322
G01 X131.0329 Y49.6026
G01 X131.0035 Y49.6712
G01 X130.9699 Y49.7379
G01 X130.9322 Y49.8024
G01 X130.8906 Y49.8644
G01 X130.8452 Y49.9237
G01 X130.7961 Y49.9800
G01 X122.8883 Y58.5215
G01 Y59.6609
G01 X123.1283 Y59.6564
M107
G00 Z2.0000


;No. 11: Hole 52
G00 X122.8883 Y58.5215 Z2.0000
G00 Z0.5000
G01 Z-1.1000 F400
M106 S240
G01 X122.6883 Y58.4431 F1000
G01 Y61.2453
G01 X124.8167
G01 Y60.2040
G01 X124.8210 Y60.1108
G01 X124.8341 Y60.0183
G01 X124.8556 Y59.9275
G01 X124.8856 Y59.8392
G01 X124.9237 Y59.7539
G01 X124.9695 Y59.6727
G01 X125.0227 Y59.5960
G01 X125.0829 Y59.5246
G01 X131.2468 Y52.8668
G01 X131.3052 Y52.8087
G01 X131.3682 Y52.7556
G01 X131.4353 Y52.7079
G01 X131.5062 Y52.6659
G01 X131.5802 Y52.6298
G01 X131.6570 Y52.6000
G01 X131.7360 Y52.5766
G01 X131.8166 Y52.5597
G01 X131.8984 Y52.5496
G01 X131.9807 Y52.5462
G01 X132.0630 Y52.5496
G01 X132.1447 Y52.5597
G01 X132.2253 Y52.5766
G01 X132.3043 Y52.6000
G01 X132.3811 Y52.6299
G01 X132.4551 Y52.6660
G01 X132.5260 Y52.7080
G01 X132.5931 Y52.7557
G01 X132.6561 Y52.8088
G01 X132.7145 Y52.8669
G01 X138.8768 Y59.5247
G01 X138.9369 Y59.5961
G01 X138.9901 Y59.6727
G01 X139.0359 Y59.7540
G01 X139.0740 Y59.8392
G01 X139.1039 Y59.9276
G01 X139.1255 Y60.0184
G01 X139.1385 Y60.1108
G01 X139.1429 Y60.2040
G01 Y61.2453
G01 X141.2713
G01 Y58.4431
G01 X133.3102 Y49.8442
G01 X133.2793 Y49.8092
G01 X133.2500 Y49.7728
G01 X133.2225 Y49.7351
G01 X133.1968 Y49.6961
G01 X133.1729 Y49.6560
G01 X133.1510 Y49.6148
G01 X133.1309 Y49.5727
G01 X133.1129 Y49.5296
G01 X133.0969 Y49.4858
G01 X133.0829 Y49.4412
G01 X133.0711 Y49.3961
G01 X133.0613 Y49.3504
G01 X133.0538 Y49.3044
G01 X133.0483 Y49.2580
G01 X133.0451 Y49.2115
G01 X133.0440 Y49.1648
G01 Y44.5674
G01 X130.9156
G01 Y49.1648
G01 X130.9112 Y49.2580
G01 X130.8982 Y49.3504
G01 X130.8766 Y49.4412
G01 X130.8467 Y49.5296
G01 X130.8086 Y49.6148
G01 X130.7628 Y49.6961
G01 X130.7095 Y49.7728
G01 X130.6494 Y49.8442
G01 X122.6883 Y58.4431
G01 X122.8883 Y58.5215
M107
G00 Z0.0000
G00 Z2.0000


;No. 12: Helical drill 7
G00 X165.8902 Y45.0102 Z2.0000
G00 Z0.5000
M106 S240
G01 X165.8864 Y44.9230 Z0.4745 F400
G01 X165.8750 Y44.8365 Z0.4491
G01 X165.8561 Y44.7513 Z0.4236
G01 X165.8299 Y44.6681 Z0.3981
G01 X165.7965 Y44.5876 Z0.3727
G01 X165.7562 Y44.5102 Z0.3472
G01 X165.7093 Y44.4366 Z0.3218
G01 X165.6562 Y44.3674 Z0.2963
G01 X165.5973 Y44.3031 Z0.2708
G01 X165.5329 Y44.2441 Z0.2454
G01 X165.4637 Y44.1910 Z0.2199
G01 X165.3902 Y44.1441 Z0.1944
G01 X165.3128 Y44.1039 Z0.1690
G01 X165.2322 Y44.0705 Z0.1435
G01 X165.1490 Y44.0442 Z0.1181
G01 X165.0638 Y44.0254 Z0.0926
G01 X164.9773 Y44.0140 Z0.0671
G01 X164.8902 Y44.0102 Z0.0417
G01 X164.8030 Y44.0140 Z0.0162
G01 X164.7165 Y44.0254 Z-0.0093
G01 X164.6313 Y44.0442 Z-0.0347
G01 X164.5481 Y44.0705 Z-0.0602
G01 X164.4675 Y44.1039 Z-0.0856
G01 X164.3902 Y44.1441 Z-0.1111
G01 X164.3166 Y44.1910 Z-0.1366
G01 X164.2474 Y44.2441 Z-0.1620
G01 X164.1831 Y44.3031 Z-0.1875
G01 X164.1241 Y44.3674 Z-0.2130
G01 X164.0710 Y44.4366 Z-0.2384
G01 X164.0241 Y44.5102 Z-0.2639
G01 X163.9839 Y44.5876 Z-0.2894
G01 X163.9505 Y44.6681 Z-0.3148
G01 X163.9242 Y44.7513 Z-0.3403
G01 X163.9054 Y44.8365 Z-0.3657
G01 X163.8940 Y44.9230 Z-0.3912
G01 X163.8902 Y45.0102 Z-0.4167
G01 X163.8940 Y45.0973 Z-0.4421
G01 X163.9054 Y45.1838 Z-0.4676
G01 X163.9242 Y45.2690 Z-0.4931
G01 X163.9505 Y45.3522 Z-0.5185
G01 X163.9839 Y45.4328 Z-0.5440
G01 X164.0241 Y45.5102 Z-0.5694
G01 X164.0710 Y45.5837 Z-0.5949
G01 X164.1241 Y45.6530 Z-0.6204
G01 X164.1831 Y45.7173 Z-0.6458
G01 X164.2474 Y45.7762 Z-0.6713
G01 X164.3166 Y45.8293 Z-0.6968
G01 X164.3902 Y45.8762 Z-0.7222
G01 X164.4675 Y45.9165 Z-0.7477
G01 X164.5481 Y45.9499 Z-0.7731
G01 X164.6313 Y45.9761 Z-0.7986
G01 X164.7165 Y45.9950 Z-0.8241
G01 X164.8030 Y46.0064 Z-0.8495
G01 X164.8902 Y46.0102 Z-0.8750
G01 X164.9773 Y46.0064 Z-0.9005
G01 X165.0638 Y45.9950 Z-0.9259
G01 X165.1490 Y45.9761 Z-0.9514
G01 X165.2322 Y45.9499 Z-0.9769
G01 X165.3128 Y45.9165 Z-1.0023
G01 X165.3902 Y45.8762 Z-1.0278
G01 X165.4637 Y45.8293 Z-1.0532
G01 X165.5329 Y45.7762 Z-1.0787
G01 X165.5973 Y45.7173 Z-1.1042
G01 X165.6562 Y45.6530 Z-1.1296
G01 X165.7093 Y45.5837 Z-1.1551
G01 X165.7562 Y45.5102 Z-1.1806
G01 X165.7965 Y45.4328 Z-1.2060
G01 X165.8299 Y45.3522 Z-1.2315
G01 X165.8561 Y45.2690 Z-1.2569
G01 X165.8750 Y45.1838 Z-1.2824
G01 X165.8864 Y45.0973 Z-1.3079
G01 X165.8902 Y45.0102 Z-1.3333
G01 X165.8864 Y44.9230
G01 X165.8750 Y44.8365
G01 X165.8561 Y44.7513
G01 X165.8299 Y44.6681
G01 X165.7965 Y44.5876
G01 X165.7562 Y44.5102
G01 X165.7093 Y44.4366
G01 X165.6562 Y44.3674
G01 X165.5973 Y44.3031
G01 X165.5329 Y44.2441
G01 X165.4637 Y44.1910
G01 X165.3902 Y44.1441
G01 X165.3128 Y44.1039
G01 X165.2322 Y44.0705
G01 X165.1490 Y44.0442
G01 X165.0638 Y44.0254
G01 X164.9773 Y44.0140
G01 X164.8902 Y44.0102
G01 X164.8030 Y44.0140
G01 X164.7165 Y44.0254
G01 X164.6313 Y44.0442
G01 X164.5481 Y44.0705
G01 X164.4675 Y44.1039
G01 X164.3902 Y44.1441
G01 X164.3166 Y44.1910
G01 X164.2474 Y44.2441
G01 X164.1831 Y44.3031
G01 X164.1241 Y44.3674
G01 X164.0710 Y44.4366
G01 X164.0241 Y44.5102
G01 X163.9839 Y44.5876
G01 X163.9505 Y44.6681
G01 X163.9242 Y44.7513
G01 X163.9054 Y44.8365
G01 X163.8940 Y44.9230
G01 X163.8902 Y45.0102
G01 X163.8940 Y45.0973
G01 X163.9054 Y45.1838
G01 X163.9242 Y45.2690
G01 X163.9505 Y45.3522
G01 X163.9839 Y45.4328
G01 X164.0241 Y45.5102
G01 X164.0710 Y45.5837
G01 X164.1241 Y45.6530
G01 X164.1831 Y45.7173
G01 X164.2474 Y45.7762
G01 X164.3166 Y45.8293
G01 X164.3902 Y45.8762
G01 X164.4675 Y45.9165
G01 X164.5481 Y45.9499
G01 X164.6313 Y45.9761
G01 X164.7165 Y45.9950
G01 X164.8030 Y46.0064
G01 X164.8902 Y46.0102
G01 X164.9773 Y46.0064
G01 X165.0638 Y45.9950
G01 X165.1490 Y45.9761
G01 X165.2322 Y45.9499
G01 X165.3128 Y45.9165
G01 X165.3902 Y45.8762
G01 X165.4637 Y45.8293
G01 X165.5329 Y45.7762
G01 X165.5973 Y45.7173
G01 X165.6562 Y45.6530
G01 X165.7093 Y45.5837
G01 X165.7562 Y45.5102
G01 X165.7965 Y45.4328
G01 X165.8299 Y45.3522
G01 X165.8561 Y45.2690
G01 X165.8750 Y45.1838
G01 X165.8864 Y45.0973
G01 X165.8902 Y45.0102
G01 X165.9009 Y44.9586 F1000
G01 X165.9090 Y44.9065
G01 X165.9144 Y44.8541
G01 X165.9170 Y44.8014
G01 Y44.7487
G01 X165.9143 Y44.6961
G01 X165.9088 Y44.6437
G01 X165.9007 Y44.5916
G01 X165.8878 Y44.5364
G01 X165.8721 Y44.4819
G01 X165.8536 Y44.4283
G01 X165.8325 Y44.3757
G01 X165.8088 Y44.3243
G01 X165.7824 Y44.2741
G01 X165.7536 Y44.2253
G01 X165.7223 Y44.1780
G01 X165.6805 Y44.1382
G01 X165.6367 Y44.1005
G01 X165.5912 Y44.0649
G01 X165.5440 Y44.0317
G01 X165.4952 Y44.0008
G01 X165.4449 Y43.9723
G01 X165.3933 Y43.9463
G01 X165.3405 Y43.9229
G01 X165.2866 Y43.9021
G01 X165.2318 Y43.8840
G01 X165.1761 Y43.8686
G01 X165.1197 Y43.8560
G01 X165.0628 Y43.8461
G01 X165.0055 Y43.8390
G01 X164.9479 Y43.8348
G01 X164.8902 Y43.8333
G01 X164.8324 Y43.8348
G01 X164.7748 Y43.8390
G01 X164.7175 Y43.8461
G01 X164.6606 Y43.8560
G01 X164.6042 Y43.8686
G01 X164.5485 Y43.8840
G01 X164.4937 Y43.9021
G01 X164.4398 Y43.9229
G01 X164.3870 Y43.9463
G01 X164.3354 Y43.9723
G01 X164.2852 Y44.0008
G01 X164.2364 Y44.0317
G01 X164.1891 Y44.0649
G01 X164.1436 Y44.1005
G01 X164.0999 Y44.1382
G01 X164.0580 Y44.1780
G01 X164.0182 Y44.2199
G01 X163.9805 Y44.2636
G01 X163.9449 Y44.3091
G01 X163.9117 Y44.3564
G01 X163.8808 Y44.4052
G01 X163.8523 Y44.4554
G01 X163.8263 Y44.5070
G01 X163.8029 Y44.5598
G01 X163.7821 Y44.6137
G01 X163.7640 Y44.6686
G01 X163.7486 Y44.7242
G01 X163.7360 Y44.7806
G01 X163.7261 Y44.8375
G01 X163.7190 Y44.8948
G01 X163.7148 Y44.9524
G01 X163.7133 Y45.0102
G01 X163.7148 Y45.0679
G01 X163.7190 Y45.1255
G01 X163.7261 Y45.1828
G01 X163.7360 Y45.2398
G01 X163.7486 Y45.2961
G01 X163.7640 Y45.3518
G01 X163.7821 Y45.4066
G01 X163.8029 Y45.4605
G01 X163.8263 Y45.5133
G01 X163.8523 Y45.5649
G01 X163.8808 Y45.6152
G01 X163.9117 Y45.6640
G01 X163.9449 Y45.7112
G01 X163.9805 Y45.7567
G01 X164.0182 Y45.8005
G01 X164.0580 Y45.8423
G01 X164.0999 Y45.8821
G01 X164.1436 Y45.9199
G01 X164.1891 Y45.9554
G01 X164.2364 Y45.9887
G01 X164.2852 Y46.0196
G01 X164.3354 Y46.0480
G01 X164.3870 Y46.0740
G01 X164.4398 Y46.0974
G01 X164.4937 Y46.1182
G01 X164.5485 Y46.1363
G01 X164.6042 Y46.1517
G01 X164.6606 Y46.1644
G01 X164.7175 Y46.1743
G01 X164.7748 Y46.1813
G01 X164.8324 Y46.1856
G01 X164.8902 Y46.1870
G01 X164.9479 Y46.1856
G01 X165.0055 Y46.1813
G01 X165.0628 Y46.1743
G01 X165.1197 Y46.1644
G01 X165.1761 Y46.1517
G01 X165.2318 Y46.1363
G01 X165.2866 Y46.1182
G01 X165.3405 Y46.0974
G01 X165.3933 Y46.0740
G01 X165.4449 Y46.0480
G01 X165.4952 Y46.0196
G01 X165.5440 Y45.9887
G01 X165.5912 Y45.9554
G01 X165.6367 Y45.9199
G01 X165.6805 Y45.8821
G01 X165.7223 Y45.8423
G01 X165.7621 Y45.8005
G01 X165.7999 Y45.7567
G01 X165.8354 Y45.7112
G01 X165.8687 Y45.6640
G01 X165.8996 Y45.6152
G01 X165.9280 Y45.5649
G01 X165.9540 Y45.5133
G01 X165.9774 Y45.4605
G01 X165.9982 Y45.4066
G01 X166.0163 Y45.3518
G01 X166.0317 Y45.2961
G01 X166.0444 Y45.2398
G01 X166.0542 Y45.1828
G01 X166.0613 Y45.1255
G01 X166.0656 Y45.0679
G01 X166.0670 Y45.0102
G01 X166.0625 Y44.9076
G01 X166.0491 Y44.8058
G01 X166.0269 Y44.7056
G01 X165.9960 Y44.6077
G01 X165.9567 Y44.5128
G01 X165.9093 Y44.4218
G01 X165.8542 Y44.3352
G01 X165.7917 Y44.2537
G01 X165.7223 Y44.1780
G01 X165.6466 Y44.1087
G01 X165.5652 Y44.0462
G01 X165.4786 Y43.9910
G01 X165.3875 Y43.9436
G01 X165.2927 Y43.9043
G01 X165.1947 Y43.8734
G01 X165.0945 Y43.8512
G01 X164.9927 Y43.8378
G01 X164.8902 Y43.8333
G01 X164.7876 Y43.8378
G01 X164.6858 Y43.8512
G01 X164.5856 Y43.8734
G01 X164.4877 Y43.9043
G01 X164.3928 Y43.9436
G01 X164.3017 Y43.9910
G01 X164.2152 Y44.0462
G01 X164.1337 Y44.1087
G01 X164.0580 Y44.1780
G01 X163.9887 Y44.2537
G01 X163.9262 Y44.3352
G01 X163.8710 Y44.4218
G01 X163.8236 Y44.5128
G01 X163.7843 Y44.6077
G01 X163.7534 Y44.7056
G01 X163.7312 Y44.8058
G01 X163.7178 Y44.9076
G01 X163.7133 Y45.0102
G01 X163.7178 Y45.1127
G01 X163.7312 Y45.2145
G01 X163.7534 Y45.3148
G01 X163.7843 Y45.4127
G01 X163.8236 Y45.5075
G01 X163.8710 Y45.5986
G01 X163.9262 Y45.6852
G01 X163.9887 Y45.7666
G01 X164.0580 Y45.8423
G01 X164.1337 Y45.9117
G01 X164.2152 Y45.9742
G01 X164.3017 Y46.0293
G01 X164.3928 Y46.0767
G01 X164.4877 Y46.1160
G01 X164.5856 Y46.1469
G01 X164.6858 Y46.1691
G01 X164.7876 Y46.1825
G01 X164.8902 Y46.1870
G01 X164.9927 Y46.1825
G01 X165.0945 Y46.1691
G01 X165.1947 Y46.1469
G01 X165.2927 Y46.1160
G01 X165.3875 Y46.0767
G01 X165.4786 Y46.0293
G01 X165.5652 Y45.9742
G01 X165.6466 Y45.9117
G01 X165.7223 Y45.8423
G01 X165.7917 Y45.7666
G01 X165.8542 Y45.6852
G01 X165.9093 Y45.5986
G01 X165.9567 Y45.5075
G01 X165.9960 Y45.4127
G01 X166.0269 Y45.3148
G01 X166.0491 Y45.2145
G01 X166.0625 Y45.1127
G01 X166.0670 Y45.0102
G01 X166.0628 Y44.9153
G01 X166.0504 Y44.8212
G01 X166.0299 Y44.7285
G01 X166.0013 Y44.6379
G01 X165.9650 Y44.5502
G01 X165.9212 Y44.4660
G01 X165.8701 Y44.3859
G01 X165.8123 Y44.3106
G01 X165.7482 Y44.2405
G01 X165.6782 Y44.1764
G01 X165.6029 Y44.1186
G01 X165.5228 Y44.0676
G01 X165.4386 Y44.0237
G01 X165.3508 Y43.9874
G01 X165.2603 Y43.9588
G01 X165.1676 Y43.9383
G01 X165.0734 Y43.9259
G01 X164.9786 Y43.9218
G01 X164.8837 Y43.9259
G01 X164.7896 Y43.9383
G01 X164.6969 Y43.9588
G01 X164.6063 Y43.9874
G01 X164.5186 Y44.0237
G01 X164.4344 Y44.0676
G01 X164.3543 Y44.1186
G01 X164.2790 Y44.1764
G01 X164.2089 Y44.2405
G01 X164.1448 Y44.3106
G01 X164.0870 Y44.3859
G01 X164.0360 Y44.4660
G01 X163.9921 Y44.5502
G01 X163.9558 Y44.6379
G01 X163.9272 Y44.7285
G01 X163.9067 Y44.8212
G01 X163.8943 Y44.9153
G01 X163.8902 Y45.0102
G01 X163.8912 Y45.0564
G01 X163.8944 Y45.1024
G01 X163.8997 Y45.1483
G01 X163.9072 Y45.1939
G01 X163.9167 Y45.2391
G01 X163.9283 Y45.2838
G01 X163.9420 Y45.3280
G01 X163.9577 Y45.3714
G01 X163.9754 Y45.4141
G01 X163.9950 Y45.4559
G01 X164.0165 Y45.4968
G01 X164.0399 Y45.5366
G01 X164.0652 Y45.5753
G01 X164.0921 Y45.6128
G01 X164.1208 Y45.6490
G01 X164.1512 Y45.6839
G01 X164.1831 Y45.7173
G01 X164.2165 Y45.7492
G01 X164.2513 Y45.7795
G01 X164.2875 Y45.8082
G01 X164.3250 Y45.8352
G01 X164.3637 Y45.8604
G01 X164.4036 Y45.8838
G01 X164.4444 Y45.9053
G01 X164.4862 Y45.9250
G01 X164.5289 Y45.9426
G01 X164.5724 Y45.9583
G01 X164.6165 Y45.9720
G01 X164.6612 Y45.9836
G01 X164.7064 Y45.9931
G01 X164.7520 Y46.0006
G01 X164.7979 Y46.0059
G01 X164.8440 Y46.0091
G01 X164.8902 Y46.0102
G01 X164.9363 Y46.0091
G01 X164.9824 Y46.0059
G01 X165.0283 Y46.0006
G01 X165.0739 Y45.9931
G01 X165.1191 Y45.9836
G01 X165.1638 Y45.9720
G01 X165.2080 Y45.9583
G01 X165.2514 Y45.9426
G01 X165.2941 Y45.9250
G01 X165.3359 Y45.9053
G01 X165.3768 Y45.8838
G01 X165.4166 Y45.8604
G01 X165.4553 Y45.8352
G01 X165.4928 Y45.8082
G01 X165.5290 Y45.7795
G01 X165.5639 Y45.7492
G01 X165.5973 Y45.7173
G01 X165.6292 Y45.6839
G01 X165.6595 Y45.6490
G01 X165.6882 Y45.6128
G01 X165.7152 Y45.5753
G01 X165.7404 Y45.5366
G01 X165.7638 Y45.4968
G01 X165.7853 Y45.4559
G01 X165.8050 Y45.4141
G01 X165.8226 Y45.3714
G01 X165.8383 Y45.3280
G01 X165.8520 Y45.2838
G01 X165.8636 Y45.2391
G01 X165.8731 Y45.1939
G01 X165.8806 Y45.1483
G01 X165.8859 Y45.1024
G01 X165.8891 Y45.0564
G01 X165.8902 Y45.0102
M107
M106 S240
G01 X165.8864 Y44.9230 Z-1.3588 F400
G01 X165.8750 Y44.8365 Z-1.3843
G01 X165.8561 Y44.7513 Z-1.4097
G01 X165.8299 Y44.6681 Z-1.4352
G01 X165.7965 Y44.5876 Z-1.4606
G01 X165.7562 Y44.5102 Z-1.4861
G01 X165.7093 Y44.4366 Z-1.5116
G01 X165.6562 Y44.3674 Z-1.5370
G01 X165.5973 Y44.3031 Z-1.5625
G01 X165.5329 Y44.2441 Z-1.5880
G01 X165.4637 Y44.1910 Z-1.6134
G01 X165.3902 Y44.1441 Z-1.6389
G01 X165.3128 Y44.1039 Z-1.6644
G01 X165.2322 Y44.0705 Z-1.6898
G01 X165.1490 Y44.0442 Z-1.7153
G01 X165.0638 Y44.0254 Z-1.7407
G01 X164.9773 Y44.0140 Z-1.7662
G01 X164.8902 Y44.0102 Z-1.7917
G01 X164.8030 Y44.0140 Z-1.8171
G01 X164.7165 Y44.0254 Z-1.8426
G01 X164.6313 Y44.0442 Z-1.8681
G01 X164.5481 Y44.0705 Z-1.8935
G01 X164.4675 Y44.1039 Z-1.9190
G01 X164.3902 Y44.1441 Z-1.9444
G01 X164.3166 Y44.1910 Z-1.9699
G01 X164.2474 Y44.2441 Z-1.9954
G01 X164.1831 Y44.3031 Z-2.0208
G01 X164.1241 Y44.3674 Z-2.0463
G01 X164.0710 Y44.4366 Z-2.0718
G01 X164.0241 Y44.5102 Z-2.0972
G01 X163.9839 Y44.5876 Z-2.1227
G01 X163.9505 Y44.6681 Z-2.1481
G01 X163.9242 Y44.7513 Z-2.1736
G01 X163.9054 Y44.8365 Z-2.1991
G01 X163.8940 Y44.9230 Z-2.2245
G01 X163.8902 Y45.0102 Z-2.2500
G01 X163.8940 Y45.0973 Z-2.2755
G01 X163.9054 Y45.1838 Z-2.3009
G01 X163.9242 Y45.2690 Z-2.3264
G01 X163.9505 Y45.3522 Z-2.3519
G01 X163.9839 Y45.4328 Z-2.3773
G01 X164.0241 Y45.5102 Z-2.4028
G01 X164.0710 Y45.5837 Z-2.4282
G01 X164.1241 Y45.6530 Z-2.4537
G01 X164.1831 Y45.7173 Z-2.4792
G01 X164.2474 Y45.7762 Z-2.5046
G01 X164.3166 Y45.8293 Z-2.5301
G01 X164.3902 Y45.8762 Z-2.5556
G01 X164.4675 Y45.9165 Z-2.5810
G01 X164.5481 Y45.9499 Z-2.6065
G01 X164.6313 Y45.9761 Z-2.6319
G01 X164.7165 Y45.9950 Z-2.6574
G01 X164.8030 Y46.0064 Z-2.6829
G01 X164.8902 Y46.0102 Z-2.7083
G01 X164.9773 Y46.0064 Z-2.7338
G01 X165.0638 Y45.9950 Z-2.7593
G01 X165.1490 Y45.9761 Z-2.7847
G01 X165.2322 Y45.9499 Z-2.8102
G01 X165.3128 Y45.9165 Z-2.8356
G01 X165.3902 Y45.8762 Z-2.8611
G01 X165.4637 Y45.8293 Z-2.8866
G01 X165.5329 Y45.7762 Z-2.9120
G01 X165.5973 Y45.7173 Z-2.9375
G01 X165.6562 Y45.6530 Z-2.9630
G01 X165.7093 Y45.5837 Z-2.9884
G01 X165.7562 Y45.5102 Z-3.0139
G01 X165.7965 Y45.4328 Z-3.0394
G01 X165.8299 Y45.3522 Z-3.0648
G01 X165.8561 Y45.2690 Z-3.0903
G01 X165.8750 Y45.1838 Z-3.1157
G01 X165.8864 Y45.0973 Z-3.1412
G01 X165.8902 Y45.0102 Z-3.1667
G01 X165.8864 Y44.9230
G01 X165.8750 Y44.8365
G01 X165.8561 Y44.7513
G01 X165.8299 Y44.6681
G01 X165.7965 Y44.5876
G01 X165.7562 Y44.5102
G01 X165.7093 Y44.4366
G01 X165.6562 Y44.3674
G01 X165.5973 Y44.3031
G01 X165.5329 Y44.2441
G01 X165.4637 Y44.1910
G01 X165.3902 Y44.1441
G01 X165.3128 Y44.1039
G01 X165.2322 Y44.0705
G01 X165.1490 Y44.0442
G01 X165.0638 Y44.0254
G01 X164.9773 Y44.0140
G01 X164.8902 Y44.0102
G01 X164.8030 Y44.0140
G01 X164.7165 Y44.0254
G01 X164.6313 Y44.0442
G01 X164.5481 Y44.0705
G01 X164.4675 Y44.1039
G01 X164.3902 Y44.1441
G01 X164.3166 Y44.1910
G01 X164.2474 Y44.2441
G01 X164.1831 Y44.3031
G01 X164.1241 Y44.3674
G01 X164.0710 Y44.4366
G01 X164.0241 Y44.5102
G01 X163.9839 Y44.5876
G01 X163.9505 Y44.6681
G01 X163.9242 Y44.7513
G01 X163.9054 Y44.8365
G01 X163.8940 Y44.9230
G01 X163.8902 Y45.0102
G01 X163.8940 Y45.0973
G01 X163.9054 Y45.1838
G01 X163.9242 Y45.2690
G01 X163.9505 Y45.3522
G01 X163.9839 Y45.4328
G01 X164.0241 Y45.5102
G01 X164.0710 Y45.5837
G01 X164.1241 Y45.6530
G01 X164.1831 Y45.7173
G01 X164.2474 Y45.7762
G01 X164.3166 Y45.8293
G01 X164.3902 Y45.8762
G01 X164.4675 Y45.9165
G01 X164.5481 Y45.9499
G01 X164.6313 Y45.9761
G01 X164.7165 Y45.9950
G01 X164.8030 Y46.0064
G01 X164.8902 Y46.0102
G01 X164.9773 Y46.0064
G01 X165.0638 Y45.9950
G01 X165.1490 Y45.9761
G01 X165.2322 Y45.9499
G01 X165.3128 Y45.9165
G01 X165.3902 Y45.8762
G01 X165.4637 Y45.8293
G01 X165.5329 Y45.7762
G01 X165.5973 Y45.7173
G01 X165.6562 Y45.6530
G01 X165.7093 Y45.5837
G01 X165.7562 Y45.5102
G01 X165.7965 Y45.4328
G01 X165.8299 Y45.3522
G01 X165.8561 Y45.2690
G01 X165.8750 Y45.1838
G01 X165.8864 Y45.0973
G01 X165.8902 Y45.0102
G01 X165.9009 Y44.9586 F1000
G01 X165.9090 Y44.9065
G01 X165.9144 Y44.8541
G01 X165.9170 Y44.8014
G01 Y44.7487
G01 X165.9143 Y44.6961
G01 X165.9088 Y44.6437
G01 X165.9007 Y44.5916
G01 X165.8878 Y44.5364
G01 X165.8721 Y44.4819
G01 X165.8536 Y44.4283
G01 X165.8325 Y44.3757
G01 X165.8088 Y44.3243
G01 X165.7824 Y44.2741
G01 X165.7536 Y44.2253
G01 X165.7223 Y44.1780
G01 X165.6805 Y44.1382
G01 X165.6367 Y44.1005
G01 X165.5912 Y44.0649
G01 X165.5440 Y44.0317
G01 X165.4952 Y44.0008
G01 X165.4449 Y43.9723
G01 X165.3933 Y43.9463
G01 X165.3405 Y43.9229
G01 X165.2866 Y43.9021
G01 X165.2318 Y43.8840
G01 X165.1761 Y43.8686
G01 X165.1197 Y43.8560
G01 X165.0628 Y43.8461
G01 X165.0055 Y43.8390
G01 X164.9479 Y43.8348
G01 X164.8902 Y43.8333
G01 X164.8324 Y43.8348
G01 X164.7748 Y43.8390
G01 X164.7175 Y43.8461
G01 X164.6606 Y43.8560
G01 X164.6042 Y43.8686
G01 X164.5485 Y43.8840
G01 X164.4937 Y43.9021
G01 X164.4398 Y43.9229
G01 X164.3870 Y43.9463
G01 X164.3354 Y43.9723
G01 X164.2852 Y44.0008
G01 X164.2364 Y44.0317
G01 X164.1891 Y44.0649
G01 X164.1436 Y44.1005
G01 X164.0999 Y44.1382
G01 X164.0580 Y44.1780
G01 X164.0182 Y44.2199
G01 X163.9805 Y44.2636
G01 X163.9449 Y44.3091
G01 X163.9117 Y44.3564
G01 X163.8808 Y44.4052
G01 X163.8523 Y44.4554
G01 X163.8263 Y44.5070
G01 X163.8029 Y44.5598
G01 X163.7821 Y44.6137
G01 X163.7640 Y44.6686
G01 X163.7486 Y44.7242
G01 X163.7360 Y44.7806
G01 X163.7261 Y44.8375
G01 X163.7190 Y44.8948
G01 X163.7148 Y44.9524
G01 X163.7133 Y45.0102
G01 X163.7148 Y45.0679
G01 X163.7190 Y45.1255
G01 X163.7261 Y45.1828
G01 X163.7360 Y45.2398
G01 X163.7486 Y45.2961
G01 X163.7640 Y45.3518
G01 X163.7821 Y45.4066
G01 X163.8029 Y45.4605
G01 X163.8263 Y45.5133
G01 X163.8523 Y45.5649
G01 X163.8808 Y45.6152
G01 X163.9117 Y45.6640
G01 X163.9449 Y45.7112
G01 X163.9805 Y45.7567
G01 X164.0182 Y45.8005
G01 X164.0580 Y45.8423
G01 X164.0999 Y45.8821
G01 X164.1436 Y45.9199
G01 X164.1891 Y45.9554
G01 X164.2364 Y45.9887
G01 X164.2852 Y46.0196
G01 X164.3354 Y46.0480
G01 X164.3870 Y46.0740
G01 X164.4398 Y46.0974
G01 X164.4937 Y46.1182
G01 X164.5485 Y46.1363
G01 X164.6042 Y46.1517
G01 X164.6606 Y46.1644
G01 X164.7175 Y46.1743
G01 X164.7748 Y46.1813
G01 X164.8324 Y46.1856
G01 X164.8902 Y46.1870
G01 X164.9479 Y46.1856
G01 X165.0055 Y46.1813
G01 X165.0628 Y46.1743
G01 X165.1197 Y46.1644
G01 X165.1761 Y46.1517
G01 X165.2318 Y46.1363
G01 X165.2866 Y46.1182
G01 X165.3405 Y46.0974
G01 X165.3933 Y46.0740
G01 X165.4449 Y46.0480
G01 X165.4952 Y46.0196
G01 X165.5440 Y45.9887
G01 X165.5912 Y45.9554
G01 X165.6367 Y45.9199
G01 X165.6805 Y45.8821
G01 X165.7223 Y45.8423
G01 X165.7621 Y45.8005
G01 X165.7999 Y45.7567
G01 X165.8354 Y45.7112
G01 X165.8687 Y45.6640
G01 X165.8996 Y45.6152
G01 X165.9280 Y45.5649
G01 X165.9540 Y45.5133
G01 X165.9774 Y45.4605
G01 X165.9982 Y45.4066
G01 X166.0163 Y45.3518
G01 X166.0317 Y45.2961
G01 X166.0444 Y45.2398
G01 X166.0542 Y45.1828
G01 X166.0613 Y45.1255
G01 X166.0656 Y45.0679
G01 X166.0670 Y45.0102
G01 X166.0625 Y44.9076
G01 X166.0491 Y44.8058
G01 X166.0269 Y44.7056
G01 X165.9960 Y44.6077
G01 X165.9567 Y44.5128
G01 X165.9093 Y44.4218
G01 X165.8542 Y44.3352
G01 X165.7917 Y44.2537
G01 X165.7223 Y44.1780
G01 X165.6466 Y44.1087
G01 X165.5652 Y44.0462
G01 X165.4786 Y43.9910
G01 X165.3875 Y43.9436
G01 X165.2927 Y43.9043
G01 X165.1947 Y43.8734
G01 X165.0945 Y43.8512
G01 X164.9927 Y43.8378
G01 X164.8902 Y43.8333
G01 X164.7876 Y43.8378
G01 X164.6858 Y43.8512
G01 X164.5856 Y43.8734
G01 X164.4877 Y43.9043
G01 X164.3928 Y43.9436
G01 X164.3017 Y43.9910
G01 X164.2152 Y44.0462
G01 X164.1337 Y44.1087
G01 X164.0580 Y44.1780
G01 X163.9887 Y44.2537
G01 X163.9262 Y44.3352
G01 X163.8710 Y44.4218
G01 X163.8236 Y44.5128
G01 X163.7843 Y44.6077
G01 X163.7534 Y44.7056
G01 X163.7312 Y44.8058
G01 X163.7178 Y44.9076
G01 X163.7133 Y45.0102
G01 X163.7178 Y45.1127
G01 X163.7312 Y45.2145
G01 X163.7534 Y45.3148
G01 X163.7843 Y45.4127
G01 X163.8236 Y45.5075
G01 X163.8710 Y45.5986
G01 X163.9262 Y45.6852
G01 X163.9887 Y45.7666
G01 X164.0580 Y45.8423
G01 X164.1337 Y45.9117
G01 X164.2152 Y45.9742
G01 X164.3017 Y46.0293
G01 X164.3928 Y46.0767
G01 X164.4877 Y46.1160
G01 X164.5856 Y46.1469
G01 X164.6858 Y46.1691
G01 X164.7876 Y46.1825
G01 X164.8902 Y46.1870
G01 X164.9927 Y46.1825
G01 X165.0945 Y46.1691
G01 X165.1947 Y46.1469
G01 X165.2927 Y46.1160
G01 X165.3875 Y46.0767
G01 X165.4786 Y46.0293
G01 X165.5652 Y45.9742
G01 X165.6466 Y45.9117
G01 X165.7223 Y45.8423
G01 X165.7917 Y45.7666
G01 X165.8542 Y45.6852
G01 X165.9093 Y45.5986
G01 X165.9567 Y45.5075
G01 X165.9960 Y45.4127
G01 X166.0269 Y45.3148
G01 X166.0491 Y45.2145
G01 X166.0625 Y45.1127
G01 X166.0670 Y45.0102
G01 X166.0628 Y44.9153
G01 X166.0504 Y44.8212
G01 X166.0299 Y44.7285
G01 X166.0013 Y44.6379
G01 X165.9650 Y44.5502
G01 X165.9212 Y44.4660
G01 X165.8701 Y44.3859
G01 X165.8123 Y44.3106
G01 X165.7482 Y44.2405
G01 X165.6782 Y44.1764
G01 X165.6029 Y44.1186
G01 X165.5228 Y44.0676
G01 X165.4386 Y44.0237
G01 X165.3508 Y43.9874
G01 X165.2603 Y43.9588
G01 X165.1676 Y43.9383
G01 X165.0734 Y43.9259
G01 X164.9786 Y43.9218
G01 X164.8837 Y43.9259
G01 X164.7896 Y43.9383
G01 X164.6969 Y43.9588
G01 X164.6063 Y43.9874
G01 X164.5186 Y44.0237
G01 X164.4344 Y44.0676
G01 X164.3543 Y44.1186
G01 X164.2790 Y44.1764
G01 X164.2089 Y44.2405
G01 X164.1448 Y44.3106
G01 X164.0870 Y44.3859
G01 X164.0360 Y44.4660
G01 X163.9921 Y44.5502
G01 X163.9558 Y44.6379
G01 X163.9272 Y44.7285
G01 X163.9067 Y44.8212
G01 X163.8943 Y44.9153
G01 X163.8902 Y45.0102
G01 X163.8912 Y45.0564
G01 X163.8944 Y45.1024
G01 X163.8997 Y45.1483
G01 X163.9072 Y45.1939
G01 X163.9167 Y45.2391
G01 X163.9283 Y45.2838
G01 X163.9420 Y45.3280
G01 X163.9577 Y45.3714
G01 X163.9754 Y45.4141
G01 X163.9950 Y45.4559
G01 X164.0165 Y45.4968
G01 X164.0399 Y45.5366
G01 X164.0652 Y45.5753
G01 X164.0921 Y45.6128
G01 X164.1208 Y45.6490
G01 X164.1512 Y45.6839
G01 X164.1831 Y45.7173
G01 X164.2165 Y45.7492
G01 X164.2513 Y45.7795
G01 X164.2875 Y45.8082
G01 X164.3250 Y45.8352
G01 X164.3637 Y45.8604
G01 X164.4036 Y45.8838
G01 X164.4444 Y45.9053
G01 X164.4862 Y45.9250
G01 X164.5289 Y45.9426
G01 X164.5724 Y45.9583
G01 X164.6165 Y45.9720
G01 X164.6612 Y45.9836
G01 X164.7064 Y45.9931
G01 X164.7520 Y46.0006
G01 X164.7979 Y46.0059
G01 X164.8440 Y46.0091
G01 X164.8902 Y46.0102
G01 X164.9363 Y46.0091
G01 X164.9824 Y46.0059
G01 X165.0283 Y46.0006
G01 X165.0739 Y45.9931
G01 X165.1191 Y45.9836
G01 X165.1638 Y45.9720
G01 X165.2080 Y45.9583
G01 X165.2514 Y45.9426
G01 X165.2941 Y45.9250
G01 X165.3359 Y45.9053
G01 X165.3768 Y45.8838
G01 X165.4166 Y45.8604
G01 X165.4553 Y45.8352
G01 X165.4928 Y45.8082
G01 X165.5290 Y45.7795
G01 X165.5639 Y45.7492
G01 X165.5973 Y45.7173
G01 X165.6292 Y45.6839
G01 X165.6595 Y45.6490
G01 X165.6882 Y45.6128
G01 X165.7152 Y45.5753
G01 X165.7404 Y45.5366
G01 X165.7638 Y45.4968
G01 X165.7853 Y45.4559
G01 X165.8050 Y45.4141
G01 X165.8226 Y45.3714
G01 X165.8383 Y45.3280
G01 X165.8520 Y45.2838
G01 X165.8636 Y45.2391
G01 X165.8731 Y45.1939
G01 X165.8806 Y45.1483
G01 X165.8859 Y45.1024
G01 X165.8891 Y45.0564
G01 X165.8902 Y45.0102
M107
M106 S240
G01 X165.8864 Y44.9230 Z-3.1921 F400
G01 X165.8750 Y44.8365 Z-3.2176
G01 X165.8561 Y44.7513 Z-3.2431
G01 X165.8299 Y44.6681 Z-3.2685
G01 X165.7965 Y44.5876 Z-3.2940
G01 X165.7562 Y44.5102 Z-3.3194
G01 X165.7093 Y44.4366 Z-3.3449
G01 X165.6562 Y44.3674 Z-3.3704
G01 X165.5973 Y44.3031 Z-3.3958
G01 X165.5329 Y44.2441 Z-3.4213
G01 X165.4637 Y44.1910 Z-3.4468
G01 X165.3902 Y44.1441 Z-3.4722
G01 X165.3128 Y44.1039 Z-3.4977
G01 X165.2322 Y44.0705 Z-3.5231
G01 X165.1490 Y44.0442 Z-3.5486
G01 X165.0638 Y44.0254 Z-3.5741
G01 X164.9773 Y44.0140 Z-3.5995
G01 X164.8902 Y44.0102 Z-3.6250
G01 X164.8030 Y44.0140 Z-3.6505
G01 X164.7165 Y44.0254 Z-3.6759
G01 X164.6313 Y44.0442 Z-3.7014
G01 X164.5481 Y44.0705 Z-3.7269
G01 X164.4675 Y44.1039 Z-3.7523
G01 X164.3902 Y44.1441 Z-3.7778
G01 X164.3166 Y44.1910 Z-3.8032
G01 X164.2474 Y44.2441 Z-3.8287
G01 X164.1831 Y44.3031 Z-3.8542
G01 X164.1241 Y44.3674 Z-3.8796
G01 X164.0710 Y44.4366 Z-3.9051
G01 X164.0241 Y44.5102 Z-3.9306
G01 X163.9839 Y44.5876 Z-3.9560
G01 X163.9505 Y44.6681 Z-3.9815
G01 X163.9242 Y44.7513 Z-4.0069
G01 X163.9054 Y44.8365 Z-4.0324
G01 X163.8940 Y44.9230 Z-4.0579
G01 X163.8902 Y45.0102 Z-4.0833
G01 X163.8940 Y45.0973 Z-4.1088
G01 X163.9054 Y45.1838 Z-4.1343
G01 X163.9242 Y45.2690 Z-4.1597
G01 X163.9505 Y45.3522 Z-4.1852
G01 X163.9839 Y45.4328 Z-4.2106
G01 X164.0241 Y45.5102 Z-4.2361
G01 X164.0710 Y45.5837 Z-4.2616
G01 X164.1241 Y45.6530 Z-4.2870
G01 X164.1831 Y45.7173 Z-4.3125
G01 X164.2474 Y45.7762 Z-4.3380
G01 X164.3166 Y45.8293 Z-4.3634
G01 X164.3902 Y45.8762 Z-4.3889
G01 X164.4675 Y45.9165 Z-4.4144
G01 X164.5481 Y45.9499 Z-4.4398
G01 X164.6313 Y45.9761 Z-4.4653
G01 X164.7165 Y45.9950 Z-4.4907
G01 X164.8030 Y46.0064 Z-4.5162
G01 X164.8902 Y46.0102 Z-4.5417
G01 X164.9773 Y46.0064 Z-4.5671
G01 X165.0638 Y45.9950 Z-4.5926
G01 X165.1490 Y45.9761 Z-4.6181
G01 X165.2322 Y45.9499 Z-4.6435
G01 X165.3128 Y45.9165 Z-4.6690
G01 X165.3902 Y45.8762 Z-4.6944
G01 X165.4637 Y45.8293 Z-4.7199
G01 X165.5329 Y45.7762 Z-4.7454
G01 X165.5973 Y45.7173 Z-4.7708
G01 X165.6562 Y45.6530 Z-4.7963
G01 X165.7093 Y45.5837 Z-4.8218
G01 X165.7562 Y45.5102 Z-4.8472
G01 X165.7965 Y45.4328 Z-4.8727
G01 X165.8299 Y45.3522 Z-4.8981
G01 X165.8561 Y45.2690 Z-4.9236
G01 X165.8750 Y45.1838 Z-4.9491
G01 X165.8864 Y45.0973 Z-4.9745
G01 X165.8902 Y45.0102 Z-5.0000
G01 X165.8864 Y44.9230
G01 X165.8750 Y44.8365
G01 X165.8561 Y44.7513
G01 X165.8299 Y44.6681
G01 X165.7965 Y44.5876
G01 X165.7562 Y44.5102
G01 X165.7093 Y44.4366
G01 X165.6562 Y44.3674
G01 X165.5973 Y44.3031
G01 X165.5329 Y44.2441
G01 X165.4637 Y44.1910
G01 X165.3902 Y44.1441
G01 X165.3128 Y44.1039
G01 X165.2322 Y44.0705
G01 X165.1490 Y44.0442
G01 X165.0638 Y44.0254
G01 X164.9773 Y44.0140
G01 X164.8902 Y44.0102
G01 X164.8030 Y44.0140
G01 X164.7165 Y44.0254
G01 X164.6313 Y44.0442
G01 X164.5481 Y44.0705
G01 X164.4675 Y44.1039
G01 X164.3902 Y44.1441
G01 X164.3166 Y44.1910
G01 X164.2474 Y44.2441
G01 X164.1831 Y44.3031
G01 X164.1241 Y44.3674
G01 X164.0710 Y44.4366
G01 X164.0241 Y44.5102
G01 X163.9839 Y44.5876
G01 X163.9505 Y44.6681
G01 X163.9242 Y44.7513
G01 X163.9054 Y44.8365
G01 X163.8940 Y44.9230
G01 X163.8902 Y45.0102
G01 X163.8940 Y45.0973
G01 X163.9054 Y45.1838
G01 X163.9242 Y45.2690
G01 X163.9505 Y45.3522
G01 X163.9839 Y45.4328
G01 X164.0241 Y45.5102
G01 X164.0710 Y45.5837
G01 X164.1241 Y45.6530
G01 X164.1831 Y45.7173
G01 X164.2474 Y45.7762
G01 X164.3166 Y45.8293
G01 X164.3902 Y45.8762
G01 X164.4675 Y45.9165
G01 X164.5481 Y45.9499
G01 X164.6313 Y45.9761
G01 X164.7165 Y45.9950
G01 X164.8030 Y46.0064
G01 X164.8902 Y46.0102
G01 X164.9773 Y46.0064
G01 X165.0638 Y45.9950
G01 X165.1490 Y45.9761
G01 X165.2322 Y45.9499
G01 X165.3128 Y45.9165
G01 X165.3902 Y45.8762
G01 X165.4637 Y45.8293
G01 X165.5329 Y45.7762
G01 X165.5973 Y45.7173
G01 X165.6562 Y45.6530
G01 X165.7093 Y45.5837
G01 X165.7562 Y45.5102
G01 X165.7965 Y45.4328
G01 X165.8299 Y45.3522
G01 X165.8561 Y45.2690
G01 X165.8750 Y45.1838
G01 X165.8864 Y45.0973
G01 X165.8902 Y45.0102
G01 X165.9009 Y44.9586 F1000
G01 X165.9090 Y44.9065
G01 X165.9144 Y44.8541
G01 X165.9170 Y44.8014
G01 Y44.7487
G01 X165.9143 Y44.6961
G01 X165.9088 Y44.6437
G01 X165.9007 Y44.5916
G01 X165.8878 Y44.5364
G01 X165.8721 Y44.4819
G01 X165.8536 Y44.4283
G01 X165.8325 Y44.3757
G01 X165.8088 Y44.3243
G01 X165.7824 Y44.2741
G01 X165.7536 Y44.2253
G01 X165.7223 Y44.1780
G01 X165.6805 Y44.1382
G01 X165.6367 Y44.1005
G01 X165.5912 Y44.0649
G01 X165.5440 Y44.0317
G01 X165.4952 Y44.0008
G01 X165.4449 Y43.9723
G01 X165.3933 Y43.9463
G01 X165.3405 Y43.9229
G01 X165.2866 Y43.9021
G01 X165.2318 Y43.8840
G01 X165.1761 Y43.8686
G01 X165.1197 Y43.8560
G01 X165.0628 Y43.8461
G01 X165.0055 Y43.8390
G01 X164.9479 Y43.8348
G01 X164.8902 Y43.8333
G01 X164.8324 Y43.8348
G01 X164.7748 Y43.8390
G01 X164.7175 Y43.8461
G01 X164.6606 Y43.8560
G01 X164.6042 Y43.8686
G01 X164.5485 Y43.8840
G01 X164.4937 Y43.9021
G01 X164.4398 Y43.9229
G01 X164.3870 Y43.9463
G01 X164.3354 Y43.9723
G01 X164.2852 Y44.0008
G01 X164.2364 Y44.0317
G01 X164.1891 Y44.0649
G01 X164.1436 Y44.1005
G01 X164.0999 Y44.1382
G01 X164.0580 Y44.1780
G01 X164.0182 Y44.2199
G01 X163.9805 Y44.2636
G01 X163.9449 Y44.3091
G01 X163.9117 Y44.3564
G01 X163.8808 Y44.4052
G01 X163.8523 Y44.4554
G01 X163.8263 Y44.5070
G01 X163.8029 Y44.5598
G01 X163.7821 Y44.6137
G01 X163.7640 Y44.6686
G01 X163.7486 Y44.7242
G01 X163.7360 Y44.7806
G01 X163.7261 Y44.8375
G01 X163.7190 Y44.8948
G01 X163.7148 Y44.9524
G01 X163.7133 Y45.0102
G01 X163.7148 Y45.0679
G01 X163.7190 Y45.1255
G01 X163.7261 Y45.1828
G01 X163.7360 Y45.2398
G01 X163.7486 Y45.2961
G01 X163.7640 Y45.3518
G01 X163.7821 Y45.4066
G01 X163.8029 Y45.4605
G01 X163.8263 Y45.5133
G01 X163.8523 Y45.5649
G01 X163.8808 Y45.6152
G01 X163.9117 Y45.6640
G01 X163.9449 Y45.7112
G01 X163.9805 Y45.7567
G01 X164.0182 Y45.8005
G01 X164.0580 Y45.8423
G01 X164.0999 Y45.8821
G01 X164.1436 Y45.9199
G01 X164.1891 Y45.9554
G01 X164.2364 Y45.9887
G01 X164.2852 Y46.0196
G01 X164.3354 Y46.0480
G01 X164.3870 Y46.0740
G01 X164.4398 Y46.0974
G01 X164.4937 Y46.1182
G01 X164.5485 Y46.1363
G01 X164.6042 Y46.1517
G01 X164.6606 Y46.1644
G01 X164.7175 Y46.1743
G01 X164.7748 Y46.1813
G01 X164.8324 Y46.1856
G01 X164.8902 Y46.1870
G01 X164.9479 Y46.1856
G01 X165.0055 Y46.1813
G01 X165.0628 Y46.1743
G01 X165.1197 Y46.1644
G01 X165.1761 Y46.1517
G01 X165.2318 Y46.1363
G01 X165.2866 Y46.1182
G01 X165.3405 Y46.0974
G01 X165.3933 Y46.0740
G01 X165.4449 Y46.0480
G01 X165.4952 Y46.0196
G01 X165.5440 Y45.9887
G01 X165.5912 Y45.9554
G01 X165.6367 Y45.9199
G01 X165.6805 Y45.8821
G01 X165.7223 Y45.8423
G01 X165.7621 Y45.8005
G01 X165.7999 Y45.7567
G01 X165.8354 Y45.7112
G01 X165.8687 Y45.6640
G01 X165.8996 Y45.6152
G01 X165.9280 Y45.5649
G01 X165.9540 Y45.5133
G01 X165.9774 Y45.4605
G01 X165.9982 Y45.4066
G01 X166.0163 Y45.3518
G01 X166.0317 Y45.2961
G01 X166.0444 Y45.2398
G01 X166.0542 Y45.1828
G01 X166.0613 Y45.1255
G01 X166.0656 Y45.0679
G01 X166.0670 Y45.0102
G01 X166.0625 Y44.9076
G01 X166.0491 Y44.8058
G01 X166.0269 Y44.7056
G01 X165.9960 Y44.6077
G01 X165.9567 Y44.5128
G01 X165.9093 Y44.4218
G01 X165.8542 Y44.3352
G01 X165.7917 Y44.2537
G01 X165.7223 Y44.1780
G01 X165.6466 Y44.1087
G01 X165.5652 Y44.0462
G01 X165.4786 Y43.9910
G01 X165.3875 Y43.9436
G01 X165.2927 Y43.9043
G01 X165.1947 Y43.8734
G01 X165.0945 Y43.8512
G01 X164.9927 Y43.8378
G01 X164.8902 Y43.8333
G01 X164.7876 Y43.8378
G01 X164.6858 Y43.8512
G01 X164.5856 Y43.8734
G01 X164.4877 Y43.9043
G01 X164.3928 Y43.9436
G01 X164.3017 Y43.9910
G01 X164.2152 Y44.0462
G01 X164.1337 Y44.1087
G01 X164.0580 Y44.1780
G01 X163.9887 Y44.2537
G01 X163.9262 Y44.3352
G01 X163.8710 Y44.4218
G01 X163.8236 Y44.5128
G01 X163.7843 Y44.6077
G01 X163.7534 Y44.7056
G01 X163.7312 Y44.8058
G01 X163.7178 Y44.9076
G01 X163.7133 Y45.0102
G01 X163.7178 Y45.1127
G01 X163.7312 Y45.2145
G01 X163.7534 Y45.3148
G01 X163.7843 Y45.4127
G01 X163.8236 Y45.5075
G01 X163.8710 Y45.5986
G01 X163.9262 Y45.6852
G01 X163.9887 Y45.7666
G01 X164.0580 Y45.8423
G01 X164.1337 Y45.9117
G01 X164.2152 Y45.9742
G01 X164.3017 Y46.0293
G01 X164.3928 Y46.0767
G01 X164.4877 Y46.1160
G01 X164.5856 Y46.1469
G01 X164.6858 Y46.1691
G01 X164.7876 Y46.1825
G01 X164.8902 Y46.1870
G01 X164.9927 Y46.1825
G01 X165.0945 Y46.1691
G01 X165.1947 Y46.1469
G01 X165.2927 Y46.1160
G01 X165.3875 Y46.0767
G01 X165.4786 Y46.0293
G01 X165.5652 Y45.9742
G01 X165.6466 Y45.9117
G01 X165.7223 Y45.8423
G01 X165.7917 Y45.7666
G01 X165.8542 Y45.6852
G01 X165.9093 Y45.5986
G01 X165.9567 Y45.5075
G01 X165.9960 Y45.4127
G01 X166.0269 Y45.3148
G01 X166.0491 Y45.2145
G01 X166.0625 Y45.1127
G01 X166.0670 Y45.0102
M107
M106 S240
G01 X166.0639 Y44.9317 Z-4.9750 F400
M107
M106 S240
G01 X166.0547 Y44.8537 Z-4.9500
M107
M106 S240
G01 X166.0394 Y44.7767 Z-4.9250
M107
M106 S240
G01 X166.0180 Y44.7012 Z-4.9000
M107
M106 S240
G01 X165.9909 Y44.6275 Z-4.8750
M107
M106 S240
G01 X165.9580 Y44.5562 Z-4.8500
M107
M106 S240
G01 X165.9196 Y44.4877 Z-4.8250
M107
M106 S240
G01 X165.8760 Y44.4224 Z-4.8000
M107
M106 S240
G01 X165.8274 Y44.3607 Z-4.7750
M107
M106 S240
G01 X165.7741 Y44.3031 Z-4.7500
M107
M106 S240
G01 X165.7164 Y44.2498 Z-4.7250
M107
M106 S240
G01 X165.6548 Y44.2012 Z-4.7000
M107
M106 S240
G01 X165.5895 Y44.1575 Z-4.6750
M107
M106 S240
G01 X165.5210 Y44.1192 Z-4.6500
M107
M106 S240
G01 X165.4497 Y44.0863 Z-4.6250
M107
M106 S240
G01 X165.3760 Y44.0591 Z-4.6000
M107
M106 S240
G01 X165.3004 Y44.0378 Z-4.5750
M107
M106 S240
G01 X165.2234 Y44.0225 Z-4.5500
M107
M106 S240
G01 X165.1454 Y44.0133 Z-4.5250
M107
M106 S240
G01 X165.0670 Y44.0102 Z-4.5000
M107
G00 Z2.0000


;No. 13: Helical drill 6
G00 X216.7141 Y44.7564 Z2.0000
G00 Z0.5000
M106 S240
G01 X216.7103 Y44.6693 Z0.4745 F400
G01 X216.6989 Y44.5828 Z0.4491
G01 X216.6800 Y44.4976 Z0.4236
G01 X216.6538 Y44.4144 Z0.3981
G01 X216.6204 Y44.3338 Z0.3727
G01 X216.5801 Y44.2564 Z0.3472
G01 X216.5333 Y44.1828 Z0.3218
G01 X216.4802 Y44.1136 Z0.2963
G01 X216.4212 Y44.0493 Z0.2708
G01 X216.3569 Y43.9904 Z0.2454
G01 X216.2877 Y43.9373 Z0.2199
G01 X216.2141 Y43.8904 Z0.1944
G01 X216.1367 Y43.8501 Z0.1690
G01 X216.0561 Y43.8167 Z0.1435
G01 X215.9729 Y43.7905 Z0.1181
G01 X215.8878 Y43.7716 Z0.0926
G01 X215.8013 Y43.7602 Z0.0671
G01 X215.7141 Y43.7564 Z0.0417
G01 X215.6270 Y43.7602 Z0.0162
G01 X215.5405 Y43.7716 Z-0.0093
G01 X215.4553 Y43.7905 Z-0.0347
G01 X215.3721 Y43.8167 Z-0.0602
G01 X215.2915 Y43.8501 Z-0.0856
G01 X215.2141 Y43.8904 Z-0.1111
G01 X215.1405 Y43.9373 Z-0.1366
G01 X215.0713 Y43.9904 Z-0.1620
G01 X215.0070 Y44.0493 Z-0.1875
G01 X214.9481 Y44.1136 Z-0.2130
G01 X214.8950 Y44.1828 Z-0.2384
G01 X214.8481 Y44.2564 Z-0.2639
G01 X214.8078 Y44.3338 Z-0.2894
G01 X214.7744 Y44.4144 Z-0.3148
G01 X214.7482 Y44.4976 Z-0.3403
G01 X214.7293 Y44.5828 Z-0.3657
G01 X214.7179 Y44.6693 Z-0.3912
G01 X214.7141 Y44.7564 Z-0.4167
G01 X214.7179 Y44.8436 Z-0.4421
G01 X214.7293 Y44.9301 Z-0.4676
G01 X214.7482 Y45.0152 Z-0.4931
G01 X214.7744 Y45.0984 Z-0.5185
G01 X214.8078 Y45.1790 Z-0.5440
G01 X214.8481 Y45.2564 Z-0.5694
G01 X214.8950 Y45.3300 Z-0.5949
G01 X214.9481 Y45.3992 Z-0.6204
G01 X215.0070 Y45.4635 Z-0.6458
G01 X215.0713 Y45.5225 Z-0.6713
G01 X215.1405 Y45.5756 Z-0.6968
G01 X215.2141 Y45.6224 Z-0.7222
G01 X215.2915 Y45.6627 Z-0.7477
G01 X215.3721 Y45.6961 Z-0.7731
G01 X215.4553 Y45.7223 Z-0.7986
G01 X215.5405 Y45.7412 Z-0.8241
G01 X215.6270 Y45.7526 Z-0.8495
G01 X215.7141 Y45.7564 Z-0.8750
G01 X215.8013 Y45.7526 Z-0.9005
G01 X215.8878 Y45.7412 Z-0.9259
G01 X215.9729 Y45.7223 Z-0.9514
G01 X216.0561 Y45.6961 Z-0.9769
G01 X216.1367 Y45.6627 Z-1.0023
G01 X216.2141 Y45.6224 Z-1.0278
G01 X216.2877 Y45.5756 Z-1.0532
G01 X216.3569 Y45.5225 Z-1.0787
G01 X216.4212 Y45.4635 Z-1.1042
G01 X216.4802 Y45.3992 Z-1.1296
G01 X216.5333 Y45.3300 Z-1.1551
G01 X216.5801 Y45.2564 Z-1.1806
G01 X216.6204 Y45.1790 Z-1.2060
G01 X216.6538 Y45.0984 Z-1.2315
G01 X216.6800 Y45.0152 Z-1.2569
G01 X216.6989 Y44.9301 Z-1.2824
G01 X216.7103 Y44.8436 Z-1.3079
G01 X216.7141 Y44.7564 Z-1.3333
G01 X216.7103 Y44.6693
G01 X216.6989 Y44.5828
G01 X216.6800 Y44.4976
G01 X216.6538 Y44.4144
G01 X216.6204 Y44.3338
G01 X216.5801 Y44.2564
G01 X216.5333 Y44.1828
G01 X216.4802 Y44.1136
G01 X216.4212 Y44.0493
G01 X216.3569 Y43.9904
G01 X216.2877 Y43.9373
G01 X216.2141 Y43.8904
G01 X216.1367 Y43.8501
G01 X216.0561 Y43.8167
G01 X215.9729 Y43.7905
G01 X215.8878 Y43.7716
G01 X215.8013 Y43.7602
G01 X215.7141 Y43.7564
G01 X215.6270 Y43.7602
G01 X215.5405 Y43.7716
G01 X215.4553 Y43.7905
G01 X215.3721 Y43.8167
G01 X215.2915 Y43.8501
G01 X215.2141 Y43.8904
G01 X215.1405 Y43.9373
G01 X215.0713 Y43.9904
G01 X215.0070 Y44.0493
G01 X214.9481 Y44.1136
G01 X214.8950 Y44.1828
G01 X214.8481 Y44.2564
G01 X214.8078 Y44.3338
G01 X214.7744 Y44.4144
G01 X214.7482 Y44.4976
G01 X214.7293 Y44.5828
G01 X214.7179 Y44.6693
G01 X214.7141 Y44.7564
G01 X214.7179 Y44.8436
G01 X214.7293 Y44.9301
G01 X214.7482 Y45.0152
G01 X214.7744 Y45.0984
G01 X214.8078 Y45.1790
G01 X214.8481 Y45.2564
G01 X214.8950 Y45.3300
G01 X214.9481 Y45.3992
G01 X215.0070 Y45.4635
G01 X215.0713 Y45.5225
G01 X215.1405 Y45.5756
G01 X215.2141 Y45.6224
G01 X215.2915 Y45.6627
G01 X215.3721 Y45.6961
G01 X215.4553 Y45.7223
G01 X215.5405 Y45.7412
G01 X215.6270 Y45.7526
G01 X215.7141 Y45.7564
G01 X215.8013 Y45.7526
G01 X215.8878 Y45.7412
G01 X215.9729 Y45.7223
G01 X216.0561 Y45.6961
G01 X216.1367 Y45.6627
G01 X216.2141 Y45.6224
G01 X216.2877 Y45.5756
G01 X216.3569 Y45.5225
G01 X216.4212 Y45.4635
G01 X216.4802 Y45.3992
G01 X216.5333 Y45.3300
G01 X216.5801 Y45.2564
G01 X216.6204 Y45.1790
G01 X216.6538 Y45.0984
G01 X216.6800 Y45.0152
G01 X216.6989 Y44.9301
G01 X216.7103 Y44.8436
G01 X216.7141 Y44.7564
G01 X216.7249 Y44.7048 F1000
G01 X216.7329 Y44.6527
G01 X216.7383 Y44.6003
G01 X216.7410 Y44.5477
G01 Y44.4950
G01 X216.7382 Y44.4423
G01 X216.7328 Y44.3899
G01 X216.7246 Y44.3379
G01 X216.7117 Y44.2827
G01 X216.6960 Y44.2282
G01 X216.6776 Y44.1746
G01 X216.6565 Y44.1220
G01 X216.6327 Y44.0705
G01 X216.6064 Y44.0203
G01 X216.5775 Y43.9715
G01 X216.5463 Y43.9243
G01 X216.5044 Y43.8844
G01 X216.4607 Y43.8467
G01 X216.4152 Y43.8112
G01 X216.3679 Y43.7779
G01 X216.3191 Y43.7470
G01 X216.2689 Y43.7185
G01 X216.2173 Y43.6926
G01 X216.1645 Y43.6692
G01 X216.1106 Y43.6484
G01 X216.0557 Y43.6303
G01 X216.0001 Y43.6148
G01 X215.9437 Y43.6022
G01 X215.8868 Y43.5923
G01 X215.8295 Y43.5852
G01 X215.7719 Y43.5810
G01 X215.7141 Y43.5796
G01 X215.6564 Y43.5810
G01 X215.5988 Y43.5852
G01 X215.5414 Y43.5923
G01 X215.4845 Y43.6022
G01 X215.4282 Y43.6148
G01 X215.3725 Y43.6303
G01 X215.3177 Y43.6484
G01 X215.2638 Y43.6692
G01 X215.2110 Y43.6926
G01 X215.1594 Y43.7185
G01 X215.1091 Y43.7470
G01 X215.0603 Y43.7779
G01 X215.0131 Y43.8112
G01 X214.9675 Y43.8467
G01 X214.9238 Y43.8844
G01 X214.8820 Y43.9243
G01 X214.8421 Y43.9661
G01 X214.8044 Y44.0098
G01 X214.7689 Y44.0554
G01 X214.7356 Y44.1026
G01 X214.7047 Y44.1514
G01 X214.6762 Y44.2017
G01 X214.6503 Y44.2533
G01 X214.6269 Y44.3061
G01 X214.6061 Y44.3599
G01 X214.5880 Y44.4148
G01 X214.5725 Y44.4705
G01 X214.5599 Y44.5268
G01 X214.5500 Y44.5837
G01 X214.5429 Y44.6411
G01 X214.5387 Y44.6987
G01 X214.5373 Y44.7564
G01 X214.5387 Y44.8142
G01 X214.5429 Y44.8718
G01 X214.5500 Y44.9291
G01 X214.5599 Y44.9860
G01 X214.5725 Y45.0424
G01 X214.5880 Y45.0980
G01 X214.6061 Y45.1529
G01 X214.6269 Y45.2068
G01 X214.6503 Y45.2596
G01 X214.6762 Y45.3112
G01 X214.7047 Y45.3614
G01 X214.7356 Y45.4102
G01 X214.7689 Y45.4575
G01 X214.8044 Y45.5030
G01 X214.8421 Y45.5467
G01 X214.8820 Y45.5886
G01 X214.9238 Y45.6284
G01 X214.9675 Y45.6661
G01 X215.0131 Y45.7017
G01 X215.0603 Y45.7349
G01 X215.1091 Y45.7658
G01 X215.1594 Y45.7943
G01 X215.2110 Y45.8203
G01 X215.2638 Y45.8437
G01 X215.3177 Y45.8645
G01 X215.3725 Y45.8826
G01 X215.4282 Y45.8980
G01 X215.4845 Y45.9106
G01 X215.5414 Y45.9205
G01 X215.5988 Y45.9276
G01 X215.6564 Y45.9318
G01 X215.7141 Y45.9332
G01 X215.7719 Y45.9318
G01 X215.8295 Y45.9276
G01 X215.8868 Y45.9205
G01 X215.9437 Y45.9106
G01 X216.0001 Y45.8980
G01 X216.0557 Y45.8826
G01 X216.1106 Y45.8645
G01 X216.1645 Y45.8437
G01 X216.2173 Y45.8203
G01 X216.2689 Y45.7943
G01 X216.3191 Y45.7658
G01 X216.3679 Y45.7349
G01 X216.4152 Y45.7017
G01 X216.4607 Y45.6661
G01 X216.5044 Y45.6284
G01 X216.5463 Y45.5886
G01 X216.5861 Y45.5467
G01 X216.6238 Y45.5030
G01 X216.6594 Y45.4575
G01 X216.6926 Y45.4102
G01 X216.7235 Y45.3614
G01 X216.7520 Y45.3112
G01 X216.7780 Y45.2596
G01 X216.8014 Y45.2068
G01 X216.8222 Y45.1529
G01 X216.8403 Y45.0980
G01 X216.8557 Y45.0424
G01 X216.8683 Y44.9860
G01 X216.8782 Y44.9291
G01 X216.8853 Y44.8718
G01 X216.8895 Y44.8142
G01 X216.8910 Y44.7564
G01 X216.8865 Y44.6538
G01 X216.8731 Y44.5521
G01 X216.8509 Y44.4518
G01 X216.8200 Y44.3539
G01 X216.7807 Y44.2591
G01 X216.7333 Y44.1680
G01 X216.6781 Y44.0814
G01 X216.6156 Y44.0000
G01 X216.5463 Y43.9243
G01 X216.4706 Y43.8549
G01 X216.3891 Y43.7924
G01 X216.3025 Y43.7372
G01 X216.2115 Y43.6898
G01 X216.1166 Y43.6505
G01 X216.0187 Y43.6197
G01 X215.9185 Y43.5975
G01 X215.8167 Y43.5841
G01 X215.7141 Y43.5796
G01 X215.6115 Y43.5841
G01 X215.5098 Y43.5975
G01 X215.4095 Y43.6197
G01 X215.3116 Y43.6505
G01 X215.2168 Y43.6898
G01 X215.1257 Y43.7372
G01 X215.0391 Y43.7924
G01 X214.9577 Y43.8549
G01 X214.8820 Y43.9243
G01 X214.8126 Y44.0000
G01 X214.7501 Y44.0814
G01 X214.6949 Y44.1680
G01 X214.6475 Y44.2591
G01 X214.6083 Y44.3539
G01 X214.5774 Y44.4518
G01 X214.5552 Y44.5521
G01 X214.5418 Y44.6538
G01 X214.5373 Y44.7564
G01 X214.5418 Y44.8590
G01 X214.5552 Y44.9608
G01 X214.5774 Y45.0610
G01 X214.6083 Y45.1589
G01 X214.6475 Y45.2538
G01 X214.6949 Y45.3448
G01 X214.7501 Y45.4314
G01 X214.8126 Y45.5129
G01 X214.8820 Y45.5886
G01 X214.9577 Y45.6579
G01 X215.0391 Y45.7204
G01 X215.1257 Y45.7756
G01 X215.2168 Y45.8230
G01 X215.3116 Y45.8623
G01 X215.4095 Y45.8931
G01 X215.5098 Y45.9154
G01 X215.6115 Y45.9288
G01 X215.7141 Y45.9332
G01 X215.8167 Y45.9288
G01 X215.9185 Y45.9154
G01 X216.0187 Y45.8931
G01 X216.1166 Y45.8623
G01 X216.2115 Y45.8230
G01 X216.3025 Y45.7756
G01 X216.3891 Y45.7204
G01 X216.4706 Y45.6579
G01 X216.5463 Y45.5886
G01 X216.6156 Y45.5129
G01 X216.6781 Y45.4314
G01 X216.7333 Y45.3448
G01 X216.7807 Y45.2538
G01 X216.8200 Y45.1589
G01 X216.8509 Y45.0610
G01 X216.8731 Y44.9608
G01 X216.8865 Y44.8590
G01 X216.8910 Y44.7564
G01 X216.8868 Y44.6616
G01 X216.8744 Y44.5674
G01 X216.8539 Y44.4747
G01 X216.8253 Y44.3842
G01 X216.7890 Y44.2964
G01 X216.7451 Y44.2122
G01 X216.6941 Y44.1321
G01 X216.6363 Y44.0568
G01 X216.5722 Y43.9868
G01 X216.5022 Y43.9226
G01 X216.4268 Y43.8648
G01 X216.3467 Y43.8138
G01 X216.2625 Y43.7700
G01 X216.1748 Y43.7336
G01 X216.0842 Y43.7051
G01 X215.9915 Y43.6845
G01 X215.8974 Y43.6721
G01 X215.8025 Y43.6680
G01 X215.7077 Y43.6721
G01 X215.6135 Y43.6845
G01 X215.5208 Y43.7051
G01 X215.4303 Y43.7336
G01 X215.3425 Y43.7700
G01 X215.2583 Y43.8138
G01 X215.1782 Y43.8648
G01 X215.1029 Y43.9226
G01 X215.0329 Y43.9868
G01 X214.9688 Y44.0568
G01 X214.9110 Y44.1321
G01 X214.8599 Y44.2122
G01 X214.8161 Y44.2964
G01 X214.7798 Y44.3842
G01 X214.7512 Y44.4747
G01 X214.7307 Y44.5674
G01 X214.7183 Y44.6616
G01 X214.7141 Y44.7564
G01 X214.7179 Y44.8436
G01 X214.7293 Y44.9301
G01 X214.7482 Y45.0152
G01 X214.7744 Y45.0984
G01 X214.8078 Y45.1790
G01 X214.8481 Y45.2564
G01 X214.8950 Y45.3300
G01 X214.9481 Y45.3992
G01 X215.0070 Y45.4635
G01 X215.0713 Y45.5225
G01 X215.1405 Y45.5756
G01 X215.2141 Y45.6224
G01 X215.2915 Y45.6627
G01 X215.3721 Y45.6961
G01 X215.4553 Y45.7223
G01 X215.5405 Y45.7412
G01 X215.6270 Y45.7526
G01 X215.7141 Y45.7564
G01 X215.8013 Y45.7526
G01 X215.8878 Y45.7412
G01 X215.9729 Y45.7223
G01 X216.0561 Y45.6961
G01 X216.1367 Y45.6627
G01 X216.2141 Y45.6224
G01 X216.2877 Y45.5756
G01 X216.3569 Y45.5225
G01 X216.4212 Y45.4635
G01 X216.4802 Y45.3992
G01 X216.5333 Y45.3300
G01 X216.5801 Y45.2564
G01 X216.6204 Y45.1790
G01 X216.6538 Y45.0984
G01 X216.6800 Y45.0152
G01 X216.6989 Y44.9301
G01 X216.7103 Y44.8436
G01 X216.7141 Y44.7564
M107
M106 S240
G01 X216.7103 Y44.6693 Z-1.3588 F400
G01 X216.6989 Y44.5828 Z-1.3843
G01 X216.6800 Y44.4976 Z-1.4097
G01 X216.6538 Y44.4144 Z-1.4352
G01 X216.6204 Y44.3338 Z-1.4606
G01 X216.5801 Y44.2564 Z-1.4861
G01 X216.5333 Y44.1828 Z-1.5116
G01 X216.4802 Y44.1136 Z-1.5370
G01 X216.4212 Y44.0493 Z-1.5625
G01 X216.3569 Y43.9904 Z-1.5880
G01 X216.2877 Y43.9373 Z-1.6134
G01 X216.2141 Y43.8904 Z-1.6389
G01 X216.1367 Y43.8501 Z-1.6644
G01 X216.0561 Y43.8167 Z-1.6898
G01 X215.9729 Y43.7905 Z-1.7153
G01 X215.8878 Y43.7716 Z-1.7407
G01 X215.8013 Y43.7602 Z-1.7662
G01 X215.7141 Y43.7564 Z-1.7917
G01 X215.6270 Y43.7602 Z-1.8171
G01 X215.5405 Y43.7716 Z-1.8426
G01 X215.4553 Y43.7905 Z-1.8681
G01 X215.3721 Y43.8167 Z-1.8935
G01 X215.2915 Y43.8501 Z-1.9190
G01 X215.2141 Y43.8904 Z-1.9444
G01 X215.1405 Y43.9373 Z-1.9699
G01 X215.0713 Y43.9904 Z-1.9954
G01 X215.0070 Y44.0493 Z-2.0208
G01 X214.9481 Y44.1136 Z-2.0463
G01 X214.8950 Y44.1828 Z-2.0718
G01 X214.8481 Y44.2564 Z-2.0972
G01 X214.8078 Y44.3338 Z-2.1227
G01 X214.7744 Y44.4144 Z-2.1481
G01 X214.7482 Y44.4976 Z-2.1736
G01 X214.7293 Y44.5828 Z-2.1991
G01 X214.7179 Y44.6693 Z-2.2245
G01 X214.7141 Y44.7564 Z-2.2500
G01 X214.7179 Y44.8436 Z-2.2755
G01 X214.7293 Y44.9301 Z-2.3009
G01 X214.7482 Y45.0152 Z-2.3264
G01 X214.7744 Y45.0984 Z-2.3519
G01 X214.8078 Y45.1790 Z-2.3773
G01 X214.8481 Y45.2564 Z-2.4028
G01 X214.8950 Y45.3300 Z-2.4282
G01 X214.9481 Y45.3992 Z-2.4537
G01 X215.0070 Y45.4635 Z-2.4792
G01 X215.0713 Y45.5225 Z-2.5046
G01 X215.1405 Y45.5756 Z-2.5301
G01 X215.2141 Y45.6224 Z-2.5556
G01 X215.2915 Y45.6627 Z-2.5810
G01 X215.3721 Y45.6961 Z-2.6065
G01 X215.4553 Y45.7223 Z-2.6319
G01 X215.5405 Y45.7412 Z-2.6574
G01 X215.6270 Y45.7526 Z-2.6829
G01 X215.7141 Y45.7564 Z-2.7083
G01 X215.8013 Y45.7526 Z-2.7338
G01 X215.8878 Y45.7412 Z-2.7593
G01 X215.9729 Y45.7223 Z-2.7847
G01 X216.0561 Y45.6961 Z-2.8102
G01 X216.1367 Y45.6627 Z-2.8356
G01 X216.2141 Y45.6224 Z-2.8611
G01 X216.2877 Y45.5756 Z-2.8866
G01 X216.3569 Y45.5225 Z-2.9120
G01 X216.4212 Y45.4635 Z-2.9375
G01 X216.4802 Y45.3992 Z-2.9630
G01 X216.5333 Y45.3300 Z-2.9884
G01 X216.5801 Y45.2564 Z-3.0139
G01 X216.6204 Y45.1790 Z-3.0394
G01 X216.6538 Y45.0984 Z-3.0648
G01 X216.6800 Y45.0152 Z-3.0903
G01 X216.6989 Y44.9301 Z-3.1157
G01 X216.7103 Y44.8436 Z-3.1412
G01 X216.7141 Y44.7564 Z-3.1667
G01 X216.7103 Y44.6693
G01 X216.6989 Y44.5828
G01 X216.6800 Y44.4976
G01 X216.6538 Y44.4144
G01 X216.6204 Y44.3338
G01 X216.5801 Y44.2564
G01 X216.5333 Y44.1828
G01 X216.4802 Y44.1136
G01 X216.4212 Y44.0493
G01 X216.3569 Y43.9904
G01 X216.2877 Y43.9373
G01 X216.2141 Y43.8904
G01 X216.1367 Y43.8501
G01 X216.0561 Y43.8167
G01 X215.9729 Y43.7905
G01 X215.8878 Y43.7716
G01 X215.8013 Y43.7602
G01 X215.7141 Y43.7564
G01 X215.6270 Y43.7602
G01 X215.5405 Y43.7716
G01 X215.4553 Y43.7905
G01 X215.3721 Y43.8167
G01 X215.2915 Y43.8501
G01 X215.2141 Y43.8904
G01 X215.1405 Y43.9373
G01 X215.0713 Y43.9904
G01 X215.0070 Y44.0493
G01 X214.9481 Y44.1136
G01 X214.8950 Y44.1828
G01 X214.8481 Y44.2564
G01 X214.8078 Y44.3338
G01 X214.7744 Y44.4144
G01 X214.7482 Y44.4976
G01 X214.7293 Y44.5828
G01 X214.7179 Y44.6693
G01 X214.7141 Y44.7564
G01 X214.7179 Y44.8436
G01 X214.7293 Y44.9301
G01 X214.7482 Y45.0152
G01 X214.7744 Y45.0984
G01 X214.8078 Y45.1790
G01 X214.8481 Y45.2564
G01 X214.8950 Y45.3300
G01 X214.9481 Y45.3992
G01 X215.0070 Y45.4635
G01 X215.0713 Y45.5225
G01 X215.1405 Y45.5756
G01 X215.2141 Y45.6224
G01 X215.2915 Y45.6627
G01 X215.3721 Y45.6961
G01 X215.4553 Y45.7223
G01 X215.5405 Y45.7412
G01 X215.6270 Y45.7526
G01 X215.7141 Y45.7564
G01 X215.8013 Y45.7526
G01 X215.8878 Y45.7412
G01 X215.9729 Y45.7223
G01 X216.0561 Y45.6961
G01 X216.1367 Y45.6627
G01 X216.2141 Y45.6224
G01 X216.2877 Y45.5756
G01 X216.3569 Y45.5225
G01 X216.4212 Y45.4635
G01 X216.4802 Y45.3992
G01 X216.5333 Y45.3300
G01 X216.5801 Y45.2564
G01 X216.6204 Y45.1790
G01 X216.6538 Y45.0984
G01 X216.6800 Y45.0152
G01 X216.6989 Y44.9301
G01 X216.7103 Y44.8436
G01 X216.7141 Y44.7564
G01 X216.7249 Y44.7048 F1000
G01 X216.7329 Y44.6527
G01 X216.7383 Y44.6003
G01 X216.7410 Y44.5477
G01 Y44.4950
G01 X216.7382 Y44.4423
G01 X216.7328 Y44.3899
G01 X216.7246 Y44.3379
G01 X216.7117 Y44.2827
G01 X216.6960 Y44.2282
G01 X216.6776 Y44.1746
G01 X216.6565 Y44.1220
G01 X216.6327 Y44.0705
G01 X216.6064 Y44.0203
G01 X216.5775 Y43.9715
G01 X216.5463 Y43.9243
G01 X216.5044 Y43.8844
G01 X216.4607 Y43.8467
G01 X216.4152 Y43.8112
G01 X216.3679 Y43.7779
G01 X216.3191 Y43.7470
G01 X216.2689 Y43.7185
G01 X216.2173 Y43.6926
G01 X216.1645 Y43.6692
G01 X216.1106 Y43.6484
G01 X216.0557 Y43.6303
G01 X216.0001 Y43.6148
G01 X215.9437 Y43.6022
G01 X215.8868 Y43.5923
G01 X215.8295 Y43.5852
G01 X215.7719 Y43.5810
G01 X215.7141 Y43.5796
G01 X215.6564 Y43.5810
G01 X215.5988 Y43.5852
G01 X215.5414 Y43.5923
G01 X215.4845 Y43.6022
G01 X215.4282 Y43.6148
G01 X215.3725 Y43.6303
G01 X215.3177 Y43.6484
G01 X215.2638 Y43.6692
G01 X215.2110 Y43.6926
G01 X215.1594 Y43.7185
G01 X215.1091 Y43.7470
G01 X215.0603 Y43.7779
G01 X215.0131 Y43.8112
G01 X214.9675 Y43.8467
G01 X214.9238 Y43.8844
G01 X214.8820 Y43.9243
G01 X214.8421 Y43.9661
G01 X214.8044 Y44.0098
G01 X214.7689 Y44.0554
G01 X214.7356 Y44.1026
G01 X214.7047 Y44.1514
G01 X214.6762 Y44.2017
G01 X214.6503 Y44.2533
G01 X214.6269 Y44.3061
G01 X214.6061 Y44.3599
G01 X214.5880 Y44.4148
G01 X214.5725 Y44.4705
G01 X214.5599 Y44.5268
G01 X214.5500 Y44.5837
G01 X214.5429 Y44.6411
G01 X214.5387 Y44.6987
G01 X214.5373 Y44.7564
G01 X214.5387 Y44.8142
G01 X214.5429 Y44.8718
G01 X214.5500 Y44.9291
G01 X214.5599 Y44.9860
G01 X214.5725 Y45.0424
G01 X214.5880 Y45.0980
G01 X214.6061 Y45.1529
G01 X214.6269 Y45.2068
G01 X214.6503 Y45.2596
G01 X214.6762 Y45.3112
G01 X214.7047 Y45.3614
G01 X214.7356 Y45.4102
G01 X214.7689 Y45.4575
G01 X214.8044 Y45.5030
G01 X214.8421 Y45.5467
G01 X214.8820 Y45.5886
G01 X214.9238 Y45.6284
G01 X214.9675 Y45.6661
G01 X215.0131 Y45.7017
G01 X215.0603 Y45.7349
G01 X215.1091 Y45.7658
G01 X215.1594 Y45.7943
G01 X215.2110 Y45.8203
G01 X215.2638 Y45.8437
G01 X215.3177 Y45.8645
G01 X215.3725 Y45.8826
G01 X215.4282 Y45.8980
G01 X215.4845 Y45.9106
G01 X215.5414 Y45.9205
G01 X215.5988 Y45.9276
G01 X215.6564 Y45.9318
G01 X215.7141 Y45.9332
G01 X215.7719 Y45.9318
G01 X215.8295 Y45.9276
G01 X215.8868 Y45.9205
G01 X215.9437 Y45.9106
G01 X216.0001 Y45.8980
G01 X216.0557 Y45.8826
G01 X216.1106 Y45.8645
G01 X216.1645 Y45.8437
G01 X216.2173 Y45.8203
G01 X216.2689 Y45.7943
G01 X216.3191 Y45.7658
G01 X216.3679 Y45.7349
G01 X216.4152 Y45.7017
G01 X216.4607 Y45.6661
G01 X216.5044 Y45.6284
G01 X216.5463 Y45.5886
G01 X216.5861 Y45.5467
G01 X216.6238 Y45.5030
G01 X216.6594 Y45.4575
G01 X216.6926 Y45.4102
G01 X216.7235 Y45.3614
G01 X216.7520 Y45.3112
G01 X216.7780 Y45.2596
G01 X216.8014 Y45.2068
G01 X216.8222 Y45.1529
G01 X216.8403 Y45.0980
G01 X216.8557 Y45.0424
G01 X216.8683 Y44.9860
G01 X216.8782 Y44.9291
G01 X216.8853 Y44.8718
G01 X216.8895 Y44.8142
G01 X216.8910 Y44.7564
G01 X216.8865 Y44.6538
G01 X216.8731 Y44.5521
G01 X216.8509 Y44.4518
G01 X216.8200 Y44.3539
G01 X216.7807 Y44.2591
G01 X216.7333 Y44.1680
G01 X216.6781 Y44.0814
G01 X216.6156 Y44.0000
G01 X216.5463 Y43.9243
G01 X216.4706 Y43.8549
G01 X216.3891 Y43.7924
G01 X216.3025 Y43.7372
G01 X216.2115 Y43.6898
G01 X216.1166 Y43.6505
G01 X216.0187 Y43.6197
G01 X215.9185 Y43.5975
G01 X215.8167 Y43.5841
G01 X215.7141 Y43.5796
G01 X215.6115 Y43.5841
G01 X215.5098 Y43.5975
G01 X215.4095 Y43.6197
G01 X215.3116 Y43.6505
G01 X215.2168 Y43.6898
G01 X215.1257 Y43.7372
G01 X215.0391 Y43.7924
G01 X214.9577 Y43.8549
G01 X214.8820 Y43.9243
G01 X214.8126 Y44.0000
G01 X214.7501 Y44.0814
G01 X214.6949 Y44.1680
G01 X214.6475 Y44.2591
G01 X214.6083 Y44.3539
G01 X214.5774 Y44.4518
G01 X214.5552 Y44.5521
G01 X214.5418 Y44.6538
G01 X214.5373 Y44.7564
G01 X214.5418 Y44.8590
G01 X214.5552 Y44.9608
G01 X214.5774 Y45.0610
G01 X214.6083 Y45.1589
G01 X214.6475 Y45.2538
G01 X214.6949 Y45.3448
G01 X214.7501 Y45.4314
G01 X214.8126 Y45.5129
G01 X214.8820 Y45.5886
G01 X214.9577 Y45.6579
G01 X215.0391 Y45.7204
G01 X215.1257 Y45.7756
G01 X215.2168 Y45.8230
G01 X215.3116 Y45.8623
G01 X215.4095 Y45.8931
G01 X215.5098 Y45.9154
G01 X215.6115 Y45.9288
G01 X215.7141 Y45.9332
G01 X215.8167 Y45.9288
G01 X215.9185 Y45.9154
G01 X216.0187 Y45.8931
G01 X216.1166 Y45.8623
G01 X216.2115 Y45.8230
G01 X216.3025 Y45.7756
G01 X216.3891 Y45.7204
G01 X216.4706 Y45.6579
G01 X216.5463 Y45.5886
G01 X216.6156 Y45.5129
G01 X216.6781 Y45.4314
G01 X216.7333 Y45.3448
G01 X216.7807 Y45.2538
G01 X216.8200 Y45.1589
G01 X216.8509 Y45.0610
G01 X216.8731 Y44.9608
G01 X216.8865 Y44.8590
G01 X216.8910 Y44.7564
G01 X216.8868 Y44.6616
G01 X216.8744 Y44.5674
G01 X216.8539 Y44.4747
G01 X216.8253 Y44.3842
G01 X216.7890 Y44.2964
G01 X216.7451 Y44.2122
G01 X216.6941 Y44.1321
G01 X216.6363 Y44.0568
G01 X216.5722 Y43.9868
G01 X216.5022 Y43.9226
G01 X216.4268 Y43.8648
G01 X216.3467 Y43.8138
G01 X216.2625 Y43.7700
G01 X216.1748 Y43.7336
G01 X216.0842 Y43.7051
G01 X215.9915 Y43.6845
G01 X215.8974 Y43.6721
G01 X215.8025 Y43.6680
G01 X215.7077 Y43.6721
G01 X215.6135 Y43.6845
G01 X215.5208 Y43.7051
G01 X215.4303 Y43.7336
G01 X215.3425 Y43.7700
G01 X215.2583 Y43.8138
G01 X215.1782 Y43.8648
G01 X215.1029 Y43.9226
G01 X215.0329 Y43.9868
G01 X214.9688 Y44.0568
G01 X214.9110 Y44.1321
G01 X214.8599 Y44.2122
G01 X214.8161 Y44.2964
G01 X214.7798 Y44.3842
G01 X214.7512 Y44.4747
G01 X214.7307 Y44.5674
G01 X214.7183 Y44.6616
G01 X214.7141 Y44.7564
