;Project TeslaParkingV3
;Created by Estlcam version 11 build 11,233
;Machining time about 00:19:03 hours

G90
M03 S18000
G00 X0.0000 Y0.0000 Z0.0000
G00 Z2.0000


;No. 1: Helical drill 1
G00 X35.1142 Y264.9998
G00 Z0.5000
M106 S240
G01 X35.1104 Y264.9127 Z0.4774 F400 S18000
G01 X35.0990 Y264.8262 Z0.4549
G01 X35.0801 Y264.7410 Z0.4323
G01 X35.0539 Y264.6578 Z0.4097
G01 X35.0205 Y264.5772 Z0.3872
G01 X34.9802 Y264.4998 Z0.3646
G01 X34.9334 Y264.4263 Z0.3420
G01 X34.8802 Y264.3571 Z0.3194
G01 X34.8213 Y264.2927 Z0.2969
G01 X34.7570 Y264.2338 Z0.2743
G01 X34.6878 Y264.1807 Z0.2517
G01 X34.6142 Y264.1338 Z0.2292
G01 X34.5368 Y264.0935 Z0.2066
G01 X34.4562 Y264.0602 Z0.1840
G01 X34.3730 Y264.0339 Z0.1615
G01 X34.2878 Y264.0150 Z0.1389
G01 X34.2014 Y264.0036 Z0.1163
G01 X34.1142 Y263.9998 Z0.0938
G01 X34.0270 Y264.0036 Z0.0712
G01 X33.9406 Y264.0150 Z0.0486
G01 X33.8554 Y264.0339 Z0.0260
G01 X33.7722 Y264.0602 Z0.0035
G01 X33.6916 Y264.0935 Z-0.0191
G01 X33.6142 Y264.1338 Z-0.0417
G01 X33.5736 Y264.1586 Z-0.0540
G01 X33.5341 Y264.1853 Z-0.0663
G01 X33.4960 Y264.2138 Z-0.0786
G01 X33.4593 Y264.2441 Z-0.0909
G01 X33.4241 Y264.2761 Z-0.1032
G01 X33.3905 Y264.3098 Z-0.1155
G01 X33.3584 Y264.3450 Z-0.1278
G01 X33.3281 Y264.3817 Z-0.1402
G01 X33.2996 Y264.4198 Z-0.1525
G01 X33.2729 Y264.4592 Z-0.1648
G01 X33.2482 Y264.4998 Z-0.1771
G01 X33.2254 Y264.5416 Z-0.1894
G01 X33.2046 Y264.5844 Z-0.2017
G01 X33.1858 Y264.6282 Z-0.2140
G01 X33.1692 Y264.6728 Z-0.2263
G01 X33.1547 Y264.7181 Z-0.2386
G01 X33.1424 Y264.7641 Z-0.2509
G01 X33.1323 Y264.8106 Z-0.2633
G01 X33.1244 Y264.8575 Z-0.2756
G01 X33.1187 Y264.9048 Z-0.2879
G01 X33.1153 Y264.9523 Z-0.3002
G01 X33.1142 Y264.9998 Z-0.3125
G01 X33.1153 Y265.0474 Z-0.3248
G01 X33.1187 Y265.0949 Z-0.3371
G01 X33.1244 Y265.1422 Z-0.3494
G01 X33.1323 Y265.1891 Z-0.3617
G01 X33.1424 Y265.2356 Z-0.3741
G01 X33.1547 Y265.2816 Z-0.3864
G01 X33.1692 Y265.3269 Z-0.3987
G01 X33.1858 Y265.3715 Z-0.4110
G01 X33.2046 Y265.4153 Z-0.4233
G01 X33.2254 Y265.4581 Z-0.4356
G01 X33.2482 Y265.4998 Z-0.4479
G01 X33.2729 Y265.5405 Z-0.4602
G01 X33.2996 Y265.5799 Z-0.4725
G01 X33.3281 Y265.6180 Z-0.4848
G01 X33.3584 Y265.6547 Z-0.4972
G01 X33.3905 Y265.6899 Z-0.5095
G01 X33.4241 Y265.7236 Z-0.5218
G01 X33.4593 Y265.7556 Z-0.5341
G01 X33.4960 Y265.7859 Z-0.5464
G01 X33.5341 Y265.8144 Z-0.5587
G01 X33.5736 Y265.8411 Z-0.5710
G01 X33.6142 Y265.8659 Z-0.5833
G01 X33.6560 Y265.8887 Z-0.5956
G01 X33.6988 Y265.9095 Z-0.6080
G01 X33.7425 Y265.9282 Z-0.6203
G01 X33.7871 Y265.9448 Z-0.6326
G01 X33.8325 Y265.9593 Z-0.6449
G01 X33.8784 Y265.9717 Z-0.6572
G01 X33.9249 Y265.9818 Z-0.6695
G01 X33.9719 Y265.9897 Z-0.6818
G01 X34.0191 Y265.9953 Z-0.6941
G01 X34.0666 Y265.9987 Z-0.7064
G01 X34.1142 Y265.9998 Z-0.7188
G01 X34.1618 Y265.9987 Z-0.7311
G01 X34.2093 Y265.9953 Z-0.7434
G01 X34.2565 Y265.9897 Z-0.7557
G01 X34.3035 Y265.9818 Z-0.7680
G01 X34.3500 Y265.9717 Z-0.7803
G01 X34.3959 Y265.9593 Z-0.7926
G01 X34.4413 Y265.9448 Z-0.8049
G01 X34.4859 Y265.9282 Z-0.8172
G01 X34.5296 Y265.9095 Z-0.8295
G01 X34.5724 Y265.8887 Z-0.8419
G01 X34.6142 Y265.8659 Z-0.8542
G01 X34.6548 Y265.8411 Z-0.8665
G01 X34.6943 Y265.8144 Z-0.8788
G01 X34.7324 Y265.7859 Z-0.8911
G01 X34.7691 Y265.7556 Z-0.9034
G01 X34.8043 Y265.7236 Z-0.9157
G01 X34.8379 Y265.6899 Z-0.9280
G01 X34.8699 Y265.6547 Z-0.9403
G01 X34.9003 Y265.6180 Z-0.9527
G01 X34.9288 Y265.5799 Z-0.9650
G01 X34.9555 Y265.5405 Z-0.9773
G01 X34.9802 Y265.4998 Z-0.9896
G01 X35.0030 Y265.4581 Z-1.0019
G01 X35.0238 Y265.4153 Z-1.0142
G01 X35.0426 Y265.3715 Z-1.0265
G01 X35.0592 Y265.3269 Z-1.0388
G01 X35.0737 Y265.2816 Z-1.0511
G01 X35.0860 Y265.2356 Z-1.0634
G01 X35.0961 Y265.1891 Z-1.0758
G01 X35.1040 Y265.1422 Z-1.0881
G01 X35.1097 Y265.0949 Z-1.1004
G01 X35.1131 Y265.0474 Z-1.1127
G01 X35.1142 Y264.9998 Z-1.1250
G01 X35.1104 Y264.9127
G01 X35.0990 Y264.8262
G01 X35.0801 Y264.7410
G01 X35.0539 Y264.6578
G01 X35.0205 Y264.5772
G01 X34.9802 Y264.4998
G01 X34.9334 Y264.4263
G01 X34.8802 Y264.3571
G01 X34.8213 Y264.2927
G01 X34.7570 Y264.2338
G01 X34.6878 Y264.1807
G01 X34.6142 Y264.1338
G01 X34.5368 Y264.0935
G01 X34.4562 Y264.0602
G01 X34.3730 Y264.0339
G01 X34.2878 Y264.0150
G01 X34.2014 Y264.0036
G01 X34.1142 Y263.9998
G01 X34.0270 Y264.0036
G01 X33.9406 Y264.0150
G01 X33.8554 Y264.0339
G01 X33.7722 Y264.0602
G01 X33.6916 Y264.0935
G01 X33.6142 Y264.1338
G01 X33.5736 Y264.1586
G01 X33.5341 Y264.1853
G01 X33.4960 Y264.2138
G01 X33.4593 Y264.2441
G01 X33.4241 Y264.2761
G01 X33.3905 Y264.3098
G01 X33.3584 Y264.3450
G01 X33.3281 Y264.3817
G01 X33.2996 Y264.4198
G01 X33.2729 Y264.4592
G01 X33.2482 Y264.4998
G01 X33.2254 Y264.5416
G01 X33.2046 Y264.5844
G01 X33.1858 Y264.6282
G01 X33.1692 Y264.6728
G01 X33.1547 Y264.7181
G01 X33.1424 Y264.7641
G01 X33.1323 Y264.8106
G01 X33.1244 Y264.8575
G01 X33.1187 Y264.9048
G01 X33.1153 Y264.9523
G01 X33.1142 Y264.9998
G01 X33.1153 Y265.0474
G01 X33.1187 Y265.0949
G01 X33.1244 Y265.1422
G01 X33.1323 Y265.1891
G01 X33.1424 Y265.2356
G01 X33.1547 Y265.2816
G01 X33.1692 Y265.3269
G01 X33.1858 Y265.3715
G01 X33.2046 Y265.4153
G01 X33.2254 Y265.4581
G01 X33.2482 Y265.4998
G01 X33.2729 Y265.5405
G01 X33.2996 Y265.5799
G01 X33.3281 Y265.6180
G01 X33.3584 Y265.6547
G01 X33.3905 Y265.6899
G01 X33.4241 Y265.7236
G01 X33.4593 Y265.7556
G01 X33.4960 Y265.7859
G01 X33.5341 Y265.8144
G01 X33.5736 Y265.8411
G01 X33.6142 Y265.8659
G01 X33.6560 Y265.8887
G01 X33.6988 Y265.9095
G01 X33.7425 Y265.9282
G01 X33.7871 Y265.9448
G01 X33.8325 Y265.9593
G01 X33.8784 Y265.9717
G01 X33.9249 Y265.9818
G01 X33.9719 Y265.9897
G01 X34.0191 Y265.9953
G01 X34.0666 Y265.9987
G01 X34.1142 Y265.9998
G01 X34.1618 Y265.9987
G01 X34.2093 Y265.9953
G01 X34.2565 Y265.9897
G01 X34.3035 Y265.9818
G01 X34.3500 Y265.9717
G01 X34.3959 Y265.9593
G01 X34.4413 Y265.9448
G01 X34.4859 Y265.9282
G01 X34.5296 Y265.9095
G01 X34.5724 Y265.8887
G01 X34.6142 Y265.8659
G01 X34.6548 Y265.8411
G01 X34.6943 Y265.8144
G01 X34.7324 Y265.7859
G01 X34.7691 Y265.7556
G01 X34.8043 Y265.7236
G01 X34.8379 Y265.6899
G01 X34.8699 Y265.6547
G01 X34.9003 Y265.6180
G01 X34.9288 Y265.5799
G01 X34.9555 Y265.5405
G01 X34.9802 Y265.4998
G01 X35.0030 Y265.4581
G01 X35.0238 Y265.4153
G01 X35.0426 Y265.3715
G01 X35.0592 Y265.3269
G01 X35.0737 Y265.2816
G01 X35.0860 Y265.2356
G01 X35.0961 Y265.1891
G01 X35.1040 Y265.1422
G01 X35.1097 Y265.0949
G01 X35.1131 Y265.0474
G01 X35.1142 Y264.9998
G01 X35.1249 Y264.9482 F1000
G01 X35.1330 Y264.8962
G01 X35.1384 Y264.8437
G01 X35.1411 Y264.7911
G01 X35.1410 Y264.7384
G01 X35.1383 Y264.6858
G01 X35.1328 Y264.6334
G01 X35.1247 Y264.5813
G01 X35.1130 Y264.5253
G01 X35.0984 Y264.4700
G01 X35.0810 Y264.4155
G01 X35.0609 Y264.3620
G01 X35.0381 Y264.3095
G01 X35.0126 Y264.2583
G01 X34.9845 Y264.2085
G01 X34.9539 Y264.1602
G01 X34.9183 Y264.1098
G01 X34.8802 Y264.0612
G01 X34.8396 Y264.0147
G01 X34.7968 Y263.9703
G01 X34.7517 Y263.9281
G01 X34.7046 Y263.8883
G01 X34.6555 Y263.8510
G01 X34.6045 Y263.8161
G01 X34.5480 Y263.7816
G01 X34.4898 Y263.7499
G01 X34.4301 Y263.7212
G01 X34.3691 Y263.6956
G01 X34.3068 Y263.6731
G01 X34.2434 Y263.6538
G01 X34.1792 Y263.6377
G01 X34.1142 Y263.6248
G01 X34.0446 Y263.6166
G01 X33.9746 Y263.6119
G01 X33.9045 Y263.6107
G01 X33.8345 Y263.6130
G01 X33.7646 Y263.6188
G01 X33.6951 Y263.6281
G01 X33.6262 Y263.6408
G01 X33.5580 Y263.6570
G01 X33.4928 Y263.6859
G01 X33.4290 Y263.7180
G01 X33.3670 Y263.7531
G01 X33.3067 Y263.7913
G01 X33.2484 Y263.8324
G01 X33.1921 Y263.8763
G01 X33.1381 Y263.9229
G01 X33.0864 Y263.9721
G01 X33.0372 Y264.0237
G01 X32.9906 Y264.0778
G01 X32.9467 Y264.1340
G01 X32.9057 Y264.1923
G01 X32.8675 Y264.2526
G01 X32.8323 Y264.3147
G01 X32.8003 Y264.3784
G01 X32.7714 Y264.4436
G01 X32.7457 Y264.5102
G01 X32.7233 Y264.5779
G01 X32.7043 Y264.6467
G01 X32.6886 Y264.7163
G01 X32.6764 Y264.7866
G01 X32.6677 Y264.8574
G01 X32.6625 Y264.9285
G01 X32.6607 Y264.9998
G01 X32.6625 Y265.0712
G01 X32.6677 Y265.1423
G01 X32.6764 Y265.2131
G01 X32.6886 Y265.2834
G01 X32.7043 Y265.3530
G01 X32.7233 Y265.4218
G01 X32.7457 Y265.4895
G01 X32.7714 Y265.5561
G01 X32.8003 Y265.6213
G01 X32.8323 Y265.6850
G01 X32.8675 Y265.7471
G01 X32.9057 Y265.8074
G01 X32.9467 Y265.8657
G01 X32.9906 Y265.9219
G01 X33.0372 Y265.9759
G01 X33.0864 Y266.0276
G01 X33.1381 Y266.0768
G01 X33.1921 Y266.1234
G01 X33.2484 Y266.1673
G01 X33.3067 Y266.2084
G01 X33.3670 Y266.2465
G01 X33.4290 Y266.2817
G01 X33.4928 Y266.3138
G01 X33.5580 Y266.3427
G01 X33.6245 Y266.3684
G01 X33.6923 Y266.3907
G01 X33.7610 Y266.4098
G01 X33.8306 Y266.4254
G01 X33.9009 Y266.4376
G01 X33.9717 Y266.4463
G01 X34.0429 Y266.4516
G01 X34.1142 Y266.4533
G01 X34.1855 Y266.4516
G01 X34.2567 Y266.4463
G01 X34.3275 Y266.4376
G01 X34.3978 Y266.4254
G01 X34.4674 Y266.4098
G01 X34.5361 Y266.3907
G01 X34.6039 Y266.3684
G01 X34.6704 Y266.3427
G01 X34.7356 Y266.3138
G01 X34.7994 Y266.2817
G01 X34.8614 Y266.2465
G01 X34.9217 Y266.2084
G01 X34.9800 Y266.1673
G01 X35.0363 Y266.1234
G01 X35.0903 Y266.0768
G01 X35.1420 Y266.0276
G01 X35.1912 Y265.9759
G01 X35.2378 Y265.9219
G01 X35.2817 Y265.8657
G01 X35.3227 Y265.8074
G01 X35.3609 Y265.7471
G01 X35.3961 Y265.6850
G01 X35.4281 Y265.6213
G01 X35.4570 Y265.5561
G01 X35.4827 Y265.4895
G01 X35.5051 Y265.4218
G01 X35.5241 Y265.3530
G01 X35.5398 Y265.2834
G01 X35.5520 Y265.2131
G01 X35.5607 Y265.1423
G01 X35.5659 Y265.0712
G01 X35.5677 Y264.9998
G01 X35.5636 Y264.8912
G01 X35.5515 Y264.7832
G01 X35.5312 Y264.6764
G01 X35.5031 Y264.5714
G01 X35.4672 Y264.4688
G01 X35.4237 Y264.3692
G01 X35.3730 Y264.2731
G01 X35.3151 Y264.1811
G01 X35.2506 Y264.0936
G01 X35.1797 Y264.0112
G01 X35.1028 Y263.9344
G01 X35.0204 Y263.8635
G01 X34.9330 Y263.7989
G01 X34.8409 Y263.7411
G01 X34.7448 Y263.6903
G01 X34.6452 Y263.6468
G01 X34.5426 Y263.6109
G01 X34.4376 Y263.5828
G01 X34.3308 Y263.5626
G01 X34.2228 Y263.5504
G01 X34.1142 Y263.5464
G01 X34.0056 Y263.5504
G01 X33.8976 Y263.5626
G01 X33.7908 Y263.5828
G01 X33.6858 Y263.6109
G01 X33.5832 Y263.6468
G01 X33.4836 Y263.6903
G01 X33.3875 Y263.7411
G01 X33.2954 Y263.7989
G01 X33.2080 Y263.8635
G01 X33.1256 Y263.9344
G01 X33.0487 Y264.0112
G01 X32.9778 Y264.0936
G01 X32.9133 Y264.1811
G01 X32.8554 Y264.2731
G01 X32.8047 Y264.3692
G01 X32.7612 Y264.4688
G01 X32.7253 Y264.5714
G01 X32.6972 Y264.6764
G01 X32.6769 Y264.7832
G01 X32.6648 Y264.8912
G01 X32.6607 Y264.9998
G01 X32.6648 Y265.1085
G01 X32.6769 Y265.2165
G01 X32.6972 Y265.3233
G01 X32.7253 Y265.4283
G01 X32.7612 Y265.5309
G01 X32.8047 Y265.6305
G01 X32.8554 Y265.7266
G01 X32.9133 Y265.8186
G01 X32.9778 Y265.9061
G01 X33.0487 Y265.9885
G01 X33.1256 Y266.0653
G01 X33.2080 Y266.1362
G01 X33.2954 Y266.2008
G01 X33.3875 Y266.2586
G01 X33.4836 Y266.3094
G01 X33.5832 Y266.3529
G01 X33.6858 Y266.3888
G01 X33.7908 Y266.4169
G01 X33.8976 Y266.4371
G01 X34.0056 Y266.4493
G01 X34.1142 Y266.4533
G01 X34.2228 Y266.4493
G01 X34.3308 Y266.4371
G01 X34.4376 Y266.4169
G01 X34.5426 Y266.3888
G01 X34.6452 Y266.3529
G01 X34.7448 Y266.3094
G01 X34.8409 Y266.2586
G01 X34.9330 Y266.2008
G01 X35.0204 Y266.1362
G01 X35.1028 Y266.0653
G01 X35.1797 Y265.9885
G01 X35.2506 Y265.9061
G01 X35.3151 Y265.8186
G01 X35.3730 Y265.7266
G01 X35.4237 Y265.6305
G01 X35.4672 Y265.5309
G01 X35.5031 Y265.4283
G01 X35.5312 Y265.3233
G01 X35.5515 Y265.2165
G01 X35.5636 Y265.1085
G01 X35.5677 Y264.9998
G01 X35.5639 Y264.9036
G01 X35.5526 Y264.8079
G01 X35.5338 Y264.7135
G01 X35.5076 Y264.6208
G01 X35.4743 Y264.5304
G01 X35.4340 Y264.4429
G01 X35.3869 Y264.3589
G01 X35.3334 Y264.2788
G01 X35.2738 Y264.2031
G01 X35.2084 Y264.1324
G01 X35.1376 Y264.0670
G01 X35.0620 Y264.0074
G01 X34.9819 Y263.9539
G01 X34.8979 Y263.9068
G01 X34.8104 Y263.8665
G01 X34.7200 Y263.8331
G01 X34.6273 Y263.8070
G01 X34.5328 Y263.7882
G01 X34.4372 Y263.7769
G01 X34.3409 Y263.7731
G01 X34.2447 Y263.7769
G01 X34.1490 Y263.7882
G01 X34.0546 Y263.8070
G01 X33.9619 Y263.8331
G01 X33.8715 Y263.8665
G01 X33.7840 Y263.9068
G01 X33.7000 Y263.9539
G01 X33.6199 Y264.0074
G01 X33.5442 Y264.0670
G01 X33.4735 Y264.1324
G01 X33.4081 Y264.2031
G01 X33.3485 Y264.2788
G01 X33.2950 Y264.3589
G01 X33.2479 Y264.4429
G01 X33.2076 Y264.5304
G01 X33.1742 Y264.6208
G01 X33.1481 Y264.7135
G01 X33.1293 Y264.8079
G01 X33.1180 Y264.9036
G01 X33.1142 Y264.9998
G01 X33.1180 Y265.0870
G01 X33.1294 Y265.1735
G01 X33.1483 Y265.2587
G01 X33.1745 Y265.3419
G01 X33.2079 Y265.4225
G01 X33.2482 Y265.4998
G01 X33.2950 Y265.5734
G01 X33.3482 Y265.6426
G01 X33.4071 Y265.7070
G01 X33.4714 Y265.7659
G01 X33.5406 Y265.8190
G01 X33.6142 Y265.8659
G01 X33.6916 Y265.9062
G01 X33.7722 Y265.9395
G01 X33.8554 Y265.9658
G01 X33.9406 Y265.9847
G01 X34.0270 Y265.9960
G01 X34.1142 Y265.9998
G01 X34.2014 Y265.9960
G01 X34.2878 Y265.9847
G01 X34.3730 Y265.9658
G01 X34.4562 Y265.9395
G01 X34.5368 Y265.9062
G01 X34.6142 Y265.8659
G01 X34.6878 Y265.8190
G01 X34.7570 Y265.7659
G01 X34.8213 Y265.7070
G01 X34.8802 Y265.6426
G01 X34.9334 Y265.5734
G01 X34.9802 Y265.4998
G01 X35.0205 Y265.4225
G01 X35.0539 Y265.3419
G01 X35.0801 Y265.2587
G01 X35.0990 Y265.1735
G01 X35.1104 Y265.0870
G01 X35.1142 Y264.9998
M107
M106 S240
G01 X35.1104 Y264.9127 Z-1.1476 F400
G01 X35.0990 Y264.8262 Z-1.1701
G01 X35.0801 Y264.7410 Z-1.1927
G01 X35.0539 Y264.6578 Z-1.2153
G01 X35.0205 Y264.5772 Z-1.2378
G01 X34.9802 Y264.4998 Z-1.2604
G01 X34.9334 Y264.4263 Z-1.2830
G01 X34.8802 Y264.3571 Z-1.3056
G01 X34.8213 Y264.2927 Z-1.3281
G01 X34.7570 Y264.2338 Z-1.3507
G01 X34.6878 Y264.1807 Z-1.3733
G01 X34.6142 Y264.1338 Z-1.3958
G01 X34.5368 Y264.0935 Z-1.4184
G01 X34.4562 Y264.0602 Z-1.4410
G01 X34.3730 Y264.0339 Z-1.4635
G01 X34.2878 Y264.0150 Z-1.4861
G01 X34.2014 Y264.0036 Z-1.5087
G01 X34.1142 Y263.9998 Z-1.5313
G01 X34.0270 Y264.0036 Z-1.5538
G01 X33.9406 Y264.0150 Z-1.5764
G01 X33.8554 Y264.0339 Z-1.5990
G01 X33.7722 Y264.0602 Z-1.6215
G01 X33.6916 Y264.0935 Z-1.6441
G01 X33.6142 Y264.1338 Z-1.6667
G01 X33.5736 Y264.1586 Z-1.6790
G01 X33.5341 Y264.1853 Z-1.6913
G01 X33.4960 Y264.2138 Z-1.7036
G01 X33.4593 Y264.2441 Z-1.7159
G01 X33.4241 Y264.2761 Z-1.7282
G01 X33.3905 Y264.3098 Z-1.7405
G01 X33.3584 Y264.3450 Z-1.7528
G01 X33.3281 Y264.3817 Z-1.7652
G01 X33.2996 Y264.4198 Z-1.7775
G01 X33.2729 Y264.4592 Z-1.7898
G01 X33.2482 Y264.4998 Z-1.8021
G01 X33.2254 Y264.5416 Z-1.8144
G01 X33.2046 Y264.5844 Z-1.8267
G01 X33.1858 Y264.6282 Z-1.8390
G01 X33.1692 Y264.6728 Z-1.8513
G01 X33.1547 Y264.7181 Z-1.8636
G01 X33.1424 Y264.7641 Z-1.8759
G01 X33.1323 Y264.8106 Z-1.8883
G01 X33.1244 Y264.8575 Z-1.9006
G01 X33.1187 Y264.9048 Z-1.9129
G01 X33.1153 Y264.9523 Z-1.9252
G01 X33.1142 Y264.9998 Z-1.9375
G01 X33.1153 Y265.0474 Z-1.9498
G01 X33.1187 Y265.0949 Z-1.9621
G01 X33.1244 Y265.1422 Z-1.9744
G01 X33.1323 Y265.1891 Z-1.9867
G01 X33.1424 Y265.2356 Z-1.9991
G01 X33.1547 Y265.2816 Z-2.0114
G01 X33.1692 Y265.3269 Z-2.0237
G01 X33.1858 Y265.3715 Z-2.0360
G01 X33.2046 Y265.4153 Z-2.0483
G01 X33.2254 Y265.4581 Z-2.0606
G01 X33.2482 Y265.4998 Z-2.0729
G01 X33.2729 Y265.5405 Z-2.0852
G01 X33.2996 Y265.5799 Z-2.0975
G01 X33.3281 Y265.6180 Z-2.1098
G01 X33.3584 Y265.6547 Z-2.1222
G01 X33.3905 Y265.6899 Z-2.1345
G01 X33.4241 Y265.7236 Z-2.1468
G01 X33.4593 Y265.7556 Z-2.1591
G01 X33.4960 Y265.7859 Z-2.1714
G01 X33.5341 Y265.8144 Z-2.1837
G01 X33.5736 Y265.8411 Z-2.1960
G01 X33.6142 Y265.8659 Z-2.2083
G01 X33.6560 Y265.8887 Z-2.2206
G01 X33.6988 Y265.9095 Z-2.2330
G01 X33.7425 Y265.9282 Z-2.2453
G01 X33.7871 Y265.9448 Z-2.2576
G01 X33.8325 Y265.9593 Z-2.2699
G01 X33.8784 Y265.9717 Z-2.2822
G01 X33.9249 Y265.9818 Z-2.2945
G01 X33.9719 Y265.9897 Z-2.3068
G01 X34.0191 Y265.9953 Z-2.3191
G01 X34.0666 Y265.9987 Z-2.3314
G01 X34.1142 Y265.9998 Z-2.3438
G01 X34.1618 Y265.9987 Z-2.3561
G01 X34.2093 Y265.9953 Z-2.3684
G01 X34.2565 Y265.9897 Z-2.3807
G01 X34.3035 Y265.9818 Z-2.3930
G01 X34.3500 Y265.9717 Z-2.4053
G01 X34.3959 Y265.9593 Z-2.4176
G01 X34.4413 Y265.9448 Z-2.4299
G01 X34.4859 Y265.9282 Z-2.4422
G01 X34.5296 Y265.9095 Z-2.4545
G01 X34.5724 Y265.8887 Z-2.4669
G01 X34.6142 Y265.8659 Z-2.4792
G01 X34.6548 Y265.8411 Z-2.4915
G01 X34.6943 Y265.8144 Z-2.5038
G01 X34.7324 Y265.7859 Z-2.5161
G01 X34.7691 Y265.7556 Z-2.5284
G01 X34.8043 Y265.7236 Z-2.5407
G01 X34.8379 Y265.6899 Z-2.5530
G01 X34.8699 Y265.6547 Z-2.5653
G01 X34.9003 Y265.6180 Z-2.5777
G01 X34.9288 Y265.5799 Z-2.5900
G01 X34.9555 Y265.5405 Z-2.6023
G01 X34.9802 Y265.4998 Z-2.6146
G01 X35.0030 Y265.4581 Z-2.6269
G01 X35.0238 Y265.4153 Z-2.6392
G01 X35.0426 Y265.3715 Z-2.6515
G01 X35.0592 Y265.3269 Z-2.6638
G01 X35.0737 Y265.2816 Z-2.6761
G01 X35.0860 Y265.2356 Z-2.6884
G01 X35.0961 Y265.1891 Z-2.7008
G01 X35.1040 Y265.1422 Z-2.7131
G01 X35.1097 Y265.0949 Z-2.7254
G01 X35.1131 Y265.0474 Z-2.7377
G01 X35.1142 Y264.9998 Z-2.7500
G01 X35.1104 Y264.9127
G01 X35.0990 Y264.8262
G01 X35.0801 Y264.7410
G01 X35.0539 Y264.6578
G01 X35.0205 Y264.5772
G01 X34.9802 Y264.4998
G01 X34.9334 Y264.4263
G01 X34.8802 Y264.3571
G01 X34.8213 Y264.2927
G01 X34.7570 Y264.2338
G01 X34.6878 Y264.1807
G01 X34.6142 Y264.1338
G01 X34.5368 Y264.0935
G01 X34.4562 Y264.0602
G01 X34.3730 Y264.0339
G01 X34.2878 Y264.0150
G01 X34.2014 Y264.0036
G01 X34.1142 Y263.9998
G01 X34.0270 Y264.0036
G01 X33.9406 Y264.0150
G01 X33.8554 Y264.0339
G01 X33.7722 Y264.0602
G01 X33.6916 Y264.0935
G01 X33.6142 Y264.1338
G01 X33.5736 Y264.1586
G01 X33.5341 Y264.1853
G01 X33.4960 Y264.2138
G01 X33.4593 Y264.2441
G01 X33.4241 Y264.2761
G01 X33.3905 Y264.3098
G01 X33.3584 Y264.3450
G01 X33.3281 Y264.3817
G01 X33.2996 Y264.4198
G01 X33.2729 Y264.4592
G01 X33.2482 Y264.4998
G01 X33.2254 Y264.5416
G01 X33.2046 Y264.5844
G01 X33.1858 Y264.6282
G01 X33.1692 Y264.6728
G01 X33.1547 Y264.7181
G01 X33.1424 Y264.7641
G01 X33.1323 Y264.8106
G01 X33.1244 Y264.8575
G01 X33.1187 Y264.9048
G01 X33.1153 Y264.9523
G01 X33.1142 Y264.9998
G01 X33.1153 Y265.0474
G01 X33.1187 Y265.0949
G01 X33.1244 Y265.1422
G01 X33.1323 Y265.1891
G01 X33.1424 Y265.2356
G01 X33.1547 Y265.2816
G01 X33.1692 Y265.3269
G01 X33.1858 Y265.3715
G01 X33.2046 Y265.4153
G01 X33.2254 Y265.4581
G01 X33.2482 Y265.4998
G01 X33.2729 Y265.5405
G01 X33.2996 Y265.5799
G01 X33.3281 Y265.6180
G01 X33.3584 Y265.6547
G01 X33.3905 Y265.6899
G01 X33.4241 Y265.7236
G01 X33.4593 Y265.7556
G01 X33.4960 Y265.7859
G01 X33.5341 Y265.8144
G01 X33.5736 Y265.8411
G01 X33.6142 Y265.8659
G01 X33.6560 Y265.8887
G01 X33.6988 Y265.9095
G01 X33.7425 Y265.9282
G01 X33.7871 Y265.9448
G01 X33.8325 Y265.9593
G01 X33.8784 Y265.9717
G01 X33.9249 Y265.9818
G01 X33.9719 Y265.9897
G01 X34.0191 Y265.9953
G01 X34.0666 Y265.9987
G01 X34.1142 Y265.9998
G01 X34.1618 Y265.9987
G01 X34.2093 Y265.9953
G01 X34.2565 Y265.9897
G01 X34.3035 Y265.9818
G01 X34.3500 Y265.9717
G01 X34.3959 Y265.9593
G01 X34.4413 Y265.9448
G01 X34.4859 Y265.9282
G01 X34.5296 Y265.9095
G01 X34.5724 Y265.8887
G01 X34.6142 Y265.8659
G01 X34.6548 Y265.8411
G01 X34.6943 Y265.8144
G01 X34.7324 Y265.7859
G01 X34.7691 Y265.7556
G01 X34.8043 Y265.7236
G01 X34.8379 Y265.6899
G01 X34.8699 Y265.6547
G01 X34.9003 Y265.6180
G01 X34.9288 Y265.5799
G01 X34.9555 Y265.5405
G01 X34.9802 Y265.4998
G01 X35.0030 Y265.4581
G01 X35.0238 Y265.4153
G01 X35.0426 Y265.3715
G01 X35.0592 Y265.3269
G01 X35.0737 Y265.2816
G01 X35.0860 Y265.2356
G01 X35.0961 Y265.1891
G01 X35.1040 Y265.1422
G01 X35.1097 Y265.0949
G01 X35.1131 Y265.0474
G01 X35.1142 Y264.9998
G01 X35.1249 Y264.9482 F1000
G01 X35.1330 Y264.8962
G01 X35.1384 Y264.8437
G01 X35.1411 Y264.7911
G01 X35.1410 Y264.7384
G01 X35.1383 Y264.6858
G01 X35.1328 Y264.6334
G01 X35.1247 Y264.5813
G01 X35.1130 Y264.5253
G01 X35.0984 Y264.4700
G01 X35.0810 Y264.4155
G01 X35.0609 Y264.3620
G01 X35.0381 Y264.3095
G01 X35.0126 Y264.2583
G01 X34.9845 Y264.2085
G01 X34.9539 Y264.1602
G01 X34.9183 Y264.1098
G01 X34.8802 Y264.0612
G01 X34.8396 Y264.0147
G01 X34.7968 Y263.9703
G01 X34.7517 Y263.9281
G01 X34.7046 Y263.8883
G01 X34.6555 Y263.8510
G01 X34.6045 Y263.8161
G01 X34.5480 Y263.7816
G01 X34.4898 Y263.7499
G01 X34.4301 Y263.7212
G01 X34.3691 Y263.6956
G01 X34.3068 Y263.6731
G01 X34.2434 Y263.6538
G01 X34.1792 Y263.6377
G01 X34.1142 Y263.6248
G01 X34.0446 Y263.6166
G01 X33.9746 Y263.6119
G01 X33.9045 Y263.6107
G01 X33.8345 Y263.6130
G01 X33.7646 Y263.6188
G01 X33.6951 Y263.6281
G01 X33.6262 Y263.6408
G01 X33.5580 Y263.6570
G01 X33.4928 Y263.6859
G01 X33.4290 Y263.7180
G01 X33.3670 Y263.7531
G01 X33.3067 Y263.7913
G01 X33.2484 Y263.8324
G01 X33.1921 Y263.8763
G01 X33.1381 Y263.9229
G01 X33.0864 Y263.9721
G01 X33.0372 Y264.0237
G01 X32.9906 Y264.0778
G01 X32.9467 Y264.1340
G01 X32.9057 Y264.1923
G01 X32.8675 Y264.2526
G01 X32.8323 Y264.3147
G01 X32.8003 Y264.3784
G01 X32.7714 Y264.4436
G01 X32.7457 Y264.5102
G01 X32.7233 Y264.5779
G01 X32.7043 Y264.6467
G01 X32.6886 Y264.7163
G01 X32.6764 Y264.7866
G01 X32.6677 Y264.8574
G01 X32.6625 Y264.9285
G01 X32.6607 Y264.9998
G01 X32.6625 Y265.0712
G01 X32.6677 Y265.1423
G01 X32.6764 Y265.2131
G01 X32.6886 Y265.2834
G01 X32.7043 Y265.3530
G01 X32.7233 Y265.4218
G01 X32.7457 Y265.4895
G01 X32.7714 Y265.5561
G01 X32.8003 Y265.6213
G01 X32.8323 Y265.6850
G01 X32.8675 Y265.7471
G01 X32.9057 Y265.8074
G01 X32.9467 Y265.8657
G01 X32.9906 Y265.9219
G01 X33.0372 Y265.9759
G01 X33.0864 Y266.0276
G01 X33.1381 Y266.0768
G01 X33.1921 Y266.1234
G01 X33.2484 Y266.1673
G01 X33.3067 Y266.2084
G01 X33.3670 Y266.2465
G01 X33.4290 Y266.2817
G01 X33.4928 Y266.3138
G01 X33.5580 Y266.3427
G01 X33.6245 Y266.3684
G01 X33.6923 Y266.3907
G01 X33.7610 Y266.4098
G01 X33.8306 Y266.4254
G01 X33.9009 Y266.4376
G01 X33.9717 Y266.4463
G01 X34.0429 Y266.4516
G01 X34.1142 Y266.4533
G01 X34.1855 Y266.4516
G01 X34.2567 Y266.4463
G01 X34.3275 Y266.4376
G01 X34.3978 Y266.4254
G01 X34.4674 Y266.4098
G01 X34.5361 Y266.3907
G01 X34.6039 Y266.3684
G01 X34.6704 Y266.3427
G01 X34.7356 Y266.3138
G01 X34.7994 Y266.2817
G01 X34.8614 Y266.2465
G01 X34.9217 Y266.2084
G01 X34.9800 Y266.1673
G01 X35.0363 Y266.1234
G01 X35.0903 Y266.0768
G01 X35.1420 Y266.0276
G01 X35.1912 Y265.9759
G01 X35.2378 Y265.9219
G01 X35.2817 Y265.8657
G01 X35.3227 Y265.8074
G01 X35.3609 Y265.7471
G01 X35.3961 Y265.6850
G01 X35.4281 Y265.6213
G01 X35.4570 Y265.5561
G01 X35.4827 Y265.4895
G01 X35.5051 Y265.4218
G01 X35.5241 Y265.3530
G01 X35.5398 Y265.2834
G01 X35.5520 Y265.2131
G01 X35.5607 Y265.1423
G01 X35.5659 Y265.0712
G01 X35.5677 Y264.9998
G01 X35.5636 Y264.8912
G01 X35.5515 Y264.7832
G01 X35.5312 Y264.6764
G01 X35.5031 Y264.5714
G01 X35.4672 Y264.4688
G01 X35.4237 Y264.3692
G01 X35.3730 Y264.2731
G01 X35.3151 Y264.1811
G01 X35.2506 Y264.0936
G01 X35.1797 Y264.0112
G01 X35.1028 Y263.9344
G01 X35.0204 Y263.8635
G01 X34.9330 Y263.7989
G01 X34.8409 Y263.7411
G01 X34.7448 Y263.6903
G01 X34.6452 Y263.6468
G01 X34.5426 Y263.6109
G01 X34.4376 Y263.5828
G01 X34.3308 Y263.5626
G01 X34.2228 Y263.5504
G01 X34.1142 Y263.5464
G01 X34.0056 Y263.5504
G01 X33.8976 Y263.5626
G01 X33.7908 Y263.5828
G01 X33.6858 Y263.6109
G01 X33.5832 Y263.6468
G01 X33.4836 Y263.6903
G01 X33.3875 Y263.7411
G01 X33.2954 Y263.7989
G01 X33.2080 Y263.8635
G01 X33.1256 Y263.9344
G01 X33.0487 Y264.0112
G01 X32.9778 Y264.0936
G01 X32.9133 Y264.1811
G01 X32.8554 Y264.2731
G01 X32.8047 Y264.3692
G01 X32.7612 Y264.4688
G01 X32.7253 Y264.5714
G01 X32.6972 Y264.6764
G01 X32.6769 Y264.7832
G01 X32.6648 Y264.8912
G01 X32.6607 Y264.9998
G01 X32.6648 Y265.1085
G01 X32.6769 Y265.2165
G01 X32.6972 Y265.3233
G01 X32.7253 Y265.4283
G01 X32.7612 Y265.5309
G01 X32.8047 Y265.6305
G01 X32.8554 Y265.7266
G01 X32.9133 Y265.8186
G01 X32.9778 Y265.9061
G01 X33.0487 Y265.9885
G01 X33.1256 Y266.0653
G01 X33.2080 Y266.1362
G01 X33.2954 Y266.2008
G01 X33.3875 Y266.2586
G01 X33.4836 Y266.3094
G01 X33.5832 Y266.3529
G01 X33.6858 Y266.3888
G01 X33.7908 Y266.4169
G01 X33.8976 Y266.4371
G01 X34.0056 Y266.4493
G01 X34.1142 Y266.4533
G01 X34.2228 Y266.4493
G01 X34.3308 Y266.4371
G01 X34.4376 Y266.4169
G01 X34.5426 Y266.3888
G01 X34.6452 Y266.3529
G01 X34.7448 Y266.3094
G01 X34.8409 Y266.2586
G01 X34.9330 Y266.2008
G01 X35.0204 Y266.1362
G01 X35.1028 Y266.0653
G01 X35.1797 Y265.9885
G01 X35.2506 Y265.9061
G01 X35.3151 Y265.8186
G01 X35.3730 Y265.7266
G01 X35.4237 Y265.6305
G01 X35.4672 Y265.5309
G01 X35.5031 Y265.4283
G01 X35.5312 Y265.3233
G01 X35.5515 Y265.2165
G01 X35.5636 Y265.1085
G01 X35.5677 Y264.9998
G01 X35.5639 Y264.9036
G01 X35.5526 Y264.8079
G01 X35.5338 Y264.7135
G01 X35.5076 Y264.6208
G01 X35.4743 Y264.5304
G01 X35.4340 Y264.4429
G01 X35.3869 Y264.3589
G01 X35.3334 Y264.2788
G01 X35.2738 Y264.2031
G01 X35.2084 Y264.1324
G01 X35.1376 Y264.0670
G01 X35.0620 Y264.0074
G01 X34.9819 Y263.9539
G01 X34.8979 Y263.9068
G01 X34.8104 Y263.8665
G01 X34.7200 Y263.8331
G01 X34.6273 Y263.8070
G01 X34.5328 Y263.7882
G01 X34.4372 Y263.7769
G01 X34.3409 Y263.7731
G01 X34.2447 Y263.7769
G01 X34.1490 Y263.7882
G01 X34.0546 Y263.8070
G01 X33.9619 Y263.8331
G01 X33.8715 Y263.8665
G01 X33.7840 Y263.9068
G01 X33.7000 Y263.9539
G01 X33.6199 Y264.0074
G01 X33.5442 Y264.0670
G01 X33.4735 Y264.1324
G01 X33.4081 Y264.2031
G01 X33.3485 Y264.2788
G01 X33.2950 Y264.3589
G01 X33.2479 Y264.4429
G01 X33.2076 Y264.5304
G01 X33.1742 Y264.6208
G01 X33.1481 Y264.7135
G01 X33.1293 Y264.8079
G01 X33.1180 Y264.9036
G01 X33.1142 Y264.9998
G01 X33.1180 Y265.0870
G01 X33.1294 Y265.1735
G01 X33.1483 Y265.2587
G01 X33.1745 Y265.3419
G01 X33.2079 Y265.4225
G01 X33.2482 Y265.4998
G01 X33.2950 Y265.5734
G01 X33.3482 Y265.6426
G01 X33.4071 Y265.7070
G01 X33.4714 Y265.7659
G01 X33.5406 Y265.8190
G01 X33.6142 Y265.8659
G01 X33.6916 Y265.9062
G01 X33.7722 Y265.9395
G01 X33.8554 Y265.9658
G01 X33.9406 Y265.9847
G01 X34.0270 Y265.9960
G01 X34.1142 Y265.9998
G01 X34.2014 Y265.9960
G01 X34.2878 Y265.9847
G01 X34.3730 Y265.9658
G01 X34.4562 Y265.9395
G01 X34.5368 Y265.9062
G01 X34.6142 Y265.8659
G01 X34.6878 Y265.8190
G01 X34.7570 Y265.7659
G01 X34.8213 Y265.7070
G01 X34.8802 Y265.6426
G01 X34.9334 Y265.5734
G01 X34.9802 Y265.4998
G01 X35.0205 Y265.4225
G01 X35.0539 Y265.3419
G01 X35.0801 Y265.2587
G01 X35.0990 Y265.1735
G01 X35.1104 Y265.0870
G01 X35.1142 Y264.9998
M107
M106 S240
G01 X35.1104 Y264.9127 Z-2.7726 F400
G01 X35.0990 Y264.8262 Z-2.7951
G01 X35.0801 Y264.7410 Z-2.8177
G01 X35.0539 Y264.6578 Z-2.8403
G01 X35.0205 Y264.5772 Z-2.8628
G01 X34.9802 Y264.4998 Z-2.8854
G01 X34.9334 Y264.4263 Z-2.9080
G01 X34.8802 Y264.3571 Z-2.9306
G01 X34.8213 Y264.2927 Z-2.9531
G01 X34.7570 Y264.2338 Z-2.9757
G01 X34.6878 Y264.1807 Z-2.9983
G01 X34.6142 Y264.1338 Z-3.0208
G01 X34.5368 Y264.0935 Z-3.0434
G01 X34.4562 Y264.0602 Z-3.0660
G01 X34.3730 Y264.0339 Z-3.0885
G01 X34.2878 Y264.0150 Z-3.1111
G01 X34.2014 Y264.0036 Z-3.1337
G01 X34.1142 Y263.9998 Z-3.1563
G01 X34.0270 Y264.0036 Z-3.1788
G01 X33.9406 Y264.0150 Z-3.2014
G01 X33.8554 Y264.0339 Z-3.2240
G01 X33.7722 Y264.0602 Z-3.2465
G01 X33.6916 Y264.0935 Z-3.2691
G01 X33.6142 Y264.1338 Z-3.2917
G01 X33.5736 Y264.1586 Z-3.3040
G01 X33.5341 Y264.1853 Z-3.3163
G01 X33.4960 Y264.2138 Z-3.3286
G01 X33.4593 Y264.2441 Z-3.3409
G01 X33.4241 Y264.2761 Z-3.3532
G01 X33.3905 Y264.3098 Z-3.3655
G01 X33.3584 Y264.3450 Z-3.3778
G01 X33.3281 Y264.3817 Z-3.3902
G01 X33.2996 Y264.4198 Z-3.4025
G01 X33.2729 Y264.4592 Z-3.4148
G01 X33.2482 Y264.4998 Z-3.4271
G01 X33.2254 Y264.5416 Z-3.4394
G01 X33.2046 Y264.5844 Z-3.4517
G01 X33.1858 Y264.6282 Z-3.4640
G01 X33.1692 Y264.6728 Z-3.4763
G01 X33.1547 Y264.7181 Z-3.4886
G01 X33.1424 Y264.7641 Z-3.5009
G01 X33.1323 Y264.8106 Z-3.5133
G01 X33.1244 Y264.8575 Z-3.5256
G01 X33.1187 Y264.9048 Z-3.5379
G01 X33.1153 Y264.9523 Z-3.5502
G01 X33.1142 Y264.9998 Z-3.5625
G01 X33.1153 Y265.0474 Z-3.5748
G01 X33.1187 Y265.0949 Z-3.5871
G01 X33.1244 Y265.1422 Z-3.5994
G01 X33.1323 Y265.1891 Z-3.6117
G01 X33.1424 Y265.2356 Z-3.6241
G01 X33.1547 Y265.2816 Z-3.6364
G01 X33.1692 Y265.3269 Z-3.6487
G01 X33.1858 Y265.3715 Z-3.6610
G01 X33.2046 Y265.4153 Z-3.6733
G01 X33.2254 Y265.4581 Z-3.6856
G01 X33.2482 Y265.4998 Z-3.6979
G01 X33.2729 Y265.5405 Z-3.7102
G01 X33.2996 Y265.5799 Z-3.7225
G01 X33.3281 Y265.6180 Z-3.7348
G01 X33.3584 Y265.6547 Z-3.7472
G01 X33.3905 Y265.6899 Z-3.7595
G01 X33.4241 Y265.7236 Z-3.7718
G01 X33.4593 Y265.7556 Z-3.7841
G01 X33.4960 Y265.7859 Z-3.7964
G01 X33.5341 Y265.8144 Z-3.8087
G01 X33.5736 Y265.8411 Z-3.8210
G01 X33.6142 Y265.8659 Z-3.8333
G01 X33.6560 Y265.8887 Z-3.8456
G01 X33.6988 Y265.9095 Z-3.8580
G01 X33.7425 Y265.9282 Z-3.8703
G01 X33.7871 Y265.9448 Z-3.8826
G01 X33.8325 Y265.9593 Z-3.8949
G01 X33.8784 Y265.9717 Z-3.9072
G01 X33.9249 Y265.9818 Z-3.9195
G01 X33.9719 Y265.9897 Z-3.9318
G01 X34.0191 Y265.9953 Z-3.9441
G01 X34.0666 Y265.9987 Z-3.9564
G01 X34.1142 Y265.9998 Z-3.9688
G01 X34.1618 Y265.9987 Z-3.9811
G01 X34.2093 Y265.9953 Z-3.9934
G01 X34.2565 Y265.9897 Z-4.0057
G01 X34.3035 Y265.9818 Z-4.0180
G01 X34.3500 Y265.9717 Z-4.0303
G01 X34.3959 Y265.9593 Z-4.0426
G01 X34.4413 Y265.9448 Z-4.0549
G01 X34.4859 Y265.9282 Z-4.0672
G01 X34.5296 Y265.9095 Z-4.0795
G01 X34.5724 Y265.8887 Z-4.0919
G01 X34.6142 Y265.8659 Z-4.1042
G01 X34.6548 Y265.8411 Z-4.1165
G01 X34.6943 Y265.8144 Z-4.1288
G01 X34.7324 Y265.7859 Z-4.1411
G01 X34.7691 Y265.7556 Z-4.1534
G01 X34.8043 Y265.7236 Z-4.1657
G01 X34.8379 Y265.6899 Z-4.1780
G01 X34.8699 Y265.6547 Z-4.1903
G01 X34.9003 Y265.6180 Z-4.2027
G01 X34.9288 Y265.5799 Z-4.2150
G01 X34.9555 Y265.5405 Z-4.2273
G01 X34.9802 Y265.4998 Z-4.2396
G01 X35.0030 Y265.4581 Z-4.2519
G01 X35.0238 Y265.4153 Z-4.2642
G01 X35.0426 Y265.3715 Z-4.2765
G01 X35.0592 Y265.3269 Z-4.2888
G01 X35.0737 Y265.2816 Z-4.3011
G01 X35.0860 Y265.2356 Z-4.3134
G01 X35.0961 Y265.1891 Z-4.3258
G01 X35.1040 Y265.1422 Z-4.3381
G01 X35.1097 Y265.0949 Z-4.3504
G01 X35.1131 Y265.0474 Z-4.3627
G01 X35.1142 Y264.9998 Z-4.3750
G01 X35.1104 Y264.9127
G01 X35.0990 Y264.8262
G01 X35.0801 Y264.7410
G01 X35.0539 Y264.6578
G01 X35.0205 Y264.5772
G01 X34.9802 Y264.4998
G01 X34.9334 Y264.4263
G01 X34.8802 Y264.3571
G01 X34.8213 Y264.2927
G01 X34.7570 Y264.2338
G01 X34.6878 Y264.1807
G01 X34.6142 Y264.1338
G01 X34.5368 Y264.0935
G01 X34.4562 Y264.0602
G01 X34.3730 Y264.0339
G01 X34.2878 Y264.0150
G01 X34.2014 Y264.0036
G01 X34.1142 Y263.9998
G01 X34.0270 Y264.0036
G01 X33.9406 Y264.0150
G01 X33.8554 Y264.0339
G01 X33.7722 Y264.0602
G01 X33.6916 Y264.0935
G01 X33.6142 Y264.1338
G01 X33.5736 Y264.1586
G01 X33.5341 Y264.1853
G01 X33.4960 Y264.2138
G01 X33.4593 Y264.2441
G01 X33.4241 Y264.2761
G01 X33.3905 Y264.3098
G01 X33.3584 Y264.3450
G01 X33.3281 Y264.3817
G01 X33.2996 Y264.4198
G01 X33.2729 Y264.4592
G01 X33.2482 Y264.4998
G01 X33.2254 Y264.5416
G01 X33.2046 Y264.5844
G01 X33.1858 Y264.6282
G01 X33.1692 Y264.6728
G01 X33.1547 Y264.7181
G01 X33.1424 Y264.7641
G01 X33.1323 Y264.8106
G01 X33.1244 Y264.8575
G01 X33.1187 Y264.9048
G01 X33.1153 Y264.9523
G01 X33.1142 Y264.9998
G01 X33.1153 Y265.0474
G01 X33.1187 Y265.0949
G01 X33.1244 Y265.1422
G01 X33.1323 Y265.1891
G01 X33.1424 Y265.2356
G01 X33.1547 Y265.2816
G01 X33.1692 Y265.3269
G01 X33.1858 Y265.3715
G01 X33.2046 Y265.4153
G01 X33.2254 Y265.4581
G01 X33.2482 Y265.4998
G01 X33.2729 Y265.5405
G01 X33.2996 Y265.5799
G01 X33.3281 Y265.6180
G01 X33.3584 Y265.6547
G01 X33.3905 Y265.6899
G01 X33.4241 Y265.7236
G01 X33.4593 Y265.7556
G01 X33.4960 Y265.7859
G01 X33.5341 Y265.8144
G01 X33.5736 Y265.8411
G01 X33.6142 Y265.8659
G01 X33.6560 Y265.8887
G01 X33.6988 Y265.9095
G01 X33.7425 Y265.9282
G01 X33.7871 Y265.9448
G01 X33.8325 Y265.9593
G01 X33.8784 Y265.9717
G01 X33.9249 Y265.9818
G01 X33.9719 Y265.9897
G01 X34.0191 Y265.9953
G01 X34.0666 Y265.9987
G01 X34.1142 Y265.9998
G01 X34.1618 Y265.9987
G01 X34.2093 Y265.9953
G01 X34.2565 Y265.9897
G01 X34.3035 Y265.9818
G01 X34.3500 Y265.9717
G01 X34.3959 Y265.9593
G01 X34.4413 Y265.9448
G01 X34.4859 Y265.9282
G01 X34.5296 Y265.9095
G01 X34.5724 Y265.8887
G01 X34.6142 Y265.8659
G01 X34.6548 Y265.8411
G01 X34.6943 Y265.8144
G01 X34.7324 Y265.7859
G01 X34.7691 Y265.7556
G01 X34.8043 Y265.7236
G01 X34.8379 Y265.6899
G01 X34.8699 Y265.6547
G01 X34.9003 Y265.6180
G01 X34.9288 Y265.5799
G01 X34.9555 Y265.5405
G01 X34.9802 Y265.4998
G01 X35.0030 Y265.4581
G01 X35.0238 Y265.4153
G01 X35.0426 Y265.3715
G01 X35.0592 Y265.3269
G01 X35.0737 Y265.2816
G01 X35.0860 Y265.2356
G01 X35.0961 Y265.1891
G01 X35.1040 Y265.1422
G01 X35.1097 Y265.0949
G01 X35.1131 Y265.0474
G01 X35.1142 Y264.9998
G01 X35.1249 Y264.9482 F1000
G01 X35.1330 Y264.8962
G01 X35.1384 Y264.8437
G01 X35.1411 Y264.7911
G01 X35.1410 Y264.7384
G01 X35.1383 Y264.6858
G01 X35.1328 Y264.6334
G01 X35.1247 Y264.5813
G01 X35.1130 Y264.5253
G01 X35.0984 Y264.4700
G01 X35.0810 Y264.4155
G01 X35.0609 Y264.3620
G01 X35.0381 Y264.3095
G01 X35.0126 Y264.2583
G01 X34.9845 Y264.2085
G01 X34.9539 Y264.1602
G01 X34.9183 Y264.1098
G01 X34.8802 Y264.0612
G01 X34.8396 Y264.0147
G01 X34.7968 Y263.9703
G01 X34.7517 Y263.9281
G01 X34.7046 Y263.8883
G01 X34.6555 Y263.8510
G01 X34.6045 Y263.8161
G01 X34.5480 Y263.7816
G01 X34.4898 Y263.7499
G01 X34.4301 Y263.7212
G01 X34.3691 Y263.6956
G01 X34.3068 Y263.6731
G01 X34.2434 Y263.6538
G01 X34.1792 Y263.6377
G01 X34.1142 Y263.6248
G01 X34.0446 Y263.6166
G01 X33.9746 Y263.6119
G01 X33.9045 Y263.6107
G01 X33.8345 Y263.6130
G01 X33.7646 Y263.6188
G01 X33.6951 Y263.6281
G01 X33.6262 Y263.6408
G01 X33.5580 Y263.6570
G01 X33.4928 Y263.6859
G01 X33.4290 Y263.7180
G01 X33.3670 Y263.7531
G01 X33.3067 Y263.7913
G01 X33.2484 Y263.8324
G01 X33.1921 Y263.8763
G01 X33.1381 Y263.9229
G01 X33.0864 Y263.9721
G01 X33.0372 Y264.0237
G01 X32.9906 Y264.0778
G01 X32.9467 Y264.1340
G01 X32.9057 Y264.1923
G01 X32.8675 Y264.2526
G01 X32.8323 Y264.3147
G01 X32.8003 Y264.3784
G01 X32.7714 Y264.4436
G01 X32.7457 Y264.5102
G01 X32.7233 Y264.5779
G01 X32.7043 Y264.6467
G01 X32.6886 Y264.7163
G01 X32.6764 Y264.7866
G01 X32.6677 Y264.8574
G01 X32.6625 Y264.9285
G01 X32.6607 Y264.9998
G01 X32.6625 Y265.0712
G01 X32.6677 Y265.1423
G01 X32.6764 Y265.2131
G01 X32.6886 Y265.2834
G01 X32.7043 Y265.3530
G01 X32.7233 Y265.4218
G01 X32.7457 Y265.4895
G01 X32.7714 Y265.5561
G01 X32.8003 Y265.6213
G01 X32.8323 Y265.6850
G01 X32.8675 Y265.7471
G01 X32.9057 Y265.8074
G01 X32.9467 Y265.8657
G01 X32.9906 Y265.9219
G01 X33.0372 Y265.9759
G01 X33.0864 Y266.0276
G01 X33.1381 Y266.0768
G01 X33.1921 Y266.1234
G01 X33.2484 Y266.1673
G01 X33.3067 Y266.2084
G01 X33.3670 Y266.2465
G01 X33.4290 Y266.2817
G01 X33.4928 Y266.3138
G01 X33.5580 Y266.3427
G01 X33.6245 Y266.3684
G01 X33.6923 Y266.3907
G01 X33.7610 Y266.4098
G01 X33.8306 Y266.4254
G01 X33.9009 Y266.4376
G01 X33.9717 Y266.4463
G01 X34.0429 Y266.4516
G01 X34.1142 Y266.4533
G01 X34.1855 Y266.4516
G01 X34.2567 Y266.4463
G01 X34.3275 Y266.4376
G01 X34.3978 Y266.4254
G01 X34.4674 Y266.4098
G01 X34.5361 Y266.3907
G01 X34.6039 Y266.3684
G01 X34.6704 Y266.3427
G01 X34.7356 Y266.3138
G01 X34.7994 Y266.2817
G01 X34.8614 Y266.2465
G01 X34.9217 Y266.2084
G01 X34.9800 Y266.1673
G01 X35.0363 Y266.1234
G01 X35.0903 Y266.0768
G01 X35.1420 Y266.0276
G01 X35.1912 Y265.9759
G01 X35.2378 Y265.9219
G01 X35.2817 Y265.8657
G01 X35.3227 Y265.8074
G01 X35.3609 Y265.7471
G01 X35.3961 Y265.6850
G01 X35.4281 Y265.6213
G01 X35.4570 Y265.5561
G01 X35.4827 Y265.4895
G01 X35.5051 Y265.4218
G01 X35.5241 Y265.3530
G01 X35.5398 Y265.2834
G01 X35.5520 Y265.2131
G01 X35.5607 Y265.1423
G01 X35.5659 Y265.0712
G01 X35.5677 Y264.9998
G01 X35.5636 Y264.8912
G01 X35.5515 Y264.7832
G01 X35.5312 Y264.6764
G01 X35.5031 Y264.5714
G01 X35.4672 Y264.4688
G01 X35.4237 Y264.3692
G01 X35.3730 Y264.2731
G01 X35.3151 Y264.1811
G01 X35.2506 Y264.0936
G01 X35.1797 Y264.0112
G01 X35.1028 Y263.9344
G01 X35.0204 Y263.8635
G01 X34.9330 Y263.7989
G01 X34.8409 Y263.7411
G01 X34.7448 Y263.6903
G01 X34.6452 Y263.6468
G01 X34.5426 Y263.6109
G01 X34.4376 Y263.5828
G01 X34.3308 Y263.5626
G01 X34.2228 Y263.5504
G01 X34.1142 Y263.5464
G01 X34.0056 Y263.5504
G01 X33.8976 Y263.5626
G01 X33.7908 Y263.5828
G01 X33.6858 Y263.6109
G01 X33.5832 Y263.6468
G01 X33.4836 Y263.6903
G01 X33.3875 Y263.7411
G01 X33.2954 Y263.7989
G01 X33.2080 Y263.8635
G01 X33.1256 Y263.9344
G01 X33.0487 Y264.0112
G01 X32.9778 Y264.0936
G01 X32.9133 Y264.1811
G01 X32.8554 Y264.2731
G01 X32.8047 Y264.3692
G01 X32.7612 Y264.4688
G01 X32.7253 Y264.5714
G01 X32.6972 Y264.6764
G01 X32.6769 Y264.7832
G01 X32.6648 Y264.8912
G01 X32.6607 Y264.9998
G01 X32.6648 Y265.1085
G01 X32.6769 Y265.2165
G01 X32.6972 Y265.3233
G01 X32.7253 Y265.4283
G01 X32.7612 Y265.5309
G01 X32.8047 Y265.6305
G01 X32.8554 Y265.7266
G01 X32.9133 Y265.8186
G01 X32.9778 Y265.9061
G01 X33.0487 Y265.9885
G01 X33.1256 Y266.0653
G01 X33.2080 Y266.1362
G01 X33.2954 Y266.2008
G01 X33.3875 Y266.2586
G01 X33.4836 Y266.3094
G01 X33.5832 Y266.3529
G01 X33.6858 Y266.3888
G01 X33.7908 Y266.4169
G01 X33.8976 Y266.4371
G01 X34.0056 Y266.4493
G01 X34.1142 Y266.4533
G01 X34.2228 Y266.4493
G01 X34.3308 Y266.4371
G01 X34.4376 Y266.4169
G01 X34.5426 Y266.3888
G01 X34.6452 Y266.3529
G01 X34.7448 Y266.3094
G01 X34.8409 Y266.2586
G01 X34.9330 Y266.2008
G01 X35.0204 Y266.1362
G01 X35.1028 Y266.0653
G01 X35.1797 Y265.9885
G01 X35.2506 Y265.9061
G01 X35.3151 Y265.8186
G01 X35.3730 Y265.7266
G01 X35.4237 Y265.6305
G01 X35.4672 Y265.5309
G01 X35.5031 Y265.4283
G01 X35.5312 Y265.3233
G01 X35.5515 Y265.2165
G01 X35.5636 Y265.1085
G01 X35.5677 Y264.9998
G01 X35.5639 Y264.9036
G01 X35.5526 Y264.8079
G01 X35.5338 Y264.7135
G01 X35.5076 Y264.6208
G01 X35.4743 Y264.5304
G01 X35.4340 Y264.4429
G01 X35.3869 Y264.3589
G01 X35.3334 Y264.2788
G01 X35.2738 Y264.2031
G01 X35.2084 Y264.1324
G01 X35.1376 Y264.0670
G01 X35.0620 Y264.0074
G01 X34.9819 Y263.9539
G01 X34.8979 Y263.9068
G01 X34.8104 Y263.8665
G01 X34.7200 Y263.8331
G01 X34.6273 Y263.8070
G01 X34.5328 Y263.7882
G01 X34.4372 Y263.7769
G01 X34.3409 Y263.7731
G01 X34.2447 Y263.7769
G01 X34.1490 Y263.7882
G01 X34.0546 Y263.8070
G01 X33.9619 Y263.8331
G01 X33.8715 Y263.8665
G01 X33.7840 Y263.9068
G01 X33.7000 Y263.9539
G01 X33.6199 Y264.0074
G01 X33.5442 Y264.0670
G01 X33.4735 Y264.1324
G01 X33.4081 Y264.2031
G01 X33.3485 Y264.2788
G01 X33.2950 Y264.3589
G01 X33.2479 Y264.4429
G01 X33.2076 Y264.5304
G01 X33.1742 Y264.6208
G01 X33.1481 Y264.7135
G01 X33.1293 Y264.8079
G01 X33.1180 Y264.9036
G01 X33.1142 Y264.9998
G01 X33.1180 Y265.0870
G01 X33.1294 Y265.1735
G01 X33.1483 Y265.2587
G01 X33.1745 Y265.3419
G01 X33.2079 Y265.4225
G01 X33.2482 Y265.4998
G01 X33.2950 Y265.5734
G01 X33.3482 Y265.6426
G01 X33.4071 Y265.7070
G01 X33.4714 Y265.7659
G01 X33.5406 Y265.8190
G01 X33.6142 Y265.8659
G01 X33.6916 Y265.9062
G01 X33.7722 Y265.9395
G01 X33.8554 Y265.9658
G01 X33.9406 Y265.9847
G01 X34.0270 Y265.9960
G01 X34.1142 Y265.9998
G01 X34.2014 Y265.9960
G01 X34.2878 Y265.9847
G01 X34.3730 Y265.9658
G01 X34.4562 Y265.9395
G01 X34.5368 Y265.9062
G01 X34.6142 Y265.8659
G01 X34.6878 Y265.8190
G01 X34.7570 Y265.7659
G01 X34.8213 Y265.7070
G01 X34.8802 Y265.6426
G01 X34.9334 Y265.5734
G01 X34.9802 Y265.4998
G01 X35.0205 Y265.4225
G01 X35.0539 Y265.3419
G01 X35.0801 Y265.2587
G01 X35.0990 Y265.1735
G01 X35.1104 Y265.0870
G01 X35.1142 Y264.9998
M107
M106 S240
G01 X35.1104 Y264.9127 Z-4.3976 F400
G01 X35.0990 Y264.8262 Z-4.4201
G01 X35.0801 Y264.7410 Z-4.4427
G01 X35.0539 Y264.6578 Z-4.4653
G01 X35.0205 Y264.5772 Z-4.4878
G01 X34.9802 Y264.4998 Z-4.5104
G01 X34.9334 Y264.4263 Z-4.5330
G01 X34.8802 Y264.3571 Z-4.5556
G01 X34.8213 Y264.2927 Z-4.5781
G01 X34.7570 Y264.2338 Z-4.6007
G01 X34.6878 Y264.1807 Z-4.6233
G01 X34.6142 Y264.1338 Z-4.6458
G01 X34.5368 Y264.0935 Z-4.6684
G01 X34.4562 Y264.0602 Z-4.6910
G01 X34.3730 Y264.0339 Z-4.7135
G01 X34.2878 Y264.0150 Z-4.7361
G01 X34.2014 Y264.0036 Z-4.7587
G01 X34.1142 Y263.9998 Z-4.7813
G01 X34.0270 Y264.0036 Z-4.8038
G01 X33.9406 Y264.0150 Z-4.8264
G01 X33.8554 Y264.0339 Z-4.8490
G01 X33.7722 Y264.0602 Z-4.8715
G01 X33.6916 Y264.0935 Z-4.8941
G01 X33.6142 Y264.1338 Z-4.9167
G01 X33.5736 Y264.1586 Z-4.9290
G01 X33.5341 Y264.1853 Z-4.9413
G01 X33.4960 Y264.2138 Z-4.9536
G01 X33.4593 Y264.2441 Z-4.9659
G01 X33.4241 Y264.2761 Z-4.9782
G01 X33.3905 Y264.3098 Z-4.9905
G01 X33.3584 Y264.3450 Z-5.0028
G01 X33.3281 Y264.3817 Z-5.0152
G01 X33.2996 Y264.4198 Z-5.0275
G01 X33.2729 Y264.4592 Z-5.0398
G01 X33.2482 Y264.4998 Z-5.0521
G01 X33.2254 Y264.5416 Z-5.0644
G01 X33.2046 Y264.5844 Z-5.0767
G01 X33.1858 Y264.6282 Z-5.0890
G01 X33.1692 Y264.6728 Z-5.1013
G01 X33.1547 Y264.7181 Z-5.1136
G01 X33.1424 Y264.7641 Z-5.1259
G01 X33.1323 Y264.8106 Z-5.1383
G01 X33.1244 Y264.8575 Z-5.1506
G01 X33.1187 Y264.9048 Z-5.1629
G01 X33.1153 Y264.9523 Z-5.1752
G01 X33.1142 Y264.9998 Z-5.1875
G01 X33.1153 Y265.0474 Z-5.1998
G01 X33.1187 Y265.0949 Z-5.2121
G01 X33.1244 Y265.1422 Z-5.2244
G01 X33.1323 Y265.1891 Z-5.2367
G01 X33.1424 Y265.2356 Z-5.2491
G01 X33.1547 Y265.2816 Z-5.2614
G01 X33.1692 Y265.3269 Z-5.2737
G01 X33.1858 Y265.3715 Z-5.2860
G01 X33.2046 Y265.4153 Z-5.2983
G01 X33.2254 Y265.4581 Z-5.3106
G01 X33.2482 Y265.4998 Z-5.3229
G01 X33.2729 Y265.5405 Z-5.3352
G01 X33.2996 Y265.5799 Z-5.3475
G01 X33.3281 Y265.6180 Z-5.3598
G01 X33.3584 Y265.6547 Z-5.3722
G01 X33.3905 Y265.6899 Z-5.3845
G01 X33.4241 Y265.7236 Z-5.3968
G01 X33.4593 Y265.7556 Z-5.4091
G01 X33.4960 Y265.7859 Z-5.4214
G01 X33.5341 Y265.8144 Z-5.4337
G01 X33.5736 Y265.8411 Z-5.4460
G01 X33.6142 Y265.8659 Z-5.4583
G01 X33.6560 Y265.8887 Z-5.4706
G01 X33.6988 Y265.9095 Z-5.4830
G01 X33.7425 Y265.9282 Z-5.4953
G01 X33.7871 Y265.9448 Z-5.5076
G01 X33.8325 Y265.9593 Z-5.5199
G01 X33.8784 Y265.9717 Z-5.5322
G01 X33.9249 Y265.9818 Z-5.5445
G01 X33.9719 Y265.9897 Z-5.5568
G01 X34.0191 Y265.9953 Z-5.5691
G01 X34.0666 Y265.9987 Z-5.5814
G01 X34.1142 Y265.9998 Z-5.5938
G01 X34.1618 Y265.9987 Z-5.6061
G01 X34.2093 Y265.9953 Z-5.6184
G01 X34.2565 Y265.9897 Z-5.6307
G01 X34.3035 Y265.9818 Z-5.6430
G01 X34.3500 Y265.9717 Z-5.6553
G01 X34.3959 Y265.9593 Z-5.6676
G01 X34.4413 Y265.9448 Z-5.6799
G01 X34.4859 Y265.9282 Z-5.6922
G01 X34.5296 Y265.9095 Z-5.7045
G01 X34.5724 Y265.8887 Z-5.7169
G01 X34.6142 Y265.8659 Z-5.7292
G01 X34.6548 Y265.8411 Z-5.7415
G01 X34.6943 Y265.8144 Z-5.7538
G01 X34.7324 Y265.7859 Z-5.7661
G01 X34.7691 Y265.7556 Z-5.7784
G01 X34.8043 Y265.7236 Z-5.7907
G01 X34.8379 Y265.6899 Z-5.8030
G01 X34.8699 Y265.6547 Z-5.8153
G01 X34.9003 Y265.6180 Z-5.8277
G01 X34.9288 Y265.5799 Z-5.8400
G01 X34.9555 Y265.5405 Z-5.8523
G01 X34.9802 Y265.4998 Z-5.8646
G01 X35.0030 Y265.4581 Z-5.8769
G01 X35.0238 Y265.4153 Z-5.8892
G01 X35.0426 Y265.3715 Z-5.9015
G01 X35.0592 Y265.3269 Z-5.9138
G01 X35.0737 Y265.2816 Z-5.9261
G01 X35.0860 Y265.2356 Z-5.9384
G01 X35.0961 Y265.1891 Z-5.9508
G01 X35.1040 Y265.1422 Z-5.9631
G01 X35.1097 Y265.0949 Z-5.9754
G01 X35.1131 Y265.0474 Z-5.9877
G01 X35.1142 Y264.9998 Z-6.0000
G01 X35.1104 Y264.9127
G01 X35.0990 Y264.8262
G01 X35.0801 Y264.7410
G01 X35.0539 Y264.6578
G01 X35.0205 Y264.5772
G01 X34.9802 Y264.4998
G01 X34.9334 Y264.4263
G01 X34.8802 Y264.3571
G01 X34.8213 Y264.2927
G01 X34.7570 Y264.2338
G01 X34.6878 Y264.1807
G01 X34.6142 Y264.1338
G01 X34.5368 Y264.0935
G01 X34.4562 Y264.0602
G01 X34.3730 Y264.0339
G01 X34.2878 Y264.0150
G01 X34.2014 Y264.0036
G01 X34.1142 Y263.9998
G01 X34.0270 Y264.0036
G01 X33.9406 Y264.0150
G01 X33.8554 Y264.0339
G01 X33.7722 Y264.0602
G01 X33.6916 Y264.0935
G01 X33.6142 Y264.1338
G01 X33.5736 Y264.1586
G01 X33.5341 Y264.1853
G01 X33.4960 Y264.2138
G01 X33.4593 Y264.2441
G01 X33.4241 Y264.2761
G01 X33.3905 Y264.3098
G01 X33.3584 Y264.3450
G01 X33.3281 Y264.3817
G01 X33.2996 Y264.4198
G01 X33.2729 Y264.4592
G01 X33.2482 Y264.4998
G01 X33.2254 Y264.5416
G01 X33.2046 Y264.5844
G01 X33.1858 Y264.6282
G01 X33.1692 Y264.6728
G01 X33.1547 Y264.7181
G01 X33.1424 Y264.7641
G01 X33.1323 Y264.8106
G01 X33.1244 Y264.8575
G01 X33.1187 Y264.9048
G01 X33.1153 Y264.9523
G01 X33.1142 Y264.9998
G01 X33.1153 Y265.0474
G01 X33.1187 Y265.0949
G01 X33.1244 Y265.1422
G01 X33.1323 Y265.1891
G01 X33.1424 Y265.2356
G01 X33.1547 Y265.2816
G01 X33.1692 Y265.3269
G01 X33.1858 Y265.3715
G01 X33.2046 Y265.4153
G01 X33.2254 Y265.4581
G01 X33.2482 Y265.4998
G01 X33.2729 Y265.5405
G01 X33.2996 Y265.5799
G01 X33.3281 Y265.6180
G01 X33.3584 Y265.6547
G01 X33.3905 Y265.6899
G01 X33.4241 Y265.7236
G01 X33.4593 Y265.7556
G01 X33.4960 Y265.7859
G01 X33.5341 Y265.8144
G01 X33.5736 Y265.8411
G01 X33.6142 Y265.8659
G01 X33.6560 Y265.8887
G01 X33.6988 Y265.9095
G01 X33.7425 Y265.9282
G01 X33.7871 Y265.9448
G01 X33.8325 Y265.9593
G01 X33.8784 Y265.9717
G01 X33.9249 Y265.9818
G01 X33.9719 Y265.9897
G01 X34.0191 Y265.9953
G01 X34.0666 Y265.9987
G01 X34.1142 Y265.9998
G01 X34.1618 Y265.9987
G01 X34.2093 Y265.9953
G01 X34.2565 Y265.9897
G01 X34.3035 Y265.9818
G01 X34.3500 Y265.9717
G01 X34.3959 Y265.9593
G01 X34.4413 Y265.9448
G01 X34.4859 Y265.9282
G01 X34.5296 Y265.9095
G01 X34.5724 Y265.8887
G01 X34.6142 Y265.8659
G01 X34.6548 Y265.8411
G01 X34.6943 Y265.8144
G01 X34.7324 Y265.7859
G01 X34.7691 Y265.7556
G01 X34.8043 Y265.7236
G01 X34.8379 Y265.6899
G01 X34.8699 Y265.6547
G01 X34.9003 Y265.6180
G01 X34.9288 Y265.5799
G01 X34.9555 Y265.5405
G01 X34.9802 Y265.4998
G01 X35.0030 Y265.4581
G01 X35.0238 Y265.4153
G01 X35.0426 Y265.3715
G01 X35.0592 Y265.3269
G01 X35.0737 Y265.2816
G01 X35.0860 Y265.2356
G01 X35.0961 Y265.1891
G01 X35.1040 Y265.1422
G01 X35.1097 Y265.0949
G01 X35.1131 Y265.0474
G01 X35.1142 Y264.9998
G01 X35.1249 Y264.9482 F1000
G01 X35.1330 Y264.8962
G01 X35.1384 Y264.8437
G01 X35.1411 Y264.7911
G01 X35.1410 Y264.7384
G01 X35.1383 Y264.6858
G01 X35.1328 Y264.6334
G01 X35.1247 Y264.5813
G01 X35.1130 Y264.5253
G01 X35.0984 Y264.4700
G01 X35.0810 Y264.4155
G01 X35.0609 Y264.3620
G01 X35.0381 Y264.3095
G01 X35.0126 Y264.2583
G01 X34.9845 Y264.2085
G01 X34.9539 Y264.1602
G01 X34.9183 Y264.1098
G01 X34.8802 Y264.0612
G01 X34.8396 Y264.0147
G01 X34.7968 Y263.9703
G01 X34.7517 Y263.9281
G01 X34.7046 Y263.8883
G01 X34.6555 Y263.8510
G01 X34.6045 Y263.8161
G01 X34.5480 Y263.7816
G01 X34.4898 Y263.7499
G01 X34.4301 Y263.7212
G01 X34.3691 Y263.6956
G01 X34.3068 Y263.6731
G01 X34.2434 Y263.6538
G01 X34.1792 Y263.6377
G01 X34.1142 Y263.6248
G01 X34.0446 Y263.6166
G01 X33.9746 Y263.6119
G01 X33.9045 Y263.6107
G01 X33.8345 Y263.6130
G01 X33.7646 Y263.6188
G01 X33.6951 Y263.6281
G01 X33.6262 Y263.6408
G01 X33.5580 Y263.6570
G01 X33.4928 Y263.6859
G01 X33.4290 Y263.7180
G01 X33.3670 Y263.7531
G01 X33.3067 Y263.7913
G01 X33.2484 Y263.8324
G01 X33.1921 Y263.8763
G01 X33.1381 Y263.9229
G01 X33.0864 Y263.9721
G01 X33.0372 Y264.0237
G01 X32.9906 Y264.0778
G01 X32.9467 Y264.1340
G01 X32.9057 Y264.1923
G01 X32.8675 Y264.2526
G01 X32.8323 Y264.3147
G01 X32.8003 Y264.3784
G01 X32.7714 Y264.4436
G01 X32.7457 Y264.5102
G01 X32.7233 Y264.5779
G01 X32.7043 Y264.6467
G01 X32.6886 Y264.7163
G01 X32.6764 Y264.7866
G01 X32.6677 Y264.8574
G01 X32.6625 Y264.9285
G01 X32.6607 Y264.9998
G01 X32.6625 Y265.0712
G01 X32.6677 Y265.1423
G01 X32.6764 Y265.2131
G01 X32.6886 Y265.2834
G01 X32.7043 Y265.3530
G01 X32.7233 Y265.4218
G01 X32.7457 Y265.4895
G01 X32.7714 Y265.5561
G01 X32.8003 Y265.6213
G01 X32.8323 Y265.6850
G01 X32.8675 Y265.7471
G01 X32.9057 Y265.8074
G01 X32.9467 Y265.8657
G01 X32.9906 Y265.9219
G01 X33.0372 Y265.9759
G01 X33.0864 Y266.0276
G01 X33.1381 Y266.0768
G01 X33.1921 Y266.1234
G01 X33.2484 Y266.1673
G01 X33.3067 Y266.2084
G01 X33.3670 Y266.2465
G01 X33.4290 Y266.2817
G01 X33.4928 Y266.3138
G01 X33.5580 Y266.3427
G01 X33.6245 Y266.3684
G01 X33.6923 Y266.3907
G01 X33.7610 Y266.4098
G01 X33.8306 Y266.4254
G01 X33.9009 Y266.4376
G01 X33.9717 Y266.4463
G01 X34.0429 Y266.4516
G01 X34.1142 Y266.4533
G01 X34.1855 Y266.4516
G01 X34.2567 Y266.4463
G01 X34.3275 Y266.4376
G01 X34.3978 Y266.4254
G01 X34.4674 Y266.4098
G01 X34.5361 Y266.3907
G01 X34.6039 Y266.3684
G01 X34.6704 Y266.3427
G01 X34.7356 Y266.3138
G01 X34.7994 Y266.2817
G01 X34.8614 Y266.2465
G01 X34.9217 Y266.2084
G01 X34.9800 Y266.1673
G01 X35.0363 Y266.1234
G01 X35.0903 Y266.0768
G01 X35.1420 Y266.0276
G01 X35.1912 Y265.9759
G01 X35.2378 Y265.9219
G01 X35.2817 Y265.8657
G01 X35.3227 Y265.8074
G01 X35.3609 Y265.7471
G01 X35.3961 Y265.6850
G01 X35.4281 Y265.6213
G01 X35.4570 Y265.5561
G01 X35.4827 Y265.4895
G01 X35.5051 Y265.4218
G01 X35.5241 Y265.3530
G01 X35.5398 Y265.2834
G01 X35.5520 Y265.2131
G01 X35.5607 Y265.1423
G01 X35.5659 Y265.0712
G01 X35.5677 Y264.9998
G01 X35.5636 Y264.8912
G01 X35.5515 Y264.7832
G01 X35.5312 Y264.6764
G01 X35.5031 Y264.5714
G01 X35.4672 Y264.4688
G01 X35.4237 Y264.3692
G01 X35.3730 Y264.2731
G01 X35.3151 Y264.1811
G01 X35.2506 Y264.0936
G01 X35.1797 Y264.0112
G01 X35.1028 Y263.9344
G01 X35.0204 Y263.8635
G01 X34.9330 Y263.7989
G01 X34.8409 Y263.7411
G01 X34.7448 Y263.6903
G01 X34.6452 Y263.6468
G01 X34.5426 Y263.6109
G01 X34.4376 Y263.5828
G01 X34.3308 Y263.5626
G01 X34.2228 Y263.5504
G01 X34.1142 Y263.5464
G01 X34.0056 Y263.5504
G01 X33.8976 Y263.5626
G01 X33.7908 Y263.5828
G01 X33.6858 Y263.6109
G01 X33.5832 Y263.6468
G01 X33.4836 Y263.6903
G01 X33.3875 Y263.7411
G01 X33.2954 Y263.7989
G01 X33.2080 Y263.8635
G01 X33.1256 Y263.9344
G01 X33.0487 Y264.0112
G01 X32.9778 Y264.0936
G01 X32.9133 Y264.1811
G01 X32.8554 Y264.2731
G01 X32.8047 Y264.3692
G01 X32.7612 Y264.4688
G01 X32.7253 Y264.5714
G01 X32.6972 Y264.6764
G01 X32.6769 Y264.7832
G01 X32.6648 Y264.8912
G01 X32.6607 Y264.9998
G01 X32.6648 Y265.1085
G01 X32.6769 Y265.2165
G01 X32.6972 Y265.3233
G01 X32.7253 Y265.4283
G01 X32.7612 Y265.5309
G01 X32.8047 Y265.6305
G01 X32.8554 Y265.7266
G01 X32.9133 Y265.8186
G01 X32.9778 Y265.9061
G01 X33.0487 Y265.9885
G01 X33.1256 Y266.0653
G01 X33.2080 Y266.1362
G01 X33.2954 Y266.2008
G01 X33.3875 Y266.2586
G01 X33.4836 Y266.3094
G01 X33.5832 Y266.3529
G01 X33.6858 Y266.3888
G01 X33.7908 Y266.4169
G01 X33.8976 Y266.4371
G01 X34.0056 Y266.4493
G01 X34.1142 Y266.4533
G01 X34.2228 Y266.4493
G01 X34.3308 Y266.4371
G01 X34.4376 Y266.4169
G01 X34.5426 Y266.3888
G01 X34.6452 Y266.3529
G01 X34.7448 Y266.3094
G01 X34.8409 Y266.2586
G01 X34.9330 Y266.2008
G01 X35.0204 Y266.1362
G01 X35.1028 Y266.0653
G01 X35.1797 Y265.9885
G01 X35.2506 Y265.9061
G01 X35.3151 Y265.8186
G01 X35.3730 Y265.7266
G01 X35.4237 Y265.6305
G01 X35.4672 Y265.5309
G01 X35.5031 Y265.4283
G01 X35.5312 Y265.3233
G01 X35.5515 Y265.2165
G01 X35.5636 Y265.1085
G01 X35.5677 Y264.9998
M107
M106 S240
G01 X35.5646 Y264.9214 Z-5.9750 F400
M107
M106 S240
G01 X35.5554 Y264.8434 Z-5.9500
M107
M106 S240
G01 X35.5401 Y264.7664 Z-5.9250
M107
M106 S240
G01 X35.5187 Y264.6908 Z-5.9000
M107
M106 S240
G01 X35.4916 Y264.6172 Z-5.8750
M107
M106 S240
G01 X35.4587 Y264.5459 Z-5.8500
M107
M106 S240
G01 X35.4203 Y264.4773 Z-5.8250
M107
M106 S240
G01 X35.3767 Y264.4121 Z-5.8000
M107
M106 S240
G01 X35.3281 Y264.3504 Z-5.7750
M107
M106 S240
G01 X35.2748 Y264.2927 Z-5.7500
M107
M106 S240
G01 X35.2171 Y264.2394 Z-5.7250
M107
M106 S240
G01 X35.1555 Y264.1908 Z-5.7000
M107
M106 S240
G01 X35.0902 Y264.1472 Z-5.6750
M107
M106 S240
G01 X35.0217 Y264.1088 Z-5.6500
M107
M106 S240
G01 X34.9504 Y264.0760 Z-5.6250
M107
M106 S240
G01 X34.8767 Y264.0488 Z-5.6000
M107
M106 S240
G01 X34.8011 Y264.0275 Z-5.5750
M107
M106 S240
G01 X34.7241 Y264.0122 Z-5.5500
M107
M106 S240
G01 X34.6461 Y264.0029 Z-5.5250
M107
M106 S240
G01 X34.5677 Y263.9998 Z-5.5000
M107
G00 Z2.0000


;No. 2: Hole 2
G00 X33.1564 Y253.4294 Z2.0000
G00 Z0.5000
G01 Z0.0000 F400
G01 Z-1.8000
M106 S240
G01 X56.3111 F1000
G01 X54.9213 Y251.9294
G01 X34.5070
G01 X43.3280
G01 Y250.4294
G01 X46.1430
G01 X46.1289 Y248.9294
G01 X43.3421
G01 Y247.4294
G01 X46.1289
G01 Y245.9294
G01 X43.3421
G01 Y244.4294
G01 X46.1289
G01 Y242.9294
G01 X43.3421
G01 Y241.4294
G01 X46.1289
G01 Y239.9294
G01 X43.3421
G01 Y238.4294
G01 X46.1289
G01 Y236.9294
G01 X43.3421
G01 Y235.4294
G01 X46.1289
G01 X46.3289 Y235.4478
G01 Y234.4254
G01 X43.1421
G01 Y250.2467
G01 X43.1391 Y250.3251
G01 X43.1298 Y250.4031
G01 X43.1145 Y250.4801
G01 X43.0932 Y250.5557
G01 X43.0660 Y250.6294
G01 X43.0332 Y250.7007
G01 X42.9948 Y250.7692
G01 X42.9512 Y250.8345
G01 X42.9026 Y250.8961
G01 X42.8493 Y250.9538
G01 X42.7916 Y251.0071
G01 X42.7299 Y251.0557
G01 X42.6646 Y251.0993
G01 X42.5961 Y251.1377
G01 X42.5248 Y251.1706
G01 X42.4512 Y251.1977
G01 X42.3756 Y251.2191
G01 X42.2986 Y251.2344
G01 X42.2206 Y251.2436
G01 X42.1422 Y251.2467
G01 X36.3279
G01 X35.9638 Y251.2579
G01 X35.6028 Y251.3058
G01 X35.2484 Y251.3898
G01 X34.9043 Y251.5092
G01 X34.5741 Y251.6628
G01 X34.2610 Y251.8489
G01 X33.9683 Y252.0656
G01 X33.6990 Y252.3108
G01 X33.7065 Y252.3028
G01 X33.5010 Y252.5240
G01 X33.3149 Y252.7617
G01 X33.1496 Y253.0142
G01 X33.0060 Y253.2797
G01 X32.8854 Y253.5565
G01 X32.7886 Y253.8424
G01 X32.7161 Y254.1354
G01 X32.6687 Y254.4335
G01 X56.8023
G01 X56.7341 Y254.0712
G01 X56.6302 Y253.7176
G01 X56.4915 Y253.3760
G01 X56.3195 Y253.0500
G01 X56.1158 Y252.7428
G01 X55.8825 Y252.4574
G01 X55.6219 Y252.1967
G01 X55.3366 Y251.9633
G01 X55.0294 Y251.7595
G01 X54.7035 Y251.5874
G01 X54.3620 Y251.4486
G01 X54.0084 Y251.3445
G01 X53.7940 Y251.3013
G01 X53.5776 Y251.2706
G01 X53.3597 Y251.2524
G01 X53.1411 Y251.2468
G01 X47.3289
G01 X47.2504 Y251.2437
G01 X47.1724 Y251.2345
G01 X47.0954 Y251.2192
G01 X47.0199 Y251.1978
G01 X46.9462 Y251.1707
G01 X46.8749 Y251.1378
G01 X46.8064 Y251.0994
G01 X46.7411 Y251.0558
G01 X46.6794 Y251.0072
G01 X46.6218 Y250.9539
G01 X46.5685 Y250.8962
G01 X46.5199 Y250.8346
G01 X46.4762 Y250.7693
G01 X46.4379 Y250.7008
G01 X46.4050 Y250.6295
G01 X46.3778 Y250.5558
G01 X46.3565 Y250.4802
G01 X46.3412 Y250.4032
G01 X46.3320 Y250.3252
G01 X46.3289 Y250.2468
G01 Y235.4478
G01 X46.1289 Y235.4294
M107
G00 Z2.0000


;No. 3: Hole 3
G00 X66.1868 Y252.8401 Z2.0000
G00 Z0.5000
G01 Z0.0000 F400
G01 Z-1.8000
M106 S240
G01 X88.6246 F1000
G01 X88.7703 Y252.7018
G01 X88.5894 Y252.4825
G01 X88.3923 Y252.2778
G01 X88.1800 Y252.0889
G01 X87.9537 Y251.9169
G01 X87.7150 Y251.7627
G01 X87.4651 Y251.6273
G01 X87.2055 Y251.5116
G01 X86.9378 Y251.4161
G01 X86.6636 Y251.3416
G01 X86.3844 Y251.2883
G01 X86.1020 Y251.2566
G01 X85.8179 Y251.2467
G01 X69.0046
G01 X68.6406 Y251.2579
G01 X68.2796 Y251.3058
G01 X67.9252 Y251.3898
G01 X67.5811 Y251.5092
G01 X67.2508 Y251.6628
G01 X66.9378 Y251.8489
G01 X66.6451 Y252.0656
G01 X66.3757 Y252.3108
G01 X66.3832 Y252.3028
G01 X66.1778 Y252.5240
G01 X65.9917 Y252.7617
G01 X65.8263 Y253.0142
G01 X65.6828 Y253.2797
G01 X65.5622 Y253.5565
G01 X65.4654 Y253.8424
G01 X65.3929 Y254.1354
G01 X65.3455 Y254.4335
G01 X89.4790 Y254.4334
G01 X89.4454 Y254.1989
G01 X89.3954 Y253.9673
G01 X89.3292 Y253.7398
G01 X89.2472 Y253.5175
G01 X89.1498 Y253.3015
G01 X89.0375 Y253.0928
G01 X88.9107 Y252.8926
G01 X88.7703 Y252.7018
G01 X88.6246 Y252.8401
M107
G00 Z2.0000


;No. 4: Hole 4
G00 X88.6246 Y244.4294 Z2.0000
G00 Z0.5000
G01 Z0.0000 F400
G01 Z-1.8000
M106 S240
G01 X66.1868 F1000
G01 X66.0422 Y244.2889
G01 X65.9049 Y244.4814
G01 X65.7809 Y244.6827
G01 X65.6709 Y244.8920
G01 X65.5753 Y245.1083
G01 X65.4947 Y245.3305
G01 X65.4293 Y245.5577
G01 X65.3795 Y245.7888
G01 X65.3455 Y246.0228
G01 X89.4790
G01 X89.4316 Y245.7503
G01 X89.3639 Y245.4821
G01 X89.2763 Y245.2198
G01 X89.1692 Y244.9648
G01 X89.0433 Y244.7186
G01 X88.8994 Y244.4824
G01 X88.7381 Y244.2578
G01 X88.5604 Y244.0458
G01 X88.3673 Y243.8478
G01 X88.1599 Y243.6648
G01 X87.9394 Y243.4979
G01 X87.7070 Y243.3480
G01 X87.4640 Y243.2159
G01 X87.2118 Y243.1024
G01 X86.9518 Y243.0082
G01 X86.6854 Y242.9337
G01 X86.4710 Y242.8906
G01 X86.2545 Y242.8598
G01 X86.0365 Y242.8416
G01 X85.8179 Y242.8360
G01 X69.0053
G01 X68.7197 Y242.8411
G01 X68.4353 Y242.8688
G01 X68.1541 Y242.9191
G01 X67.8777 Y242.9916
G01 X67.6080 Y243.0859
G01 X67.3467 Y243.2014
G01 X67.0954 Y243.3373
G01 X66.8557 Y243.4928
G01 X66.6292 Y243.6668
G01 X66.4172 Y243.8584
G01 X66.2211 Y244.0662
G01 X66.0422 Y244.2889
G01 X66.1868 Y244.4294
M107
G00 Z2.0000


;No. 5: Hole 5
G00 X66.1868 Y236.0187 Z2.0000
G00 Z0.5000
G01 Z0.0000 F400
G01 Z-1.8000
M106 S240
G01 X88.6246 F1000
G01 X88.7703 Y235.8804
G01 X88.5894 Y235.6612
G01 X88.3923 Y235.4565
G01 X88.1799 Y235.2675
G01 X87.9537 Y235.0955
G01 X87.7150 Y234.9413
G01 X87.4651 Y234.8060
G01 X87.2055 Y234.6902
G01 X86.9378 Y234.5948
G01 X86.6636 Y234.5202
G01 X86.3844 Y234.4669
G01 X86.1020 Y234.4352
G01 X85.8179 Y234.4253
G01 X69.0053
G01 X68.6731 Y234.4343
G01 X68.3431 Y234.4738
G01 X68.0181 Y234.5433
G01 X67.7009 Y234.6424
G01 X67.3941 Y234.7702
G01 X67.1003 Y234.9256
G01 X66.8220 Y235.1074
G01 X66.5616 Y235.3139
G01 X66.3213 Y235.5434
G01 X66.1030 Y235.7940
G01 X65.9087 Y236.0636
G01 X65.7399 Y236.3499
G01 X65.5981 Y236.6505
G01 X65.4845 Y236.9628
G01 X65.4000 Y237.2843
G01 X65.3455 Y237.6121
G01 X89.4790
G01 X89.4454 Y237.3775
G01 X89.3954 Y237.1459
G01 X89.3292 Y236.9184
G01 X89.2472 Y236.6961
G01 X89.1498 Y236.4801
G01 X89.0374 Y236.2715
G01 X88.9107 Y236.0712
G01 X88.7703 Y235.8804
G01 X88.6246 Y236.0187
M107
G00 Z2.0000


;No. 6: Hole 6
G00 X98.5165 Y235.4294 Z2.0000
G00 Z0.5000
G01 Z0.0000 F400
G01 Z-1.8000
M106 S240
G01 X121.9977 F1000
G01 Y236.9294
G01 X99.8998
G01 X119.1968
G01 Y238.4294
G01 X121.9977
G01 Y239.9294
G01 X119.2109
G01 Y241.4294
G01 X121.9977
G01 Y242.9294
G01 X118.5033
G01 X121.9977 Y244.4294
G01 X98.1842
G01 Y245.9294
G01 X101.6785
G01 X100.9709
G01 Y247.4294
G01 X98.1842
G01 Y248.9294
G01 X100.9709
G01 X100.9851 Y250.4294
G01 X98.1842
G01 Y251.9294
G01 X120.2767
G01 X121.6665 Y253.4294
G01 X98.1842
G01 X97.9842 Y253.4116
G01 Y254.4335
G01 X122.1577
G01 X122.0895 Y254.0712
G01 X121.9856 Y253.7176
G01 X121.8469 Y253.3760
G01 X121.6749 Y253.0500
G01 X121.4712 Y252.7428
G01 X121.2379 Y252.4574
G01 X120.9773 Y252.1967
G01 X120.6920 Y251.9633
G01 X120.3848 Y251.7595
G01 X120.0589 Y251.5874
G01 X119.7174 Y251.4486
G01 X119.3638 Y251.3445
G01 X119.1494 Y251.3013
G01 X118.9330 Y251.2706
G01 X118.7151 Y251.2524
G01 X118.4965 Y251.2468
G01 X102.1709
G01 X102.1273 Y251.2458
G01 X102.0837 Y251.2430
G01 X102.0404 Y251.2382
G01 X101.9972 Y251.2316
G01 X101.9544 Y251.2231
G01 X101.9121 Y251.2127
G01 X101.8702 Y251.2005
G01 X101.8289 Y251.1865
G01 X101.7882 Y251.1707
G01 X101.7483 Y251.1531
G01 X101.7091 Y251.1338
G01 X101.6709 Y251.1128
G01 X101.6336 Y251.0902
G01 X101.5973 Y251.0659
G01 X101.5621 Y251.0401
G01 X101.5281 Y251.0128
G01 X101.4953 Y250.9841
G01 X101.4638 Y250.9539
G01 X101.4336 Y250.9224
G01 X101.4048 Y250.8896
G01 X101.3775 Y250.8555
G01 X101.3517 Y250.8204
G01 X101.3275 Y250.7841
G01 X101.3049 Y250.7468
G01 X101.2839 Y250.7085
G01 X101.2646 Y250.6694
G01 X101.2470 Y250.6295
G01 X101.2312 Y250.5888
G01 X101.2172 Y250.5475
G01 X101.2050 Y250.5056
G01 X101.1946 Y250.4632
G01 X101.1861 Y250.4204
G01 X101.1794 Y250.3773
G01 X101.1747 Y250.3339
G01 X101.1718 Y250.2904
G01 X101.1709 Y250.2468
G01 Y247.0228
G01 X101.1718 Y246.9792
G01 X101.1747 Y246.9357
G01 X101.1794 Y246.8923
G01 X101.1861 Y246.8492
G01 X101.1946 Y246.8064
G01 X101.2050 Y246.7640
G01 X101.2172 Y246.7221
G01 X101.2312 Y246.6808
G01 X101.2470 Y246.6401
G01 X101.2646 Y246.6002
G01 X101.2839 Y246.5611
G01 X101.3049 Y246.5228
G01 X101.3275 Y246.4855
G01 X101.3517 Y246.4492
G01 X101.3775 Y246.4140
G01 X101.4048 Y246.3800
G01 X101.4336 Y246.3472
G01 X101.4638 Y246.3157
G01 X101.4953 Y246.2855
G01 X101.5281 Y246.2568
G01 X101.5621 Y246.2295
G01 X101.5973 Y246.2037
G01 X101.6336 Y246.1794
G01 X101.6709 Y246.1568
G01 X101.7091 Y246.1358
G01 X101.7483 Y246.1165
G01 X101.7882 Y246.0989
G01 X101.8289 Y246.0831
G01 X101.8702 Y246.0691
G01 X101.9121 Y246.0569
G01 X101.9544 Y246.0465
G01 X101.9972 Y246.0380
G01 X102.0404 Y246.0314
G01 X102.0837 Y246.0266
G01 X102.1273 Y246.0238
G01 X102.1709 Y246.0228
G01 X122.1977
G01 Y234.4254
G01 X98.0242
G01 X98.0838 Y234.7510
G01 X98.1724 Y235.0699
G01 X98.2892 Y235.3796
G01 X98.4333 Y235.6776
G01 X98.6036 Y235.9614
G01 X98.7986 Y236.2289
G01 X99.0168 Y236.4777
G01 X99.2565 Y236.7060
G01 X99.5156 Y236.9119
G01 X99.7922 Y237.0937
G01 X100.0840 Y237.2500
G01 X100.3886 Y237.3795
G01 X100.7036 Y237.4812
G01 X101.0265 Y237.5542
G01 X101.3546 Y237.5979
G01 X101.6853 Y237.6121
G01 X118.0109
G01 X118.0894 Y237.6152
G01 X118.1674 Y237.6244
G01 X118.2444 Y237.6397
G01 X118.3199 Y237.6610
G01 X118.3936 Y237.6882
G01 X118.4649 Y237.7211
G01 X118.5334 Y237.7595
G01 X118.5987 Y237.8031
G01 X118.6604 Y237.8517
G01 X118.7180 Y237.9050
G01 X118.7713 Y237.9626
G01 X118.8199 Y238.0243
G01 X118.8636 Y238.0896
G01 X118.9019 Y238.1581
G01 X118.9348 Y238.2294
G01 X118.9620 Y238.3031
G01 X118.9833 Y238.3787
G01 X118.9986 Y238.4557
G01 X119.0078 Y238.5336
G01 X119.0109 Y238.6121
G01 Y241.8361
G01 X119.0078 Y241.9145
G01 X118.9986 Y241.9925
G01 X118.9833 Y242.0695
G01 X118.9620 Y242.1451
G01 X118.9348 Y242.2188
G01 X118.9019 Y242.2901
G01 X118.8636 Y242.3586
G01 X118.8199 Y242.4239
G01 X118.7713 Y242.4855
G01 X118.7180 Y242.5432
G01 X118.6604 Y242.5965
G01 X118.5987 Y242.6451
G01 X118.5334 Y242.6887
G01 X118.4649 Y242.7271
G01 X118.3936 Y242.7600
G01 X118.3199 Y242.7871
G01 X118.2444 Y242.8084
G01 X118.1674 Y242.8238
G01 X118.0894 Y242.8330
G01 X118.0109 Y242.8361
G01 X97.9842
G01 Y253.4116
G01 X98.1842 Y253.4294
M107
G00 Z2.0000


;No. 7: Hole 7
G00 X130.8609 Y253.4294 Z2.0000
G00 Z0.5000
G01 Z0.0000 F400
G01 Z-1.8000
M106 S240
G01 X133.6477 F1000
G01 Y251.9294
G01 X130.8609
G01 Y250.4294
G01 X133.6477
G01 Y248.9294
G01 X130.8609
G01 Y247.4294
G01 X133.6477
G01 Y245.9294
G01 X130.8609
G01 Y244.4294
G01 X133.6477
G01 Y242.9294
G01 X130.8609
G01 Y241.4294
G01 X133.6477
G01 Y239.9294
G01 X130.8609
G01 Y238.4294
G01 X133.6619
G01 X130.8609 Y236.9294
G01 X154.4779
G01 X153.4072 Y235.4294
G01 X130.8609
G01 X130.6609 Y235.4481
G01 Y254.4335
G01 X133.8477
G01 Y238.6121
G01 X133.8508 Y238.5331
G01 X133.8602 Y238.4547
G01 X133.8757 Y238.3772
G01 X133.8973 Y238.3012
G01 X133.9248 Y238.2271
G01 X133.9581 Y238.1554
G01 X133.9969 Y238.0866
G01 X134.0410 Y238.0211
G01 X134.0902 Y237.9592
G01 X134.1441 Y237.9015
G01 X134.2024 Y237.8481
G01 X134.2648 Y237.7996
G01 X134.3307 Y237.7561
G01 X134.3999 Y237.7179
G01 X134.4719 Y237.6854
G01 X134.5463 Y237.6586
G01 X134.6225 Y237.6377
G01 X134.7001 Y237.6230
G01 X134.7787 Y237.6144
G01 X134.8577 Y237.6121
G01 X154.8344
G01 X154.7870 Y237.3396
G01 X154.7193 Y237.0715
G01 X154.6317 Y236.8092
G01 X154.5246 Y236.5541
G01 X154.3987 Y236.3079
G01 X154.2548 Y236.0718
G01 X154.0935 Y235.8471
G01 X153.9158 Y235.6351
G01 X153.7227 Y235.4371
G01 X153.5153 Y235.2541
G01 X153.2948 Y235.0872
G01 X153.0624 Y234.9373
G01 X152.8194 Y234.8052
G01 X152.5672 Y234.6918
G01 X152.3072 Y234.5975
G01 X152.0408 Y234.5231
G01 X151.8264 Y234.4799
G01 X151.6099 Y234.4492
G01 X151.3919 Y234.4310
G01 X151.1733 Y234.4254
G01 X130.6609
G01 Y235.4481
G01 X130.8609 Y235.4294
M107
G00 Z2.0000


;No. 8: Helical drill 2
G00 X187.2276 Y264.9998 Z2.0000
G00 Z0.5000
M106 S240
G01 X187.2238 Y264.9126 Z0.4774 F400
G01 X187.2124 Y264.8262 Z0.4549
G01 X187.1935 Y264.7410 Z0.4323
G01 X187.1673 Y264.6578 Z0.4097
G01 X187.1339 Y264.5772 Z0.3872
G01 X187.0936 Y264.4998 Z0.3646
G01 X187.0468 Y264.4262 Z0.3420
G01 X186.9936 Y264.3570 Z0.3194
G01 X186.9347 Y264.2927 Z0.2969
G01 X186.8704 Y264.2338 Z0.2743
G01 X186.8012 Y264.1806 Z0.2517
G01 X186.7276 Y264.1338 Z0.2292
G01 X186.6502 Y264.0935 Z0.2066
G01 X186.5696 Y264.0601 Z0.1840
G01 X186.4864 Y264.0339 Z0.1615
G01 X186.4013 Y264.0150 Z0.1389
G01 X186.3148 Y264.0036 Z0.1163
G01 X186.2276 Y263.9998 Z0.0938
G01 X186.1404 Y264.0036 Z0.0712
G01 X186.0540 Y264.0150 Z0.0486
G01 X185.9688 Y264.0339 Z0.0260
G01 X185.8856 Y264.0601 Z0.0035
G01 X185.8050 Y264.0935 Z-0.0191
G01 X185.7276 Y264.1338 Z-0.0417
G01 X185.6870 Y264.1585 Z-0.0540
G01 X185.6475 Y264.1852 Z-0.0663
G01 X185.6094 Y264.2137 Z-0.0786
G01 X185.5727 Y264.2441 Z-0.0909
G01 X185.5375 Y264.2761 Z-0.1032
G01 X185.5039 Y264.3097 Z-0.1155
G01 X185.4719 Y264.3449 Z-0.1278
G01 X185.4416 Y264.3816 Z-0.1402
G01 X185.4130 Y264.4197 Z-0.1525
G01 X185.3864 Y264.4592 Z-0.1648
G01 X185.3616 Y264.4998 Z-0.1771
G01 X185.3388 Y264.5416 Z-0.1894
G01 X185.3180 Y264.5844 Z-0.2017
G01 X185.2992 Y264.6281 Z-0.2140
G01 X185.2826 Y264.6727 Z-0.2263
G01 X185.2681 Y264.7181 Z-0.2386
G01 X185.2558 Y264.7640 Z-0.2509
G01 X185.2457 Y264.8105 Z-0.2633
G01 X185.2378 Y264.8575 Z-0.2756
G01 X185.2321 Y264.9047 Z-0.2879
G01 X185.2287 Y264.9522 Z-0.3002
G01 X185.2276 Y264.9998 Z-0.3125
G01 X185.2287 Y265.0474 Z-0.3248
G01 X185.2321 Y265.0949 Z-0.3371
G01 X185.2378 Y265.1421 Z-0.3494
G01 X185.2457 Y265.1891 Z-0.3617
G01 X185.2558 Y265.2356 Z-0.3741
G01 X185.2681 Y265.2815 Z-0.3864
G01 X185.2826 Y265.3269 Z-0.3987
G01 X185.2992 Y265.3715 Z-0.4110
G01 X185.3180 Y265.4152 Z-0.4233
G01 X185.3388 Y265.4580 Z-0.4356
G01 X185.3616 Y265.4998 Z-0.4479
G01 X185.3864 Y265.5404 Z-0.4602
G01 X185.4130 Y265.5799 Z-0.4725
G01 X185.4416 Y265.6180 Z-0.4848
G01 X185.4719 Y265.6547 Z-0.4972
G01 X185.5039 Y265.6899 Z-0.5095
G01 X185.5375 Y265.7235 Z-0.5218
G01 X185.5727 Y265.7555 Z-0.5341
G01 X185.6094 Y265.7859 Z-0.5464
G01 X185.6475 Y265.8144 Z-0.5587
G01 X185.6870 Y265.8411 Z-0.5710
G01 X185.7276 Y265.8658 Z-0.5833
G01 X185.7694 Y265.8886 Z-0.5956
G01 X185.8122 Y265.9094 Z-0.6080
G01 X185.8559 Y265.9282 Z-0.6203
G01 X185.9005 Y265.9448 Z-0.6326
G01 X185.9459 Y265.9593 Z-0.6449
G01 X185.9918 Y265.9716 Z-0.6572
G01 X186.0384 Y265.9817 Z-0.6695
G01 X186.0853 Y265.9896 Z-0.6818
G01 X186.1325 Y265.9953 Z-0.6941
G01 X186.1800 Y265.9987 Z-0.7064
G01 X186.2276 Y265.9998 Z-0.7188
G01 X186.2752 Y265.9987 Z-0.7311
G01 X186.3227 Y265.9953 Z-0.7434
G01 X186.3699 Y265.9896 Z-0.7557
G01 X186.4169 Y265.9817 Z-0.7680
G01 X186.4634 Y265.9716 Z-0.7803
G01 X186.5093 Y265.9593 Z-0.7926
G01 X186.5547 Y265.9448 Z-0.8049
G01 X186.5993 Y265.9282 Z-0.8172
G01 X186.6430 Y265.9094 Z-0.8295
G01 X186.6858 Y265.8886 Z-0.8419
G01 X186.7276 Y265.8658 Z-0.8542
G01 X186.7682 Y265.8411 Z-0.8665
G01 X186.8077 Y265.8144 Z-0.8788
G01 X186.8458 Y265.7859 Z-0.8911
G01 X186.8825 Y265.7555 Z-0.9034
G01 X186.9177 Y265.7235 Z-0.9157
G01 X186.9513 Y265.6899 Z-0.9280
G01 X186.9834 Y265.6547 Z-0.9403
G01 X187.0137 Y265.6180 Z-0.9527
G01 X187.0422 Y265.5799 Z-0.9650
G01 X187.0689 Y265.5404 Z-0.9773
G01 X187.0936 Y265.4998 Z-0.9896
G01 X187.1164 Y265.4580 Z-1.0019
G01 X187.1372 Y265.4152 Z-1.0142
G01 X187.1560 Y265.3715 Z-1.0265
G01 X187.1726 Y265.3269 Z-1.0388
G01 X187.1871 Y265.2815 Z-1.0511
G01 X187.1994 Y265.2356 Z-1.0634
G01 X187.2095 Y265.1891 Z-1.0758
G01 X187.2174 Y265.1421 Z-1.0881
G01 X187.2231 Y265.0949 Z-1.1004
G01 X187.2265 Y265.0474 Z-1.1127
G01 X187.2276 Y264.9998 Z-1.1250
G01 X187.2238 Y264.9126
G01 X187.2124 Y264.8262
G01 X187.1935 Y264.7410
G01 X187.1673 Y264.6578
G01 X187.1339 Y264.5772
G01 X187.0936 Y264.4998
G01 X187.0468 Y264.4262
G01 X186.9936 Y264.3570
G01 X186.9347 Y264.2927
G01 X186.8704 Y264.2338
G01 X186.8012 Y264.1806
G01 X186.7276 Y264.1338
G01 X186.6502 Y264.0935
G01 X186.5696 Y264.0601
G01 X186.4864 Y264.0339
G01 X186.4013 Y264.0150
G01 X186.3148 Y264.0036
G01 X186.2276 Y263.9998
G01 X186.1404 Y264.0036
G01 X186.0540 Y264.0150
G01 X185.9688 Y264.0339
G01 X185.8856 Y264.0601
G01 X185.8050 Y264.0935
G01 X185.7276 Y264.1338
G01 X185.6870 Y264.1585
G01 X185.6475 Y264.1852
G01 X185.6094 Y264.2137
G01 X185.5727 Y264.2441
G01 X185.5375 Y264.2761
G01 X185.5039 Y264.3097
G01 X185.4719 Y264.3449
G01 X185.4416 Y264.3816
G01 X185.4130 Y264.4197
G01 X185.3864 Y264.4592
G01 X185.3616 Y264.4998
G01 X185.3388 Y264.5416
G01 X185.3180 Y264.5844
G01 X185.2992 Y264.6281
G01 X185.2826 Y264.6727
G01 X185.2681 Y264.7181
G01 X185.2558 Y264.7640
G01 X185.2457 Y264.8105
G01 X185.2378 Y264.8575
G01 X185.2321 Y264.9047
G01 X185.2287 Y264.9522
G01 X185.2276 Y264.9998
G01 X185.2287 Y265.0474
G01 X185.2321 Y265.0949
G01 X185.2378 Y265.1421
G01 X185.2457 Y265.1891
G01 X185.2558 Y265.2356
G01 X185.2681 Y265.2815
G01 X185.2826 Y265.3269
G01 X185.2992 Y265.3715
G01 X185.3180 Y265.4152
G01 X185.3388 Y265.4580
G01 X185.3616 Y265.4998
G01 X185.3864 Y265.5404
G01 X185.4130 Y265.5799
G01 X185.4416 Y265.6180
G01 X185.4719 Y265.6547
G01 X185.5039 Y265.6899
G01 X185.5375 Y265.7235
G01 X185.5727 Y265.7555
G01 X185.6094 Y265.7859
G01 X185.6475 Y265.8144
G01 X185.6870 Y265.8411
G01 X185.7276 Y265.8658
G01 X185.7694 Y265.8886
G01 X185.8122 Y265.9094
G01 X185.8559 Y265.9282
G01 X185.9005 Y265.9448
G01 X185.9459 Y265.9593
G01 X185.9918 Y265.9716
G01 X186.0384 Y265.9817
G01 X186.0853 Y265.9896
G01 X186.1325 Y265.9953
G01 X186.1800 Y265.9987
G01 X186.2276 Y265.9998
G01 X186.2752 Y265.9987
G01 X186.3227 Y265.9953
G01 X186.3699 Y265.9896
G01 X186.4169 Y265.9817
G01 X186.4634 Y265.9716
G01 X186.5093 Y265.9593
G01 X186.5547 Y265.9448
G01 X186.5993 Y265.9282
G01 X186.6430 Y265.9094
G01 X186.6858 Y265.8886
G01 X186.7276 Y265.8658
G01 X186.7682 Y265.8411
G01 X186.8077 Y265.8144
G01 X186.8458 Y265.7859
G01 X186.8825 Y265.7555
G01 X186.9177 Y265.7235
G01 X186.9513 Y265.6899
G01 X186.9834 Y265.6547
G01 X187.0137 Y265.6180
G01 X187.0422 Y265.5799
G01 X187.0689 Y265.5404
G01 X187.0936 Y265.4998
G01 X187.1164 Y265.4580
G01 X187.1372 Y265.4152
G01 X187.1560 Y265.3715
G01 X187.1726 Y265.3269
G01 X187.1871 Y265.2815
G01 X187.1994 Y265.2356
G01 X187.2095 Y265.1891
G01 X187.2174 Y265.1421
G01 X187.2231 Y265.0949
G01 X187.2265 Y265.0474
G01 X187.2276 Y264.9998
G01 X187.2384 Y264.9482 F1000
G01 X187.2464 Y264.8961
G01 X187.2518 Y264.8437
G01 X187.2545 Y264.7911
G01 Y264.7384
G01 X187.2517 Y264.6857
G01 X187.2462 Y264.6333
G01 X187.2381 Y264.5812
G01 X187.2264 Y264.5253
G01 X187.2118 Y264.4699
G01 X187.1944 Y264.4154
G01 X187.1743 Y264.3619
G01 X187.1515 Y264.3095
G01 X187.1260 Y264.2583
G01 X187.0979 Y264.2084
G01 X187.0673 Y264.1601
G01 X187.0317 Y264.1097
G01 X186.9936 Y264.0612
G01 X186.9530 Y264.0147
G01 X186.9102 Y263.9703
G01 X186.8651 Y263.9281
G01 X186.8180 Y263.8883
G01 X186.7689 Y263.8509
G01 X186.7179 Y263.8161
G01 X186.6614 Y263.7815
G01 X186.6033 Y263.7498
G01 X186.5436 Y263.7212
G01 X186.4825 Y263.6955
G01 X186.4202 Y263.6730
G01 X186.3568 Y263.6537
G01 X186.2926 Y263.6376
G01 X186.2276 Y263.6248
G01 X186.1580 Y263.6166
G01 X186.0880 Y263.6118
G01 X186.0179 Y263.6106
G01 X185.9479 Y263.6129
G01 X185.8780 Y263.6187
G01 X185.8085 Y263.6279
G01 X185.7396 Y263.6407
G01 X185.6713 Y263.6568
G01 X185.6061 Y263.6858
G01 X185.5424 Y263.7178
G01 X185.4803 Y263.7530
G01 X185.4200 Y263.7912
G01 X185.3617 Y263.8323
G01 X185.3055 Y263.8762
G01 X185.2514 Y263.9228
G01 X185.1998 Y263.9719
G01 X185.1506 Y264.0236
G01 X185.1040 Y264.0776
G01 X185.0601 Y264.1339
G01 X185.0190 Y264.1922
G01 X184.9808 Y264.2525
G01 X184.9456 Y264.3146
G01 X184.9136 Y264.3783
G01 X184.8847 Y264.4435
G01 X184.8590 Y264.5101
G01 X184.8366 Y264.5778
G01 X184.8176 Y264.6466
G01 X184.8019 Y264.7162
G01 X184.7897 Y264.7865
G01 X184.7810 Y264.8573
G01 X184.7758 Y264.9285
G01 X184.7740 Y264.9998
G01 X184.7758 Y265.0711
G01 X184.7810 Y265.1423
G01 X184.7897 Y265.2131
G01 X184.8019 Y265.2834
G01 X184.8176 Y265.3530
G01 X184.8366 Y265.4218
G01 X184.8590 Y265.4895
G01 X184.8847 Y265.5561
G01 X184.9136 Y265.6213
G01 X184.9456 Y265.6850
G01 X184.9808 Y265.7471
G01 X185.0190 Y265.8074
G01 X185.0601 Y265.8657
G01 X185.1040 Y265.9220
G01 X185.1506 Y265.9760
G01 X185.1998 Y266.0277
G01 X185.2514 Y266.0768
G01 X185.3055 Y266.1234
G01 X185.3617 Y266.1673
G01 X185.4200 Y266.2084
G01 X185.4803 Y266.2466
G01 X185.5424 Y266.2818
G01 X185.6061 Y266.3138
G01 X185.6713 Y266.3428
G01 X185.7379 Y266.3684
G01 X185.8056 Y266.3908
G01 X185.8744 Y266.4098
G01 X185.9440 Y266.4255
G01 X186.0143 Y266.4377
G01 X186.0851 Y266.4464
G01 X186.1563 Y266.4516
G01 X186.2276 Y266.4534
G01 X186.2989 Y266.4516
G01 X186.3701 Y266.4464
G01 X186.4409 Y266.4377
G01 X186.5112 Y266.4255
G01 X186.5808 Y266.4098
G01 X186.6496 Y266.3908
G01 X186.7173 Y266.3684
G01 X186.7839 Y266.3428
G01 X186.8491 Y266.3138
G01 X186.9128 Y266.2818
G01 X186.9749 Y266.2466
G01 X187.0352 Y266.2084
G01 X187.0935 Y266.1673
G01 X187.1498 Y266.1234
G01 X187.2038 Y266.0768
G01 X187.2555 Y266.0277
G01 X187.3047 Y265.9760
G01 X187.3513 Y265.9220
G01 X187.3951 Y265.8657
G01 X187.4362 Y265.8074
G01 X187.4744 Y265.7471
G01 X187.5096 Y265.6850
G01 X187.5416 Y265.6213
G01 X187.5706 Y265.5561
G01 X187.5962 Y265.4895
G01 X187.6186 Y265.4218
G01 X187.6376 Y265.3530
G01 X187.6533 Y265.2834
G01 X187.6655 Y265.2131
G01 X187.6742 Y265.1423
G01 X187.6795 Y265.0711
G01 X187.6812 Y264.9998
G01 X187.6771 Y264.8912
G01 X187.6650 Y264.7832
G01 X187.6448 Y264.6763
G01 X187.6166 Y264.5713
G01 X187.5807 Y264.4687
G01 X187.5373 Y264.3691
G01 X187.4865 Y264.2730
G01 X187.4286 Y264.1810
G01 X187.3641 Y264.0935
G01 X187.2932 Y264.0111
G01 X187.2163 Y263.9342
G01 X187.1339 Y263.8633
G01 X187.0464 Y263.7988
G01 X186.9544 Y263.7409
G01 X186.8583 Y263.6902
G01 X186.7587 Y263.6467
G01 X186.6561 Y263.6108
G01 X186.5511 Y263.5826
G01 X186.4443 Y263.5624
G01 X186.3362 Y263.5503
G01 X186.2276 Y263.5462
G01 X186.1190 Y263.5503
G01 X186.0110 Y263.5624
G01 X185.9041 Y263.5826
G01 X185.7991 Y263.6108
G01 X185.6965 Y263.6467
G01 X185.5969 Y263.6902
G01 X185.5008 Y263.7409
G01 X185.4088 Y263.7988
G01 X185.3213 Y263.8633
G01 X185.2389 Y263.9342
G01 X185.1620 Y264.0111
G01 X185.0911 Y264.0935
G01 X185.0266 Y264.1810
G01 X184.9688 Y264.2730
G01 X184.9180 Y264.3691
G01 X184.8745 Y264.4687
G01 X184.8386 Y264.5713
G01 X184.8104 Y264.6763
G01 X184.7902 Y264.7832
G01 X184.7781 Y264.8912
G01 X184.7740 Y264.9998
G01 X184.7781 Y265.1084
G01 X184.7902 Y265.2164
G01 X184.8104 Y265.3233
G01 X184.8386 Y265.4283
G01 X184.8745 Y265.5309
G01 X184.9180 Y265.6305
G01 X184.9688 Y265.7266
G01 X185.0266 Y265.8186
G01 X185.0911 Y265.9061
G01 X185.1620 Y265.9885
G01 X185.2389 Y266.0654
G01 X185.3213 Y266.1363
G01 X185.4088 Y266.2008
G01 X185.5008 Y266.2587
G01 X185.5969 Y266.3094
G01 X185.6965 Y266.3529
G01 X185.7991 Y266.3888
G01 X185.9041 Y266.4170
G01 X186.0110 Y266.4372
G01 X186.1190 Y266.4493
G01 X186.2276 Y266.4534
G01 X186.3362 Y266.4493
G01 X186.4443 Y266.4372
G01 X186.5511 Y266.4170
G01 X186.6561 Y266.3888
G01 X186.7587 Y266.3529
G01 X186.8583 Y266.3094
G01 X186.9544 Y266.2587
G01 X187.0464 Y266.2008
G01 X187.1339 Y266.1363
G01 X187.2163 Y266.0654
G01 X187.2932 Y265.9885
G01 X187.3641 Y265.9061
G01 X187.4286 Y265.8186
G01 X187.4865 Y265.7266
G01 X187.5373 Y265.6305
G01 X187.5807 Y265.5309
G01 X187.6166 Y265.4283
G01 X187.6448 Y265.3233
G01 X187.6650 Y265.2164
G01 X187.6771 Y265.1084
G01 X187.6812 Y264.9998
G01 X187.6774 Y264.9035
G01 X187.6661 Y264.8079
G01 X187.6473 Y264.7134
G01 X187.6212 Y264.6207
G01 X187.5878 Y264.5303
G01 X187.5475 Y264.4428
G01 X187.5004 Y264.3588
G01 X187.4469 Y264.2787
G01 X187.3873 Y264.2031
G01 X187.3219 Y264.1323
G01 X187.2511 Y264.0669
G01 X187.1755 Y264.0073
G01 X187.0954 Y263.9538
G01 X187.0114 Y263.9067
G01 X186.9239 Y263.8664
G01 X186.8335 Y263.8330
G01 X186.7408 Y263.8069
G01 X186.6463 Y263.7881
G01 X186.5507 Y263.7768
G01 X186.4544 Y263.7730
G01 X186.3582 Y263.7768
G01 X186.2625 Y263.7881
G01 X186.1680 Y263.8069
G01 X186.0753 Y263.8330
G01 X185.9849 Y263.8664
G01 X185.8974 Y263.9067
G01 X185.8134 Y263.9538
G01 X185.7333 Y264.0073
G01 X185.6577 Y264.0669
G01 X185.5869 Y264.1323
G01 X185.5215 Y264.2031
G01 X185.4619 Y264.2787
G01 X185.4084 Y264.3588
G01 X185.3613 Y264.4428
G01 X185.3210 Y264.5303
G01 X185.2876 Y264.6207
G01 X185.2615 Y264.7134
G01 X185.2427 Y264.8079
G01 X185.2314 Y264.9035
G01 X185.2276 Y264.9998
G01 X185.2314 Y265.0870
G01 X185.2428 Y265.1734
G01 X185.2617 Y265.2586
G01 X185.2879 Y265.3418
G01 X185.3213 Y265.4224
G01 X185.3616 Y265.4998
G01 X185.4085 Y265.5734
G01 X185.4616 Y265.6426
G01 X185.5205 Y265.7069
G01 X185.5848 Y265.7658
G01 X185.6540 Y265.8190
G01 X185.7276 Y265.8658
G01 X185.8050 Y265.9061
G01 X185.8856 Y265.9395
G01 X185.9688 Y265.9657
G01 X186.0540 Y265.9846
G01 X186.1404 Y265.9960
G01 X186.2276 Y265.9998
G01 X186.3148 Y265.9960
G01 X186.4013 Y265.9846
G01 X186.4864 Y265.9657
G01 X186.5696 Y265.9395
G01 X186.6502 Y265.9061
G01 X186.7276 Y265.8658
G01 X186.8012 Y265.8190
G01 X186.8704 Y265.7658
G01 X186.9347 Y265.7069
G01 X186.9936 Y265.6426
G01 X187.0468 Y265.5734
G01 X187.0936 Y265.4998
G01 X187.1339 Y265.4224
G01 X187.1673 Y265.3418
G01 X187.1935 Y265.2586
G01 X187.2124 Y265.1734
G01 X187.2238 Y265.0870
G01 X187.2276 Y264.9998
M107
M106 S240
G01 X187.2238 Y264.9126 Z-1.1476 F400
G01 X187.2124 Y264.8262 Z-1.1701
G01 X187.1935 Y264.7410 Z-1.1927
G01 X187.1673 Y264.6578 Z-1.2153
G01 X187.1339 Y264.5772 Z-1.2378
G01 X187.0936 Y264.4998 Z-1.2604
G01 X187.0468 Y264.4262 Z-1.2830
G01 X186.9936 Y264.3570 Z-1.3056
G01 X186.9347 Y264.2927 Z-1.3281
G01 X186.8704 Y264.2338 Z-1.3507
G01 X186.8012 Y264.1806 Z-1.3733
G01 X186.7276 Y264.1338 Z-1.3958
G01 X186.6502 Y264.0935 Z-1.4184
G01 X186.5696 Y264.0601 Z-1.4410
G01 X186.4864 Y264.0339 Z-1.4635
G01 X186.4013 Y264.0150 Z-1.4861
G01 X186.3148 Y264.0036 Z-1.5087
G01 X186.2276 Y263.9998 Z-1.5313
G01 X186.1404 Y264.0036 Z-1.5538
G01 X186.0540 Y264.0150 Z-1.5764
G01 X185.9688 Y264.0339 Z-1.5990
G01 X185.8856 Y264.0601 Z-1.6215
G01 X185.8050 Y264.0935 Z-1.6441
G01 X185.7276 Y264.1338 Z-1.6667
G01 X185.6870 Y264.1585 Z-1.6790
G01 X185.6475 Y264.1852 Z-1.6913
G01 X185.6094 Y264.2137 Z-1.7036
G01 X185.5727 Y264.2441 Z-1.7159
G01 X185.5375 Y264.2761 Z-1.7282
G01 X185.5039 Y264.3097 Z-1.7405
G01 X185.4719 Y264.3449 Z-1.7528
G01 X185.4416 Y264.3816 Z-1.7652
G01 X185.4130 Y264.4197 Z-1.7775
G01 X185.3864 Y264.4592 Z-1.7898
G01 X185.3616 Y264.4998 Z-1.8021
G01 X185.3388 Y264.5416 Z-1.8144
G01 X185.3180 Y264.5844 Z-1.8267
G01 X185.2992 Y264.6281 Z-1.8390
G01 X185.2826 Y264.6727 Z-1.8513
G01 X185.2681 Y264.7181 Z-1.8636
G01 X185.2558 Y264.7640 Z-1.8759
G01 X185.2457 Y264.8105 Z-1.8883
G01 X185.2378 Y264.8575 Z-1.9006
G01 X185.2321 Y264.9047 Z-1.9129
G01 X185.2287 Y264.9522 Z-1.9252
G01 X185.2276 Y264.9998 Z-1.9375
G01 X185.2287 Y265.0474 Z-1.9498
G01 X185.2321 Y265.0949 Z-1.9621
G01 X185.2378 Y265.1421 Z-1.9744
G01 X185.2457 Y265.1891 Z-1.9867
G01 X185.2558 Y265.2356 Z-1.9991
G01 X185.2681 Y265.2815 Z-2.0114
G01 X185.2826 Y265.3269 Z-2.0237
G01 X185.2992 Y265.3715 Z-2.0360
G01 X185.3180 Y265.4152 Z-2.0483
G01 X185.3388 Y265.4580 Z-2.0606
G01 X185.3616 Y265.4998 Z-2.0729
G01 X185.3864 Y265.5404 Z-2.0852
G01 X185.4130 Y265.5799 Z-2.0975
G01 X185.4416 Y265.6180 Z-2.1098
G01 X185.4719 Y265.6547 Z-2.1222
G01 X185.5039 Y265.6899 Z-2.1345
G01 X185.5375 Y265.7235 Z-2.1468
G01 X185.5727 Y265.7555 Z-2.1591
G01 X185.6094 Y265.7859 Z-2.1714
G01 X185.6475 Y265.8144 Z-2.1837
G01 X185.6870 Y265.8411 Z-2.1960
G01 X185.7276 Y265.8658 Z-2.2083
G01 X185.7694 Y265.8886 Z-2.2206
G01 X185.8122 Y265.9094 Z-2.2330
G01 X185.8559 Y265.9282 Z-2.2453
G01 X185.9005 Y265.9448 Z-2.2576
G01 X185.9459 Y265.9593 Z-2.2699
G01 X185.9918 Y265.9716 Z-2.2822
G01 X186.0384 Y265.9817 Z-2.2945
G01 X186.0853 Y265.9896 Z-2.3068
G01 X186.1325 Y265.9953 Z-2.3191
G01 X186.1800 Y265.9987 Z-2.3314
G01 X186.2276 Y265.9998 Z-2.3438
G01 X186.2752 Y265.9987 Z-2.3561
G01 X186.3227 Y265.9953 Z-2.3684
G01 X186.3699 Y265.9896 Z-2.3807
G01 X186.4169 Y265.9817 Z-2.3930
G01 X186.4634 Y265.9716 Z-2.4053
G01 X186.5093 Y265.9593 Z-2.4176
G01 X186.5547 Y265.9448 Z-2.4299
G01 X186.5993 Y265.9282 Z-2.4422
G01 X186.6430 Y265.9094 Z-2.4545
G01 X186.6858 Y265.8886 Z-2.4669
G01 X186.7276 Y265.8658 Z-2.4792
G01 X186.7682 Y265.8411 Z-2.4915
G01 X186.8077 Y265.8144 Z-2.5038
G01 X186.8458 Y265.7859 Z-2.5161
G01 X186.8825 Y265.7555 Z-2.5284
G01 X186.9177 Y265.7235 Z-2.5407
G01 X186.9513 Y265.6899 Z-2.5530
G01 X186.9834 Y265.6547 Z-2.5653
G01 X187.0137 Y265.6180 Z-2.5777
G01 X187.0422 Y265.5799 Z-2.5900
G01 X187.0689 Y265.5404 Z-2.6023
G01 X187.0936 Y265.4998 Z-2.6146
G01 X187.1164 Y265.4580 Z-2.6269
G01 X187.1372 Y265.4152 Z-2.6392
G01 X187.1560 Y265.3715 Z-2.6515
G01 X187.1726 Y265.3269 Z-2.6638
G01 X187.1871 Y265.2815 Z-2.6761
G01 X187.1994 Y265.2356 Z-2.6884
G01 X187.2095 Y265.1891 Z-2.7008
G01 X187.2174 Y265.1421 Z-2.7131
G01 X187.2231 Y265.0949 Z-2.7254
G01 X187.2265 Y265.0474 Z-2.7377
G01 X187.2276 Y264.9998 Z-2.7500
G01 X187.2238 Y264.9126
G01 X187.2124 Y264.8262
G01 X187.1935 Y264.7410
G01 X187.1673 Y264.6578
G01 X187.1339 Y264.5772
G01 X187.0936 Y264.4998
G01 X187.0468 Y264.4262
G01 X186.9936 Y264.3570
G01 X186.9347 Y264.2927
G01 X186.8704 Y264.2338
G01 X186.8012 Y264.1806
G01 X186.7276 Y264.1338
G01 X186.6502 Y264.0935
G01 X186.5696 Y264.0601
G01 X186.4864 Y264.0339
G01 X186.4013 Y264.0150
G01 X186.3148 Y264.0036
G01 X186.2276 Y263.9998
G01 X186.1404 Y264.0036
G01 X186.0540 Y264.0150
G01 X185.9688 Y264.0339
G01 X185.8856 Y264.0601
G01 X185.8050 Y264.0935
G01 X185.7276 Y264.1338
G01 X185.6870 Y264.1585
G01 X185.6475 Y264.1852
G01 X185.6094 Y264.2137
G01 X185.5727 Y264.2441
G01 X185.5375 Y264.2761
G01 X185.5039 Y264.3097
G01 X185.4719 Y264.3449
G01 X185.4416 Y264.3816
G01 X185.4130 Y264.4197
G01 X185.3864 Y264.4592
G01 X185.3616 Y264.4998
G01 X185.3388 Y264.5416
G01 X185.3180 Y264.5844
G01 X185.2992 Y264.6281
G01 X185.2826 Y264.6727
G01 X185.2681 Y264.7181
G01 X185.2558 Y264.7640
G01 X185.2457 Y264.8105
G01 X185.2378 Y264.8575
G01 X185.2321 Y264.9047
G01 X185.2287 Y264.9522
G01 X185.2276 Y264.9998
G01 X185.2287 Y265.0474
G01 X185.2321 Y265.0949
G01 X185.2378 Y265.1421
G01 X185.2457 Y265.1891
G01 X185.2558 Y265.2356
G01 X185.2681 Y265.2815
G01 X185.2826 Y265.3269
G01 X185.2992 Y265.3715
G01 X185.3180 Y265.4152
G01 X185.3388 Y265.4580
G01 X185.3616 Y265.4998
G01 X185.3864 Y265.5404
G01 X185.4130 Y265.5799
G01 X185.4416 Y265.6180
G01 X185.4719 Y265.6547
G01 X185.5039 Y265.6899
G01 X185.5375 Y265.7235
G01 X185.5727 Y265.7555
G01 X185.6094 Y265.7859
G01 X185.6475 Y265.8144
G01 X185.6870 Y265.8411
G01 X185.7276 Y265.8658
G01 X185.7694 Y265.8886
G01 X185.8122 Y265.9094
G01 X185.8559 Y265.9282
G01 X185.9005 Y265.9448
G01 X185.9459 Y265.9593
G01 X185.9918 Y265.9716
G01 X186.0384 Y265.9817
G01 X186.0853 Y265.9896
G01 X186.1325 Y265.9953
G01 X186.1800 Y265.9987
G01 X186.2276 Y265.9998
G01 X186.2752 Y265.9987
G01 X186.3227 Y265.9953
G01 X186.3699 Y265.9896
G01 X186.4169 Y265.9817
G01 X186.4634 Y265.9716
G01 X186.5093 Y265.9593
G01 X186.5547 Y265.9448
G01 X186.5993 Y265.9282
G01 X186.6430 Y265.9094
G01 X186.6858 Y265.8886
G01 X186.7276 Y265.8658
G01 X186.7682 Y265.8411
G01 X186.8077 Y265.8144
G01 X186.8458 Y265.7859
G01 X186.8825 Y265.7555
G01 X186.9177 Y265.7235
G01 X186.9513 Y265.6899
G01 X186.9834 Y265.6547
G01 X187.0137 Y265.6180
G01 X187.0422 Y265.5799
G01 X187.0689 Y265.5404
G01 X187.0936 Y265.4998
G01 X187.1164 Y265.4580
G01 X187.1372 Y265.4152
G01 X187.1560 Y265.3715
G01 X187.1726 Y265.3269
G01 X187.1871 Y265.2815
G01 X187.1994 Y265.2356
G01 X187.2095 Y265.1891
G01 X187.2174 Y265.1421
G01 X187.2231 Y265.0949
G01 X187.2265 Y265.0474
G01 X187.2276 Y264.9998
G01 X187.2384 Y264.9482 F1000
G01 X187.2464 Y264.8961
G01 X187.2518 Y264.8437
G01 X187.2545 Y264.7911
G01 Y264.7384
G01 X187.2517 Y264.6857
G01 X187.2462 Y264.6333
G01 X187.2381 Y264.5812
G01 X187.2264 Y264.5253
G01 X187.2118 Y264.4699
G01 X187.1944 Y264.4154
G01 X187.1743 Y264.3619
G01 X187.1515 Y264.3095
G01 X187.1260 Y264.2583
G01 X187.0979 Y264.2084
G01 X187.0673 Y264.1601
G01 X187.0317 Y264.1097
G01 X186.9936 Y264.0612
G01 X186.9530 Y264.0147
G01 X186.9102 Y263.9703
G01 X186.8651 Y263.9281
G01 X186.8180 Y263.8883
G01 X186.7689 Y263.8509
G01 X186.7179 Y263.8161
G01 X186.6614 Y263.7815
G01 X186.6033 Y263.7498
G01 X186.5436 Y263.7212
G01 X186.4825 Y263.6955
G01 X186.4202 Y263.6730
G01 X186.3568 Y263.6537
G01 X186.2926 Y263.6376
G01 X186.2276 Y263.6248
G01 X186.1580 Y263.6166
G01 X186.0880 Y263.6118
G01 X186.0179 Y263.6106
G01 X185.9479 Y263.6129
G01 X185.8780 Y263.6187
G01 X185.8085 Y263.6279
G01 X185.7396 Y263.6407
G01 X185.6713 Y263.6568
G01 X185.6061 Y263.6858
G01 X185.5424 Y263.7178
G01 X185.4803 Y263.7530
G01 X185.4200 Y263.7912
G01 X185.3617 Y263.8323
G01 X185.3055 Y263.8762
G01 X185.2514 Y263.9228
G01 X185.1998 Y263.9719
G01 X185.1506 Y264.0236
G01 X185.1040 Y264.0776
G01 X185.0601 Y264.1339
G01 X185.0190 Y264.1922
G01 X184.9808 Y264.2525
G01 X184.9456 Y264.3146
G01 X184.9136 Y264.3783
G01 X184.8847 Y264.4435
G01 X184.8590 Y264.5101
G01 X184.8366 Y264.5778
G01 X184.8176 Y264.6466
G01 X184.8019 Y264.7162
G01 X184.7897 Y264.7865
G01 X184.7810 Y264.8573
G01 X184.7758 Y264.9285
G01 X184.7740 Y264.9998
G01 X184.7758 Y265.0711
G01 X184.7810 Y265.1423
G01 X184.7897 Y265.2131
G01 X184.8019 Y265.2834
G01 X184.8176 Y265.3530
G01 X184.8366 Y265.4218
G01 X184.8590 Y265.4895
G01 X184.8847 Y265.5561
G01 X184.9136 Y265.6213
G01 X184.9456 Y265.6850
G01 X184.9808 Y265.7471
G01 X185.0190 Y265.8074
G01 X185.0601 Y265.8657
G01 X185.1040 Y265.9220
G01 X185.1506 Y265.9760
G01 X185.1998 Y266.0277
G01 X185.2514 Y266.0768
G01 X185.3055 Y266.1234
G01 X185.3617 Y266.1673
G01 X185.4200 Y266.2084
G01 X185.4803 Y266.2466
G01 X185.5424 Y266.2818
G01 X185.6061 Y266.3138
G01 X185.6713 Y266.3428
G01 X185.7379 Y266.3684
G01 X185.8056 Y266.3908
G01 X185.8744 Y266.4098
G01 X185.9440 Y266.4255
G01 X186.0143 Y266.4377
G01 X186.0851 Y266.4464
G01 X186.1563 Y266.4516
G01 X186.2276 Y266.4534
G01 X186.2989 Y266.4516
G01 X186.3701 Y266.4464
G01 X186.4409 Y266.4377
G01 X186.5112 Y266.4255
G01 X186.5808 Y266.4098
G01 X186.6496 Y266.3908
G01 X186.7173 Y266.3684
G01 X186.7839 Y266.3428
G01 X186.8491 Y266.3138
G01 X186.9128 Y266.2818
G01 X186.9749 Y266.2466
G01 X187.0352 Y266.2084
G01 X187.0935 Y266.1673
G01 X187.1498 Y266.1234
G01 X187.2038 Y266.0768
G01 X187.2555 Y266.0277
G01 X187.3047 Y265.9760
G01 X187.3513 Y265.9220
G01 X187.3951 Y265.8657
G01 X187.4362 Y265.8074
G01 X187.4744 Y265.7471
G01 X187.5096 Y265.6850
G01 X187.5416 Y265.6213
G01 X187.5706 Y265.5561
G01 X187.5962 Y265.4895
G01 X187.6186 Y265.4218
G01 X187.6376 Y265.3530
G01 X187.6533 Y265.2834
G01 X187.6655 Y265.2131
G01 X187.6742 Y265.1423
G01 X187.6795 Y265.0711
G01 X187.6812 Y264.9998
G01 X187.6771 Y264.8912
G01 X187.6650 Y264.7832
G01 X187.6448 Y264.6763
G01 X187.6166 Y264.5713
G01 X187.5807 Y264.4687
G01 X187.5373 Y264.3691
G01 X187.4865 Y264.2730
G01 X187.4286 Y264.1810
G01 X187.3641 Y264.0935
G01 X187.2932 Y264.0111
G01 X187.2163 Y263.9342
G01 X187.1339 Y263.8633
G01 X187.0464 Y263.7988
G01 X186.9544 Y263.7409
G01 X186.8583 Y263.6902
G01 X186.7587 Y263.6467
G01 X186.6561 Y263.6108
G01 X186.5511 Y263.5826
G01 X186.4443 Y263.5624
G01 X186.3362 Y263.5503
G01 X186.2276 Y263.5462
G01 X186.1190 Y263.5503
G01 X186.0110 Y263.5624
G01 X185.9041 Y263.5826
G01 X185.7991 Y263.6108
G01 X185.6965 Y263.6467
G01 X185.5969 Y263.6902
G01 X185.5008 Y263.7409
G01 X185.4088 Y263.7988
G01 X185.3213 Y263.8633
G01 X185.2389 Y263.9342
G01 X185.1620 Y264.0111
G01 X185.0911 Y264.0935
G01 X185.0266 Y264.1810
G01 X184.9688 Y264.2730
G01 X184.9180 Y264.3691
G01 X184.8745 Y264.4687
G01 X184.8386 Y264.5713
G01 X184.8104 Y264.6763
G01 X184.7902 Y264.7832
G01 X184.7781 Y264.8912
G01 X184.7740 Y264.9998
G01 X184.7781 Y265.1084
G01 X184.7902 Y265.2164
G01 X184.8104 Y265.3233
G01 X184.8386 Y265.4283
G01 X184.8745 Y265.5309
G01 X184.9180 Y265.6305
G01 X184.9688 Y265.7266
G01 X185.0266 Y265.8186
G01 X185.0911 Y265.9061
G01 X185.1620 Y265.9885
G01 X185.2389 Y266.0654
G01 X185.3213 Y266.1363
G01 X185.4088 Y266.2008
G01 X185.5008 Y266.2587
G01 X185.5969 Y266.3094
G01 X185.6965 Y266.3529
G01 X185.7991 Y266.3888
G01 X185.9041 Y266.4170
G01 X186.0110 Y266.4372
G01 X186.1190 Y266.4493
G01 X186.2276 Y266.4534
G01 X186.3362 Y266.4493
G01 X186.4443 Y266.4372
G01 X186.5511 Y266.4170
G01 X186.6561 Y266.3888
G01 X186.7587 Y266.3529
G01 X186.8583 Y266.3094
G01 X186.9544 Y266.2587
G01 X187.0464 Y266.2008
G01 X187.1339 Y266.1363
G01 X187.2163 Y266.0654
G01 X187.2932 Y265.9885
G01 X187.3641 Y265.9061
G01 X187.4286 Y265.8186
G01 X187.4865 Y265.7266
G01 X187.5373 Y265.6305
G01 X187.5807 Y265.5309
G01 X187.6166 Y265.4283
G01 X187.6448 Y265.3233
G01 X187.6650 Y265.2164
G01 X187.6771 Y265.1084
G01 X187.6812 Y264.9998
G01 X187.6774 Y264.9035
G01 X187.6661 Y264.8079
G01 X187.6473 Y264.7134
G01 X187.6212 Y264.6207
G01 X187.5878 Y264.5303
G01 X187.5475 Y264.4428
G01 X187.5004 Y264.3588
G01 X187.4469 Y264.2787
G01 X187.3873 Y264.2031
G01 X187.3219 Y264.1323
G01 X187.2511 Y264.0669
G01 X187.1755 Y264.0073
G01 X187.0954 Y263.9538
G01 X187.0114 Y263.9067
G01 X186.9239 Y263.8664
G01 X186.8335 Y263.8330
G01 X186.7408 Y263.8069
G01 X186.6463 Y263.7881
G01 X186.5507 Y263.7768
G01 X186.4544 Y263.7730
G01 X186.3582 Y263.7768
G01 X186.2625 Y263.7881
G01 X186.1680 Y263.8069
G01 X186.0753 Y263.8330
G01 X185.9849 Y263.8664
G01 X185.8974 Y263.9067
G01 X185.8134 Y263.9538
G01 X185.7333 Y264.0073
G01 X185.6577 Y264.0669
G01 X185.5869 Y264.1323
G01 X185.5215 Y264.2031
G01 X185.4619 Y264.2787
G01 X185.4084 Y264.3588
G01 X185.3613 Y264.4428
G01 X185.3210 Y264.5303
G01 X185.2876 Y264.6207
G01 X185.2615 Y264.7134
G01 X185.2427 Y264.8079
G01 X185.2314 Y264.9035
G01 X185.2276 Y264.9998
G01 X185.2314 Y265.0870
G01 X185.2428 Y265.1734
G01 X185.2617 Y265.2586
G01 X185.2879 Y265.3418
G01 X185.3213 Y265.4224
G01 X185.3616 Y265.4998
G01 X185.4085 Y265.5734
G01 X185.4616 Y265.6426
G01 X185.5205 Y265.7069
G01 X185.5848 Y265.7658
G01 X185.6540 Y265.8190
G01 X185.7276 Y265.8658
G01 X185.8050 Y265.9061
G01 X185.8856 Y265.9395
G01 X185.9688 Y265.9657
G01 X186.0540 Y265.9846
G01 X186.1404 Y265.9960
G01 X186.2276 Y265.9998
G01 X186.3148 Y265.9960
G01 X186.4013 Y265.9846
G01 X186.4864 Y265.9657
G01 X186.5696 Y265.9395
G01 X186.6502 Y265.9061
G01 X186.7276 Y265.8658
G01 X186.8012 Y265.8190
G01 X186.8704 Y265.7658
G01 X186.9347 Y265.7069
G01 X186.9936 Y265.6426
G01 X187.0468 Y265.5734
G01 X187.0936 Y265.4998
G01 X187.1339 Y265.4224
G01 X187.1673 Y265.3418
G01 X187.1935 Y265.2586
G01 X187.2124 Y265.1734
G01 X187.2238 Y265.0870
G01 X187.2276 Y264.9998
M107
M106 S240
G01 X187.2238 Y264.9126 Z-2.7726 F400
G01 X187.2124 Y264.8262 Z-2.7951
G01 X187.1935 Y264.7410 Z-2.8177
G01 X187.1673 Y264.6578 Z-2.8403
G01 X187.1339 Y264.5772 Z-2.8628
G01 X187.0936 Y264.4998 Z-2.8854
G01 X187.0468 Y264.4262 Z-2.9080
G01 X186.9936 Y264.3570 Z-2.9306
G01 X186.9347 Y264.2927 Z-2.9531
G01 X186.8704 Y264.2338 Z-2.9757
G01 X186.8012 Y264.1806 Z-2.9983
G01 X186.7276 Y264.1338 Z-3.0208
G01 X186.6502 Y264.0935 Z-3.0434
G01 X186.5696 Y264.0601 Z-3.0660
G01 X186.4864 Y264.0339 Z-3.0885
G01 X186.4013 Y264.0150 Z-3.1111
G01 X186.3148 Y264.0036 Z-3.1337
G01 X186.2276 Y263.9998 Z-3.1563
G01 X186.1404 Y264.0036 Z-3.1788
G01 X186.0540 Y264.0150 Z-3.2014
G01 X185.9688 Y264.0339 Z-3.2240
G01 X185.8856 Y264.0601 Z-3.2465
G01 X185.8050 Y264.0935 Z-3.2691
G01 X185.7276 Y264.1338 Z-3.2917
G01 X185.6870 Y264.1585 Z-3.3040
G01 X185.6475 Y264.1852 Z-3.3163
G01 X185.6094 Y264.2137 Z-3.3286
G01 X185.5727 Y264.2441 Z-3.3409
G01 X185.5375 Y264.2761 Z-3.3532
G01 X185.5039 Y264.3097 Z-3.3655
G01 X185.4719 Y264.3449 Z-3.3778
G01 X185.4416 Y264.3816 Z-3.3902
G01 X185.4130 Y264.4197 Z-3.4025
G01 X185.3864 Y264.4592 Z-3.4148
G01 X185.3616 Y264.4998 Z-3.4271
G01 X185.3388 Y264.5416 Z-3.4394
G01 X185.3180 Y264.5844 Z-3.4517
G01 X185.2992 Y264.6281 Z-3.4640
G01 X185.2826 Y264.6727 Z-3.4763
G01 X185.2681 Y264.7181 Z-3.4886
G01 X185.2558 Y264.7640 Z-3.5009
G01 X185.2457 Y264.8105 Z-3.5133
G01 X185.2378 Y264.8575 Z-3.5256
G01 X185.2321 Y264.9047 Z-3.5379
G01 X185.2287 Y264.9522 Z-3.5502
G01 X185.2276 Y264.9998 Z-3.5625
G01 X185.2287 Y265.0474 Z-3.5748
G01 X185.2321 Y265.0949 Z-3.5871
G01 X185.2378 Y265.1421 Z-3.5994
G01 X185.2457 Y265.1891 Z-3.6117
G01 X185.2558 Y265.2356 Z-3.6241
G01 X185.2681 Y265.2815 Z-3.6364
G01 X185.2826 Y265.3269 Z-3.6487
G01 X185.2992 Y265.3715 Z-3.6610
G01 X185.3180 Y265.4152 Z-3.6733
G01 X185.3388 Y265.4580 Z-3.6856
G01 X185.3616 Y265.4998 Z-3.6979
G01 X185.3864 Y265.5404 Z-3.7102
G01 X185.4130 Y265.5799 Z-3.7225
G01 X185.4416 Y265.6180 Z-3.7348
G01 X185.4719 Y265.6547 Z-3.7472
G01 X185.5039 Y265.6899 Z-3.7595
G01 X185.5375 Y265.7235 Z-3.7718
G01 X185.5727 Y265.7555 Z-3.7841
G01 X185.6094 Y265.7859 Z-3.7964
G01 X185.6475 Y265.8144 Z-3.8087
G01 X185.6870 Y265.8411 Z-3.8210
G01 X185.7276 Y265.8658 Z-3.8333
G01 X185.7694 Y265.8886 Z-3.8456
G01 X185.8122 Y265.9094 Z-3.8580
G01 X185.8559 Y265.9282 Z-3.8703
G01 X185.9005 Y265.9448 Z-3.8826
G01 X185.9459 Y265.9593 Z-3.8949
G01 X185.9918 Y265.9716 Z-3.9072
G01 X186.0384 Y265.9817 Z-3.9195
G01 X186.0853 Y265.9896 Z-3.9318
G01 X186.1325 Y265.9953 Z-3.9441
G01 X186.1800 Y265.9987 Z-3.9564
G01 X186.2276 Y265.9998 Z-3.9688
G01 X186.2752 Y265.9987 Z-3.9811
G01 X186.3227 Y265.9953 Z-3.9934
G01 X186.3699 Y265.9896 Z-4.0057
G01 X186.4169 Y265.9817 Z-4.0180
G01 X186.4634 Y265.9716 Z-4.0303
G01 X186.5093 Y265.9593 Z-4.0426
G01 X186.5547 Y265.9448 Z-4.0549
G01 X186.5993 Y265.9282 Z-4.0672
G01 X186.6430 Y265.9094 Z-4.0795
G01 X186.6858 Y265.8886 Z-4.0919
G01 X186.7276 Y265.8658 Z-4.1042
G01 X186.7682 Y265.8411 Z-4.1165
G01 X186.8077 Y265.8144 Z-4.1288
G01 X186.8458 Y265.7859 Z-4.1411
G01 X186.8825 Y265.7555 Z-4.1534
G01 X186.9177 Y265.7235 Z-4.1657
G01 X186.9513 Y265.6899 Z-4.1780
G01 X186.9834 Y265.6547 Z-4.1903
G01 X187.0137 Y265.6180 Z-4.2027
G01 X187.0422 Y265.5799 Z-4.2150
G01 X187.0689 Y265.5404 Z-4.2273
G01 X187.0936 Y265.4998 Z-4.2396
G01 X187.1164 Y265.4580 Z-4.2519
G01 X187.1372 Y265.4152 Z-4.2642
G01 X187.1560 Y265.3715 Z-4.2765
G01 X187.1726 Y265.3269 Z-4.2888
G01 X187.1871 Y265.2815 Z-4.3011
G01 X187.1994 Y265.2356 Z-4.3134
G01 X187.2095 Y265.1891 Z-4.3258
G01 X187.2174 Y265.1421 Z-4.3381
G01 X187.2231 Y265.0949 Z-4.3504
G01 X187.2265 Y265.0474 Z-4.3627
G01 X187.2276 Y264.9998 Z-4.3750
G01 X187.2238 Y264.9126
G01 X187.2124 Y264.8262
G01 X187.1935 Y264.7410
G01 X187.1673 Y264.6578
G01 X187.1339 Y264.5772
G01 X187.0936 Y264.4998
G01 X187.0468 Y264.4262
G01 X186.9936 Y264.3570
G01 X186.9347 Y264.2927
G01 X186.8704 Y264.2338
G01 X186.8012 Y264.1806
G01 X186.7276 Y264.1338
G01 X186.6502 Y264.0935
G01 X186.5696 Y264.0601
G01 X186.4864 Y264.0339
G01 X186.4013 Y264.0150
G01 X186.3148 Y264.0036
G01 X186.2276 Y263.9998
G01 X186.1404 Y264.0036
G01 X186.0540 Y264.0150
G01 X185.9688 Y264.0339
G01 X185.8856 Y264.0601
G01 X185.8050 Y264.0935
G01 X185.7276 Y264.1338
G01 X185.6870 Y264.1585
G01 X185.6475 Y264.1852
G01 X185.6094 Y264.2137
G01 X185.5727 Y264.2441
G01 X185.5375 Y264.2761
G01 X185.5039 Y264.3097
G01 X185.4719 Y264.3449
G01 X185.4416 Y264.3816
G01 X185.4130 Y264.4197
G01 X185.3864 Y264.4592
G01 X185.3616 Y264.4998
G01 X185.3388 Y264.5416
G01 X185.3180 Y264.5844
G01 X185.2992 Y264.6281
G01 X185.2826 Y264.6727
G01 X185.2681 Y264.7181
G01 X185.2558 Y264.7640
G01 X185.2457 Y264.8105
G01 X185.2378 Y264.8575
G01 X185.2321 Y264.9047
G01 X185.2287 Y264.9522
G01 X185.2276 Y264.9998
G01 X185.2287 Y265.0474
G01 X185.2321 Y265.0949
G01 X185.2378 Y265.1421
G01 X185.2457 Y265.1891
G01 X185.2558 Y265.2356
G01 X185.2681 Y265.2815
G01 X185.2826 Y265.3269
G01 X185.2992 Y265.3715
G01 X185.3180 Y265.4152
G01 X185.3388 Y265.4580
G01 X185.3616 Y265.4998
G01 X185.3864 Y265.5404
G01 X185.4130 Y265.5799
G01 X185.4416 Y265.6180
G01 X185.4719 Y265.6547
G01 X185.5039 Y265.6899
G01 X185.5375 Y265.7235
G01 X185.5727 Y265.7555
G01 X185.6094 Y265.7859
G01 X185.6475 Y265.8144
G01 X185.6870 Y265.8411
G01 X185.7276 Y265.8658
G01 X185.7694 Y265.8886
G01 X185.8122 Y265.9094
G01 X185.8559 Y265.9282
G01 X185.9005 Y265.9448
G01 X185.9459 Y265.9593
G01 X185.9918 Y265.9716
G01 X186.0384 Y265.9817
G01 X186.0853 Y265.9896
G01 X186.1325 Y265.9953
G01 X186.1800 Y265.9987
G01 X186.2276 Y265.9998
G01 X186.2752 Y265.9987
G01 X186.3227 Y265.9953
G01 X186.3699 Y265.9896
G01 X186.4169 Y265.9817
G01 X186.4634 Y265.9716
G01 X186.5093 Y265.9593
G01 X186.5547 Y265.9448
G01 X186.5993 Y265.9282
G01 X186.6430 Y265.9094
G01 X186.6858 Y265.8886
G01 X186.7276 Y265.8658
G01 X186.7682 Y265.8411
G01 X186.8077 Y265.8144
G01 X186.8458 Y265.7859
G01 X186.8825 Y265.7555
G01 X186.9177 Y265.7235
G01 X186.9513 Y265.6899
G01 X186.9834 Y265.6547
G01 X187.0137 Y265.6180
G01 X187.0422 Y265.5799
G01 X187.0689 Y265.5404
G01 X187.0936 Y265.4998
G01 X187.1164 Y265.4580
G01 X187.1372 Y265.4152
G01 X187.1560 Y265.3715
G01 X187.1726 Y265.3269
G01 X187.1871 Y265.2815
G01 X187.1994 Y265.2356
G01 X187.2095 Y265.1891
G01 X187.2174 Y265.1421
G01 X187.2231 Y265.0949
G01 X187.2265 Y265.0474
G01 X187.2276 Y264.9998
G01 X187.2384 Y264.9482 F1000
G01 X187.2464 Y264.8961
G01 X187.2518 Y264.8437
G01 X187.2545 Y264.7911
G01 Y264.7384
G01 X187.2517 Y264.6857
G01 X187.2462 Y264.6333
G01 X187.2381 Y264.5812
G01 X187.2264 Y264.5253
G01 X187.2118 Y264.4699
G01 X187.1944 Y264.4154
G01 X187.1743 Y264.3619
G01 X187.1515 Y264.3095
G01 X187.1260 Y264.2583
G01 X187.0979 Y264.2084
G01 X187.0673 Y264.1601
G01 X187.0317 Y264.1097
G01 X186.9936 Y264.0612
G01 X186.9530 Y264.0147
G01 X186.9102 Y263.9703
G01 X186.8651 Y263.9281
G01 X186.8180 Y263.8883
G01 X186.7689 Y263.8509
G01 X186.7179 Y263.8161
G01 X186.6614 Y263.7815
G01 X186.6033 Y263.7498
G01 X186.5436 Y263.7212
G01 X186.4825 Y263.6955
G01 X186.4202 Y263.6730
G01 X186.3568 Y263.6537
G01 X186.2926 Y263.6376
G01 X186.2276 Y263.6248
G01 X186.1580 Y263.6166
G01 X186.0880 Y263.6118
G01 X186.0179 Y263.6106
G01 X185.9479 Y263.6129
G01 X185.8780 Y263.6187
G01 X185.8085 Y263.6279
G01 X185.7396 Y263.6407
G01 X185.6713 Y263.6568
G01 X185.6061 Y263.6858
G01 X185.5424 Y263.7178
G01 X185.4803 Y263.7530
G01 X185.4200 Y263.7912
G01 X185.3617 Y263.8323
G01 X185.3055 Y263.8762
G01 X185.2514 Y263.9228
G01 X185.1998 Y263.9719
G01 X185.1506 Y264.0236
G01 X185.1040 Y264.0776
G01 X185.0601 Y264.1339
G01 X185.0190 Y264.1922
G01 X184.9808 Y264.2525
G01 X184.9456 Y264.3146
G01 X184.9136 Y264.3783
G01 X184.8847 Y264.4435
G01 X184.8590 Y264.5101
G01 X184.8366 Y264.5778
G01 X184.8176 Y264.6466
G01 X184.8019 Y264.7162
G01 X184.7897 Y264.7865
G01 X184.7810 Y264.8573
G01 X184.7758 Y264.9285
G01 X184.7740 Y264.9998
G01 X184.7758 Y265.0711
G01 X184.7810 Y265.1423
G01 X184.7897 Y265.2131
G01 X184.8019 Y265.2834
G01 X184.8176 Y265.3530
G01 X184.8366 Y265.4218
G01 X184.8590 Y265.4895
G01 X184.8847 Y265.5561
G01 X184.9136 Y265.6213
G01 X184.9456 Y265.6850
G01 X184.9808 Y265.7471
G01 X185.0190 Y265.8074
G01 X185.0601 Y265.8657
G01 X185.1040 Y265.9220
G01 X185.1506 Y265.9760
G01 X185.1998 Y266.0277
G01 X185.2514 Y266.0768
G01 X185.3055 Y266.1234
G01 X185.3617 Y266.1673
G01 X185.4200 Y266.2084
G01 X185.4803 Y266.2466
G01 X185.5424 Y266.2818
G01 X185.6061 Y266.3138
G01 X185.6713 Y266.3428
G01 X185.7379 Y266.3684
G01 X185.8056 Y266.3908
G01 X185.8744 Y266.4098
G01 X185.9440 Y266.4255
G01 X186.0143 Y266.4377
G01 X186.0851 Y266.4464
G01 X186.1563 Y266.4516
G01 X186.2276 Y266.4534
G01 X186.2989 Y266.4516
G01 X186.3701 Y266.4464
G01 X186.4409 Y266.4377
G01 X186.5112 Y266.4255
G01 X186.5808 Y266.4098
G01 X186.6496 Y266.3908
G01 X186.7173 Y266.3684
G01 X186.7839 Y266.3428
G01 X186.8491 Y266.3138
G01 X186.9128 Y266.2818
G01 X186.9749 Y266.2466
G01 X187.0352 Y266.2084
G01 X187.0935 Y266.1673
G01 X187.1498 Y266.1234
G01 X187.2038 Y266.0768
G01 X187.2555 Y266.0277
G01 X187.3047 Y265.9760
G01 X187.3513 Y265.9220
G01 X187.3951 Y265.8657
G01 X187.4362 Y265.8074
G01 X187.4744 Y265.7471
G01 X187.5096 Y265.6850
G01 X187.5416 Y265.6213
G01 X187.5706 Y265.5561
G01 X187.5962 Y265.4895
G01 X187.6186 Y265.4218
G01 X187.6376 Y265.3530
G01 X187.6533 Y265.2834
G01 X187.6655 Y265.2131
G01 X187.6742 Y265.1423
G01 X187.6795 Y265.0711
G01 X187.6812 Y264.9998
G01 X187.6771 Y264.8912
G01 X187.6650 Y264.7832
G01 X187.6448 Y264.6763
G01 X187.6166 Y264.5713
G01 X187.5807 Y264.4687
G01 X187.5373 Y264.3691
G01 X187.4865 Y264.2730
G01 X187.4286 Y264.1810
G01 X187.3641 Y264.0935
G01 X187.2932 Y264.0111
G01 X187.2163 Y263.9342
G01 X187.1339 Y263.8633
G01 X187.0464 Y263.7988
G01 X186.9544 Y263.7409
G01 X186.8583 Y263.6902
G01 X186.7587 Y263.6467
G01 X186.6561 Y263.6108
G01 X186.5511 Y263.5826
G01 X186.4443 Y263.5624
G01 X186.3362 Y263.5503
G01 X186.2276 Y263.5462
G01 X186.1190 Y263.5503
G01 X186.0110 Y263.5624
G01 X185.9041 Y263.5826
G01 X185.7991 Y263.6108
G01 X185.6965 Y263.6467
G01 X185.5969 Y263.6902
G01 X185.5008 Y263.7409
G01 X185.4088 Y263.7988
G01 X185.3213 Y263.8633
G01 X185.2389 Y263.9342
G01 X185.1620 Y264.0111
G01 X185.0911 Y264.0935
G01 X185.0266 Y264.1810
G01 X184.9688 Y264.2730
G01 X184.9180 Y264.3691
G01 X184.8745 Y264.4687
G01 X184.8386 Y264.5713
G01 X184.8104 Y264.6763
G01 X184.7902 Y264.7832
G01 X184.7781 Y264.8912
G01 X184.7740 Y264.9998
G01 X184.7781 Y265.1084
G01 X184.7902 Y265.2164
G01 X184.8104 Y265.3233
G01 X184.8386 Y265.4283
G01 X184.8745 Y265.5309
G01 X184.9180 Y265.6305
G01 X184.9688 Y265.7266
G01 X185.0266 Y265.8186
G01 X185.0911 Y265.9061
G01 X185.1620 Y265.9885
G01 X185.2389 Y266.0654
G01 X185.3213 Y266.1363
G01 X185.4088 Y266.2008
G01 X185.5008 Y266.2587
G01 X185.5969 Y266.3094
G01 X185.6965 Y266.3529
G01 X185.7991 Y266.3888
G01 X185.9041 Y266.4170
G01 X186.0110 Y266.4372
G01 X186.1190 Y266.4493
G01 X186.2276 Y266.4534
G01 X186.3362 Y266.4493
G01 X186.4443 Y266.4372
G01 X186.5511 Y266.4170
G01 X186.6561 Y266.3888
G01 X186.7587 Y266.3529
G01 X186.8583 Y266.3094
G01 X186.9544 Y266.2587
G01 X187.0464 Y266.2008
G01 X187.1339 Y266.1363
G01 X187.2163 Y266.0654
G01 X187.2932 Y265.9885
G01 X187.3641 Y265.9061
G01 X187.4286 Y265.8186
G01 X187.4865 Y265.7266
G01 X187.5373 Y265.6305
G01 X187.5807 Y265.5309
