;Project TeslaChargingOnly
;Created by Estlcam version 11 build 11,233
;Machining time about 00:05:08 hours

G90
M03 S18000
G00 X0.0000 Y0.0000 Z0.0000
G00 Z2.0000


;No. 1: Hole 1
G00 X24.3515 Y24.7459
G00 Z0.5000
G01 Z0.0000 F400 S18000
G01 Z-2.2000
M106 S240
G01 X30.6112 F1000
G01 X28.8368 Y26.2459
G01 X23.0136
G01 X21.8271 Y27.7459
G01 X27.3194
G01 X26.0087 Y29.2459
G01 X20.7725
G01 X19.8369 Y30.7459
G01 X24.8673
G01 X23.8724 Y32.2459
G01 X19.0080
G01 X18.2767 Y33.7459
G01 X23.0066
G01 X22.2564 Y35.2459
G01 X17.6367
G01 X17.0833 Y36.7459
G01 X21.6127
G01 X21.0679 Y38.2459
G01 X16.6113
G01 X16.2169 Y39.7459
G01 X20.6149
G01 X20.2502 Y41.2459
G01 X15.8973
G01 X15.6500 Y42.7459
G01 X19.9693
G01 X19.7684 Y44.2459
G01 X15.4737
G01 X15.3665 Y45.7459
G01 X19.6476
G01 X19.6028 Y47.2459
G01 X15.3271
G01 X15.3260 Y48.7459
G01 X19.6018
G01 Y50.2459
G01 X15.3260
G01 Y51.7459
G01 X19.6018
G01 Y53.2459
G01 X15.3260
G01 Y54.7459
G01 X19.6018
G01 Y56.2459
G01 X15.3260
G01 Y57.7459
G01 X19.6018
G01 Y59.2459
G01 X15.3260
G01 Y60.7459
G01 X19.6018
G01 Y62.2459
G01 X15.3260
G01 Y63.7459
G01 X19.6018
G01 Y65.2459
G01 X15.3260
G01 Y66.7459
G01 X19.6018
G01 Y68.2459
G01 X15.3260
G01 Y69.7459
G01 X19.6018
G01 Y71.2459
G01 X15.3260
G01 Y72.7459
G01 X19.6018
G01 Y74.2459
G01 X15.3260
G01 Y75.7459
G01 X19.6018
G01 Y77.2459
G01 X15.3260
G01 Y78.7459
G01 X19.6018
G01 Y80.2459
G01 X15.3260
G01 Y81.7459
G01 X19.6018
G01 Y83.2459
G01 X15.3260
G01 Y84.7459
G01 X19.6018
G01 Y86.2459
G01 X15.3260
G01 Y87.7459
G01 X19.6018
G01 Y89.2459
G01 X15.3260
G01 Y90.7459
G01 X19.6018
G01 Y92.2459
G01 X15.3260
G01 Y93.7459
G01 X19.6018
G01 Y95.2459
G01 X15.3260
G01 Y96.7459
G01 X19.6018
G01 Y98.2459
G01 X15.3260
G01 Y99.7459
G01 X19.6018
G01 Y101.2459
G01 X15.3260
G01 Y102.7459
G01 X19.6018
G01 Y104.2459
G01 X15.3260
G01 Y105.7459
G01 X19.6018
G01 Y107.2459
G01 X15.3260
G01 Y108.7459
G01 X19.6018
G01 Y110.2459
G01 X15.3260
G01 Y111.7459
G01 X19.6018
G01 Y113.2459
G01 X15.3260
G01 Y114.7459
G01 X19.6018
G01 Y116.2459
G01 X15.3260
G01 Y117.7459
G01 X19.6018
G01 Y119.2459
G01 X15.3260
G01 Y120.7459
G01 X19.6018
G01 Y122.2459
G01 X15.3260
G01 Y123.7459
G01 X19.6018
G01 Y125.2459
G01 X15.3260
G01 Y126.7459
G01 X19.6018
G01 Y128.2459
G01 X15.3260
G01 Y129.7459
G01 X19.6018
G01 Y131.2459
G01 X15.3260
G01 Y132.7459
G01 X19.6018
G01 Y134.2459
G01 X15.3260
G01 Y135.7459
G01 X19.6018
G01 Y137.2459
G01 X15.3260
G01 Y138.7459
G01 X19.6018
G01 Y140.2459
G01 X15.3260
G01 Y141.7459
G01 X19.6018
G01 Y143.2459
G01 X15.3260
G01 Y144.7459
G01 X19.6018
G01 Y146.2459
G01 X15.3260
G01 Y147.7459
G01 X19.6018
G01 Y149.2459
G01 X15.3260
G01 Y150.7459
G01 X19.6018
G01 Y152.2459
G01 X15.3260
G01 Y153.7459
G01 X19.6018
G01 Y155.2459
G01 X15.3260
G01 Y156.7459
G01 X19.6018
G01 Y158.2459
G01 X15.3260
G01 Y159.7459
G01 X19.6018
G01 Y161.2459
G01 X15.3260
G01 Y162.7459
G01 X19.6018
G01 Y164.2459
G01 X15.3260
G01 Y165.7459
G01 X19.6018
G01 Y167.2459
G01 X15.3260
G01 Y168.7459
G01 X19.6018
G01 Y170.2459
G01 X15.3260
G01 Y171.7459
G01 X19.6018
G01 Y173.2459
G01 X15.3260
G01 Y174.7459
G01 X19.6018
G01 Y176.2459
G01 X15.3260
G01 Y177.7459
G01 X19.6018
G01 Y179.2459
G01 X15.3260
G01 Y180.7459
G01 X19.6018
G01 Y182.2459
G01 X15.3260
G01 Y183.7459
G01 X19.6018
G01 Y185.2459
G01 X15.3260
G01 Y186.7459
G01 X19.6018
G01 Y188.2459
G01 X15.3260
G01 Y189.7459
G01 X19.6018
G01 Y191.2459
G01 X15.3260
G01 Y192.7459
G01 X19.6018
G01 Y194.2459
G01 X15.3260
G01 Y195.7459
G01 X19.6018
G01 Y197.2459
G01 X15.3260
G01 Y198.7459
G01 X19.6018
G01 Y200.2459
G01 X15.3260
G01 Y201.7459
G01 X19.6018
G01 Y203.2459
G01 X15.3260
G01 Y204.7459
G01 X19.6018
G01 Y206.2459
G01 X15.3260
G01 Y207.7459
G01 X19.6018
G01 Y209.2459
G01 X15.3260
G01 Y210.7459
G01 X19.6018
G01 Y212.2459
G01 X15.3260
G01 Y213.7459
G01 X19.6018
G01 Y215.2459
G01 X15.3260
G01 Y216.7459
G01 X19.6018
G01 Y218.2459
G01 X15.3260
G01 Y219.7459
G01 X19.6018
G01 Y221.2459
G01 X15.3260
G01 Y222.7459
G01 X19.6018
G01 Y224.2459
G01 X15.3260
G01 Y225.7459
G01 X19.6018
G01 Y227.2459
G01 X15.3260
G01 Y228.7459
G01 X19.6018
G01 Y230.2459
G01 X15.3260
G01 Y231.7459
G01 X19.6018
G01 Y233.2459
G01 X15.3260
G01 Y234.7459
G01 X19.6018
G01 Y236.2459
G01 X15.3260
G01 Y237.7459
G01 X19.6018
G01 Y239.2459
G01 X15.3260
G01 Y240.7459
G01 X19.6018
G01 Y242.2459
G01 X15.3260
G01 Y243.7459
G01 X19.6018
G01 Y245.2459
G01 X15.3260
G01 Y246.7459
G01 X19.6018
G01 Y248.2459
G01 X15.3260
G01 Y249.7459
G01 X19.6018
G01 Y251.2459
G01 X15.3260
G01 X15.3270 Y252.7459
G01 X19.6028
G01 X19.6476 Y254.2459
G01 X15.3665
G01 X15.4737 Y255.7459
G01 X19.7684
G01 X19.9693 Y257.2459
G01 X15.6500
G01 X15.8973 Y258.7459
G01 X20.2502
G01 X20.6149 Y260.2459
G01 X16.2169
G01 X16.6113 Y261.7459
G01 X21.0679
G01 X21.6127 Y263.2459
G01 X17.0833
G01 X17.6367 Y264.7459
G01 X22.2564
G01 X23.0066 Y266.2459
G01 X18.2767
G01 X19.0080 Y267.7459
G01 X23.8724
G01 X24.8673 Y269.2459
G01 X19.8370
G01 X20.7725 Y270.7459
G01 X26.0087
G01 X27.3194 Y272.2459
G01 X21.8271
G01 X23.0136 Y273.7459
G01 X28.8368
G01 X30.6112 Y275.2459
G01 X24.3515
G01 X25.8686 Y276.7459
G01 X32.7340
G01 X35.3769 Y278.2459
G01 X27.6026
G01 X29.6158 Y279.7459
G01 X38.9809
G01 Y281.2459
G01 X32.0093
G01 X47.3396
G01 Y282.7459
G01 X34.9934
G01 X184.8038
G01 X187.7880 Y281.2459
G01 X172.4582
G01 X180.8164
G01 Y279.7459
G01 X190.1814
G01 X192.1946 Y278.2459
G01 X184.4204
G01 X187.0633 Y276.7459
G01 X193.9287
G01 X195.4458 Y275.2459
G01 X189.1861
G01 X190.9605 Y273.7459
G01 X196.7837
G01 X197.9702 Y272.2459
G01 X192.4778
G01 X193.7885 Y270.7459
G01 X199.0248
G01 X199.9603 Y269.2459
G01 X194.9299
G01 X195.9249 Y267.7459
G01 X200.7893
G01 X201.5206 Y266.2459
G01 X196.7907
G01 X197.5408 Y264.7459
G01 X202.1606
G01 X202.7140 Y263.2459
G01 X198.1846
G01 X198.7293 Y261.7459
G01 X203.1860
G01 X203.5803 Y260.2459
G01 X199.1824
G01 X199.5471 Y258.7459
G01 X203.9000
G01 X204.1472 Y257.2459
G01 X199.8280
G01 X200.0289 Y255.7459
G01 X204.3236
G01 X204.4308 Y254.2459
G01 X200.1497
G01 X200.1945 Y252.7459
G01 X204.4702
G01 X204.4713 Y251.2459
G01 X200.1955
G01 Y249.7459
G01 X204.4713
G01 Y248.2459
G01 X200.1955
G01 Y246.7459
G01 X204.4713
G01 Y245.2459
G01 X200.1955
G01 Y243.7459
G01 X204.4713
G01 Y242.2459
G01 X200.1955
G01 Y240.7459
G01 X204.4713
G01 Y239.2459
G01 X200.1955
G01 Y237.7459
G01 X204.4713
G01 Y236.2459
G01 X200.1955
G01 Y234.7459
G01 X204.4713
G01 Y233.2459
G01 X200.1955
G01 Y231.7459
G01 X204.4713
G01 Y230.2459
G01 X200.1955
G01 Y228.7459
G01 X204.4713
G01 Y227.2459
G01 X200.1955
G01 Y225.7459
G01 X204.4713
G01 Y224.2459
G01 X200.1955
G01 Y222.7459
G01 X204.4713
G01 Y221.2459
G01 X200.1955
G01 Y219.7459
G01 X204.4713
G01 Y218.2459
G01 X200.1955
G01 Y216.7459
G01 X204.4713
G01 Y215.2459
G01 X200.1955
G01 Y213.7459
G01 X204.4713
G01 Y212.2459
G01 X200.1955
G01 Y210.7459
G01 X204.4713
G01 Y209.2459
G01 X200.1955
G01 Y207.7459
G01 X204.4713
G01 Y206.2459
G01 X200.1955
G01 Y204.7459
G01 X204.4713
G01 Y203.2459
G01 X200.1955
G01 Y201.7459
G01 X204.4713
G01 Y200.2459
G01 X200.1955
G01 Y198.7459
G01 X204.4713
G01 Y197.2459
G01 X200.1955
G01 Y195.7459
G01 X204.4713
G01 Y194.2459
G01 X200.1955
G01 Y192.7459
G01 X204.4713
G01 Y191.2459
G01 X200.1955
G01 Y189.7459
G01 X204.4713
G01 Y188.2459
G01 X200.1955
G01 Y186.7459
G01 X204.4713
G01 Y185.2459
G01 X200.1955
G01 Y183.7459
G01 X204.4713
G01 Y182.2459
G01 X200.1955
G01 Y180.7459
G01 X204.4713
G01 Y179.2459
G01 X200.1955
G01 Y177.7459
G01 X204.4713
G01 Y176.2459
G01 X200.1955
G01 Y174.7459
G01 X204.4713
G01 Y173.2459
G01 X200.1955
G01 Y171.7459
G01 X204.4713
G01 Y170.2459
G01 X200.1955
G01 Y168.7459
G01 X204.4713
G01 Y167.2459
G01 X200.1955
G01 Y165.7459
G01 X204.4713
G01 Y164.2459
G01 X200.1955
G01 Y162.7459
G01 X204.4713
G01 Y161.2459
G01 X200.1955
G01 Y159.7459
G01 X204.4713
G01 Y158.2459
G01 X200.1955
G01 Y156.7459
G01 X204.4713
G01 Y155.2459
G01 X200.1955
G01 Y153.7459
G01 X204.4713
G01 Y152.2459
G01 X200.1955
G01 Y150.7459
G01 X204.4713
G01 Y149.2459
G01 X200.1955
G01 Y147.7459
G01 X204.4713
G01 Y146.2459
G01 X200.1955
G01 Y144.7459
G01 X204.4713
G01 Y143.2459
G01 X200.1955
G01 Y141.7459
G01 X204.4713
G01 Y140.2459
G01 X200.1955
G01 Y138.7459
G01 X204.4713
G01 Y137.2459
G01 X200.1955
G01 Y135.7459
G01 X204.4713
G01 Y134.2459
G01 X200.1955
G01 Y132.7459
G01 X204.4713
G01 Y131.2459
G01 X200.1955
G01 Y129.7459
G01 X204.4713
G01 Y128.2459
G01 X200.1955
G01 Y126.7459
G01 X204.4713
G01 Y125.2459
G01 X200.1955
G01 Y123.7459
G01 X204.4713
G01 Y122.2459
G01 X200.1955
G01 Y120.7459
G01 X204.4713
G01 Y119.2459
G01 X200.1955
G01 Y117.7459
G01 X204.4713
G01 Y116.2459
G01 X200.1955
G01 Y114.7459
G01 X204.4713
G01 Y113.2459
G01 X200.1955
G01 Y111.7459
G01 X204.4713
G01 Y110.2459
G01 X200.1955
G01 Y108.7459
G01 X204.4713
G01 Y107.2459
G01 X200.1955
G01 Y105.7459
G01 X204.4713
G01 Y104.2459
G01 X200.1955
G01 Y102.7459
G01 X204.4713
G01 Y101.2459
G01 X200.1955
G01 Y99.7459
G01 X204.4713
G01 Y98.2459
G01 X200.1955
G01 Y96.7459
G01 X204.4713
G01 Y95.2459
G01 X200.1955
G01 Y93.7459
G01 X204.4713
G01 Y92.2459
G01 X200.1955
G01 Y90.7459
G01 X204.4713
G01 Y89.2459
G01 X200.1955
G01 Y87.7459
G01 X204.4713
G01 Y86.2459
G01 X200.1955
G01 Y84.7459
G01 X204.4713
G01 Y83.2459
G01 X200.1955
G01 Y81.7459
G01 X204.4713
G01 Y80.2459
G01 X200.1955
G01 Y78.7459
G01 X204.4713
G01 Y77.2459
G01 X200.1955
G01 Y75.7459
G01 X204.4713
G01 Y74.2459
G01 X200.1955
G01 Y72.7459
G01 X204.4713
G01 Y71.2459
G01 X200.1955
G01 Y69.7459
G01 X204.4713
G01 Y68.2459
G01 X200.1955
G01 Y66.7459
G01 X204.4713
G01 Y65.2459
G01 X200.1955
G01 Y63.7459
G01 X204.4713
G01 Y62.2459
G01 X200.1955
G01 Y60.7459
G01 X204.4713
G01 Y59.2459
G01 X200.1955
G01 Y57.7459
G01 X204.4713
G01 Y56.2459
G01 X200.1955
G01 Y54.7459
G01 X204.4713
G01 Y53.2459
G01 X200.1955
G01 Y51.7459
G01 X204.4713
G01 Y50.2459
G01 X200.1955
G01 Y48.7459
G01 X204.4713
G01 X204.4702 Y47.2459
G01 X200.1945
G01 X200.1497 Y45.7459
G01 X204.4308
G01 X204.3236 Y44.2459
G01 X200.0289
G01 X199.8280 Y42.7459
G01 X204.1472
G01 X203.9000 Y41.2459
G01 X199.5471
G01 X199.1824 Y39.7459
G01 X203.5804
G01 X203.1860 Y38.2459
G01 X198.7293
G01 X198.1846 Y36.7459
G01 X202.7140
G01 X202.1606 Y35.2459
G01 X197.5408
G01 X196.7907 Y33.7459
G01 X201.5206
G01 X200.7893 Y32.2459
G01 X195.9249
G01 X194.9299 Y30.7459
G01 X199.9603
G01 X199.0248 Y29.2459
G01 X193.7885
G01 X192.4779 Y27.7459
G01 X197.9702
G01 X196.7837 Y26.2459
G01 X190.9605
G01 X189.1861 Y24.7459
G01 X195.4458
G01 X193.9287 Y23.2459
G01 X187.0633
G01 X184.4204 Y21.7459
G01 X192.1946
G01 X190.1814 Y20.2459
G01 X180.8164
G01 Y18.7459
G01 X187.7880
G01 X172.4577
G01 Y17.2459
G01 X184.8039
G01 X34.9934
G01 X32.0093 Y18.7459
G01 X47.3391
G01 X38.9809
G01 Y20.2459
G01 X29.6158
G01 X27.6026 Y21.7459
G01 X35.3769
G01 X32.7340 Y23.2459
G01 X32.8261 Y23.4244
G01 X33.6943 Y22.8906
G01 X34.5810 Y22.3881
G01 X35.4851 Y21.9176
G01 X36.4055 Y21.4798
G01 X37.3409 Y21.0751
G01 X38.2902 Y20.7042
G01 X39.2522 Y20.3674
G01 X40.2256 Y20.0653
G01 X41.2091 Y19.7981
G01 X42.2016 Y19.5663
G01 X43.2018 Y19.3701
G01 X44.2083 Y19.2098
G01 X45.2199 Y19.0856
G01 X46.2353 Y18.9977
G01 X47.2532 Y18.9461
G01 X48.2723 Y18.9309
G01 X171.5250
G01 X172.5421 Y18.9441
G01 X173.5581 Y18.9938
G01 X174.5716 Y19.0799
G01 X175.5814 Y19.2024
G01 X176.5861 Y19.3611
G01 X177.5845 Y19.5557
G01 X178.5753 Y19.7860
G01 X179.5571 Y20.0518
G01 X180.5288 Y20.3526
G01 X181.4891 Y20.6881
G01 X182.4367 Y21.0579
G01 X183.3704 Y21.4614
G01 X184.2890 Y21.8982
G01 X185.1914 Y22.3677
G01 X186.0763 Y22.8693
G01 X186.9426 Y23.4024
G01 X187.7892 Y23.9662
G01 X188.6151 Y24.5600
G01 X189.4191 Y25.1831
G01 X190.2002 Y25.8347
G01 X190.9574 Y26.5138
G01 X191.6898 Y27.2198
G01 X192.3963 Y27.9515
G01 X193.0761 Y28.7082
G01 X193.7283 Y29.4887
G01 X194.3521 Y30.2922
G01 X194.9466 Y31.1176
G01 X195.5111 Y31.9637
G01 X196.0449 Y32.8296
G01 X196.5472 Y33.7141
G01 X197.0175 Y34.6161
G01 X197.4551 Y35.5343
G01 X197.8594 Y36.4677
G01 X198.2300 Y37.4150
G01 X198.5663 Y38.3750
G01 X198.8679 Y39.3464
G01 X199.1345 Y40.3280
G01 X199.3657 Y41.3186
G01 X199.5611 Y42.3168
G01 X199.7206 Y43.3214
G01 X199.8439 Y44.3311
G01 X199.9309 Y45.3446
G01 X199.9815 Y46.3605
G01 X199.9955 Y47.3776
G01 Y252.6142
G01 X199.9815 Y253.6313
G01 X199.9309 Y254.6472
G01 X199.8439 Y255.6606
G01 X199.7206 Y256.6703
G01 X199.5611 Y257.6749
G01 X199.3656 Y258.6732
G01 X199.1345 Y259.6637
G01 X198.8679 Y260.6454
G01 X198.5663 Y261.6168
G01 X198.2300 Y262.5768
G01 X197.8594 Y263.5241
G01 X197.4551 Y264.4574
G01 X197.0175 Y265.3757
G01 X196.5472 Y266.2776
G01 X196.0449 Y267.1621
G01 X195.5111 Y268.0280
G01 X194.9466 Y268.8742
G01 X194.3521 Y269.6995
G01 X193.7283 Y270.5030
G01 X193.0761 Y271.2836
G01 X192.3963 Y272.0402
G01 X191.6897 Y272.7720
G01 X190.9574 Y273.4779
G01 X190.2002 Y274.1571
G01 X189.4191 Y274.8086
G01 X188.6151 Y275.4317
G01 X187.7892 Y276.0255
G01 X186.9426 Y276.5893
G01 X186.0762 Y277.1224
G01 X185.1913 Y277.6240
G01 X184.2890 Y278.0935
G01 X183.3704 Y278.5303
G01 X182.4366 Y278.9339
G01 X181.4891 Y279.3036
G01 X180.5288 Y279.6391
G01 X179.5571 Y279.9400
G01 X178.5753 Y280.2057
G01 X177.5845 Y280.4360
G01 X176.5861 Y280.6307
G01 X175.5814 Y280.7893
G01 X174.5716 Y280.9118
G01 X173.5580 Y280.9979
G01 X172.5421 Y281.0476
G01 X171.5250 Y281.0608
G01 X48.2723
G01 X47.2552 Y281.0476
G01 X46.2392 Y280.9979
G01 X45.2257 Y280.9118
G01 X44.2159 Y280.7893
G01 X43.2111 Y280.6307
G01 X42.2128 Y280.4360
G01 X41.2220 Y280.2057
G01 X40.2401 Y279.9400
G01 X39.2685 Y279.6391
G01 X38.3082 Y279.3036
G01 X37.3606 Y278.9339
G01 X36.4269 Y278.5303
G01 X35.5083 Y278.0935
G01 X34.6059 Y277.6240
G01 X33.7210 Y277.1224
G01 X32.8547 Y276.5893
G01 X32.0080 Y276.0255
G01 X31.1822 Y275.4317
G01 X30.3782 Y274.8086
G01 X29.5971 Y274.1571
G01 X28.8399 Y273.4779
G01 X28.1075 Y272.7720
G01 X27.4010 Y272.0402
G01 X26.7212 Y271.2836
G01 X26.0689 Y270.5030
G01 X25.4452 Y269.6995
G01 X24.8507 Y268.8742
G01 X24.2862 Y268.0280
G01 X23.7524 Y267.1621
G01 X23.2500 Y266.2776
G01 X22.7798 Y265.3757
G01 X22.3422 Y264.4574
G01 X21.9379 Y263.5240
G01 X21.5673 Y262.5767
G01 X21.2310 Y261.6168
G01 X20.9293 Y260.6453
G01 X20.6628 Y259.6637
G01 X20.4316 Y258.6731
G01 X20.2362 Y257.6749
G01 X20.0767 Y256.6703
G01 X19.9534 Y255.6606
G01 X19.8664 Y254.6472
G01 X19.8158 Y253.6312
G01 X19.8018 Y252.6141
G01 Y47.3775
G01 X19.8157 Y46.3618
G01 X19.8660 Y45.3471
G01 X19.9527 Y44.3350
G01 X20.0756 Y43.3265
G01 X20.2347 Y42.3232
G01 X20.4296 Y41.3262
G01 X20.6602 Y40.3368
G01 X20.9261 Y39.3564
G01 X21.2270 Y38.3861
G01 X21.5625 Y37.4272
G01 X21.9321 Y36.4810
G01 X22.3355 Y35.5486
G01 X22.7721 Y34.6313
G01 X23.2413 Y33.7303
G01 X23.7425 Y32.8466
G01 X24.2751 Y31.9816
G01 X24.8383 Y31.1361
G01 X25.4316 Y30.3115
G01 X26.0540 Y29.5086
G01 X26.7048 Y28.7286
G01 X27.3832 Y27.9724
G01 X28.0883 Y27.2410
G01 X28.8191 Y26.5354
G01 X29.5748 Y25.8565
G01 X30.3544 Y25.2051
G01 X31.1568 Y24.5821
G01 X31.9810 Y23.9883
G01 X32.8261 Y23.4244
G01 X32.7340 Y23.2459
G01 X25.8686
M107
G00 Z2.0000
G00 X39.1294 Y17.2459
G00 Z0.5000
G01 Z-2.2000 F400
M106 S240
G01 Y15.7459 F1000
G01 X180.6679
M107
G00 Z2.0000
G00 Y282.7459
G00 Z0.5000
G01 Z-2.2000 F400
M106 S240
G01 Y284.2459 F1000
G01 X39.1294
G01 X39.1716 Y284.4655
G01 X39.9135 Y284.6672
G01 X40.6598 Y284.8516
G01 X41.4102 Y285.0187
G01 X42.1642 Y285.1684
G01 X42.9216 Y285.3006
G01 X43.6817 Y285.4152
G01 X44.4444 Y285.5122
G01 X45.2091 Y285.5914
G01 X45.9754 Y285.6529
G01 X46.7429 Y285.6967
G01 X47.5112 Y285.7227
G01 X48.2799 Y285.7308
G01 X171.5174
G01 X172.6017 Y285.7137
G01 X173.6849 Y285.6611
G01 X174.7658 Y285.5731
G01 X175.8432 Y285.4497
G01 X176.9160 Y285.2912
G01 X177.9831 Y285.0977
G01 X179.0432 Y284.8693
G01 X180.0953 Y284.6063
G01 X181.1382 Y284.3091
G01 X182.1709 Y283.9779
G01 X183.1922 Y283.6131
G01 X184.2009 Y283.2150
G01 X185.1961 Y282.7842
G01 X186.1767 Y282.3210
G01 X187.1416 Y281.8260
G01 X188.0898 Y281.2997
G01 X189.0202 Y280.7426
G01 X189.9320 Y280.1554
G01 X190.8240 Y279.5386
G01 X191.6953 Y278.8930
G01 X192.5451 Y278.2193
G01 X193.3724 Y277.5180
G01 X194.1762 Y276.7901
G01 X194.9558 Y276.0363
G01 X195.7104 Y275.2574
G01 X196.4390 Y274.4541
G01 X197.1410 Y273.6275
G01 X197.8155 Y272.7784
G01 X198.4619 Y271.9076
G01 X199.0794 Y271.0161
G01 X199.6675 Y270.1049
G01 X200.2254 Y269.1750
G01 X200.7525 Y268.2273
G01 X201.2484 Y267.2628
G01 X201.7125 Y266.2826
G01 X202.1442 Y265.2878
G01 X202.5431 Y264.2794
G01 X202.9089 Y263.2585
G01 X203.2410 Y262.2261
G01 X203.5392 Y261.1834
G01 X203.8030 Y260.1316
G01 X204.0324 Y259.0716
G01 X204.2269 Y258.0047
G01 X204.3864 Y256.9321
G01 X204.5107 Y255.8548
G01 X204.5996 Y254.7739
G01 X204.6532 Y253.6908
G01 X204.6713 Y252.6065
G01 Y47.3852
G01 X204.6532 Y46.3009
G01 X204.5997 Y45.2178
G01 X204.5107 Y44.1370
G01 X204.3864 Y43.0596
G01 X204.2269 Y41.9870
G01 X204.0324 Y40.9201
G01 X203.8030 Y39.8601
G01 X203.5392 Y38.8083
G01 X203.2410 Y37.7656
G01 X202.9089 Y36.7332
G01 X202.5431 Y35.7123
G01 X202.1442 Y34.7039
G01 X201.7125 Y33.7091
G01 X201.2484 Y32.7289
G01 X200.7525 Y31.7644
G01 X200.2254 Y30.8167
G01 X199.6675 Y29.8868
G01 X199.0794 Y28.9756
G01 X198.4619 Y28.0841
G01 X197.8155 Y27.2134
G01 X197.1410 Y26.3642
G01 X196.4390 Y25.5376
G01 X195.7104 Y24.7344
G01 X194.9558 Y23.9554
G01 X194.1762 Y23.2016
G01 X193.3724 Y22.4737
G01 X192.5451 Y21.7724
G01 X191.6953 Y21.0987
G01 X190.8240 Y20.4531
G01 X189.9320 Y19.8363
G01 X189.0202 Y19.2491
G01 X188.0898 Y18.6920
G01 X187.1416 Y18.1657
G01 X186.1767 Y17.6707
G01 X185.1961 Y17.2075
G01 X184.2009 Y16.7767
G01 X183.1922 Y16.3786
G01 X182.1709 Y16.0138
G01 X181.1382 Y15.6826
G01 X180.0953 Y15.3854
G01 X179.0432 Y15.1224
G01 X177.9830 Y14.8941
G01 X176.9160 Y14.7005
G01 X175.8432 Y14.5420
G01 X174.7658 Y14.4186
G01 X173.6849 Y14.3306
G01 X172.6017 Y14.2780
G01 X171.5173 Y14.2609
G01 X48.2799
G01 X47.1956 Y14.2780
G01 X46.1124 Y14.3306
G01 X45.0315 Y14.4186
G01 X43.9541 Y14.5420
G01 X42.8813 Y14.7005
G01 X41.8142 Y14.8941
G01 X40.7541 Y15.1224
G01 X39.7020 Y15.3854
G01 X38.6590 Y15.6826
G01 X37.6264 Y16.0138
G01 X36.6051 Y16.3786
G01 X35.5963 Y16.7767
G01 X34.6011 Y17.2075
G01 X33.6206 Y17.6707
G01 X32.6557 Y18.1657
G01 X31.7075 Y18.6920
G01 X30.7770 Y19.2491
G01 X29.8653 Y19.8363
G01 X28.9733 Y20.4531
G01 X28.1019 Y21.0987
G01 X27.2522 Y21.7725
G01 X26.4249 Y22.4737
G01 X25.6211 Y23.2016
G01 X24.8414 Y23.9554
G01 X24.0869 Y24.7344
G01 X23.3583 Y25.5376
G01 X22.6563 Y26.3642
G01 X21.9818 Y27.2134
G01 X21.3354 Y28.0841
G01 X20.7179 Y28.9756
G01 X20.1298 Y29.8868
G01 X19.5719 Y30.8168
G01 X19.0447 Y31.7645
G01 X18.5489 Y32.7289
G01 X18.0848 Y33.7091
G01 X17.6531 Y34.7039
G01 X17.2541 Y35.7123
G01 X16.8884 Y36.7333
G01 X16.5563 Y37.7656
G01 X16.2581 Y38.8083
G01 X15.9942 Y39.8602
G01 X15.7649 Y40.9201
G01 X15.5704 Y41.9870
G01 X15.4109 Y43.0597
G01 X15.2866 Y44.1370
G01 X15.1976 Y45.2178
G01 X15.1441 Y46.3009
G01 X15.1260 Y47.3852
G01 Y252.6065
G01 X15.1435 Y253.6772
G01 X15.1956 Y254.7468
G01 X15.2823 Y255.8141
G01 X15.4034 Y256.8780
G01 X15.5588 Y257.9375
G01 X15.7484 Y258.9915
G01 X15.9719 Y260.0387
G01 X16.2291 Y261.0782
G01 X16.5198 Y262.1088
G01 X16.8436 Y263.1295
G01 X17.2003 Y264.1392
G01 X17.5894 Y265.1369
G01 X18.0105 Y266.1214
G01 X18.4632 Y267.0919
G01 X18.9470 Y268.0472
G01 X19.4614 Y268.9863
G01 X20.0059 Y269.9084
G01 X20.5800 Y270.8124
G01 X21.1829 Y271.6974
G01 X21.8141 Y272.5624
G01 X22.4729 Y273.4066
G01 X23.1587 Y274.2290
G01 X23.8706 Y275.0289
G01 X24.6081 Y275.8053
G01 X25.3702 Y276.5575
G01 X26.1563 Y277.2847
G01 X26.9654 Y277.9862
G01 X27.7968 Y278.6611
G01 X28.6495 Y279.3088
G01 X29.5228 Y279.9286
G01 X30.4156 Y280.5198
G01 X31.3270 Y281.0819
G01 X32.2561 Y281.6143
G01 X33.2020 Y282.1164
G01 X34.1635 Y282.5876
G01 X35.1398 Y283.0276
G01 X36.1298 Y283.4357
G01 X37.1325 Y283.8117
G01 X38.1468 Y284.1551
G01 X39.1716 Y284.4655
G01 X39.1294 Y284.2459
M107
G00 Z2.0000
G00 X0.0000 Y0.0000
G00 Z0.0000

M05
