;Project Tesla100ProzentElectric
;Created by Estlcam version 11 build 11,227
;Machining time about 00:17:19 hours

G90
M03 S18000
G00 X0.0000 Y0.0000 Z0.0000
G00 Z2.0000


;No. 1: Helical drill 1
G00 X33.6781 Y267.1854
G00 Z0.5000
M106 S240
G01 X33.6743 Y267.0982 Z0.4774 F400 S18000
G01 X33.6629 Y267.0117 Z0.4549
G01 X33.6441 Y266.9266 Z0.4323
G01 X33.6178 Y266.8434 Z0.4097
G01 X33.5844 Y266.7628 Z0.3872
G01 X33.5441 Y266.6854 Z0.3646
G01 X33.4973 Y266.6118 Z0.3420
G01 X33.4442 Y266.5426 Z0.3194
G01 X33.3852 Y266.4783 Z0.2969
G01 X33.3209 Y266.4193 Z0.2743
G01 X33.2517 Y266.3662 Z0.2517
G01 X33.1781 Y266.3194 Z0.2292
G01 X33.1007 Y266.2791 Z0.2066
G01 X33.0201 Y266.2457 Z0.1840
G01 X32.9369 Y266.2195 Z0.1615
G01 X32.8518 Y266.2006 Z0.1389
G01 X32.7653 Y266.1892 Z0.1163
G01 X32.6781 Y266.1854 Z0.0938
G01 X32.5910 Y266.1892 Z0.0712
G01 X32.5045 Y266.2006 Z0.0486
G01 X32.4193 Y266.2195 Z0.0260
G01 X32.3361 Y266.2457 Z0.0035
G01 X32.2555 Y266.2791 Z-0.0191
G01 X32.1781 Y266.3194 Z-0.0417
G01 X32.1375 Y266.3441 Z-0.0540
G01 X32.0981 Y266.3708 Z-0.0663
G01 X32.0600 Y266.3993 Z-0.0786
G01 X32.0233 Y266.4296 Z-0.0909
G01 X31.9880 Y266.4617 Z-0.1032
G01 X31.9544 Y266.4953 Z-0.1155
G01 X31.9224 Y266.5305 Z-0.1278
G01 X31.8921 Y266.5672 Z-0.1402
G01 X31.8635 Y266.6053 Z-0.1525
G01 X31.8369 Y266.6447 Z-0.1648
G01 X31.8121 Y266.6854 Z-0.1771
G01 X31.7893 Y266.7272 Z-0.1894
G01 X31.7685 Y266.7700 Z-0.2017
G01 X31.7498 Y266.8137 Z-0.2140
G01 X31.7331 Y266.8583 Z-0.2263
G01 X31.7186 Y266.9037 Z-0.2386
G01 X31.7063 Y266.9496 Z-0.2509
G01 X31.6962 Y266.9961 Z-0.2633
G01 X31.6883 Y267.0431 Z-0.2756
G01 X31.6827 Y267.0903 Z-0.2879
G01 X31.6793 Y267.1378 Z-0.3002
G01 X31.6781 Y267.1854 Z-0.3125
G01 X31.6793 Y267.2330 Z-0.3248
G01 X31.6827 Y267.2804 Z-0.3371
G01 X31.6883 Y267.3277 Z-0.3494
G01 X31.6962 Y267.3746 Z-0.3617
G01 X31.7063 Y267.4211 Z-0.3741
G01 X31.7186 Y267.4671 Z-0.3864
G01 X31.7331 Y267.5125 Z-0.3987
G01 X31.7498 Y267.5570 Z-0.4110
G01 X31.7685 Y267.6008 Z-0.4233
G01 X31.7893 Y267.6436 Z-0.4356
G01 X31.8121 Y267.6854 Z-0.4479
G01 X31.8369 Y267.7260 Z-0.4602
G01 X31.8635 Y267.7654 Z-0.4725
G01 X31.8921 Y267.8035 Z-0.4848
G01 X31.9224 Y267.8402 Z-0.4972
G01 X31.9544 Y267.8755 Z-0.5095
G01 X31.9880 Y267.9091 Z-0.5218
G01 X32.0233 Y267.9411 Z-0.5341
G01 X32.0600 Y267.9714 Z-0.5464
G01 X32.0981 Y268.0000 Z-0.5587
G01 X32.1375 Y268.0266 Z-0.5710
G01 X32.1781 Y268.0514 Z-0.5833
G01 X32.2199 Y268.0742 Z-0.5956
G01 X32.2627 Y268.0950 Z-0.6080
G01 X32.3065 Y268.1138 Z-0.6203
G01 X32.3511 Y268.1304 Z-0.6326
G01 X32.3964 Y268.1449 Z-0.6449
G01 X32.4424 Y268.1572 Z-0.6572
G01 X32.4889 Y268.1673 Z-0.6695
G01 X32.5358 Y268.1752 Z-0.6818
G01 X32.5831 Y268.1809 Z-0.6941
G01 X32.6305 Y268.1843 Z-0.7064
G01 X32.6781 Y268.1854 Z-0.7188
G01 X32.7257 Y268.1843 Z-0.7311
G01 X32.7732 Y268.1809 Z-0.7434
G01 X32.8204 Y268.1752 Z-0.7557
G01 X32.8674 Y268.1673 Z-0.7680
G01 X32.9139 Y268.1572 Z-0.7803
G01 X32.9599 Y268.1449 Z-0.7926
G01 X33.0052 Y268.1304 Z-0.8049
G01 X33.0498 Y268.1138 Z-0.8172
G01 X33.0935 Y268.0950 Z-0.8295
G01 X33.1364 Y268.0742 Z-0.8419
G01 X33.1781 Y268.0514 Z-0.8542
G01 X33.2188 Y268.0266 Z-0.8665
G01 X33.2582 Y268.0000 Z-0.8788
G01 X33.2963 Y267.9714 Z-0.8911
G01 X33.3330 Y267.9411 Z-0.9034
G01 X33.3682 Y267.9091 Z-0.9157
G01 X33.4019 Y267.8755 Z-0.9280
G01 X33.4339 Y267.8402 Z-0.9403
G01 X33.4642 Y267.8035 Z-0.9527
G01 X33.4927 Y267.7654 Z-0.9650
G01 X33.5194 Y267.7260 Z-0.9773
G01 X33.5441 Y267.6854 Z-0.9896
G01 X33.5670 Y267.6436 Z-1.0019
G01 X33.5878 Y267.6008 Z-1.0142
G01 X33.6065 Y267.5570 Z-1.0265
G01 X33.6231 Y267.5125 Z-1.0388
G01 X33.6376 Y267.4671 Z-1.0511
G01 X33.6499 Y267.4211 Z-1.0634
G01 X33.6601 Y267.3746 Z-1.0758
G01 X33.6679 Y267.3277 Z-1.0881
G01 X33.6736 Y267.2804 Z-1.1004
G01 X33.6770 Y267.2330 Z-1.1127
G01 X33.6781 Y267.1854 Z-1.1250
G01 X33.6743 Y267.0982
G01 X33.6629 Y267.0117
G01 X33.6441 Y266.9266
G01 X33.6178 Y266.8434
G01 X33.5844 Y266.7628
G01 X33.5441 Y266.6854
G01 X33.4973 Y266.6118
G01 X33.4442 Y266.5426
G01 X33.3852 Y266.4783
G01 X33.3209 Y266.4193
G01 X33.2517 Y266.3662
G01 X33.1781 Y266.3194
G01 X33.1007 Y266.2791
G01 X33.0201 Y266.2457
G01 X32.9369 Y266.2195
G01 X32.8518 Y266.2006
G01 X32.7653 Y266.1892
G01 X32.6781 Y266.1854
G01 X32.5910 Y266.1892
G01 X32.5045 Y266.2006
G01 X32.4193 Y266.2195
G01 X32.3361 Y266.2457
G01 X32.2555 Y266.2791
G01 X32.1781 Y266.3194
G01 X32.1375 Y266.3441
G01 X32.0981 Y266.3708
G01 X32.0600 Y266.3993
G01 X32.0233 Y266.4296
G01 X31.9880 Y266.4617
G01 X31.9544 Y266.4953
G01 X31.9224 Y266.5305
G01 X31.8921 Y266.5672
G01 X31.8635 Y266.6053
G01 X31.8369 Y266.6447
G01 X31.8121 Y266.6854
G01 X31.7893 Y266.7272
G01 X31.7685 Y266.7700
G01 X31.7498 Y266.8137
G01 X31.7331 Y266.8583
G01 X31.7186 Y266.9037
G01 X31.7063 Y266.9496
G01 X31.6962 Y266.9961
G01 X31.6883 Y267.0431
G01 X31.6827 Y267.0903
G01 X31.6793 Y267.1378
G01 X31.6781 Y267.1854
G01 X31.6793 Y267.2330
G01 X31.6827 Y267.2804
G01 X31.6883 Y267.3277
G01 X31.6962 Y267.3746
G01 X31.7063 Y267.4211
G01 X31.7186 Y267.4671
G01 X31.7331 Y267.5125
G01 X31.7498 Y267.5570
G01 X31.7685 Y267.6008
G01 X31.7893 Y267.6436
G01 X31.8121 Y267.6854
G01 X31.8369 Y267.7260
G01 X31.8635 Y267.7654
G01 X31.8921 Y267.8035
G01 X31.9224 Y267.8402
G01 X31.9544 Y267.8755
G01 X31.9880 Y267.9091
G01 X32.0233 Y267.9411
G01 X32.0600 Y267.9714
G01 X32.0981 Y268.0000
G01 X32.1375 Y268.0266
G01 X32.1781 Y268.0514
G01 X32.2199 Y268.0742
G01 X32.2627 Y268.0950
G01 X32.3065 Y268.1138
G01 X32.3511 Y268.1304
G01 X32.3964 Y268.1449
G01 X32.4424 Y268.1572
G01 X32.4889 Y268.1673
G01 X32.5358 Y268.1752
G01 X32.5831 Y268.1809
G01 X32.6305 Y268.1843
G01 X32.6781 Y268.1854
G01 X32.7257 Y268.1843
G01 X32.7732 Y268.1809
G01 X32.8204 Y268.1752
G01 X32.8674 Y268.1673
G01 X32.9139 Y268.1572
G01 X32.9599 Y268.1449
G01 X33.0052 Y268.1304
G01 X33.0498 Y268.1138
G01 X33.0935 Y268.0950
G01 X33.1364 Y268.0742
G01 X33.1781 Y268.0514
G01 X33.2188 Y268.0266
G01 X33.2582 Y268.0000
G01 X33.2963 Y267.9714
G01 X33.3330 Y267.9411
G01 X33.3682 Y267.9091
G01 X33.4019 Y267.8755
G01 X33.4339 Y267.8402
G01 X33.4642 Y267.8035
G01 X33.4927 Y267.7654
G01 X33.5194 Y267.7260
G01 X33.5441 Y267.6854
G01 X33.5670 Y267.6436
G01 X33.5878 Y267.6008
G01 X33.6065 Y267.5570
G01 X33.6231 Y267.5125
G01 X33.6376 Y267.4671
G01 X33.6499 Y267.4211
G01 X33.6601 Y267.3746
G01 X33.6679 Y267.3277
G01 X33.6736 Y267.2804
G01 X33.6770 Y267.2330
G01 X33.6781 Y267.1854
G01 X33.6889 Y267.1338 F1000
G01 X33.6969 Y267.0817
G01 X33.7023 Y267.0293
G01 X33.7050 Y266.9766
G01 Y266.9239
G01 X33.7022 Y266.8713
G01 X33.6968 Y266.8189
G01 X33.6886 Y266.7668
G01 X33.6769 Y266.7108
G01 X33.6623 Y266.6555
G01 X33.6450 Y266.6010
G01 X33.6248 Y266.5475
G01 X33.6020 Y266.4951
G01 X33.5765 Y266.4439
G01 X33.5484 Y266.3940
G01 X33.5178 Y266.3457
G01 X33.4822 Y266.2953
G01 X33.4441 Y266.2468
G01 X33.4035 Y266.2003
G01 X33.3607 Y266.1559
G01 X33.3156 Y266.1137
G01 X33.2685 Y266.0739
G01 X33.2194 Y266.0365
G01 X33.1684 Y266.0017
G01 X33.1119 Y265.9671
G01 X33.0538 Y265.9354
G01 X32.9941 Y265.9067
G01 X32.9330 Y265.8811
G01 X32.8707 Y265.8586
G01 X32.8074 Y265.8393
G01 X32.7431 Y265.8232
G01 X32.6781 Y265.8104
G01 X32.6081 Y265.8002
G01 X32.5376 Y265.7936
G01 X32.4669 Y265.7905
G01 X32.3962 Y265.7910
G01 X32.3255 Y265.7950
G01 X32.2552 Y265.8026
G01 X32.1853 Y265.8138
G01 X32.1161 Y265.8284
G01 X32.0479 Y265.8544
G01 X31.9811 Y265.8838
G01 X31.9158 Y265.9164
G01 X31.8522 Y265.9521
G01 X31.7905 Y265.9909
G01 X31.7307 Y266.0328
G01 X31.6731 Y266.0775
G01 X31.6177 Y266.1250
G01 X31.5670 Y266.1783
G01 X31.5189 Y266.2340
G01 X31.4736 Y266.2921
G01 X31.4312 Y266.3522
G01 X31.3919 Y266.4144
G01 X31.3556 Y266.4785
G01 X31.3225 Y266.5442
G01 X31.2927 Y266.6115
G01 X31.2662 Y266.6802
G01 X31.2431 Y266.7501
G01 X31.2234 Y266.8210
G01 X31.2073 Y266.8928
G01 X31.1947 Y266.9653
G01 X31.1857 Y267.0384
G01 X31.1803 Y267.1118
G01 X31.1785 Y267.1854
G01 X31.1803 Y267.2590
G01 X31.1857 Y267.3324
G01 X31.1947 Y267.4054
G01 X31.2073 Y267.4779
G01 X31.2234 Y267.5498
G01 X31.2431 Y267.6207
G01 X31.2662 Y267.6906
G01 X31.2927 Y267.7593
G01 X31.3225 Y267.8266
G01 X31.3556 Y267.8923
G01 X31.3919 Y267.9563
G01 X31.4312 Y268.0185
G01 X31.4736 Y268.0787
G01 X31.5189 Y268.1367
G01 X31.5670 Y268.1925
G01 X31.6177 Y268.2458
G01 X31.6710 Y268.2965
G01 X31.7268 Y268.3446
G01 X31.7848 Y268.3899
G01 X31.8450 Y268.4323
G01 X31.9072 Y268.4717
G01 X31.9712 Y268.5079
G01 X32.0370 Y268.5410
G01 X32.1042 Y268.5709
G01 X32.1729 Y268.5973
G01 X32.2428 Y268.6204
G01 X32.3137 Y268.6401
G01 X32.3856 Y268.6562
G01 X32.4581 Y268.6688
G01 X32.5311 Y268.6778
G01 X32.6045 Y268.6832
G01 X32.6781 Y268.6850
G01 X32.7517 Y268.6832
G01 X32.8251 Y268.6778
G01 X32.8982 Y268.6688
G01 X32.9707 Y268.6562
G01 X33.0425 Y268.6401
G01 X33.1134 Y268.6204
G01 X33.1833 Y268.5973
G01 X33.2520 Y268.5709
G01 X33.3193 Y268.5410
G01 X33.3850 Y268.5079
G01 X33.4491 Y268.4717
G01 X33.5113 Y268.4323
G01 X33.5714 Y268.3899
G01 X33.6295 Y268.3446
G01 X33.6852 Y268.2965
G01 X33.7385 Y268.2458
G01 X33.7893 Y268.1925
G01 X33.8373 Y268.1367
G01 X33.8826 Y268.0787
G01 X33.9250 Y268.0185
G01 X33.9644 Y267.9563
G01 X34.0007 Y267.8923
G01 X34.0338 Y267.8266
G01 X34.0636 Y267.7593
G01 X34.0901 Y267.6906
G01 X34.1132 Y267.6207
G01 X34.1328 Y267.5498
G01 X34.1489 Y267.4779
G01 X34.1615 Y267.4054
G01 X34.1705 Y267.3324
G01 X34.1759 Y267.2590
G01 X34.1777 Y267.1854
G01 X34.1736 Y267.0733
G01 X34.1610 Y266.9619
G01 X34.1401 Y266.8517
G01 X34.1111 Y266.7434
G01 X34.0741 Y266.6375
G01 X34.0292 Y266.5347
G01 X33.9768 Y266.4356
G01 X33.9172 Y266.3406
G01 X33.8506 Y266.2504
G01 X33.7774 Y266.1654
G01 X33.6981 Y266.0861
G01 X33.6131 Y266.0129
G01 X33.5229 Y265.9463
G01 X33.4279 Y265.8867
G01 X33.3288 Y265.8343
G01 X33.2260 Y265.7894
G01 X33.1201 Y265.7524
G01 X33.0118 Y265.7234
G01 X32.9016 Y265.7025
G01 X32.7902 Y265.6900
G01 X32.6781 Y265.6858
G01 X32.5661 Y265.6900
G01 X32.4546 Y265.7025
G01 X32.3444 Y265.7234
G01 X32.2361 Y265.7524
G01 X32.1303 Y265.7894
G01 X32.0275 Y265.8343
G01 X31.9283 Y265.8867
G01 X31.8334 Y265.9463
G01 X31.7431 Y266.0129
G01 X31.6581 Y266.0861
G01 X31.5788 Y266.1654
G01 X31.5057 Y266.2504
G01 X31.4391 Y266.3406
G01 X31.3794 Y266.4356
G01 X31.3270 Y266.5347
G01 X31.2822 Y266.6375
G01 X31.2451 Y266.7434
G01 X31.2161 Y266.8517
G01 X31.1953 Y266.9619
G01 X31.1827 Y267.0733
G01 X31.1785 Y267.1854
G01 X31.1827 Y267.2975
G01 X31.1953 Y267.4089
G01 X31.2161 Y267.5191
G01 X31.2451 Y267.6274
G01 X31.2822 Y267.7333
G01 X31.3270 Y267.8360
G01 X31.3794 Y267.9352
G01 X31.4391 Y268.0302
G01 X31.5057 Y268.1204
G01 X31.5788 Y268.2054
G01 X31.6581 Y268.2847
G01 X31.7431 Y268.3578
G01 X31.8334 Y268.4244
G01 X31.9283 Y268.4841
G01 X32.0275 Y268.5365
G01 X32.1303 Y268.5813
G01 X32.2361 Y268.6184
G01 X32.3444 Y268.6474
G01 X32.4546 Y268.6683
G01 X32.5661 Y268.6808
G01 X32.6781 Y268.6850
G01 X32.7902 Y268.6808
G01 X32.9016 Y268.6683
G01 X33.0118 Y268.6474
G01 X33.1201 Y268.6184
G01 X33.2260 Y268.5813
G01 X33.3288 Y268.5365
G01 X33.4279 Y268.4841
G01 X33.5229 Y268.4244
G01 X33.6131 Y268.3578
G01 X33.6981 Y268.2847
G01 X33.7774 Y268.2054
G01 X33.8506 Y268.1204
G01 X33.9172 Y268.0302
G01 X33.9768 Y267.9352
G01 X34.0292 Y267.8360
G01 X34.0741 Y267.7333
G01 X34.1111 Y267.6274
G01 X34.1401 Y267.5191
G01 X34.1610 Y267.4089
G01 X34.1736 Y267.2975
G01 X34.1777 Y267.1854
G01 X34.1739 Y267.0873
G01 X34.1624 Y266.9899
G01 X34.1432 Y266.8936
G01 X34.1166 Y266.7992
G01 X34.0826 Y266.7071
G01 X34.0415 Y266.6180
G01 X33.9936 Y266.5324
G01 X33.9391 Y266.4508
G01 X33.8783 Y266.3737
G01 X33.8117 Y266.3016
G01 X33.7396 Y266.2350
G01 X33.6626 Y266.1743
G01 X33.5810 Y266.1197
G01 X33.4953 Y266.0718
G01 X33.4062 Y266.0307
G01 X33.3141 Y265.9967
G01 X33.2197 Y265.9701
G01 X33.1234 Y265.9510
G01 X33.0260 Y265.9394
G01 X32.9279 Y265.9356
G01 X32.8299 Y265.9394
G01 X32.7324 Y265.9510
G01 X32.6362 Y265.9701
G01 X32.5417 Y265.9967
G01 X32.4497 Y266.0307
G01 X32.3605 Y266.0718
G01 X32.2749 Y266.1197
G01 X32.1933 Y266.1743
G01 X32.1162 Y266.2350
G01 X32.0442 Y266.3016
G01 X31.9776 Y266.3737
G01 X31.9168 Y266.4508
G01 X31.8623 Y266.5324
G01 X31.8143 Y266.6180
G01 X31.7733 Y266.7071
G01 X31.7393 Y266.7992
G01 X31.7127 Y266.8936
G01 X31.6935 Y266.9899
G01 X31.6820 Y267.0873
G01 X31.6781 Y267.1854
G01 X31.6819 Y267.2725
G01 X31.6933 Y267.3590
G01 X31.7122 Y267.4442
G01 X31.7384 Y267.5274
G01 X31.7718 Y267.6080
G01 X31.8121 Y267.6854
G01 X31.8590 Y267.7590
G01 X31.9121 Y267.8282
G01 X31.9710 Y267.8925
G01 X32.0353 Y267.9514
G01 X32.1045 Y268.0045
G01 X32.1781 Y268.0514
G01 X32.2555 Y268.0917
G01 X32.3361 Y268.1251
G01 X32.4193 Y268.1513
G01 X32.5045 Y268.1702
G01 X32.5910 Y268.1816
G01 X32.6781 Y268.1854
G01 X32.7653 Y268.1816
G01 X32.8518 Y268.1702
G01 X32.9369 Y268.1513
G01 X33.0201 Y268.1251
G01 X33.1007 Y268.0917
G01 X33.1781 Y268.0514
G01 X33.2517 Y268.0045
G01 X33.3209 Y267.9514
G01 X33.3852 Y267.8925
G01 X33.4442 Y267.8282
G01 X33.4973 Y267.7590
G01 X33.5441 Y267.6854
G01 X33.5844 Y267.6080
G01 X33.6178 Y267.5274
G01 X33.6441 Y267.4442
G01 X33.6629 Y267.3590
G01 X33.6743 Y267.2725
G01 X33.6781 Y267.1854
M107
M106 S240
G01 X33.6743 Y267.0982 Z-1.1476 F400
G01 X33.6629 Y267.0117 Z-1.1701
G01 X33.6441 Y266.9266 Z-1.1927
G01 X33.6178 Y266.8434 Z-1.2153
G01 X33.5844 Y266.7628 Z-1.2378
G01 X33.5441 Y266.6854 Z-1.2604
G01 X33.4973 Y266.6118 Z-1.2830
G01 X33.4442 Y266.5426 Z-1.3056
G01 X33.3852 Y266.4783 Z-1.3281
G01 X33.3209 Y266.4193 Z-1.3507
G01 X33.2517 Y266.3662 Z-1.3733
G01 X33.1781 Y266.3194 Z-1.3958
G01 X33.1007 Y266.2791 Z-1.4184
G01 X33.0201 Y266.2457 Z-1.4410
G01 X32.9369 Y266.2195 Z-1.4635
G01 X32.8518 Y266.2006 Z-1.4861
G01 X32.7653 Y266.1892 Z-1.5087
G01 X32.6781 Y266.1854 Z-1.5313
G01 X32.5910 Y266.1892 Z-1.5538
G01 X32.5045 Y266.2006 Z-1.5764
G01 X32.4193 Y266.2195 Z-1.5990
G01 X32.3361 Y266.2457 Z-1.6215
G01 X32.2555 Y266.2791 Z-1.6441
G01 X32.1781 Y266.3194 Z-1.6667
G01 X32.1375 Y266.3441 Z-1.6790
G01 X32.0981 Y266.3708 Z-1.6913
G01 X32.0600 Y266.3993 Z-1.7036
G01 X32.0233 Y266.4296 Z-1.7159
G01 X31.9880 Y266.4617 Z-1.7282
G01 X31.9544 Y266.4953 Z-1.7405
G01 X31.9224 Y266.5305 Z-1.7528
G01 X31.8921 Y266.5672 Z-1.7652
G01 X31.8635 Y266.6053 Z-1.7775
G01 X31.8369 Y266.6447 Z-1.7898
G01 X31.8121 Y266.6854 Z-1.8021
G01 X31.7893 Y266.7272 Z-1.8144
G01 X31.7685 Y266.7700 Z-1.8267
G01 X31.7498 Y266.8137 Z-1.8390
G01 X31.7331 Y266.8583 Z-1.8513
G01 X31.7186 Y266.9037 Z-1.8636
G01 X31.7063 Y266.9496 Z-1.8759
G01 X31.6962 Y266.9961 Z-1.8883
G01 X31.6883 Y267.0431 Z-1.9006
G01 X31.6827 Y267.0903 Z-1.9129
G01 X31.6793 Y267.1378 Z-1.9252
G01 X31.6781 Y267.1854 Z-1.9375
G01 X31.6793 Y267.2330 Z-1.9498
G01 X31.6827 Y267.2804 Z-1.9621
G01 X31.6883 Y267.3277 Z-1.9744
G01 X31.6962 Y267.3746 Z-1.9867
G01 X31.7063 Y267.4211 Z-1.9991
G01 X31.7186 Y267.4671 Z-2.0114
G01 X31.7331 Y267.5125 Z-2.0237
G01 X31.7498 Y267.5570 Z-2.0360
G01 X31.7685 Y267.6008 Z-2.0483
G01 X31.7893 Y267.6436 Z-2.0606
G01 X31.8121 Y267.6854 Z-2.0729
G01 X31.8369 Y267.7260 Z-2.0852
G01 X31.8635 Y267.7654 Z-2.0975
G01 X31.8921 Y267.8035 Z-2.1098
G01 X31.9224 Y267.8402 Z-2.1222
G01 X31.9544 Y267.8755 Z-2.1345
G01 X31.9880 Y267.9091 Z-2.1468
G01 X32.0233 Y267.9411 Z-2.1591
G01 X32.0600 Y267.9714 Z-2.1714
G01 X32.0981 Y268.0000 Z-2.1837
G01 X32.1375 Y268.0266 Z-2.1960
G01 X32.1781 Y268.0514 Z-2.2083
G01 X32.2199 Y268.0742 Z-2.2206
G01 X32.2627 Y268.0950 Z-2.2330
G01 X32.3065 Y268.1138 Z-2.2453
G01 X32.3511 Y268.1304 Z-2.2576
G01 X32.3964 Y268.1449 Z-2.2699
G01 X32.4424 Y268.1572 Z-2.2822
G01 X32.4889 Y268.1673 Z-2.2945
G01 X32.5358 Y268.1752 Z-2.3068
G01 X32.5831 Y268.1809 Z-2.3191
G01 X32.6305 Y268.1843 Z-2.3314
G01 X32.6781 Y268.1854 Z-2.3438
G01 X32.7257 Y268.1843 Z-2.3561
G01 X32.7732 Y268.1809 Z-2.3684
G01 X32.8204 Y268.1752 Z-2.3807
G01 X32.8674 Y268.1673 Z-2.3930
G01 X32.9139 Y268.1572 Z-2.4053
G01 X32.9599 Y268.1449 Z-2.4176
G01 X33.0052 Y268.1304 Z-2.4299
G01 X33.0498 Y268.1138 Z-2.4422
G01 X33.0935 Y268.0950 Z-2.4545
G01 X33.1364 Y268.0742 Z-2.4669
G01 X33.1781 Y268.0514 Z-2.4792
G01 X33.2188 Y268.0266 Z-2.4915
G01 X33.2582 Y268.0000 Z-2.5038
G01 X33.2963 Y267.9714 Z-2.5161
G01 X33.3330 Y267.9411 Z-2.5284
G01 X33.3682 Y267.9091 Z-2.5407
G01 X33.4019 Y267.8755 Z-2.5530
G01 X33.4339 Y267.8402 Z-2.5653
G01 X33.4642 Y267.8035 Z-2.5777
G01 X33.4927 Y267.7654 Z-2.5900
G01 X33.5194 Y267.7260 Z-2.6023
G01 X33.5441 Y267.6854 Z-2.6146
G01 X33.5670 Y267.6436 Z-2.6269
G01 X33.5878 Y267.6008 Z-2.6392
G01 X33.6065 Y267.5570 Z-2.6515
G01 X33.6231 Y267.5125 Z-2.6638
G01 X33.6376 Y267.4671 Z-2.6761
G01 X33.6499 Y267.4211 Z-2.6884
G01 X33.6601 Y267.3746 Z-2.7008
G01 X33.6679 Y267.3277 Z-2.7131
G01 X33.6736 Y267.2804 Z-2.7254
G01 X33.6770 Y267.2330 Z-2.7377
G01 X33.6781 Y267.1854 Z-2.7500
G01 X33.6743 Y267.0982
G01 X33.6629 Y267.0117
G01 X33.6441 Y266.9266
G01 X33.6178 Y266.8434
G01 X33.5844 Y266.7628
G01 X33.5441 Y266.6854
G01 X33.4973 Y266.6118
G01 X33.4442 Y266.5426
G01 X33.3852 Y266.4783
G01 X33.3209 Y266.4193
G01 X33.2517 Y266.3662
G01 X33.1781 Y266.3194
G01 X33.1007 Y266.2791
G01 X33.0201 Y266.2457
G01 X32.9369 Y266.2195
G01 X32.8518 Y266.2006
G01 X32.7653 Y266.1892
G01 X32.6781 Y266.1854
G01 X32.5910 Y266.1892
G01 X32.5045 Y266.2006
G01 X32.4193 Y266.2195
G01 X32.3361 Y266.2457
G01 X32.2555 Y266.2791
G01 X32.1781 Y266.3194
G01 X32.1375 Y266.3441
G01 X32.0981 Y266.3708
G01 X32.0600 Y266.3993
G01 X32.0233 Y266.4296
G01 X31.9880 Y266.4617
G01 X31.9544 Y266.4953
G01 X31.9224 Y266.5305
G01 X31.8921 Y266.5672
G01 X31.8635 Y266.6053
G01 X31.8369 Y266.6447
G01 X31.8121 Y266.6854
G01 X31.7893 Y266.7272
G01 X31.7685 Y266.7700
G01 X31.7498 Y266.8137
G01 X31.7331 Y266.8583
G01 X31.7186 Y266.9037
G01 X31.7063 Y266.9496
G01 X31.6962 Y266.9961
G01 X31.6883 Y267.0431
G01 X31.6827 Y267.0903
G01 X31.6793 Y267.1378
G01 X31.6781 Y267.1854
G01 X31.6793 Y267.2330
G01 X31.6827 Y267.2804
G01 X31.6883 Y267.3277
G01 X31.6962 Y267.3746
G01 X31.7063 Y267.4211
G01 X31.7186 Y267.4671
G01 X31.7331 Y267.5125
G01 X31.7498 Y267.5570
G01 X31.7685 Y267.6008
G01 X31.7893 Y267.6436
G01 X31.8121 Y267.6854
G01 X31.8369 Y267.7260
G01 X31.8635 Y267.7654
G01 X31.8921 Y267.8035
G01 X31.9224 Y267.8402
G01 X31.9544 Y267.8755
G01 X31.9880 Y267.9091
G01 X32.0233 Y267.9411
G01 X32.0600 Y267.9714
G01 X32.0981 Y268.0000
G01 X32.1375 Y268.0266
G01 X32.1781 Y268.0514
G01 X32.2199 Y268.0742
G01 X32.2627 Y268.0950
G01 X32.3065 Y268.1138
G01 X32.3511 Y268.1304
G01 X32.3964 Y268.1449
G01 X32.4424 Y268.1572
G01 X32.4889 Y268.1673
G01 X32.5358 Y268.1752
G01 X32.5831 Y268.1809
G01 X32.6305 Y268.1843
G01 X32.6781 Y268.1854
G01 X32.7257 Y268.1843
G01 X32.7732 Y268.1809
G01 X32.8204 Y268.1752
G01 X32.8674 Y268.1673
G01 X32.9139 Y268.1572
G01 X32.9599 Y268.1449
G01 X33.0052 Y268.1304
G01 X33.0498 Y268.1138
G01 X33.0935 Y268.0950
G01 X33.1364 Y268.0742
G01 X33.1781 Y268.0514
G01 X33.2188 Y268.0266
G01 X33.2582 Y268.0000
G01 X33.2963 Y267.9714
G01 X33.3330 Y267.9411
G01 X33.3682 Y267.9091
G01 X33.4019 Y267.8755
G01 X33.4339 Y267.8402
G01 X33.4642 Y267.8035
G01 X33.4927 Y267.7654
G01 X33.5194 Y267.7260
G01 X33.5441 Y267.6854
G01 X33.5670 Y267.6436
G01 X33.5878 Y267.6008
G01 X33.6065 Y267.5570
G01 X33.6231 Y267.5125
G01 X33.6376 Y267.4671
G01 X33.6499 Y267.4211
G01 X33.6601 Y267.3746
G01 X33.6679 Y267.3277
G01 X33.6736 Y267.2804
G01 X33.6770 Y267.2330
G01 X33.6781 Y267.1854
G01 X33.6889 Y267.1338 F1000
G01 X33.6969 Y267.0817
G01 X33.7023 Y267.0293
G01 X33.7050 Y266.9766
G01 Y266.9239
G01 X33.7022 Y266.8713
G01 X33.6968 Y266.8189
G01 X33.6886 Y266.7668
G01 X33.6769 Y266.7108
G01 X33.6623 Y266.6555
G01 X33.6450 Y266.6010
G01 X33.6248 Y266.5475
G01 X33.6020 Y266.4951
G01 X33.5765 Y266.4439
G01 X33.5484 Y266.3940
G01 X33.5178 Y266.3457
G01 X33.4822 Y266.2953
G01 X33.4441 Y266.2468
G01 X33.4035 Y266.2003
G01 X33.3607 Y266.1559
G01 X33.3156 Y266.1137
G01 X33.2685 Y266.0739
G01 X33.2194 Y266.0365
G01 X33.1684 Y266.0017
G01 X33.1119 Y265.9671
G01 X33.0538 Y265.9354
G01 X32.9941 Y265.9067
G01 X32.9330 Y265.8811
G01 X32.8707 Y265.8586
G01 X32.8074 Y265.8393
G01 X32.7431 Y265.8232
G01 X32.6781 Y265.8104
G01 X32.6081 Y265.8002
G01 X32.5376 Y265.7936
G01 X32.4669 Y265.7905
G01 X32.3962 Y265.7910
G01 X32.3255 Y265.7950
G01 X32.2552 Y265.8026
G01 X32.1853 Y265.8138
G01 X32.1161 Y265.8284
G01 X32.0479 Y265.8544
G01 X31.9811 Y265.8838
G01 X31.9158 Y265.9164
G01 X31.8522 Y265.9521
G01 X31.7905 Y265.9909
G01 X31.7307 Y266.0328
G01 X31.6731 Y266.0775
G01 X31.6177 Y266.1250
G01 X31.5670 Y266.1783
G01 X31.5189 Y266.2340
G01 X31.4736 Y266.2921
G01 X31.4312 Y266.3522
G01 X31.3919 Y266.4144
G01 X31.3556 Y266.4785
G01 X31.3225 Y266.5442
G01 X31.2927 Y266.6115
G01 X31.2662 Y266.6802
G01 X31.2431 Y266.7501
G01 X31.2234 Y266.8210
G01 X31.2073 Y266.8928
G01 X31.1947 Y266.9653
G01 X31.1857 Y267.0384
G01 X31.1803 Y267.1118
G01 X31.1785 Y267.1854
G01 X31.1803 Y267.2590
G01 X31.1857 Y267.3324
G01 X31.1947 Y267.4054
G01 X31.2073 Y267.4779
G01 X31.2234 Y267.5498
G01 X31.2431 Y267.6207
G01 X31.2662 Y267.6906
G01 X31.2927 Y267.7593
G01 X31.3225 Y267.8266
G01 X31.3556 Y267.8923
G01 X31.3919 Y267.9563
G01 X31.4312 Y268.0185
G01 X31.4736 Y268.0787
G01 X31.5189 Y268.1367
G01 X31.5670 Y268.1925
G01 X31.6177 Y268.2458
G01 X31.6710 Y268.2965
G01 X31.7268 Y268.3446
G01 X31.7848 Y268.3899
G01 X31.8450 Y268.4323
G01 X31.9072 Y268.4717
G01 X31.9712 Y268.5079
G01 X32.0370 Y268.5410
G01 X32.1042 Y268.5709
G01 X32.1729 Y268.5973
G01 X32.2428 Y268.6204
G01 X32.3137 Y268.6401
G01 X32.3856 Y268.6562
G01 X32.4581 Y268.6688
G01 X32.5311 Y268.6778
G01 X32.6045 Y268.6832
G01 X32.6781 Y268.6850
G01 X32.7517 Y268.6832
G01 X32.8251 Y268.6778
G01 X32.8982 Y268.6688
G01 X32.9707 Y268.6562
G01 X33.0425 Y268.6401
G01 X33.1134 Y268.6204
G01 X33.1833 Y268.5973
G01 X33.2520 Y268.5709
G01 X33.3193 Y268.5410
G01 X33.3850 Y268.5079
G01 X33.4491 Y268.4717
G01 X33.5113 Y268.4323
G01 X33.5714 Y268.3899
G01 X33.6295 Y268.3446
G01 X33.6852 Y268.2965
G01 X33.7385 Y268.2458
G01 X33.7893 Y268.1925
G01 X33.8373 Y268.1367
G01 X33.8826 Y268.0787
G01 X33.9250 Y268.0185
G01 X33.9644 Y267.9563
G01 X34.0007 Y267.8923
G01 X34.0338 Y267.8266
G01 X34.0636 Y267.7593
G01 X34.0901 Y267.6906
G01 X34.1132 Y267.6207
G01 X34.1328 Y267.5498
G01 X34.1489 Y267.4779
G01 X34.1615 Y267.4054
G01 X34.1705 Y267.3324
G01 X34.1759 Y267.2590
G01 X34.1777 Y267.1854
G01 X34.1736 Y267.0733
G01 X34.1610 Y266.9619
G01 X34.1401 Y266.8517
G01 X34.1111 Y266.7434
G01 X34.0741 Y266.6375
G01 X34.0292 Y266.5347
G01 X33.9768 Y266.4356
G01 X33.9172 Y266.3406
G01 X33.8506 Y266.2504
G01 X33.7774 Y266.1654
G01 X33.6981 Y266.0861
G01 X33.6131 Y266.0129
G01 X33.5229 Y265.9463
G01 X33.4279 Y265.8867
G01 X33.3288 Y265.8343
G01 X33.2260 Y265.7894
G01 X33.1201 Y265.7524
G01 X33.0118 Y265.7234
G01 X32.9016 Y265.7025
G01 X32.7902 Y265.6900
G01 X32.6781 Y265.6858
G01 X32.5661 Y265.6900
G01 X32.4546 Y265.7025
G01 X32.3444 Y265.7234
G01 X32.2361 Y265.7524
G01 X32.1303 Y265.7894
G01 X32.0275 Y265.8343
G01 X31.9283 Y265.8867
G01 X31.8334 Y265.9463
G01 X31.7431 Y266.0129
G01 X31.6581 Y266.0861
G01 X31.5788 Y266.1654
G01 X31.5057 Y266.2504
G01 X31.4391 Y266.3406
G01 X31.3794 Y266.4356
G01 X31.3270 Y266.5347
G01 X31.2822 Y266.6375
G01 X31.2451 Y266.7434
G01 X31.2161 Y266.8517
G01 X31.1953 Y266.9619
G01 X31.1827 Y267.0733
G01 X31.1785 Y267.1854
G01 X31.1827 Y267.2975
G01 X31.1953 Y267.4089
G01 X31.2161 Y267.5191
G01 X31.2451 Y267.6274
G01 X31.2822 Y267.7333
G01 X31.3270 Y267.8360
G01 X31.3794 Y267.9352
G01 X31.4391 Y268.0302
G01 X31.5057 Y268.1204
G01 X31.5788 Y268.2054
G01 X31.6581 Y268.2847
G01 X31.7431 Y268.3578
G01 X31.8334 Y268.4244
G01 X31.9283 Y268.4841
G01 X32.0275 Y268.5365
G01 X32.1303 Y268.5813
G01 X32.2361 Y268.6184
G01 X32.3444 Y268.6474
G01 X32.4546 Y268.6683
G01 X32.5661 Y268.6808
G01 X32.6781 Y268.6850
G01 X32.7902 Y268.6808
G01 X32.9016 Y268.6683
G01 X33.0118 Y268.6474
G01 X33.1201 Y268.6184
G01 X33.2260 Y268.5813
G01 X33.3288 Y268.5365
G01 X33.4279 Y268.4841
G01 X33.5229 Y268.4244
G01 X33.6131 Y268.3578
G01 X33.6981 Y268.2847
G01 X33.7774 Y268.2054
G01 X33.8506 Y268.1204
G01 X33.9172 Y268.0302
G01 X33.9768 Y267.9352
G01 X34.0292 Y267.8360
G01 X34.0741 Y267.7333
G01 X34.1111 Y267.6274
G01 X34.1401 Y267.5191
G01 X34.1610 Y267.4089
G01 X34.1736 Y267.2975
G01 X34.1777 Y267.1854
G01 X34.1739 Y267.0873
G01 X34.1624 Y266.9899
G01 X34.1432 Y266.8936
G01 X34.1166 Y266.7992
G01 X34.0826 Y266.7071
G01 X34.0415 Y266.6180
G01 X33.9936 Y266.5324
G01 X33.9391 Y266.4508
G01 X33.8783 Y266.3737
G01 X33.8117 Y266.3016
G01 X33.7396 Y266.2350
G01 X33.6626 Y266.1743
G01 X33.5810 Y266.1197
G01 X33.4953 Y266.0718
G01 X33.4062 Y266.0307
G01 X33.3141 Y265.9967
G01 X33.2197 Y265.9701
G01 X33.1234 Y265.9510
G01 X33.0260 Y265.9394
G01 X32.9279 Y265.9356
G01 X32.8299 Y265.9394
G01 X32.7324 Y265.9510
G01 X32.6362 Y265.9701
G01 X32.5417 Y265.9967
G01 X32.4497 Y266.0307
G01 X32.3605 Y266.0718
G01 X32.2749 Y266.1197
G01 X32.1933 Y266.1743
G01 X32.1162 Y266.2350
G01 X32.0442 Y266.3016
G01 X31.9776 Y266.3737
G01 X31.9168 Y266.4508
G01 X31.8623 Y266.5324
G01 X31.8143 Y266.6180
G01 X31.7733 Y266.7071
G01 X31.7393 Y266.7992
G01 X31.7127 Y266.8936
G01 X31.6935 Y266.9899
G01 X31.6820 Y267.0873
G01 X31.6781 Y267.1854
G01 X31.6819 Y267.2725
G01 X31.6933 Y267.3590
G01 X31.7122 Y267.4442
G01 X31.7384 Y267.5274
G01 X31.7718 Y267.6080
G01 X31.8121 Y267.6854
G01 X31.8590 Y267.7590
G01 X31.9121 Y267.8282
G01 X31.9710 Y267.8925
G01 X32.0353 Y267.9514
G01 X32.1045 Y268.0045
G01 X32.1781 Y268.0514
G01 X32.2555 Y268.0917
G01 X32.3361 Y268.1251
G01 X32.4193 Y268.1513
G01 X32.5045 Y268.1702
G01 X32.5910 Y268.1816
G01 X32.6781 Y268.1854
G01 X32.7653 Y268.1816
G01 X32.8518 Y268.1702
G01 X32.9369 Y268.1513
G01 X33.0201 Y268.1251
G01 X33.1007 Y268.0917
G01 X33.1781 Y268.0514
G01 X33.2517 Y268.0045
G01 X33.3209 Y267.9514
G01 X33.3852 Y267.8925
G01 X33.4442 Y267.8282
G01 X33.4973 Y267.7590
G01 X33.5441 Y267.6854
G01 X33.5844 Y267.6080
G01 X33.6178 Y267.5274
G01 X33.6441 Y267.4442
G01 X33.6629 Y267.3590
G01 X33.6743 Y267.2725
G01 X33.6781 Y267.1854
M107
M106 S240
G01 X33.6743 Y267.0982 Z-2.7726 F400
G01 X33.6629 Y267.0117 Z-2.7951
G01 X33.6441 Y266.9266 Z-2.8177
G01 X33.6178 Y266.8434 Z-2.8403
G01 X33.5844 Y266.7628 Z-2.8628
G01 X33.5441 Y266.6854 Z-2.8854
G01 X33.4973 Y266.6118 Z-2.9080
G01 X33.4442 Y266.5426 Z-2.9306
G01 X33.3852 Y266.4783 Z-2.9531
G01 X33.3209 Y266.4193 Z-2.9757
G01 X33.2517 Y266.3662 Z-2.9983
G01 X33.1781 Y266.3194 Z-3.0208
G01 X33.1007 Y266.2791 Z-3.0434
G01 X33.0201 Y266.2457 Z-3.0660
G01 X32.9369 Y266.2195 Z-3.0885
G01 X32.8518 Y266.2006 Z-3.1111
G01 X32.7653 Y266.1892 Z-3.1337
G01 X32.6781 Y266.1854 Z-3.1563
G01 X32.5910 Y266.1892 Z-3.1788
G01 X32.5045 Y266.2006 Z-3.2014
G01 X32.4193 Y266.2195 Z-3.2240
G01 X32.3361 Y266.2457 Z-3.2465
G01 X32.2555 Y266.2791 Z-3.2691
G01 X32.1781 Y266.3194 Z-3.2917
G01 X32.1375 Y266.3441 Z-3.3040
G01 X32.0981 Y266.3708 Z-3.3163
G01 X32.0600 Y266.3993 Z-3.3286
G01 X32.0233 Y266.4296 Z-3.3409
G01 X31.9880 Y266.4617 Z-3.3532
G01 X31.9544 Y266.4953 Z-3.3655
G01 X31.9224 Y266.5305 Z-3.3778
G01 X31.8921 Y266.5672 Z-3.3902
G01 X31.8635 Y266.6053 Z-3.4025
G01 X31.8369 Y266.6447 Z-3.4148
G01 X31.8121 Y266.6854 Z-3.4271
G01 X31.7893 Y266.7272 Z-3.4394
G01 X31.7685 Y266.7700 Z-3.4517
G01 X31.7498 Y266.8137 Z-3.4640
G01 X31.7331 Y266.8583 Z-3.4763
G01 X31.7186 Y266.9037 Z-3.4886
G01 X31.7063 Y266.9496 Z-3.5009
G01 X31.6962 Y266.9961 Z-3.5133
G01 X31.6883 Y267.0431 Z-3.5256
G01 X31.6827 Y267.0903 Z-3.5379
G01 X31.6793 Y267.1378 Z-3.5502
G01 X31.6781 Y267.1854 Z-3.5625
G01 X31.6793 Y267.2330 Z-3.5748
G01 X31.6827 Y267.2804 Z-3.5871
G01 X31.6883 Y267.3277 Z-3.5994
G01 X31.6962 Y267.3746 Z-3.6117
G01 X31.7063 Y267.4211 Z-3.6241
G01 X31.7186 Y267.4671 Z-3.6364
G01 X31.7331 Y267.5125 Z-3.6487
G01 X31.7498 Y267.5570 Z-3.6610
G01 X31.7685 Y267.6008 Z-3.6733
G01 X31.7893 Y267.6436 Z-3.6856
G01 X31.8121 Y267.6854 Z-3.6979
G01 X31.8369 Y267.7260 Z-3.7102
G01 X31.8635 Y267.7654 Z-3.7225
G01 X31.8921 Y267.8035 Z-3.7348
G01 X31.9224 Y267.8402 Z-3.7472
G01 X31.9544 Y267.8755 Z-3.7595
G01 X31.9880 Y267.9091 Z-3.7718
G01 X32.0233 Y267.9411 Z-3.7841
G01 X32.0600 Y267.9714 Z-3.7964
G01 X32.0981 Y268.0000 Z-3.8087
G01 X32.1375 Y268.0266 Z-3.8210
G01 X32.1781 Y268.0514 Z-3.8333
G01 X32.2199 Y268.0742 Z-3.8456
G01 X32.2627 Y268.0950 Z-3.8580
G01 X32.3065 Y268.1138 Z-3.8703
G01 X32.3511 Y268.1304 Z-3.8826
G01 X32.3964 Y268.1449 Z-3.8949
G01 X32.4424 Y268.1572 Z-3.9072
G01 X32.4889 Y268.1673 Z-3.9195
G01 X32.5358 Y268.1752 Z-3.9318
G01 X32.5831 Y268.1809 Z-3.9441
G01 X32.6305 Y268.1843 Z-3.9564
G01 X32.6781 Y268.1854 Z-3.9688
G01 X32.7257 Y268.1843 Z-3.9811
G01 X32.7732 Y268.1809 Z-3.9934
G01 X32.8204 Y268.1752 Z-4.0057
G01 X32.8674 Y268.1673 Z-4.0180
G01 X32.9139 Y268.1572 Z-4.0303
G01 X32.9599 Y268.1449 Z-4.0426
G01 X33.0052 Y268.1304 Z-4.0549
G01 X33.0498 Y268.1138 Z-4.0672
G01 X33.0935 Y268.0950 Z-4.0795
G01 X33.1364 Y268.0742 Z-4.0919
G01 X33.1781 Y268.0514 Z-4.1042
G01 X33.2188 Y268.0266 Z-4.1165
G01 X33.2582 Y268.0000 Z-4.1288
G01 X33.2963 Y267.9714 Z-4.1411
G01 X33.3330 Y267.9411 Z-4.1534
G01 X33.3682 Y267.9091 Z-4.1657
G01 X33.4019 Y267.8755 Z-4.1780
G01 X33.4339 Y267.8402 Z-4.1903
G01 X33.4642 Y267.8035 Z-4.2027
G01 X33.4927 Y267.7654 Z-4.2150
G01 X33.5194 Y267.7260 Z-4.2273
G01 X33.5441 Y267.6854 Z-4.2396
G01 X33.5670 Y267.6436 Z-4.2519
G01 X33.5878 Y267.6008 Z-4.2642
G01 X33.6065 Y267.5570 Z-4.2765
G01 X33.6231 Y267.5125 Z-4.2888
G01 X33.6376 Y267.4671 Z-4.3011
G01 X33.6499 Y267.4211 Z-4.3134
G01 X33.6601 Y267.3746 Z-4.3258
G01 X33.6679 Y267.3277 Z-4.3381
G01 X33.6736 Y267.2804 Z-4.3504
G01 X33.6770 Y267.2330 Z-4.3627
G01 X33.6781 Y267.1854 Z-4.3750
G01 X33.6743 Y267.0982
G01 X33.6629 Y267.0117
G01 X33.6441 Y266.9266
G01 X33.6178 Y266.8434
G01 X33.5844 Y266.7628
G01 X33.5441 Y266.6854
G01 X33.4973 Y266.6118
G01 X33.4442 Y266.5426
G01 X33.3852 Y266.4783
G01 X33.3209 Y266.4193
G01 X33.2517 Y266.3662
G01 X33.1781 Y266.3194
G01 X33.1007 Y266.2791
G01 X33.0201 Y266.2457
G01 X32.9369 Y266.2195
G01 X32.8518 Y266.2006
G01 X32.7653 Y266.1892
G01 X32.6781 Y266.1854
G01 X32.5910 Y266.1892
G01 X32.5045 Y266.2006
G01 X32.4193 Y266.2195
G01 X32.3361 Y266.2457
G01 X32.2555 Y266.2791
G01 X32.1781 Y266.3194
G01 X32.1375 Y266.3441
G01 X32.0981 Y266.3708
G01 X32.0600 Y266.3993
G01 X32.0233 Y266.4296
G01 X31.9880 Y266.4617
G01 X31.9544 Y266.4953
G01 X31.9224 Y266.5305
G01 X31.8921 Y266.5672
G01 X31.8635 Y266.6053
G01 X31.8369 Y266.6447
G01 X31.8121 Y266.6854
G01 X31.7893 Y266.7272
G01 X31.7685 Y266.7700
G01 X31.7498 Y266.8137
G01 X31.7331 Y266.8583
G01 X31.7186 Y266.9037
G01 X31.7063 Y266.9496
G01 X31.6962 Y266.9961
G01 X31.6883 Y267.0431
G01 X31.6827 Y267.0903
G01 X31.6793 Y267.1378
G01 X31.6781 Y267.1854
G01 X31.6793 Y267.2330
G01 X31.6827 Y267.2804
G01 X31.6883 Y267.3277
G01 X31.6962 Y267.3746
G01 X31.7063 Y267.4211
G01 X31.7186 Y267.4671
G01 X31.7331 Y267.5125
G01 X31.7498 Y267.5570
G01 X31.7685 Y267.6008
G01 X31.7893 Y267.6436
G01 X31.8121 Y267.6854
G01 X31.8369 Y267.7260
G01 X31.8635 Y267.7654
G01 X31.8921 Y267.8035
G01 X31.9224 Y267.8402
G01 X31.9544 Y267.8755
G01 X31.9880 Y267.9091
G01 X32.0233 Y267.9411
G01 X32.0600 Y267.9714
G01 X32.0981 Y268.0000
G01 X32.1375 Y268.0266
G01 X32.1781 Y268.0514
G01 X32.2199 Y268.0742
G01 X32.2627 Y268.0950
G01 X32.3065 Y268.1138
G01 X32.3511 Y268.1304
G01 X32.3964 Y268.1449
G01 X32.4424 Y268.1572
G01 X32.4889 Y268.1673
G01 X32.5358 Y268.1752
G01 X32.5831 Y268.1809
G01 X32.6305 Y268.1843
G01 X32.6781 Y268.1854
G01 X32.7257 Y268.1843
G01 X32.7732 Y268.1809
G01 X32.8204 Y268.1752
G01 X32.8674 Y268.1673
G01 X32.9139 Y268.1572
G01 X32.9599 Y268.1449
G01 X33.0052 Y268.1304
G01 X33.0498 Y268.1138
G01 X33.0935 Y268.0950
G01 X33.1364 Y268.0742
G01 X33.1781 Y268.0514
G01 X33.2188 Y268.0266
G01 X33.2582 Y268.0000
G01 X33.2963 Y267.9714
G01 X33.3330 Y267.9411
G01 X33.3682 Y267.9091
G01 X33.4019 Y267.8755
G01 X33.4339 Y267.8402
G01 X33.4642 Y267.8035
G01 X33.4927 Y267.7654
G01 X33.5194 Y267.7260
G01 X33.5441 Y267.6854
G01 X33.5670 Y267.6436
G01 X33.5878 Y267.6008
G01 X33.6065 Y267.5570
G01 X33.6231 Y267.5125
G01 X33.6376 Y267.4671
G01 X33.6499 Y267.4211
G01 X33.6601 Y267.3746
G01 X33.6679 Y267.3277
G01 X33.6736 Y267.2804
G01 X33.6770 Y267.2330
G01 X33.6781 Y267.1854
G01 X33.6889 Y267.1338 F1000
G01 X33.6969 Y267.0817
G01 X33.7023 Y267.0293
G01 X33.7050 Y266.9766
G01 Y266.9239
G01 X33.7022 Y266.8713
G01 X33.6968 Y266.8189
G01 X33.6886 Y266.7668
G01 X33.6769 Y266.7108
G01 X33.6623 Y266.6555
G01 X33.6450 Y266.6010
G01 X33.6248 Y266.5475
G01 X33.6020 Y266.4951
G01 X33.5765 Y266.4439
G01 X33.5484 Y266.3940
G01 X33.5178 Y266.3457
G01 X33.4822 Y266.2953
G01 X33.4441 Y266.2468
G01 X33.4035 Y266.2003
G01 X33.3607 Y266.1559
G01 X33.3156 Y266.1137
G01 X33.2685 Y266.0739
G01 X33.2194 Y266.0365
G01 X33.1684 Y266.0017
G01 X33.1119 Y265.9671
G01 X33.0538 Y265.9354
G01 X32.9941 Y265.9067
G01 X32.9330 Y265.8811
G01 X32.8707 Y265.8586
G01 X32.8074 Y265.8393
G01 X32.7431 Y265.8232
G01 X32.6781 Y265.8104
G01 X32.6081 Y265.8002
G01 X32.5376 Y265.7936
G01 X32.4669 Y265.7905
G01 X32.3962 Y265.7910
G01 X32.3255 Y265.7950
G01 X32.2552 Y265.8026
G01 X32.1853 Y265.8138
G01 X32.1161 Y265.8284
G01 X32.0479 Y265.8544
G01 X31.9811 Y265.8838
G01 X31.9158 Y265.9164
G01 X31.8522 Y265.9521
G01 X31.7905 Y265.9909
G01 X31.7307 Y266.0328
G01 X31.6731 Y266.0775
G01 X31.6177 Y266.1250
G01 X31.5670 Y266.1783
G01 X31.5189 Y266.2340
G01 X31.4736 Y266.2921
G01 X31.4312 Y266.3522
G01 X31.3919 Y266.4144
G01 X31.3556 Y266.4785
G01 X31.3225 Y266.5442
G01 X31.2927 Y266.6115
G01 X31.2662 Y266.6802
G01 X31.2431 Y266.7501
G01 X31.2234 Y266.8210
G01 X31.2073 Y266.8928
G01 X31.1947 Y266.9653
G01 X31.1857 Y267.0384
G01 X31.1803 Y267.1118
G01 X31.1785 Y267.1854
G01 X31.1803 Y267.2590
G01 X31.1857 Y267.3324
G01 X31.1947 Y267.4054
G01 X31.2073 Y267.4779
G01 X31.2234 Y267.5498
G01 X31.2431 Y267.6207
G01 X31.2662 Y267.6906
G01 X31.2927 Y267.7593
G01 X31.3225 Y267.8266
G01 X31.3556 Y267.8923
G01 X31.3919 Y267.9563
G01 X31.4312 Y268.0185
G01 X31.4736 Y268.0787
G01 X31.5189 Y268.1367
G01 X31.5670 Y268.1925
G01 X31.6177 Y268.2458
G01 X31.6710 Y268.2965
G01 X31.7268 Y268.3446
G01 X31.7848 Y268.3899
G01 X31.8450 Y268.4323
G01 X31.9072 Y268.4717
G01 X31.9712 Y268.5079
G01 X32.0370 Y268.5410
G01 X32.1042 Y268.5709
G01 X32.1729 Y268.5973
G01 X32.2428 Y268.6204
G01 X32.3137 Y268.6401
G01 X32.3856 Y268.6562
G01 X32.4581 Y268.6688
G01 X32.5311 Y268.6778
G01 X32.6045 Y268.6832
G01 X32.6781 Y268.6850
G01 X32.7517 Y268.6832
G01 X32.8251 Y268.6778
G01 X32.8982 Y268.6688
G01 X32.9707 Y268.6562
G01 X33.0425 Y268.6401
G01 X33.1134 Y268.6204
G01 X33.1833 Y268.5973
G01 X33.2520 Y268.5709
G01 X33.3193 Y268.5410
G01 X33.3850 Y268.5079
G01 X33.4491 Y268.4717
G01 X33.5113 Y268.4323
G01 X33.5714 Y268.3899
G01 X33.6295 Y268.3446
G01 X33.6852 Y268.2965
G01 X33.7385 Y268.2458
G01 X33.7893 Y268.1925
G01 X33.8373 Y268.1367
G01 X33.8826 Y268.0787
G01 X33.9250 Y268.0185
G01 X33.9644 Y267.9563
G01 X34.0007 Y267.8923
G01 X34.0338 Y267.8266
G01 X34.0636 Y267.7593
G01 X34.0901 Y267.6906
G01 X34.1132 Y267.6207
G01 X34.1328 Y267.5498
G01 X34.1489 Y267.4779
G01 X34.1615 Y267.4054
G01 X34.1705 Y267.3324
G01 X34.1759 Y267.2590
G01 X34.1777 Y267.1854
G01 X34.1736 Y267.0733
G01 X34.1610 Y266.9619
G01 X34.1401 Y266.8517
G01 X34.1111 Y266.7434
G01 X34.0741 Y266.6375
G01 X34.0292 Y266.5347
G01 X33.9768 Y266.4356
G01 X33.9172 Y266.3406
G01 X33.8506 Y266.2504
G01 X33.7774 Y266.1654
G01 X33.6981 Y266.0861
G01 X33.6131 Y266.0129
G01 X33.5229 Y265.9463
G01 X33.4279 Y265.8867
G01 X33.3288 Y265.8343
G01 X33.2260 Y265.7894
G01 X33.1201 Y265.7524
G01 X33.0118 Y265.7234
G01 X32.9016 Y265.7025
G01 X32.7902 Y265.6900
G01 X32.6781 Y265.6858
G01 X32.5661 Y265.6900
G01 X32.4546 Y265.7025
G01 X32.3444 Y265.7234
G01 X32.2361 Y265.7524
G01 X32.1303 Y265.7894
G01 X32.0275 Y265.8343
G01 X31.9283 Y265.8867
G01 X31.8334 Y265.9463
G01 X31.7431 Y266.0129
G01 X31.6581 Y266.0861
G01 X31.5788 Y266.1654
G01 X31.5057 Y266.2504
G01 X31.4391 Y266.3406
G01 X31.3794 Y266.4356
G01 X31.3270 Y266.5347
G01 X31.2822 Y266.6375
G01 X31.2451 Y266.7434
G01 X31.2161 Y266.8517
G01 X31.1953 Y266.9619
G01 X31.1827 Y267.0733
G01 X31.1785 Y267.1854
G01 X31.1827 Y267.2975
G01 X31.1953 Y267.4089
G01 X31.2161 Y267.5191
G01 X31.2451 Y267.6274
G01 X31.2822 Y267.7333
G01 X31.3270 Y267.8360
G01 X31.3794 Y267.9352
G01 X31.4391 Y268.0302
G01 X31.5057 Y268.1204
G01 X31.5788 Y268.2054
G01 X31.6581 Y268.2847
G01 X31.7431 Y268.3578
G01 X31.8334 Y268.4244
G01 X31.9283 Y268.4841
G01 X32.0275 Y268.5365
G01 X32.1303 Y268.5813
G01 X32.2361 Y268.6184
G01 X32.3444 Y268.6474
G01 X32.4546 Y268.6683
G01 X32.5661 Y268.6808
G01 X32.6781 Y268.6850
G01 X32.7902 Y268.6808
G01 X32.9016 Y268.6683
G01 X33.0118 Y268.6474
G01 X33.1201 Y268.6184
G01 X33.2260 Y268.5813
G01 X33.3288 Y268.5365
G01 X33.4279 Y268.4841
G01 X33.5229 Y268.4244
G01 X33.6131 Y268.3578
G01 X33.6981 Y268.2847
G01 X33.7774 Y268.2054
G01 X33.8506 Y268.1204
G01 X33.9172 Y268.0302
G01 X33.9768 Y267.9352
G01 X34.0292 Y267.8360
G01 X34.0741 Y267.7333
G01 X34.1111 Y267.6274
G01 X34.1401 Y267.5191
G01 X34.1610 Y267.4089
G01 X34.1736 Y267.2975
G01 X34.1777 Y267.1854
G01 X34.1739 Y267.0873
G01 X34.1624 Y266.9899
G01 X34.1432 Y266.8936
G01 X34.1166 Y266.7992
G01 X34.0826 Y266.7071
G01 X34.0415 Y266.6180
G01 X33.9936 Y266.5324
G01 X33.9391 Y266.4508
G01 X33.8783 Y266.3737
G01 X33.8117 Y266.3016
G01 X33.7396 Y266.2350
G01 X33.6626 Y266.1743
G01 X33.5810 Y266.1197
G01 X33.4953 Y266.0718
G01 X33.4062 Y266.0307
G01 X33.3141 Y265.9967
G01 X33.2197 Y265.9701
G01 X33.1234 Y265.9510
G01 X33.0260 Y265.9394
G01 X32.9279 Y265.9356
G01 X32.8299 Y265.9394
G01 X32.7324 Y265.9510
G01 X32.6362 Y265.9701
G01 X32.5417 Y265.9967
G01 X32.4497 Y266.0307
G01 X32.3605 Y266.0718
G01 X32.2749 Y266.1197
G01 X32.1933 Y266.1743
G01 X32.1162 Y266.2350
G01 X32.0442 Y266.3016
G01 X31.9776 Y266.3737
G01 X31.9168 Y266.4508
G01 X31.8623 Y266.5324
G01 X31.8143 Y266.6180
G01 X31.7733 Y266.7071
G01 X31.7393 Y266.7992
G01 X31.7127 Y266.8936
G01 X31.6935 Y266.9899
G01 X31.6820 Y267.0873
G01 X31.6781 Y267.1854
G01 X31.6819 Y267.2725
G01 X31.6933 Y267.3590
G01 X31.7122 Y267.4442
G01 X31.7384 Y267.5274
G01 X31.7718 Y267.6080
G01 X31.8121 Y267.6854
G01 X31.8590 Y267.7590
G01 X31.9121 Y267.8282
G01 X31.9710 Y267.8925
G01 X32.0353 Y267.9514
G01 X32.1045 Y268.0045
G01 X32.1781 Y268.0514
G01 X32.2555 Y268.0917
G01 X32.3361 Y268.1251
G01 X32.4193 Y268.1513
G01 X32.5045 Y268.1702
G01 X32.5910 Y268.1816
G01 X32.6781 Y268.1854
G01 X32.7653 Y268.1816
G01 X32.8518 Y268.1702
G01 X32.9369 Y268.1513
G01 X33.0201 Y268.1251
G01 X33.1007 Y268.0917
G01 X33.1781 Y268.0514
G01 X33.2517 Y268.0045
G01 X33.3209 Y267.9514
G01 X33.3852 Y267.8925
G01 X33.4442 Y267.8282
G01 X33.4973 Y267.7590
G01 X33.5441 Y267.6854
G01 X33.5844 Y267.6080
G01 X33.6178 Y267.5274
G01 X33.6441 Y267.4442
G01 X33.6629 Y267.3590
G01 X33.6743 Y267.2725
G01 X33.6781 Y267.1854
M107
M106 S240
G01 X33.6743 Y267.0982 Z-4.3976 F400
G01 X33.6629 Y267.0117 Z-4.4201
G01 X33.6441 Y266.9266 Z-4.4427
G01 X33.6178 Y266.8434 Z-4.4653
G01 X33.5844 Y266.7628 Z-4.4878
G01 X33.5441 Y266.6854 Z-4.5104
G01 X33.4973 Y266.6118 Z-4.5330
G01 X33.4442 Y266.5426 Z-4.5556
G01 X33.3852 Y266.4783 Z-4.5781
G01 X33.3209 Y266.4193 Z-4.6007
G01 X33.2517 Y266.3662 Z-4.6233
G01 X33.1781 Y266.3194 Z-4.6458
G01 X33.1007 Y266.2791 Z-4.6684
G01 X33.0201 Y266.2457 Z-4.6910
G01 X32.9369 Y266.2195 Z-4.7135
G01 X32.8518 Y266.2006 Z-4.7361
G01 X32.7653 Y266.1892 Z-4.7587
G01 X32.6781 Y266.1854 Z-4.7813
G01 X32.5910 Y266.1892 Z-4.8038
G01 X32.5045 Y266.2006 Z-4.8264
G01 X32.4193 Y266.2195 Z-4.8490
G01 X32.3361 Y266.2457 Z-4.8715
G01 X32.2555 Y266.2791 Z-4.8941
G01 X32.1781 Y266.3194 Z-4.9167
G01 X32.1375 Y266.3441 Z-4.9290
G01 X32.0981 Y266.3708 Z-4.9413
G01 X32.0600 Y266.3993 Z-4.9536
G01 X32.0233 Y266.4296 Z-4.9659
G01 X31.9880 Y266.4617 Z-4.9782
G01 X31.9544 Y266.4953 Z-4.9905
G01 X31.9224 Y266.5305 Z-5.0028
G01 X31.8921 Y266.5672 Z-5.0152
G01 X31.8635 Y266.6053 Z-5.0275
G01 X31.8369 Y266.6447 Z-5.0398
G01 X31.8121 Y266.6854 Z-5.0521
G01 X31.7893 Y266.7272 Z-5.0644
G01 X31.7685 Y266.7700 Z-5.0767
G01 X31.7498 Y266.8137 Z-5.0890
G01 X31.7331 Y266.8583 Z-5.1013
G01 X31.7186 Y266.9037 Z-5.1136
G01 X31.7063 Y266.9496 Z-5.1259
G01 X31.6962 Y266.9961 Z-5.1383
G01 X31.6883 Y267.0431 Z-5.1506
G01 X31.6827 Y267.0903 Z-5.1629
G01 X31.6793 Y267.1378 Z-5.1752
G01 X31.6781 Y267.1854 Z-5.1875
G01 X31.6793 Y267.2330 Z-5.1998
G01 X31.6827 Y267.2804 Z-5.2121
G01 X31.6883 Y267.3277 Z-5.2244
G01 X31.6962 Y267.3746 Z-5.2367
G01 X31.7063 Y267.4211 Z-5.2491
G01 X31.7186 Y267.4671 Z-5.2614
G01 X31.7331 Y267.5125 Z-5.2737
G01 X31.7498 Y267.5570 Z-5.2860
G01 X31.7685 Y267.6008 Z-5.2983
G01 X31.7893 Y267.6436 Z-5.3106
G01 X31.8121 Y267.6854 Z-5.3229
G01 X31.8369 Y267.7260 Z-5.3352
G01 X31.8635 Y267.7654 Z-5.3475
G01 X31.8921 Y267.8035 Z-5.3598
G01 X31.9224 Y267.8402 Z-5.3722
G01 X31.9544 Y267.8755 Z-5.3845
G01 X31.9880 Y267.9091 Z-5.3968
G01 X32.0233 Y267.9411 Z-5.4091
G01 X32.0600 Y267.9714 Z-5.4214
G01 X32.0981 Y268.0000 Z-5.4337
G01 X32.1375 Y268.0266 Z-5.4460
G01 X32.1781 Y268.0514 Z-5.4583
G01 X32.2199 Y268.0742 Z-5.4706
G01 X32.2627 Y268.0950 Z-5.4830
G01 X32.3065 Y268.1138 Z-5.4953
G01 X32.3511 Y268.1304 Z-5.5076
G01 X32.3964 Y268.1449 Z-5.5199
G01 X32.4424 Y268.1572 Z-5.5322
G01 X32.4889 Y268.1673 Z-5.5445
G01 X32.5358 Y268.1752 Z-5.5568
G01 X32.5831 Y268.1809 Z-5.5691
G01 X32.6305 Y268.1843 Z-5.5814
G01 X32.6781 Y268.1854 Z-5.5938
G01 X32.7257 Y268.1843 Z-5.6061
G01 X32.7732 Y268.1809 Z-5.6184
G01 X32.8204 Y268.1752 Z-5.6307
G01 X32.8674 Y268.1673 Z-5.6430
G01 X32.9139 Y268.1572 Z-5.6553
G01 X32.9599 Y268.1449 Z-5.6676
G01 X33.0052 Y268.1304 Z-5.6799
G01 X33.0498 Y268.1138 Z-5.6922
G01 X33.0935 Y268.0950 Z-5.7045
G01 X33.1364 Y268.0742 Z-5.7169
G01 X33.1781 Y268.0514 Z-5.7292
G01 X33.2188 Y268.0266 Z-5.7415
G01 X33.2582 Y268.0000 Z-5.7538
G01 X33.2963 Y267.9714 Z-5.7661
G01 X33.3330 Y267.9411 Z-5.7784
G01 X33.3682 Y267.9091 Z-5.7907
G01 X33.4019 Y267.8755 Z-5.8030
G01 X33.4339 Y267.8402 Z-5.8153
G01 X33.4642 Y267.8035 Z-5.8277
G01 X33.4927 Y267.7654 Z-5.8400
G01 X33.5194 Y267.7260 Z-5.8523
G01 X33.5441 Y267.6854 Z-5.8646
G01 X33.5670 Y267.6436 Z-5.8769
G01 X33.5878 Y267.6008 Z-5.8892
G01 X33.6065 Y267.5570 Z-5.9015
G01 X33.6231 Y267.5125 Z-5.9138
G01 X33.6376 Y267.4671 Z-5.9261
G01 X33.6499 Y267.4211 Z-5.9384
G01 X33.6601 Y267.3746 Z-5.9508
G01 X33.6679 Y267.3277 Z-5.9631
G01 X33.6736 Y267.2804 Z-5.9754
G01 X33.6770 Y267.2330 Z-5.9877
G01 X33.6781 Y267.1854 Z-6.0000
G01 X33.6743 Y267.0982
G01 X33.6629 Y267.0117
G01 X33.6441 Y266.9266
G01 X33.6178 Y266.8434
G01 X33.5844 Y266.7628
G01 X33.5441 Y266.6854
G01 X33.4973 Y266.6118
G01 X33.4442 Y266.5426
G01 X33.3852 Y266.4783
G01 X33.3209 Y266.4193
G01 X33.2517 Y266.3662
G01 X33.1781 Y266.3194
G01 X33.1007 Y266.2791
G01 X33.0201 Y266.2457
G01 X32.9369 Y266.2195
G01 X32.8518 Y266.2006
G01 X32.7653 Y266.1892
G01 X32.6781 Y266.1854
G01 X32.5910 Y266.1892
G01 X32.5045 Y266.2006
G01 X32.4193 Y266.2195
G01 X32.3361 Y266.2457
G01 X32.2555 Y266.2791
G01 X32.1781 Y266.3194
G01 X32.1375 Y266.3441
G01 X32.0981 Y266.3708
G01 X32.0600 Y266.3993
G01 X32.0233 Y266.4296
G01 X31.9880 Y266.4617
G01 X31.9544 Y266.4953
G01 X31.9224 Y266.5305
G01 X31.8921 Y266.5672
G01 X31.8635 Y266.6053
G01 X31.8369 Y266.6447
G01 X31.8121 Y266.6854
G01 X31.7893 Y266.7272
G01 X31.7685 Y266.7700
G01 X31.7498 Y266.8137
G01 X31.7331 Y266.8583
G01 X31.7186 Y266.9037
G01 X31.7063 Y266.9496
G01 X31.6962 Y266.9961
G01 X31.6883 Y267.0431
G01 X31.6827 Y267.0903
G01 X31.6793 Y267.1378
G01 X31.6781 Y267.1854
G01 X31.6793 Y267.2330
G01 X31.6827 Y267.2804
G01 X31.6883 Y267.3277
G01 X31.6962 Y267.3746
G01 X31.7063 Y267.4211
G01 X31.7186 Y267.4671
G01 X31.7331 Y267.5125
G01 X31.7498 Y267.5570
G01 X31.7685 Y267.6008
G01 X31.7893 Y267.6436
G01 X31.8121 Y267.6854
G01 X31.8369 Y267.7260
G01 X31.8635 Y267.7654
G01 X31.8921 Y267.8035
G01 X31.9224 Y267.8402
G01 X31.9544 Y267.8755
G01 X31.9880 Y267.9091
G01 X32.0233 Y267.9411
G01 X32.0600 Y267.9714
G01 X32.0981 Y268.0000
G01 X32.1375 Y268.0266
G01 X32.1781 Y268.0514
G01 X32.2199 Y268.0742
G01 X32.2627 Y268.0950
G01 X32.3065 Y268.1138
G01 X32.3511 Y268.1304
G01 X32.3964 Y268.1449
G01 X32.4424 Y268.1572
G01 X32.4889 Y268.1673
G01 X32.5358 Y268.1752
G01 X32.5831 Y268.1809
G01 X32.6305 Y268.1843
G01 X32.6781 Y268.1854
G01 X32.7257 Y268.1843
G01 X32.7732 Y268.1809
G01 X32.8204 Y268.1752
G01 X32.8674 Y268.1673
G01 X32.9139 Y268.1572
G01 X32.9599 Y268.1449
G01 X33.0052 Y268.1304
G01 X33.0498 Y268.1138
G01 X33.0935 Y268.0950
G01 X33.1364 Y268.0742
G01 X33.1781 Y268.0514
G01 X33.2188 Y268.0266
G01 X33.2582 Y268.0000
G01 X33.2963 Y267.9714
G01 X33.3330 Y267.9411
G01 X33.3682 Y267.9091
G01 X33.4019 Y267.8755
G01 X33.4339 Y267.8402
G01 X33.4642 Y267.8035
G01 X33.4927 Y267.7654
G01 X33.5194 Y267.7260
G01 X33.5441 Y267.6854
G01 X33.5670 Y267.6436
G01 X33.5878 Y267.6008
G01 X33.6065 Y267.5570
G01 X33.6231 Y267.5125
G01 X33.6376 Y267.4671
G01 X33.6499 Y267.4211
G01 X33.6601 Y267.3746
G01 X33.6679 Y267.3277
G01 X33.6736 Y267.2804
G01 X33.6770 Y267.2330
G01 X33.6781 Y267.1854
G01 X33.6889 Y267.1338 F1000
G01 X33.6969 Y267.0817
G01 X33.7023 Y267.0293
G01 X33.7050 Y266.9766
G01 Y266.9239
G01 X33.7022 Y266.8713
G01 X33.6968 Y266.8189
G01 X33.6886 Y266.7668
G01 X33.6769 Y266.7108
G01 X33.6623 Y266.6555
G01 X33.6450 Y266.6010
G01 X33.6248 Y266.5475
G01 X33.6020 Y266.4951
G01 X33.5765 Y266.4439
G01 X33.5484 Y266.3940
G01 X33.5178 Y266.3457
G01 X33.4822 Y266.2953
G01 X33.4441 Y266.2468
G01 X33.4035 Y266.2003
G01 X33.3607 Y266.1559
G01 X33.3156 Y266.1137
G01 X33.2685 Y266.0739
G01 X33.2194 Y266.0365
G01 X33.1684 Y266.0017
G01 X33.1119 Y265.9671
G01 X33.0538 Y265.9354
G01 X32.9941 Y265.9067
G01 X32.9330 Y265.8811
G01 X32.8707 Y265.8586
G01 X32.8074 Y265.8393
G01 X32.7431 Y265.8232
G01 X32.6781 Y265.8104
G01 X32.6081 Y265.8002
G01 X32.5376 Y265.7936
G01 X32.4669 Y265.7905
G01 X32.3962 Y265.7910
G01 X32.3255 Y265.7950
G01 X32.2552 Y265.8026
G01 X32.1853 Y265.8138
G01 X32.1161 Y265.8284
G01 X32.0479 Y265.8544
G01 X31.9811 Y265.8838
G01 X31.9158 Y265.9164
G01 X31.8522 Y265.9521
G01 X31.7905 Y265.9909
G01 X31.7307 Y266.0328
G01 X31.6731 Y266.0775
G01 X31.6177 Y266.1250
G01 X31.5670 Y266.1783
G01 X31.5189 Y266.2340
G01 X31.4736 Y266.2921
G01 X31.4312 Y266.3522
G01 X31.3919 Y266.4144
G01 X31.3556 Y266.4785
G01 X31.3225 Y266.5442
G01 X31.2927 Y266.6115
G01 X31.2662 Y266.6802
G01 X31.2431 Y266.7501
G01 X31.2234 Y266.8210
G01 X31.2073 Y266.8928
G01 X31.1947 Y266.9653
G01 X31.1857 Y267.0384
G01 X31.1803 Y267.1118
G01 X31.1785 Y267.1854
G01 X31.1803 Y267.2590
G01 X31.1857 Y267.3324
G01 X31.1947 Y267.4054
G01 X31.2073 Y267.4779
G01 X31.2234 Y267.5498
G01 X31.2431 Y267.6207
G01 X31.2662 Y267.6906
G01 X31.2927 Y267.7593
G01 X31.3225 Y267.8266
G01 X31.3556 Y267.8923
G01 X31.3919 Y267.9563
G01 X31.4312 Y268.0185
G01 X31.4736 Y268.0787
G01 X31.5189 Y268.1367
G01 X31.5670 Y268.1925
G01 X31.6177 Y268.2458
G01 X31.6710 Y268.2965
G01 X31.7268 Y268.3446
G01 X31.7848 Y268.3899
G01 X31.8450 Y268.4323
G01 X31.9072 Y268.4717
G01 X31.9712 Y268.5079
G01 X32.0370 Y268.5410
G01 X32.1042 Y268.5709
G01 X32.1729 Y268.5973
G01 X32.2428 Y268.6204
G01 X32.3137 Y268.6401
G01 X32.3856 Y268.6562
G01 X32.4581 Y268.6688
G01 X32.5311 Y268.6778
G01 X32.6045 Y268.6832
G01 X32.6781 Y268.6850
G01 X32.7517 Y268.6832
G01 X32.8251 Y268.6778
G01 X32.8982 Y268.6688
G01 X32.9707 Y268.6562
G01 X33.0425 Y268.6401
G01 X33.1134 Y268.6204
G01 X33.1833 Y268.5973
G01 X33.2520 Y268.5709
G01 X33.3193 Y268.5410
G01 X33.3850 Y268.5079
G01 X33.4491 Y268.4717
G01 X33.5113 Y268.4323
G01 X33.5714 Y268.3899
G01 X33.6295 Y268.3446
G01 X33.6852 Y268.2965
G01 X33.7385 Y268.2458
G01 X33.7893 Y268.1925
G01 X33.8373 Y268.1367
G01 X33.8826 Y268.0787
G01 X33.9250 Y268.0185
G01 X33.9644 Y267.9563
G01 X34.0007 Y267.8923
G01 X34.0338 Y267.8266
G01 X34.0636 Y267.7593
G01 X34.0901 Y267.6906
G01 X34.1132 Y267.6207
G01 X34.1328 Y267.5498
G01 X34.1489 Y267.4779
G01 X34.1615 Y267.4054
G01 X34.1705 Y267.3324
G01 X34.1759 Y267.2590
G01 X34.1777 Y267.1854
G01 X34.1736 Y267.0733
G01 X34.1610 Y266.9619
G01 X34.1401 Y266.8517
G01 X34.1111 Y266.7434
G01 X34.0741 Y266.6375
G01 X34.0292 Y266.5347
G01 X33.9768 Y266.4356
G01 X33.9172 Y266.3406
G01 X33.8506 Y266.2504
G01 X33.7774 Y266.1654
G01 X33.6981 Y266.0861
G01 X33.6131 Y266.0129
G01 X33.5229 Y265.9463
G01 X33.4279 Y265.8867
G01 X33.3288 Y265.8343
G01 X33.2260 Y265.7894
G01 X33.1201 Y265.7524
G01 X33.0118 Y265.7234
G01 X32.9016 Y265.7025
G01 X32.7902 Y265.6900
G01 X32.6781 Y265.6858
G01 X32.5661 Y265.6900
G01 X32.4546 Y265.7025
G01 X32.3444 Y265.7234
G01 X32.2361 Y265.7524
G01 X32.1303 Y265.7894
G01 X32.0275 Y265.8343
G01 X31.9283 Y265.8867
G01 X31.8334 Y265.9463
G01 X31.7431 Y266.0129
G01 X31.6581 Y266.0861
G01 X31.5788 Y266.1654
G01 X31.5057 Y266.2504
G01 X31.4391 Y266.3406
G01 X31.3794 Y266.4356
G01 X31.3270 Y266.5347
G01 X31.2822 Y266.6375
G01 X31.2451 Y266.7434
G01 X31.2161 Y266.8517
G01 X31.1953 Y266.9619
G01 X31.1827 Y267.0733
G01 X31.1785 Y267.1854
G01 X31.1827 Y267.2975
G01 X31.1953 Y267.4089
G01 X31.2161 Y267.5191
G01 X31.2451 Y267.6274
G01 X31.2822 Y267.7333
G01 X31.3270 Y267.8360
G01 X31.3794 Y267.9352
G01 X31.4391 Y268.0302
G01 X31.5057 Y268.1204
G01 X31.5788 Y268.2054
G01 X31.6581 Y268.2847
G01 X31.7431 Y268.3578
G01 X31.8334 Y268.4244
G01 X31.9283 Y268.4841
G01 X32.0275 Y268.5365
G01 X32.1303 Y268.5813
G01 X32.2361 Y268.6184
G01 X32.3444 Y268.6474
G01 X32.4546 Y268.6683
G01 X32.5661 Y268.6808
G01 X32.6781 Y268.6850
G01 X32.7902 Y268.6808
G01 X32.9016 Y268.6683
G01 X33.0118 Y268.6474
G01 X33.1201 Y268.6184
G01 X33.2260 Y268.5813
G01 X33.3288 Y268.5365
G01 X33.4279 Y268.4841
G01 X33.5229 Y268.4244
G01 X33.6131 Y268.3578
G01 X33.6981 Y268.2847
G01 X33.7774 Y268.2054
G01 X33.8506 Y268.1204
G01 X33.9172 Y268.0302
G01 X33.9768 Y267.9352
G01 X34.0292 Y267.8360
G01 X34.0741 Y267.7333
G01 X34.1111 Y267.6274
G01 X34.1401 Y267.5191
G01 X34.1610 Y267.4089
G01 X34.1736 Y267.2975
G01 X34.1777 Y267.1854
M107
M106 S240
G01 X34.1747 Y267.1069 Z-5.9750 F400
M107
M106 S240
G01 X34.1654 Y267.0290 Z-5.9500
M107
M106 S240
G01 X34.1501 Y266.9519 Z-5.9250
M107
M106 S240
G01 X34.1288 Y266.8764 Z-5.9000
M107
M106 S240
G01 X34.1016 Y266.8027 Z-5.8750
M107
M106 S240
G01 X34.0688 Y266.7314 Z-5.8500
M107
M106 S240
G01 X34.0304 Y266.6629 Z-5.8250
M107
M106 S240
G01 X33.9868 Y266.5976 Z-5.8000
M107
M106 S240
G01 X33.9382 Y266.5359 Z-5.7750
M107
M106 S240
G01 X33.8849 Y266.4783 Z-5.7500
M107
M106 S240
G01 X33.8272 Y266.4250 Z-5.7250
M107
M106 S240
G01 X33.7655 Y266.3764 Z-5.7000
M107
M106 S240
G01 X33.7002 Y266.3327 Z-5.6750
M107
M106 S240
G01 X33.6317 Y266.2944 Z-5.6500
M107
M106 S240
G01 X33.5604 Y266.2615 Z-5.6250
M107
M106 S240
G01 X33.4868 Y266.2343 Z-5.6000
M107
M106 S240
G01 X33.4112 Y266.2130 Z-5.5750
M107
M106 S240
G01 X33.3342 Y266.1977 Z-5.5500
M107
M106 S240
G01 X33.2562 Y266.1885 Z-5.5250
M107
M106 S240
G01 X33.1777 Y266.1854 Z-5.5000
M107
G00 Z2.0000


;No. 2: Hole 2
G00 X32.6119 Y250.7760 Z2.0000
G00 Z0.5000
G01 Z0.0000 F400
G01 Z-1.8000
M106 S240
G01 X53.5098 F1000
G01 X44.0693
G01 Y249.2760
G01 X42.0941
G01 X42.1391 Y247.7760
G01 X44.0243
G01 Y246.2760
G01 X42.1391
G01 Y244.7760
G01 X44.0243
G01 Y243.2760
G01 X42.1391
G01 Y241.7760
G01 X44.0243
G01 Y240.2760
G01 X42.1391
G01 Y238.7760
G01 X44.0243
G01 Y237.2760
G01 X42.1391
G01 Y235.7760
G01 X44.0243
G01 Y234.2760
G01 X42.1391
G01 X41.9391 Y234.2882
G01 Y248.9538
G01 X41.9360 Y249.0323
G01 X41.9268 Y249.1102
G01 X41.9115 Y249.1872
G01 X41.8902 Y249.2628
G01 X41.8630 Y249.3365
G01 X41.8301 Y249.4078
G01 X41.7917 Y249.4763
G01 X41.7481 Y249.5416
G01 X41.6995 Y249.6032
G01 X41.6462 Y249.6609
G01 X41.5886 Y249.7142
G01 X41.5269 Y249.7628
G01 X41.4616 Y249.8064
G01 X41.3931 Y249.8448
G01 X41.3218 Y249.8777
G01 X41.2481 Y249.9048
G01 X41.1725 Y249.9262
G01 X41.0955 Y249.9415
G01 X41.0176 Y249.9507
G01 X40.9391 Y249.9538
G01 X34.5164
G01 X34.2553 Y249.9589
G01 X33.9955 Y249.9850
G01 X33.7387 Y250.0322
G01 X33.4866 Y250.1000
G01 X33.2407 Y250.1880
G01 X33.0028 Y250.2956
G01 X32.7744 Y250.4221
G01 X32.5570 Y250.5668
G01 X32.3521 Y250.7285
G01 X32.1609 Y250.9064
G01 X31.9847 Y251.0991
G01 X31.8247 Y251.3055
G01 X31.6820 Y251.5241
G01 X31.5575 Y251.7536
G01 X31.4519 Y251.9924
G01 X31.3661 Y252.2390
G01 X54.7973
G01 X54.6723 Y251.9157
G01 X54.5143 Y251.6072
G01 X54.3250 Y251.3169
G01 X54.1064 Y251.0479
G01 X53.8609 Y250.8032
G01 X53.5913 Y250.5854
G01 X53.3004 Y250.3969
G01 X52.9914 Y250.2398
G01 X52.6677 Y250.1157
G01 X52.3329 Y250.0261
G01 X51.9905 Y249.9720
G01 X51.6444 Y249.9538
G01 X45.2243
G01 X45.1807 Y249.9528
G01 X45.1372 Y249.9500
G01 X45.0938 Y249.9452
G01 X45.0507 Y249.9386
G01 X45.0079 Y249.9301
G01 X44.9655 Y249.9197
G01 X44.9236 Y249.9075
G01 X44.8823 Y249.8935
G01 X44.8416 Y249.8777
G01 X44.8017 Y249.8601
G01 X44.7626 Y249.8408
G01 X44.7243 Y249.8198
G01 X44.6870 Y249.7972
G01 X44.6507 Y249.7729
G01 X44.6156 Y249.7471
G01 X44.5815 Y249.7198
G01 X44.5487 Y249.6911
G01 X44.5172 Y249.6609
G01 X44.4870 Y249.6294
G01 X44.4583 Y249.5966
G01 X44.4310 Y249.5626
G01 X44.4052 Y249.5274
G01 X44.3809 Y249.4911
G01 X44.3583 Y249.4538
G01 X44.3373 Y249.4155
G01 X44.3180 Y249.3764
G01 X44.3004 Y249.3365
G01 X44.2846 Y249.2958
G01 X44.2706 Y249.2545
G01 X44.2584 Y249.2126
G01 X44.2480 Y249.1702
G01 X44.2395 Y249.1274
G01 X44.2329 Y249.0843
G01 X44.2281 Y249.0409
G01 X44.2253 Y248.9974
G01 X44.2243 Y248.9538
G01 Y232.8129
G01 X41.9391
G01 Y234.2882
G01 X42.1391 Y234.2760
M107
G00 Z2.0000


;No. 3: Hole 3
G00 X65.5592 Y251.0964 Z2.0000
G00 Z0.5000
G01 Z0.0000 F400
G01 Z-1.8000
M106 S240
G01 X87.1689 F1000
G01 X87.2915 Y250.9359
G01 X87.0535 Y250.7112
G01 X86.7936 Y250.5121
G01 X86.5146 Y250.3409
G01 X86.2195 Y250.1993
G01 X85.9114 Y250.0887
G01 X85.5935 Y250.0105
G01 X85.2693 Y249.9653
G01 X84.9422 Y249.9538
G01 X67.8142
G01 X67.5531 Y249.9589
G01 X67.2933 Y249.9850
G01 X67.0365 Y250.0322
G01 X66.7844 Y250.1000
G01 X66.5385 Y250.1880
G01 X66.3006 Y250.2956
G01 X66.0722 Y250.4221
G01 X65.8549 Y250.5668
G01 X65.6499 Y250.7285
G01 X65.4587 Y250.9064
G01 X65.2825 Y251.0991
G01 X65.1226 Y251.3055
G01 X64.9798 Y251.5241
G01 X64.8553 Y251.7536
G01 X64.7497 Y251.9924
G01 X64.6639 Y252.2390
G01 X88.0952
G01 X88.0320 Y252.0562
G01 X87.9576 Y251.8778
G01 X87.8720 Y251.7043
G01 X87.7757 Y251.5366
G01 X87.6691 Y251.3753
G01 X87.5525 Y251.2210
G01 X87.4265 Y251.0743
G01 X87.2915 Y250.9359
G01 X87.1689 Y251.0964
M107
G00 Z2.0000


;No. 4: Hole 4
G00 X87.1689 Y242.5260 Z2.0000
G00 Z0.5000
G01 Z0.0000 F400
G01 Z-1.8000
M106 S240
G01 X65.5592 F1000
G01 X65.3977 Y242.4062
G01 X65.2755 Y242.5438
G01 X65.1613 Y242.6882
G01 X65.0555 Y242.8389
G01 X64.9585 Y242.9953
G01 X64.8705 Y243.1570
G01 X64.7919 Y243.3235
G01 X64.7230 Y243.4942
G01 X64.6639 Y243.6686
G01 X88.0952
G01 X87.9702 Y243.3453
G01 X87.8121 Y243.0368
G01 X87.6228 Y242.7465
G01 X87.4042 Y242.4775
G01 X87.1587 Y242.2327
G01 X86.8891 Y242.0149
G01 X86.5982 Y241.8265
G01 X86.2892 Y241.6693
G01 X85.9655 Y241.5453
G01 X85.6307 Y241.4557
G01 X85.2883 Y241.4015
G01 X84.9422 Y241.3834
G01 X67.8142
G01 X67.4761 Y241.3912
G01 X67.1407 Y241.4354
G01 X66.8121 Y241.5154
G01 X66.4940 Y241.6302
G01 X66.1901 Y241.7786
G01 X65.9039 Y241.9589
G01 X65.6388 Y242.1689
G01 X65.3977 Y242.4062
G01 X65.5592 Y242.5260
M107
G00 Z2.0000


;No. 5: Hole 5
G00 X65.5592 Y233.9555 Z2.0000
G00 Z0.5000
G01 Z0.0000 F400
G01 Z-1.8000
M106 S240
G01 X87.1689 F1000
G01 X87.2915 Y233.7950
G01 X87.0535 Y233.5703
G01 X86.7936 Y233.3713
G01 X86.5146 Y233.2001
G01 X86.2195 Y233.0584
G01 X85.9114 Y232.9479
G01 X85.5935 Y232.8696
G01 X85.2693 Y232.8245
G01 X84.9422 Y232.8129
G01 X67.8142
G01 X67.5531 Y232.8180
G01 X67.2933 Y232.8442
G01 X67.0365 Y232.8913
G01 X66.7844 Y232.9591
G01 X66.5385 Y233.0471
G01 X66.3006 Y233.1548
G01 X66.0722 Y233.2813
G01 X65.8549 Y233.4259
G01 X65.6499 Y233.5877
G01 X65.4587 Y233.7655
G01 X65.2825 Y233.9582
G01 X65.1226 Y234.1646
G01 X64.9798 Y234.3833
G01 X64.8553 Y234.6127
G01 X64.7497 Y234.8516
G01 X64.6639 Y235.0982
G01 X88.0952
G01 X88.0320 Y234.9154
G01 X87.9576 Y234.7369
G01 X87.8720 Y234.5635
G01 X87.7757 Y234.3958
G01 X87.6691 Y234.2345
G01 X87.5525 Y234.0802
G01 X87.4265 Y233.9335
G01 X87.2915 Y233.7950
G01 X87.1689 Y233.9555
M107
G00 Z2.0000


;No. 6: Hole 6
G00 X99.2465 Y234.2760 Z2.0000
G00 Z0.5000
G01 Z0.0000 F400
G01 Z-1.8000
M106 S240
G01 X121.3330 F1000
G01 Y235.7760
G01 X119.4028
G01 X119.4478 Y237.2760
G01 X121.3330
G01 Y238.7760
G01 X119.4478
G01 Y240.2760
G01 X121.3330
G01 Y241.7760
G01 X98.0217
G01 Y243.2760
G01 X121.3330
G01 X99.9069
G01 Y244.7760
G01 X98.0217
G01 Y246.2760
G01 X99.9069
G01 Y247.7760
G01 X98.0217
G01 Y249.2760
G01 X99.9519
G01 X98.0217 Y250.7760
G01 X120.1055
G01 X120.2338 Y250.6224
G01 X120.0162 Y250.4660
G01 X119.7860 Y250.3287
G01 X119.5449 Y250.2117
G01 X119.2947 Y250.1157
G01 X119.0372 Y250.0414
G01 X118.7743 Y249.9895
G01 X118.5079 Y249.9602
G01 X118.2400 Y249.9538
G01 X101.1069
G01 X101.0633 Y249.9528
G01 X101.0198 Y249.9500
G01 X100.9764 Y249.9452
G01 X100.9333 Y249.9386
G01 X100.8905 Y249.9301
G01 X100.8481 Y249.9197
G01 X100.8062 Y249.9075
G01 X100.7649 Y249.8935
G01 X100.7242 Y249.8777
G01 X100.6843 Y249.8601
G01 X100.6452 Y249.8408
G01 X100.6069 Y249.8198
G01 X100.5696 Y249.7972
G01 X100.5333 Y249.7729
G01 X100.4982 Y249.7471
G01 X100.4641 Y249.7198
G01 X100.4313 Y249.6911
G01 X100.3998 Y249.6609
G01 X100.3696 Y249.6294
G01 X100.3409 Y249.5966
G01 X100.3136 Y249.5626
G01 X100.2878 Y249.5274
G01 X100.2635 Y249.4911
G01 X100.2409 Y249.4538
G01 X100.2199 Y249.4155
G01 X100.2006 Y249.3764
G01 X100.1830 Y249.3365
G01 X100.1672 Y249.2958
G01 X100.1532 Y249.2545
G01 X100.1410 Y249.2126
G01 X100.1306 Y249.1702
G01 X100.1221 Y249.1274
G01 X100.1155 Y249.0843
G01 X100.1107 Y249.0409
G01 X100.1079 Y248.9974
G01 X100.1069 Y248.9538
G01 Y244.6686
G01 X100.1079 Y244.6250
G01 X100.1107 Y244.5814
G01 X100.1155 Y244.5381
G01 X100.1221 Y244.4949
G01 X100.1306 Y244.4521
G01 X100.1410 Y244.4098
G01 X100.1532 Y244.3679
G01 X100.1672 Y244.3266
G01 X100.1830 Y244.2859
G01 X100.2006 Y244.2460
G01 X100.2199 Y244.2068
G01 X100.2409 Y244.1686
G01 X100.2635 Y244.1313
G01 X100.2878 Y244.0950
G01 X100.3136 Y244.0598
G01 X100.3409 Y244.0258
G01 X100.3696 Y243.9930
G01 X100.3998 Y243.9615
G01 X100.4313 Y243.9313
G01 X100.4641 Y243.9025
G01 X100.4982 Y243.8752
G01 X100.5333 Y243.8494
G01 X100.5696 Y243.8252
G01 X100.6069 Y243.8026
G01 X100.6452 Y243.7816
G01 X100.6843 Y243.7623
G01 X100.7242 Y243.7447
G01 X100.7649 Y243.7289
G01 X100.8062 Y243.7149
G01 X100.8481 Y243.7027
G01 X100.8905 Y243.6923
G01 X100.9333 Y243.6838
G01 X100.9764 Y243.6771
G01 X101.0198 Y243.6724
G01 X101.0633 Y243.6695
G01 X101.1069 Y243.6686
G01 X121.5330
G01 Y232.8129
G01 X97.9717
G01 X98.0947 Y233.1369
G01 X98.2511 Y233.4460
G01 X98.4391 Y233.7371
G01 X98.6567 Y234.0067
G01 X98.9015 Y234.2519
G01 X99.1707 Y234.4700
G01 X99.4613 Y234.6586
G01 X99.7702 Y234.8156
G01 X100.0939 Y234.9392
G01 X100.4288 Y235.0281
G01 X100.7711 Y235.0813
G01 X101.1172 Y235.0982
G01 X118.2478
G01 X118.3262 Y235.1012
G01 X118.4042 Y235.1105
G01 X118.4812 Y235.1258
G01 X118.5568 Y235.1471
G01 X118.6305 Y235.1743
G01 X118.7018 Y235.2071
G01 X118.7703 Y235.2455
G01 X118.8356 Y235.2891
G01 X118.8972 Y235.3377
G01 X118.9549 Y235.3910
G01 X119.0082 Y235.4487
G01 X119.0568 Y235.5104
G01 X119.1004 Y235.5757
G01 X119.1388 Y235.6442
G01 X119.1716 Y235.7155
G01 X119.1988 Y235.7891
G01 X119.2201 Y235.8647
G01 X119.2355 Y235.9417
G01 X119.2447 Y236.0197
G01 X119.2478 Y236.0982
G01 Y240.3834
G01 X119.2468 Y240.4270
G01 X119.2440 Y240.4705
G01 X119.2392 Y240.5139
G01 X119.2326 Y240.5570
G01 X119.2241 Y240.5998
G01 X119.2137 Y240.6422
G01 X119.2015 Y240.6841
G01 X119.1875 Y240.7254
G01 X119.1716 Y240.7661
G01 X119.1541 Y240.8060
G01 X119.1348 Y240.8451
G01 X119.1138 Y240.8834
G01 X119.0912 Y240.9207
G01 X119.0669 Y240.9569
G01 X119.0411 Y240.9921
G01 X119.0138 Y241.0262
G01 X118.9850 Y241.0590
G01 X118.9549 Y241.0905
G01 X118.9234 Y241.1206
G01 X118.8906 Y241.1494
G01 X118.8565 Y241.1767
G01 X118.8213 Y241.2025
G01 X118.7851 Y241.2268
G01 X118.7478 Y241.2494
G01 X118.7095 Y241.2704
G01 X118.6704 Y241.2897
G01 X118.6305 Y241.3072
G01 X118.5898 Y241.3231
G01 X118.5485 Y241.3371
G01 X118.5066 Y241.3493
G01 X118.4642 Y241.3597
G01 X118.4214 Y241.3682
G01 X118.3783 Y241.3748
G01 X118.3349 Y241.3796
G01 X118.2914 Y241.3824
G01 X118.2478 Y241.3834
G01 X97.8217
G01 Y252.2390
G01 X121.3930
G01 X121.3062 Y252.0017
G01 X121.2014 Y251.7719
G01 X121.0790 Y251.5509
G01 X120.9399 Y251.3400
G01 X120.7848 Y251.1406
G01 X120.6147 Y250.9537
G01 X120.4307 Y250.7807
G01 X120.2338 Y250.6224
G01 X120.1055 Y250.7760
M107
G00 Z2.0000


;No. 7: Hole 7
G00 X131.3195 Y250.7760 Z2.0000
G00 Z0.5000
G01 Z0.0000 F400
G01 Z-1.8000
M106 S240
G01 X133.2047 F1000
G01 Y249.2760
G01 X131.3195
G01 Y247.7760
G01 X133.2047
G01 Y246.2760
G01 X131.3195
G01 Y244.7760
G01 X133.2047
G01 Y243.2760
G01 X131.3195
G01 Y241.7760
G01 X133.2047
G01 Y240.2760
G01 X131.3195
G01 Y238.7760
G01 X133.2047
G01 Y237.2760
G01 X131.3195
G01 Y235.7760
G01 X133.2497
G01 X131.3195 Y234.2760
G01 X154.0456
G01 X154.1964 Y234.1441
G01 X154.0362 Y233.9429
G01 X153.8607 Y233.7549
G01 X153.6708 Y233.5813
G01 X153.4679 Y233.4233
G01 X153.2531 Y233.2818
G01 X153.0278 Y233.1576
G01 X152.7934 Y233.0516
G01 X152.5514 Y232.9644
G01 X152.3033 Y232.8966
G01 X152.0506 Y232.8486
G01 X151.7949 Y232.8206
G01 X151.5378 Y232.8129
G01 X131.1195
G01 Y252.2390
G01 X133.4047
G01 Y236.0982
G01 X133.4079 Y236.0192
G01 X133.4172 Y235.9407
G01 X133.4327 Y235.8633
G01 X133.4543 Y235.7872
G01 X133.4818 Y235.7132
G01 X133.5151 Y235.6415
G01 X133.5539 Y235.5727
G01 X133.5981 Y235.5071
G01 X133.6473 Y235.4453
G01 X133.7012 Y235.3875
G01 X133.7595 Y235.3342
G01 X133.8218 Y235.2856
G01 X133.8878 Y235.2421
G01 X133.9570 Y235.2040
G01 X134.0290 Y235.1714
G01 X134.1033 Y235.1446
G01 X134.1796 Y235.1238
G01 X134.2572 Y235.1091
G01 X134.3357 Y235.1005
G01 X134.4147 Y235.0982
G01 X154.6908
G01 X154.6485 Y234.9699
G01 X154.6004 Y234.8437
G01 X154.5466 Y234.7198
G01 X154.4872 Y234.5985
G01 X154.4224 Y234.4801
G01 X154.3522 Y234.3647
G01 X154.2768 Y234.2526
G01 X154.1964 Y234.1441
G01 X154.0456 Y234.2760
M107
G00 Z2.0000


;No. 8: Helical drill 2
G00 X188.6778 Y267.1862 Z2.0000
G00 Z0.5000
M106 S240
G01 X188.6740 Y267.0990 Z0.4774 F400
G01 X188.6626 Y267.0126 Z0.4549
G01 X188.6437 Y266.9274 Z0.4323
G01 X188.6175 Y266.8442 Z0.4097
G01 X188.5841 Y266.7636 Z0.3872
G01 X188.5438 Y266.6862 Z0.3646
G01 X188.4970 Y266.6126 Z0.3420
G01 X188.4439 Y266.5434 Z0.3194
G01 X188.3849 Y266.4791 Z0.2969
G01 X188.3206 Y266.4202 Z0.2743
G01 X188.2514 Y266.3671 Z0.2517
G01 X188.1778 Y266.3202 Z0.2292
G01 X188.1004 Y266.2799 Z0.2066
G01 X188.0198 Y266.2465 Z0.1840
G01 X187.9366 Y266.2203 Z0.1615
G01 X187.8515 Y266.2014 Z0.1389
G01 X187.7650 Y266.1900 Z0.1163
G01 X187.6778 Y266.1862 Z0.0938
G01 X187.5907 Y266.1900 Z0.0712
G01 X187.5042 Y266.2014 Z0.0486
G01 X187.4190 Y266.2203 Z0.0260
G01 X187.3358 Y266.2465 Z0.0035
G01 X187.2552 Y266.2799 Z-0.0191
G01 X187.1778 Y266.3202 Z-0.0417
G01 X187.1372 Y266.3450 Z-0.0540
G01 X187.0978 Y266.3716 Z-0.0663
G01 X187.0597 Y266.4002 Z-0.0786
G01 X187.0230 Y266.4305 Z-0.0909
G01 X186.9877 Y266.4625 Z-0.1032
G01 X186.9541 Y266.4961 Z-0.1155
G01 X186.9221 Y266.5313 Z-0.1278
G01 X186.8918 Y266.5680 Z-0.1402
G01 X186.8632 Y266.6061 Z-0.1525
G01 X186.8366 Y266.6456 Z-0.1648
G01 X186.8118 Y266.6862 Z-0.1771
G01 X186.7890 Y266.7280 Z-0.1894
G01 X186.7682 Y266.7708 Z-0.2017
G01 X186.7495 Y266.8145 Z-0.2140
G01 X186.7328 Y266.8591 Z-0.2263
G01 X186.7183 Y266.9045 Z-0.2386
G01 X186.7060 Y266.9504 Z-0.2509
G01 X186.6959 Y266.9970 Z-0.2633
G01 X186.6880 Y267.0439 Z-0.2756
G01 X186.6823 Y267.0911 Z-0.2879
G01 X186.6790 Y267.1386 Z-0.3002
G01 X186.6778 Y267.1862 Z-0.3125
G01 X186.6790 Y267.2338 Z-0.3248
G01 X186.6823 Y267.2813 Z-0.3371
G01 X186.6880 Y267.3285 Z-0.3494
G01 X186.6959 Y267.3755 Z-0.3617
G01 X186.7060 Y267.4220 Z-0.3741
G01 X186.7183 Y267.4679 Z-0.3864
G01 X186.7328 Y267.5133 Z-0.3987
G01 X186.7495 Y267.5579 Z-0.4110
G01 X186.7682 Y267.6016 Z-0.4233
G01 X186.7890 Y267.6444 Z-0.4356
G01 X186.8118 Y267.6862 Z-0.4479
G01 X186.8366 Y267.7268 Z-0.4602
G01 X186.8632 Y267.7663 Z-0.4725
G01 X186.8918 Y267.8044 Z-0.4848
G01 X186.9221 Y267.8411 Z-0.4972
G01 X186.9541 Y267.8763 Z-0.5095
G01 X186.9877 Y267.9099 Z-0.5218
G01 X187.0230 Y267.9420 Z-0.5341
G01 X187.0597 Y267.9723 Z-0.5464
G01 X187.0978 Y268.0008 Z-0.5587
G01 X187.1372 Y268.0275 Z-0.5710
G01 X187.1778 Y268.0522 Z-0.5833
G01 X187.2196 Y268.0750 Z-0.5956
G01 X187.2624 Y268.0958 Z-0.6080
G01 X187.3062 Y268.1146 Z-0.6203
G01 X187.3508 Y268.1312 Z-0.6326
G01 X187.3961 Y268.1457 Z-0.6449
G01 X187.4421 Y268.1580 Z-0.6572
G01 X187.4886 Y268.1681 Z-0.6695
G01 X187.5355 Y268.1760 Z-0.6818
G01 X187.5828 Y268.1817 Z-0.6941
G01 X187.6302 Y268.1851 Z-0.7064
G01 X187.6778 Y268.1862 Z-0.7188
G01 X187.7254 Y268.1851 Z-0.7311
G01 X187.7729 Y268.1817 Z-0.7434
G01 X187.8201 Y268.1760 Z-0.7557
G01 X187.8671 Y268.1681 Z-0.7680
G01 X187.9136 Y268.1580 Z-0.7803
G01 X187.9596 Y268.1457 Z-0.7926
G01 X188.0049 Y268.1312 Z-0.8049
G01 X188.0495 Y268.1146 Z-0.8172
G01 X188.0932 Y268.0958 Z-0.8295
G01 X188.1360 Y268.0750 Z-0.8419
G01 X188.1778 Y268.0522 Z-0.8542
G01 X188.2185 Y268.0275 Z-0.8665
G01 X188.2579 Y268.0008 Z-0.8788
G01 X188.2960 Y267.9723 Z-0.8911
G01 X188.3327 Y267.9420 Z-0.9034
G01 X188.3679 Y267.9099 Z-0.9157
G01 X188.4016 Y267.8763 Z-0.9280
G01 X188.4336 Y267.8411 Z-0.9403
G01 X188.4639 Y267.8044 Z-0.9527
G01 X188.4924 Y267.7663 Z-0.9650
G01 X188.5191 Y267.7268 Z-0.9773
G01 X188.5438 Y267.6862 Z-0.9896
G01 X188.5667 Y267.6444 Z-1.0019
G01 X188.5875 Y267.6016 Z-1.0142
G01 X188.6062 Y267.5579 Z-1.0265
G01 X188.6228 Y267.5133 Z-1.0388
G01 X188.6373 Y267.4679 Z-1.0511
G01 X188.6496 Y267.4220 Z-1.0634
G01 X188.6598 Y267.3755 Z-1.0758
G01 X188.6676 Y267.3285 Z-1.0881
G01 X188.6733 Y267.2813 Z-1.1004
G01 X188.6767 Y267.2338 Z-1.1127
G01 X188.6778 Y267.1862 Z-1.1250
G01 X188.6740 Y267.0990
G01 X188.6626 Y267.0126
G01 X188.6437 Y266.9274
G01 X188.6175 Y266.8442
G01 X188.5841 Y266.7636
G01 X188.5438 Y266.6862
G01 X188.4970 Y266.6126
G01 X188.4439 Y266.5434
G01 X188.3849 Y266.4791
G01 X188.3206 Y266.4202
G01 X188.2514 Y266.3671
G01 X188.1778 Y266.3202
G01 X188.1004 Y266.2799
G01 X188.0198 Y266.2465
G01 X187.9366 Y266.2203
G01 X187.8515 Y266.2014
G01 X187.7650 Y266.1900
G01 X187.6778 Y266.1862
G01 X187.5907 Y266.1900
G01 X187.5042 Y266.2014
G01 X187.4190 Y266.2203
G01 X187.3358 Y266.2465
G01 X187.2552 Y266.2799
G01 X187.1778 Y266.3202
G01 X187.1372 Y266.3450
G01 X187.0978 Y266.3716
G01 X187.0597 Y266.4002
G01 X187.0230 Y266.4305
G01 X186.9877 Y266.4625
G01 X186.9541 Y266.4961
G01 X186.9221 Y266.5313
G01 X186.8918 Y266.5680
G01 X186.8632 Y266.6061
G01 X186.8366 Y266.6456
G01 X186.8118 Y266.6862
G01 X186.7890 Y266.7280
G01 X186.7682 Y266.7708
G01 X186.7495 Y266.8145
G01 X186.7328 Y266.8591
G01 X186.7183 Y266.9045
G01 X186.7060 Y266.9504
G01 X186.6959 Y266.9970
G01 X186.6880 Y267.0439
G01 X186.6823 Y267.0911
G01 X186.6790 Y267.1386
G01 X186.6778 Y267.1862
G01 X186.6790 Y267.2338
G01 X186.6823 Y267.2813
G01 X186.6880 Y267.3285
G01 X186.6959 Y267.3755
G01 X186.7060 Y267.4220
G01 X186.7183 Y267.4679
G01 X186.7328 Y267.5133
G01 X186.7495 Y267.5579
G01 X186.7682 Y267.6016
G01 X186.7890 Y267.6444
G01 X186.8118 Y267.6862
G01 X186.8366 Y267.7268
G01 X186.8632 Y267.7663
G01 X186.8918 Y267.8044
G01 X186.9221 Y267.8411
G01 X186.9541 Y267.8763
G01 X186.9877 Y267.9099
G01 X187.0230 Y267.9420
G01 X187.0597 Y267.9723
G01 X187.0978 Y268.0008
G01 X187.1372 Y268.0275
G01 X187.1778 Y268.0522
G01 X187.2196 Y268.0750
G01 X187.2624 Y268.0958
G01 X187.3062 Y268.1146
G01 X187.3508 Y268.1312
G01 X187.3961 Y268.1457
G01 X187.4421 Y268.1580
G01 X187.4886 Y268.1681
G01 X187.5355 Y268.1760
G01 X187.5828 Y268.1817
G01 X187.6302 Y268.1851
G01 X187.6778 Y268.1862
G01 X187.7254 Y268.1851
G01 X187.7729 Y268.1817
G01 X187.8201 Y268.1760
G01 X187.8671 Y268.1681
G01 X187.9136 Y268.1580
G01 X187.9596 Y268.1457
G01 X188.0049 Y268.1312
G01 X188.0495 Y268.1146
G01 X188.0932 Y268.0958
G01 X188.1360 Y268.0750
G01 X188.1778 Y268.0522
G01 X188.2185 Y268.0275
G01 X188.2579 Y268.0008
G01 X188.2960 Y267.9723
G01 X188.3327 Y267.9420
G01 X188.3679 Y267.9099
G01 X188.4016 Y267.8763
G01 X188.4336 Y267.8411
G01 X188.4639 Y267.8044
G01 X188.4924 Y267.7663
G01 X188.5191 Y267.7268
G01 X188.5438 Y267.6862
G01 X188.5667 Y267.6444
G01 X188.5875 Y267.6016
G01 X188.6062 Y267.5579
G01 X188.6228 Y267.5133
G01 X188.6373 Y267.4679
G01 X188.6496 Y267.4220
G01 X188.6598 Y267.3755
G01 X188.6676 Y267.3285
G01 X188.6733 Y267.2813
G01 X188.6767 Y267.2338
G01 X188.6778 Y267.1862
G01 X188.6886 Y267.1346 F1000
G01 X188.6966 Y267.0825
G01 X188.7020 Y267.0301
G01 X188.7047 Y266.9775
G01 Y266.9248
G01 X188.7019 Y266.8721
G01 X188.6965 Y266.8197
G01 X188.6883 Y266.7676
G01 X188.6766 Y266.7117
G01 X188.6620 Y266.6563
G01 X188.6447 Y266.6019
G01 X188.6245 Y266.5483
G01 X188.6017 Y266.4959
G01 X188.5762 Y266.4447
G01 X188.5481 Y266.3948
G01 X188.5175 Y266.3465
G01 X188.4819 Y266.2961
G01 X188.4438 Y266.2476
G01 X188.4032 Y266.2011
G01 X188.3604 Y266.1567
G01 X188.3153 Y266.1145
G01 X188.2682 Y266.0747
G01 X188.2191 Y266.0373
G01 X188.1681 Y266.0025
G01 X188.1116 Y265.9679
G01 X188.0535 Y265.9362
G01 X187.9938 Y265.9076
G01 X187.9327 Y265.8819
G01 X187.8704 Y265.8594
G01 X187.8070 Y265.8401
G01 X187.7428 Y265.8240
G01 X187.6778 Y265.8112
G01 X187.6078 Y265.8010
G01 X187.5373 Y265.7944
G01 X187.4666 Y265.7913
G01 X187.3959 Y265.7918
G01 X187.3252 Y265.7958
G01 X187.2549 Y265.8035
G01 X187.1850 Y265.8146
G01 X187.1158 Y265.8293
G01 X187.0476 Y265.8552
G01 X186.9807 Y265.8845
G01 X186.9154 Y265.9170
G01 X186.8518 Y265.9527
G01 X186.7900 Y265.9915
G01 X186.7302 Y266.0333
G01 X186.6725 Y266.0780
G01 X186.6171 Y266.1255
G01 X186.5663 Y266.1788
G01 X186.5182 Y266.2346
G01 X186.4730 Y266.2926
G01 X186.4306 Y266.3528
G01 X186.3912 Y266.4150
G01 X186.3549 Y266.4791
G01 X186.3218 Y266.5448
G01 X186.2919 Y266.6122
G01 X186.2654 Y266.6808
G01 X186.2423 Y266.7508
G01 X186.2227 Y266.8217
G01 X186.2066 Y266.8936
G01 X186.1940 Y266.9661
G01 X186.1850 Y267.0392
G01 X186.1796 Y267.1126
G01 X186.1777 Y267.1862
G01 X186.1796 Y267.2598
G01 X186.1850 Y267.3332
G01 X186.1940 Y267.4063
G01 X186.2066 Y267.4789
G01 X186.2227 Y267.5507
G01 X186.2423 Y267.6217
G01 X186.2654 Y267.6916
G01 X186.2919 Y267.7603
G01 X186.3218 Y267.8276
G01 X186.3549 Y267.8933
G01 X186.3912 Y267.9574
G01 X186.4306 Y268.0196
G01 X186.4730 Y268.0798
G01 X186.5182 Y268.1378
G01 X186.5663 Y268.1936
G01 X186.6171 Y268.2469
G01 X186.6704 Y268.2977
G01 X186.7262 Y268.3458
G01 X186.7842 Y268.3911
G01 X186.8444 Y268.4335
G01 X186.9066 Y268.4729
G01 X186.9707 Y268.5092
G01 X187.0365 Y268.5423
G01 X187.1038 Y268.5721
G01 X187.1725 Y268.5986
G01 X187.2424 Y268.6217
G01 X187.3133 Y268.6413
G01 X187.3852 Y268.6575
G01 X187.4577 Y268.6700
G01 X187.5308 Y268.6791
G01 X187.6042 Y268.6845
G01 X187.6778 Y268.6863
G01 X187.7514 Y268.6845
G01 X187.8249 Y268.6791
G01 X187.8979 Y268.6700
G01 X187.9705 Y268.6575
G01 X188.0423 Y268.6413
G01 X188.1133 Y268.6217
G01 X188.1832 Y268.5986
G01 X188.2519 Y268.5721
G01 X188.3192 Y268.5423
G01 X188.3850 Y268.5092
G01 X188.4490 Y268.4729
G01 X188.5112 Y268.4335
G01 X188.5714 Y268.3911
G01 X188.6295 Y268.3458
G01 X188.6852 Y268.2977
G01 X188.7385 Y268.2469
G01 X188.7893 Y268.1936
G01 X188.8374 Y268.1378
G01 X188.8827 Y268.0798
G01 X188.9251 Y268.0196
G01 X188.9645 Y267.9574
G01 X189.0008 Y267.8933
G01 X189.0339 Y267.8276
G01 X189.0637 Y267.7603
G01 X189.0902 Y267.6916
G01 X189.1133 Y267.6217
G01 X189.1329 Y267.5507
G01 X189.1491 Y267.4789
G01 X189.1617 Y267.4063
G01 X189.1707 Y267.3332
G01 X189.1761 Y267.2598
G01 X189.1779 Y267.1862
G01 X189.1737 Y267.0741
G01 X189.1611 Y266.9626
G01 X189.1403 Y266.8524
G01 X189.1113 Y266.7441
G01 X189.0742 Y266.6382
G01 X189.0293 Y266.5353
G01 X188.9769 Y266.4362
G01 X188.9172 Y266.3412
G01 X188.8506 Y266.2509
G01 X188.7775 Y266.1659
G01 X188.6981 Y266.0866
G01 X188.6131 Y266.0134
G01 X188.5228 Y265.9468
G01 X188.4279 Y265.8871
G01 X188.3287 Y265.8347
G01 X188.2259 Y265.7898
G01 X188.1200 Y265.7528
G01 X188.0116 Y265.7237
G01 X187.9014 Y265.7029
G01 X187.7899 Y265.6903
G01 X187.6778 Y265.6861
G01 X187.5657 Y265.6903
G01 X187.4542 Y265.7029
G01 X187.3440 Y265.7237
G01 X187.2357 Y265.7528
G01 X187.1298 Y265.7898
G01 X187.0270 Y265.8347
G01 X186.9278 Y265.8871
G01 X186.8328 Y265.9468
G01 X186.7425 Y266.0134
G01 X186.6575 Y266.0866
G01 X186.5782 Y266.1659
G01 X186.5050 Y266.2509
G01 X186.4384 Y266.3412
G01 X186.3787 Y266.4362
G01 X186.3263 Y266.5353
G01 X186.2814 Y266.6382
G01 X186.2444 Y266.7441
G01 X186.2154 Y266.8524
G01 X186.1945 Y266.9626
G01 X186.1819 Y267.0741
G01 X186.1777 Y267.1862
G01 X186.1819 Y267.2983
G01 X186.1945 Y267.4098
G01 X186.2154 Y267.5200
G01 X186.2444 Y267.6284
G01 X186.2814 Y267.7342
G01 X186.3263 Y267.8371
G01 X186.3787 Y267.9362
G01 X186.4384 Y268.0312
G01 X186.5050 Y268.1215
G01 X186.5782 Y268.2065
G01 X186.6575 Y268.2858
G01 X186.7425 Y268.3590
G01 X186.8328 Y268.4256
G01 X186.9278 Y268.4853
G01 X187.0270 Y268.5377
G01 X187.1298 Y268.5826
G01 X187.2357 Y268.6196
G01 X187.3440 Y268.6487
G01 X187.4542 Y268.6695
G01 X187.5657 Y268.6821
G01 X187.6778 Y268.6863
G01 X187.7899 Y268.6821
G01 X187.9014 Y268.6695
G01 X188.0116 Y268.6487
G01 X188.1200 Y268.6196
G01 X188.2259 Y268.5826
G01 X188.3287 Y268.5377
G01 X188.4279 Y268.4853
G01 X188.5228 Y268.4256
G01 X188.6131 Y268.3590
G01 X188.6981 Y268.2858
G01 X188.7775 Y268.2065
G01 X188.8506 Y268.1215
G01 X188.9172 Y268.0312
G01 X188.9769 Y267.9362
G01 X189.0293 Y267.8371
G01 X189.0742 Y267.7342
G01 X189.1113 Y267.6284
G01 X189.1403 Y267.5200
G01 X189.1611 Y267.4098
G01 X189.1737 Y267.2983
G01 X189.1779 Y267.1862
G01 X189.1740 Y267.0881
G01 X189.1625 Y266.9907
G01 X189.1434 Y266.8944
G01 X189.1167 Y266.7999
G01 X189.0827 Y266.7078
G01 X189.0416 Y266.6187
G01 X188.9937 Y266.5331
G01 X188.9392 Y266.4515
G01 X188.8784 Y266.3744
G01 X188.8118 Y266.3023
G01 X188.7397 Y266.2357
G01 X188.6626 Y266.1749
G01 X188.5810 Y266.1204
G01 X188.4954 Y266.0724
G01 X188.4062 Y266.0313
G01 X188.3141 Y265.9973
G01 X188.2197 Y265.9707
G01 X188.1234 Y265.9516
G01 X188.0259 Y265.9400
G01 X187.9279 Y265.9362
G01 X187.8298 Y265.9400
G01 X187.7323 Y265.9516
G01 X187.6360 Y265.9707
G01 X187.5416 Y265.9973
G01 X187.4495 Y266.0313
G01 X187.3604 Y266.0724
G01 X187.2747 Y266.1204
G01 X187.1931 Y266.1749
G01 X187.1160 Y266.2357
G01 X187.0439 Y266.3023
G01 X186.9773 Y266.3744
G01 X186.9166 Y266.4515
G01 X186.8620 Y266.5331
G01 X186.8141 Y266.6187
G01 X186.7730 Y266.7078
G01 X186.7390 Y266.7999
G01 X186.7124 Y266.8944
G01 X186.6932 Y266.9907
G01 X186.6817 Y267.0881
G01 X186.6778 Y267.1862
G01 X186.6816 Y267.2734
G01 X186.6930 Y267.3599
G01 X186.7119 Y267.4450
G01 X186.7381 Y267.5282
G01 X186.7715 Y267.6088
G01 X186.8118 Y267.6862
G01 X186.8587 Y267.7598
G01 X186.9118 Y267.8290
G01 X186.9707 Y267.8933
G01 X187.0350 Y267.9522
G01 X187.1042 Y268.0054
G01 X187.1778 Y268.0522
G01 X187.2552 Y268.0925
G01 X187.3358 Y268.1259
G01 X187.4190 Y268.1521
G01 X187.5042 Y268.1710
G01 X187.5907 Y268.1824
G01 X187.6778 Y268.1862
G01 X187.7650 Y268.1824
G01 X187.8515 Y268.1710
G01 X187.9366 Y268.1521
G01 X188.0198 Y268.1259
G01 X188.1004 Y268.0925
G01 X188.1778 Y268.0522
G01 X188.2514 Y268.0054
G01 X188.3206 Y267.9522
G01 X188.3849 Y267.8933
G01 X188.4439 Y267.8290
G01 X188.4970 Y267.7598
G01 X188.5438 Y267.6862
G01 X188.5841 Y267.6088
G01 X188.6175 Y267.5282
G01 X188.6437 Y267.4450
G01 X188.6626 Y267.3599
G01 X188.6740 Y267.2734
G01 X188.6778 Y267.1862
M107
M106 S240
G01 X188.6740 Y267.0990 Z-1.1476 F400
G01 X188.6626 Y267.0126 Z-1.1701
G01 X188.6437 Y266.9274 Z-1.1927
G01 X188.6175 Y266.8442 Z-1.2153
G01 X188.5841 Y266.7636 Z-1.2378
G01 X188.5438 Y266.6862 Z-1.2604
G01 X188.4970 Y266.6126 Z-1.2830
G01 X188.4439 Y266.5434 Z-1.3056
G01 X188.3849 Y266.4791 Z-1.3281
G01 X188.3206 Y266.4202 Z-1.3507
G01 X188.2514 Y266.3671 Z-1.3733
G01 X188.1778 Y266.3202 Z-1.3958
G01 X188.1004 Y266.2799 Z-1.4184
G01 X188.0198 Y266.2465 Z-1.4410
G01 X187.9366 Y266.2203 Z-1.4635
G01 X187.8515 Y266.2014 Z-1.4861
G01 X187.7650 Y266.1900 Z-1.5087
G01 X187.6778 Y266.1862 Z-1.5313
G01 X187.5907 Y266.1900 Z-1.5538
G01 X187.5042 Y266.2014 Z-1.5764
G01 X187.4190 Y266.2203 Z-1.5990
G01 X187.3358 Y266.2465 Z-1.6215
G01 X187.2552 Y266.2799 Z-1.6441
G01 X187.1778 Y266.3202 Z-1.6667
G01 X187.1372 Y266.3450 Z-1.6790
G01 X187.0978 Y266.3716 Z-1.6913
G01 X187.0597 Y266.4002 Z-1.7036
G01 X187.0230 Y266.4305 Z-1.7159
G01 X186.9877 Y266.4625 Z-1.7282
G01 X186.9541 Y266.4961 Z-1.7405
G01 X186.9221 Y266.5313 Z-1.7528
G01 X186.8918 Y266.5680 Z-1.7652
G01 X186.8632 Y266.6061 Z-1.7775
G01 X186.8366 Y266.6456 Z-1.7898
G01 X186.8118 Y266.6862 Z-1.8021
G01 X186.7890 Y266.7280 Z-1.8144
G01 X186.7682 Y266.7708 Z-1.8267
G01 X186.7495 Y266.8145 Z-1.8390
G01 X186.7328 Y266.8591 Z-1.8513
G01 X186.7183 Y266.9045 Z-1.8636
G01 X186.7060 Y266.9504 Z-1.8759
G01 X186.6959 Y266.9970 Z-1.8883
G01 X186.6880 Y267.0439 Z-1.9006
G01 X186.6823 Y267.0911 Z-1.9129
G01 X186.6790 Y267.1386 Z-1.9252
G01 X186.6778 Y267.1862 Z-1.9375
G01 X186.6790 Y267.2338 Z-1.9498
G01 X186.6823 Y267.2813 Z-1.9621
G01 X186.6880 Y267.3285 Z-1.9744
G01 X186.6959 Y267.3755 Z-1.9867
G01 X186.7060 Y267.4220 Z-1.9991
G01 X186.7183 Y267.4679 Z-2.0114
G01 X186.7328 Y267.5133 Z-2.0237
G01 X186.7495 Y267.5579 Z-2.0360
G01 X186.7682 Y267.6016 Z-2.0483
G01 X186.7890 Y267.6444 Z-2.0606
G01 X186.8118 Y267.6862 Z-2.0729
G01 X186.8366 Y267.7268 Z-2.0852
G01 X186.8632 Y267.7663 Z-2.0975
G01 X186.8918 Y267.8044 Z-2.1098
G01 X186.9221 Y267.8411 Z-2.1222
G01 X186.9541 Y267.8763 Z-2.1345
G01 X186.9877 Y267.9099 Z-2.1468
G01 X187.0230 Y267.9420 Z-2.1591
G01 X187.0597 Y267.9723 Z-2.1714
G01 X187.0978 Y268.0008 Z-2.1837
G01 X187.1372 Y268.0275 Z-2.1960
G01 X187.1778 Y268.0522 Z-2.2083
G01 X187.2196 Y268.0750 Z-2.2206
G01 X187.2624 Y268.0958 Z-2.2330
G01 X187.3062 Y268.1146 Z-2.2453
G01 X187.3508 Y268.1312 Z-2.2576
G01 X187.3961 Y268.1457 Z-2.2699
G01 X187.4421 Y268.1580 Z-2.2822
G01 X187.4886 Y268.1681 Z-2.2945
G01 X187.5355 Y268.1760 Z-2.3068
G01 X187.5828 Y268.1817 Z-2.3191
G01 X187.6302 Y268.1851 Z-2.3314
G01 X187.6778 Y268.1862 Z-2.3438
G01 X187.7254 Y268.1851 Z-2.3561
G01 X187.7729 Y268.1817 Z-2.3684
G01 X187.8201 Y268.1760 Z-2.3807
G01 X187.8671 Y268.1681 Z-2.3930
G01 X187.9136 Y268.1580 Z-2.4053
G01 X187.9596 Y268.1457 Z-2.4176
G01 X188.0049 Y268.1312 Z-2.4299
G01 X188.0495 Y268.1146 Z-2.4422
G01 X188.0932 Y268.0958 Z-2.4545
G01 X188.1360 Y268.0750 Z-2.4669
G01 X188.1778 Y268.0522 Z-2.4792
G01 X188.2185 Y268.0275 Z-2.4915
G01 X188.2579 Y268.0008 Z-2.5038
G01 X188.2960 Y267.9723 Z-2.5161
G01 X188.3327 Y267.9420 Z-2.5284
G01 X188.3679 Y267.9099 Z-2.5407
G01 X188.4016 Y267.8763 Z-2.5530
G01 X188.4336 Y267.8411 Z-2.5653
G01 X188.4639 Y267.8044 Z-2.5777
G01 X188.4924 Y267.7663 Z-2.5900
G01 X188.5191 Y267.7268 Z-2.6023
G01 X188.5438 Y267.6862 Z-2.6146
G01 X188.5667 Y267.6444 Z-2.6269
G01 X188.5875 Y267.6016 Z-2.6392
G01 X188.6062 Y267.5579 Z-2.6515
G01 X188.6228 Y267.5133 Z-2.6638
G01 X188.6373 Y267.4679 Z-2.6761
G01 X188.6496 Y267.4220 Z-2.6884
G01 X188.6598 Y267.3755 Z-2.7008
G01 X188.6676 Y267.3285 Z-2.7131
G01 X188.6733 Y267.2813 Z-2.7254
G01 X188.6767 Y267.2338 Z-2.7377
G01 X188.6778 Y267.1862 Z-2.7500
G01 X188.6740 Y267.0990
G01 X188.6626 Y267.0126
G01 X188.6437 Y266.9274
G01 X188.6175 Y266.8442
G01 X188.5841 Y266.7636
G01 X188.5438 Y266.6862
G01 X188.4970 Y266.6126
G01 X188.4439 Y266.5434
G01 X188.3849 Y266.4791
G01 X188.3206 Y266.4202
G01 X188.2514 Y266.3671
G01 X188.1778 Y266.3202
G01 X188.1004 Y266.2799
G01 X188.0198 Y266.2465
G01 X187.9366 Y266.2203
G01 X187.8515 Y266.2014
G01 X187.7650 Y266.1900
G01 X187.6778 Y266.1862
G01 X187.5907 Y266.1900
G01 X187.5042 Y266.2014
G01 X187.4190 Y266.2203
G01 X187.3358 Y266.2465
G01 X187.2552 Y266.2799
G01 X187.1778 Y266.3202
G01 X187.1372 Y266.3450
G01 X187.0978 Y266.3716
G01 X187.0597 Y266.4002
G01 X187.0230 Y266.4305
G01 X186.9877 Y266.4625
G01 X186.9541 Y266.4961
G01 X186.9221 Y266.5313
G01 X186.8918 Y266.5680
G01 X186.8632 Y266.6061
G01 X186.8366 Y266.6456
G01 X186.8118 Y266.6862
G01 X186.7890 Y266.7280
G01 X186.7682 Y266.7708
G01 X186.7495 Y266.8145
G01 X186.7328 Y266.8591
G01 X186.7183 Y266.9045
G01 X186.7060 Y266.9504
G01 X186.6959 Y266.9970
G01 X186.6880 Y267.0439
G01 X186.6823 Y267.0911
G01 X186.6790 Y267.1386
G01 X186.6778 Y267.1862
G01 X186.6790 Y267.2338
G01 X186.6823 Y267.2813
G01 X186.6880 Y267.3285
G01 X186.6959 Y267.3755
G01 X186.7060 Y267.4220
G01 X186.7183 Y267.4679
G01 X186.7328 Y267.5133
G01 X186.7495 Y267.5579
G01 X186.7682 Y267.6016
G01 X186.7890 Y267.6444
G01 X186.8118 Y267.6862
G01 X186.8366 Y267.7268
G01 X186.8632 Y267.7663
G01 X186.8918 Y267.8044
G01 X186.9221 Y267.8411
G01 X186.9541 Y267.8763
G01 X186.9877 Y267.9099
G01 X187.0230 Y267.9420
G01 X187.0597 Y267.9723
G01 X187.0978 Y268.0008
G01 X187.1372 Y268.0275
G01 X187.1778 Y268.0522
G01 X187.2196 Y268.0750
G01 X187.2624 Y268.0958
G01 X187.3062 Y268.1146
G01 X187.3508 Y268.1312
G01 X187.3961 Y268.1457
G01 X187.4421 Y268.1580
G01 X187.4886 Y268.1681
G01 X187.5355 Y268.1760
G01 X187.5828 Y268.1817
G01 X187.6302 Y268.1851
G01 X187.6778 Y268.1862
G01 X187.7254 Y268.1851
G01 X187.7729 Y268.1817
G01 X187.8201 Y268.1760
G01 X187.8671 Y268.1681
G01 X187.9136 Y268.1580
G01 X187.9596 Y268.1457
G01 X188.0049 Y268.1312
G01 X188.0495 Y268.1146
G01 X188.0932 Y268.0958
G01 X188.1360 Y268.0750
G01 X188.1778 Y268.0522
G01 X188.2185 Y268.0275
G01 X188.2579 Y268.0008
G01 X188.2960 Y267.9723
G01 X188.3327 Y267.9420
G01 X188.3679 Y267.9099
G01 X188.4016 Y267.8763
G01 X188.4336 Y267.8411
G01 X188.4639 Y267.8044
G01 X188.4924 Y267.7663
G01 X188.5191 Y267.7268
G01 X188.5438 Y267.6862
G01 X188.5667 Y267.6444
G01 X188.5875 Y267.6016
G01 X188.6062 Y267.5579
G01 X188.6228 Y267.5133
G01 X188.6373 Y267.4679
G01 X188.6496 Y267.4220
G01 X188.6598 Y267.3755
G01 X188.6676 Y267.3285
G01 X188.6733 Y267.2813
G01 X188.6767 Y267.2338
G01 X188.6778 Y267.1862
G01 X188.6886 Y267.1346 F1000
G01 X188.6966 Y267.0825
G01 X188.7020 Y267.0301
G01 X188.7047 Y266.9775
G01 Y266.9248
G01 X188.7019 Y266.8721
G01 X188.6965 Y266.8197
G01 X188.6883 Y266.7676
G01 X188.6766 Y266.7117
G01 X188.6620 Y266.6563
G01 X188.6447 Y266.6019
G01 X188.6245 Y266.5483
G01 X188.6017 Y266.4959
G01 X188.5762 Y266.4447
G01 X188.5481 Y266.3948
G01 X188.5175 Y266.3465
G01 X188.4819 Y266.2961
G01 X188.4438 Y266.2476
G01 X188.4032 Y266.2011
G01 X188.3604 Y266.1567
G01 X188.3153 Y266.1145
G01 X188.2682 Y266.0747
G01 X188.2191 Y266.0373
G01 X188.1681 Y266.0025
G01 X188.1116 Y265.9679
G01 X188.0535 Y265.9362
G01 X187.9938 Y265.9076
G01 X187.9327 Y265.8819
G01 X187.8704 Y265.8594
G01 X187.8070 Y265.8401
G01 X187.7428 Y265.8240
G01 X187.6778 Y265.8112
G01 X187.6078 Y265.8010
G01 X187.5373 Y265.7944
G01 X187.4666 Y265.7913
G01 X187.3959 Y265.7918
G01 X187.3252 Y265.7958
G01 X187.2549 Y265.8035
G01 X187.1850 Y265.8146
G01 X187.1158 Y265.8293
G01 X187.0476 Y265.8552
G01 X186.9807 Y265.8845
G01 X186.9154 Y265.9170
G01 X186.8518 Y265.9527
G01 X186.7900 Y265.9915
G01 X186.7302 Y266.0333
G01 X186.6725 Y266.0780
G01 X186.6171 Y266.1255
G01 X186.5663 Y266.1788
G01 X186.5182 Y266.2346
G01 X186.4730 Y266.2926
G01 X186.4306 Y266.3528
G01 X186.3912 Y266.4150
G01 X186.3549 Y266.4791
G01 X186.3218 Y266.5448
G01 X186.2919 Y266.6122
G01 X186.2654 Y266.6808
G01 X186.2423 Y266.7508
G01 X186.2227 Y266.8217
G01 X186.2066 Y266.8936
G01 X186.1940 Y266.9661
G01 X186.1850 Y267.0392
G01 X186.1796 Y267.1126
G01 X186.1777 Y267.1862
G01 X186.1796 Y267.2598
G01 X186.1850 Y267.3332
G01 X186.1940 Y267.4063
G01 X186.2066 Y267.4789
G01 X186.2227 Y267.5507
G01 X186.2423 Y267.6217
G01 X186.2654 Y267.6916
G01 X186.2919 Y267.7603
G01 X186.3218 Y267.8276
G01 X186.3549 Y267.8933
G01 X186.3912 Y267.9574
G01 X186.4306 Y268.0196
G01 X186.4730 Y268.0798
G01 X186.5182 Y268.1378
G01 X186.5663 Y268.1936
G01 X186.6171 Y268.2469
G01 X186.6704 Y268.2977
G01 X186.7262 Y268.3458
G01 X186.7842 Y268.3911
G01 X186.8444 Y268.4335
G01 X186.9066 Y268.4729
G01 X186.9707 Y268.5092
G01 X187.0365 Y268.5423
G01 X187.1038 Y268.5721
G01 X187.1725 Y268.5986
G01 X187.2424 Y268.6217
G01 X187.3133 Y268.6413
G01 X187.3852 Y268.6575
G01 X187.4577 Y268.6700
G01 X187.5308 Y268.6791
G01 X187.6042 Y268.6845
G01 X187.6778 Y268.6863
G01 X187.7514 Y268.6845
G01 X187.8249 Y268.6791
G01 X187.8979 Y268.6700
G01 X187.9705 Y268.6575
G01 X188.0423 Y268.6413
G01 X188.1133 Y268.6217
G01 X188.1832 Y268.5986
G01 X188.2519 Y268.5721
G01 X188.3192 Y268.5423
G01 X188.3850 Y268.5092
G01 X188.4490 Y268.4729
G01 X188.5112 Y268.4335
G01 X188.5714 Y268.3911
G01 X188.6295 Y268.3458
G01 X188.6852 Y268.2977
G01 X188.7385 Y268.2469
G01 X188.7893 Y268.1936
G01 X188.8374 Y268.1378
G01 X188.8827 Y268.0798
G01 X188.9251 Y268.0196
G01 X188.9645 Y267.9574
G01 X189.0008 Y267.8933
G01 X189.0339 Y267.8276
G01 X189.0637 Y267.7603
G01 X189.0902 Y267.6916
G01 X189.1133 Y267.6217
G01 X189.1329 Y267.5507
G01 X189.1491 Y267.4789
G01 X189.1617 Y267.4063
G01 X189.1707 Y267.3332
G01 X189.1761 Y267.2598
G01 X189.1779 Y267.1862
G01 X189.1737 Y267.0741
G01 X189.1611 Y266.9626
G01 X189.1403 Y266.8524
G01 X189.1113 Y266.7441
G01 X189.0742 Y266.6382
G01 X189.0293 Y266.5353
G01 X188.9769 Y266.4362
G01 X188.9172 Y266.3412
G01 X188.8506 Y266.2509
G01 X188.7775 Y266.1659
G01 X188.6981 Y266.0866
G01 X188.6131 Y266.0134
G01 X188.5228 Y265.9468
G01 X188.4279 Y265.8871
G01 X188.3287 Y265.8347
G01 X188.2259 Y265.7898
G01 X188.1200 Y265.7528
G01 X188.0116 Y265.7237
G01 X187.9014 Y265.7029
G01 X187.7899 Y265.6903
G01 X187.6778 Y265.6861
G01 X187.5657 Y265.6903
G01 X187.4542 Y265.7029
G01 X187.3440 Y265.7237
G01 X187.2357 Y265.7528
G01 X187.1298 Y265.7898
G01 X187.0270 Y265.8347
G01 X186.9278 Y265.8871
G01 X186.8328 Y265.9468
G01 X186.7425 Y266.0134
G01 X186.6575 Y266.0866
G01 X186.5782 Y266.1659
G01 X186.5050 Y266.2509
G01 X186.4384 Y266.3412
G01 X186.3787 Y266.4362
G01 X186.3263 Y266.5353
G01 X186.2814 Y266.6382
G01 X186.2444 Y266.7441
G01 X186.2154 Y266.8524
G01 X186.1945 Y266.9626
G01 X186.1819 Y267.0741
G01 X186.1777 Y267.1862
G01 X186.1819 Y267.2983
G01 X186.1945 Y267.4098
G01 X186.2154 Y267.5200
G01 X186.2444 Y267.6284
G01 X186.2814 Y267.7342
G01 X186.3263 Y267.8371
G01 X186.3787 Y267.9362
G01 X186.4384 Y268.0312
G01 X186.5050 Y268.1215
G01 X186.5782 Y268.2065
G01 X186.6575 Y268.2858
G01 X186.7425 Y268.3590
G01 X186.8328 Y268.4256
G01 X186.9278 Y268.4853
G01 X187.0270 Y268.5377
G01 X187.1298 Y268.5826
G01 X187.2357 Y268.6196
G01 X187.3440 Y268.6487
G01 X187.4542 Y268.6695
G01 X187.5657 Y268.6821
G01 X187.6778 Y268.6863
G01 X187.7899 Y268.6821
G01 X187.9014 Y268.6695
G01 X188.0116 Y268.6487
G01 X188.1200 Y268.6196
G01 X188.2259 Y268.5826
G01 X188.3287 Y268.5377
G01 X188.4279 Y268.4853
G01 X188.5228 Y268.4256
G01 X188.6131 Y268.3590
G01 X188.6981 Y268.2858
G01 X188.7775 Y268.2065
G01 X188.8506 Y268.1215
G01 X188.9172 Y268.0312
G01 X188.9769 Y267.9362
G01 X189.0293 Y267.8371
G01 X189.0742 Y267.7342
G01 X189.1113 Y267.6284
G01 X189.1403 Y267.5200
G01 X189.1611 Y267.4098
G01 X189.1737 Y267.2983
G01 X189.1779 Y267.1862
G01 X189.1740 Y267.0881
G01 X189.1625 Y266.9907
G01 X189.1434 Y266.8944
G01 X189.1167 Y266.7999
G01 X189.0827 Y266.7078
G01 X189.0416 Y266.6187
G01 X188.9937 Y266.5331
G01 X188.9392 Y266.4515
G01 X188.8784 Y266.3744
G01 X188.8118 Y266.3023
G01 X188.7397 Y266.2357
G01 X188.6626 Y266.1749
G01 X188.5810 Y266.1204
G01 X188.4954 Y266.0724
G01 X188.4062 Y266.0313
G01 X188.3141 Y265.9973
G01 X188.2197 Y265.9707
G01 X188.1234 Y265.9516
G01 X188.0259 Y265.9400
G01 X187.9279 Y265.9362
G01 X187.8298 Y265.9400
G01 X187.7323 Y265.9516
G01 X187.6360 Y265.9707
G01 X187.5416 Y265.9973
G01 X187.4495 Y266.0313
G01 X187.3604 Y266.0724
G01 X187.2747 Y266.1204
G01 X187.1931 Y266.1749
G01 X187.1160 Y266.2357
G01 X187.0439 Y266.3023
G01 X186.9773 Y266.3744
G01 X186.9166 Y266.4515
G01 X186.8620 Y266.5331
G01 X186.8141 Y266.6187
G01 X186.7730 Y266.7078
G01 X186.7390 Y266.7999
G01 X186.7124 Y266.8944
G01 X186.6932 Y266.9907
G01 X186.6817 Y267.0881
G01 X186.6778 Y267.1862
G01 X186.6816 Y267.2734
G01 X186.6930 Y267.3599
G01 X186.7119 Y267.4450
G01 X186.7381 Y267.5282
G01 X186.7715 Y267.6088
G01 X186.8118 Y267.6862
G01 X186.8587 Y267.7598
G01 X186.9118 Y267.8290
G01 X186.9707 Y267.8933
G01 X187.0350 Y267.9522
G01 X187.1042 Y268.0054
G01 X187.1778 Y268.0522
G01 X187.2552 Y268.0925
G01 X187.3358 Y268.1259
G01 X187.4190 Y268.1521
G01 X187.5042 Y268.1710
G01 X187.5907 Y268.1824
G01 X187.6778 Y268.1862
G01 X187.7650 Y268.1824
G01 X187.8515 Y268.1710
G01 X187.9366 Y268.1521
G01 X188.0198 Y268.1259
G01 X188.1004 Y268.0925
G01 X188.1778 Y268.0522
G01 X188.2514 Y268.0054
G01 X188.3206 Y267.9522
G01 X188.3849 Y267.8933
G01 X188.4439 Y267.8290
G01 X188.4970 Y267.7598
G01 X188.5438 Y267.6862
G01 X188.5841 Y267.6088
G01 X188.6175 Y267.5282
G01 X188.6437 Y267.4450
G01 X188.6626 Y267.3599
G01 X188.6740 Y267.2734
G01 X188.6778 Y267.1862
M107
M106 S240
G01 X188.6740 Y267.0990 Z-2.7726 F400
G01 X188.6626 Y267.0126 Z-2.7951
G01 X188.6437 Y266.9274 Z-2.8177
G01 X188.6175 Y266.8442 Z-2.8403
G01 X188.5841 Y266.7636 Z-2.8628
G01 X188.5438 Y266.6862 Z-2.8854
G01 X188.4970 Y266.6126 Z-2.9080
G01 X188.4439 Y266.5434 Z-2.9306
G01 X188.3849 Y266.4791 Z-2.9531
G01 X188.3206 Y266.4202 Z-2.9757
G01 X188.2514 Y266.3671 Z-2.9983
G01 X188.1778 Y266.3202 Z-3.0208
G01 X188.1004 Y266.2799 Z-3.0434
G01 X188.0198 Y266.2465 Z-3.0660
G01 X187.9366 Y266.2203 Z-3.0885
G01 X187.8515 Y266.2014 Z-3.1111
G01 X187.7650 Y266.1900 Z-3.1337
G01 X187.6778 Y266.1862 Z-3.1563
G01 X187.5907 Y266.1900 Z-3.1788
G01 X187.5042 Y266.2014 Z-3.2014
G01 X187.4190 Y266.2203 Z-3.2240
G01 X187.3358 Y266.2465 Z-3.2465
G01 X187.2552 Y266.2799 Z-3.2691
G01 X187.1778 Y266.3202 Z-3.2917
G01 X187.1372 Y266.3450 Z-3.3040
G01 X187.0978 Y266.3716 Z-3.3163
G01 X187.0597 Y266.4002 Z-3.3286
G01 X187.0230 Y266.4305 Z-3.3409
G01 X186.9877 Y266.4625 Z-3.3532
G01 X186.9541 Y266.4961 Z-3.3655
G01 X186.9221 Y266.5313 Z-3.3778
G01 X186.8918 Y266.5680 Z-3.3902
G01 X186.8632 Y266.6061 Z-3.4025
G01 X186.8366 Y266.6456 Z-3.4148
G01 X186.8118 Y266.6862 Z-3.4271
G01 X186.7890 Y266.7280 Z-3.4394
G01 X186.7682 Y266.7708 Z-3.4517
G01 X186.7495 Y266.8145 Z-3.4640
G01 X186.7328 Y266.8591 Z-3.4763
G01 X186.7183 Y266.9045 Z-3.4886
G01 X186.7060 Y266.9504 Z-3.5009
G01 X186.6959 Y266.9970 Z-3.5133
G01 X186.6880 Y267.0439 Z-3.5256
G01 X186.6823 Y267.0911 Z-3.5379
G01 X186.6790 Y267.1386 Z-3.5502
G01 X186.6778 Y267.1862 Z-3.5625
G01 X186.6790 Y267.2338 Z-3.5748
G01 X186.6823 Y267.2813 Z-3.5871
G01 X186.6880 Y267.3285 Z-3.5994
G01 X186.6959 Y267.3755 Z-3.6117
G01 X186.7060 Y267.4220 Z-3.6241
G01 X186.7183 Y267.4679 Z-3.6364
G01 X186.7328 Y267.5133 Z-3.6487
G01 X186.7495 Y267.5579 Z-3.6610
G01 X186.7682 Y267.6016 Z-3.6733
G01 X186.7890 Y267.6444 Z-3.6856
G01 X186.8118 Y267.6862 Z-3.6979
G01 X186.8366 Y267.7268 Z-3.7102
G01 X186.8632 Y267.7663 Z-3.7225
G01 X186.8918 Y267.8044 Z-3.7348
G01 X186.9221 Y267.8411 Z-3.7472
G01 X186.9541 Y267.8763 Z-3.7595
G01 X186.9877 Y267.9099 Z-3.7718
G01 X187.0230 Y267.9420 Z-3.7841
G01 X187.0597 Y267.9723 Z-3.7964
G01 X187.0978 Y268.0008 Z-3.8087
G01 X187.1372 Y268.0275 Z-3.8210
G01 X187.1778 Y268.0522 Z-3.8333
G01 X187.2196 Y268.0750 Z-3.8456
G01 X187.2624 Y268.0958 Z-3.8580
G01 X187.3062 Y268.1146 Z-3.8703
G01 X187.3508 Y268.1312 Z-3.8826
G01 X187.3961 Y268.1457 Z-3.8949
G01 X187.4421 Y268.1580 Z-3.9072
G01 X187.4886 Y268.1681 Z-3.9195
G01 X187.5355 Y268.1760 Z-3.9318
G01 X187.5828 Y268.1817 Z-3.9441
G01 X187.6302 Y268.1851 Z-3.9564
G01 X187.6778 Y268.1862 Z-3.9688
G01 X187.7254 Y268.1851 Z-3.9811
G01 X187.7729 Y268.1817 Z-3.9934
G01 X187.8201 Y268.1760 Z-4.0057
G01 X187.8671 Y268.1681 Z-4.0180
G01 X187.9136 Y268.1580 Z-4.0303
G01 X187.9596 Y268.1457 Z-4.0426
G01 X188.0049 Y268.1312 Z-4.0549
G01 X188.0495 Y268.1146 Z-4.0672
G01 X188.0932 Y268.0958 Z-4.0795
G01 X188.1360 Y268.0750 Z-4.0919
G01 X188.1778 Y268.0522 Z-4.1042
G01 X188.2185 Y268.0275 Z-4.1165
G01 X188.2579 Y268.0008 Z-4.1288
G01 X188.2960 Y267.9723 Z-4.1411
G01 X188.3327 Y267.9420 Z-4.1534
G01 X188.3679 Y267.9099 Z-4.1657
G01 X188.4016 Y267.8763 Z-4.1780
G01 X188.4336 Y267.8411 Z-4.1903
G01 X188.4639 Y267.8044 Z-4.2027
G01 X188.4924 Y267.7663 Z-4.2150
G01 X188.5191 Y267.7268 Z-4.2273
G01 X188.5438 Y267.6862 Z-4.2396
G01 X188.5667 Y267.6444 Z-4.2519
G01 X188.5875 Y267.6016 Z-4.2642
G01 X188.6062 Y267.5579 Z-4.2765
G01 X188.6228 Y267.5133 Z-4.2888
G01 X188.6373 Y267.4679 Z-4.3011
G01 X188.6496 Y267.4220 Z-4.3134
G01 X188.6598 Y267.3755 Z-4.3258
G01 X188.6676 Y267.3285 Z-4.3381
G01 X188.6733 Y267.2813 Z-4.3504
G01 X188.6767 Y267.2338 Z-4.3627
G01 X188.6778 Y267.1862 Z-4.3750
G01 X188.6740 Y267.0990
G01 X188.6626 Y267.0126
G01 X188.6437 Y266.9274
G01 X188.6175 Y266.8442
G01 X188.5841 Y266.7636
G01 X188.5438 Y266.6862
G01 X188.4970 Y266.6126
G01 X188.4439 Y266.5434
G01 X188.3849 Y266.4791
G01 X188.3206 Y266.4202
G01 X188.2514 Y266.3671
G01 X188.1778 Y266.3202
G01 X188.1004 Y266.2799
G01 X188.0198 Y266.2465
G01 X187.9366 Y266.2203
G01 X187.8515 Y266.2014
G01 X187.7650 Y266.1900
G01 X187.6778 Y266.1862
G01 X187.5907 Y266.1900
G01 X187.5042 Y266.2014
G01 X187.4190 Y266.2203
G01 X187.3358 Y266.2465
G01 X187.2552 Y266.2799
G01 X187.1778 Y266.3202
G01 X187.1372 Y266.3450
G01 X187.0978 Y266.3716
G01 X187.0597 Y266.4002
G01 X187.0230 Y266.4305
G01 X186.9877 Y266.4625
G01 X186.9541 Y266.4961
G01 X186.9221 Y266.5313
G01 X186.8918 Y266.5680
G01 X186.8632 Y266.6061
G01 X186.8366 Y266.6456
G01 X186.8118 Y266.6862
G01 X186.7890 Y266.7280
G01 X186.7682 Y266.7708
G01 X186.7495 Y266.8145
G01 X186.7328 Y266.8591
G01 X186.7183 Y266.9045
G01 X186.7060 Y266.9504
G01 X186.6959 Y266.9970
G01 X186.6880 Y267.0439
G01 X186.6823 Y267.0911
G01 X186.6790 Y267.1386
G01 X186.6778 Y267.1862
G01 X186.6790 Y267.2338
G01 X186.6823 Y267.2813
G01 X186.6880 Y267.3285
G01 X186.6959 Y267.3755
G01 X186.7060 Y267.4220
G01 X186.7183 Y267.4679
G01 X186.7328 Y267.5133
G01 X186.7495 Y267.5579
G01 X186.7682 Y267.6016
G01 X186.7890 Y267.6444
G01 X186.8118 Y267.6862
G01 X186.8366 Y267.7268
G01 X186.8632 Y267.7663
G01 X186.8918 Y267.8044
G01 X186.9221 Y267.8411
G01 X186.9541 Y267.8763
G01 X186.9877 Y267.9099
G01 X187.0230 Y267.9420
G01 X187.0597 Y267.9723
G01 X187.0978 Y268.0008
G01 X187.1372 Y268.0275
G01 X187.1778 Y268.0522
G01 X187.2196 Y268.0750
G01 X187.2624 Y268.0958
G01 X187.3062 Y268.1146
G01 X187.3508 Y268.1312
G01 X187.3961 Y268.1457
G01 X187.4421 Y268.1580
G01 X187.4886 Y268.1681
G01 X187.5355 Y268.1760
G01 X187.5828 Y268.1817
G01 X187.6302 Y268.1851
G01 X187.6778 Y268.1862
G01 X187.7254 Y268.1851
G01 X187.7729 Y268.1817
G01 X187.8201 Y268.1760
G01 X187.8671 Y268.1681
G01 X187.9136 Y268.1580
G01 X187.9596 Y268.1457
G01 X188.0049 Y268.1312
G01 X188.0495 Y268.1146
G01 X188.0932 Y268.0958
G01 X188.1360 Y268.0750
G01 X188.1778 Y268.0522
G01 X188.2185 Y268.0275
G01 X188.2579 Y268.0008
G01 X188.2960 Y267.9723
G01 X188.3327 Y267.9420
G01 X188.3679 Y267.9099
G01 X188.4016 Y267.8763
G01 X188.4336 Y267.8411
G01 X188.4639 Y267.8044
G01 X188.4924 Y267.7663
G01 X188.5191 Y267.7268
G01 X188.5438 Y267.6862
G01 X188.5667 Y267.6444
G01 X188.5875 Y267.6016
G01 X188.6062 Y267.5579
G01 X188.6228 Y267.5133
G01 X188.6373 Y267.4679
G01 X188.6496 Y267.4220
G01 X188.6598 Y267.3755
G01 X188.6676 Y267.3285
G01 X188.6733 Y267.2813
G01 X188.6767 Y267.2338
G01 X188.6778 Y267.1862
G01 X188.6886 Y267.1346 F1000
G01 X188.6966 Y267.0825
G01 X188.7020 Y267.0301
G01 X188.7047 Y266.9775
G01 Y266.9248
G01 X188.7019 Y266.8721
G01 X188.6965 Y266.8197
G01 X188.6883 Y266.7676
G01 X188.6766 Y266.7117
G01 X188.6620 Y266.6563
G01 X188.6447 Y266.6019
G01 X188.6245 Y266.5483
G01 X188.6017 Y266.4959
G01 X188.5762 Y266.4447
G01 X188.5481 Y266.3948
G01 X188.5175 Y266.3465
G01 X188.4819 Y266.2961
G01 X188.4438 Y266.2476
G01 X188.4032 Y266.2011
G01 X188.3604 Y266.1567
G01 X188.3153 Y266.1145
G01 X188.2682 Y266.0747
G01 X188.2191 Y266.0373
G01 X188.1681 Y266.0025
G01 X188.1116 Y265.9679
G01 X188.0535 Y265.9362
G01 X187.9938 Y265.9076
G01 X187.9327 Y265.8819
G01 X187.8704 Y265.8594
G01 X187.8070 Y265.8401
G01 X187.7428 Y265.8240
G01 X187.6778 Y265.8112
G01 X187.6078 Y265.8010
G01 X187.5373 Y265.7944
G01 X187.4666 Y265.7913
G01 X187.3959 Y265.7918
G01 X187.3252 Y265.7958
G01 X187.2549 Y265.8035
G01 X187.1850 Y265.8146
G01 X187.1158 Y265.8293
G01 X187.0476 Y265.8552
G01 X186.9807 Y265.8845
G01 X186.9154 Y265.9170
G01 X186.8518 Y265.9527
G01 X186.7900 Y265.9915
G01 X186.7302 Y266.0333
G01 X186.6725 Y266.0780
G01 X186.6171 Y266.1255
G01 X186.5663 Y266.1788
G01 X186.5182 Y266.2346
G01 X186.4730 Y266.2926
G01 X186.4306 Y266.3528
G01 X186.3912 Y266.4150
G01 X186.3549 Y266.4791
G01 X186.3218 Y266.5448
G01 X186.2919 Y266.6122
G01 X186.2654 Y266.6808
G01 X186.2423 Y266.7508
G01 X186.2227 Y266.8217
G01 X186.2066 Y266.8936
G01 X186.1940 Y266.9661
G01 X186.1850 Y267.0392
G01 X186.1796 Y267.1126
G01 X186.1777 Y267.1862
G01 X186.1796 Y267.2598
G01 X186.1850 Y267.3332
G01 X186.1940 Y267.4063
G01 X186.2066 Y267.4789
G01 X186.2227 Y267.5507
G01 X186.2423 Y267.6217
G01 X186.2654 Y267.6916
G01 X186.2919 Y267.7603
G01 X186.3218 Y267.8276
G01 X186.3549 Y267.8933
G01 X186.3912 Y267.9574
G01 X186.4306 Y268.0196
G01 X186.4730 Y268.0798
G01 X186.5182 Y268.1378
G01 X186.5663 Y268.1936
G01 X186.6171 Y268.2469
G01 X186.6704 Y268.2977
G01 X186.7262 Y268.3458
G01 X186.7842 Y268.3911
G01 X186.8444 Y268.4335
G01 X186.9066 Y268.4729
G01 X186.9707 Y268.5092
G01 X187.0365 Y268.5423
G01 X187.1038 Y268.5721
G01 X187.1725 Y268.5986
G01 X187.2424 Y268.6217
G01 X187.3133 Y268.6413
G01 X187.3852 Y268.6575
G01 X187.4577 Y268.6700
G01 X187.5308 Y268.6791
G01 X187.6042 Y268.6845
G01 X187.6778 Y268.6863
G01 X187.7514 Y268.6845
G01 X187.8249 Y268.6791
G01 X187.8979 Y268.6700
G01 X187.9705 Y268.6575
G01 X188.0423 Y268.6413
G01 X188.1133 Y268.6217
G01 X188.1832 Y268.5986
G01 X188.2519 Y268.5721
G01 X188.3192 Y268.5423
G01 X188.3850 Y268.5092
G01 X188.4490 Y268.4729
G01 X188.5112 Y268.4335
G01 X188.5714 Y268.3911
G01 X188.6295 Y268.3458
G01 X188.6852 Y268.2977
G01 X188.7385 Y268.2469
G01 X188.7893 Y268.1936
G01 X188.8374 Y268.1378
G01 X188.8827 Y268.0798
G01 X188.9251 Y268.0196
G01 X188.9645 Y267.9574
G01 X189.0008 Y267.8933
G01 X189.0339 Y267.8276
G01 X189.0637 Y267.7603
G01 X189.0902 Y267.6916
G01 X189.1133 Y267.6217
G01 X189.1329 Y267.5507
G01 X189.1491 Y267.4789
G01 X189.1617 Y267.4063
G01 X189.1707 Y267.3332
G01 X189.1761 Y267.2598
G01 X189.1779 Y267.1862
G01 X189.1737 Y267.0741
G01 X189.1611 Y266.9626
G01 X189.1403 Y266.8524
G01 X189.1113 Y266.7441
G01 X189.0742 Y266.6382
G01 X189.0293 Y266.5353
G01 X188.9769 Y266.4362
G01 X188.9172 Y266.3412
G01 X188.8506 Y266.2509
G01 X188.7775 Y266.1659
G01 X188.6981 Y266.0866
G01 X188.6131 Y266.0134
G01 X188.5228 Y265.9468
G01 X188.4279 Y265.8871
G01 X188.3287 Y265.8347
G01 X188.2259 Y265.7898
G01 X188.1200 Y265.7528
G01 X188.0116 Y265.7237
G01 X187.9014 Y265.7029
G01 X187.7899 Y265.6903
G01 X187.6778 Y265.6861
G01 X187.5657 Y265.6903
G01 X187.4542 Y265.7029
G01 X187.3440 Y265.7237
G01 X187.2357 Y265.7528
G01 X187.1298 Y265.7898
G01 X187.0270 Y265.8347
G01 X186.9278 Y265.8871
G01 X186.8328 Y265.9468
G01 X186.7425 Y266.0134
G01 X186.6575 Y266.0866
G01 X186.5782 Y266.1659
G01 X186.5050 Y266.2509
G01 X186.4384 Y266.3412
G01 X186.3787 Y266.4362
G01 X186.3263 Y266.5353
G01 X186.2814 Y266.6382
G01 X186.2444 Y266.7441
G01 X186.2154 Y266.8524
G01 X186.1945 Y266.9626
G01 X186.1819 Y267.0741
G01 X186.1777 Y267.1862
G01 X186.1819 Y267.2983
G01 X186.1945 Y267.4098
G01 X186.2154 Y267.5200
G01 X186.2444 Y267.6284
G01 X186.2814 Y267.7342
G01 X186.3263 Y267.8371
G01 X186.3787 Y267.9362
G01 X186.4384 Y268.0312
G01 X186.5050 Y268.1215
G01 X186.5782 Y268.2065
G01 X186.6575 Y268.2858
G01 X186.7425 Y268.3590
G01 X186.8328 Y268.4256
G01 X186.9278 Y268.4853
G01 X187.0270 Y268.5377
G01 X187.1298 Y268.5826
G01 X187.2357 Y268.6196
G01 X187.3440 Y268.6487
G01 X187.4542 Y268.6695
G01 X187.5657 Y268.6821
G01 X187.6778 Y268.6863
G01 X187.7899 Y268.6821
G01 X187.9014 Y268.6695
G01 X188.0116 Y268.6487
G01 X188.1200 Y268.6196
G01 X188.2259 Y268.5826
G01 X188.3287 Y268.5377
G01 X188.4279 Y268.4853
G01 X188.5228 Y268.4256
G01 X188.6131 Y268.3590
G01 X188.6981 Y268.2858
G01 X188.7775 Y268.2065
G01 X188.8506 Y268.1215
G01 X188.9172 Y268.0312
G01 X188.9769 Y267.9362
G01 X189.0293 Y267.8371
G01 X189.0742 Y267.7342
G01 X189.1113 Y267.6284
G01 X189.1403 Y267.5200
G01 X189.1611 Y267.4098
G01 X189.1737 Y267.2983
G01 X189.1779 Y267.1862
