;Project TeslaCoaster
;Created by Estlcam version 11 build 11,227
;Machining time about 00:19:56 hours

G90
M03 S18000
G00 X0.0000 Y0.0000 Z0.0000
G00 Z2.0000


;No. 1: Hole 11
G00 X52.4647 Y22.3880
G00 Z0.5000
G01 Z0.0000 F400 S18000
G01 Z-1.5000
M106 S240
G01 X53.3976 F1000
G01 X53.6642 Y23.8880
G01 X52.1959
G01 X51.9271 Y25.3880
G01 X53.9308
G01 X54.1974 Y26.8880
G01 X51.6583
G01 X51.3894 Y28.3880
G01 X54.4640
G01 X54.7306 Y29.8880
G01 X51.1206
G01 X50.8518 Y31.3880
G01 X54.9972
G01 X55.2638 Y32.8880
G01 X50.5830
G01 X50.3142 Y34.3880
G01 X55.5305
G01 X55.7971 Y35.8880
G01 X50.0454
G01 X49.7766 Y37.3880
G01 X56.0637
G01 X56.3303 Y38.8880
G01 X49.5077
G01 X49.2389 Y40.3880
G01 X56.5969
G01 X56.7914 Y40.3395
G01 X52.9340 Y18.6367
G01 X48.8003 Y41.7017
G01 X57.0323 Y41.6952
G01 X56.7914 Y40.3395
G01 X56.5969 Y40.3880
M107
G00 Z2.0000


;No. 2: Hole 3


;No. 3: Hole 3
G00 X20.1527 Y44.9932 Z2.0000
G00 Z0.5000
G01 Z0.0000 F400
G01 Z-1.5000
M106 S240
G01 Y52.4825 F1000
G01 X20.1490 Y52.5766
G01 X20.1379 Y52.6702
G01 X20.1195 Y52.7626
G01 X20.0939 Y52.8533
G01 X20.0613 Y52.9417
G01 X20.0219 Y53.0273
G01 X19.9758 Y53.1095
G01 X19.9235 Y53.1878
G01 X19.8651 Y53.2618
G01 X19.8012 Y53.3310
G01 X19.7320 Y53.3950
G01 X19.6580 Y53.4533
G01 X19.5797 Y53.5057
G01 X19.4974 Y53.5517
G01 X19.4119 Y53.5911
G01 X19.3235 Y53.6238
G01 X19.2328 Y53.6493
G01 X19.1404 Y53.6677
G01 X19.0468 Y53.6788
G01 X18.9527 Y53.6825
G01 X18.2414 Y53.6695
G01 X17.5301 Y53.6656
G01 X16.8187 Y53.6709
G01 X16.1075 Y53.6854
G01 X16.0155 Y53.6920
G01 X15.9240 Y53.7046
G01 X15.8336 Y53.7230
G01 X15.7445 Y53.7472
G01 X15.6572 Y53.7770
G01 X15.5720 Y53.8124
G01 X15.4892 Y53.8533
G01 X15.4093 Y53.8993
G01 X15.3324 Y53.9505
G01 X15.2591 Y54.0064
G01 X15.1894 Y54.0670
G01 X15.1238 Y54.1319
G01 X15.0625 Y54.2009
G01 X15.0058 Y54.2737
G01 X14.9539 Y54.3500
G01 X14.9070 Y54.4295
G01 X14.9127 Y54.4189
G01 X14.8922 Y54.4683
G01 X26.1997 Y54.4687
G01 X26.1489 Y54.3815
G01 X26.0924 Y54.2980
G01 X26.0304 Y54.2185
G01 X25.9632 Y54.1433
G01 X25.8911 Y54.0729
G01 X25.8143 Y54.0075
G01 X25.7333 Y53.9474
G01 X25.6485 Y53.8929
G01 X25.5602 Y53.8442
G01 X25.4687 Y53.8016
G01 X25.3747 Y53.7653
G01 X25.2783 Y53.7355
G01 X25.1802 Y53.7122
G01 X25.0808 Y53.6955
G01 X24.9804 Y53.6856
G01 X24.8796 Y53.6825
G01 X22.1388
G01 X22.0447 Y53.6788
G01 X21.9511 Y53.6678
G01 X21.8587 Y53.6494
G01 X21.7680 Y53.6238
G01 X21.6796 Y53.5912
G01 X21.5941 Y53.5517
G01 X21.5118 Y53.5057
G01 X21.4335 Y53.4534
G01 X21.3595 Y53.3950
G01 X21.2903 Y53.3311
G01 X21.2264 Y53.2619
G01 X21.1680 Y53.1879
G01 X21.1157 Y53.1095
G01 X21.0696 Y53.0273
G01 X21.0302 Y52.9418
G01 X20.9976 Y52.8534
G01 X20.9720 Y52.7627
G01 X20.9536 Y52.6703
G01 X20.9425 Y52.5767
G01 X20.9388 Y52.4825
G01 Y44.9932
G01 X20.1527
M107
G00 Z2.0000


;No. 4: Hole 5


;No. 5: Hole 5
G00 X31.5004 Y49.5073 Z2.0000
G00 Z0.5000
G01 Z0.0000 F400
G01 Z-1.5000
M106 S240
G01 X31.4109 Y49.5599 F1000
G01 X31.3253 Y49.6189
G01 X31.2441 Y49.6838
G01 X31.1679 Y49.7543
G01 X31.0969 Y49.8302
G01 X31.0315 Y49.9109
G01 X30.9720 Y49.9962
G01 X30.9188 Y50.0854
G01 X30.9245 Y50.0748
G01 X30.9037 Y50.1235
G01 X42.2111 Y50.1233
G01 X42.1606 Y50.0360
G01 X42.1042 Y49.9523
G01 X42.0423 Y49.8727
G01 X41.9751 Y49.7974
G01 X41.9030 Y49.7268
G01 X41.8263 Y49.6613
G01 X41.7453 Y49.6011
G01 X41.6605 Y49.5466
G01 X41.5721 Y49.4980
G01 X41.4806 Y49.4554
G01 X41.3865 Y49.4191
G01 X41.2901 Y49.3893
G01 X41.1919 Y49.3661
G01 X41.0924 Y49.3496
G01 X40.9920 Y49.3399
G01 X40.8911 Y49.3371
G01 X32.2284
G01 X32.1340 Y49.3380
G01 X32.0398 Y49.3448
G01 X31.9462 Y49.3576
G01 X31.8537 Y49.3762
G01 X31.7624 Y49.4006
G01 X31.6729 Y49.4306
G01 X31.5855 Y49.4662
G01 X31.5004 Y49.5073
M107
G00 Z2.0000


;No. 6: Hole 6


;No. 7: Hole 6
G00 X31.4547 Y45.1881 Z2.0000
G00 Z0.5000
G01 Z0.0000 F400
G01 Z-1.5000
M106 S240
G01 X31.3727 Y45.2405 F1000
G01 X31.2943 Y45.2983
G01 X31.2200 Y45.3611
G01 X31.1499 Y45.4287
G01 X31.0845 Y45.5008
G01 X31.0240 Y45.5771
G01 X30.9687 Y45.6572
G01 X30.9188 Y45.7408
G01 X30.9245 Y45.7302
G01 X30.9037 Y45.7789
G01 X42.2111 Y45.7787
G01 X42.1606 Y45.6914
G01 X42.1042 Y45.6077
G01 X42.0423 Y45.5280
G01 X41.9751 Y45.4528
G01 X41.9030 Y45.3822
G01 X41.8263 Y45.3167
G01 X41.7453 Y45.2565
G01 X41.6604 Y45.2020
G01 X41.5721 Y45.1533
G01 X41.4806 Y45.1108
G01 X41.3865 Y45.0745
G01 X41.2901 Y45.0447
G01 X41.1919 Y45.0215
G01 X41.0924 Y45.0050
G01 X40.9920 Y44.9953
G01 X40.8911 Y44.9924
G01 X32.2246 Y44.9925
G01 X32.1241 Y44.9937
G01 X32.0239 Y45.0017
G01 X31.9245 Y45.0164
G01 X31.8263 Y45.0379
G01 X31.7298 Y45.0659
G01 X31.6354 Y45.1004
G01 X31.5436 Y45.1412
G01 X31.4547 Y45.1881
M107
G00 Z2.0000


;No. 8: Hole 4


;No. 9: Hole 4
G00 X31.5473 Y53.8286 Z2.0000
G00 Z0.5000
G01 Z0.0000 F400
G01 Z-1.5000
M106 S240
G01 X31.4946 Y53.8557 F1000
G01 X31.4430 Y53.8850
G01 X31.3927 Y53.9164
G01 X31.3438 Y53.9498
G01 X31.2962 Y53.9852
G01 X31.2502 Y54.0226
G01 X31.2057 Y54.0618
G01 X31.1630 Y54.1029
G01 X31.1721 Y54.0930
G01 X31.1004 Y54.1705
G01 X31.0340 Y54.2527
G01 X30.9734 Y54.3391
G01 X30.9186 Y54.4294
G01 X30.9243 Y54.4188
G01 X30.9037 Y54.4681
G01 X42.2106 Y54.4680
G01 X42.1600 Y54.3808
G01 X42.1036 Y54.2972
G01 X42.0416 Y54.2176
G01 X41.9744 Y54.1424
G01 X41.9023 Y54.0719
G01 X41.8256 Y54.0064
G01 X41.7446 Y53.9463
G01 X41.6597 Y53.8918
G01 X41.5714 Y53.8431
G01 X41.4799 Y53.8006
G01 X41.3858 Y53.7643
G01 X41.2895 Y53.7344
G01 X41.1913 Y53.7112
G01 X41.0918 Y53.6946
G01 X40.9915 Y53.6848
G01 X40.8906 Y53.6818
G01 X32.2504 Y53.6812
G01 X32.1598
G01 X32.0693 Y53.6866
G01 X31.9793 Y53.6973
G01 X31.8901 Y53.7133
G01 X31.8020 Y53.7345
G01 X31.7153 Y53.7608
G01 X31.6303 Y53.7922
G01 X31.5473 Y53.8286
M107
G00 Z2.0000


;No. 10: Hole 7
G00 X46.9865 Y49.7305 Z2.0000
G00 Z0.5000
G01 Z0.0000 F400
G01 Z-1.5000
M106 S240
G01 X58.1542 F1000
G01 X58.3942 Y49.6696
G01 Y44.9928
G01 X46.9144 Y44.9931
G01 X46.9650 Y45.0806
G01 X47.0214 Y45.1644
G01 X47.0834 Y45.2441
G01 X47.1507 Y45.3195
G01 X47.2229 Y45.3901
G01 X47.2997 Y45.4557
G01 X47.3808 Y45.5158
G01 X47.4659 Y45.5704
G01 X47.5544 Y45.6190
G01 X47.6460 Y45.6615
G01 X47.7403 Y45.6977
G01 X47.8369 Y45.7274
G01 X47.9352 Y45.7505
G01 X48.0349 Y45.7668
G01 X48.1354 Y45.7763
G01 X48.2364 Y45.7790
G01 X56.4080
G01 X56.5022 Y45.7827
G01 X56.5958 Y45.7938
G01 X56.6882 Y45.8122
G01 X56.7789 Y45.8378
G01 X56.8673 Y45.8704
G01 X56.9528 Y45.9098
G01 X57.0350 Y45.9559
G01 X57.1134 Y46.0082
G01 X57.1874 Y46.0665
G01 X57.2566 Y46.1305
G01 X57.3205 Y46.1997
G01 X57.3789 Y46.2737
G01 X57.4312 Y46.3520
G01 X57.4773 Y46.4342
G01 X57.5167 Y46.5198
G01 X57.5493 Y46.6082
G01 X57.5749 Y46.6989
G01 X57.5933 Y46.7913
G01 X57.6043 Y46.8849
G01 X57.6080 Y46.9790
G01 Y48.1374
G01 X57.6043 Y48.2316
G01 X57.5933 Y48.3252
G01 X57.5749 Y48.4176
G01 X57.5493 Y48.5083
G01 X57.5167 Y48.5967
G01 X57.4773 Y48.6822
G01 X57.4312 Y48.7644
G01 X57.3789 Y48.8428
G01 X57.3205 Y48.9168
G01 X57.2566 Y48.9860
G01 X57.1874 Y49.0499
G01 X57.1134 Y49.1083
G01 X57.0350 Y49.1606
G01 X56.9528 Y49.2066
G01 X56.8673 Y49.2461
G01 X56.7789 Y49.2787
G01 X56.6882 Y49.3043
G01 X56.5958 Y49.3227
G01 X56.5022 Y49.3337
G01 X56.4080 Y49.3374
G01 X46.7465
G01 Y54.4683
G01 X58.2242
G01 X58.1689 Y54.3725
G01 X58.1061 Y54.2815
G01 X58.0362 Y54.1958
G01 X57.9596 Y54.1160
G01 X57.9676 Y54.1234
G01 X57.8964 Y54.0552
G01 X57.8207 Y53.9920
G01 X57.7410 Y53.9340
G01 X57.6576 Y53.8815
G01 X57.5708 Y53.8347
G01 X57.4811 Y53.7939
G01 X57.3888 Y53.7592
G01 X57.2944 Y53.7307
G01 X57.1983 Y53.7087
G01 X57.1009 Y53.6933
G01 X57.0028 Y53.6844
G01 X56.9042 Y53.6821
G01 X48.7327
G01 X48.6385 Y53.6784
G01 X48.5449 Y53.6673
G01 X48.4525 Y53.6489
G01 X48.3618 Y53.6233
G01 X48.2734 Y53.5907
G01 X48.1879 Y53.5513
G01 X48.1057 Y53.5052
G01 X48.0273 Y53.4529
G01 X47.9533 Y53.3946
G01 X47.8841 Y53.3306
G01 X47.8202 Y53.2614
G01 X47.7618 Y53.1874
G01 X47.7095 Y53.1091
G01 X47.6635 Y53.0269
G01 X47.6240 Y52.9413
G01 X47.5914 Y52.8529
G01 X47.5658 Y52.7622
G01 X47.5474 Y52.6698
G01 X47.5364 Y52.5762
G01 X47.5327 Y52.4821
G01 Y51.3236
G01 X47.5364 Y51.2295
G01 X47.5474 Y51.1359
G01 X47.5658 Y51.0435
G01 X47.5914 Y50.9528
G01 X47.6240 Y50.8644
G01 X47.6635 Y50.7788
G01 X47.7095 Y50.6966
G01 X47.7618 Y50.6183
G01 X47.8202 Y50.5443
G01 X47.8841 Y50.4751
G01 X47.9533 Y50.4111
G01 X48.0273 Y50.3528
G01 X48.1057 Y50.3005
G01 X48.1879 Y50.2544
G01 X48.2734 Y50.2150
G01 X48.3618 Y50.1824
G01 X48.4525 Y50.1568
G01 X48.5449 Y50.1384
G01 X48.6385 Y50.1273
G01 X48.7327 Y50.1236
G01 X58.3942
G01 Y49.6696
G01 X58.1542 Y49.7305
M107
G00 Z2.0000


;No. 11: Hole 8


;No. 12: Hole 8
G00 X62.7582 Y44.9928 Z2.0000
G00 Z0.5000
G01 Z0.0000 F400
G01 Z-1.5000
M106 S240
G01 Y54.4683 F1000
G01 X63.5443
G01 Y46.9790
G01 X63.5481 Y46.8844
G01 X63.5593 Y46.7903
G01 X63.5779 Y46.6974
G01 X63.6037 Y46.6063
G01 X63.6367 Y46.5175
G01 X63.6765 Y46.4316
G01 X63.7230 Y46.3490
G01 X63.7759 Y46.2704
G01 X63.8348 Y46.1963
G01 X63.8994 Y46.1270
G01 X63.9692 Y46.0630
G01 X64.0439 Y46.0047
G01 X64.1229 Y45.9525
G01 X64.2058 Y45.9066
G01 X64.2921 Y45.8675
G01 X64.3811 Y45.8353
G01 X64.4725 Y45.8102
G01 X64.5655 Y45.7924
G01 X64.6597 Y45.7820
G01 X64.7543 Y45.7790
G01 X74.2359
G01 X74.1811 Y45.6831
G01 X74.1186 Y45.5921
G01 X74.0489 Y45.5064
G01 X73.9723 Y45.4267
G01 X73.9801 Y45.4339
G01 X73.9088 Y45.3658
G01 X73.8331 Y45.3026
G01 X73.7533 Y45.2446
G01 X73.6698 Y45.1921
G01 X73.5829 Y45.1453
G01 X73.4931 Y45.1045
G01 X73.4008 Y45.0698
G01 X73.3063 Y45.0414
G01 X73.2102 Y45.0194
G01 X73.1128 Y45.0040
G01 X73.0145 Y44.9951
G01 X72.9159 Y44.9928
G01 X62.7582
M107
G00 Z2.0000


;No. 13: Hole 10
G00 X79.0109 Y49.0581 Z2.0000
G00 Z0.5000
G01 Z0.0000 F400
G01 Z-1.5000
M106 S240
G01 X79.6507 F1000
M107
G00 Z2.0000
G00 X89.5388
G00 Z0.5000
G01 Z0.0000 F400
G01 Z-1.5000
M106 S240
G01 X90.1786 F1000
G01 X90.4186 Y49.0386
G01 Y44.9927
G01 X89.6324
G01 Y48.1373
G01 X89.6287 Y48.2315
G01 X89.6177 Y48.3251
G01 X89.5993 Y48.4175
G01 X89.5737 Y48.5082
G01 X89.5411 Y48.5966
G01 X89.5016 Y48.6821
G01 X89.4556 Y48.7643
G01 X89.4033 Y48.8427
G01 X89.3449 Y48.9167
G01 X89.2810 Y48.9859
G01 X89.2118 Y49.0498
G01 X89.1378 Y49.1082
G01 X89.0594 Y49.1605
G01 X88.9772 Y49.2065
G01 X88.8917 Y49.2460
G01 X88.8033 Y49.2786
G01 X88.7126 Y49.3042
G01 X88.6202 Y49.3226
G01 X88.5266 Y49.3336
G01 X88.4324 Y49.3373
G01 X80.7571
G01 X80.6629 Y49.3336
G01 X80.5693 Y49.3226
G01 X80.4769 Y49.3042
G01 X80.3862 Y49.2786
G01 X80.2978 Y49.2460
G01 X80.2123 Y49.2065
G01 X80.1301 Y49.1605
G01 X80.0517 Y49.1082
G01 X79.9777 Y49.0498
G01 X79.9085 Y48.9859
G01 X79.8446 Y48.9167
G01 X79.7862 Y48.8427
G01 X79.7339 Y48.7643
G01 X79.6879 Y48.6821
G01 X79.6484 Y48.5966
G01 X79.6158 Y48.5082
G01 X79.5902 Y48.4175
G01 X79.5718 Y48.3251
G01 X79.5608 Y48.2315
G01 X79.5571 Y48.1373
G01 Y44.9927
G01 X78.7709
G01 Y50.1235
G01 X90.4186
G01 Y49.0386
G01 X90.1786 Y49.0581
M107
G00 Z2.0000


;No. 14: Hole 9


;No. 15: Hole 9
G00 X79.0422 Y54.2910 Z2.0000
G00 Z0.5000
G01 Z0.0000 F400
G01 Z-1.5000
M106 S240
G01 X79.0191 Y54.3245 F1000
G01 X78.9969 Y54.3586
G01 X78.9757 Y54.3934
G01 X78.9554 Y54.4287
G01 X78.9611 Y54.4180
G01 X78.9409 Y54.4682
G01 X90.2489 Y54.4683
G01 X90.1982 Y54.3812
G01 X90.1417 Y54.2976
G01 X90.0797 Y54.2181
G01 X90.0125 Y54.1430
G01 X89.9403 Y54.0725
G01 X89.8636 Y54.0071
G01 X89.7826 Y53.9470
G01 X89.6978 Y53.8925
G01 X89.6094 Y53.8438
G01 X89.5180 Y53.8013
G01 X89.4239 Y53.7649
G01 X89.3276 Y53.7351
G01 X89.2295 Y53.7118
G01 X89.1301 Y53.6951
G01 X89.0297 Y53.6852
G01 X88.9289 Y53.6822
G01 X80.2663
G01 X80.1773 Y53.6821
G01 X80.0885 Y53.6876
G01 X80.0002 Y53.6985
G01 X79.9127 Y53.7148
G01 X79.8264 Y53.7364
G01 X79.7415 Y53.7634
G01 X79.6586 Y53.7955
G01 X79.5777 Y53.8326
G01 X79.4993 Y53.8747
G01 X79.4236 Y53.9215
G01 X79.3509 Y53.9729
G01 X79.2816 Y54.0287
G01 X79.2158 Y54.0886
G01 X79.1538 Y54.1524
G01 X79.0959 Y54.2200
G01 X79.0422 Y54.2910
M107
G00 Z2.0000


;No. 16: Hole 2
G00 X77.2751 Y63.8611 Z2.0000
G00 Z0.5000
G01 Z0.0000 F400
G01 Z-1.5000
M106 S240
G01 X75.3552 F1000
G01 X74.1989 Y65.3611
G01 X79.5390
G01 X81.2901 Y66.8611
G01 X71.1263
G01 Y68.3611
G01 X80.3837
G01 X56.9279
G01 X58.1602 Y69.8611
G01 X76.0841
G01 X70.3189
G01 Y71.3611
G01 X59.3963
G01 X55.6954 Y66.8611
G01 X61.3745
G01 X61.0612 Y65.3611
G01 X54.4629
G01 Y63.8611
G01 X60.7919
G01 X45.0345
G01 X45.3031 Y62.3611
G01 X60.5226
G01 X60.2532 Y60.8611
G01 X45.5718
G01 X45.8405 Y59.3611
G01 X59.9839
M107
G00 Z2.0000
G00 X51.4387 Y63.8611
G00 Z0.5000
G01 Z-1.5000 F400
M106 S240
G01 Y65.3611 F1000
G01 X44.7658
G01 X44.4617 Y66.8611
G01 X50.1784
G01 X48.9371 Y68.3611
G01 X25.4585
G01 X24.5734 Y66.8611
G01 X34.7205
G01 X31.6605
G01 Y65.3611
G01 X26.3196
G01 X28.5912 Y63.8611
G01 X30.4991
M107
G00 Z2.0000
G00 X29.7670 Y68.3611
G00 Z0.5000
G01 Z-1.5000 F400
M106 S240
G01 Y69.8611 F1000
G01 X47.7053
G01 X46.4744 Y71.3611
G01 X35.5678
G01 X35.5341 Y71.5584
G01 X36.7601 Y71.8110
G01 X37.9906 Y72.0406
G01 X39.2253 Y72.2471
G01 X40.4635 Y72.4305
G01 X41.7050 Y72.5907
G01 X42.9493 Y72.7276
G01 X44.1959 Y72.8412
G01 X45.4444 Y72.9315
G01 X47.0850 Y70.9073
G01 X48.7405 Y68.8954
G01 X50.4110 Y66.8958
G01 X52.0963 Y64.9087
G01 X52.1455 Y64.8418
G01 X52.1998 Y64.7790
G01 X52.2589 Y64.7207
G01 X52.3224 Y64.6671
G01 X52.3898 Y64.6187
G01 X52.4608 Y64.5757
G01 X52.5350 Y64.5384
G01 X52.6119 Y64.5070
G01 X52.6910 Y64.4817
G01 X52.7718 Y64.4627
G01 X52.8539 Y64.4500
G01 X52.9367 Y64.4438
G01 X53.0197 Y64.4442
G01 X53.1025 Y64.4510
G01 X53.1844 Y64.4643
G01 X53.2651 Y64.4839
G01 X53.3348 Y64.5078
G01 X53.4024 Y64.5368
G01 X53.4678 Y64.5706
G01 X53.5305 Y64.6092
G01 X53.5902 Y64.6523
G01 X53.6466 Y64.6997
G01 X53.6993 Y64.7511
G01 X53.7481 Y64.8062
G01 X54.6844 Y65.9452
G01 X55.6206 Y67.0844
G01 X56.5565 Y68.2237
G01 X57.4922 Y69.3633
G01 X58.2243 Y70.2546
G01 X58.9581 Y71.1445
G01 X59.6935 Y72.0331
G01 X60.4305 Y72.9204
G01 X61.8431 Y72.8190
G01 X63.2533 Y72.6875
G01 X64.6603 Y72.5262
G01 X66.0636 Y72.3350
G01 X67.4626 Y72.1141
G01 X68.8565 Y71.8635
G01 X70.2448 Y71.5834
G01 X71.6269 Y71.2739
G01 X73.0020 Y70.9351
G01 X74.3697 Y70.5673
G01 X75.7293 Y70.1704
G01 X77.0801 Y69.7449
G01 X78.4216 Y69.2907
G01 X79.7531 Y68.8081
G01 X81.0741 Y68.2974
G01 X82.3840 Y67.7588
G01 X81.8921 Y67.2124
G01 X81.3788 Y66.6862
G01 X80.8447 Y66.1810
G01 X80.2908 Y65.6976
G01 X79.7180 Y65.2368
G01 X79.1272 Y64.7993
G01 X78.5193 Y64.3859
G01 X77.8953 Y63.9972
G01 X77.3238 Y63.6676
G01 X76.7455 Y63.3504
G01 X76.1605 Y63.0456
G01 X75.5691 Y62.7534
G01 X75.4563 Y63.1246
G01 X75.3152 Y63.4861
G01 X75.1467 Y63.8357
G01 X74.9518 Y64.1713
G01 X74.7317 Y64.4908
G01 X74.4877 Y64.7925
G01 X74.2211 Y65.0745
G01 X73.9337 Y65.3352
G01 X73.6270 Y65.5730
G01 X73.3030 Y65.7865
G01 X72.9635 Y65.9744
G01 X72.6105 Y66.1356
G01 X72.1530 Y66.3138
G01 X71.6893 Y66.4754
G01 X71.2201 Y66.6200
G01 X70.7459 Y66.7476
G01 X70.2674 Y66.8579
G01 X69.7852 Y66.9508
G01 X69.3000 Y67.0262
G01 X68.8124 Y67.0840
G01 X67.6480 Y67.1911
G01 X66.4814 Y67.2700
G01 X65.3132 Y67.3209
G01 X64.1441 Y67.3435
G01 X63.6834 Y67.3575
G01 X63.2224 Y67.3604
G01 X62.7616 Y67.3524
G01 X62.3010 Y67.3334
G01 X62.2576 Y67.3255
G01 X62.2145 Y67.3158
G01 X62.1719 Y67.3041
G01 X62.1299 Y67.2906
G01 X62.0885 Y67.2752
G01 X62.0479 Y67.2580
G01 X62.0080 Y67.2391
G01 X61.9690 Y67.2184
G01 X61.9309 Y67.1960
G01 X61.8939 Y67.1719
G01 X61.8580 Y67.1462
G01 X61.8232 Y67.1190
G01 X61.7897 Y67.0903
G01 X61.7575 Y67.0601
G01 X61.7267 Y67.0285
G01 X61.6972 Y66.9956
G01 X61.6693 Y66.9614
G01 X61.6429 Y66.9260
G01 X61.6181 Y66.8895
G01 X61.5949 Y66.8520
G01 X61.5734 Y66.8134
G01 X61.5536 Y66.7739
G01 X61.5356 Y66.7336
G01 X61.5193 Y66.6926
G01 X61.5049 Y66.6508
G01 X61.4924 Y66.6085
G01 X61.4817 Y66.5657
G01 X61.4730 Y66.5224
G01 X59.9062 Y57.7966
G01 X45.9175
G01 X44.3496 Y66.5505
G01 X44.3268 Y66.6438
G01 X44.2954 Y66.7346
G01 X44.2558 Y66.8221
G01 X44.2084 Y66.9057
G01 X44.1535 Y66.9845
G01 X44.0915 Y67.0579
G01 X44.0231 Y67.1253
G01 X43.9488 Y67.1862
G01 X43.8692 Y67.2399
G01 X43.7850 Y67.2861
G01 X43.6968 Y67.3244
G01 X43.6056 Y67.3544
G01 X43.5120 Y67.3759
G01 X43.4167 Y67.3887
G01 X43.3208 Y67.3926
G01 X43.2248 Y67.3878
G01 X42.3993 Y67.3862
G01 X41.5739 Y67.3722
G01 X40.7487 Y67.3459
G01 X39.9241 Y67.3073
G01 X39.1001 Y67.2563
G01 X38.2770 Y67.1929
G01 X37.4550 Y67.1173
G01 X36.6341 Y67.0293
G01 X36.1550 Y66.9657
G01 X35.6788 Y66.8826
G01 X35.2064 Y66.7800
G01 X34.7387 Y66.6582
G01 X34.2763 Y66.5174
G01 X33.8200 Y66.3578
G01 X33.3707 Y66.1797
G01 X32.9290 Y65.9833
G01 X32.6137 Y65.8131
G01 X32.3112 Y65.6209
G01 X32.0232 Y65.4077
G01 X31.7509 Y65.1746
G01 X31.4959 Y64.9228
G01 X31.2594 Y64.6536
G01 X31.0426 Y64.3683
G01 X30.8466 Y64.0683
G01 X30.6723 Y63.7552
G01 X30.5207 Y63.4305
G01 X30.3925 Y63.0958
G01 X30.2883 Y62.7530
G01 X29.7211 Y63.0220
G01 X29.1622 Y63.3078
G01 X28.6120 Y63.6101
G01 X28.0710 Y63.9286
G01 X27.5398 Y64.2631
G01 X27.0187 Y64.6132
G01 X26.5083 Y64.9787
G01 X26.0091 Y65.3593
G01 X25.5213 Y65.7545
G01 X25.0455 Y66.1641
G01 X24.5822 Y66.5876
G01 X24.1316 Y67.0248
G01 X23.9658 Y67.2010
G01 X23.8031 Y67.3802
G01 X23.6436 Y67.5622
G01 X23.4874 Y67.7470
G01 X24.4589 Y68.1577
G01 X25.4373 Y68.5518
G01 X26.4222 Y68.9292
G01 X27.4134 Y69.2898
G01 X28.4106 Y69.6335
G01 X29.4134 Y69.9602
G01 X30.4217 Y70.2698
G01 X31.4351 Y70.5623
G01 X32.4534 Y70.8374
G01 X33.4761 Y71.0952
G01 X34.5031 Y71.3355
G01 X35.5341 Y71.5584
G01 X35.5678 Y71.3611
M107
G00 Z2.0000


;No. 17: Hole 1
G00 X33.2088 Y75.4409 Z2.0000
G00 Z0.5000
G01 Z0.0000 F400
G01 Z-1.5000
M106 S240
G01 X26.9569 F1000
G01 X27.8255 Y73.9409
G01 X22.3961
G01 X23.5476 Y72.4409
G01 X20.9274
M107
G00 Z2.0000
G00 X32.5893 Y75.4409
G00 Z0.5000
G01 Z-1.5000 F400
M106 S240
G01 Y76.9409 F1000
G01 X41.3027
G01 X40.6121 Y78.4409
G01 X65.2724
G01 X64.5885 Y76.9409
G01 X73.2960
G01 X72.6256 Y75.4409
G01 X78.8986
G01 X78.0390 Y73.9409
G01 X83.4610
G01 X82.3271 Y72.4409
G01 X84.9491
G01 X85.1392 Y72.3746
G01 X85.0096 Y72.1063
G01 X84.8785 Y71.8387
G01 X84.7459 Y71.5718
G01 X84.6119 Y71.3056
G01 X83.2619 Y71.8564
G01 X81.9019 Y72.3822
G01 X80.5325 Y72.8828
G01 X79.1540 Y73.3580
G01 X77.7670 Y73.8076
G01 X76.3719 Y74.2315
G01 X74.9692 Y74.6296
G01 X73.5594 Y75.0017
G01 X72.1430 Y75.3477
G01 X70.7205 Y75.6675
G01 X69.2922 Y75.9609
G01 X67.8588 Y76.2280
G01 X66.4207 Y76.4684
G01 X64.9784 Y76.6823
G01 X63.5324 Y76.8695
G01 X62.0832 Y77.0300
G01 X60.6313 Y77.1636
G01 X59.1771 Y77.2704
G01 X57.7212 Y77.3503
G01 X56.2641 Y77.4034
G01 X55.1467 Y77.4328
G01 X54.0290 Y77.4509
G01 X52.9112 Y77.4576
G01 X51.7934 Y77.4531
G01 X50.6757 Y77.4372
G01 X49.5582 Y77.4100
G01 X48.4410 Y77.3715
G01 X47.3243 Y77.3217
G01 X45.6491 Y77.2098
G01 X43.9766 Y77.0622
G01 X42.3077 Y76.8789
G01 X40.6431 Y76.6601
G01 X38.9835 Y76.4059
G01 X37.3297 Y76.1163
G01 X35.6825 Y75.7915
G01 X34.0425 Y75.4317
G01 X32.4106 Y75.0370
G01 X30.7875 Y74.6076
G01 X29.1739 Y74.1437
G01 X27.5706 Y73.6455
G01 X25.9783 Y73.1132
G01 X24.3976 Y72.5470
G01 X22.8294 Y71.9473
G01 X21.2744 Y71.3144
G01 X21.0144 Y71.8200
G01 X20.7598 Y72.3284
G01 X20.5105 Y72.8394
G01 X20.2667 Y73.3530
G01 X20.2714 Y73.3654
G01 X21.7294 Y73.9158
G01 X23.1966 Y74.4411
G01 X24.6727 Y74.9413
G01 X26.1570 Y75.4161
G01 X27.6493 Y75.8654
G01 X29.1491 Y76.2892
G01 X30.6559 Y76.6872
G01 X32.1692 Y77.0593
G01 X33.6888 Y77.4055
G01 X35.2140 Y77.7257
G01 X36.7445 Y78.0197
G01 X38.2797 Y78.2874
G01 X39.8194 Y78.5289
G01 X41.3629 Y78.7439
G01 X42.9099 Y78.9325
G01 X44.4600 Y79.0946
G01 X46.0125 Y79.2302
G01 X47.5672 Y79.3391
G01 X49.1234 Y79.4215
G01 X50.6809 Y79.4772
G01 X52.2391 Y79.5062
G01 X53.7976 Y79.5085
G01 X55.3558 Y79.4842
G01 X56.9134 Y79.4332
G01 X58.7506 Y79.3254
G01 X60.5852 Y79.1809
G01 X62.4165 Y78.9998
G01 X64.2439 Y78.7821
G01 X66.0665 Y78.5280
G01 X67.8838 Y78.2374
G01 X69.6948 Y77.9106
G01 X71.4989 Y77.5477
G01 X73.2955 Y77.1489
G01 X75.0837 Y76.7141
G01 X76.8628 Y76.2438
G01 X78.6323 Y75.7380
G01 X80.3912 Y75.1969
G01 X82.1390 Y74.6208
G01 X83.8749 Y74.0099
G01 X85.5983 Y73.3644
G01 X85.4871 Y73.1153
G01 X85.3735 Y72.8673
G01 X85.2576 Y72.6204
G01 X85.1392 Y72.3746
G01 X84.9491 Y72.4409
M107
G00 Z2.0000


;No. 18: Hole 12
G00 X89.5789 Y74.5133 Z2.0000
G00 Z0.5000
G01 Z0.0000 F400
G01 Z-1.5000
M106 S240
G01 X91.3477 F1000
G01 X92.1639 Y73.0133
G01 X90.4323
G01 X91.2087 Y71.5133
G01 X92.9091
G01 X93.5821 Y70.0133
G01 X91.9097
G01 X92.5422 Y68.5133
G01 X94.1903
G01 X94.7363 Y67.0133
G01 X93.1074
G01 X93.6087 Y65.5133
G01 X95.2190
G01 X95.6438 Y64.0133
G01 X94.0498
G01 X94.4298 Y62.5133
G01 X96.0122
G01 X96.3256 Y61.0133
G01 X94.7525
G01 X95.0198 Y59.5133
G01 X96.5829
G01 X96.7874 Y58.0133
G01 X95.2316
G01 X95.3885 Y56.5133
G01 X96.9401
G01 X97.0417 Y55.0133
G01 X95.4930
G01 X95.5456 Y53.5133
G01 X97.0927
G01 Y52.0133
G01 X95.5457
G01 X95.4931 Y50.5133
G01 X97.0418
G01 X96.9403 Y49.0133
G01 X95.3887
G01 X95.2318 Y47.5133
G01 X96.7877
G01 X96.5831 Y46.0133
G01 X95.0201
G01 X94.7528 Y44.5133
G01 X96.3259
G01 X96.0127 Y43.0133
G01 X94.4302
G01 X94.0503 Y41.5133
G01 X95.6443
G01 X95.2195 Y40.0133
G01 X93.6092
G01 X93.1080 Y38.5133
G01 X94.7368
G01 X94.1910 Y37.0133
G01 X92.5429
G01 X91.9104 Y35.5133
G01 X93.5827
G01 X92.9098 Y34.0133
G01 X91.2095
G01 X90.4331 Y32.5133
G01 X92.1647
G01 X91.3486 Y31.0133
G01 X89.5797
G01 X90.4523 Y29.5133
G01 X88.6423
G01 X89.4748 Y28.0133
G01 X87.6133
G01 X88.4042 Y26.5133
G01 X86.4863
G01 X87.2358 Y25.0133
G01 X85.2504
G01 X85.9590 Y23.5133
G01 X83.8924
G01 X84.5598 Y22.0133
G01 X82.3954
G01 X83.0211 Y20.5133
G01 X80.7385
G01 X81.3212 Y19.0133
G01 X78.8873
G01 X79.4297 Y17.5133
G01 X76.8001
G01 X77.2996 Y16.0133
G01 X74.4048
G01 X74.8619 Y14.5133
G01 X71.5827
G01 X71.9942 Y13.0133
G01 X68.0937
G01 X68.4609 Y11.5133
G01 X63.2507
G01 X63.5984 Y10.0133
G01 X42.5610
G01 X42.9087 Y11.5133
G01 X37.6986
G01 X38.0654 Y13.0133
G01 X34.1653
G01 X34.5764 Y14.5133
G01 X31.2976
G01 X31.7542 Y16.0133
G01 X28.8600
G01 X29.3588 Y17.5133
G01 X26.7298
G01 X27.2715 Y19.0133
G01 X24.8383
G01 X25.4201 Y20.5133
G01 X23.1384
G01 X23.7632 Y22.0133
G01 X21.5997
G01 X22.2661 Y23.5133
G01 X20.2005
G01 X20.9080 Y25.0133
G01 X18.9237
G01 X19.6720 Y26.5133
G01 X17.7553
G01 X18.5450 Y28.0133
G01 X16.6847
G01 X17.5159 Y29.5133
G01 X15.7072
G01 X16.5784 Y31.0133
G01 X14.8109
G01 X13.9948 Y32.5133
G01 X15.7249
G01 X14.9485 Y34.0133
G01 X13.2497
G01 X12.5767 Y35.5133
G01 X14.2475
G01 X13.6150 Y37.0133
G01 X11.9685
G01 X11.4227 Y38.5133
G01 X13.0498
G01 X12.5486 Y40.0133
G01 X10.9400
G01 X10.5152 Y41.5133
G01 X12.1074
G01 X11.7275 Y43.0133
G01 X10.1469
G01 X9.8335 Y44.5133
G01 X11.4048
G01 X11.1376 Y46.0133
G01 X9.5764
G01 X9.3719 Y47.5133
G01 X10.9258
G01 X10.7689 Y49.0133
G01 X9.2192
G01 X9.1177 Y50.5133
G01 X10.6645
G01 X10.6119 Y52.0133
G01 X9.0667
G01 X9.0668 Y53.5133
G01 X10.6119
G01 X10.6646 Y55.0133
G01 X9.1178
G01 X9.2194 Y56.5133
G01 X10.7690
G01 X10.9260 Y58.0133
G01 X9.3721
G01 X9.5766 Y59.5133
G01 X11.1379
G01 X11.4052 Y61.0133
G01 X9.8339
G01 X10.1473 Y62.5133
G01 X11.7279
G01 X12.1079 Y64.0133
G01 X10.5157
G01 X10.9405 Y65.5133
G01 X12.5491
G01 X13.0504 Y67.0133
G01 X11.4232
G01 X11.9692 Y68.5133
G01 X13.6157
G01 X14.2482 Y70.0133
G01 X12.5774
G01 X13.2504 Y71.5133
G01 X14.9492
G01 X15.7257 Y73.0133
G01 X13.9956
G01 X14.8117 Y74.5133
G01 X16.5792
G01 X15.7080 Y76.0133
G01 X17.5167
G01 X16.6856 Y77.5133
G01 X18.5458
G01 X17.7562 Y79.0133
G01 X19.6730
G01 X18.9246 Y80.5133
G01 X20.9089
G01 X20.2015 Y82.0133
G01 X22.2671
G01 X21.6007 Y83.5133
G01 X23.7641
G01 X23.1393 Y85.0133
G01 X25.4211
G01 X24.8392 Y86.5133
G01 X27.2724
G01 X26.7307 Y88.0133
G01 X29.3597
G01 X28.8608 Y89.5133
G01 X31.7551
G01 X31.2985 Y91.0133
G01 X34.5772
G01 X34.1660 Y92.5133
G01 X38.0662
G01 X37.6992 Y94.0133
G01 X42.9092
G01 X42.5615 Y95.5133
G01 X63.5980
G01 X63.2502 Y94.0133
G01 X68.4603
G01 X68.0931 Y92.5133
G01 X71.9934
G01 X71.5820 Y91.0133
G01 X74.8611
G01 X74.4039 Y89.5133
G01 X77.2986
G01 X76.7992 Y88.0133
G01 X79.4288
G01 X78.8863 Y86.5133
G01 X81.3203
G01 X80.7376 Y85.0133
G01 X83.0202
G01 X82.3945 Y83.5133
G01 X84.5588
G01 X83.8914 Y82.0133
G01 X85.9580
G01 X85.2495 Y80.5133
G01 X87.2349
G01 X86.4854 Y79.0133
G01 X88.4033
G01 X87.6124 Y77.5133
G01 X89.4739
G01 X88.6414 Y76.0133
G01 X88.5200 Y75.8327
G01 X87.8706 Y76.8016
G01 X87.1946 Y77.7523
G01 X86.4927 Y78.6839
G01 X85.7653 Y79.5958
G01 X85.0130 Y80.4873
G01 X84.2364 Y81.3576
G01 X83.4361 Y82.2062
G01 X82.6127 Y83.0325
G01 X81.7668 Y83.8356
G01 X80.8991 Y84.6151
G01 X80.0101 Y85.3704
G01 X79.1007 Y86.1009
G01 X78.1714 Y86.8059
G01 X77.2231 Y87.4851
G01 X76.2564 Y88.1379
G01 X75.2720 Y88.7637
G01 X74.2707 Y89.3621
G01 X73.2533 Y89.9326
G01 X72.2206 Y90.4749
G01 X71.1732 Y90.9884
G01 X70.1121 Y91.4729
G01 X69.0380 Y91.9278
G01 X67.9518 Y92.3530
G01 X66.8543 Y92.7480
G01 X65.7463 Y93.1126
G01 X64.6286 Y93.4465
G01 X63.5022 Y93.7494
G01 X62.3678 Y94.0211
G01 X61.2263 Y94.2614
G01 X60.0787 Y94.4701
G01 X58.9257 Y94.6471
G01 X57.7683 Y94.7921
G01 X56.6074 Y94.9052
G01 X55.4437 Y94.9862
G01 X54.2783 Y95.0350
G01 X53.1119 Y95.0517
G01 X51.9456 Y95.0362
G01 X50.7801 Y94.9885
G01 X49.6164 Y94.9086
G01 X48.4553 Y94.7967
G01 X47.2977 Y94.6528
G01 X46.1446 Y94.4769
G01 X44.9968 Y94.2693
G01 X43.8551 Y94.0302
G01 X42.6781 Y93.7496
G01 X41.5097 Y93.4355
G01 X40.3508 Y93.0881
G01 X39.2022 Y92.7077
G01 X38.0651 Y92.2946
G01 X36.9402 Y91.8490
G01 X35.8285 Y91.3715
G01 X34.7309 Y90.8624
G01 X33.6484 Y90.3221
G01 X32.5817 Y89.7510
G01 X31.5319 Y89.1496
G01 X30.4996 Y88.5185
G01 X29.4859 Y87.8580
G01 X28.4914 Y87.1688
G01 X27.5171 Y86.4515
G01 X26.5638 Y85.7066
G01 X25.6321 Y84.9346
G01 X24.7229 Y84.1364
G01 X23.8369 Y83.3124
G01 X22.9748 Y82.4635
G01 X22.1374 Y81.5902
G01 X21.3254 Y80.6933
G01 X20.5393 Y79.7736
G01 X19.7799 Y78.8317
G01 X19.0477 Y77.8685
G01 X18.3434 Y76.8847
G01 X17.6675 Y75.8812
G01 X17.0206 Y74.8587
G01 X16.4032 Y73.8182
G01 X15.8159 Y72.7604
G01 X15.2591 Y71.6863
G01 X14.7332 Y70.5966
G01 X14.2388 Y69.4924
G01 X13.7761 Y68.3744
G01 X13.3456 Y67.2437
G01 X12.9476 Y66.1011
G01 X12.5825 Y64.9476
G01 X12.2506 Y63.7841
G01 X11.9521 Y62.6116
G01 X11.6872 Y61.4311
G01 X11.4563 Y60.2434
G01 X11.2594 Y59.0497
G01 X11.0968 Y57.8507
G01 X10.9685 Y56.6476
G01 X10.8747 Y55.4414
G01 X10.8155 Y54.2329
G01 X10.7909 Y53.0233
G01 X10.8009 Y51.8134
G01 X10.8455 Y50.6043
G01 X10.9247 Y49.3970
G01 X11.0384 Y48.1925
G01 X11.1865 Y46.9917
G01 X11.3689 Y45.7956
G01 X11.5855 Y44.6053
G01 X11.8361 Y43.4216
G01 X12.1204 Y42.2456
G01 X12.4313 Y41.1009
G01 X12.7742 Y39.9654
G01 X13.1489 Y38.8399
G01 X13.5549 Y37.7254
G01 X13.9921 Y36.6228
G01 X14.4600 Y35.5328
G01 X14.9584 Y34.4564
G01 X15.4867 Y33.3944
G01 X16.0446 Y32.3476
G01 X16.6316 Y31.3169
G01 X17.2474 Y30.3031
G01 X17.8913 Y29.3069
G01 X18.5629 Y28.3292
G01 X19.2617 Y27.3707
G01 X19.9871 Y26.4322
G01 X20.7385 Y25.5144
G01 X21.5154 Y24.6181
G01 X22.3171 Y23.7439
G01 X23.1430 Y22.8925
G01 X23.9925 Y22.0646
G01 X24.8649 Y21.2609
G01 X25.7594 Y20.4820
G01 X26.6755 Y19.7285
G01 X27.6124 Y19.0009
G01 X28.5692 Y18.3000
G01 X29.5454 Y17.6261
G01 X30.5401 Y16.9799
G01 X31.5525 Y16.3619
G01 X32.5819 Y15.7725
G01 X33.6274 Y15.2122
G01 X34.6882 Y14.6815
G01 X35.7635 Y14.1807
G01 X36.8524 Y13.7103
G01 X37.9540 Y13.2706
G01 X39.0676 Y12.8620
G01 X40.1922 Y12.4848
G01 X41.3269 Y12.1393
G01 X42.4709 Y11.8257
G01 X43.6232 Y11.5444
G01 X44.7829 Y11.2955
G01 X45.9492 Y11.0792
G01 X47.1211 Y10.8957
G01 X48.2977 Y10.7452
G01 X49.4780 Y10.6277
G01 X50.6612 Y10.5434
G01 X51.8462 Y10.4924
G01 X53.0323 Y10.4745
G01 X54.2183 Y10.4900
G01 X55.4035 Y10.5387
G01 X56.5868 Y10.6207
G01 X57.7674 Y10.7358
G01 X58.9442 Y10.8840
G01 X60.1165 Y11.0651
G01 X61.2832 Y11.2791
G01 X62.4434 Y11.5256
G01 X63.5963 Y11.8047
G01 X64.7410 Y12.1156
G01 X65.8765 Y12.4584
G01 X67.0020 Y12.8330
G01 X68.1165 Y13.2390
G01 X69.2191 Y13.6762
G01 X70.3091 Y14.1440
G01 X71.3855 Y14.6423
G01 X72.4475 Y15.1706
G01 X73.4943 Y15.7284
G01 X74.5250 Y16.3154
G01 X75.5389 Y16.9311
G01 X76.5351 Y17.5750
G01 X77.5128 Y18.2466
G01 X78.4713 Y18.9453
G01 X79.4098 Y19.6706
G01 X80.3276 Y20.4220
G01 X81.2240 Y21.1989
G01 X82.0982 Y22.0006
G01 X82.9496 Y22.8265
G01 X83.7774 Y23.6759
G01 X84.5812 Y24.5483
G01 X85.3601 Y25.4428
G01 X86.1136 Y26.3588
G01 X86.8412 Y27.2957
G01 X87.5421 Y28.2525
G01 X88.2160 Y29.2287
G01 X88.8622 Y30.2233
G01 X89.4803 Y31.2357
G01 X90.0697 Y32.2651
G01 X90.6300 Y33.3106
G01 X91.1607 Y34.3713
G01 X91.6615 Y35.4466
G01 X92.1319 Y36.5355
G01 X92.5716 Y37.6371
G01 X92.9802 Y38.7507
G01 X93.3574 Y39.8752
G01 X93.7029 Y41.0099
G01 X94.0165 Y42.1539
G01 X94.2978 Y43.3062
G01 X94.5467 Y44.4659
G01 X94.7630 Y45.6322
G01 X94.9465 Y46.8041
G01 X95.0970 Y47.9806
G01 X95.2144 Y49.1610
G01 X95.2987 Y50.3441
G01 X95.3498 Y51.5292
G01 X95.3676 Y52.7152
G01 X95.3522 Y53.9012
G01 X95.3034 Y55.0864
G01 X95.2215 Y56.2697
G01 X95.1063 Y57.4502
G01 X94.9581 Y58.6271
G01 X94.7770 Y59.7993
G01 X94.5630 Y60.9660
G01 X94.3164 Y62.1262
G01 X94.0374 Y63.2791
G01 X93.7381 Y64.3872
G01 X93.4086 Y65.4867
G01 X93.0492 Y66.5768
G01 X92.6602 Y67.6567
G01 X92.2418 Y68.7255
G01 X91.7944 Y69.7825
G01 X91.3182 Y70.8269
G01 X90.8137 Y71.8579
G01 X90.2812 Y72.8748
G01 X89.7212 Y73.8767
G01 X89.1340 Y74.8629
G01 X88.5200 Y75.8327
G01 X88.6414 Y76.0133
G01 X90.4514
G01 X90.6151 Y76.1287
G01 X91.2594 Y75.0622
G01 X91.8733 Y73.9779
G01 X92.4564 Y72.8768
G01 X93.0082 Y71.7596
G01 X93.5283 Y70.6273
G01 X94.0163 Y69.4808
G01 X94.4717 Y68.3210
G01 X94.8943 Y67.1489
G01 X95.2836 Y65.9653
G01 X95.6395 Y64.7711
G01 X95.9615 Y63.5674
G01 X96.2494 Y62.3552
G01 X96.5030 Y61.1352
G01 X96.7221 Y59.9086
G01 X96.9066 Y58.6764
G01 X97.0562 Y57.4394
G01 X97.1709 Y56.1986
G01 X97.2506 Y54.9552
G01 X97.2952 Y53.7100
G01 X97.3046 Y52.4640
G01 X97.2789 Y51.2182
G01 X97.2181 Y49.9737
G01 X97.1222 Y48.7314
G01 X96.9914 Y47.4923
G01 X96.8256 Y46.2573
G01 X96.6251 Y45.0276
G01 X96.3900 Y43.8039
G01 X96.1205 Y42.5874
G01 X95.8167 Y41.3790
G01 X95.4791 Y40.1796
G01 X95.1077 Y38.9902
G01 X94.7030 Y37.8118
G01 X94.2652 Y36.6452
G01 X93.7946 Y35.4915
G01 X93.2918 Y34.3515
G01 X92.7569 Y33.2261
G01 X92.1906 Y32.1162
G01 X91.5932 Y31.0227
G01 X90.9652 Y29.9466
G01 X90.3071 Y28.8885
G01 X89.6194 Y27.8495
G01 X88.9027 Y26.8302
G01 X88.1575 Y25.8316
G01 X87.3845 Y24.8543
G01 X86.5842 Y23.8993
G01 X85.7574 Y22.9672
G01 X84.9045 Y22.0588
G01 X84.0264 Y21.1748
G01 X83.1237 Y20.3159
G01 X82.1972 Y19.4828
G01 X81.2475 Y18.6761
G01 X80.2755 Y17.8966
G01 X79.2818 Y17.1448
G01 X78.2674 Y16.4213
G01 X77.2330 Y15.7266
G01 X76.1794 Y15.0615
G01 X75.1131 Y14.4277
G01 X74.0294 Y13.8242
G01 X72.9293 Y13.2513
G01 X71.8134 Y12.7095
G01 X70.6829 Y12.1992
G01 X69.5384 Y11.7209
G01 X68.3810 Y11.2749
G01 X67.2115 Y10.8615
G01 X66.0308 Y10.4812
G01 X64.8400 Y10.1341
G01 X63.6399 Y9.8205
G01 X62.4314 Y9.5408
G01 X61.2156 Y9.2951
G01 X59.9934 Y9.0836
G01 X58.7657 Y8.9066
G01 X57.5335 Y8.7640
G01 X56.2978 Y8.6561
G01 X55.0596 Y8.5829
G01 X53.8198 Y8.5445
G01 X52.5794 Y8.5408
G01 X51.3394 Y8.5721
G01 X50.1007 Y8.6381
G01 X48.8644 Y8.7388
G01 X47.6315 Y8.8742
G01 X46.4028 Y9.0441
G01 X45.1793 Y9.2485
G01 X43.9621 Y9.4871
G01 X42.7520 Y9.7598
G01 X41.5501 Y10.0664
G01 X40.3573 Y10.4065
G01 X39.1744 Y10.7800
G01 X38.0026 Y11.1866
G01 X36.8425 Y11.6258
G01 X35.6953 Y12.0975
G01 X34.5618 Y12.6012
G01 X33.4429 Y13.1365
G01 X32.3394 Y13.7030
G01 X31.2522 Y14.3002
G01 X30.1823 Y14.9277
G01 X29.1303 Y15.5850
G01 X28.0973 Y16.2716
G01 X27.0839 Y16.9869
G01 X26.0910 Y17.7303
G01 X25.1193 Y18.5013
G01 X24.1697 Y19.2993
G01 X23.2428 Y20.1236
G01 X22.3395 Y20.9737
G01 X21.4603 Y21.8487
G01 X20.6061 Y22.7480
G01 X19.7774 Y23.6710
G01 X18.9750 Y24.6169
G01 X18.1994 Y25.5849
G01 X17.4513 Y26.5743
G01 X16.7313 Y27.5844
G01 X16.0399 Y28.6142
G01 X15.3776 Y29.6630
G01 X14.7439 Y30.7293
G01 X14.1403 Y31.8130
G01 X13.5673 Y32.9131
G01 X13.0255 Y34.0289
G01 X12.5152 Y35.1595
G01 X12.0368 Y36.3040
G01 X11.5908 Y37.4614
G01 X11.1774 Y38.6309
G01 X10.7970 Y39.8115
G01 X10.4499 Y41.0024
G01 X10.1363 Y42.2025
G01 X9.8566 Y43.4110
G01 X9.6109 Y44.6268
G01 X9.3994 Y45.8491
G01 X9.2223 Y47.0768
G01 X9.0797 Y48.3089
G01 X8.9718 Y49.5447
G01 X8.8986 Y50.7829
G01 X8.8601 Y52.0227
G01 X8.8565 Y53.2631
G01 X8.8877 Y54.5031
G01 X8.9537 Y55.7418
G01 X9.0545 Y56.9781
G01 X9.1899 Y58.2111
G01 X9.3598 Y59.4398
G01 X9.5642 Y60.6633
G01 X9.8028 Y61.8805
G01 X10.0756 Y63.0906
G01 X10.3821 Y64.2925
G01 X10.7223 Y65.4854
G01 X11.0958 Y66.6682
G01 X11.5024 Y67.8401
G01 X11.9417 Y69.0001
G01 X12.4134 Y70.1473
G01 X12.9171 Y71.2808
G01 X13.4525 Y72.3998
G01 X14.0190 Y73.5033
G01 X14.6163 Y74.5904
G01 X15.2438 Y75.6604
G01 X15.9011 Y76.7123
G01 X16.5877 Y77.7453
G01 X17.3031 Y78.7587
G01 X18.0466 Y79.7516
G01 X18.8176 Y80.7232
G01 X19.6157 Y81.6728
G01 X20.4400 Y82.5997
G01 X21.2901 Y83.5030
G01 X22.1652 Y84.3821
G01 X23.0646 Y85.2363
G01 X23.9876 Y86.0650
G01 X24.9336 Y86.8674
G01 X25.9016 Y87.6429
G01 X26.8911 Y88.3910
G01 X27.9012 Y89.1109
G01 X28.9311 Y89.8023
G01 X29.9799 Y90.4645
G01 X31.0413 Y91.0955
G01 X32.1199 Y91.6965
G01 X33.2149 Y92.2673
G01 X34.3254 Y92.8072
G01 X35.4506 Y93.3158
G01 X36.5895 Y93.7928
G01 X37.7414 Y94.2379
G01 X38.9052 Y94.6505
G01 X40.0800 Y95.0305
G01 X41.2651 Y95.3775
G01 X42.4594 Y95.6912
G01 X43.6619 Y95.9715
G01 X44.8719 Y96.2180
G01 X46.0882 Y96.4306
G01 X47.3100 Y96.6092
G01 X48.5364 Y96.7535
G01 X49.7663 Y96.8636
G01 X50.9987 Y96.9392
G01 X52.2328 Y96.9803
G01 X53.4676 Y96.9870
G01 X54.7021 Y96.9591
G01 X55.9353 Y96.8968
G01 X57.1663 Y96.8000
G01 X58.3941 Y96.6688
G01 X59.6178 Y96.5034
G01 X60.8364 Y96.3039
G01 X62.0489 Y96.0704
G01 X63.2544 Y95.8031
G01 X64.4520 Y95.5023
G01 X65.6407 Y95.1680
G01 X66.8196 Y94.8007
G01 X67.9878 Y94.4006
G01 X69.1443 Y93.9681
G01 X70.2883 Y93.5033
G01 X71.4189 Y93.0068
G01 X72.5352 Y92.4789
G01 X73.6362 Y91.9200
G01 X74.7213 Y91.3305
G01 X75.7894 Y90.7110
G01 X76.8398 Y90.0619
G01 X77.8716 Y89.3836
G01 X78.8841 Y88.6768
G01 X79.8765 Y87.9420
G01 X80.8479 Y87.1797
G01 X81.7976 Y86.3906
G01 X82.7250 Y85.5753
G01 X83.6292 Y84.7343
G01 X84.5095 Y83.8685
G01 X85.3653 Y82.9783
G01 X86.1959 Y82.0646
G01 X87.0006 Y81.1281
G01 X87.7788 Y80.1694
G01 X88.5300 Y79.1893
G01 X89.2535 Y78.1887
G01 X89.9487 Y77.1682
G01 X90.6151 Y76.1287
G01 X90.4514 Y76.0133
M107
G00 Z2.0000


;No. 19: Hole 11
G00 X146.2389 Y40.3880 Z2.0000
G00 Z0.5000
G01 Z0.0000 F400
G01 Z-1.5000
M106 S240
G01 X153.5969 F1000
G01 X153.3303 Y38.8880
G01 X146.5077
G01 X146.7766 Y37.3880
G01 X153.0637
G01 X152.7971 Y35.8880
G01 X147.0454
G01 X147.3142 Y34.3880
G01 X152.5305
G01 X152.2638 Y32.8880
G01 X147.5830
G01 X147.8518 Y31.3880
G01 X151.9972
G01 X151.7306 Y29.8880
G01 X148.1206
G01 X148.3894 Y28.3880
G01 X151.4640
G01 X151.1974 Y26.8880
G01 X148.6583
G01 X148.9271 Y25.3880
G01 X150.9308
G01 X150.6642 Y23.8880
G01 X149.1959
G01 X149.4647 Y22.3880
G01 X150.3976
G01 X150.5953 Y22.3572
G01 X149.9340 Y18.6367
G01 X145.8003 Y41.7017
G01 X154.0323 Y41.6952
G01 X150.5953 Y22.3572
G01 X150.3976 Y22.3880
M107
G00 Z2.0000


;No. 20: Hole 3


;No. 21: Hole 3
G00 X117.1527 Y44.9932 Z2.0000
G00 Z0.5000
G01 Z0.0000 F400
G01 Z-1.5000
M106 S240
G01 Y52.4825 F1000
G01 X117.1490 Y52.5766
G01 X117.1379 Y52.6702
G01 X117.1195 Y52.7626
G01 X117.0939 Y52.8533
G01 X117.0613 Y52.9417
G01 X117.0219 Y53.0273
G01 X116.9758 Y53.1095
G01 X116.9235 Y53.1878
G01 X116.8651 Y53.2618
G01 X116.8012 Y53.3310
G01 X116.7320 Y53.3950
G01 X116.6580 Y53.4533
G01 X116.5797 Y53.5057
G01 X116.4974 Y53.5517
G01 X116.4119 Y53.5911
G01 X116.3235 Y53.6238
G01 X116.2328 Y53.6493
G01 X116.1404 Y53.6677
G01 X116.0468 Y53.6788
G01 X115.9527 Y53.6825
G01 X115.2414 Y53.6695
G01 X114.5301 Y53.6656
G01 X113.8187 Y53.6709
G01 X113.1075 Y53.6854
G01 X113.0155 Y53.6920
G01 X112.9240 Y53.7046
G01 X112.8336 Y53.7230
G01 X112.7445 Y53.7472
G01 X112.6572 Y53.7770
G01 X112.5720 Y53.8124
G01 X112.4892 Y53.8533
G01 X112.4093 Y53.8993
G01 X112.3324 Y53.9505
G01 X112.2591 Y54.0064
G01 X112.1894 Y54.0670
G01 X112.1238 Y54.1319
G01 X112.0625 Y54.2009
G01 X112.0058 Y54.2737
G01 X111.9539 Y54.3500
G01 X111.9070 Y54.4295
G01 X111.9127 Y54.4189
G01 X111.8922 Y54.4683
G01 X123.1997 Y54.4687
G01 X123.1489 Y54.3815
G01 X123.0924 Y54.2980
G01 X123.0304 Y54.2185
G01 X122.9632 Y54.1433
G01 X122.8911 Y54.0729
G01 X122.8143 Y54.0075
G01 X122.7333 Y53.9474
G01 X122.6485 Y53.8929
G01 X122.5602 Y53.8442
G01 X122.4687 Y53.8016
G01 X122.3747 Y53.7653
G01 X122.2783 Y53.7355
G01 X122.1802 Y53.7122
G01 X122.0808 Y53.6955
G01 X121.9804 Y53.6856
G01 X121.8796 Y53.6825
G01 X119.1388
G01 X119.0447 Y53.6788
G01 X118.9511 Y53.6678
G01 X118.8587 Y53.6494
G01 X118.7680 Y53.6238
G01 X118.6796 Y53.5912
G01 X118.5941 Y53.5517
G01 X118.5118 Y53.5057
G01 X118.4335 Y53.4534
G01 X118.3595 Y53.3950
G01 X118.2903 Y53.3311
G01 X118.2264 Y53.2619
G01 X118.1680 Y53.1879
G01 X118.1157 Y53.1095
G01 X118.0696 Y53.0273
G01 X118.0302 Y52.9418
G01 X117.9976 Y52.8534
G01 X117.9720 Y52.7627
G01 X117.9536 Y52.6703
G01 X117.9425 Y52.5767
G01 X117.9388 Y52.4825
G01 Y44.9932
G01 X117.1527
M107
G00 Z2.0000


;No. 22: Hole 4


;No. 23: Hole 4
G00 X128.5473 Y53.8286 Z2.0000
G00 Z0.5000
G01 Z0.0000 F400
G01 Z-1.5000
M106 S240
G01 X128.4946 Y53.8557 F1000
G01 X128.4430 Y53.8850
G01 X128.3927 Y53.9164
G01 X128.3438 Y53.9498
G01 X128.2962 Y53.9852
G01 X128.2502 Y54.0226
G01 X128.2057 Y54.0618
G01 X128.1630 Y54.1029
G01 X128.1721 Y54.0930
G01 X128.1004 Y54.1705
G01 X128.0340 Y54.2527
G01 X127.9734 Y54.3391
G01 X127.9186 Y54.4294
G01 X127.9243 Y54.4188
G01 X127.9037 Y54.4681
G01 X139.2106 Y54.4680
G01 X139.1600 Y54.3808
G01 X139.1036 Y54.2972
G01 X139.0416 Y54.2176
G01 X138.9744 Y54.1424
G01 X138.9023 Y54.0719
G01 X138.8256 Y54.0064
G01 X138.7446 Y53.9463
G01 X138.6597 Y53.8918
G01 X138.5714 Y53.8431
G01 X138.4799 Y53.8006
G01 X138.3858 Y53.7643
G01 X138.2895 Y53.7344
G01 X138.1913 Y53.7112
G01 X138.0918 Y53.6946
G01 X137.9915 Y53.6848
G01 X137.8906 Y53.6818
G01 X129.2504 Y53.6812
G01 X129.1598
G01 X129.0693 Y53.6866
G01 X128.9793 Y53.6973
G01 X128.8901 Y53.7133
G01 X128.8020 Y53.7345
G01 X128.7153 Y53.7608
G01 X128.6303 Y53.7922
G01 X128.5473 Y53.8286
M107
G00 Z2.0000


;No. 24: Hole 5


;No. 25: Hole 5
G00 X128.5004 Y49.5073 Z2.0000
G00 Z0.5000
G01 Z0.0000 F400
G01 Z-1.5000
M106 S240
G01 X128.4109 Y49.5599 F1000
G01 X128.3253 Y49.6189
G01 X128.2441 Y49.6838
G01 X128.1679 Y49.7543
G01 X128.0969 Y49.8302
G01 X128.0315 Y49.9109
G01 X127.9720 Y49.9962
G01 X127.9188 Y50.0854
G01 X127.9245 Y50.0748
G01 X127.9037 Y50.1235
G01 X139.2111 Y50.1233
G01 X139.1606 Y50.0360
G01 X139.1042 Y49.9523
G01 X139.0423 Y49.8727
G01 X138.9751 Y49.7974
G01 X138.9030 Y49.7268
G01 X138.8263 Y49.6613
G01 X138.7453 Y49.6011
G01 X138.6605 Y49.5466
G01 X138.5721 Y49.4980
G01 X138.4806 Y49.4554
G01 X138.3865 Y49.4191
G01 X138.2901 Y49.3893
G01 X138.1919 Y49.3661
G01 X138.0924 Y49.3496
G01 X137.9920 Y49.3399
G01 X137.8911 Y49.3371
G01 X129.2284
G01 X129.1340 Y49.3380
G01 X129.0398 Y49.3448
G01 X128.9462 Y49.3576
G01 X128.8537 Y49.3762
G01 X128.7624 Y49.4006
G01 X128.6729 Y49.4306
G01 X128.5855 Y49.4662
G01 X128.5004 Y49.5073
M107
G00 Z2.0000


;No. 26: Hole 6


;No. 27: Hole 6
G00 X128.4547 Y45.1881 Z2.0000
G00 Z0.5000
G01 Z0.0000 F400
G01 Z-1.5000
M106 S240
G01 X128.3727 Y45.2405 F1000
G01 X128.2943 Y45.2983
G01 X128.2200 Y45.3611
G01 X128.1499 Y45.4287
G01 X128.0845 Y45.5008
G01 X128.0240 Y45.5771
G01 X127.9687 Y45.6572
G01 X127.9188 Y45.7408
G01 X127.9245 Y45.7302
G01 X127.9037 Y45.7789
G01 X139.2111 Y45.7787
G01 X139.1606 Y45.6914
G01 X139.1042 Y45.6077
G01 X139.0423 Y45.5280
G01 X138.9751 Y45.4528
G01 X138.9030 Y45.3822
G01 X138.8263 Y45.3167
G01 X138.7453 Y45.2565
G01 X138.6604 Y45.2020
G01 X138.5721 Y45.1533
G01 X138.4806 Y45.1108
G01 X138.3865 Y45.0745
G01 X138.2901 Y45.0447
G01 X138.1919 Y45.0215
G01 X138.0924 Y45.0050
G01 X137.9920 Y44.9953
G01 X137.8911 Y44.9924
G01 X129.2246 Y44.9925
G01 X129.1241 Y44.9937
G01 X129.0239 Y45.0017
G01 X128.9245 Y45.0164
G01 X128.8263 Y45.0379
G01 X128.7298 Y45.0659
G01 X128.6354 Y45.1004
G01 X128.5436 Y45.1412
G01 X128.4547 Y45.1881
M107
G00 Z2.0000


;No. 28: Hole 7
G00 X143.9865 Y49.7305 Z2.0000
G00 Z0.5000
G01 Z0.0000 F400
G01 Z-1.5000
M106 S240
G01 X155.1542 F1000
G01 X155.3942 Y49.6696
G01 Y44.9928
G01 X143.9144 Y44.9931
G01 X143.9650 Y45.0806
G01 X144.0214 Y45.1644
G01 X144.0834 Y45.2441
G01 X144.1507 Y45.3195
G01 X144.2229 Y45.3901
G01 X144.2997 Y45.4557
G01 X144.3808 Y45.5158
G01 X144.4659 Y45.5704
G01 X144.5544 Y45.6190
G01 X144.6460 Y45.6615
G01 X144.7403 Y45.6977
G01 X144.8369 Y45.7274
G01 X144.9352 Y45.7505
G01 X145.0349 Y45.7668
G01 X145.1354 Y45.7763
G01 X145.2364 Y45.7790
G01 X153.4080
G01 X153.5022 Y45.7827
G01 X153.5958 Y45.7938
G01 X153.6882 Y45.8122
G01 X153.7789 Y45.8378
G01 X153.8673 Y45.8704
G01 X153.9528 Y45.9098
G01 X154.0350 Y45.9559
G01 X154.1134 Y46.0082
G01 X154.1874 Y46.0665
G01 X154.2566 Y46.1305
G01 X154.3205 Y46.1997
G01 X154.3789 Y46.2737
G01 X154.4312 Y46.3520
G01 X154.4773 Y46.4342
G01 X154.5167 Y46.5198
G01 X154.5493 Y46.6082
G01 X154.5749 Y46.6989
G01 X154.5933 Y46.7913
G01 X154.6043 Y46.8849
G01 X154.6080 Y46.9790
G01 Y48.1374
G01 X154.6043 Y48.2316
G01 X154.5933 Y48.3252
G01 X154.5749 Y48.4176
G01 X154.5493 Y48.5083
G01 X154.5167 Y48.5967
G01 X154.4773 Y48.6822
G01 X154.4312 Y48.7644
G01 X154.3789 Y48.8428
G01 X154.3205 Y48.9168
G01 X154.2566 Y48.9860
G01 X154.1874 Y49.0499
G01 X154.1134 Y49.1083
G01 X154.0350 Y49.1606
G01 X153.9528 Y49.2066
G01 X153.8673 Y49.2461
G01 X153.7789 Y49.2787
G01 X153.6882 Y49.3043
G01 X153.5958 Y49.3227
G01 X153.5022 Y49.3337
G01 X153.4080 Y49.3374
G01 X143.7465
G01 Y54.4683
G01 X155.2242
G01 X155.1689 Y54.3725
G01 X155.1061 Y54.2815
G01 X155.0362 Y54.1958
G01 X154.9596 Y54.1160
G01 X154.9676 Y54.1234
G01 X154.8964 Y54.0552
G01 X154.8207 Y53.9920
G01 X154.7410 Y53.9340
G01 X154.6576 Y53.8815
G01 X154.5708 Y53.8347
G01 X154.4811 Y53.7939
G01 X154.3888 Y53.7592
G01 X154.2944 Y53.7307
G01 X154.1983 Y53.7087
G01 X154.1009 Y53.6933
G01 X154.0028 Y53.6844
G01 X153.9042 Y53.6821
G01 X145.7327
G01 X145.6385 Y53.6784
G01 X145.5449 Y53.6673
G01 X145.4525 Y53.6489
G01 X145.3618 Y53.6233
G01 X145.2734 Y53.5907
G01 X145.1879 Y53.5513
G01 X145.1057 Y53.5052
G01 X145.0273 Y53.4529
G01 X144.9533 Y53.3946
G01 X144.8841 Y53.3306
G01 X144.8202 Y53.2614
G01 X144.7618 Y53.1874
G01 X144.7095 Y53.1091
G01 X144.6635 Y53.0269
G01 X144.6240 Y52.9413
G01 X144.5914 Y52.8529
G01 X144.5658 Y52.7622
G01 X144.5474 Y52.6698
G01 X144.5364 Y52.5762
G01 X144.5327 Y52.4821
G01 Y51.3236
G01 X144.5364 Y51.2295
G01 X144.5474 Y51.1359
G01 X144.5658 Y51.0435
G01 X144.5914 Y50.9528
G01 X144.6240 Y50.8644
G01 X144.6635 Y50.7788
G01 X144.7095 Y50.6966
G01 X144.7618 Y50.6183
G01 X144.8202 Y50.5443
G01 X144.8841 Y50.4751
G01 X144.9533 Y50.4111
G01 X145.0273 Y50.3528
G01 X145.1057 Y50.3005
G01 X145.1879 Y50.2544
G01 X145.2734 Y50.2150
G01 X145.3618 Y50.1824
G01 X145.4525 Y50.1568
G01 X145.5449 Y50.1384
G01 X145.6385 Y50.1273
G01 X145.7327 Y50.1236
G01 X155.3942
G01 Y49.6696
G01 X155.1542 Y49.7305
M107
G00 Z2.0000


;No. 29: Hole 8


;No. 30: Hole 8
G00 X159.7582 Y44.9928 Z2.0000
G00 Z0.5000
G01 Z0.0000 F400
G01 Z-1.5000
M106 S240
G01 Y54.4683 F1000
G01 X160.5443
G01 Y46.9790
G01 X160.5481 Y46.8844
G01 X160.5593 Y46.7903
G01 X160.5779 Y46.6974
G01 X160.6037 Y46.6063
G01 X160.6367 Y46.5175
G01 X160.6765 Y46.4316
G01 X160.7230 Y46.3490
G01 X160.7759 Y46.2704
G01 X160.8348 Y46.1963
G01 X160.8994 Y46.1270
G01 X160.9692 Y46.0630
G01 X161.0439 Y46.0047
G01 X161.1229 Y45.9525
G01 X161.2058 Y45.9066
G01 X161.2921 Y45.8675
G01 X161.3811 Y45.8353
G01 X161.4725 Y45.8102
G01 X161.5655 Y45.7924
G01 X161.6597 Y45.7820
G01 X161.7543 Y45.7790
G01 X171.2359
G01 X171.1811 Y45.6831
G01 X171.1186 Y45.5921
G01 X171.0489 Y45.5064
G01 X170.9723 Y45.4267
G01 X170.9801 Y45.4339
G01 X170.9088 Y45.3658
G01 X170.8331 Y45.3026
G01 X170.7533 Y45.2446
G01 X170.6698 Y45.1921
G01 X170.5829 Y45.1453
G01 X170.4931 Y45.1045
G01 X170.4008 Y45.0698
G01 X170.3063 Y45.0414
G01 X170.2102 Y45.0194
G01 X170.1128 Y45.0040
G01 X170.0145 Y44.9951
G01 X169.9159 Y44.9928
G01 X159.7582
M107
G00 Z2.0000


;No. 31: Hole 9


;No. 32: Hole 9
G00 X176.0422 Y54.2910 Z2.0000
G00 Z0.5000
G01 Z0.0000 F400
G01 Z-1.5000
M106 S240
G01 X176.0191 Y54.3245 F1000
G01 X175.9969 Y54.3586
G01 X175.9757 Y54.3934
G01 X175.9554 Y54.4287
G01 X175.9611 Y54.4180
G01 X175.9409 Y54.4682
G01 X187.2489 Y54.4683
G01 X187.1982 Y54.3812
G01 X187.1417 Y54.2976
G01 X187.0797 Y54.2181
G01 X187.0125 Y54.1430
G01 X186.9403 Y54.0725
G01 X186.8636 Y54.0071
G01 X186.7826 Y53.9470
G01 X186.6978 Y53.8925
G01 X186.6094 Y53.8438
G01 X186.5180 Y53.8013
G01 X186.4239 Y53.7649
G01 X186.3276 Y53.7351
G01 X186.2295 Y53.7118
G01 X186.1301 Y53.6951
G01 X186.0297 Y53.6852
G01 X185.9289 Y53.6822
G01 X177.2663
G01 X177.1773 Y53.6821
G01 X177.0885 Y53.6876
G01 X177.0002 Y53.6985
G01 X176.9127 Y53.7148
G01 X176.8264 Y53.7364
G01 X176.7415 Y53.7634
G01 X176.6586 Y53.7955
G01 X176.5777 Y53.8326
G01 X176.4993 Y53.8747
G01 X176.4236 Y53.9215
G01 X176.3509 Y53.9729
G01 X176.2816 Y54.0287
G01 X176.2158 Y54.0886
G01 X176.1538 Y54.1524
G01 X176.0959 Y54.2200
G01 X176.0422 Y54.2910
M107
G00 Z2.0000


;No. 33: Hole 10
G00 X176.0109 Y49.0581 Z2.0000
G00 Z0.5000
G01 Z0.0000 F400
G01 Z-1.5000
M106 S240
G01 X176.6507 F1000
M107
G00 Z2.0000
G00 X186.5388
G00 Z0.5000
G01 Z0.0000 F400
G01 Z-1.5000
M106 S240
G01 X187.1786 F1000
G01 X187.4186 Y49.0386
G01 Y44.9927
G01 X186.6324
G01 Y48.1373
G01 X186.6287 Y48.2315
G01 X186.6177 Y48.3251
G01 X186.5993 Y48.4175
G01 X186.5737 Y48.5082
G01 X186.5411 Y48.5966
G01 X186.5016 Y48.6821
G01 X186.4556 Y48.7643
G01 X186.4033 Y48.8427
G01 X186.3449 Y48.9167
G01 X186.2810 Y48.9859
G01 X186.2118 Y49.0498
G01 X186.1378 Y49.1082
G01 X186.0594 Y49.1605
G01 X185.9772 Y49.2065
G01 X185.8917 Y49.2460
G01 X185.8033 Y49.2786
G01 X185.7126 Y49.3042
G01 X185.6202 Y49.3226
G01 X185.5266 Y49.3336
G01 X185.4324 Y49.3373
G01 X177.7571
G01 X177.6629 Y49.3336
G01 X177.5693 Y49.3226
G01 X177.4769 Y49.3042
G01 X177.3862 Y49.2786
G01 X177.2978 Y49.2460
G01 X177.2123 Y49.2065
G01 X177.1301 Y49.1605
G01 X177.0517 Y49.1082
G01 X176.9777 Y49.0498
G01 X176.9085 Y48.9859
G01 X176.8446 Y48.9167
G01 X176.7862 Y48.8427
G01 X176.7339 Y48.7643
G01 X176.6879 Y48.6821
G01 X176.6484 Y48.5966
G01 X176.6158 Y48.5082
G01 X176.5902 Y48.4175
G01 X176.5718 Y48.3251
G01 X176.5608 Y48.2315
G01 X176.5571 Y48.1373
G01 Y44.9927
G01 X175.7709
G01 Y50.1235
G01 X187.4186
G01 Y49.0386
G01 X187.1786 Y49.0581
M107
G00 Z2.0000


;No. 34: Hole 2
G00 X176.5390 Y65.3611 Z2.0000
G00 Z0.5000
G01 Z0.0000 F400
G01 Z-1.5000
M106 S240
G01 X171.1989 F1000
G01 X172.3552 Y63.8611
G01 X174.2751
G01 X178.2901 Y66.8611
G01 X168.1263
G01 Y68.3611
G01 X177.3837
G01 X153.9279
G01 X155.1602 Y69.8611
G01 X173.0841
G01 X167.3189
G01 Y71.3611
G01 X156.3963
G01 X152.6954 Y66.8611
G01 X158.3745
G01 X158.0612 Y65.3611
G01 X151.4629
G01 Y63.8611
G01 X157.7919
G01 X142.0345
G01 X142.3031 Y62.3611
G01 X157.5226
G01 X157.2532 Y60.8611
G01 X142.5718
G01 X142.8405 Y59.3611
G01 X156.9839
M107
G00 Z2.0000
G00 X148.4387 Y63.8611
G00 Z0.5000
G01 Z-1.5000 F400
M106 S240
G01 Y65.3611 F1000
G01 X141.7658
G01 X141.4617 Y66.8611
G01 X147.1784
G01 X145.9371 Y68.3611
G01 X122.4585
G01 X121.5734 Y66.8611
G01 X131.7205
G01 X128.6605
G01 Y65.3611
G01 X123.3196
G01 X125.5912 Y63.8611
G01 X127.4991
M107
G00 Z2.0000
G00 X126.7670 Y68.3611
G00 Z0.5000
G01 Z-1.5000 F400
M106 S240
G01 Y69.8611 F1000
G01 X144.7053
G01 X143.4744 Y71.3611
G01 X132.5678
G01 X132.5341 Y71.5584
G01 X133.7601 Y71.8110
G01 X134.9906 Y72.0406
G01 X136.2253 Y72.2471
G01 X137.4635 Y72.4305
G01 X138.7050 Y72.5907
G01 X139.9493 Y72.7276
G01 X141.1959 Y72.8412
G01 X142.4444 Y72.9315
G01 X144.0850 Y70.9073
G01 X145.7405 Y68.8954
G01 X147.4110 Y66.8958
G01 X149.0963 Y64.9087
G01 X149.1455 Y64.8418
G01 X149.1998 Y64.7790
G01 X149.2589 Y64.7207
G01 X149.3224 Y64.6671
G01 X149.3898 Y64.6187
G01 X149.4608 Y64.5757
G01 X149.5350 Y64.5384
G01 X149.6119 Y64.5070
G01 X149.6910 Y64.4817
G01 X149.7718 Y64.4627
G01 X149.8539 Y64.4500
G01 X149.9367 Y64.4438
G01 X150.0197 Y64.4442
G01 X150.1025 Y64.4510
G01 X150.1844 Y64.4643
G01 X150.2651 Y64.4839
G01 X150.3348 Y64.5078
G01 X150.4024 Y64.5368
G01 X150.4678 Y64.5706
G01 X150.5305 Y64.6092
G01 X150.5902 Y64.6523
G01 X150.6466 Y64.6997
G01 X150.6993 Y64.7511
G01 X150.7481 Y64.8062
G01 X151.6844 Y65.9452
G01 X152.6206 Y67.0844
G01 X153.5565 Y68.2237
G01 X154.4922 Y69.3633
G01 X155.2243 Y70.2546
G01 X155.9581 Y71.1445
G01 X156.6935 Y72.0331
G01 X157.4305 Y72.9204
G01 X158.8431 Y72.8190
G01 X160.2533 Y72.6875
G01 X161.6603 Y72.5262
G01 X163.0636 Y72.3350
G01 X164.4626 Y72.1141
G01 X165.8565 Y71.8635
G01 X167.2448 Y71.5834
G01 X168.6269 Y71.2739
G01 X170.0020 Y70.9351
G01 X171.3697 Y70.5673
G01 X172.7293 Y70.1704
G01 X174.0801 Y69.7449
G01 X175.4216 Y69.2907
G01 X176.7531 Y68.8081
G01 X178.0741 Y68.2974
G01 X179.3840 Y67.7588
G01 X178.8921 Y67.2124
G01 X178.3788 Y66.6862
G01 X177.8447 Y66.1810
G01 X177.2908 Y65.6976
G01 X176.7180 Y65.2368
G01 X176.1272 Y64.7993
G01 X175.5193 Y64.3859
G01 X174.8953 Y63.9972
G01 X174.3238 Y63.6676
G01 X173.7455 Y63.3504
G01 X173.1605 Y63.0456
G01 X172.5691 Y62.7534
G01 X172.4563 Y63.1246
G01 X172.3152 Y63.4861
G01 X172.1467 Y63.8357
G01 X171.9518 Y64.1713
G01 X171.7317 Y64.4908
G01 X171.4877 Y64.7925
G01 X171.2211 Y65.0745
G01 X170.9337 Y65.3352
G01 X170.6270 Y65.5730
G01 X170.3030 Y65.7865
G01 X169.9635 Y65.9744
G01 X169.6105 Y66.1356
G01 X169.1530 Y66.3138
G01 X168.6893 Y66.4754
G01 X168.2201 Y66.6200
G01 X167.7459 Y66.7476
G01 X167.2674 Y66.8579
G01 X166.7852 Y66.9508
G01 X166.3000 Y67.0262
G01 X165.8124 Y67.0840
G01 X164.6480 Y67.1911
G01 X163.4814 Y67.2700
G01 X162.3132 Y67.3209
G01 X161.1441 Y67.3435
G01 X160.6834 Y67.3575
G01 X160.2224 Y67.3604
G01 X159.7616 Y67.3524
G01 X159.3010 Y67.3334
G01 X159.2252 Y67.3184
G01 X159.1509 Y67.2976
G01 X159.0783 Y67.2711
G01 X159.0080 Y67.2391
G01 X158.9404 Y67.2017
G01 X158.8758 Y67.1593
G01 X158.8148 Y67.1120
G01 X158.7575 Y67.0601
G01 X158.7045 Y67.0039
G01 X158.6559 Y66.9439
G01 X158.6121 Y66.8802
G01 X158.5734 Y66.8134
G01 X158.5399 Y66.7438
G01 X158.5119 Y66.6718
G01 X158.4895 Y66.5978
G01 X158.4730 Y66.5224
G01 X156.9062 Y57.7966
G01 X142.9175
G01 X141.3496 Y66.5505
G01 X141.3268 Y66.6438
G01 X141.2954 Y66.7346
G01 X141.2558 Y66.8221
G01 X141.2084 Y66.9057
G01 X141.1535 Y66.9845
G01 X141.0915 Y67.0579
G01 X141.0231 Y67.1253
G01 X140.9488 Y67.1862
G01 X140.8692 Y67.2399
G01 X140.7850 Y67.2861
G01 X140.6968 Y67.3244
G01 X140.6056 Y67.3544
G01 X140.5120 Y67.3759
G01 X140.4167 Y67.3887
G01 X140.3208 Y67.3926
G01 X140.2248 Y67.3878
G01 X139.3993 Y67.3862
G01 X138.5739 Y67.3722
G01 X137.7487 Y67.3459
G01 X136.9241 Y67.3073
G01 X136.1001 Y67.2563
G01 X135.2770 Y67.1929
G01 X134.4550 Y67.1173
G01 X133.6341 Y67.0293
G01 X133.1550 Y66.9657
G01 X132.6788 Y66.8826
G01 X132.2064 Y66.7800
G01 X131.7387 Y66.6582
G01 X131.2763 Y66.5174
G01 X130.8200 Y66.3578
G01 X130.3707 Y66.1797
G01 X129.9290 Y65.9833
G01 X129.6137 Y65.8131
G01 X129.3112 Y65.6209
G01 X129.0232 Y65.4077
G01 X128.7509 Y65.1746
G01 X128.4959 Y64.9228
G01 X128.2594 Y64.6536
G01 X128.0426 Y64.3683
G01 X127.8466 Y64.0683
G01 X127.6723 Y63.7552
G01 X127.5207 Y63.4305
G01 X127.3925 Y63.0958
G01 X127.2883 Y62.7530
G01 X126.7211 Y63.0220
G01 X126.1622 Y63.3078
G01 X125.6120 Y63.6101
G01 X125.0710 Y63.9286
G01 X124.5398 Y64.2631
G01 X124.0187 Y64.6132
G01 X123.5083 Y64.9787
G01 X123.0091 Y65.3593
G01 X122.5213 Y65.7545
G01 X122.0455 Y66.1641
G01 X121.5822 Y66.5876
G01 X121.1316 Y67.0248
G01 X120.9658 Y67.2010
G01 X120.8031 Y67.3802
G01 X120.6436 Y67.5622
G01 X120.4874 Y67.7470
G01 X121.4589 Y68.1577
G01 X122.4373 Y68.5518
G01 X123.4222 Y68.9292
G01 X124.4134 Y69.2898
G01 X125.4106 Y69.6335
G01 X126.4134 Y69.9602
G01 X127.4217 Y70.2698
G01 X128.4351 Y70.5623
G01 X129.4534 Y70.8374
G01 X130.4761 Y71.0952
G01 X131.5031 Y71.3355
G01 X132.5341 Y71.5584
G01 X132.5678 Y71.3611
M107
G00 Z2.0000


;No. 35: Hole 1
G00 X130.2088 Y75.4409 Z2.0000
G00 Z0.5000
G01 Z0.0000 F400
G01 Z-1.5000
M106 S240
G01 X123.9569 F1000
G01 X124.8255 Y73.9409
G01 X119.3961
G01 X120.5476 Y72.4409
G01 X117.9274
M107
G00 Z2.0000
G00 X129.5893 Y75.4409
G00 Z0.5000
G01 Z-1.5000 F400
M106 S240
G01 Y76.9409 F1000
G01 X138.3027
G01 X137.6121 Y78.4409
G01 X162.2724
G01 X161.5885 Y76.9409
G01 X170.2960
G01 X169.6256 Y75.4409
G01 X175.8986
G01 X175.0390 Y73.9409
G01 X180.4610
G01 X179.3271 Y72.4409
G01 X181.9491
G01 X182.1392 Y72.3746
G01 X182.0096 Y72.1063
G01 X181.8785 Y71.8387
G01 X181.7459 Y71.5718
G01 X181.6119 Y71.3056
G01 X180.2619 Y71.8564
G01 X178.9019 Y72.3822
G01 X177.5325 Y72.8828
G01 X176.1540 Y73.3580
G01 X174.7670 Y73.8076
G01 X173.3719 Y74.2315
G01 X171.9692 Y74.6296
G01 X170.5594 Y75.0017
G01 X169.1430 Y75.3477
G01 X167.7205 Y75.6675
G01 X166.2922 Y75.9609
G01 X164.8588 Y76.2280
G01 X163.4207 Y76.4684
G01 X161.9784 Y76.6823
G01 X160.5324 Y76.8695
G01 X159.0832 Y77.0300
G01 X157.6313 Y77.1636
G01 X156.1771 Y77.2704
G01 X154.7212 Y77.3503
G01 X153.2641 Y77.4034
G01 X152.1467 Y77.4328
G01 X151.0290 Y77.4509
G01 X149.9112 Y77.4576
G01 X148.7934 Y77.4531
G01 X147.6757 Y77.4372
G01 X146.5582 Y77.4100
G01 X145.4410 Y77.3715
G01 X144.3243 Y77.3217
G01 X142.6491 Y77.2098
G01 X140.9766 Y77.0622
G01 X139.3077 Y76.8789
G01 X137.6431 Y76.6601
G01 X135.9835 Y76.4059
G01 X134.3297 Y76.1163
G01 X132.6825 Y75.7915
G01 X131.0425 Y75.4317
G01 X129.4106 Y75.0370
G01 X127.7875 Y74.6076
G01 X126.1739 Y74.1437
G01 X124.5706 Y73.6455
G01 X122.9783 Y73.1132
G01 X121.3976 Y72.5470
G01 X119.8294 Y71.9473
G01 X118.2744 Y71.3144
G01 X118.0144 Y71.8200
G01 X117.7598 Y72.3284
G01 X117.5105 Y72.8394
G01 X117.2667 Y73.3530
G01 X117.2714 Y73.3654
G01 X118.7294 Y73.9158
G01 X120.1966 Y74.4411
G01 X121.6727 Y74.9413
G01 X123.1570 Y75.4161
G01 X124.6493 Y75.8654
G01 X126.1491 Y76.2892
G01 X127.6559 Y76.6872
G01 X129.1692 Y77.0593
G01 X130.6888 Y77.4055
G01 X132.2140 Y77.7257
G01 X133.7445 Y78.0197
G01 X135.2797 Y78.2874
G01 X136.8194 Y78.5289
G01 X138.3629 Y78.7439
G01 X139.9099 Y78.9325
G01 X141.4600 Y79.0946
G01 X143.0125 Y79.2302
G01 X144.5672 Y79.3391
G01 X146.1234 Y79.4215
G01 X147.6809 Y79.4772
G01 X149.2391 Y79.5062
G01 X150.7976 Y79.5085
G01 X152.3558 Y79.4842
G01 X153.9134 Y79.4332
G01 X155.7506 Y79.3254
G01 X157.5852 Y79.1809
G01 X159.4165 Y78.9998
G01 X161.2439 Y78.7821
G01 X163.0665 Y78.5280
G01 X164.8838 Y78.2374
G01 X166.6948 Y77.9106
G01 X168.4989 Y77.5477
G01 X170.2955 Y77.1489
G01 X172.0837 Y76.7141
G01 X173.8628 Y76.2438
G01 X175.6323 Y75.7380
G01 X177.3912 Y75.1969
G01 X179.1390 Y74.6208
G01 X180.8749 Y74.0099
G01 X182.5983 Y73.3644
G01 X182.4871 Y73.1153
G01 X182.3735 Y72.8673
G01 X182.2576 Y72.6204
G01 X182.1392 Y72.3746
G01 X181.9491 Y72.4409
M107
G00 Z2.0000


;No. 36: Hole 12
G00 X186.5789 Y74.5133 Z2.0000
G00 Z0.5000
G01 Z0.0000 F400
G01 Z-1.5000
M106 S240
G01 X188.3477 F1000
G01 X189.1639 Y73.0133
G01 X187.4323
G01 X188.2087 Y71.5133
G01 X189.9091
G01 X190.5821 Y70.0133
G01 X188.9097
G01 X189.5422 Y68.5133
G01 X191.1903
G01 X191.7363 Y67.0133
G01 X190.1074
G01 X190.6087 Y65.5133
G01 X192.2190
G01 X192.6438 Y64.0133
G01 X191.0498
G01 X191.4298 Y62.5133
G01 X193.0122
G01 X193.3256 Y61.0133
G01 X191.7525
G01 X192.0198 Y59.5133
G01 X193.5829
G01 X193.7874 Y58.0133
G01 X192.2316
G01 X192.3885 Y56.5133
G01 X193.9401
G01 X194.0417 Y55.0133
G01 X192.4930
G01 X192.5456 Y53.5133
G01 X194.0927
G01 Y52.0133
G01 X192.5457
G01 X192.4931 Y50.5133
G01 X194.0418
G01 X193.9403 Y49.0133
G01 X192.3887
G01 X192.2318 Y47.5133
G01 X193.7877
G01 X193.5831 Y46.0133
G01 X192.0201
G01 X191.7528 Y44.5133
G01 X193.3259
G01 X193.0127 Y43.0133
G01 X191.4302
G01 X191.0503 Y41.5133
G01 X192.6443
G01 X192.2195 Y40.0133
G01 X190.6092
G01 X190.1080 Y38.5133
G01 X191.7368
G01 X191.1910 Y37.0133
G01 X189.5429
G01 X188.9104 Y35.5133
G01 X190.5827
G01 X189.9098 Y34.0133
G01 X188.2095
G01 X187.4331 Y32.5133
G01 X189.1647
G01 X188.3486 Y31.0133
G01 X186.5797
G01 X187.4523 Y29.5133
G01 X185.6423
G01 X186.4748 Y28.0133
G01 X184.6133
G01 X185.4042 Y26.5133
G01 X183.4863
G01 X184.2358 Y25.0133
G01 X182.2504
G01 X182.9590 Y23.5133
G01 X180.8924
G01 X181.5598 Y22.0133
G01 X179.3954
G01 X180.0211 Y20.5133
G01 X177.7385
G01 X178.3212 Y19.0133
G01 X175.8873
G01 X176.4297 Y17.5133
G01 X173.8001
G01 X174.2996 Y16.0133
G01 X171.4048
G01 X171.8619 Y14.5133
G01 X168.5827
G01 X168.9942 Y13.0133
G01 X165.0937
G01 X165.4609 Y11.5133
G01 X160.2507
G01 X160.5984 Y10.0133
G01 X139.5610
G01 X139.9087 Y11.5133
G01 X134.6986
G01 X135.0654 Y13.0133
G01 X131.1653
G01 X131.5764 Y14.5133
G01 X128.2976
G01 X128.7542 Y16.0133
G01 X125.8600
G01 X126.3588 Y17.5133
G01 X123.7298
G01 X124.2715 Y19.0133
G01 X121.8383
G01 X122.4201 Y20.5133
G01 X120.1384
G01 X120.7632 Y22.0133
G01 X118.5997
G01 X119.2661 Y23.5133
G01 X117.2005
G01 X117.9080 Y25.0133
G01 X115.9237
G01 X116.6720 Y26.5133
G01 X114.7553
G01 X115.5450 Y28.0133
G01 X113.6847
G01 X114.5159 Y29.5133
G01 X112.7072
G01 X113.5784 Y31.0133
G01 X111.8109
G01 X110.9948 Y32.5133
G01 X112.7249
G01 X111.9485 Y34.0133
G01 X110.2497
G01 X109.5767 Y35.5133
G01 X111.2475
G01 X110.6150 Y37.0133
G01 X108.9685
G01 X108.4227 Y38.5133
G01 X110.0498
G01 X109.5486 Y40.0133
G01 X107.9400
G01 X107.5152 Y41.5133
G01 X109.1074
G01 X108.7275 Y43.0133
G01 X107.1469
G01 X106.8335 Y44.5133
G01 X108.4048
G01 X108.1376 Y46.0133
G01 X106.5764
G01 X106.3719 Y47.5133
G01 X107.9258
G01 X107.7689 Y49.0133
G01 X106.2192
G01 X106.1177 Y50.5133
G01 X107.6645
G01 X107.6119 Y52.0133
G01 X106.0667
G01 X106.0668 Y53.5133
G01 X107.6119
G01 X107.6646 Y55.0133
G01 X106.1178
G01 X106.2194 Y56.5133
G01 X107.7690
G01 X107.9260 Y58.0133
G01 X106.3721
G01 X106.5766 Y59.5133
G01 X108.1379
G01 X108.4052 Y61.0133
G01 X106.8339
G01 X107.1473 Y62.5133
G01 X108.7279
G01 X109.1079 Y64.0133
G01 X107.5157
G01 X107.9405 Y65.5133
G01 X109.5491
G01 X110.0504 Y67.0133
G01 X108.4232
G01 X108.9692 Y68.5133
G01 X110.6157
G01 X111.2482 Y70.0133
G01 X109.5774
G01 X110.2504 Y71.5133
G01 X111.9492
G01 X112.7257 Y73.0133
G01 X110.9956
G01 X111.8117 Y74.5133
G01 X113.5792
G01 X112.7080 Y76.0133
G01 X114.5167
G01 X113.6856 Y77.5133
G01 X115.5458
G01 X114.7562 Y79.0133
G01 X116.6730
G01 X115.9246 Y80.5133
G01 X117.9089
G01 X117.2015 Y82.0133
G01 X119.2671
G01 X118.6007 Y83.5133
G01 X120.7641
G01 X120.1393 Y85.0133
G01 X122.4211
G01 X121.8392 Y86.5133
G01 X124.2724
G01 X123.7307 Y88.0133
G01 X126.3597
G01 X125.8608 Y89.5133
G01 X128.7551
G01 X128.2985 Y91.0133
G01 X131.5772
G01 X131.1660 Y92.5133
G01 X135.0662
G01 X134.6992 Y94.0133
G01 X139.9092
G01 X139.5615 Y95.5133
G01 X160.5980
G01 X160.2502 Y94.0133
G01 X165.4603
G01 X165.0931 Y92.5133
G01 X168.9934
G01 X168.5820 Y91.0133
G01 X171.8611
G01 X171.4039 Y89.5133
G01 X174.2986
G01 X173.7992 Y88.0133
G01 X176.4288
G01 X175.8863 Y86.5133
G01 X178.3203
G01 X177.7376 Y85.0133
G01 X180.0202
G01 X179.3945 Y83.5133
G01 X181.5588
G01 X180.8914 Y82.0133
G01 X182.9580
G01 X182.2495 Y80.5133
G01 X184.2349
G01 X183.4854 Y79.0133
G01 X185.4033
G01 X184.6124 Y77.5133
G01 X186.4739
G01 X185.6414 Y76.0133
G01 X185.5200 Y75.8327
G01 X184.8706 Y76.8016
G01 X184.1946 Y77.7523
G01 X183.4927 Y78.6839
G01 X182.7653 Y79.5958
G01 X182.0130 Y80.4873
G01 X181.2364 Y81.3576
G01 X180.4361 Y82.2062
G01 X179.6127 Y83.0325
G01 X178.7668 Y83.8356
G01 X177.8991 Y84.6151
G01 X177.0101 Y85.3704
G01 X176.1007 Y86.1009
G01 X175.1714 Y86.8059
G01 X174.2231 Y87.4851
G01 X173.2564 Y88.1379
G01 X172.2720 Y88.7637
G01 X171.2707 Y89.3621
G01 X170.2533 Y89.9326
G01 X169.2206 Y90.4749
G01 X168.1732 Y90.9884
G01 X167.1121 Y91.4729
G01 X166.0380 Y91.9278
G01 X164.9518 Y92.3530
G01 X163.8543 Y92.7480
G01 X162.7463 Y93.1126
G01 X161.6286 Y93.4465
G01 X160.5022 Y93.7494
G01 X159.3678 Y94.0211
G01 X158.2263 Y94.2614
G01 X157.0787 Y94.4701
G01 X155.9257 Y94.6471
G01 X154.7683 Y94.7921
G01 X153.6074 Y94.9052
G01 X152.4437 Y94.9862
G01 X151.2783 Y95.0350
G01 X150.1119 Y95.0517
G01 X148.9456 Y95.0362
G01 X147.7801 Y94.9885
G01 X146.6164 Y94.9086
G01 X145.4553 Y94.7967
G01 X144.2977 Y94.6528
G01 X143.1446 Y94.4769
G01 X141.9968 Y94.2693
G01 X140.8551 Y94.0302
G01 X139.6781 Y93.7496
G01 X138.5097 Y93.4355
G01 X137.3508 Y93.0881
G01 X136.2022 Y92.7077
G01 X135.0651 Y92.2946
G01 X133.9402 Y91.8490
G01 X132.8285 Y91.3715
G01 X131.7309 Y90.8624
G01 X130.6484 Y90.3221
G01 X129.5817 Y89.7510
G01 X128.5319 Y89.1496
G01 X127.4996 Y88.5185
G01 X126.4859 Y87.8580
G01 X125.4914 Y87.1688
G01 X124.5171 Y86.4515
G01 X123.5638 Y85.7066
G01 X122.6321 Y84.9346
G01 X121.7229 Y84.1364
G01 X120.8369 Y83.3124
G01 X119.9748 Y82.4635
G01 X119.1374 Y81.5902
G01 X118.3254 Y80.6933
G01 X117.5393 Y79.7736
G01 X116.7799 Y78.8317
G01 X116.0477 Y77.8685
G01 X115.3434 Y76.8847
G01 X114.6675 Y75.8812
G01 X114.0206 Y74.8587
G01 X113.4032 Y73.8182
G01 X112.8159 Y72.7604
G01 X112.2591 Y71.6863
G01 X111.7332 Y70.5966
G01 X111.2388 Y69.4924
G01 X110.7761 Y68.3744
G01 X110.3456 Y67.2437
G01 X109.9476 Y66.1011
G01 X109.5825 Y64.9476
G01 X109.2506 Y63.7841
G01 X108.9521 Y62.6116
G01 X108.6872 Y61.4311
G01 X108.4563 Y60.2434
G01 X108.2594 Y59.0497
G01 X108.0968 Y57.8507
G01 X107.9685 Y56.6476
G01 X107.8747 Y55.4414
G01 X107.8155 Y54.2329
G01 X107.7909 Y53.0233
G01 X107.8009 Y51.8134
G01 X107.8455 Y50.6043
G01 X107.9247 Y49.3970
G01 X108.0384 Y48.1925
G01 X108.1865 Y46.9917
G01 X108.3689 Y45.7956
G01 X108.5855 Y44.6053
G01 X108.8361 Y43.4216
G01 X109.1204 Y42.2456
G01 X109.4313 Y41.1009
G01 X109.7742 Y39.9654
G01 X110.1489 Y38.8399
G01 X110.5549 Y37.7254
G01 X110.9921 Y36.6228
G01 X111.4600 Y35.5328
G01 X111.9584 Y34.4564
G01 X112.4867 Y33.3944
G01 X113.0446 Y32.3476
G01 X113.6316 Y31.3169
G01 X114.2474 Y30.3031
G01 X114.8913 Y29.3069
G01 X115.5629 Y28.3292
G01 X116.2617 Y27.3707
G01 X116.9871 Y26.4322
G01 X117.7385 Y25.5144
G01 X118.5154 Y24.6181
G01 X119.3171 Y23.7439
G01 X120.1430 Y22.8925
G01 X120.9925 Y22.0646
G01 X121.8649 Y21.2609
G01 X122.7594 Y20.4820
G01 X123.6755 Y19.7285
G01 X124.6124 Y19.0009
G01 X125.5692 Y18.3000
G01 X126.5454 Y17.6261
G01 X127.5401 Y16.9799
G01 X128.5525 Y16.3619
G01 X129.5819 Y15.7725
G01 X130.6274 Y15.2122
G01 X131.6882 Y14.6815
G01 X132.7635 Y14.1807
G01 X133.8524 Y13.7103
G01 X134.9540 Y13.2706
G01 X136.0676 Y12.8620
G01 X137.1922 Y12.4848
G01 X138.3269 Y12.1393
G01 X139.4709 Y11.8257
G01 X140.6232 Y11.5444
G01 X141.7829 Y11.2955
G01 X142.9492 Y11.0792
G01 X144.1211 Y10.8957
G01 X145.2977 Y10.7452
G01 X146.4780 Y10.6277
G01 X147.6612 Y10.5434
G01 X148.8462 Y10.4924
G01 X150.0323 Y10.4745
G01 X151.2183 Y10.4900
G01 X152.4035 Y10.5387
G01 X153.5868 Y10.6207
G01 X154.7674 Y10.7358
G01 X155.9442 Y10.8840
G01 X157.1165 Y11.0651
G01 X158.2832 Y11.2791
G01 X159.4434 Y11.5256
G01 X160.5963 Y11.8047
G01 X161.7410 Y12.1156
G01 X162.8765 Y12.4584
G01 X164.0020 Y12.8330
G01 X165.1165 Y13.2390
G01 X166.2191 Y13.6762
G01 X167.3091 Y14.1440
G01 X168.3855 Y14.6423
G01 X169.4475 Y15.1706
G01 X170.4943 Y15.7284
G01 X171.5250 Y16.3154
G01 X172.5389 Y16.9311
G01 X173.5351 Y17.5750
G01 X174.5128 Y18.2466
G01 X175.4713 Y18.9453
G01 X176.4098 Y19.6706
G01 X177.3276 Y20.4220
G01 X178.2240 Y21.1989
G01 X179.0982 Y22.0006
G01 X179.9496 Y22.8265
G01 X180.7774 Y23.6759
G01 X181.5812 Y24.5483
G01 X182.3601 Y25.4428
G01 X183.1136 Y26.3588
G01 X183.8412 Y27.2957
G01 X184.5421 Y28.2525
G01 X185.2160 Y29.2287
G01 X185.8622 Y30.2233
G01 X186.4803 Y31.2357
G01 X187.0697 Y32.2651
G01 X187.6300 Y33.3106
G01 X188.1607 Y34.3713
G01 X188.6615 Y35.4466
G01 X189.1319 Y36.5355
G01 X189.5716 Y37.6371
G01 X189.9802 Y38.7507
G01 X190.3574 Y39.8752
G01 X190.7029 Y41.0099
G01 X191.0165 Y42.1539
G01 X191.2978 Y43.3062
G01 X191.5467 Y44.4659
G01 X191.7630 Y45.6322
G01 X191.9465 Y46.8041
G01 X192.0970 Y47.9806
G01 X192.2144 Y49.1610
G01 X192.2987 Y50.3441
G01 X192.3498 Y51.5292
G01 X192.3676 Y52.7152
G01 X192.3522 Y53.9012
G01 X192.3034 Y55.0864
G01 X192.2215 Y56.2697
G01 X192.1063 Y57.4502
G01 X191.9581 Y58.6271
G01 X191.7770 Y59.7993
G01 X191.5630 Y60.9660
G01 X191.3164 Y62.1262
G01 X191.0374 Y63.2791
G01 X190.7381 Y64.3872
G01 X190.4086 Y65.4867
G01 X190.0492 Y66.5768
G01 X189.6602 Y67.6567
G01 X189.2418 Y68.7255
G01 X188.7944 Y69.7825
G01 X188.3182 Y70.8269
G01 X187.8137 Y71.8579
G01 X187.2812 Y72.8748
G01 X186.7212 Y73.8767
G01 X186.1340 Y74.8629
G01 X185.5200 Y75.8327
G01 X185.6414 Y76.0133
G01 X187.4514
G01 X187.6151 Y76.1287
G01 X188.2594 Y75.0622
G01 X188.8733 Y73.9779
G01 X189.4564 Y72.8768
G01 X190.0082 Y71.7596
G01 X190.5283 Y70.6273
G01 X191.0163 Y69.4808
G01 X191.4717 Y68.3210
G01 X191.8943 Y67.1489
G01 X192.2836 Y65.9653
G01 X192.6395 Y64.7711
G01 X192.9615 Y63.5674
G01 X193.2494 Y62.3552
G01 X193.5030 Y61.1352
G01 X193.7221 Y59.9086
G01 X193.9066 Y58.6764
G01 X194.0562 Y57.4394
G01 X194.1709 Y56.1986
G01 X194.2506 Y54.9552
G01 X194.2952 Y53.7100
G01 X194.3046 Y52.4640
G01 X194.2789 Y51.2182
G01 X194.2181 Y49.9737
G01 X194.1222 Y48.7314
G01 X193.9914 Y47.4923
G01 X193.8256 Y46.2573
G01 X193.6251 Y45.0276
G01 X193.3900 Y43.8039
G01 X193.1205 Y42.5874
G01 X192.8167 Y41.3790
G01 X192.4791 Y40.1796
G01 X192.1077 Y38.9902
G01 X191.7030 Y37.8118
G01 X191.2652 Y36.6452
G01 X190.7946 Y35.4915
G01 X190.2918 Y34.3515
G01 X189.7569 Y33.2261
G01 X189.1906 Y32.1162
G01 X188.5932 Y31.0227
G01 X187.9652 Y29.9466
G01 X187.3071 Y28.8885
G01 X186.6194 Y27.8495
G01 X185.9027 Y26.8302
G01 X185.1575 Y25.8316
G01 X184.3845 Y24.8543
G01 X183.5842 Y23.8993
G01 X182.7574 Y22.9672
G01 X181.9045 Y22.0588
G01 X181.0264 Y21.1748
G01 X180.1237 Y20.3159
G01 X179.1972 Y19.4828
G01 X178.2475 Y18.6761
G01 X177.2755 Y17.8966
G01 X176.2818 Y17.1448
G01 X175.2674 Y16.4213
G01 X174.2330 Y15.7266
G01 X173.1794 Y15.0615
G01 X172.1131 Y14.4277
G01 X171.0294 Y13.8242
G01 X169.9293 Y13.2513
G01 X168.8134 Y12.7095
G01 X167.6829 Y12.1992
G01 X166.5384 Y11.7209
G01 X165.3810 Y11.2749
G01 X164.2115 Y10.8615
G01 X163.0308 Y10.4812
G01 X161.8400 Y10.1341
G01 X160.6399 Y9.8205
G01 X159.4314 Y9.5408
G01 X158.2156 Y9.2951
G01 X156.9934 Y9.0836
G01 X155.7657 Y8.9066
G01 X154.5335 Y8.7640
G01 X153.2978 Y8.6561
G01 X152.0596 Y8.5829
G01 X150.8198 Y8.5445
G01 X149.5794 Y8.5408
G01 X148.3394 Y8.5721
G01 X147.1007 Y8.6381
G01 X145.8644 Y8.7388
G01 X144.6315 Y8.8742
G01 X143.4028 Y9.0441
G01 X142.1793 Y9.2485
G01 X140.9621 Y9.4871
G01 X139.7520 Y9.7598
G01 X138.5501 Y10.0664
G01 X137.3573 Y10.4065
G01 X136.1744 Y10.7800
G01 X135.0026 Y11.1866
G01 X133.8425 Y11.6258
G01 X132.6953 Y12.0975
G01 X131.5618 Y12.6012
G01 X130.4429 Y13.1365
G01 X129.3394 Y13.7030
G01 X128.2522 Y14.3002
G01 X127.1823 Y14.9277
G01 X126.1303 Y15.5850
G01 X125.0973 Y16.2716
G01 X124.0839 Y16.9869
G01 X123.0910 Y17.7303
G01 X122.1193 Y18.5013
G01 X121.1697 Y19.2993
G01 X120.2428 Y20.1236
G01 X119.3395 Y20.9737
G01 X118.4603 Y21.8487
G01 X117.6061 Y22.7480
G01 X116.7774 Y23.6710
G01 X115.9750 Y24.6169
G01 X115.1994 Y25.5849
G01 X114.4513 Y26.5743
G01 X113.7313 Y27.5844
G01 X113.0399 Y28.6142
G01 X112.3776 Y29.6630
G01 X111.7439 Y30.7293
G01 X111.1403 Y31.8130
G01 X110.5673 Y32.9131
G01 X110.0255 Y34.0289
G01 X109.5152 Y35.1595
G01 X109.0368 Y36.3040
G01 X108.5908 Y37.4614
G01 X108.1774 Y38.6309
G01 X107.7970 Y39.8115
G01 X107.4499 Y41.0024
G01 X107.1363 Y42.2025
G01 X106.8566 Y43.4110
G01 X106.6109 Y44.6268
G01 X106.3994 Y45.8491
G01 X106.2223 Y47.0768
G01 X106.0797 Y48.3089
G01 X105.9718 Y49.5447
G01 X105.8986 Y50.7829
G01 X105.8601 Y52.0227
G01 X105.8565 Y53.2631
G01 X105.8877 Y54.5031
G01 X105.9537 Y55.7418
G01 X106.0545 Y56.9781
G01 X106.1899 Y58.2111
G01 X106.3598 Y59.4398
G01 X106.5642 Y60.6633
G01 X106.8028 Y61.8805
G01 X107.0756 Y63.0906
G01 X107.3821 Y64.2925
G01 X107.7223 Y65.4854
G01 X108.0958 Y66.6682
G01 X108.5024 Y67.8401
G01 X108.9417 Y69.0001
G01 X109.4134 Y70.1473
G01 X109.9171 Y71.2808
G01 X110.4525 Y72.3998
G01 X111.0190 Y73.5033
G01 X111.6163 Y74.5904
G01 X112.2438 Y75.6604
G01 X112.9011 Y76.7123
G01 X113.5877 Y77.7453
G01 X114.3031 Y78.7587
G01 X115.0466 Y79.7516
G01 X115.8176 Y80.7232
G01 X116.6157 Y81.6728
G01 X117.4400 Y82.5997
G01 X118.2901 Y83.5030
G01 X119.1652 Y84.3821
G01 X120.0646 Y85.2363
G01 X120.9876 Y86.0650
G01 X121.9336 Y86.8674
G01 X122.9016 Y87.6429
G01 X123.8911 Y88.3910
G01 X124.9012 Y89.1109
G01 X125.9311 Y89.8023
G01 X126.9799 Y90.4645
G01 X128.0413 Y91.0955
G01 X129.1199 Y91.6965
G01 X130.2149 Y92.2673
G01 X131.3254 Y92.8072
G01 X132.4506 Y93.3158
G01 X133.5895 Y93.7928
G01 X134.7414 Y94.2379
G01 X135.9052 Y94.6505
G01 X137.0800 Y95.0305
G01 X138.2651 Y95.3775
G01 X139.4594 Y95.6912
G01 X140.6619 Y95.9715
G01 X141.8719 Y96.2180
G01 X143.0882 Y96.4306
G01 X144.3100 Y96.6092
G01 X145.5364 Y96.7535
G01 X146.7663 Y96.8636
G01 X147.9987 Y96.9392
G01 X149.2328 Y96.9803
G01 X150.4676 Y96.9870
G01 X151.7021 Y96.9591
G01 X152.9353 Y96.8968
G01 X154.1663 Y96.8000
G01 X155.3941 Y96.6688
G01 X156.6178 Y96.5034
G01 X157.8364 Y96.3039
G01 X159.0489 Y96.0704
G01 X160.2544 Y95.8031
G01 X161.4520 Y95.5023
G01 X162.6407 Y95.1680
G01 X163.8196 Y94.8007
G01 X164.9878 Y94.4006
G01 X166.1443 Y93.9681
G01 X167.2883 Y93.5033
G01 X168.4189 Y93.0068
G01 X169.5352 Y92.4789
G01 X170.6362 Y91.9200
G01 X171.7213 Y91.3305
G01 X172.7894 Y90.7110
G01 X173.8398 Y90.0619
G01 X174.8716 Y89.3836
G01 X175.8841 Y88.6768
G01 X176.8765 Y87.9420
G01 X177.8479 Y87.1797
G01 X178.7976 Y86.3906
G01 X179.7250 Y85.5753
G01 X180.6292 Y84.7343
G01 X181.5095 Y83.8685
G01 X182.3653 Y82.9783
G01 X183.1959 Y82.0646
G01 X184.0006 Y81.1281
G01 X184.7788 Y80.1694
G01 X185.5300 Y79.1893
G01 X186.2535 Y78.1887
G01 X186.9487 Y77.1682
G01 X187.6151 Y76.1287
G01 X187.4514 Y76.0133
M107
G00 Z2.0000


;No. 37: Hole 11
G00 X150.3976 Y119.3880 Z2.0000
G00 Z0.5000
G01 Z0.0000 F400
G01 Z-1.5000
M106 S240
G01 X149.4647 F1000
G01 X149.1959 Y120.8880
G01 X150.6642
G01 X150.9308 Y122.3880
G01 X148.9271
G01 X148.6583 Y123.8880
G01 X151.1974
G01 X151.4640 Y125.3880
G01 X148.3894
G01 X148.1206 Y126.8880
G01 X151.7306
G01 X151.9972 Y128.3880
G01 X147.8518
G01 X147.5830 Y129.8880
G01 X152.2638
G01 X152.5305 Y131.3880
G01 X147.3142
G01 X147.0454 Y132.8880
G01 X152.7971
G01 X153.0637 Y134.3880
G01 X146.7766
G01 X146.5077 Y135.8880
G01 X153.3303
G01 X153.5969 Y137.3880
G01 X146.2389
G01 X146.0445 Y137.3394
G01 X145.8003 Y138.7017
G01 X154.0323 Y138.6952
G01 X149.9340 Y115.6367
G01 X146.0445 Y137.3394
G01 X146.2389 Y137.3880
M107
G00 Z2.0000


;No. 38: Hole 3


;No. 39: Hole 3
G00 X117.1527 Y141.9932 Z2.0000
G00 Z0.5000
G01 Z0.0000 F400
G01 Z-1.5000
M106 S240
G01 Y149.4825 F1000
G01 X117.1490 Y149.5766
G01 X117.1379 Y149.6702
G01 X117.1195 Y149.7626
G01 X117.0939 Y149.8533
G01 X117.0613 Y149.9417
G01 X117.0219 Y150.0273
G01 X116.9758 Y150.1095
G01 X116.9235 Y150.1878
G01 X116.8651 Y150.2618
G01 X116.8012 Y150.3310
G01 X116.7320 Y150.3950
G01 X116.6580 Y150.4533
G01 X116.5797 Y150.5057
G01 X116.4974 Y150.5517
G01 X116.4119 Y150.5911
G01 X116.3235 Y150.6238
G01 X116.2328 Y150.6493
G01 X116.1404 Y150.6677
G01 X116.0468 Y150.6788
G01 X115.9527 Y150.6825
G01 X115.2414 Y150.6695
G01 X114.5301 Y150.6656
G01 X113.8187 Y150.6709
G01 X113.1075 Y150.6854
G01 X113.0155 Y150.6920
G01 X112.9240 Y150.7046
G01 X112.8336 Y150.7230
G01 X112.7445 Y150.7472
G01 X112.6572 Y150.7770
G01 X112.5720 Y150.8124
G01 X112.4892 Y150.8533
G01 X112.4093 Y150.8993
G01 X112.3324 Y150.9505
G01 X112.2591 Y151.0064
G01 X112.1894 Y151.0670
G01 X112.1238 Y151.1319
G01 X112.0625 Y151.2009
G01 X112.0058 Y151.2737
G01 X111.9539 Y151.3500
G01 X111.9070 Y151.4295
G01 X111.9127 Y151.4189
G01 X111.8922 Y151.4683
G01 X123.1997 Y151.4687
G01 X123.1489 Y151.3815
G01 X123.0924 Y151.2980
G01 X123.0304 Y151.2185
G01 X122.9632 Y151.1433
G01 X122.8911 Y151.0729
G01 X122.8143 Y151.0075
G01 X122.7333 Y150.9474
G01 X122.6485 Y150.8929
G01 X122.5602 Y150.8442
G01 X122.4687 Y150.8016
G01 X122.3747 Y150.7653
G01 X122.2783 Y150.7355
G01 X122.1802 Y150.7122
G01 X122.0808 Y150.6955
G01 X121.9804 Y150.6856
G01 X121.8796 Y150.6825
G01 X119.1388
G01 X119.0447 Y150.6788
G01 X118.9511 Y150.6678
G01 X118.8587 Y150.6494
G01 X118.7680 Y150.6238
G01 X118.6796 Y150.5912
G01 X118.5941 Y150.5517
G01 X118.5118 Y150.5057
G01 X118.4335 Y150.4534
G01 X118.3595 Y150.3950
G01 X118.2903 Y150.3311
G01 X118.2264 Y150.2619
G01 X118.1680 Y150.1879
G01 X118.1157 Y150.1095
G01 X118.0696 Y150.0273
G01 X118.0302 Y149.9418
G01 X117.9976 Y149.8534
G01 X117.9720 Y149.7627
G01 X117.9536 Y149.6703
G01 X117.9425 Y149.5767
G01 X117.9388 Y149.4825
G01 Y141.9932
G01 X117.1527
M107
G00 Z2.0000


;No. 40: Hole 6


;No. 41: Hole 6
G00 X128.4547 Y142.1881 Z2.0000
G00 Z0.5000
G01 Z0.0000 F400
G01 Z-1.5000
M106 S240
G01 X128.3727 Y142.2405 F1000
G01 X128.2943 Y142.2983
G01 X128.2200 Y142.3611
G01 X128.1499 Y142.4287
G01 X128.0845 Y142.5008
G01 X128.0240 Y142.5771
G01 X127.9687 Y142.6572
G01 X127.9188 Y142.7408
G01 X127.9245 Y142.7302
G01 X127.9037 Y142.7789
G01 X139.2111 Y142.7787
G01 X139.1606 Y142.6914
G01 X139.1042 Y142.6077
G01 X139.0423 Y142.5280
G01 X138.9751 Y142.4528
G01 X138.9030 Y142.3822
G01 X138.8263 Y142.3167
G01 X138.7453 Y142.2565
G01 X138.6604 Y142.2020
G01 X138.5721 Y142.1533
G01 X138.4806 Y142.1108
G01 X138.3865 Y142.0745
G01 X138.2901 Y142.0447
G01 X138.1919 Y142.0215
G01 X138.0924 Y142.0050
G01 X137.9920 Y141.9953
G01 X137.8911 Y141.9924
G01 X129.2246 Y141.9925
G01 X129.1241 Y141.9937
G01 X129.0239 Y142.0017
G01 X128.9245 Y142.0164
G01 X128.8263 Y142.0379
G01 X128.7298 Y142.0659
G01 X128.6354 Y142.1004
G01 X128.5436 Y142.1412
G01 X128.4547 Y142.1881
M107
G00 Z2.0000


;No. 42: Hole 5


;No. 43: Hole 5
G00 X128.5004 Y146.5073 Z2.0000
G00 Z0.5000
G01 Z0.0000 F400
G01 Z-1.5000
M106 S240
G01 X128.4109 Y146.5599 F1000
G01 X128.3253 Y146.6189
G01 X128.2441 Y146.6838
G01 X128.1679 Y146.7543
G01 X128.0969 Y146.8302
G01 X128.0315 Y146.9109
G01 X127.9720 Y146.9962
G01 X127.9188 Y147.0854
G01 X127.9245 Y147.0748
G01 X127.9037 Y147.1235
G01 X139.2111 Y147.1233
G01 X139.1606 Y147.0360
G01 X139.1042 Y146.9523
G01 X139.0423 Y146.8727
G01 X138.9751 Y146.7974
G01 X138.9030 Y146.7268
G01 X138.8263 Y146.6613
G01 X138.7453 Y146.6011
G01 X138.6605 Y146.5466
G01 X138.5721 Y146.4980
G01 X138.4806 Y146.4554
G01 X138.3865 Y146.4191
G01 X138.2901 Y146.3893
G01 X138.1919 Y146.3661
G01 X138.0924 Y146.3496
G01 X137.9920 Y146.3399
G01 X137.8911 Y146.3371
G01 X129.2284
G01 X129.1340 Y146.3380
G01 X129.0398 Y146.3448
G01 X128.9462 Y146.3576
G01 X128.8537 Y146.3762
G01 X128.7624 Y146.4006
G01 X128.6729 Y146.4306
G01 X128.5855 Y146.4662
G01 X128.5004 Y146.5073
M107
G00 Z2.0000


;No. 44: Hole 4


;No. 45: Hole 4
G00 X128.5473 Y150.8286 Z2.0000
G00 Z0.5000
G01 Z0.0000 F400
G01 Z-1.5000
M106 S240
G01 X128.4946 Y150.8557 F1000
G01 X128.4430 Y150.8850
G01 X128.3927 Y150.9164
G01 X128.3438 Y150.9498
G01 X128.2962 Y150.9852
G01 X128.2502 Y151.0226
G01 X128.2057 Y151.0618
G01 X128.1630 Y151.1029
G01 X128.1721 Y151.0930
G01 X128.1004 Y151.1705
G01 X128.0340 Y151.2527
G01 X127.9734 Y151.3391
G01 X127.9186 Y151.4294
G01 X127.9243 Y151.4188
G01 X127.9037 Y151.4681
G01 X139.2106 Y151.4680
G01 X139.1600 Y151.3808
G01 X139.1036 Y151.2972
G01 X139.0416 Y151.2176
G01 X138.9744 Y151.1424
G01 X138.9023 Y151.0719
G01 X138.8256 Y151.0064
G01 X138.7446 Y150.9463
G01 X138.6597 Y150.8918
G01 X138.5714 Y150.8431
G01 X138.4799 Y150.8006
G01 X138.3858 Y150.7643
G01 X138.2895 Y150.7344
G01 X138.1913 Y150.7112
G01 X138.0918 Y150.6946
G01 X137.9915 Y150.6848
G01 X137.8906 Y150.6818
G01 X129.2504 Y150.6812
G01 X129.1598
G01 X129.0693 Y150.6866
G01 X128.9793 Y150.6973
G01 X128.8901 Y150.7133
G01 X128.8020 Y150.7345
G01 X128.7153 Y150.7608
G01 X128.6303 Y150.7922
G01 X128.5473 Y150.8286
M107
G00 Z2.0000


;No. 46: Hole 7
G00 X143.9865 Y146.7305 Z2.0000
G00 Z0.5000
G01 Z0.0000 F400
G01 Z-1.5000
M106 S240
G01 X155.1542 F1000
G01 X155.3942 Y146.6696
G01 Y141.9928
G01 X143.9144 Y141.9931
G01 X143.9650 Y142.0806
G01 X144.0214 Y142.1644
G01 X144.0834 Y142.2441
G01 X144.1507 Y142.3195
G01 X144.2229 Y142.3901
G01 X144.2997 Y142.4557
G01 X144.3808 Y142.5158
G01 X144.4659 Y142.5704
G01 X144.5544 Y142.6190
G01 X144.6460 Y142.6615
G01 X144.7403 Y142.6977
G01 X144.8369 Y142.7274
G01 X144.9352 Y142.7505
G01 X145.0349 Y142.7668
G01 X145.1354 Y142.7763
G01 X145.2364 Y142.7790
G01 X153.4080
G01 X153.5022 Y142.7827
G01 X153.5958 Y142.7938
G01 X153.6882 Y142.8122
G01 X153.7789 Y142.8378
G01 X153.8673 Y142.8704
G01 X153.9528 Y142.9098
G01 X154.0350 Y142.9559
G01 X154.1134 Y143.0082
G01 X154.1874 Y143.0665
G01 X154.2566 Y143.1305
G01 X154.3205 Y143.1997
G01 X154.3789 Y143.2737
G01 X154.4312 Y143.3520
G01 X154.4773 Y143.4342
G01 X154.5167 Y143.5198
G01 X154.5493 Y143.6082
G01 X154.5749 Y143.6989
G01 X154.5933 Y143.7913
G01 X154.6043 Y143.8849
G01 X154.6080 Y143.9790
G01 Y145.1374
G01 X154.6043 Y145.2316
G01 X154.5933 Y145.3252
G01 X154.5749 Y145.4176
G01 X154.5493 Y145.5083
G01 X154.5167 Y145.5967
G01 X154.4773 Y145.6822
G01 X154.4312 Y145.7644
G01 X154.3789 Y145.8428
G01 X154.3205 Y145.9168
G01 X154.2566 Y145.9860
G01 X154.1874 Y146.0499
G01 X154.1134 Y146.1083
G01 X154.0350 Y146.1606
G01 X153.9528 Y146.2066
G01 X153.8673 Y146.2461
G01 X153.7789 Y146.2787
G01 X153.6882 Y146.3043
G01 X153.5958 Y146.3227
G01 X153.5022 Y146.3337
G01 X153.4080 Y146.3374
G01 X143.7465
G01 Y151.4683
G01 X155.2242
G01 X155.1689 Y151.3725
G01 X155.1061 Y151.2815
G01 X155.0362 Y151.1958
G01 X154.9596 Y151.1160
G01 X154.9676 Y151.1234
G01 X154.8964 Y151.0552
G01 X154.8207 Y150.9920
G01 X154.7410 Y150.9340
G01 X154.6576 Y150.8815
G01 X154.5708 Y150.8347
G01 X154.4811 Y150.7939
G01 X154.3888 Y150.7592
G01 X154.2944 Y150.7307
G01 X154.1983 Y150.7087
G01 X154.1009 Y150.6933
G01 X154.0028 Y150.6844
G01 X153.9042 Y150.6821
G01 X145.7327
G01 X145.6385 Y150.6784
G01 X145.5449 Y150.6673
G01 X145.4525 Y150.6489
G01 X145.3618 Y150.6233
G01 X145.2734 Y150.5907
G01 X145.1879 Y150.5513
G01 X145.1057 Y150.5052
G01 X145.0273 Y150.4529
G01 X144.9533 Y150.3946
G01 X144.8841 Y150.3306
G01 X144.8202 Y150.2614
G01 X144.7618 Y150.1874
G01 X144.7095 Y150.1091
G01 X144.6635 Y150.0269
G01 X144.6240 Y149.9413
G01 X144.5914 Y149.8529
G01 X144.5658 Y149.7622
G01 X144.5474 Y149.6698
G01 X144.5364 Y149.5762
G01 X144.5327 Y149.4821
G01 Y148.3236
G01 X144.5364 Y148.2295
G01 X144.5474 Y148.1359
G01 X144.5658 Y148.0435
G01 X144.5914 Y147.9528
G01 X144.6240 Y147.8644
G01 X144.6635 Y147.7788
G01 X144.7095 Y147.6966
G01 X144.7618 Y147.6183
G01 X144.8202 Y147.5443
G01 X144.8841 Y147.4751
G01 X144.9533 Y147.4111
G01 X145.0273 Y147.3528
G01 X145.1057 Y147.3005
G01 X145.1879 Y147.2544
G01 X145.2734 Y147.2150
G01 X145.3618 Y147.1824
G01 X145.4525 Y147.1568
G01 X145.5449 Y147.1384
G01 X145.6385 Y147.1273
G01 X145.7327 Y147.1236
G01 X155.3942
G01 Y146.6696
G01 X155.1542 Y146.7305
M107
G00 Z2.0000


;No. 47: Hole 8


;No. 48: Hole 8
G00 X159.7582 Y141.9928 Z2.0000
G00 Z0.5000
G01 Z0.0000 F400
G01 Z-1.5000
M106 S240
G01 Y151.4683 F1000
G01 X160.5443
G01 Y143.9790
G01 X160.5481 Y143.8844
G01 X160.5593 Y143.7903
G01 X160.5779 Y143.6974
G01 X160.6037 Y143.6063
G01 X160.6367 Y143.5175
G01 X160.6765 Y143.4316
G01 X160.7230 Y143.3490
G01 X160.7759 Y143.2704
G01 X160.8348 Y143.1963
G01 X160.8994 Y143.1270
G01 X160.9692 Y143.0630
G01 X161.0439 Y143.0047
G01 X161.1229 Y142.9525
G01 X161.2058 Y142.9066
G01 X161.2921 Y142.8675
G01 X161.3811 Y142.8353
G01 X161.4725 Y142.8102
G01 X161.5655 Y142.7924
G01 X161.6597 Y142.7820
G01 X161.7543 Y142.7790
G01 X171.2359
G01 X171.1811 Y142.6831
G01 X171.1186 Y142.5921
G01 X171.0489 Y142.5064
G01 X170.9723 Y142.4267
G01 X170.9801 Y142.4339
G01 X170.9088 Y142.3658
G01 X170.8331 Y142.3026
G01 X170.7533 Y142.2446
G01 X170.6698 Y142.1921
G01 X170.5829 Y142.1453
G01 X170.4931 Y142.1045
G01 X170.4008 Y142.0698
G01 X170.3063 Y142.0414
G01 X170.2102 Y142.0194
G01 X170.1128 Y142.0040
G01 X170.0145 Y141.9951
G01 X169.9159 Y141.9928
G01 X159.7582
M107
G00 Z2.0000


;No. 49: Hole 10
G00 X176.0109 Y146.0581 Z2.0000
G00 Z0.5000
G01 Z0.0000 F400
G01 Z-1.5000
M106 S240
G01 X176.6507 F1000
M107
G00 Z2.0000
G00 X186.5388
G00 Z0.5000
G01 Z0.0000 F400
G01 Z-1.5000
M106 S240
G01 X187.1786 F1000
G01 X187.4186 Y146.0386
G01 Y141.9927
G01 X186.6324
G01 Y145.1373
G01 X186.6287 Y145.2315
G01 X186.6177 Y145.3251
G01 X186.5993 Y145.4175
G01 X186.5737 Y145.5082
G01 X186.5411 Y145.5966
G01 X186.5016 Y145.6821
G01 X186.4556 Y145.7643
G01 X186.4033 Y145.8427
G01 X186.3449 Y145.9167
G01 X186.2810 Y145.9859
G01 X186.2118 Y146.0498
G01 X186.1378 Y146.1082
G01 X186.0594 Y146.1605
G01 X185.9772 Y146.2065
G01 X185.8917 Y146.2460
G01 X185.8033 Y146.2786
G01 X185.7126 Y146.3042
G01 X185.6202 Y146.3226
G01 X185.5266 Y146.3336
G01 X185.4324 Y146.3373
G01 X177.7571
G01 X177.6629 Y146.3336
G01 X177.5693 Y146.3226
G01 X177.4769 Y146.3042
G01 X177.3862 Y146.2786
G01 X177.2978 Y146.2460
G01 X177.2123 Y146.2065
G01 X177.1301 Y146.1605
G01 X177.0517 Y146.1082
G01 X176.9777 Y146.0498
G01 X176.9085 Y145.9859
G01 X176.8446 Y145.9167
G01 X176.7862 Y145.8427
G01 X176.7339 Y145.7643
G01 X176.6879 Y145.6821
G01 X176.6484 Y145.5966
G01 X176.6158 Y145.5082
G01 X176.5902 Y145.4175
G01 X176.5718 Y145.3251
G01 X176.5608 Y145.2315
G01 X176.5571 Y145.1373
G01 Y141.9927
G01 X175.7709
G01 Y147.1235
G01 X187.4186
G01 Y146.0386
G01 X187.1786 Y146.0581
M107
G00 Z2.0000


;No. 50: Hole 9


;No. 51: Hole 9
G00 X176.0422 Y151.2910 Z2.0000
G00 Z0.5000
G01 Z0.0000 F400
G01 Z-1.5000
M106 S240
G01 X176.0191 Y151.3245 F1000
G01 X175.9969 Y151.3586
G01 X175.9757 Y151.3934
G01 X175.9554 Y151.4287
G01 X175.9611 Y151.4180
G01 X175.9409 Y151.4682
G01 X187.2489 Y151.4683
G01 X187.1982 Y151.3812
G01 X187.1417 Y151.2976
G01 X187.0797 Y151.2181
G01 X187.0125 Y151.1430
G01 X186.9403 Y151.0725
G01 X186.8636 Y151.0071
G01 X186.7826 Y150.9470
G01 X186.6978 Y150.8925
G01 X186.6094 Y150.8438
G01 X186.5180 Y150.8013
G01 X186.4239 Y150.7649
G01 X186.3276 Y150.7351
G01 X186.2295 Y150.7118
G01 X186.1301 Y150.6951
G01 X186.0297 Y150.6852
G01 X185.9289 Y150.6822
G01 X177.2663
G01 X177.1773 Y150.6821
G01 X177.0885 Y150.6876
G01 X177.0002 Y150.6985
G01 X176.9127 Y150.7148
G01 X176.8264 Y150.7364
G01 X176.7415 Y150.7634
G01 X176.6586 Y150.7955
G01 X176.5777 Y150.8326
G01 X176.4993 Y150.8747
G01 X176.4236 Y150.9215
G01 X176.3509 Y150.9729
G01 X176.2816 Y151.0287
G01 X176.2158 Y151.0886
G01 X176.1538 Y151.1524
G01 X176.0959 Y151.2200
G01 X176.0422 Y151.2910
M107
G00 Z2.0000


;No. 52: Hole 2
G00 X174.2751 Y160.8611 Z2.0000
G00 Z0.5000
G01 Z0.0000 F400
G01 Z-1.5000
M106 S240
G01 X172.3552 F1000
G01 X171.1989 Y162.3611
G01 X176.5390
G01 X178.2901 Y163.8611
G01 X168.1263
G01 Y165.3611
G01 X177.3837
G01 X153.9279
G01 X155.1602 Y166.8611
G01 X173.0841
G01 X167.3189
G01 Y168.3611
G01 X156.3963
G01 X152.6954 Y163.8611
G01 X158.3745
G01 X158.0612 Y162.3611
G01 X151.4629
G01 Y160.8611
G01 X157.7919
G01 X142.0345
G01 X141.7658 Y162.3611
G01 X148.4387
G01 X147.1784 Y163.8611
G01 X141.4617
G01 X145.9371 Y165.3611
G01 X122.4585
G01 X121.5734 Y163.8611
G01 X131.7205
G01 X128.6605
G01 Y162.3611
G01 X123.3196
G01 X125.5912 Y160.8611
G01 X127.4991
M107
G00 Z2.0000
G00 X126.7670 Y165.3611
G00 Z0.5000
G01 Z-1.5000 F400
M106 S240
G01 Y166.8611 F1000
G01 X144.7053
G01 X143.4744 Y168.3611
G01 X132.5678
M107
G00 Z2.0000
G00 X142.3031 Y160.8611
G00 Z0.5000
G01 Z-1.5000 F400
M106 S240
G01 Y159.3611 F1000
G01 X157.5226
G01 X157.2532 Y157.8611
G01 X142.5718
G01 X142.8405 Y156.3611
G01 X156.9839
G01 X157.1825 Y156.3357
G01 X156.9062 Y154.7966
G01 X142.9175
G01 X141.3496 Y163.5505
G01 X141.3268 Y163.6438
G01 X141.2954 Y163.7346
G01 X141.2558 Y163.8221
G01 X141.2084 Y163.9057
G01 X141.1535 Y163.9845
G01 X141.0915 Y164.0579
G01 X141.0231 Y164.1253
G01 X140.9488 Y164.1862
G01 X140.8692 Y164.2399
G01 X140.7850 Y164.2861
G01 X140.6968 Y164.3244
G01 X140.6056 Y164.3544
G01 X140.5120 Y164.3759
G01 X140.4167 Y164.3887
G01 X140.3208 Y164.3926
G01 X140.2248 Y164.3878
G01 X139.3993 Y164.3862
G01 X138.5739 Y164.3722
G01 X137.7487 Y164.3459
G01 X136.9241 Y164.3073
G01 X136.1001 Y164.2563
G01 X135.2770 Y164.1929
G01 X134.4550 Y164.1173
G01 X133.6341 Y164.0293
G01 X133.1550 Y163.9657
G01 X132.6788 Y163.8826
G01 X132.2064 Y163.7800
G01 X131.7387 Y163.6582
G01 X131.2763 Y163.5174
G01 X130.8200 Y163.3578
G01 X130.3707 Y163.1797
G01 X129.9290 Y162.9833
G01 X129.6137 Y162.8131
G01 X129.3112 Y162.6209
G01 X129.0232 Y162.4077
G01 X128.7509 Y162.1746
G01 X128.4959 Y161.9228
G01 X128.2594 Y161.6536
G01 X128.0426 Y161.3683
G01 X127.8466 Y161.0683
G01 X127.6723 Y160.7552
G01 X127.5207 Y160.4305
G01 X127.3925 Y160.0958
G01 X127.2883 Y159.7530
G01 X126.7211 Y160.0220
G01 X126.1622 Y160.3078
G01 X125.6120 Y160.6101
G01 X125.0710 Y160.9286
G01 X124.5398 Y161.2631
G01 X124.0187 Y161.6132
G01 X123.5083 Y161.9787
G01 X123.0091 Y162.3593
G01 X122.5213 Y162.7545
G01 X122.0455 Y163.1641
G01 X121.5822 Y163.5876
G01 X121.1316 Y164.0248
G01 X120.9658 Y164.2010
G01 X120.8031 Y164.3802
G01 X120.6436 Y164.5622
G01 X120.4874 Y164.7470
G01 X121.4677 Y165.1613
G01 X122.4549 Y165.5586
G01 X123.4488 Y165.9391
G01 X124.4491 Y166.3024
G01 X125.4554 Y166.6485
G01 X126.4676 Y166.9773
G01 X127.4852 Y167.2888
G01 X128.5080 Y167.5827
G01 X129.5357 Y167.8591
G01 X130.5680 Y168.1179
G01 X131.6045 Y168.3589
G01 X132.6451 Y168.5821
G01 X133.8576 Y168.8299
G01 X135.0745 Y169.0553
G01 X136.2953 Y169.2581
G01 X137.5198 Y169.4382
G01 X138.7473 Y169.5957
G01 X139.9775 Y169.7304
G01 X141.2100 Y169.8424
G01 X142.4444 Y169.9315
G01 X144.0850 Y167.9073
G01 X145.7405 Y165.8954
G01 X147.4110 Y163.8958
G01 X149.0963 Y161.9087
G01 X149.1455 Y161.8418
G01 X149.1998 Y161.7790
G01 X149.2589 Y161.7207
G01 X149.3224 Y161.6671
G01 X149.3898 Y161.6187
G01 X149.4608 Y161.5757
G01 X149.5350 Y161.5384
G01 X149.6119 Y161.5070
G01 X149.6910 Y161.4817
G01 X149.7718 Y161.4627
G01 X149.8539 Y161.4500
G01 X149.9367 Y161.4438
G01 X150.0197 Y161.4442
G01 X150.1025 Y161.4510
G01 X150.1844 Y161.4643
G01 X150.2651 Y161.4839
G01 X150.3002 Y161.4952
G01 X150.3348 Y161.5078
G01 X150.3689 Y161.5217
G01 X150.4024 Y161.5368
G01 X150.4354 Y161.5531
G01 X150.4678 Y161.5706
G01 X150.4995 Y161.5893
G01 X150.5305 Y161.6092
G01 X150.5608 Y161.6302
G01 X150.5902 Y161.6523
G01 X150.6188 Y161.6755
G01 X150.6466 Y161.6997
G01 X150.6734 Y161.7249
G01 X150.6993 Y161.7511
G01 X150.7242 Y161.7782
G01 X150.7481 Y161.8062
G01 X151.6844 Y162.9452
G01 X152.6206 Y164.0844
G01 X153.5565 Y165.2237
G01 X154.4922 Y166.3633
G01 X155.2243 Y167.2546
G01 X155.9581 Y168.1445
G01 X156.6935 Y169.0331
G01 X157.4305 Y169.9204
G01 X158.8431 Y169.8190
G01 X160.2533 Y169.6875
G01 X161.6603 Y169.5262
G01 X163.0636 Y169.3350
G01 X164.4626 Y169.1141
G01 X165.8565 Y168.8635
G01 X167.2448 Y168.5834
G01 X168.6269 Y168.2739
G01 X170.0020 Y167.9351
G01 X171.3697 Y167.5673
G01 X172.7293 Y167.1704
G01 X174.0801 Y166.7449
G01 X175.4216 Y166.2907
G01 X176.7531 Y165.8081
G01 X178.0741 Y165.2974
G01 X179.3840 Y164.7588
G01 X178.8921 Y164.2124
G01 X178.3788 Y163.6862
G01 X177.8447 Y163.1810
G01 X177.2908 Y162.6976
G01 X176.7180 Y162.2368
G01 X176.1272 Y161.7993
G01 X175.5193 Y161.3859
G01 X174.8953 Y160.9972
G01 X174.3238 Y160.6676
G01 X173.7455 Y160.3504
G01 X173.1605 Y160.0456
G01 X172.5691 Y159.7534
G01 X172.4563 Y160.1246
G01 X172.3152 Y160.4861
G01 X172.1467 Y160.8357
G01 X171.9518 Y161.1713
G01 X171.7317 Y161.4908
G01 X171.4877 Y161.7925
G01 X171.2211 Y162.0745
G01 X170.9337 Y162.3352
G01 X170.6270 Y162.5730
G01 X170.3030 Y162.7865
G01 X169.9635 Y162.9744
G01 X169.6105 Y163.1356
G01 X169.1530 Y163.3138
G01 X168.6893 Y163.4754
G01 X168.2201 Y163.6200
G01 X167.7459 Y163.7476
G01 X167.2674 Y163.8579
G01 X166.7852 Y163.9508
G01 X166.3000 Y164.0262
G01 X165.8124 Y164.0840
G01 X164.6480 Y164.1911
G01 X163.4814 Y164.2700
G01 X162.3132 Y164.3209
G01 X161.1441 Y164.3435
G01 X160.6834 Y164.3575
G01 X160.2224 Y164.3604
G01 X159.7616 Y164.3524
G01 X159.3010 Y164.3334
G01 X159.2252 Y164.3184
G01 X159.1509 Y164.2976
G01 X159.0783 Y164.2711
G01 X159.0080 Y164.2391
G01 X158.9404 Y164.2017
G01 X158.8758 Y164.1593
G01 X158.8148 Y164.1120
G01 X158.7575 Y164.0601
G01 X158.7045 Y164.0039
G01 X158.6559 Y163.9439
G01 X158.6121 Y163.8802
G01 X158.5734 Y163.8134
G01 X158.5399 Y163.7438
G01 X158.5119 Y163.6718
G01 X158.4895 Y163.5978
G01 X158.4730 Y163.5224
G01 X157.1825 Y156.3357
G01 X156.9839 Y156.3611
M107
G00 Z2.0000


;No. 53: Hole 1
G00 X161.5885 Y173.9409 Z2.0000
G00 Z0.5000
G01 Z0.0000 F400
G01 Z-1.5000
M106 S240
G01 X170.2960 F1000
G01 X169.6256 Y172.4409
G01 X175.8986
G01 X175.0390 Y170.9409
G01 X180.4610
G01 X179.3271 Y169.4409
G01 X181.9491
M107
G00 Z2.0000
G00 X162.2724 Y173.9409
G00 Z0.5000
G01 Z-1.5000 F400
M106 S240
G01 Y175.4409 F1000
G01 X137.6121
G01 X138.3027 Y173.9409
G01 X129.5893
G01 X130.2088 Y172.4409
G01 X123.9569
G01 X124.8255 Y170.9409
G01 X119.3961
G01 X120.5476 Y169.4409
G01 X117.9274
G01 X117.7503 Y169.3479
G01 X117.6275 Y169.5983
G01 X117.5060 Y169.8493
G01 X117.3857 Y170.1008
G01 X117.2667 Y170.3530
G01 X117.2714 Y170.3654
G01 X118.7294 Y170.9158
G01 X120.1966 Y171.4411
G01 X121.6727 Y171.9413
G01 X123.1570 Y172.4161
G01 X124.6493 Y172.8654
G01 X126.1491 Y173.2892
G01 X127.6559 Y173.6872
G01 X129.1692 Y174.0593
G01 X130.6888 Y174.4055
G01 X132.2140 Y174.7257
G01 X133.7445 Y175.0197
G01 X135.2797 Y175.2874
G01 X136.8194 Y175.5289
G01 X138.3629 Y175.7439
G01 X139.9099 Y175.9325
G01 X141.4600 Y176.0946
G01 X143.0125 Y176.2302
G01 X144.5672 Y176.3391
G01 X146.1234 Y176.4215
G01 X147.6809 Y176.4772
G01 X149.2391 Y176.5062
G01 X150.7976 Y176.5085
G01 X152.3558 Y176.4842
G01 X153.9134 Y176.4332
G01 X155.7506 Y176.3254
G01 X157.5852 Y176.1809
G01 X159.4165 Y175.9998
G01 X161.2439 Y175.7821
G01 X163.0665 Y175.5280
G01 X164.8838 Y175.2374
G01 X166.6948 Y174.9106
G01 X168.4989 Y174.5477
G01 X170.2955 Y174.1489
G01 X172.0837 Y173.7141
G01 X173.8628 Y173.2438
G01 X175.6323 Y172.7380
G01 X177.3912 Y172.1969
G01 X179.1390 Y171.6208
G01 X180.8749 Y171.0099
G01 X182.5983 Y170.3644
G01 X182.3609 Y169.8453
G01 X182.1173 Y169.3292
G01 X181.8677 Y168.8159
G01 X181.6119 Y168.3056
G01 X180.2619 Y168.8564
G01 X178.9019 Y169.3822
G01 X177.5325 Y169.8828
G01 X176.1540 Y170.3580
G01 X174.7670 Y170.8076
G01 X173.3719 Y171.2315
G01 X171.9692 Y171.6296
G01 X170.5594 Y172.0017
G01 X169.1430 Y172.3477
G01 X167.7205 Y172.6675
G01 X166.2922 Y172.9609
G01 X164.8588 Y173.2280
G01 X163.4207 Y173.4684
G01 X161.9784 Y173.6823
G01 X160.5324 Y173.8695
G01 X159.0832 Y174.0300
G01 X157.6313 Y174.1636
G01 X156.1771 Y174.2704
G01 X154.7212 Y174.3503
G01 X153.2641 Y174.4034
G01 X152.1467 Y174.4328
G01 X151.0290 Y174.4509
G01 X149.9112 Y174.4576
G01 X148.7934 Y174.4531
G01 X147.6757 Y174.4372
G01 X146.5582 Y174.4100
G01 X145.4410 Y174.3715
G01 X144.3243 Y174.3217
G01 X142.6491 Y174.2098
G01 X140.9766 Y174.0622
G01 X139.3077 Y173.8789
G01 X137.6431 Y173.6601
G01 X135.9835 Y173.4059
G01 X134.3297 Y173.1163
G01 X132.6825 Y172.7915
G01 X131.0425 Y172.4317
G01 X129.4106 Y172.0370
G01 X127.7875 Y171.6076
G01 X126.1739 Y171.1437
G01 X124.5706 Y170.6455
G01 X122.9783 Y170.1132
G01 X121.3976 Y169.5470
G01 X119.8294 Y168.9473
G01 X118.2744 Y168.3144
G01 X118.1401 Y168.5711
G01 X118.0080 Y168.8290
G01 X117.8781 Y169.0879
G01 X117.7503 Y169.3479
G01 X117.9274 Y169.4409
M107
G00 Z2.0000


;No. 54: Hole 12
G00 X113.5792 Y171.5133 Z2.0000
G00 Z0.5000
G01 Z0.0000 F400
G01 Z-1.5000
M106 S240
G01 X111.8117 F1000
G01 X110.9956 Y170.0133
G01 X112.7257
G01 X111.9492 Y168.5133
G01 X110.2504
G01 X109.5774 Y167.0133
G01 X111.2482
G01 X110.6157 Y165.5133
G01 X108.9692
G01 X108.4232 Y164.0133
G01 X110.0504
G01 X109.5491 Y162.5133
G01 X107.9405
G01 X107.5157 Y161.0133
G01 X109.1079
G01 X108.7279 Y159.5133
G01 X107.1473
G01 X106.8339 Y158.0133
G01 X108.4052
G01 X108.1379 Y156.5133
G01 X106.5766
G01 X106.3721 Y155.0133
G01 X107.9260
G01 X107.7690 Y153.5133
G01 X106.2194
G01 X106.1178 Y152.0133
G01 X107.6646
G01 X107.6119 Y150.5133
G01 X106.0668
G01 X106.0667 Y149.0133
G01 X107.6119
G01 X107.6645 Y147.5133
G01 X106.1177
G01 X106.2192 Y146.0133
G01 X107.7689
G01 X107.9258 Y144.5133
G01 X106.3719
G01 X106.5764 Y143.0133
G01 X108.1376
G01 X108.4048 Y141.5133
G01 X106.8335
G01 X107.1469 Y140.0133
G01 X108.7275
G01 X109.1074 Y138.5133
G01 X107.5152
G01 X107.9400 Y137.0133
G01 X109.5486
G01 X110.0498 Y135.5133
G01 X108.4227
G01 X108.9685 Y134.0133
G01 X110.6150
G01 X111.2475 Y132.5133
G01 X109.5767
G01 X110.2497 Y131.0133
G01 X111.9485
G01 X112.7249 Y129.5133
G01 X110.9948
G01 X111.8109 Y128.0133
G01 X113.5784
G01 X112.7072 Y126.5133
G01 X114.5159
G01 X113.6847 Y125.0133
G01 X115.5450
G01 X114.7553 Y123.5133
G01 X116.6720
G01 X115.9237 Y122.0133
G01 X117.9080
G01 X117.2005 Y120.5133
G01 X119.2661
G01 X118.5997 Y119.0133
G01 X120.7632
G01 X120.1384 Y117.5133
G01 X122.4201
G01 X121.8383 Y116.0133
G01 X124.2715
G01 X123.7298 Y114.5133
G01 X126.3588
G01 X125.8600 Y113.0133
G01 X128.7542
G01 X128.2976 Y111.5133
G01 X131.5764
G01 X131.1653 Y110.0133
G01 X135.0654
G01 X134.6986 Y108.5133
G01 X139.9087
G01 X139.5610 Y107.0133
G01 X160.5984
G01 X160.2507 Y108.5133
G01 X165.4609
G01 X165.0937 Y110.0133
G01 X168.9942
G01 X168.5827 Y111.5133
G01 X171.8619
G01 X171.4048 Y113.0133
G01 X174.2996
G01 X173.8001 Y114.5133
G01 X176.4297
G01 X175.8873 Y116.0133
G01 X178.3212
G01 X177.7385 Y117.5133
G01 X180.0211
G01 X179.3954 Y119.0133
G01 X181.5598
G01 X180.8924 Y120.5133
G01 X182.9590
G01 X182.2504 Y122.0133
G01 X184.2358
G01 X183.4863 Y123.5133
G01 X185.4042
G01 X184.6133 Y125.0133
G01 X186.4748
G01 X185.6423 Y126.5133
G01 X187.4523
G01 X186.5797 Y128.0133
G01 X188.3486
G01 X189.1647 Y129.5133
G01 X187.4331
G01 X188.2095 Y131.0133
G01 X189.9098
G01 X190.5827 Y132.5133
G01 X188.9104
G01 X189.5429 Y134.0133
G01 X191.1910
G01 X191.7368 Y135.5133
G01 X190.1080
G01 X190.6092 Y137.0133
G01 X192.2195
G01 X192.6443 Y138.5133
G01 X191.0503
G01 X191.4302 Y140.0133
G01 X193.0127
G01 X193.3259 Y141.5133
G01 X191.7528
G01 X192.0201 Y143.0133
G01 X193.5831
G01 X193.7877 Y144.5133
G01 X192.2318
G01 X192.3887 Y146.0133
G01 X193.9403
G01 X194.0418 Y147.5133
G01 X192.4931
G01 X192.5457 Y149.0133
G01 X194.0927
G01 Y150.5133
G01 X192.5456
G01 X192.4930 Y152.0133
G01 X194.0417
G01 X193.9401 Y153.5133
G01 X192.3885
G01 X192.2316 Y155.0133
G01 X193.7874
G01 X193.5829 Y156.5133
G01 X192.0198
G01 X191.7525 Y158.0133
G01 X193.3256
G01 X193.0122 Y159.5133
G01 X191.4298
G01 X191.0498 Y161.0133
G01 X192.6438
G01 X192.2190 Y162.5133
G01 X190.6087
G01 X190.1074 Y164.0133
G01 X191.7363
G01 X191.1903 Y165.5133
G01 X189.5422
G01 X188.9097 Y167.0133
G01 X190.5821
G01 X189.9091 Y168.5133
G01 X188.2087
G01 X187.4323 Y170.0133
G01 X189.1639
G01 X188.3477 Y171.5133
G01 X186.5789
G01 X187.4514 Y173.0133
G01 X185.6414
G01 X186.4739 Y174.5133
G01 X184.6124
G01 X185.4033 Y176.0133
G01 X183.4854
G01 X184.2349 Y177.5133
G01 X182.2495
G01 X182.9580 Y179.0133
G01 X180.8914
G01 X181.5588 Y180.5133
G01 X179.3945
G01 X180.0202 Y182.0133
G01 X177.7376
G01 X178.3203 Y183.5133
G01 X175.8863
G01 X176.4288 Y185.0133
G01 X173.7992
G01 X174.2986 Y186.5133
G01 X171.4039
G01 X171.8611 Y188.0133
G01 X168.5820
G01 X168.9934 Y189.5133
G01 X165.0931
G01 X165.4603 Y191.0133
G01 X160.2502
G01 X160.5980 Y192.5133
G01 X139.5615
G01 X139.9092 Y191.0133
G01 X134.6992
G01 X135.0662 Y189.5133
G01 X131.1660
G01 X131.5772 Y188.0133
G01 X128.2985
G01 X128.7551 Y186.5133
G01 X125.8608
G01 X126.3597 Y185.0133
G01 X123.7307
G01 X124.2724 Y183.5133
G01 X121.8392
G01 X122.4211 Y182.0133
G01 X120.1393
G01 X120.7641 Y180.5133
G01 X118.6007
G01 X119.2671 Y179.0133
G01 X117.2015
G01 X117.9089 Y177.5133
G01 X115.9246
G01 X116.6730 Y176.0133
G01 X114.7562
G01 X115.5458 Y174.5133
G01 X113.6856
G01 X114.5167 Y173.0133
G01 X114.6382 Y172.8328
G01 X113.9786 Y171.7864
G01 X113.3498 Y170.7211
G01 X112.7525 Y169.6379
G01 X112.1871 Y168.5376
G01 X111.6541 Y167.4213
G01 X111.1540 Y166.2899
G01 X110.6872 Y165.1443
G01 X110.2542 Y163.9856
G01 X109.8552 Y162.8147
G01 X109.4906 Y161.6326
G01 X109.1607 Y160.4404
G01 X108.8659 Y159.2391
G01 X108.6063 Y158.0296
G01 X108.3822 Y156.8130
G01 X108.1938 Y155.5905
G01 X108.0412 Y154.3629
G01 X107.9246 Y153.1314
G01 X107.8440 Y151.8970
G01 X107.7996 Y150.6608
G01 X107.7914 Y149.4238
G01 X107.8194 Y148.1871
G01 X107.8835 Y146.9518
G01 X107.9837 Y145.7188
G01 X108.1199 Y144.4893
G01 X108.2921 Y143.2643
G01 X108.5000 Y142.0449
G01 X108.7434 Y140.8321
G01 X109.0223 Y139.6269
G01 X109.3362 Y138.4304
G01 X109.6851 Y137.2436
G01 X110.0685 Y136.0675
G01 X110.4861 Y134.9031
G01 X110.9376 Y133.7515
G01 X111.4226 Y132.6135
G01 X111.9406 Y131.4902
G01 X112.4914 Y130.3825
G01 X113.0742 Y129.2914
G01 X113.6887 Y128.2179
G01 X114.3344 Y127.1627
G01 X115.0107 Y126.1269
G01 X115.7169 Y125.1113
G01 X116.4526 Y124.1168
G01 X117.2170 Y123.1443
G01 X118.0096 Y122.1945
G01 X118.8295 Y121.2683
G01 X119.6763 Y120.3665
G01 X120.5490 Y119.4899
G01 X121.4470 Y118.6391
G01 X122.3695 Y117.8150
G01 X123.3157 Y117.0182
G01 X124.2849 Y116.2494
G01 X125.2760 Y115.5093
G01 X126.2884 Y114.7985
G01 X127.3212 Y114.1176
G01 X128.3734 Y113.4673
G01 X129.4443 Y112.8479
G01 X130.5327 Y112.2602
G01 X131.6379 Y111.7045
G01 X132.7589 Y111.1814
G01 X133.8947 Y110.6914
G01 X135.0311 Y110.2400
G01 X136.1801 Y109.8217
G01 X137.3408 Y109.4368
G01 X138.5120 Y109.0856
G01 X139.6930 Y108.7684
G01 X140.8826 Y108.4855
G01 X142.0798 Y108.2371
G01 X143.2838 Y108.0233
G01 X144.4935 Y107.8445
G01 X145.7078 Y107.7007
G01 X146.9257 Y107.5921
G01 X148.1463 Y107.5188
G01 X149.3685 Y107.4807
G01 X150.5913 Y107.4780
G01 X151.8136 Y107.5106
G01 X153.0345 Y107.5786
G01 X154.2529 Y107.6818
G01 X155.4679 Y107.8202
G01 X156.6783 Y107.9937
G01 X157.8832 Y108.2021
G01 X159.0816 Y108.4452
G01 X160.2724 Y108.7229
G01 X161.4547 Y109.0348
G01 X162.6276 Y109.3808
G01 X163.7899 Y109.7606
G01 X164.9407 Y110.1738
G01 X166.0792 Y110.6201
G01 X167.2042 Y111.0991
G01 X168.3149 Y111.6105
G01 X169.4104 Y112.1537
G01 X170.4898 Y112.7284
G01 X171.5520 Y113.3341
G01 X172.5963 Y113.9701
G01 X173.6218 Y114.6362
G01 X174.6277 Y115.3315
G01 X175.6129 Y116.0557
G01 X176.5769 Y116.8080
G01 X177.5187 Y117.5879
G01 X178.4375 Y118.3947
G01 X179.3327 Y119.2277
G01 X180.2034 Y120.0863
G01 X181.0489 Y120.9696
G01 X181.8685 Y121.8770
G01 X182.6616 Y122.8078
G01 X183.4263 Y123.7597
G01 X184.1632 Y124.7333
G01 X184.8717 Y125.7278
G01 X185.5512 Y126.7423
G01 X186.2011 Y127.7760
G01 X186.8208 Y128.8280
G01 X187.4100 Y129.8975
G01 X187.9680 Y130.9836
G01 X188.4945 Y132.0853
G01 X188.9889 Y133.2017
G01 X189.4509 Y134.3320
G01 X189.8800 Y135.4751
G01 X190.2760 Y136.6302
G01 X190.6384 Y137.7961
G01 X190.9671 Y138.9721
G01 X191.2616 Y140.1571
G01 X191.5218 Y141.3501
G01 X191.7475 Y142.5501
G01 X191.9384 Y143.7561
G01 X192.0945 Y144.9671
G01 X192.2155 Y146.1821
G01 X192.3013 Y147.4001
G01 X192.3520 Y148.6201
G01 X192.3674 Y149.8410
G01 X192.3476 Y151.0619
G01 X192.2925 Y152.2817
G01 X192.2023 Y153.4994
G01 X192.0769 Y154.7139
G01 X191.9165 Y155.9244
G01 X191.7212 Y157.1297
G01 X191.4912 Y158.3289
G01 X191.2267 Y159.5209
G01 X190.9279 Y160.7048
G01 X190.5950 Y161.8796
G01 X190.2283 Y163.0443
G01 X189.8282 Y164.1979
G01 X189.3949 Y165.3394
G01 X188.9288 Y166.4680
G01 X188.4304 Y167.5827
G01 X187.9000 Y168.6825
G01 X187.3380 Y169.7665
G01 X186.7450 Y170.8339
G01 X186.1215 Y171.8837
G01 X185.4678 Y172.9150
G01 X184.7847 Y173.9271
G01 X184.0726 Y174.9190
G01 X183.3322 Y175.8899
G01 X182.5641 Y176.8391
G01 X181.7689 Y177.7657
G01 X180.9472 Y178.6689
G01 X180.0999 Y179.5480
G01 X179.2275 Y180.4023
G01 X178.3308 Y181.2311
G01 X177.4105 Y182.0336
G01 X176.4675 Y182.8092
G01 X175.5024 Y183.5573
G01 X174.5162 Y184.2772
G01 X173.5096 Y184.9683
G01 X172.4835 Y185.6301
G01 X171.4386 Y186.2620
G01 X170.3760 Y186.8634
G01 X169.2965 Y187.4340
G01 X168.2009 Y187.9731
G01 X167.0902 Y188.4803
G01 X165.9654 Y188.9553
G01 X164.8272 Y189.3976
G01 X163.6768 Y189.8068
G01 X162.5151 Y190.1827
G01 X161.3675 Y190.5181
G01 X160.2108 Y190.8208
G01 X159.0460 Y191.0908
G01 X157.8740 Y191.3277
G01 X156.6959 Y191.5314
G01 X155.5124 Y191.7017
G01 X154.3246 Y191.8384
G01 X153.1334 Y191.9416
G01 X151.9398 Y192.0110
G01 X150.7447 Y192.0466
G01 X149.5490 Y192.0484
G01 X148.3538 Y192.0165
G01 X147.1599 Y191.9507
G01 X145.9684 Y191.8512
G01 X144.7802 Y191.7181
G01 X143.5962 Y191.5515
G01 X142.4175 Y191.3514
G01 X141.2448 Y191.1181
G01 X140.0792 Y190.8517
G01 X138.9216 Y190.5525
G01 X137.7729 Y190.2207
G01 X136.6341 Y189.8565
G01 X135.5060 Y189.4603
G01 X134.3895 Y189.0323
G01 X133.2856 Y188.5730
G01 X132.1952 Y188.0826
G01 X131.1190 Y187.5616
G01 X130.0580 Y187.0103
G01 X129.0130 Y186.4293
G01 X127.9849 Y185.8190
G01 X126.9744 Y185.1799
G01 X125.9824 Y184.5125
G01 X125.0096 Y183.8172
G01 X124.0569 Y183.0948
G01 X123.1250 Y182.3457
G01 X122.2147 Y181.5705
G01 X121.3266 Y180.7700
G01 X120.4615 Y179.9446
G01 X119.6201 Y179.0951
G01 X118.8031 Y178.2222
G01 X118.2356 Y177.5863
G01 X117.6810 Y176.9391
G01 X117.1396 Y176.2808
G01 X116.6117 Y175.6117
G01 X116.0974 Y174.9321
G01 X115.5969 Y174.2422
G01 X115.1104 Y173.5424
