;Project AlexsTeslaParkingV3
;Created by Estlcam version 11 build 11,233
;Machining time about 00:18:33 hours

G90
M03 S18000
G00 X0.0000 Y0.0000 Z0.0000
G00 Z2.0000


;No. 1: Hole 2


;No. 2: Hole 2
G00 X65.7762 Y269.2703 Z2.0000
G00 Z0.5000
G01 Z0.0000 F400 S18000
G01 Z-1.1000
M106 S240
G01 X65.6481 Y269.3082 F1000
G01 X65.5229 Y269.3545
G01 X65.4011 Y269.4092
G01 X65.2832 Y269.4719
G01 X65.1697 Y269.5424
G01 X65.0613 Y269.6203
G01 X64.9583 Y269.7053
G01 X64.8612 Y269.7971
G01 X64.8717 Y269.7859
G01 X64.8066 Y269.8541
G01 X64.7446 Y269.9252
G01 X64.6859 Y269.9989
G01 X64.6306 Y270.0753
G01 X64.5788 Y270.1541
G01 X64.5305 Y270.2351
G01 X64.4860 Y270.3182
G01 X64.4453 Y270.4032
G01 X64.4084 Y270.4900
G01 X64.3755 Y270.5784
G01 X64.3465 Y270.6681
G01 X64.3217 Y270.7591
G01 X78.6926 Y270.7590
G01 X78.6535 Y270.6274
G01 X78.6059 Y270.4987
G01 X78.5499 Y270.3734
G01 X78.4857 Y270.2520
G01 X78.4138 Y270.1351
G01 X78.3343 Y270.0232
G01 X78.2476 Y269.9168
G01 X78.1541 Y269.8163
G01 X78.0541 Y269.7221
G01 X77.9483 Y269.6347
G01 X77.8369 Y269.5545
G01 X77.7204 Y269.4818
G01 X77.5995 Y269.4169
G01 X77.4745 Y269.3601
G01 X77.3460 Y269.3117
G01 X77.2147 Y269.2717
G01 X77.0810 Y269.2405
G01 X76.9456 Y269.2182
G01 X76.8089 Y269.2048
G01 X76.6717 Y269.2005
G01 X66.3612 Y269.2002
G01 X66.2874 Y269.2005
G01 X66.2136 Y269.2033
G01 X66.1399 Y269.2084
G01 X66.0664 Y269.2160
G01 X65.9932 Y269.2260
G01 X65.9204 Y269.2384
G01 X65.8481 Y269.2532
G01 X65.7762 Y269.2703
M107
G00 Z2.0000


;No. 3: Hole 3
G00 X64.4617 Y264.4715 Z2.0000
G00 Z0.5000
G01 Z0.0000 F400
G01 Z-1.1000
M106 S240
G01 X78.5525 F1000
G01 Y262.9715
G01 X77.3940
G01 Y261.4715
G01 X78.5525
G01 Y259.9715
G01 X77.3940
M107
G00 Z2.0000
G00 X65.6218 Y264.4715
G00 Z0.5000
G01 Z-1.1000 F400
M106 S240
G01 Y262.9715 F1000
G01 X64.4617
G01 Y261.4715
G01 X65.6218
G01 Y259.9715
G01 X64.4617
G01 X64.2617 Y259.9857
G01 Y265.5874
G01 X78.7525
G01 Y258.8556
G01 X77.1940
G01 Y263.0273
G01 X77.1909 Y263.1058
G01 X77.1817 Y263.1837
G01 X77.1663 Y263.2607
G01 X77.1450 Y263.3363
G01 X77.1179 Y263.4100
G01 X77.0850 Y263.4813
G01 X77.0466 Y263.5498
G01 X77.0030 Y263.6151
G01 X76.9544 Y263.6767
G01 X76.9011 Y263.7344
G01 X76.8434 Y263.7877
G01 X76.7818 Y263.8363
G01 X76.7165 Y263.8799
G01 X76.6480 Y263.9183
G01 X76.5767 Y263.9512
G01 X76.5030 Y263.9784
G01 X76.4274 Y263.9997
G01 X76.3504 Y264.0150
G01 X76.2724 Y264.0242
G01 X76.1940 Y264.0273
G01 X66.8218
G01 X66.7433 Y264.0242
G01 X66.6653 Y264.0150
G01 X66.5883 Y263.9997
G01 X66.5127 Y263.9784
G01 X66.4391 Y263.9512
G01 X66.3678 Y263.9183
G01 X66.2993 Y263.8799
G01 X66.2340 Y263.8363
G01 X66.1723 Y263.7877
G01 X66.1147 Y263.7344
G01 X66.0614 Y263.6767
G01 X66.0127 Y263.6151
G01 X65.9691 Y263.5498
G01 X65.9308 Y263.4813
G01 X65.8979 Y263.4100
G01 X65.8707 Y263.3363
G01 X65.8494 Y263.2607
G01 X65.8341 Y263.1837
G01 X65.8248 Y263.1058
G01 X65.8218 Y263.0273
G01 Y258.8556
G01 X64.2617
G01 Y259.9857
G01 X64.4617 Y259.9715
M107
G00 Z2.0000


;No. 4: Hole 4
G00 X82.5657 Y260.3073 Z2.0000
G00 Z0.5000
G01 Z0.0000 F400
G01 Z-1.1000
M106 S240
G01 X84.4625 F1000
G01 X83.7257
G01 Y261.8073
G01 X82.5657
G01 Y263.3073
G01 X83.7257
G01 Y264.8073
G01 X82.5657
G01 Y266.3073
G01 X83.7257
G01 Y267.8073
G01 X82.5657
G01 Y269.3073
G01 X83.7257
G01 X83.9257 Y269.2962
G01 Y261.4141
G01 X83.9267 Y261.3705
G01 X83.9295 Y261.3270
G01 X83.9343 Y261.2836
G01 X83.9409 Y261.2405
G01 X83.9494 Y261.1977
G01 X83.9598 Y261.1553
G01 X83.9720 Y261.1134
G01 X83.9860 Y261.0721
G01 X84.0019 Y261.0315
G01 X84.0194 Y260.9915
G01 X84.0387 Y260.9524
G01 X84.0597 Y260.9141
G01 X84.0823 Y260.8768
G01 X84.1066 Y260.8406
G01 X84.1324 Y260.8054
G01 X84.1597 Y260.7714
G01 X84.1885 Y260.7386
G01 X84.2186 Y260.7070
G01 X84.2501 Y260.6769
G01 X84.2829 Y260.6481
G01 X84.3170 Y260.6208
G01 X84.3522 Y260.5950
G01 X84.3884 Y260.5708
G01 X84.4257 Y260.5481
G01 X84.4640 Y260.5271
G01 X84.5031 Y260.5078
G01 X84.5430 Y260.4903
G01 X84.5837 Y260.4745
G01 X84.6250 Y260.4604
G01 X84.6669 Y260.4482
G01 X84.7093 Y260.4379
G01 X84.7521 Y260.4293
G01 X84.7952 Y260.4227
G01 X84.8386 Y260.4180
G01 X84.8821 Y260.4151
G01 X84.9257 Y260.4141
G01 X96.7965
G01 X96.7574 Y260.2826
G01 X96.7098 Y260.1538
G01 X96.6537 Y260.0285
G01 X96.5896 Y259.9071
G01 X96.5176 Y259.7902
G01 X96.4381 Y259.6783
G01 X96.3514 Y259.5719
G01 X96.2579 Y259.4714
G01 X96.1580 Y259.3772
G01 X96.0521 Y259.2899
G01 X95.9407 Y259.2097
G01 X95.8243 Y259.1369
G01 X95.7033 Y259.0720
G01 X95.5783 Y259.0152
G01 X95.4499 Y258.9668
G01 X95.3186 Y258.9269
G01 X95.1849 Y258.8957
G01 X95.0494 Y258.8733
G01 X94.9128 Y258.8600
G01 X94.7756 Y258.8556
G01 X82.3657
G01 Y270.7591
G01 X83.9257
G01 Y269.2962
G01 X83.7257 Y269.3073
M107
G00 Z2.0000


;No. 5: Hole 5


;No. 6: Hole 5
G00 X101.7913 Y269.3307 Z2.0000
G00 Z0.5000
G01 Z0.0000 F400
G01 Z-1.1000
M106 S240
G01 X101.6768 Y269.3781 F1000
G01 X101.5654 Y269.4323
G01 X101.4575 Y269.4932
G01 X101.3535 Y269.5605
G01 X101.2537 Y269.6339
G01 X101.1586 Y269.7134
G01 X101.0685 Y269.7984
G01 X100.9837 Y269.8887
G01 X100.9045 Y269.9840
G01 X100.8312 Y270.0839
G01 X100.7642 Y270.1881
G01 X100.7036 Y270.2962
G01 X100.6496 Y270.4077
G01 X100.6026 Y270.5223
G01 X100.5625 Y270.6396
G01 X100.5297 Y270.7591
G01 X114.9006 Y270.7590
G01 X114.8614 Y270.6275
G01 X114.8136 Y270.4989
G01 X114.7575 Y270.3736
G01 X114.6933 Y270.2523
G01 X114.6212 Y270.1355
G01 X114.5417 Y270.0237
G01 X114.4550 Y269.9173
G01 X114.3615 Y269.8169
G01 X114.2616 Y269.7228
G01 X114.1557 Y269.6354
G01 X114.0443 Y269.5552
G01 X113.9279 Y269.4825
G01 X113.8070 Y269.4176
G01 X113.6821 Y269.3607
G01 X113.5537 Y269.3122
G01 X113.4224 Y269.2722
G01 X113.2888 Y269.2410
G01 X113.1534 Y269.2185
G01 X113.0169 Y269.2050
G01 X112.8797 Y269.2005
G01 X102.5602 Y269.2003
G01 X102.4622 Y269.2013
G01 X102.3643 Y269.2067
G01 X102.2668 Y269.2165
G01 X102.1698 Y269.2306
G01 X102.0736 Y269.2492
G01 X101.9783 Y269.2721
G01 X101.8841 Y269.2993
G01 X101.7913 Y269.3307
M107
G00 Z2.0000


;No. 7: Hole 6


;No. 8: Hole 6
G00 X101.7913 Y264.1575 Z2.0000
G00 Z0.5000
G01 Z0.0000 F400
G01 Z-1.1000
M106 S240
G01 X101.6767 Y264.2049 F1000
G01 X101.5652 Y264.2591
G01 X101.4572 Y264.3201
G01 X101.3532 Y264.3874
G01 X101.2533 Y264.4610
G01 X101.1582 Y264.5405
G01 X101.0680 Y264.6256
G01 X100.9832 Y264.7160
G01 X100.9041 Y264.8114
G01 X100.8308 Y264.9115
G01 X100.7638 Y265.0158
G01 X100.7032 Y265.1240
G01 X100.6494 Y265.2357
G01 X100.6023 Y265.3504
G01 X100.5624 Y265.4678
G01 X100.5297 Y265.5874
G01 X114.9006 Y265.5873
G01 X114.8615 Y265.4557
G01 X114.8138 Y265.3269
G01 X114.7578 Y265.2016
G01 X114.6936 Y265.0802
G01 X114.6217 Y264.9632
G01 X114.5422 Y264.8513
G01 X114.4555 Y264.7448
G01 X114.3620 Y264.6442
G01 X114.2621 Y264.5501
G01 X114.1562 Y264.4626
G01 X114.0448 Y264.3823
G01 X113.9284 Y264.3095
G01 X113.8074 Y264.2445
G01 X113.6825 Y264.1876
G01 X113.5541 Y264.1391
G01 X113.4227 Y264.0991
G01 X113.2890 Y264.0677
G01 X113.1536 Y264.0453
G01 X113.0169 Y264.0318
G01 X112.8797 Y264.0273
G01 X102.5577 Y264.0272
G01 X102.4600 Y264.0282
G01 X102.3625 Y264.0336
G01 X102.2653 Y264.0435
G01 X102.1686 Y264.0577
G01 X102.0727 Y264.0762
G01 X101.9777 Y264.0991
G01 X101.8838 Y264.1262
G01 X101.7913 Y264.1575
M107
G00 Z2.0000


;No. 9: Hole 7


;No. 10: Hole 7
G00 X101.7293 Y259.0099 Z2.0000
G00 Z0.5000
G01 Z0.0000 F400
G01 Z-1.1000
M106 S240
G01 X101.6376 Y259.0502 F1000
G01 X101.5481 Y259.0950
G01 X101.4609 Y259.1443
G01 X101.3763 Y259.1978
G01 X101.2944 Y259.2556
G01 X101.2156 Y259.3173
G01 X101.1399 Y259.3829
G01 X101.0677 Y259.4522
G01 X101.0784 Y259.4407
G01 X101.0133 Y259.5089
G01 X100.9513 Y259.5800
G01 X100.8927 Y259.6537
G01 X100.8374 Y259.7301
G01 X100.7856 Y259.8089
G01 X100.7375 Y259.8899
G01 X100.6931 Y259.9731
G01 X100.6525 Y260.0581
G01 X100.6157 Y260.1450
G01 X100.5830 Y260.2334
G01 X100.5543 Y260.3232
G01 X100.5297 Y260.4141
G01 X114.9006
G01 X114.8614 Y260.2826
G01 X114.8136 Y260.1540
G01 X114.7575 Y260.0287
G01 X114.6933 Y259.9074
G01 X114.6212 Y259.7906
G01 X114.5417 Y259.6788
G01 X114.4550 Y259.5724
G01 X114.3615 Y259.4720
G01 X114.2616 Y259.3779
G01 X114.1557 Y259.2905
G01 X114.0443 Y259.2103
G01 X113.9279 Y259.1376
G01 X113.8070 Y259.0727
G01 X113.6821 Y259.0158
G01 X113.5537 Y258.9673
G01 X113.4224 Y258.9273
G01 X113.2888 Y258.8960
G01 X113.1534 Y258.8736
G01 X113.0169 Y258.8601
G01 X112.8797 Y258.8556
G01 X102.5564 Y258.8555
G01 X102.4505 Y258.8568
G01 X102.3449 Y258.8633
G01 X102.2397 Y258.8750
G01 X102.1352 Y258.8919
G01 X102.0317 Y258.9139
G01 X101.9293 Y258.9409
G01 X101.8284 Y258.9729
G01 X101.7293 Y259.0099
M107
G00 Z2.0000


;No. 11: Hole 8
G00 X118.7736 Y260.3073 Z2.0000
G00 Z0.5000
G01 Z0.0000 F400
G01 Z-1.1000
M106 S240
G01 X120.3215 F1000
G01 X119.9480 Y261.8073
G01 X122.4921
G01 X121.4480 Y263.3073
G01 X124.6627
G01 Y264.8073
G01 X122.4509
G01 X129.1842
G01 X128.3268 Y263.3073
G01 X130.1901
G01 X129.8268 Y261.8073
G01 X131.6901
G01 X131.3268 Y260.3073
G01 X132.8644
M107
G00 Z2.0000
G00 X126.9760 Y264.8073
G00 Z0.5000
G01 Z-1.1000 F400
M106 S240
G01 Y266.3073 F1000
G01 X130.1743
G01 X129.1467 Y267.8073
G01 X131.6901
G01 X131.3173 Y269.3073
G01 X132.8644
M107
G00 Z2.0000
G00 X123.3083 Y264.8073
G00 Z0.5000
G01 Z-1.1000 F400
M106 S240
G01 Y266.3073 F1000
G01 X121.4480
G01 X121.8083 Y267.8073
G01 X119.9480
G01 X120.3083 Y269.3073
G01 X118.7736
G01 X118.5736 Y269.3394
G01 Y270.7591
G01 X120.1322
G01 X120.1195 Y270.6545
G01 X120.1117 Y270.5494
G01 X120.1087 Y270.4441
G01 X120.1105 Y270.3388
G01 X120.1172 Y270.2337
G01 X120.1288 Y270.1289
G01 X120.1451 Y270.0249
G01 X120.1662 Y269.9217
G01 X120.1857 Y269.8579
G01 X120.2093 Y269.7955
G01 X120.2370 Y269.7348
G01 X120.2687 Y269.6762
G01 X120.3042 Y269.6197
G01 X120.3434 Y269.5658
G01 X120.3861 Y269.5146
G01 X120.4321 Y269.4663
G01 X125.0900 Y264.8085
G01 X131.2115 Y269.4734
G01 X131.2562 Y269.5211
G01 X131.2977 Y269.5717
G01 X131.3358 Y269.6249
G01 X131.3704 Y269.6805
G01 X131.4013 Y269.7382
G01 X131.4283 Y269.7978
G01 X131.4513 Y269.8590
G01 X131.4703 Y269.9217
G01 X131.4852 Y269.9854
G01 X131.4958 Y270.0500
G01 X131.5022 Y270.1151
G01 X131.5044 Y270.1805
G01 Y270.7591
G01 X133.0644
G01 Y268.8989
G01 X130.7787 Y266.6132
G01 X130.4661 Y266.3188
G01 X130.1605 Y266.0171
G01 X129.8621 Y265.7083
G01 X129.5711 Y265.3926
G01 X129.5231 Y265.3190
G01 X129.4818 Y265.2414
G01 X129.4474 Y265.1605
G01 X129.4203 Y265.0769
G01 X129.4006 Y264.9912
G01 X129.3885 Y264.9041
G01 X129.3841 Y264.8163
G01 X129.3875 Y264.7285
G01 X129.3985 Y264.6413
G01 X129.4172 Y264.5554
G01 X129.4433 Y264.4714
G01 X129.4767 Y264.3901
G01 X129.5171 Y264.3121
G01 X129.5642 Y264.2378
G01 X129.6176 Y264.1681
G01 X129.6770 Y264.1032
G01 X133.0644 Y260.7158
G01 Y258.8556
G01 X131.5044
G01 X131.5196 Y258.9664
G01 X131.5287 Y259.0778
G01 X131.5317 Y259.1896
G01 X131.5286 Y259.3013
G01 X131.5194 Y259.4128
G01 X131.5041 Y259.5235
G01 X131.4827 Y259.6333
G01 X131.4554 Y259.7417
G01 X131.4351 Y259.7983
G01 X131.4115 Y259.8536
G01 X131.3845 Y259.9074
G01 X131.3544 Y259.9594
G01 X131.3212 Y260.0096
G01 X131.2850 Y260.0576
G01 X131.2461 Y260.1035
G01 X131.2044 Y260.1468
G01 X126.5466 Y264.8047
G01 X120.4251 Y260.1398
G01 X120.3978 Y260.1115
G01 X120.3718 Y260.0821
G01 X120.3469 Y260.0518
G01 X120.3232 Y260.0204
G01 X120.3007 Y259.9882
G01 X120.2795 Y259.9552
G01 X120.2597 Y259.9213
G01 X120.2412 Y259.8867
G01 X120.2240 Y259.8513
G01 X120.2083 Y259.8153
G01 X120.1940 Y259.7788
G01 X120.1811 Y259.7417
G01 X120.1697 Y259.7041
G01 X120.1598 Y259.6661
G01 X120.1514 Y259.6278
G01 X120.1445 Y259.5891
G01 X120.1391 Y259.5502
G01 X120.1353 Y259.5111
G01 X120.1329 Y259.4719
G01 X120.1322 Y259.4327
G01 Y258.8556
G01 X118.5736
G01 Y260.7158
G01 X121.9580 Y264.1002
G01 X122.0113 Y264.1579
G01 X122.0600 Y264.2195
G01 X122.1036 Y264.2848
G01 X122.1419 Y264.3533
G01 X122.1748 Y264.4246
G01 X122.2020 Y264.4983
G01 X122.2233 Y264.5739
G01 X122.2386 Y264.6509
G01 X122.2479 Y264.7289
G01 X122.2509 Y264.8073
G01 X122.2479 Y264.8858
G01 X122.2386 Y264.9638
G01 X122.2233 Y265.0408
G01 X122.2020 Y265.1163
G01 X122.1748 Y265.1900
G01 X122.1419 Y265.2613
G01 X122.1036 Y265.3298
G01 X122.0600 Y265.3951
G01 X122.0113 Y265.4568
G01 X121.9580 Y265.5144
G01 X121.0094 Y266.4631
G01 X118.5736 Y268.8989
G01 Y269.3394
G01 X118.7736 Y269.3073
M107
G00 Z2.0000


;No. 12: Hole 9
G00 X136.8794 Y269.5072 Z2.0000
G00 Z0.5000
G01 Z0.0000 F400
G01 Z-1.1000
M106 S240
G01 X138.0362 F1000
G01 X137.9152 Y268.0072
G01 X136.8820
G01 X136.6831 Y268.0144
G01 X136.6776 Y270.7591
G01 X138.2361
G01 X138.2580 Y270.1999
G01 X138.2643 Y269.6404
G01 X138.2550 Y269.0809
G01 X138.2301 Y268.5219
G01 X138.2187 Y268.4002
G01 X138.1998 Y268.2795
G01 X138.1735 Y268.1601
G01 X138.1399 Y268.0426
G01 X138.0991 Y267.9273
G01 X138.0514 Y267.8148
G01 X137.9967 Y267.7055
G01 X137.9355 Y267.5997
G01 X137.8678 Y267.4979
G01 X137.7940 Y267.4004
G01 X137.7144 Y267.3077
G01 X137.6292 Y267.2201
G01 X137.6387 Y267.2288
G01 X137.5720 Y267.1643
G01 X137.5025 Y267.1029
G01 X137.4303 Y267.0446
G01 X137.3556 Y266.9895
G01 X137.2785 Y266.9379
G01 X137.1992 Y266.8897
G01 X137.1178 Y266.8451
G01 X137.0346 Y266.8042
G01 X136.9496 Y266.7670
G01 X136.8630 Y266.7336
G01 X136.7750 Y266.7041
G01 X136.6858 Y266.6786
G01 X136.6831 Y268.0144
G01 X136.8820 Y268.0072
M107
G00 Z2.0000


;No. 13: Hole 10
G00 X142.0493 Y267.8073 Z2.0000
G00 Z0.5000
G01 Z0.0000 F400
G01 Z-1.1000
M106 S240
G01 X143.2094 F1000
G01 X143.2425 Y266.3073
G01 X142.0493
G01 Y264.8073
G01 X156.1401
G01 Y263.3073
G01 X154.9469
G01 X154.9801 Y261.8073
G01 X156.1401
G01 Y260.3073
G01 X154.2433
M107
G00 Z2.0000
G00 X142.0493 Y267.8073
G00 Z0.5000
G01 Z-1.1000 F400
M106 S240
G01 Y269.3073 F1000
G01 X143.9462
G01 X144.0618 Y269.1373
G01 X144.0214 Y269.1214
G01 X143.9818 Y269.1038
G01 X143.9429 Y269.0844
G01 X143.9049 Y269.0634
G01 X143.8679 Y269.0408
G01 X143.8319 Y269.0165
G01 X143.7970 Y268.9907
G01 X143.7632 Y268.9634
G01 X143.7307 Y268.9347
G01 X143.6994 Y268.9046
G01 X143.6695 Y268.8732
G01 X143.6410 Y268.8405
G01 X143.6139 Y268.8065
G01 X143.5884 Y268.7715
G01 X143.5643 Y268.7353
G01 X143.5419 Y268.6982
G01 X143.5211 Y268.6601
G01 X143.5020 Y268.6211
G01 X143.4846 Y268.5813
G01 X143.4689 Y268.5408
G01 X143.4550 Y268.4997
G01 X143.4430 Y268.4580
G01 X143.4327 Y268.4159
G01 X143.4243 Y268.3733
G01 X143.4177 Y268.3304
G01 X143.4131 Y268.2872
G01 X143.4103 Y268.2439
G01 X143.4094 Y268.2005
G01 Y266.5874
G01 X143.4124 Y266.5089
G01 X143.4217 Y266.4309
G01 X143.4370 Y266.3539
G01 X143.4583 Y266.2783
G01 X143.4855 Y266.2047
G01 X143.5183 Y266.1334
G01 X143.5567 Y266.0649
G01 X143.6003 Y265.9996
G01 X143.6489 Y265.9379
G01 X143.7022 Y265.8802
G01 X143.7599 Y265.8270
G01 X143.8216 Y265.7783
G01 X143.8869 Y265.7347
G01 X143.9554 Y265.6963
G01 X144.0267 Y265.6635
G01 X144.1003 Y265.6363
G01 X144.1759 Y265.6150
G01 X144.2529 Y265.5997
G01 X144.3309 Y265.5904
G01 X144.4094 Y265.5874
G01 X156.3401
G01 Y258.8556
G01 X141.9193
G01 X141.9571 Y258.9873
G01 X142.0036 Y259.1163
G01 X142.0585 Y259.2419
G01 X142.1217 Y259.3635
G01 X142.1928 Y259.4807
G01 X142.2716 Y259.5929
G01 X142.3576 Y259.6996
G01 X142.4506 Y259.8003
G01 X142.5500 Y259.8947
G01 X142.6555 Y259.9822
G01 X142.7666 Y260.0625
G01 X142.8828 Y260.1353
G01 X143.0035 Y260.2002
G01 X143.1283 Y260.2569
G01 X143.2566 Y260.3052
G01 X143.3878 Y260.3448
G01 X143.5213 Y260.3756
G01 X143.6567 Y260.3975
G01 X143.7931 Y260.4104
G01 X143.9301 Y260.4141
G01 X153.7801
G01 X153.8585 Y260.4172
G01 X153.9365 Y260.4265
G01 X154.0135 Y260.4418
G01 X154.0891 Y260.4631
G01 X154.1627 Y260.4903
G01 X154.2340 Y260.5231
G01 X154.3026 Y260.5615
G01 X154.3678 Y260.6051
G01 X154.4295 Y260.6537
G01 X154.4872 Y260.7070
G01 X154.5405 Y260.7647
G01 X154.5891 Y260.8264
G01 X154.6327 Y260.8917
G01 X154.6711 Y260.9602
G01 X154.7039 Y261.0315
G01 X154.7311 Y261.1051
G01 X154.7524 Y261.1807
G01 X154.7677 Y261.2577
G01 X154.7770 Y261.3357
G01 X154.7801 Y261.4141
G01 Y263.0273
G01 X154.7791 Y263.0709
G01 X154.7763 Y263.1145
G01 X154.7715 Y263.1578
G01 X154.7649 Y263.2009
G01 X154.7564 Y263.2437
G01 X154.7460 Y263.2861
G01 X154.7338 Y263.3280
G01 X154.7198 Y263.3693
G01 X154.7039 Y263.4100
G01 X154.6864 Y263.4499
G01 X154.6671 Y263.4890
G01 X154.6461 Y263.5273
G01 X154.6235 Y263.5646
G01 X154.5992 Y263.6009
G01 X154.5734 Y263.6361
G01 X154.5461 Y263.6701
G01 X154.5173 Y263.7029
G01 X154.4872 Y263.7344
G01 X154.4556 Y263.7646
G01 X154.4228 Y263.7933
G01 X154.3888 Y263.8207
G01 X154.3536 Y263.8465
G01 X154.3174 Y263.8707
G01 X154.2801 Y263.8933
G01 X154.2418 Y263.9143
G01 X154.2027 Y263.9336
G01 X154.1627 Y263.9512
G01 X154.1221 Y263.9670
G01 X154.0808 Y263.9810
G01 X154.0389 Y263.9932
G01 X153.9965 Y264.0036
G01 X153.9537 Y264.0121
G01 X153.9106 Y264.0187
G01 X153.8672 Y264.0235
G01 X153.8237 Y264.0263
G01 X153.7801 Y264.0273
G01 X141.8493
G01 Y270.7591
G01 X156.2801
G01 X156.2409 Y270.6275
G01 X156.1931 Y270.4989
G01 X156.1370 Y270.3736
G01 X156.0728 Y270.2524
G01 X156.0008 Y270.1355
G01 X155.9212 Y270.0237
G01 X155.8345 Y269.9173
G01 X155.7410 Y269.8169
G01 X155.6411 Y269.7228
G01 X155.5352 Y269.6354
G01 X155.4239 Y269.5553
G01 X155.3075 Y269.4825
G01 X155.1865 Y269.4176
G01 X155.0616 Y269.3608
G01 X154.9333 Y269.3123
G01 X154.8020 Y269.2723
G01 X154.6683 Y269.2410
G01 X154.5330 Y269.2185
G01 X154.3964 Y269.2050
G01 X154.2592 Y269.2005
G01 X144.4094
G01 X144.3650 Y269.1997
G01 X144.3207 Y269.1968
G01 X144.2765 Y269.1919
G01 X144.2327 Y269.1850
G01 X144.1892 Y269.1760
G01 X144.1461 Y269.1651
G01 X144.1037 Y269.1522
G01 X144.0618 Y269.1373
G01 X143.9462 Y269.3073
M107
G00 Z2.0000


;No. 14: Hole 17
G00 X165.4276 Y241.5369 Z2.0000
G00 Z0.5000
G01 Z0.0000 F400
G01 Z-1.1000
M106 S240
G01 X188.3482 F1000
G01 X188.5240 Y241.4379
G01 X188.3392 Y241.2060
G01 X188.1368 Y240.9892
G01 X187.9181 Y240.7890
G01 X187.6844 Y240.6065
G01 X187.4370 Y240.4429
G01 X187.1777 Y240.2992
G01 X186.9078 Y240.1762
G01 X186.6292 Y240.0747
G01 X186.3435 Y239.9954
G01 X186.0524 Y239.9386
G01 X185.7578 Y239.9049
G01 X185.4615 Y239.8943
G01 X168.3341
G01 X167.9921 Y239.9041
G01 X167.6525 Y239.9452
G01 X167.3181 Y240.0173
G01 X166.9917 Y240.1198
G01 X166.6761 Y240.2518
G01 X166.3739 Y240.4122
G01 X166.0877 Y240.5996
G01 X165.8200 Y240.8125
G01 X165.5728 Y241.0491
G01 X165.3485 Y241.3073
G01 X165.1487 Y241.5850
G01 X164.9753 Y241.8799
G01 X164.8297 Y242.1895
G01 X164.7131 Y242.5111
G01 X164.6264 Y242.8420
G01 X164.5705 Y243.1795
G01 X189.2216 Y243.1794
G01 X189.1867 Y242.9447
G01 X189.1362 Y242.7129
G01 X189.0704 Y242.4850
G01 X188.9895 Y242.2619
G01 X188.8940 Y242.0447
G01 X188.7843 Y241.8344
G01 X188.6608 Y241.6318
G01 X188.5240 Y241.4379
G01 X188.3482 Y241.5369
M107
G00 Z2.0000


;No. 15: Hole 18
G00 X189.0515 Y233.1815 Z2.0000
G00 Z0.5000
G01 Z0.0000 F400
G01 Z-1.1000
M106 S240
G01 X164.7405 F1000
G01 Y231.6815
G01 X189.0515
G01 Y230.1815
G01 X186.1663
G01 Y228.6815
G01 X189.0515
G01 Y227.1815
G01 X186.1663
G01 Y225.6815
G01 X189.0515
G01 Y224.1815
G01 X186.1663
M107
G00 Z2.0000
G00 X167.6257 Y231.6815
G00 Z0.5000
G01 Z-1.1000 F400
M106 S240
G01 Y230.1815 F1000
G01 X164.7405
G01 Y228.6815
G01 X167.6257
G01 Y227.1815
G01 X164.7405
G01 Y225.6815
G01 X167.6257
G01 Y224.1815
G01 X164.7405
G01 X164.5405 Y224.1935
G01 Y234.6092
G01 X189.2515
G01 Y222.7537
G01 X185.9663
G01 Y230.3240
G01 X185.9632 Y230.4025
G01 X185.9540 Y230.4805
G01 X185.9387 Y230.5575
G01 X185.9174 Y230.6331
G01 X185.8902 Y230.7067
G01 X185.8573 Y230.7780
G01 X185.8189 Y230.8465
G01 X185.7753 Y230.9118
G01 X185.7267 Y230.9735
G01 X185.6734 Y231.0311
G01 X185.6158 Y231.0844
G01 X185.5541 Y231.1331
G01 X185.4888 Y231.1767
G01 X185.4203 Y231.2150
G01 X185.3490 Y231.2479
G01 X185.2753 Y231.2751
G01 X185.1997 Y231.2964
G01 X185.1227 Y231.3117
G01 X185.0448 Y231.3210
G01 X184.9663 Y231.3240
G01 X168.8257
G01 X168.7472 Y231.3210
G01 X168.6692 Y231.3117
G01 X168.5922 Y231.2964
G01 X168.5167 Y231.2751
G01 X168.4430 Y231.2479
G01 X168.3717 Y231.2150
G01 X168.3032 Y231.1767
G01 X168.2379 Y231.1331
G01 X168.1762 Y231.0844
G01 X168.1186 Y231.0311
G01 X168.0653 Y230.9735
G01 X168.0167 Y230.9118
G01 X167.9730 Y230.8465
G01 X167.9347 Y230.7780
G01 X167.9018 Y230.7067
G01 X167.8746 Y230.6331
G01 X167.8533 Y230.5575
G01 X167.8380 Y230.4805
G01 X167.8288 Y230.4025
G01 X167.8257 Y230.3240
G01 Y222.7537
G01 X164.5405
G01 Y224.1935
G01 X164.7405 Y224.1815
M107
G00 Z2.0000


;No. 16: Hole 16
G00 X155.5999 Y225.4666 Z2.0000
G00 Z0.5000
G01 Z0.0000 F400
G01 Z-1.1000
M106 S240
G01 X131.4417 F1000
G01 Y223.9666
G01 X154.6643
M107
G00 Z2.0000
G00 X134.3297 Y225.4666
G00 Z0.5000
G01 Z-1.1000 F400
M106 S240
G01 Y226.9666 F1000
G01 X131.4417
G01 Y228.4666
G01 X134.3269
G01 Y229.9666
G01 X131.4417
G01 Y231.4666
G01 X134.3269
G01 Y232.9666
G01 X131.4417
G01 Y234.4666
G01 X134.3269
G01 Y235.9666
G01 X131.4417
G01 Y237.4666
G01 X134.3269
G01 Y238.9666
G01 X131.4417
G01 Y240.4666
G01 X134.3269
G01 Y241.9666
G01 X131.4417
G01 X131.2417 Y241.9513
G01 Y243.1795
G01 X134.5269
G01 Y227.0389
G01 X134.5300 Y226.9599
G01 X134.5393 Y226.8815
G01 X134.5548 Y226.8040
G01 X134.5764 Y226.7280
G01 X134.6039 Y226.6539
G01 X134.6372 Y226.5822
G01 X134.6761 Y226.5134
G01 X134.7202 Y226.4479
G01 X134.7694 Y226.3860
G01 X134.8233 Y226.3282
G01 X134.8816 Y226.2749
G01 X134.9439 Y226.2263
G01 X135.0099 Y226.1828
G01 X135.0791 Y226.1447
G01 X135.1511 Y226.1121
G01 X135.2255 Y226.0854
G01 X135.3017 Y226.0645
G01 X135.3793 Y226.0498
G01 X135.4579 Y226.0412
G01 X135.5369 Y226.0389
G01 X155.9226
G01 X155.8618 Y225.7039
G01 X155.7713 Y225.3757
G01 X155.6516 Y225.0569
G01 X155.5039 Y224.7501
G01 X155.3293 Y224.4579
G01 X155.1291 Y224.1824
G01 X154.9051 Y223.9260
G01 X154.6590 Y223.6907
G01 X154.3928 Y223.4784
G01 X154.1087 Y223.2908
G01 X153.8089 Y223.1295
G01 X153.4958 Y222.9957
G01 X153.1720 Y222.8905
G01 X152.8400 Y222.8147
G01 X152.5026 Y222.7690
G01 X152.1625 Y222.7537
G01 X131.2417
G01 Y241.9513
G01 X131.4417 Y241.9666
M107
G00 Z2.0000


;No. 17: Hole 15
G00 X122.0333 Y241.9666 Z2.0000
G00 Z0.5000
G01 Z0.0000 F400
G01 Z-1.1000
M106 S240
G01 X98.1448 F1000
G01 Y240.4666
G01 X120.4687
G01 X101.0328
G01 Y238.9666
G01 X98.1448
G01 Y237.4666
G01 X101.0300
G01 Y235.9666
G01 X98.1448
G01 Y234.4666
G01 X101.8638
G01 X98.1448 Y232.9666
G01 X122.4558
G01 Y231.4666
G01 X118.7368
G01 X119.5706
G01 Y229.9666
G01 X122.4558
G01 Y228.4666
G01 X119.5706
G01 X119.5678 Y226.9666
G01 X122.4558
G01 Y225.4666
G01 X100.1260
G01 X98.5687 Y223.9666
G01 X122.4558
G01 X122.6558 Y223.9811
G01 Y222.7537
G01 X97.9748
G01 X98.0355 Y223.0888
G01 X98.1259 Y223.4171
G01 X98.2454 Y223.7360
G01 X98.3931 Y224.0428
G01 X98.5677 Y224.3352
G01 X98.7678 Y224.6107
G01 X98.9918 Y224.8671
G01 X99.2379 Y225.1025
G01 X99.5041 Y225.3148
G01 X99.7883 Y225.5024
G01 X100.0882 Y225.6637
G01 X100.4014 Y225.7974
G01 X100.7253 Y225.9026
G01 X101.0573 Y225.9782
G01 X101.3947 Y226.0238
G01 X101.7349 Y226.0389
G01 X118.3706
G01 X118.4142 Y226.0398
G01 X118.4578 Y226.0427
G01 X118.5011 Y226.0474
G01 X118.5443 Y226.0541
G01 X118.5870 Y226.0626
G01 X118.6294 Y226.0730
G01 X118.6713 Y226.0852
G01 X118.7126 Y226.0992
G01 X118.7533 Y226.1150
G01 X118.7932 Y226.1326
G01 X118.8324 Y226.1519
G01 X118.8706 Y226.1729
G01 X118.9079 Y226.1955
G01 X118.9442 Y226.2197
G01 X118.9794 Y226.2455
G01 X119.0134 Y226.2728
G01 X119.0462 Y226.3016
G01 X119.0777 Y226.3318
G01 X119.1079 Y226.3633
G01 X119.1366 Y226.3961
G01 X119.1640 Y226.4301
G01 X119.1898 Y226.4653
G01 X119.2140 Y226.5016
G01 X119.2366 Y226.5389
G01 X119.2576 Y226.5771
G01 X119.2769 Y226.6163
G01 X119.2945 Y226.6562
G01 X119.3103 Y226.6969
G01 X119.3243 Y226.7382
G01 X119.3365 Y226.7801
G01 X119.3469 Y226.8224
G01 X119.3554 Y226.8652
G01 X119.3620 Y226.9084
G01 X119.3668 Y226.9517
G01 X119.3697 Y226.9953
G01 X119.3706 Y227.0389
G01 Y230.3240
G01 X119.3697 Y230.3677
G01 X119.3668 Y230.4112
G01 X119.3620 Y230.4546
G01 X119.3554 Y230.4977
G01 X119.3469 Y230.5405
G01 X119.3365 Y230.5829
G01 X119.3243 Y230.6247
G01 X119.3103 Y230.6661
G01 X119.2945 Y230.7067
G01 X119.2769 Y230.7467
G01 X119.2576 Y230.7858
G01 X119.2366 Y230.8240
G01 X119.2140 Y230.8613
G01 X119.1898 Y230.8976
G01 X119.1640 Y230.9328
G01 X119.1366 Y230.9668
G01 X119.1079 Y230.9996
G01 X119.0777 Y231.0311
G01 X119.0462 Y231.0613
G01 X119.0134 Y231.0901
G01 X118.9794 Y231.1174
G01 X118.9442 Y231.1432
G01 X118.9079 Y231.1674
G01 X118.8706 Y231.1901
G01 X118.8324 Y231.2110
G01 X118.7932 Y231.2303
G01 X118.7533 Y231.2479
G01 X118.7126 Y231.2637
G01 X118.6713 Y231.2778
G01 X118.6294 Y231.2900
G01 X118.5870 Y231.3003
G01 X118.5443 Y231.3088
G01 X118.5011 Y231.3155
G01 X118.4578 Y231.3202
G01 X118.4142 Y231.3231
G01 X118.3706 Y231.3240
G01 X97.9448
G01 Y243.1795
G01 X122.6258
G01 X122.5647 Y242.8446
G01 X122.4739 Y242.5165
G01 X122.3541 Y242.1979
G01 X122.2063 Y241.8913
G01 X122.0316 Y241.5991
G01 X121.8314 Y241.3238
G01 X121.6074 Y241.0675
G01 X121.3613 Y240.8323
G01 X121.0952 Y240.6200
G01 X120.8111 Y240.4324
G01 X120.5114 Y240.2710
G01 X120.1985 Y240.1371
G01 X119.8748 Y240.0318
G01 X119.5430 Y239.9558
G01 X119.2057 Y239.9099
G01 X118.8656 Y239.8943
G01 X102.2300 Y239.8944
G01 X102.1864 Y239.8934
G01 X102.1428 Y239.8905
G01 X102.0994 Y239.8858
G01 X102.0563 Y239.8792
G01 X102.0135 Y239.8706
G01 X101.9712 Y239.8603
G01 X101.9293 Y239.8481
G01 X101.8880 Y239.8340
G01 X101.8473 Y239.8182
G01 X101.8074 Y239.8007
G01 X101.7682 Y239.7814
G01 X101.7300 Y239.7604
G01 X101.6927 Y239.7377
G01 X101.6564 Y239.7135
G01 X101.6212 Y239.6877
G01 X101.5872 Y239.6604
G01 X101.5544 Y239.6316
G01 X101.5229 Y239.6015
G01 X101.4927 Y239.5699
G01 X101.4639 Y239.5371
G01 X101.4366 Y239.5031
G01 X101.4108 Y239.4679
G01 X101.3866 Y239.4316
G01 X101.3639 Y239.3944
G01 X101.3430 Y239.3561
G01 X101.3237 Y239.3170
G01 X101.3061 Y239.2770
G01 X101.2903 Y239.2364
G01 X101.2763 Y239.1951
G01 X101.2640 Y239.1532
G01 X101.2537 Y239.1108
G01 X101.2452 Y239.0680
G01 X101.2385 Y239.0249
G01 X101.2338 Y238.9815
G01 X101.2309 Y238.9380
G01 X101.2300 Y238.8944
G01 Y235.6092
G01 X101.2331 Y235.5307
G01 X101.2423 Y235.4528
G01 X101.2576 Y235.3757
G01 X101.2789 Y235.3002
G01 X101.3061 Y235.2265
G01 X101.3390 Y235.1552
G01 X101.3773 Y235.0867
G01 X101.4210 Y235.0214
G01 X101.4696 Y234.9597
G01 X101.5229 Y234.9021
G01 X101.5805 Y234.8488
G01 X101.6422 Y234.8002
G01 X101.7075 Y234.7566
G01 X101.7760 Y234.7182
G01 X101.8473 Y234.6853
G01 X101.9210 Y234.6581
G01 X101.9965 Y234.6368
G01 X102.0735 Y234.6215
G01 X102.1515 Y234.6123
G01 X102.2300 Y234.6092
G01 X122.6558
G01 Y223.9811
G01 X122.4558 Y223.9666
M107
G00 Z2.0000


;No. 18: Hole 12
G00 X88.4554 Y241.5369 Z2.0000
G00 Z0.5000
G01 Z0.0000 F400
G01 Z-1.1000
M106 S240
G01 X65.5349 F1000
G01 X65.3736 Y241.4186
G01 X65.2375 Y241.6156
G01 X65.1145 Y241.8209
G01 X65.0051 Y242.0339
G01 X64.9097 Y242.2535
G01 X64.8288 Y242.4788
G01 X64.7627 Y242.7089
G01 X64.7117 Y242.9428
G01 X64.6760 Y243.1795
G01 X89.3270 Y243.1794
G01 X89.2662 Y242.8444
G01 X89.1756 Y242.5162
G01 X89.0560 Y242.1974
G01 X88.9083 Y241.8907
G01 X88.7337 Y241.5984
G01 X88.5335 Y241.3229
G01 X88.3095 Y241.0665
G01 X88.0634 Y240.8312
G01 X87.7972 Y240.6189
G01 X87.5131 Y240.4314
G01 X87.2132 Y240.2700
G01 X86.9002 Y240.1362
G01 X86.5763 Y240.0310
G01 X86.2444 Y239.9552
G01 X85.9070 Y239.9095
G01 X85.5669 Y239.8943
G01 X68.4395
G01 X68.1429 Y239.8997
G01 X67.8476 Y239.9289
G01 X67.5557 Y239.9819
G01 X67.2690 Y240.0581
G01 X66.9894 Y240.1572
G01 X66.7186 Y240.2785
G01 X66.4585 Y240.4211
G01 X66.2107 Y240.5843
G01 X65.9769 Y240.7669
G01 X65.7585 Y240.9676
G01 X65.5569 Y241.1854
G01 X65.3736 Y241.4186
G01 X65.5349 Y241.5369
M107
G00 Z2.0000


;No. 19: Hole 13
G00 X65.5348 Y232.9666 Z2.0000
G00 Z0.5000
G01 Z0.0000 F400
G01 Z-1.1000
M106 S240
G01 X88.4554 F1000
G01 X88.6310 Y232.8674
G01 X88.4461 Y232.6355
G01 X88.2436 Y232.4187
G01 X88.0247 Y232.2185
G01 X87.7908 Y232.0360
G01 X87.5433 Y231.8724
G01 X87.2838 Y231.7287
G01 X87.0139 Y231.6057
G01 X86.7351 Y231.5042
G01 X86.4493 Y231.4249
G01 X86.1581 Y231.3682
G01 X85.8633 Y231.3345
G01 X85.5669 Y231.3240
G01 X68.4394
G01 X68.0974 Y231.3335
G01 X67.7576 Y231.3743
G01 X67.4231 Y231.4462
G01 X67.0966 Y231.5486
G01 X66.7809 Y231.6805
G01 X66.4786 Y231.8408
G01 X66.1923 Y232.0282
G01 X65.9244 Y232.2412
G01 X65.6773 Y232.4778
G01 X65.4529 Y232.7361
G01 X65.2532 Y233.0140
G01 X65.0799 Y233.3090
G01 X64.9344 Y233.6187
G01 X64.8180 Y233.9405
G01 X64.7316 Y234.2716
G01 X64.6760 Y234.6092
G01 X89.3270
G01 X89.2923 Y234.3745
G01 X89.2421 Y234.1427
G01 X89.1765 Y233.9147
G01 X89.0958 Y233.6916
G01 X89.0005 Y233.4744
G01 X88.8910 Y233.2640
G01 X88.7676 Y233.0614
G01 X88.6310 Y232.8674
G01 X88.4554 Y232.9666
M107
G00 Z2.0000


;No. 20: Hole 14
G00 X88.4554 Y224.3963 Z2.0000
G00 Z0.5000
G01 Z0.0000 F400
G01 Z-1.1000
M106 S240
G01 X65.5348 F1000
G01 X65.3736 Y224.2780
G01 X65.2375 Y224.4749
G01 X65.1145 Y224.6803
G01 X65.0051 Y224.8933
G01 X64.9097 Y225.1129
G01 X64.8288 Y225.3382
G01 X64.7627 Y225.5683
G01 X64.7117 Y225.8022
G01 X64.6760 Y226.0389
G01 X89.3270 Y226.0388
G01 X89.2662 Y225.7038
G01 X89.1756 Y225.3756
G01 X89.0560 Y225.0569
G01 X88.9083 Y224.7501
G01 X88.7337 Y224.4578
G01 X88.5335 Y224.1824
G01 X88.3095 Y223.9260
G01 X88.0634 Y223.6907
G01 X87.7972 Y223.4784
G01 X87.5131 Y223.2908
G01 X87.2132 Y223.1295
G01 X86.9002 Y222.9956
G01 X86.5763 Y222.8904
G01 X86.2444 Y222.8147
G01 X85.9070 Y222.7690
G01 X85.5669 Y222.7537
G01 X68.4394
G01 X68.1427 Y222.7587
G01 X67.8474 Y222.7877
G01 X67.5554 Y222.8404
G01 X67.2686 Y222.9166
G01 X66.9889 Y223.0156
G01 X66.7181 Y223.1368
G01 X66.4579 Y223.2796
G01 X66.2101 Y223.4428
G01 X65.9763 Y223.6255
G01 X65.7580 Y223.8265
G01 X65.5567 Y224.0445
G01 X65.3736 Y224.2780
G01 X65.5348 Y224.3963
M107
G00 Z2.0000


;No. 21: Hole 11
G00 X53.8731 Y240.4666 Z2.0000
G00 Z0.5000
G01 Z0.0000 F400
G01 Z-1.1000
M106 S240
G01 X33.4932 F1000
G01 X31.9664 Y241.9666
G01 X55.4377
M107
G00 Z2.0000
G00 X45.1501 Y240.4666
G00 Z0.5000
G01 Z-1.1000 F400
M106 S240
G01 Y238.9666 F1000
G01 X42.2593
G01 X42.2621 Y237.4666
G01 X45.1473
G01 Y235.9666
G01 X42.2621
G01 Y234.4666
G01 X45.1473
G01 Y232.9666
G01 X42.2621
G01 Y231.4666
G01 X45.1473
G01 Y229.9666
G01 X42.2621
G01 Y228.4666
G01 X45.1473
G01 Y226.9666
G01 X42.2621
G01 Y225.4666
G01 X45.1473
G01 Y223.9666
G01 X42.2621
G01 X42.0621 Y223.9816
G01 Y238.8943
G01 X42.0612 Y238.9379
G01 X42.0583 Y238.9814
G01 X42.0535 Y239.0248
G01 X42.0469 Y239.0679
G01 X42.0384 Y239.1107
G01 X42.0280 Y239.1531
G01 X42.0158 Y239.1950
G01 X42.0018 Y239.2363
G01 X41.9860 Y239.2769
G01 X41.9684 Y239.3169
G01 X41.9491 Y239.3560
G01 X41.9281 Y239.3943
G01 X41.9055 Y239.4316
G01 X41.8813 Y239.4678
G01 X41.8555 Y239.5030
G01 X41.8281 Y239.5370
G01 X41.7994 Y239.5698
G01 X41.7692 Y239.6014
G01 X41.7377 Y239.6315
G01 X41.7049 Y239.6603
G01 X41.6709 Y239.6876
G01 X41.6357 Y239.7134
G01 X41.5994 Y239.7376
G01 X41.5621 Y239.7603
G01 X41.5239 Y239.7813
G01 X41.4847 Y239.8006
G01 X41.4448 Y239.8181
G01 X41.4041 Y239.8339
G01 X41.3628 Y239.8480
G01 X41.3209 Y239.8602
G01 X41.2785 Y239.8706
G01 X41.2358 Y239.8791
G01 X41.1926 Y239.8857
G01 X41.1493 Y239.8905
G01 X41.1057 Y239.8933
G01 X41.0621 Y239.8943
G01 X39.5443 Y239.8763
G01 X38.0265 Y239.8707
G01 X36.5087 Y239.8775
G01 X34.9909 Y239.8968
G01 X34.6591 Y239.9191
G01 X34.3306 Y239.9710
G01 X34.0080 Y240.0520
G01 X33.6940 Y240.1615
G01 X33.3910 Y240.2985
G01 X33.1014 Y240.4621
G01 X32.8276 Y240.6509
G01 X32.5717 Y240.8634
G01 X32.3358 Y241.0978
G01 X32.1219 Y241.3524
G01 X31.9314 Y241.6251
G01 X31.7661 Y241.9137
G01 X31.6272 Y242.2159
G01 X31.5159 Y242.5292
G01 X31.4330 Y242.8513
G01 X31.3791 Y243.1795
G01 X56.0301
G01 X55.9691 Y242.8446
G01 X55.8783 Y242.5165
G01 X55.7585 Y242.1979
G01 X55.6106 Y241.8913
G01 X55.4359 Y241.5991
G01 X55.2358 Y241.3238
G01 X55.0118 Y241.0675
G01 X54.7657 Y240.8323
G01 X54.4996 Y240.6200
G01 X54.2155 Y240.4324
G01 X53.9158 Y240.2710
G01 X53.6029 Y240.1371
G01 X53.2792 Y240.0318
G01 X52.9473 Y239.9558
G01 X52.6100 Y239.9099
G01 X52.2700 Y239.8943
G01 X46.3473 Y239.8944
G01 X46.2688 Y239.8913
G01 X46.1908 Y239.8820
G01 X46.1138 Y239.8667
G01 X46.0382 Y239.8454
G01 X45.9646 Y239.8182
G01 X45.8933 Y239.7854
G01 X45.8248 Y239.7470
G01 X45.7595 Y239.7034
G01 X45.6978 Y239.6548
G01 X45.6401 Y239.6015
G01 X45.5868 Y239.5438
G01 X45.5382 Y239.4821
G01 X45.4946 Y239.4168
G01 X45.4562 Y239.3483
G01 X45.4234 Y239.2770
G01 X45.3962 Y239.2034
G01 X45.3749 Y239.1278
G01 X45.3596 Y239.0508
G01 X45.3503 Y238.9728
G01 X45.3473 Y238.8944
G01 Y222.7537
G01 X42.0621
G01 Y223.9816
G01 X42.2621 Y223.9666
M107
G00 Z2.0000


;No. 22: Hole 19
G00 X54.2581 Y200.7313 Z2.0000
G00 Z0.5000
G01 Z0.0000 F400
G01 Z-1.8000
M106 S240
G01 X69.9447 F1000
G01 X65.0455
G01 Y199.2313
G01 X51.8564
G01 X52.5739 Y197.7313
G01 X60.7068
G01 X56.7796 Y196.2313
G01 X53.3171
M107
G00 Z2.0000
G00 X58.4820 Y200.7313
G00 Z0.5000
G01 Z-1.8000 F400
M106 S240
G01 Y202.2313 F1000
G01 X75.6651
G01 Y203.7313
G01 X82.7624
G01 X63.1341
G01 X68.3365
G01 Y205.2313
G01 X92.9793
G01 Y206.7313
G01 X74.3159
G01 X146.2927
G01 Y205.2313
G01 X152.2410
G01 X127.6979
G01 X137.7683
G01 Y203.7313
G01 X157.4185
G01 X162.0649 Y202.2313
G01 X144.8517
G01 X150.6006
G01 Y200.7313
G01 X166.3181
G01 X168.7153 Y199.2313
G01 X155.5310
G01 X159.8846 Y197.7313
G01 X168.0137
G01 X167.2844 Y196.2313
G01 X163.7996
M107
G00 Z2.0000
G00 X139.0902 Y206.7313
G00 Z0.5000
G01 Z-1.8000 F400
M106 S240
G01 Y208.2313 F1000
G01 X81.5342
G01 X91.3046
G01 Y209.7313
G01 X129.2866
G01 X129.4071 Y209.9180
G01 X131.4477 Y209.6518
G01 X133.4848 Y209.3603
G01 X135.5182 Y209.0436
G01 X137.5474 Y208.7017
G01 X139.5723 Y208.3347
G01 X141.5925 Y207.9425
G01 X143.6077 Y207.5253
G01 X145.6175 Y207.0831
G01 X147.6217 Y206.6161
G01 X149.6199 Y206.1242
G01 X151.6119 Y205.6075
G01 X153.5973 Y205.0662
G01 X155.5758 Y204.5003
G01 X157.5472 Y203.9099
G01 X159.5111 Y203.2950
G01 X161.4672 Y202.6559
G01 X163.4152 Y201.9925
G01 X165.3549 Y201.3050
G01 X167.2859 Y200.5935
G01 X169.2079 Y199.8581
G01 X168.6304 Y198.5784
G01 X168.0326 Y197.3080
G01 X167.4147 Y196.0473
G01 X166.7768 Y194.7966
G01 X165.8572 Y195.1652
G01 X164.9391 Y195.5374
G01 X164.0224 Y195.9132
G01 X163.1072 Y196.2926
G01 X161.2415 Y197.0065
G01 X159.3659 Y197.6936
G01 X157.4807 Y198.3540
G01 X155.5863 Y198.9874
G01 X153.6830 Y199.5937
G01 X151.7713 Y200.1728
G01 X149.8515 Y200.7246
G01 X147.9240 Y201.2490
G01 X145.9893 Y201.7458
G01 X144.0477 Y202.2150
G01 X142.0995 Y202.6565
G01 X140.1453 Y203.0701
G01 X138.1854 Y203.4559
G01 X136.2202 Y203.8136
G01 X134.2501 Y204.1433
G01 X132.2754 Y204.4449
G01 X130.2967 Y204.7182
G01 X128.3143 Y204.9634
G01 X126.3286 Y205.1802
G01 X124.3400 Y205.3687
G01 X122.9758 Y205.4747
G01 X121.6107 Y205.5682
G01 X120.2448 Y205.6493
G01 X118.8783 Y205.7180
G01 X117.5111 Y205.7743
G01 X116.1435 Y205.8181
G01 X114.7756 Y205.8494
G01 X113.4075 Y205.8683
G01 X111.9633 Y205.8921
G01 X110.5189 Y205.9049
G01 X109.0745 Y205.9066
G01 X107.6302 Y205.8974
G01 X106.1859 Y205.8771
G01 X104.7419 Y205.8458
G01 X103.2981 Y205.8036
G01 X101.8547 Y205.7503
G01 X100.0293 Y205.6512
G01 X98.2054 Y205.5284
G01 X96.3832 Y205.3820
G01 X94.5631 Y205.2120
G01 X92.7453 Y205.0185
G01 X90.9302 Y204.8014
G01 X89.1181 Y204.5608
G01 X87.3092 Y204.2968
G01 X85.5039 Y204.0094
G01 X83.7025 Y203.6986
G01 X81.9052 Y203.3645
G01 X80.1125 Y203.0071
G01 X78.3245 Y202.6266
G01 X76.5416 Y202.2229
G01 X74.7640 Y201.7962
G01 X72.9922 Y201.3465
G01 X71.2263 Y200.8738
G01 X69.4667 Y200.3784
G01 X67.7136 Y199.8601
G01 X65.9674 Y199.3193
G01 X64.4515 Y198.8196
G01 X62.9407 Y198.3044
G01 X61.4354 Y197.7737
G01 X59.9356 Y197.2275
G01 X58.4415 Y196.6658
G01 X56.9533 Y196.0887
G01 X55.4711 Y195.4964
G01 X53.9951 Y194.8888
G01 X53.8976 Y194.8522
G01 X53.8320 Y194.8278
G01 X53.1830 Y196.0669
G01 X52.5544 Y197.3165
G01 X51.9462 Y198.5762
G01 X51.3587 Y199.8456
G01 X53.5335 Y200.6779
G01 X55.7199 Y201.4794
G01 X57.9174 Y202.2498
G01 X60.1256 Y202.9890
G01 X62.3440 Y203.6969
G01 X64.5723 Y204.3733
G01 X66.8099 Y205.0181
G01 X69.0564 Y205.6312
G01 X71.3114 Y206.2124
G01 X73.5743 Y206.7616
G01 X75.8448 Y207.2787
G01 X78.1224 Y207.7636
G01 X80.4067 Y208.2163
G01 X82.6971 Y208.6365
G01 X84.9932 Y209.0243
G01 X87.2946 Y209.3795
G01 X89.6008 Y209.7022
G01 X91.9113 Y209.9921
G01 X94.2258 Y210.2493
G01 X96.5436 Y210.4737
G01 X98.8643 Y210.6653
G01 X101.1876 Y210.8240
G01 X103.5128 Y210.9497
G01 X105.8396 Y211.0426
G01 X107.8072 Y211.0880
G01 X109.7752 Y211.1080
G01 X111.7434 Y211.1027
G01 X113.7113 Y211.0722
G01 X115.6786 Y211.0163
G01 X117.6450 Y210.9351
G01 X119.6103 Y210.8287
G01 X121.5740 Y210.6970
G01 X123.5359 Y210.5400
G01 X125.4955 Y210.3578
G01 X127.4527 Y210.1505
G01 X129.4071 Y209.9180
G01 X129.2866 Y209.7313
M107
G00 Z2.0000


;No. 23: Hole 20
G00 X134.8794 Y197.9767 Z2.0000
G00 Z0.5000
G01 Z0.0000 F400
G01 Z-1.8000
M106 S240
G01 X122.2743 F1000
G01 X121.0328 Y196.4767
G01 X142.6736
G01 Y194.9767
G01 X148.6106
G01 X119.7956
G01 X118.5614 Y193.4767
G01 X153.5502
G01 X157.8270 Y191.9767
G01 X117.3291
G01 X116.0943 Y190.4767
G01 X161.6055
G01 X162.7924 Y188.9767
G01 X114.8595
G01 X113.6246 Y187.4767
G01 X126.0654
G01 X125.7549 Y185.9767
G01 X112.3898
G01 X111.1301 Y184.4767
G01 X125.4840
G01 X125.2142 Y182.9767
G01 X95.2808
G01 X95.5495 Y181.4767
G01 X124.9449
G01 X124.6759 Y179.9767
G01 X95.8181
G01 X96.0868 Y178.4767
G01 X124.4072
G01 X124.1386 Y176.9767
G01 X96.3555
G01 X96.6241 Y175.4767
G01 X123.8702
G01 X123.6019 Y173.9767
G01 X96.8928
G01 X97.1615 Y172.4767
G01 X123.3337
G01 X123.0656 Y170.9767
G01 X97.4301
G01 X97.6988 Y169.4767
G01 X122.7975
G01 X122.5295 Y167.9767
G01 X97.9675
G01 X98.2361 Y166.4767
G01 X122.2616
G01 X121.9937 Y164.9767
G01 X98.5048
G01 X98.7735 Y163.4767
G01 X121.7259
G01 X121.4581 Y161.9767
G01 X99.0421
G01 X99.3108 Y160.4767
G01 X121.1904
G01 X120.9227 Y158.9767
G01 X99.5795
G01 X99.8481 Y157.4767
G01 X120.6550
G01 X120.3874 Y155.9767
G01 X100.1168
G01 X100.3855 Y154.4767
G01 X120.1198
G01 X119.8523 Y152.9767
G01 X100.6541
G01 X100.9228 Y151.4767
G01 X119.5847
G01 X119.3173 Y149.9767
G01 X101.1915
G01 X101.4601 Y148.4767
G01 X119.0498
G01 X118.7824 Y146.9767
G01 X101.7288
G01 X101.9975 Y145.4767
G01 X118.5150
G01 X118.2476 Y143.9767
G01 X102.2661
G01 X102.5348 Y142.4767
G01 X117.9803
G01 X117.7130 Y140.9767
G01 X102.8035
G01 X103.0721 Y139.4767
G01 X117.4457
G01 X117.1785 Y137.9767
G01 X103.3408
G01 X103.6095 Y136.4767
G01 X116.9113
G01 X116.6441 Y134.9767
G01 X103.8781
G01 X104.1468 Y133.4767
G01 X116.3769
G01 X116.1098 Y131.9767
G01 X104.4155
G01 X104.6841 Y130.4767
G01 X115.8427
G01 X115.5756 Y128.9767
G01 X104.9528
G01 X105.2214 Y127.4767
G01 X115.3086
G01 X115.0416 Y125.9767
G01 X105.4901
G01 X105.7588 Y124.4767
G01 X114.7747
G01 X114.5077 Y122.9767
G01 X106.0274
G01 X106.2961 Y121.4767
G01 X114.2409
G01 X113.9740 Y119.9767
G01 X106.5648
G01 X106.8334 Y118.4767
G01 X113.7072
G01 X113.4404 Y116.9767
G01 X107.1021
G01 X107.3708 Y115.4767
G01 X113.1737
G01 X112.9070 Y113.9767
G01 X107.6394
G01 X107.9081 Y112.4767
G01 X112.6404
G01 X112.3739 Y110.9767
G01 X108.1768
G01 X108.4454 Y109.4767
G01 X112.1074
G01 X111.8409 Y107.9767
G01 X108.7141
G01 X108.9828 Y106.4767
G01 X111.5746
G01 X111.3083 Y104.9767
G01 X109.2514
G01 X109.5201 Y103.4767
G01 X111.0422
G01 X110.7761 Y101.9767
G01 X109.7888
M107
G00 Z2.0000
G00 X109.5754 Y182.9767
G00 Z0.5000
G01 Z-1.8000 F400
M106 S240
G01 Y184.4767 F1000
G01 X95.0121
G01 X94.7435 Y185.9767
G01 X108.2323
G01 X106.9678 Y187.4767
G01 X94.4508
G01 Y188.9767
G01 X105.7174
G01 X57.7814
G01 X58.9623 Y190.4767
G01 X104.4756
G01 X103.2408 Y191.9767
G01 X62.7053
G01 X66.9846 Y193.4767
G01 X102.0098
G01 X100.7788 Y194.9767
G01 X71.9576
G01 X77.9316
G01 Y196.4767
G01 X99.5478
G01 X98.3168 Y197.9767
G01 X85.7164
M107
G00 Z2.0000
G00 X80.4667 Y188.9767
G00 Z0.5000
G01 Z-1.8000 F400
M106 S240
G01 Y187.4767 F1000
G01 X59.1527
G01 X60.7546 Y185.9767
G01 X75.3776
G01 X73.1243 Y184.4767
G01 X62.6114
G01 X64.7556 Y182.9767
G01 X71.8466
G01 X71.0423 Y181.4767
G01 X67.2321
M107
G00 Z2.0000
G00 X140.0797 Y188.9767
G00 Z0.5000
G01 Z-1.8000 F400
M106 S240
G01 Y187.4767 F1000
G01 X161.4160
G01 X159.8062 Y185.9767
G01 X145.1716
G01 X147.4373 Y184.4767
G01 X157.9478
G01 X155.8133 Y182.9767
G01 X148.7235
G01 X149.5005 Y181.4767
G01 X153.3148
G01 X153.3793 Y181.2844
G01 X152.5110 Y180.8287
G01 X151.6380 Y180.3823
G01 X150.7603 Y179.9452
G01 X149.8780 Y179.5174
G01 X149.7678 Y180.0183
G01 X149.6310 Y180.5125
G01 X149.4680 Y180.9988
G01 X149.2793 Y181.4756
G01 X149.0653 Y181.9417
G01 X148.8267 Y182.3956
G01 X148.5642 Y182.8362
G01 X148.2785 Y183.2621
G01 X148.0165 Y183.5780
G01 X147.7404 Y183.8817
G01 X147.4508 Y184.1726
G01 X147.1484 Y184.4501
G01 X146.8337 Y184.7137
G01 X146.5074 Y184.9627
G01 X146.1701 Y185.1966
G01 X145.8226 Y185.4151
G01 X145.4656 Y185.6176
G01 X145.0997 Y185.8037
G01 X144.7258 Y185.9730
G01 X144.3447 Y186.1253
G01 X143.6745 Y186.3658
G01 X142.9973 Y186.5859
G01 X142.3137 Y186.7854
G01 X141.6244 Y186.9641
G01 X140.9300 Y187.1217
G01 X140.2312 Y187.2583
G01 X139.5285 Y187.3735
G01 X138.8227 Y187.4674
G01 X137.9938 Y187.5658
G01 X137.1637 Y187.6528
G01 X136.3325 Y187.7282
G01 X135.5003 Y187.7921
G01 X134.6672 Y187.8445
G01 X133.8336 Y187.8854
G01 X132.9994 Y187.9148
G01 X132.1650 Y187.9326
G01 X130.9207 Y187.9719
G01 X129.6761 Y187.9967
G01 X128.4312 Y188.0068
G01 X127.1864 Y188.0023
G01 X127.0980 Y187.9987
G01 X127.0103 Y187.9874
G01 X126.9238 Y187.9686
G01 X126.8394 Y187.9425
G01 X126.7574 Y187.9091
G01 X126.6787 Y187.8689
G01 X126.6037 Y187.8219
G01 X126.5331 Y187.7687
G01 X126.4673 Y187.7096
G01 X126.4069 Y187.6450
G01 X126.3523 Y187.5754
G01 X126.3038 Y187.5014
G01 X126.2620 Y187.4235
G01 X126.2270 Y187.3423
G01 X126.1992 Y187.2583
G01 X126.1787 Y187.1723
G01 X125.6479 Y184.2312
G01 X125.1181 Y181.2899
G01 X124.5891 Y178.3485
G01 X124.0611 Y175.4069
G01 X123.5340 Y172.4652
G01 X123.0078 Y169.5233
G01 X122.4824 Y166.5813
G01 X121.9580 Y163.6390
G01 X121.7900 Y162.6978
G01 X121.6220 Y161.7566
G01 X121.4540 Y160.8154
G01 X121.2860 Y159.8741
G01 X121.1180 Y158.9329
G01 X120.9500 Y157.9917
G01 X120.7821 Y157.0504
G01 X120.6142 Y156.1092
G01 X120.4463 Y155.1679
G01 X120.2784 Y154.2267
G01 X120.1105 Y153.2855
G01 X119.9426 Y152.3442
G01 X119.7747 Y151.4030
G01 X119.6069 Y150.4617
G01 X119.4390 Y149.5205
G01 X119.2712 Y148.5792
G01 X119.1034 Y147.6379
G01 X118.9356 Y146.6967
G01 X118.7678 Y145.7554
G01 X118.6000 Y144.8142
G01 X118.4323 Y143.8729
G01 X118.2645 Y142.9316
G01 X118.0968 Y141.9904
G01 X117.9290 Y141.0491
G01 X117.7613 Y140.1078
G01 X117.5936 Y139.1665
G01 X117.4259 Y138.2253
G01 X117.2582 Y137.2840
G01 X117.0905 Y136.3427
G01 X116.9229 Y135.4014
G01 X116.7552 Y134.4601
G01 X116.5876 Y133.5189
G01 X116.4199 Y132.5776
G01 X116.2523 Y131.6363
G01 X116.0847 Y130.6950
G01 X115.9171 Y129.7537
G01 X115.7495 Y128.8124
G01 X115.5820 Y127.8711
G01 X115.4144 Y126.9298
G01 X115.2469 Y125.9885
G01 X115.0793 Y125.0472
G01 X114.9118 Y124.1059
G01 X114.7443 Y123.1645
G01 X114.5768 Y122.2232
G01 X114.4093 Y121.2819
G01 X114.2419 Y120.3406
G01 X114.0744 Y119.3993
G01 X113.9070 Y118.4579
G01 X113.7396 Y117.5166
G01 X113.5722 Y116.5753
G01 X113.4048 Y115.6339
G01 X113.2374 Y114.6926
G01 X113.0701 Y113.7512
G01 X112.9028 Y112.8099
G01 X112.7355 Y111.8685
G01 X112.5682 Y110.9272
G01 X112.4009 Y109.9858
G01 X112.2337 Y109.0444
G01 X112.0665 Y108.1030
G01 X111.8993 Y107.1616
G01 X111.7322 Y106.2202
G01 X111.5651 Y105.2788
G01 X111.3980 Y104.3374
G01 X111.2309 Y103.3960
G01 X111.0640 Y102.4546
G01 X110.8970 Y101.5131
G01 X110.7301 Y100.5716
G01 X110.6462 Y100.0984
G01 X110.5624 Y99.6252
G01 X110.4785 Y99.1520
G01 X110.3947 Y98.6788
G01 X110.2873 Y98.0721
G01 X94.3182 Y187.2167
G01 X94.3003 Y187.2966
G01 X94.2759 Y187.3747
G01 X94.2453 Y187.4507
G01 X94.2086 Y187.5239
G01 X94.1662 Y187.5939
G01 X94.1181 Y187.6602
G01 X94.0649 Y187.7224
G01 X94.0068 Y187.7801
G01 X93.9443 Y187.8329
G01 X93.8776 Y187.8804
G01 X93.8073 Y187.9224
G01 X93.7339 Y187.9586
G01 X93.6578 Y187.9887
G01 X93.5794 Y188.0125
G01 X93.4994 Y188.0299
G01 X93.4183 Y188.0407
G01 X92.6666 Y188.0572
G01 X91.9147 Y188.0610
G01 X91.1629 Y188.0521
G01 X90.4114 Y188.0307
G01 X89.3737 Y188.0081
G01 X88.3363 Y187.9737
G01 X87.2994 Y187.9275
G01 X86.2631 Y187.8693
G01 X85.2275 Y187.7993
G01 X84.1928 Y187.7174
G01 X83.1591 Y187.6236
G01 X82.1266 Y187.5180
G01 X81.3913 Y187.4291
G01 X80.6591 Y187.3179
G01 X79.9305 Y187.1846
G01 X79.2063 Y187.0294
G01 X78.4872 Y186.8523
G01 X77.7737 Y186.6535
G01 X77.0666 Y186.4333
G01 X76.3664 Y186.1917
G01 X75.9953 Y186.0496
G01 X75.6307 Y185.8915
G01 X75.2733 Y185.7178
G01 X74.9238 Y185.5287
G01 X74.5828 Y185.3247
G01 X74.2510 Y185.1061
G01 X73.9289 Y184.8732
G01 X73.6173 Y184.6267
G01 X73.3166 Y184.3669
G01 X73.0275 Y184.0942
G01 X72.7505 Y183.8093
G01 X72.4861 Y183.5127
G01 X72.1506 Y183.0725
G01 X71.8448 Y182.6111
G01 X71.5699 Y182.1307
G01 X71.3272 Y181.6332
G01 X71.1177 Y181.1209
G01 X70.9424 Y180.5959
G01 X70.8019 Y180.0606
G01 X70.6969 Y179.5171
G01 X69.7830 Y179.9345
G01 X68.8794 Y180.3737
G01 X67.9867 Y180.8347
G01 X67.1055 Y181.3171
G01 X66.2361 Y181.8207
G01 X65.3791 Y182.3451
G01 X64.5351 Y182.8900
G01 X63.7044 Y183.4551
G01 X62.8877 Y184.0402
G01 X62.0853 Y184.6448
G01 X61.2977 Y185.2686
G01 X60.5255 Y185.9112
G01 X60.0268 Y186.3548
G01 X59.5396 Y186.8109
G01 X59.0641 Y187.2792
G01 X58.6007 Y187.7595
G01 X58.1497 Y188.2514
G01 X57.7112 Y188.7546
G01 X57.2858 Y189.2688
G01 X56.8735 Y189.7936
G01 X58.5726 Y190.5274
G01 X60.2837 Y191.2329
G01 X62.0063 Y191.9097
G01 X63.7400 Y192.5578
G01 X65.4842 Y193.1769
G01 X67.2385 Y193.7668
G01 X69.0024 Y194.3274
G01 X70.7754 Y194.8585
G01 X72.5569 Y195.3601
G01 X74.3466 Y195.8318
G01 X76.1439 Y196.2737
G01 X77.9484 Y196.6856
G01 X79.5463 Y197.0369
G01 X81.1489 Y197.3665
G01 X82.7558 Y197.6742
G01 X84.3667 Y197.9601
G01 X85.9814 Y198.2240
G01 X87.5996 Y198.4659
G01 X89.2208 Y198.6858
G01 X90.8450 Y198.8836
G01 X92.4716 Y199.0593
G01 X94.1005 Y199.2128
G01 X95.7313 Y199.3442
G01 X97.3638 Y199.4533
G01 X103.2720 Y192.2539
G01 X104.8040 Y190.3865
G01 X106.3492 Y188.5299
G01 X107.9074 Y186.6842
G01 X109.4785 Y184.8495
G01 X109.5280 Y184.7836
G01 X109.5824 Y184.7218
G01 X109.6414 Y184.6644
G01 X109.7047 Y184.6117
G01 X109.7719 Y184.5641
G01 X109.8426 Y184.5219
G01 X109.9164 Y184.4853
G01 X109.9928 Y184.4545
G01 X110.0713 Y184.4297
G01 X110.1515 Y184.4111
G01 X110.2329 Y184.3987
G01 X110.3151 Y184.3927
G01 X110.3974 Y184.3931
G01 X110.4795 Y184.3999
G01 X110.5608 Y184.4130
G01 X110.6408 Y184.4324
G01 X110.7106 Y184.4563
G01 X110.7783 Y184.4852
G01 X110.8438 Y184.5190
G01 X110.9065 Y184.5575
G01 X110.9663 Y184.6006
G01 X111.0228 Y184.6479
G01 X111.0756 Y184.6993
G01 X111.1244 Y184.7544
G01 X113.0385 Y187.0782
G01 X114.9519 Y189.4026
G01 X116.8646 Y191.7276
G01 X118.7765 Y194.0533
G01 X119.8847 Y195.4013
G01 X120.9962 Y196.7467
G01 X122.1109 Y198.0894
G01 X123.2288 Y199.4295
G01 X125.0868 Y199.3172
G01 X126.9426 Y199.1731
G01 X128.7956 Y198.9971
G01 X130.6454 Y198.7894
G01 X132.4913 Y198.5499
G01 X134.3328 Y198.2788
G01 X136.1694 Y197.9761
G01 X138.0005 Y197.6419
G01 X140.0186 Y197.2578
G01 X142.0295 Y196.8377
G01 X144.0326 Y196.3817
G01 X146.0273 Y195.8901
G01 X148.0128 Y195.3630
G01 X149.9886 Y194.8005
G01 X151.9540 Y194.2028
G01 X153.9085 Y193.5701
G01 X155.8514 Y192.9027
G01 X157.7820 Y192.2007
G01 X159.6998 Y191.4643
G01 X161.6042 Y190.6938
G01 X162.1306 Y190.4759
G01 X162.6551 Y190.2535
G01 X163.1777 Y190.0268
G01 X163.6984 Y189.7956
G01 X163.0567 Y189.0007
G01 X162.3872 Y188.2292
G01 X161.6907 Y187.4820
G01 X160.9680 Y186.7601
G01 X160.2201 Y186.0643
G01 X159.4480 Y185.3955
G01 X158.6525 Y184.7546
G01 X157.8348 Y184.1424
G01 X157.3003 Y183.7514
G01 X156.7592 Y183.3698
G01 X156.2114 Y182.9977
G01 X155.6571 Y182.6353
G01 X155.0966 Y182.2826
G01 X154.5300 Y181.9399
G01 X153.9575 Y181.6071
G01 X153.3793 Y181.2844
G01 X153.3148 Y181.4767
M107
G00 Z2.0000


;No. 24: Hole 21
G00 X53.4671 Y82.9046 Z2.0000
G00 Z0.5000
G01 Z0.0000 F400
G01 Z-1.1000
M106 S240
G01 X49.9796 F1000
G01 X50.0246 Y81.4046
G01 X53.4239
G01 Y79.9046
G01 X50.0246
G01 Y78.4046
G01 X53.4239
G01 Y76.9046
G01 X50.0246
G01 Y75.4046
G01 X49.4887
G01 X53.4239
G01 Y73.9046
G01 X50.0151
G01 X50.0246 Y72.4046
G01 X53.4239
G01 Y70.9046
G01 X50.0246
G01 Y69.4046
G01 X53.4239
G01 Y67.9046
G01 X50.0246
G01 X49.9727 Y66.4046
G01 X53.4755
M107
G00 Z2.0000
G00 X37.6379
G00 Z0.5000
G01 Z0.0000 F400
G01 Z-1.1000
M106 S240
G01 X34.1410 F1000
G01 X34.1898 Y67.9046
G01 X37.5891
G01 Y69.4046
G01 X34.1898
G01 Y70.9046
G01 X37.5891
G01 Y72.4046
G01 X34.1898
G01 Y73.9046
G01 X37.5986
G01 X38.1250 Y75.4046
G01 X34.1898
G01 Y76.9046
G01 X37.5891
G01 Y78.4046
G01 X34.1898
G01 Y79.9046
G01 X37.5891
G01 Y81.4046
G01 X34.1898
G01 X34.1476 Y82.9046
G01 X37.6305
G01 X37.8264 Y82.8642
G01 X37.8101 Y82.7766
G01 X37.7985 Y82.6882
G01 X37.7915 Y82.5994
G01 X37.7891 Y82.5103
G01 Y76.4029
G01 X37.7901 Y76.3593
G01 X37.7930 Y76.3158
G01 X37.7977 Y76.2724
G01 X37.8043 Y76.2293
G01 X37.8129 Y76.1865
G01 X37.8232 Y76.1441
G01 X37.8354 Y76.1022
G01 X37.8495 Y76.0609
G01 X37.8653 Y76.0203
G01 X37.8828 Y75.9803
G01 X37.9021 Y75.9412
G01 X37.9231 Y75.9029
G01 X37.9458 Y75.8656
G01 X37.9700 Y75.8294
G01 X37.9958 Y75.7942
G01 X38.0231 Y75.7601
G01 X38.0519 Y75.7273
G01 X38.0820 Y75.6958
G01 X38.1136 Y75.6657
G01 X38.1464 Y75.6369
G01 X38.1804 Y75.6096
G01 X38.2156 Y75.5838
G01 X38.2518 Y75.5595
G01 X38.2891 Y75.5369
G01 X38.3274 Y75.5159
G01 X38.3665 Y75.4966
G01 X38.4065 Y75.4791
G01 X38.4471 Y75.4632
G01 X38.4884 Y75.4492
G01 X38.5303 Y75.4370
G01 X38.5727 Y75.4266
G01 X38.6155 Y75.4181
G01 X38.6586 Y75.4115
G01 X38.7020 Y75.4067
G01 X38.7455 Y75.4039
G01 X38.7891 Y75.4029
G01 X48.8246
G01 X48.8682 Y75.4039
G01 X48.9117 Y75.4067
G01 X48.9551 Y75.4115
G01 X48.9982 Y75.4181
G01 X49.0410 Y75.4266
G01 X49.0834 Y75.4370
G01 X49.1253 Y75.4492
G01 X49.1666 Y75.4632
G01 X49.2072 Y75.4791
G01 X49.2472 Y75.4966
G01 X49.2863 Y75.5159
G01 X49.3246 Y75.5369
G01 X49.3619 Y75.5595
G01 X49.3981 Y75.5838
G01 X49.4333 Y75.6096
G01 X49.4673 Y75.6369
G01 X49.5001 Y75.6657
G01 X49.5317 Y75.6958
G01 X49.5618 Y75.7273
G01 X49.5906 Y75.7601
G01 X49.6179 Y75.7942
G01 X49.6437 Y75.8294
G01 X49.6679 Y75.8656
G01 X49.6906 Y75.9029
G01 X49.7116 Y75.9412
G01 X49.7309 Y75.9803
G01 X49.7484 Y76.0203
G01 X49.7642 Y76.0609
G01 X49.7783 Y76.1022
G01 X49.7905 Y76.1441
G01 X49.8008 Y76.1865
G01 X49.8094 Y76.2293
G01 X49.8160 Y76.2724
G01 X49.8207 Y76.3158
G01 X49.8236 Y76.3593
G01 X49.8246 Y76.4029
G01 Y82.5132
G01 X49.8198 Y82.6325
G01 X49.8059 Y82.7511
G01 X49.7832 Y82.8683
G01 X49.7515 Y82.9834
G01 X49.7113 Y83.0958
G01 X49.6626 Y83.2048
G01 X49.6058 Y83.3098
G01 X49.5412 Y83.4102
G01 X49.4691 Y83.5054
G01 X49.3900 Y83.5949
G01 X49.3044 Y83.6781
G01 X49.2127 Y83.7545
G01 X49.1155 Y83.8238
G01 X49.0132 Y83.8855
G01 X48.9066 Y83.9393
G01 X48.7963 Y83.9848
G01 X48.4305 Y84.1353
G01 X48.0618 Y84.2784
G01 X47.6904 Y84.4141
G01 X47.3162 Y84.5424
G01 X56.1322
G01 X55.7002 Y84.4101
G01 X55.2754 Y84.2561
G01 X54.8590 Y84.0806
G01 X54.4521 Y83.8842
G01 X54.3591 Y83.8339
G01 X54.2698 Y83.7771
G01 X54.1849 Y83.7142
G01 X54.1045 Y83.6454
G01 X54.0293 Y83.5710
G01 X53.9596 Y83.4916
G01 X53.8956 Y83.4073
G01 X53.8378 Y83.3188
G01 X53.7864 Y83.2264
G01 X53.7417 Y83.1305
G01 X53.7039 Y83.0317
G01 X53.6732 Y82.9305
G01 X53.6497 Y82.8274
G01 X53.6337 Y82.7229
G01 X53.6250 Y82.6175
G01 X53.6239 Y82.5117
G01 Y66.8589
G01 X53.6242 Y66.7616
G01 X53.6305 Y66.6645
G01 X53.6428 Y66.5680
G01 X53.6609 Y66.4724
G01 X53.6848 Y66.3781
G01 X53.7145 Y66.2854
G01 X53.7498 Y66.1948
G01 X53.7907 Y66.1064
G01 X53.8368 Y66.0208
G01 X53.8881 Y65.9381
G01 X53.9444 Y65.8587
G01 X54.0054 Y65.7830
G01 X54.0710 Y65.7111
G01 X54.1409 Y65.6434
G01 X54.2147 Y65.5800
G01 X54.2924 Y65.5214
G01 X54.3734 Y65.4676
G01 X54.4577 Y65.4188
G01 X54.5447 Y65.3754
G01 X54.6343 Y65.3373
G01 X55.0022 Y65.1781
G01 X55.3748 Y65.0299
G01 X55.7516 Y64.8927
G01 X56.1322 Y64.7668
G01 X47.3162
G01 X47.7055 Y64.8861
G01 X48.0887 Y65.0236
G01 X48.4649 Y65.1791
G01 X48.8335 Y65.3521
G01 X48.9427 Y65.4013
G01 X49.0480 Y65.4586
G01 X49.1486 Y65.5237
G01 X49.2440 Y65.5962
G01 X49.3337 Y65.6756
G01 X49.4172 Y65.7616
G01 X49.4939 Y65.8537
G01 X49.5635 Y65.9513
G01 X49.6255 Y66.0538
G01 X49.6797 Y66.1607
G01 X49.7256 Y66.2714
G01 X49.7630 Y66.3852
G01 X49.7918 Y66.5016
G01 X49.8117 Y66.6197
G01 X49.8226 Y66.7391
G01 X49.8246 Y66.8589
G01 Y73.7617
G01 X49.8236 Y73.8053
G01 X49.8207 Y73.8488
G01 X49.8160 Y73.8922
G01 X49.8094 Y73.9353
G01 X49.8008 Y73.9781
G01 X49.7905 Y74.0205
G01 X49.7783 Y74.0624
G01 X49.7642 Y74.1037
G01 X49.7484 Y74.1443
G01 X49.7309 Y74.1843
G01 X49.7116 Y74.2234
G01 X49.6906 Y74.2617
G01 X49.6679 Y74.2990
G01 X49.6437 Y74.3352
G01 X49.6179 Y74.3704
G01 X49.5906 Y74.4044
G01 X49.5618 Y74.4372
G01 X49.5317 Y74.4688
G01 X49.5001 Y74.4989
G01 X49.4673 Y74.5277
G01 X49.4333 Y74.5550
G01 X49.3981 Y74.5808
G01 X49.3619 Y74.6050
G01 X49.3246 Y74.6277
G01 X49.2863 Y74.6487
G01 X49.2472 Y74.6680
G01 X49.2072 Y74.6855
G01 X49.1666 Y74.7013
G01 X49.1253 Y74.7154
G01 X49.0834 Y74.7276
G01 X49.0410 Y74.7380
G01 X48.9982 Y74.7465
G01 X48.9551 Y74.7531
G01 X48.9117 Y74.7578
G01 X48.8682 Y74.7607
G01 X48.8246 Y74.7617
G01 X38.7891
G01 X38.7107 Y74.7586
G01 X38.6327 Y74.7493
G01 X38.5557 Y74.7340
G01 X38.4801 Y74.7127
G01 X38.4065 Y74.6855
G01 X38.3352 Y74.6527
G01 X38.2666 Y74.6143
G01 X38.2014 Y74.5707
G01 X38.1397 Y74.5221
G01 X38.0820 Y74.4688
G01 X38.0287 Y74.4111
G01 X37.9801 Y74.3494
G01 X37.9365 Y74.2842
G01 X37.8981 Y74.2156
G01 X37.8653 Y74.1443
G01 X37.8381 Y74.0707
G01 X37.8168 Y73.9951
G01 X37.8015 Y73.9181
G01 X37.7922 Y73.8401
G01 X37.7891 Y73.7617
G01 Y66.8602
G01 X37.7889 Y66.7588
G01 X37.7951 Y66.6575
G01 X37.8077 Y66.5569
G01 X37.8267 Y66.4573
G01 X37.8519 Y66.3590
G01 X37.8834 Y66.2626
G01 X37.9209 Y66.1683
G01 X37.9643 Y66.0767
G01 X38.0135 Y65.9879
G01 X38.0681 Y65.9025
G01 X38.1281 Y65.8207
G01 X38.1932 Y65.7429
G01 X38.2631 Y65.6694
G01 X38.3375 Y65.6005
G01 X38.4161 Y65.5364
G01 X38.4987 Y65.4775
G01 X38.5848 Y65.4239
G01 X38.6742 Y65.3759
G01 X38.7664 Y65.3336
G01 X38.8611 Y65.2973
G01 X39.2143 Y65.1556
G01 X39.5698 Y65.0199
G01 X39.9275 Y64.8903
G01 X40.2875 Y64.7668
G01 X31.5183
G01 X31.9068 Y64.8853
G01 X32.2898 Y65.0204
G01 X32.6666 Y65.1721
G01 X33.0365 Y65.3398
G01 X33.1433 Y65.3922
G01 X33.2459 Y65.4524
G01 X33.3438 Y65.5199
G01 X33.4365 Y65.5945
G01 X33.5234 Y65.6758
G01 X33.6040 Y65.7632
G01 X33.6780 Y65.8564
G01 X33.7448 Y65.9548
G01 X33.8042 Y66.0578
G01 X33.8559 Y66.1650
G01 X33.8995 Y66.2756
G01 X33.9348 Y66.3892
G01 X33.9616 Y66.5051
G01 X33.9797 Y66.6227
G01 X33.9892 Y66.7413
G01 X33.9898 Y66.8602
G01 Y82.5117
G01 X33.9864 Y82.6276
G01 X33.9745 Y82.7429
G01 X33.9541 Y82.8570
G01 X33.9254 Y82.9693
G01 X33.8884 Y83.0791
G01 X33.8434 Y83.1859
G01 X33.7906 Y83.2892
G01 X33.7304 Y83.3882
G01 X33.6630 Y83.4825
G01 X33.5889 Y83.5716
G01 X33.5083 Y83.6550
G01 X33.4219 Y83.7321
G01 X33.3299 Y83.8027
G01 X33.2331 Y83.8664
G01 X33.1317 Y83.9226
G01 X33.0265 Y83.9713
G01 X32.6570 Y84.1334
G01 X32.2822 Y84.2827
G01 X31.9025 Y84.4191
G01 X31.5183 Y84.5424
G01 X40.2875
G01 X39.8838 Y84.4200
G01 X39.4866 Y84.2782
G01 X39.0967 Y84.1174
G01 X38.7151 Y83.9378
G01 X38.6326 Y83.9003
G01 X38.5526 Y83.8579
G01 X38.4753 Y83.8107
G01 X38.4009 Y83.7590
G01 X38.3298 Y83.7029
G01 X38.2623 Y83.6426
G01 X38.1984 Y83.5783
G01 X38.1386 Y83.5103
G01 X38.0830 Y83.4389
G01 X38.0318 Y83.3642
G01 X37.9852 Y83.2865
G01 X37.9433 Y83.2062
G01 X37.9064 Y83.1235
G01 X37.8745 Y83.0387
G01 X37.8478 Y82.9522
G01 X37.8264 Y82.8642
G01 X37.6305 Y82.9046
M107
G00 Z2.0000


;No. 25: Hole 22
G00 X66.0007 Y82.9046 Z2.0000
G00 Z0.5000
G01 Z0.0000 F400
G01 Z-1.1000
M106 S240
G01 X69.4530 F1000
G01 X69.4423 Y81.4046
G01 X66.0429
G01 Y79.9046
G01 X69.4423
G01 Y78.4046
G01 X66.0429
G01 Y76.9046
G01 X69.4423
G01 Y75.4046
G01 X69.9781
G01 X66.0429
G01 Y73.9046
G01 X69.4517
G01 X69.4423 Y72.4046
G01 X66.0429
G01 Y70.9046
G01 X69.4423
G01 Y69.4046
G01 X66.0429
G01 Y67.9046
G01 X69.4423
G01 X69.4530 Y66.4046
G01 X65.9941
M107
G00 Z2.0000
G00 X76.7970 Y73.9046
G00 Z0.5000
G01 Z0.0000 F400
G01 Z-1.1000
M106 S240
G01 X77.5614 F1000
G01 Y75.4046
G01 X76.0210
G01 X77.0532
G01 Y76.9046
G01 X77.5614
M107
G00 Z2.0000
G00 X81.2464 Y81.4046
G00 Z0.5000
G01 Z0.0000 F400
G01 Z-1.1000
M106 S240
G01 X81.9823 F1000
G01 Y82.9046
G01 X80.7686
M107
G00 Z2.0000
G00 X82.4591 Y67.9046
G00 Z0.5000
G01 Z0.0000 F400
G01 Z-1.1000
M106 S240
G01 X83.2262 F1000
G01 Y66.4046
G01 X82.0056
G01 X81.8411 Y66.5224
G01 X81.8822 Y66.6071
G01 X81.9185 Y66.6940
G01 X81.9500 Y66.7826
G01 X81.9767 Y66.8729
G01 X82.6392 Y69.3550
G01 X83.4262
G01 Y64.7668
G01 X63.3714
G01 X63.7599 Y64.8853
G01 X64.1429 Y65.0204
G01 X64.5197 Y65.1721
G01 X64.8896 Y65.3398
G01 X64.9964 Y65.3922
G01 X65.0990 Y65.4524
G01 X65.1969 Y65.5199
G01 X65.2896 Y65.5945
G01 X65.3765 Y65.6758
G01 X65.4571 Y65.7632
G01 X65.5311 Y65.8564
G01 X65.5979 Y65.9548
G01 X65.6574 Y66.0578
G01 X65.7090 Y66.1650
G01 X65.7526 Y66.2756
G01 X65.7879 Y66.3892
G01 X65.8147 Y66.5051
G01 X65.8328 Y66.6227
G01 X65.8423 Y66.7413
G01 X65.8429 Y66.8602
G01 Y82.5117
G01 X65.8398 Y82.6094
G01 X65.8309 Y82.7066
G01 X65.8160 Y82.8031
G01 X65.7953 Y82.8986
G01 X65.7689 Y82.9926
G01 X65.7368 Y83.0849
G01 X65.6991 Y83.1750
G01 X65.6561 Y83.2627
G01 X65.6079 Y83.3476
G01 X65.5545 Y83.4295
G01 X65.4964 Y83.5079
G01 X65.4335 Y83.5827
G01 X65.3663 Y83.6535
G01 X65.2949 Y83.7202
G01 X65.2195 Y83.7823
G01 X65.1406 Y83.8398
G01 X65.0583 Y83.8924
G01 X64.9729 Y83.9399
G01 X64.8849 Y83.9822
G01 X64.7944 Y84.0190
G01 X64.4412 Y84.1594
G01 X64.0855 Y84.2935
G01 X63.7276 Y84.4214
G01 X63.3674 Y84.5430
G01 X82.1823 Y84.5424
G01 Y80.2993
G01 X81.3604
G01 X80.7262 Y82.4736
G01 X80.6933 Y82.5814
G01 X80.6534 Y82.6869
G01 X80.6067 Y82.7896
G01 X80.5534 Y82.8890
G01 X80.4938 Y82.9847
G01 X80.4280 Y83.0764
G01 X80.3564 Y83.1635
G01 X80.2792 Y83.2458
G01 X80.1969 Y83.3228
G01 X80.1097 Y83.3943
G01 X80.0180 Y83.4600
G01 X79.9222 Y83.5196
G01 X79.8227 Y83.5728
G01 X79.7200 Y83.6193
G01 X79.6145 Y83.6591
G01 X79.5066 Y83.6919
G01 X79.3967 Y83.7176
G01 X79.2855 Y83.7360
G01 X79.1733 Y83.7472
G01 X79.0605 Y83.7510
G01 X70.6423
G01 X70.5986 Y83.7501
G01 X70.5551 Y83.7472
G01 X70.5117 Y83.7425
G01 X70.4686 Y83.7358
G01 X70.4258 Y83.7273
G01 X70.3834 Y83.7169
G01 X70.3416 Y83.7047
G01 X70.3002 Y83.6907
G01 X70.2596 Y83.6749
G01 X70.2196 Y83.6573
G01 X70.1805 Y83.6380
G01 X70.1423 Y83.6170
G01 X70.1050 Y83.5944
G01 X70.0687 Y83.5702
G01 X70.0335 Y83.5444
G01 X69.9995 Y83.5171
G01 X69.9667 Y83.4883
G01 X69.9352 Y83.4581
G01 X69.9050 Y83.4266
G01 X69.8762 Y83.3938
G01 X69.8489 Y83.3598
G01 X69.8231 Y83.3246
G01 X69.7989 Y83.2883
G01 X69.7762 Y83.2510
G01 X69.7553 Y83.2128
G01 X69.7360 Y83.1736
G01 X69.7184 Y83.1337
G01 X69.7026 Y83.0930
G01 X69.6885 Y83.0517
G01 X69.6763 Y83.0098
G01 X69.6660 Y82.9675
G01 X69.6575 Y82.9247
G01 X69.6508 Y82.8815
G01 X69.6461 Y82.8382
G01 X69.6432 Y82.7946
G01 X69.6423 Y82.7510
G01 Y76.4029
G01 X69.6453 Y76.3245
G01 X69.6546 Y76.2465
G01 X69.6699 Y76.1695
G01 X69.6912 Y76.0939
G01 X69.7184 Y76.0203
G01 X69.7513 Y75.9489
G01 X69.7896 Y75.8804
G01 X69.8332 Y75.8152
G01 X69.8819 Y75.7535
G01 X69.9352 Y75.6958
G01 X69.9928 Y75.6425
G01 X70.0545 Y75.5939
G01 X70.1198 Y75.5503
G01 X70.1883 Y75.5119
G01 X70.2596 Y75.4791
G01 X70.3332 Y75.4519
G01 X70.4088 Y75.4306
G01 X70.4858 Y75.4152
G01 X70.5638 Y75.4060
G01 X70.6423 Y75.4029
G01 X75.0888
G01 X75.1890 Y75.3986
G01 X75.2892 Y75.4008
G01 X75.3891 Y75.4094
G01 X75.4882 Y75.4246
G01 X75.5861 Y75.4462
G01 X75.6824 Y75.4741
G01 X75.7767 Y75.5082
G01 X75.8685 Y75.5484
G01 X75.9576 Y75.5944
G01 X76.0434 Y75.6462
G01 X76.1258 Y75.7034
G01 X76.2042 Y75.7659
G01 X76.2784 Y75.8333
G01 X76.3480 Y75.9054
G01 X76.4128 Y75.9819
G01 X76.4725 Y76.0625
G01 X76.5269 Y76.1467
G01 X76.5756 Y76.2343
G01 X76.6185 Y76.3249
G01 X76.6555 Y76.4181
G01 X76.8474 Y76.8850
G01 X77.0268 Y77.3569
G01 X77.1933 Y77.8335
G01 X77.3468 Y78.3143
G01 X77.7614
G01 Y71.8502
G01 X77.3453
G01 X77.1886 Y72.3230
G01 X77.0226 Y72.7925
G01 X76.8474 Y73.2587
G01 X76.6630 Y73.7214
G01 X76.6245 Y73.8144
G01 X76.5804 Y73.9048
G01 X76.5307 Y73.9923
G01 X76.4756 Y74.0765
G01 X76.4153 Y74.1571
G01 X76.3502 Y74.2337
G01 X76.2803 Y74.3062
G01 X76.2061 Y74.3741
G01 X76.1278 Y74.4373
G01 X76.0457 Y74.4954
G01 X75.9601 Y74.5483
G01 X75.8714 Y74.5958
G01 X75.7798 Y74.6376
G01 X75.6859 Y74.6736
G01 X75.5899 Y74.7037
G01 X75.4922 Y74.7277
G01 X75.3931 Y74.7456
G01 X75.2932 Y74.7572
G01 X75.1927 Y74.7626
G01 X75.0921 Y74.7617
G01 X70.6423
G01 X70.5638 Y74.7586
G01 X70.4858 Y74.7493
G01 X70.4088 Y74.7340
G01 X70.3332 Y74.7127
G01 X70.2596 Y74.6855
G01 X70.1883 Y74.6527
G01 X70.1198 Y74.6143
G01 X70.0545 Y74.5707
G01 X69.9928 Y74.5221
G01 X69.9352 Y74.4688
G01 X69.8819 Y74.4111
G01 X69.8332 Y74.3494
G01 X69.7896 Y74.2842
G01 X69.7513 Y74.2156
G01 X69.7184 Y74.1443
G01 X69.6912 Y74.0707
G01 X69.6699 Y73.9951
G01 X69.6546 Y73.9181
G01 X69.6453 Y73.8401
G01 X69.6423 Y73.7617
G01 Y66.5582
G01 X69.6453 Y66.4797
G01 X69.6546 Y66.4017
G01 X69.6699 Y66.3247
G01 X69.6912 Y66.2491
G01 X69.7184 Y66.1755
G01 X69.7513 Y66.1042
G01 X69.7896 Y66.0357
G01 X69.8332 Y65.9704
G01 X69.8819 Y65.9087
G01 X69.9352 Y65.8511
G01 X69.9928 Y65.7978
G01 X70.0545 Y65.7491
G01 X70.1198 Y65.7055
G01 X70.1883 Y65.6672
G01 X70.2596 Y65.6343
G01 X70.3332 Y65.6071
G01 X70.4088 Y65.5858
G01 X70.4858 Y65.5705
G01 X70.5638 Y65.5612
G01 X70.6423 Y65.5582
G01 X80.3262
G01 X80.4438 Y65.5656
G01 X80.5606 Y65.5808
G01 X80.6761 Y65.6039
G01 X80.7898 Y65.6347
G01 X80.9012 Y65.6731
G01 X81.0098 Y65.7188
G01 X81.1150 Y65.7718
G01 X81.2165 Y65.8316
G01 X81.3137 Y65.8982
G01 X81.4062 Y65.9712
G01 X81.4936 Y66.0501
G01 X81.5755 Y66.1348
G01 X81.6515 Y66.2248
G01 X81.7213 Y66.3197
G01 X81.7846 Y66.4191
G01 X81.8411 Y66.5224
G01 X82.0056 Y66.4046
M107
G00 Z2.0000


;No. 26: Hole 23
G00 X92.8883 Y66.4046 Z2.0000
G00 Z0.5000
G01 Z0.0000 F400
G01 Z-1.1000
M106 S240
G01 X96.3840 F1000
G01 X96.3352 Y67.9046
G01 X92.9358
G01 Y69.4046
G01 X96.3352
G01 Y70.9046
G01 X92.9358
G01 Y72.4046
G01 X96.3352
G01 Y73.9046
G01 X92.9358
G01 Y75.4046
G01 X96.3352
G01 Y76.9046
G01 X92.9358
G01 Y78.4046
G01 X96.3352
G01 Y79.9046
G01 X92.9358
G01 Y81.4046
G01 X96.3352
G01 X96.3762 Y82.9046
G01 X92.8936
G01 X92.6911 Y82.8925
G01 X92.6597 Y82.9964
G01 X92.6218 Y83.0981
G01 X92.5775 Y83.1972
G01 X92.5269 Y83.2933
G01 X92.4703 Y83.3859
G01 X92.4078 Y83.4747
G01 X92.3398 Y83.5593
G01 X92.2665 Y83.6394
G01 X92.1883 Y83.7146
G01 X92.1054 Y83.7847
G01 X92.0182 Y83.8493
G01 X91.9270 Y83.9082
G01 X91.8322 Y83.9612
G01 X91.7343 Y84.0079
G01 X91.6335 Y84.0484
G01 X91.5304 Y84.0823
G01 X91.4621 Y84.1055
G01 X90.1862 Y84.5424
G01 X99.1116
G01 X98.6955 Y84.4239
G01 X98.2851 Y84.2872
G01 X97.8811 Y84.1325
G01 X97.4843 Y83.9602
G01 X97.3792 Y83.9130
G01 X97.2779 Y83.8580
G01 X97.1812 Y83.7954
G01 X97.0894 Y83.7257
G01 X97.0032 Y83.6492
G01 X96.9231 Y83.5664
G01 X96.8495 Y83.4778
G01 X96.7827 Y83.3838
G01 X96.7233 Y83.2851
G01 X96.6716 Y83.1821
G01 X96.6278 Y83.0756
G01 X96.5922 Y82.9660
G01 X96.5650 Y82.8540
G01 X96.5464 Y82.7403
G01 X96.5364 Y82.6255
G01 X96.5352 Y82.5103
G01 Y66.8602
G01 X96.5351 Y66.7584
G01 X96.5415 Y66.6568
G01 X96.5543 Y66.5558
G01 X96.5735 Y66.4559
G01 X96.5990 Y66.3573
G01 X96.6307 Y66.2606
G01 X96.6685 Y66.1660
G01 X96.7121 Y66.0740
G01 X96.7615 Y65.9850
G01 X96.8165 Y65.8993
G01 X96.8768 Y65.8173
G01 X96.9421 Y65.7392
G01 X97.0123 Y65.6655
G01 X97.0870 Y65.5963
G01 X97.1659 Y65.5320
G01 X97.2487 Y65.4728
G01 X97.3351 Y65.4190
G01 X97.4248 Y65.3708
G01 X97.5173 Y65.3284
G01 X97.6124 Y65.2919
G01 X97.9835 Y65.1503
G01 X98.3572 Y65.0156
G01 X98.7333 Y64.8877
G01 X99.1116 Y64.7668
G01 X90.1862
G01 X90.5911 Y64.8812
G01 X90.9905 Y65.0137
G01 X91.3836 Y65.1639
G01 X91.7695 Y65.3315
G01 X91.8573 Y65.3713
G01 X91.9425 Y65.4163
G01 X92.0248 Y65.4665
G01 X92.1039 Y65.5217
G01 X92.1794 Y65.5816
G01 X92.2511 Y65.6460
G01 X92.3188 Y65.7146
G01 X92.3821 Y65.7873
G01 X92.4408 Y65.8637
G01 X92.4948 Y65.9436
G01 X92.5437 Y66.0267
G01 X92.5875 Y66.1125
G01 X92.6259 Y66.2009
G01 X92.6589 Y66.2915
G01 X92.6862 Y66.3840
G01 X92.7078 Y66.4779
G01 X92.7236 Y66.5730
G01 X92.7336 Y66.6689
G01 X92.7377 Y66.7652
G01 X92.7358 Y66.8615
G01 Y82.5117
G01 X92.7330 Y82.6077
G01 X92.7246 Y82.7034
G01 X92.7106 Y82.7984
G01 X92.6911 Y82.8925
G01 X92.8936 Y82.9046
M107
G00 Z2.0000


;No. 27: Hole 24
G00 X109.1950 Y82.9046 Z2.0000
G00 Z0.5000
G01 Z0.0000 F400
G01 Z-1.1000
M106 S240
G01 X111.0875 F1000
G01 X110.2484
G01 Y81.4046
G01 X109.2360
G01 Y79.9046
G01 X110.2484
G01 Y78.4046
G01 X109.2360
G01 Y76.9046
G01 X110.2484
G01 Y75.4046
G01 X109.2360
G01 Y73.9046
G01 X110.2484
G01 Y72.4046
G01 X109.2360
G01 Y70.9046
G01 X110.2484
G01 Y69.4046
G01 X109.2360
G01 Y67.9046
G01 X110.2484
G01 X110.3218 Y66.4046
G01 X109.1583
M107
G00 Z2.0000
G00 X117.7447 Y69.4046
G00 Z0.5000
G01 Z0.0000 F400
G01 Z-1.1000
M106 S240
G01 X123.2542 F1000
G01 X122.6726 Y67.9046
G01 X118.3213
G01 X118.8979 Y66.4046
G01 X121.9994
G01 X120.2742 Y70.9046
G01 X117.1682
G01 X116.5916 Y72.4046
G01 X119.8363
G01 X119.2903 Y73.9046
G01 X116.0151
G01 X115.4385 Y75.4046
G01 X118.7140
G01 X118.1377 Y76.9046
G01 X114.8620
G01 X114.2854 Y78.4046
G01 X117.5614
G01 X116.9852 Y79.9046
G01 X113.7089
G01 X113.2144 Y81.4046
G01 X116.4089
G01 X115.8326 Y82.9046
G01 X112.1960
M107
G00 Z2.0000
G00 X126.1288 Y78.4046
G00 Z0.5000
G01 Z0.0000 F400
G01 Z-1.1000
M106 S240
G01 X126.7438 F1000
G01 X126.6878 Y79.9046
G01 X127.3254
G01 X127.2468 Y81.4046
G01 X127.8536
G01 X127.8058 Y82.9046
G01 X134.2145
G01 X134.1686 Y81.4046
G01 X130.8533
G01 Y79.9046
G01 X134.1686
G01 Y78.4046
G01 X130.8533
G01 Y76.9046
G01 X134.1686
G01 Y75.4046
G01 X130.8533
G01 Y73.9046
G01 X134.1686
G01 Y72.4046
G01 X130.8533
G01 Y70.9046
G01 X134.1686
G01 Y69.4046
G01 X130.8533
G01 Y67.9046
G01 X134.1686
G01 X134.2202 Y66.4046
G01 X130.8017
M107
G00 Z2.0000
G00 X126.1622 Y78.4046
G00 Z0.5000
G01 Z-1.1000 F400
M106 S240
G01 Y76.9046 F1000
G01 X125.5698
G01 X125.5806 Y75.4046
G01 X125.0107
G01 X124.4517 Y73.9046
G01 X124.9990
G01 X123.8927 Y72.4046
G01 X124.4174
G01 X123.3337 Y70.9046
G01 X123.8358
G01 X124.0235 Y70.8355
G01 X122.7154 Y67.4617
G01 X121.4531 Y64.7668
G01 X119.3131
G01 X113.5003 Y79.8897
G01 X112.7853 Y82.0719
G01 X112.7580 Y82.1454
G01 X112.7250 Y82.2164
G01 X112.6866 Y82.2847
G01 X112.6429 Y82.3498
G01 X112.5943 Y82.4113
G01 X112.5410 Y82.4687
G01 X112.4834 Y82.5218
G01 X112.4218 Y82.5703
G01 X112.3566 Y82.6137
G01 X112.2882 Y82.6520
G01 X112.2170 Y82.6847
G01 X112.1435 Y82.7118
G01 X112.0680 Y82.7330
G01 X111.9912 Y82.7483
G01 X111.9133 Y82.7575
G01 X111.8350 Y82.7605
G01 X111.7381 Y82.7739
G01 X111.6406 Y82.7807
G01 X111.5428 Y82.7810
G01 X111.4452 Y82.7746
G01 X111.3483 Y82.7617
G01 X111.2524 Y82.7423
G01 X111.1581 Y82.7165
G01 X111.0657 Y82.6844
G01 X111.0272 Y82.6675
G01 X110.9894 Y82.6490
G01 X110.9525 Y82.6289
G01 X110.9164 Y82.6073
G01 X110.8812 Y82.5841
G01 X110.8471 Y82.5595
G01 X110.8140 Y82.5335
G01 X110.7820 Y82.5062
G01 X110.7513 Y82.4775
G01 X110.7217 Y82.4475
G01 X110.6935 Y82.4164
G01 X110.6666 Y82.3840
G01 X110.6410 Y82.3506
G01 X110.6169 Y82.3161
G01 X110.5943 Y82.2806
G01 X110.5732 Y82.2442
G01 X110.5536 Y82.2070
G01 X110.5356 Y82.1690
G01 X110.5192 Y82.1302
G01 X110.5045 Y82.0908
G01 X110.4915 Y82.0508
G01 X110.4801 Y82.0103
G01 X110.4704 Y81.9694
G01 X110.4625 Y81.9280
G01 X110.4564 Y81.8864
G01 X110.4519 Y81.8446
G01 X110.4493 Y81.8026
G01 X110.4484 Y81.7605
G01 Y66.9502
G01 X110.4481 Y66.8517
G01 X110.4540 Y66.7533
G01 X110.4660 Y66.6555
G01 X110.4842 Y66.5587
G01 X110.5084 Y66.4631
G01 X110.5386 Y66.3693
G01 X110.5747 Y66.2776
G01 X110.6164 Y66.1883
G01 X110.6637 Y66.1019
G01 X110.7163 Y66.0185
G01 X110.7740 Y65.9387
G01 X110.8367 Y65.8626
G01 X110.9040 Y65.7906
G01 X110.9757 Y65.7231
G01 X111.0515 Y65.6601
G01 X111.1311 Y65.6020
G01 X111.2143 Y65.5491
G01 X111.3005 Y65.5015
G01 X111.3896 Y65.4594
G01 X111.4812 Y65.4230
G01 X111.8710 Y65.2536
G01 X112.2624 Y65.0878
G01 X112.6552 Y64.9255
G01 X113.0495 Y64.7668
G01 X106.4045
G01 X106.8332 Y64.9184
G01 X107.2558 Y65.0861
G01 X107.6717 Y65.2697
G01 X108.0804 Y65.4690
G01 X108.1866 Y65.5181
G01 X108.2889 Y65.5751
G01 X108.3865 Y65.6395
G01 X108.4791 Y65.7112
G01 X108.5659 Y65.7895
G01 X108.6467 Y65.8742
G01 X108.7208 Y65.9648
G01 X108.7880 Y66.0606
G01 X108.8477 Y66.1612
G01 X108.8997 Y66.2661
G01 X108.9437 Y66.3745
G01 X108.9794 Y66.4860
G01 X109.0066 Y66.5998
G01 X109.0251 Y66.7153
G01 X109.0350 Y66.8319
G01 X109.0360 Y66.9489
G01 Y82.5103
G01 X109.0347 Y82.6081
G01 X109.0273 Y82.7057
G01 X109.0137 Y82.8026
G01 X108.9942 Y82.8985
G01 X108.9687 Y82.9929
G01 X108.9374 Y83.0856
G01 X108.9003 Y83.1762
G01 X108.8577 Y83.2642
G01 X108.8096 Y83.3494
G01 X108.7563 Y83.4315
G01 X108.6980 Y83.5101
G01 X108.6349 Y83.5848
G01 X108.5673 Y83.6555
G01 X108.4953 Y83.7219
G01 X108.4194 Y83.7836
G01 X108.3398 Y83.8404
G01 X108.2568 Y83.8922
G01 X108.1707 Y83.9387
G01 X108.0818 Y83.9797
G01 X107.9906 Y84.0151
G01 X107.6365 Y84.1562
G01 X107.2801 Y84.2913
G01 X106.9214 Y84.4202
G01 X106.5606 Y84.5430
G01 X115.4176 Y84.5424
G01 X119.9303 Y72.7964
G01 X120.6415 Y70.3599
G01 X120.6672 Y70.2837
G01 X120.6988 Y70.2098
G01 X120.7363 Y70.1387
G01 X120.7794 Y70.0708
G01 X120.8278 Y70.0066
G01 X120.8812 Y69.9465
G01 X120.9392 Y69.8908
G01 X121.0016 Y69.8401
G01 X121.0678 Y69.7945
G01 X121.1374 Y69.7543
G01 X121.2101 Y69.7199
G01 X121.2853 Y69.6914
G01 X121.3625 Y69.6691
G01 X121.4413 Y69.6530
G01 X121.5211 Y69.6434
G01 X121.6015 Y69.6401
G01 X121.7047 Y69.6265
G01 X121.8086 Y69.6209
G01 X121.9126 Y69.6232
G01 X122.0162 Y69.6334
G01 X122.1187 Y69.6515
G01 X122.2195 Y69.6774
G01 X122.3180 Y69.7109
G01 X122.4137 Y69.7518
G01 X122.4541 Y69.7739
G01 X122.4935 Y69.7978
G01 X122.5317 Y69.8236
G01 X122.5687 Y69.8510
G01 X122.6044 Y69.8802
G01 X122.6388 Y69.9109
G01 X122.6716 Y69.9432
G01 X122.7030 Y69.9770
G01 X122.7327 Y70.0122
G01 X122.7608 Y70.0487
G01 X122.7872 Y70.0865
G01 X122.8118 Y70.1254
G01 X122.8346 Y70.1655
G01 X122.8556 Y70.2065
G01 X122.8746 Y70.2485
G01 X122.8917 Y70.2913
G01 X128.2017 Y84.5424
G01 X136.8770
G01 X136.4614 Y84.4165
G01 X136.0530 Y84.2692
G01 X135.6528 Y84.1009
G01 X135.2619 Y83.9119
G01 X135.1636 Y83.8632
G01 X135.0691 Y83.8075
G01 X134.9788 Y83.7451
G01 X134.8933 Y83.6763
G01 X134.8130 Y83.6016
G01 X134.7383 Y83.5212
G01 X134.6696 Y83.4357
G01 X134.6072 Y83.3454
G01 X134.5515 Y83.2509
G01 X134.5028 Y83.1526
G01 X134.4614 Y83.0510
G01 X134.4273 Y82.9467
G01 X134.4009 Y82.8402
G01 X134.3823 Y82.7320
G01 X134.3715 Y82.6228
G01 X134.3686 Y82.5132
G01 Y66.8589
G01 X134.3691 Y66.7616
G01 X134.3755 Y66.6644
G01 X134.3879 Y66.5679
G01 X134.4061 Y66.4722
G01 X134.4301 Y66.3779
G01 X134.4598 Y66.2852
G01 X134.4951 Y66.1945
G01 X134.5359 Y66.1061
G01 X134.5820 Y66.0204
G01 X134.6332 Y65.9376
G01 X134.6894 Y65.8581
G01 X134.7504 Y65.7822
G01 X134.8158 Y65.7101
G01 X134.8856 Y65.6422
G01 X134.9593 Y65.5787
G01 X135.0368 Y65.5198
G01 X135.1177 Y65.4657
G01 X135.2018 Y65.4166
G01 X135.2887 Y65.3728
G01 X135.3782 Y65.3344
G01 X135.7478 Y65.1793
G01 X136.1209 Y65.0330
G01 X136.4974 Y64.8955
G01 X136.8770 Y64.7668
G01 X128.1518
G01 X128.5517 Y64.8903
G01 X128.9454 Y65.0325
G01 X129.3320 Y65.1930
G01 X129.7106 Y65.3714
G01 X129.8159 Y65.4220
G01 X129.9172 Y65.4802
G01 X130.0138 Y65.5458
G01 X130.1054 Y65.6185
G01 X130.1912 Y65.6977
G01 X130.2709 Y65.7831
G01 X130.3441 Y65.8742
G01 X130.4103 Y65.9705
G01 X130.4691 Y66.0714
G01 X130.5202 Y66.1764
G01 X130.5634 Y66.2850
G01 X130.5984 Y66.3965
G01 X130.6250 Y66.5102
G01 X130.6431 Y66.6256
G01 X130.6526 Y66.7421
G01 X130.6533 Y66.8589
G01 Y81.7605
G01 X130.6524 Y81.8041
G01 X130.6495 Y81.8477
G01 X130.6448 Y81.8911
G01 X130.6381 Y81.9342
G01 X130.6296 Y81.9770
G01 X130.6193 Y82.0193
G01 X130.6070 Y82.0612
G01 X130.5930 Y82.1026
G01 X130.5772 Y82.1432
G01 X130.5596 Y82.1831
G01 X130.5403 Y82.2223
G01 X130.5194 Y82.2605
G01 X130.4967 Y82.2978
G01 X130.4725 Y82.3341
G01 X130.4467 Y82.3693
G01 X130.4194 Y82.4033
G01 X130.3906 Y82.4361
G01 X130.3604 Y82.4676
G01 X130.3289 Y82.4978
G01 X130.2961 Y82.5266
G01 X130.2621 Y82.5539
G01 X130.2269 Y82.5797
G01 X130.1906 Y82.6039
G01 X130.1533 Y82.6266
G01 X130.1151 Y82.6475
G01 X130.0759 Y82.6668
G01 X130.0360 Y82.6844
G01 X129.9953 Y82.7002
G01 X129.9540 Y82.7142
G01 X129.9121 Y82.7265
G01 X129.8698 Y82.7368
G01 X129.8270 Y82.7453
G01 X129.7839 Y82.7520
G01 X129.7405 Y82.7567
G01 X129.6969 Y82.7596
G01 X129.6533 Y82.7605
G01 X129.5539 Y82.7743
G01 X129.4538 Y82.7814
G01 X129.3534 Y82.7817
G01 X129.2532 Y82.7753
G01 X129.1537 Y82.7621
G01 X129.0553 Y82.7423
G01 X128.9585 Y82.7158
G01 X128.8637 Y82.6829
G01 X128.8254 Y82.6660
G01 X128.7879 Y82.6474
G01 X128.7512 Y82.6273
G01 X128.7154 Y82.6057
G01 X128.6805 Y82.5826
G01 X128.6466 Y82.5580
G01 X128.6137 Y82.5321
G01 X128.5820 Y82.5048
G01 X128.5514 Y82.4762
G01 X128.5221 Y82.4463
G01 X128.4940 Y82.4153
G01 X128.4673 Y82.3831
G01 X128.4419 Y82.3498
G01 X128.4180 Y82.3155
G01 X128.3955 Y82.2802
G01 X128.3745 Y82.2439
G01 X128.3550 Y82.2069
G01 X128.3372 Y82.1691
G01 X128.3209 Y82.1305
G01 X128.3062 Y82.0913
G01 X127.5384 Y79.9007
G01 X124.0235 Y70.8355
G01 X123.8358 Y70.9046
M107
G00 Z2.0000


;No. 28: Hole 30
G00 X143.9673 Y65.8197 Z2.0000
G00 Z0.5000
G01 Z0.0000 F400
G01 Z-1.1000
M106 S240
G01 X145.3071 F1000
G01 Y67.3197
G01 X145.5870
G01 X144.6829
G01 X145.3504 Y68.8197
G01 X146.2355
G01 X146.0179 Y70.3197
G01 X146.8840
G01 X146.6854 Y71.8197
G01 X161.2898
G01 X161.9335 Y70.3197
G01 X158.4644
G01 X159.1514 Y68.8197
G01 X162.5772
G01 X163.2209 Y67.3197
G01 X159.8385
G01 X160.2047
G01 Y65.8197
G01 X163.9035
M107
G00 Z2.0000
G00 X160.6461 Y71.8197
G00 Z0.5000
G01 Z-1.1000 F400
M106 S240
G01 Y73.3197 F1000
G01 X157.0832
G01 X156.4875 Y74.8197
G01 X160.0024
G01 X159.3587 Y76.3197
G01 X155.8362
G01 X155.1849 Y77.8197
G01 X158.7150
G01 X158.0714 Y79.3197
G01 X154.5863
G01 X154.1382 Y80.8197
G01 X157.4277
G01 X156.7840 Y82.3197
G01 X151.4290
G01 X152.2690 Y83.8197
G01 X156.1403
M107
G00 Z2.0000
G00 X148.2811 Y71.8197
G00 Z0.5000
G01 Z-1.1000 F400
M106 S240
G01 Y73.3197 F1000
G01 X147.3529
G01 X148.0204 Y74.8197
G01 X148.8652
G01 X148.6879 Y76.3197
G01 X149.5017
G01 X149.3554 Y77.8197
G01 X150.1381
G01 X150.0229 Y79.3197
G01 X150.7746
G01 X150.6905 Y80.8197
G01 X150.5000 Y80.8836
G01 X150.9043 Y81.7922
G01 X152.6295 Y84.8725
G01 X155.9061
G01 X163.8909 Y66.2654
G01 X163.9380 Y66.1561
G01 X163.9904 Y66.0492
G01 X164.0481 Y65.9451
G01 X164.1108 Y65.8440
G01 X164.1785 Y65.7462
G01 X164.2510 Y65.6518
G01 X164.3280 Y65.5611
G01 X164.4095 Y65.4743
G01 X164.4951 Y65.3917
G01 X164.5848 Y65.3135
G01 X164.6782 Y65.2397
G01 X164.7752 Y65.1708
G01 X164.8754 Y65.1067
G01 X164.9788 Y65.0476
G01 X165.0849 Y64.9938
G01 X165.1936 Y64.9453
G01 X165.6543 Y64.7668
G01 X158.1358
G01 X159.3858 Y65.2099
G01 X159.4628 Y65.2408
G01 X159.5371 Y65.2779
G01 X159.6080 Y65.3211
G01 X159.6751 Y65.3700
G01 X159.7379 Y65.4243
G01 X159.7960 Y65.4837
G01 X159.8490 Y65.5476
G01 X159.8965 Y65.6157
G01 X159.9381 Y65.6876
G01 X159.9737 Y65.7626
G01 X160.0029 Y65.8403
G01 X160.0256 Y65.9202
G01 X160.0415 Y66.0017
G01 X160.0507 Y66.0842
G01 X160.0529 Y66.1672
G01 X160.0483 Y66.2501
G01 X160.0368 Y66.3323
G01 X160.0185 Y66.4133
G01 X159.9936 Y66.4925
G01 X159.9622 Y66.5694
G01 X157.9618 Y70.9365
G01 X157.9410 Y70.9793
G01 X157.9182 Y71.0210
G01 X157.8934 Y71.0616
G01 X157.8667 Y71.1009
G01 X157.8382 Y71.1389
G01 X157.8079 Y71.1756
G01 X157.7758 Y71.2107
G01 X157.7422 Y71.2443
G01 X157.7070 Y71.2763
G01 X157.6703 Y71.3065
G01 X157.6322 Y71.3350
G01 X157.5928 Y71.3616
G01 X157.5522 Y71.3864
G01 X157.5105 Y71.4091
G01 X157.4677 Y71.4299
G01 X157.4240 Y71.4486
G01 X157.3794 Y71.4652
G01 X157.3341 Y71.4797
G01 X157.2882 Y71.4919
G01 X157.2417 Y71.5020
G01 X157.1948 Y71.5099
G01 X157.1476 Y71.5156
G01 X157.1002 Y71.5189
G01 X157.0527 Y71.5201
G01 X148.2780
G01 X148.2365 Y71.5192
G01 X148.1950 Y71.5166
G01 X148.1537 Y71.5123
G01 X148.1126 Y71.5063
G01 X148.0718 Y71.4986
G01 X148.0314 Y71.4892
G01 X147.9914 Y71.4781
G01 X147.9518 Y71.4654
G01 X147.9129 Y71.4510
G01 X147.8745 Y71.4351
G01 X147.8369 Y71.4176
G01 X147.8000 Y71.3985
G01 X147.7640 Y71.3779
G01 X147.7288 Y71.3558
G01 X147.6946 Y71.3323
G01 X147.6614 Y71.3074
G01 X147.6292 Y71.2811
G01 X147.5982 Y71.2535
G01 X147.5683 Y71.2246
G01 X147.5397 Y71.1946
G01 X147.5123 Y71.1633
G01 X147.4863 Y71.1310
G01 X147.4616 Y71.0976
G01 X147.4383 Y71.0632
G01 X147.4165 Y71.0279
G01 X147.3962 Y70.9917
G01 X147.3774 Y70.9547
G01 X147.3601 Y70.9169
G01 X145.5110 Y66.6398
G01 X145.4818 Y66.5639
G01 X145.4589 Y66.4859
G01 X145.4423 Y66.4062
G01 X145.4323 Y66.3255
G01 X145.4289 Y66.2442
G01 X145.4321 Y66.1629
G01 X145.4419 Y66.0822
G01 X145.4583 Y66.0025
G01 X145.4810 Y65.9244
G01 X145.5101 Y65.8484
G01 X145.5452 Y65.7750
G01 X145.5861 Y65.7047
G01 X145.6327 Y65.6380
G01 X145.6845 Y65.5753
G01 X145.7412 Y65.5170
G01 X145.8025 Y65.4635
G01 X145.8679 Y65.4152
G01 X145.9370 Y65.3723
G01 X146.0094 Y65.3352
G01 X146.0846 Y65.3041
G01 X147.5066 Y64.7668
G01 X142.0951
G01 X142.3980 Y64.8765
G01 X142.6914 Y65.0094
G01 X142.9735 Y65.1648
G01 X143.2427 Y65.3417
G01 X143.3253 Y65.4073
G01 X143.4050 Y65.4762
G01 X143.4818 Y65.5485
G01 X143.5555 Y65.6238
G01 X143.6260 Y65.7022
G01 X143.6932 Y65.7834
G01 X143.7570 Y65.8674
G01 X143.8172 Y65.9539
G01 X143.8737 Y66.0429
G01 X143.9265 Y66.1342
G01 X143.9754 Y66.2276
G01 X144.0204 Y66.3229
G01 X150.5000 Y80.8836
G01 X150.6905 Y80.8197
G01 X151.4111
G01 X151.5652 Y80.6708
G01 X148.5509 Y73.5670
G01 X148.5343 Y73.5253
G01 X148.5196 Y73.4830
G01 X148.5069 Y73.4400
G01 X148.4960 Y73.3966
G01 X148.4871 Y73.3526
G01 X148.4802 Y73.3084
G01 X148.4753 Y73.2638
G01 X148.4724 Y73.2191
G01 X148.4715 Y73.1743
G01 X148.4726 Y73.1295
G01 X148.4757 Y73.0848
G01 X148.4808 Y73.0402
G01 X148.4879 Y72.9960
G01 X148.4969 Y72.9521
G01 X148.5080 Y72.9087
G01 X148.5209 Y72.8658
G01 X148.5358 Y72.8235
G01 X148.5526 Y72.7819
G01 X148.5712 Y72.7411
G01 X148.5916 Y72.7012
G01 X148.6137 Y72.6623
G01 X148.6376 Y72.6244
G01 X148.6632 Y72.5876
G01 X148.6904 Y72.5519
G01 X148.7191 Y72.5176
G01 X148.7494 Y72.4845
G01 X148.7811 Y72.4529
G01 X148.8143 Y72.4227
G01 X148.8487 Y72.3940
G01 X148.8844 Y72.3669
G01 X148.9212 Y72.3414
G01 X148.9592 Y72.3175
G01 X148.9982 Y72.2955
G01 X149.0381 Y72.2751
G01 X149.0789 Y72.2566
G01 X149.1205 Y72.2400
G01 X149.1629 Y72.2252
G01 X149.2058 Y72.2123
G01 X149.2492 Y72.2014
G01 X149.2932 Y72.1924
G01 X149.3374 Y72.1854
G01 X149.3820 Y72.1804
G01 X149.4267 Y72.1774
G01 X149.4715 Y72.1764
G01 X155.8928
G01 X155.9378 Y72.1774
G01 X155.9827 Y72.1804
G01 X156.0274 Y72.1855
G01 X156.0719 Y72.1925
G01 X156.1159 Y72.2016
G01 X156.1596 Y72.2126
G01 X156.2027 Y72.2256
G01 X156.2451 Y72.2405
G01 X156.2869 Y72.2573
G01 X156.3278 Y72.2760
G01 X156.3679 Y72.2964
G01 X156.4070 Y72.3187
G01 X156.4451 Y72.3427
G01 X156.4820 Y72.3684
G01 X156.5178 Y72.3958
G01 X156.5523 Y72.4247
G01 X156.5854 Y72.4551
G01 X156.6172 Y72.4870
G01 X156.6475 Y72.5203
G01 X156.6762 Y72.5549
G01 X156.7034 Y72.5908
G01 X156.7289 Y72.6279
G01 X156.7528 Y72.6660
G01 X156.7749 Y72.7052
G01 X156.7952 Y72.7454
G01 X156.8136 Y72.7864
G01 X156.8302 Y72.8283
G01 X156.8450 Y72.8708
G01 X156.8577 Y72.9140
G01 X156.8686 Y72.9576
G01 X156.8774 Y73.0018
G01 X156.8843 Y73.0463
G01 X156.8891 Y73.0910
G01 X156.8920 Y73.1359
G01 X156.8928 Y73.1809
G01 X156.8916 Y73.2259
G01 X156.8883 Y73.2708
G01 X156.8831 Y73.3155
G01 X156.8758 Y73.3599
G01 X156.8665 Y73.4040
G01 X156.8553 Y73.4475
G01 X156.8421 Y73.4906
G01 X156.8270 Y73.5330
G01 X156.8101 Y73.5746
G01 X154.5141 Y78.8624
G01 X153.9261 Y80.8311
G01 X153.9120 Y80.8746
G01 X153.8959 Y80.9175
G01 X153.8779 Y80.9595
G01 X153.8580 Y81.0007
G01 X153.8363 Y81.0409
G01 X153.8127 Y81.0801
G01 X153.7873 Y81.1181
G01 X153.7603 Y81.1550
G01 X153.7315 Y81.1906
G01 X153.7012 Y81.2248
G01 X153.6694 Y81.2576
G01 X153.6361 Y81.2890
G01 X153.6014 Y81.3187
G01 X153.5653 Y81.3469
G01 X153.5280 Y81.3733
G01 X153.4896 Y81.3981
G01 X153.4500 Y81.4210
G01 X153.4095 Y81.4422
G01 X153.3680 Y81.4614
G01 X153.3257 Y81.4788
G01 X153.2826 Y81.4941
G01 X153.2389 Y81.5075
G01 X153.1946 Y81.5189
G01 X153.1498 Y81.5283
G01 X153.1047 Y81.5355
G01 X153.0592 Y81.5408
G01 X153.0136 Y81.5439
G01 X152.9679 Y81.5449
G01 X152.8584 Y81.5599
G01 X152.7481 Y81.5660
G01 X152.6376 Y81.5631
G01 X152.5277 Y81.5513
G01 X152.4191 Y81.5306
G01 X152.3126 Y81.5011
G01 X152.2088 Y81.4632
G01 X152.1085 Y81.4169
G01 X152.0426 Y81.3735
G01 X151.9797 Y81.3258
G01 X151.9200 Y81.2742
G01 X151.8639 Y81.2188
G01 X151.8114 Y81.1599
G01 X151.7629 Y81.0977
G01 X151.7186 Y81.0324
G01 X151.6786 Y80.9644
G01 X151.6431 Y80.8939
G01 X151.6123 Y80.8213
G01 X151.5863 Y80.7468
G01 X151.5652 Y80.6708
G01 X151.4111 Y80.8197
M107
G00 Z2.0000


;No. 29: Hole 25
G00 X167.9067 Y81.4046 Z2.0000
G00 Z0.5000
G01 Z0.0000 F400
G01 Z-1.1000
M106 S240
G01 X168.6290 F1000
G01 X169.0561 Y82.9046
G01 X167.9067
M107
G00 Z2.0000
G00 X176.9130
G00 Z0.5000
G01 Z0.0000 F400
G01 Z-1.1000
M106 S240
G01 X180.3365 F1000
G01 X180.3329 Y81.4046
G01 X176.9167
G01 Y79.9046
G01 X180.3329
G01 Y78.4046
G01 X176.9167
G01 Y76.9046
G01 X180.3329
G01 Y75.4046
G01 X176.9167
G01 Y73.9046
G01 X180.3329
G01 Y72.4046
G01 X176.9167
G01 Y70.9046
G01 X180.3329
G01 Y69.4046
G01 X176.9167
G01 Y67.9046
G01 X180.3329
G01 X180.3842 Y66.4046
G01 X176.8679
M107
G00 Z2.0000
G00 X188.6038 Y81.4046
G00 Z0.5000
G01 Z0.0000 F400
G01 Z-1.1000
M106 S240
G01 X189.3429 F1000
G01 Y82.9046
G01 X188.1714
G01 X188.0065 Y82.7848
G01 X187.9525 Y82.8948
G01 X187.8908 Y83.0007
G01 X187.8219 Y83.1020
G01 X187.7460 Y83.1981
G01 X187.6635 Y83.2887
G01 X187.5748 Y83.3732
G01 X187.4804 Y83.4513
G01 X187.3807 Y83.5225
G01 X187.2763 Y83.5865
G01 X187.1675 Y83.6430
G01 X187.0551 Y83.6917
G01 X186.9396 Y83.7323
G01 X186.8214 Y83.7647
G01 X186.7013 Y83.7887
G01 X186.5797 Y83.8042
G01 X186.4574 Y83.8110
G01 X181.5329
G01 X181.4544 Y83.8080
G01 X181.3764 Y83.7987
G01 X181.2994 Y83.7834
G01 X181.2239 Y83.7621
G01 X181.1502 Y83.7349
G01 X181.0789 Y83.7020
G01 X181.0104 Y83.6637
G01 X180.9451 Y83.6201
G01 X180.8834 Y83.5714
G01 X180.8258 Y83.5181
G01 X180.7725 Y83.4605
G01 X180.7239 Y83.3988
G01 X180.6802 Y83.3335
G01 X180.6419 Y83.2650
G01 X180.6090 Y83.1937
G01 X180.5818 Y83.1201
G01 X180.5605 Y83.0445
G01 X180.5452 Y82.9675
G01 X180.5360 Y82.8895
G01 X180.5329 Y82.8110
G01 Y66.8590
G01 X180.5343 Y66.7535
G01 X180.5424 Y66.6483
G01 X180.5572 Y66.5438
G01 X180.5787 Y66.4406
G01 X180.6067 Y66.3388
G01 X180.6412 Y66.2391
G01 X180.6819 Y66.1418
G01 X180.7288 Y66.0473
G01 X180.7816 Y65.9560
G01 X180.8401 Y65.8682
G01 X180.9042 Y65.7844
G01 X180.9734 Y65.7048
G01 X181.0476 Y65.6298
G01 X181.1264 Y65.5597
G01 X181.2095 Y65.4947
G01 X181.2967 Y65.4352
G01 X181.3874 Y65.3814
G01 X181.4814 Y65.3335
G01 X181.5782 Y65.2917
G01 X181.6775 Y65.2562
G01 X182.0284 Y65.1305
G01 X182.3801 Y65.0070
G01 X182.7325 Y64.8858
G01 X183.0857 Y64.7668
G01 X174.1639
G01 X174.5651 Y64.8823
G01 X174.9610 Y65.0151
G01 X175.3507 Y65.1649
G01 X175.7335 Y65.3315
G01 X175.8433 Y65.3820
G01 X175.9490 Y65.4407
G01 X176.0499 Y65.5072
G01 X176.1454 Y65.5811
G01 X176.2351 Y65.6620
G01 X176.3185 Y65.7495
G01 X176.3949 Y65.8431
G01 X176.4641 Y65.9422
G01 X176.5256 Y66.0462
G01 X176.5790 Y66.1546
G01 X176.6240 Y66.2667
G01 X176.6605 Y66.3819
G01 X176.6881 Y66.4996
G01 X176.7067 Y66.6189
G01 X176.7163 Y66.7394
G01 X176.7167 Y66.8602
G01 Y82.8110
G01 X176.7136 Y82.8895
G01 X176.7044 Y82.9675
G01 X176.6891 Y83.0445
G01 X176.6678 Y83.1201
G01 X176.6406 Y83.1937
G01 X176.6077 Y83.2650
G01 X176.5694 Y83.3335
G01 X176.5257 Y83.3988
G01 X176.4771 Y83.4605
G01 X176.4238 Y83.5181
G01 X176.3662 Y83.5714
G01 X176.3045 Y83.6201
G01 X176.2392 Y83.6637
G01 X176.1707 Y83.7020
G01 X176.0994 Y83.7349
G01 X176.0257 Y83.7621
G01 X175.9502 Y83.7834
G01 X175.8731 Y83.7987
G01 X175.7952 Y83.8080
G01 X175.7167 Y83.8110
G01 X170.7949
G01 X170.6808 Y83.8092
G01 X170.5671 Y83.7996
G01 X170.4543 Y83.7824
G01 X170.3429 Y83.7576
G01 X170.2335 Y83.7253
G01 X170.1264 Y83.6857
G01 X170.0223 Y83.6390
G01 X169.9216 Y83.5853
G01 X169.8248 Y83.5249
G01 X169.7322 Y83.4582
G01 X169.6444 Y83.3853
G01 X169.5617 Y83.3067
G01 X169.4845 Y83.2227
G01 X169.4132 Y83.1336
G01 X169.3480 Y83.0399
G01 X169.2893 Y82.9421
G01 X169.2374 Y82.8405
G01 X169.1924 Y82.7356
G01 X169.1546 Y82.6279
G01 X169.1242 Y82.5179
G01 X168.4712 Y79.9992
G01 X167.7067
G01 Y84.5424
G01 X189.5429
G01 Y79.9992
G01 X188.7616
G01 X188.1060 Y82.5278
G01 X188.0850 Y82.5935
G01 X188.0615 Y82.6583
G01 X188.0353 Y82.7222
G01 X188.0065 Y82.7848
G01 X188.1714 Y82.9046
M107
G00 Z2.0000


;No. 30: Hole 26
G00 X174.4546 Y50.1214 Z2.0000
G00 Z0.5000
G01 Z0.0000 F400
G01 Z-1.1000
M106 S240
G01 X172.5879 F1000
G01 X173.0221
G01 Y48.6214
G01 X174.0177
G01 Y47.1214
G01 X173.0221
G01 Y45.6214
G01 X174.0177
G01 Y44.1214
G01 X173.0221
G01 Y42.6214
G01 X174.0177
G01 Y41.1214
G01 X173.0221
G01 Y39.6214
G01 X174.0177
G01 Y38.1214
G01 X173.0221
G01 X172.8743 Y36.6214
G01 X174.0177
G01 Y35.1214
G01 X168.3450
G01 X169.5214 Y33.6214
G01 X174.0058
G01 X173.7794 Y32.1214
G01 X170.6979
G01 X167.1685 Y36.6214
G01 X170.4124
G01 X169.4524 Y38.1214
G01 X165.9920
G01 X164.8156 Y39.6214
G01 X168.3205
G01 X167.1506 Y41.1214
G01 X163.6391
G01 X162.4627 Y42.6214
G01 X165.9807
G01 X164.8108 Y44.1214
G01 X161.2862
G01 X160.1609 Y45.6214
G01 X163.6409
G01 X162.4710 Y47.1214
G01 X159.2335
G01 X161.3011 Y48.6214
G01 X155.6072
G01 Y47.1214
G01 X156.8263
G01 X156.6532
G01 Y45.6214
G01 X155.6072
G01 Y44.1214
G01 X156.6532
G01 Y42.6214
G01 X155.6072
G01 Y41.1214
G01 X156.6532
G01 Y39.6214
G01 X155.6072
G01 Y38.1214
G01 X156.6532
G01 Y36.6214
G01 X155.6072
G01 Y35.1214
G01 X156.6532
G01 Y33.6214
G01 X155.6072
G01 Y32.1214
G01 X155.0055
G01 X157.2680
M107
G00 Z2.0000
G00 X160.1312 Y48.6214
G00 Z0.5000
G01 Z-1.1000 F400
M106 S240
G01 Y50.1214 F1000
G01 X155.2561
G01 X155.1113 Y49.9820
G01 X155.0471 Y50.0576
G01 X154.9792 Y50.1299
G01 X154.9079 Y50.1989
G01 X154.8334 Y50.2643
G01 X154.7558 Y50.3261
G01 X154.6753 Y50.3840
G01 X154.5920 Y50.4379
G01 X154.5063 Y50.4878
G01 X154.4182 Y50.5334
G01 X154.3280 Y50.5747
G01 X154.2359 Y50.6116
G01 X154.1422 Y50.6439
G01 X152.9004 Y51.0821
G01 X159.6343 Y51.0837
G01 X169.4416 Y38.5091
G01 X170.6268 Y36.6574
G01 X170.6501 Y36.6227
G01 X170.6747 Y36.5891
G01 X170.7007 Y36.5565
G01 X170.7281 Y36.5250
G01 X170.7568 Y36.4947
G01 X170.7867 Y36.4656
G01 X170.8178 Y36.4377
G01 X170.8500 Y36.4112
G01 X170.8833 Y36.3861
G01 X170.9176 Y36.3623
G01 X170.9529 Y36.3401
G01 X170.9890 Y36.3193
G01 X171.0260 Y36.3000
G01 X171.0638 Y36.2823
G01 X171.1023 Y36.2662
G01 X171.1414 Y36.2517
G01 X171.1811 Y36.2389
G01 X171.2213 Y36.2277
G01 X171.2620 Y36.2182
G01 X171.3030 Y36.2104
G01 X171.3442 Y36.2043
G01 X171.3857 Y36.2000
G01 X171.4274 Y36.1974
G01 X171.4691 Y36.1965
G01 X171.5715 Y36.1827
G01 X171.6748 Y36.1768
G01 X171.7781 Y36.1788
G01 X171.8810 Y36.1887
G01 X171.9828 Y36.2065
G01 X172.0830 Y36.2319
G01 X172.1810 Y36.2650
G01 X172.2761 Y36.3055
G01 X172.3164 Y36.3272
G01 X172.3557 Y36.3508
G01 X172.3939 Y36.3761
G01 X172.4309 Y36.4031
G01 X172.4666 Y36.4319
G01 X172.5009 Y36.4622
G01 X172.5338 Y36.4940
G01 X172.5652 Y36.5274
G01 X172.5951 Y36.5621
G01 X172.6234 Y36.5982
G01 X172.6499 Y36.6355
G01 X172.6747 Y36.6740
G01 X172.6978 Y36.7136
G01 X172.7190 Y36.7542
G01 X172.7383 Y36.7958
G01 X172.7557 Y36.8381
G01 X172.7711 Y36.8813
G01 X172.7846 Y36.9251
G01 X172.7960 Y36.9694
G01 X172.8054 Y37.0143
G01 X172.8127 Y37.0595
G01 X172.8179 Y37.1050
G01 X172.8210 Y37.1507
G01 X172.8221 Y37.1965
G01 Y48.9617
G01 X172.8208 Y49.0741
G01 X172.8110 Y49.1861
G01 X172.7927 Y49.2970
G01 X172.7660 Y49.4063
G01 X172.7311 Y49.5131
G01 X172.6881 Y49.6170
G01 X172.6374 Y49.7174
G01 X172.5791 Y49.8135
G01 X172.5137 Y49.9050
G01 X172.4416 Y49.9912
G01 X172.3630 Y50.0717
G01 X172.2786 Y50.1460
G01 X172.1888 Y50.2136
G01 X172.0941 Y50.2742
G01 X171.9951 Y50.3274
G01 X171.8923 Y50.3729
G01 X171.4742 Y50.5679
G01 X171.0511 Y50.7514
G01 X170.6231 Y50.9234
G01 X170.1906 Y51.0837
G01 X176.8392
G01 X176.4023 Y50.9323
G01 X175.9720 Y50.7630
G01 X175.5491 Y50.5760
G01 X175.1343 Y50.3717
G01 X175.0333 Y50.3245
G01 X174.9361 Y50.2700
G01 X174.8432 Y50.2084
G01 X174.7552 Y50.1401
G01 X174.6724 Y50.0654
G01 X174.5954 Y49.9848
G01 X174.5246 Y49.8987
G01 X174.4604 Y49.8076
G01 X174.4031 Y49.7120
G01 X174.3531 Y49.6124
G01 X174.3106 Y49.5094
G01 X174.2759 Y49.4035
G01 X174.2491 Y49.2953
G01 X174.2304 Y49.1855
G01 X174.2199 Y49.0745
G01 X174.2177 Y48.9631
G01 Y33.6848
G01 X173.8362 Y31.1581
G01 X171.1992
G01 X160.1873 Y45.1984
G01 X159.0568 Y47.0269
G01 X159.0092 Y47.0970
G01 X158.9559 Y47.1629
G01 X158.8972 Y47.2239
G01 X158.8335 Y47.2798
G01 X158.7653 Y47.3301
G01 X158.6931 Y47.3745
G01 X158.6174 Y47.4126
G01 X158.5388 Y47.4441
G01 X158.4578 Y47.4689
G01 X158.3749 Y47.4867
G01 X158.2909 Y47.4974
G01 X158.2062 Y47.5010
G01 X158.1038 Y47.5148
G01 X158.0006 Y47.5207
G01 X157.8972 Y47.5187
G01 X157.7943 Y47.5088
G01 X157.6925 Y47.4911
G01 X157.5923 Y47.4656
G01 X157.4944 Y47.4325
G01 X157.3992 Y47.3920
G01 X157.3196 Y47.3467
G01 X157.2445 Y47.2944
G01 X157.1744 Y47.2353
G01 X157.1101 Y47.1701
G01 X157.0520 Y47.0993
G01 X157.0006 Y47.0235
G01 X156.9564 Y46.9433
G01 X156.9196 Y46.8594
G01 X156.8908 Y46.7725
G01 X156.8700 Y46.6832
G01 X156.8574 Y46.5925
G01 X156.8532 Y46.5010
G01 Y33.4903
G01 X156.8527 Y33.3917
G01 X156.8586 Y33.2934
G01 X156.8710 Y33.1956
G01 X156.8898 Y33.0989
G01 X156.9150 Y33.0036
G01 X156.9463 Y32.9102
G01 X156.9838 Y32.8190
G01 X157.0271 Y32.7305
G01 X157.0762 Y32.6451
G01 X157.1308 Y32.5631
G01 X157.1907 Y32.4848
G01 X157.2556 Y32.4107
G01 X157.3253 Y32.3410
G01 X157.3994 Y32.2760
G01 X157.4776 Y32.2160
G01 X157.5596 Y32.1614
G01 X158.0166 Y31.9127
G01 X158.4856 Y31.6873
G01 X158.9652 Y31.4856
G01 X159.4543 Y31.3082
G01 X152.7757
G01 X153.2339 Y31.4690
G01 X153.6850 Y31.6487
G01 X154.1283 Y31.8472
G01 X154.5628 Y32.0639
G01 X154.6595 Y32.1157
G01 X154.7522 Y32.1745
G01 X154.8403 Y32.2398
G01 X154.9235 Y32.3113
G01 X155.0013 Y32.3887
G01 X155.0733 Y32.4715
G01 X155.1391 Y32.5593
G01 X155.1983 Y32.6516
G01 X155.2507 Y32.7480
G01 X155.2960 Y32.8479
G01 X155.3338 Y32.9509
G01 X155.3642 Y33.0563
G01 X155.3868 Y33.1637
G01 X155.4015 Y33.2724
G01 X155.4084 Y33.3819
G01 X155.4072 Y33.4916
G01 Y49.0531
G01 X155.4059 Y49.1357
G01 X155.4001 Y49.2181
G01 X155.3900 Y49.3001
G01 X155.3756 Y49.3815
G01 X155.3569 Y49.4619
G01 X155.3339 Y49.5413
G01 X155.3067 Y49.6193
G01 X155.2755 Y49.6958
G01 X155.2402 Y49.7705
G01 X155.2010 Y49.8433
G01 X155.1580 Y49.9138
G01 X155.1113 Y49.9820
G01 X155.2561 Y50.1214
M107
G00 Z2.0000


;No. 31: Hole 27
G00 X144.8218 Y49.4459 Z2.0000
G00 Z0.5000
G01 Z0.0000 F400
G01 Z-1.1000
M106 S240
G01 X143.6081 F1000
G01 X144.0858 Y47.9459
G01 X144.8218
M107
G00 Z2.0000
G00 X140.4009 Y43.4459
G00 Z0.5000
G01 Z0.0000 F400
G01 Z-1.1000
M106 S240
G01 X139.8927 F1000
G01 X140.4009 Y41.9459
G01 X138.8605
G01 X139.6365 Y40.4459
G01 X140.4009
M107
G00 Z2.0000
G00 X132.8176 Y41.9459
G00 Z0.5000
G01 Z0.0000 F400
G01 Z-1.1000
M106 S240
G01 X128.8824 F1000
G01 Y40.4459
G01 X132.2912
G01 X132.2818 Y38.9459
G01 X128.8824
G01 Y37.4459
G01 X132.2818
G01 Y35.9459
G01 X128.8824
G01 Y34.4459
G01 X132.2818
G01 X132.2925 Y32.9459
G01 X128.8336
M107
G00 Z2.0000
G00 X128.8824 Y41.9459
G00 Z0.5000
G01 Z-1.1000 F400
M106 S240
G01 Y43.4459 F1000
G01 X132.2818
G01 Y44.9459
G01 X128.8824
G01 Y46.4459
G01 X132.2818
G01 Y47.9459
G01 X128.8824
G01 X128.8402 Y49.4459
G01 X132.2925
M107
G00 Z2.0000
G00 X145.2985 Y34.4459
G00 Z0.5000
G01 Z0.0000 F400
G01 Z-1.1000
M106 S240
G01 X146.0657 F1000
G01 Y32.9459
G01 X144.8450
G01 X144.6806 Y33.0638
G01 X144.7216 Y33.1485
G01 X144.7580 Y33.2353
G01 X144.7895 Y33.3240
G01 X144.8161 Y33.4143
G01 X145.4787 Y35.8964
G01 X146.2657
G01 Y31.3082
G01 X126.2109
G01 X126.5994 Y31.4266
G01 X126.9824 Y31.5618
G01 X127.3592 Y31.7134
G01 X127.7291 Y31.8812
G01 X127.8359 Y31.9336
G01 X127.9385 Y31.9937
G01 X128.0364 Y32.0613
G01 X128.1291 Y32.1359
G01 X128.2160 Y32.2171
G01 X128.2966 Y32.3046
G01 X128.3706 Y32.3978
G01 X128.4374 Y32.4961
G01 X128.4969 Y32.5992
G01 X128.5485 Y32.7063
G01 X128.5921 Y32.8170
G01 X128.6274 Y32.9306
G01 X128.6542 Y33.0465
G01 X128.6723 Y33.1641
G01 X128.6818 Y33.2826
G01 X128.6824 Y33.4016
G01 Y49.0531
G01 X128.6793 Y49.1507
G01 X128.6703 Y49.2480
G01 X128.6555 Y49.3445
G01 X128.6348 Y49.4400
G01 X128.6083 Y49.5340
G01 X128.5763 Y49.6262
G01 X128.5386 Y49.7164
G01 X128.4956 Y49.8041
G01 X128.4473 Y49.8890
G01 X128.3940 Y49.9708
G01 X128.3359 Y50.0493
G01 X128.2730 Y50.1240
G01 X128.2058 Y50.1949
G01 X128.1343 Y50.2615
G01 X128.0590 Y50.3237
G01 X127.9801 Y50.3812
G01 X127.8978 Y50.4338
G01 X127.8124 Y50.4813
G01 X127.7244 Y50.5235
G01 X127.6339 Y50.5604
G01 X127.2807 Y50.7007
G01 X126.9250 Y50.8349
G01 X126.5671 Y50.9627
G01 X126.2069 Y51.0843
G01 X145.0218 Y51.0837
G01 Y46.8407
G01 X144.1999
G01 X143.5657 Y49.0149
G01 X143.5328 Y49.1228
G01 X143.4929 Y49.2283
G01 X143.4462 Y49.3310
G01 X143.3929 Y49.4304
G01 X143.3333 Y49.5261
G01 X143.2675 Y49.6177
G01 X143.1959 Y49.7048
G01 X143.1187 Y49.7871
G01 X143.0364 Y49.8642
G01 X142.9492 Y49.9357
G01 X142.8575 Y50.0014
G01 X142.7617 Y50.0609
G01 X142.6622 Y50.1141
G01 X142.5595 Y50.1607
G01 X142.4540 Y50.2005
G01 X142.3461 Y50.2332
G01 X142.2362 Y50.2589
G01 X142.1250 Y50.2774
G01 X142.0127 Y50.2886
G01 X141.9000 Y50.2924
G01 X133.4818
G01 X133.4381 Y50.2914
G01 X133.3946 Y50.2886
G01 X133.3512 Y50.2838
G01 X133.3081 Y50.2772
G01 X133.2653 Y50.2687
G01 X133.2229 Y50.2583
G01 X133.1810 Y50.2461
G01 X133.1397 Y50.2321
G01 X133.0991 Y50.2162
G01 X133.0591 Y50.1987
G01 X133.0200 Y50.1794
G01 X132.9818 Y50.1584
G01 X132.9445 Y50.1358
G01 X132.9082 Y50.1115
G01 X132.8730 Y50.0857
G01 X132.8390 Y50.0584
G01 X132.8062 Y50.0296
G01 X132.7746 Y49.9995
G01 X132.7445 Y49.9680
G01 X132.7157 Y49.9352
G01 X132.6884 Y49.9011
G01 X132.6626 Y49.8659
G01 X132.6384 Y49.8297
G01 X132.6157 Y49.7924
G01 X132.5947 Y49.7541
G01 X132.5754 Y49.7150
G01 X132.5579 Y49.6751
G01 X132.5421 Y49.6344
G01 X132.5280 Y49.5931
G01 X132.5158 Y49.5512
G01 X132.5055 Y49.5088
G01 X132.4969 Y49.4660
G01 X132.4903 Y49.4229
G01 X132.4856 Y49.3795
G01 X132.4827 Y49.3360
G01 X132.4818 Y49.2924
G01 Y42.9443
G01 X132.4848 Y42.8658
G01 X132.4941 Y42.7879
G01 X132.5094 Y42.7108
G01 X132.5307 Y42.6353
G01 X132.5579 Y42.5616
G01 X132.5907 Y42.4903
G01 X132.6291 Y42.4218
G01 X132.6727 Y42.3565
G01 X132.7213 Y42.2948
G01 X132.7746 Y42.2372
G01 X132.8323 Y42.1839
G01 X132.8940 Y42.1353
G01 X132.9593 Y42.0916
G01 X133.0278 Y42.0533
G01 X133.0991 Y42.0204
G01 X133.1727 Y41.9932
G01 X133.2483 Y41.9719
G01 X133.3253 Y41.9566
G01 X133.4033 Y41.9474
G01 X133.4818 Y41.9443
G01 X137.9283
G01 X138.0285 Y41.9399
G01 X138.1287 Y41.9421
G01 X138.2286 Y41.9508
G01 X138.3277 Y41.9660
G01 X138.4256 Y41.9875
G01 X138.5219 Y42.0154
G01 X138.6162 Y42.0496
G01 X138.7080 Y42.0897
G01 X138.7971 Y42.1358
G01 X138.8829 Y42.1875
G01 X138.9652 Y42.2448
G01 X139.0437 Y42.3072
G01 X139.1179 Y42.3747
G01 X139.1875 Y42.4468
G01 X139.2523 Y42.5233
G01 X139.3120 Y42.6038
G01 X139.3663 Y42.6881
G01 X139.4151 Y42.7757
G01 X139.4580 Y42.8663
G01 X139.4949 Y42.9595
G01 X139.6869 Y43.4263
G01 X139.8662 Y43.8982
G01 X140.0327 Y44.3748
G01 X140.1863 Y44.8557
G01 X140.6009
G01 Y38.3916
G01 X140.1848
G01 X140.0281 Y38.8643
G01 X139.8621 Y39.3339
G01 X139.6868 Y39.8001
G01 X139.5025 Y40.2627
G01 X139.4640 Y40.3557
G01 X139.4199 Y40.4462
G01 X139.3702 Y40.5336
G01 X139.3151 Y40.6178
G01 X139.2548 Y40.6984
G01 X139.1897 Y40.7751
G01 X139.1198 Y40.8475
G01 X139.0456 Y40.9155
G01 X138.9673 Y40.9786
G01 X138.8852 Y41.0368
G01 X138.7996 Y41.0897
G01 X138.7109 Y41.1371
G01 X138.6193 Y41.1790
G01 X138.5254 Y41.2150
G01 X138.4294 Y41.2451
G01 X138.3316 Y41.2691
G01 X138.2326 Y41.2869
G01 X138.1327 Y41.2986
G01 X138.0322 Y41.3039
G01 X137.9316 Y41.3030
G01 X133.4818
G01 X133.4033 Y41.2999
G01 X133.3253 Y41.2907
G01 X133.2483 Y41.2754
G01 X133.1727 Y41.2541
G01 X133.0991 Y41.2269
G01 X133.0278 Y41.1940
G01 X132.9593 Y41.1556
G01 X132.8940 Y41.1120
G01 X132.8323 Y41.0634
G01 X132.7746 Y41.0101
G01 X132.7213 Y40.9525
G01 X132.6727 Y40.8908
G01 X132.6291 Y40.8255
G01 X132.5907 Y40.7570
G01 X132.5579 Y40.6857
G01 X132.5307 Y40.6120
G01 X132.5094 Y40.5365
G01 X132.4941 Y40.4594
G01 X132.4848 Y40.3815
G01 X132.4818 Y40.3030
G01 Y33.0995
G01 X132.4827 Y33.0559
G01 X132.4856 Y33.0124
G01 X132.4903 Y32.9690
G01 X132.4969 Y32.9259
G01 X132.5055 Y32.8831
G01 X132.5158 Y32.8407
G01 X132.5280 Y32.7988
G01 X132.5421 Y32.7575
G01 X132.5579 Y32.7168
G01 X132.5754 Y32.6769
G01 X132.5947 Y32.6378
G01 X132.6157 Y32.5995
G01 X132.6384 Y32.5622
G01 X132.6626 Y32.5259
G01 X132.6884 Y32.4907
G01 X132.7157 Y32.4567
G01 X132.7445 Y32.4239
G01 X132.7746 Y32.3924
G01 X132.8062 Y32.3622
G01 X132.8390 Y32.3335
G01 X132.8730 Y32.3062
G01 X132.9082 Y32.2804
G01 X132.9445 Y32.2561
G01 X132.9818 Y32.2335
G01 X133.0200 Y32.2125
G01 X133.0591 Y32.1932
G01 X133.0991 Y32.1756
G01 X133.1397 Y32.1598
G01 X133.1810 Y32.1458
G01 X133.2229 Y32.1336
G01 X133.2653 Y32.1232
G01 X133.3081 Y32.1147
G01 X133.3512 Y32.1081
G01 X133.3946 Y32.1033
G01 X133.4381 Y32.1005
G01 X133.4818 Y32.0995
G01 X143.1657
G01 X143.2833 Y32.1069
G01 X143.4001 Y32.1222
G01 X143.5156 Y32.1453
G01 X143.6293 Y32.1761
G01 X143.7407 Y32.2144
G01 X143.8493 Y32.2602
G01 X143.9545 Y32.3131
G01 X144.0559 Y32.3730
G01 X144.1531 Y32.4396
G01 X144.2457 Y32.5125
G01 X144.3331 Y32.5915
G01 X144.4150 Y32.6762
G01 X144.4910 Y32.7662
G01 X144.5608 Y32.8610
G01 X144.6241 Y32.9604
G01 X144.6806 Y33.0638
G01 X144.8450 Y32.9459
M107
G00 Z2.0000


;No. 32: Hole 28
G00 X120.1344 Y47.9459 Z2.0000
G00 Z0.5000
G01 Z0.0000 F400
G01 Z-1.1000
M106 S240
G01 X119.4152 F1000
G01 X118.9374 Y49.4459
G01 X120.1344
M107
G00 Z2.0000
G00 X116.0328 Y41.9459
G00 Z0.5000
G01 Z0.0000 F400
G01 Z-1.1000
M106 S240
G01 X114.8891 F1000
G01 X115.1523 Y40.4459
G01 X116.0328
M107
G00 Z2.0000
G00 X108.0432 Y41.9459
G00 Z0.5000
G01 Z0.0000 F400
G01 Z-1.1000
M106 S240
G01 X104.3967 F1000
G01 Y40.4459
G01 X107.8759
G01 X107.7960 Y38.9459
G01 X104.3967
G01 Y37.4459
G01 X107.7960
G01 Y35.9459
G01 X104.3967
G01 Y34.4459
G01 X107.7960
G01 X107.8448 Y32.9459
G01 X104.3478
M107
G00 Z2.0000
G00 X104.3967 Y41.9459
G00 Z0.5000
G01 Z-1.1000 F400
M106 S240
G01 Y43.4459 F1000
G01 X107.7960
G01 Y44.9459
G01 X104.3967
G01 Y46.4459
G01 X107.7960
G01 Y47.9459
G01 X104.3967
G01 X104.3544 Y49.4459
G01 X107.8068
G01 X108.0038 Y49.4103
G01 X107.9991 Y49.3708
G01 X107.9960 Y49.2924
G01 Y42.6742
G01 X107.9991 Y42.5957
G01 X108.0083 Y42.5177
G01 X108.0236 Y42.4407
G01 X108.0450 Y42.3651
G01 X108.0721 Y42.2915
G01 X108.1050 Y42.2202
G01 X108.1434 Y42.1517
G01 X108.1870 Y42.0864
G01 X108.2356 Y42.0247
G01 X108.2889 Y41.9670
G01 X108.3466 Y41.9137
G01 X108.4082 Y41.8651
G01 X108.4735 Y41.8215
G01 X108.5420 Y41.7831
G01 X108.6133 Y41.7503
G01 X108.6870 Y41.7231
G01 X108.7626 Y41.7018
G01 X108.8396 Y41.6865
G01 X108.9176 Y41.6772
G01 X108.9960 Y41.6742
G01 X113.5960
G01 X113.6991 Y41.6723
G01 X113.8021 Y41.6770
G01 X113.9046 Y41.6884
G01 X114.0061 Y41.7062
G01 X114.1063 Y41.7306
G01 X114.2047 Y41.7614
G01 X114.3010 Y41.7983
G01 X114.3946 Y41.8414
G01 X114.4853 Y41.8904
G01 X114.5727 Y41.9452
G01 X114.6564 Y42.0054
G01 X114.7361 Y42.0708
G01 X114.8114 Y42.1413
G01 X114.8820 Y42.2164
G01 X114.9476 Y42.2959
G01 X115.0080 Y42.3794
G01 X115.0630 Y42.4667
G01 X115.1122 Y42.5573
G01 X115.1555 Y42.6508
G01 X115.1928 Y42.7470
G01 X115.3670 Y43.1994
G01 X115.5350 Y43.6542
G01 X115.6966 Y44.1113
G01 X115.8519 Y44.5706
G01 X116.2328
G01 Y38.1215
G01 X115.8503
G01 X115.6931 Y38.6112
G01 X115.5227 Y39.0965
G01 X115.3392 Y39.5771
G01 X115.1429 Y40.0525
G01 X115.1035 Y40.1417
G01 X115.0586 Y40.2283
G01 X115.0084 Y40.3118
G01 X114.9529 Y40.3920
G01 X114.8926 Y40.4686
G01 X114.8276 Y40.5413
G01 X114.7581 Y40.6097
G01 X114.6845 Y40.6736
G01 X114.6070 Y40.7327
G01 X114.5259 Y40.7869
G01 X114.4416 Y40.8359
G01 X114.3544 Y40.8795
G01 X114.2646 Y40.9175
G01 X114.1726 Y40.9497
G01 X114.0787 Y40.9762
G01 X113.9834 Y40.9967
G01 X113.8870 Y41.0111
G01 X113.7898 Y41.0195
G01 X113.6924 Y41.0217
G01 X113.5949 Y41.0179
G01 X108.9960
G01 X108.9176 Y41.0148
G01 X108.8396 Y41.0056
G01 X108.7626 Y40.9902
G01 X108.6870 Y40.9689
G01 X108.6133 Y40.9417
G01 X108.5420 Y40.9089
G01 X108.4735 Y40.8705
G01 X108.4082 Y40.8269
G01 X108.3466 Y40.7783
G01 X108.2889 Y40.7250
G01 X108.2356 Y40.6673
G01 X108.1870 Y40.6057
G01 X108.1434 Y40.5404
G01 X108.1050 Y40.4719
G01 X108.0721 Y40.4005
G01 X108.0450 Y40.3269
G01 X108.0236 Y40.2513
G01 X108.0083 Y40.1743
