;Project AnnisTeslaParkingV3
;Created by Estlcam version 11 build 11,227
;Machining time about 00:18:49 hours

G90
M03 S18000
G00 X0.0000 Y0.0000 Z0.0000
G00 Z2.0000


;No. 1: Helical drill 1
G00 X30.5784 Y264.3359
G00 Z0.5000
M106 S240
G01 X30.5746 Y264.2487 Z0.4699 F400 S18000
G01 X30.5632 Y264.1622 Z0.4398
G01 X30.5443 Y264.0770 Z0.4097
G01 X30.5181 Y263.9938 Z0.3796
G01 X30.4847 Y263.9132 Z0.3495
G01 X30.4444 Y263.8359 Z0.3194
G01 X30.3976 Y263.7623 Z0.2894
G01 X30.3444 Y263.6931 Z0.2593
G01 X30.2855 Y263.6288 Z0.2292
G01 X30.2212 Y263.5698 Z0.1991
G01 X30.1520 Y263.5167 Z0.1690
G01 X30.0784 Y263.4698 Z0.1389
G01 X30.0010 Y263.4296 Z0.1088
G01 X29.9204 Y263.3962 Z0.0787
G01 X29.8372 Y263.3699 Z0.0486
G01 X29.7520 Y263.3511 Z0.0185
G01 X29.6656 Y263.3397 Z-0.0116
G01 X29.5784 Y263.3359 Z-0.0417
G01 X29.4912 Y263.3397 Z-0.0718
G01 X29.4048 Y263.3511 Z-0.1019
G01 X29.3196 Y263.3699 Z-0.1319
G01 X29.2364 Y263.3962 Z-0.1620
G01 X29.1558 Y263.4296 Z-0.1921
G01 X29.0784 Y263.4698 Z-0.2222
G01 X29.0378 Y263.4946 Z-0.2386
G01 X28.9983 Y263.5213 Z-0.2551
G01 X28.9602 Y263.5498 Z-0.2715
G01 X28.9235 Y263.5801 Z-0.2879
G01 X28.8883 Y263.6121 Z-0.3043
G01 X28.8547 Y263.6458 Z-0.3207
G01 X28.8227 Y263.6810 Z-0.3371
G01 X28.7923 Y263.7177 Z-0.3535
G01 X28.7638 Y263.7558 Z-0.3699
G01 X28.7371 Y263.7952 Z-0.3864
G01 X28.7124 Y263.8359 Z-0.4028
G01 X28.6896 Y263.8776 Z-0.4192
G01 X28.6688 Y263.9205 Z-0.4356
G01 X28.6500 Y263.9642 Z-0.4520
G01 X28.6334 Y264.0088 Z-0.4684
G01 X28.6189 Y264.0541 Z-0.4848
G01 X28.6066 Y264.1001 Z-0.5013
G01 X28.5965 Y264.1466 Z-0.5177
G01 X28.5886 Y264.1936 Z-0.5341
G01 X28.5829 Y264.2408 Z-0.5505
G01 X28.5795 Y264.2883 Z-0.5669
G01 X28.5784 Y264.3359 Z-0.5833
G01 X28.5795 Y264.3834 Z-0.5997
G01 X28.5829 Y264.4309 Z-0.6162
G01 X28.5886 Y264.4782 Z-0.6326
G01 X28.5965 Y264.5251 Z-0.6490
G01 X28.6066 Y264.5716 Z-0.6654
G01 X28.6189 Y264.6176 Z-0.6818
G01 X28.6334 Y264.6629 Z-0.6982
G01 X28.6500 Y264.7075 Z-0.7146
G01 X28.6688 Y264.7513 Z-0.7311
G01 X28.6896 Y264.7941 Z-0.7475
G01 X28.7124 Y264.8359 Z-0.7639
G01 X28.7371 Y264.8765 Z-0.7803
G01 X28.7638 Y264.9159 Z-0.7967
G01 X28.7923 Y264.9540 Z-0.8131
G01 X28.8227 Y264.9907 Z-0.8295
G01 X28.8547 Y265.0259 Z-0.8460
G01 X28.8883 Y265.0596 Z-0.8624
G01 X28.9235 Y265.0916 Z-0.8788
G01 X28.9602 Y265.1219 Z-0.8952
G01 X28.9983 Y265.1504 Z-0.9116
G01 X29.0378 Y265.1771 Z-0.9280
G01 X29.0784 Y265.2019 Z-0.9444
G01 X29.1202 Y265.2247 Z-0.9609
G01 X29.1630 Y265.2455 Z-0.9773
G01 X29.2067 Y265.2642 Z-0.9937
G01 X29.2513 Y265.2809 Z-1.0101
G01 X29.2967 Y265.2954 Z-1.0265
G01 X29.3426 Y265.3077 Z-1.0429
G01 X29.3891 Y265.3178 Z-1.0593
G01 X29.4361 Y265.3257 Z-1.0758
G01 X29.4833 Y265.3313 Z-1.0922
G01 X29.5308 Y265.3347 Z-1.1086
G01 X29.5784 Y265.3359 Z-1.1250
G01 X29.6260 Y265.3347 Z-1.1414
G01 X29.6735 Y265.3313 Z-1.1578
G01 X29.7207 Y265.3257 Z-1.1742
G01 X29.7677 Y265.3178 Z-1.1907
G01 X29.8142 Y265.3077 Z-1.2071
G01 X29.8601 Y265.2954 Z-1.2235
G01 X29.9055 Y265.2809 Z-1.2399
G01 X29.9501 Y265.2642 Z-1.2563
G01 X29.9938 Y265.2455 Z-1.2727
G01 X30.0366 Y265.2247 Z-1.2891
G01 X30.0784 Y265.2019 Z-1.3056
G01 X30.1190 Y265.1771 Z-1.3220
G01 X30.1585 Y265.1504 Z-1.3384
G01 X30.1966 Y265.1219 Z-1.3548
G01 X30.2333 Y265.0916 Z-1.3712
G01 X30.2685 Y265.0596 Z-1.3876
G01 X30.3021 Y265.0259 Z-1.4040
G01 X30.3341 Y264.9907 Z-1.4205
G01 X30.3645 Y264.9540 Z-1.4369
G01 X30.3930 Y264.9159 Z-1.4533
G01 X30.4197 Y264.8765 Z-1.4697
G01 X30.4444 Y264.8359 Z-1.4861
G01 X30.4672 Y264.7941 Z-1.5025
G01 X30.4880 Y264.7513 Z-1.5189
G01 X30.5068 Y264.7075 Z-1.5354
G01 X30.5234 Y264.6629 Z-1.5518
G01 X30.5379 Y264.6176 Z-1.5682
G01 X30.5502 Y264.5716 Z-1.5846
G01 X30.5603 Y264.5251 Z-1.6010
G01 X30.5682 Y264.4782 Z-1.6174
G01 X30.5739 Y264.4309 Z-1.6338
G01 X30.5773 Y264.3834 Z-1.6503
G01 X30.5784 Y264.3359 Z-1.6667
G01 X30.5746 Y264.2487
G01 X30.5632 Y264.1622
G01 X30.5443 Y264.0770
G01 X30.5181 Y263.9938
G01 X30.4847 Y263.9132
G01 X30.4444 Y263.8359
G01 X30.3976 Y263.7623
G01 X30.3444 Y263.6931
G01 X30.2855 Y263.6288
G01 X30.2212 Y263.5698
G01 X30.1520 Y263.5167
G01 X30.0784 Y263.4698
G01 X30.0010 Y263.4296
G01 X29.9204 Y263.3962
G01 X29.8372 Y263.3699
G01 X29.7520 Y263.3511
G01 X29.6656 Y263.3397
G01 X29.5784 Y263.3359
G01 X29.4912 Y263.3397
G01 X29.4048 Y263.3511
G01 X29.3196 Y263.3699
G01 X29.2364 Y263.3962
G01 X29.1558 Y263.4296
G01 X29.0784 Y263.4698
G01 X29.0378 Y263.4946
G01 X28.9983 Y263.5213
G01 X28.9602 Y263.5498
G01 X28.9235 Y263.5801
G01 X28.8883 Y263.6121
G01 X28.8547 Y263.6458
G01 X28.8227 Y263.6810
G01 X28.7923 Y263.7177
G01 X28.7638 Y263.7558
G01 X28.7371 Y263.7952
G01 X28.7124 Y263.8359
G01 X28.6896 Y263.8776
G01 X28.6688 Y263.9205
G01 X28.6500 Y263.9642
G01 X28.6334 Y264.0088
G01 X28.6189 Y264.0541
G01 X28.6066 Y264.1001
G01 X28.5965 Y264.1466
G01 X28.5886 Y264.1936
G01 X28.5829 Y264.2408
G01 X28.5795 Y264.2883
G01 X28.5784 Y264.3359
G01 X28.5795 Y264.3834
G01 X28.5829 Y264.4309
G01 X28.5886 Y264.4782
G01 X28.5965 Y264.5251
G01 X28.6066 Y264.5716
G01 X28.6189 Y264.6176
G01 X28.6334 Y264.6629
G01 X28.6500 Y264.7075
G01 X28.6688 Y264.7513
G01 X28.6896 Y264.7941
G01 X28.7124 Y264.8359
G01 X28.7371 Y264.8765
G01 X28.7638 Y264.9159
G01 X28.7923 Y264.9540
G01 X28.8227 Y264.9907
G01 X28.8547 Y265.0259
G01 X28.8883 Y265.0596
G01 X28.9235 Y265.0916
G01 X28.9602 Y265.1219
G01 X28.9983 Y265.1504
G01 X29.0378 Y265.1771
G01 X29.0784 Y265.2019
G01 X29.1202 Y265.2247
G01 X29.1630 Y265.2455
G01 X29.2067 Y265.2642
G01 X29.2513 Y265.2809
G01 X29.2967 Y265.2954
G01 X29.3426 Y265.3077
G01 X29.3891 Y265.3178
G01 X29.4361 Y265.3257
G01 X29.4833 Y265.3313
G01 X29.5308 Y265.3347
G01 X29.5784 Y265.3359
G01 X29.6260 Y265.3347
G01 X29.6735 Y265.3313
G01 X29.7207 Y265.3257
G01 X29.7677 Y265.3178
G01 X29.8142 Y265.3077
G01 X29.8601 Y265.2954
G01 X29.9055 Y265.2809
G01 X29.9501 Y265.2642
G01 X29.9938 Y265.2455
G01 X30.0366 Y265.2247
G01 X30.0784 Y265.2019
G01 X30.1190 Y265.1771
G01 X30.1585 Y265.1504
G01 X30.1966 Y265.1219
G01 X30.2333 Y265.0916
G01 X30.2685 Y265.0596
G01 X30.3021 Y265.0259
G01 X30.3341 Y264.9907
G01 X30.3645 Y264.9540
G01 X30.3930 Y264.9159
G01 X30.4197 Y264.8765
G01 X30.4444 Y264.8359
G01 X30.4672 Y264.7941
G01 X30.4880 Y264.7513
G01 X30.5068 Y264.7075
G01 X30.5234 Y264.6629
G01 X30.5379 Y264.6176
G01 X30.5502 Y264.5716
G01 X30.5603 Y264.5251
G01 X30.5682 Y264.4782
G01 X30.5739 Y264.4309
G01 X30.5773 Y264.3834
G01 X30.5784 Y264.3359
G01 X30.5891 Y264.2843 F1000
G01 X30.5972 Y264.2322
G01 X30.6026 Y264.1798
G01 X30.6053 Y264.1271
G01 X30.6052 Y264.0744
G01 X30.6025 Y264.0218
G01 X30.5970 Y263.9694
G01 X30.5889 Y263.9173
G01 X30.5772 Y263.8613
G01 X30.5626 Y263.8060
G01 X30.5452 Y263.7515
G01 X30.5251 Y263.6980
G01 X30.5023 Y263.6455
G01 X30.4768 Y263.5943
G01 X30.4487 Y263.5445
G01 X30.4181 Y263.4962
G01 X30.3825 Y263.4458
G01 X30.3444 Y263.3973
G01 X30.3038 Y263.3507
G01 X30.2610 Y263.3063
G01 X30.2159 Y263.2642
G01 X30.1688 Y263.2243
G01 X30.1197 Y263.1870
G01 X30.0687 Y263.1521
G01 X30.0122 Y263.1176
G01 X29.9540 Y263.0859
G01 X29.8943 Y263.0572
G01 X29.8333 Y263.0316
G01 X29.7710 Y263.0091
G01 X29.7076 Y262.9898
G01 X29.6434 Y262.9737
G01 X29.5784 Y262.9609
G01 X29.5084 Y262.9507
G01 X29.4379 Y262.9440
G01 X29.3672 Y262.9410
G01 X29.2965 Y262.9415
G01 X29.2258 Y262.9455
G01 X29.1554 Y262.9531
G01 X29.0856 Y262.9643
G01 X29.0163 Y262.9789
G01 X28.9482 Y263.0049
G01 X28.8813 Y263.0342
G01 X28.8160 Y263.0667
G01 X28.7524 Y263.1024
G01 X28.6906 Y263.1413
G01 X28.6308 Y263.1831
G01 X28.5732 Y263.2277
G01 X28.5178 Y263.2752
G01 X28.4670 Y263.3285
G01 X28.4189 Y263.3843
G01 X28.3736 Y263.4423
G01 X28.3312 Y263.5025
G01 X28.2918 Y263.5647
G01 X28.2555 Y263.6288
G01 X28.2224 Y263.6945
G01 X28.1926 Y263.7619
G01 X28.1661 Y263.8305
G01 X28.1430 Y263.9004
G01 X28.1234 Y263.9714
G01 X28.1072 Y264.0432
G01 X28.0947 Y264.1158
G01 X28.0857 Y264.1888
G01 X28.0802 Y264.2623
G01 X28.0784 Y264.3359
G01 X28.0802 Y264.4095
G01 X28.0857 Y264.4829
G01 X28.0947 Y264.5560
G01 X28.1072 Y264.6285
G01 X28.1234 Y264.7003
G01 X28.1430 Y264.7713
G01 X28.1661 Y264.8412
G01 X28.1926 Y264.9099
G01 X28.2224 Y264.9772
G01 X28.2555 Y265.0429
G01 X28.2918 Y265.1070
G01 X28.3312 Y265.1692
G01 X28.3736 Y265.2294
G01 X28.4189 Y265.2874
G01 X28.4670 Y265.3432
G01 X28.5178 Y265.3965
G01 X28.5711 Y265.4473
G01 X28.6268 Y265.4954
G01 X28.6849 Y265.5407
G01 X28.7451 Y265.5830
G01 X28.8073 Y265.6224
G01 X28.8713 Y265.6587
G01 X28.9371 Y265.6918
G01 X29.0044 Y265.7217
G01 X29.0731 Y265.7482
G01 X29.1430 Y265.7712
G01 X29.2139 Y265.7909
G01 X29.2858 Y265.8070
G01 X29.3583 Y265.8196
G01 X29.4314 Y265.8286
G01 X29.5048 Y265.8340
G01 X29.5784 Y265.8358
G01 X29.6520 Y265.8340
G01 X29.7254 Y265.8286
G01 X29.7985 Y265.8196
G01 X29.8710 Y265.8070
G01 X29.9429 Y265.7909
G01 X30.0138 Y265.7712
G01 X30.0837 Y265.7482
G01 X30.1524 Y265.7217
G01 X30.2197 Y265.6918
G01 X30.2855 Y265.6587
G01 X30.3495 Y265.6224
G01 X30.4117 Y265.5830
G01 X30.4719 Y265.5407
G01 X30.5300 Y265.4954
G01 X30.5857 Y265.4473
G01 X30.6390 Y265.3965
G01 X30.6898 Y265.3432
G01 X30.7379 Y265.2874
G01 X30.7832 Y265.2294
G01 X30.8256 Y265.1692
G01 X30.8650 Y265.1070
G01 X30.9013 Y265.0429
G01 X30.9344 Y264.9772
G01 X30.9642 Y264.9099
G01 X30.9907 Y264.8412
G01 X31.0138 Y264.7713
G01 X31.0334 Y264.7003
G01 X31.0496 Y264.6285
G01 X31.0621 Y264.5560
G01 X31.0711 Y264.4829
G01 X31.0766 Y264.4095
G01 X31.0784 Y264.3359
G01 X31.0742 Y264.2238
G01 X31.0616 Y264.1123
G01 X31.0408 Y264.0021
G01 X31.0117 Y263.8937
G01 X30.9747 Y263.7879
G01 X30.9298 Y263.6851
G01 X30.8774 Y263.5859
G01 X30.8177 Y263.4909
G01 X30.7511 Y263.4006
G01 X30.6780 Y263.3156
G01 X30.5986 Y263.2363
G01 X30.5136 Y263.1631
G01 X30.4234 Y263.0965
G01 X30.3284 Y263.0369
G01 X30.2292 Y262.9844
G01 X30.1264 Y262.9396
G01 X30.0205 Y262.9025
G01 X29.9122 Y262.8735
G01 X29.8020 Y262.8526
G01 X29.6905 Y262.8401
G01 X29.5784 Y262.8359
G01 X29.4663 Y262.8401
G01 X29.3548 Y262.8526
G01 X29.2446 Y262.8735
G01 X29.1363 Y262.9025
G01 X29.0304 Y262.9396
G01 X28.9276 Y262.9844
G01 X28.8284 Y263.0369
G01 X28.7334 Y263.0965
G01 X28.6432 Y263.1631
G01 X28.5582 Y263.2363
G01 X28.4788 Y263.3156
G01 X28.4057 Y263.4006
G01 X28.3391 Y263.4909
G01 X28.2794 Y263.5859
G01 X28.2270 Y263.6851
G01 X28.1821 Y263.7879
G01 X28.1451 Y263.8937
G01 X28.1160 Y264.0021
G01 X28.0952 Y264.1123
G01 X28.0826 Y264.2238
G01 X28.0784 Y264.3359
G01 X28.0826 Y264.4480
G01 X28.0952 Y264.5594
G01 X28.1160 Y264.6696
G01 X28.1451 Y264.7780
G01 X28.1821 Y264.8839
G01 X28.2270 Y264.9867
G01 X28.2794 Y265.0859
G01 X28.3391 Y265.1808
G01 X28.4057 Y265.2711
G01 X28.4788 Y265.3561
G01 X28.5582 Y265.4354
G01 X28.6432 Y265.5086
G01 X28.7334 Y265.5752
G01 X28.8284 Y265.6349
G01 X28.9276 Y265.6873
G01 X29.0304 Y265.7322
G01 X29.1363 Y265.7692
G01 X29.2446 Y265.7982
G01 X29.3548 Y265.8191
G01 X29.4663 Y265.8316
G01 X29.5784 Y265.8358
G01 X29.6905 Y265.8316
G01 X29.8020 Y265.8191
G01 X29.9122 Y265.7982
G01 X30.0205 Y265.7692
G01 X30.1264 Y265.7322
G01 X30.2292 Y265.6873
G01 X30.3284 Y265.6349
G01 X30.4234 Y265.5752
G01 X30.5136 Y265.5086
G01 X30.5986 Y265.4354
G01 X30.6780 Y265.3561
G01 X30.7511 Y265.2711
G01 X30.8177 Y265.1808
G01 X30.8774 Y265.0859
G01 X30.9298 Y264.9867
G01 X30.9747 Y264.8839
G01 X31.0117 Y264.7780
G01 X31.0408 Y264.6696
G01 X31.0616 Y264.5594
G01 X31.0742 Y264.4480
G01 X31.0784 Y264.3359
G01 X31.0745 Y264.2378
G01 X31.0630 Y264.1403
G01 X31.0438 Y264.0441
G01 X31.0172 Y263.9496
G01 X30.9832 Y263.8575
G01 X30.9421 Y263.7684
G01 X30.8942 Y263.6828
G01 X30.8396 Y263.6011
G01 X30.7789 Y263.5241
G01 X30.7123 Y263.4520
G01 X30.6402 Y263.3854
G01 X30.5631 Y263.3246
G01 X30.4815 Y263.2701
G01 X30.3959 Y263.2221
G01 X30.3067 Y263.1810
G01 X30.2147 Y263.1471
G01 X30.1202 Y263.1204
G01 X30.0239 Y263.1013
G01 X29.9265 Y263.0897
G01 X29.8284 Y263.0859
G01 X29.7303 Y263.0897
G01 X29.6328 Y263.1013
G01 X29.5366 Y263.1204
G01 X29.4421 Y263.1471
G01 X29.3500 Y263.1810
G01 X29.2609 Y263.2221
G01 X29.1753 Y263.2701
G01 X29.0937 Y263.3246
G01 X29.0166 Y263.3854
G01 X28.9445 Y263.4520
G01 X28.8779 Y263.5241
G01 X28.8171 Y263.6011
G01 X28.7626 Y263.6828
G01 X28.7146 Y263.7684
G01 X28.6735 Y263.8575
G01 X28.6396 Y263.9496
G01 X28.6129 Y264.0441
G01 X28.5938 Y264.1403
G01 X28.5823 Y264.2378
G01 X28.5784 Y264.3359
G01 X28.5822 Y264.4230
G01 X28.5936 Y264.5095
G01 X28.6125 Y264.5947
G01 X28.6387 Y264.6779
G01 X28.6721 Y264.7585
G01 X28.7124 Y264.8359
G01 X28.7592 Y264.9094
G01 X28.8124 Y264.9787
G01 X28.8713 Y265.0430
G01 X28.9356 Y265.1019
G01 X29.0048 Y265.1550
G01 X29.0784 Y265.2019
G01 X29.1558 Y265.2422
G01 X29.2364 Y265.2756
G01 X29.3196 Y265.3018
G01 X29.4048 Y265.3207
G01 X29.4912 Y265.3321
G01 X29.5784 Y265.3359
G01 X29.6656 Y265.3321
G01 X29.7520 Y265.3207
G01 X29.8372 Y265.3018
G01 X29.9204 Y265.2756
G01 X30.0010 Y265.2422
G01 X30.0784 Y265.2019
G01 X30.1520 Y265.1550
G01 X30.2212 Y265.1019
G01 X30.2855 Y265.0430
G01 X30.3444 Y264.9787
G01 X30.3976 Y264.9094
G01 X30.4444 Y264.8359
G01 X30.4847 Y264.7585
G01 X30.5181 Y264.6779
G01 X30.5443 Y264.5947
G01 X30.5632 Y264.5095
G01 X30.5746 Y264.4230
G01 X30.5784 Y264.3359
M107
M106 S240
G01 X30.5746 Y264.2487 Z-1.6968 F400
G01 X30.5632 Y264.1622 Z-1.7269
G01 X30.5443 Y264.0770 Z-1.7569
G01 X30.5181 Y263.9938 Z-1.7870
G01 X30.4847 Y263.9132 Z-1.8171
G01 X30.4444 Y263.8359 Z-1.8472
G01 X30.3976 Y263.7623 Z-1.8773
G01 X30.3444 Y263.6931 Z-1.9074
G01 X30.2855 Y263.6288 Z-1.9375
G01 X30.2212 Y263.5698 Z-1.9676
G01 X30.1520 Y263.5167 Z-1.9977
G01 X30.0784 Y263.4698 Z-2.0278
G01 X30.0010 Y263.4296 Z-2.0579
G01 X29.9204 Y263.3962 Z-2.0880
G01 X29.8372 Y263.3699 Z-2.1181
G01 X29.7520 Y263.3511 Z-2.1481
G01 X29.6656 Y263.3397 Z-2.1782
G01 X29.5784 Y263.3359 Z-2.2083
G01 X29.4912 Y263.3397 Z-2.2384
G01 X29.4048 Y263.3511 Z-2.2685
G01 X29.3196 Y263.3699 Z-2.2986
G01 X29.2364 Y263.3962 Z-2.3287
G01 X29.1558 Y263.4296 Z-2.3588
G01 X29.0784 Y263.4698 Z-2.3889
G01 X29.0378 Y263.4946 Z-2.4053
G01 X28.9983 Y263.5213 Z-2.4217
G01 X28.9602 Y263.5498 Z-2.4381
G01 X28.9235 Y263.5801 Z-2.4545
G01 X28.8883 Y263.6121 Z-2.4710
G01 X28.8547 Y263.6458 Z-2.4874
G01 X28.8227 Y263.6810 Z-2.5038
G01 X28.7923 Y263.7177 Z-2.5202
G01 X28.7638 Y263.7558 Z-2.5366
G01 X28.7371 Y263.7952 Z-2.5530
G01 X28.7124 Y263.8359 Z-2.5694
G01 X28.6896 Y263.8776 Z-2.5859
G01 X28.6688 Y263.9205 Z-2.6023
G01 X28.6500 Y263.9642 Z-2.6187
G01 X28.6334 Y264.0088 Z-2.6351
G01 X28.6189 Y264.0541 Z-2.6515
G01 X28.6066 Y264.1001 Z-2.6679
G01 X28.5965 Y264.1466 Z-2.6843
G01 X28.5886 Y264.1936 Z-2.7008
G01 X28.5829 Y264.2408 Z-2.7172
G01 X28.5795 Y264.2883 Z-2.7336
G01 X28.5784 Y264.3359 Z-2.7500
G01 X28.5795 Y264.3834 Z-2.7664
G01 X28.5829 Y264.4309 Z-2.7828
G01 X28.5886 Y264.4782 Z-2.7992
G01 X28.5965 Y264.5251 Z-2.8157
G01 X28.6066 Y264.5716 Z-2.8321
G01 X28.6189 Y264.6176 Z-2.8485
G01 X28.6334 Y264.6629 Z-2.8649
G01 X28.6500 Y264.7075 Z-2.8813
G01 X28.6688 Y264.7513 Z-2.8977
G01 X28.6896 Y264.7941 Z-2.9141
G01 X28.7124 Y264.8359 Z-2.9306
G01 X28.7371 Y264.8765 Z-2.9470
G01 X28.7638 Y264.9159 Z-2.9634
G01 X28.7923 Y264.9540 Z-2.9798
G01 X28.8227 Y264.9907 Z-2.9962
G01 X28.8547 Y265.0259 Z-3.0126
G01 X28.8883 Y265.0596 Z-3.0290
G01 X28.9235 Y265.0916 Z-3.0455
G01 X28.9602 Y265.1219 Z-3.0619
G01 X28.9983 Y265.1504 Z-3.0783
G01 X29.0378 Y265.1771 Z-3.0947
G01 X29.0784 Y265.2019 Z-3.1111
G01 X29.1202 Y265.2247 Z-3.1275
G01 X29.1630 Y265.2455 Z-3.1439
G01 X29.2067 Y265.2642 Z-3.1604
G01 X29.2513 Y265.2809 Z-3.1768
G01 X29.2967 Y265.2954 Z-3.1932
G01 X29.3426 Y265.3077 Z-3.2096
G01 X29.3891 Y265.3178 Z-3.2260
G01 X29.4361 Y265.3257 Z-3.2424
G01 X29.4833 Y265.3313 Z-3.2588
G01 X29.5308 Y265.3347 Z-3.2753
G01 X29.5784 Y265.3359 Z-3.2917
G01 X29.6260 Y265.3347 Z-3.3081
G01 X29.6735 Y265.3313 Z-3.3245
G01 X29.7207 Y265.3257 Z-3.3409
G01 X29.7677 Y265.3178 Z-3.3573
G01 X29.8142 Y265.3077 Z-3.3737
G01 X29.8601 Y265.2954 Z-3.3902
G01 X29.9055 Y265.2809 Z-3.4066
G01 X29.9501 Y265.2642 Z-3.4230
G01 X29.9938 Y265.2455 Z-3.4394
G01 X30.0366 Y265.2247 Z-3.4558
G01 X30.0784 Y265.2019 Z-3.4722
G01 X30.1190 Y265.1771 Z-3.4886
G01 X30.1585 Y265.1504 Z-3.5051
G01 X30.1966 Y265.1219 Z-3.5215
G01 X30.2333 Y265.0916 Z-3.5379
G01 X30.2685 Y265.0596 Z-3.5543
G01 X30.3021 Y265.0259 Z-3.5707
G01 X30.3341 Y264.9907 Z-3.5871
G01 X30.3645 Y264.9540 Z-3.6035
G01 X30.3930 Y264.9159 Z-3.6199
G01 X30.4197 Y264.8765 Z-3.6364
G01 X30.4444 Y264.8359 Z-3.6528
G01 X30.4672 Y264.7941 Z-3.6692
G01 X30.4880 Y264.7513 Z-3.6856
G01 X30.5068 Y264.7075 Z-3.7020
G01 X30.5234 Y264.6629 Z-3.7184
G01 X30.5379 Y264.6176 Z-3.7348
G01 X30.5502 Y264.5716 Z-3.7513
G01 X30.5603 Y264.5251 Z-3.7677
G01 X30.5682 Y264.4782 Z-3.7841
G01 X30.5739 Y264.4309 Z-3.8005
G01 X30.5773 Y264.3834 Z-3.8169
G01 X30.5784 Y264.3359 Z-3.8333
G01 X30.5746 Y264.2487
G01 X30.5632 Y264.1622
G01 X30.5443 Y264.0770
G01 X30.5181 Y263.9938
G01 X30.4847 Y263.9132
G01 X30.4444 Y263.8359
G01 X30.3976 Y263.7623
G01 X30.3444 Y263.6931
G01 X30.2855 Y263.6288
G01 X30.2212 Y263.5698
G01 X30.1520 Y263.5167
G01 X30.0784 Y263.4698
G01 X30.0010 Y263.4296
G01 X29.9204 Y263.3962
G01 X29.8372 Y263.3699
G01 X29.7520 Y263.3511
G01 X29.6656 Y263.3397
G01 X29.5784 Y263.3359
G01 X29.4912 Y263.3397
G01 X29.4048 Y263.3511
G01 X29.3196 Y263.3699
G01 X29.2364 Y263.3962
G01 X29.1558 Y263.4296
G01 X29.0784 Y263.4698
G01 X29.0378 Y263.4946
G01 X28.9983 Y263.5213
G01 X28.9602 Y263.5498
G01 X28.9235 Y263.5801
G01 X28.8883 Y263.6121
G01 X28.8547 Y263.6458
G01 X28.8227 Y263.6810
G01 X28.7923 Y263.7177
G01 X28.7638 Y263.7558
G01 X28.7371 Y263.7952
G01 X28.7124 Y263.8359
G01 X28.6896 Y263.8776
G01 X28.6688 Y263.9205
G01 X28.6500 Y263.9642
G01 X28.6334 Y264.0088
G01 X28.6189 Y264.0541
G01 X28.6066 Y264.1001
G01 X28.5965 Y264.1466
G01 X28.5886 Y264.1936
G01 X28.5829 Y264.2408
G01 X28.5795 Y264.2883
G01 X28.5784 Y264.3359
G01 X28.5795 Y264.3834
G01 X28.5829 Y264.4309
G01 X28.5886 Y264.4782
G01 X28.5965 Y264.5251
G01 X28.6066 Y264.5716
G01 X28.6189 Y264.6176
G01 X28.6334 Y264.6629
G01 X28.6500 Y264.7075
G01 X28.6688 Y264.7513
G01 X28.6896 Y264.7941
G01 X28.7124 Y264.8359
G01 X28.7371 Y264.8765
G01 X28.7638 Y264.9159
G01 X28.7923 Y264.9540
G01 X28.8227 Y264.9907
G01 X28.8547 Y265.0259
G01 X28.8883 Y265.0596
G01 X28.9235 Y265.0916
G01 X28.9602 Y265.1219
G01 X28.9983 Y265.1504
G01 X29.0378 Y265.1771
G01 X29.0784 Y265.2019
G01 X29.1202 Y265.2247
G01 X29.1630 Y265.2455
G01 X29.2067 Y265.2642
G01 X29.2513 Y265.2809
G01 X29.2967 Y265.2954
G01 X29.3426 Y265.3077
G01 X29.3891 Y265.3178
G01 X29.4361 Y265.3257
G01 X29.4833 Y265.3313
G01 X29.5308 Y265.3347
G01 X29.5784 Y265.3359
G01 X29.6260 Y265.3347
G01 X29.6735 Y265.3313
G01 X29.7207 Y265.3257
G01 X29.7677 Y265.3178
G01 X29.8142 Y265.3077
G01 X29.8601 Y265.2954
G01 X29.9055 Y265.2809
G01 X29.9501 Y265.2642
G01 X29.9938 Y265.2455
G01 X30.0366 Y265.2247
G01 X30.0784 Y265.2019
G01 X30.1190 Y265.1771
G01 X30.1585 Y265.1504
G01 X30.1966 Y265.1219
G01 X30.2333 Y265.0916
G01 X30.2685 Y265.0596
G01 X30.3021 Y265.0259
G01 X30.3341 Y264.9907
G01 X30.3645 Y264.9540
G01 X30.3930 Y264.9159
G01 X30.4197 Y264.8765
G01 X30.4444 Y264.8359
G01 X30.4672 Y264.7941
G01 X30.4880 Y264.7513
G01 X30.5068 Y264.7075
G01 X30.5234 Y264.6629
G01 X30.5379 Y264.6176
G01 X30.5502 Y264.5716
G01 X30.5603 Y264.5251
G01 X30.5682 Y264.4782
G01 X30.5739 Y264.4309
G01 X30.5773 Y264.3834
G01 X30.5784 Y264.3359
G01 X30.5891 Y264.2843 F1000
G01 X30.5972 Y264.2322
G01 X30.6026 Y264.1798
G01 X30.6053 Y264.1271
G01 X30.6052 Y264.0744
G01 X30.6025 Y264.0218
G01 X30.5970 Y263.9694
G01 X30.5889 Y263.9173
G01 X30.5772 Y263.8613
G01 X30.5626 Y263.8060
G01 X30.5452 Y263.7515
G01 X30.5251 Y263.6980
G01 X30.5023 Y263.6455
G01 X30.4768 Y263.5943
G01 X30.4487 Y263.5445
G01 X30.4181 Y263.4962
G01 X30.3825 Y263.4458
G01 X30.3444 Y263.3973
G01 X30.3038 Y263.3507
G01 X30.2610 Y263.3063
G01 X30.2159 Y263.2642
G01 X30.1688 Y263.2243
G01 X30.1197 Y263.1870
G01 X30.0687 Y263.1521
G01 X30.0122 Y263.1176
G01 X29.9540 Y263.0859
G01 X29.8943 Y263.0572
G01 X29.8333 Y263.0316
G01 X29.7710 Y263.0091
G01 X29.7076 Y262.9898
G01 X29.6434 Y262.9737
G01 X29.5784 Y262.9609
G01 X29.5084 Y262.9507
G01 X29.4379 Y262.9440
G01 X29.3672 Y262.9410
G01 X29.2965 Y262.9415
G01 X29.2258 Y262.9455
G01 X29.1554 Y262.9531
G01 X29.0856 Y262.9643
G01 X29.0163 Y262.9789
G01 X28.9482 Y263.0049
G01 X28.8813 Y263.0342
G01 X28.8160 Y263.0667
G01 X28.7524 Y263.1024
G01 X28.6906 Y263.1413
G01 X28.6308 Y263.1831
G01 X28.5732 Y263.2277
G01 X28.5178 Y263.2752
G01 X28.4670 Y263.3285
G01 X28.4189 Y263.3843
G01 X28.3736 Y263.4423
G01 X28.3312 Y263.5025
G01 X28.2918 Y263.5647
G01 X28.2555 Y263.6288
G01 X28.2224 Y263.6945
G01 X28.1926 Y263.7619
G01 X28.1661 Y263.8305
G01 X28.1430 Y263.9004
G01 X28.1234 Y263.9714
G01 X28.1072 Y264.0432
G01 X28.0947 Y264.1158
G01 X28.0857 Y264.1888
G01 X28.0802 Y264.2623
G01 X28.0784 Y264.3359
G01 X28.0802 Y264.4095
G01 X28.0857 Y264.4829
G01 X28.0947 Y264.5560
G01 X28.1072 Y264.6285
G01 X28.1234 Y264.7003
G01 X28.1430 Y264.7713
G01 X28.1661 Y264.8412
G01 X28.1926 Y264.9099
G01 X28.2224 Y264.9772
G01 X28.2555 Y265.0429
G01 X28.2918 Y265.1070
G01 X28.3312 Y265.1692
G01 X28.3736 Y265.2294
G01 X28.4189 Y265.2874
G01 X28.4670 Y265.3432
G01 X28.5178 Y265.3965
G01 X28.5711 Y265.4473
G01 X28.6268 Y265.4954
G01 X28.6849 Y265.5407
G01 X28.7451 Y265.5830
G01 X28.8073 Y265.6224
G01 X28.8713 Y265.6587
G01 X28.9371 Y265.6918
G01 X29.0044 Y265.7217
G01 X29.0731 Y265.7482
G01 X29.1430 Y265.7712
G01 X29.2139 Y265.7909
G01 X29.2858 Y265.8070
G01 X29.3583 Y265.8196
G01 X29.4314 Y265.8286
G01 X29.5048 Y265.8340
G01 X29.5784 Y265.8358
G01 X29.6520 Y265.8340
G01 X29.7254 Y265.8286
G01 X29.7985 Y265.8196
G01 X29.8710 Y265.8070
G01 X29.9429 Y265.7909
G01 X30.0138 Y265.7712
G01 X30.0837 Y265.7482
G01 X30.1524 Y265.7217
G01 X30.2197 Y265.6918
G01 X30.2855 Y265.6587
G01 X30.3495 Y265.6224
G01 X30.4117 Y265.5830
G01 X30.4719 Y265.5407
G01 X30.5300 Y265.4954
G01 X30.5857 Y265.4473
G01 X30.6390 Y265.3965
G01 X30.6898 Y265.3432
G01 X30.7379 Y265.2874
G01 X30.7832 Y265.2294
G01 X30.8256 Y265.1692
G01 X30.8650 Y265.1070
G01 X30.9013 Y265.0429
G01 X30.9344 Y264.9772
G01 X30.9642 Y264.9099
G01 X30.9907 Y264.8412
G01 X31.0138 Y264.7713
G01 X31.0334 Y264.7003
G01 X31.0496 Y264.6285
G01 X31.0621 Y264.5560
G01 X31.0711 Y264.4829
G01 X31.0766 Y264.4095
G01 X31.0784 Y264.3359
G01 X31.0742 Y264.2238
G01 X31.0616 Y264.1123
G01 X31.0408 Y264.0021
G01 X31.0117 Y263.8937
G01 X30.9747 Y263.7879
G01 X30.9298 Y263.6851
G01 X30.8774 Y263.5859
G01 X30.8177 Y263.4909
G01 X30.7511 Y263.4006
G01 X30.6780 Y263.3156
G01 X30.5986 Y263.2363
G01 X30.5136 Y263.1631
G01 X30.4234 Y263.0965
G01 X30.3284 Y263.0369
G01 X30.2292 Y262.9844
G01 X30.1264 Y262.9396
G01 X30.0205 Y262.9025
G01 X29.9122 Y262.8735
G01 X29.8020 Y262.8526
G01 X29.6905 Y262.8401
G01 X29.5784 Y262.8359
G01 X29.4663 Y262.8401
G01 X29.3548 Y262.8526
G01 X29.2446 Y262.8735
G01 X29.1363 Y262.9025
G01 X29.0304 Y262.9396
G01 X28.9276 Y262.9844
G01 X28.8284 Y263.0369
G01 X28.7334 Y263.0965
G01 X28.6432 Y263.1631
G01 X28.5582 Y263.2363
G01 X28.4788 Y263.3156
G01 X28.4057 Y263.4006
G01 X28.3391 Y263.4909
G01 X28.2794 Y263.5859
G01 X28.2270 Y263.6851
G01 X28.1821 Y263.7879
G01 X28.1451 Y263.8937
G01 X28.1160 Y264.0021
G01 X28.0952 Y264.1123
G01 X28.0826 Y264.2238
G01 X28.0784 Y264.3359
G01 X28.0826 Y264.4480
G01 X28.0952 Y264.5594
G01 X28.1160 Y264.6696
G01 X28.1451 Y264.7780
G01 X28.1821 Y264.8839
G01 X28.2270 Y264.9867
G01 X28.2794 Y265.0859
G01 X28.3391 Y265.1808
G01 X28.4057 Y265.2711
G01 X28.4788 Y265.3561
G01 X28.5582 Y265.4354
G01 X28.6432 Y265.5086
G01 X28.7334 Y265.5752
G01 X28.8284 Y265.6349
G01 X28.9276 Y265.6873
G01 X29.0304 Y265.7322
G01 X29.1363 Y265.7692
G01 X29.2446 Y265.7982
G01 X29.3548 Y265.8191
G01 X29.4663 Y265.8316
G01 X29.5784 Y265.8358
G01 X29.6905 Y265.8316
G01 X29.8020 Y265.8191
G01 X29.9122 Y265.7982
G01 X30.0205 Y265.7692
G01 X30.1264 Y265.7322
G01 X30.2292 Y265.6873
G01 X30.3284 Y265.6349
G01 X30.4234 Y265.5752
G01 X30.5136 Y265.5086
G01 X30.5986 Y265.4354
G01 X30.6780 Y265.3561
G01 X30.7511 Y265.2711
G01 X30.8177 Y265.1808
G01 X30.8774 Y265.0859
G01 X30.9298 Y264.9867
G01 X30.9747 Y264.8839
G01 X31.0117 Y264.7780
G01 X31.0408 Y264.6696
G01 X31.0616 Y264.5594
G01 X31.0742 Y264.4480
G01 X31.0784 Y264.3359
G01 X31.0745 Y264.2378
G01 X31.0630 Y264.1403
G01 X31.0438 Y264.0441
G01 X31.0172 Y263.9496
G01 X30.9832 Y263.8575
G01 X30.9421 Y263.7684
G01 X30.8942 Y263.6828
G01 X30.8396 Y263.6011
G01 X30.7789 Y263.5241
G01 X30.7123 Y263.4520
G01 X30.6402 Y263.3854
G01 X30.5631 Y263.3246
G01 X30.4815 Y263.2701
G01 X30.3959 Y263.2221
G01 X30.3067 Y263.1810
G01 X30.2147 Y263.1471
G01 X30.1202 Y263.1204
G01 X30.0239 Y263.1013
G01 X29.9265 Y263.0897
G01 X29.8284 Y263.0859
G01 X29.7303 Y263.0897
G01 X29.6328 Y263.1013
G01 X29.5366 Y263.1204
G01 X29.4421 Y263.1471
G01 X29.3500 Y263.1810
G01 X29.2609 Y263.2221
G01 X29.1753 Y263.2701
G01 X29.0937 Y263.3246
G01 X29.0166 Y263.3854
G01 X28.9445 Y263.4520
G01 X28.8779 Y263.5241
G01 X28.8171 Y263.6011
G01 X28.7626 Y263.6828
G01 X28.7146 Y263.7684
G01 X28.6735 Y263.8575
G01 X28.6396 Y263.9496
G01 X28.6129 Y264.0441
G01 X28.5938 Y264.1403
G01 X28.5823 Y264.2378
G01 X28.5784 Y264.3359
G01 X28.5822 Y264.4230
G01 X28.5936 Y264.5095
G01 X28.6125 Y264.5947
G01 X28.6387 Y264.6779
G01 X28.6721 Y264.7585
G01 X28.7124 Y264.8359
G01 X28.7592 Y264.9094
G01 X28.8124 Y264.9787
G01 X28.8713 Y265.0430
G01 X28.9356 Y265.1019
G01 X29.0048 Y265.1550
G01 X29.0784 Y265.2019
G01 X29.1558 Y265.2422
G01 X29.2364 Y265.2756
G01 X29.3196 Y265.3018
G01 X29.4048 Y265.3207
G01 X29.4912 Y265.3321
G01 X29.5784 Y265.3359
G01 X29.6656 Y265.3321
G01 X29.7520 Y265.3207
G01 X29.8372 Y265.3018
G01 X29.9204 Y265.2756
G01 X30.0010 Y265.2422
G01 X30.0784 Y265.2019
G01 X30.1520 Y265.1550
G01 X30.2212 Y265.1019
G01 X30.2855 Y265.0430
G01 X30.3444 Y264.9787
G01 X30.3976 Y264.9094
G01 X30.4444 Y264.8359
G01 X30.4847 Y264.7585
G01 X30.5181 Y264.6779
G01 X30.5443 Y264.5947
G01 X30.5632 Y264.5095
G01 X30.5746 Y264.4230
G01 X30.5784 Y264.3359
M107
M106 S240
G01 X30.5746 Y264.2487 Z-3.8634 F400
G01 X30.5632 Y264.1622 Z-3.8935
G01 X30.5443 Y264.0770 Z-3.9236
G01 X30.5181 Y263.9938 Z-3.9537
G01 X30.4847 Y263.9132 Z-3.9838
G01 X30.4444 Y263.8359 Z-4.0139
G01 X30.3976 Y263.7623 Z-4.0440
G01 X30.3444 Y263.6931 Z-4.0741
G01 X30.2855 Y263.6288 Z-4.1042
G01 X30.2212 Y263.5698 Z-4.1343
G01 X30.1520 Y263.5167 Z-4.1644
G01 X30.0784 Y263.4698 Z-4.1944
G01 X30.0010 Y263.4296 Z-4.2245
G01 X29.9204 Y263.3962 Z-4.2546
G01 X29.8372 Y263.3699 Z-4.2847
G01 X29.7520 Y263.3511 Z-4.3148
G01 X29.6656 Y263.3397 Z-4.3449
G01 X29.5784 Y263.3359 Z-4.3750
G01 X29.4912 Y263.3397 Z-4.4051
G01 X29.4048 Y263.3511 Z-4.4352
G01 X29.3196 Y263.3699 Z-4.4653
G01 X29.2364 Y263.3962 Z-4.4954
G01 X29.1558 Y263.4296 Z-4.5255
G01 X29.0784 Y263.4698 Z-4.5556
G01 X29.0378 Y263.4946 Z-4.5720
G01 X28.9983 Y263.5213 Z-4.5884
G01 X28.9602 Y263.5498 Z-4.6048
G01 X28.9235 Y263.5801 Z-4.6212
G01 X28.8883 Y263.6121 Z-4.6376
G01 X28.8547 Y263.6458 Z-4.6540
G01 X28.8227 Y263.6810 Z-4.6705
G01 X28.7923 Y263.7177 Z-4.6869
G01 X28.7638 Y263.7558 Z-4.7033
G01 X28.7371 Y263.7952 Z-4.7197
G01 X28.7124 Y263.8359 Z-4.7361
G01 X28.6896 Y263.8776 Z-4.7525
G01 X28.6688 Y263.9205 Z-4.7689
G01 X28.6500 Y263.9642 Z-4.7854
G01 X28.6334 Y264.0088 Z-4.8018
G01 X28.6189 Y264.0541 Z-4.8182
G01 X28.6066 Y264.1001 Z-4.8346
G01 X28.5965 Y264.1466 Z-4.8510
G01 X28.5886 Y264.1936 Z-4.8674
G01 X28.5829 Y264.2408 Z-4.8838
G01 X28.5795 Y264.2883 Z-4.9003
G01 X28.5784 Y264.3359 Z-4.9167
G01 X28.5795 Y264.3834 Z-4.9331
G01 X28.5829 Y264.4309 Z-4.9495
G01 X28.5886 Y264.4782 Z-4.9659
G01 X28.5965 Y264.5251 Z-4.9823
G01 X28.6066 Y264.5716 Z-4.9987
G01 X28.6189 Y264.6176 Z-5.0152
G01 X28.6334 Y264.6629 Z-5.0316
G01 X28.6500 Y264.7075 Z-5.0480
G01 X28.6688 Y264.7513 Z-5.0644
G01 X28.6896 Y264.7941 Z-5.0808
G01 X28.7124 Y264.8359 Z-5.0972
G01 X28.7371 Y264.8765 Z-5.1136
G01 X28.7638 Y264.9159 Z-5.1301
G01 X28.7923 Y264.9540 Z-5.1465
G01 X28.8227 Y264.9907 Z-5.1629
G01 X28.8547 Y265.0259 Z-5.1793
G01 X28.8883 Y265.0596 Z-5.1957
G01 X28.9235 Y265.0916 Z-5.2121
G01 X28.9602 Y265.1219 Z-5.2285
G01 X28.9983 Y265.1504 Z-5.2449
G01 X29.0378 Y265.1771 Z-5.2614
G01 X29.0784 Y265.2019 Z-5.2778
G01 X29.1202 Y265.2247 Z-5.2942
G01 X29.1630 Y265.2455 Z-5.3106
G01 X29.2067 Y265.2642 Z-5.3270
G01 X29.2513 Y265.2809 Z-5.3434
G01 X29.2967 Y265.2954 Z-5.3598
G01 X29.3426 Y265.3077 Z-5.3763
G01 X29.3891 Y265.3178 Z-5.3927
G01 X29.4361 Y265.3257 Z-5.4091
G01 X29.4833 Y265.3313 Z-5.4255
G01 X29.5308 Y265.3347 Z-5.4419
G01 X29.5784 Y265.3359 Z-5.4583
G01 X29.6260 Y265.3347 Z-5.4747
G01 X29.6735 Y265.3313 Z-5.4912
G01 X29.7207 Y265.3257 Z-5.5076
G01 X29.7677 Y265.3178 Z-5.5240
G01 X29.8142 Y265.3077 Z-5.5404
G01 X29.8601 Y265.2954 Z-5.5568
G01 X29.9055 Y265.2809 Z-5.5732
G01 X29.9501 Y265.2642 Z-5.5896
G01 X29.9938 Y265.2455 Z-5.6061
G01 X30.0366 Y265.2247 Z-5.6225
G01 X30.0784 Y265.2019 Z-5.6389
G01 X30.1190 Y265.1771 Z-5.6553
G01 X30.1585 Y265.1504 Z-5.6717
G01 X30.1966 Y265.1219 Z-5.6881
G01 X30.2333 Y265.0916 Z-5.7045
G01 X30.2685 Y265.0596 Z-5.7210
G01 X30.3021 Y265.0259 Z-5.7374
G01 X30.3341 Y264.9907 Z-5.7538
G01 X30.3645 Y264.9540 Z-5.7702
G01 X30.3930 Y264.9159 Z-5.7866
G01 X30.4197 Y264.8765 Z-5.8030
G01 X30.4444 Y264.8359 Z-5.8194
G01 X30.4672 Y264.7941 Z-5.8359
G01 X30.4880 Y264.7513 Z-5.8523
G01 X30.5068 Y264.7075 Z-5.8687
G01 X30.5234 Y264.6629 Z-5.8851
G01 X30.5379 Y264.6176 Z-5.9015
G01 X30.5502 Y264.5716 Z-5.9179
G01 X30.5603 Y264.5251 Z-5.9343
G01 X30.5682 Y264.4782 Z-5.9508
G01 X30.5739 Y264.4309 Z-5.9672
G01 X30.5773 Y264.3834 Z-5.9836
G01 X30.5784 Y264.3359 Z-6.0000
G01 X30.5746 Y264.2487
G01 X30.5632 Y264.1622
G01 X30.5443 Y264.0770
G01 X30.5181 Y263.9938
G01 X30.4847 Y263.9132
G01 X30.4444 Y263.8359
G01 X30.3976 Y263.7623
G01 X30.3444 Y263.6931
G01 X30.2855 Y263.6288
G01 X30.2212 Y263.5698
G01 X30.1520 Y263.5167
G01 X30.0784 Y263.4698
G01 X30.0010 Y263.4296
G01 X29.9204 Y263.3962
G01 X29.8372 Y263.3699
G01 X29.7520 Y263.3511
G01 X29.6656 Y263.3397
G01 X29.5784 Y263.3359
G01 X29.4912 Y263.3397
G01 X29.4048 Y263.3511
G01 X29.3196 Y263.3699
G01 X29.2364 Y263.3962
G01 X29.1558 Y263.4296
G01 X29.0784 Y263.4698
G01 X29.0378 Y263.4946
G01 X28.9983 Y263.5213
G01 X28.9602 Y263.5498
G01 X28.9235 Y263.5801
G01 X28.8883 Y263.6121
G01 X28.8547 Y263.6458
G01 X28.8227 Y263.6810
G01 X28.7923 Y263.7177
G01 X28.7638 Y263.7558
G01 X28.7371 Y263.7952
G01 X28.7124 Y263.8359
G01 X28.6896 Y263.8776
G01 X28.6688 Y263.9205
G01 X28.6500 Y263.9642
G01 X28.6334 Y264.0088
G01 X28.6189 Y264.0541
G01 X28.6066 Y264.1001
G01 X28.5965 Y264.1466
G01 X28.5886 Y264.1936
G01 X28.5829 Y264.2408
G01 X28.5795 Y264.2883
G01 X28.5784 Y264.3359
G01 X28.5795 Y264.3834
G01 X28.5829 Y264.4309
G01 X28.5886 Y264.4782
G01 X28.5965 Y264.5251
G01 X28.6066 Y264.5716
G01 X28.6189 Y264.6176
G01 X28.6334 Y264.6629
G01 X28.6500 Y264.7075
G01 X28.6688 Y264.7513
G01 X28.6896 Y264.7941
G01 X28.7124 Y264.8359
G01 X28.7371 Y264.8765
G01 X28.7638 Y264.9159
G01 X28.7923 Y264.9540
G01 X28.8227 Y264.9907
G01 X28.8547 Y265.0259
G01 X28.8883 Y265.0596
G01 X28.9235 Y265.0916
G01 X28.9602 Y265.1219
G01 X28.9983 Y265.1504
G01 X29.0378 Y265.1771
G01 X29.0784 Y265.2019
G01 X29.1202 Y265.2247
G01 X29.1630 Y265.2455
G01 X29.2067 Y265.2642
G01 X29.2513 Y265.2809
G01 X29.2967 Y265.2954
G01 X29.3426 Y265.3077
G01 X29.3891 Y265.3178
G01 X29.4361 Y265.3257
G01 X29.4833 Y265.3313
G01 X29.5308 Y265.3347
G01 X29.5784 Y265.3359
G01 X29.6260 Y265.3347
G01 X29.6735 Y265.3313
G01 X29.7207 Y265.3257
G01 X29.7677 Y265.3178
G01 X29.8142 Y265.3077
G01 X29.8601 Y265.2954
G01 X29.9055 Y265.2809
G01 X29.9501 Y265.2642
G01 X29.9938 Y265.2455
G01 X30.0366 Y265.2247
G01 X30.0784 Y265.2019
G01 X30.1190 Y265.1771
G01 X30.1585 Y265.1504
G01 X30.1966 Y265.1219
G01 X30.2333 Y265.0916
G01 X30.2685 Y265.0596
G01 X30.3021 Y265.0259
G01 X30.3341 Y264.9907
G01 X30.3645 Y264.9540
G01 X30.3930 Y264.9159
G01 X30.4197 Y264.8765
G01 X30.4444 Y264.8359
G01 X30.4672 Y264.7941
G01 X30.4880 Y264.7513
G01 X30.5068 Y264.7075
G01 X30.5234 Y264.6629
G01 X30.5379 Y264.6176
G01 X30.5502 Y264.5716
G01 X30.5603 Y264.5251
G01 X30.5682 Y264.4782
G01 X30.5739 Y264.4309
G01 X30.5773 Y264.3834
G01 X30.5784 Y264.3359
G01 X30.5891 Y264.2843 F1000
G01 X30.5972 Y264.2322
G01 X30.6026 Y264.1798
G01 X30.6053 Y264.1271
G01 X30.6052 Y264.0744
G01 X30.6025 Y264.0218
G01 X30.5970 Y263.9694
G01 X30.5889 Y263.9173
G01 X30.5772 Y263.8613
G01 X30.5626 Y263.8060
G01 X30.5452 Y263.7515
G01 X30.5251 Y263.6980
G01 X30.5023 Y263.6455
G01 X30.4768 Y263.5943
G01 X30.4487 Y263.5445
G01 X30.4181 Y263.4962
G01 X30.3825 Y263.4458
G01 X30.3444 Y263.3973
G01 X30.3038 Y263.3507
G01 X30.2610 Y263.3063
G01 X30.2159 Y263.2642
G01 X30.1688 Y263.2243
G01 X30.1197 Y263.1870
G01 X30.0687 Y263.1521
G01 X30.0122 Y263.1176
G01 X29.9540 Y263.0859
G01 X29.8943 Y263.0572
G01 X29.8333 Y263.0316
G01 X29.7710 Y263.0091
G01 X29.7076 Y262.9898
G01 X29.6434 Y262.9737
G01 X29.5784 Y262.9609
G01 X29.5084 Y262.9507
G01 X29.4379 Y262.9440
G01 X29.3672 Y262.9410
G01 X29.2965 Y262.9415
G01 X29.2258 Y262.9455
G01 X29.1554 Y262.9531
G01 X29.0856 Y262.9643
G01 X29.0163 Y262.9789
G01 X28.9482 Y263.0049
G01 X28.8813 Y263.0342
G01 X28.8160 Y263.0667
G01 X28.7524 Y263.1024
G01 X28.6906 Y263.1413
G01 X28.6308 Y263.1831
G01 X28.5732 Y263.2277
G01 X28.5178 Y263.2752
G01 X28.4670 Y263.3285
G01 X28.4189 Y263.3843
G01 X28.3736 Y263.4423
G01 X28.3312 Y263.5025
G01 X28.2918 Y263.5647
G01 X28.2555 Y263.6288
G01 X28.2224 Y263.6945
G01 X28.1926 Y263.7619
G01 X28.1661 Y263.8305
G01 X28.1430 Y263.9004
G01 X28.1234 Y263.9714
G01 X28.1072 Y264.0432
G01 X28.0947 Y264.1158
G01 X28.0857 Y264.1888
G01 X28.0802 Y264.2623
G01 X28.0784 Y264.3359
G01 X28.0802 Y264.4095
G01 X28.0857 Y264.4829
G01 X28.0947 Y264.5560
G01 X28.1072 Y264.6285
G01 X28.1234 Y264.7003
G01 X28.1430 Y264.7713
G01 X28.1661 Y264.8412
G01 X28.1926 Y264.9099
G01 X28.2224 Y264.9772
G01 X28.2555 Y265.0429
G01 X28.2918 Y265.1070
G01 X28.3312 Y265.1692
G01 X28.3736 Y265.2294
G01 X28.4189 Y265.2874
G01 X28.4670 Y265.3432
G01 X28.5178 Y265.3965
G01 X28.5711 Y265.4473
G01 X28.6268 Y265.4954
G01 X28.6849 Y265.5407
G01 X28.7451 Y265.5830
G01 X28.8073 Y265.6224
G01 X28.8713 Y265.6587
G01 X28.9371 Y265.6918
G01 X29.0044 Y265.7217
G01 X29.0731 Y265.7482
G01 X29.1430 Y265.7712
G01 X29.2139 Y265.7909
G01 X29.2858 Y265.8070
G01 X29.3583 Y265.8196
G01 X29.4314 Y265.8286
G01 X29.5048 Y265.8340
G01 X29.5784 Y265.8358
G01 X29.6520 Y265.8340
G01 X29.7254 Y265.8286
G01 X29.7985 Y265.8196
G01 X29.8710 Y265.8070
G01 X29.9429 Y265.7909
G01 X30.0138 Y265.7712
G01 X30.0837 Y265.7482
G01 X30.1524 Y265.7217
G01 X30.2197 Y265.6918
G01 X30.2855 Y265.6587
G01 X30.3495 Y265.6224
G01 X30.4117 Y265.5830
G01 X30.4719 Y265.5407
G01 X30.5300 Y265.4954
G01 X30.5857 Y265.4473
G01 X30.6390 Y265.3965
G01 X30.6898 Y265.3432
G01 X30.7379 Y265.2874
G01 X30.7832 Y265.2294
G01 X30.8256 Y265.1692
G01 X30.8650 Y265.1070
G01 X30.9013 Y265.0429
G01 X30.9344 Y264.9772
G01 X30.9642 Y264.9099
G01 X30.9907 Y264.8412
G01 X31.0138 Y264.7713
G01 X31.0334 Y264.7003
G01 X31.0496 Y264.6285
G01 X31.0621 Y264.5560
G01 X31.0711 Y264.4829
G01 X31.0766 Y264.4095
G01 X31.0784 Y264.3359
G01 X31.0742 Y264.2238
G01 X31.0616 Y264.1123
G01 X31.0408 Y264.0021
G01 X31.0117 Y263.8937
G01 X30.9747 Y263.7879
G01 X30.9298 Y263.6851
G01 X30.8774 Y263.5859
G01 X30.8177 Y263.4909
G01 X30.7511 Y263.4006
G01 X30.6780 Y263.3156
G01 X30.5986 Y263.2363
G01 X30.5136 Y263.1631
G01 X30.4234 Y263.0965
G01 X30.3284 Y263.0369
G01 X30.2292 Y262.9844
G01 X30.1264 Y262.9396
G01 X30.0205 Y262.9025
G01 X29.9122 Y262.8735
G01 X29.8020 Y262.8526
G01 X29.6905 Y262.8401
G01 X29.5784 Y262.8359
G01 X29.4663 Y262.8401
G01 X29.3548 Y262.8526
G01 X29.2446 Y262.8735
G01 X29.1363 Y262.9025
G01 X29.0304 Y262.9396
G01 X28.9276 Y262.9844
G01 X28.8284 Y263.0369
G01 X28.7334 Y263.0965
G01 X28.6432 Y263.1631
G01 X28.5582 Y263.2363
G01 X28.4788 Y263.3156
G01 X28.4057 Y263.4006
G01 X28.3391 Y263.4909
G01 X28.2794 Y263.5859
G01 X28.2270 Y263.6851
G01 X28.1821 Y263.7879
G01 X28.1451 Y263.8937
G01 X28.1160 Y264.0021
G01 X28.0952 Y264.1123
G01 X28.0826 Y264.2238
G01 X28.0784 Y264.3359
G01 X28.0826 Y264.4480
G01 X28.0952 Y264.5594
G01 X28.1160 Y264.6696
G01 X28.1451 Y264.7780
G01 X28.1821 Y264.8839
G01 X28.2270 Y264.9867
G01 X28.2794 Y265.0859
G01 X28.3391 Y265.1808
G01 X28.4057 Y265.2711
G01 X28.4788 Y265.3561
G01 X28.5582 Y265.4354
G01 X28.6432 Y265.5086
G01 X28.7334 Y265.5752
G01 X28.8284 Y265.6349
G01 X28.9276 Y265.6873
G01 X29.0304 Y265.7322
G01 X29.1363 Y265.7692
G01 X29.2446 Y265.7982
G01 X29.3548 Y265.8191
G01 X29.4663 Y265.8316
G01 X29.5784 Y265.8358
G01 X29.6905 Y265.8316
G01 X29.8020 Y265.8191
G01 X29.9122 Y265.7982
G01 X30.0205 Y265.7692
G01 X30.1264 Y265.7322
G01 X30.2292 Y265.6873
G01 X30.3284 Y265.6349
G01 X30.4234 Y265.5752
G01 X30.5136 Y265.5086
G01 X30.5986 Y265.4354
G01 X30.6780 Y265.3561
G01 X30.7511 Y265.2711
G01 X30.8177 Y265.1808
G01 X30.8774 Y265.0859
G01 X30.9298 Y264.9867
G01 X30.9747 Y264.8839
G01 X31.0117 Y264.7780
G01 X31.0408 Y264.6696
G01 X31.0616 Y264.5594
G01 X31.0742 Y264.4480
G01 X31.0784 Y264.3359
M107
M106 S240
G01 X31.0753 Y264.2574 Z-5.9750 F400
M107
M106 S240
G01 X31.0661 Y264.1794 Z-5.9500
M107
M106 S240
G01 X31.0507 Y264.1024 Z-5.9250
M107
M106 S240
G01 X31.0294 Y264.0268 Z-5.9000
M107
M106 S240
G01 X31.0023 Y263.9532 Z-5.8750
M107
M106 S240
G01 X30.9694 Y263.8819 Z-5.8500
M107
M106 S240
G01 X30.9310 Y263.8134 Z-5.8250
M107
M106 S240
G01 X30.8874 Y263.7481 Z-5.8000
M107
M106 S240
G01 X30.8388 Y263.6864 Z-5.7750
M107
M106 S240
G01 X30.7855 Y263.6288 Z-5.7500
M107
M106 S240
G01 X30.7278 Y263.5755 Z-5.7250
M107
M106 S240
G01 X30.6662 Y263.5268 Z-5.7000
M107
M106 S240
G01 X30.6009 Y263.4832 Z-5.6750
M107
M106 S240
G01 X30.5324 Y263.4449 Z-5.6500
M107
M106 S240
G01 X30.4611 Y263.4120 Z-5.6250
M107
M106 S240
G01 X30.3874 Y263.3848 Z-5.6000
M107
M106 S240
G01 X30.3118 Y263.3635 Z-5.5750
M107
M106 S240
G01 X30.2348 Y263.3482 Z-5.5500
M107
M106 S240
G01 X30.1568 Y263.3389 Z-5.5250
M107
M106 S240
G01 X30.0784 Y263.3359 Z-5.5000
M107
G00 Z2.0000


;No. 2: Hole 15
G00 X28.6630 Y241.7916 Z2.0000
G00 Z0.5000
G01 Z0.0000 F400
G01 Z-1.8000
M106 S240
G01 X52.1343 F1000
G01 X50.5698 Y240.2916
G01 X30.1898
G01 X38.9559
G01 Y238.7916
G01 X41.8467
G01 X41.8439 Y237.2916
G01 X38.9588
G01 Y235.7916
G01 X41.8439
G01 Y234.2916
G01 X38.9588
G01 Y232.7916
G01 X41.8439
G01 Y231.2916
G01 X38.9588
G01 Y229.7916
G01 X41.8439
G01 Y228.2916
G01 X38.9588
G01 Y226.7916
G01 X41.8439
G01 Y225.2916
G01 X38.9588
G01 Y223.7916
G01 X41.8439
G01 X42.0439 Y223.8066
G01 Y222.5787
G01 X38.7588
G01 Y238.7192
G01 X38.7578 Y238.7628
G01 X38.7549 Y238.8064
G01 X38.7502 Y238.8498
G01 X38.7436 Y238.8929
G01 X38.7351 Y238.9357
G01 X38.7247 Y238.9780
G01 X38.7125 Y239.0199
G01 X38.6984 Y239.0612
G01 X38.6826 Y239.1019
G01 X38.6651 Y239.1418
G01 X38.6458 Y239.1810
G01 X38.6248 Y239.2192
G01 X38.6021 Y239.2565
G01 X38.5779 Y239.2928
G01 X38.5521 Y239.3280
G01 X38.5248 Y239.3620
G01 X38.4960 Y239.3948
G01 X38.4659 Y239.4263
G01 X38.4343 Y239.4565
G01 X38.4015 Y239.4853
G01 X38.3675 Y239.5126
G01 X38.3323 Y239.5384
G01 X38.2961 Y239.5626
G01 X38.2588 Y239.5852
G01 X38.2205 Y239.6062
G01 X38.1814 Y239.6255
G01 X38.1414 Y239.6431
G01 X38.1008 Y239.6589
G01 X38.0595 Y239.6729
G01 X38.0176 Y239.6851
G01 X37.9752 Y239.6955
G01 X37.9324 Y239.7040
G01 X37.8893 Y239.7107
G01 X37.8459 Y239.7154
G01 X37.8024 Y239.7183
G01 X37.7588 Y239.7192
G01 X36.2410 Y239.7012
G01 X34.7231 Y239.6957
G01 X33.2053 Y239.7025
G01 X31.6876 Y239.7217
G01 X31.3557 Y239.7441
G01 X31.0272 Y239.7959
G01 X30.7047 Y239.8770
G01 X30.3906 Y239.9864
G01 X30.0876 Y240.1235
G01 X29.7980 Y240.2871
G01 X29.5242 Y240.4759
G01 X29.2684 Y240.6883
G01 X29.0325 Y240.9228
G01 X28.8185 Y241.1774
G01 X28.6281 Y241.4501
G01 X28.4628 Y241.7386
G01 X28.3239 Y242.0408
G01 X28.2125 Y242.3542
G01 X28.1296 Y242.6763
G01 X28.0758 Y243.0045
G01 X52.7268
G01 X52.6657 Y242.6696
G01 X52.5749 Y242.3415
G01 X52.4551 Y242.0229
G01 X52.3073 Y241.7163
G01 X52.1326 Y241.4241
G01 X51.9324 Y241.1488
G01 X51.7084 Y240.8925
G01 X51.4624 Y240.6572
G01 X51.1962 Y240.4450
G01 X50.9122 Y240.2574
G01 X50.6125 Y240.0960
G01 X50.2995 Y239.9621
G01 X49.9758 Y239.8568
G01 X49.6440 Y239.7808
G01 X49.3067 Y239.7349
G01 X48.9667 Y239.7193
G01 X43.0439
G01 X43.0003 Y239.7184
G01 X42.9567 Y239.7155
G01 X42.9134 Y239.7108
G01 X42.8703 Y239.7041
G01 X42.8275 Y239.6956
G01 X42.7851 Y239.6852
G01 X42.7432 Y239.6730
G01 X42.7019 Y239.6590
G01 X42.6612 Y239.6432
G01 X42.6213 Y239.6256
G01 X42.5822 Y239.6063
G01 X42.5439 Y239.5853
G01 X42.5066 Y239.5627
G01 X42.4703 Y239.5385
G01 X42.4351 Y239.5127
G01 X42.4011 Y239.4854
G01 X42.3683 Y239.4566
G01 X42.3368 Y239.4264
G01 X42.3066 Y239.3949
G01 X42.2779 Y239.3621
G01 X42.2506 Y239.3281
G01 X42.2248 Y239.2929
G01 X42.2005 Y239.2566
G01 X42.1779 Y239.2193
G01 X42.1569 Y239.1811
G01 X42.1376 Y239.1419
G01 X42.1200 Y239.1020
G01 X42.1042 Y239.0613
G01 X42.0902 Y239.0200
G01 X42.0780 Y238.9781
G01 X42.0676 Y238.9358
G01 X42.0591 Y238.8930
G01 X42.0525 Y238.8498
G01 X42.0477 Y238.8065
G01 X42.0449 Y238.7629
G01 X42.0439 Y238.7193
G01 Y223.8066
G01 X41.8439 Y223.7916
M107
G00 Z2.0000


;No. 3: Hole 14
G00 X62.2315 Y241.3618 Z2.0000
G00 Z0.5000
G01 Z0.0000 F400
G01 Z-1.8000
M106 S240
G01 X85.1520 F1000
G01 X85.3277 Y241.2626
G01 X85.1428 Y241.0307
G01 X84.9402 Y240.8139
G01 X84.7213 Y240.6137
G01 X84.4875 Y240.4312
G01 X84.2400 Y240.2676
G01 X83.9805 Y240.1239
G01 X83.7105 Y240.0009
G01 X83.4318 Y239.8995
G01 X83.1459 Y239.8202
G01 X82.8547 Y239.7635
G01 X82.5600 Y239.7298
G01 X82.2635 Y239.7192
G01 X65.1361
G01 X64.7942 Y239.7291
G01 X64.4546 Y239.7702
G01 X64.1202 Y239.8424
G01 X63.7938 Y239.9449
G01 X63.4782 Y240.0769
G01 X63.1761 Y240.2373
G01 X62.8899 Y240.4247
G01 X62.6222 Y240.6376
G01 X62.3751 Y240.8742
G01 X62.1507 Y241.1324
G01 X61.9509 Y241.4101
G01 X61.7775 Y241.7050
G01 X61.6319 Y242.0145
G01 X61.5152 Y242.3361
G01 X61.4286 Y242.6670
G01 X61.3726 Y243.0045
G01 X86.0237 Y243.0044
G01 X85.9890 Y242.7697
G01 X85.9387 Y242.5379
G01 X85.8731 Y242.3099
G01 X85.7925 Y242.0868
G01 X85.6972 Y241.8696
G01 X85.5876 Y241.6592
G01 X85.4643 Y241.4566
G01 X85.3277 Y241.2626
G01 X85.1520 Y241.3618
M107
G00 Z2.0000


;No. 4: Hole 13
G00 X85.1520 Y232.7916 Z2.0000
G00 Z0.5000
G01 Z0.0000 F400
G01 Z-1.8000
M106 S240
G01 X62.2315 F1000
G01 X62.0702 Y232.6733
G01 X61.9342 Y232.8702
G01 X61.8111 Y233.0756
G01 X61.7017 Y233.2885
G01 X61.6064 Y233.5081
G01 X61.5255 Y233.7334
G01 X61.4594 Y233.9635
G01 X61.4084 Y234.1974
G01 X61.3726 Y234.4342
G01 X86.0237 Y234.4341
G01 X85.9629 Y234.0991
G01 X85.8723 Y233.7709
G01 X85.7527 Y233.4521
G01 X85.6049 Y233.1454
G01 X85.4303 Y232.8531
G01 X85.2302 Y232.5776
G01 X85.0062 Y232.3212
G01 X84.7601 Y232.0859
G01 X84.4939 Y231.8737
G01 X84.2097 Y231.6861
G01 X83.9099 Y231.5247
G01 X83.5968 Y231.3909
G01 X83.2730 Y231.2857
G01 X82.9411 Y231.2099
G01 X82.6037 Y231.1642
G01 X82.2635 Y231.1490
G01 X65.1361
G01 X64.8394 Y231.1541
G01 X64.5441 Y231.1831
G01 X64.2521 Y231.2358
G01 X63.9653 Y231.3120
G01 X63.6856 Y231.4110
G01 X63.4148 Y231.5323
G01 X63.1546 Y231.6750
G01 X62.9069 Y231.8382
G01 X62.6731 Y232.0209
G01 X62.4548 Y232.2219
G01 X62.2534 Y232.4398
G01 X62.0702 Y232.6733
G01 X62.2315 Y232.7916
M107
G00 Z2.0000


;No. 5: Hole 12
G00 X62.2315 Y224.2212 Z2.0000
G00 Z0.5000
G01 Z0.0000 F400
G01 Z-1.8000
M106 S240
G01 X85.1520 F1000
G01 X85.3277 Y224.1221
G01 X85.1428 Y223.8901
G01 X84.9402 Y223.6734
G01 X84.7213 Y223.4731
G01 X84.4875 Y223.2906
G01 X84.2400 Y223.1270
G01 X83.9805 Y222.9833
G01 X83.7105 Y222.8603
G01 X83.4318 Y222.7589
G01 X83.1459 Y222.6796
G01 X82.8547 Y222.6229
G01 X82.5600 Y222.5892
G01 X82.2635 Y222.5787
G01 X65.1361
G01 X64.7940 Y222.5882
G01 X64.4543 Y222.6291
G01 X64.1198 Y222.7010
G01 X63.7933 Y222.8034
G01 X63.4776 Y222.9353
G01 X63.1753 Y223.0956
G01 X62.8891 Y223.2830
G01 X62.6212 Y223.4960
G01 X62.3741 Y223.7326
G01 X62.1497 Y223.9909
G01 X61.9500 Y224.2687
G01 X61.7767 Y224.5638
G01 X61.6311 Y224.8734
G01 X61.5147 Y225.1952
G01 X61.4283 Y225.5262
G01 X61.3726 Y225.8638
G01 X86.0237
G01 X85.9890 Y225.6291
G01 X85.9387 Y225.3973
G01 X85.8731 Y225.1694
G01 X85.7925 Y224.9463
G01 X85.6972 Y224.7290
G01 X85.5876 Y224.5186
G01 X85.4643 Y224.3160
G01 X85.3277 Y224.1221
G01 X85.1520 Y224.2212
M107
G00 Z2.0000


;No. 6: Hole 11
G00 X95.2653 Y223.7916 Z2.0000
G00 Z0.5000
G01 Z0.0000 F400
G01 Z-1.8000
M106 S240
G01 X119.1524 F1000
G01 Y225.2916
G01 X96.8227
G01 X116.2644
G01 Y226.7916
G01 X119.1524
G01 Y228.2916
G01 X116.2673
G01 Y229.7916
G01 X119.1524
G01 Y231.2916
G01 X115.4334
G01 X119.1524 Y232.7916
G01 X94.8415
G01 Y234.2916
G01 X98.5605
G01 X97.7266
G01 Y235.7916
G01 X94.8415
G01 Y237.2916
G01 X97.7266
G01 X97.7295 Y238.7916
G01 X94.8415
G01 Y240.2916
G01 X117.1654
G01 X118.7300 Y241.7916
G01 X94.8415
G01 X94.6415 Y241.7771
G01 Y243.0045
G01 X119.3224
G01 X119.2613 Y242.6696
G01 X119.1706 Y242.3415
G01 X119.0508 Y242.0229
G01 X118.9029 Y241.7163
G01 X118.7282 Y241.4241
G01 X118.5280 Y241.1488
G01 X118.3040 Y240.8925
G01 X118.0580 Y240.6572
G01 X117.7919 Y240.4450
G01 X117.5078 Y240.2574
G01 X117.2081 Y240.0960
G01 X116.8951 Y239.9621
G01 X116.5714 Y239.8568
G01 X116.2396 Y239.7808
G01 X115.9023 Y239.7349
G01 X115.5623 Y239.7193
G01 X98.9266
G01 X98.8482 Y239.7162
G01 X98.7702 Y239.7070
G01 X98.6932 Y239.6917
G01 X98.6176 Y239.6704
G01 X98.5439 Y239.6432
G01 X98.4726 Y239.6103
G01 X98.4041 Y239.5720
G01 X98.3388 Y239.5283
G01 X98.2772 Y239.4797
G01 X98.2195 Y239.4264
G01 X98.1662 Y239.3688
G01 X98.1176 Y239.3071
G01 X98.0740 Y239.2418
G01 X98.0356 Y239.1733
G01 X98.0027 Y239.1020
G01 X97.9756 Y239.0283
G01 X97.9543 Y238.9528
G01 X97.9389 Y238.8758
G01 X97.9297 Y238.7978
G01 X97.9266 Y238.7193
G01 Y235.4342
G01 X97.9276 Y235.3905
G01 X97.9304 Y235.3470
G01 X97.9352 Y235.3036
G01 X97.9418 Y235.2605
G01 X97.9503 Y235.2177
G01 X97.9607 Y235.1753
G01 X97.9729 Y235.1335
G01 X97.9869 Y235.0921
G01 X98.0027 Y235.0515
G01 X98.0203 Y235.0115
G01 X98.0396 Y234.9724
G01 X98.0606 Y234.9342
G01 X98.0832 Y234.8969
G01 X98.1075 Y234.8606
G01 X98.1333 Y234.8254
G01 X98.1606 Y234.7914
G01 X98.1893 Y234.7586
G01 X98.2195 Y234.7271
G01 X98.2510 Y234.6969
G01 X98.2838 Y234.6681
G01 X98.3179 Y234.6408
G01 X98.3530 Y234.6150
G01 X98.3893 Y234.5908
G01 X98.4266 Y234.5681
G01 X98.4649 Y234.5472
G01 X98.5040 Y234.5279
G01 X98.5439 Y234.5103
G01 X98.5846 Y234.4945
G01 X98.6259 Y234.4804
G01 X98.6678 Y234.4682
G01 X98.7102 Y234.4579
G01 X98.7530 Y234.4494
G01 X98.7961 Y234.4427
G01 X98.8395 Y234.4380
G01 X98.8830 Y234.4351
G01 X98.9266 Y234.4342
G01 X119.3524
G01 Y222.5787
G01 X94.6715
G01 X94.7321 Y222.9138
G01 X94.8225 Y223.2421
G01 X94.9421 Y223.5609
G01 X95.0897 Y223.8678
G01 X95.2643 Y224.1601
G01 X95.4644 Y224.4357
G01 X95.6884 Y224.6921
G01 X95.9346 Y224.9274
G01 X96.2008 Y225.1398
G01 X96.4850 Y225.3273
G01 X96.7849 Y225.4886
G01 X97.0980 Y225.6224
G01 X97.4219 Y225.7275
G01 X97.7539 Y225.8032
G01 X98.0914 Y225.8487
G01 X98.4316 Y225.8638
G01 X115.0673
G01 X115.1457 Y225.8669
G01 X115.2237 Y225.8762
G01 X115.3007 Y225.8915
G01 X115.3763 Y225.9128
G01 X115.4499 Y225.9400
G01 X115.5212 Y225.9728
G01 X115.5898 Y226.0112
G01 X115.6550 Y226.0548
G01 X115.7167 Y226.1034
G01 X115.7744 Y226.1567
G01 X115.8277 Y226.2144
G01 X115.8763 Y226.2761
G01 X115.9199 Y226.3414
G01 X115.9583 Y226.4099
G01 X115.9911 Y226.4812
G01 X116.0183 Y226.5548
G01 X116.0396 Y226.6304
G01 X116.0549 Y226.7074
G01 X116.0642 Y226.7854
G01 X116.0673 Y226.8638
G01 Y230.1490
G01 X116.0663 Y230.1926
G01 X116.0634 Y230.2362
G01 X116.0587 Y230.2795
G01 X116.0521 Y230.3227
G01 X116.0436 Y230.3654
G01 X116.0332 Y230.4078
G01 X116.0210 Y230.4497
G01 X116.0069 Y230.4910
G01 X115.9911 Y230.5317
G01 X115.9736 Y230.5716
G01 X115.9543 Y230.6108
G01 X115.9333 Y230.6490
G01 X115.9106 Y230.6863
G01 X115.8864 Y230.7226
G01 X115.8606 Y230.7578
G01 X115.8333 Y230.7918
G01 X115.8045 Y230.8246
G01 X115.7744 Y230.8561
G01 X115.7428 Y230.8863
G01 X115.7100 Y230.9150
G01 X115.6760 Y230.9424
G01 X115.6408 Y230.9682
G01 X115.6046 Y230.9924
G01 X115.5673 Y231.0150
G01 X115.5290 Y231.0360
G01 X115.4899 Y231.0553
G01 X115.4499 Y231.0729
G01 X115.4093 Y231.0887
G01 X115.3680 Y231.1027
G01 X115.3261 Y231.1149
G01 X115.2837 Y231.1253
G01 X115.2409 Y231.1338
G01 X115.1978 Y231.1404
G01 X115.1544 Y231.1452
G01 X115.1109 Y231.1481
G01 X115.0673 Y231.1490
G01 X94.6415
G01 Y241.7771
G01 X94.8415 Y241.7916
M107
G00 Z2.0000


;No. 7: Hole 10
G00 X128.1383 Y241.7916 Z2.0000
G00 Z0.5000
G01 Z0.0000 F400
G01 Z-1.8000
M106 S240
G01 X131.0235 F1000
G01 Y240.2916
G01 X128.1383
G01 Y238.7916
G01 X131.0235
G01 Y237.2916
G01 X128.1383
G01 Y235.7916
G01 X131.0235
G01 Y234.2916
G01 X128.1383
G01 Y232.7916
G01 X131.0235
G01 Y231.2916
G01 X128.1383
G01 Y229.7916
G01 X131.0235
G01 Y228.2916
G01 X128.1383
G01 Y226.7916
G01 X131.0263
G01 X128.1383 Y225.2916
G01 X152.2965
G01 X151.3609 Y223.7916
G01 X128.1383
G01 X127.9383 Y223.8069
G01 Y243.0045
G01 X131.2235
G01 Y226.8638
G01 X131.2266 Y226.7849
G01 X131.2360 Y226.7064
G01 X131.2515 Y226.6289
G01 X131.2731 Y226.5529
G01 X131.3006 Y226.4789
G01 X131.3339 Y226.4072
G01 X131.3727 Y226.3384
G01 X131.4169 Y226.2728
G01 X131.4660 Y226.2110
G01 X131.5199 Y226.1532
G01 X131.5783 Y226.0999
G01 X131.6406 Y226.0513
G01 X131.7066 Y226.0078
G01 X131.7758 Y225.9697
G01 X131.8478 Y225.9371
G01 X131.9221 Y225.9103
G01 X131.9983 Y225.8895
G01 X132.0760 Y225.8748
G01 X132.1545 Y225.8662
G01 X132.2335 Y225.8638
G01 X152.6193
G01 X152.5585 Y225.5288
G01 X152.4679 Y225.2006
G01 X152.3483 Y224.8819
G01 X152.2005 Y224.5751
G01 X152.0259 Y224.2828
G01 X151.8258 Y224.0074
G01 X151.6018 Y223.7510
G01 X151.3557 Y223.5157
G01 X151.0895 Y223.3034
G01 X150.8053 Y223.1158
G01 X150.5055 Y222.9545
G01 X150.1924 Y222.8207
G01 X149.8686 Y222.7154
G01 X149.5367 Y222.6397
G01 X149.1993 Y222.5940
G01 X148.8591 Y222.5787
G01 X127.9383
G01 Y223.8069
G01 X128.1383 Y223.7916
M107
G00 Z2.0000


;No. 8: Hole 9
G00 X161.4372 Y224.0064 Z2.0000
G00 Z0.5000
G01 Z0.0000 F400
G01 Z-1.8000
M106 S240
G01 X164.3223 F1000
G01 Y225.5064
G01 X161.4372
G01 Y227.0064
G01 X164.3223
G01 Y228.5064
G01 X161.4372
G01 Y230.0064
G01 X164.3223
G01 X161.4372 Y231.5064
G01 X185.7481
G01 Y230.0064
G01 X182.8630
G01 Y228.5064
G01 X185.7481
G01 Y227.0064
G01 X182.8630
G01 Y225.5064
G01 X185.7481
G01 Y224.0064
G01 X182.8630
M107
G00 Z2.0000
G00 X185.7481 Y231.5064
G00 Z0.5000
G01 Z-1.8000 F400
M106 S240
G01 Y233.0064 F1000
G01 X161.4372
G01 X161.2372 Y232.9944
G01 Y234.4342
G01 X185.9481
G01 Y222.5787
G01 X182.6630
G01 Y230.1490
G01 X182.6620 Y230.1926
G01 X182.6591 Y230.2362
G01 X182.6544 Y230.2795
G01 X182.6478 Y230.3227
G01 X182.6393 Y230.3654
G01 X182.6289 Y230.4078
G01 X182.6167 Y230.4497
G01 X182.6026 Y230.4910
G01 X182.5868 Y230.5317
G01 X182.5693 Y230.5716
G01 X182.5500 Y230.6108
G01 X182.5290 Y230.6490
G01 X182.5063 Y230.6863
G01 X182.4821 Y230.7226
G01 X182.4563 Y230.7578
G01 X182.4290 Y230.7918
G01 X182.4002 Y230.8246
G01 X182.3701 Y230.8561
G01 X182.3385 Y230.8863
G01 X182.3057 Y230.9150
G01 X182.2717 Y230.9424
G01 X182.2365 Y230.9682
G01 X182.2003 Y230.9924
G01 X182.1630 Y231.0150
G01 X182.1247 Y231.0360
G01 X182.0856 Y231.0553
G01 X182.0456 Y231.0729
G01 X182.0050 Y231.0887
G01 X181.9637 Y231.1027
G01 X181.9218 Y231.1149
G01 X181.8794 Y231.1253
G01 X181.8366 Y231.1338
G01 X181.7935 Y231.1404
G01 X181.7501 Y231.1452
G01 X181.7066 Y231.1481
G01 X181.6630 Y231.1490
G01 X165.5223
G01 X165.4439 Y231.1459
G01 X165.3659 Y231.1367
G01 X165.2889 Y231.1214
G01 X165.2133 Y231.1001
G01 X165.1396 Y231.0729
G01 X165.0683 Y231.0400
G01 X164.9998 Y231.0016
G01 X164.9345 Y230.9580
G01 X164.8729 Y230.9094
G01 X164.8152 Y230.8561
G01 X164.7619 Y230.7985
G01 X164.7133 Y230.7368
G01 X164.6697 Y230.6715
G01 X164.6313 Y230.6030
G01 X164.5984 Y230.5317
G01 X164.5713 Y230.4580
G01 X164.5500 Y230.3825
G01 X164.5346 Y230.3054
G01 X164.5254 Y230.2275
G01 X164.5223 Y230.1490
G01 Y222.5787
G01 X161.2372
G01 Y232.9944
G01 X161.4372 Y233.0064
M107
G00 Z2.0000


;No. 9: Helical drill 2
G00 X185.5784 Y264.3359 Z2.0000
G00 Z0.5000
M106 S240
G01 X185.5746 Y264.2487 Z0.4699 F400
G01 X185.5632 Y264.1622 Z0.4398
G01 X185.5443 Y264.0771 Z0.4097
G01 X185.5181 Y263.9939 Z0.3796
G01 X185.4847 Y263.9133 Z0.3495
G01 X185.4444 Y263.8359 Z0.3194
G01 X185.3975 Y263.7623 Z0.2894
G01 X185.3444 Y263.6931 Z0.2593
G01 X185.2855 Y263.6288 Z0.2292
G01 X185.2212 Y263.5698 Z0.1991
G01 X185.1520 Y263.5167 Z0.1690
G01 X185.0784 Y263.4699 Z0.1389
G01 X185.0010 Y263.4296 Z0.1088
G01 X184.9204 Y263.3962 Z0.0787
G01 X184.8372 Y263.3700 Z0.0486
G01 X184.7520 Y263.3511 Z0.0185
G01 X184.6656 Y263.3397 Z-0.0116
G01 X184.5784 Y263.3359 Z-0.0417
G01 X184.4912 Y263.3397 Z-0.0718
G01 X184.4047 Y263.3511 Z-0.1019
G01 X184.3196 Y263.3700 Z-0.1319
G01 X184.2364 Y263.3962 Z-0.1620
G01 X184.1558 Y263.4296 Z-0.1921
G01 X184.0784 Y263.4699 Z-0.2222
G01 X184.0378 Y263.4946 Z-0.2386
G01 X183.9983 Y263.5213 Z-0.2551
G01 X183.9602 Y263.5498 Z-0.2715
G01 X183.9235 Y263.5801 Z-0.2879
G01 X183.8883 Y263.6121 Z-0.3043
G01 X183.8547 Y263.6458 Z-0.3207
G01 X183.8226 Y263.6810 Z-0.3371
G01 X183.7923 Y263.7177 Z-0.3535
G01 X183.7638 Y263.7558 Z-0.3699
G01 X183.7371 Y263.7952 Z-0.3864
G01 X183.7124 Y263.8359 Z-0.4028
G01 X183.6896 Y263.8777 Z-0.4192
G01 X183.6688 Y263.9205 Z-0.4356
G01 X183.6500 Y263.9642 Z-0.4520
G01 X183.6334 Y264.0088 Z-0.4684
G01 X183.6189 Y264.0541 Z-0.4848
G01 X183.6066 Y264.1001 Z-0.5013
G01 X183.5965 Y264.1466 Z-0.5177
G01 X183.5886 Y264.1936 Z-0.5341
G01 X183.5829 Y264.2408 Z-0.5505
G01 X183.5795 Y264.2883 Z-0.5669
G01 X183.5784 Y264.3359 Z-0.5833
G01 X183.5795 Y264.3835 Z-0.5997
G01 X183.5829 Y264.4309 Z-0.6162
G01 X183.5886 Y264.4782 Z-0.6326
G01 X183.5965 Y264.5251 Z-0.6490
G01 X183.6066 Y264.5716 Z-0.6654
G01 X183.6189 Y264.6176 Z-0.6818
G01 X183.6334 Y264.6629 Z-0.6982
G01 X183.6500 Y264.7075 Z-0.7146
G01 X183.6688 Y264.7513 Z-0.7311
G01 X183.6896 Y264.7941 Z-0.7475
G01 X183.7124 Y264.8359 Z-0.7639
G01 X183.7371 Y264.8765 Z-0.7803
G01 X183.7638 Y264.9159 Z-0.7967
G01 X183.7923 Y264.9540 Z-0.8131
G01 X183.8226 Y264.9907 Z-0.8295
G01 X183.8547 Y265.0260 Z-0.8460
G01 X183.8883 Y265.0596 Z-0.8624
G01 X183.9235 Y265.0916 Z-0.8788
G01 X183.9602 Y265.1219 Z-0.8952
G01 X183.9983 Y265.1505 Z-0.9116
G01 X184.0378 Y265.1771 Z-0.9280
G01 X184.0784 Y265.2019 Z-0.9444
G01 X184.1202 Y265.2247 Z-0.9609
G01 X184.1630 Y265.2455 Z-0.9773
G01 X184.2067 Y265.2642 Z-0.9937
G01 X184.2513 Y265.2809 Z-1.0101
G01 X184.2967 Y265.2954 Z-1.0265
G01 X184.3426 Y265.3077 Z-1.0429
G01 X184.3891 Y265.3178 Z-1.0593
G01 X184.4361 Y265.3257 Z-1.0758
G01 X184.4833 Y265.3313 Z-1.0922
G01 X184.5308 Y265.3347 Z-1.1086
G01 X184.5784 Y265.3359 Z-1.1250
G01 X184.6260 Y265.3347 Z-1.1414
G01 X184.6735 Y265.3313 Z-1.1578
G01 X184.7207 Y265.3257 Z-1.1742
G01 X184.7676 Y265.3178 Z-1.1907
G01 X184.8142 Y265.3077 Z-1.2071
G01 X184.8601 Y265.2954 Z-1.2235
G01 X184.9055 Y265.2809 Z-1.2399
G01 X184.9501 Y265.2642 Z-1.2563
G01 X184.9938 Y265.2455 Z-1.2727
G01 X185.0366 Y265.2247 Z-1.2891
G01 X185.0784 Y265.2019 Z-1.3056
G01 X185.1190 Y265.1771 Z-1.3220
G01 X185.1585 Y265.1505 Z-1.3384
G01 X185.1966 Y265.1219 Z-1.3548
G01 X185.2333 Y265.0916 Z-1.3712
G01 X185.2685 Y265.0596 Z-1.3876
G01 X185.3021 Y265.0260 Z-1.4040
G01 X185.3341 Y264.9907 Z-1.4205
G01 X185.3644 Y264.9540 Z-1.4369
G01 X185.3930 Y264.9159 Z-1.4533
G01 X185.4197 Y264.8765 Z-1.4697
G01 X185.4444 Y264.8359 Z-1.4861
G01 X185.4672 Y264.7941 Z-1.5025
G01 X185.4880 Y264.7513 Z-1.5189
G01 X185.5068 Y264.7075 Z-1.5354
G01 X185.5234 Y264.6629 Z-1.5518
G01 X185.5379 Y264.6176 Z-1.5682
G01 X185.5502 Y264.5716 Z-1.5846
G01 X185.5603 Y264.5251 Z-1.6010
G01 X185.5682 Y264.4782 Z-1.6174
G01 X185.5739 Y264.4309 Z-1.6338
G01 X185.5773 Y264.3835 Z-1.6503
G01 X185.5784 Y264.3359 Z-1.6667
G01 X185.5746 Y264.2487
G01 X185.5632 Y264.1622
G01 X185.5443 Y264.0771
G01 X185.5181 Y263.9939
G01 X185.4847 Y263.9133
G01 X185.4444 Y263.8359
G01 X185.3975 Y263.7623
G01 X185.3444 Y263.6931
G01 X185.2855 Y263.6288
G01 X185.2212 Y263.5698
G01 X185.1520 Y263.5167
G01 X185.0784 Y263.4699
G01 X185.0010 Y263.4296
G01 X184.9204 Y263.3962
G01 X184.8372 Y263.3700
G01 X184.7520 Y263.3511
G01 X184.6656 Y263.3397
G01 X184.5784 Y263.3359
G01 X184.4912 Y263.3397
G01 X184.4047 Y263.3511
G01 X184.3196 Y263.3700
G01 X184.2364 Y263.3962
G01 X184.1558 Y263.4296
G01 X184.0784 Y263.4699
G01 X184.0378 Y263.4946
G01 X183.9983 Y263.5213
G01 X183.9602 Y263.5498
G01 X183.9235 Y263.5801
G01 X183.8883 Y263.6121
G01 X183.8547 Y263.6458
G01 X183.8226 Y263.6810
G01 X183.7923 Y263.7177
G01 X183.7638 Y263.7558
G01 X183.7371 Y263.7952
G01 X183.7124 Y263.8359
G01 X183.6896 Y263.8777
G01 X183.6688 Y263.9205
G01 X183.6500 Y263.9642
G01 X183.6334 Y264.0088
G01 X183.6189 Y264.0541
G01 X183.6066 Y264.1001
G01 X183.5965 Y264.1466
G01 X183.5886 Y264.1936
G01 X183.5829 Y264.2408
G01 X183.5795 Y264.2883
G01 X183.5784 Y264.3359
G01 X183.5795 Y264.3835
G01 X183.5829 Y264.4309
G01 X183.5886 Y264.4782
G01 X183.5965 Y264.5251
G01 X183.6066 Y264.5716
G01 X183.6189 Y264.6176
G01 X183.6334 Y264.6629
G01 X183.6500 Y264.7075
G01 X183.6688 Y264.7513
G01 X183.6896 Y264.7941
G01 X183.7124 Y264.8359
G01 X183.7371 Y264.8765
G01 X183.7638 Y264.9159
G01 X183.7923 Y264.9540
G01 X183.8226 Y264.9907
G01 X183.8547 Y265.0260
G01 X183.8883 Y265.0596
G01 X183.9235 Y265.0916
G01 X183.9602 Y265.1219
G01 X183.9983 Y265.1505
G01 X184.0378 Y265.1771
G01 X184.0784 Y265.2019
G01 X184.1202 Y265.2247
G01 X184.1630 Y265.2455
G01 X184.2067 Y265.2642
G01 X184.2513 Y265.2809
G01 X184.2967 Y265.2954
G01 X184.3426 Y265.3077
G01 X184.3891 Y265.3178
G01 X184.4361 Y265.3257
G01 X184.4833 Y265.3313
G01 X184.5308 Y265.3347
G01 X184.5784 Y265.3359
G01 X184.6260 Y265.3347
G01 X184.6735 Y265.3313
G01 X184.7207 Y265.3257
G01 X184.7676 Y265.3178
G01 X184.8142 Y265.3077
G01 X184.8601 Y265.2954
G01 X184.9055 Y265.2809
G01 X184.9501 Y265.2642
G01 X184.9938 Y265.2455
G01 X185.0366 Y265.2247
G01 X185.0784 Y265.2019
G01 X185.1190 Y265.1771
G01 X185.1585 Y265.1505
G01 X185.1966 Y265.1219
G01 X185.2333 Y265.0916
G01 X185.2685 Y265.0596
G01 X185.3021 Y265.0260
G01 X185.3341 Y264.9907
G01 X185.3644 Y264.9540
G01 X185.3930 Y264.9159
G01 X185.4197 Y264.8765
G01 X185.4444 Y264.8359
G01 X185.4672 Y264.7941
G01 X185.4880 Y264.7513
G01 X185.5068 Y264.7075
G01 X185.5234 Y264.6629
G01 X185.5379 Y264.6176
G01 X185.5502 Y264.5716
G01 X185.5603 Y264.5251
G01 X185.5682 Y264.4782
G01 X185.5739 Y264.4309
G01 X185.5773 Y264.3835
G01 X185.5784 Y264.3359
G01 X185.5891 Y264.2843 F1000
G01 X185.5972 Y264.2322
G01 X185.6026 Y264.1798
G01 X185.6053 Y264.1271
G01 X185.6052 Y264.0744
G01 X185.6025 Y264.0218
G01 X185.5970 Y263.9694
G01 X185.5889 Y263.9173
G01 X185.5772 Y263.8613
G01 X185.5626 Y263.8060
G01 X185.5452 Y263.7515
G01 X185.5251 Y263.6980
G01 X185.5023 Y263.6455
G01 X185.4768 Y263.5943
G01 X185.4487 Y263.5445
G01 X185.4181 Y263.4962
G01 X185.3825 Y263.4458
G01 X185.3444 Y263.3973
G01 X185.3038 Y263.3507
G01 X185.2610 Y263.3063
G01 X185.2159 Y263.2642
G01 X185.1688 Y263.2244
G01 X185.1197 Y263.1870
G01 X185.0687 Y263.1522
G01 X185.0122 Y263.1176
G01 X184.9540 Y263.0859
G01 X184.8943 Y263.0572
G01 X184.8333 Y263.0316
G01 X184.7710 Y263.0091
G01 X184.7076 Y262.9898
G01 X184.6434 Y262.9737
G01 X184.5784 Y262.9609
G01 X184.5084 Y262.9507
G01 X184.4379 Y262.9441
G01 X184.3672 Y262.9410
G01 X184.2964 Y262.9415
G01 X184.2258 Y262.9455
G01 X184.1554 Y262.9531
G01 X184.0856 Y262.9643
G01 X184.0163 Y262.9789
G01 X183.9481 Y263.0049
G01 X183.8813 Y263.0342
G01 X183.8160 Y263.0667
G01 X183.7524 Y263.1025
G01 X183.6906 Y263.1413
G01 X183.6308 Y263.1831
G01 X183.5732 Y263.2278
G01 X183.5178 Y263.2752
G01 X183.4670 Y263.3286
G01 X183.4189 Y263.3843
G01 X183.3736 Y263.4423
G01 X183.3312 Y263.5025
G01 X183.2918 Y263.5647
G01 X183.2555 Y263.6288
G01 X183.2224 Y263.6946
G01 X183.1926 Y263.7619
G01 X183.1661 Y263.8306
G01 X183.1430 Y263.9005
G01 X183.1234 Y263.9714
G01 X183.1072 Y264.0432
G01 X183.0947 Y264.1158
G01 X183.0857 Y264.1889
G01 X183.0802 Y264.2623
G01 X183.0784 Y264.3359
G01 X183.0802 Y264.4095
G01 X183.0857 Y264.4829
G01 X183.0947 Y264.5560
G01 X183.1072 Y264.6285
G01 X183.1234 Y264.7003
G01 X183.1430 Y264.7713
G01 X183.1661 Y264.8412
G01 X183.1926 Y264.9099
G01 X183.2224 Y264.9772
G01 X183.2555 Y265.0430
G01 X183.2918 Y265.1070
G01 X183.3312 Y265.1692
G01 X183.3736 Y265.2294
G01 X183.4189 Y265.2874
G01 X183.4670 Y265.3432
G01 X183.5178 Y265.3965
G01 X183.5711 Y265.4473
G01 X183.6268 Y265.4954
G01 X183.6849 Y265.5407
G01 X183.7451 Y265.5831
G01 X183.8073 Y265.6224
G01 X183.8713 Y265.6587
G01 X183.9371 Y265.6918
G01 X184.0044 Y265.7217
G01 X184.0731 Y265.7482
G01 X184.1430 Y265.7713
G01 X184.2139 Y265.7909
G01 X184.2858 Y265.8070
G01 X184.3583 Y265.8196
G01 X184.4314 Y265.8286
G01 X184.5048 Y265.8340
G01 X184.5784 Y265.8358
G01 X184.6520 Y265.8340
G01 X184.7254 Y265.8286
G01 X184.7985 Y265.8196
G01 X184.8710 Y265.8070
G01 X184.9429 Y265.7909
G01 X185.0138 Y265.7713
G01 X185.0837 Y265.7482
G01 X185.1524 Y265.7217
G01 X185.2197 Y265.6918
G01 X185.2855 Y265.6587
G01 X185.3495 Y265.6224
G01 X185.4117 Y265.5831
G01 X185.4719 Y265.5407
G01 X185.5300 Y265.4954
G01 X185.5857 Y265.4473
G01 X185.6390 Y265.3965
G01 X185.6898 Y265.3432
G01 X185.7379 Y265.2874
G01 X185.7832 Y265.2294
G01 X185.8256 Y265.1692
G01 X185.8650 Y265.1070
G01 X185.9013 Y265.0430
G01 X185.9344 Y264.9772
G01 X185.9642 Y264.9099
G01 X185.9907 Y264.8412
G01 X186.0138 Y264.7713
G01 X186.0334 Y264.7003
G01 X186.0495 Y264.6285
G01 X186.0621 Y264.5560
G01 X186.0711 Y264.4829
G01 X186.0766 Y264.4095
G01 X186.0784 Y264.3359
G01 X186.0742 Y264.2238
G01 X186.0616 Y264.1123
G01 X186.0408 Y264.0021
G01 X186.0117 Y263.8938
G01 X185.9747 Y263.7879
G01 X185.9298 Y263.6851
G01 X185.8774 Y263.5859
G01 X185.8177 Y263.4909
G01 X185.7511 Y263.4007
G01 X185.6780 Y263.3156
G01 X185.5986 Y263.2363
G01 X185.5136 Y263.1632
G01 X185.4234 Y263.0965
G01 X185.3284 Y263.0369
G01 X185.2292 Y262.9845
G01 X185.1264 Y262.9396
G01 X185.0205 Y262.9025
G01 X184.9122 Y262.8735
G01 X184.8020 Y262.8527
G01 X184.6905 Y262.8401
G01 X184.5784 Y262.8359
G01 X184.4663 Y262.8401
G01 X184.3548 Y262.8527
G01 X184.2446 Y262.8735
G01 X184.1363 Y262.9025
G01 X184.0304 Y262.9396
G01 X183.9276 Y262.9845
G01 X183.8284 Y263.0369
G01 X183.7334 Y263.0965
G01 X183.6432 Y263.1632
G01 X183.5582 Y263.2363
G01 X183.4788 Y263.3156
G01 X183.4057 Y263.4007
G01 X183.3391 Y263.4909
G01 X183.2794 Y263.5859
G01 X183.2270 Y263.6851
G01 X183.1821 Y263.7879
G01 X183.1451 Y263.8938
G01 X183.1160 Y264.0021
G01 X183.0952 Y264.1123
G01 X183.0826 Y264.2238
G01 X183.0784 Y264.3359
G01 X183.0826 Y264.4480
G01 X183.0952 Y264.5594
G01 X183.1160 Y264.6697
G01 X183.1451 Y264.7780
G01 X183.1821 Y264.8839
G01 X183.2270 Y264.9867
G01 X183.2794 Y265.0859
G01 X183.3391 Y265.1808
G01 X183.4057 Y265.2711
G01 X183.4788 Y265.3561
G01 X183.5582 Y265.4354
G01 X183.6432 Y265.5086
G01 X183.7334 Y265.5752
G01 X183.8284 Y265.6349
G01 X183.9276 Y265.6873
G01 X184.0304 Y265.7322
G01 X184.1363 Y265.7692
G01 X184.2446 Y265.7982
G01 X184.3548 Y265.8191
G01 X184.4663 Y265.8317
G01 X184.5784 Y265.8358
G01 X184.6905 Y265.8317
G01 X184.8020 Y265.8191
G01 X184.9122 Y265.7982
G01 X185.0205 Y265.7692
G01 X185.1264 Y265.7322
G01 X185.2292 Y265.6873
G01 X185.3284 Y265.6349
G01 X185.4234 Y265.5752
G01 X185.5136 Y265.5086
G01 X185.5986 Y265.4354
G01 X185.6780 Y265.3561
G01 X185.7511 Y265.2711
G01 X185.8177 Y265.1808
G01 X185.8774 Y265.0859
G01 X185.9298 Y264.9867
G01 X185.9747 Y264.8839
G01 X186.0117 Y264.7780
G01 X186.0408 Y264.6697
G01 X186.0616 Y264.5594
G01 X186.0742 Y264.4480
G01 X186.0784 Y264.3359
G01 X186.0745 Y264.2378
G01 X186.0630 Y264.1403
G01 X186.0438 Y264.0441
G01 X186.0172 Y263.9496
G01 X185.9832 Y263.8575
G01 X185.9421 Y263.7684
G01 X185.8942 Y263.6828
G01 X185.8396 Y263.6012
G01 X185.7789 Y263.5241
G01 X185.7123 Y263.4520
G01 X185.6402 Y263.3854
G01 X185.5631 Y263.3246
G01 X185.4815 Y263.2701
G01 X185.3959 Y263.2221
G01 X185.3067 Y263.1810
G01 X185.2146 Y263.1471
G01 X185.1202 Y263.1204
G01 X185.0239 Y263.1013
G01 X184.9265 Y263.0897
G01 X184.8284 Y263.0859
G01 X184.7303 Y263.0897
G01 X184.6328 Y263.1013
G01 X184.5366 Y263.1204
G01 X184.4421 Y263.1471
G01 X184.3500 Y263.1810
G01 X184.2609 Y263.2221
G01 X184.1753 Y263.2701
G01 X184.0937 Y263.3246
G01 X184.0166 Y263.3854
G01 X183.9445 Y263.4520
G01 X183.8779 Y263.5241
G01 X183.8171 Y263.6012
G01 X183.7626 Y263.6828
G01 X183.7146 Y263.7684
G01 X183.6735 Y263.8575
G01 X183.6396 Y263.9496
G01 X183.6129 Y264.0441
G01 X183.5938 Y264.1403
G01 X183.5822 Y264.2378
G01 X183.5784 Y264.3359
G01 X183.5822 Y264.4230
G01 X183.5936 Y264.5095
G01 X183.6125 Y264.5947
G01 X183.6387 Y264.6779
G01 X183.6721 Y264.7585
G01 X183.7124 Y264.8359
G01 X183.7592 Y264.9095
G01 X183.8124 Y264.9787
G01 X183.8713 Y265.0430
G01 X183.9356 Y265.1019
G01 X184.0048 Y265.1550
G01 X184.0784 Y265.2019
G01 X184.1558 Y265.2422
G01 X184.2364 Y265.2756
G01 X184.3196 Y265.3018
G01 X184.4047 Y265.3207
G01 X184.4912 Y265.3321
G01 X184.5784 Y265.3359
G01 X184.6656 Y265.3321
G01 X184.7520 Y265.3207
G01 X184.8372 Y265.3018
G01 X184.9204 Y265.2756
G01 X185.0010 Y265.2422
G01 X185.0784 Y265.2019
G01 X185.1520 Y265.1550
G01 X185.2212 Y265.1019
G01 X185.2855 Y265.0430
G01 X185.3444 Y264.9787
G01 X185.3975 Y264.9095
G01 X185.4444 Y264.8359
G01 X185.4847 Y264.7585
G01 X185.5181 Y264.6779
G01 X185.5443 Y264.5947
G01 X185.5632 Y264.5095
G01 X185.5746 Y264.4230
G01 X185.5784 Y264.3359
M107
M106 S240
G01 X185.5746 Y264.2487 Z-1.6968 F400
G01 X185.5632 Y264.1622 Z-1.7269
G01 X185.5443 Y264.0771 Z-1.7569
G01 X185.5181 Y263.9939 Z-1.7870
G01 X185.4847 Y263.9133 Z-1.8171
G01 X185.4444 Y263.8359 Z-1.8472
G01 X185.3975 Y263.7623 Z-1.8773
G01 X185.3444 Y263.6931 Z-1.9074
G01 X185.2855 Y263.6288 Z-1.9375
G01 X185.2212 Y263.5698 Z-1.9676
G01 X185.1520 Y263.5167 Z-1.9977
G01 X185.0784 Y263.4699 Z-2.0278
G01 X185.0010 Y263.4296 Z-2.0579
G01 X184.9204 Y263.3962 Z-2.0880
G01 X184.8372 Y263.3700 Z-2.1181
G01 X184.7520 Y263.3511 Z-2.1481
G01 X184.6656 Y263.3397 Z-2.1782
G01 X184.5784 Y263.3359 Z-2.2083
G01 X184.4912 Y263.3397 Z-2.2384
G01 X184.4047 Y263.3511 Z-2.2685
G01 X184.3196 Y263.3700 Z-2.2986
G01 X184.2364 Y263.3962 Z-2.3287
G01 X184.1558 Y263.4296 Z-2.3588
G01 X184.0784 Y263.4699 Z-2.3889
G01 X184.0378 Y263.4946 Z-2.4053
G01 X183.9983 Y263.5213 Z-2.4217
G01 X183.9602 Y263.5498 Z-2.4381
G01 X183.9235 Y263.5801 Z-2.4545
G01 X183.8883 Y263.6121 Z-2.4710
G01 X183.8547 Y263.6458 Z-2.4874
G01 X183.8226 Y263.6810 Z-2.5038
G01 X183.7923 Y263.7177 Z-2.5202
G01 X183.7638 Y263.7558 Z-2.5366
G01 X183.7371 Y263.7952 Z-2.5530
G01 X183.7124 Y263.8359 Z-2.5694
G01 X183.6896 Y263.8777 Z-2.5859
G01 X183.6688 Y263.9205 Z-2.6023
G01 X183.6500 Y263.9642 Z-2.6187
G01 X183.6334 Y264.0088 Z-2.6351
G01 X183.6189 Y264.0541 Z-2.6515
G01 X183.6066 Y264.1001 Z-2.6679
G01 X183.5965 Y264.1466 Z-2.6843
G01 X183.5886 Y264.1936 Z-2.7008
G01 X183.5829 Y264.2408 Z-2.7172
G01 X183.5795 Y264.2883 Z-2.7336
G01 X183.5784 Y264.3359 Z-2.7500
G01 X183.5795 Y264.3835 Z-2.7664
G01 X183.5829 Y264.4309 Z-2.7828
G01 X183.5886 Y264.4782 Z-2.7992
G01 X183.5965 Y264.5251 Z-2.8157
G01 X183.6066 Y264.5716 Z-2.8321
G01 X183.6189 Y264.6176 Z-2.8485
G01 X183.6334 Y264.6629 Z-2.8649
G01 X183.6500 Y264.7075 Z-2.8813
G01 X183.6688 Y264.7513 Z-2.8977
G01 X183.6896 Y264.7941 Z-2.9141
G01 X183.7124 Y264.8359 Z-2.9306
G01 X183.7371 Y264.8765 Z-2.9470
G01 X183.7638 Y264.9159 Z-2.9634
G01 X183.7923 Y264.9540 Z-2.9798
G01 X183.8226 Y264.9907 Z-2.9962
G01 X183.8547 Y265.0260 Z-3.0126
G01 X183.8883 Y265.0596 Z-3.0290
G01 X183.9235 Y265.0916 Z-3.0455
G01 X183.9602 Y265.1219 Z-3.0619
G01 X183.9983 Y265.1505 Z-3.0783
G01 X184.0378 Y265.1771 Z-3.0947
G01 X184.0784 Y265.2019 Z-3.1111
G01 X184.1202 Y265.2247 Z-3.1275
G01 X184.1630 Y265.2455 Z-3.1439
G01 X184.2067 Y265.2642 Z-3.1604
G01 X184.2513 Y265.2809 Z-3.1768
G01 X184.2967 Y265.2954 Z-3.1932
G01 X184.3426 Y265.3077 Z-3.2096
G01 X184.3891 Y265.3178 Z-3.2260
G01 X184.4361 Y265.3257 Z-3.2424
G01 X184.4833 Y265.3313 Z-3.2588
G01 X184.5308 Y265.3347 Z-3.2753
G01 X184.5784 Y265.3359 Z-3.2917
G01 X184.6260 Y265.3347 Z-3.3081
G01 X184.6735 Y265.3313 Z-3.3245
G01 X184.7207 Y265.3257 Z-3.3409
G01 X184.7676 Y265.3178 Z-3.3573
G01 X184.8142 Y265.3077 Z-3.3737
G01 X184.8601 Y265.2954 Z-3.3902
G01 X184.9055 Y265.2809 Z-3.4066
G01 X184.9501 Y265.2642 Z-3.4230
G01 X184.9938 Y265.2455 Z-3.4394
G01 X185.0366 Y265.2247 Z-3.4558
G01 X185.0784 Y265.2019 Z-3.4722
G01 X185.1190 Y265.1771 Z-3.4886
G01 X185.1585 Y265.1505 Z-3.5051
G01 X185.1966 Y265.1219 Z-3.5215
G01 X185.2333 Y265.0916 Z-3.5379
G01 X185.2685 Y265.0596 Z-3.5543
G01 X185.3021 Y265.0260 Z-3.5707
G01 X185.3341 Y264.9907 Z-3.5871
G01 X185.3644 Y264.9540 Z-3.6035
G01 X185.3930 Y264.9159 Z-3.6199
G01 X185.4197 Y264.8765 Z-3.6364
G01 X185.4444 Y264.8359 Z-3.6528
G01 X185.4672 Y264.7941 Z-3.6692
G01 X185.4880 Y264.7513 Z-3.6856
G01 X185.5068 Y264.7075 Z-3.7020
G01 X185.5234 Y264.6629 Z-3.7184
G01 X185.5379 Y264.6176 Z-3.7348
G01 X185.5502 Y264.5716 Z-3.7513
G01 X185.5603 Y264.5251 Z-3.7677
G01 X185.5682 Y264.4782 Z-3.7841
G01 X185.5739 Y264.4309 Z-3.8005
G01 X185.5773 Y264.3835 Z-3.8169
G01 X185.5784 Y264.3359 Z-3.8333
G01 X185.5746 Y264.2487
G01 X185.5632 Y264.1622
G01 X185.5443 Y264.0771
G01 X185.5181 Y263.9939
G01 X185.4847 Y263.9133
G01 X185.4444 Y263.8359
G01 X185.3975 Y263.7623
G01 X185.3444 Y263.6931
G01 X185.2855 Y263.6288
G01 X185.2212 Y263.5698
G01 X185.1520 Y263.5167
G01 X185.0784 Y263.4699
G01 X185.0010 Y263.4296
G01 X184.9204 Y263.3962
G01 X184.8372 Y263.3700
G01 X184.7520 Y263.3511
G01 X184.6656 Y263.3397
G01 X184.5784 Y263.3359
G01 X184.4912 Y263.3397
G01 X184.4047 Y263.3511
G01 X184.3196 Y263.3700
G01 X184.2364 Y263.3962
G01 X184.1558 Y263.4296
G01 X184.0784 Y263.4699
G01 X184.0378 Y263.4946
G01 X183.9983 Y263.5213
G01 X183.9602 Y263.5498
G01 X183.9235 Y263.5801
G01 X183.8883 Y263.6121
G01 X183.8547 Y263.6458
G01 X183.8226 Y263.6810
G01 X183.7923 Y263.7177
G01 X183.7638 Y263.7558
G01 X183.7371 Y263.7952
G01 X183.7124 Y263.8359
G01 X183.6896 Y263.8777
G01 X183.6688 Y263.9205
G01 X183.6500 Y263.9642
G01 X183.6334 Y264.0088
G01 X183.6189 Y264.0541
G01 X183.6066 Y264.1001
G01 X183.5965 Y264.1466
G01 X183.5886 Y264.1936
G01 X183.5829 Y264.2408
G01 X183.5795 Y264.2883
G01 X183.5784 Y264.3359
G01 X183.5795 Y264.3835
G01 X183.5829 Y264.4309
G01 X183.5886 Y264.4782
G01 X183.5965 Y264.5251
G01 X183.6066 Y264.5716
G01 X183.6189 Y264.6176
G01 X183.6334 Y264.6629
G01 X183.6500 Y264.7075
G01 X183.6688 Y264.7513
G01 X183.6896 Y264.7941
G01 X183.7124 Y264.8359
G01 X183.7371 Y264.8765
G01 X183.7638 Y264.9159
G01 X183.7923 Y264.9540
G01 X183.8226 Y264.9907
G01 X183.8547 Y265.0260
G01 X183.8883 Y265.0596
G01 X183.9235 Y265.0916
G01 X183.9602 Y265.1219
G01 X183.9983 Y265.1505
G01 X184.0378 Y265.1771
G01 X184.0784 Y265.2019
G01 X184.1202 Y265.2247
G01 X184.1630 Y265.2455
G01 X184.2067 Y265.2642
G01 X184.2513 Y265.2809
G01 X184.2967 Y265.2954
G01 X184.3426 Y265.3077
G01 X184.3891 Y265.3178
G01 X184.4361 Y265.3257
G01 X184.4833 Y265.3313
G01 X184.5308 Y265.3347
G01 X184.5784 Y265.3359
G01 X184.6260 Y265.3347
G01 X184.6735 Y265.3313
G01 X184.7207 Y265.3257
G01 X184.7676 Y265.3178
G01 X184.8142 Y265.3077
G01 X184.8601 Y265.2954
G01 X184.9055 Y265.2809
G01 X184.9501 Y265.2642
G01 X184.9938 Y265.2455
G01 X185.0366 Y265.2247
G01 X185.0784 Y265.2019
G01 X185.1190 Y265.1771
G01 X185.1585 Y265.1505
G01 X185.1966 Y265.1219
G01 X185.2333 Y265.0916
G01 X185.2685 Y265.0596
G01 X185.3021 Y265.0260
G01 X185.3341 Y264.9907
G01 X185.3644 Y264.9540
G01 X185.3930 Y264.9159
G01 X185.4197 Y264.8765
G01 X185.4444 Y264.8359
G01 X185.4672 Y264.7941
G01 X185.4880 Y264.7513
G01 X185.5068 Y264.7075
G01 X185.5234 Y264.6629
G01 X185.5379 Y264.6176
G01 X185.5502 Y264.5716
G01 X185.5603 Y264.5251
G01 X185.5682 Y264.4782
G01 X185.5739 Y264.4309
G01 X185.5773 Y264.3835
G01 X185.5784 Y264.3359
G01 X185.5891 Y264.2843 F1000
G01 X185.5972 Y264.2322
G01 X185.6026 Y264.1798
G01 X185.6053 Y264.1271
G01 X185.6052 Y264.0744
G01 X185.6025 Y264.0218
G01 X185.5970 Y263.9694
G01 X185.5889 Y263.9173
G01 X185.5772 Y263.8613
G01 X185.5626 Y263.8060
G01 X185.5452 Y263.7515
G01 X185.5251 Y263.6980
G01 X185.5023 Y263.6455
G01 X185.4768 Y263.5943
G01 X185.4487 Y263.5445
G01 X185.4181 Y263.4962
G01 X185.3825 Y263.4458
G01 X185.3444 Y263.3973
G01 X185.3038 Y263.3507
G01 X185.2610 Y263.3063
G01 X185.2159 Y263.2642
G01 X185.1688 Y263.2244
G01 X185.1197 Y263.1870
G01 X185.0687 Y263.1522
G01 X185.0122 Y263.1176
G01 X184.9540 Y263.0859
G01 X184.8943 Y263.0572
G01 X184.8333 Y263.0316
G01 X184.7710 Y263.0091
G01 X184.7076 Y262.9898
G01 X184.6434 Y262.9737
G01 X184.5784 Y262.9609
G01 X184.5084 Y262.9507
G01 X184.4379 Y262.9441
G01 X184.3672 Y262.9410
G01 X184.2964 Y262.9415
G01 X184.2258 Y262.9455
G01 X184.1554 Y262.9531
G01 X184.0856 Y262.9643
G01 X184.0163 Y262.9789
G01 X183.9481 Y263.0049
G01 X183.8813 Y263.0342
G01 X183.8160 Y263.0667
G01 X183.7524 Y263.1025
G01 X183.6906 Y263.1413
G01 X183.6308 Y263.1831
G01 X183.5732 Y263.2278
G01 X183.5178 Y263.2752
G01 X183.4670 Y263.3286
G01 X183.4189 Y263.3843
G01 X183.3736 Y263.4423
G01 X183.3312 Y263.5025
G01 X183.2918 Y263.5647
G01 X183.2555 Y263.6288
G01 X183.2224 Y263.6946
G01 X183.1926 Y263.7619
G01 X183.1661 Y263.8306
G01 X183.1430 Y263.9005
G01 X183.1234 Y263.9714
G01 X183.1072 Y264.0432
G01 X183.0947 Y264.1158
G01 X183.0857 Y264.1889
G01 X183.0802 Y264.2623
G01 X183.0784 Y264.3359
G01 X183.0802 Y264.4095
G01 X183.0857 Y264.4829
G01 X183.0947 Y264.5560
G01 X183.1072 Y264.6285
G01 X183.1234 Y264.7003
G01 X183.1430 Y264.7713
G01 X183.1661 Y264.8412
G01 X183.1926 Y264.9099
G01 X183.2224 Y264.9772
G01 X183.2555 Y265.0430
G01 X183.2918 Y265.1070
G01 X183.3312 Y265.1692
G01 X183.3736 Y265.2294
G01 X183.4189 Y265.2874
G01 X183.4670 Y265.3432
G01 X183.5178 Y265.3965
G01 X183.5711 Y265.4473
G01 X183.6268 Y265.4954
G01 X183.6849 Y265.5407
G01 X183.7451 Y265.5831
G01 X183.8073 Y265.6224
G01 X183.8713 Y265.6587
G01 X183.9371 Y265.6918
G01 X184.0044 Y265.7217
G01 X184.0731 Y265.7482
G01 X184.1430 Y265.7713
G01 X184.2139 Y265.7909
G01 X184.2858 Y265.8070
G01 X184.3583 Y265.8196
G01 X184.4314 Y265.8286
G01 X184.5048 Y265.8340
G01 X184.5784 Y265.8358
G01 X184.6520 Y265.8340
G01 X184.7254 Y265.8286
G01 X184.7985 Y265.8196
G01 X184.8710 Y265.8070
G01 X184.9429 Y265.7909
G01 X185.0138 Y265.7713
G01 X185.0837 Y265.7482
G01 X185.1524 Y265.7217
G01 X185.2197 Y265.6918
G01 X185.2855 Y265.6587
G01 X185.3495 Y265.6224
G01 X185.4117 Y265.5831
G01 X185.4719 Y265.5407
G01 X185.5300 Y265.4954
G01 X185.5857 Y265.4473
G01 X185.6390 Y265.3965
G01 X185.6898 Y265.3432
G01 X185.7379 Y265.2874
G01 X185.7832 Y265.2294
G01 X185.8256 Y265.1692
G01 X185.8650 Y265.1070
G01 X185.9013 Y265.0430
G01 X185.9344 Y264.9772
G01 X185.9642 Y264.9099
G01 X185.9907 Y264.8412
G01 X186.0138 Y264.7713
G01 X186.0334 Y264.7003
G01 X186.0495 Y264.6285
G01 X186.0621 Y264.5560
G01 X186.0711 Y264.4829
G01 X186.0766 Y264.4095
G01 X186.0784 Y264.3359
G01 X186.0742 Y264.2238
G01 X186.0616 Y264.1123
G01 X186.0408 Y264.0021
G01 X186.0117 Y263.8938
G01 X185.9747 Y263.7879
G01 X185.9298 Y263.6851
G01 X185.8774 Y263.5859
G01 X185.8177 Y263.4909
G01 X185.7511 Y263.4007
G01 X185.6780 Y263.3156
G01 X185.5986 Y263.2363
G01 X185.5136 Y263.1632
G01 X185.4234 Y263.0965
G01 X185.3284 Y263.0369
G01 X185.2292 Y262.9845
G01 X185.1264 Y262.9396
G01 X185.0205 Y262.9025
G01 X184.9122 Y262.8735
G01 X184.8020 Y262.8527
G01 X184.6905 Y262.8401
G01 X184.5784 Y262.8359
G01 X184.4663 Y262.8401
G01 X184.3548 Y262.8527
G01 X184.2446 Y262.8735
G01 X184.1363 Y262.9025
G01 X184.0304 Y262.9396
G01 X183.9276 Y262.9845
G01 X183.8284 Y263.0369
G01 X183.7334 Y263.0965
G01 X183.6432 Y263.1632
G01 X183.5582 Y263.2363
G01 X183.4788 Y263.3156
G01 X183.4057 Y263.4007
G01 X183.3391 Y263.4909
G01 X183.2794 Y263.5859
G01 X183.2270 Y263.6851
G01 X183.1821 Y263.7879
G01 X183.1451 Y263.8938
G01 X183.1160 Y264.0021
G01 X183.0952 Y264.1123
G01 X183.0826 Y264.2238
G01 X183.0784 Y264.3359
G01 X183.0826 Y264.4480
G01 X183.0952 Y264.5594
G01 X183.1160 Y264.6697
G01 X183.1451 Y264.7780
G01 X183.1821 Y264.8839
G01 X183.2270 Y264.9867
G01 X183.2794 Y265.0859
G01 X183.3391 Y265.1808
G01 X183.4057 Y265.2711
G01 X183.4788 Y265.3561
G01 X183.5582 Y265.4354
G01 X183.6432 Y265.5086
G01 X183.7334 Y265.5752
G01 X183.8284 Y265.6349
G01 X183.9276 Y265.6873
G01 X184.0304 Y265.7322
G01 X184.1363 Y265.7692
G01 X184.2446 Y265.7982
G01 X184.3548 Y265.8191
G01 X184.4663 Y265.8317
G01 X184.5784 Y265.8358
G01 X184.6905 Y265.8317
G01 X184.8020 Y265.8191
G01 X184.9122 Y265.7982
G01 X185.0205 Y265.7692
G01 X185.1264 Y265.7322
G01 X185.2292 Y265.6873
G01 X185.3284 Y265.6349
G01 X185.4234 Y265.5752
G01 X185.5136 Y265.5086
G01 X185.5986 Y265.4354
G01 X185.6780 Y265.3561
G01 X185.7511 Y265.2711
G01 X185.8177 Y265.1808
G01 X185.8774 Y265.0859
G01 X185.9298 Y264.9867
G01 X185.9747 Y264.8839
G01 X186.0117 Y264.7780
G01 X186.0408 Y264.6697
G01 X186.0616 Y264.5594
G01 X186.0742 Y264.4480
G01 X186.0784 Y264.3359
G01 X186.0745 Y264.2378
G01 X186.0630 Y264.1403
G01 X186.0438 Y264.0441
G01 X186.0172 Y263.9496
G01 X185.9832 Y263.8575
G01 X185.9421 Y263.7684
G01 X185.8942 Y263.6828
G01 X185.8396 Y263.6012
G01 X185.7789 Y263.5241
G01 X185.7123 Y263.4520
G01 X185.6402 Y263.3854
G01 X185.5631 Y263.3246
G01 X185.4815 Y263.2701
G01 X185.3959 Y263.2221
G01 X185.3067 Y263.1810
G01 X185.2146 Y263.1471
G01 X185.1202 Y263.1204
G01 X185.0239 Y263.1013
G01 X184.9265 Y263.0897
G01 X184.8284 Y263.0859
G01 X184.7303 Y263.0897
G01 X184.6328 Y263.1013
G01 X184.5366 Y263.1204
G01 X184.4421 Y263.1471
G01 X184.3500 Y263.1810
G01 X184.2609 Y263.2221
G01 X184.1753 Y263.2701
G01 X184.0937 Y263.3246
G01 X184.0166 Y263.3854
G01 X183.9445 Y263.4520
G01 X183.8779 Y263.5241
G01 X183.8171 Y263.6012
G01 X183.7626 Y263.6828
G01 X183.7146 Y263.7684
G01 X183.6735 Y263.8575
G01 X183.6396 Y263.9496
G01 X183.6129 Y264.0441
G01 X183.5938 Y264.1403
G01 X183.5822 Y264.2378
G01 X183.5784 Y264.3359
G01 X183.5822 Y264.4230
G01 X183.5936 Y264.5095
G01 X183.6125 Y264.5947
G01 X183.6387 Y264.6779
G01 X183.6721 Y264.7585
G01 X183.7124 Y264.8359
G01 X183.7592 Y264.9095
G01 X183.8124 Y264.9787
G01 X183.8713 Y265.0430
G01 X183.9356 Y265.1019
G01 X184.0048 Y265.1550
G01 X184.0784 Y265.2019
G01 X184.1558 Y265.2422
G01 X184.2364 Y265.2756
G01 X184.3196 Y265.3018
G01 X184.4047 Y265.3207
G01 X184.4912 Y265.3321
G01 X184.5784 Y265.3359
G01 X184.6656 Y265.3321
G01 X184.7520 Y265.3207
G01 X184.8372 Y265.3018
G01 X184.9204 Y265.2756
G01 X185.0010 Y265.2422
G01 X185.0784 Y265.2019
G01 X185.1520 Y265.1550
G01 X185.2212 Y265.1019
G01 X185.2855 Y265.0430
G01 X185.3444 Y264.9787
G01 X185.3975 Y264.9095
G01 X185.4444 Y264.8359
G01 X185.4847 Y264.7585
G01 X185.5181 Y264.6779
G01 X185.5443 Y264.5947
G01 X185.5632 Y264.5095
G01 X185.5746 Y264.4230
G01 X185.5784 Y264.3359
M107
M106 S240
G01 X185.5746 Y264.2487 Z-3.8634 F400
G01 X185.5632 Y264.1622 Z-3.8935
G01 X185.5443 Y264.0771 Z-3.9236
G01 X185.5181 Y263.9939 Z-3.9537
G01 X185.4847 Y263.9133 Z-3.9838
G01 X185.4444 Y263.8359 Z-4.0139
G01 X185.3975 Y263.7623 Z-4.0440
G01 X185.3444 Y263.6931 Z-4.0741
G01 X185.2855 Y263.6288 Z-4.1042
G01 X185.2212 Y263.5698 Z-4.1343
G01 X185.1520 Y263.5167 Z-4.1644
G01 X185.0784 Y263.4699 Z-4.1944
G01 X185.0010 Y263.4296 Z-4.2245
G01 X184.9204 Y263.3962 Z-4.2546
G01 X184.8372 Y263.3700 Z-4.2847
G01 X184.7520 Y263.3511 Z-4.3148
G01 X184.6656 Y263.3397 Z-4.3449
G01 X184.5784 Y263.3359 Z-4.3750
G01 X184.4912 Y263.3397 Z-4.4051
G01 X184.4047 Y263.3511 Z-4.4352
G01 X184.3196 Y263.3700 Z-4.4653
G01 X184.2364 Y263.3962 Z-4.4954
G01 X184.1558 Y263.4296 Z-4.5255
G01 X184.0784 Y263.4699 Z-4.5556
G01 X184.0378 Y263.4946 Z-4.5720
G01 X183.9983 Y263.5213 Z-4.5884
G01 X183.9602 Y263.5498 Z-4.6048
G01 X183.9235 Y263.5801 Z-4.6212
G01 X183.8883 Y263.6121 Z-4.6376
G01 X183.8547 Y263.6458 Z-4.6540
G01 X183.8226 Y263.6810 Z-4.6705
G01 X183.7923 Y263.7177 Z-4.6869
G01 X183.7638 Y263.7558 Z-4.7033
G01 X183.7371 Y263.7952 Z-4.7197
G01 X183.7124 Y263.8359 Z-4.7361
G01 X183.6896 Y263.8777 Z-4.7525
G01 X183.6688 Y263.9205 Z-4.7689
G01 X183.6500 Y263.9642 Z-4.7854
G01 X183.6334 Y264.0088 Z-4.8018
G01 X183.6189 Y264.0541 Z-4.8182
G01 X183.6066 Y264.1001 Z-4.8346
G01 X183.5965 Y264.1466 Z-4.8510
G01 X183.5886 Y264.1936 Z-4.8674
G01 X183.5829 Y264.2408 Z-4.8838
G01 X183.5795 Y264.2883 Z-4.9003
G01 X183.5784 Y264.3359 Z-4.9167
G01 X183.5795 Y264.3835 Z-4.9331
G01 X183.5829 Y264.4309 Z-4.9495
G01 X183.5886 Y264.4782 Z-4.9659
G01 X183.5965 Y264.5251 Z-4.9823
G01 X183.6066 Y264.5716 Z-4.9987
G01 X183.6189 Y264.6176 Z-5.0152
G01 X183.6334 Y264.6629 Z-5.0316
G01 X183.6500 Y264.7075 Z-5.0480
G01 X183.6688 Y264.7513 Z-5.0644
G01 X183.6896 Y264.7941 Z-5.0808
G01 X183.7124 Y264.8359 Z-5.0972
G01 X183.7371 Y264.8765 Z-5.1136
G01 X183.7638 Y264.9159 Z-5.1301
G01 X183.7923 Y264.9540 Z-5.1465
G01 X183.8226 Y264.9907 Z-5.1629
G01 X183.8547 Y265.0260 Z-5.1793
G01 X183.8883 Y265.0596 Z-5.1957
G01 X183.9235 Y265.0916 Z-5.2121
G01 X183.9602 Y265.1219 Z-5.2285
G01 X183.9983 Y265.1505 Z-5.2449
G01 X184.0378 Y265.1771 Z-5.2614
G01 X184.0784 Y265.2019 Z-5.2778
G01 X184.1202 Y265.2247 Z-5.2942
G01 X184.1630 Y265.2455 Z-5.3106
G01 X184.2067 Y265.2642 Z-5.3270
G01 X184.2513 Y265.2809 Z-5.3434
G01 X184.2967 Y265.2954 Z-5.3598
G01 X184.3426 Y265.3077 Z-5.3763
G01 X184.3891 Y265.3178 Z-5.3927
G01 X184.4361 Y265.3257 Z-5.4091
G01 X184.4833 Y265.3313 Z-5.4255
G01 X184.5308 Y265.3347 Z-5.4419
G01 X184.5784 Y265.3359 Z-5.4583
G01 X184.6260 Y265.3347 Z-5.4747
G01 X184.6735 Y265.3313 Z-5.4912
G01 X184.7207 Y265.3257 Z-5.5076
G01 X184.7676 Y265.3178 Z-5.5240
G01 X184.8142 Y265.3077 Z-5.5404
G01 X184.8601 Y265.2954 Z-5.5568
G01 X184.9055 Y265.2809 Z-5.5732
G01 X184.9501 Y265.2642 Z-5.5896
G01 X184.9938 Y265.2455 Z-5.6061
G01 X185.0366 Y265.2247 Z-5.6225
G01 X185.0784 Y265.2019 Z-5.6389
G01 X185.1190 Y265.1771 Z-5.6553
G01 X185.1585 Y265.1505 Z-5.6717
G01 X185.1966 Y265.1219 Z-5.6881
G01 X185.2333 Y265.0916 Z-5.7045
G01 X185.2685 Y265.0596 Z-5.7210
G01 X185.3021 Y265.0260 Z-5.7374
G01 X185.3341 Y264.9907 Z-5.7538
G01 X185.3644 Y264.9540 Z-5.7702
G01 X185.3930 Y264.9159 Z-5.7866
G01 X185.4197 Y264.8765 Z-5.8030
G01 X185.4444 Y264.8359 Z-5.8194
G01 X185.4672 Y264.7941 Z-5.8359
G01 X185.4880 Y264.7513 Z-5.8523
G01 X185.5068 Y264.7075 Z-5.8687
G01 X185.5234 Y264.6629 Z-5.8851
G01 X185.5379 Y264.6176 Z-5.9015
G01 X185.5502 Y264.5716 Z-5.9179
G01 X185.5603 Y264.5251 Z-5.9343
G01 X185.5682 Y264.4782 Z-5.9508
G01 X185.5739 Y264.4309 Z-5.9672
G01 X185.5773 Y264.3835 Z-5.9836
G01 X185.5784 Y264.3359 Z-6.0000
G01 X185.5746 Y264.2487
G01 X185.5632 Y264.1622
G01 X185.5443 Y264.0771
G01 X185.5181 Y263.9939
G01 X185.4847 Y263.9133
G01 X185.4444 Y263.8359
G01 X185.3975 Y263.7623
G01 X185.3444 Y263.6931
G01 X185.2855 Y263.6288
G01 X185.2212 Y263.5698
G01 X185.1520 Y263.5167
G01 X185.0784 Y263.4699
G01 X185.0010 Y263.4296
G01 X184.9204 Y263.3962
G01 X184.8372 Y263.3700
G01 X184.7520 Y263.3511
G01 X184.6656 Y263.3397
G01 X184.5784 Y263.3359
G01 X184.4912 Y263.3397
G01 X184.4047 Y263.3511
G01 X184.3196 Y263.3700
G01 X184.2364 Y263.3962
G01 X184.1558 Y263.4296
G01 X184.0784 Y263.4699
G01 X184.0378 Y263.4946
G01 X183.9983 Y263.5213
G01 X183.9602 Y263.5498
G01 X183.9235 Y263.5801
G01 X183.8883 Y263.6121
G01 X183.8547 Y263.6458
G01 X183.8226 Y263.6810
G01 X183.7923 Y263.7177
G01 X183.7638 Y263.7558
G01 X183.7371 Y263.7952
G01 X183.7124 Y263.8359
G01 X183.6896 Y263.8777
G01 X183.6688 Y263.9205
G01 X183.6500 Y263.9642
G01 X183.6334 Y264.0088
G01 X183.6189 Y264.0541
G01 X183.6066 Y264.1001
G01 X183.5965 Y264.1466
G01 X183.5886 Y264.1936
G01 X183.5829 Y264.2408
G01 X183.5795 Y264.2883
G01 X183.5784 Y264.3359
G01 X183.5795 Y264.3835
G01 X183.5829 Y264.4309
G01 X183.5886 Y264.4782
G01 X183.5965 Y264.5251
G01 X183.6066 Y264.5716
G01 X183.6189 Y264.6176
G01 X183.6334 Y264.6629
G01 X183.6500 Y264.7075
G01 X183.6688 Y264.7513
G01 X183.6896 Y264.7941
G01 X183.7124 Y264.8359
G01 X183.7371 Y264.8765
G01 X183.7638 Y264.9159
G01 X183.7923 Y264.9540
G01 X183.8226 Y264.9907
G01 X183.8547 Y265.0260
G01 X183.8883 Y265.0596
G01 X183.9235 Y265.0916
G01 X183.9602 Y265.1219
G01 X183.9983 Y265.1505
G01 X184.0378 Y265.1771
G01 X184.0784 Y265.2019
G01 X184.1202 Y265.2247
G01 X184.1630 Y265.2455
G01 X184.2067 Y265.2642
G01 X184.2513 Y265.2809
G01 X184.2967 Y265.2954
G01 X184.3426 Y265.3077
G01 X184.3891 Y265.3178
G01 X184.4361 Y265.3257
G01 X184.4833 Y265.3313
G01 X184.5308 Y265.3347
G01 X184.5784 Y265.3359
G01 X184.6260 Y265.3347
G01 X184.6735 Y265.3313
G01 X184.7207 Y265.3257
G01 X184.7676 Y265.3178
G01 X184.8142 Y265.3077
G01 X184.8601 Y265.2954
G01 X184.9055 Y265.2809
G01 X184.9501 Y265.2642
G01 X184.9938 Y265.2455
G01 X185.0366 Y265.2247
G01 X185.0784 Y265.2019
G01 X185.1190 Y265.1771
G01 X185.1585 Y265.1505
G01 X185.1966 Y265.1219
G01 X185.2333 Y265.0916
G01 X185.2685 Y265.0596
G01 X185.3021 Y265.0260
G01 X185.3341 Y264.9907
G01 X185.3644 Y264.9540
G01 X185.3930 Y264.9159
G01 X185.4197 Y264.8765
G01 X185.4444 Y264.8359
G01 X185.4672 Y264.7941
G01 X185.4880 Y264.7513
G01 X185.5068 Y264.7075
G01 X185.5234 Y264.6629
G01 X185.5379 Y264.6176
G01 X185.5502 Y264.5716
G01 X185.5603 Y264.5251
G01 X185.5682 Y264.4782
G01 X185.5739 Y264.4309
G01 X185.5773 Y264.3835
G01 X185.5784 Y264.3359
G01 X185.5891 Y264.2843 F1000
G01 X185.5972 Y264.2322
G01 X185.6026 Y264.1798
G01 X185.6053 Y264.1271
G01 X185.6052 Y264.0744
G01 X185.6025 Y264.0218
G01 X185.5970 Y263.9694
G01 X185.5889 Y263.9173
G01 X185.5772 Y263.8613
G01 X185.5626 Y263.8060
G01 X185.5452 Y263.7515
G01 X185.5251 Y263.6980
G01 X185.5023 Y263.6455
G01 X185.4768 Y263.5943
G01 X185.4487 Y263.5445
G01 X185.4181 Y263.4962
G01 X185.3825 Y263.4458
G01 X185.3444 Y263.3973
G01 X185.3038 Y263.3507
G01 X185.2610 Y263.3063
G01 X185.2159 Y263.2642
G01 X185.1688 Y263.2244
G01 X185.1197 Y263.1870
G01 X185.0687 Y263.1522
G01 X185.0122 Y263.1176
G01 X184.9540 Y263.0859
G01 X184.8943 Y263.0572
G01 X184.8333 Y263.0316
G01 X184.7710 Y263.0091
G01 X184.7076 Y262.9898
G01 X184.6434 Y262.9737
G01 X184.5784 Y262.9609
G01 X184.5084 Y262.9507
G01 X184.4379 Y262.9441
G01 X184.3672 Y262.9410
G01 X184.2964 Y262.9415
G01 X184.2258 Y262.9455
G01 X184.1554 Y262.9531
G01 X184.0856 Y262.9643
G01 X184.0163 Y262.9789
G01 X183.9481 Y263.0049
G01 X183.8813 Y263.0342
G01 X183.8160 Y263.0667
G01 X183.7524 Y263.1025
G01 X183.6906 Y263.1413
G01 X183.6308 Y263.1831
G01 X183.5732 Y263.2278
G01 X183.5178 Y263.2752
G01 X183.4670 Y263.3286
G01 X183.4189 Y263.3843
G01 X183.3736 Y263.4423
G01 X183.3312 Y263.5025
G01 X183.2918 Y263.5647
G01 X183.2555 Y263.6288
G01 X183.2224 Y263.6946
G01 X183.1926 Y263.7619
G01 X183.1661 Y263.8306
G01 X183.1430 Y263.9005
G01 X183.1234 Y263.9714
G01 X183.1072 Y264.0432
G01 X183.0947 Y264.1158
G01 X183.0857 Y264.1889
G01 X183.0802 Y264.2623
G01 X183.0784 Y264.3359
G01 X183.0802 Y264.4095
G01 X183.0857 Y264.4829
G01 X183.0947 Y264.5560
G01 X183.1072 Y264.6285
G01 X183.1234 Y264.7003
G01 X183.1430 Y264.7713
G01 X183.1661 Y264.8412
G01 X183.1926 Y264.9099
G01 X183.2224 Y264.9772
G01 X183.2555 Y265.0430
G01 X183.2918 Y265.1070
G01 X183.3312 Y265.1692
G01 X183.3736 Y265.2294
G01 X183.4189 Y265.2874
G01 X183.4670 Y265.3432
G01 X183.5178 Y265.3965
G01 X183.5711 Y265.4473
G01 X183.6268 Y265.4954
G01 X183.6849 Y265.5407
G01 X183.7451 Y265.5831
G01 X183.8073 Y265.6224
G01 X183.8713 Y265.6587
G01 X183.9371 Y265.6918
G01 X184.0044 Y265.7217
G01 X184.0731 Y265.7482
G01 X184.1430 Y265.7713
G01 X184.2139 Y265.7909
G01 X184.2858 Y265.8070
G01 X184.3583 Y265.8196
G01 X184.4314 Y265.8286
G01 X184.5048 Y265.8340
G01 X184.5784 Y265.8358
G01 X184.6520 Y265.8340
G01 X184.7254 Y265.8286
G01 X184.7985 Y265.8196
G01 X184.8710 Y265.8070
G01 X184.9429 Y265.7909
G01 X185.0138 Y265.7713
G01 X185.0837 Y265.7482
G01 X185.1524 Y265.7217
G01 X185.2197 Y265.6918
G01 X185.2855 Y265.6587
G01 X185.3495 Y265.6224
G01 X185.4117 Y265.5831
G01 X185.4719 Y265.5407
G01 X185.5300 Y265.4954
G01 X185.5857 Y265.4473
G01 X185.6390 Y265.3965
G01 X185.6898 Y265.3432
G01 X185.7379 Y265.2874
G01 X185.7832 Y265.2294
G01 X185.8256 Y265.1692
G01 X185.8650 Y265.1070
G01 X185.9013 Y265.0430
G01 X185.9344 Y264.9772
G01 X185.9642 Y264.9099
G01 X185.9907 Y264.8412
G01 X186.0138 Y264.7713
G01 X186.0334 Y264.7003
G01 X186.0495 Y264.6285
G01 X186.0621 Y264.5560
G01 X186.0711 Y264.4829
G01 X186.0766 Y264.4095
G01 X186.0784 Y264.3359
G01 X186.0742 Y264.2238
G01 X186.0616 Y264.1123
G01 X186.0408 Y264.0021
G01 X186.0117 Y263.8938
G01 X185.9747 Y263.7879
G01 X185.9298 Y263.6851
G01 X185.8774 Y263.5859
G01 X185.8177 Y263.4909
G01 X185.7511 Y263.4007
G01 X185.6780 Y263.3156
G01 X185.5986 Y263.2363
G01 X185.5136 Y263.1632
G01 X185.4234 Y263.0965
G01 X185.3284 Y263.0369
G01 X185.2292 Y262.9845
G01 X185.1264 Y262.9396
G01 X185.0205 Y262.9025
G01 X184.9122 Y262.8735
G01 X184.8020 Y262.8527
G01 X184.6905 Y262.8401
G01 X184.5784 Y262.8359
G01 X184.4663 Y262.8401
G01 X184.3548 Y262.8527
G01 X184.2446 Y262.8735
G01 X184.1363 Y262.9025
G01 X184.0304 Y262.9396
G01 X183.9276 Y262.9845
G01 X183.8284 Y263.0369
G01 X183.7334 Y263.0965
G01 X183.6432 Y263.1632
G01 X183.5582 Y263.2363
G01 X183.4788 Y263.3156
G01 X183.4057 Y263.4007
G01 X183.3391 Y263.4909
G01 X183.2794 Y263.5859
G01 X183.2270 Y263.6851
G01 X183.1821 Y263.7879
G01 X183.1451 Y263.8938
G01 X183.1160 Y264.0021
G01 X183.0952 Y264.1123
G01 X183.0826 Y264.2238
G01 X183.0784 Y264.3359
G01 X183.0826 Y264.4480
G01 X183.0952 Y264.5594
G01 X183.1160 Y264.6697
G01 X183.1451 Y264.7780
G01 X183.1821 Y264.8839
G01 X183.2270 Y264.9867
G01 X183.2794 Y265.0859
G01 X183.3391 Y265.1808
G01 X183.4057 Y265.2711
G01 X183.4788 Y265.3561
G01 X183.5582 Y265.4354
G01 X183.6432 Y265.5086
G01 X183.7334 Y265.5752
G01 X183.8284 Y265.6349
G01 X183.9276 Y265.6873
G01 X184.0304 Y265.7322
G01 X184.1363 Y265.7692
G01 X184.2446 Y265.7982
G01 X184.3548 Y265.8191
G01 X184.4663 Y265.8317
G01 X184.5784 Y265.8358
G01 X184.6905 Y265.8317
G01 X184.8020 Y265.8191
G01 X184.9122 Y265.7982
G01 X185.0205 Y265.7692
G01 X185.1264 Y265.7322
G01 X185.2292 Y265.6873
G01 X185.3284 Y265.6349
G01 X185.4234 Y265.5752
G01 X185.5136 Y265.5086
G01 X185.5986 Y265.4354
G01 X185.6780 Y265.3561
G01 X185.7511 Y265.2711
G01 X185.8177 Y265.1808
G01 X185.8774 Y265.0859
G01 X185.9298 Y264.9867
G01 X185.9747 Y264.8839
G01 X186.0117 Y264.7780
G01 X186.0408 Y264.6697
G01 X186.0616 Y264.5594
G01 X186.0742 Y264.4480
G01 X186.0784 Y264.3359
M107
M106 S240
G01 X186.0753 Y264.2574 Z-5.9750 F400
M107
M106 S240
G01 X186.0661 Y264.1794 Z-5.9500
M107
M106 S240
G01 X186.0507 Y264.1024 Z-5.9250
M107
M106 S240
G01 X186.0294 Y264.0269 Z-5.9000
M107
M106 S240
G01 X186.0022 Y263.9532 Z-5.8750
M107
M106 S240
G01 X185.9694 Y263.8819 Z-5.8500
M107
M106 S240
G01 X185.9310 Y263.8134 Z-5.8250
M107
M106 S240
G01 X185.8874 Y263.7481 Z-5.8000
M107
M106 S240
G01 X185.8388 Y263.6864 Z-5.7750
M107
M106 S240
G01 X185.7855 Y263.6288 Z-5.7500
M107
M106 S240
G01 X185.7278 Y263.5755 Z-5.7250
M107
M106 S240
G01 X185.6662 Y263.5269 Z-5.7000
M107
M106 S240
G01 X185.6009 Y263.4832 Z-5.6750
M107
M106 S240
G01 X185.5324 Y263.4449 Z-5.6500
M107
M106 S240
G01 X185.4610 Y263.4120 Z-5.6250
M107
M106 S240
G01 X185.3874 Y263.3848 Z-5.6000
M107
M106 S240
G01 X185.3118 Y263.3635 Z-5.5750
M107
M106 S240
G01 X185.2348 Y263.3482 Z-5.5500
M107
M106 S240
G01 X185.1568 Y263.3390 Z-5.5250
M107
M106 S240
G01 X185.0784 Y263.3359 Z-5.5000
M107
G00 Z2.0000


;No. 10: Hole 8
G00 X185.0449 Y241.3618 Z2.0000
G00 Z0.5000
G01 Z0.0000 F400
G01 Z-1.8000
M106 S240
G01 X162.1243 F1000
G01 X161.9635 Y241.2429
G01 X161.8275 Y241.4400
G01 X161.7046 Y241.6454
G01 X161.5953 Y241.8585
G01 X161.5001 Y242.0781
G01 X161.4194 Y242.3035
G01 X161.3535 Y242.5337
G01 X161.3027 Y242.7677
G01 X161.2672 Y243.0045
G01 X185.9183 Y243.0044
G01 X185.8572 Y242.6695
G01 X185.7664 Y242.3414
G01 X185.6466 Y242.0228
G01 X185.4988 Y241.7162
G01 X185.3241 Y241.4240
G01 X185.1239 Y241.1487
G01 X184.8999 Y240.8924
G01 X184.6538 Y240.6571
G01 X184.3877 Y240.4449
G01 X184.1036 Y240.2573
G01 X183.8039 Y240.0959
G01 X183.4910 Y239.9620
G01 X183.1673 Y239.8567
G01 X182.8355 Y239.7807
G01 X182.4982 Y239.7348
G01 X182.1581 Y239.7192
G01 X165.0307
G01 X164.7340 Y239.7248
G01 X164.4388 Y239.7541
G01 X164.1469 Y239.8071
G01 X163.8601 Y239.8834
G01 X163.5804 Y239.9824
G01 X163.3096 Y240.1036
G01 X163.0494 Y240.2462
G01 X162.8015 Y240.4092
G01 X162.5675 Y240.5917
G01 X162.3489 Y240.7923
G01 X162.1471 Y241.0098
G01 X161.9635 Y241.2429
G01 X162.1243 Y241.3618
M107
G00 Z2.0000


;No. 11: Hole 7
G00 X143.5004 Y256.7353 Z2.0000
G00 Z0.5000
G01 Z0.0000 F400
G01 Z-1.8000
M106 S240
G01 X131.6068 F1000
G01 X142.6216
G01 Y258.2353
G01 X143.5004
G01 Y259.7353
G01 X142.6127
G01 X143.5004 Y261.2353
G01 X130.5017
G01 Y262.7353
G01 X131.3895
G01 X131.3804 Y264.2353
G01 X130.5017
G01 Y265.7353
G01 X142.3922
G01 X142.4541 Y265.5451
G01 X142.3796 Y265.5213
G01 X142.3042 Y265.5006
G01 X142.2280 Y265.4832
G01 X142.1512 Y265.4690
G01 X142.0738 Y265.4580
G01 X141.9960 Y265.4504
G01 X141.9179 Y265.4460
G01 X141.8398 Y265.4449
G01 X132.5804
G01 X132.5368 Y265.4439
G01 X132.4933 Y265.4411
G01 X132.4499 Y265.4363
G01 X132.4068 Y265.4297
G01 X132.3640 Y265.4212
G01 X132.3216 Y265.4108
G01 X132.2797 Y265.3986
G01 X132.2384 Y265.3846
G01 X132.1977 Y265.3687
G01 X132.1578 Y265.3512
G01 X132.1187 Y265.3319
G01 X132.0804 Y265.3109
G01 X132.0431 Y265.2883
G01 X132.0068 Y265.2640
G01 X131.9717 Y265.2382
G01 X131.9376 Y265.2109
G01 X131.9048 Y265.1821
G01 X131.8733 Y265.1520
G01 X131.8431 Y265.1205
G01 X131.8144 Y265.0877
G01 X131.7871 Y265.0536
G01 X131.7613 Y265.0184
G01 X131.7370 Y264.9822
G01 X131.7144 Y264.9449
G01 X131.6934 Y264.9066
G01 X131.6741 Y264.8675
G01 X131.6565 Y264.8276
G01 X131.6407 Y264.7869
G01 X131.6267 Y264.7456
G01 X131.6145 Y264.7037
G01 X131.6041 Y264.6613
G01 X131.5956 Y264.6185
G01 X131.5890 Y264.5754
G01 X131.5842 Y264.5320
G01 X131.5814 Y264.4885
G01 X131.5804 Y264.4449
G01 Y262.8747
G01 X131.5835 Y262.7962
G01 X131.5927 Y262.7182
G01 X131.6081 Y262.6412
G01 X131.6294 Y262.5656
G01 X131.6565 Y262.4920
G01 X131.6894 Y262.4207
G01 X131.7278 Y262.3522
G01 X131.7714 Y262.2869
G01 X131.8200 Y262.2252
G01 X131.8733 Y262.1676
G01 X131.9310 Y262.1143
G01 X131.9926 Y262.0656
G01 X132.0579 Y262.0220
G01 X132.1264 Y261.9837
G01 X132.1977 Y261.9508
G01 X132.2714 Y261.9236
G01 X132.3470 Y261.9023
G01 X132.4240 Y261.8870
G01 X132.5020 Y261.8777
G01 X132.5804 Y261.8747
G01 X143.7004
G01 Y255.7486
G01 X130.3917
G01 X130.4266 Y255.8497
G01 X130.4677 Y255.9485
G01 X130.5148 Y256.0445
G01 X130.5676 Y256.1375
G01 X130.6261 Y256.2271
G01 X130.6899 Y256.3129
G01 X130.7589 Y256.3947
G01 X130.8328 Y256.4721
G01 X130.8246 Y256.4643
G01 X130.9136 Y256.5510
G01 X131.0083 Y256.6315
G01 X131.1083 Y256.7054
G01 X131.2131 Y256.7722
G01 X131.3222 Y256.8318
G01 X131.4351 Y256.8837
G01 X131.5513 Y256.9279
G01 X131.6703 Y256.9641
G01 X131.7914 Y256.9920
G01 X131.9141 Y257.0117
G01 X132.0379 Y257.0229
G01 X132.1622 Y257.0257
G01 X141.4216
G01 X141.4652 Y257.0266
G01 X141.5087 Y257.0295
G01 X141.5521 Y257.0342
G01 X141.5952 Y257.0409
G01 X141.6380 Y257.0494
G01 X141.6804 Y257.0598
G01 X141.7223 Y257.0720
G01 X141.7636 Y257.0860
G01 X141.8043 Y257.1018
G01 X141.8442 Y257.1194
G01 X141.8833 Y257.1387
G01 X141.9216 Y257.1597
G01 X141.9589 Y257.1823
G01 X141.9952 Y257.2065
G01 X142.0304 Y257.2323
G01 X142.0644 Y257.2596
G01 X142.0972 Y257.2884
G01 X142.1287 Y257.3186
G01 X142.1589 Y257.3501
G01 X142.1876 Y257.3829
G01 X142.2149 Y257.4169
G01 X142.2407 Y257.4521
G01 X142.2650 Y257.4884
G01 X142.2876 Y257.5257
G01 X142.3086 Y257.5639
G01 X142.3279 Y257.6031
G01 X142.3455 Y257.6430
G01 X142.3613 Y257.6837
G01 X142.3753 Y257.7250
G01 X142.3875 Y257.7669
G01 X142.3979 Y257.8093
G01 X142.4064 Y257.8520
G01 X142.4130 Y257.8952
G01 X142.4178 Y257.9385
G01 X142.4206 Y257.9821
G01 X142.4216 Y258.0257
G01 Y259.5976
G01 X142.4185 Y259.6760
G01 X142.4093 Y259.7540
G01 X142.3940 Y259.8310
G01 X142.3726 Y259.9066
G01 X142.3455 Y259.9802
G01 X142.3126 Y260.0516
G01 X142.2742 Y260.1201
G01 X142.2306 Y260.1853
G01 X142.1820 Y260.2470
G01 X142.1287 Y260.3047
G01 X142.0710 Y260.3580
G01 X142.0094 Y260.4066
G01 X141.9441 Y260.4502
G01 X141.8756 Y260.4886
G01 X141.8043 Y260.5214
G01 X141.7306 Y260.5486
G01 X141.6550 Y260.5699
G01 X141.5780 Y260.5853
G01 X141.5001 Y260.5945
G01 X141.4216 Y260.5976
G01 X130.3017
G01 Y266.7220
G01 X143.6104
G01 X143.5741 Y266.6215
G01 X143.5321 Y266.5233
G01 X143.4845 Y266.4277
G01 X143.4316 Y266.3349
G01 X143.3734 Y266.2454
G01 X143.3102 Y266.1593
G01 X143.2421 Y266.0769
G01 X143.1695 Y265.9986
G01 X143.0925 Y265.9246
G01 X143.0114 Y265.8551
G01 X142.9264 Y265.7904
G01 X142.8379 Y265.7307
G01 X142.7461 Y265.6761
G01 X142.6513 Y265.6269
G01 X142.5539 Y265.5831
G01 X142.4541 Y265.5451
G01 X142.3922 Y265.7353
M107
G00 Z2.0000


;No. 12: Hole 6
G00 X126.5315 Y265.7179 Z2.0000
G00 Z0.5000
G01 Z0.0000 F400
G01 Z-1.8000
M106 S240
G01 X125.6548 F1000
G01 X125.6557 Y264.2179
G01 X126.4028
G01 X126.5971 Y264.1650
G01 X126.5554 Y264.0740
G01 X126.5088 Y263.9853
G01 X126.4577 Y263.8993
G01 X126.4021 Y263.8160
G01 X126.3422 Y263.7358
G01 X126.2782 Y263.6588
G01 X126.2102 Y263.5853
G01 X126.1385 Y263.5155
G01 X126.0631 Y263.4496
G01 X125.9844 Y263.3877
G01 X125.9026 Y263.3301
G01 X125.8178 Y263.2768
G01 X125.7303 Y263.2281
G01 X125.6404 Y263.1840
G01 X125.5483 Y263.1448
G01 X125.4543 Y263.1104
G01 Y266.7220
G01 X126.7315
G01 X126.7455 Y266.2159
G01 X126.7489 Y265.7096
G01 X126.7417 Y265.2033
G01 X126.7238 Y264.6973
G01 X126.7170 Y264.6290
G01 X126.7075 Y264.5610
G01 X126.6955 Y264.4934
G01 X126.6809 Y264.4263
G01 X126.6637 Y264.3598
G01 X126.6440 Y264.2940
G01 X126.6218 Y264.2291
G01 X126.5971 Y264.1650
G01 X126.4028 Y264.2179
M107
G00 Z2.0000


;No. 13: Hole 5
G00 X121.6841 Y264.2353 Z2.0000
G00 Z0.5000
G01 Z0.0000 F400
G01 Z-1.8000
M106 S240
G01 X120.8054 F1000
G01 Y262.7353
G01 X121.6841
G01 Y261.2353
G01 X120.8054
G01 Y259.7353
G01 X121.6841
G01 Y258.2353
G01 X120.8054
G01 Y256.7353
G01 X121.6841
M107
G00 Z2.0000
G00 Y264.2353
G00 Z0.5000
G01 Z-1.8000 F400
M106 S240
G01 Y265.7353 F1000
G01 X120.8054
G01 X120.6054 Y265.7172
G01 Y266.7220
G01 X121.8841
G01 Y255.7486
G01 X120.6054
G01 Y265.7172
G01 X120.8054 Y265.7353
M107
G00 Z2.0000


;No. 14: Hole 4
G00 X116.8352 Y265.7353 Z2.0000
G00 Z0.5000
G01 Z0.0000 F400
G01 Z-1.8000
M106 S240
G01 X115.9581 F1000
G01 Y264.2353
G01 X116.8352
G01 Y262.7353
G01 X115.9581
G01 Y261.2353
G01 X116.8352
G01 Y259.7353
G01 X115.9530
G01 X116.8352 Y258.2353
G01 X113.2185
G01 X114.7185 Y256.7353
G01 X116.8352
G01 X111.7185 Y259.7353
G01 X113.1682
G01 X110.2185 Y261.2353
G01 X111.6679
G01 X110.1675 Y262.7353
G01 X106.2618
G01 Y261.2353
G01 X107.1389
G01 Y259.7353
G01 X106.2618
G01 Y258.2353
G01 X107.1389
G01 Y256.7353
G01 X106.2618
M107
G00 Z2.0000
G00 Y262.7353
G00 Z0.5000
G01 Z-1.8000 F400
M106 S240
G01 Y264.2353 F1000
G01 X108.6672
G01 X107.1669 Y265.7353
G01 X105.7185
G01 X105.5401 Y265.6308
G01 X104.4489 Y266.7220
G01 X106.4629
G01 X114.0510 Y259.1354
G01 X114.0838 Y259.1041
G01 X114.1179 Y259.0743
G01 X114.1534 Y259.0461
G01 X114.1901 Y259.0196
G01 X114.2280 Y258.9947
G01 X114.2669 Y258.9715
G01 X114.3069 Y258.9502
G01 X114.3477 Y258.9307
G01 X114.3895 Y258.9130
G01 X114.4320 Y258.8973
G01 X114.4751 Y258.8835
G01 X114.5188 Y258.8716
G01 X114.5631 Y258.8618
G01 X114.6077 Y258.8540
G01 X114.6526 Y258.8482
G01 X114.6978 Y258.8444
G01 X114.7430 Y258.8427
G01 X114.7883 Y258.8431
G01 X114.8336 Y258.8455
G01 X114.8787 Y258.8499
G01 X114.9235 Y258.8564
G01 X114.9680 Y258.8649
G01 X115.0121 Y258.8754
G01 X115.0556 Y258.8879
G01 X115.0986 Y258.9023
G01 X115.1408 Y258.9187
G01 X115.1823 Y258.9370
G01 X115.2228 Y258.9572
G01 X115.2625 Y258.9791
G01 X115.3011 Y259.0029
G01 X115.3385 Y259.0283
G01 X115.3748 Y259.0554
G01 X115.4098 Y259.0842
G01 X115.4435 Y259.1145
G01 X115.4758 Y259.1463
G01 X115.5066 Y259.1795
G01 X115.5359 Y259.2141
G01 X115.5635 Y259.2500
G01 X115.5896 Y259.2870
G01 X115.6139 Y259.3253
G01 X115.6364 Y259.3646
G01 X115.6572 Y259.4048
G01 X115.6761 Y259.4460
G01 X115.6931 Y259.4880
G01 X115.7082 Y259.5307
G01 X115.7213 Y259.5741
G01 X115.7325 Y259.6180
G01 X115.7417 Y259.6623
G01 X115.7489 Y259.7071
G01 X115.7540 Y259.7521
G01 X115.7570 Y259.7973
G01 X115.7581 Y259.8426
G01 Y266.7220
G01 X117.0352
G01 Y255.7486
G01 X115.4223
G01 X109.0460 Y262.1249
G01 X108.9841 Y262.1818
G01 X108.9176 Y262.2334
G01 X108.8470 Y262.2791
G01 X108.7728 Y262.3188
G01 X108.6955 Y262.3521
G01 X108.6157 Y262.3787
G01 X108.5340 Y262.3986
