;Project Baumwollnatter
;Created by Estlcam version 11 build 11,227
;Machining time about 00:18:52 hours

G90
M03 S18000
G00 X0.0000 Y0.0000 Z0.0000
G00 Z2.0000


;No. 1: Helical drill 1
G00 X27.5151 Y261.1594
G00 Z0.5000
M106 S240
G01 X27.5113 Y261.0722 Z0.4774 F400 S18000
G01 X27.4999 Y260.9857 Z0.4549
G01 X27.4810 Y260.9005 Z0.4323
G01 X27.4548 Y260.8173 Z0.4097
G01 X27.4214 Y260.7367 Z0.3872
G01 X27.3811 Y260.6594 Z0.3646
G01 X27.3343 Y260.5858 Z0.3420
G01 X27.2812 Y260.5166 Z0.3194
G01 X27.2222 Y260.4523 Z0.2969
G01 X27.1579 Y260.3933 Z0.2743
G01 X27.0887 Y260.3402 Z0.2517
G01 X27.0151 Y260.2933 Z0.2292
G01 X26.9377 Y260.2531 Z0.2066
G01 X26.8571 Y260.2197 Z0.1840
G01 X26.7739 Y260.1934 Z0.1615
G01 X26.6888 Y260.1746 Z0.1389
G01 X26.6023 Y260.1632 Z0.1163
G01 X26.5151 Y260.1594 Z0.0938
G01 X26.4280 Y260.1632 Z0.0712
G01 X26.3415 Y260.1746 Z0.0486
G01 X26.2563 Y260.1934 Z0.0260
G01 X26.1731 Y260.2197 Z0.0035
G01 X26.0925 Y260.2531 Z-0.0191
G01 X26.0151 Y260.2933 Z-0.0417
G01 X25.9745 Y260.3181 Z-0.0540
G01 X25.9351 Y260.3448 Z-0.0663
G01 X25.8970 Y260.3733 Z-0.0786
G01 X25.8603 Y260.4036 Z-0.0909
G01 X25.8250 Y260.4356 Z-0.1032
G01 X25.7914 Y260.4693 Z-0.1155
G01 X25.7594 Y260.5045 Z-0.1278
G01 X25.7291 Y260.5412 Z-0.1402
G01 X25.7005 Y260.5793 Z-0.1525
G01 X25.6739 Y260.6187 Z-0.1648
G01 X25.6491 Y260.6594 Z-0.1771
G01 X25.6263 Y260.7011 Z-0.1894
G01 X25.6055 Y260.7439 Z-0.2017
G01 X25.5867 Y260.7877 Z-0.2140
G01 X25.5701 Y260.8323 Z-0.2263
G01 X25.5556 Y260.8776 Z-0.2386
G01 X25.5433 Y260.9236 Z-0.2509
G01 X25.5332 Y260.9701 Z-0.2633
G01 X25.5253 Y261.0170 Z-0.2756
G01 X25.5196 Y261.0643 Z-0.2879
G01 X25.5162 Y261.1118 Z-0.3002
G01 X25.5151 Y261.1594 Z-0.3125
G01 X25.5162 Y261.2069 Z-0.3248
G01 X25.5196 Y261.2544 Z-0.3371
G01 X25.5253 Y261.3017 Z-0.3494
G01 X25.5332 Y261.3486 Z-0.3617
G01 X25.5433 Y261.3951 Z-0.3741
G01 X25.5556 Y261.4411 Z-0.3864
G01 X25.5701 Y261.4864 Z-0.3987
G01 X25.5867 Y261.5310 Z-0.4110
G01 X25.6055 Y261.5748 Z-0.4233
G01 X25.6263 Y261.6176 Z-0.4356
G01 X25.6491 Y261.6594 Z-0.4479
G01 X25.6739 Y261.7000 Z-0.4602
G01 X25.7005 Y261.7394 Z-0.4725
G01 X25.7291 Y261.7775 Z-0.4848
G01 X25.7594 Y261.8142 Z-0.4972
G01 X25.7914 Y261.8494 Z-0.5095
G01 X25.8250 Y261.8831 Z-0.5218
G01 X25.8603 Y261.9151 Z-0.5341
G01 X25.8970 Y261.9454 Z-0.5464
G01 X25.9351 Y261.9739 Z-0.5587
G01 X25.9745 Y262.0006 Z-0.5710
G01 X26.0151 Y262.0254 Z-0.5833
G01 X26.0569 Y262.0482 Z-0.5956
G01 X26.0997 Y262.0690 Z-0.6080
G01 X26.1434 Y262.0877 Z-0.6203
G01 X26.1880 Y262.1044 Z-0.6326
G01 X26.2334 Y262.1189 Z-0.6449
G01 X26.2794 Y262.1312 Z-0.6572
G01 X26.3259 Y262.1413 Z-0.6695
G01 X26.3728 Y262.1492 Z-0.6818
G01 X26.4201 Y262.1548 Z-0.6941
G01 X26.4675 Y262.1582 Z-0.7064
G01 X26.5151 Y262.1594 Z-0.7188
G01 X26.5627 Y262.1582 Z-0.7311
G01 X26.6102 Y262.1548 Z-0.7434
G01 X26.6574 Y262.1492 Z-0.7557
G01 X26.7044 Y262.1413 Z-0.7680
G01 X26.7509 Y262.1312 Z-0.7803
G01 X26.7968 Y262.1189 Z-0.7926
G01 X26.8422 Y262.1044 Z-0.8049
G01 X26.8868 Y262.0877 Z-0.8172
G01 X26.9305 Y262.0690 Z-0.8295
G01 X26.9733 Y262.0482 Z-0.8419
G01 X27.0151 Y262.0254 Z-0.8542
G01 X27.0558 Y262.0006 Z-0.8665
G01 X27.0952 Y261.9739 Z-0.8788
G01 X27.1333 Y261.9454 Z-0.8911
G01 X27.1700 Y261.9151 Z-0.9034
G01 X27.2052 Y261.8831 Z-0.9157
G01 X27.2388 Y261.8494 Z-0.9280
G01 X27.2709 Y261.8142 Z-0.9403
G01 X27.3012 Y261.7775 Z-0.9527
G01 X27.3297 Y261.7394 Z-0.9650
G01 X27.3564 Y261.7000 Z-0.9773
G01 X27.3811 Y261.6594 Z-0.9896
G01 X27.4039 Y261.6176 Z-1.0019
G01 X27.4247 Y261.5748 Z-1.0142
G01 X27.4435 Y261.5310 Z-1.0265
G01 X27.4601 Y261.4864 Z-1.0388
G01 X27.4746 Y261.4411 Z-1.0511
G01 X27.4869 Y261.3951 Z-1.0634
G01 X27.4970 Y261.3486 Z-1.0758
G01 X27.5049 Y261.3017 Z-1.0881
G01 X27.5106 Y261.2544 Z-1.1004
G01 X27.5140 Y261.2069 Z-1.1127
G01 X27.5151 Y261.1594 Z-1.1250
G01 X27.5113 Y261.0722
G01 X27.4999 Y260.9857
G01 X27.4810 Y260.9005
G01 X27.4548 Y260.8173
G01 X27.4214 Y260.7367
G01 X27.3811 Y260.6594
G01 X27.3343 Y260.5858
G01 X27.2812 Y260.5166
G01 X27.2222 Y260.4523
G01 X27.1579 Y260.3933
G01 X27.0887 Y260.3402
G01 X27.0151 Y260.2933
G01 X26.9377 Y260.2531
G01 X26.8571 Y260.2197
G01 X26.7739 Y260.1934
G01 X26.6888 Y260.1746
G01 X26.6023 Y260.1632
G01 X26.5151 Y260.1594
G01 X26.4280 Y260.1632
G01 X26.3415 Y260.1746
G01 X26.2563 Y260.1934
G01 X26.1731 Y260.2197
G01 X26.0925 Y260.2531
G01 X26.0151 Y260.2933
G01 X25.9745 Y260.3181
G01 X25.9351 Y260.3448
G01 X25.8970 Y260.3733
G01 X25.8603 Y260.4036
G01 X25.8250 Y260.4356
G01 X25.7914 Y260.4693
G01 X25.7594 Y260.5045
G01 X25.7291 Y260.5412
G01 X25.7005 Y260.5793
G01 X25.6739 Y260.6187
G01 X25.6491 Y260.6594
G01 X25.6263 Y260.7011
G01 X25.6055 Y260.7439
G01 X25.5867 Y260.7877
G01 X25.5701 Y260.8323
G01 X25.5556 Y260.8776
G01 X25.5433 Y260.9236
G01 X25.5332 Y260.9701
G01 X25.5253 Y261.0170
G01 X25.5196 Y261.0643
G01 X25.5162 Y261.1118
G01 X25.5151 Y261.1594
G01 X25.5162 Y261.2069
G01 X25.5196 Y261.2544
G01 X25.5253 Y261.3017
G01 X25.5332 Y261.3486
G01 X25.5433 Y261.3951
G01 X25.5556 Y261.4411
G01 X25.5701 Y261.4864
G01 X25.5867 Y261.5310
G01 X25.6055 Y261.5748
G01 X25.6263 Y261.6176
G01 X25.6491 Y261.6594
G01 X25.6739 Y261.7000
G01 X25.7005 Y261.7394
G01 X25.7291 Y261.7775
G01 X25.7594 Y261.8142
G01 X25.7914 Y261.8494
G01 X25.8250 Y261.8831
G01 X25.8603 Y261.9151
G01 X25.8970 Y261.9454
G01 X25.9351 Y261.9739
G01 X25.9745 Y262.0006
G01 X26.0151 Y262.0254
G01 X26.0569 Y262.0482
G01 X26.0997 Y262.0690
G01 X26.1434 Y262.0877
G01 X26.1880 Y262.1044
G01 X26.2334 Y262.1189
G01 X26.2794 Y262.1312
G01 X26.3259 Y262.1413
G01 X26.3728 Y262.1492
G01 X26.4201 Y262.1548
G01 X26.4675 Y262.1582
G01 X26.5151 Y262.1594
G01 X26.5627 Y262.1582
G01 X26.6102 Y262.1548
G01 X26.6574 Y262.1492
G01 X26.7044 Y262.1413
G01 X26.7509 Y262.1312
G01 X26.7968 Y262.1189
G01 X26.8422 Y262.1044
G01 X26.8868 Y262.0877
G01 X26.9305 Y262.0690
G01 X26.9733 Y262.0482
G01 X27.0151 Y262.0254
G01 X27.0558 Y262.0006
G01 X27.0952 Y261.9739
G01 X27.1333 Y261.9454
G01 X27.1700 Y261.9151
G01 X27.2052 Y261.8831
G01 X27.2388 Y261.8494
G01 X27.2709 Y261.8142
G01 X27.3012 Y261.7775
G01 X27.3297 Y261.7394
G01 X27.3564 Y261.7000
G01 X27.3811 Y261.6594
G01 X27.4039 Y261.6176
G01 X27.4247 Y261.5748
G01 X27.4435 Y261.5310
G01 X27.4601 Y261.4864
G01 X27.4746 Y261.4411
G01 X27.4869 Y261.3951
G01 X27.4970 Y261.3486
G01 X27.5049 Y261.3017
G01 X27.5106 Y261.2544
G01 X27.5140 Y261.2069
G01 X27.5151 Y261.1594
G01 X27.5259 Y261.1078 F1000
G01 X27.5339 Y261.0557
G01 X27.5393 Y261.0033
G01 X27.5420 Y260.9506
G01 Y260.8979
G01 X27.5392 Y260.8453
G01 X27.5338 Y260.7929
G01 X27.5256 Y260.7408
G01 X27.5139 Y260.6848
G01 X27.4993 Y260.6295
G01 X27.4820 Y260.5750
G01 X27.4618 Y260.5215
G01 X27.4390 Y260.4690
G01 X27.4135 Y260.4178
G01 X27.3854 Y260.3680
G01 X27.3548 Y260.3197
G01 X27.3192 Y260.2693
G01 X27.2811 Y260.2207
G01 X27.2405 Y260.1742
G01 X27.1977 Y260.1298
G01 X27.1526 Y260.0877
G01 X27.1055 Y260.0478
G01 X27.0564 Y260.0105
G01 X27.0054 Y259.9756
G01 X26.9489 Y259.9411
G01 X26.8908 Y259.9094
G01 X26.8311 Y259.8807
G01 X26.7700 Y259.8551
G01 X26.7077 Y259.8326
G01 X26.6443 Y259.8133
G01 X26.5801 Y259.7972
G01 X26.5151 Y259.7844
G01 X26.4451 Y259.7742
G01 X26.3746 Y259.7675
G01 X26.3039 Y259.7645
G01 X26.2332 Y259.7649
G01 X26.1625 Y259.7690
G01 X26.0922 Y259.7766
G01 X26.0223 Y259.7878
G01 X25.9530 Y259.8024
G01 X25.8849 Y259.8284
G01 X25.8180 Y259.8577
G01 X25.7527 Y259.8902
G01 X25.6891 Y259.9259
G01 X25.6273 Y259.9647
G01 X25.5675 Y260.0065
G01 X25.5099 Y260.0512
G01 X25.4545 Y260.0987
G01 X25.4037 Y260.1520
G01 X25.3556 Y260.2078
G01 X25.3103 Y260.2658
G01 X25.2679 Y260.3260
G01 X25.2285 Y260.3882
G01 X25.1922 Y260.4523
G01 X25.1591 Y260.5180
G01 X25.1293 Y260.5853
G01 X25.1028 Y260.6540
G01 X25.0797 Y260.7239
G01 X25.0601 Y260.7949
G01 X25.0440 Y260.8667
G01 X25.0314 Y260.9393
G01 X25.0224 Y261.0123
G01 X25.0169 Y261.0858
G01 X25.0151 Y261.1594
G01 X25.0169 Y261.2330
G01 X25.0224 Y261.3064
G01 X25.0314 Y261.3795
G01 X25.0440 Y261.4520
G01 X25.0601 Y261.5238
G01 X25.0797 Y261.5948
G01 X25.1028 Y261.6647
G01 X25.1293 Y261.7334
G01 X25.1591 Y261.8007
G01 X25.1922 Y261.8664
G01 X25.2285 Y261.9305
G01 X25.2679 Y261.9927
G01 X25.3103 Y262.0529
G01 X25.3556 Y262.1109
G01 X25.4037 Y262.1667
G01 X25.4545 Y262.2200
G01 X25.5078 Y262.2708
G01 X25.5635 Y262.3189
G01 X25.6216 Y262.3642
G01 X25.6818 Y262.4065
G01 X25.7440 Y262.4459
G01 X25.8080 Y262.4822
G01 X25.8738 Y262.5153
G01 X25.9411 Y262.5452
G01 X26.0098 Y262.5717
G01 X26.0797 Y262.5948
G01 X26.1506 Y262.6144
G01 X26.2225 Y262.6305
G01 X26.2950 Y262.6431
G01 X26.3681 Y262.6521
G01 X26.4415 Y262.6575
G01 X26.5151 Y262.6593
G01 X26.5887 Y262.6575
G01 X26.6621 Y262.6521
G01 X26.7352 Y262.6431
G01 X26.8077 Y262.6305
G01 X26.8796 Y262.6144
G01 X26.9505 Y262.5948
G01 X27.0204 Y262.5717
G01 X27.0891 Y262.5452
G01 X27.1564 Y262.5153
G01 X27.2222 Y262.4822
G01 X27.2863 Y262.4459
G01 X27.3485 Y262.4065
G01 X27.4086 Y262.3642
G01 X27.4667 Y262.3189
G01 X27.5224 Y262.2708
G01 X27.5758 Y262.2200
G01 X27.6265 Y262.1667
G01 X27.6746 Y262.1109
G01 X27.7199 Y262.0529
G01 X27.7623 Y261.9927
G01 X27.8017 Y261.9305
G01 X27.8380 Y261.8664
G01 X27.8711 Y261.8007
G01 X27.9009 Y261.7334
G01 X27.9274 Y261.6647
G01 X27.9505 Y261.5948
G01 X27.9701 Y261.5238
G01 X27.9863 Y261.4520
G01 X27.9989 Y261.3795
G01 X28.0079 Y261.3064
G01 X28.0133 Y261.2330
G01 X28.0151 Y261.1594
G01 X28.0109 Y261.0473
G01 X27.9983 Y260.9358
G01 X27.9775 Y260.8256
G01 X27.9485 Y260.7172
G01 X27.9114 Y260.6114
G01 X27.8665 Y260.5085
G01 X27.8141 Y260.4094
G01 X27.7545 Y260.3144
G01 X27.6878 Y260.2241
G01 X27.6147 Y260.1391
G01 X27.5354 Y260.0598
G01 X27.4503 Y259.9866
G01 X27.3601 Y259.9200
G01 X27.2651 Y259.8603
G01 X27.1659 Y259.8079
G01 X27.0631 Y259.7631
G01 X26.9572 Y259.7260
G01 X26.8489 Y259.6970
G01 X26.7387 Y259.6761
G01 X26.6272 Y259.6636
G01 X26.5151 Y259.6594
G01 X26.4030 Y259.6636
G01 X26.2916 Y259.6761
G01 X26.1813 Y259.6970
G01 X26.0730 Y259.7260
G01 X25.9671 Y259.7631
G01 X25.8643 Y259.8079
G01 X25.7651 Y259.8603
G01 X25.6701 Y259.9200
G01 X25.5799 Y259.9866
G01 X25.4949 Y260.0598
G01 X25.4155 Y260.1391
G01 X25.3424 Y260.2241
G01 X25.2758 Y260.3144
G01 X25.2161 Y260.4094
G01 X25.1637 Y260.5085
G01 X25.1188 Y260.6114
G01 X25.0818 Y260.7172
G01 X25.0527 Y260.8256
G01 X25.0319 Y260.9358
G01 X25.0193 Y261.0473
G01 X25.0151 Y261.1594
G01 X25.0193 Y261.2715
G01 X25.0319 Y261.3829
G01 X25.0527 Y261.4931
G01 X25.0818 Y261.6015
G01 X25.1188 Y261.7074
G01 X25.1637 Y261.8102
G01 X25.2161 Y261.9093
G01 X25.2758 Y262.0043
G01 X25.3424 Y262.0946
G01 X25.4155 Y262.1796
G01 X25.4949 Y262.2589
G01 X25.5799 Y262.3321
G01 X25.6701 Y262.3987
G01 X25.7651 Y262.4584
G01 X25.8643 Y262.5108
G01 X25.9671 Y262.5557
G01 X26.0730 Y262.5927
G01 X26.1813 Y262.6217
G01 X26.2916 Y262.6426
G01 X26.4030 Y262.6551
G01 X26.5151 Y262.6593
G01 X26.6272 Y262.6551
G01 X26.7387 Y262.6426
G01 X26.8489 Y262.6217
G01 X26.9572 Y262.5927
G01 X27.0631 Y262.5557
G01 X27.1659 Y262.5108
G01 X27.2651 Y262.4584
G01 X27.3601 Y262.3987
G01 X27.4503 Y262.3321
G01 X27.5354 Y262.2589
G01 X27.6147 Y262.1796
G01 X27.6878 Y262.0946
G01 X27.7545 Y262.0043
G01 X27.8141 Y261.9093
G01 X27.8665 Y261.8102
G01 X27.9114 Y261.7074
G01 X27.9485 Y261.6015
G01 X27.9775 Y261.4931
G01 X27.9983 Y261.3829
G01 X28.0109 Y261.2715
G01 X28.0151 Y261.1594
G01 X28.0112 Y261.0613
G01 X27.9997 Y260.9638
G01 X27.9806 Y260.8676
G01 X27.9539 Y260.7731
G01 X27.9199 Y260.6810
G01 X27.8789 Y260.5919
G01 X27.8309 Y260.5062
G01 X27.7764 Y260.4246
G01 X27.7156 Y260.3476
G01 X27.6490 Y260.2755
G01 X27.5769 Y260.2089
G01 X27.4998 Y260.1481
G01 X27.4182 Y260.0936
G01 X27.3326 Y260.0456
G01 X27.2435 Y260.0045
G01 X27.1514 Y259.9705
G01 X27.0569 Y259.9439
G01 X26.9606 Y259.9248
G01 X26.8632 Y259.9132
G01 X26.7651 Y259.9094
G01 X26.6670 Y259.9132
G01 X26.5696 Y259.9248
G01 X26.4733 Y259.9439
G01 X26.3788 Y259.9705
G01 X26.2868 Y260.0045
G01 X26.1976 Y260.0456
G01 X26.1120 Y260.0936
G01 X26.0304 Y260.1481
G01 X25.9533 Y260.2089
G01 X25.8812 Y260.2755
G01 X25.8146 Y260.3476
G01 X25.7538 Y260.4246
G01 X25.6993 Y260.5062
G01 X25.6514 Y260.5919
G01 X25.6103 Y260.6810
G01 X25.5763 Y260.7731
G01 X25.5496 Y260.8676
G01 X25.5305 Y260.9638
G01 X25.5190 Y261.0613
G01 X25.5151 Y261.1594
G01 X25.5189 Y261.2465
G01 X25.5303 Y261.3330
G01 X25.5492 Y261.4182
G01 X25.5754 Y261.5014
G01 X25.6088 Y261.5820
G01 X25.6491 Y261.6594
G01 X25.6960 Y261.7329
G01 X25.7491 Y261.8021
G01 X25.8080 Y261.8665
G01 X25.8723 Y261.9254
G01 X25.9415 Y261.9785
G01 X26.0151 Y262.0254
G01 X26.0925 Y262.0657
G01 X26.1731 Y262.0991
G01 X26.2563 Y262.1253
G01 X26.3415 Y262.1442
G01 X26.4280 Y262.1556
G01 X26.5151 Y262.1594
G01 X26.6023 Y262.1556
G01 X26.6888 Y262.1442
G01 X26.7739 Y262.1253
G01 X26.8571 Y262.0991
G01 X26.9377 Y262.0657
G01 X27.0151 Y262.0254
G01 X27.0887 Y261.9785
G01 X27.1579 Y261.9254
G01 X27.2222 Y261.8665
G01 X27.2812 Y261.8021
G01 X27.3343 Y261.7329
G01 X27.3811 Y261.6594
G01 X27.4214 Y261.5820
G01 X27.4548 Y261.5014
G01 X27.4810 Y261.4182
G01 X27.4999 Y261.3330
G01 X27.5113 Y261.2465
G01 X27.5151 Y261.1594
M107
M106 S240
G01 X27.5113 Y261.0722 Z-1.1476 F400
G01 X27.4999 Y260.9857 Z-1.1701
G01 X27.4810 Y260.9005 Z-1.1927
G01 X27.4548 Y260.8173 Z-1.2153
G01 X27.4214 Y260.7367 Z-1.2378
G01 X27.3811 Y260.6594 Z-1.2604
G01 X27.3343 Y260.5858 Z-1.2830
G01 X27.2812 Y260.5166 Z-1.3056
G01 X27.2222 Y260.4523 Z-1.3281
G01 X27.1579 Y260.3933 Z-1.3507
G01 X27.0887 Y260.3402 Z-1.3733
G01 X27.0151 Y260.2933 Z-1.3958
G01 X26.9377 Y260.2531 Z-1.4184
G01 X26.8571 Y260.2197 Z-1.4410
G01 X26.7739 Y260.1934 Z-1.4635
G01 X26.6888 Y260.1746 Z-1.4861
G01 X26.6023 Y260.1632 Z-1.5087
G01 X26.5151 Y260.1594 Z-1.5313
G01 X26.4280 Y260.1632 Z-1.5538
G01 X26.3415 Y260.1746 Z-1.5764
G01 X26.2563 Y260.1934 Z-1.5990
G01 X26.1731 Y260.2197 Z-1.6215
G01 X26.0925 Y260.2531 Z-1.6441
G01 X26.0151 Y260.2933 Z-1.6667
G01 X25.9745 Y260.3181 Z-1.6790
G01 X25.9351 Y260.3448 Z-1.6913
G01 X25.8970 Y260.3733 Z-1.7036
G01 X25.8603 Y260.4036 Z-1.7159
G01 X25.8250 Y260.4356 Z-1.7282
G01 X25.7914 Y260.4693 Z-1.7405
G01 X25.7594 Y260.5045 Z-1.7528
G01 X25.7291 Y260.5412 Z-1.7652
G01 X25.7005 Y260.5793 Z-1.7775
G01 X25.6739 Y260.6187 Z-1.7898
G01 X25.6491 Y260.6594 Z-1.8021
G01 X25.6263 Y260.7011 Z-1.8144
G01 X25.6055 Y260.7439 Z-1.8267
G01 X25.5867 Y260.7877 Z-1.8390
G01 X25.5701 Y260.8323 Z-1.8513
G01 X25.5556 Y260.8776 Z-1.8636
G01 X25.5433 Y260.9236 Z-1.8759
G01 X25.5332 Y260.9701 Z-1.8883
G01 X25.5253 Y261.0170 Z-1.9006
G01 X25.5196 Y261.0643 Z-1.9129
G01 X25.5162 Y261.1118 Z-1.9252
G01 X25.5151 Y261.1594 Z-1.9375
G01 X25.5162 Y261.2069 Z-1.9498
G01 X25.5196 Y261.2544 Z-1.9621
G01 X25.5253 Y261.3017 Z-1.9744
G01 X25.5332 Y261.3486 Z-1.9867
G01 X25.5433 Y261.3951 Z-1.9991
G01 X25.5556 Y261.4411 Z-2.0114
G01 X25.5701 Y261.4864 Z-2.0237
G01 X25.5867 Y261.5310 Z-2.0360
G01 X25.6055 Y261.5748 Z-2.0483
G01 X25.6263 Y261.6176 Z-2.0606
G01 X25.6491 Y261.6594 Z-2.0729
G01 X25.6739 Y261.7000 Z-2.0852
G01 X25.7005 Y261.7394 Z-2.0975
G01 X25.7291 Y261.7775 Z-2.1098
G01 X25.7594 Y261.8142 Z-2.1222
G01 X25.7914 Y261.8494 Z-2.1345
G01 X25.8250 Y261.8831 Z-2.1468
G01 X25.8603 Y261.9151 Z-2.1591
G01 X25.8970 Y261.9454 Z-2.1714
G01 X25.9351 Y261.9739 Z-2.1837
G01 X25.9745 Y262.0006 Z-2.1960
G01 X26.0151 Y262.0254 Z-2.2083
G01 X26.0569 Y262.0482 Z-2.2206
G01 X26.0997 Y262.0690 Z-2.2330
G01 X26.1434 Y262.0877 Z-2.2453
G01 X26.1880 Y262.1044 Z-2.2576
G01 X26.2334 Y262.1189 Z-2.2699
G01 X26.2794 Y262.1312 Z-2.2822
G01 X26.3259 Y262.1413 Z-2.2945
G01 X26.3728 Y262.1492 Z-2.3068
G01 X26.4201 Y262.1548 Z-2.3191
G01 X26.4675 Y262.1582 Z-2.3314
G01 X26.5151 Y262.1594 Z-2.3438
G01 X26.5627 Y262.1582 Z-2.3561
G01 X26.6102 Y262.1548 Z-2.3684
G01 X26.6574 Y262.1492 Z-2.3807
G01 X26.7044 Y262.1413 Z-2.3930
G01 X26.7509 Y262.1312 Z-2.4053
G01 X26.7968 Y262.1189 Z-2.4176
G01 X26.8422 Y262.1044 Z-2.4299
G01 X26.8868 Y262.0877 Z-2.4422
G01 X26.9305 Y262.0690 Z-2.4545
G01 X26.9733 Y262.0482 Z-2.4669
G01 X27.0151 Y262.0254 Z-2.4792
G01 X27.0558 Y262.0006 Z-2.4915
G01 X27.0952 Y261.9739 Z-2.5038
G01 X27.1333 Y261.9454 Z-2.5161
G01 X27.1700 Y261.9151 Z-2.5284
G01 X27.2052 Y261.8831 Z-2.5407
G01 X27.2388 Y261.8494 Z-2.5530
G01 X27.2709 Y261.8142 Z-2.5653
G01 X27.3012 Y261.7775 Z-2.5777
G01 X27.3297 Y261.7394 Z-2.5900
G01 X27.3564 Y261.7000 Z-2.6023
G01 X27.3811 Y261.6594 Z-2.6146
G01 X27.4039 Y261.6176 Z-2.6269
G01 X27.4247 Y261.5748 Z-2.6392
G01 X27.4435 Y261.5310 Z-2.6515
G01 X27.4601 Y261.4864 Z-2.6638
G01 X27.4746 Y261.4411 Z-2.6761
G01 X27.4869 Y261.3951 Z-2.6884
G01 X27.4970 Y261.3486 Z-2.7008
G01 X27.5049 Y261.3017 Z-2.7131
G01 X27.5106 Y261.2544 Z-2.7254
G01 X27.5140 Y261.2069 Z-2.7377
G01 X27.5151 Y261.1594 Z-2.7500
G01 X27.5113 Y261.0722
G01 X27.4999 Y260.9857
G01 X27.4810 Y260.9005
G01 X27.4548 Y260.8173
G01 X27.4214 Y260.7367
G01 X27.3811 Y260.6594
G01 X27.3343 Y260.5858
G01 X27.2812 Y260.5166
G01 X27.2222 Y260.4523
G01 X27.1579 Y260.3933
G01 X27.0887 Y260.3402
G01 X27.0151 Y260.2933
G01 X26.9377 Y260.2531
G01 X26.8571 Y260.2197
G01 X26.7739 Y260.1934
G01 X26.6888 Y260.1746
G01 X26.6023 Y260.1632
G01 X26.5151 Y260.1594
G01 X26.4280 Y260.1632
G01 X26.3415 Y260.1746
G01 X26.2563 Y260.1934
G01 X26.1731 Y260.2197
G01 X26.0925 Y260.2531
G01 X26.0151 Y260.2933
G01 X25.9745 Y260.3181
G01 X25.9351 Y260.3448
G01 X25.8970 Y260.3733
G01 X25.8603 Y260.4036
G01 X25.8250 Y260.4356
G01 X25.7914 Y260.4693
G01 X25.7594 Y260.5045
G01 X25.7291 Y260.5412
G01 X25.7005 Y260.5793
G01 X25.6739 Y260.6187
G01 X25.6491 Y260.6594
G01 X25.6263 Y260.7011
G01 X25.6055 Y260.7439
G01 X25.5867 Y260.7877
G01 X25.5701 Y260.8323
G01 X25.5556 Y260.8776
G01 X25.5433 Y260.9236
G01 X25.5332 Y260.9701
G01 X25.5253 Y261.0170
G01 X25.5196 Y261.0643
G01 X25.5162 Y261.1118
G01 X25.5151 Y261.1594
G01 X25.5162 Y261.2069
G01 X25.5196 Y261.2544
G01 X25.5253 Y261.3017
G01 X25.5332 Y261.3486
G01 X25.5433 Y261.3951
G01 X25.5556 Y261.4411
G01 X25.5701 Y261.4864
G01 X25.5867 Y261.5310
G01 X25.6055 Y261.5748
G01 X25.6263 Y261.6176
G01 X25.6491 Y261.6594
G01 X25.6739 Y261.7000
G01 X25.7005 Y261.7394
G01 X25.7291 Y261.7775
G01 X25.7594 Y261.8142
G01 X25.7914 Y261.8494
G01 X25.8250 Y261.8831
G01 X25.8603 Y261.9151
G01 X25.8970 Y261.9454
G01 X25.9351 Y261.9739
G01 X25.9745 Y262.0006
G01 X26.0151 Y262.0254
G01 X26.0569 Y262.0482
G01 X26.0997 Y262.0690
G01 X26.1434 Y262.0877
G01 X26.1880 Y262.1044
G01 X26.2334 Y262.1189
G01 X26.2794 Y262.1312
G01 X26.3259 Y262.1413
G01 X26.3728 Y262.1492
G01 X26.4201 Y262.1548
G01 X26.4675 Y262.1582
G01 X26.5151 Y262.1594
G01 X26.5627 Y262.1582
G01 X26.6102 Y262.1548
G01 X26.6574 Y262.1492
G01 X26.7044 Y262.1413
G01 X26.7509 Y262.1312
G01 X26.7968 Y262.1189
G01 X26.8422 Y262.1044
G01 X26.8868 Y262.0877
G01 X26.9305 Y262.0690
G01 X26.9733 Y262.0482
G01 X27.0151 Y262.0254
G01 X27.0558 Y262.0006
G01 X27.0952 Y261.9739
G01 X27.1333 Y261.9454
G01 X27.1700 Y261.9151
G01 X27.2052 Y261.8831
G01 X27.2388 Y261.8494
G01 X27.2709 Y261.8142
G01 X27.3012 Y261.7775
G01 X27.3297 Y261.7394
G01 X27.3564 Y261.7000
G01 X27.3811 Y261.6594
G01 X27.4039 Y261.6176
G01 X27.4247 Y261.5748
G01 X27.4435 Y261.5310
G01 X27.4601 Y261.4864
G01 X27.4746 Y261.4411
G01 X27.4869 Y261.3951
G01 X27.4970 Y261.3486
G01 X27.5049 Y261.3017
G01 X27.5106 Y261.2544
G01 X27.5140 Y261.2069
G01 X27.5151 Y261.1594
G01 X27.5259 Y261.1078 F1000
G01 X27.5339 Y261.0557
G01 X27.5393 Y261.0033
G01 X27.5420 Y260.9506
G01 Y260.8979
G01 X27.5392 Y260.8453
G01 X27.5338 Y260.7929
G01 X27.5256 Y260.7408
G01 X27.5139 Y260.6848
G01 X27.4993 Y260.6295
G01 X27.4820 Y260.5750
G01 X27.4618 Y260.5215
G01 X27.4390 Y260.4690
G01 X27.4135 Y260.4178
G01 X27.3854 Y260.3680
G01 X27.3548 Y260.3197
G01 X27.3192 Y260.2693
G01 X27.2811 Y260.2207
G01 X27.2405 Y260.1742
G01 X27.1977 Y260.1298
G01 X27.1526 Y260.0877
G01 X27.1055 Y260.0478
G01 X27.0564 Y260.0105
G01 X27.0054 Y259.9756
G01 X26.9489 Y259.9411
G01 X26.8908 Y259.9094
G01 X26.8311 Y259.8807
G01 X26.7700 Y259.8551
G01 X26.7077 Y259.8326
G01 X26.6443 Y259.8133
G01 X26.5801 Y259.7972
G01 X26.5151 Y259.7844
G01 X26.4451 Y259.7742
G01 X26.3746 Y259.7675
G01 X26.3039 Y259.7645
G01 X26.2332 Y259.7649
G01 X26.1625 Y259.7690
G01 X26.0922 Y259.7766
G01 X26.0223 Y259.7878
G01 X25.9530 Y259.8024
G01 X25.8849 Y259.8284
G01 X25.8180 Y259.8577
G01 X25.7527 Y259.8902
G01 X25.6891 Y259.9259
G01 X25.6273 Y259.9647
G01 X25.5675 Y260.0065
G01 X25.5099 Y260.0512
G01 X25.4545 Y260.0987
G01 X25.4037 Y260.1520
G01 X25.3556 Y260.2078
G01 X25.3103 Y260.2658
G01 X25.2679 Y260.3260
G01 X25.2285 Y260.3882
G01 X25.1922 Y260.4523
G01 X25.1591 Y260.5180
G01 X25.1293 Y260.5853
G01 X25.1028 Y260.6540
G01 X25.0797 Y260.7239
G01 X25.0601 Y260.7949
G01 X25.0440 Y260.8667
G01 X25.0314 Y260.9393
G01 X25.0224 Y261.0123
G01 X25.0169 Y261.0858
G01 X25.0151 Y261.1594
G01 X25.0169 Y261.2330
G01 X25.0224 Y261.3064
G01 X25.0314 Y261.3795
G01 X25.0440 Y261.4520
G01 X25.0601 Y261.5238
G01 X25.0797 Y261.5948
G01 X25.1028 Y261.6647
G01 X25.1293 Y261.7334
G01 X25.1591 Y261.8007
G01 X25.1922 Y261.8664
G01 X25.2285 Y261.9305
G01 X25.2679 Y261.9927
G01 X25.3103 Y262.0529
G01 X25.3556 Y262.1109
G01 X25.4037 Y262.1667
G01 X25.4545 Y262.2200
G01 X25.5078 Y262.2708
G01 X25.5635 Y262.3189
G01 X25.6216 Y262.3642
G01 X25.6818 Y262.4065
G01 X25.7440 Y262.4459
G01 X25.8080 Y262.4822
G01 X25.8738 Y262.5153
G01 X25.9411 Y262.5452
G01 X26.0098 Y262.5717
G01 X26.0797 Y262.5948
G01 X26.1506 Y262.6144
G01 X26.2225 Y262.6305
G01 X26.2950 Y262.6431
G01 X26.3681 Y262.6521
G01 X26.4415 Y262.6575
G01 X26.5151 Y262.6593
G01 X26.5887 Y262.6575
G01 X26.6621 Y262.6521
G01 X26.7352 Y262.6431
G01 X26.8077 Y262.6305
G01 X26.8796 Y262.6144
G01 X26.9505 Y262.5948
G01 X27.0204 Y262.5717
G01 X27.0891 Y262.5452
G01 X27.1564 Y262.5153
G01 X27.2222 Y262.4822
G01 X27.2863 Y262.4459
G01 X27.3485 Y262.4065
G01 X27.4086 Y262.3642
G01 X27.4667 Y262.3189
G01 X27.5224 Y262.2708
G01 X27.5758 Y262.2200
G01 X27.6265 Y262.1667
G01 X27.6746 Y262.1109
G01 X27.7199 Y262.0529
G01 X27.7623 Y261.9927
G01 X27.8017 Y261.9305
G01 X27.8380 Y261.8664
G01 X27.8711 Y261.8007
G01 X27.9009 Y261.7334
G01 X27.9274 Y261.6647
G01 X27.9505 Y261.5948
G01 X27.9701 Y261.5238
G01 X27.9863 Y261.4520
G01 X27.9989 Y261.3795
G01 X28.0079 Y261.3064
G01 X28.0133 Y261.2330
G01 X28.0151 Y261.1594
G01 X28.0109 Y261.0473
G01 X27.9983 Y260.9358
G01 X27.9775 Y260.8256
G01 X27.9485 Y260.7172
G01 X27.9114 Y260.6114
G01 X27.8665 Y260.5085
G01 X27.8141 Y260.4094
G01 X27.7545 Y260.3144
G01 X27.6878 Y260.2241
G01 X27.6147 Y260.1391
G01 X27.5354 Y260.0598
G01 X27.4503 Y259.9866
G01 X27.3601 Y259.9200
G01 X27.2651 Y259.8603
G01 X27.1659 Y259.8079
G01 X27.0631 Y259.7631
G01 X26.9572 Y259.7260
G01 X26.8489 Y259.6970
G01 X26.7387 Y259.6761
G01 X26.6272 Y259.6636
G01 X26.5151 Y259.6594
G01 X26.4030 Y259.6636
G01 X26.2916 Y259.6761
G01 X26.1813 Y259.6970
G01 X26.0730 Y259.7260
G01 X25.9671 Y259.7631
G01 X25.8643 Y259.8079
G01 X25.7651 Y259.8603
G01 X25.6701 Y259.9200
G01 X25.5799 Y259.9866
G01 X25.4949 Y260.0598
G01 X25.4155 Y260.1391
G01 X25.3424 Y260.2241
G01 X25.2758 Y260.3144
G01 X25.2161 Y260.4094
G01 X25.1637 Y260.5085
G01 X25.1188 Y260.6114
G01 X25.0818 Y260.7172
G01 X25.0527 Y260.8256
G01 X25.0319 Y260.9358
G01 X25.0193 Y261.0473
G01 X25.0151 Y261.1594
G01 X25.0193 Y261.2715
G01 X25.0319 Y261.3829
G01 X25.0527 Y261.4931
G01 X25.0818 Y261.6015
G01 X25.1188 Y261.7074
G01 X25.1637 Y261.8102
G01 X25.2161 Y261.9093
G01 X25.2758 Y262.0043
G01 X25.3424 Y262.0946
G01 X25.4155 Y262.1796
G01 X25.4949 Y262.2589
G01 X25.5799 Y262.3321
G01 X25.6701 Y262.3987
G01 X25.7651 Y262.4584
G01 X25.8643 Y262.5108
G01 X25.9671 Y262.5557
G01 X26.0730 Y262.5927
G01 X26.1813 Y262.6217
G01 X26.2916 Y262.6426
G01 X26.4030 Y262.6551
G01 X26.5151 Y262.6593
G01 X26.6272 Y262.6551
G01 X26.7387 Y262.6426
G01 X26.8489 Y262.6217
G01 X26.9572 Y262.5927
G01 X27.0631 Y262.5557
G01 X27.1659 Y262.5108
G01 X27.2651 Y262.4584
G01 X27.3601 Y262.3987
G01 X27.4503 Y262.3321
G01 X27.5354 Y262.2589
G01 X27.6147 Y262.1796
G01 X27.6878 Y262.0946
G01 X27.7545 Y262.0043
G01 X27.8141 Y261.9093
G01 X27.8665 Y261.8102
G01 X27.9114 Y261.7074
G01 X27.9485 Y261.6015
G01 X27.9775 Y261.4931
G01 X27.9983 Y261.3829
G01 X28.0109 Y261.2715
G01 X28.0151 Y261.1594
G01 X28.0112 Y261.0613
G01 X27.9997 Y260.9638
G01 X27.9806 Y260.8676
G01 X27.9539 Y260.7731
G01 X27.9199 Y260.6810
G01 X27.8789 Y260.5919
G01 X27.8309 Y260.5062
G01 X27.7764 Y260.4246
G01 X27.7156 Y260.3476
G01 X27.6490 Y260.2755
G01 X27.5769 Y260.2089
G01 X27.4998 Y260.1481
G01 X27.4182 Y260.0936
G01 X27.3326 Y260.0456
G01 X27.2435 Y260.0045
G01 X27.1514 Y259.9705
G01 X27.0569 Y259.9439
G01 X26.9606 Y259.9248
G01 X26.8632 Y259.9132
G01 X26.7651 Y259.9094
G01 X26.6670 Y259.9132
G01 X26.5696 Y259.9248
G01 X26.4733 Y259.9439
G01 X26.3788 Y259.9705
G01 X26.2868 Y260.0045
G01 X26.1976 Y260.0456
G01 X26.1120 Y260.0936
G01 X26.0304 Y260.1481
G01 X25.9533 Y260.2089
G01 X25.8812 Y260.2755
G01 X25.8146 Y260.3476
G01 X25.7538 Y260.4246
G01 X25.6993 Y260.5062
G01 X25.6514 Y260.5919
G01 X25.6103 Y260.6810
G01 X25.5763 Y260.7731
G01 X25.5496 Y260.8676
G01 X25.5305 Y260.9638
G01 X25.5190 Y261.0613
G01 X25.5151 Y261.1594
G01 X25.5189 Y261.2465
G01 X25.5303 Y261.3330
G01 X25.5492 Y261.4182
G01 X25.5754 Y261.5014
G01 X25.6088 Y261.5820
G01 X25.6491 Y261.6594
G01 X25.6960 Y261.7329
G01 X25.7491 Y261.8021
G01 X25.8080 Y261.8665
G01 X25.8723 Y261.9254
G01 X25.9415 Y261.9785
G01 X26.0151 Y262.0254
G01 X26.0925 Y262.0657
G01 X26.1731 Y262.0991
G01 X26.2563 Y262.1253
G01 X26.3415 Y262.1442
G01 X26.4280 Y262.1556
G01 X26.5151 Y262.1594
G01 X26.6023 Y262.1556
G01 X26.6888 Y262.1442
G01 X26.7739 Y262.1253
G01 X26.8571 Y262.0991
G01 X26.9377 Y262.0657
G01 X27.0151 Y262.0254
G01 X27.0887 Y261.9785
G01 X27.1579 Y261.9254
G01 X27.2222 Y261.8665
G01 X27.2812 Y261.8021
G01 X27.3343 Y261.7329
G01 X27.3811 Y261.6594
G01 X27.4214 Y261.5820
G01 X27.4548 Y261.5014
G01 X27.4810 Y261.4182
G01 X27.4999 Y261.3330
G01 X27.5113 Y261.2465
G01 X27.5151 Y261.1594
M107
M106 S240
G01 X27.5113 Y261.0722 Z-2.7726 F400
G01 X27.4999 Y260.9857 Z-2.7951
G01 X27.4810 Y260.9005 Z-2.8177
G01 X27.4548 Y260.8173 Z-2.8403
G01 X27.4214 Y260.7367 Z-2.8628
G01 X27.3811 Y260.6594 Z-2.8854
G01 X27.3343 Y260.5858 Z-2.9080
G01 X27.2812 Y260.5166 Z-2.9306
G01 X27.2222 Y260.4523 Z-2.9531
G01 X27.1579 Y260.3933 Z-2.9757
G01 X27.0887 Y260.3402 Z-2.9983
G01 X27.0151 Y260.2933 Z-3.0208
G01 X26.9377 Y260.2531 Z-3.0434
G01 X26.8571 Y260.2197 Z-3.0660
G01 X26.7739 Y260.1934 Z-3.0885
G01 X26.6888 Y260.1746 Z-3.1111
G01 X26.6023 Y260.1632 Z-3.1337
G01 X26.5151 Y260.1594 Z-3.1563
G01 X26.4280 Y260.1632 Z-3.1788
G01 X26.3415 Y260.1746 Z-3.2014
G01 X26.2563 Y260.1934 Z-3.2240
G01 X26.1731 Y260.2197 Z-3.2465
G01 X26.0925 Y260.2531 Z-3.2691
G01 X26.0151 Y260.2933 Z-3.2917
G01 X25.9745 Y260.3181 Z-3.3040
G01 X25.9351 Y260.3448 Z-3.3163
G01 X25.8970 Y260.3733 Z-3.3286
G01 X25.8603 Y260.4036 Z-3.3409
G01 X25.8250 Y260.4356 Z-3.3532
G01 X25.7914 Y260.4693 Z-3.3655
G01 X25.7594 Y260.5045 Z-3.3778
G01 X25.7291 Y260.5412 Z-3.3902
G01 X25.7005 Y260.5793 Z-3.4025
G01 X25.6739 Y260.6187 Z-3.4148
G01 X25.6491 Y260.6594 Z-3.4271
G01 X25.6263 Y260.7011 Z-3.4394
G01 X25.6055 Y260.7439 Z-3.4517
G01 X25.5867 Y260.7877 Z-3.4640
G01 X25.5701 Y260.8323 Z-3.4763
G01 X25.5556 Y260.8776 Z-3.4886
G01 X25.5433 Y260.9236 Z-3.5009
G01 X25.5332 Y260.9701 Z-3.5133
G01 X25.5253 Y261.0170 Z-3.5256
G01 X25.5196 Y261.0643 Z-3.5379
G01 X25.5162 Y261.1118 Z-3.5502
G01 X25.5151 Y261.1594 Z-3.5625
G01 X25.5162 Y261.2069 Z-3.5748
G01 X25.5196 Y261.2544 Z-3.5871
G01 X25.5253 Y261.3017 Z-3.5994
G01 X25.5332 Y261.3486 Z-3.6117
G01 X25.5433 Y261.3951 Z-3.6241
G01 X25.5556 Y261.4411 Z-3.6364
G01 X25.5701 Y261.4864 Z-3.6487
G01 X25.5867 Y261.5310 Z-3.6610
G01 X25.6055 Y261.5748 Z-3.6733
G01 X25.6263 Y261.6176 Z-3.6856
G01 X25.6491 Y261.6594 Z-3.6979
G01 X25.6739 Y261.7000 Z-3.7102
G01 X25.7005 Y261.7394 Z-3.7225
G01 X25.7291 Y261.7775 Z-3.7348
G01 X25.7594 Y261.8142 Z-3.7472
G01 X25.7914 Y261.8494 Z-3.7595
G01 X25.8250 Y261.8831 Z-3.7718
G01 X25.8603 Y261.9151 Z-3.7841
G01 X25.8970 Y261.9454 Z-3.7964
G01 X25.9351 Y261.9739 Z-3.8087
G01 X25.9745 Y262.0006 Z-3.8210
G01 X26.0151 Y262.0254 Z-3.8333
G01 X26.0569 Y262.0482 Z-3.8456
G01 X26.0997 Y262.0690 Z-3.8580
G01 X26.1434 Y262.0877 Z-3.8703
G01 X26.1880 Y262.1044 Z-3.8826
G01 X26.2334 Y262.1189 Z-3.8949
G01 X26.2794 Y262.1312 Z-3.9072
G01 X26.3259 Y262.1413 Z-3.9195
G01 X26.3728 Y262.1492 Z-3.9318
G01 X26.4201 Y262.1548 Z-3.9441
G01 X26.4675 Y262.1582 Z-3.9564
G01 X26.5151 Y262.1594 Z-3.9688
G01 X26.5627 Y262.1582 Z-3.9811
G01 X26.6102 Y262.1548 Z-3.9934
G01 X26.6574 Y262.1492 Z-4.0057
G01 X26.7044 Y262.1413 Z-4.0180
G01 X26.7509 Y262.1312 Z-4.0303
G01 X26.7968 Y262.1189 Z-4.0426
G01 X26.8422 Y262.1044 Z-4.0549
G01 X26.8868 Y262.0877 Z-4.0672
G01 X26.9305 Y262.0690 Z-4.0795
G01 X26.9733 Y262.0482 Z-4.0919
G01 X27.0151 Y262.0254 Z-4.1042
G01 X27.0558 Y262.0006 Z-4.1165
G01 X27.0952 Y261.9739 Z-4.1288
G01 X27.1333 Y261.9454 Z-4.1411
G01 X27.1700 Y261.9151 Z-4.1534
G01 X27.2052 Y261.8831 Z-4.1657
G01 X27.2388 Y261.8494 Z-4.1780
G01 X27.2709 Y261.8142 Z-4.1903
G01 X27.3012 Y261.7775 Z-4.2027
G01 X27.3297 Y261.7394 Z-4.2150
G01 X27.3564 Y261.7000 Z-4.2273
G01 X27.3811 Y261.6594 Z-4.2396
G01 X27.4039 Y261.6176 Z-4.2519
G01 X27.4247 Y261.5748 Z-4.2642
G01 X27.4435 Y261.5310 Z-4.2765
G01 X27.4601 Y261.4864 Z-4.2888
G01 X27.4746 Y261.4411 Z-4.3011
G01 X27.4869 Y261.3951 Z-4.3134
G01 X27.4970 Y261.3486 Z-4.3258
G01 X27.5049 Y261.3017 Z-4.3381
G01 X27.5106 Y261.2544 Z-4.3504
G01 X27.5140 Y261.2069 Z-4.3627
G01 X27.5151 Y261.1594 Z-4.3750
G01 X27.5113 Y261.0722
G01 X27.4999 Y260.9857
G01 X27.4810 Y260.9005
G01 X27.4548 Y260.8173
G01 X27.4214 Y260.7367
G01 X27.3811 Y260.6594
G01 X27.3343 Y260.5858
G01 X27.2812 Y260.5166
G01 X27.2222 Y260.4523
G01 X27.1579 Y260.3933
G01 X27.0887 Y260.3402
G01 X27.0151 Y260.2933
G01 X26.9377 Y260.2531
G01 X26.8571 Y260.2197
G01 X26.7739 Y260.1934
G01 X26.6888 Y260.1746
G01 X26.6023 Y260.1632
G01 X26.5151 Y260.1594
G01 X26.4280 Y260.1632
G01 X26.3415 Y260.1746
G01 X26.2563 Y260.1934
G01 X26.1731 Y260.2197
G01 X26.0925 Y260.2531
G01 X26.0151 Y260.2933
G01 X25.9745 Y260.3181
G01 X25.9351 Y260.3448
G01 X25.8970 Y260.3733
G01 X25.8603 Y260.4036
G01 X25.8250 Y260.4356
G01 X25.7914 Y260.4693
G01 X25.7594 Y260.5045
G01 X25.7291 Y260.5412
G01 X25.7005 Y260.5793
G01 X25.6739 Y260.6187
G01 X25.6491 Y260.6594
G01 X25.6263 Y260.7011
G01 X25.6055 Y260.7439
G01 X25.5867 Y260.7877
G01 X25.5701 Y260.8323
G01 X25.5556 Y260.8776
G01 X25.5433 Y260.9236
G01 X25.5332 Y260.9701
G01 X25.5253 Y261.0170
G01 X25.5196 Y261.0643
G01 X25.5162 Y261.1118
G01 X25.5151 Y261.1594
G01 X25.5162 Y261.2069
G01 X25.5196 Y261.2544
G01 X25.5253 Y261.3017
G01 X25.5332 Y261.3486
G01 X25.5433 Y261.3951
G01 X25.5556 Y261.4411
G01 X25.5701 Y261.4864
G01 X25.5867 Y261.5310
G01 X25.6055 Y261.5748
G01 X25.6263 Y261.6176
G01 X25.6491 Y261.6594
G01 X25.6739 Y261.7000
G01 X25.7005 Y261.7394
G01 X25.7291 Y261.7775
G01 X25.7594 Y261.8142
G01 X25.7914 Y261.8494
G01 X25.8250 Y261.8831
G01 X25.8603 Y261.9151
G01 X25.8970 Y261.9454
G01 X25.9351 Y261.9739
G01 X25.9745 Y262.0006
G01 X26.0151 Y262.0254
G01 X26.0569 Y262.0482
G01 X26.0997 Y262.0690
G01 X26.1434 Y262.0877
G01 X26.1880 Y262.1044
G01 X26.2334 Y262.1189
G01 X26.2794 Y262.1312
G01 X26.3259 Y262.1413
G01 X26.3728 Y262.1492
G01 X26.4201 Y262.1548
G01 X26.4675 Y262.1582
G01 X26.5151 Y262.1594
G01 X26.5627 Y262.1582
G01 X26.6102 Y262.1548
G01 X26.6574 Y262.1492
G01 X26.7044 Y262.1413
G01 X26.7509 Y262.1312
G01 X26.7968 Y262.1189
G01 X26.8422 Y262.1044
G01 X26.8868 Y262.0877
G01 X26.9305 Y262.0690
G01 X26.9733 Y262.0482
G01 X27.0151 Y262.0254
G01 X27.0558 Y262.0006
G01 X27.0952 Y261.9739
G01 X27.1333 Y261.9454
G01 X27.1700 Y261.9151
G01 X27.2052 Y261.8831
G01 X27.2388 Y261.8494
G01 X27.2709 Y261.8142
G01 X27.3012 Y261.7775
G01 X27.3297 Y261.7394
G01 X27.3564 Y261.7000
G01 X27.3811 Y261.6594
G01 X27.4039 Y261.6176
G01 X27.4247 Y261.5748
G01 X27.4435 Y261.5310
G01 X27.4601 Y261.4864
G01 X27.4746 Y261.4411
G01 X27.4869 Y261.3951
G01 X27.4970 Y261.3486
G01 X27.5049 Y261.3017
G01 X27.5106 Y261.2544
G01 X27.5140 Y261.2069
G01 X27.5151 Y261.1594
G01 X27.5259 Y261.1078 F1000
G01 X27.5339 Y261.0557
G01 X27.5393 Y261.0033
G01 X27.5420 Y260.9506
G01 Y260.8979
G01 X27.5392 Y260.8453
G01 X27.5338 Y260.7929
G01 X27.5256 Y260.7408
G01 X27.5139 Y260.6848
G01 X27.4993 Y260.6295
G01 X27.4820 Y260.5750
G01 X27.4618 Y260.5215
G01 X27.4390 Y260.4690
G01 X27.4135 Y260.4178
G01 X27.3854 Y260.3680
G01 X27.3548 Y260.3197
G01 X27.3192 Y260.2693
G01 X27.2811 Y260.2207
G01 X27.2405 Y260.1742
G01 X27.1977 Y260.1298
G01 X27.1526 Y260.0877
G01 X27.1055 Y260.0478
G01 X27.0564 Y260.0105
G01 X27.0054 Y259.9756
G01 X26.9489 Y259.9411
G01 X26.8908 Y259.9094
G01 X26.8311 Y259.8807
G01 X26.7700 Y259.8551
G01 X26.7077 Y259.8326
G01 X26.6443 Y259.8133
G01 X26.5801 Y259.7972
G01 X26.5151 Y259.7844
G01 X26.4451 Y259.7742
G01 X26.3746 Y259.7675
G01 X26.3039 Y259.7645
G01 X26.2332 Y259.7649
G01 X26.1625 Y259.7690
G01 X26.0922 Y259.7766
G01 X26.0223 Y259.7878
G01 X25.9530 Y259.8024
G01 X25.8849 Y259.8284
G01 X25.8180 Y259.8577
G01 X25.7527 Y259.8902
G01 X25.6891 Y259.9259
G01 X25.6273 Y259.9647
G01 X25.5675 Y260.0065
G01 X25.5099 Y260.0512
G01 X25.4545 Y260.0987
G01 X25.4037 Y260.1520
G01 X25.3556 Y260.2078
G01 X25.3103 Y260.2658
G01 X25.2679 Y260.3260
G01 X25.2285 Y260.3882
G01 X25.1922 Y260.4523
G01 X25.1591 Y260.5180
G01 X25.1293 Y260.5853
G01 X25.1028 Y260.6540
G01 X25.0797 Y260.7239
G01 X25.0601 Y260.7949
G01 X25.0440 Y260.8667
G01 X25.0314 Y260.9393
G01 X25.0224 Y261.0123
G01 X25.0169 Y261.0858
G01 X25.0151 Y261.1594
G01 X25.0169 Y261.2330
G01 X25.0224 Y261.3064
G01 X25.0314 Y261.3795
G01 X25.0440 Y261.4520
G01 X25.0601 Y261.5238
G01 X25.0797 Y261.5948
G01 X25.1028 Y261.6647
G01 X25.1293 Y261.7334
G01 X25.1591 Y261.8007
G01 X25.1922 Y261.8664
G01 X25.2285 Y261.9305
G01 X25.2679 Y261.9927
G01 X25.3103 Y262.0529
G01 X25.3556 Y262.1109
G01 X25.4037 Y262.1667
G01 X25.4545 Y262.2200
G01 X25.5078 Y262.2708
G01 X25.5635 Y262.3189
G01 X25.6216 Y262.3642
G01 X25.6818 Y262.4065
G01 X25.7440 Y262.4459
G01 X25.8080 Y262.4822
G01 X25.8738 Y262.5153
G01 X25.9411 Y262.5452
G01 X26.0098 Y262.5717
G01 X26.0797 Y262.5948
G01 X26.1506 Y262.6144
G01 X26.2225 Y262.6305
G01 X26.2950 Y262.6431
G01 X26.3681 Y262.6521
G01 X26.4415 Y262.6575
G01 X26.5151 Y262.6593
G01 X26.5887 Y262.6575
G01 X26.6621 Y262.6521
G01 X26.7352 Y262.6431
G01 X26.8077 Y262.6305
G01 X26.8796 Y262.6144
G01 X26.9505 Y262.5948
G01 X27.0204 Y262.5717
G01 X27.0891 Y262.5452
G01 X27.1564 Y262.5153
G01 X27.2222 Y262.4822
G01 X27.2863 Y262.4459
G01 X27.3485 Y262.4065
G01 X27.4086 Y262.3642
G01 X27.4667 Y262.3189
G01 X27.5224 Y262.2708
G01 X27.5758 Y262.2200
G01 X27.6265 Y262.1667
G01 X27.6746 Y262.1109
G01 X27.7199 Y262.0529
G01 X27.7623 Y261.9927
G01 X27.8017 Y261.9305
G01 X27.8380 Y261.8664
G01 X27.8711 Y261.8007
G01 X27.9009 Y261.7334
G01 X27.9274 Y261.6647
G01 X27.9505 Y261.5948
G01 X27.9701 Y261.5238
G01 X27.9863 Y261.4520
G01 X27.9989 Y261.3795
G01 X28.0079 Y261.3064
G01 X28.0133 Y261.2330
G01 X28.0151 Y261.1594
G01 X28.0109 Y261.0473
G01 X27.9983 Y260.9358
G01 X27.9775 Y260.8256
G01 X27.9485 Y260.7172
G01 X27.9114 Y260.6114
G01 X27.8665 Y260.5085
G01 X27.8141 Y260.4094
G01 X27.7545 Y260.3144
G01 X27.6878 Y260.2241
G01 X27.6147 Y260.1391
G01 X27.5354 Y260.0598
G01 X27.4503 Y259.9866
G01 X27.3601 Y259.9200
G01 X27.2651 Y259.8603
G01 X27.1659 Y259.8079
G01 X27.0631 Y259.7631
G01 X26.9572 Y259.7260
G01 X26.8489 Y259.6970
G01 X26.7387 Y259.6761
G01 X26.6272 Y259.6636
G01 X26.5151 Y259.6594
G01 X26.4030 Y259.6636
G01 X26.2916 Y259.6761
G01 X26.1813 Y259.6970
G01 X26.0730 Y259.7260
G01 X25.9671 Y259.7631
G01 X25.8643 Y259.8079
G01 X25.7651 Y259.8603
G01 X25.6701 Y259.9200
G01 X25.5799 Y259.9866
G01 X25.4949 Y260.0598
G01 X25.4155 Y260.1391
G01 X25.3424 Y260.2241
G01 X25.2758 Y260.3144
G01 X25.2161 Y260.4094
G01 X25.1637 Y260.5085
G01 X25.1188 Y260.6114
G01 X25.0818 Y260.7172
G01 X25.0527 Y260.8256
G01 X25.0319 Y260.9358
G01 X25.0193 Y261.0473
G01 X25.0151 Y261.1594
G01 X25.0193 Y261.2715
G01 X25.0319 Y261.3829
G01 X25.0527 Y261.4931
G01 X25.0818 Y261.6015
G01 X25.1188 Y261.7074
G01 X25.1637 Y261.8102
G01 X25.2161 Y261.9093
G01 X25.2758 Y262.0043
G01 X25.3424 Y262.0946
G01 X25.4155 Y262.1796
G01 X25.4949 Y262.2589
G01 X25.5799 Y262.3321
G01 X25.6701 Y262.3987
G01 X25.7651 Y262.4584
G01 X25.8643 Y262.5108
G01 X25.9671 Y262.5557
G01 X26.0730 Y262.5927
G01 X26.1813 Y262.6217
G01 X26.2916 Y262.6426
G01 X26.4030 Y262.6551
G01 X26.5151 Y262.6593
G01 X26.6272 Y262.6551
G01 X26.7387 Y262.6426
G01 X26.8489 Y262.6217
G01 X26.9572 Y262.5927
G01 X27.0631 Y262.5557
G01 X27.1659 Y262.5108
G01 X27.2651 Y262.4584
G01 X27.3601 Y262.3987
G01 X27.4503 Y262.3321
G01 X27.5354 Y262.2589
G01 X27.6147 Y262.1796
G01 X27.6878 Y262.0946
G01 X27.7545 Y262.0043
G01 X27.8141 Y261.9093
G01 X27.8665 Y261.8102
G01 X27.9114 Y261.7074
G01 X27.9485 Y261.6015
G01 X27.9775 Y261.4931
G01 X27.9983 Y261.3829
G01 X28.0109 Y261.2715
G01 X28.0151 Y261.1594
G01 X28.0112 Y261.0613
G01 X27.9997 Y260.9638
G01 X27.9806 Y260.8676
G01 X27.9539 Y260.7731
G01 X27.9199 Y260.6810
G01 X27.8789 Y260.5919
G01 X27.8309 Y260.5062
G01 X27.7764 Y260.4246
G01 X27.7156 Y260.3476
G01 X27.6490 Y260.2755
G01 X27.5769 Y260.2089
G01 X27.4998 Y260.1481
G01 X27.4182 Y260.0936
G01 X27.3326 Y260.0456
G01 X27.2435 Y260.0045
G01 X27.1514 Y259.9705
G01 X27.0569 Y259.9439
G01 X26.9606 Y259.9248
G01 X26.8632 Y259.9132
G01 X26.7651 Y259.9094
G01 X26.6670 Y259.9132
G01 X26.5696 Y259.9248
G01 X26.4733 Y259.9439
G01 X26.3788 Y259.9705
G01 X26.2868 Y260.0045
G01 X26.1976 Y260.0456
G01 X26.1120 Y260.0936
G01 X26.0304 Y260.1481
G01 X25.9533 Y260.2089
G01 X25.8812 Y260.2755
G01 X25.8146 Y260.3476
G01 X25.7538 Y260.4246
G01 X25.6993 Y260.5062
G01 X25.6514 Y260.5919
G01 X25.6103 Y260.6810
G01 X25.5763 Y260.7731
G01 X25.5496 Y260.8676
G01 X25.5305 Y260.9638
G01 X25.5190 Y261.0613
G01 X25.5151 Y261.1594
G01 X25.5189 Y261.2465
G01 X25.5303 Y261.3330
G01 X25.5492 Y261.4182
G01 X25.5754 Y261.5014
G01 X25.6088 Y261.5820
G01 X25.6491 Y261.6594
G01 X25.6960 Y261.7329
G01 X25.7491 Y261.8021
G01 X25.8080 Y261.8665
G01 X25.8723 Y261.9254
G01 X25.9415 Y261.9785
G01 X26.0151 Y262.0254
G01 X26.0925 Y262.0657
G01 X26.1731 Y262.0991
G01 X26.2563 Y262.1253
G01 X26.3415 Y262.1442
G01 X26.4280 Y262.1556
G01 X26.5151 Y262.1594
G01 X26.6023 Y262.1556
G01 X26.6888 Y262.1442
G01 X26.7739 Y262.1253
G01 X26.8571 Y262.0991
G01 X26.9377 Y262.0657
G01 X27.0151 Y262.0254
G01 X27.0887 Y261.9785
G01 X27.1579 Y261.9254
G01 X27.2222 Y261.8665
G01 X27.2812 Y261.8021
G01 X27.3343 Y261.7329
G01 X27.3811 Y261.6594
G01 X27.4214 Y261.5820
G01 X27.4548 Y261.5014
G01 X27.4810 Y261.4182
G01 X27.4999 Y261.3330
G01 X27.5113 Y261.2465
G01 X27.5151 Y261.1594
M107
M106 S240
G01 X27.5113 Y261.0722 Z-4.3976 F400
G01 X27.4999 Y260.9857 Z-4.4201
G01 X27.4810 Y260.9005 Z-4.4427
G01 X27.4548 Y260.8173 Z-4.4653
G01 X27.4214 Y260.7367 Z-4.4878
G01 X27.3811 Y260.6594 Z-4.5104
G01 X27.3343 Y260.5858 Z-4.5330
G01 X27.2812 Y260.5166 Z-4.5556
G01 X27.2222 Y260.4523 Z-4.5781
G01 X27.1579 Y260.3933 Z-4.6007
G01 X27.0887 Y260.3402 Z-4.6233
G01 X27.0151 Y260.2933 Z-4.6458
G01 X26.9377 Y260.2531 Z-4.6684
G01 X26.8571 Y260.2197 Z-4.6910
G01 X26.7739 Y260.1934 Z-4.7135
G01 X26.6888 Y260.1746 Z-4.7361
G01 X26.6023 Y260.1632 Z-4.7587
G01 X26.5151 Y260.1594 Z-4.7813
G01 X26.4280 Y260.1632 Z-4.8038
G01 X26.3415 Y260.1746 Z-4.8264
G01 X26.2563 Y260.1934 Z-4.8490
G01 X26.1731 Y260.2197 Z-4.8715
G01 X26.0925 Y260.2531 Z-4.8941
G01 X26.0151 Y260.2933 Z-4.9167
G01 X25.9745 Y260.3181 Z-4.9290
G01 X25.9351 Y260.3448 Z-4.9413
G01 X25.8970 Y260.3733 Z-4.9536
G01 X25.8603 Y260.4036 Z-4.9659
G01 X25.8250 Y260.4356 Z-4.9782
G01 X25.7914 Y260.4693 Z-4.9905
G01 X25.7594 Y260.5045 Z-5.0028
G01 X25.7291 Y260.5412 Z-5.0152
G01 X25.7005 Y260.5793 Z-5.0275
G01 X25.6739 Y260.6187 Z-5.0398
G01 X25.6491 Y260.6594 Z-5.0521
G01 X25.6263 Y260.7011 Z-5.0644
G01 X25.6055 Y260.7439 Z-5.0767
G01 X25.5867 Y260.7877 Z-5.0890
G01 X25.5701 Y260.8323 Z-5.1013
G01 X25.5556 Y260.8776 Z-5.1136
G01 X25.5433 Y260.9236 Z-5.1259
G01 X25.5332 Y260.9701 Z-5.1383
G01 X25.5253 Y261.0170 Z-5.1506
G01 X25.5196 Y261.0643 Z-5.1629
G01 X25.5162 Y261.1118 Z-5.1752
G01 X25.5151 Y261.1594 Z-5.1875
G01 X25.5162 Y261.2069 Z-5.1998
G01 X25.5196 Y261.2544 Z-5.2121
G01 X25.5253 Y261.3017 Z-5.2244
G01 X25.5332 Y261.3486 Z-5.2367
G01 X25.5433 Y261.3951 Z-5.2491
G01 X25.5556 Y261.4411 Z-5.2614
G01 X25.5701 Y261.4864 Z-5.2737
G01 X25.5867 Y261.5310 Z-5.2860
G01 X25.6055 Y261.5748 Z-5.2983
G01 X25.6263 Y261.6176 Z-5.3106
G01 X25.6491 Y261.6594 Z-5.3229
G01 X25.6739 Y261.7000 Z-5.3352
G01 X25.7005 Y261.7394 Z-5.3475
G01 X25.7291 Y261.7775 Z-5.3598
G01 X25.7594 Y261.8142 Z-5.3722
G01 X25.7914 Y261.8494 Z-5.3845
G01 X25.8250 Y261.8831 Z-5.3968
G01 X25.8603 Y261.9151 Z-5.4091
G01 X25.8970 Y261.9454 Z-5.4214
G01 X25.9351 Y261.9739 Z-5.4337
G01 X25.9745 Y262.0006 Z-5.4460
G01 X26.0151 Y262.0254 Z-5.4583
G01 X26.0569 Y262.0482 Z-5.4706
G01 X26.0997 Y262.0690 Z-5.4830
G01 X26.1434 Y262.0877 Z-5.4953
G01 X26.1880 Y262.1044 Z-5.5076
G01 X26.2334 Y262.1189 Z-5.5199
G01 X26.2794 Y262.1312 Z-5.5322
G01 X26.3259 Y262.1413 Z-5.5445
G01 X26.3728 Y262.1492 Z-5.5568
G01 X26.4201 Y262.1548 Z-5.5691
G01 X26.4675 Y262.1582 Z-5.5814
G01 X26.5151 Y262.1594 Z-5.5938
G01 X26.5627 Y262.1582 Z-5.6061
G01 X26.6102 Y262.1548 Z-5.6184
G01 X26.6574 Y262.1492 Z-5.6307
G01 X26.7044 Y262.1413 Z-5.6430
G01 X26.7509 Y262.1312 Z-5.6553
G01 X26.7968 Y262.1189 Z-5.6676
G01 X26.8422 Y262.1044 Z-5.6799
G01 X26.8868 Y262.0877 Z-5.6922
G01 X26.9305 Y262.0690 Z-5.7045
G01 X26.9733 Y262.0482 Z-5.7169
G01 X27.0151 Y262.0254 Z-5.7292
G01 X27.0558 Y262.0006 Z-5.7415
G01 X27.0952 Y261.9739 Z-5.7538
G01 X27.1333 Y261.9454 Z-5.7661
G01 X27.1700 Y261.9151 Z-5.7784
G01 X27.2052 Y261.8831 Z-5.7907
G01 X27.2388 Y261.8494 Z-5.8030
G01 X27.2709 Y261.8142 Z-5.8153
G01 X27.3012 Y261.7775 Z-5.8277
G01 X27.3297 Y261.7394 Z-5.8400
G01 X27.3564 Y261.7000 Z-5.8523
G01 X27.3811 Y261.6594 Z-5.8646
G01 X27.4039 Y261.6176 Z-5.8769
G01 X27.4247 Y261.5748 Z-5.8892
G01 X27.4435 Y261.5310 Z-5.9015
G01 X27.4601 Y261.4864 Z-5.9138
G01 X27.4746 Y261.4411 Z-5.9261
G01 X27.4869 Y261.3951 Z-5.9384
G01 X27.4970 Y261.3486 Z-5.9508
G01 X27.5049 Y261.3017 Z-5.9631
G01 X27.5106 Y261.2544 Z-5.9754
G01 X27.5140 Y261.2069 Z-5.9877
G01 X27.5151 Y261.1594 Z-6.0000
G01 X27.5113 Y261.0722
G01 X27.4999 Y260.9857
G01 X27.4810 Y260.9005
G01 X27.4548 Y260.8173
G01 X27.4214 Y260.7367
G01 X27.3811 Y260.6594
G01 X27.3343 Y260.5858
G01 X27.2812 Y260.5166
G01 X27.2222 Y260.4523
G01 X27.1579 Y260.3933
G01 X27.0887 Y260.3402
G01 X27.0151 Y260.2933
G01 X26.9377 Y260.2531
G01 X26.8571 Y260.2197
G01 X26.7739 Y260.1934
G01 X26.6888 Y260.1746
G01 X26.6023 Y260.1632
G01 X26.5151 Y260.1594
G01 X26.4280 Y260.1632
G01 X26.3415 Y260.1746
G01 X26.2563 Y260.1934
G01 X26.1731 Y260.2197
G01 X26.0925 Y260.2531
G01 X26.0151 Y260.2933
G01 X25.9745 Y260.3181
G01 X25.9351 Y260.3448
G01 X25.8970 Y260.3733
G01 X25.8603 Y260.4036
G01 X25.8250 Y260.4356
G01 X25.7914 Y260.4693
G01 X25.7594 Y260.5045
G01 X25.7291 Y260.5412
G01 X25.7005 Y260.5793
G01 X25.6739 Y260.6187
G01 X25.6491 Y260.6594
G01 X25.6263 Y260.7011
G01 X25.6055 Y260.7439
G01 X25.5867 Y260.7877
G01 X25.5701 Y260.8323
G01 X25.5556 Y260.8776
G01 X25.5433 Y260.9236
G01 X25.5332 Y260.9701
G01 X25.5253 Y261.0170
G01 X25.5196 Y261.0643
G01 X25.5162 Y261.1118
G01 X25.5151 Y261.1594
G01 X25.5162 Y261.2069
G01 X25.5196 Y261.2544
G01 X25.5253 Y261.3017
G01 X25.5332 Y261.3486
G01 X25.5433 Y261.3951
G01 X25.5556 Y261.4411
G01 X25.5701 Y261.4864
G01 X25.5867 Y261.5310
G01 X25.6055 Y261.5748
G01 X25.6263 Y261.6176
G01 X25.6491 Y261.6594
G01 X25.6739 Y261.7000
G01 X25.7005 Y261.7394
G01 X25.7291 Y261.7775
G01 X25.7594 Y261.8142
G01 X25.7914 Y261.8494
G01 X25.8250 Y261.8831
G01 X25.8603 Y261.9151
G01 X25.8970 Y261.9454
G01 X25.9351 Y261.9739
G01 X25.9745 Y262.0006
G01 X26.0151 Y262.0254
G01 X26.0569 Y262.0482
G01 X26.0997 Y262.0690
G01 X26.1434 Y262.0877
G01 X26.1880 Y262.1044
G01 X26.2334 Y262.1189
G01 X26.2794 Y262.1312
G01 X26.3259 Y262.1413
G01 X26.3728 Y262.1492
G01 X26.4201 Y262.1548
G01 X26.4675 Y262.1582
G01 X26.5151 Y262.1594
G01 X26.5627 Y262.1582
G01 X26.6102 Y262.1548
G01 X26.6574 Y262.1492
G01 X26.7044 Y262.1413
G01 X26.7509 Y262.1312
G01 X26.7968 Y262.1189
G01 X26.8422 Y262.1044
G01 X26.8868 Y262.0877
G01 X26.9305 Y262.0690
G01 X26.9733 Y262.0482
G01 X27.0151 Y262.0254
G01 X27.0558 Y262.0006
G01 X27.0952 Y261.9739
G01 X27.1333 Y261.9454
G01 X27.1700 Y261.9151
G01 X27.2052 Y261.8831
G01 X27.2388 Y261.8494
G01 X27.2709 Y261.8142
G01 X27.3012 Y261.7775
G01 X27.3297 Y261.7394
G01 X27.3564 Y261.7000
G01 X27.3811 Y261.6594
G01 X27.4039 Y261.6176
G01 X27.4247 Y261.5748
G01 X27.4435 Y261.5310
G01 X27.4601 Y261.4864
G01 X27.4746 Y261.4411
G01 X27.4869 Y261.3951
G01 X27.4970 Y261.3486
G01 X27.5049 Y261.3017
G01 X27.5106 Y261.2544
G01 X27.5140 Y261.2069
G01 X27.5151 Y261.1594
G01 X27.5259 Y261.1078 F1000
G01 X27.5339 Y261.0557
G01 X27.5393 Y261.0033
G01 X27.5420 Y260.9506
G01 Y260.8979
G01 X27.5392 Y260.8453
G01 X27.5338 Y260.7929
G01 X27.5256 Y260.7408
G01 X27.5139 Y260.6848
G01 X27.4993 Y260.6295
G01 X27.4820 Y260.5750
G01 X27.4618 Y260.5215
G01 X27.4390 Y260.4690
G01 X27.4135 Y260.4178
G01 X27.3854 Y260.3680
G01 X27.3548 Y260.3197
G01 X27.3192 Y260.2693
G01 X27.2811 Y260.2207
G01 X27.2405 Y260.1742
G01 X27.1977 Y260.1298
G01 X27.1526 Y260.0877
G01 X27.1055 Y260.0478
G01 X27.0564 Y260.0105
G01 X27.0054 Y259.9756
G01 X26.9489 Y259.9411
G01 X26.8908 Y259.9094
G01 X26.8311 Y259.8807
G01 X26.7700 Y259.8551
G01 X26.7077 Y259.8326
G01 X26.6443 Y259.8133
G01 X26.5801 Y259.7972
G01 X26.5151 Y259.7844
G01 X26.4451 Y259.7742
G01 X26.3746 Y259.7675
G01 X26.3039 Y259.7645
G01 X26.2332 Y259.7649
G01 X26.1625 Y259.7690
G01 X26.0922 Y259.7766
G01 X26.0223 Y259.7878
G01 X25.9530 Y259.8024
G01 X25.8849 Y259.8284
G01 X25.8180 Y259.8577
G01 X25.7527 Y259.8902
G01 X25.6891 Y259.9259
G01 X25.6273 Y259.9647
G01 X25.5675 Y260.0065
G01 X25.5099 Y260.0512
G01 X25.4545 Y260.0987
G01 X25.4037 Y260.1520
G01 X25.3556 Y260.2078
G01 X25.3103 Y260.2658
G01 X25.2679 Y260.3260
G01 X25.2285 Y260.3882
G01 X25.1922 Y260.4523
G01 X25.1591 Y260.5180
G01 X25.1293 Y260.5853
G01 X25.1028 Y260.6540
G01 X25.0797 Y260.7239
G01 X25.0601 Y260.7949
G01 X25.0440 Y260.8667
G01 X25.0314 Y260.9393
G01 X25.0224 Y261.0123
G01 X25.0169 Y261.0858
G01 X25.0151 Y261.1594
G01 X25.0169 Y261.2330
G01 X25.0224 Y261.3064
G01 X25.0314 Y261.3795
G01 X25.0440 Y261.4520
G01 X25.0601 Y261.5238
G01 X25.0797 Y261.5948
G01 X25.1028 Y261.6647
G01 X25.1293 Y261.7334
G01 X25.1591 Y261.8007
G01 X25.1922 Y261.8664
G01 X25.2285 Y261.9305
G01 X25.2679 Y261.9927
G01 X25.3103 Y262.0529
G01 X25.3556 Y262.1109
G01 X25.4037 Y262.1667
G01 X25.4545 Y262.2200
G01 X25.5078 Y262.2708
G01 X25.5635 Y262.3189
G01 X25.6216 Y262.3642
G01 X25.6818 Y262.4065
G01 X25.7440 Y262.4459
G01 X25.8080 Y262.4822
G01 X25.8738 Y262.5153
G01 X25.9411 Y262.5452
G01 X26.0098 Y262.5717
G01 X26.0797 Y262.5948
G01 X26.1506 Y262.6144
G01 X26.2225 Y262.6305
G01 X26.2950 Y262.6431
G01 X26.3681 Y262.6521
G01 X26.4415 Y262.6575
G01 X26.5151 Y262.6593
G01 X26.5887 Y262.6575
G01 X26.6621 Y262.6521
G01 X26.7352 Y262.6431
G01 X26.8077 Y262.6305
G01 X26.8796 Y262.6144
G01 X26.9505 Y262.5948
G01 X27.0204 Y262.5717
G01 X27.0891 Y262.5452
G01 X27.1564 Y262.5153
G01 X27.2222 Y262.4822
G01 X27.2863 Y262.4459
G01 X27.3485 Y262.4065
G01 X27.4086 Y262.3642
G01 X27.4667 Y262.3189
G01 X27.5224 Y262.2708
G01 X27.5758 Y262.2200
G01 X27.6265 Y262.1667
G01 X27.6746 Y262.1109
G01 X27.7199 Y262.0529
G01 X27.7623 Y261.9927
G01 X27.8017 Y261.9305
G01 X27.8380 Y261.8664
G01 X27.8711 Y261.8007
G01 X27.9009 Y261.7334
G01 X27.9274 Y261.6647
G01 X27.9505 Y261.5948
G01 X27.9701 Y261.5238
G01 X27.9863 Y261.4520
G01 X27.9989 Y261.3795
G01 X28.0079 Y261.3064
G01 X28.0133 Y261.2330
G01 X28.0151 Y261.1594
G01 X28.0109 Y261.0473
G01 X27.9983 Y260.9358
G01 X27.9775 Y260.8256
G01 X27.9485 Y260.7172
G01 X27.9114 Y260.6114
G01 X27.8665 Y260.5085
G01 X27.8141 Y260.4094
G01 X27.7545 Y260.3144
G01 X27.6878 Y260.2241
G01 X27.6147 Y260.1391
G01 X27.5354 Y260.0598
G01 X27.4503 Y259.9866
G01 X27.3601 Y259.9200
G01 X27.2651 Y259.8603
G01 X27.1659 Y259.8079
G01 X27.0631 Y259.7631
G01 X26.9572 Y259.7260
G01 X26.8489 Y259.6970
G01 X26.7387 Y259.6761
G01 X26.6272 Y259.6636
G01 X26.5151 Y259.6594
G01 X26.4030 Y259.6636
G01 X26.2916 Y259.6761
G01 X26.1813 Y259.6970
G01 X26.0730 Y259.7260
G01 X25.9671 Y259.7631
G01 X25.8643 Y259.8079
G01 X25.7651 Y259.8603
G01 X25.6701 Y259.9200
G01 X25.5799 Y259.9866
G01 X25.4949 Y260.0598
G01 X25.4155 Y260.1391
G01 X25.3424 Y260.2241
G01 X25.2758 Y260.3144
G01 X25.2161 Y260.4094
G01 X25.1637 Y260.5085
G01 X25.1188 Y260.6114
G01 X25.0818 Y260.7172
G01 X25.0527 Y260.8256
G01 X25.0319 Y260.9358
G01 X25.0193 Y261.0473
G01 X25.0151 Y261.1594
G01 X25.0193 Y261.2715
G01 X25.0319 Y261.3829
G01 X25.0527 Y261.4931
G01 X25.0818 Y261.6015
G01 X25.1188 Y261.7074
G01 X25.1637 Y261.8102
G01 X25.2161 Y261.9093
G01 X25.2758 Y262.0043
G01 X25.3424 Y262.0946
G01 X25.4155 Y262.1796
G01 X25.4949 Y262.2589
G01 X25.5799 Y262.3321
G01 X25.6701 Y262.3987
G01 X25.7651 Y262.4584
G01 X25.8643 Y262.5108
G01 X25.9671 Y262.5557
G01 X26.0730 Y262.5927
G01 X26.1813 Y262.6217
G01 X26.2916 Y262.6426
G01 X26.4030 Y262.6551
G01 X26.5151 Y262.6593
G01 X26.6272 Y262.6551
G01 X26.7387 Y262.6426
G01 X26.8489 Y262.6217
G01 X26.9572 Y262.5927
G01 X27.0631 Y262.5557
G01 X27.1659 Y262.5108
G01 X27.2651 Y262.4584
G01 X27.3601 Y262.3987
G01 X27.4503 Y262.3321
G01 X27.5354 Y262.2589
G01 X27.6147 Y262.1796
G01 X27.6878 Y262.0946
G01 X27.7545 Y262.0043
G01 X27.8141 Y261.9093
G01 X27.8665 Y261.8102
G01 X27.9114 Y261.7074
G01 X27.9485 Y261.6015
G01 X27.9775 Y261.4931
G01 X27.9983 Y261.3829
G01 X28.0109 Y261.2715
G01 X28.0151 Y261.1594
M107
M106 S240
G01 X28.0120 Y261.0809 Z-5.9750 F400
M107
M106 S240
G01 X28.0028 Y261.0029 Z-5.9500
M107
M106 S240
G01 X27.9875 Y260.9259 Z-5.9250
M107
M106 S240
G01 X27.9661 Y260.8503 Z-5.9000
M107
M106 S240
G01 X27.9390 Y260.7767 Z-5.8750
M107
M106 S240
G01 X27.9061 Y260.7054 Z-5.8500
M107
M106 S240
G01 X27.8677 Y260.6369 Z-5.8250
M107
M106 S240
G01 X27.8241 Y260.5716 Z-5.8000
M107
M106 S240
G01 X27.7755 Y260.5099 Z-5.7750
M107
M106 S240
G01 X27.7222 Y260.4523 Z-5.7500
M107
M106 S240
G01 X27.6645 Y260.3990 Z-5.7250
M107
M106 S240
G01 X27.6029 Y260.3503 Z-5.7000
M107
M106 S240
G01 X27.5376 Y260.3067 Z-5.6750
M107
M106 S240
G01 X27.4691 Y260.2684 Z-5.6500
M107
M106 S240
G01 X27.3978 Y260.2355 Z-5.6250
M107
M106 S240
G01 X27.3241 Y260.2083 Z-5.6000
M107
M106 S240
G01 X27.2485 Y260.1870 Z-5.5750
M107
M106 S240
G01 X27.1715 Y260.1717 Z-5.5500
M107
M106 S240
G01 X27.0936 Y260.1624 Z-5.5250
M107
M106 S240
G01 X27.0151 Y260.1594 Z-5.5000
M107
G00 Z2.0000


;No. 2: Hole 2
G00 X25.5352 Y248.6458 Z2.0000
G00 Z0.5000
G01 Z0.0000 F400
G01 Z-1.8000
M106 S240
G01 X49.0065 F1000
G01 X47.4420 Y247.1458
G01 X27.0620
G01 X35.8281
G01 Y245.6458
G01 X38.7189
G01 X38.7161 Y244.1458
G01 X35.8309
G01 Y242.6458
G01 X38.7161
G01 Y241.1458
G01 X35.8309
G01 Y239.6458
G01 X38.7161
G01 Y238.1458
G01 X35.8309
G01 Y236.6458
G01 X38.7161
G01 Y235.1458
G01 X35.8309
G01 Y233.6458
G01 X38.7161
G01 Y232.1458
G01 X35.8309
G01 Y230.6458
G01 X38.7161
G01 X38.9161 Y230.6608
G01 Y229.4329
G01 X35.6309
G01 Y245.5734
G01 X35.6300 Y245.6170
G01 X35.6271 Y245.6606
G01 X35.6224 Y245.7039
G01 X35.6157 Y245.7470
G01 X35.6072 Y245.7898
G01 X35.5969 Y245.8322
G01 X35.5847 Y245.8741
G01 X35.5706 Y245.9154
G01 X35.5548 Y245.9561
G01 X35.5372 Y245.9960
G01 X35.5179 Y246.0352
G01 X35.4970 Y246.0734
G01 X35.4743 Y246.1107
G01 X35.4501 Y246.1470
G01 X35.4243 Y246.1822
G01 X35.3970 Y246.2162
G01 X35.3682 Y246.2490
G01 X35.3380 Y246.2805
G01 X35.3065 Y246.3107
G01 X35.2737 Y246.3394
G01 X35.2397 Y246.3668
G01 X35.2045 Y246.3926
G01 X35.1682 Y246.4168
G01 X35.1309 Y246.4394
G01 X35.0927 Y246.4604
G01 X35.0536 Y246.4797
G01 X35.0136 Y246.4973
G01 X34.9730 Y246.5131
G01 X34.9316 Y246.5271
G01 X34.8898 Y246.5393
G01 X34.8474 Y246.5497
G01 X34.8046 Y246.5582
G01 X34.7615 Y246.5648
G01 X34.7181 Y246.5696
G01 X34.6746 Y246.5724
G01 X34.6309 Y246.5734
G01 X33.1132 Y246.5554
G01 X31.5953 Y246.5498
G01 X30.0775 Y246.5567
G01 X28.5597 Y246.5759
G01 X28.2279 Y246.5982
G01 X27.8994 Y246.6501
G01 X27.5769 Y246.7311
G01 X27.2628 Y246.8406
G01 X26.9598 Y246.9777
G01 X26.6702 Y247.1413
G01 X26.3964 Y247.3300
G01 X26.1406 Y247.5425
G01 X25.9047 Y247.7770
G01 X25.6907 Y248.0316
G01 X25.5003 Y248.3042
G01 X25.3350 Y248.5928
G01 X25.1961 Y248.8950
G01 X25.0847 Y249.2084
G01 X25.0018 Y249.5305
G01 X24.9479 Y249.8587
G01 X49.5990
G01 X49.5379 Y249.5238
G01 X49.4471 Y249.1957
G01 X49.3273 Y248.8771
G01 X49.1795 Y248.5704
G01 X49.0048 Y248.2783
G01 X48.8046 Y248.0029
G01 X48.5806 Y247.7466
G01 X48.3346 Y247.5114
G01 X48.0684 Y247.2992
G01 X47.7844 Y247.1116
G01 X47.4847 Y246.9502
G01 X47.1717 Y246.8163
G01 X46.8480 Y246.7109
G01 X46.5162 Y246.6350
G01 X46.1789 Y246.5890
G01 X45.8388 Y246.5735
G01 X39.9161
G01 X39.8725 Y246.5725
G01 X39.8289 Y246.5697
G01 X39.7856 Y246.5649
G01 X39.7424 Y246.5583
G01 X39.6996 Y246.5498
G01 X39.6573 Y246.5394
G01 X39.6154 Y246.5272
G01 X39.5741 Y246.5132
G01 X39.5334 Y246.4974
G01 X39.4935 Y246.4798
G01 X39.4543 Y246.4605
G01 X39.4161 Y246.4395
G01 X39.3788 Y246.4169
G01 X39.3425 Y246.3926
G01 X39.3073 Y246.3668
G01 X39.2733 Y246.3395
G01 X39.2405 Y246.3108
G01 X39.2090 Y246.2806
G01 X39.1788 Y246.2491
G01 X39.1500 Y246.2163
G01 X39.1227 Y246.1823
G01 X39.0969 Y246.1471
G01 X39.0727 Y246.1108
G01 X39.0501 Y246.0735
G01 X39.0291 Y246.0352
G01 X39.0098 Y245.9961
G01 X38.9922 Y245.9562
G01 X38.9764 Y245.9155
G01 X38.9624 Y245.8742
G01 X38.9502 Y245.8323
G01 X38.9398 Y245.7899
G01 X38.9313 Y245.7471
G01 X38.9246 Y245.7040
G01 X38.9199 Y245.6607
G01 X38.9170 Y245.6171
G01 X38.9161 Y245.5735
G01 Y230.6608
G01 X38.7161 Y230.6458
M107
G00 Z2.0000


;No. 3: Hole 3
G00 X59.1037 Y248.2160 Z2.0000
G00 Z0.5000
G01 Z0.0000 F400
G01 Z-1.8000
M106 S240
G01 X82.0242 F1000
G01 X82.1999 Y248.1168
G01 X82.0149 Y247.8849
G01 X81.8124 Y247.6681
G01 X81.5935 Y247.4679
G01 X81.3596 Y247.2854
G01 X81.1122 Y247.1218
G01 X80.8527 Y246.9781
G01 X80.5827 Y246.8551
G01 X80.3039 Y246.7536
G01 X80.0181 Y246.6743
G01 X79.7269 Y246.6176
G01 X79.4322 Y246.5839
G01 X79.1357 Y246.5734
G01 X62.0083
G01 X61.6664 Y246.5832
G01 X61.3268 Y246.6244
G01 X60.9924 Y246.6965
G01 X60.6660 Y246.7990
G01 X60.3504 Y246.9311
G01 X60.0483 Y247.0914
G01 X59.7621 Y247.2789
G01 X59.4944 Y247.4918
G01 X59.2472 Y247.7283
G01 X59.0229 Y247.9866
G01 X58.8231 Y248.2643
G01 X58.6497 Y248.5591
G01 X58.5041 Y248.8687
G01 X58.3874 Y249.1902
G01 X58.3008 Y249.5212
G01 X58.2448 Y249.8586
G01 X82.8959
G01 X82.8612 Y249.6239
G01 X82.8109 Y249.3921
G01 X82.7453 Y249.1641
G01 X82.6647 Y248.9410
G01 X82.5694 Y248.7238
G01 X82.4598 Y248.5134
G01 X82.3364 Y248.3108
G01 X82.1999 Y248.1168
G01 X82.0242 Y248.2160
M107
G00 Z2.0000


;No. 4: Hole 4
G00 X82.0242 Y239.6457 Z2.0000
G00 Z0.5000
G01 Z0.0000 F400
G01 Z-1.8000
M106 S240
G01 X59.1037 F1000
G01 X58.9424 Y239.5274
G01 X58.8063 Y239.7244
G01 X58.6833 Y239.9298
G01 X58.5739 Y240.1427
G01 X58.4786 Y240.3623
G01 X58.3977 Y240.5876
G01 X58.3316 Y240.8177
G01 X58.2806 Y241.0516
G01 X58.2448 Y241.2883
G01 X82.8959
G01 X82.8351 Y240.9533
G01 X82.7445 Y240.6251
G01 X82.6248 Y240.3063
G01 X82.4771 Y239.9996
G01 X82.3025 Y239.7073
G01 X82.1024 Y239.4318
G01 X81.8783 Y239.1754
G01 X81.6323 Y238.9401
G01 X81.3661 Y238.7278
G01 X81.0819 Y238.5403
G01 X80.7821 Y238.3789
G01 X80.4690 Y238.2451
G01 X80.1452 Y238.1399
G01 X79.8132 Y238.0641
G01 X79.4758 Y238.0184
G01 X79.1357 Y238.0031
G01 X62.0082
G01 X61.7116 Y238.0082
G01 X61.4163 Y238.0372
G01 X61.1242 Y238.0899
G01 X60.8374 Y238.1660
G01 X60.5577 Y238.2650
G01 X60.2869 Y238.3863
G01 X60.0268 Y238.5290
G01 X59.7790 Y238.6923
G01 X59.5452 Y238.8750
G01 X59.3269 Y239.0760
G01 X59.1255 Y239.2939
G01 X58.9424 Y239.5274
G01 X59.1037 Y239.6457
M107
G00 Z2.0000


;No. 5: Hole 6
G00 X59.1037 Y231.0754 Z2.0000
G00 Z0.5000
G01 Z0.0000 F400
G01 Z-1.8000
M106 S240
G01 X82.0242 F1000
G01 X82.1999 Y230.9762
G01 X82.0149 Y230.7443
G01 X81.8124 Y230.5275
G01 X81.5935 Y230.3273
G01 X81.3596 Y230.1448
G01 X81.1122 Y229.9812
G01 X80.8527 Y229.8375
G01 X80.5827 Y229.7145
G01 X80.3039 Y229.6131
G01 X80.0181 Y229.5338
G01 X79.7269 Y229.4771
G01 X79.4322 Y229.4434
G01 X79.1357 Y229.4328
G01 X62.0082
G01 X61.6662 Y229.4423
G01 X61.3265 Y229.4832
G01 X60.9919 Y229.5551
G01 X60.6654 Y229.6574
G01 X60.3497 Y229.7893
G01 X60.0474 Y229.9496
G01 X59.7611 Y230.1371
G01 X59.4933 Y230.3500
G01 X59.2461 Y230.5866
G01 X59.0217 Y230.8450
G01 X58.8220 Y231.1228
G01 X58.6487 Y231.4178
G01 X58.5032 Y231.7275
G01 X58.3868 Y232.0493
G01 X58.3004 Y232.3804
G01 X58.2448 Y232.7180
G01 X82.8959
G01 X82.8612 Y232.4833
G01 X82.8109 Y232.2515
G01 X82.7453 Y232.0235
G01 X82.6647 Y231.8004
G01 X82.5694 Y231.5832
G01 X82.4598 Y231.3728
G01 X82.3364 Y231.1702
G01 X82.1999 Y230.9762
G01 X82.0242 Y231.0754
M107
G00 Z2.0000


;No. 6: Hole 5
G00 X92.1375 Y230.6458 Z2.0000
G00 Z0.5000
G01 Z0.0000 F400
G01 Z-1.8000
M106 S240
G01 X116.0246 F1000
G01 Y232.1458
G01 X93.6948
G01 X113.1366
G01 Y233.6458
G01 X116.0246
G01 Y235.1458
G01 X113.1394
G01 Y236.6458
G01 X116.0246
G01 Y238.1458
G01 X112.3056
G01 X116.0246 Y239.6458
G01 X91.7137
G01 Y241.1458
G01 X95.4326
G01 X94.5988
G01 Y242.6458
G01 X91.7137
G01 Y244.1458
G01 X94.5988
G01 X94.6016 Y245.6458
G01 X91.7137
G01 Y247.1458
G01 X114.0376
G01 X115.6021 Y248.6458
G01 X91.7137
G01 X91.5137 Y248.6313
G01 Y249.8587
G01 X116.1946
G01 X116.1335 Y249.5238
G01 X116.0427 Y249.1957
G01 X115.9229 Y248.8771
G01 X115.7751 Y248.5704
G01 X115.6004 Y248.2783
G01 X115.4002 Y248.0029
G01 X115.1762 Y247.7466
G01 X114.9302 Y247.5114
G01 X114.6640 Y247.2992
G01 X114.3800 Y247.1116
G01 X114.0803 Y246.9502
G01 X113.7673 Y246.8163
G01 X113.4436 Y246.7109
G01 X113.1118 Y246.6350
G01 X112.7745 Y246.5890
G01 X112.4344 Y246.5735
G01 X95.7988
G01 X95.7203 Y246.5704
G01 X95.6424 Y246.5612
G01 X95.5654 Y246.5459
G01 X95.4898 Y246.5246
G01 X95.4161 Y246.4974
G01 X95.3448 Y246.4645
G01 X95.2763 Y246.4261
G01 X95.2110 Y246.3825
G01 X95.1494 Y246.3339
G01 X95.0917 Y246.2806
G01 X95.0384 Y246.2229
G01 X94.9898 Y246.1613
G01 X94.9462 Y246.0960
G01 X94.9078 Y246.0275
G01 X94.8749 Y245.9562
G01 X94.8478 Y245.8825
G01 X94.8264 Y245.8069
G01 X94.8111 Y245.7299
G01 X94.8019 Y245.6520
G01 X94.7988 Y245.5735
G01 Y242.2883
G01 X94.7998 Y242.2447
G01 X94.8026 Y242.2012
G01 X94.8074 Y242.1578
G01 X94.8140 Y242.1147
G01 X94.8225 Y242.0719
G01 X94.8329 Y242.0295
G01 X94.8451 Y241.9876
G01 X94.8591 Y241.9463
G01 X94.8749 Y241.9057
G01 X94.8925 Y241.8657
G01 X94.9118 Y241.8266
G01 X94.9328 Y241.7883
G01 X94.9554 Y241.7510
G01 X94.9797 Y241.7148
G01 X95.0055 Y241.6796
G01 X95.0328 Y241.6456
G01 X95.0615 Y241.6127
G01 X95.0917 Y241.5812
G01 X95.1232 Y241.5511
G01 X95.1560 Y241.5223
G01 X95.1900 Y241.4950
G01 X95.2252 Y241.4692
G01 X95.2615 Y241.4449
G01 X95.2988 Y241.4223
G01 X95.3371 Y241.4013
G01 X95.3762 Y241.3820
G01 X95.4161 Y241.3645
G01 X95.4568 Y241.3486
G01 X95.4981 Y241.3346
G01 X95.5400 Y241.3224
G01 X95.5824 Y241.3120
G01 X95.6252 Y241.3035
G01 X95.6683 Y241.2969
G01 X95.7117 Y241.2921
G01 X95.7552 Y241.2893
G01 X95.7988 Y241.2883
G01 X116.2246
G01 Y229.4329
G01 X91.5437
G01 X91.6043 Y229.7680
G01 X91.6947 Y230.0962
G01 X91.8143 Y230.4151
G01 X91.9619 Y230.7219
G01 X92.1365 Y231.0143
G01 X92.3366 Y231.2898
G01 X92.5606 Y231.5463
G01 X92.8067 Y231.7816
G01 X93.0730 Y231.9939
G01 X93.3572 Y232.1815
G01 X93.6571 Y232.3428
G01 X93.9702 Y232.4766
G01 X94.2941 Y232.5817
G01 X94.6261 Y232.6574
G01 X94.9636 Y232.7029
G01 X95.3038 Y232.7180
G01 X111.9394
G01 X111.9831 Y232.7190
G01 X112.0266 Y232.7218
G01 X112.0700 Y232.7266
G01 X112.1131 Y232.7332
G01 X112.1559 Y232.7417
G01 X112.1983 Y232.7521
G01 X112.2401 Y232.7643
G01 X112.2815 Y232.7783
G01 X112.3221 Y232.7941
G01 X112.3621 Y232.8117
G01 X112.4012 Y232.8310
G01 X112.4394 Y232.8520
G01 X112.4767 Y232.8746
G01 X112.5130 Y232.8989
G01 X112.5482 Y232.9247
G01 X112.5822 Y232.9520
G01 X112.6150 Y232.9807
G01 X112.6465 Y233.0109
G01 X112.6767 Y233.0424
G01 X112.7055 Y233.0752
G01 X112.7328 Y233.1093
G01 X112.7586 Y233.1445
G01 X112.7828 Y233.1807
G01 X112.8055 Y233.2180
G01 X112.8264 Y233.2563
G01 X112.8457 Y233.2954
G01 X112.8633 Y233.3353
G01 X112.8791 Y233.3760
G01 X112.8932 Y233.4173
G01 X112.9054 Y233.4592
G01 X112.9157 Y233.5016
G01 X112.9242 Y233.5444
G01 X112.9309 Y233.5875
G01 X112.9356 Y233.6309
G01 X112.9385 Y233.6744
G01 X112.9394 Y233.7180
G01 Y237.0032
G01 X112.9385 Y237.0468
G01 X112.9356 Y237.0903
G01 X112.9309 Y237.1337
G01 X112.9242 Y237.1768
G01 X112.9157 Y237.2196
G01 X112.9054 Y237.2620
G01 X112.8932 Y237.3039
G01 X112.8791 Y237.3452
G01 X112.8633 Y237.3859
G01 X112.8457 Y237.4258
G01 X112.8264 Y237.4649
G01 X112.8055 Y237.5032
G01 X112.7828 Y237.5405
G01 X112.7586 Y237.5768
G01 X112.7328 Y237.6119
G01 X112.7055 Y237.6460
G01 X112.6767 Y237.6788
G01 X112.6465 Y237.7103
G01 X112.6150 Y237.7405
G01 X112.5822 Y237.7692
G01 X112.5482 Y237.7965
G01 X112.5130 Y237.8223
G01 X112.4767 Y237.8466
G01 X112.4394 Y237.8692
G01 X112.4012 Y237.8902
G01 X112.3621 Y237.9095
G01 X112.3221 Y237.9271
G01 X112.2815 Y237.9429
G01 X112.2401 Y237.9569
G01 X112.1983 Y237.9691
G01 X112.1559 Y237.9795
G01 X112.1131 Y237.9880
G01 X112.0700 Y237.9946
G01 X112.0266 Y237.9994
G01 X111.9831 Y238.0022
G01 X111.9394 Y238.0032
G01 X91.5137
G01 Y248.6313
G01 X91.7137 Y248.6458
M107
G00 Z2.0000


;No. 7: Hole 7
G00 X125.0105 Y248.6458 Z2.0000
G00 Z0.5000
G01 Z0.0000 F400
G01 Z-1.8000
M106 S240
G01 X127.8957 F1000
G01 Y247.1458
G01 X125.0105
G01 Y245.6458
G01 X127.8957
G01 Y244.1458
G01 X125.0105
G01 Y242.6458
G01 X127.8957
G01 Y241.1458
G01 X125.0105
G01 Y239.6458
G01 X127.8957
G01 Y238.1458
G01 X125.0105
G01 Y236.6458
G01 X127.8957
G01 Y235.1458
G01 X125.0105
G01 Y233.6458
G01 X127.8985
G01 X125.0105 Y232.1458
G01 X149.1687
G01 X148.2331 Y230.6458
G01 X125.0105
G01 X124.8105 Y230.6611
G01 Y249.8587
G01 X128.0957
G01 Y233.7180
G01 X128.0988 Y233.6391
G01 X128.1082 Y233.5606
G01 X128.1237 Y233.4831
G01 X128.1453 Y233.4071
G01 X128.1728 Y233.3330
G01 X128.2061 Y233.2614
G01 X128.2449 Y233.1925
G01 X128.2890 Y233.1270
G01 X128.3382 Y233.0652
G01 X128.3921 Y233.0074
G01 X128.4504 Y232.9541
G01 X128.5128 Y232.9055
G01 X128.5787 Y232.8620
G01 X128.6479 Y232.8238
G01 X128.7199 Y232.7913
G01 X128.7943 Y232.7645
G01 X128.8705 Y232.7437
G01 X128.9481 Y232.7289
G01 X129.0267 Y232.7204
G01 X129.1057 Y232.7180
G01 X149.4915
G01 X149.4307 Y232.3830
G01 X149.3401 Y232.0548
G01 X149.2205 Y231.7360
G01 X149.0727 Y231.4293
G01 X148.8981 Y231.1370
G01 X148.6980 Y230.8615
G01 X148.4740 Y230.6051
G01 X148.2279 Y230.3698
G01 X147.9617 Y230.1576
G01 X147.6775 Y229.9700
G01 X147.3777 Y229.8086
G01 X147.0646 Y229.6748
G01 X146.7408 Y229.5696
G01 X146.4089 Y229.4939
G01 X146.0715 Y229.4481
G01 X145.7313 Y229.4329
G01 X124.8105
G01 Y230.6611
G01 X125.0105 Y230.6458
M107
G00 Z2.0000


;No. 8: Hole 9
G00 X158.3094 Y230.8606 Z2.0000
G00 Z0.5000
G01 Z0.0000 F400
G01 Z-1.8000
M106 S240
G01 X161.1945 F1000
G01 Y232.3606
G01 X158.3094
G01 Y233.8606
G01 X161.1945
G01 Y235.3606
G01 X158.3094
G01 Y236.8606
G01 X161.1945
G01 X158.3094 Y238.3606
G01 X182.6203
G01 Y236.8606
G01 X179.7351
G01 Y235.3606
G01 X182.6203
G01 Y233.8606
G01 X179.7351
G01 Y232.3606
G01 X182.6203
G01 Y230.8606
G01 X179.7351
M107
G00 Z2.0000
G00 X182.6203 Y238.3606
G00 Z0.5000
G01 Z-1.8000 F400
M106 S240
G01 Y239.8606 F1000
G01 X158.3094
G01 X158.1094 Y239.8486
G01 Y241.2883
G01 X182.8203
G01 Y229.4329
G01 X179.5351
G01 Y237.0032
G01 X179.5342 Y237.0468
G01 X179.5313 Y237.0903
G01 X179.5266 Y237.1337
G01 X179.5199 Y237.1768
G01 X179.5114 Y237.2196
G01 X179.5011 Y237.2620
G01 X179.4889 Y237.3039
G01 X179.4748 Y237.3452
G01 X179.4590 Y237.3859
G01 X179.4414 Y237.4258
G01 X179.4221 Y237.4649
G01 X179.4012 Y237.5032
G01 X179.3785 Y237.5405
G01 X179.3543 Y237.5768
G01 X179.3285 Y237.6119
G01 X179.3012 Y237.6460
G01 X179.2724 Y237.6788
G01 X179.2422 Y237.7103
G01 X179.2107 Y237.7405
G01 X179.1779 Y237.7692
G01 X179.1439 Y237.7965
G01 X179.1087 Y237.8223
G01 X179.0724 Y237.8466
G01 X179.0351 Y237.8692
G01 X178.9969 Y237.8902
G01 X178.9578 Y237.9095
G01 X178.9178 Y237.9271
G01 X178.8772 Y237.9429
G01 X178.8358 Y237.9569
G01 X178.7940 Y237.9691
G01 X178.7516 Y237.9795
G01 X178.7088 Y237.9880
G01 X178.6657 Y237.9946
G01 X178.6223 Y237.9994
G01 X178.5788 Y238.0022
G01 X178.5351 Y238.0032
G01 X162.3945
G01 X162.3509 Y238.0022
G01 X162.3074 Y237.9994
G01 X162.2640 Y237.9946
G01 X162.2209 Y237.9880
G01 X162.1781 Y237.9795
G01 X162.1357 Y237.9691
G01 X162.0938 Y237.9569
G01 X162.0525 Y237.9429
G01 X162.0118 Y237.9271
G01 X161.9719 Y237.9095
G01 X161.9328 Y237.8902
G01 X161.8945 Y237.8692
G01 X161.8572 Y237.8466
G01 X161.8209 Y237.8223
G01 X161.7857 Y237.7965
G01 X161.7517 Y237.7692
G01 X161.7189 Y237.7405
G01 X161.6874 Y237.7103
G01 X161.6572 Y237.6788
G01 X161.6285 Y237.6460
G01 X161.6012 Y237.6119
G01 X161.5754 Y237.5768
G01 X161.5511 Y237.5405
G01 X161.5285 Y237.5032
G01 X161.5075 Y237.4649
G01 X161.4882 Y237.4258
G01 X161.4706 Y237.3859
G01 X161.4548 Y237.3452
G01 X161.4408 Y237.3039
G01 X161.4286 Y237.2620
G01 X161.4182 Y237.2196
G01 X161.4097 Y237.1768
G01 X161.4031 Y237.1337
G01 X161.3983 Y237.0903
G01 X161.3955 Y237.0468
G01 X161.3945 Y237.0032
G01 Y229.4329
G01 X158.1094
G01 Y239.8486
G01 X158.3094 Y239.8606
M107
G00 Z2.0000


;No. 9: Helical drill 2
G00 X182.5151 Y261.1593 Z2.0000
G00 Z0.5000
M106 S240
G01 X182.5113 Y261.0722 Z0.4774 F400
G01 X182.4999 Y260.9857 Z0.4549
G01 X182.4810 Y260.9005 Z0.4323
G01 X182.4548 Y260.8173 Z0.4097
G01 X182.4214 Y260.7367 Z0.3872
G01 X182.3811 Y260.6593 Z0.3646
G01 X182.3342 Y260.5858 Z0.3420
G01 X182.2811 Y260.5166 Z0.3194
G01 X182.2222 Y260.4522 Z0.2969
G01 X182.1579 Y260.3933 Z0.2743
G01 X182.0887 Y260.3402 Z0.2517
G01 X182.0151 Y260.2933 Z0.2292
G01 X181.9377 Y260.2530 Z0.2066
G01 X181.8571 Y260.2197 Z0.1840
G01 X181.7739 Y260.1934 Z0.1615
G01 X181.6887 Y260.1745 Z0.1389
G01 X181.6022 Y260.1631 Z0.1163
G01 X181.5151 Y260.1593 Z0.0938
G01 X181.4279 Y260.1631 Z0.0712
G01 X181.3414 Y260.1745 Z0.0486
G01 X181.2563 Y260.1934 Z0.0260
G01 X181.1731 Y260.2197 Z0.0035
G01 X181.0925 Y260.2530 Z-0.0191
G01 X181.0151 Y260.2933 Z-0.0417
G01 X180.9744 Y260.3181 Z-0.0540
G01 X180.9350 Y260.3448 Z-0.0663
G01 X180.8969 Y260.3733 Z-0.0786
G01 X180.8602 Y260.4036 Z-0.0909
G01 X180.8250 Y260.4356 Z-0.1032
G01 X180.7914 Y260.4693 Z-0.1155
G01 X180.7593 Y260.5045 Z-0.1278
G01 X180.7290 Y260.5412 Z-0.1402
G01 X180.7005 Y260.5793 Z-0.1525
G01 X180.6738 Y260.6187 Z-0.1648
G01 X180.6491 Y260.6593 Z-0.1771
G01 X180.6262 Y260.7011 Z-0.1894
G01 X180.6055 Y260.7439 Z-0.2017
G01 X180.5867 Y260.7877 Z-0.2140
G01 X180.5701 Y260.8323 Z-0.2263
G01 X180.5556 Y260.8776 Z-0.2386
G01 X180.5433 Y260.9236 Z-0.2509
G01 X180.5332 Y260.9701 Z-0.2633
G01 X180.5253 Y261.0170 Z-0.2756
G01 X180.5196 Y261.0643 Z-0.2879
G01 X180.5162 Y261.1118 Z-0.3002
G01 X180.5151 Y261.1593 Z-0.3125
G01 X180.5162 Y261.2069 Z-0.3248
G01 X180.5196 Y261.2544 Z-0.3371
G01 X180.5253 Y261.3017 Z-0.3494
G01 X180.5332 Y261.3486 Z-0.3617
G01 X180.5433 Y261.3951 Z-0.3741
G01 X180.5556 Y261.4411 Z-0.3864
G01 X180.5701 Y261.4864 Z-0.3987
G01 X180.5867 Y261.5310 Z-0.4110
G01 X180.6055 Y261.5748 Z-0.4233
G01 X180.6262 Y261.6176 Z-0.4356
G01 X180.6491 Y261.6593 Z-0.4479
G01 X180.6738 Y261.7000 Z-0.4602
G01 X180.7005 Y261.7394 Z-0.4725
G01 X180.7290 Y261.7775 Z-0.4848
G01 X180.7593 Y261.8142 Z-0.4972
G01 X180.7914 Y261.8494 Z-0.5095
G01 X180.8250 Y261.8831 Z-0.5218
G01 X180.8602 Y261.9151 Z-0.5341
G01 X180.8969 Y261.9454 Z-0.5464
G01 X180.9350 Y261.9739 Z-0.5587
G01 X180.9744 Y262.0006 Z-0.5710
G01 X181.0151 Y262.0254 Z-0.5833
G01 X181.0569 Y262.0482 Z-0.5956
G01 X181.0997 Y262.0690 Z-0.6080
G01 X181.1434 Y262.0877 Z-0.6203
G01 X181.1880 Y262.1043 Z-0.6326
G01 X181.2334 Y262.1188 Z-0.6449
G01 X181.2793 Y262.1312 Z-0.6572
G01 X181.3258 Y262.1413 Z-0.6695
G01 X181.3728 Y262.1492 Z-0.6818
G01 X181.4200 Y262.1548 Z-0.6941
G01 X181.4675 Y262.1582 Z-0.7064
G01 X181.5151 Y262.1593 Z-0.7188
G01 X181.5627 Y262.1582 Z-0.7311
G01 X181.6101 Y262.1548 Z-0.7434
G01 X181.6574 Y262.1492 Z-0.7557
G01 X181.7043 Y262.1413 Z-0.7680
G01 X181.7508 Y262.1312 Z-0.7803
G01 X181.7968 Y262.1188 Z-0.7926
G01 X181.8422 Y262.1043 Z-0.8049
G01 X181.8867 Y262.0877 Z-0.8172
G01 X181.9305 Y262.0690 Z-0.8295
G01 X181.9733 Y262.0482 Z-0.8419
G01 X182.0151 Y262.0254 Z-0.8542
G01 X182.0557 Y262.0006 Z-0.8665
G01 X182.0951 Y261.9739 Z-0.8788
G01 X182.1332 Y261.9454 Z-0.8911
G01 X182.1699 Y261.9151 Z-0.9034
G01 X182.2052 Y261.8831 Z-0.9157
G01 X182.2388 Y261.8494 Z-0.9280
G01 X182.2708 Y261.8142 Z-0.9403
G01 X182.3011 Y261.7775 Z-0.9527
G01 X182.3297 Y261.7394 Z-0.9650
G01 X182.3563 Y261.7000 Z-0.9773
G01 X182.3811 Y261.6593 Z-0.9896
G01 X182.4039 Y261.6176 Z-1.0019
G01 X182.4247 Y261.5748 Z-1.0142
G01 X182.4435 Y261.5310 Z-1.0265
G01 X182.4601 Y261.4864 Z-1.0388
G01 X182.4746 Y261.4411 Z-1.0511
G01 X182.4869 Y261.3951 Z-1.0634
G01 X182.4970 Y261.3486 Z-1.0758
G01 X182.5049 Y261.3017 Z-1.0881
G01 X182.5106 Y261.2544 Z-1.1004
G01 X182.5140 Y261.2069 Z-1.1127
G01 X182.5151 Y261.1593 Z-1.1250
G01 X182.5113 Y261.0722
G01 X182.4999 Y260.9857
G01 X182.4810 Y260.9005
G01 X182.4548 Y260.8173
G01 X182.4214 Y260.7367
G01 X182.3811 Y260.6593
G01 X182.3342 Y260.5858
G01 X182.2811 Y260.5166
G01 X182.2222 Y260.4522
G01 X182.1579 Y260.3933
G01 X182.0887 Y260.3402
G01 X182.0151 Y260.2933
G01 X181.9377 Y260.2530
G01 X181.8571 Y260.2197
G01 X181.7739 Y260.1934
G01 X181.6887 Y260.1745
G01 X181.6022 Y260.1631
G01 X181.5151 Y260.1593
G01 X181.4279 Y260.1631
G01 X181.3414 Y260.1745
G01 X181.2563 Y260.1934
G01 X181.1731 Y260.2197
G01 X181.0925 Y260.2530
G01 X181.0151 Y260.2933
G01 X180.9744 Y260.3181
G01 X180.9350 Y260.3448
G01 X180.8969 Y260.3733
G01 X180.8602 Y260.4036
G01 X180.8250 Y260.4356
G01 X180.7914 Y260.4693
G01 X180.7593 Y260.5045
G01 X180.7290 Y260.5412
G01 X180.7005 Y260.5793
G01 X180.6738 Y260.6187
G01 X180.6491 Y260.6593
G01 X180.6262 Y260.7011
G01 X180.6055 Y260.7439
G01 X180.5867 Y260.7877
G01 X180.5701 Y260.8323
G01 X180.5556 Y260.8776
G01 X180.5433 Y260.9236
G01 X180.5332 Y260.9701
G01 X180.5253 Y261.0170
G01 X180.5196 Y261.0643
G01 X180.5162 Y261.1118
G01 X180.5151 Y261.1593
G01 X180.5162 Y261.2069
G01 X180.5196 Y261.2544
G01 X180.5253 Y261.3017
G01 X180.5332 Y261.3486
G01 X180.5433 Y261.3951
G01 X180.5556 Y261.4411
G01 X180.5701 Y261.4864
G01 X180.5867 Y261.5310
G01 X180.6055 Y261.5748
G01 X180.6262 Y261.6176
G01 X180.6491 Y261.6593
G01 X180.6738 Y261.7000
G01 X180.7005 Y261.7394
G01 X180.7290 Y261.7775
G01 X180.7593 Y261.8142
G01 X180.7914 Y261.8494
G01 X180.8250 Y261.8831
G01 X180.8602 Y261.9151
G01 X180.8969 Y261.9454
G01 X180.9350 Y261.9739
G01 X180.9744 Y262.0006
G01 X181.0151 Y262.0254
G01 X181.0569 Y262.0482
G01 X181.0997 Y262.0690
G01 X181.1434 Y262.0877
G01 X181.1880 Y262.1043
G01 X181.2334 Y262.1188
G01 X181.2793 Y262.1312
G01 X181.3258 Y262.1413
G01 X181.3728 Y262.1492
G01 X181.4200 Y262.1548
G01 X181.4675 Y262.1582
G01 X181.5151 Y262.1593
G01 X181.5627 Y262.1582
G01 X181.6101 Y262.1548
G01 X181.6574 Y262.1492
G01 X181.7043 Y262.1413
G01 X181.7508 Y262.1312
G01 X181.7968 Y262.1188
G01 X181.8422 Y262.1043
G01 X181.8867 Y262.0877
G01 X181.9305 Y262.0690
G01 X181.9733 Y262.0482
G01 X182.0151 Y262.0254
G01 X182.0557 Y262.0006
G01 X182.0951 Y261.9739
G01 X182.1332 Y261.9454
G01 X182.1699 Y261.9151
G01 X182.2052 Y261.8831
G01 X182.2388 Y261.8494
G01 X182.2708 Y261.8142
G01 X182.3011 Y261.7775
G01 X182.3297 Y261.7394
G01 X182.3563 Y261.7000
G01 X182.3811 Y261.6593
G01 X182.4039 Y261.6176
G01 X182.4247 Y261.5748
G01 X182.4435 Y261.5310
G01 X182.4601 Y261.4864
G01 X182.4746 Y261.4411
G01 X182.4869 Y261.3951
G01 X182.4970 Y261.3486
G01 X182.5049 Y261.3017
G01 X182.5106 Y261.2544
G01 X182.5140 Y261.2069
G01 X182.5151 Y261.1593
G01 X182.5258 Y261.1077 F1000
G01 X182.5339 Y261.0557
G01 X182.5393 Y261.0032
G01 X182.5420 Y260.9506
G01 X182.5419 Y260.8979
G01 X182.5392 Y260.8453
G01 X182.5337 Y260.7929
G01 X182.5256 Y260.7408
G01 X182.5139 Y260.6848
G01 X182.4993 Y260.6295
G01 X182.4819 Y260.5750
G01 X182.4618 Y260.5215
G01 X182.4389 Y260.4690
G01 X182.4134 Y260.4178
G01 X182.3854 Y260.3680
G01 X182.3548 Y260.3197
G01 X182.3192 Y260.2693
G01 X182.2810 Y260.2207
G01 X182.2405 Y260.1742
G01 X182.1976 Y260.1298
G01 X182.1526 Y260.0876
G01 X182.1054 Y260.0478
G01 X182.0563 Y260.0105
G01 X182.0054 Y259.9756
G01 X181.9489 Y259.9411
G01 X181.8907 Y259.9094
G01 X181.8310 Y259.8807
G01 X181.7700 Y259.8551
G01 X181.7077 Y259.8326
G01 X181.6443 Y259.8133
G01 X181.5801 Y259.7972
G01 X181.5151 Y259.7843
G01 X181.4451 Y259.7742
G01 X181.3746 Y259.7675
G01 X181.3039 Y259.7644
G01 X181.2331 Y259.7649
G01 X181.1625 Y259.7690
G01 X181.0921 Y259.7766
G01 X181.0223 Y259.7877
G01 X180.9530 Y259.8024
G01 X180.8848 Y259.8284
G01 X180.8180 Y259.8577
G01 X180.7527 Y259.8902
G01 X180.6891 Y259.9259
G01 X180.6273 Y259.9647
G01 X180.5675 Y260.0065
G01 X180.5098 Y260.0512
G01 X180.4544 Y260.0987
G01 X180.4037 Y260.1520
G01 X180.3556 Y260.2078
G01 X180.3103 Y260.2658
G01 X180.2679 Y260.3260
G01 X180.2285 Y260.3882
G01 X180.1922 Y260.4523
G01 X180.1591 Y260.5180
G01 X180.1293 Y260.5853
G01 X180.1028 Y260.6540
G01 X180.0797 Y260.7239
G01 X180.0601 Y260.7949
G01 X180.0439 Y260.8667
G01 X180.0313 Y260.9393
G01 X180.0223 Y261.0123
G01 X180.0169 Y261.0857
G01 X180.0151 Y261.1593
G01 X180.0169 Y261.2329
G01 X180.0223 Y261.3064
G01 X180.0313 Y261.3794
G01 X180.0439 Y261.4520
G01 X180.0601 Y261.5238
G01 X180.0797 Y261.5948
G01 X180.1028 Y261.6647
G01 X180.1293 Y261.7334
G01 X180.1591 Y261.8007
G01 X180.1922 Y261.8664
G01 X180.2285 Y261.9305
G01 X180.2679 Y261.9927
G01 X180.3103 Y262.0529
G01 X180.3556 Y262.1109
G01 X180.4037 Y262.1667
G01 X180.4544 Y262.2200
G01 X180.5078 Y262.2708
G01 X180.5635 Y262.3188
G01 X180.6216 Y262.3641
G01 X180.6817 Y262.4065
G01 X180.7439 Y262.4459
G01 X180.8080 Y262.4822
G01 X180.8738 Y262.5153
G01 X180.9411 Y262.5451
G01 X181.0098 Y262.5716
G01 X181.0797 Y262.5947
G01 X181.1506 Y262.6144
G01 X181.2225 Y262.6305
G01 X181.2950 Y262.6431
G01 X181.3681 Y262.6521
G01 X181.4415 Y262.6575
G01 X181.5151 Y262.6593
G01 X181.5887 Y262.6575
G01 X181.6621 Y262.6521
G01 X181.7352 Y262.6431
G01 X181.8077 Y262.6305
G01 X181.8795 Y262.6144
G01 X181.9505 Y262.5947
G01 X182.0204 Y262.5716
G01 X182.0891 Y262.5451
G01 X182.1564 Y262.5153
G01 X182.2222 Y262.4822
G01 X182.2862 Y262.4459
G01 X182.3484 Y262.4065
G01 X182.4086 Y262.3641
G01 X182.4667 Y262.3188
G01 X182.5224 Y262.2708
G01 X182.5757 Y262.2200
G01 X182.6265 Y262.1667
G01 X182.6746 Y262.1109
G01 X182.7199 Y262.0529
G01 X182.7623 Y261.9927
G01 X182.8017 Y261.9305
G01 X182.8379 Y261.8664
G01 X182.8710 Y261.8007
G01 X182.9009 Y261.7334
G01 X182.9274 Y261.6647
G01 X182.9505 Y261.5948
G01 X182.9701 Y261.5238
G01 X182.9862 Y261.4520
G01 X182.9988 Y261.3794
G01 X183.0078 Y261.3064
G01 X183.0133 Y261.2329
G01 X183.0151 Y261.1593
G01 X183.0109 Y261.0472
G01 X182.9983 Y260.9358
G01 X182.9775 Y260.8256
G01 X182.9484 Y260.7172
G01 X182.9114 Y260.6113
G01 X182.8665 Y260.5085
G01 X182.8141 Y260.4094
G01 X182.7544 Y260.3144
G01 X182.6878 Y260.2241
G01 X182.6146 Y260.1391
G01 X182.5353 Y260.0598
G01 X182.4503 Y259.9866
G01 X182.3601 Y259.9200
G01 X182.2651 Y259.8603
G01 X182.1659 Y259.8079
G01 X182.0631 Y259.7631
G01 X181.9572 Y259.7260
G01 X181.8489 Y259.6970
G01 X181.7386 Y259.6761
G01 X181.6272 Y259.6636
G01 X181.5151 Y259.6594
G01 X181.4030 Y259.6636
G01 X181.2915 Y259.6761
G01 X181.1813 Y259.6970
G01 X181.0730 Y259.7260
G01 X180.9671 Y259.7631
G01 X180.8643 Y259.8079
G01 X180.7651 Y259.8603
G01 X180.6701 Y259.9200
G01 X180.5799 Y259.9866
G01 X180.4948 Y260.0598
G01 X180.4155 Y260.1391
G01 X180.3424 Y260.2241
G01 X180.2757 Y260.3144
G01 X180.2161 Y260.4094
G01 X180.1637 Y260.5085
G01 X180.1188 Y260.6113
G01 X180.0817 Y260.7172
G01 X180.0527 Y260.8256
G01 X180.0319 Y260.9358
G01 X180.0193 Y261.0472
G01 X180.0151 Y261.1593
G01 X180.0193 Y261.2714
G01 X180.0319 Y261.3829
G01 X180.0527 Y261.4931
G01 X180.0817 Y261.6015
G01 X180.1188 Y261.7073
G01 X180.1637 Y261.8102
G01 X180.2161 Y261.9093
G01 X180.2757 Y262.0043
G01 X180.3424 Y262.0946
G01 X180.4155 Y262.1796
G01 X180.4948 Y262.2589
G01 X180.5799 Y262.3321
G01 X180.6701 Y262.3987
G01 X180.7651 Y262.4584
G01 X180.8643 Y262.5108
G01 X180.9671 Y262.5556
G01 X181.0730 Y262.5927
G01 X181.1813 Y262.6217
G01 X181.2915 Y262.6426
G01 X181.4030 Y262.6551
G01 X181.5151 Y262.6593
G01 X181.6272 Y262.6551
G01 X181.7386 Y262.6426
G01 X181.8489 Y262.6217
G01 X181.9572 Y262.5927
G01 X182.0631 Y262.5556
G01 X182.1659 Y262.5108
G01 X182.2651 Y262.4584
G01 X182.3601 Y262.3987
G01 X182.4503 Y262.3321
G01 X182.5353 Y262.2589
G01 X182.6146 Y262.1796
G01 X182.6878 Y262.0946
G01 X182.7544 Y262.0043
G01 X182.8141 Y261.9093
G01 X182.8665 Y261.8102
G01 X182.9114 Y261.7073
G01 X182.9484 Y261.6015
G01 X182.9775 Y261.4931
G01 X182.9983 Y261.3829
G01 X183.0109 Y261.2714
G01 X183.0151 Y261.1593
G01 X183.0112 Y261.0613
G01 X182.9997 Y260.9638
G01 X182.9805 Y260.8675
G01 X182.9539 Y260.7731
G01 X182.9199 Y260.6810
G01 X182.8788 Y260.5919
G01 X182.8309 Y260.5062
G01 X182.7763 Y260.4246
G01 X182.7156 Y260.3475
G01 X182.6489 Y260.2755
G01 X182.5769 Y260.2088
G01 X182.4998 Y260.1481
G01 X182.4182 Y260.0936
G01 X182.3326 Y260.0456
G01 X182.2434 Y260.0045
G01 X182.1513 Y259.9705
G01 X182.0569 Y259.9439
G01 X181.9606 Y259.9247
G01 X181.8631 Y259.9132
G01 X181.7651 Y259.9094
G01 X181.6670 Y259.9132
G01 X181.5695 Y259.9247
G01 X181.4733 Y259.9439
G01 X181.3788 Y259.9705
G01 X181.2867 Y260.0045
G01 X181.1976 Y260.0456
G01 X181.1120 Y260.0936
G01 X181.0303 Y260.1481
G01 X180.9533 Y260.2088
G01 X180.8812 Y260.2755
G01 X180.8146 Y260.3475
G01 X180.7538 Y260.4246
G01 X180.6993 Y260.5062
G01 X180.6513 Y260.5919
G01 X180.6102 Y260.6810
G01 X180.5763 Y260.7731
G01 X180.5496 Y260.8675
G01 X180.5305 Y260.9638
G01 X180.5189 Y261.0613
G01 X180.5151 Y261.1593
G01 X180.5189 Y261.2465
G01 X180.5303 Y261.3330
G01 X180.5492 Y261.4182
G01 X180.5754 Y261.5014
G01 X180.6088 Y261.5820
G01 X180.6491 Y261.6593
G01 X180.6959 Y261.7329
G01 X180.7490 Y261.8021
G01 X180.8080 Y261.8664
G01 X180.8723 Y261.9254
G01 X180.9415 Y261.9785
G01 X181.0151 Y262.0254
G01 X181.0925 Y262.0657
G01 X181.1731 Y262.0990
G01 X181.2563 Y262.1253
G01 X181.3414 Y262.1442
G01 X181.4279 Y262.1555
G01 X181.5151 Y262.1593
G01 X181.6022 Y262.1555
G01 X181.6887 Y262.1442
G01 X181.7739 Y262.1253
G01 X181.8571 Y262.0990
G01 X181.9377 Y262.0657
G01 X182.0151 Y262.0254
G01 X182.0887 Y261.9785
G01 X182.1579 Y261.9254
G01 X182.2222 Y261.8664
G01 X182.2811 Y261.8021
G01 X182.3342 Y261.7329
G01 X182.3811 Y261.6593
G01 X182.4214 Y261.5820
G01 X182.4548 Y261.5014
G01 X182.4810 Y261.4182
G01 X182.4999 Y261.3330
G01 X182.5113 Y261.2465
G01 X182.5151 Y261.1593
M107
M106 S240
G01 X182.5113 Y261.0722 Z-1.1476 F400
G01 X182.4999 Y260.9857 Z-1.1701
G01 X182.4810 Y260.9005 Z-1.1927
G01 X182.4548 Y260.8173 Z-1.2153
G01 X182.4214 Y260.7367 Z-1.2378
G01 X182.3811 Y260.6593 Z-1.2604
G01 X182.3342 Y260.5858 Z-1.2830
G01 X182.2811 Y260.5166 Z-1.3056
G01 X182.2222 Y260.4522 Z-1.3281
G01 X182.1579 Y260.3933 Z-1.3507
G01 X182.0887 Y260.3402 Z-1.3733
G01 X182.0151 Y260.2933 Z-1.3958
G01 X181.9377 Y260.2530 Z-1.4184
G01 X181.8571 Y260.2197 Z-1.4410
G01 X181.7739 Y260.1934 Z-1.4635
G01 X181.6887 Y260.1745 Z-1.4861
G01 X181.6022 Y260.1631 Z-1.5087
G01 X181.5151 Y260.1593 Z-1.5313
G01 X181.4279 Y260.1631 Z-1.5538
G01 X181.3414 Y260.1745 Z-1.5764
G01 X181.2563 Y260.1934 Z-1.5990
G01 X181.1731 Y260.2197 Z-1.6215
G01 X181.0925 Y260.2530 Z-1.6441
G01 X181.0151 Y260.2933 Z-1.6667
G01 X180.9744 Y260.3181 Z-1.6790
G01 X180.9350 Y260.3448 Z-1.6913
G01 X180.8969 Y260.3733 Z-1.7036
G01 X180.8602 Y260.4036 Z-1.7159
G01 X180.8250 Y260.4356 Z-1.7282
G01 X180.7914 Y260.4693 Z-1.7405
G01 X180.7593 Y260.5045 Z-1.7528
G01 X180.7290 Y260.5412 Z-1.7652
G01 X180.7005 Y260.5793 Z-1.7775
G01 X180.6738 Y260.6187 Z-1.7898
G01 X180.6491 Y260.6593 Z-1.8021
G01 X180.6262 Y260.7011 Z-1.8144
G01 X180.6055 Y260.7439 Z-1.8267
G01 X180.5867 Y260.7877 Z-1.8390
G01 X180.5701 Y260.8323 Z-1.8513
G01 X180.5556 Y260.8776 Z-1.8636
G01 X180.5433 Y260.9236 Z-1.8759
G01 X180.5332 Y260.9701 Z-1.8883
G01 X180.5253 Y261.0170 Z-1.9006
G01 X180.5196 Y261.0643 Z-1.9129
G01 X180.5162 Y261.1118 Z-1.9252
G01 X180.5151 Y261.1593 Z-1.9375
G01 X180.5162 Y261.2069 Z-1.9498
G01 X180.5196 Y261.2544 Z-1.9621
G01 X180.5253 Y261.3017 Z-1.9744
G01 X180.5332 Y261.3486 Z-1.9867
G01 X180.5433 Y261.3951 Z-1.9991
G01 X180.5556 Y261.4411 Z-2.0114
G01 X180.5701 Y261.4864 Z-2.0237
G01 X180.5867 Y261.5310 Z-2.0360
G01 X180.6055 Y261.5748 Z-2.0483
G01 X180.6262 Y261.6176 Z-2.0606
G01 X180.6491 Y261.6593 Z-2.0729
G01 X180.6738 Y261.7000 Z-2.0852
G01 X180.7005 Y261.7394 Z-2.0975
G01 X180.7290 Y261.7775 Z-2.1098
G01 X180.7593 Y261.8142 Z-2.1222
G01 X180.7914 Y261.8494 Z-2.1345
G01 X180.8250 Y261.8831 Z-2.1468
G01 X180.8602 Y261.9151 Z-2.1591
G01 X180.8969 Y261.9454 Z-2.1714
G01 X180.9350 Y261.9739 Z-2.1837
G01 X180.9744 Y262.0006 Z-2.1960
G01 X181.0151 Y262.0254 Z-2.2083
G01 X181.0569 Y262.0482 Z-2.2206
G01 X181.0997 Y262.0690 Z-2.2330
G01 X181.1434 Y262.0877 Z-2.2453
G01 X181.1880 Y262.1043 Z-2.2576
G01 X181.2334 Y262.1188 Z-2.2699
G01 X181.2793 Y262.1312 Z-2.2822
G01 X181.3258 Y262.1413 Z-2.2945
G01 X181.3728 Y262.1492 Z-2.3068
G01 X181.4200 Y262.1548 Z-2.3191
G01 X181.4675 Y262.1582 Z-2.3314
G01 X181.5151 Y262.1593 Z-2.3438
G01 X181.5627 Y262.1582 Z-2.3561
G01 X181.6101 Y262.1548 Z-2.3684
G01 X181.6574 Y262.1492 Z-2.3807
G01 X181.7043 Y262.1413 Z-2.3930
G01 X181.7508 Y262.1312 Z-2.4053
G01 X181.7968 Y262.1188 Z-2.4176
G01 X181.8422 Y262.1043 Z-2.4299
G01 X181.8867 Y262.0877 Z-2.4422
G01 X181.9305 Y262.0690 Z-2.4545
G01 X181.9733 Y262.0482 Z-2.4669
G01 X182.0151 Y262.0254 Z-2.4792
G01 X182.0557 Y262.0006 Z-2.4915
G01 X182.0951 Y261.9739 Z-2.5038
G01 X182.1332 Y261.9454 Z-2.5161
G01 X182.1699 Y261.9151 Z-2.5284
G01 X182.2052 Y261.8831 Z-2.5407
G01 X182.2388 Y261.8494 Z-2.5530
G01 X182.2708 Y261.8142 Z-2.5653
G01 X182.3011 Y261.7775 Z-2.5777
G01 X182.3297 Y261.7394 Z-2.5900
G01 X182.3563 Y261.7000 Z-2.6023
G01 X182.3811 Y261.6593 Z-2.6146
G01 X182.4039 Y261.6176 Z-2.6269
G01 X182.4247 Y261.5748 Z-2.6392
G01 X182.4435 Y261.5310 Z-2.6515
G01 X182.4601 Y261.4864 Z-2.6638
G01 X182.4746 Y261.4411 Z-2.6761
G01 X182.4869 Y261.3951 Z-2.6884
G01 X182.4970 Y261.3486 Z-2.7008
G01 X182.5049 Y261.3017 Z-2.7131
G01 X182.5106 Y261.2544 Z-2.7254
G01 X182.5140 Y261.2069 Z-2.7377
G01 X182.5151 Y261.1593 Z-2.7500
G01 X182.5113 Y261.0722
G01 X182.4999 Y260.9857
G01 X182.4810 Y260.9005
G01 X182.4548 Y260.8173
G01 X182.4214 Y260.7367
G01 X182.3811 Y260.6593
G01 X182.3342 Y260.5858
G01 X182.2811 Y260.5166
G01 X182.2222 Y260.4522
G01 X182.1579 Y260.3933
G01 X182.0887 Y260.3402
G01 X182.0151 Y260.2933
G01 X181.9377 Y260.2530
G01 X181.8571 Y260.2197
G01 X181.7739 Y260.1934
G01 X181.6887 Y260.1745
G01 X181.6022 Y260.1631
G01 X181.5151 Y260.1593
G01 X181.4279 Y260.1631
G01 X181.3414 Y260.1745
G01 X181.2563 Y260.1934
G01 X181.1731 Y260.2197
G01 X181.0925 Y260.2530
G01 X181.0151 Y260.2933
G01 X180.9744 Y260.3181
G01 X180.9350 Y260.3448
G01 X180.8969 Y260.3733
G01 X180.8602 Y260.4036
G01 X180.8250 Y260.4356
G01 X180.7914 Y260.4693
G01 X180.7593 Y260.5045
G01 X180.7290 Y260.5412
G01 X180.7005 Y260.5793
G01 X180.6738 Y260.6187
G01 X180.6491 Y260.6593
G01 X180.6262 Y260.7011
G01 X180.6055 Y260.7439
G01 X180.5867 Y260.7877
G01 X180.5701 Y260.8323
G01 X180.5556 Y260.8776
G01 X180.5433 Y260.9236
G01 X180.5332 Y260.9701
G01 X180.5253 Y261.0170
G01 X180.5196 Y261.0643
G01 X180.5162 Y261.1118
G01 X180.5151 Y261.1593
G01 X180.5162 Y261.2069
G01 X180.5196 Y261.2544
G01 X180.5253 Y261.3017
G01 X180.5332 Y261.3486
G01 X180.5433 Y261.3951
G01 X180.5556 Y261.4411
G01 X180.5701 Y261.4864
G01 X180.5867 Y261.5310
G01 X180.6055 Y261.5748
G01 X180.6262 Y261.6176
G01 X180.6491 Y261.6593
G01 X180.6738 Y261.7000
G01 X180.7005 Y261.7394
G01 X180.7290 Y261.7775
G01 X180.7593 Y261.8142
G01 X180.7914 Y261.8494
G01 X180.8250 Y261.8831
G01 X180.8602 Y261.9151
G01 X180.8969 Y261.9454
G01 X180.9350 Y261.9739
G01 X180.9744 Y262.0006
G01 X181.0151 Y262.0254
G01 X181.0569 Y262.0482
G01 X181.0997 Y262.0690
G01 X181.1434 Y262.0877
G01 X181.1880 Y262.1043
G01 X181.2334 Y262.1188
G01 X181.2793 Y262.1312
G01 X181.3258 Y262.1413
G01 X181.3728 Y262.1492
G01 X181.4200 Y262.1548
G01 X181.4675 Y262.1582
G01 X181.5151 Y262.1593
G01 X181.5627 Y262.1582
G01 X181.6101 Y262.1548
G01 X181.6574 Y262.1492
G01 X181.7043 Y262.1413
G01 X181.7508 Y262.1312
G01 X181.7968 Y262.1188
G01 X181.8422 Y262.1043
G01 X181.8867 Y262.0877
G01 X181.9305 Y262.0690
G01 X181.9733 Y262.0482
G01 X182.0151 Y262.0254
G01 X182.0557 Y262.0006
G01 X182.0951 Y261.9739
G01 X182.1332 Y261.9454
G01 X182.1699 Y261.9151
G01 X182.2052 Y261.8831
G01 X182.2388 Y261.8494
G01 X182.2708 Y261.8142
G01 X182.3011 Y261.7775
G01 X182.3297 Y261.7394
G01 X182.3563 Y261.7000
G01 X182.3811 Y261.6593
G01 X182.4039 Y261.6176
G01 X182.4247 Y261.5748
G01 X182.4435 Y261.5310
G01 X182.4601 Y261.4864
G01 X182.4746 Y261.4411
G01 X182.4869 Y261.3951
G01 X182.4970 Y261.3486
G01 X182.5049 Y261.3017
G01 X182.5106 Y261.2544
G01 X182.5140 Y261.2069
G01 X182.5151 Y261.1593
G01 X182.5258 Y261.1077 F1000
G01 X182.5339 Y261.0557
G01 X182.5393 Y261.0032
G01 X182.5420 Y260.9506
G01 X182.5419 Y260.8979
G01 X182.5392 Y260.8453
G01 X182.5337 Y260.7929
G01 X182.5256 Y260.7408
G01 X182.5139 Y260.6848
G01 X182.4993 Y260.6295
G01 X182.4819 Y260.5750
G01 X182.4618 Y260.5215
G01 X182.4389 Y260.4690
G01 X182.4134 Y260.4178
G01 X182.3854 Y260.3680
G01 X182.3548 Y260.3197
G01 X182.3192 Y260.2693
G01 X182.2810 Y260.2207
G01 X182.2405 Y260.1742
G01 X182.1976 Y260.1298
G01 X182.1526 Y260.0876
G01 X182.1054 Y260.0478
G01 X182.0563 Y260.0105
G01 X182.0054 Y259.9756
G01 X181.9489 Y259.9411
G01 X181.8907 Y259.9094
G01 X181.8310 Y259.8807
G01 X181.7700 Y259.8551
G01 X181.7077 Y259.8326
G01 X181.6443 Y259.8133
G01 X181.5801 Y259.7972
G01 X181.5151 Y259.7843
G01 X181.4451 Y259.7742
G01 X181.3746 Y259.7675
G01 X181.3039 Y259.7644
G01 X181.2331 Y259.7649
G01 X181.1625 Y259.7690
G01 X181.0921 Y259.7766
G01 X181.0223 Y259.7877
G01 X180.9530 Y259.8024
G01 X180.8848 Y259.8284
G01 X180.8180 Y259.8577
G01 X180.7527 Y259.8902
G01 X180.6891 Y259.9259
G01 X180.6273 Y259.9647
G01 X180.5675 Y260.0065
G01 X180.5098 Y260.0512
G01 X180.4544 Y260.0987
G01 X180.4037 Y260.1520
G01 X180.3556 Y260.2078
G01 X180.3103 Y260.2658
G01 X180.2679 Y260.3260
G01 X180.2285 Y260.3882
G01 X180.1922 Y260.4523
G01 X180.1591 Y260.5180
G01 X180.1293 Y260.5853
G01 X180.1028 Y260.6540
G01 X180.0797 Y260.7239
G01 X180.0601 Y260.7949
G01 X180.0439 Y260.8667
G01 X180.0313 Y260.9393
G01 X180.0223 Y261.0123
G01 X180.0169 Y261.0857
G01 X180.0151 Y261.1593
G01 X180.0169 Y261.2329
G01 X180.0223 Y261.3064
G01 X180.0313 Y261.3794
G01 X180.0439 Y261.4520
G01 X180.0601 Y261.5238
G01 X180.0797 Y261.5948
G01 X180.1028 Y261.6647
G01 X180.1293 Y261.7334
G01 X180.1591 Y261.8007
G01 X180.1922 Y261.8664
G01 X180.2285 Y261.9305
G01 X180.2679 Y261.9927
G01 X180.3103 Y262.0529
G01 X180.3556 Y262.1109
G01 X180.4037 Y262.1667
G01 X180.4544 Y262.2200
G01 X180.5078 Y262.2708
G01 X180.5635 Y262.3188
G01 X180.6216 Y262.3641
G01 X180.6817 Y262.4065
G01 X180.7439 Y262.4459
G01 X180.8080 Y262.4822
G01 X180.8738 Y262.5153
G01 X180.9411 Y262.5451
G01 X181.0098 Y262.5716
G01 X181.0797 Y262.5947
G01 X181.1506 Y262.6144
G01 X181.2225 Y262.6305
G01 X181.2950 Y262.6431
G01 X181.3681 Y262.6521
G01 X181.4415 Y262.6575
G01 X181.5151 Y262.6593
G01 X181.5887 Y262.6575
G01 X181.6621 Y262.6521
G01 X181.7352 Y262.6431
G01 X181.8077 Y262.6305
G01 X181.8795 Y262.6144
G01 X181.9505 Y262.5947
G01 X182.0204 Y262.5716
G01 X182.0891 Y262.5451
G01 X182.1564 Y262.5153
G01 X182.2222 Y262.4822
G01 X182.2862 Y262.4459
G01 X182.3484 Y262.4065
G01 X182.4086 Y262.3641
G01 X182.4667 Y262.3188
G01 X182.5224 Y262.2708
G01 X182.5757 Y262.2200
G01 X182.6265 Y262.1667
G01 X182.6746 Y262.1109
G01 X182.7199 Y262.0529
G01 X182.7623 Y261.9927
G01 X182.8017 Y261.9305
G01 X182.8379 Y261.8664
G01 X182.8710 Y261.8007
G01 X182.9009 Y261.7334
G01 X182.9274 Y261.6647
G01 X182.9505 Y261.5948
G01 X182.9701 Y261.5238
G01 X182.9862 Y261.4520
G01 X182.9988 Y261.3794
G01 X183.0078 Y261.3064
G01 X183.0133 Y261.2329
G01 X183.0151 Y261.1593
G01 X183.0109 Y261.0472
G01 X182.9983 Y260.9358
G01 X182.9775 Y260.8256
G01 X182.9484 Y260.7172
G01 X182.9114 Y260.6113
G01 X182.8665 Y260.5085
G01 X182.8141 Y260.4094
G01 X182.7544 Y260.3144
G01 X182.6878 Y260.2241
G01 X182.6146 Y260.1391
G01 X182.5353 Y260.0598
G01 X182.4503 Y259.9866
G01 X182.3601 Y259.9200
G01 X182.2651 Y259.8603
G01 X182.1659 Y259.8079
G01 X182.0631 Y259.7631
G01 X181.9572 Y259.7260
G01 X181.8489 Y259.6970
G01 X181.7386 Y259.6761
G01 X181.6272 Y259.6636
G01 X181.5151 Y259.6594
G01 X181.4030 Y259.6636
G01 X181.2915 Y259.6761
G01 X181.1813 Y259.6970
G01 X181.0730 Y259.7260
G01 X180.9671 Y259.7631
G01 X180.8643 Y259.8079
G01 X180.7651 Y259.8603
G01 X180.6701 Y259.9200
G01 X180.5799 Y259.9866
G01 X180.4948 Y260.0598
G01 X180.4155 Y260.1391
G01 X180.3424 Y260.2241
G01 X180.2757 Y260.3144
G01 X180.2161 Y260.4094
G01 X180.1637 Y260.5085
G01 X180.1188 Y260.6113
G01 X180.0817 Y260.7172
G01 X180.0527 Y260.8256
G01 X180.0319 Y260.9358
G01 X180.0193 Y261.0472
G01 X180.0151 Y261.1593
G01 X180.0193 Y261.2714
G01 X180.0319 Y261.3829
G01 X180.0527 Y261.4931
G01 X180.0817 Y261.6015
G01 X180.1188 Y261.7073
G01 X180.1637 Y261.8102
G01 X180.2161 Y261.9093
G01 X180.2757 Y262.0043
G01 X180.3424 Y262.0946
G01 X180.4155 Y262.1796
G01 X180.4948 Y262.2589
G01 X180.5799 Y262.3321
G01 X180.6701 Y262.3987
G01 X180.7651 Y262.4584
G01 X180.8643 Y262.5108
G01 X180.9671 Y262.5556
G01 X181.0730 Y262.5927
G01 X181.1813 Y262.6217
G01 X181.2915 Y262.6426
G01 X181.4030 Y262.6551
G01 X181.5151 Y262.6593
G01 X181.6272 Y262.6551
G01 X181.7386 Y262.6426
G01 X181.8489 Y262.6217
G01 X181.9572 Y262.5927
G01 X182.0631 Y262.5556
G01 X182.1659 Y262.5108
G01 X182.2651 Y262.4584
G01 X182.3601 Y262.3987
G01 X182.4503 Y262.3321
G01 X182.5353 Y262.2589
G01 X182.6146 Y262.1796
G01 X182.6878 Y262.0946
G01 X182.7544 Y262.0043
G01 X182.8141 Y261.9093
G01 X182.8665 Y261.8102
G01 X182.9114 Y261.7073
G01 X182.9484 Y261.6015
G01 X182.9775 Y261.4931
G01 X182.9983 Y261.3829
G01 X183.0109 Y261.2714
G01 X183.0151 Y261.1593
G01 X183.0112 Y261.0613
G01 X182.9997 Y260.9638
G01 X182.9805 Y260.8675
G01 X182.9539 Y260.7731
G01 X182.9199 Y260.6810
G01 X182.8788 Y260.5919
G01 X182.8309 Y260.5062
G01 X182.7763 Y260.4246
G01 X182.7156 Y260.3475
G01 X182.6489 Y260.2755
G01 X182.5769 Y260.2088
G01 X182.4998 Y260.1481
G01 X182.4182 Y260.0936
G01 X182.3326 Y260.0456
G01 X182.2434 Y260.0045
G01 X182.1513 Y259.9705
G01 X182.0569 Y259.9439
G01 X181.9606 Y259.9247
G01 X181.8631 Y259.9132
G01 X181.7651 Y259.9094
G01 X181.6670 Y259.9132
G01 X181.5695 Y259.9247
G01 X181.4733 Y259.9439
G01 X181.3788 Y259.9705
G01 X181.2867 Y260.0045
G01 X181.1976 Y260.0456
G01 X181.1120 Y260.0936
G01 X181.0303 Y260.1481
G01 X180.9533 Y260.2088
G01 X180.8812 Y260.2755
G01 X180.8146 Y260.3475
G01 X180.7538 Y260.4246
G01 X180.6993 Y260.5062
G01 X180.6513 Y260.5919
G01 X180.6102 Y260.6810
G01 X180.5763 Y260.7731
G01 X180.5496 Y260.8675
G01 X180.5305 Y260.9638
G01 X180.5189 Y261.0613
G01 X180.5151 Y261.1593
G01 X180.5189 Y261.2465
G01 X180.5303 Y261.3330
G01 X180.5492 Y261.4182
G01 X180.5754 Y261.5014
G01 X180.6088 Y261.5820
G01 X180.6491 Y261.6593
G01 X180.6959 Y261.7329
G01 X180.7490 Y261.8021
G01 X180.8080 Y261.8664
G01 X180.8723 Y261.9254
G01 X180.9415 Y261.9785
G01 X181.0151 Y262.0254
G01 X181.0925 Y262.0657
G01 X181.1731 Y262.0990
G01 X181.2563 Y262.1253
G01 X181.3414 Y262.1442
G01 X181.4279 Y262.1555
G01 X181.5151 Y262.1593
G01 X181.6022 Y262.1555
G01 X181.6887 Y262.1442
G01 X181.7739 Y262.1253
G01 X181.8571 Y262.0990
G01 X181.9377 Y262.0657
G01 X182.0151 Y262.0254
G01 X182.0887 Y261.9785
G01 X182.1579 Y261.9254
G01 X182.2222 Y261.8664
G01 X182.2811 Y261.8021
G01 X182.3342 Y261.7329
G01 X182.3811 Y261.6593
G01 X182.4214 Y261.5820
G01 X182.4548 Y261.5014
G01 X182.4810 Y261.4182
G01 X182.4999 Y261.3330
G01 X182.5113 Y261.2465
G01 X182.5151 Y261.1593
M107
M106 S240
G01 X182.5113 Y261.0722 Z-2.7726 F400
G01 X182.4999 Y260.9857 Z-2.7951
G01 X182.4810 Y260.9005 Z-2.8177
G01 X182.4548 Y260.8173 Z-2.8403
G01 X182.4214 Y260.7367 Z-2.8628
G01 X182.3811 Y260.6593 Z-2.8854
G01 X182.3342 Y260.5858 Z-2.9080
G01 X182.2811 Y260.5166 Z-2.9306
G01 X182.2222 Y260.4522 Z-2.9531
G01 X182.1579 Y260.3933 Z-2.9757
G01 X182.0887 Y260.3402 Z-2.9983
G01 X182.0151 Y260.2933 Z-3.0208
G01 X181.9377 Y260.2530 Z-3.0434
G01 X181.8571 Y260.2197 Z-3.0660
G01 X181.7739 Y260.1934 Z-3.0885
G01 X181.6887 Y260.1745 Z-3.1111
G01 X181.6022 Y260.1631 Z-3.1337
G01 X181.5151 Y260.1593 Z-3.1563
G01 X181.4279 Y260.1631 Z-3.1788
G01 X181.3414 Y260.1745 Z-3.2014
G01 X181.2563 Y260.1934 Z-3.2240
G01 X181.1731 Y260.2197 Z-3.2465
G01 X181.0925 Y260.2530 Z-3.2691
G01 X181.0151 Y260.2933 Z-3.2917
G01 X180.9744 Y260.3181 Z-3.3040
G01 X180.9350 Y260.3448 Z-3.3163
G01 X180.8969 Y260.3733 Z-3.3286
G01 X180.8602 Y260.4036 Z-3.3409
G01 X180.8250 Y260.4356 Z-3.3532
G01 X180.7914 Y260.4693 Z-3.3655
G01 X180.7593 Y260.5045 Z-3.3778
G01 X180.7290 Y260.5412 Z-3.3902
G01 X180.7005 Y260.5793 Z-3.4025
G01 X180.6738 Y260.6187 Z-3.4148
G01 X180.6491 Y260.6593 Z-3.4271
G01 X180.6262 Y260.7011 Z-3.4394
G01 X180.6055 Y260.7439 Z-3.4517
G01 X180.5867 Y260.7877 Z-3.4640
G01 X180.5701 Y260.8323 Z-3.4763
G01 X180.5556 Y260.8776 Z-3.4886
G01 X180.5433 Y260.9236 Z-3.5009
G01 X180.5332 Y260.9701 Z-3.5133
G01 X180.5253 Y261.0170 Z-3.5256
G01 X180.5196 Y261.0643 Z-3.5379
G01 X180.5162 Y261.1118 Z-3.5502
G01 X180.5151 Y261.1593 Z-3.5625
G01 X180.5162 Y261.2069 Z-3.5748
G01 X180.5196 Y261.2544 Z-3.5871
G01 X180.5253 Y261.3017 Z-3.5994
G01 X180.5332 Y261.3486 Z-3.6117
G01 X180.5433 Y261.3951 Z-3.6241
G01 X180.5556 Y261.4411 Z-3.6364
G01 X180.5701 Y261.4864 Z-3.6487
G01 X180.5867 Y261.5310 Z-3.6610
G01 X180.6055 Y261.5748 Z-3.6733
G01 X180.6262 Y261.6176 Z-3.6856
G01 X180.6491 Y261.6593 Z-3.6979
G01 X180.6738 Y261.7000 Z-3.7102
G01 X180.7005 Y261.7394 Z-3.7225
G01 X180.7290 Y261.7775 Z-3.7348
G01 X180.7593 Y261.8142 Z-3.7472
G01 X180.7914 Y261.8494 Z-3.7595
G01 X180.8250 Y261.8831 Z-3.7718
G01 X180.8602 Y261.9151 Z-3.7841
G01 X180.8969 Y261.9454 Z-3.7964
G01 X180.9350 Y261.9739 Z-3.8087
G01 X180.9744 Y262.0006 Z-3.8210
G01 X181.0151 Y262.0254 Z-3.8333
G01 X181.0569 Y262.0482 Z-3.8456
G01 X181.0997 Y262.0690 Z-3.8580
G01 X181.1434 Y262.0877 Z-3.8703
G01 X181.1880 Y262.1043 Z-3.8826
G01 X181.2334 Y262.1188 Z-3.8949
G01 X181.2793 Y262.1312 Z-3.9072
G01 X181.3258 Y262.1413 Z-3.9195
G01 X181.3728 Y262.1492 Z-3.9318
G01 X181.4200 Y262.1548 Z-3.9441
G01 X181.4675 Y262.1582 Z-3.9564
G01 X181.5151 Y262.1593 Z-3.9688
G01 X181.5627 Y262.1582 Z-3.9811
G01 X181.6101 Y262.1548 Z-3.9934
G01 X181.6574 Y262.1492 Z-4.0057
G01 X181.7043 Y262.1413 Z-4.0180
G01 X181.7508 Y262.1312 Z-4.0303
G01 X181.7968 Y262.1188 Z-4.0426
G01 X181.8422 Y262.1043 Z-4.0549
G01 X181.8867 Y262.0877 Z-4.0672
G01 X181.9305 Y262.0690 Z-4.0795
G01 X181.9733 Y262.0482 Z-4.0919
G01 X182.0151 Y262.0254 Z-4.1042
G01 X182.0557 Y262.0006 Z-4.1165
G01 X182.0951 Y261.9739 Z-4.1288
G01 X182.1332 Y261.9454 Z-4.1411
G01 X182.1699 Y261.9151 Z-4.1534
G01 X182.2052 Y261.8831 Z-4.1657
G01 X182.2388 Y261.8494 Z-4.1780
G01 X182.2708 Y261.8142 Z-4.1903
G01 X182.3011 Y261.7775 Z-4.2027
G01 X182.3297 Y261.7394 Z-4.2150
G01 X182.3563 Y261.7000 Z-4.2273
G01 X182.3811 Y261.6593 Z-4.2396
G01 X182.4039 Y261.6176 Z-4.2519
G01 X182.4247 Y261.5748 Z-4.2642
G01 X182.4435 Y261.5310 Z-4.2765
G01 X182.4601 Y261.4864 Z-4.2888
G01 X182.4746 Y261.4411 Z-4.3011
G01 X182.4869 Y261.3951 Z-4.3134
G01 X182.4970 Y261.3486 Z-4.3258
G01 X182.5049 Y261.3017 Z-4.3381
G01 X182.5106 Y261.2544 Z-4.3504
G01 X182.5140 Y261.2069 Z-4.3627
G01 X182.5151 Y261.1593 Z-4.3750
G01 X182.5113 Y261.0722
G01 X182.4999 Y260.9857
G01 X182.4810 Y260.9005
G01 X182.4548 Y260.8173
G01 X182.4214 Y260.7367
G01 X182.3811 Y260.6593
G01 X182.3342 Y260.5858
G01 X182.2811 Y260.5166
G01 X182.2222 Y260.4522
G01 X182.1579 Y260.3933
G01 X182.0887 Y260.3402
G01 X182.0151 Y260.2933
G01 X181.9377 Y260.2530
G01 X181.8571 Y260.2197
G01 X181.7739 Y260.1934
G01 X181.6887 Y260.1745
G01 X181.6022 Y260.1631
G01 X181.5151 Y260.1593
G01 X181.4279 Y260.1631
G01 X181.3414 Y260.1745
G01 X181.2563 Y260.1934
G01 X181.1731 Y260.2197
G01 X181.0925 Y260.2530
G01 X181.0151 Y260.2933
G01 X180.9744 Y260.3181
G01 X180.9350 Y260.3448
G01 X180.8969 Y260.3733
G01 X180.8602 Y260.4036
G01 X180.8250 Y260.4356
G01 X180.7914 Y260.4693
G01 X180.7593 Y260.5045
G01 X180.7290 Y260.5412
G01 X180.7005 Y260.5793
G01 X180.6738 Y260.6187
G01 X180.6491 Y260.6593
G01 X180.6262 Y260.7011
G01 X180.6055 Y260.7439
G01 X180.5867 Y260.7877
G01 X180.5701 Y260.8323
G01 X180.5556 Y260.8776
G01 X180.5433 Y260.9236
G01 X180.5332 Y260.9701
G01 X180.5253 Y261.0170
G01 X180.5196 Y261.0643
G01 X180.5162 Y261.1118
G01 X180.5151 Y261.1593
G01 X180.5162 Y261.2069
G01 X180.5196 Y261.2544
G01 X180.5253 Y261.3017
G01 X180.5332 Y261.3486
G01 X180.5433 Y261.3951
G01 X180.5556 Y261.4411
G01 X180.5701 Y261.4864
G01 X180.5867 Y261.5310
G01 X180.6055 Y261.5748
G01 X180.6262 Y261.6176
G01 X180.6491 Y261.6593
G01 X180.6738 Y261.7000
G01 X180.7005 Y261.7394
G01 X180.7290 Y261.7775
G01 X180.7593 Y261.8142
G01 X180.7914 Y261.8494
G01 X180.8250 Y261.8831
G01 X180.8602 Y261.9151
G01 X180.8969 Y261.9454
G01 X180.9350 Y261.9739
G01 X180.9744 Y262.0006
G01 X181.0151 Y262.0254
G01 X181.0569 Y262.0482
G01 X181.0997 Y262.0690
G01 X181.1434 Y262.0877
G01 X181.1880 Y262.1043
G01 X181.2334 Y262.1188
G01 X181.2793 Y262.1312
G01 X181.3258 Y262.1413
G01 X181.3728 Y262.1492
G01 X181.4200 Y262.1548
G01 X181.4675 Y262.1582
G01 X181.5151 Y262.1593
G01 X181.5627 Y262.1582
G01 X181.6101 Y262.1548
G01 X181.6574 Y262.1492
G01 X181.7043 Y262.1413
G01 X181.7508 Y262.1312
G01 X181.7968 Y262.1188
G01 X181.8422 Y262.1043
G01 X181.8867 Y262.0877
G01 X181.9305 Y262.0690
G01 X181.9733 Y262.0482
G01 X182.0151 Y262.0254
G01 X182.0557 Y262.0006
G01 X182.0951 Y261.9739
G01 X182.1332 Y261.9454
G01 X182.1699 Y261.9151
G01 X182.2052 Y261.8831
G01 X182.2388 Y261.8494
G01 X182.2708 Y261.8142
G01 X182.3011 Y261.7775
G01 X182.3297 Y261.7394
G01 X182.3563 Y261.7000
G01 X182.3811 Y261.6593
G01 X182.4039 Y261.6176
G01 X182.4247 Y261.5748
G01 X182.4435 Y261.5310
G01 X182.4601 Y261.4864
G01 X182.4746 Y261.4411
G01 X182.4869 Y261.3951
G01 X182.4970 Y261.3486
G01 X182.5049 Y261.3017
G01 X182.5106 Y261.2544
G01 X182.5140 Y261.2069
G01 X182.5151 Y261.1593
G01 X182.5258 Y261.1077 F1000
G01 X182.5339 Y261.0557
G01 X182.5393 Y261.0032
G01 X182.5420 Y260.9506
G01 X182.5419 Y260.8979
G01 X182.5392 Y260.8453
G01 X182.5337 Y260.7929
G01 X182.5256 Y260.7408
G01 X182.5139 Y260.6848
G01 X182.4993 Y260.6295
G01 X182.4819 Y260.5750
G01 X182.4618 Y260.5215
G01 X182.4389 Y260.4690
G01 X182.4134 Y260.4178
G01 X182.3854 Y260.3680
G01 X182.3548 Y260.3197
G01 X182.3192 Y260.2693
G01 X182.2810 Y260.2207
G01 X182.2405 Y260.1742
G01 X182.1976 Y260.1298
G01 X182.1526 Y260.0876
G01 X182.1054 Y260.0478
G01 X182.0563 Y260.0105
G01 X182.0054 Y259.9756
G01 X181.9489 Y259.9411
G01 X181.8907 Y259.9094
G01 X181.8310 Y259.8807
G01 X181.7700 Y259.8551
G01 X181.7077 Y259.8326
G01 X181.6443 Y259.8133
G01 X181.5801 Y259.7972
G01 X181.5151 Y259.7843
G01 X181.4451 Y259.7742
G01 X181.3746 Y259.7675
G01 X181.3039 Y259.7644
G01 X181.2331 Y259.7649
G01 X181.1625 Y259.7690
G01 X181.0921 Y259.7766
G01 X181.0223 Y259.7877
G01 X180.9530 Y259.8024
G01 X180.8848 Y259.8284
G01 X180.8180 Y259.8577
G01 X180.7527 Y259.8902
G01 X180.6891 Y259.9259
G01 X180.6273 Y259.9647
G01 X180.5675 Y260.0065
G01 X180.5098 Y260.0512
G01 X180.4544 Y260.0987
G01 X180.4037 Y260.1520
G01 X180.3556 Y260.2078
G01 X180.3103 Y260.2658
G01 X180.2679 Y260.3260
G01 X180.2285 Y260.3882
G01 X180.1922 Y260.4523
G01 X180.1591 Y260.5180
G01 X180.1293 Y260.5853
G01 X180.1028 Y260.6540
G01 X180.0797 Y260.7239
G01 X180.0601 Y260.7949
G01 X180.0439 Y260.8667
G01 X180.0313 Y260.9393
G01 X180.0223 Y261.0123
G01 X180.0169 Y261.0857
G01 X180.0151 Y261.1593
G01 X180.0169 Y261.2329
G01 X180.0223 Y261.3064
G01 X180.0313 Y261.3794
G01 X180.0439 Y261.4520
