;Project Celina97
;Created by Estlcam version 11 build 11,245
;Machining time about 00:14:23 hours

G90
M03 S10000
G00 Z5.0000


;No. 1: Helical drill 4
G00 X27.9000 Y27.0006
G00 Z0.5000
G01 X27.8990 Y26.9578 Z0.4861 F400 S10000
G01 X27.8959 Y26.9150 Z0.4722
G01 X27.8908 Y26.8725 Z0.4583
G01 X27.8837 Y26.8303 Z0.4444
G01 X27.8746 Y26.7884 Z0.4306
G01 X27.8635 Y26.7470 Z0.4167
G01 X27.8505 Y26.7062 Z0.4028
G01 X27.8355 Y26.6661 Z0.3889
G01 X27.8187 Y26.6267 Z0.3750
G01 X27.7999 Y26.5882 Z0.3611
G01 X27.7794 Y26.5506 Z0.3472
G01 X27.7571 Y26.5140 Z0.3333
G01 X27.7331 Y26.4785 Z0.3194
G01 X27.7074 Y26.4442 Z0.3056
G01 X27.6802 Y26.4112 Z0.2917
G01 X27.6513 Y26.3795 Z0.2778
G01 X27.6211 Y26.3492 Z0.2639
G01 X27.5894 Y26.3204 Z0.2500
G01 X27.5563 Y26.2931 Z0.2361
G01 X27.5220 Y26.2675 Z0.2222
G01 X27.4866 Y26.2435 Z0.2083
G01 X27.4500 Y26.2212 Z0.1944
G01 X27.4124 Y26.2006 Z0.1806
G01 X27.3739 Y26.1819 Z0.1667
G01 X27.3345 Y26.1651 Z0.1528
G01 X27.2943 Y26.1501 Z0.1389
G01 X27.2535 Y26.1370 Z0.1250
G01 X27.2122 Y26.1260 Z0.1111
G01 X27.1703 Y26.1169 Z0.0972
G01 X27.1281 Y26.1098 Z0.0833
G01 X27.0855 Y26.1047 Z0.0694
G01 X27.0428 Y26.1016 Z0.0556
G01 X27.0000 Y26.1006 Z0.0417
G01 X26.9572 Y26.1016 Z0.0278
G01 X26.9144 Y26.1047 Z0.0139
G01 X26.8719 Y26.1098 Z0.0000
G01 X26.8297 Y26.1169 Z-0.0139
G01 X26.7878 Y26.1260 Z-0.0278
G01 X26.7464 Y26.1370 Z-0.0417
G01 X26.7056 Y26.1501 Z-0.0556
G01 X26.6655 Y26.1651 Z-0.0694
G01 X26.6261 Y26.1819 Z-0.0833
G01 X26.5876 Y26.2006 Z-0.0972
G01 X26.5500 Y26.2212 Z-0.1111
G01 X26.5134 Y26.2435 Z-0.1250
G01 X26.4779 Y26.2675 Z-0.1389
G01 X26.4436 Y26.2931 Z-0.1528
G01 X26.4106 Y26.3204 Z-0.1667
G01 X26.3789 Y26.3492 Z-0.1806
G01 X26.3486 Y26.3795 Z-0.1944
G01 X26.3198 Y26.4112 Z-0.2083
G01 X26.2925 Y26.4442 Z-0.2222
G01 X26.2669 Y26.4785 Z-0.2361
G01 X26.2429 Y26.5140 Z-0.2500
G01 X26.2206 Y26.5506 Z-0.2639
G01 X26.2000 Y26.5882 Z-0.2778
G01 X26.1813 Y26.6267 Z-0.2917
G01 X26.1645 Y26.6661 Z-0.3056
G01 X26.1495 Y26.7062 Z-0.3194
G01 X26.1364 Y26.7470 Z-0.3333
G01 X26.1254 Y26.7884 Z-0.3472
G01 X26.1163 Y26.8303 Z-0.3611
G01 X26.1091 Y26.8725 Z-0.3750
G01 X26.1041 Y26.9150 Z-0.3889
G01 X26.1010 Y26.9578 Z-0.4028
G01 X26.1000 Y27.0006 Z-0.4167
G01 X26.1010 Y27.0434 Z-0.4306
G01 X26.1041 Y27.0861 Z-0.4444
G01 X26.1091 Y27.1287 Z-0.4583
G01 X26.1163 Y27.1709 Z-0.4722
G01 X26.1254 Y27.2128 Z-0.4861
G01 X26.1364 Y27.2542 Z-0.5000
G01 X26.1495 Y27.2950 Z-0.5139
G01 X26.1645 Y27.3351 Z-0.5278
G01 X26.1813 Y27.3745 Z-0.5417
G01 X26.2000 Y27.4130 Z-0.5556
G01 X26.2206 Y27.4506 Z-0.5694
G01 X26.2429 Y27.4872 Z-0.5833
G01 X26.2669 Y27.5226 Z-0.5972
G01 X26.2925 Y27.5569 Z-0.6111
G01 X26.3198 Y27.5900 Z-0.6250
G01 X26.3486 Y27.6217 Z-0.6389
G01 X26.3789 Y27.6520 Z-0.6528
G01 X26.4106 Y27.6808 Z-0.6667
G01 X26.4436 Y27.7080 Z-0.6806
G01 X26.4779 Y27.7337 Z-0.6944
G01 X26.5134 Y27.7577 Z-0.7083
G01 X26.5500 Y27.7800 Z-0.7222
G01 X26.5876 Y27.8005 Z-0.7361
G01 X26.6261 Y27.8193 Z-0.7500
G01 X26.6655 Y27.8361 Z-0.7639
G01 X26.7056 Y27.8511 Z-0.7778
G01 X26.7464 Y27.8641 Z-0.7917
G01 X26.7878 Y27.8752 Z-0.8056
G01 X26.8297 Y27.8843 Z-0.8194
G01 X26.8719 Y27.8914 Z-0.8333
G01 X26.9144 Y27.8965 Z-0.8472
G01 X26.9572 Y27.8996 Z-0.8611
G01 X27.0000 Y27.9006 Z-0.8750
G01 X27.0428 Y27.8996 Z-0.8889
G01 X27.0855 Y27.8965 Z-0.9028
G01 X27.1281 Y27.8914 Z-0.9167
G01 X27.1703 Y27.8843 Z-0.9306
G01 X27.2122 Y27.8752 Z-0.9444
G01 X27.2535 Y27.8641 Z-0.9583
G01 X27.2943 Y27.8511 Z-0.9722
G01 X27.3345 Y27.8361 Z-0.9861
G01 X27.3739 Y27.8193 Z-1.0000
G01 X27.4124 Y27.8005 Z-1.0139
G01 X27.4500 Y27.7800 Z-1.0278
G01 X27.4866 Y27.7577 Z-1.0417
G01 X27.5220 Y27.7337 Z-1.0556
G01 X27.5563 Y27.7080 Z-1.0694
G01 X27.5894 Y27.6808 Z-1.0833
G01 X27.6211 Y27.6520 Z-1.0972
G01 X27.6513 Y27.6217 Z-1.1111
G01 X27.6802 Y27.5900 Z-1.1250
G01 X27.7074 Y27.5569 Z-1.1389
G01 X27.7331 Y27.5226 Z-1.1528
G01 X27.7571 Y27.4872 Z-1.1667
G01 X27.7794 Y27.4506 Z-1.1806
G01 X27.7999 Y27.4130 Z-1.1944
G01 X27.8187 Y27.3745 Z-1.2083
G01 X27.8355 Y27.3351 Z-1.2222
G01 X27.8505 Y27.2950 Z-1.2361
G01 X27.8635 Y27.2542 Z-1.2500
G01 X27.8746 Y27.2128 Z-1.2639
G01 X27.8837 Y27.1709 Z-1.2778
G01 X27.8908 Y27.1287 Z-1.2917
G01 X27.8959 Y27.0861 Z-1.3056
G01 X27.8990 Y27.0434 Z-1.3194
G01 X27.9000 Y27.0006 Z-1.3333
G01 X27.8990 Y26.9578
G01 X27.8959 Y26.9150
G01 X27.8908 Y26.8725
G01 X27.8837 Y26.8303
G01 X27.8746 Y26.7884
G01 X27.8635 Y26.7470
G01 X27.8505 Y26.7062
G01 X27.8355 Y26.6661
G01 X27.8187 Y26.6267
G01 X27.7999 Y26.5882
G01 X27.7794 Y26.5506
G01 X27.7571 Y26.5140
G01 X27.7331 Y26.4785
G01 X27.7074 Y26.4442
G01 X27.6802 Y26.4112
G01 X27.6513 Y26.3795
G01 X27.6211 Y26.3492
G01 X27.5894 Y26.3204
G01 X27.5563 Y26.2931
G01 X27.5220 Y26.2675
G01 X27.4866 Y26.2435
G01 X27.4500 Y26.2212
G01 X27.4124 Y26.2006
G01 X27.3739 Y26.1819
G01 X27.3345 Y26.1651
G01 X27.2943 Y26.1501
G01 X27.2535 Y26.1370
G01 X27.2122 Y26.1260
G01 X27.1703 Y26.1169
G01 X27.1281 Y26.1098
G01 X27.0855 Y26.1047
G01 X27.0428 Y26.1016
G01 X27.0000 Y26.1006
G01 X26.9572 Y26.1016
G01 X26.9144 Y26.1047
G01 X26.8719 Y26.1098
G01 X26.8297 Y26.1169
G01 X26.7878 Y26.1260
G01 X26.7464 Y26.1370
G01 X26.7056 Y26.1501
G01 X26.6655 Y26.1651
G01 X26.6261 Y26.1819
G01 X26.5876 Y26.2006
G01 X26.5500 Y26.2212
G01 X26.5134 Y26.2435
G01 X26.4779 Y26.2675
G01 X26.4436 Y26.2931
G01 X26.4106 Y26.3204
G01 X26.3789 Y26.3492
G01 X26.3486 Y26.3795
G01 X26.3198 Y26.4112
G01 X26.2925 Y26.4442
G01 X26.2669 Y26.4785
G01 X26.2429 Y26.5140
G01 X26.2206 Y26.5506
G01 X26.2000 Y26.5882
G01 X26.1813 Y26.6267
G01 X26.1645 Y26.6661
G01 X26.1495 Y26.7062
G01 X26.1364 Y26.7470
G01 X26.1254 Y26.7884
G01 X26.1163 Y26.8303
G01 X26.1091 Y26.8725
G01 X26.1041 Y26.9150
G01 X26.1010 Y26.9578
G01 X26.1000 Y27.0006
G01 X26.1010 Y27.0434
G01 X26.1041 Y27.0861
G01 X26.1091 Y27.1287
G01 X26.1163 Y27.1709
G01 X26.1254 Y27.2128
G01 X26.1364 Y27.2542
G01 X26.1495 Y27.2950
G01 X26.1645 Y27.3351
G01 X26.1813 Y27.3745
G01 X26.2000 Y27.4130
G01 X26.2206 Y27.4506
G01 X26.2429 Y27.4872
G01 X26.2669 Y27.5226
G01 X26.2925 Y27.5569
G01 X26.3198 Y27.5900
G01 X26.3486 Y27.6217
G01 X26.3789 Y27.6520
G01 X26.4106 Y27.6808
G01 X26.4436 Y27.7080
G01 X26.4779 Y27.7337
G01 X26.5134 Y27.7577
G01 X26.5500 Y27.7800
G01 X26.5876 Y27.8005
G01 X26.6261 Y27.8193
G01 X26.6655 Y27.8361
G01 X26.7056 Y27.8511
G01 X26.7464 Y27.8641
G01 X26.7878 Y27.8752
G01 X26.8297 Y27.8843
G01 X26.8719 Y27.8914
G01 X26.9144 Y27.8965
G01 X26.9572 Y27.8996
G01 X27.0000 Y27.9006
G01 X27.0428 Y27.8996
G01 X27.0855 Y27.8965
G01 X27.1281 Y27.8914
G01 X27.1703 Y27.8843
G01 X27.2122 Y27.8752
G01 X27.2535 Y27.8641
G01 X27.2943 Y27.8511
G01 X27.3345 Y27.8361
G01 X27.3739 Y27.8193
G01 X27.4124 Y27.8005
G01 X27.4500 Y27.7800
G01 X27.4866 Y27.7577
G01 X27.5220 Y27.7337
G01 X27.5563 Y27.7080
G01 X27.5894 Y27.6808
G01 X27.6211 Y27.6520
G01 X27.6513 Y27.6217
G01 X27.6802 Y27.5900
G01 X27.7074 Y27.5569
G01 X27.7331 Y27.5226
G01 X27.7571 Y27.4872
G01 X27.7794 Y27.4506
G01 X27.7999 Y27.4130
G01 X27.8187 Y27.3745
G01 X27.8355 Y27.3351
G01 X27.8505 Y27.2950
G01 X27.8635 Y27.2542
G01 X27.8746 Y27.2128
G01 X27.8837 Y27.1709
G01 X27.8908 Y27.1287
G01 X27.8959 Y27.0861
G01 X27.8990 Y27.0434
G01 X27.9000 Y27.0006
G01 X27.9075 Y26.9695 F1000
G01 X27.9140 Y26.9382
G01 X27.9194 Y26.9067
G01 X27.9236 Y26.8751
G01 X27.9268 Y26.8433
G01 X27.9289 Y26.8114
G01 X27.9299 Y26.7795
G01 X27.9297 Y26.7475
G01 X27.9285 Y26.7156
G01 X27.9261 Y26.6837
G01 X27.9227 Y26.6519
G01 X27.9181 Y26.6203
G01 X27.9084 Y26.5688
G01 X27.8961 Y26.5179
G01 X27.8811 Y26.4676
G01 X27.8636 Y26.4182
G01 X27.8436 Y26.3698
G01 X27.8211 Y26.3225
G01 X27.7962 Y26.2764
G01 X27.7690 Y26.2316
G01 X27.7369 Y26.1846
G01 X27.7026 Y26.1393
G01 X27.6659 Y26.0957
G01 X27.6271 Y26.0542
G01 X27.5861 Y26.0146
G01 X27.5433 Y25.9772
G01 X27.4985 Y25.9421
G01 X27.4520 Y25.9093
G01 X27.4001 Y25.8764
G01 X27.3466 Y25.8463
G01 X27.2917 Y25.8189
G01 X27.2354 Y25.7944
G01 X27.1779 Y25.7727
G01 X27.1194 Y25.7540
G01 X27.0601 Y25.7383
G01 X27.0000 Y25.7256
G01 X26.9349 Y25.7153
G01 X26.8693 Y25.7082
G01 X26.8035 Y25.7046
G01 X26.7376 Y25.7042
G01 X26.6717 Y25.7072
G01 X26.6061 Y25.7135
G01 X26.5408 Y25.7231
G01 X26.4762 Y25.7360
G01 X26.4079 Y25.7533
G01 X26.3405 Y25.7740
G01 X26.2743 Y25.7980
G01 X26.2094 Y25.8254
G01 X26.1459 Y25.8560
G01 X26.0840 Y25.8898
G01 X26.0240 Y25.9266
G01 X25.9658 Y25.9664
G01 X25.9123 Y26.0159
G01 X25.8613 Y26.0679
G01 X25.8129 Y26.1223
G01 X25.7672 Y26.1791
G01 X25.7244 Y26.2381
G01 X25.6846 Y26.2991
G01 X25.6478 Y26.3619
G01 X25.6141 Y26.4266
G01 X25.5876 Y26.4952
G01 X25.5645 Y26.5652
G01 X25.5449 Y26.6361
G01 X25.5288 Y26.7079
G01 X25.5162 Y26.7805
G01 X25.5072 Y26.8536
G01 X25.5018 Y26.9270
G01 X25.4999 Y27.0006
G01 X25.5018 Y27.0742
G01 X25.5072 Y27.1476
G01 X25.5162 Y27.2207
G01 X25.5288 Y27.2932
G01 X25.5449 Y27.3651
G01 X25.5645 Y27.4360
G01 X25.5876 Y27.5059
G01 X25.6141 Y27.5746
G01 X25.6440 Y27.6419
G01 X25.6771 Y27.7077
G01 X25.7134 Y27.7718
G01 X25.7528 Y27.8340
G01 X25.7951 Y27.8942
G01 X25.8404 Y27.9522
G01 X25.8885 Y28.0080
G01 X25.9393 Y28.0613
G01 X25.9926 Y28.1120
G01 X26.0484 Y28.1601
G01 X26.1064 Y28.2054
G01 X26.1666 Y28.2478
G01 X26.2288 Y28.2872
G01 X26.2929 Y28.3235
G01 X26.3586 Y28.3566
G01 X26.4259 Y28.3864
G01 X26.4946 Y28.4129
G01 X26.5645 Y28.4360
G01 X26.6355 Y28.4557
G01 X26.7073 Y28.4718
G01 X26.7799 Y28.4844
G01 X26.8530 Y28.4934
G01 X26.9264 Y28.4988
G01 X27.0000 Y28.5006
G01 X27.0736 Y28.4988
G01 X27.1470 Y28.4934
G01 X27.2201 Y28.4844
G01 X27.2926 Y28.4718
G01 X27.3645 Y28.4557
G01 X27.4354 Y28.4360
G01 X27.5053 Y28.4129
G01 X27.5740 Y28.3864
G01 X27.6413 Y28.3566
G01 X27.7071 Y28.3235
G01 X27.7712 Y28.2872
G01 X27.8334 Y28.2478
G01 X27.8936 Y28.2054
G01 X27.9516 Y28.1601
G01 X28.0074 Y28.1120
G01 X28.0607 Y28.0613
G01 X28.1114 Y28.0080
G01 X28.1595 Y27.9522
G01 X28.2048 Y27.8942
G01 X28.2472 Y27.8340
G01 X28.2866 Y27.7718
G01 X28.3229 Y27.7077
G01 X28.3560 Y27.6419
G01 X28.3858 Y27.5746
G01 X28.4123 Y27.5059
G01 X28.4354 Y27.4360
G01 X28.4551 Y27.3651
G01 X28.4712 Y27.2932
G01 X28.4838 Y27.2207
G01 X28.4928 Y27.1476
G01 X28.4982 Y27.0742
G01 X28.5000 Y27.0006
G01 X28.4958 Y26.8885
G01 X28.4833 Y26.7770
G01 X28.4624 Y26.6668
G01 X28.4334 Y26.5584
G01 X28.3963 Y26.4526
G01 X28.3515 Y26.3497
G01 X28.2991 Y26.2506
G01 X28.2394 Y26.1556
G01 X28.1728 Y26.0653
G01 X28.0996 Y25.9803
G01 X28.0203 Y25.9010
G01 X27.9352 Y25.8278
G01 X27.8450 Y25.7612
G01 X27.7500 Y25.7015
G01 X27.6508 Y25.6491
G01 X27.5480 Y25.6042
G01 X27.4421 Y25.5672
G01 X27.3338 Y25.5382
G01 X27.2236 Y25.5173
G01 X27.1121 Y25.5047
G01 X27.0000 Y25.5006
G01 X26.8879 Y25.5047
G01 X26.7764 Y25.5173
G01 X26.6662 Y25.5382
G01 X26.5578 Y25.5672
G01 X26.4520 Y25.6042
G01 X26.3491 Y25.6491
G01 X26.2500 Y25.7015
G01 X26.1550 Y25.7612
G01 X26.0647 Y25.8278
G01 X25.9797 Y25.9010
G01 X25.9004 Y25.9803
G01 X25.8272 Y26.0653
G01 X25.7606 Y26.1556
G01 X25.7009 Y26.2506
G01 X25.6485 Y26.3497
G01 X25.6036 Y26.4526
G01 X25.5666 Y26.5584
G01 X25.5376 Y26.6668
G01 X25.5167 Y26.7770
G01 X25.5041 Y26.8885
G01 X25.4999 Y27.0006
G01 X25.5041 Y27.1127
G01 X25.5167 Y27.2242
G01 X25.5376 Y27.3344
G01 X25.5666 Y27.4427
G01 X25.6036 Y27.5486
G01 X25.6485 Y27.6514
G01 X25.7009 Y27.7506
G01 X25.7606 Y27.8456
G01 X25.8272 Y27.9359
G01 X25.9004 Y28.0209
G01 X25.9797 Y28.1002
G01 X26.0647 Y28.1734
G01 X26.1550 Y28.2400
G01 X26.2500 Y28.2997
G01 X26.3491 Y28.3521
G01 X26.4520 Y28.3969
G01 X26.5578 Y28.4340
G01 X26.6662 Y28.4630
G01 X26.7764 Y28.4839
G01 X26.8879 Y28.4964
G01 X27.0000 Y28.5006
G01 X27.1121 Y28.4964
G01 X27.2236 Y28.4839
G01 X27.3338 Y28.4630
G01 X27.4421 Y28.4340
G01 X27.5480 Y28.3969
G01 X27.6508 Y28.3521
G01 X27.7500 Y28.2997
G01 X27.8450 Y28.2400
G01 X27.9352 Y28.1734
G01 X28.0203 Y28.1002
G01 X28.0996 Y28.0209
G01 X28.1728 Y27.9359
G01 X28.2394 Y27.8456
G01 X28.2991 Y27.7506
G01 X28.3515 Y27.6514
G01 X28.3963 Y27.5486
G01 X28.4334 Y27.4427
G01 X28.4624 Y27.3344
G01 X28.4833 Y27.2242
G01 X28.4958 Y27.1127
G01 X28.5000 Y27.0006
G01 X28.4955 Y26.8960
G01 X28.4818 Y26.7922
G01 X28.4591 Y26.6900
G01 X28.4277 Y26.5902
G01 X28.3876 Y26.4934
G01 X28.3393 Y26.4006
G01 X28.2830 Y26.3123
G01 X28.2193 Y26.2292
G01 X28.1485 Y26.1521
G01 X28.0714 Y26.0813
G01 X27.9883 Y26.0176
G01 X27.9000 Y25.9613
G01 X27.8072 Y25.9130
G01 X27.7104 Y25.8729
G01 X27.6106 Y25.8415
G01 X27.5084 Y25.8188
G01 X27.4046 Y25.8051
G01 X27.3000 Y25.8006
G01 X27.1954 Y25.8051
G01 X27.0916 Y25.8188
G01 X26.9894 Y25.8415
G01 X26.8896 Y25.8729
G01 X26.7929 Y25.9130
G01 X26.7000 Y25.9613
G01 X26.6117 Y26.0176
G01 X26.5286 Y26.0813
G01 X26.4515 Y26.1521
G01 X26.3807 Y26.2292
G01 X26.3170 Y26.3123
G01 X26.2608 Y26.4006
G01 X26.2124 Y26.4934
G01 X26.1724 Y26.5902
G01 X26.1409 Y26.6900
G01 X26.1182 Y26.7922
G01 X26.1046 Y26.8960
G01 X26.1000 Y27.0006
G01 X26.1011 Y27.0448
G01 X26.1043 Y27.0888
G01 X26.1097 Y27.1326
G01 X26.1173 Y27.1762
G01 X26.1270 Y27.2193
G01 X26.1387 Y27.2618
G01 X26.1526 Y27.3038
G01 X26.1685 Y27.3450
G01 X26.1864 Y27.3854
G01 X26.2063 Y27.4248
G01 X26.2280 Y27.4633
G01 X26.2517 Y27.5006
G01 X26.2771 Y27.5367
G01 X26.3043 Y27.5715
G01 X26.3331 Y27.6050
G01 X26.3636 Y27.6370
G01 X26.3956 Y27.6674
G01 X26.4290 Y27.6963
G01 X26.4639 Y27.7235
G01 X26.5000 Y27.7489
G01 X26.5373 Y27.7725
G01 X26.5757 Y27.7943
G01 X26.6152 Y27.8142
G01 X26.6556 Y27.8321
G01 X26.6968 Y27.8480
G01 X26.7387 Y27.8618
G01 X26.7813 Y27.8736
G01 X26.8244 Y27.8833
G01 X26.8679 Y27.8909
G01 X26.9118 Y27.8963
G01 X26.9558 Y27.8995
G01 X27.0000 Y27.9006
G01 X27.0441 Y27.8995
G01 X27.0882 Y27.8963
G01 X27.1320 Y27.8909
G01 X27.1756 Y27.8833
G01 X27.2187 Y27.8736
G01 X27.2612 Y27.8618
G01 X27.3032 Y27.8480
G01 X27.3444 Y27.8321
G01 X27.3848 Y27.8142
G01 X27.4242 Y27.7943
G01 X27.4627 Y27.7725
G01 X27.5000 Y27.7489
G01 X27.5361 Y27.7235
G01 X27.5709 Y27.6963
G01 X27.6044 Y27.6674
G01 X27.6364 Y27.6370
G01 X27.6668 Y27.6050
G01 X27.6957 Y27.5715
G01 X27.7229 Y27.5367
G01 X27.7483 Y27.5006
G01 X27.7719 Y27.4633
G01 X27.7937 Y27.4248
G01 X27.8136 Y27.3854
G01 X27.8315 Y27.3450
G01 X27.8474 Y27.3038
G01 X27.8612 Y27.2618
G01 X27.8730 Y27.2193
G01 X27.8827 Y27.1762
G01 X27.8902 Y27.1326
G01 X27.8957 Y27.0888
G01 X27.8989 Y27.0448
G01 X27.9000 Y27.0006
G01 X27.8990 Y26.9578 Z-1.3472 F400
G01 X27.8959 Y26.9150 Z-1.3611
G01 X27.8908 Y26.8725 Z-1.3750
G01 X27.8837 Y26.8303 Z-1.3889
G01 X27.8746 Y26.7884 Z-1.4028
G01 X27.8635 Y26.7470 Z-1.4167
G01 X27.8505 Y26.7062 Z-1.4306
G01 X27.8355 Y26.6661 Z-1.4444
G01 X27.8187 Y26.6267 Z-1.4583
G01 X27.7999 Y26.5882 Z-1.4722
G01 X27.7794 Y26.5506 Z-1.4861
G01 X27.7571 Y26.5140 Z-1.5000
G01 X27.7331 Y26.4785 Z-1.5139
G01 X27.7074 Y26.4442 Z-1.5278
G01 X27.6802 Y26.4112 Z-1.5417
G01 X27.6513 Y26.3795 Z-1.5556
G01 X27.6211 Y26.3492 Z-1.5694
G01 X27.5894 Y26.3204 Z-1.5833
G01 X27.5563 Y26.2931 Z-1.5972
G01 X27.5220 Y26.2675 Z-1.6111
G01 X27.4866 Y26.2435 Z-1.6250
G01 X27.4500 Y26.2212 Z-1.6389
G01 X27.4124 Y26.2006 Z-1.6528
G01 X27.3739 Y26.1819 Z-1.6667
G01 X27.3345 Y26.1651 Z-1.6806
G01 X27.2943 Y26.1501 Z-1.6944
G01 X27.2535 Y26.1370 Z-1.7083
G01 X27.2122 Y26.1260 Z-1.7222
G01 X27.1703 Y26.1169 Z-1.7361
G01 X27.1281 Y26.1098 Z-1.7500
G01 X27.0855 Y26.1047 Z-1.7639
G01 X27.0428 Y26.1016 Z-1.7778
G01 X27.0000 Y26.1006 Z-1.7917
G01 X26.9572 Y26.1016 Z-1.8056
G01 X26.9144 Y26.1047 Z-1.8194
G01 X26.8719 Y26.1098 Z-1.8333
G01 X26.8297 Y26.1169 Z-1.8472
G01 X26.7878 Y26.1260 Z-1.8611
G01 X26.7464 Y26.1370 Z-1.8750
G01 X26.7056 Y26.1501 Z-1.8889
G01 X26.6655 Y26.1651 Z-1.9028
G01 X26.6261 Y26.1819 Z-1.9167
G01 X26.5876 Y26.2006 Z-1.9306
G01 X26.5500 Y26.2212 Z-1.9444
G01 X26.5134 Y26.2435 Z-1.9583
G01 X26.4779 Y26.2675 Z-1.9722
G01 X26.4436 Y26.2931 Z-1.9861
G01 X26.4106 Y26.3204 Z-2.0000
G01 X26.3789 Y26.3492 Z-2.0139
G01 X26.3486 Y26.3795 Z-2.0278
G01 X26.3198 Y26.4112 Z-2.0417
G01 X26.2925 Y26.4442 Z-2.0556
G01 X26.2669 Y26.4785 Z-2.0694
G01 X26.2429 Y26.5140 Z-2.0833
G01 X26.2206 Y26.5506 Z-2.0972
G01 X26.2000 Y26.5882 Z-2.1111
G01 X26.1813 Y26.6267 Z-2.1250
G01 X26.1645 Y26.6661 Z-2.1389
G01 X26.1495 Y26.7062 Z-2.1528
G01 X26.1364 Y26.7470 Z-2.1667
G01 X26.1254 Y26.7884 Z-2.1806
G01 X26.1163 Y26.8303 Z-2.1944
G01 X26.1091 Y26.8725 Z-2.2083
G01 X26.1041 Y26.9150 Z-2.2222
G01 X26.1010 Y26.9578 Z-2.2361
G01 X26.1000 Y27.0006 Z-2.2500
G01 X26.1010 Y27.0434 Z-2.2639
G01 X26.1041 Y27.0861 Z-2.2778
G01 X26.1091 Y27.1287 Z-2.2917
G01 X26.1163 Y27.1709 Z-2.3056
G01 X26.1254 Y27.2128 Z-2.3194
G01 X26.1364 Y27.2542 Z-2.3333
G01 X26.1495 Y27.2950 Z-2.3472
G01 X26.1645 Y27.3351 Z-2.3611
G01 X26.1813 Y27.3745 Z-2.3750
G01 X26.2000 Y27.4130 Z-2.3889
G01 X26.2206 Y27.4506 Z-2.4028
G01 X26.2429 Y27.4872 Z-2.4167
G01 X26.2669 Y27.5226 Z-2.4306
G01 X26.2925 Y27.5569 Z-2.4444
G01 X26.3198 Y27.5900 Z-2.4583
G01 X26.3486 Y27.6217 Z-2.4722
G01 X26.3789 Y27.6520 Z-2.4861
G01 X26.4106 Y27.6808 Z-2.5000
G01 X26.4436 Y27.7080 Z-2.5139
G01 X26.4779 Y27.7337 Z-2.5278
G01 X26.5134 Y27.7577 Z-2.5417
G01 X26.5500 Y27.7800 Z-2.5556
G01 X26.5876 Y27.8005 Z-2.5694
G01 X26.6261 Y27.8193 Z-2.5833
G01 X26.6655 Y27.8361 Z-2.5972
G01 X26.7056 Y27.8511 Z-2.6111
G01 X26.7464 Y27.8641 Z-2.6250
G01 X26.7878 Y27.8752 Z-2.6389
G01 X26.8297 Y27.8843 Z-2.6528
G01 X26.8719 Y27.8914 Z-2.6667
G01 X26.9144 Y27.8965 Z-2.6806
G01 X26.9572 Y27.8996 Z-2.6944
G01 X27.0000 Y27.9006 Z-2.7083
G01 X27.0428 Y27.8996 Z-2.7222
G01 X27.0855 Y27.8965 Z-2.7361
G01 X27.1281 Y27.8914 Z-2.7500
G01 X27.1703 Y27.8843 Z-2.7639
G01 X27.2122 Y27.8752 Z-2.7778
G01 X27.2535 Y27.8641 Z-2.7917
G01 X27.2943 Y27.8511 Z-2.8056
G01 X27.3345 Y27.8361 Z-2.8194
G01 X27.3739 Y27.8193 Z-2.8333
G01 X27.4124 Y27.8005 Z-2.8472
G01 X27.4500 Y27.7800 Z-2.8611
G01 X27.4866 Y27.7577 Z-2.8750
G01 X27.5220 Y27.7337 Z-2.8889
G01 X27.5563 Y27.7080 Z-2.9028
G01 X27.5894 Y27.6808 Z-2.9167
G01 X27.6211 Y27.6520 Z-2.9306
G01 X27.6513 Y27.6217 Z-2.9444
G01 X27.6802 Y27.5900 Z-2.9583
G01 X27.7074 Y27.5569 Z-2.9722
G01 X27.7331 Y27.5226 Z-2.9861
G01 X27.7571 Y27.4872 Z-3.0000
G01 X27.7794 Y27.4506 Z-3.0139
G01 X27.7999 Y27.4130 Z-3.0278
G01 X27.8187 Y27.3745 Z-3.0417
G01 X27.8355 Y27.3351 Z-3.0556
G01 X27.8505 Y27.2950 Z-3.0694
G01 X27.8635 Y27.2542 Z-3.0833
G01 X27.8746 Y27.2128 Z-3.0972
G01 X27.8837 Y27.1709 Z-3.1111
G01 X27.8908 Y27.1287 Z-3.1250
G01 X27.8959 Y27.0861 Z-3.1389
G01 X27.8990 Y27.0434 Z-3.1528
G01 X27.9000 Y27.0006 Z-3.1667
G01 X27.8990 Y26.9578
G01 X27.8959 Y26.9150
G01 X27.8908 Y26.8725
G01 X27.8837 Y26.8303
G01 X27.8746 Y26.7884
G01 X27.8635 Y26.7470
G01 X27.8505 Y26.7062
G01 X27.8355 Y26.6661
G01 X27.8187 Y26.6267
G01 X27.7999 Y26.5882
G01 X27.7794 Y26.5506
G01 X27.7571 Y26.5140
G01 X27.7331 Y26.4785
G01 X27.7074 Y26.4442
G01 X27.6802 Y26.4112
G01 X27.6513 Y26.3795
G01 X27.6211 Y26.3492
G01 X27.5894 Y26.3204
G01 X27.5563 Y26.2931
G01 X27.5220 Y26.2675
G01 X27.4866 Y26.2435
G01 X27.4500 Y26.2212
G01 X27.4124 Y26.2006
G01 X27.3739 Y26.1819
G01 X27.3345 Y26.1651
G01 X27.2943 Y26.1501
G01 X27.2535 Y26.1370
G01 X27.2122 Y26.1260
G01 X27.1703 Y26.1169
G01 X27.1281 Y26.1098
G01 X27.0855 Y26.1047
G01 X27.0428 Y26.1016
G01 X27.0000 Y26.1006
G01 X26.9572 Y26.1016
G01 X26.9144 Y26.1047
G01 X26.8719 Y26.1098
G01 X26.8297 Y26.1169
G01 X26.7878 Y26.1260
G01 X26.7464 Y26.1370
G01 X26.7056 Y26.1501
G01 X26.6655 Y26.1651
G01 X26.6261 Y26.1819
G01 X26.5876 Y26.2006
G01 X26.5500 Y26.2212
G01 X26.5134 Y26.2435
G01 X26.4779 Y26.2675
G01 X26.4436 Y26.2931
G01 X26.4106 Y26.3204
G01 X26.3789 Y26.3492
G01 X26.3486 Y26.3795
G01 X26.3198 Y26.4112
G01 X26.2925 Y26.4442
G01 X26.2669 Y26.4785
G01 X26.2429 Y26.5140
G01 X26.2206 Y26.5506
G01 X26.2000 Y26.5882
G01 X26.1813 Y26.6267
G01 X26.1645 Y26.6661
G01 X26.1495 Y26.7062
G01 X26.1364 Y26.7470
G01 X26.1254 Y26.7884
G01 X26.1163 Y26.8303
G01 X26.1091 Y26.8725
G01 X26.1041 Y26.9150
G01 X26.1010 Y26.9578
G01 X26.1000 Y27.0006
G01 X26.1010 Y27.0434
G01 X26.1041 Y27.0861
G01 X26.1091 Y27.1287
G01 X26.1163 Y27.1709
G01 X26.1254 Y27.2128
G01 X26.1364 Y27.2542
G01 X26.1495 Y27.2950
G01 X26.1645 Y27.3351
G01 X26.1813 Y27.3745
G01 X26.2000 Y27.4130
G01 X26.2206 Y27.4506
G01 X26.2429 Y27.4872
G01 X26.2669 Y27.5226
G01 X26.2925 Y27.5569
G01 X26.3198 Y27.5900
G01 X26.3486 Y27.6217
G01 X26.3789 Y27.6520
G01 X26.4106 Y27.6808
G01 X26.4436 Y27.7080
G01 X26.4779 Y27.7337
G01 X26.5134 Y27.7577
G01 X26.5500 Y27.7800
G01 X26.5876 Y27.8005
G01 X26.6261 Y27.8193
G01 X26.6655 Y27.8361
G01 X26.7056 Y27.8511
G01 X26.7464 Y27.8641
G01 X26.7878 Y27.8752
G01 X26.8297 Y27.8843
G01 X26.8719 Y27.8914
G01 X26.9144 Y27.8965
G01 X26.9572 Y27.8996
G01 X27.0000 Y27.9006
G01 X27.0428 Y27.8996
G01 X27.0855 Y27.8965
G01 X27.1281 Y27.8914
G01 X27.1703 Y27.8843
G01 X27.2122 Y27.8752
G01 X27.2535 Y27.8641
G01 X27.2943 Y27.8511
G01 X27.3345 Y27.8361
G01 X27.3739 Y27.8193
G01 X27.4124 Y27.8005
G01 X27.4500 Y27.7800
G01 X27.4866 Y27.7577
G01 X27.5220 Y27.7337
G01 X27.5563 Y27.7080
G01 X27.5894 Y27.6808
G01 X27.6211 Y27.6520
G01 X27.6513 Y27.6217
G01 X27.6802 Y27.5900
G01 X27.7074 Y27.5569
G01 X27.7331 Y27.5226
G01 X27.7571 Y27.4872
G01 X27.7794 Y27.4506
G01 X27.7999 Y27.4130
G01 X27.8187 Y27.3745
G01 X27.8355 Y27.3351
G01 X27.8505 Y27.2950
G01 X27.8635 Y27.2542
G01 X27.8746 Y27.2128
G01 X27.8837 Y27.1709
G01 X27.8908 Y27.1287
G01 X27.8959 Y27.0861
G01 X27.8990 Y27.0434
G01 X27.9000 Y27.0006
G01 X27.9075 Y26.9695 F1000
G01 X27.9140 Y26.9382
G01 X27.9194 Y26.9067
G01 X27.9236 Y26.8751
G01 X27.9268 Y26.8433
G01 X27.9289 Y26.8114
G01 X27.9299 Y26.7795
G01 X27.9297 Y26.7475
G01 X27.9285 Y26.7156
G01 X27.9261 Y26.6837
G01 X27.9227 Y26.6519
G01 X27.9181 Y26.6203
G01 X27.9084 Y26.5688
G01 X27.8961 Y26.5179
G01 X27.8811 Y26.4676
G01 X27.8636 Y26.4182
G01 X27.8436 Y26.3698
G01 X27.8211 Y26.3225
G01 X27.7962 Y26.2764
G01 X27.7690 Y26.2316
G01 X27.7369 Y26.1846
G01 X27.7026 Y26.1393
G01 X27.6659 Y26.0957
G01 X27.6271 Y26.0542
G01 X27.5861 Y26.0146
G01 X27.5433 Y25.9772
G01 X27.4985 Y25.9421
G01 X27.4520 Y25.9093
G01 X27.4001 Y25.8764
G01 X27.3466 Y25.8463
G01 X27.2917 Y25.8189
G01 X27.2354 Y25.7944
G01 X27.1779 Y25.7727
G01 X27.1194 Y25.7540
G01 X27.0601 Y25.7383
G01 X27.0000 Y25.7256
G01 X26.9349 Y25.7153
G01 X26.8693 Y25.7082
G01 X26.8035 Y25.7046
G01 X26.7376 Y25.7042
G01 X26.6717 Y25.7072
G01 X26.6061 Y25.7135
G01 X26.5408 Y25.7231
G01 X26.4762 Y25.7360
G01 X26.4079 Y25.7533
G01 X26.3405 Y25.7740
G01 X26.2743 Y25.7980
G01 X26.2094 Y25.8254
G01 X26.1459 Y25.8560
G01 X26.0840 Y25.8898
G01 X26.0240 Y25.9266
G01 X25.9658 Y25.9664
G01 X25.9123 Y26.0159
G01 X25.8613 Y26.0679
G01 X25.8129 Y26.1223
G01 X25.7672 Y26.1791
G01 X25.7244 Y26.2381
G01 X25.6846 Y26.2991
G01 X25.6478 Y26.3619
G01 X25.6141 Y26.4266
G01 X25.5876 Y26.4952
G01 X25.5645 Y26.5652
G01 X25.5449 Y26.6361
G01 X25.5288 Y26.7079
G01 X25.5162 Y26.7805
G01 X25.5072 Y26.8536
G01 X25.5018 Y26.9270
G01 X25.4999 Y27.0006
G01 X25.5018 Y27.0742
G01 X25.5072 Y27.1476
G01 X25.5162 Y27.2207
G01 X25.5288 Y27.2932
G01 X25.5449 Y27.3651
G01 X25.5645 Y27.4360
G01 X25.5876 Y27.5059
G01 X25.6141 Y27.5746
G01 X25.6440 Y27.6419
G01 X25.6771 Y27.7077
G01 X25.7134 Y27.7718
G01 X25.7528 Y27.8340
G01 X25.7951 Y27.8942
G01 X25.8404 Y27.9522
G01 X25.8885 Y28.0080
G01 X25.9393 Y28.0613
G01 X25.9926 Y28.1120
G01 X26.0484 Y28.1601
G01 X26.1064 Y28.2054
G01 X26.1666 Y28.2478
G01 X26.2288 Y28.2872
G01 X26.2929 Y28.3235
G01 X26.3586 Y28.3566
G01 X26.4259 Y28.3864
G01 X26.4946 Y28.4129
G01 X26.5645 Y28.4360
G01 X26.6355 Y28.4557
G01 X26.7073 Y28.4718
G01 X26.7799 Y28.4844
G01 X26.8530 Y28.4934
G01 X26.9264 Y28.4988
G01 X27.0000 Y28.5006
G01 X27.0736 Y28.4988
G01 X27.1470 Y28.4934
G01 X27.2201 Y28.4844
G01 X27.2926 Y28.4718
G01 X27.3645 Y28.4557
G01 X27.4354 Y28.4360
G01 X27.5053 Y28.4129
G01 X27.5740 Y28.3864
G01 X27.6413 Y28.3566
G01 X27.7071 Y28.3235
G01 X27.7712 Y28.2872
G01 X27.8334 Y28.2478
G01 X27.8936 Y28.2054
G01 X27.9516 Y28.1601
G01 X28.0074 Y28.1120
G01 X28.0607 Y28.0613
G01 X28.1114 Y28.0080
G01 X28.1595 Y27.9522
G01 X28.2048 Y27.8942
G01 X28.2472 Y27.8340
G01 X28.2866 Y27.7718
G01 X28.3229 Y27.7077
G01 X28.3560 Y27.6419
G01 X28.3858 Y27.5746
G01 X28.4123 Y27.5059
G01 X28.4354 Y27.4360
G01 X28.4551 Y27.3651
G01 X28.4712 Y27.2932
G01 X28.4838 Y27.2207
G01 X28.4928 Y27.1476
G01 X28.4982 Y27.0742
G01 X28.5000 Y27.0006
G01 X28.4958 Y26.8885
G01 X28.4833 Y26.7770
G01 X28.4624 Y26.6668
G01 X28.4334 Y26.5584
G01 X28.3963 Y26.4526
G01 X28.3515 Y26.3497
G01 X28.2991 Y26.2506
G01 X28.2394 Y26.1556
G01 X28.1728 Y26.0653
G01 X28.0996 Y25.9803
G01 X28.0203 Y25.9010
G01 X27.9352 Y25.8278
G01 X27.8450 Y25.7612
G01 X27.7500 Y25.7015
G01 X27.6508 Y25.6491
G01 X27.5480 Y25.6042
G01 X27.4421 Y25.5672
G01 X27.3338 Y25.5382
G01 X27.2236 Y25.5173
G01 X27.1121 Y25.5047
G01 X27.0000 Y25.5006
G01 X26.8879 Y25.5047
G01 X26.7764 Y25.5173
G01 X26.6662 Y25.5382
G01 X26.5578 Y25.5672
G01 X26.4520 Y25.6042
G01 X26.3491 Y25.6491
G01 X26.2500 Y25.7015
G01 X26.1550 Y25.7612
G01 X26.0647 Y25.8278
G01 X25.9797 Y25.9010
G01 X25.9004 Y25.9803
G01 X25.8272 Y26.0653
G01 X25.7606 Y26.1556
G01 X25.7009 Y26.2506
G01 X25.6485 Y26.3497
G01 X25.6036 Y26.4526
G01 X25.5666 Y26.5584
G01 X25.5376 Y26.6668
G01 X25.5167 Y26.7770
G01 X25.5041 Y26.8885
G01 X25.4999 Y27.0006
G01 X25.5041 Y27.1127
G01 X25.5167 Y27.2242
G01 X25.5376 Y27.3344
G01 X25.5666 Y27.4427
G01 X25.6036 Y27.5486
G01 X25.6485 Y27.6514
G01 X25.7009 Y27.7506
G01 X25.7606 Y27.8456
G01 X25.8272 Y27.9359
G01 X25.9004 Y28.0209
G01 X25.9797 Y28.1002
G01 X26.0647 Y28.1734
G01 X26.1550 Y28.2400
G01 X26.2500 Y28.2997
G01 X26.3491 Y28.3521
G01 X26.4520 Y28.3969
G01 X26.5578 Y28.4340
G01 X26.6662 Y28.4630
G01 X26.7764 Y28.4839
G01 X26.8879 Y28.4964
G01 X27.0000 Y28.5006
G01 X27.1121 Y28.4964
G01 X27.2236 Y28.4839
G01 X27.3338 Y28.4630
G01 X27.4421 Y28.4340
G01 X27.5480 Y28.3969
G01 X27.6508 Y28.3521
G01 X27.7500 Y28.2997
G01 X27.8450 Y28.2400
G01 X27.9352 Y28.1734
G01 X28.0203 Y28.1002
G01 X28.0996 Y28.0209
G01 X28.1728 Y27.9359
G01 X28.2394 Y27.8456
G01 X28.2991 Y27.7506
G01 X28.3515 Y27.6514
G01 X28.3963 Y27.5486
G01 X28.4334 Y27.4427
G01 X28.4624 Y27.3344
G01 X28.4833 Y27.2242
G01 X28.4958 Y27.1127
G01 X28.5000 Y27.0006
G01 X28.4955 Y26.8960
G01 X28.4818 Y26.7922
G01 X28.4591 Y26.6900
G01 X28.4277 Y26.5902
G01 X28.3876 Y26.4934
G01 X28.3393 Y26.4006
G01 X28.2830 Y26.3123
G01 X28.2193 Y26.2292
G01 X28.1485 Y26.1521
G01 X28.0714 Y26.0813
G01 X27.9883 Y26.0176
G01 X27.9000 Y25.9613
G01 X27.8072 Y25.9130
G01 X27.7104 Y25.8729
G01 X27.6106 Y25.8415
G01 X27.5084 Y25.8188
G01 X27.4046 Y25.8051
G01 X27.3000 Y25.8006
G01 X27.1954 Y25.8051
G01 X27.0916 Y25.8188
G01 X26.9894 Y25.8415
G01 X26.8896 Y25.8729
G01 X26.7929 Y25.9130
G01 X26.7000 Y25.9613
G01 X26.6117 Y26.0176
G01 X26.5286 Y26.0813
G01 X26.4515 Y26.1521
G01 X26.3807 Y26.2292
G01 X26.3170 Y26.3123
G01 X26.2608 Y26.4006
G01 X26.2124 Y26.4934
G01 X26.1724 Y26.5902
G01 X26.1409 Y26.6900
G01 X26.1182 Y26.7922
G01 X26.1046 Y26.8960
G01 X26.1000 Y27.0006
G01 X26.1011 Y27.0448
G01 X26.1043 Y27.0888
G01 X26.1097 Y27.1326
G01 X26.1173 Y27.1762
G01 X26.1270 Y27.2193
G01 X26.1387 Y27.2618
G01 X26.1526 Y27.3038
G01 X26.1685 Y27.3450
G01 X26.1864 Y27.3854
G01 X26.2063 Y27.4248
G01 X26.2280 Y27.4633
G01 X26.2517 Y27.5006
G01 X26.2771 Y27.5367
G01 X26.3043 Y27.5715
G01 X26.3331 Y27.6050
G01 X26.3636 Y27.6370
G01 X26.3956 Y27.6674
G01 X26.4290 Y27.6963
G01 X26.4639 Y27.7235
G01 X26.5000 Y27.7489
G01 X26.5373 Y27.7725
G01 X26.5757 Y27.7943
G01 X26.6152 Y27.8142
G01 X26.6556 Y27.8321
G01 X26.6968 Y27.8480
G01 X26.7387 Y27.8618
G01 X26.7813 Y27.8736
G01 X26.8244 Y27.8833
G01 X26.8679 Y27.8909
G01 X26.9118 Y27.8963
G01 X26.9558 Y27.8995
G01 X27.0000 Y27.9006
G01 X27.0441 Y27.8995
G01 X27.0882 Y27.8963
G01 X27.1320 Y27.8909
G01 X27.1756 Y27.8833
G01 X27.2187 Y27.8736
G01 X27.2612 Y27.8618
G01 X27.3032 Y27.8480
G01 X27.3444 Y27.8321
G01 X27.3848 Y27.8142
G01 X27.4242 Y27.7943
G01 X27.4627 Y27.7725
G01 X27.5000 Y27.7489
G01 X27.5361 Y27.7235
G01 X27.5709 Y27.6963
G01 X27.6044 Y27.6674
G01 X27.6364 Y27.6370
G01 X27.6668 Y27.6050
G01 X27.6957 Y27.5715
G01 X27.7229 Y27.5367
G01 X27.7483 Y27.5006
G01 X27.7719 Y27.4633
G01 X27.7937 Y27.4248
G01 X27.8136 Y27.3854
G01 X27.8315 Y27.3450
G01 X27.8474 Y27.3038
G01 X27.8612 Y27.2618
G01 X27.8730 Y27.2193
G01 X27.8827 Y27.1762
G01 X27.8902 Y27.1326
G01 X27.8957 Y27.0888
G01 X27.8989 Y27.0448
G01 X27.9000 Y27.0006
G01 X27.8990 Y26.9578 Z-3.1806 F400
G01 X27.8959 Y26.9150 Z-3.1944
G01 X27.8908 Y26.8725 Z-3.2083
G01 X27.8837 Y26.8303 Z-3.2222
G01 X27.8746 Y26.7884 Z-3.2361
G01 X27.8635 Y26.7470 Z-3.2500
G01 X27.8505 Y26.7062 Z-3.2639
G01 X27.8355 Y26.6661 Z-3.2778
G01 X27.8187 Y26.6267 Z-3.2917
G01 X27.7999 Y26.5882 Z-3.3056
G01 X27.7794 Y26.5506 Z-3.3194
G01 X27.7571 Y26.5140 Z-3.3333
G01 X27.7331 Y26.4785 Z-3.3472
G01 X27.7074 Y26.4442 Z-3.3611
G01 X27.6802 Y26.4112 Z-3.3750
G01 X27.6513 Y26.3795 Z-3.3889
G01 X27.6211 Y26.3492 Z-3.4028
G01 X27.5894 Y26.3204 Z-3.4167
G01 X27.5563 Y26.2931 Z-3.4306
G01 X27.5220 Y26.2675 Z-3.4444
G01 X27.4866 Y26.2435 Z-3.4583
G01 X27.4500 Y26.2212 Z-3.4722
G01 X27.4124 Y26.2006 Z-3.4861
G01 X27.3739 Y26.1819 Z-3.5000
G01 X27.3345 Y26.1651 Z-3.5139
G01 X27.2943 Y26.1501 Z-3.5278
G01 X27.2535 Y26.1370 Z-3.5417
G01 X27.2122 Y26.1260 Z-3.5556
G01 X27.1703 Y26.1169 Z-3.5694
G01 X27.1281 Y26.1098 Z-3.5833
G01 X27.0855 Y26.1047 Z-3.5972
G01 X27.0428 Y26.1016 Z-3.6111
G01 X27.0000 Y26.1006 Z-3.6250
G01 X26.9572 Y26.1016 Z-3.6389
G01 X26.9144 Y26.1047 Z-3.6528
G01 X26.8719 Y26.1098 Z-3.6667
G01 X26.8297 Y26.1169 Z-3.6806
G01 X26.7878 Y26.1260 Z-3.6944
G01 X26.7464 Y26.1370 Z-3.7083
G01 X26.7056 Y26.1501 Z-3.7222
G01 X26.6655 Y26.1651 Z-3.7361
G01 X26.6261 Y26.1819 Z-3.7500
G01 X26.5876 Y26.2006 Z-3.7639
G01 X26.5500 Y26.2212 Z-3.7778
G01 X26.5134 Y26.2435 Z-3.7917
G01 X26.4779 Y26.2675 Z-3.8056
G01 X26.4436 Y26.2931 Z-3.8194
G01 X26.4106 Y26.3204 Z-3.8333
G01 X26.3789 Y26.3492 Z-3.8472
G01 X26.3486 Y26.3795 Z-3.8611
G01 X26.3198 Y26.4112 Z-3.8750
G01 X26.2925 Y26.4442 Z-3.8889
G01 X26.2669 Y26.4785 Z-3.9028
G01 X26.2429 Y26.5140 Z-3.9167
G01 X26.2206 Y26.5506 Z-3.9306
G01 X26.2000 Y26.5882 Z-3.9444
G01 X26.1813 Y26.6267 Z-3.9583
G01 X26.1645 Y26.6661 Z-3.9722
G01 X26.1495 Y26.7062 Z-3.9861
G01 X26.1364 Y26.7470 Z-4.0000
G01 X26.1254 Y26.7884 Z-4.0139
G01 X26.1163 Y26.8303 Z-4.0278
G01 X26.1091 Y26.8725 Z-4.0417
G01 X26.1041 Y26.9150 Z-4.0556
G01 X26.1010 Y26.9578 Z-4.0694
G01 X26.1000 Y27.0006 Z-4.0833
G01 X26.1010 Y27.0434 Z-4.0972
G01 X26.1041 Y27.0861 Z-4.1111
G01 X26.1091 Y27.1287 Z-4.1250
G01 X26.1163 Y27.1709 Z-4.1389
G01 X26.1254 Y27.2128 Z-4.1528
G01 X26.1364 Y27.2542 Z-4.1667
G01 X26.1495 Y27.2950 Z-4.1806
G01 X26.1645 Y27.3351 Z-4.1944
G01 X26.1813 Y27.3745 Z-4.2083
G01 X26.2000 Y27.4130 Z-4.2222
G01 X26.2206 Y27.4506 Z-4.2361
G01 X26.2429 Y27.4872 Z-4.2500
G01 X26.2669 Y27.5226 Z-4.2639
G01 X26.2925 Y27.5569 Z-4.2778
G01 X26.3198 Y27.5900 Z-4.2917
G01 X26.3486 Y27.6217 Z-4.3056
G01 X26.3789 Y27.6520 Z-4.3194
G01 X26.4106 Y27.6808 Z-4.3333
G01 X26.4436 Y27.7080 Z-4.3472
G01 X26.4779 Y27.7337 Z-4.3611
G01 X26.5134 Y27.7577 Z-4.3750
G01 X26.5500 Y27.7800 Z-4.3889
G01 X26.5876 Y27.8005 Z-4.4028
G01 X26.6261 Y27.8193 Z-4.4167
G01 X26.6655 Y27.8361 Z-4.4306
G01 X26.7056 Y27.8511 Z-4.4444
G01 X26.7464 Y27.8641 Z-4.4583
G01 X26.7878 Y27.8752 Z-4.4722
G01 X26.8297 Y27.8843 Z-4.4861
G01 X26.8719 Y27.8914 Z-4.5000
G01 X26.9144 Y27.8965 Z-4.5139
G01 X26.9572 Y27.8996 Z-4.5278
G01 X27.0000 Y27.9006 Z-4.5417
G01 X27.0428 Y27.8996 Z-4.5556
G01 X27.0855 Y27.8965 Z-4.5694
G01 X27.1281 Y27.8914 Z-4.5833
G01 X27.1703 Y27.8843 Z-4.5972
G01 X27.2122 Y27.8752 Z-4.6111
G01 X27.2535 Y27.8641 Z-4.6250
G01 X27.2943 Y27.8511 Z-4.6389
G01 X27.3345 Y27.8361 Z-4.6528
G01 X27.3739 Y27.8193 Z-4.6667
G01 X27.4124 Y27.8005 Z-4.6806
G01 X27.4500 Y27.7800 Z-4.6944
G01 X27.4866 Y27.7577 Z-4.7083
G01 X27.5220 Y27.7337 Z-4.7222
G01 X27.5563 Y27.7080 Z-4.7361
G01 X27.5894 Y27.6808 Z-4.7500
G01 X27.6211 Y27.6520 Z-4.7639
G01 X27.6513 Y27.6217 Z-4.7778
G01 X27.6802 Y27.5900 Z-4.7917
G01 X27.7074 Y27.5569 Z-4.8056
G01 X27.7331 Y27.5226 Z-4.8194
G01 X27.7571 Y27.4872 Z-4.8333
G01 X27.7794 Y27.4506 Z-4.8472
G01 X27.7999 Y27.4130 Z-4.8611
G01 X27.8187 Y27.3745 Z-4.8750
G01 X27.8355 Y27.3351 Z-4.8889
G01 X27.8505 Y27.2950 Z-4.9028
G01 X27.8635 Y27.2542 Z-4.9167
G01 X27.8746 Y27.2128 Z-4.9306
G01 X27.8837 Y27.1709 Z-4.9444
G01 X27.8908 Y27.1287 Z-4.9583
G01 X27.8959 Y27.0861 Z-4.9722
G01 X27.8990 Y27.0434 Z-4.9861
G01 X27.9000 Y27.0006 Z-5.0000
G01 X27.8990 Y26.9578
G01 X27.8959 Y26.9150
G01 X27.8908 Y26.8725
G01 X27.8837 Y26.8303
G01 X27.8746 Y26.7884
G01 X27.8635 Y26.7470
G01 X27.8505 Y26.7062
G01 X27.8355 Y26.6661
G01 X27.8187 Y26.6267
G01 X27.7999 Y26.5882
G01 X27.7794 Y26.5506
G01 X27.7571 Y26.5140
G01 X27.7331 Y26.4785
G01 X27.7074 Y26.4442
G01 X27.6802 Y26.4112
G01 X27.6513 Y26.3795
G01 X27.6211 Y26.3492
G01 X27.5894 Y26.3204
G01 X27.5563 Y26.2931
G01 X27.5220 Y26.2675
G01 X27.4866 Y26.2435
G01 X27.4500 Y26.2212
G01 X27.4124 Y26.2006
G01 X27.3739 Y26.1819
G01 X27.3345 Y26.1651
G01 X27.2943 Y26.1501
G01 X27.2535 Y26.1370
G01 X27.2122 Y26.1260
G01 X27.1703 Y26.1169
G01 X27.1281 Y26.1098
G01 X27.0855 Y26.1047
G01 X27.0428 Y26.1016
G01 X27.0000 Y26.1006
G01 X26.9572 Y26.1016
G01 X26.9144 Y26.1047
G01 X26.8719 Y26.1098
G01 X26.8297 Y26.1169
G01 X26.7878 Y26.1260
G01 X26.7464 Y26.1370
G01 X26.7056 Y26.1501
G01 X26.6655 Y26.1651
G01 X26.6261 Y26.1819
G01 X26.5876 Y26.2006
G01 X26.5500 Y26.2212
G01 X26.5134 Y26.2435
G01 X26.4779 Y26.2675
G01 X26.4436 Y26.2931
G01 X26.4106 Y26.3204
G01 X26.3789 Y26.3492
G01 X26.3486 Y26.3795
G01 X26.3198 Y26.4112
G01 X26.2925 Y26.4442
G01 X26.2669 Y26.4785
G01 X26.2429 Y26.5140
G01 X26.2206 Y26.5506
G01 X26.2000 Y26.5882
G01 X26.1813 Y26.6267
G01 X26.1645 Y26.6661
G01 X26.1495 Y26.7062
G01 X26.1364 Y26.7470
G01 X26.1254 Y26.7884
G01 X26.1163 Y26.8303
G01 X26.1091 Y26.8725
G01 X26.1041 Y26.9150
G01 X26.1010 Y26.9578
G01 X26.1000 Y27.0006
G01 X26.1010 Y27.0434
G01 X26.1041 Y27.0861
G01 X26.1091 Y27.1287
G01 X26.1163 Y27.1709
G01 X26.1254 Y27.2128
G01 X26.1364 Y27.2542
G01 X26.1495 Y27.2950
G01 X26.1645 Y27.3351
G01 X26.1813 Y27.3745
G01 X26.2000 Y27.4130
G01 X26.2206 Y27.4506
G01 X26.2429 Y27.4872
G01 X26.2669 Y27.5226
G01 X26.2925 Y27.5569
G01 X26.3198 Y27.5900
G01 X26.3486 Y27.6217
G01 X26.3789 Y27.6520
G01 X26.4106 Y27.6808
G01 X26.4436 Y27.7080
G01 X26.4779 Y27.7337
G01 X26.5134 Y27.7577
G01 X26.5500 Y27.7800
G01 X26.5876 Y27.8005
G01 X26.6261 Y27.8193
G01 X26.6655 Y27.8361
G01 X26.7056 Y27.8511
G01 X26.7464 Y27.8641
G01 X26.7878 Y27.8752
G01 X26.8297 Y27.8843
G01 X26.8719 Y27.8914
G01 X26.9144 Y27.8965
G01 X26.9572 Y27.8996
G01 X27.0000 Y27.9006
G01 X27.0428 Y27.8996
G01 X27.0855 Y27.8965
G01 X27.1281 Y27.8914
G01 X27.1703 Y27.8843
G01 X27.2122 Y27.8752
G01 X27.2535 Y27.8641
G01 X27.2943 Y27.8511
G01 X27.3345 Y27.8361
G01 X27.3739 Y27.8193
G01 X27.4124 Y27.8005
G01 X27.4500 Y27.7800
G01 X27.4866 Y27.7577
G01 X27.5220 Y27.7337
G01 X27.5563 Y27.7080
G01 X27.5894 Y27.6808
G01 X27.6211 Y27.6520
G01 X27.6513 Y27.6217
G01 X27.6802 Y27.5900
G01 X27.7074 Y27.5569
G01 X27.7331 Y27.5226
G01 X27.7571 Y27.4872
G01 X27.7794 Y27.4506
G01 X27.7999 Y27.4130
G01 X27.8187 Y27.3745
G01 X27.8355 Y27.3351
G01 X27.8505 Y27.2950
G01 X27.8635 Y27.2542
G01 X27.8746 Y27.2128
G01 X27.8837 Y27.1709
G01 X27.8908 Y27.1287
G01 X27.8959 Y27.0861
G01 X27.8990 Y27.0434
G01 X27.9000 Y27.0006
G01 X27.9075 Y26.9695 F1000
G01 X27.9140 Y26.9382
G01 X27.9194 Y26.9067
G01 X27.9236 Y26.8751
G01 X27.9268 Y26.8433
G01 X27.9289 Y26.8114
G01 X27.9299 Y26.7795
G01 X27.9297 Y26.7475
G01 X27.9285 Y26.7156
G01 X27.9261 Y26.6837
G01 X27.9227 Y26.6519
G01 X27.9181 Y26.6203
G01 X27.9084 Y26.5688
G01 X27.8961 Y26.5179
G01 X27.8811 Y26.4676
G01 X27.8636 Y26.4182
G01 X27.8436 Y26.3698
G01 X27.8211 Y26.3225
G01 X27.7962 Y26.2764
G01 X27.7690 Y26.2316
G01 X27.7369 Y26.1846
G01 X27.7026 Y26.1393
G01 X27.6659 Y26.0957
G01 X27.6271 Y26.0542
G01 X27.5861 Y26.0146
G01 X27.5433 Y25.9772
G01 X27.4985 Y25.9421
G01 X27.4520 Y25.9093
G01 X27.4001 Y25.8764
G01 X27.3466 Y25.8463
G01 X27.2917 Y25.8189
G01 X27.2354 Y25.7944
G01 X27.1779 Y25.7727
G01 X27.1194 Y25.7540
G01 X27.0601 Y25.7383
G01 X27.0000 Y25.7256
G01 X26.9349 Y25.7153
G01 X26.8693 Y25.7082
G01 X26.8035 Y25.7046
G01 X26.7376 Y25.7042
G01 X26.6717 Y25.7072
G01 X26.6061 Y25.7135
G01 X26.5408 Y25.7231
G01 X26.4762 Y25.7360
G01 X26.4079 Y25.7533
G01 X26.3405 Y25.7740
G01 X26.2743 Y25.7980
G01 X26.2094 Y25.8254
G01 X26.1459 Y25.8560
G01 X26.0840 Y25.8898
G01 X26.0240 Y25.9266
G01 X25.9658 Y25.9664
G01 X25.9123 Y26.0159
G01 X25.8613 Y26.0679
G01 X25.8129 Y26.1223
G01 X25.7672 Y26.1791
G01 X25.7244 Y26.2381
G01 X25.6846 Y26.2991
G01 X25.6478 Y26.3619
G01 X25.6141 Y26.4266
G01 X25.5876 Y26.4952
G01 X25.5645 Y26.5652
G01 X25.5449 Y26.6361
G01 X25.5288 Y26.7079
G01 X25.5162 Y26.7805
G01 X25.5072 Y26.8536
G01 X25.5018 Y26.9270
G01 X25.4999 Y27.0006
G01 X25.5018 Y27.0742
G01 X25.5072 Y27.1476
G01 X25.5162 Y27.2207
G01 X25.5288 Y27.2932
G01 X25.5449 Y27.3651
G01 X25.5645 Y27.4360
G01 X25.5876 Y27.5059
G01 X25.6141 Y27.5746
G01 X25.6440 Y27.6419
G01 X25.6771 Y27.7077
G01 X25.7134 Y27.7718
G01 X25.7528 Y27.8340
G01 X25.7951 Y27.8942
G01 X25.8404 Y27.9522
G01 X25.8885 Y28.0080
G01 X25.9393 Y28.0613
G01 X25.9926 Y28.1120
G01 X26.0484 Y28.1601
G01 X26.1064 Y28.2054
G01 X26.1666 Y28.2478
G01 X26.2288 Y28.2872
G01 X26.2929 Y28.3235
G01 X26.3586 Y28.3566
G01 X26.4259 Y28.3864
G01 X26.4946 Y28.4129
G01 X26.5645 Y28.4360
G01 X26.6355 Y28.4557
G01 X26.7073 Y28.4718
G01 X26.7799 Y28.4844
G01 X26.8530 Y28.4934
G01 X26.9264 Y28.4988
G01 X27.0000 Y28.5006
G01 X27.0736 Y28.4988
G01 X27.1470 Y28.4934
G01 X27.2201 Y28.4844
G01 X27.2926 Y28.4718
G01 X27.3645 Y28.4557
G01 X27.4354 Y28.4360
G01 X27.5053 Y28.4129
G01 X27.5740 Y28.3864
G01 X27.6413 Y28.3566
G01 X27.7071 Y28.3235
G01 X27.7712 Y28.2872
G01 X27.8334 Y28.2478
G01 X27.8936 Y28.2054
G01 X27.9516 Y28.1601
G01 X28.0074 Y28.1120
G01 X28.0607 Y28.0613
G01 X28.1114 Y28.0080
G01 X28.1595 Y27.9522
G01 X28.2048 Y27.8942
G01 X28.2472 Y27.8340
G01 X28.2866 Y27.7718
G01 X28.3229 Y27.7077
G01 X28.3560 Y27.6419
G01 X28.3858 Y27.5746
G01 X28.4123 Y27.5059
G01 X28.4354 Y27.4360
G01 X28.4551 Y27.3651
G01 X28.4712 Y27.2932
G01 X28.4838 Y27.2207
G01 X28.4928 Y27.1476
G01 X28.4982 Y27.0742
G01 X28.5000 Y27.0006
G01 X28.4958 Y26.8885
G01 X28.4833 Y26.7770
G01 X28.4624 Y26.6668
G01 X28.4334 Y26.5584
G01 X28.3963 Y26.4526
G01 X28.3515 Y26.3497
G01 X28.2991 Y26.2506
G01 X28.2394 Y26.1556
G01 X28.1728 Y26.0653
G01 X28.0996 Y25.9803
G01 X28.0203 Y25.9010
G01 X27.9352 Y25.8278
G01 X27.8450 Y25.7612
G01 X27.7500 Y25.7015
G01 X27.6508 Y25.6491
G01 X27.5480 Y25.6042
G01 X27.4421 Y25.5672
G01 X27.3338 Y25.5382
G01 X27.2236 Y25.5173
G01 X27.1121 Y25.5047
G01 X27.0000 Y25.5006
G01 X26.8879 Y25.5047
G01 X26.7764 Y25.5173
G01 X26.6662 Y25.5382
G01 X26.5578 Y25.5672
G01 X26.4520 Y25.6042
G01 X26.3491 Y25.6491
G01 X26.2500 Y25.7015
G01 X26.1550 Y25.7612
G01 X26.0647 Y25.8278
G01 X25.9797 Y25.9010
G01 X25.9004 Y25.9803
G01 X25.8272 Y26.0653
G01 X25.7606 Y26.1556
G01 X25.7009 Y26.2506
G01 X25.6485 Y26.3497
G01 X25.6036 Y26.4526
G01 X25.5666 Y26.5584
G01 X25.5376 Y26.6668
G01 X25.5167 Y26.7770
G01 X25.5041 Y26.8885
G01 X25.4999 Y27.0006
G01 X25.5041 Y27.1127
G01 X25.5167 Y27.2242
G01 X25.5376 Y27.3344
G01 X25.5666 Y27.4427
G01 X25.6036 Y27.5486
G01 X25.6485 Y27.6514
G01 X25.7009 Y27.7506
G01 X25.7606 Y27.8456
G01 X25.8272 Y27.9359
G01 X25.9004 Y28.0209
G01 X25.9797 Y28.1002
G01 X26.0647 Y28.1734
G01 X26.1550 Y28.2400
G01 X26.2500 Y28.2997
G01 X26.3491 Y28.3521
G01 X26.4520 Y28.3969
G01 X26.5578 Y28.4340
G01 X26.6662 Y28.4630
G01 X26.7764 Y28.4839
G01 X26.8879 Y28.4964
G01 X27.0000 Y28.5006
G01 X27.1121 Y28.4964
G01 X27.2236 Y28.4839
G01 X27.3338 Y28.4630
G01 X27.4421 Y28.4340
G01 X27.5480 Y28.3969
G01 X27.6508 Y28.3521
G01 X27.7500 Y28.2997
G01 X27.8450 Y28.2400
G01 X27.9352 Y28.1734
G01 X28.0203 Y28.1002
G01 X28.0996 Y28.0209
G01 X28.1728 Y27.9359
G01 X28.2394 Y27.8456
G01 X28.2991 Y27.7506
G01 X28.3515 Y27.6514
G01 X28.3963 Y27.5486
G01 X28.4334 Y27.4427
G01 X28.4624 Y27.3344
G01 X28.4833 Y27.2242
G01 X28.4958 Y27.1127
G01 X28.5000 Y27.0006
G01 X28.4969 Y26.9221 Z-4.9750 F400
G01 X28.4877 Y26.8442 Z-4.9500
G01 X28.4724 Y26.7671 Z-4.9250
G01 X28.4511 Y26.6916 Z-4.9000
G01 X28.4239 Y26.6179 Z-4.8750
G01 X28.3910 Y26.5466 Z-4.8500
G01 X28.3527 Y26.4781 Z-4.8250
G01 X28.3090 Y26.4128 Z-4.8000
G01 X28.2604 Y26.3511 Z-4.7750
G01 X28.2071 Y26.2935 Z-4.7500
G01 X28.1495 Y26.2402 Z-4.7250
G01 X28.0878 Y26.1916 Z-4.7000
G01 X28.0225 Y26.1480 Z-4.6750
G01 X27.9540 Y26.1096 Z-4.6500
G01 X27.8827 Y26.0767 Z-4.6250
G01 X27.8090 Y26.0495 Z-4.6000
G01 X27.7335 Y26.0282 Z-4.5750
G01 X27.6565 Y26.0129 Z-4.5500
G01 X27.5785 Y26.0037 Z-4.5250
G01 X27.5000 Y26.0006 Z-4.5000
G00 Z5.0000


;No. 2: Hole 2
G00 X71.0017 Y33.2098 Z5.0000
G00 Z0.5000
G01 Z0.0000 F400
G01 Z-2.2000
G01 X71.8603 F1000
G01 X72.1266 Y34.7098
G01 X70.7330
G01 X70.4643 Y36.2098
G01 X72.3930
G01 X72.6595 Y37.7098
G01 X70.1956
G01 X69.9269 Y39.2098
G01 X72.9260
G01 X73.1927 Y40.7098
G01 X69.6581
G01 X69.3894 Y42.2098
G01 X73.4594
G01 X73.7262 Y43.7098
G01 X69.1207
G01 X68.8520 Y45.2098
G01 X73.9930
G01 X74.2599 Y46.7098
G01 X68.5833
G01 X68.3146 Y48.2098
G01 X74.5269
G01 X74.7938 Y49.7098
G01 X68.0459
G01 X67.7772 Y51.2098
G01 X75.0609
G01 X75.3280 Y52.7098
G01 X67.5084
G01 X67.2397 Y54.2098
G01 X75.5951
G01 X75.8622 Y55.7098
G01 X66.9710
G01 X66.7023 Y57.2098
G01 X76.1295
G01 X76.3967 Y58.7098
G01 X66.4336
G01 X66.1649 Y60.2098
G01 X76.6640
G01 X76.9313 Y61.7098
G01 X65.8962
G01 X65.6275 Y63.2098
G01 X77.1987
G01 X77.4661 Y64.7098
G01 X65.3587
G01 X65.0900 Y66.2098
G01 X77.7335
G01 X78.0010 Y67.7098
G01 X64.8213
G01 X64.5526 Y69.2098
G01 X78.2686
G01 X78.5362 Y70.7098
G01 X64.2839
G01 X64.0152 Y72.2098
G01 X78.8038
G01 X79.0715 Y73.7098
G01 X63.7465
G01 X63.4778 Y75.2098
G01 X79.3392
G01 X79.6070 Y76.7098
G01 X63.2091
G01 X62.9403 Y78.2098
G01 X79.8749
G01 X80.1429 Y79.7098
G01 X62.6716
G01 X62.4029 Y81.2098
G01 X80.4109
G01 X80.6790 Y82.7098
G01 X62.1342
G01 X61.8655 Y84.2098
G01 X80.9473
G01 X81.2157 Y85.7098
G01 X61.5968
G01 X61.3281 Y87.2098
G01 X81.4843
G01 X81.7531 Y88.7098
G01 X61.0594
G01 X60.7906 Y90.2098
G01 X82.0224
G01 X82.2924 Y91.7098
G01 X72.9383
G01 X74.1707 Y93.2098
G01 X82.5667
G01 Y94.7098
G01 X75.4032
G01 X109.5395
G01 X108.1268 Y93.2098
G01 X95.3164
G01 X98.4114
G01 Y91.7098
G01 X106.3824
G01 X104.2649 Y90.2098
G01 X99.7855
G01 X100.4962 Y88.7098
G01 X101.6057
G00 Z5.0000
G00 X106.3629 Y94.7098
G00 Z0.5000
G01 Z-2.2000 F400
G01 Y96.2098 F1000
G01 X76.6357
G01 X77.8679 Y97.7098
G01 X102.0443
G01 X96.7050
G01 Y99.2098
G01 X79.1031
G01 X80.3433 Y100.7098
G01 X89.2950
G00 Z5.0000
G00 X69.9860 Y90.2098
G00 Z0.5000
G01 Z-2.2000 F400
G01 Y91.7098 F1000
G01 X60.5219
G01 X60.2532 Y93.2098
G01 X68.7178
G01 X67.4695 Y94.7098
G01 X33.3309
G01 X34.7377 Y93.2098
G01 X47.5297
G01 X44.4481
G01 Y91.7098
G01 X36.4770
G01 X38.6036 Y90.2098
G01 X43.0819
G01 X42.3536 Y88.7098
G01 X41.2258
G00 Z5.0000
G00 X36.4766 Y94.7098
G00 Z0.5000
G01 Z-2.2000 F400
G01 Y96.2098 F1000
G01 X66.2320
G01 X65.0008 Y97.7098
G01 X40.8022
G01 X46.1796
G01 Y99.2098
G01 X63.7698
G01 X62.5388 Y100.7098
G01 X53.5906
G01 X53.6538 Y100.9223
G01 X54.6770 Y101.0798
G01 X55.7021 Y101.2246
G01 X56.7289 Y101.3566
G01 X57.7573 Y101.4757
G01 X58.7871 Y101.5820
G01 X59.8182 Y101.6755
G01 X60.8503 Y101.7561
G01 X61.8833 Y101.8238
G01 X66.1072 Y96.6768
G01 X67.2426 Y95.2917
G01 X68.3888 Y93.9157
G01 X69.5460 Y92.5488
G01 X70.7140 Y91.1911
G01 X70.7741 Y91.1267
G01 X70.8396 Y91.0677
G01 X70.9100 Y91.0147
G01 X70.9847 Y90.9680
G01 X71.0632 Y90.9279
G01 X71.1449 Y90.8949
G01 X71.2291 Y90.8690
G01 X71.3153 Y90.8506
G01 X71.4027 Y90.8398
G01 X71.4908 Y90.8366
G01 X71.5788 Y90.8411
G01 X71.6661 Y90.8532
G01 X71.7520 Y90.8728
G01 X71.8359 Y90.8999
G01 X71.9171 Y90.9341
G01 X71.9950 Y90.9753
G01 X72.0690 Y91.0231
G01 X72.1386 Y91.0771
G01 X72.2032 Y91.1370
G01 X72.2624 Y91.2023
G01 X73.4543 Y92.6520
G01 X74.6458 Y94.1020
G01 X75.8371 Y95.5522
G01 X77.0280 Y97.0026
G01 X78.0162 Y98.2060
G01 X79.0067 Y99.4074
G01 X79.9997 Y100.6068
G01 X80.9949 Y101.8043
G01 X82.5691 Y101.6978
G01 X84.1411 Y101.5625
G01 X85.7104 Y101.3986
G01 X87.2763 Y101.2059
G01 X88.8386 Y100.9847
G01 X90.3965 Y100.7350
G01 X91.9495 Y100.4569
G01 X93.4973 Y100.1504
G01 X95.0392 Y99.8157
G01 X96.5747 Y99.4529
G01 X98.1033 Y99.0621
G01 X99.6245 Y98.6434
G01 X100.9456 Y98.2591
G01 X102.2599 Y97.8524
G01 X103.5672 Y97.4236
G01 X104.8670 Y96.9726
G01 X106.1590 Y96.4997
G01 X107.4428 Y96.0050
G01 X108.7180 Y95.4886
G01 X109.9843 Y94.9506
G01 X109.4642 Y94.3350
G01 X108.9217 Y93.7390
G01 X108.3574 Y93.1636
G01 X107.7723 Y92.6095
G01 X107.1670 Y92.0773
G01 X106.5424 Y91.5680
G01 X105.8995 Y91.0822
G01 X105.2389 Y90.6204
G01 X104.7266 Y90.2723
G01 X104.2069 Y89.9353
G01 X103.6801 Y89.6096
G01 X103.1463 Y89.2953
G01 X102.6059 Y88.9926
G01 X102.0591 Y88.7016
G01 X101.5061 Y88.4226
G01 X100.9472 Y88.1555
G01 X100.8391 Y88.1021
G01 X100.7308 Y88.0490
G01 X100.6225 Y87.9961
G01 X100.5140 Y87.9434
G01 X100.4340 Y88.2757
G01 X100.3361 Y88.6031
G01 X100.2206 Y88.9248
G01 X100.0879 Y89.2397
G01 X99.9383 Y89.5470
G01 X99.7723 Y89.8457
G01 X99.5903 Y90.1350
G01 X99.3930 Y90.4140
G01 X99.1808 Y90.6820
G01 X98.9544 Y90.9380
G01 X98.7145 Y91.1814
G01 X98.4618 Y91.4114
G01 X98.0629 Y91.7069
G01 X97.6486 Y91.9803
G01 X97.2201 Y92.2307
G01 X96.7787 Y92.4575
G01 X96.3255 Y92.6600
G01 X95.8620 Y92.8377
G01 X95.3896 Y92.9898
G01 X94.9096 Y93.1161
G01 X94.1242 Y93.2918
G01 X93.3344 Y93.4465
G01 X92.5407 Y93.5800
G01 X91.7437 Y93.6921
G01 X90.9440 Y93.7830
G01 X90.1422 Y93.8523
G01 X89.3388 Y93.9003
G01 X88.5344 Y93.9267
G01 X87.3392 Y93.9702
G01 X86.1436 Y93.9994
G01 X84.9477 Y94.0145
G01 X83.7517 Y94.0153
G01 X83.6649 Y94.0105
G01 X83.5788 Y93.9982
G01 X83.4940 Y93.9787
G01 X83.4113 Y93.9519
G01 X83.3311 Y93.9182
G01 X83.2541 Y93.8778
G01 X83.1808 Y93.8309
G01 X83.1118 Y93.7779
G01 X83.0476 Y93.7193
G01 X82.9887 Y93.6553
G01 X82.9354 Y93.5866
G01 X82.8882 Y93.5135
G01 X82.8474 Y93.4367
G01 X82.8134 Y93.3566
G01 X82.7863 Y93.2740
G01 X82.7664 Y93.1893
G01 X82.2713 Y90.4419
G01 X81.7770 Y87.6944
G01 X81.2836 Y84.9467
G01 X80.7909 Y82.1989
G01 X80.2989 Y79.4510
G01 X79.8078 Y76.7029
G01 X79.3175 Y73.9547
G01 X78.8279 Y71.2063
G01 X78.7054 Y70.5195
G01 X78.5828 Y69.8326
G01 X78.4603 Y69.1457
G01 X78.3378 Y68.4588
G01 X78.2153 Y67.7720
G01 X78.0928 Y67.0851
G01 X77.9703 Y66.3982
G01 X77.8478 Y65.7114
G01 X77.7253 Y65.0245
G01 X77.6029 Y64.3376
G01 X77.4804 Y63.6507
G01 X77.3580 Y62.9638
G01 X77.2356 Y62.2770
G01 X77.1131 Y61.5901
G01 X76.9907 Y60.9032
G01 X76.8683 Y60.2163
G01 X76.7459 Y59.5294
G01 X76.6235 Y58.8425
G01 X76.5011 Y58.1556
G01 X76.3787 Y57.4687
G01 X76.2564 Y56.7819
G01 X76.1340 Y56.0950
G01 X76.0116 Y55.4081
G01 X75.8893 Y54.7212
G01 X75.7670 Y54.0343
G01 X75.6446 Y53.3474
G01 X75.5223 Y52.6605
G01 X75.4000 Y51.9736
G01 X75.2777 Y51.2866
G01 X75.1554 Y50.5997
G01 X75.0331 Y49.9128
G01 X74.9109 Y49.2259
G01 X74.7886 Y48.5390
G01 X74.6663 Y47.8521
G01 X74.5441 Y47.1652
G01 X74.4219 Y46.4782
G01 X74.2996 Y45.7913
G01 X74.1774 Y45.1044
G01 X74.0552 Y44.4175
G01 X73.9330 Y43.7305
G01 X73.8108 Y43.0436
G01 X73.6887 Y42.3567
G01 X73.5665 Y41.6697
G01 X73.4444 Y40.9828
G01 X73.3222 Y40.2959
G01 X73.2001 Y39.6089
G01 X73.0780 Y38.9220
G01 X72.9559 Y38.2350
G01 X72.8338 Y37.5480
G01 X72.7118 Y36.8611
G01 X72.5898 Y36.1741
G01 X72.4677 Y35.4871
G01 X72.3457 Y34.8002
G01 X72.2238 Y34.1132
G01 X72.1018 Y33.4262
G01 X71.9799 Y32.7392
G01 X71.8580 Y32.0522
G01 X71.7361 Y31.3651
G01 X71.6605 Y30.9385
G01 X71.5848 Y30.5118
G01 X71.5092 Y30.0852
G01 X71.4336 Y29.6585
G01 X60.0482 Y93.2201
G01 X60.0297 Y93.3019
G01 X60.0045 Y93.3819
G01 X59.9727 Y93.4595
G01 X59.9346 Y93.5342
G01 X59.8905 Y93.6055
G01 X59.8406 Y93.6729
G01 X59.7852 Y93.7359
G01 X59.7249 Y93.7940
G01 X59.6599 Y93.8470
G01 X59.5907 Y93.8944
G01 X59.5178 Y93.9359
G01 X59.4418 Y93.9712
G01 X59.3631 Y94.0001
G01 X59.2822 Y94.0224
G01 X59.1998 Y94.0378
G01 X59.1164 Y94.0464
G01 X57.9423 Y94.0477
G01 X56.7684 Y94.0317
G01 X55.5948 Y93.9986
G01 X54.4218 Y93.9482
G01 X53.6498 Y93.9169
G01 X52.8788 Y93.8681
G01 X52.1091 Y93.8017
G01 X51.3412 Y93.7177
G01 X50.5753 Y93.6163
G01 X49.8119 Y93.4974
G01 X49.0515 Y93.3611
G01 X48.2944 Y93.2075
G01 X47.8026 Y93.0910
G01 X47.3175 Y92.9490
G01 X46.8405 Y92.7821
G01 X46.3728 Y92.5906
G01 X45.9157 Y92.3751
G01 X45.4703 Y92.1361
G01 X45.0380 Y91.8743
G01 X44.6199 Y91.5905
G01 X44.3383 Y91.3571
G01 X44.0710 Y91.1076
G01 X43.8188 Y90.8428
G01 X43.5825 Y90.5637
G01 X43.3630 Y90.2712
G01 X43.1610 Y89.9664
G01 X42.9773 Y89.6502
G01 X42.8124 Y89.3238
G01 X42.6670 Y88.9883
G01 X42.5415 Y88.6449
G01 X42.4363 Y88.2946
G01 X42.3519 Y87.9388
G01 X41.6453 Y88.2682
G01 X40.9479 Y88.6165
G01 X40.2601 Y88.9835
G01 X39.5824 Y89.3689
G01 X38.9155 Y89.7725
G01 X38.2596 Y90.1940
G01 X37.6154 Y90.6330
G01 X36.9832 Y91.0892
G01 X36.3636 Y91.5623
G01 X35.7570 Y92.0520
G01 X35.1638 Y92.5578
G01 X34.5845 Y93.0795
G01 X34.1356 Y93.5231
G01 X33.7021 Y93.9819
G01 X33.2847 Y94.4553
G01 X32.8838 Y94.9427
G01 X34.2065 Y95.5053
G01 X35.5388 Y96.0446
G01 X36.8804 Y96.5604
G01 X38.2309 Y97.0526
G01 X39.5898 Y97.5210
G01 X40.9567 Y97.9655
G01 X42.3312 Y98.3860
G01 X43.7128 Y98.7823
G01 X45.1012 Y99.1543
G01 X46.4959 Y99.5018
G01 X47.8965 Y99.8249
G01 X49.3025 Y100.1233
G01 X50.3867 Y100.3426
G01 X51.4734 Y100.5489
G01 X52.5625 Y100.7422
G01 X53.6538 Y100.9223
G01 X53.5906 Y100.7098
G00 Z5.0000


;No. 3: Hole 1
G00 X55.4300 Y106.2183 Z5.0000
G00 Z0.5000
G01 Z0.0000 F400
G01 Z-2.2000
G01 X41.7037 F1000
G01 Y104.7183
G01 X36.4886
G01 X47.2705
G01 X41.4621
G01 Y103.2183
G01 X31.9990
G01 X29.2586 Y101.7183
G01 X36.7440
G01 X32.6878 Y100.2183
G01 X29.9902
G00 Z5.0000
G00 X48.1021 Y106.2183
G00 Z0.5000
G01 Z-2.2000 F400
G01 Y107.7183 F1000
G01 X94.8036
G01 Y106.2183
G01 X101.1737
G01 X87.4565
G01 X95.5558
G01 Y104.7183
G01 X106.3643
G01 X110.8582 Y103.2183
G01 X101.3907
G01 X106.1360 Y101.7183
G01 X113.6137
G01 X112.8976 Y100.2183
G01 X110.1897
G00 Z5.0000
G00 X85.7599 Y107.7183
G00 Z0.5000
G01 Z-2.2000 F400
G01 Y109.2183 F1000
G01 X57.1250
G01 X57.0204 Y109.4066
G01 X58.8215 Y109.6235
G01 X60.6259 Y109.8117
G01 X62.4330 Y109.9710
G01 X64.2424 Y110.1015
G01 X66.0537 Y110.2030
G01 X67.8664 Y110.2755
G01 X69.6801 Y110.3191
G01 X71.4941 Y110.3337
G01 X73.3082 Y110.3193
G01 X75.1218 Y110.2759
G01 X76.9345 Y110.2036
G01 X78.7459 Y110.1023
G01 X80.5553 Y109.9721
G01 X82.3625 Y109.8129
G01 X84.1669 Y109.6250
G01 X85.9680 Y109.4082
G01 X87.7655 Y109.1627
G01 X89.5587 Y108.8885
G01 X91.3474 Y108.5856
G01 X93.1311 Y108.2543
G01 X94.9132 Y107.8977
G01 X96.6898 Y107.5146
G01 X98.4605 Y107.1050
G01 X100.2248 Y106.6689
G01 X101.9825 Y106.2066
G01 X103.7330 Y105.7180
G01 X105.4761 Y105.2034
G01 X107.2112 Y104.6628
G01 X108.9381 Y104.0963
G01 X110.6564 Y103.5040
G01 X112.3656 Y102.8862
G01 X114.0654 Y102.2429
G01 X113.6987 Y101.4350
G01 X113.3208 Y100.6322
G01 X112.9316 Y99.8349
G01 X112.5313 Y99.0431
G01 X112.0706 Y99.2316
G01 X111.6102 Y99.4210
G01 X111.1502 Y99.6113
G01 X110.6905 Y99.8024
G01 X109.0994 Y100.4213
G01 X107.4982 Y101.0136
G01 X105.8873 Y101.5790
G01 X104.2671 Y102.1173
G01 X102.6382 Y102.6285
G01 X101.0010 Y103.1124
G01 X99.3559 Y103.5688
G01 X97.7034 Y103.9976
G01 X96.0439 Y104.3988
G01 X94.3780 Y104.7721
G01 X92.7061 Y105.1175
G01 X91.0286 Y105.4349
G01 X89.3460 Y105.7241
G01 X87.6589 Y105.9852
G01 X85.9676 Y106.2181
G01 X84.2726 Y106.4226
G01 X82.5745 Y106.5987
G01 X80.8736 Y106.7464
G01 X79.1706 Y106.8656
G01 X77.4657 Y106.9563
G01 X75.9415 Y107.0079
G01 X74.4168 Y107.0452
G01 X72.8919 Y107.0681
G01 X71.3668 Y107.0766
G01 X69.8417 Y107.0708
G01 X68.3167 Y107.0506
G01 X66.7920 Y107.0160
G01 X65.2677 Y106.9671
G01 X63.7006 Y106.8816
G01 X62.1350 Y106.7720
G01 X60.5713 Y106.6385
G01 X59.0099 Y106.4809
G01 X57.4510 Y106.2995
G01 X55.8951 Y106.0941
G01 X54.3425 Y105.8649
G01 X52.7936 Y105.6118
G01 X51.2488 Y105.3351
G01 X49.7084 Y105.0347
G01 X48.1729 Y104.7107
G01 X46.6424 Y104.3631
G01 X45.1175 Y103.9922
G01 X43.5984 Y103.5979
G01 X42.0856 Y103.1803
G01 X40.5794 Y102.7395
G01 X39.0801 Y102.2757
G01 X37.5880 Y101.7890
G01 X36.1037 Y101.2794
G01 X34.6273 Y100.7471
G01 X33.5565 Y100.3354
G01 X32.4883 Y99.9172
G01 X31.4226 Y99.4926
G01 X30.3595 Y99.0615
G01 X29.9544 Y99.8481
G01 X29.5589 Y100.6394
G01 X29.1730 Y101.4355
G01 X28.7967 Y102.2362
G01 X30.5022 Y102.8843
G01 X32.2174 Y103.5062
G01 X33.9420 Y104.1020
G01 X35.6753 Y104.6714
G01 X37.4172 Y105.2144
G01 X39.1672 Y105.7307
G01 X40.9248 Y106.2203
G01 X42.6896 Y106.6830
G01 X44.4614 Y107.1187
G01 X46.2395 Y107.5275
G01 X48.0237 Y107.9090
G01 X49.8135 Y108.2633
G01 X51.6085 Y108.5903
G01 X53.4082 Y108.8899
G01 X55.2123 Y109.1620
G01 X57.0204 Y109.4066
G01 X57.1250 Y109.2183
G00 Z5.0000


;No. 4: Hole 19
G00 X126.7245 Y91.5882 Z5.0000
G00 Z0.5000
G01 Z0.0000 F400
G01 Z-1.2000
G01 X139.8652 F1000
G01 X141.4349 Y90.0882
G01 X135.8691
G01 X138.1989
G01 Y88.5882
G01 X142.1554
G01 X142.4271 Y87.0882
G01 X138.8236
G01 X138.8556 Y85.5882
G01 X142.3990
G01 X142.0560 Y84.0882
G01 X138.3074
G01 Y82.5882
G01 X136.4547
G01 X141.2278
G01 X139.4550 Y81.0882
G01 X126.7245
G01 Y79.5882
G01 X130.6257
G01 X130.2732
G01 Y78.0882
G01 X126.7245
G01 Y76.5882
G01 X130.2732
G01 Y75.0882
G01 X126.7245
G00 Z5.0000
G00 Y81.0882
G00 Z0.5000
G01 Z-1.2000 F400
G01 Y82.5882 F1000
G01 X130.5903
G01 X130.2732
G01 Y84.0882
G01 X126.7245
G01 Y85.5882
G01 X130.2732
G01 Y87.0882
G01 X126.7245
G01 Y88.5882
G01 X130.2732
G01 Y90.0882
G01 X130.8354
G01 X130.9191 Y89.9037
G01 X130.8854 Y89.8804
G01 X130.8527 Y89.8557
G01 X130.8211 Y89.8297
G01 X130.7906 Y89.8024
G01 X130.7612 Y89.7739
G01 X130.7330 Y89.7442
G01 X130.7061 Y89.7133
G01 X130.6804 Y89.6814
G01 X130.6561 Y89.6485
G01 X130.6331 Y89.6146
G01 X130.6116 Y89.5797
G01 X130.5915 Y89.5441
G01 X130.5729 Y89.5076
G01 X130.5558 Y89.4704
G01 X130.5403 Y89.4325
G01 X130.5263 Y89.3940
G01 X130.5139 Y89.3550
G01 X130.5031 Y89.3155
G01 X130.4940 Y89.2755
G01 X130.4865 Y89.2353
G01 X130.4806 Y89.1948
G01 X130.4765 Y89.1540
G01 X130.4740 Y89.1132
G01 X130.4732 Y89.0722
G01 Y83.3995
G01 X130.4741 Y83.3559
G01 X130.4770 Y83.3123
G01 X130.4817 Y83.2690
G01 X130.4884 Y83.2259
G01 X130.4969 Y83.1831
G01 X130.5072 Y83.1407
G01 X130.5195 Y83.0988
G01 X130.5335 Y83.0575
G01 X130.5493 Y83.0168
G01 X130.5669 Y82.9769
G01 X130.5862 Y82.9377
G01 X130.6071 Y82.8995
G01 X130.6298 Y82.8622
G01 X130.6540 Y82.8259
G01 X130.6798 Y82.7907
G01 X130.7071 Y82.7567
G01 X130.7359 Y82.7239
G01 X130.7661 Y82.6924
G01 X130.7976 Y82.6622
G01 X130.8304 Y82.6335
G01 X130.8644 Y82.6061
G01 X130.8996 Y82.5803
G01 X130.9359 Y82.5561
G01 X130.9732 Y82.5335
G01 X131.0114 Y82.5125
G01 X131.0506 Y82.4932
G01 X131.0905 Y82.4756
G01 X131.1312 Y82.4598
G01 X131.1725 Y82.4458
G01 X131.2144 Y82.4336
G01 X131.2567 Y82.4232
G01 X131.2995 Y82.4147
G01 X131.3427 Y82.4081
G01 X131.3860 Y82.4033
G01 X131.4296 Y82.4005
G01 X131.4732 Y82.3995
G01 X132.2836 Y82.3771
G01 X133.0944 Y82.3719
G01 X133.9051 Y82.3837
G01 X134.7153 Y82.4127
G01 X135.0055 Y82.4278
G01 X135.2940 Y82.4620
G01 X135.5797 Y82.5150
G01 X135.8613 Y82.5868
G01 X136.1375 Y82.6769
G01 X136.4072 Y82.7849
G01 X136.6693 Y82.9105
G01 X136.9225 Y83.0530
G01 X137.1658 Y83.2119
G01 X137.3981 Y83.3864
G01 X137.6184 Y83.5758
G01 X137.8259 Y83.7793
G01 X138.0034 Y84.0122
G01 X138.1629 Y84.2578
G01 X138.3034 Y84.5148
G01 X138.4242 Y84.7816
G01 X138.5246 Y85.0567
G01 X138.6039 Y85.3387
G01 X138.6617 Y85.6258
G01 X138.6978 Y85.9164
G01 X138.7118 Y86.2090
G01 X138.7038 Y86.5017
G01 X138.6737 Y86.7930
G01 X138.6217 Y87.0813
G01 X138.5451 Y87.4051
G01 X138.4382 Y87.7203
G01 X138.3018 Y88.0239
G01 X138.1372 Y88.3131
G01 X137.9460 Y88.5855
G01 X137.7298 Y88.8385
G01 X137.4906 Y89.0699
G01 X137.2305 Y89.2776
G01 X136.9519 Y89.4596
G01 X136.6573 Y89.6144
G01 X136.3493 Y89.7406
G01 X136.0308 Y89.8371
G01 X135.5975 Y89.9426
G01 X135.1578 Y90.0172
G01 X134.7139 Y90.0605
G01 X134.2681 Y90.0722
G01 X131.4732
G01 X131.4364 Y90.0716
G01 X131.3998 Y90.0696
G01 X131.3632 Y90.0663
G01 X131.3268 Y90.0616
G01 X131.2905 Y90.0555
G01 X131.2545 Y90.0481
G01 X131.2189 Y90.0394
G01 X131.1835 Y90.0294
G01 X131.1486 Y90.0180
G01 X131.1141 Y90.0054
G01 X131.0801 Y89.9915
G01 X131.0466 Y89.9764
G01 X131.0137 Y89.9600
G01 X130.9815 Y89.9424
G01 X130.9499 Y89.9236
G01 X130.9191 Y89.9037
G01 X130.8354 Y90.0882
G01 X126.7245
G01 X126.5245 Y90.0827
G01 Y93.0703
G01 X128.6363 Y93.0849
G01 X130.7482 Y93.0894
G01 X132.8601 Y93.0838
G01 X134.9719 Y93.0681
G01 X135.5706 Y93.0562
G01 X136.1674 Y93.0083
G01 X136.7603 Y92.9247
G01 X137.3470 Y92.8055
G01 X137.9256 Y92.6512
G01 X138.4938 Y92.4625
G01 X139.0496 Y92.2400
G01 X139.5911 Y91.9844
G01 X139.9040 Y91.8050
G01 X140.2050 Y91.6062
G01 X140.4929 Y91.3888
G01 X140.7664 Y91.1537
G01 X141.0246 Y90.9018
G01 X141.2663 Y90.6340
G01 X141.4907 Y90.3516
G01 X141.6968 Y90.0556
G01 X141.8838 Y89.7471
G01 X142.0509 Y89.4274
G01 X142.1975 Y89.0979
G01 X142.3231 Y88.7597
G01 X142.4270 Y88.4143
G01 X142.5089 Y88.0630
G01 X142.5685 Y87.7072
G01 X142.6055 Y87.3484
G01 X142.6399 Y87.0004
G01 X142.6573 Y86.6511
G01 X142.6577 Y86.3014
G01 X142.6411 Y85.9520
G01 X142.6076 Y85.6039
G01 X142.5572 Y85.2578
G01 X142.4900 Y84.9146
G01 X142.4062 Y84.5750
G01 X142.3061 Y84.2399
G01 X142.1897 Y83.9101
G01 X142.0575 Y83.5864
G01 X141.9096 Y83.2694
G01 X141.7123 Y82.9427
G01 X141.4954 Y82.6285
G01 X141.2599 Y82.3281
G01 X141.0066 Y82.0426
G01 X140.7363 Y81.7730
G01 X140.4502 Y81.5203
G01 X140.1493 Y81.2855
G01 X139.8347 Y81.0694
G01 X139.5075 Y80.8728
G01 X139.1690 Y80.6964
G01 X138.8204 Y80.5409
G01 X138.4629 Y80.4069
G01 X137.9735 Y80.2450
G01 X137.4772 Y80.1050
G01 X136.9753 Y79.9872
G01 X136.4686 Y79.8919
G01 X135.9581 Y79.8193
G01 X135.4450 Y79.7695
G01 X134.9301 Y79.7426
G01 X134.4145 Y79.7387
G01 X131.4732
G01 X131.3947 Y79.7356
G01 X131.3167 Y79.7264
G01 X131.2397 Y79.7110
G01 X131.1642 Y79.6897
G01 X131.0905 Y79.6626
G01 X131.0192 Y79.6297
G01 X130.9507 Y79.5913
G01 X130.8854 Y79.5477
G01 X130.8237 Y79.4991
G01 X130.7661 Y79.4458
G01 X130.7128 Y79.3881
G01 X130.6642 Y79.3265
G01 X130.6205 Y79.2612
G01 X130.5822 Y79.1927
G01 X130.5493 Y79.1214
G01 X130.5221 Y79.0477
G01 X130.5008 Y78.9721
G01 X130.4855 Y78.8951
G01 X130.4763 Y78.8171
G01 X130.4732 Y78.7387
G01 Y73.6060
G01 X126.5245
G01 Y90.0827
G01 X126.7245 Y90.0882
G00 Z5.0000


;No. 5: Hole 20
G00 X147.2179 Y81.1648 Z5.0000
G00 Z0.5000
G01 Z0.0000 F400
G01 Z-1.2000
G01 X150.6383 F1000
G01 X151.1760 Y82.6648
G01 X147.8519
G01 X148.4860 Y84.1648
G01 X151.7715
G01 X152.3670 Y85.6648
G01 X149.1200
G01 X149.7541 Y87.1648
G01 X152.9624
G01 X150.3881 Y88.6648
G01 X158.2159
G01 X158.8500 Y87.1648
G01 X155.5474
G01 X156.1353 Y85.6648
G01 X159.4840
G01 X160.1180 Y84.1648
G01 X156.7232
G01 X157.3112 Y82.6648
G01 X160.7521
G01 X161.3861 Y81.1648
G01 X157.8430
G01 X157.6429 Y81.1584
G01 X157.6394 Y81.1938
G01 X157.6346 Y81.2289
G01 X157.6285 Y81.2639
G01 X157.6211 Y81.2986
G01 X157.6124 Y81.3330
G01 X157.6025 Y81.3671
G01 X157.5913 Y81.4008
G01 X157.5788 Y81.4340
G01 X155.1871 Y87.5360
G01 X155.1526 Y87.6141
G01 X155.1115 Y87.6889
G01 X155.0643 Y87.7599
G01 X155.0111 Y87.8267
G01 X154.9525 Y87.8887
G01 X154.8887 Y87.9455
G01 X154.8204 Y87.9966
G01 X154.7480 Y88.0417
G01 X154.6720 Y88.0805
G01 X154.5929 Y88.1126
G01 X154.5114 Y88.1379
G01 X154.4281 Y88.1562
G01 X154.3434 Y88.1673
G01 X154.2582 Y88.1711
G01 X154.1729 Y88.1676
G01 X154.0883 Y88.1569
G01 X154.0048 Y88.1390
G01 X153.9232 Y88.1141
G01 X153.8440 Y88.0823
G01 X153.7678 Y88.0438
G01 X153.6952 Y87.9990
G01 X153.6267 Y87.9482
G01 X153.5627 Y87.8917
G01 X153.5038 Y87.8300
G01 X153.4503 Y87.7634
G01 X153.4028 Y87.6926
G01 X153.3614 Y87.6180
G01 X153.3266 Y87.5401
G01 X150.9042 Y81.4381
G01 X150.8773 Y81.3615
G01 X150.8568 Y81.2829
G01 X150.8426 Y81.2030
G01 X150.8350 Y81.1222
G01 X150.8340 Y81.0410
G01 X150.8396 Y80.9600
G01 X150.8517 Y80.8798
G01 X150.8703 Y80.8008
G01 X150.8952 Y80.7235
G01 X150.9264 Y80.6485
G01 X150.9635 Y80.5763
G01 X151.0063 Y80.5074
G01 X151.0546 Y80.4421
G01 X151.1080 Y80.3810
G01 X151.1662 Y80.3244
G01 X151.2288 Y80.2727
G01 X151.2954 Y80.2263
G01 X151.3655 Y80.1854
G01 X151.4387 Y80.1504
G01 X151.5145 Y80.1214
G01 X151.5924 Y80.0986
G01 X151.6719 Y80.0822
G01 X151.7525 Y80.0724
G01 X151.8336 Y80.0691
G01 X156.6478
G01 X156.6939 Y80.0701
G01 X156.7399 Y80.0733
G01 X156.7857 Y80.0786
G01 X156.8312 Y80.0860
G01 X156.8763 Y80.0954
G01 X156.9209 Y80.1070
G01 X156.9650 Y80.1206
G01 X157.0084 Y80.1362
G01 X157.0510 Y80.1538
G01 X157.0928 Y80.1734
G01 X157.1336 Y80.1949
G01 X157.1733 Y80.2182
G01 X157.2120 Y80.2433
G01 X157.2495 Y80.2702
G01 X157.2856 Y80.2988
G01 X157.3204 Y80.3291
G01 X157.3538 Y80.3609
G01 X157.3857 Y80.3942
G01 X157.4160 Y80.4289
G01 X157.4447 Y80.4650
G01 X157.4717 Y80.5024
G01 X157.4969 Y80.5410
G01 X157.5203 Y80.5808
G01 X157.5418 Y80.6215
G01 X157.5615 Y80.6633
G01 X157.5792 Y80.7058
G01 X157.5949 Y80.7492
G01 X157.6086 Y80.7932
G01 X157.6202 Y80.8378
G01 X157.6298 Y80.8829
G01 X157.6373 Y80.9284
G01 X157.6427 Y80.9742
G01 X157.6459 Y81.0202
G01 X157.6471 Y81.0663
G01 X157.6461 Y81.1124
G01 X157.6429 Y81.1584
G01 X157.8430 Y81.1648
G01 X162.0202 Y79.6648
G01 X146.5839
G01 X145.9498 Y78.1648
G01 X162.6542
G01 X163.2883 Y76.6648
G01 X159.5688
G01 X160.1808 Y75.1648
G01 X163.9223
G00 Z5.0000
G00 X157.5819 Y88.6648
G00 Z0.5000
G01 Z-1.2000 F400
G01 Y90.1648 F1000
G01 X151.0222
G01 X151.6562 Y91.6648
G01 X156.9478
G00 Z5.0000
G00 X148.8837 Y78.1648
G00 Z0.5000
G01 Z-1.2000 F400
G01 Y76.6648 F1000
G01 X145.3158
G01 X144.6817 Y75.1648
G01 X148.2837
G01 X148.4701 Y75.0921
G01 X147.8756 Y73.6060
G01 X143.8057
G01 X152.0980 Y93.2236
G01 X156.5061
G01 X164.7983 Y73.6060
G01 X160.6008
G01 X159.2908 Y76.8167
G01 X159.2740 Y76.8555
G01 X159.2556 Y76.8935
G01 X159.2356 Y76.9307
G01 X159.2140 Y76.9671
G01 X159.1910 Y77.0025
G01 X159.1664 Y77.0369
G01 X159.1404 Y77.0702
G01 X159.1131 Y77.1024
G01 X159.0844 Y77.1335
G01 X159.0544 Y77.1632
G01 X159.0232 Y77.1917
G01 X158.9908 Y77.2189
G01 X158.9572 Y77.2446
G01 X158.9227 Y77.2689
G01 X158.8871 Y77.2917
G01 X158.8506 Y77.3130
G01 X158.8132 Y77.3328
G01 X158.7751 Y77.3509
G01 X158.7362 Y77.3675
G01 X158.6966 Y77.3823
G01 X158.6565 Y77.3955
G01 X158.6158 Y77.4069
G01 X158.5747 Y77.4167
G01 X158.5332 Y77.4247
G01 X158.4914 Y77.4309
G01 X158.4493 Y77.4354
G01 X158.4072 Y77.4380
G01 X158.3649 Y77.4389
G01 X150.0858
G01 X150.0433 Y77.4380
G01 X150.0009 Y77.4353
G01 X149.9586 Y77.4308
G01 X149.9166 Y77.4245
G01 X149.8749 Y77.4164
G01 X149.8335 Y77.4066
G01 X149.7926 Y77.3950
G01 X149.7522 Y77.3817
G01 X149.7125 Y77.3666
G01 X149.6734 Y77.3499
G01 X149.6351 Y77.3316
G01 X149.5975 Y77.3116
G01 X149.5609 Y77.2901
G01 X149.5252 Y77.2670
G01 X149.4905 Y77.2424
G01 X149.4569 Y77.2164
G01 X149.4244 Y77.1890
G01 X149.3931 Y77.1602
G01 X149.3631 Y77.1301
G01 X149.3344 Y77.0988
G01 X149.3070 Y77.0662
G01 X149.2811 Y77.0326
G01 X149.2566 Y76.9978
G01 X149.2336 Y76.9621
G01 X149.2121 Y76.9254
G01 X149.1922 Y76.8878
G01 X149.1740 Y76.8494
G01 X149.1573 Y76.8103
G01 X148.4701 Y75.0921
G01 X148.2837 Y75.1648
G00 Z5.0000


;No. 6: Hole 21
G00 X169.5918 Y75.0882 Z5.0000
G00 Z0.5000
G01 Z0.0000 F400
G01 Z-1.2000
G01 X173.1405 F1000
G01 Y76.5882
G01 X169.5918
G01 Y78.0882
G01 X173.1405
G01 X173.2421 Y79.5882
G01 X169.5918
G01 Y81.0882
G01 X182.3567
G01 X181.9279
G01 Y79.5882
G01 X178.0678
G01 X179.0654 Y78.0882
G01 X182.9327
G01 X183.9593 Y76.5882
G01 X180.0630
G01 X181.0607 Y75.0882
G01 X184.9860
G00 Z5.0000
G00 X178.8033 Y81.0882
G00 Z0.5000
G01 Z-1.2000 F400
G01 Y82.5882 F1000
G01 X184.6723
G01 X185.7129 Y84.0882
G01 X181.9295
G01 X182.5901 Y85.5882
G01 X186.1529
G01 X186.2268 Y87.0882
G01 X182.5951
G01 X181.9609 Y88.5882
G01 X186.0124
G01 X185.3515 Y90.0882
G01 X178.9155
G01 Y91.5882
G01 X183.8429
G01 X169.5918
G01 Y90.0882
G01 X174.0725
G01 X173.1405
G01 Y88.5882
G01 X169.5918
G01 Y87.0882
G01 X173.1405
G01 Y85.5882
G01 X169.5918
G01 Y84.0882
G01 X173.1405
G01 Y82.5882
G01 X174.1230
G01 X174.1462 Y82.7873
G01 X174.1702 Y82.7826
G01 X174.1943 Y82.7785
G01 X174.2185 Y82.7751
G01 X174.2428 Y82.7723
G01 X174.2672 Y82.7701
G01 X174.2916 Y82.7686
G01 X174.3161 Y82.7677
G01 X174.3405 Y82.7675
G01 X175.3827 Y82.7479
G01 X176.4251 Y82.7421
G01 X177.4674 Y82.7502
G01 X178.5095 Y82.7720
G01 X178.8958 Y82.7866
G01 X179.2794 Y82.8344
G01 X179.6574 Y82.9149
G01 X180.0272 Y83.0276
G01 X180.3859 Y83.1716
G01 X180.7309 Y83.3459
G01 X181.0596 Y83.5491
G01 X181.3697 Y83.7799
G01 X181.5667 Y83.9801
G01 X181.7469 Y84.1955
G01 X181.9091 Y84.4248
G01 X182.0523 Y84.6664
G01 X182.1755 Y84.9188
G01 X182.2779 Y85.1803
G01 X182.3589 Y85.4492
G01 X182.4178 Y85.7238
G01 X182.4545 Y86.0023
G01 X182.4685 Y86.2828
G01 X182.4598 Y86.5635
G01 X182.4285 Y86.8426
G01 X182.3795 Y87.1688
G01 X182.2978 Y87.4884
G01 X182.1842 Y87.7981
G01 X182.0399 Y88.0947
G01 X181.8662 Y88.3752
G01 X181.6651 Y88.6367
G01 X181.4386 Y88.8765
G01 X181.1890 Y89.0921
G01 X180.9188 Y89.2814
G01 X180.6309 Y89.4424
G01 X180.3281 Y89.5734
G01 X180.0137 Y89.6732
G01 X179.5782 Y89.7838
G01 X179.1357 Y89.8618
G01 X178.6886 Y89.9070
G01 X178.2394 Y89.9189
G01 X174.3405
G01 X174.2969 Y89.9179
G01 X174.2533 Y89.9151
G01 X174.2100 Y89.9103
G01 X174.1668 Y89.9037
G01 X174.1240 Y89.8952
G01 X174.0817 Y89.8848
G01 X174.0398 Y89.8726
G01 X173.9985 Y89.8586
G01 X173.9578 Y89.8428
G01 X173.9179 Y89.8252
G01 X173.8787 Y89.8059
G01 X173.8405 Y89.7849
G01 X173.8032 Y89.7623
G01 X173.7669 Y89.7380
G01 X173.7317 Y89.7122
G01 X173.6977 Y89.6849
G01 X173.6649 Y89.6562
G01 X173.6334 Y89.6260
G01 X173.6032 Y89.5945
G01 X173.5744 Y89.5617
G01 X173.5471 Y89.5277
G01 X173.5213 Y89.4925
G01 X173.4971 Y89.4562
G01 X173.4745 Y89.4189
G01 X173.4535 Y89.3806
G01 X173.4342 Y89.3415
G01 X173.4166 Y89.3016
G01 X173.4008 Y89.2609
G01 X173.3868 Y89.2196
G01 X173.3746 Y89.1777
G01 X173.3642 Y89.1353
G01 X173.3557 Y89.0925
G01 X173.3490 Y89.0494
G01 X173.3443 Y89.0060
G01 X173.3414 Y88.9625
G01 X173.3405 Y88.9189
G01 Y83.7675
G01 X173.3414 Y83.7245
G01 X173.3441 Y83.6816
G01 X173.3487 Y83.6389
G01 X173.3551 Y83.5964
G01 X173.3633 Y83.5543
G01 X173.3734 Y83.5125
G01 X173.3852 Y83.4712
G01 X173.3988 Y83.4304
G01 X173.4142 Y83.3903
G01 X173.4312 Y83.3509
G01 X173.4500 Y83.3122
G01 X173.4703 Y83.2744
G01 X173.4923 Y83.2375
G01 X173.5159 Y83.2015
G01 X173.5410 Y83.1666
G01 X173.5675 Y83.1329
G01 X173.5955 Y83.1003
G01 X173.6249 Y83.0689
G01 X173.6556 Y83.0389
G01 X173.6875 Y83.0101
G01 X173.7207 Y82.9828
G01 X173.7550 Y82.9570
G01 X173.7904 Y82.9326
G01 X173.8268 Y82.9098
G01 X173.8642 Y82.8885
G01 X173.9024 Y82.8689
G01 X173.9414 Y82.8510
G01 X173.9812 Y82.8348
G01 X174.0216 Y82.8202
G01 X174.0627 Y82.8075
G01 X174.1042 Y82.7965
G01 X174.1462 Y82.7873
G01 X174.1230 Y82.5882
G01 X169.5918
G01 X169.3918 Y82.5885
G01 Y93.0703
G01 X171.7429 Y93.0841
G01 X174.0942 Y93.0884
G01 X176.4454 Y93.0832
G01 X178.7965 Y93.0683
G01 X179.3554 Y93.0621
G01 X179.9133 Y93.0265
G01 X180.4684 Y92.9616
G01 X181.0194 Y92.8677
G01 X181.5647 Y92.7449
G01 X182.1028 Y92.5936
G01 X182.6323 Y92.4143
G01 X183.1515 Y92.2074
G01 X183.4631 Y92.0580
G01 X183.7645 Y91.8891
G01 X184.0546 Y91.7013
G01 X184.3322 Y91.4956
G01 X184.5962 Y91.2726
G01 X184.8455 Y91.0333
G01 X185.0790 Y90.7786
G01 X185.2959 Y90.5097
G01 X185.4953 Y90.2275
G01 X185.6764 Y89.9331
G01 X185.8384 Y89.6279
G01 X185.9807 Y89.3130
G01 X186.1027 Y88.9898
G01 X186.2039 Y88.6594
G01 X186.2839 Y88.3232
G01 X186.3425 Y87.9827
G01 X186.3928 Y87.6426
G01 X186.4268 Y87.3006
G01 X186.4442 Y86.9573
G01 X186.4452 Y86.6136
G01 X186.4296 Y86.2702
G01 X186.3976 Y85.9280
G01 X186.3491 Y85.5877
G01 X186.2844 Y85.2501
G01 X186.2035 Y84.9160
G01 X186.1066 Y84.5862
G01 X185.9940 Y84.2615
G01 X185.8660 Y83.9425
G01 X185.6929 Y83.6209
G01 X185.5007 Y83.3104
G01 X185.2900 Y83.0122
G01 X185.0615 Y82.7273
G01 X184.8161 Y82.4568
G01 X184.5548 Y82.2018
G01 X184.2784 Y81.9631
G01 X183.9880 Y81.7416
G01 X183.6848 Y81.5382
G01 X183.3697 Y81.3536
G01 X183.0440 Y81.1885
G01 X182.7088 Y81.0435
G01 X182.6220 Y81.0103
G01 X182.5386 Y80.9692
G01 X182.4594 Y80.9207
G01 X182.3850 Y80.8650
G01 X182.3160 Y80.8026
G01 X182.2532 Y80.7342
G01 X182.1969 Y80.6602
G01 X182.1476 Y80.5814
G01 X182.1059 Y80.4984
G01 X182.0720 Y80.4118
G01 X182.0462 Y80.3225
G01 X182.0288 Y80.2312
G01 X182.0199 Y80.1387
G01 X182.0196 Y80.0458
G01 X182.0279 Y79.9532
G01 X182.0446 Y79.8618
G01 X182.0698 Y79.7723
G01 X182.1031 Y79.6855
G01 X182.1443 Y79.6022
G01 X182.1930 Y79.5231
G01 X186.2427 Y73.6060
G01 X181.8063
G01 X177.7795 Y79.6604
G01 X177.7313 Y79.7268
G01 X177.6779 Y79.7889
G01 X177.6196 Y79.8465
G01 X177.5567 Y79.8991
G01 X177.4898 Y79.9464
G01 X177.4192 Y79.9881
G01 X177.3454 Y80.0238
G01 X177.2690 Y80.0533
G01 X177.1903 Y80.0765
G01 X177.1101 Y80.0932
G01 X177.0287 Y80.1033
G01 X176.9468 Y80.1066
G01 X174.3405
G01 X174.2620 Y80.1036
G01 X174.1840 Y80.0943
G01 X174.1070 Y80.0790
G01 X174.0315 Y80.0577
G01 X173.9578 Y80.0305
G01 X173.8865 Y79.9976
G01 X173.8180 Y79.9593
G01 X173.7527 Y79.9157
G01 X173.6910 Y79.8670
G01 X173.6334 Y79.8137
G01 X173.5801 Y79.7561
G01 X173.5315 Y79.6944
G01 X173.4878 Y79.6291
G01 X173.4495 Y79.5606
G01 X173.4166 Y79.4893
G01 X173.3894 Y79.4157
G01 X173.3681 Y79.3401
G01 X173.3528 Y79.2631
G01 X173.3436 Y79.1851
G01 X173.3405 Y79.1066
G01 Y73.6060
G01 X169.3918
G01 Y82.5885
G01 X169.5918 Y82.5882
G00 Z5.0000


;No. 7: Hole 3
G00 X191.6387 Y82.5882 Z5.0000
G00 Z0.5000
G01 Z0.0000 F400
G01 Z-1.2000
G01 X202.7952 F1000
G01 X203.8252 Y81.0882
G01 X199.6685
G01 X200.6839 Y79.5882
G01 X204.8553
G01 X205.8854 Y78.0882
G01 X201.6993
G01 X202.7147 Y76.5882
G01 X206.9155
G01 X207.9455 Y75.0882
G01 X203.7301
G00 Z5.0000
G00 X201.7651 Y82.5882
G00 Z0.5000
G01 Z-1.2000 F400
G01 Y84.0882 F1000
G01 X191.6387
G01 Y85.5882
G01 X195.1874
G01 Y87.0882
G01 X191.6387
G01 Y88.5882
G01 X195.1874
G01 Y90.0882
G01 X191.6387
G01 Y91.5882
G01 X195.1874
G00 Z5.0000
G00 X198.1532 Y84.0882
G00 Z0.5000
G01 Z-1.2000 F400
G01 Y85.5882 F1000
G01 X201.7666
G01 X203.0839 Y87.0882
G01 X199.4261
G01 X200.6990 Y88.5882
G01 X204.4045
G01 X205.7251 Y90.0882
G01 X201.9719
G01 X203.2447 Y91.5882
G01 X207.0457
G00 Z5.0000
G00 X197.4092 Y82.5882
G00 Z0.5000
G01 Z-1.2000 F400
G01 Y81.0882 F1000
G01 X191.6387
G01 Y79.5882
G01 X196.0611
G01 X195.1874
G01 Y78.0882
G01 X191.6387
G01 Y76.5882
G01 X195.1874
G01 Y75.0882
G01 X191.6387
G01 X191.4387 Y75.1005
G01 Y93.0703
G01 X195.3874
G01 Y85.3620
G01 X195.3885 Y85.3151
G01 X195.3918 Y85.2683
G01 X195.3973 Y85.2218
G01 X195.4049 Y85.1755
G01 X195.4147 Y85.1297
G01 X195.4267 Y85.0843
G01 X195.4408 Y85.0396
G01 X195.4569 Y84.9956
G01 X195.4751 Y84.9524
G01 X195.4953 Y84.9101
G01 X195.5174 Y84.8688
G01 X195.5415 Y84.8286
G01 X195.5674 Y84.7895
G01 X195.5952 Y84.7517
G01 X195.6246 Y84.7153
G01 X195.6558 Y84.6802
G01 X195.6885 Y84.6467
G01 X195.7228 Y84.6147
G01 X195.7586 Y84.5844
G01 X195.7957 Y84.5558
G01 X195.8341 Y84.5289
G01 X195.8738 Y84.5039
G01 X195.9146 Y84.4808
G01 X195.9564 Y84.4596
G01 X195.9992 Y84.4404
G01 X196.0428 Y84.4232
G01 X196.0871 Y84.4081
G01 X196.1322 Y84.3951
G01 X196.1778 Y84.3842
G01 X196.2238 Y84.3754
G01 X196.2702 Y84.3688
G01 X196.3169 Y84.3644
G01 X196.3637 Y84.3622
G01 X196.4106
G01 X196.4574 Y84.3644
G01 X196.5041 Y84.3688
G01 X196.5505 Y84.3753
G01 X196.5966 Y84.3841
G01 X196.6422 Y84.3950
G01 X196.6872 Y84.4080
G01 X196.7316 Y84.4231
G01 X196.7752 Y84.4402
G01 X196.8180 Y84.4594
G01 X196.8598 Y84.4806
G01 X196.9006 Y84.5037
G01 X196.9403 Y84.5287
G01 X196.9787 Y84.5555
G01 X197.0159 Y84.5841
G01 X197.0516 Y84.6144
G01 X197.0859 Y84.6464
G01 X197.1187 Y84.6799
G01 X197.1499 Y84.7149
G01 X204.2402 Y93.0703
G01 X208.6171
G01 X201.9535 Y85.5015
G01 X201.9231 Y85.4653
G01 X201.8944 Y85.4277
G01 X201.8676 Y85.3887
G01 X201.8426 Y85.3486
G01 X201.8196 Y85.3073
G01 X201.7985 Y85.2650
G01 X201.7795 Y85.2218
G01 X201.7625 Y85.1776
G01 X201.7476 Y85.1328
G01 X201.7349 Y85.0873
G01 X201.7243 Y85.0412
G01 X201.7160 Y84.9947
G01 X201.7098 Y84.9478
G01 X201.7058 Y84.9007
G01 X201.7041 Y84.8535
G01 X201.7046 Y84.8062
G01 X201.7074 Y84.7590
G01 X201.7123 Y84.7120
G01 X201.7195 Y84.6653
G01 X201.7289 Y84.6190
G01 X201.7405 Y84.5731
G01 X201.7542 Y84.5279
G01 X201.7700 Y84.4834
G01 X201.7880 Y84.4396
G01 X201.8079 Y84.3968
G01 X201.8299 Y84.3549
G01 X201.8539 Y84.3142
G01 X201.8797 Y84.2746
G01 X209.2060 Y73.6060
G01 X204.4919
G01 X199.3926 Y81.1390
G01 X199.3663 Y81.1760
G01 X199.3384 Y81.2118
G01 X199.3089 Y81.2462
G01 X199.2778 Y81.2793
G01 X199.2453 Y81.3109
G01 X199.2114 Y81.3410
G01 X199.1762 Y81.3696
G01 X199.1397 Y81.3965
G01 X199.1020 Y81.4217
G01 X199.0632 Y81.4452
G01 X199.0234 Y81.4670
G01 X198.9826 Y81.4868
G01 X198.9410 Y81.5049
G01 X198.8986 Y81.5210
G01 X198.8555 Y81.5352
G01 X198.8118 Y81.5474
G01 X198.7677 Y81.5576
G01 X198.7231 Y81.5658
G01 X198.6781 Y81.5720
G01 X198.6329 Y81.5761
G01 X198.5876 Y81.5782
G01 X198.5423
G01 X198.4970 Y81.5762
G01 X198.4518 Y81.5721
G01 X198.4069 Y81.5660
G01 X198.3622 Y81.5578
G01 X198.3180 Y81.5476
G01 X198.2744 Y81.5355
G01 X198.2313 Y81.5213
G01 X198.1888 Y81.5052
G01 X198.1472 Y81.4873
G01 X198.1064 Y81.4674
G01 X198.0666 Y81.4457
G01 X198.0278 Y81.4222
G01 X197.9901 Y81.3970
G01 X197.9535 Y81.3702
G01 X197.9183 Y81.3416
G01 X197.8843 Y81.3115
G01 X197.8518 Y81.2800
G01 X197.8207 Y81.2469
G01 X195.6436 Y78.8245
G01 X195.5857 Y78.7537
G01 X195.5344 Y78.6780
G01 X195.4903 Y78.5978
G01 X195.4536 Y78.5140
G01 X195.4248 Y78.4272
G01 X195.4041 Y78.3381
G01 X195.3916 Y78.2475
G01 X195.3874 Y78.1561
G01 Y73.6060
G01 X191.4387
G01 Y75.1005
G01 X191.6387 Y75.0882
G00 Z5.0000


;No. 8: Hole 4
G00 X214.1456 Y75.0882 Z5.0000
G00 Z0.5000
G01 Z0.0000 F400
G01 Z-1.2000
G01 X217.7249 F1000
G01 Y76.5882
G01 X214.1456
G01 Y78.0882
G01 X217.7249
G01 Y79.5882
G01 X214.1456
G01 Y81.0882
G01 X217.7249
G01 Y82.5882
G01 X214.1456
G01 Y84.0882
G01 X217.7249
G01 Y85.5882
G01 X214.1456
G01 Y87.0882
G01 X217.7249
G01 Y88.5882
G01 X214.1456
G01 Y90.0882
G01 X217.7249
G01 Y91.5882
G01 X214.1456
G01 X213.9456 Y91.5759
G01 Y93.0703
G01 X217.9249
G01 Y73.6060
G01 X213.9456
G01 Y91.5759
G01 X214.1456 Y91.5882
G00 Z5.0000


;No. 9: Hole 5
G00 X224.0498 Y91.5882 Z5.0000
G00 Z0.5000
G01 Z0.0000 F400
G01 Z-1.2000
G01 X228.8112 F1000
G01 X229.9788 Y90.0882
G01 X224.0498
G01 Y88.5882
G01 X231.1464
G01 X232.3139 Y87.0882
G01 X224.0498
G01 Y85.5882
G01 X233.4815
G01 X234.6491 Y84.0882
G01 X230.4858
G01 X231.6538 Y82.5882
G01 X235.8166
G01 X232.8218 Y81.0882
G01 X241.9182
G01 Y79.5882
G01 X233.9897
G01 X235.1577 Y78.0882
G01 X241.9182
G01 Y76.5882
G01 X236.3257
G01 X237.4936 Y75.0882
G01 X241.9182
G00 Z5.0000
G00 Y81.0882
G00 Z0.5000
G01 Z-1.2000 F400
G01 Y82.5882 F1000
G01 X238.4222
G01 X238.4309 Y84.0882
G01 X241.9182
G01 Y85.5882
G01 X238.4309
G01 Y87.0882
G01 X241.9182
G01 Y88.5882
G01 X238.4309
G01 Y90.0882
G01 X241.9182
G01 Y91.5882
G01 X238.4309
G00 Z5.0000
G00 X227.5372 Y85.5882
G00 Z0.5000
G01 Z-1.2000 F400
G01 Y84.0882 F1000
G01 X224.0498
G01 Y82.5882
G01 X227.5372
G01 Y81.0882
G01 X224.0498
G01 Y79.5882
G01 X227.5372
G01 Y78.0882
G01 X224.0498
G01 Y76.5882
G01 X227.5372
G01 Y75.0882
G01 X224.0498
G01 X223.8498 Y75.1005
G01 Y93.0703
G01 X227.9110
G01 X236.4418 Y82.1107
G01 X236.4719 Y82.0737
G01 X236.5038 Y82.0383
G01 X236.5374 Y82.0044
G01 X236.5726 Y81.9722
G01 X236.6092 Y81.9416
G01 X236.6472 Y81.9129
G01 X236.6866 Y81.8860
G01 X236.7272 Y81.8610
G01 X236.7690 Y81.8380
G01 X236.8118 Y81.8170
G01 X236.8556 Y81.7980
G01 X236.9002 Y81.7812
G01 X236.9456 Y81.7665
G01 X236.9916 Y81.7540
G01 X237.0381 Y81.7437
G01 X237.0852 Y81.7356
G01 X237.1325 Y81.7298
G01 X237.1800 Y81.7262
G01 X237.2277 Y81.7249
G01 X237.2754 Y81.7259
G01 X237.3230 Y81.7292
G01 X237.3703 Y81.7347
G01 X237.4174 Y81.7425
G01 X237.4640 Y81.7525
G01 X237.5101 Y81.7647
G01 X237.5556 Y81.7791
G01 X237.6003 Y81.7957
G01 X237.6442 Y81.8143
G01 X237.6871 Y81.8351
G01 X237.7291 Y81.8578
G01 X237.7698 Y81.8826
G01 X237.8094 Y81.9092
G01 X237.8476 Y81.9377
G01 X237.8844 Y81.9680
G01 X237.9198 Y82.0001
G01 X237.9536 Y82.0337
G01 X237.9857 Y82.0690
G01 X238.0161 Y82.1057
G01 X238.0447 Y82.1438
G01 X238.0715 Y82.1833
G01 X238.0964 Y82.2240
G01 X238.1193 Y82.2658
G01 X238.1402 Y82.3087
G01 X238.1590 Y82.3525
G01 X238.1757 Y82.3972
G01 X238.1902 Y82.4426
G01 X238.2026 Y82.4887
G01 X238.2127 Y82.5353
G01 X238.2207 Y82.5823
G01 X238.2263 Y82.6297
G01 X238.2297 Y82.6772
G01 X238.2309 Y82.7249
G01 Y93.0703
G01 X242.1182
G01 Y73.6060
G01 X238.3942
G01 X229.5262 Y84.9951
G01 X229.4687 Y85.0625
G01 X229.4056 Y85.1245
G01 X229.3371 Y85.1807
G01 X229.2640 Y85.2307
G01 X229.1868 Y85.2739
G01 X229.1060 Y85.3102
G01 X229.0223 Y85.3392
G01 X228.9364 Y85.3607
G01 X228.8490 Y85.3744
G01 X228.7606 Y85.3804
G01 X228.6721 Y85.3786
G01 X228.5841 Y85.3689
G01 X228.4973 Y85.3515
G01 X228.4124 Y85.3265
G01 X228.3300 Y85.2941
G01 X228.2508 Y85.2545
G01 X228.1754 Y85.2080
G01 X228.1044 Y85.1551
G01 X228.0384 Y85.0961
G01 X227.9779 Y85.0315
G01 X227.9233 Y84.9618
G01 X227.8751 Y84.8875
G01 X227.8336 Y84.8092
G01 X227.7993 Y84.7276
G01 X227.7722 Y84.6433
G01 X227.7528 Y84.5569
G01 X227.7411 Y84.4692
G01 X227.7371 Y84.3807
G01 X227.7372 Y73.6060
G01 X223.8498
G01 Y75.1005
G01 X224.0498 Y75.0882
G00 Z5.0000


;No. 10: Hole 6
G00 X247.7932 Y80.3382 Z5.0000
G00 Z0.5000
G01 Z0.0000 F400
G01 Z-1.2000
G01 X251.6324 F1000
G01 X251.2067 Y81.8382
G01 X247.4783
G01 X247.3846 Y83.3382
G01 X251.0868
G01 X251.2382 Y84.8382
G01 X247.4922
G01 X247.8283 Y86.3382
G01 X251.7107
G01 X252.6001 Y87.8382
G01 X248.4298
G01 X249.3645 Y89.3382
G01 X254.2199
G01 X250.7815 Y90.8382
G01 X264.4390
G01 X263.1974 Y89.3382
G01 X261.9474
G01 X262.7546 Y92.3382
G01 X253.1483
G00 Z5.0000
G00 X248.3717 Y80.3382
G00 Z0.5000
G01 Z-1.2000 F400
G01 Y78.8382 F1000
G01 X252.4669
G01 X254.0052 Y77.3382
G01 X249.2893
G01 X250.7057 Y75.8382
G01 X265.6734
G01 X265.9895 Y77.3382
G01 X262.3939
G01 X262.7469
G01 Y78.8382
G01 X265.9894
G01 X265.9892 Y80.3382
G01 X262.7469
G01 Y81.8382
G01 X262.1348
G01 X265.9891
G01 X265.9890 Y83.3382
G01 X258.5153
G00 Z5.0000
G00 X262.9291 Y75.8382
G00 Z0.5000
G01 Z-1.2000 F400
G01 Y74.3382 F1000
G01 X253.1128
G01 X253.0797 Y74.1345
G01 X252.5771 Y74.3641
G01 X252.0884 Y74.6221
G01 X251.6154 Y74.9077
G01 X251.1595 Y75.2199
G01 X250.7222 Y75.5578
G01 X250.3050 Y75.9201
G01 X249.9093 Y76.3058
G01 X249.5363 Y76.7135
G01 X249.1872 Y77.1419
G01 X248.8633 Y77.5896
G01 X248.5656 Y78.0551
G01 X248.2951 Y78.5369
G01 X248.0526 Y79.0334
G01 X247.8389 Y79.5431
G01 X247.6548 Y80.0641
G01 X247.5009 Y80.5948
G01 X247.3776 Y81.1334
G01 X247.2854 Y81.6783
G01 X247.2246 Y82.2275
G01 X247.1953 Y82.7793
G01 X247.1747 Y83.3369
G01 X247.1854 Y83.8948
G01 X247.2272 Y84.4512
G01 X247.3002 Y85.0044
G01 X247.4040 Y85.5526
G01 X247.5383 Y86.0941
G01 X247.7028 Y86.6273
G01 X247.8968 Y87.1505
G01 X248.1198 Y87.6619
G01 X248.3712 Y88.1601
G01 X248.6500 Y88.6434
G01 X248.9554 Y89.1104
G01 X249.2865 Y89.5595
G01 X249.6423 Y89.9894
G01 X250.0215 Y90.3986
G01 X250.4231 Y90.7860
G01 X250.8457 Y91.1504
G01 X251.2881 Y91.4904
G01 X251.7488 Y91.8052
G01 X252.2264 Y92.0937
G01 X252.7490 Y92.3614
G01 X253.2845 Y92.6024
G01 X253.8314 Y92.8162
G01 X254.3884 Y93.0022
G01 X254.9540 Y93.1599
G01 X255.5269 Y93.2890
G01 X256.1055 Y93.3890
G01 X256.6884 Y93.4599
G01 X257.2742 Y93.5013
G01 X257.8613 Y93.5132
G01 X258.4482 Y93.4956
G01 X259.0336 Y93.4484
G01 X259.5716 Y93.4011
G01 X260.1067 Y93.3278
G01 X260.6376 Y93.2287
G01 X261.1631 Y93.1041
G01 X261.6820 Y92.9542
G01 X262.1931 Y92.7794
G01 X262.6951 Y92.5802
G01 X263.1868 Y92.3569
G01 X263.6673 Y92.1100
G01 X264.1352 Y91.8403
G01 X264.5895 Y91.5482
G01 X265.0292 Y91.2346
G01 X262.8266 Y88.5773
G01 X262.7494 Y88.5959
G01 X262.4068 Y88.8356
G01 X262.0524 Y89.0575
G01 X261.6870 Y89.2608
G01 X261.3117 Y89.4450
G01 X260.9274 Y89.6098
G01 X260.5351 Y89.7545
G01 X260.1360 Y89.8790
G01 X259.7309 Y89.9827
G01 X259.3211 Y90.0655
G01 X258.9075 Y90.1272
G01 X258.4914 Y90.1675
G01 X258.0737 Y90.1864
G01 X257.6556 Y90.1838
G01 X257.2382 Y90.1597
G01 X256.8225 Y90.1142
G01 X256.4098 Y90.0475
G01 X255.9486 Y89.9202
G01 X255.4979 Y89.7600
G01 X255.0600 Y89.5675
G01 X254.6371 Y89.3439
G01 X254.2315 Y89.0903
G01 X253.8454 Y88.8080
G01 X253.4807 Y88.4985
G01 X253.1393 Y88.1634
G01 X252.8230 Y87.8045
G01 X252.5336 Y87.4236
G01 X252.2724 Y87.0229
G01 X252.0410 Y86.6042
G01 X251.8404 Y86.1699
G01 X251.6718 Y85.7223
G01 X251.5360 Y85.2636
G01 X251.4338 Y84.7963
G01 X251.3459 Y84.2939
G01 X251.2923 Y83.7867
G01 X251.2734 Y83.2769
G01 X251.2891 Y82.7671
G01 X251.3396 Y82.2596
G01 X251.4244 Y81.7566
G01 X251.5433 Y81.2606
G01 X251.6956 Y80.7738
G01 X251.8806 Y80.2985
G01 X252.0976 Y79.8369
G01 X252.3455 Y79.3911
G01 X252.6231 Y78.9632
G01 X252.8753 Y78.6480
G01 X253.1460 Y78.3486
G01 X253.4343 Y78.0660
G01 X253.7391 Y77.8014
G01 X254.0593 Y77.5556
G01 X254.3938 Y77.3296
G01 X254.7413 Y77.1242
G01 X255.1005 Y76.9401
G01 X255.4702 Y76.7780
G01 X255.8490 Y76.6386
G01 X256.2356 Y76.5222
G01 X256.6284 Y76.4294
G01 X257.0262 Y76.3604
G01 X257.4273 Y76.3156
G01 X257.8305 Y76.2951
G01 X258.2341 Y76.2989
G01 X258.5782 Y76.2991
G01 X258.9219 Y76.3163
G01 X259.2642 Y76.3504
G01 X259.6045 Y76.4013
G01 X259.9419 Y76.4690
G01 X260.2755 Y76.5532
G01 X260.6046 Y76.6538
G01 X260.9283 Y76.7705
G01 X261.2458 Y76.9030
G01 X261.5564 Y77.0510
G01 X261.8594 Y77.2142
G01 X262.1539 Y77.3921
G01 X262.1897 Y77.4208
G01 X262.2242 Y77.4511
G01 X262.2573 Y77.4830
G01 X262.2889 Y77.5163
G01 X262.3188 Y77.5511
G01 X262.3472 Y77.5872
G01 X262.3739 Y77.6246
G01 X262.3988 Y77.6631
G01 X262.4220 Y77.7028
G01 X262.4433 Y77.7435
G01 X262.4627 Y77.7851
G01 X262.4801 Y77.8276
G01 X262.4957 Y77.8708
G01 X262.5092 Y77.9147
G01 X262.5206 Y77.9591
G01 X262.5301 Y78.0041
G01 X262.5374 Y78.0494
G01 X262.5427 Y78.0950
G01 X262.5458 Y78.1408
G01 X262.5469 Y78.1867
G01 Y80.7931
G01 X262.5459 Y80.8367
G01 X262.5431 Y80.8803
G01 X262.5383 Y80.9236
G01 X262.5317 Y80.9668
G01 X262.5232 Y81.0096
G01 X262.5128 Y81.0519
G01 X262.5006 Y81.0938
G01 X262.4866 Y81.1351
G01 X262.4708 Y81.1758
G01 X262.4532 Y81.2157
G01 X262.4339 Y81.2549
G01 X262.4129 Y81.2931
G01 X262.3903 Y81.3304
G01 X262.3660 Y81.3667
G01 X262.3402 Y81.4019
G01 X262.3129 Y81.4359
G01 X262.2842 Y81.4687
G01 X262.2540 Y81.5002
G01 X262.2225 Y81.5304
G01 X262.1897 Y81.5592
G01 X262.1556 Y81.5865
G01 X262.1205 Y81.6123
G01 X262.0842 Y81.6365
G01 X262.0469 Y81.6591
G01 X262.0086 Y81.6801
G01 X261.9695 Y81.6994
G01 X261.9296 Y81.7170
G01 X261.8889 Y81.7328
G01 X261.8476 Y81.7468
G01 X261.8057 Y81.7590
G01 X261.7633 Y81.7694
G01 X261.7205 Y81.7779
G01 X261.6774 Y81.7846
G01 X261.6340 Y81.7893
G01 X261.5905 Y81.7922
G01 X261.5469 Y81.7931
G01 X258.3153
G01 Y84.1473
G01 X266.1889
G01 Y75.9784
G01 X266.1850 Y75.9674
G01 X265.6761 Y75.5960
G01 X265.1506 Y75.2486
G01 X264.6093 Y74.9262
G01 X264.0537 Y74.6293
G01 X263.4848 Y74.3586
G01 X262.9039 Y74.1148
G01 X262.3123 Y73.8983
G01 X261.7112 Y73.7097
G01 X261.1020 Y73.5492
G01 X260.4860 Y73.4173
G01 X259.8645 Y73.3143
G01 X259.2389 Y73.2404
G01 X258.6105 Y73.1958
G01 X257.9807 Y73.1804
G01 X257.3508 Y73.1945
G01 X256.7223 Y73.2379
G01 X256.0966 Y73.3106
G01 X255.4749 Y73.4123
G01 X254.8586 Y73.5429
G01 X254.2490 Y73.7022
G01 X253.9522 Y73.7976
G01 X253.6582 Y73.9015
G01 X253.3673 Y74.0138
G01 X253.0797 Y74.1345
G01 X253.1128 Y74.3382
G00 Z5.0000


;No. 11: Helical drill 3
G00 X272.9000 Y27.0005 Z5.0000
G00 Z0.5000
G01 X272.8990 Y26.9577 Z0.4861 F400
G01 X272.8959 Y26.9149 Z0.4722
G01 X272.8909 Y26.8724 Z0.4583
G01 X272.8838 Y26.8302 Z0.4444
G01 X272.8747 Y26.7883 Z0.4306
G01 X272.8636 Y26.7469 Z0.4167
G01 X272.8505 Y26.7061 Z0.4028
G01 X272.8356 Y26.6660 Z0.3889
G01 X272.8187 Y26.6266 Z0.3750
G01 X272.8000 Y26.5881 Z0.3611
G01 X272.7794 Y26.5505 Z0.3472
G01 X272.7571 Y26.5139 Z0.3333
G01 X272.7331 Y26.4784 Z0.3194
G01 X272.7075 Y26.4441 Z0.3056
G01 X272.6802 Y26.4111 Z0.2917
G01 X272.6514 Y26.3794 Z0.2778
G01 X272.6211 Y26.3491 Z0.2639
G01 X272.5894 Y26.3203 Z0.2500
G01 X272.5564 Y26.2930 Z0.2361
G01 X272.5221 Y26.2674 Z0.2222
G01 X272.4866 Y26.2434 Z0.2083
G01 X272.4500 Y26.2211 Z0.1944
G01 X272.4124 Y26.2005 Z0.1806
G01 X272.3739 Y26.1818 Z0.1667
G01 X272.3345 Y26.1650 Z0.1528
G01 X272.2944 Y26.1500 Z0.1389
G01 X272.2536 Y26.1369 Z0.1250
G01 X272.2122 Y26.1259 Z0.1111
G01 X272.1703 Y26.1167 Z0.0972
G01 X272.1281 Y26.1096 Z0.0833
G01 X272.0856 Y26.1046 Z0.0694
G01 X272.0428 Y26.1015 Z0.0556
G01 X272.0000 Y26.1005 Z0.0417
G01 X271.9572 Y26.1015 Z0.0278
G01 X271.9145 Y26.1046 Z0.0139
G01 X271.8719 Y26.1096 Z0.0000
G01 X271.8297 Y26.1167 Z-0.0139
G01 X271.7878 Y26.1259 Z-0.0278
G01 X271.7465 Y26.1369 Z-0.0417
G01 X271.7057 Y26.1500 Z-0.0556
G01 X271.6655 Y26.1650 Z-0.0694
G01 X271.6261 Y26.1818 Z-0.0833
G01 X271.5876 Y26.2005 Z-0.0972
G01 X271.5500 Y26.2211 Z-0.1111
G01 X271.5134 Y26.2434 Z-0.1250
G01 X271.4780 Y26.2674 Z-0.1389
G01 X271.4437 Y26.2930 Z-0.1528
G01 X271.4106 Y26.3203 Z-0.1667
G01 X271.3789 Y26.3491 Z-0.1806
G01 X271.3487 Y26.3794 Z-0.1944
G01 X271.3198 Y26.4111 Z-0.2083
G01 X271.2926 Y26.4441 Z-0.2222
G01 X271.2669 Y26.4784 Z-0.2361
G01 X271.2429 Y26.5139 Z-0.2500
G01 X271.2206 Y26.5505 Z-0.2639
G01 X271.2001 Y26.5881 Z-0.2778
G01 X271.1814 Y26.6266 Z-0.2917
G01 X271.1645 Y26.6660 Z-0.3056
G01 X271.1495 Y26.7061 Z-0.3194
G01 X271.1365 Y26.7469 Z-0.3333
G01 X271.1254 Y26.7883 Z-0.3472
G01 X271.1163 Y26.8302 Z-0.3611
G01 X271.1092 Y26.8724 Z-0.3750
G01 X271.1041 Y26.9149 Z-0.3889
G01 X271.1010 Y26.9577 Z-0.4028
G01 X271.1000 Y27.0005 Z-0.4167
G01 X271.1010 Y27.0433 Z-0.4306
G01 X271.1041 Y27.0860 Z-0.4444
G01 X271.1092 Y27.1286 Z-0.4583
G01 X271.1163 Y27.1708 Z-0.4722
G01 X271.1254 Y27.2127 Z-0.4861
G01 X271.1365 Y27.2540 Z-0.5000
G01 X271.1495 Y27.2948 Z-0.5139
G01 X271.1645 Y27.3350 Z-0.5278
G01 X271.1814 Y27.3744 Z-0.5417
G01 X271.2001 Y27.4129 Z-0.5556
G01 X271.2206 Y27.4505 Z-0.5694
G01 X271.2429 Y27.4871 Z-0.5833
G01 X271.2669 Y27.5225 Z-0.5972
G01 X271.2926 Y27.5568 Z-0.6111
G01 X271.3198 Y27.5899 Z-0.6250
G01 X271.3487 Y27.6216 Z-0.6389
G01 X271.3789 Y27.6518 Z-0.6528
G01 X271.4106 Y27.6807 Z-0.6667
G01 X271.4437 Y27.7079 Z-0.6806
G01 X271.4780 Y27.7336 Z-0.6944
G01 X271.5134 Y27.7576 Z-0.7083
G01 X271.5500 Y27.7799 Z-0.7222
G01 X271.5876 Y27.8004 Z-0.7361
G01 X271.6261 Y27.8192 Z-0.7500
G01 X271.6655 Y27.8360 Z-0.7639
G01 X271.7057 Y27.8510 Z-0.7778
G01 X271.7465 Y27.8640 Z-0.7917
G01 X271.7878 Y27.8751 Z-0.8056
G01 X271.8297 Y27.8842 Z-0.8194
G01 X271.8719 Y27.8913 Z-0.8333
G01 X271.9145 Y27.8964 Z-0.8472
G01 X271.9572 Y27.8995 Z-0.8611
G01 X272.0000 Y27.9005 Z-0.8750
G01 X272.0428 Y27.8995 Z-0.8889
G01 X272.0856 Y27.8964 Z-0.9028
G01 X272.1281 Y27.8913 Z-0.9167
G01 X272.1703 Y27.8842 Z-0.9306
G01 X272.2122 Y27.8751 Z-0.9444
G01 X272.2536 Y27.8640 Z-0.9583
G01 X272.2944 Y27.8510 Z-0.9722
G01 X272.3345 Y27.8360 Z-0.9861
G01 X272.3739 Y27.8192 Z-1.0000
G01 X272.4124 Y27.8004 Z-1.0139
G01 X272.4500 Y27.7799 Z-1.0278
G01 X272.4866 Y27.7576 Z-1.0417
G01 X272.5221 Y27.7336 Z-1.0556
G01 X272.5564 Y27.7079 Z-1.0694
G01 X272.5894 Y27.6807 Z-1.0833
G01 X272.6211 Y27.6518 Z-1.0972
G01 X272.6514 Y27.6216 Z-1.1111
G01 X272.6802 Y27.5899 Z-1.1250
G01 X272.7075 Y27.5568 Z-1.1389
G01 X272.7331 Y27.5225 Z-1.1528
G01 X272.7571 Y27.4871 Z-1.1667
G01 X272.7794 Y27.4505 Z-1.1806
G01 X272.8000 Y27.4129 Z-1.1944
G01 X272.8187 Y27.3744 Z-1.2083
G01 X272.8356 Y27.3350 Z-1.2222
G01 X272.8505 Y27.2948 Z-1.2361
G01 X272.8636 Y27.2540 Z-1.2500
G01 X272.8747 Y27.2127 Z-1.2639
G01 X272.8838 Y27.1708 Z-1.2778
G01 X272.8909 Y27.1286 Z-1.2917
G01 X272.8959 Y27.0860 Z-1.3056
G01 X272.8990 Y27.0433 Z-1.3194
G01 X272.9000 Y27.0005 Z-1.3333
G01 X272.8990 Y26.9577
G01 X272.8959 Y26.9149
G01 X272.8909 Y26.8724
G01 X272.8838 Y26.8302
G01 X272.8747 Y26.7883
G01 X272.8636 Y26.7469
G01 X272.8505 Y26.7061
G01 X272.8356 Y26.6660
G01 X272.8187 Y26.6266
G01 X272.8000 Y26.5881
G01 X272.7794 Y26.5505
G01 X272.7571 Y26.5139
G01 X272.7331 Y26.4784
G01 X272.7075 Y26.4441
G01 X272.6802 Y26.4111
G01 X272.6514 Y26.3794
G01 X272.6211 Y26.3491
G01 X272.5894 Y26.3203
G01 X272.5564 Y26.2930
G01 X272.5221 Y26.2674
G01 X272.4866 Y26.2434
G01 X272.4500 Y26.2211
G01 X272.4124 Y26.2005
G01 X272.3739 Y26.1818
G01 X272.3345 Y26.1650
G01 X272.2944 Y26.1500
G01 X272.2536 Y26.1369
G01 X272.2122 Y26.1259
G01 X272.1703 Y26.1167
G01 X272.1281 Y26.1096
G01 X272.0856 Y26.1046
G01 X272.0428 Y26.1015
G01 X272.0000 Y26.1005
G01 X271.9572 Y26.1015
G01 X271.9145 Y26.1046
G01 X271.8719 Y26.1096
G01 X271.8297 Y26.1167
G01 X271.7878 Y26.1259
G01 X271.7465 Y26.1369
G01 X271.7057 Y26.1500
G01 X271.6655 Y26.1650
G01 X271.6261 Y26.1818
G01 X271.5876 Y26.2005
G01 X271.5500 Y26.2211
G01 X271.5134 Y26.2434
G01 X271.4780 Y26.2674
G01 X271.4437 Y26.2930
G01 X271.4106 Y26.3203
G01 X271.3789 Y26.3491
G01 X271.3487 Y26.3794
G01 X271.3198 Y26.4111
G01 X271.2926 Y26.4441
G01 X271.2669 Y26.4784
G01 X271.2429 Y26.5139
G01 X271.2206 Y26.5505
G01 X271.2001 Y26.5881
G01 X271.1814 Y26.6266
G01 X271.1645 Y26.6660
G01 X271.1495 Y26.7061
G01 X271.1365 Y26.7469
G01 X271.1254 Y26.7883
G01 X271.1163 Y26.8302
G01 X271.1092 Y26.8724
G01 X271.1041 Y26.9149
G01 X271.1010 Y26.9577
G01 X271.1000 Y27.0005
G01 X271.1010 Y27.0433
G01 X271.1041 Y27.0860
G01 X271.1092 Y27.1286
G01 X271.1163 Y27.1708
G01 X271.1254 Y27.2127
G01 X271.1365 Y27.2540
G01 X271.1495 Y27.2948
G01 X271.1645 Y27.3350
G01 X271.1814 Y27.3744
G01 X271.2001 Y27.4129
G01 X271.2206 Y27.4505
G01 X271.2429 Y27.4871
G01 X271.2669 Y27.5225
G01 X271.2926 Y27.5568
G01 X271.3198 Y27.5899
G01 X271.3487 Y27.6216
G01 X271.3789 Y27.6518
G01 X271.4106 Y27.6807
G01 X271.4437 Y27.7079
G01 X271.4780 Y27.7336
G01 X271.5134 Y27.7576
G01 X271.5500 Y27.7799
G01 X271.5876 Y27.8004
G01 X271.6261 Y27.8192
G01 X271.6655 Y27.8360
G01 X271.7057 Y27.8510
G01 X271.7465 Y27.8640
G01 X271.7878 Y27.8751
G01 X271.8297 Y27.8842
G01 X271.8719 Y27.8913
G01 X271.9145 Y27.8964
G01 X271.9572 Y27.8995
G01 X272.0000 Y27.9005
G01 X272.0428 Y27.8995
G01 X272.0856 Y27.8964
G01 X272.1281 Y27.8913
G01 X272.1703 Y27.8842
G01 X272.2122 Y27.8751
G01 X272.2536 Y27.8640
G01 X272.2944 Y27.8510
G01 X272.3345 Y27.8360
G01 X272.3739 Y27.8192
G01 X272.4124 Y27.8004
G01 X272.4500 Y27.7799
G01 X272.4866 Y27.7576
G01 X272.5221 Y27.7336
G01 X272.5564 Y27.7079
G01 X272.5894 Y27.6807
G01 X272.6211 Y27.6518
G01 X272.6514 Y27.6216
G01 X272.6802 Y27.5899
G01 X272.7075 Y27.5568
G01 X272.7331 Y27.5225
G01 X272.7571 Y27.4871
G01 X272.7794 Y27.4505
G01 X272.8000 Y27.4129
G01 X272.8187 Y27.3744
G01 X272.8356 Y27.3350
G01 X272.8505 Y27.2948
G01 X272.8636 Y27.2540
G01 X272.8747 Y27.2127
G01 X272.8838 Y27.1708
G01 X272.8909 Y27.1286
G01 X272.8959 Y27.0860
G01 X272.8990 Y27.0433
G01 X272.9000 Y27.0005
G01 X272.9076 Y26.9694 F1000
G01 X272.9140 Y26.9381
G01 X272.9194 Y26.9066
G01 X272.9237 Y26.8750
G01 X272.9269 Y26.8432
G01 X272.9289 Y26.8113
G01 X272.9299 Y26.7793
G01 X272.9297 Y26.7474
G01 X272.9285 Y26.7155
G01 X272.9261 Y26.6836
G01 X272.9227 Y26.6518
G01 X272.9181 Y26.6202
G01 X272.9084 Y26.5687
G01 X272.8961 Y26.5178
G01 X272.8812 Y26.4675
G01 X272.8637 Y26.4181
G01 X272.8436 Y26.3697
G01 X272.8211 Y26.3224
G01 X272.7962 Y26.2763
G01 X272.7690 Y26.2315
G01 X272.7370 Y26.1845
G01 X272.7026 Y26.1391
G01 X272.6659 Y26.0956
G01 X272.6271 Y26.0541
G01 X272.5862 Y26.0145
G01 X272.5433 Y25.9771
G01 X272.4985 Y25.9420
G01 X272.4521 Y25.9092
G01 X272.4002 Y25.8763
G01 X272.3467 Y25.8462
G01 X272.2917 Y25.8188
G01 X272.2354 Y25.7942
G01 X272.1780 Y25.7726
G01 X272.1195 Y25.7539
G01 X272.0601 Y25.7382
G01 X272.0000 Y25.7255
G01 X271.9349 Y25.7152
G01 X271.8693 Y25.7081
G01 X271.8035 Y25.7044
G01 X271.7376 Y25.7041
G01 X271.6717 Y25.7071
G01 X271.6061 Y25.7134
G01 X271.5409 Y25.7230
G01 X271.4762 Y25.7359
G01 X271.4079 Y25.7532
G01 X271.3405 Y25.7739
G01 X271.2743 Y25.7979
G01 X271.2094 Y25.8253
G01 X271.1459 Y25.8559
G01 X271.0841 Y25.8897
G01 X271.0240 Y25.9265
G01 X270.9659 Y25.9663
G01 X270.9124 Y26.0158
G01 X270.8613 Y26.0678
G01 X270.8129 Y26.1222
G01 X270.7673 Y26.1790
G01 X270.7245 Y26.2380
G01 X270.6847 Y26.2990
G01 X270.6479 Y26.3619
G01 X270.6142 Y26.4265
G01 X270.5877 Y26.4952
G01 X270.5646 Y26.5651
G01 X270.5450 Y26.6360
G01 X270.5289 Y26.7079
G01 X270.5163 Y26.7804
G01 X270.5073 Y26.8535
G01 X270.5019 Y26.9269
G01 X270.5000 Y27.0005
G01 X270.5019 Y27.0741
G01 X270.5073 Y27.1475
G01 X270.5163 Y27.2206
G01 X270.5289 Y27.2931
G01 X270.5450 Y27.3650
G01 X270.5646 Y27.4359
G01 X270.5877 Y27.5058
G01 X270.6142 Y27.5745
G01 X270.6441 Y27.6418
G01 X270.6772 Y27.7076
G01 X270.7134 Y27.7716
G01 X270.7528 Y27.8338
G01 X270.7952 Y27.8940
G01 X270.8405 Y27.9521
G01 X270.8886 Y28.0078
G01 X270.9394 Y28.0611
G01 X270.9927 Y28.1119
G01 X271.0484 Y28.1600
G01 X271.1065 Y28.2053
G01 X271.1667 Y28.2477
G01 X271.2289 Y28.2871
G01 X271.2929 Y28.3233
G01 X271.3587 Y28.3564
G01 X271.4260 Y28.3863
G01 X271.4947 Y28.4128
G01 X271.5646 Y28.4359
G01 X271.6356 Y28.4555
G01 X271.7074 Y28.4716
G01 X271.7799 Y28.4842
G01 X271.8530 Y28.4932
G01 X271.9264 Y28.4987
G01 X272.0000 Y28.5005
G01 X272.0736 Y28.4987
G01 X272.1470 Y28.4932
G01 X272.2201 Y28.4842
G01 X272.2927 Y28.4716
G01 X272.3645 Y28.4555
G01 X272.4354 Y28.4359
G01 X272.5053 Y28.4128
G01 X272.5740 Y28.3863
G01 X272.6413 Y28.3564
G01 X272.7071 Y28.3233
G01 X272.7712 Y28.2871
G01 X272.8334 Y28.2477
G01 X272.8936 Y28.2053
G01 X272.9516 Y28.1600
G01 X273.0073 Y28.1119
G01 X273.0607 Y28.0611
G01 X273.1114 Y28.0078
G01 X273.1595 Y27.9521
G01 X273.2048 Y27.8940
G01 X273.2472 Y27.8338
G01 X273.2866 Y27.7716
G01 X273.3229 Y27.7076
G01 X273.3560 Y27.6418
G01 X273.3858 Y27.5745
G01 X273.4123 Y27.5058
G01 X273.4354 Y27.4359
G01 X273.4550 Y27.3650
G01 X273.4712 Y27.2931
G01 X273.4838 Y27.2206
G01 X273.4928 Y27.1475
G01 X273.4982 Y27.0741
G01 X273.5000 Y27.0005
G01 X273.4958 Y26.8884
G01 X273.4832 Y26.7769
G01 X273.4624 Y26.6667
G01 X273.4334 Y26.5584
G01 X273.3963 Y26.4525
G01 X273.3515 Y26.3497
G01 X273.2990 Y26.2505
G01 X273.2394 Y26.1555
G01 X273.1727 Y26.0653
G01 X273.0996 Y25.9802
G01 X273.0203 Y25.9009
G01 X272.9352 Y25.8278
G01 X272.8450 Y25.7611
G01 X272.7500 Y25.7015
G01 X272.6508 Y25.6491
G01 X272.5480 Y25.6042
G01 X272.4421 Y25.5671
G01 X272.3338 Y25.5381
G01 X272.2236 Y25.5173
G01 X272.1121 Y25.5047
G01 X272.0000 Y25.5005
G01 X271.8879 Y25.5047
G01 X271.7765 Y25.5173
G01 X271.6662 Y25.5381
G01 X271.5579 Y25.5671
G01 X271.4520 Y25.6042
G01 X271.3492 Y25.6491
G01 X271.2500 Y25.7015
G01 X271.1551 Y25.7611
G01 X271.0648 Y25.8278
G01 X270.9798 Y25.9009
G01 X270.9005 Y25.9802
G01 X270.8273 Y26.0653
G01 X270.7607 Y26.1555
G01 X270.7010 Y26.2505
G01 X270.6486 Y26.3497
G01 X270.6037 Y26.4525
G01 X270.5667 Y26.5584
G01 X270.5377 Y26.6667
G01 X270.5168 Y26.7769
G01 X270.5042 Y26.8884
G01 X270.5000 Y27.0005
G01 X270.5042 Y27.1126
G01 X270.5168 Y27.2240
G01 X270.5377 Y27.3343
G01 X270.5667 Y27.4426
G01 X270.6037 Y27.5485
G01 X270.6486 Y27.6513
G01 X270.7010 Y27.7505
G01 X270.7607 Y27.8455
G01 X270.8273 Y27.9357
G01 X270.9005 Y28.0207
G01 X270.9798 Y28.1000
G01 X271.0648 Y28.1732
G01 X271.1551 Y28.2398
G01 X271.2500 Y28.2995
G01 X271.3492 Y28.3519
G01 X271.4520 Y28.3968
G01 X271.5579 Y28.4338
G01 X271.6662 Y28.4629
G01 X271.7765 Y28.4837
G01 X271.8879 Y28.4963
G01 X272.0000 Y28.5005
G01 X272.1121 Y28.4963
G01 X272.2236 Y28.4837
G01 X272.3338 Y28.4629
G01 X272.4421 Y28.4338
G01 X272.5480 Y28.3968
G01 X272.6508 Y28.3519
G01 X272.7500 Y28.2995
G01 X272.8450 Y28.2398
G01 X272.9352 Y28.1732
G01 X273.0203 Y28.1000
G01 X273.0996 Y28.0207
G01 X273.1727 Y27.9357
G01 X273.2394 Y27.8455
G01 X273.2990 Y27.7505
G01 X273.3515 Y27.6513
G01 X273.3963 Y27.5485
G01 X273.4334 Y27.4426
G01 X273.4624 Y27.3343
G01 X273.4832 Y27.2240
G01 X273.4958 Y27.1126
G01 X273.5000 Y27.0005
G01 X273.4954 Y26.8959
G01 X273.4818 Y26.7921
G01 X273.4591 Y26.6899
G01 X273.4276 Y26.5901
G01 X273.3876 Y26.4933
G01 X273.3392 Y26.4005
G01 X273.2830 Y26.3122
G01 X273.2193 Y26.2291
G01 X273.1485 Y26.1520
G01 X273.0713 Y26.0812
G01 X272.9883 Y26.0175
G01 X272.9000 Y25.9613
G01 X272.8071 Y25.9129
G01 X272.7104 Y25.8729
G01 X272.6106 Y25.8414
G01 X272.5084 Y25.8187
G01 X272.4046 Y25.8051
G01 X272.3000 Y25.8005
G01 X272.1954 Y25.8051
G01 X272.0916 Y25.8187
G01 X271.9894 Y25.8414
G01 X271.8896 Y25.8729
G01 X271.7929 Y25.9129
G01 X271.7000 Y25.9613
G01 X271.6117 Y26.0175
G01 X271.5287 Y26.0812
G01 X271.4515 Y26.1520
G01 X271.3808 Y26.2291
G01 X271.3170 Y26.3122
G01 X271.2608 Y26.4005
G01 X271.2124 Y26.4933
G01 X271.1724 Y26.5901
G01 X271.1409 Y26.6899
G01 X271.1183 Y26.7921
G01 X271.1046 Y26.8959
G01 X271.1000 Y27.0005
G01 X271.1011 Y27.0446
G01 X271.1044 Y27.0887
G01 X271.1098 Y27.1325
G01 X271.1173 Y27.1761
G01 X271.1270 Y27.2192
G01 X271.1388 Y27.2617
G01 X271.1526 Y27.3037
G01 X271.1685 Y27.3449
G01 X271.1864 Y27.3853
G01 X271.2063 Y27.4247
G01 X271.2281 Y27.4632
G01 X271.2517 Y27.5005
G01 X271.2771 Y27.5366
G01 X271.3043 Y27.5714
G01 X271.3332 Y27.6049
G01 X271.3636 Y27.6369
G01 X271.3956 Y27.6673
G01 X271.4291 Y27.6962
G01 X271.4639 Y27.7234
G01 X271.5000 Y27.7488
G01 X271.5373 Y27.7724
G01 X271.5758 Y27.7942
G01 X271.6152 Y27.8141
G01 X271.6556 Y27.8320
G01 X271.6968 Y27.8479
G01 X271.7388 Y27.8617
G01 X271.7813 Y27.8735
G01 X271.8244 Y27.8832
G01 X271.8680 Y27.8907
G01 X271.9118 Y27.8962
G01 X271.9559 Y27.8994
G01 X272.0000 Y27.9005
G01 X272.0442 Y27.8994
G01 X272.0882 Y27.8962
G01 X272.1321 Y27.8907
G01 X272.1756 Y27.8832
G01 X272.2187 Y27.8735
G01 X272.2613 Y27.8617
G01 X272.3032 Y27.8479
G01 X272.3444 Y27.8320
G01 X272.3848 Y27.8141
G01 X272.4243 Y27.7942
G01 X272.4627 Y27.7724
G01 X272.5000 Y27.7488
G01 X272.5361 Y27.7234
G01 X272.5710 Y27.6962
G01 X272.6044 Y27.6673
G01 X272.6364 Y27.6369
G01 X272.6669 Y27.6049
G01 X272.6957 Y27.5714
G01 X272.7229 Y27.5366
G01 X272.7483 Y27.5005
G01 X272.7720 Y27.4632
G01 X272.7937 Y27.4247
G01 X272.8136 Y27.3853
G01 X272.8315 Y27.3449
G01 X272.8474 Y27.3037
G01 X272.8613 Y27.2617
G01 X272.8730 Y27.2192
G01 X272.8827 Y27.1761
G01 X272.8903 Y27.1325
G01 X272.8957 Y27.0887
G01 X272.8989 Y27.0446
G01 X272.9000 Y27.0005
G01 X272.8990 Y26.9577 Z-1.3472 F400
G01 X272.8959 Y26.9149 Z-1.3611
G01 X272.8909 Y26.8724 Z-1.3750
G01 X272.8838 Y26.8302 Z-1.3889
G01 X272.8747 Y26.7883 Z-1.4028
G01 X272.8636 Y26.7469 Z-1.4167
G01 X272.8505 Y26.7061 Z-1.4306
G01 X272.8356 Y26.6660 Z-1.4444
G01 X272.8187 Y26.6266 Z-1.4583
G01 X272.8000 Y26.5881 Z-1.4722
G01 X272.7794 Y26.5505 Z-1.4861
G01 X272.7571 Y26.5139 Z-1.5000
G01 X272.7331 Y26.4784 Z-1.5139
G01 X272.7075 Y26.4441 Z-1.5278
G01 X272.6802 Y26.4111 Z-1.5417
G01 X272.6514 Y26.3794 Z-1.5556
G01 X272.6211 Y26.3491 Z-1.5694
G01 X272.5894 Y26.3203 Z-1.5833
G01 X272.5564 Y26.2930 Z-1.5972
G01 X272.5221 Y26.2674 Z-1.6111
G01 X272.4866 Y26.2434 Z-1.6250
G01 X272.4500 Y26.2211 Z-1.6389
G01 X272.4124 Y26.2005 Z-1.6528
G01 X272.3739 Y26.1818 Z-1.6667
G01 X272.3345 Y26.1650 Z-1.6806
G01 X272.2944 Y26.1500 Z-1.6944
G01 X272.2536 Y26.1369 Z-1.7083
G01 X272.2122 Y26.1259 Z-1.7222
G01 X272.1703 Y26.1167 Z-1.7361
G01 X272.1281 Y26.1096 Z-1.7500
G01 X272.0856 Y26.1046 Z-1.7639
G01 X272.0428 Y26.1015 Z-1.7778
G01 X272.0000 Y26.1005 Z-1.7917
G01 X271.9572 Y26.1015 Z-1.8056
G01 X271.9145 Y26.1046 Z-1.8194
G01 X271.8719 Y26.1096 Z-1.8333
G01 X271.8297 Y26.1167 Z-1.8472
G01 X271.7878 Y26.1259 Z-1.8611
G01 X271.7465 Y26.1369 Z-1.8750
G01 X271.7057 Y26.1500 Z-1.8889
G01 X271.6655 Y26.1650 Z-1.9028
G01 X271.6261 Y26.1818 Z-1.9167
G01 X271.5876 Y26.2005 Z-1.9306
G01 X271.5500 Y26.2211 Z-1.9444
G01 X271.5134 Y26.2434 Z-1.9583
G01 X271.4780 Y26.2674 Z-1.9722
G01 X271.4437 Y26.2930 Z-1.9861
G01 X271.4106 Y26.3203 Z-2.0000
G01 X271.3789 Y26.3491 Z-2.0139
G01 X271.3487 Y26.3794 Z-2.0278
G01 X271.3198 Y26.4111 Z-2.0417
G01 X271.2926 Y26.4441 Z-2.0556
G01 X271.2669 Y26.4784 Z-2.0694
G01 X271.2429 Y26.5139 Z-2.0833
G01 X271.2206 Y26.5505 Z-2.0972
G01 X271.2001 Y26.5881 Z-2.1111
G01 X271.1814 Y26.6266 Z-2.1250
G01 X271.1645 Y26.6660 Z-2.1389
G01 X271.1495 Y26.7061 Z-2.1528
G01 X271.1365 Y26.7469 Z-2.1667
G01 X271.1254 Y26.7883 Z-2.1806
G01 X271.1163 Y26.8302 Z-2.1944
G01 X271.1092 Y26.8724 Z-2.2083
G01 X271.1041 Y26.9149 Z-2.2222
G01 X271.1010 Y26.9577 Z-2.2361
G01 X271.1000 Y27.0005 Z-2.2500
G01 X271.1010 Y27.0433 Z-2.2639
G01 X271.1041 Y27.0860 Z-2.2778
G01 X271.1092 Y27.1286 Z-2.2917
G01 X271.1163 Y27.1708 Z-2.3056
G01 X271.1254 Y27.2127 Z-2.3194
G01 X271.1365 Y27.2540 Z-2.3333
G01 X271.1495 Y27.2948 Z-2.3472
G01 X271.1645 Y27.3350 Z-2.3611
G01 X271.1814 Y27.3744 Z-2.3750
G01 X271.2001 Y27.4129 Z-2.3889
G01 X271.2206 Y27.4505 Z-2.4028
G01 X271.2429 Y27.4871 Z-2.4167
G01 X271.2669 Y27.5225 Z-2.4306
G01 X271.2926 Y27.5568 Z-2.4444
