;Project Heidelberg Wallbox
;Created by Estlcam version 11 build 11,227
;Machining time about 00:09:50 hours

G90
M03 S18000
G00 X0.0000 Y0.0000 Z0.0000
G00 Z2.0000


;No. 1: Hole 1
G00 X69.0051 Y225.7564
G00 Z0.5000
G01 Z0.0000 F400 S18000
G01 Z-1.2000
M106 S240
G01 X71.8885 F1000
G01 Y227.2564
G01 X69.0051
G01 Y228.7564
G01 X71.8885
G01 Y230.2564
G01 X69.0051
G01 Y231.7564
G01 X71.8885
G01 Y233.2564
G01 X69.0051
G01 Y234.7564
G01 X71.8885
G01 Y236.2564
G01 X69.0051
G01 Y237.7564
G01 X71.8885
G01 Y239.2564
G01 X69.0051
G01 X69.0022 Y240.7564
G01 X71.8914
G01 Y242.2564
G01 X80.6159
G01 X60.2346
G01 X58.7113 Y243.7564
G01 X82.1771
G01 X82.3663 Y243.6860
G01 X82.1906 Y243.3927
G01 X81.9893 Y243.1163
G01 X81.7640 Y242.8590
G01 X81.5167 Y242.6230
G01 X81.2492 Y242.4100
G01 X80.9638 Y242.2217
G01 X80.6626 Y242.0598
G01 X80.3482 Y241.9255
G01 X80.0230 Y241.8198
G01 X79.6897 Y241.7437
G01 X79.3509 Y241.6977
G01 X79.0093 Y241.6822
G01 X73.0885
G01 X73.0449 Y241.6812
G01 X73.0014 Y241.6784
G01 X72.9580 Y241.6736
G01 X72.9149 Y241.6670
G01 X72.8721 Y241.6585
G01 X72.8297 Y241.6481
G01 X72.7878 Y241.6359
G01 X72.7465 Y241.6219
G01 X72.7058 Y241.6060
G01 X72.6659 Y241.5885
G01 X72.6268 Y241.5692
G01 X72.5885 Y241.5482
G01 X72.5512 Y241.5256
G01 X72.5149 Y241.5013
G01 X72.4798 Y241.4755
G01 X72.4457 Y241.4482
G01 X72.4129 Y241.4194
G01 X72.3814 Y241.3893
G01 X72.3512 Y241.3578
G01 X72.3225 Y241.3250
G01 X72.2952 Y241.2909
G01 X72.2694 Y241.2557
G01 X72.2451 Y241.2195
G01 X72.2225 Y241.1822
G01 X72.2015 Y241.1439
G01 X72.1822 Y241.1048
G01 X72.1646 Y241.0648
G01 X72.1488 Y241.0242
G01 X72.1348 Y240.9829
G01 X72.1226 Y240.9410
G01 X72.1122 Y240.8986
G01 X72.1037 Y240.8558
G01 X72.0971 Y240.8127
G01 X72.0923 Y240.7693
G01 X72.0895 Y240.7258
G01 X72.0885 Y240.6822
G01 Y224.5472
G01 X68.8051
G01 Y240.6821
G01 X68.8020 Y240.7605
G01 X68.7928 Y240.8385
G01 X68.7775 Y240.9155
G01 X68.7562 Y240.9911
G01 X68.7290 Y241.0648
G01 X68.6961 Y241.1361
G01 X68.6578 Y241.2046
G01 X68.6141 Y241.2699
G01 X68.5655 Y241.3315
G01 X68.5122 Y241.3892
G01 X68.4546 Y241.4425
G01 X68.3929 Y241.4911
G01 X68.3276 Y241.5347
G01 X68.2591 Y241.5731
G01 X68.1878 Y241.6060
G01 X68.1141 Y241.6331
G01 X68.0386 Y241.6544
G01 X67.9616 Y241.6698
G01 X67.8836 Y241.6790
G01 X67.8051 Y241.6821
G01 X61.8875
G01 X61.5458 Y241.6919
G01 X61.2063 Y241.7331
G01 X60.8721 Y241.8052
G01 X60.5459 Y241.9076
G01 X60.2305 Y242.0395
G01 X59.9285 Y242.1999
G01 X59.6424 Y242.3872
G01 X59.3748 Y242.6000
G01 X59.1278 Y242.8364
G01 X58.9035 Y243.0945
G01 X58.7039 Y243.3720
G01 X58.5305 Y243.6667
G01 X58.3849 Y243.9761
G01 X58.2683 Y244.2975
G01 X58.1816 Y244.6283
G01 X58.1257 Y244.9656
G01 X82.7679
G01 X82.7131 Y244.6329
G01 X82.6274 Y244.3068
G01 X82.5115 Y243.9903
G01 X82.3663 Y243.6860
G01 X82.1771 Y243.7564
M107
G00 Z2.0000


;No. 2: Hole 2
G00 X92.2703 Y243.3238 Z2.0000
G00 Z0.5000
G01 Z0.0000 F400
G01 Z-1.2000
M106 S240
G01 X115.1822 F1000
G01 X115.3581 Y243.2250
G01 X115.1733 Y242.9931
G01 X114.9708 Y242.7764
G01 X114.7520 Y242.5763
G01 X114.5182 Y242.3938
G01 X114.2709 Y242.2303
G01 X114.0114 Y242.0866
G01 X113.7416 Y241.9637
G01 X113.4629 Y241.8623
G01 X113.1772 Y241.7830
G01 X112.8861 Y241.7263
G01 X112.5915 Y241.6926
G01 X112.2951 Y241.6821
G01 X95.1734
G01 X94.8316 Y241.6919
G01 X94.4922 Y241.7331
G01 X94.1579 Y241.8052
G01 X93.8317 Y241.9076
G01 X93.5163 Y242.0395
G01 X93.2143 Y242.1999
G01 X92.9283 Y242.3872
G01 X92.6606 Y242.6000
G01 X92.4136 Y242.8364
G01 X92.1894 Y243.0945
G01 X91.9897 Y243.3720
G01 X91.8163 Y243.6667
G01 X91.6707 Y243.9761
G01 X91.5541 Y244.2975
G01 X91.4675 Y244.6283
G01 X91.4115 Y244.9656
G01 X116.0537 Y244.9655
G01 X116.0190 Y244.7310
G01 X115.9687 Y244.4993
G01 X115.9032 Y244.2715
G01 X115.8226 Y244.0486
G01 X115.7273 Y243.8315
G01 X115.6178 Y243.6213
G01 X115.4946 Y243.4188
G01 X115.3581 Y243.2250
G01 X115.1822 Y243.3238
M107
G00 Z2.0000


;No. 3: Hole 3
G00 X115.1822 Y234.7564 Z2.0000
G00 Z0.5000
G01 Z0.0000 F400
G01 Z-1.2000
M106 S240
G01 X92.2702 F1000
G01 X92.1093 Y234.6377
G01 X91.9732 Y234.8346
G01 X91.8502 Y235.0399
G01 X91.7407 Y235.2528
G01 X91.6454 Y235.4723
G01 X91.5644 Y235.6976
G01 X91.4983 Y235.9276
G01 X91.4473 Y236.1614
G01 X91.4115 Y236.3981
G01 X116.0537
G01 X115.9929 Y236.0632
G01 X115.9023 Y235.7352
G01 X115.7827 Y235.4166
G01 X115.6350 Y235.1100
G01 X115.4604 Y234.8179
G01 X115.2604 Y234.5426
G01 X115.0365 Y234.2863
G01 X114.7905 Y234.0511
G01 X114.5244 Y233.8390
G01 X114.2404 Y233.6515
G01 X113.9407 Y233.4902
G01 X113.6278 Y233.3565
G01 X113.3041 Y233.2513
G01 X112.9723 Y233.1756
G01 X112.6351 Y233.1299
G01 X112.2951 Y233.1147
G01 X95.1733
G01 X94.8768 Y233.1197
G01 X94.5817 Y233.1487
G01 X94.2899 Y233.2014
G01 X94.0033 Y233.2774
G01 X93.7237 Y233.3763
G01 X93.4531 Y233.4975
G01 X93.1931 Y233.6401
G01 X92.9454 Y233.8032
G01 X92.7118 Y233.9858
G01 X92.4936 Y234.1866
G01 X92.2923 Y234.4044
G01 X92.1093 Y234.6377
G01 X92.2702 Y234.7564
M107
G00 Z2.0000


;No. 4: Hole 4
G00 X92.2702 Y226.1889 Z2.0000
G00 Z0.5000
G01 Z0.0000 F400
G01 Z-1.2000
M106 S240
G01 X115.1822 F1000
G01 X115.3581 Y226.0901
G01 X115.1733 Y225.8582
G01 X114.9708 Y225.6415
G01 X114.7520 Y225.4414
G01 X114.5182 Y225.2590
G01 X114.2709 Y225.0954
G01 X114.0114 Y224.9517
G01 X113.7416 Y224.8288
G01 X113.4629 Y224.7274
G01 X113.1772 Y224.6481
G01 X112.8861 Y224.5914
G01 X112.5915 Y224.5577
G01 X112.2951 Y224.5472
G01 X95.1733
G01 X94.8314 Y224.5567
G01 X94.4919 Y224.5976
G01 X94.1575 Y224.6695
G01 X93.8312 Y224.7718
G01 X93.5156 Y224.9036
G01 X93.2135 Y225.0639
G01 X92.9274 Y225.2512
G01 X92.6597 Y225.4640
G01 X92.4126 Y225.7005
G01 X92.1884 Y225.9587
G01 X91.9887 Y226.2364
G01 X91.8155 Y226.5312
G01 X91.6700 Y226.8407
G01 X91.5536 Y227.1623
G01 X91.4672 Y227.4932
G01 X91.4115 Y227.8306
G01 X116.0537
G01 X116.0190 Y227.5961
G01 X115.9687 Y227.3644
G01 X115.9032 Y227.1366
G01 X115.8226 Y226.9137
G01 X115.7273 Y226.6966
G01 X115.6178 Y226.4864
G01 X115.4946 Y226.2839
G01 X115.3581 Y226.0901
G01 X115.1822 Y226.1889
M107
G00 Z2.0000


;No. 5: Hole 6
G00 X125.2914 Y225.7564 Z2.0000
G00 Z0.5000
G01 Z0.0000 F400
G01 Z-1.2000
M106 S240
G01 X149.1714 F1000
G01 Y227.2564
G01 X126.8454
G01 X146.2850
G01 Y228.7564
G01 X149.1714
G01 Y230.2564
G01 X146.2880
G01 Y231.7564
G01 X149.1714
G01 Y233.2564
G01 X145.4572
G01 X149.1714 Y234.7564
G01 X124.8693
G01 Y236.2564
G01 X128.5834
G01 X127.7527
G01 Y237.7564
G01 X124.8693
G01 Y239.2564
G01 X127.7527
G01 X127.7556 Y240.7564
G01 X124.8693
G01 Y242.2564
G01 X147.1894
G01 X148.7506 Y243.7564
G01 X124.8693
G01 X124.6693 Y243.7419
G01 Y244.9656
G01 X149.3414
G01 X149.2803 Y244.6309
G01 X149.1895 Y244.3029
G01 X149.0697 Y243.9845
G01 X148.9219 Y243.6780
G01 X148.7473 Y243.3860
G01 X148.5472 Y243.1108
G01 X148.3233 Y242.8547
G01 X148.0773 Y242.6196
G01 X147.8113 Y242.4074
G01 X147.5274 Y242.2200
G01 X147.2278 Y242.0587
G01 X146.9150 Y241.9248
G01 X146.5915 Y241.8195
G01 X146.2598 Y241.7436
G01 X145.9227 Y241.6977
G01 X145.5828 Y241.6822
G01 X128.9527
G01 X128.9091 Y241.6812
G01 X128.8655 Y241.6784
G01 X128.8222 Y241.6736
G01 X128.7790 Y241.6670
G01 X128.7363 Y241.6585
G01 X128.6939 Y241.6481
G01 X128.6520 Y241.6359
G01 X128.6107 Y241.6219
G01 X128.5700 Y241.6060
G01 X128.5301 Y241.5885
G01 X128.4909 Y241.5692
G01 X128.4527 Y241.5482
G01 X128.4154 Y241.5256
G01 X128.3791 Y241.5013
G01 X128.3439 Y241.4755
G01 X128.3099 Y241.4482
G01 X128.2771 Y241.4194
G01 X128.2456 Y241.3893
G01 X128.2154 Y241.3578
G01 X128.1866 Y241.3250
G01 X128.1593 Y241.2909
G01 X128.1335 Y241.2557
G01 X128.1093 Y241.2195
G01 X128.0867 Y241.1822
G01 X128.0657 Y241.1439
G01 X128.0464 Y241.1048
G01 X128.0288 Y241.0648
G01 X128.0130 Y241.0242
G01 X127.9990 Y240.9829
G01 X127.9868 Y240.9410
G01 X127.9764 Y240.8986
G01 X127.9679 Y240.8558
G01 X127.9612 Y240.8127
G01 X127.9565 Y240.7693
G01 X127.9536 Y240.7258
G01 X127.9527 Y240.6822
G01 Y237.3981
G01 X127.9536 Y237.3545
G01 X127.9565 Y237.3109
G01 X127.9612 Y237.2676
G01 X127.9679 Y237.2245
G01 X127.9764 Y237.1817
G01 X127.9868 Y237.1393
G01 X127.9990 Y237.0974
G01 X128.0130 Y237.0561
G01 X128.0288 Y237.0154
G01 X128.0464 Y236.9755
G01 X128.0657 Y236.9364
G01 X128.0867 Y236.8981
G01 X128.1093 Y236.8608
G01 X128.1335 Y236.8245
G01 X128.1593 Y236.7893
G01 X128.1866 Y236.7553
G01 X128.2154 Y236.7225
G01 X128.2456 Y236.6910
G01 X128.2771 Y236.6608
G01 X128.3099 Y236.6321
G01 X128.3439 Y236.6047
G01 X128.3791 Y236.5789
G01 X128.4154 Y236.5547
G01 X128.4527 Y236.5321
G01 X128.4909 Y236.5111
G01 X128.5301 Y236.4918
G01 X128.5700 Y236.4742
G01 X128.6107 Y236.4584
G01 X128.6520 Y236.4444
G01 X128.6939 Y236.4322
G01 X128.7363 Y236.4218
G01 X128.7790 Y236.4133
G01 X128.8222 Y236.4067
G01 X128.8655 Y236.4019
G01 X128.9091 Y236.3991
G01 X128.9527 Y236.3981
G01 X149.3714
G01 Y224.5472
G01 X124.6991
G01 X124.7598 Y224.8821
G01 X124.8503 Y225.2103
G01 X124.9698 Y225.5289
G01 X125.1174 Y225.8356
G01 X125.2919 Y226.1278
G01 X125.4920 Y226.4032
G01 X125.7159 Y226.6595
G01 X125.9619 Y226.8947
G01 X126.2281 Y227.1069
G01 X126.5121 Y227.2944
G01 X126.8119 Y227.4556
G01 X127.1249 Y227.5893
G01 X127.4486 Y227.6944
G01 X127.7805 Y227.7700
G01 X128.1178 Y227.8155
G01 X128.4578 Y227.8306
G01 X145.0880
G01 X145.1316 Y227.8316
G01 X145.1751 Y227.8344
G01 X145.2185 Y227.8392
G01 X145.2616 Y227.8458
G01 X145.3044 Y227.8543
G01 X145.3468 Y227.8647
G01 X145.3887 Y227.8769
G01 X145.4300 Y227.8909
G01 X145.4706 Y227.9068
G01 X145.5106 Y227.9243
G01 X145.5497 Y227.9436
G01 X145.5880 Y227.9646
G01 X145.6253 Y227.9872
G01 X145.6615 Y228.0115
G01 X145.6967 Y228.0373
G01 X145.7307 Y228.0646
G01 X145.7636 Y228.0934
G01 X145.7951 Y228.1235
G01 X145.8252 Y228.1550
G01 X145.8540 Y228.1878
G01 X145.8813 Y228.2219
G01 X145.9071 Y228.2571
G01 X145.9314 Y228.2933
G01 X145.9540 Y228.3306
G01 X145.9750 Y228.3689
G01 X145.9943 Y228.4080
G01 X146.0118 Y228.4479
G01 X146.0277 Y228.4886
G01 X146.0417 Y228.5299
G01 X146.0539 Y228.5718
G01 X146.0643 Y228.6142
G01 X146.0728 Y228.6570
G01 X146.0794 Y228.7001
G01 X146.0842 Y228.7435
G01 X146.0870 Y228.7870
G01 X146.0880 Y228.8306
G01 Y232.1147
G01 X146.0870 Y232.1583
G01 X146.0842 Y232.2019
G01 X146.0794 Y232.2452
G01 X146.0728 Y232.2883
G01 X146.0643 Y232.3311
G01 X146.0539 Y232.3735
G01 X146.0417 Y232.4154
G01 X146.0277 Y232.4567
G01 X146.0118 Y232.4974
G01 X145.9943 Y232.5373
G01 X145.9750 Y232.5764
G01 X145.9540 Y232.6147
G01 X145.9314 Y232.6520
G01 X145.9071 Y232.6883
G01 X145.8813 Y232.7235
G01 X145.8540 Y232.7575
G01 X145.8252 Y232.7903
G01 X145.7951 Y232.8218
G01 X145.7636 Y232.8520
G01 X145.7307 Y232.8807
G01 X145.6967 Y232.9081
G01 X145.6615 Y232.9339
G01 X145.6253 Y232.9581
G01 X145.5880 Y232.9807
G01 X145.5497 Y233.0017
G01 X145.5106 Y233.0210
G01 X145.4706 Y233.0386
G01 X145.4300 Y233.0544
G01 X145.3887 Y233.0684
G01 X145.3468 Y233.0806
G01 X145.3044 Y233.0910
G01 X145.2616 Y233.0995
G01 X145.2185 Y233.1061
G01 X145.1751 Y233.1109
G01 X145.1316 Y233.1137
G01 X145.0880 Y233.1147
G01 X124.6693
G01 Y243.7419
G01 X124.8693 Y243.7564
M107
G00 Z2.0000


;No. 6: Hole 7
G00 X158.1551 Y243.7564 Z2.0000
G00 Z0.5000
G01 Z0.0000 F400
G01 Z-1.2000
M106 S240
G01 X161.0385 F1000
G01 Y242.2564
G01 X158.1551
G01 Y240.7564
G01 X161.0385
G01 Y239.2564
G01 X158.1551
G01 Y237.7564
G01 X161.0385
G01 Y236.2564
G01 X158.1551
G01 Y234.7564
G01 X161.0385
G01 Y233.2564
G01 X158.1551
G01 Y231.7564
G01 X161.0385
G01 Y230.2564
G01 X158.1551
G01 Y228.7564
G01 X161.0414
G01 X158.1551 Y227.2564
G01 X182.3037
G01 X181.3659 Y225.7564
G01 X158.1551
G01 X157.9551 Y225.7718
G01 Y244.9656
G01 X161.2385
G01 Y228.8306
G01 X161.2416 Y228.7517
G01 X161.2510 Y228.6732
G01 X161.2665 Y228.5957
G01 X161.2881 Y228.5197
G01 X161.3156 Y228.4456
G01 X161.3489 Y228.3740
G01 X161.3877 Y228.3051
G01 X161.4319 Y228.2396
G01 X161.4810 Y228.1778
G01 X161.5350 Y228.1200
G01 X161.5933 Y228.0667
G01 X161.6556 Y228.0181
G01 X161.7216 Y227.9746
G01 X161.7908 Y227.9365
G01 X161.8628 Y227.9039
G01 X161.9371 Y227.8771
G01 X162.0133 Y227.8563
G01 X162.0910 Y227.8415
G01 X162.1695 Y227.8330
G01 X162.2485 Y227.8306
G01 X182.6272
G01 X182.5664 Y227.4958
G01 X182.4758 Y227.1678
G01 X182.3562 Y226.8492
G01 X182.2085 Y226.5426
G01 X182.0339 Y226.2504
G01 X181.8339 Y225.9751
G01 X181.6100 Y225.7189
G01 X181.3640 Y225.4837
G01 X181.0979 Y225.2715
G01 X180.8139 Y225.0841
G01 X180.5142 Y224.9228
G01 X180.2013 Y224.7891
G01 X179.8776 Y224.6839
G01 X179.5458 Y224.6082
G01 X179.2086 Y224.5625
G01 X178.8686 Y224.5472
G01 X157.9551
G01 Y225.7718
G01 X158.1551 Y225.7564
M107
G00 Z2.0000


;No. 7: Hole 9
G00 X192.1298 Y243.3238 Z2.0000
G00 Z0.5000
G01 Z0.0000 F400
G01 Z-1.2000
M106 S240
G01 X215.0418 F1000
G01 X215.2179 Y243.2252
G01 X215.0332 Y242.9934
G01 X214.8309 Y242.7767
G01 X214.6123 Y242.5765
G01 X214.3786 Y242.3941
G01 X214.1314 Y242.2306
G01 X213.8721 Y242.0869
G01 X213.6024 Y241.9639
G01 X213.3239 Y241.8625
G01 X213.0382 Y241.7831
G01 X212.7473 Y241.7264
G01 X212.4528 Y241.6927
G01 X212.1565 Y241.6821
G01 X195.0348
G01 X194.6930 Y241.6919
G01 X194.3535 Y241.7330
G01 X194.0193 Y241.8051
G01 X193.6931 Y241.9075
G01 X193.3776 Y242.0394
G01 X193.0756 Y242.1997
G01 X192.7896 Y242.3870
G01 X192.5219 Y242.5998
G01 X192.2749 Y242.8363
G01 X192.0506 Y243.0944
G01 X191.8510 Y243.3719
G01 X191.6776 Y243.6667
G01 X191.5320 Y243.9760
G01 X191.4154 Y244.2975
G01 X191.3288 Y244.6282
G01 X191.2729 Y244.9656
G01 X215.9151 Y244.9655
G01 X215.8801 Y244.7310
G01 X215.8297 Y244.4993
G01 X215.7639 Y244.2715
G01 X215.6831 Y244.0486
G01 X215.5876 Y243.8316
G01 X215.4780 Y243.6214
G01 X215.3546 Y243.4190
G01 X215.2179 Y243.2252
G01 X215.0418 Y243.3238
M107
G00 Z2.0000


;No. 8: Hole 8
G00 X215.7450 Y234.9727 Z2.0000
G00 Z0.5000
G01 Z0.0000 F400
G01 Z-1.2000
M106 S240
G01 X191.4429 F1000
G01 Y233.4727
G01 X215.7450
G01 Y231.9727
G01 X212.8616
G01 Y230.4727
G01 X215.7450
G01 Y228.9727
G01 X212.8616
G01 Y227.4727
G01 X215.7450
G01 Y225.9727
G01 X212.8616
M107
G00 Z2.0000
G00 X194.3263 Y233.4727
G00 Z0.5000
G01 Z-1.2000 F400
M106 S240
G01 Y231.9727 F1000
G01 X191.4429
G01 Y230.4727
G01 X194.3263
G01 Y228.9727
G01 X191.4429
G01 Y227.4727
G01 X194.3263
G01 Y225.9727
G01 X191.4429
G01 X191.2429 Y225.9847
G01 Y236.3981
G01 X215.9450
G01 Y224.5472
G01 X212.6616
G01 Y232.1147
G01 X212.6585 Y232.1932
G01 X212.6492 Y232.2711
G01 X212.6339 Y232.3481
G01 X212.6126 Y232.4237
G01 X212.5854 Y232.4974
G01 X212.5526 Y232.5687
G01 X212.5142 Y232.6372
G01 X212.4706 Y232.7025
G01 X212.4220 Y232.7641
G01 X212.3687 Y232.8218
G01 X212.3110 Y232.8751
G01 X212.2493 Y232.9237
G01 X212.1841 Y232.9673
G01 X212.1155 Y233.0057
G01 X212.0442 Y233.0386
G01 X211.9706 Y233.0658
G01 X211.8950 Y233.0871
G01 X211.8180 Y233.1024
G01 X211.7400 Y233.1116
G01 X211.6616 Y233.1147
G01 X195.5263
G01 X195.4827 Y233.1137
G01 X195.4391 Y233.1109
G01 X195.3958 Y233.1061
G01 X195.3526 Y233.0995
G01 X195.3098 Y233.0910
G01 X195.2675 Y233.0806
G01 X195.2256 Y233.0684
G01 X195.1843 Y233.0544
G01 X195.1436 Y233.0386
G01 X195.1037 Y233.0210
G01 X195.0645 Y233.0017
G01 X195.0263 Y232.9807
G01 X194.9890 Y232.9581
G01 X194.9527 Y232.9339
G01 X194.9175 Y232.9081
G01 X194.8835 Y232.8807
G01 X194.8507 Y232.8520
G01 X194.8192 Y232.8218
G01 X194.7890 Y232.7903
G01 X194.7602 Y232.7575
G01 X194.7329 Y232.7235
G01 X194.7071 Y232.6883
G01 X194.6829 Y232.6520
G01 X194.6603 Y232.6147
G01 X194.6393 Y232.5764
G01 X194.6200 Y232.5373
G01 X194.6024 Y232.4974
G01 X194.5866 Y232.4567
G01 X194.5726 Y232.4154
G01 X194.5604 Y232.3735
G01 X194.5500 Y232.3311
G01 X194.5415 Y232.2883
G01 X194.5348 Y232.2452
G01 X194.5301 Y232.2019
G01 X194.5272 Y232.1583
G01 X194.5263 Y232.1147
G01 Y224.5472
G01 X191.2429
G01 Y225.9847
G01 X191.4429 Y225.9727
M107
G00 Z2.0000


;No. 9: Hole 5
G00 X188.4890 Y208.1612 Z2.0000
G00 Z0.5000
G01 Z0.0000 F400
G01 Z-1.2000
M106 S240
G01 X169.2066 F1000
G01 X175.5799
G01 Y206.6612
G01 X192.9199
G01 X197.0197 Y205.1612
G01 X180.9408
G01 X185.6255 Y203.6612
G01 X197.3379
G01 X196.6256 Y202.1612
G01 X189.8115
G01 X193.6074 Y200.6612
G01 X195.8865
M107
G00 Z2.0000
G00 X183.6248 Y208.1612
G00 Z0.5000
G01 Z-1.2000 F400
M106 S240
G01 Y209.6612 F1000
G01 X161.0030
G01 Y211.1612
G01 X146.1489
G01 X178.1649
G01 X171.8206
G01 Y212.6612
G01 X102.2370
G01 Y211.1612
G01 X95.8622
G01 X127.5486
G01 X113.0112
G01 Y209.6612
G01 X90.3743
G01 Y208.1612
G01 X85.4942
G01 X104.7426
G01 X98.3828
G01 Y206.6612
G01 X81.0699
G01 X77.0051 Y205.1612
G01 X93.0550
G01 X88.3970 Y203.6612
G01 X76.6770
G01 X77.4055 Y202.1612
G01 X84.2170
G01 X80.4000 Y200.6612
G01 X78.1587
M107
G00 Z2.0000
G00 X110.0917 Y212.6612
G00 Z0.5000
G01 Z-1.2000 F400
M106 S240
G01 Y214.1612 F1000
G01 X163.9684
G01 X152.5769
G01 Y215.6612
G01 X121.4486
G01 X121.3032 Y215.8477
G01 X123.2897 Y216.0324
G01 X125.2783 Y216.1923
G01 X127.2688 Y216.3273
G01 X129.2608 Y216.4375
G01 X131.2540 Y216.5228
G01 X133.2482 Y216.5832
G01 X135.2429 Y216.6187
G01 X137.2379 Y216.6292
G01 X139.2329 Y216.6149
G01 X141.2276 Y216.5757
G01 X143.2216 Y216.5116
G01 X145.2147 Y216.4226
G01 X147.2065 Y216.3087
G01 X149.1967 Y216.1699
G01 X151.1850 Y216.0063
G01 X153.1711 Y215.8179
G01 X155.1548 Y215.6048
G01 X157.1356 Y215.3668
G01 X159.1133 Y215.1042
G01 X161.0875 Y214.8169
G01 X163.4596 Y214.4432
G01 X165.8262 Y214.0367
G01 X168.1869 Y213.5973
G01 X170.5414 Y213.1253
G01 X172.8890 Y212.6206
G01 X175.2294 Y212.0834
G01 X177.5622 Y211.5137
G01 X179.8868 Y210.9117
G01 X182.2028 Y210.2775
G01 X184.5098 Y209.6113
G01 X186.8073 Y208.9131
G01 X189.0950 Y208.1830
G01 X191.3722 Y207.4213
G01 X193.6387 Y206.6281
G01 X195.8940 Y205.8035
G01 X198.1376 Y204.9476
G01 X197.5298 Y203.6052
G01 X196.9013 Y202.2723
G01 X196.2521 Y200.9494
G01 X195.5824 Y199.6367
G01 X194.6211 Y200.0209
G01 X193.6615 Y200.4093
G01 X192.7036 Y200.8018
G01 X191.7473 Y201.1985
G01 X189.8357 Y201.9303
G01 X187.9139 Y202.6350
G01 X185.9824 Y203.3126
G01 X184.0415 Y203.9628
G01 X182.0917 Y204.5856
G01 X180.1332 Y205.1808
G01 X178.1665 Y205.7484
G01 X176.1921 Y206.2881
G01 X174.2102 Y206.7999
G01 X172.2213 Y207.2837
G01 X170.2257 Y207.7394
G01 X168.2239 Y208.1669
G01 X166.2163 Y208.5662
G01 X164.2033 Y208.9370
G01 X162.1852 Y209.2794
G01 X160.1625 Y209.5934
G01 X158.1356 Y209.8787
G01 X156.1049 Y210.1354
G01 X154.0707 Y210.3635
G01 X152.0335 Y210.5628
G01 X150.6132 Y210.6796
G01 X149.1918 Y210.7828
G01 X147.7695 Y210.8724
G01 X146.3464 Y210.9483
G01 X144.9226 Y211.0106
G01 X143.4983 Y211.0593
G01 X142.0736 Y211.0944
G01 X140.6487 Y211.1158
G01 X139.1008 Y211.1432
G01 X137.5528 Y211.1587
G01 X136.0047 Y211.1622
G01 X134.4566 Y211.1538
G01 X132.9087 Y211.1333
G01 X131.3609 Y211.1009
G01 X129.8135 Y211.0565
G01 X128.2664 Y211.0002
G01 X125.9650 Y210.8716
G01 X123.6659 Y210.7068
G01 X121.3697 Y210.5059
G01 X119.0769 Y210.2689
G01 X116.7882 Y209.9959
G01 X114.5040 Y209.6868
G01 X112.2249 Y209.3419
G01 X109.9516 Y208.9612
G01 X107.6846 Y208.5448
G01 X105.4243 Y208.0927
G01 X103.1715 Y207.6052
G01 X100.9266 Y207.0822
G01 X98.6902 Y206.5241
G01 X96.4629 Y205.9308
G01 X94.2452 Y205.3025
G01 X92.0376 Y204.6395
G01 X90.3470 Y204.0958
G01 X88.6626 Y203.5330
G01 X86.9847 Y202.9510
G01 X85.3136 Y202.3500
G01 X83.6495 Y201.7300
G01 X81.9925 Y201.0911
G01 X80.3429 Y200.4333
G01 X78.7008 Y199.7569
G01 X78.6423 Y199.7346
G01 X78.5838 Y199.7126
G01 X78.5251 Y199.6907
G01 X78.4664 Y199.6690
G01 X77.7847 Y200.9681
G01 X77.1250 Y202.2784
G01 X76.4873 Y203.5996
G01 X75.8719 Y204.9313
G01 X78.0595 Y205.7723
G01 X80.2585 Y206.5829
G01 X82.4684 Y207.3631
G01 X84.6890 Y208.1127
G01 X86.9196 Y208.8316
G01 X89.1600 Y209.5196
G01 X91.4097 Y210.1766
G01 X93.6682 Y210.8024
G01 X95.9352 Y211.3971
G01 X98.2101 Y211.9603
G01 X100.4926 Y212.4922
G01 X102.7823 Y212.9924
G01 X105.0786 Y213.4610
G01 X107.3812 Y213.8978
G01 X109.6895 Y214.3028
G01 X112.0033 Y214.6759
G01 X114.3220 Y215.0170
G01 X116.6452 Y215.3260
G01 X118.9724 Y215.6029
G01 X121.3032 Y215.8477
G01 X121.4486 Y215.6612
M107
G00 Z2.0000


;No. 10: Hole 10
G00 X124.3577 Y203.3392 Z2.0000
G00 Z0.5000
G01 Z0.0000 F400
G01 Z-1.2000
M106 S240
G01 X113.6191 F1000
G01 Y201.8392
G01 X105.1637
G01 X125.5887
G01 X126.8197 Y200.3392
G01 X98.8425
G01 Y198.8392
G01 X93.6199
G01 X128.0507
G01 X129.2817 Y197.3392
G01 X89.1353
G01 X85.2096 Y195.8392
G01 X130.5143
G01 X131.7531 Y194.3392
G01 X81.9612
G01 X83.2286 Y192.8392
G01 X116.7099
G01 X103.0095
G01 Y191.3392
G01 X84.7086
G01 X86.4209 Y189.8392
G01 X99.6642
G01 X97.9073 Y188.3392
G01 X88.3907
G01 X90.6529 Y186.8392
G01 X96.8421
G01 X96.1774 Y185.3392
G01 X93.2707
M107
G00 Z2.0000
G00 X119.5457 Y194.3392
G00 Z0.5000
G01 Z-1.2000 F400
M106 S240
G01 Y192.8392 F1000
G01 X132.9993
G01 X134.2559 Y191.3392
G01 X120.7048
G01 X120.9734 Y189.8392
G01 X135.5335
G01 Y188.3392
G01 X121.2421
G01 X152.6880
G01 X152.4184 Y186.8392
G01 X121.5107
G01 X121.7794 Y185.3392
G01 X152.1493
G01 X151.8804 Y183.8392
G01 X122.0480
G01 X122.3167 Y182.3392
G01 X151.6117
G01 X151.3432 Y180.8392
G01 X122.5854
G01 X122.8540 Y179.3392
G01 X151.0748
G01 X150.8065 Y177.8392
G01 X123.1227
G01 X123.3913 Y176.3392
G01 X150.5383
G01 X150.2702 Y174.8392
G01 X123.6600
G01 X123.9287 Y173.3392
G01 X150.0021
G01 X149.7341 Y171.8392
G01 X124.1973
G01 X124.4660 Y170.3392
G01 X149.4662
G01 X149.1983 Y168.8392
G01 X124.7346
G01 X125.0033 Y167.3392
G01 X148.9305
G01 X148.6627 Y165.8392
G01 X125.2720
G01 X125.5406 Y164.3392
G01 X148.3950
G01 X148.1273 Y162.8392
G01 X125.8093
G01 X126.0779 Y161.3392
G01 X147.8596
G01 X147.5920 Y159.8392
G01 X126.3466
G01 X126.6152 Y158.3392
G01 X147.3244
G01 X147.0568 Y156.8392
G01 X126.8839
G01 X127.1526 Y155.3392
G01 X146.7893
G01 X146.5218 Y153.8392
G01 X127.4212
G01 X127.6899 Y152.3392
G01 X146.2543
G01 X145.9869 Y150.8392
G01 X127.9585
G01 X128.2272 Y149.3392
G01 X145.7195
G01 X145.4521 Y147.8392
G01 X128.4959
G01 X128.7645 Y146.3392
G01 X145.1848
G01 X144.9174 Y144.8392
G01 X129.0332
G01 X129.3018 Y143.3392
G01 X144.6501
G01 X144.3829 Y141.8392
G01 X129.5705
G01 X129.8392 Y140.3392
G01 X144.1157
G01 X143.8484 Y138.8392
G01 X130.1078
G01 X130.3765 Y137.3392
G01 X143.5813
G01 X143.3141 Y135.8392
G01 X130.6451
G01 X130.9138 Y134.3392
G01 X143.0470
G01 X142.7799 Y132.8392
G01 X131.1825
G01 X131.4511 Y131.3392
G01 X142.5129
G01 X142.2458 Y129.8392
G01 X131.7198
G01 X131.9884 Y128.3392
G01 X141.9788
G01 X141.7119 Y126.8392
G01 X132.2571
G01 X132.5257 Y125.3392
G01 X141.4450
G01 X141.1781 Y123.8392
G01 X132.7944
G01 X133.0631 Y122.3392
G01 X140.9112
G01 X140.6444 Y120.8392
G01 X133.3317
G01 X133.6004 Y119.3392
G01 X140.3776
G01 X140.1109 Y117.8392
G01 X133.8690
G01 X134.1377 Y116.3392
G01 X139.8442
G01 X139.5776 Y114.8392
G01 X134.4064
G01 X134.6750 Y113.3392
G01 X139.3110
G01 X139.0445 Y111.8392
G01 X134.9437
G01 X135.2123 Y110.3392
G01 X138.7780
G01 X138.5116 Y108.8392
G01 X135.4810
G01 X135.7497 Y107.3392
G01 X138.2453
G01 X137.9791 Y105.8392
G01 X136.0183
G01 X136.2870 Y104.3392
G01 X137.7130
G01 X137.4470 Y102.8392
G01 X136.5556
M107
G00 Z2.0000
G00 X138.5639 Y188.3392
G00 Z0.5000
G01 Z-1.2000 F400
M106 S240
G01 Y189.8392 F1000
G01 X152.9582
G01 X153.2337 Y191.3392
G01 X139.7964
G01 X141.0289 Y192.8392
G01 X190.7811
G01 X192.0482 Y194.3392
G01 X142.2614
G01 X143.4939 Y195.8392
G01 X188.7631
G01 X184.8289 Y197.3392
G01 X144.7260
G01 X145.9586 Y198.8392
G01 X180.3587
G01 X175.1741
G01 Y200.3392
G01 X147.1936
G01 X148.4318 Y201.8392
G01 X168.8843
G01 X160.3993
G01 Y203.3392
G01 X149.6748
M107
G00 Z2.0000
G00 X170.9675 Y192.8392
G00 Z0.5000
G01 Z-1.2000 F400
M106 S240
G01 Y191.3392 F1000
G01 X189.2933
G01 X187.5751 Y189.8392
G01 X174.3271
G01 X176.0953 Y188.3392
G01 X185.6079
G01 X183.3599 Y186.8392
G01 X177.1535
G01 X177.8047 Y185.3392
G01 X180.6864
G01 X180.7682 Y185.1564
G01 X180.0843 Y184.8056
G01 X179.3975 Y184.4605
G01 X178.7079 Y184.1211
G01 X178.0156 Y183.7875
G01 X177.9084 Y184.2892
G01 X177.7757 Y184.7848
G01 X177.6177 Y185.2729
G01 X177.4350 Y185.7523
G01 X177.2279 Y186.2217
G01 X176.9970 Y186.6798
G01 X176.7429 Y187.1256
G01 X176.4663 Y187.5577
G01 X176.2032 Y187.8911
G01 X175.9248 Y188.2120
G01 X175.6319 Y188.5196
G01 X175.3251 Y188.8133
G01 X175.0050 Y189.0925
G01 X174.6723 Y189.3566
G01 X174.3277 Y189.6050
G01 X173.9720 Y189.8371
G01 X173.6059 Y190.0526
G01 X173.2302 Y190.2508
G01 X172.8458 Y190.4315
G01 X172.4534 Y190.5941
G01 X171.7614 Y190.8508
G01 X171.0618 Y191.0857
G01 X170.3551 Y191.2986
G01 X169.6421 Y191.4892
G01 X168.9234 Y191.6574
G01 X168.1999 Y191.8029
G01 X167.4721 Y191.9257
G01 X166.7408 Y192.0257
G01 X165.8559 Y192.1336
G01 X164.9694 Y192.2287
G01 X164.0817 Y192.3111
G01 X163.1929 Y192.3808
G01 X162.3032 Y192.4376
G01 X161.4127 Y192.4816
G01 X160.5217 Y192.5129
G01 X159.6304 Y192.5313
G01 X158.3498 Y192.5713
G01 X157.0689 Y192.5963
G01 X155.7877 Y192.6064
G01 X154.5066 Y192.6015
G01 X154.4198 Y192.5965
G01 X154.3337 Y192.5842
G01 X154.2490 Y192.5645
G01 X154.1663 Y192.5378
G01 X154.0862 Y192.5041
G01 X154.0093 Y192.4637
G01 X153.9360 Y192.4169
G01 X153.8670 Y192.3640
G01 X153.8027 Y192.3055
G01 X153.7437 Y192.2417
G01 X153.6903 Y192.1731
G01 X153.6429 Y192.1002
G01 X153.6019 Y192.0236
G01 X153.5676 Y191.9438
G01 X153.5401 Y191.8613
G01 X153.5198 Y191.7767
G01 X152.9028 Y188.3616
G01 X152.2869 Y184.9462
G01 X151.6723 Y181.5306
G01 X151.0589 Y178.1147
G01 X150.4468 Y174.6987
G01 X149.8359 Y171.2824
G01 X149.2262 Y167.8659
G01 X148.6177 Y164.4492
G01 X148.4436 Y163.4735
G01 X148.2695 Y162.4978
G01 X148.0954 Y161.5221
G01 X147.9213 Y160.5464
G01 X147.7472 Y159.5706
G01 X147.5731 Y158.5949
G01 X147.3991 Y157.6192
G01 X147.2250 Y156.6435
G01 X147.0510 Y155.6677
G01 X146.8770 Y154.6920
G01 X146.7030 Y153.7163
G01 X146.5290 Y152.7406
G01 X146.3551 Y151.7648
G01 X146.1811 Y150.7891
G01 X146.0071 Y149.8133
G01 X145.8332 Y148.8376
G01 X145.6593 Y147.8619
G01 X145.4854 Y146.8861
G01 X145.3115 Y145.9104
G01 X145.1376 Y144.9346
G01 X144.9637 Y143.9589
G01 X144.7898 Y142.9831
G01 X144.6160 Y142.0074
G01 X144.4421 Y141.0316
G01 X144.2683 Y140.0558
G01 X144.0945 Y139.0801
G01 X143.9207 Y138.1043
G01 X143.7469 Y137.1285
G01 X143.5731 Y136.1528
G01 X143.3993 Y135.1770
G01 X143.2256 Y134.2012
G01 X143.0518 Y133.2255
G01 X142.8781 Y132.2497
G01 X142.7044 Y131.2739
G01 X142.5307 Y130.2981
G01 X142.3570 Y129.3223
G01 X142.1833 Y128.3465
G01 X142.0096 Y127.3708
G01 X141.8360 Y126.3950
G01 X141.6623 Y125.4192
G01 X141.4887 Y124.4434
G01 X141.3151 Y123.4676
G01 X141.1415 Y122.4918
G01 X140.9679 Y121.5160
G01 X140.7943 Y120.5401
G01 X140.6208 Y119.5643
G01 X140.4473 Y118.5885
G01 X140.2738 Y117.6127
G01 X140.1003 Y116.6369
G01 X139.9268 Y115.6610
G01 X139.7533 Y114.6852
G01 X139.5799 Y113.7093
G01 X139.4065 Y112.7335
G01 X139.2331 Y111.7576
G01 X139.0598 Y110.7818
G01 X138.8864 Y109.8059
G01 X138.7131 Y108.8300
G01 X138.5399 Y107.8542
G01 X138.3666 Y106.8783
G01 X138.1934 Y105.9024
G01 X138.0203 Y104.9265
G01 X137.8472 Y103.9505
G01 X137.6741 Y102.9746
G01 X137.5011 Y101.9986
G01 X137.4142 Y101.5082
G01 X137.3272 Y101.0177
G01 X137.2404 Y100.5273
G01 X137.1535 Y100.0368
G01 X137.0051 Y99.1987
G01 X120.4159 Y191.8178
G01 X120.3979 Y191.8974
G01 X120.3736 Y191.9753
G01 X120.3430 Y192.0510
G01 X120.3065 Y192.1239
G01 X120.2642 Y192.1937
G01 X120.2164 Y192.2598
G01 X120.1635 Y192.3219
G01 X120.1057 Y192.3795
G01 X120.0434 Y192.4323
G01 X119.9771 Y192.4799
G01 X119.9072 Y192.5219
G01 X119.8341 Y192.5582
G01 X119.7583 Y192.5885
G01 X119.6804 Y192.6126
G01 X119.6007 Y192.6303
G01 X119.5199 Y192.6415
G01 X118.7674 Y192.6590
G01 X118.0147 Y192.6636
G01 X117.2621 Y192.6553
G01 X116.5097 Y192.6342
G01 X115.4399 Y192.6111
G01 X114.3704 Y192.5763
G01 X113.3013 Y192.5295
G01 X112.2329 Y192.4710
G01 X111.1651 Y192.4006
G01 X110.0982 Y192.3184
G01 X109.0323 Y192.2245
G01 X107.9675 Y192.1187
G01 X107.2071 Y192.0291
G01 X106.4496 Y191.9172
G01 X105.6958 Y191.7832
G01 X104.9462 Y191.6270
G01 X104.2015 Y191.4490
G01 X103.4623 Y191.2491
G01 X102.7294 Y191.0276
G01 X102.0033 Y190.7847
G01 X101.4495 Y190.5724
G01 X100.9097 Y190.3270
G01 X100.3856 Y190.0494
G01 X99.8792 Y189.7407
G01 X99.3925 Y189.4019
G01 X98.9271 Y189.0343
G01 X98.4848 Y188.6393
G01 X98.0672 Y188.2183
G01 X97.8079 Y187.9119
G01 X97.5633 Y187.5937
G01 X97.3338 Y187.2644
G01 X97.1199 Y186.9248
G01 X96.9221 Y186.5756
G01 X96.7409 Y186.2174
G01 X96.5766 Y185.8512
G01 X96.4296 Y185.4778
G01 X96.3002 Y185.0978
G01 X96.1887 Y184.7123
G01 X96.0954 Y184.3219
G01 X96.0204 Y183.9276
G01 X96.0131 Y183.8929
G01 X96.0059 Y183.8581
G01 X95.9986 Y183.8234
G01 X95.9914 Y183.7886
G01 X95.0502 Y184.2180
G01 X94.1194 Y184.6697
G01 X93.1997 Y185.1434
G01 X92.2916 Y185.6390
G01 X91.3955 Y186.1560
G01 X90.5120 Y186.6943
G01 X89.6415 Y187.2534
G01 X88.7847 Y187.8332
G01 X87.9419 Y188.4332
G01 X87.1136 Y189.0531
G01 X86.3004 Y189.6926
G01 X85.5026 Y190.3513
G01 X84.9656 Y190.8246
G01 X84.4411 Y191.3119
G01 X83.9297 Y191.8128
G01 X83.4316 Y192.3269
G01 X82.9472 Y192.8540
G01 X82.4768 Y193.3936
G01 X82.0208 Y193.9454
G01 X81.5794 Y194.5090
G01 X83.3127 Y195.2597
G01 X85.0581 Y195.9817
G01 X86.8152 Y196.6749
G01 X88.5835 Y197.3390
G01 X90.3624 Y197.9738
G01 X92.1516 Y198.5792
G01 X93.9506 Y199.1550
G01 X95.7588 Y199.7011
G01 X97.5757 Y200.2173
G01 X99.4010 Y200.7034
G01 X101.2340 Y201.1594
G01 X103.0742 Y201.5851
G01 X104.7650 Y201.9622
G01 X106.4608 Y202.3158
G01 X108.1613 Y202.6459
G01 X109.8663 Y202.9523
G01 X111.5753 Y203.2350
G01 X113.2882 Y203.4940
G01 X115.0044 Y203.7291
G01 X116.7237 Y203.9405
G01 X118.4459 Y204.1280
G01 X120.1704 Y204.2915
G01 X121.8971 Y204.4311
G01 X123.6255 Y204.5467
G01 X129.7621 Y197.0691
G01 X131.3552 Y195.1265
G01 X132.9625 Y193.1955
G01 X134.5838 Y191.2763
G01 X136.2190 Y189.3690
G01 X136.2737 Y189.2996
G01 X136.3339 Y189.2350
G01 X136.3993 Y189.1757
G01 X136.4694 Y189.1220
G01 X136.5437 Y189.0743
G01 X136.6218 Y189.0330
G01 X136.7030 Y188.9984
G01 X136.7868 Y188.9706
G01 X136.8727 Y188.9499
G01 X136.9600 Y188.9365
G01 X137.0480 Y188.9303
G01 X137.1363 Y188.9315
G01 X137.2242 Y188.9401
G01 X137.3111 Y188.9560
G01 X137.3963 Y188.9790
G01 X137.4794 Y189.0091
G01 X137.5332 Y189.0343
G01 X137.5855 Y189.0626
G01 X137.6360 Y189.0940
G01 X137.6845 Y189.1283
G01 X137.7309 Y189.1654
G01 X137.7750 Y189.2052
G01 X137.8167 Y189.2476
G01 X137.8558 Y189.2924
G01 X139.5070 Y191.3004
G01 X141.1576 Y193.3088
G01 X142.8077 Y195.3177
G01 X144.4572 Y197.3270
G01 X145.9377 Y199.1310
G01 X147.4226 Y200.9314
G01 X148.9119 Y202.7282
G01 X150.4056 Y204.5213
G01 X152.2159 Y204.4141
G01 X154.0241 Y204.2773
G01 X155.8300 Y204.1109
G01 X157.6328 Y203.9150
G01 X159.4322 Y203.6896
G01 X161.2277 Y203.4348
G01 X163.0187 Y203.1506
G01 X164.8049 Y202.8372
G01 X166.4079 Y202.5476
G01 X168.0069 Y202.2363
G01 X169.6014 Y201.9033
G01 X171.1913 Y201.5487
G01 X172.7763 Y201.1725
G01 X174.3559 Y200.7748
G01 X175.9301 Y200.3557
G01 X177.4983 Y199.9152
G01 X179.0605 Y199.4535
G01 X180.6163 Y198.9707
G01 X182.1653 Y198.4667
G01 X183.7074 Y197.9417
G01 X185.2421 Y197.3959
G01 X186.7694 Y196.8293
G01 X188.2888 Y196.2419
G01 X189.8001 Y195.6340
G01 X190.4607 Y195.3621
G01 X191.1192 Y195.0853
G01 X191.7756 Y194.8034
G01 X192.4299 Y194.5166
G01 X191.7844 Y193.7095
G01 X191.1109 Y192.9257
G01 X190.4100 Y192.1662
G01 X189.6827 Y191.4319
G01 X188.9299 Y190.7238
G01 X188.1525 Y190.0428
G01 X187.3516 Y189.3897
G01 X186.5280 Y188.7654
G01 X185.8449 Y188.2583
G01 X185.1505 Y187.7667
G01 X184.4452 Y187.2909
G01 X183.7294 Y186.8311
G01 X183.0034 Y186.3875
G01 X182.2677 Y185.9604
G01 X181.5225 Y185.5500
G01 X180.7682 Y185.1564
G01 X180.6864 Y185.3392
M107
G00 Z2.0000


;No. 11: Hole 11


;No. 12: Hole 11
G00 X183.4360 Y87.7646 Z2.0000
G00 Z0.5000
G01 Z0.0000 F400
G01 Z-1.2000
M106 S240
G01 Y89.5345 F1000
G01 X199.9185
G01 X199.8818 Y89.4098
G01 X199.8382 Y89.2872
G01 X199.7881 Y89.1672
G01 X199.7314 Y89.0502
G01 X199.6685 Y88.9364
G01 X199.5994 Y88.8262
G01 X199.5244 Y88.7200
G01 X199.4437 Y88.6180
G01 X199.3576 Y88.5205
G01 X199.2663 Y88.4279
G01 X199.1701 Y88.3405
G01 X199.0692 Y88.2584
G01 X198.9640 Y88.1819
G01 X198.8548 Y88.1113
G01 X198.7419 Y88.0468
G01 X198.6256 Y87.9886
G01 X198.5064 Y87.9367
G01 X198.3844 Y87.8915
G01 X198.2602 Y87.8530
G01 X198.1341 Y87.8213
G01 X198.0064 Y87.7966
G01 X197.8776 Y87.7788
G01 X197.7480 Y87.7682
G01 X197.6180 Y87.7646
G01 X183.4360
M107
G00 Z2.0000


;No. 13: Hole 12
G00 X183.6360 Y82.0305 Z2.0000
G00 Z0.5000
G01 Z0.0000 F400
G01 Z-1.2000
M106 S240
G01 X185.0061 F1000
G01 Y80.5305
G01 X183.6360
G01 Y79.0305
G01 X185.1231
G01 X183.7692 Y77.5305
G01 X186.9398
M107
G00 Z2.0000
G00 X197.4428
G00 Z0.5000
G01 Z0.0000 F400
G01 Z-1.2000
M106 S240
G01 X199.7887 F1000
G01 Y79.0305
G01 X198.4188
G01 Y80.5305
G01 X199.7887
G01 Y82.0305
G01 X197.4419
G01 X197.4134 Y81.8324
G01 X197.3893 Y81.8371
G01 X197.3652 Y81.8412
G01 X197.3410 Y81.8446
G01 X197.3166 Y81.8475
G01 X197.2922 Y81.8496
G01 X197.2678 Y81.8512
G01 X197.2433 Y81.8521
G01 X197.2188 Y81.8523
G01 X195.8141 Y81.8314
G01 X194.4093 Y81.8248
G01 X193.0044 Y81.8326
G01 X191.5997 Y81.8549
G01 X191.4907 Y81.8602
G01 X191.3820 Y81.8707
G01 X191.2740 Y81.8864
G01 X191.1668 Y81.9072
G01 X191.0608 Y81.9331
G01 X190.9561 Y81.9641
G01 X190.8530 Y82.0000
G01 X190.7518 Y82.0408
G01 X190.6526 Y82.0864
G01 X190.5557 Y82.1366
G01 X190.4613 Y82.1915
G01 X190.3696 Y82.2507
G01 X190.2808 Y82.3143
G01 X190.1952 Y82.3821
G01 X190.1130 Y82.4538
G01 X190.0342 Y82.5294
G01 X190.0435 Y82.5194
G01 X189.9700 Y82.5961
G01 X189.9000 Y82.6761
G01 X189.8338 Y82.7591
G01 X189.7713 Y82.8450
G01 X189.7127 Y82.9336
G01 X189.6582 Y83.0248
G01 X189.6079 Y83.1183
G01 X189.5618 Y83.2140
G01 X189.5201 Y83.3117
G01 X189.4828 Y83.4112
G01 X189.4500 Y83.5122
G01 X189.4219 Y83.6147
G01 X199.9887 Y83.6223
G01 Y75.9387
G01 X185.8097
G01 X185.6760 Y75.9399
G01 X185.5426 Y75.9489
G01 X185.4098 Y75.9654
G01 X185.2783 Y75.9896
G01 X185.1484 Y76.0213
G01 X185.0204 Y76.0603
G01 X184.8950 Y76.1067
G01 X184.7724 Y76.1602
G01 X184.6531 Y76.2206
G01 X184.5374 Y76.2878
G01 X184.4258 Y76.3615
G01 X184.3186 Y76.4415
G01 X184.2162 Y76.5275
G01 X184.1189 Y76.6192
G01 X184.0270 Y76.7164
G01 X183.9409 Y76.8187
G01 X183.8607 Y76.9258
G01 X183.7869 Y77.0373
G01 X183.7195 Y77.1528
G01 X183.6589 Y77.2721
G01 X183.6053 Y77.3946
G01 X183.5587 Y77.5200
G01 X183.5195 Y77.6478
G01 X183.4876 Y77.7777
G01 X183.4633 Y77.9092
G01 X183.4465 Y78.0419
G01 X183.4374 Y78.1754
G01 X183.4360 Y78.3091
G01 Y83.6223
G01 X185.2061
G01 Y79.7650
G01 X185.2087 Y79.6300
G01 X185.2203 Y79.4954
G01 X185.2409 Y79.3619
G01 X185.2703 Y79.2300
G01 X185.3084 Y79.1004
G01 X185.3550 Y78.9737
G01 X185.4100 Y78.8503
G01 X185.4731 Y78.7308
G01 X185.5439 Y78.6158
G01 X185.6223 Y78.5058
G01 X185.7078 Y78.4012
G01 X185.8001 Y78.3025
G01 X185.8987 Y78.2103
G01 X186.0033 Y78.1247
G01 X186.1133 Y78.0464
G01 X186.2284 Y77.9755
G01 X186.3478 Y77.9124
G01 X186.4712 Y77.8575
G01 X186.5980 Y77.8108
G01 X186.7276 Y77.7727
G01 X186.8594 Y77.7433
G01 X186.9930 Y77.7228
G01 X187.1275 Y77.7112
G01 X187.2626 Y77.7085
G01 X197.2188
G01 X197.2625 Y77.7095
G01 X197.3060 Y77.7123
G01 X197.3494 Y77.7171
G01 X197.3925 Y77.7237
G01 X197.4353 Y77.7322
G01 X197.4777 Y77.7426
G01 X197.5195 Y77.7548
G01 X197.5609 Y77.7688
G01 X197.6015 Y77.7846
G01 X197.6415 Y77.8022
G01 X197.6806 Y77.8215
G01 X197.7188 Y77.8425
G01 X197.7561 Y77.8651
G01 X197.7924 Y77.8894
G01 X197.8276 Y77.9152
G01 X197.8616 Y77.9425
G01 X197.8944 Y77.9712
G01 X197.9259 Y78.0014
G01 X197.9561 Y78.0329
G01 X197.9849 Y78.0657
G01 X198.0122 Y78.0998
G01 X198.0380 Y78.1349
G01 X198.0622 Y78.1712
G01 X198.0849 Y78.2085
G01 X198.1058 Y78.2468
G01 X198.1251 Y78.2859
G01 X198.1427 Y78.3258
G01 X198.1585 Y78.3665
G01 X198.1726 Y78.4078
G01 X198.1848 Y78.4497
G01 X198.1951 Y78.4921
G01 X198.2036 Y78.5349
G01 X198.2103 Y78.5780
G01 X198.2150 Y78.6214
G01 X198.2179 Y78.6649
G01 X198.2188 Y78.7085
G01 Y80.8523
G01 X198.2179 Y80.8953
G01 X198.2152 Y80.9381
G01 X198.2106 Y80.9808
G01 X198.2042 Y81.0233
G01 X198.1960 Y81.0655
G01 X198.1859 Y81.1072
G01 X198.1741 Y81.1485
G01 X198.1605 Y81.1893
G01 X198.1452 Y81.2294
G01 X198.1281 Y81.2688
G01 X198.1094 Y81.3075
G01 X198.0890 Y81.3453
G01 X198.0670 Y81.3822
G01 X198.0435 Y81.4182
G01 X198.0184 Y81.4530
G01 X197.9919 Y81.4868
G01 X197.9639 Y81.5194
G01 X197.9345 Y81.5508
G01 X197.9038 Y81.5808
G01 X197.8719 Y81.6095
G01 X197.8387 Y81.6369
G01 X197.8044 Y81.6627
G01 X197.7691 Y81.6871
G01 X197.7327 Y81.7099
G01 X197.6953 Y81.7311
G01 X197.6571 Y81.7508
G01 X197.6181 Y81.7687
G01 X197.5783 Y81.7849
G01 X197.5379 Y81.7995
G01 X197.4969 Y81.8122
G01 X197.4553 Y81.8232
G01 X197.4134 Y81.8324
G01 X197.4419 Y82.0305
M107
G00 Z2.0000


;No. 14: Hole 13
G00 X179.0938 Y81.9866 Z2.0000
G00 Z0.5000
G01 Z0.0000 F400
G01 Z-1.2000
M106 S240
G01 X177.7239 F1000
G01 Y83.4866
G01 X179.0938
G01 Y84.9866
G01 X177.7239
G01 Y86.4866
G01 X179.0938
G01 Y87.9866
G01 X177.7239
M107
G00 Z2.0000
G00 X179.0938 Y81.9866
G00 Z0.5000
G01 Z-1.2000 F400
M106 S240
G01 Y80.4866 F1000
G01 X177.6910
G01 X179.0938 Y78.9866
G01 X174.4118
G01 X175.1021 Y80.4866
G01 X172.9121
G01 X173.6021 Y81.9866
G01 X171.4124
G01 X172.1021 Y83.4866
G01 X169.9127
G01 X170.6021 Y84.9866
G01 X165.8980
G01 Y83.4866
G01 X167.2958
G01 X167.2679 Y81.9866
G01 X165.8980
G01 Y80.4866
G01 X167.2679
G01 Y78.9866
G01 X165.8980
G01 Y77.4866
G01 X167.2679
M107
G00 Z2.0000
G00 X165.8980 Y84.9866
G00 Z0.5000
G01 Z-1.2000 F400
M106 S240
G01 Y86.4866 F1000
G01 X169.1021
G01 X167.6021 Y87.9866
G01 X165.4113
M107
G00 Z2.0000
G00 X175.9116 Y78.9866
G00 Z0.5000
G01 Z-1.2000 F400
M106 S240
G01 Y77.4866 F1000
G01 X179.0938
G01 X179.2938 Y77.4978
G01 Y75.9388
G01 X177.1763
G01 X169.1751 Y83.9415
G01 X169.1132 Y83.9984
G01 X169.0467 Y84.0500
G01 X168.9761 Y84.0957
G01 X168.9019 Y84.1354
G01 X168.8246 Y84.1687
G01 X168.7448 Y84.1954
G01 X168.6631 Y84.2152
G01 X168.5800 Y84.2282
G01 X168.4960 Y84.2341
G01 X168.4119 Y84.2329
G01 X168.3282 Y84.2246
G01 X168.2455 Y84.2094
G01 X168.1643 Y84.1872
G01 X168.0853 Y84.1584
G01 X168.0090 Y84.1229
G01 X167.9359 Y84.0812
G01 X167.8666 Y84.0335
G01 X167.8016 Y83.9801
G01 X167.7413 Y83.9215
G01 X167.6861 Y83.8580
G01 X167.6365 Y83.7900
G01 X167.5927 Y83.7182
G01 X167.5552 Y83.6429
G01 X167.5241 Y83.5647
G01 X167.4996 Y83.4842
G01 X167.4821 Y83.4020
G01 X167.4715 Y83.3185
G01 X167.4679 Y83.2345
G01 Y75.9388
G01 X165.6980
G01 Y87.0028
G01 X165.6959 Y87.0682
G01 X165.6895 Y87.1333
G01 X165.6788 Y87.1978
G01 X165.6640 Y87.2615
G01 X165.6450 Y87.3241
G01 X165.6219 Y87.3854
G01 X165.5950 Y87.4450
G01 X165.5641 Y87.5027
G01 X165.5296 Y87.5582
G01 X165.4915 Y87.6114
G01 X165.4500 Y87.6620
G01 X165.4053 Y87.7097
G01 X163.5814 Y89.5345
G01 X166.3371
G01 X175.8167 Y80.0548
G01 X175.8787 Y79.9979
G01 X175.9452 Y79.9464
G01 X176.0158 Y79.9006
G01 X176.0900 Y79.8610
G01 X176.1672 Y79.8277
G01 X176.2470 Y79.8010
G01 X176.3288 Y79.7812
G01 X176.4119 Y79.7682
G01 X176.4958 Y79.7623
G01 X176.5799 Y79.7635
G01 X176.6636 Y79.7718
G01 X176.7464 Y79.7870
G01 X176.8275 Y79.8092
G01 X176.9065 Y79.8381
G01 X176.9828 Y79.8735
G01 X177.0559 Y79.9152
G01 X177.1252 Y79.9629
G01 X177.1902 Y80.0163
G01 X177.2505 Y80.0750
G01 X177.3057 Y80.1385
G01 X177.3553 Y80.2064
G01 X177.3991 Y80.2782
G01 X177.4366 Y80.3535
G01 X177.4677 Y80.4317
G01 X177.4922 Y80.5122
G01 X177.5097 Y80.5944
G01 X177.5203 Y80.6779
G01 X177.5239 Y80.7620
G01 Y89.5345
G01 X179.2938
G01 Y77.4978
G01 X179.0938 Y77.4866
M107
G00 Z2.0000


;No. 15: Hole 14
G00 X158.3990 Y77.4866 Z2.0000
G00 Z0.5000
G01 Z0.0000 F400
G01 Z-1.2000
M106 S240
G01 X157.0291 F1000
G01 Y78.9866
G01 X158.3990
G01 Y80.4866
G01 X157.0291
G01 Y81.9866
G01 X158.3990
G01 Y83.4866
G01 X157.0291
G01 Y84.9866
G01 X158.3990
G01 Y86.4866
G01 X157.0291
G01 Y87.9866
G01 X158.3990
G01 X158.5990 Y87.9754
G01 Y75.9388
G01 X156.8291
G01 Y89.5345
G01 X158.5990
G01 Y87.9754
G01 X158.3990 Y87.9866
M107
G00 Z2.0000


;No. 16: Hole 15
G00 X152.4869 Y87.9865 Z2.0000
G00 Z0.5000
G01 Z0.0000 F400
G01 Z-1.2000
M106 S240
G01 X138.1689 F1000
G01 X151.1170
G01 Y86.4865
G01 X152.4869
G01 Y84.9865
G01 X151.1170
G01 Y83.4865
G01 X152.4869
G01 Y81.9865
G01 X151.1170
G01 Y80.4865
G01 X152.4869
G01 Y78.9865
G01 X150.9810
G01 X152.3351 Y77.4865
G01 X136.3344
G01 Y78.9865
G01 X137.7043
G01 Y80.4865
G01 X136.3344
G01 Y81.9865
G01 X137.7043
G01 X137.9043 Y81.9804
G01 Y78.7086
G01 X137.9052 Y78.6649
G01 X137.9081 Y78.6214
G01 X137.9128 Y78.5780
G01 X137.9194 Y78.5349
G01 X137.9280 Y78.4921
G01 X137.9383 Y78.4497
G01 X137.9505 Y78.4078
G01 X137.9646 Y78.3665
G01 X137.9804 Y78.3259
G01 X137.9979 Y78.2859
G01 X138.0172 Y78.2468
G01 X138.0382 Y78.2086
G01 X138.0609 Y78.1713
G01 X138.0851 Y78.1350
G01 X138.1109 Y78.0998
G01 X138.1382 Y78.0658
G01 X138.1670 Y78.0330
G01 X138.1971 Y78.0014
G01 X138.2287 Y77.9713
G01 X138.2615 Y77.9425
G01 X138.2955 Y77.9152
G01 X138.3307 Y77.8894
G01 X138.3670 Y77.8652
G01 X138.4043 Y77.8425
G01 X138.4425 Y77.8215
G01 X138.4816 Y77.8022
G01 X138.5216 Y77.7847
G01 X138.5622 Y77.7689
G01 X138.6035 Y77.7548
G01 X138.6454 Y77.7426
G01 X138.6878 Y77.7323
G01 X138.7306 Y77.7237
G01 X138.7737 Y77.7171
G01 X138.8171 Y77.7124
G01 X138.8606 Y77.7095
G01 X138.9043 Y77.7086
G01 X148.8610
G01 X148.9953 Y77.7134
G01 X149.1291 Y77.7269
G01 X149.2617 Y77.7491
G01 X149.3925 Y77.7799
G01 X149.5211 Y77.8192
G01 X149.6468 Y77.8668
G01 X149.7691 Y77.9224
G01 X149.8876 Y77.9859
G01 X150.0017 Y78.0570
G01 X150.1109 Y78.1354
G01 X150.2148 Y78.2207
G01 X150.3129 Y78.3126
G01 X150.4048 Y78.4107
G01 X150.4901 Y78.5145
G01 X150.5685 Y78.6237
G01 X150.6396 Y78.7378
G01 X150.7031 Y78.8563
G01 X150.7588 Y78.9787
G01 X150.8063 Y79.1044
G01 X150.8456 Y79.2329
G01 X150.8764 Y79.3638
G01 X150.8987 Y79.4963
G01 X150.9122 Y79.6301
G01 X150.9170 Y79.7644
G01 Y86.7645
G01 X150.9139 Y86.8429
G01 X150.9047 Y86.9209
G01 X150.8894 Y86.9979
G01 X150.8681 Y87.0735
G01 X150.8409 Y87.1472
G01 X150.8080 Y87.2185
G01 X150.7697 Y87.2870
G01 X150.7260 Y87.3523
G01 X150.6774 Y87.4139
G01 X150.6241 Y87.4716
G01 X150.5665 Y87.5249
G01 X150.5048 Y87.5735
G01 X150.4395 Y87.6171
G01 X150.3710 Y87.6555
G01 X150.2997 Y87.6883
G01 X150.2260 Y87.7155
G01 X150.1505 Y87.7368
G01 X150.0735 Y87.7522
G01 X149.9955 Y87.7614
G01 X149.9170 Y87.7645
G01 X138.5083
G01 X138.3778 Y87.7651
G01 X138.2475 Y87.7732
G01 X138.1179 Y87.7885
G01 X137.9894 Y87.8112
G01 X137.8623 Y87.8410
G01 X137.7371 Y87.8780
G01 X137.6142 Y87.9219
G01 X137.4940 Y87.9727
G01 X137.3768 Y88.0302
G01 X137.2631 Y88.0942
G01 X137.1531 Y88.1645
G01 X137.0473 Y88.2409
G01 X136.9459 Y88.3232
G01 X136.8494 Y88.4110
G01 X136.7579 Y88.5041
G01 X136.6719 Y88.6023
G01 X136.5915 Y88.7051
G01 X136.5170 Y88.8123
G01 X136.4487 Y88.9235
G01 X136.3868 Y89.0384
G01 X136.3314 Y89.1565
G01 X136.2828 Y89.2777
G01 X136.2410 Y89.4013
G01 X136.2064 Y89.5272
G01 X152.6869 Y89.5344
G01 Y78.3138
G01 X152.6836 Y78.1807
G01 X152.6728 Y78.0479
G01 X152.6545 Y77.9160
G01 X152.6288 Y77.7853
G01 X152.5959 Y77.6563
G01 X152.5557 Y77.5293
G01 X152.5085 Y77.4048
G01 X152.4543 Y77.2832
G01 X152.3934 Y77.1647
G01 X152.3259 Y77.0499
G01 X152.2521 Y76.9391
G01 X152.1722 Y76.8326
G01 X152.0864 Y76.7307
G01 X151.9950 Y76.6338
G01 X151.8983 Y76.5423
G01 X151.7966 Y76.4563
G01 X151.6903 Y76.3761
G01 X151.5796 Y76.3021
G01 X151.4649 Y76.2344
G01 X151.3466 Y76.1733
G01 X151.2250 Y76.1189
G01 X151.1006 Y76.0714
G01 X150.9737 Y76.0310
G01 X150.8447 Y75.9978
G01 X150.7141 Y75.9719
G01 X150.5822 Y75.9533
G01 X150.4495 Y75.9423
G01 X150.3164 Y75.9386
G01 X136.1344
G01 Y83.6223
G01 X137.9043
G01 Y81.9804
G01 X137.7043 Y81.9865
M107
G00 Z2.0000


;No. 17: Hole 16
G00 X131.7921 Y82.0306 Z2.0000
G00 Z0.5000
G01 Z0.0000 F400
G01 Z-1.2000
M106 S240
G01 X129.4457 F1000
G01 X130.4222
G01 Y80.5306
G01 X131.7921
G01 Y79.0306
G01 X130.4222
G01 Y77.5306
G01 X131.7921
M107
G00 Z2.0000
G00 X117.9858 Y82.0306
G00 Z0.5000
G01 Z0.0000 F400
G01 Z-1.2000
M106 S240
G01 X115.6395 F1000
G01 Y80.5306
G01 X117.0094
G01 Y79.0306
G01 X115.6395
G01 Y77.5306
G01 X117.0094
G01 X117.2094 Y77.5371
G01 Y75.9388
G01 X115.4395
G01 Y83.6224
G01 X131.9921
G01 Y75.9388
G01 X130.2222
G01 Y80.8525
G01 X130.2212 Y80.8961
G01 X130.2183 Y80.9396
G01 X130.2136 Y80.9830
G01 X130.2070 Y81.0261
G01 X130.1984 Y81.0689
G01 X130.1881 Y81.1113
G01 X130.1759 Y81.1532
G01 X130.1618 Y81.1945
G01 X130.1460 Y81.2352
G01 X130.1285 Y81.2751
G01 X130.1092 Y81.3142
G01 X130.0882 Y81.3525
G01 X130.0655 Y81.3898
G01 X130.0413 Y81.4260
G01 X130.0155 Y81.4612
G01 X129.9882 Y81.4953
G01 X129.9594 Y81.5281
G01 X129.9293 Y81.5596
G01 X129.8977 Y81.5897
G01 X129.8649 Y81.6185
G01 X129.8309 Y81.6458
G01 X129.7957 Y81.6716
G01 X129.7595 Y81.6959
G01 X129.7222 Y81.7185
G01 X129.6839 Y81.7395
G01 X129.6448 Y81.7588
G01 X129.6048 Y81.7763
G01 X129.5642 Y81.7922
G01 X129.5229 Y81.8062
G01 X129.4810 Y81.8184
G01 X129.4386 Y81.8288
G01 X129.3958 Y81.8373
G01 X129.3527 Y81.8439
G01 X129.3093 Y81.8487
G01 X129.2658 Y81.8515
G01 X129.2222 Y81.8525
G01 X118.2094
G01 X118.1658 Y81.8515
G01 X118.1222 Y81.8487
G01 X118.0789 Y81.8439
G01 X118.0357 Y81.8373
G01 X117.9929 Y81.8288
G01 X117.9506 Y81.8184
G01 X117.9087 Y81.8062
G01 X117.8674 Y81.7922
G01 X117.8267 Y81.7763
G01 X117.7868 Y81.7588
G01 X117.7476 Y81.7395
G01 X117.7094 Y81.7185
G01 X117.6721 Y81.6959
G01 X117.6358 Y81.6716
G01 X117.6006 Y81.6458
G01 X117.5666 Y81.6185
G01 X117.5338 Y81.5897
G01 X117.5023 Y81.5596
G01 X117.4721 Y81.5281
G01 X117.4433 Y81.4953
G01 X117.4160 Y81.4612
G01 X117.3902 Y81.4260
G01 X117.3660 Y81.3898
G01 X117.3434 Y81.3525
G01 X117.3224 Y81.3142
G01 X117.3031 Y81.2751
G01 X117.2855 Y81.2352
G01 X117.2697 Y81.1945
G01 X117.2557 Y81.1532
G01 X117.2435 Y81.1113
G01 X117.2331 Y81.0689
G01 X117.2246 Y81.0261
G01 X117.2179 Y80.9830
G01 X117.2132 Y80.9396
G01 X117.2103 Y80.8961
G01 X117.2094 Y80.8525
G01 Y77.5371
G01 X117.0094 Y77.5306
M107
G00 Z2.0000


;No. 18: Hole 17


;No. 19: Hole 17
G00 X115.9180 Y88.6822 Z2.0000
G00 Z0.5000
G01 Z0.0000 F400
G01 Z-1.2000
M106 S240
G01 X115.8481 Y88.7784 F1000
G01 X115.7833 Y88.8782
G01 X115.7237 Y88.9812
G01 X115.6695 Y89.0871
G01 X115.6209 Y89.1957
G01 X115.5779 Y89.3067
G01 X115.5407 Y89.4197
G01 X115.5095 Y89.5345
G01 X131.9221 Y89.5344
G01 X131.8853 Y89.4096
G01 X131.8418 Y89.2871
G01 X131.7916 Y89.1671
G01 X131.7350 Y89.0501
G01 X131.6720 Y88.9363
G01 X131.6029 Y88.8261
G01 X131.5280 Y88.7199
G01 X131.4473 Y88.6179
G01 X131.3612 Y88.5204
G01 X131.2698 Y88.4278
G01 X131.1736 Y88.3404
G01 X131.0727 Y88.2583
G01 X130.9676 Y88.1818
G01 X130.8583 Y88.1112
G01 X130.7454 Y88.0467
G01 X130.6292 Y87.9884
G01 X130.5099 Y87.9366
G01 X130.3880 Y87.8914
G01 X130.2638 Y87.8529
G01 X130.1376 Y87.8212
G01 X130.0100 Y87.7964
G01 X129.8812 Y87.7787
G01 X129.7515 Y87.7680
G01 X129.6216 Y87.7645
G01 X117.8131
G01 X117.6961 Y87.7646
G01 X117.5794 Y87.7706
G01 X117.4630 Y87.7826
G01 X117.3475 Y87.8005
G01 X117.2329 Y87.8242
G01 X117.1198 Y87.8537
G01 X117.0083 Y87.8889
G01 X116.8987 Y87.9297
G01 X116.7913 Y87.9760
G01 X116.6864 Y88.0277
G01 X116.5843 Y88.0847
G01 X116.4852 Y88.1468
G01 X116.3894 Y88.2139
G01 X116.2971 Y88.2857
G01 X116.2086 Y88.3621
G01 X116.1241 Y88.4430
G01 X116.1330 Y88.4334
G01 X116.0764 Y88.4930
G01 X116.0216 Y88.5544
G01 X115.9688 Y88.6175
G01 X115.9180 Y88.6822
M107
G00 Z2.0000


;No. 20: Hole 18


;No. 21: Hole 18
G00 X95.3594 Y88.5176 Z2.0000
G00 Z0.5000
G01 Z0.0000 F400
G01 Z-1.2000
M106 S240
G01 X95.2645 Y88.6280 F1000
G01 X95.1767 Y88.7442
G01 X95.0963 Y88.8656
G01 X95.0238 Y88.9918
G01 X94.9592 Y89.1223
G01 X94.9030 Y89.2566
G01 X94.8553 Y89.3942
G01 X94.8163 Y89.5345
G01 X111.2273 Y89.5344
G01 X111.1905 Y89.4096
G01 X111.1470 Y89.2871
G01 X111.0968 Y89.1671
G01 X111.0402 Y89.0501
G01 X110.9772 Y88.9363
G01 X110.9081 Y88.8261
G01 X110.8332 Y88.7199
G01 X110.7525 Y88.6179
G01 X110.6664 Y88.5204
G01 X110.5751 Y88.4278
G01 X110.4788 Y88.3404
G01 X110.3780 Y88.2583
G01 X110.2728 Y88.1818
G01 X110.1635 Y88.1112
G01 X110.0506 Y88.0467
G01 X109.9344 Y87.9884
G01 X109.8151 Y87.9366
G01 X109.6932 Y87.8914
G01 X109.5690 Y87.8529
G01 X109.4429 Y87.8212
G01 X109.3152 Y87.7964
G01 X109.1864 Y87.7787
G01 X109.0568 Y87.7680
G01 X108.9268 Y87.7645
G01 X97.1183
G01 X96.9950 Y87.7646
G01 X96.8718 Y87.7714
G01 X96.7492 Y87.7848
G01 X96.6275 Y87.8048
G01 X96.5070 Y87.8313
G01 X96.3882 Y87.8642
G01 X96.2712 Y87.9035
G01 X96.1566 Y87.9489
G01 X96.0446 Y88.0005
G01 X95.9355 Y88.0580
G01 X95.8296 Y88.1214
G01 X95.7273 Y88.1903
G01 X95.6289 Y88.2646
G01 X95.5346 Y88.3440
G01 X95.4447 Y88.4285
G01 X95.3594 Y88.5176
M107
G00 Z2.0000


;No. 22: Hole 19
G00 X94.9463 Y82.0306 Z2.0000
G00 Z0.5000
G01 Z0.0000 F400
G01 Z-1.2000
M106 S240
G01 X96.3146 F1000
G01 Y80.5306
G01 X94.9463
G01 Y79.0306
G01 X96.3146
G01 Y77.5306
G01 X97.2911
G01 X94.9463
M107
G00 Z2.0000
G00 X108.7509
G00 Z0.5000
G01 Z0.0000 F400
G01 Z-1.2000
M106 S240
G01 X111.0973 F1000
G01 Y79.0306
G01 X109.7274
G01 Y80.5306
G01 X111.0973
G01 Y82.0306
G01 X109.7274
G01 X109.5274 Y82.0241
G01 Y83.6224
G01 X111.2973
G01 Y75.9388
G01 X94.7463
G01 Y83.6224
G01 X96.5146
G01 Y78.7087
G01 X96.5177 Y78.6302
G01 X96.5269 Y78.5522
G01 X96.5422 Y78.4752
G01 X96.5635 Y78.3997
G01 X96.5907 Y78.3260
G01 X96.6236 Y78.2547
G01 X96.6620 Y78.1862
G01 X96.7056 Y78.1209
G01 X96.7542 Y78.0592
G01 X96.8075 Y78.0016
G01 X96.8651 Y77.9483
G01 X96.9268 Y77.8997
G01 X96.9921 Y77.8560
G01 X97.0606 Y77.8177
G01 X97.1319 Y77.7848
G01 X97.2056 Y77.7576
G01 X97.2811 Y77.7363
G01 X97.3582 Y77.7210
G01 X97.4361 Y77.7118
G01 X97.5146 Y77.7087
G01 X108.5274
G01 X108.6058 Y77.7118
G01 X108.6838 Y77.7210
G01 X108.7608 Y77.7363
G01 X108.8364 Y77.7576
G01 X108.9100 Y77.7848
G01 X108.9814 Y77.8177
G01 X109.0499 Y77.8560
G01 X109.1151 Y77.8997
G01 X109.1768 Y77.9483
G01 X109.2345 Y78.0016
G01 X109.2878 Y78.0592
G01 X109.3364 Y78.1209
G01 X109.3800 Y78.1862
G01 X109.4184 Y78.2547
G01 X109.4512 Y78.3260
G01 X109.4784 Y78.3997
G01 X109.4997 Y78.4752
G01 X109.5151 Y78.5522
G01 X109.5243 Y78.6302
G01 X109.5274 Y78.7087
G01 Y82.0241
G01 X109.7274 Y82.0306
M107
G00 Z2.0000


;No. 23: Hole 20
G00 X90.2514 Y77.4866 Z2.0000
G00 Z0.5000
G01 Z0.0000 F400
G01 Z-1.2000
M106 S240
G01 X74.2515 F1000
G01 Y78.9866
G01 X75.6198
G01 Y80.4866
G01 X74.2515
G01 Y81.9866
G01 X75.6198
G01 Y83.4866
G01 X74.2515
G01 Y84.9866
G01 X75.6198
G01 Y86.4866
G01 X74.2515
G01 Y87.9866
G01 X75.6198
G01 X75.8198 Y87.9759
G01 Y78.7087
G01 X75.8229 Y78.6302
G01 X75.8321 Y78.5522
G01 X75.8474 Y78.4752
G01 X75.8687 Y78.3997
G01 X75.8959 Y78.3260
G01 X75.9288 Y78.2547
G01 X75.9672 Y78.1862
G01 X76.0108 Y78.1209
G01 X76.0594 Y78.0592
G01 X76.1127 Y78.0016
G01 X76.1704 Y77.9483
G01 X76.2320 Y77.8997
G01 X76.2973 Y77.8560
G01 X76.3658 Y77.8177
G01 X76.4371 Y77.7848
G01 X76.5108 Y77.7576
G01 X76.5864 Y77.7363
G01 X76.6634 Y77.7210
G01 X76.7413 Y77.7118
G01 X76.8198 Y77.7087
G01 X90.5325
G01 X90.4957 Y77.5839
G01 X90.4522 Y77.4614
G01 X90.4020 Y77.3414
G01 X90.3453 Y77.2244
G01 X90.2824 Y77.1106
G01 X90.2133 Y77.0004
G01 X90.1383 Y76.8941
G01 X90.0577 Y76.7921
G01 X89.9715 Y76.6947
G01 X89.8802 Y76.6021
G01 X89.7840 Y76.5147
G01 X89.6831 Y76.4326
G01 X89.5779 Y76.3561
G01 X89.4687 Y76.2855
G01 X89.3558 Y76.2210
G01 X89.2396 Y76.1627
G01 X89.1203 Y76.1109
G01 X88.9984 Y76.0657
G01 X88.8742 Y76.0272
G01 X88.7480 Y75.9955
G01 X88.6204 Y75.9707
G01 X88.4915 Y75.9530
G01 X88.3619 Y75.9423
G01 X88.2319 Y75.9388
G01 X74.0515
G01 Y89.5345
G01 X75.8198
G01 Y87.9759
G01 X75.6198 Y87.9866
M107
G00 Z2.0000


;No. 24: Hole 21
G00 X97.9015 Y64.3358 Z2.0000
G00 Z0.5000
G01 Z0.0000 F400
G01 Z-1.2000
M106 S240
G01 X99.2714 F1000
G01 Y62.8358
G01 X97.9015
G01 Y61.3358
G01 X99.2714
G01 Y59.8358
G01 X100.0835
G01 X97.9015
G01 Y58.3358
G01 X100.0835
G01 X99.2714
G01 Y56.8358
G01 X97.9015
G01 Y55.3358
G01 X99.2714
G01 Y53.8358
G01 X97.9015
M107
G00 Z2.0000
G00 X112.6842
G00 Z0.5000
G01 Z0.0000 F400
G01 Z-1.2000
M106 S240
G01 X114.0525 F1000
G01 Y55.3358
G01 X112.6842
G01 Y56.8358
G01 X114.0525
G01 Y58.3358
G01 X112.6842
G01 Y59.8358
G01 X111.8721
G01 X114.0525
G01 Y61.3358
G01 X112.6842
G01 Y62.8358
G01 X114.0525
G01 Y64.3358
G01 X112.6842
G01 X112.4842 Y64.3289
G01 Y65.8828
G01 X114.2525
G01 Y52.2887
G01 X112.4842
G01 Y58.4442
G01 X112.4832 Y58.4896
G01 X112.4801 Y58.5348
G01 X112.4750 Y58.5799
G01 X112.4678 Y58.6247
G01 X112.4586 Y58.6691
G01 X112.4474 Y58.7131
G01 X112.4342 Y58.7565
G01 X112.4191 Y58.7992
G01 X112.4020 Y58.8412
G01 X112.3831 Y58.8824
G01 X112.3623 Y58.9228
G01 X112.3397 Y58.9621
G01 X112.3153 Y59.0003
G01 X112.2892 Y59.0375
G01 X112.2615 Y59.0734
G01 X112.2322 Y59.1080
G01 X112.2013 Y59.1412
G01 X112.1690 Y59.1730
G01 X112.1352 Y59.2033
G01 X112.1001 Y59.2320
G01 X112.0638 Y59.2592
G01 X112.0262 Y59.2846
G01 X111.9876 Y59.3083
G01 X111.9479 Y59.3302
G01 X111.9072 Y59.3504
G01 X111.8657 Y59.3686
G01 X111.8234 Y59.3850
G01 X111.7804 Y59.3994
G01 X111.7367 Y59.4118
G01 X111.6926 Y59.4223
G01 X111.6480 Y59.4307
G01 X111.6031 Y59.4371
G01 X111.5580 Y59.4415
G01 X111.5127 Y59.4438
G01 X111.4673 Y59.4441
G01 X111.4220 Y59.4423
G01 X111.3768 Y59.4384
G01 X111.3318 Y59.4325
G01 X111.2872 Y59.4246
G01 X111.2429 Y59.4147
G01 X111.1992 Y59.4027
G01 X111.1560 Y59.3888
G01 X111.1135 Y59.3730
G01 X111.0718 Y59.3552
G01 X111.0309 Y59.3356
G01 X110.9909 Y59.3141
G01 X110.9520 Y59.2908
G01 X110.9141 Y59.2658
G01 X110.8775 Y59.2391
G01 X110.8420 Y59.2108
G01 X110.8079 Y59.1809
G01 X110.7752 Y59.1495
G01 X110.7440 Y59.1166
G01 X110.7143 Y59.0823
G01 X110.6861 Y59.0467
G01 X110.6596 Y59.0099
G01 X110.6073 Y58.9367
G01 X110.5508 Y58.8667
G01 X110.4902 Y58.8002
G01 X110.4258 Y58.7374
G01 X110.3578 Y58.6786
G01 X110.2863 Y58.6239
G01 X110.2118 Y58.5735
G01 X110.1344 Y58.5276
G01 X110.0426 Y58.4755
G01 X109.9485 Y58.4277
G01 X109.8523 Y58.3842
G01 X109.7542 Y58.3451
G01 X109.6544 Y58.3106
G01 X109.5532 Y58.2807
G01 X109.4506 Y58.2555
G01 X109.3471 Y58.2350
G01 X109.2427 Y58.2192
G01 X109.1377 Y58.2083
G01 X109.0323 Y58.2021
G01 X108.9267 Y58.2008
G01 X100.4714
G01 X100.4278 Y58.1999
G01 X100.3843 Y58.1970
G01 X100.3409 Y58.1923
G01 X100.2978 Y58.1856
G01 X100.2550 Y58.1771
G01 X100.2126 Y58.1667
G01 X100.1707 Y58.1545
G01 X100.1294 Y58.1405
G01 X100.0888 Y58.1247
G01 X100.0488 Y58.1071
G01 X100.0097 Y58.0878
G01 X99.9714 Y58.0668
G01 X99.9341 Y58.0442
G01 X99.8979 Y58.0200
G01 X99.8627 Y57.9942
G01 X99.8287 Y57.9669
G01 X99.7959 Y57.9381
G01 X99.7643 Y57.9079
G01 X99.7342 Y57.8764
G01 X99.7054 Y57.8436
G01 X99.6781 Y57.8096
G01 X99.6523 Y57.7744
G01 X99.6281 Y57.7381
G01 X99.6054 Y57.7008
G01 X99.5844 Y57.6626
G01 X99.5651 Y57.6234
G01 X99.5476 Y57.5835
G01 X99.5318 Y57.5428
G01 X99.5177 Y57.5015
G01 X99.5055 Y57.4596
G01 X99.4952 Y57.4173
G01 X99.4866 Y57.3745
G01 X99.4800 Y57.3313
G01 X99.4753 Y57.2880
G01 X99.4724 Y57.2444
G01 X99.4714 Y57.2008
G01 Y52.2887
G01 X97.7015
G01 Y65.8828
G01 X99.4714
G01 Y60.9707
G01 X99.4724 Y60.9271
G01 X99.4753 Y60.8836
G01 X99.4800 Y60.8402
G01 X99.4866 Y60.7971
G01 X99.4952 Y60.7543
G01 X99.5055 Y60.7119
G01 X99.5177 Y60.6700
G01 X99.5318 Y60.6287
G01 X99.5476 Y60.5880
G01 X99.5651 Y60.5481
G01 X99.5844 Y60.5090
G01 X99.6054 Y60.4707
G01 X99.6281 Y60.4334
G01 X99.6523 Y60.3972
G01 X99.6781 Y60.3620
G01 X99.7054 Y60.3279
G01 X99.7342 Y60.2951
G01 X99.7643 Y60.2636
G01 X99.7959 Y60.2335
G01 X99.8287 Y60.2047
G01 X99.8627 Y60.1774
G01 X99.8979 Y60.1516
G01 X99.9341 Y60.1273
G01 X99.9714 Y60.1047
G01 X100.0097 Y60.0837
G01 X100.0488 Y60.0644
G01 X100.0888 Y60.0468
G01 X100.1294 Y60.0310
G01 X100.1707 Y60.0170
G01 X100.2126 Y60.0048
G01 X100.2550 Y59.9944
G01 X100.2978 Y59.9859
G01 X100.3409 Y59.9793
G01 X100.3843 Y59.9745
G01 X100.4278 Y59.9717
G01 X100.4714 Y59.9707
G01 X111.4842
G01 X111.5627 Y59.9738
G01 X111.6406 Y59.9830
G01 X111.7177 Y59.9984
G01 X111.7932 Y60.0197
G01 X111.8669 Y60.0468
G01 X111.9382 Y60.0797
G01 X112.0067 Y60.1181
G01 X112.0720 Y60.1617
G01 X112.1337 Y60.2103
G01 X112.1913 Y60.2636
G01 X112.2446 Y60.3213
G01 X112.2932 Y60.3829
G01 X112.3369 Y60.4482
G01 X112.3752 Y60.5167
G01 X112.4081 Y60.5880
G01 X112.4353 Y60.6617
G01 X112.4566 Y60.7373
G01 X112.4719 Y60.8143
G01 X112.4811 Y60.8923
G01 X112.4842 Y60.9707
G01 Y64.3289
G01 X112.6842 Y64.3358
M107
G00 Z2.0000


;No. 25: Hole 22


;No. 26: Hole 22
G00 X118.6502 Y65.3877 Z2.0000
G00 Z0.5000
G01 Z0.0000 F400
G01 Z-1.2000
M106 S240
G01 X118.5935 Y65.5073 F1000
G01 X118.5439 Y65.6299
G01 X118.5014 Y65.7553
G01 X118.4663 Y65.8828
G01 X134.8774
G01 X134.8407 Y65.7581
G01 X134.7972 Y65.6356
G01 X134.7471 Y65.5157
G01 X134.6906 Y65.3987
G01 X134.6277 Y65.2850
G01 X134.5587 Y65.1748
G01 X134.4838 Y65.0686
G01 X134.4032 Y64.9667
G01 X134.3171 Y64.8693
G01 X134.2259 Y64.7768
G01 X134.1297 Y64.6894
G01 X134.0289 Y64.6074
G01 X133.9238 Y64.5310
G01 X133.8146 Y64.4604
G01 X133.7017 Y64.3960
G01 X133.5855 Y64.3378
G01 X133.4663 Y64.2860
G01 X133.3445 Y64.2409
G01 X133.2203 Y64.2024
G01 X133.0943 Y64.1708
G01 X132.9667 Y64.1462
G01 X132.8379 Y64.1285
G01 X132.7084 Y64.1179
G01 X132.5785 Y64.1145
G01 X120.7701
G01 X120.6396 Y64.1149
G01 X120.5094 Y64.1227
G01 X120.3798 Y64.1379
G01 X120.2512 Y64.1604
G01 X120.1242 Y64.1901
G01 X119.9990 Y64.2270
G01 X119.8762 Y64.2708
G01 X119.7559 Y64.3216
G01 X119.6388 Y64.3790
G01 X119.5251 Y64.4430
G01 X119.4152 Y64.5133
G01 X119.3094 Y64.5897
G01 X119.2082 Y64.6720
G01 X119.1117 Y64.7599
G01 X119.0204 Y64.8531
G01 X118.9345 Y64.9513
G01 X118.8542 Y65.0542
G01 X118.7800 Y65.1614
G01 X118.7119 Y65.2727
G01 X118.6502 Y65.3877
M107
G00 Z2.0000


;No. 27: Hole 23


;No. 28: Hole 23
G00 X118.6195 Y59.5381 Z2.0000
G00 Z0.5000
G01 Z0.0000 F400
G01 Z-1.2000
M106 S240
G01 X118.5731 Y59.6432 F1000
G01 X118.5320 Y59.7506
G01 X118.4964 Y59.8598
G01 X118.4663 Y59.9707
G01 X134.8774 Y59.9706
G01 X134.8406 Y59.8459
G01 X134.7971 Y59.7235
G01 X134.7470 Y59.6035
G01 X134.6904 Y59.4865
G01 X134.6275 Y59.3728
G01 X134.5585 Y59.2626
G01 X134.4836 Y59.1564
G01 X134.4030 Y59.0545
G01 X134.3169 Y58.9571
G01 X134.2257 Y58.8645
G01 X134.1295 Y58.7770
G01 X134.0287 Y58.6950
G01 X133.9236 Y58.6185
G01 X133.8145 Y58.5479
G01 X133.7016 Y58.4834
G01 X133.5855 Y58.4251
G01 X133.4663 Y58.3732
G01 X133.3444 Y58.3280
G01 X133.2203 Y58.2894
G01 X133.0943 Y58.2577
G01 X132.9667 Y58.2329
G01 X132.8379 Y58.2151
G01 X132.7084 Y58.2044
G01 X132.5784 Y58.2007
G01 X120.7701
G01 X120.6360 Y58.2013
G01 X120.5023 Y58.2096
G01 X120.3692 Y58.2257
G01 X120.2373 Y58.2495
G01 X120.1070 Y58.2809
G01 X119.9788 Y58.3199
G01 X119.8530 Y58.3662
G01 X119.7301 Y58.4198
G01 X119.6106 Y58.4804
G01 X119.4948 Y58.5478
G01 X119.3831 Y58.6219
G01 X119.2758 Y58.7023
G01 X119.1735 Y58.7888
G01 X119.0763 Y58.8811
G01 X118.9847 Y58.9789
G01 X118.8988 Y59.0819
G01 X118.8192 Y59.1896
G01 X118.7459 Y59.3019
G01 X118.6792 Y59.4181
G01 X118.6195 Y59.5381
M107
G00 Z2.0000


;No. 29: Hole 24


;No. 30: Hole 24
G00 X118.5640 Y53.7526 Z2.0000
G00 Z0.5000
G01 Z0.0000 F400
G01 Z-1.2000
M106 S240
G01 X118.5355 Y53.8278 F1000
G01 X118.5098 Y53.9039
G01 X118.4867 Y53.9809
G01 X118.4663 Y54.0586
G01 X134.8774 Y54.0585
G01 X134.8406 Y53.9339
G01 X134.7971 Y53.8114
G01 X134.7470 Y53.6915
G01 X134.6904 Y53.5745
G01 X134.6275 Y53.4607
G01 X134.5585 Y53.3506
G01 X134.4836 Y53.2444
G01 X134.4030 Y53.1424
G01 X134.3169 Y53.0450
G01 X134.2257 Y52.9524
G01 X134.1295 Y52.8650
G01 X134.0287 Y52.7829
G01 X133.9236 Y52.7064
G01 X133.8145 Y52.6358
G01 X133.7016 Y52.5713
G01 X133.5855 Y52.5130
G01 X133.4663 Y52.4612
G01 X133.3444 Y52.4159
G01 X133.2203 Y52.3773
G01 X133.0943 Y52.3456
G01 X132.9667 Y52.3208
G01 X132.8379 Y52.3030
G01 X132.7084 Y52.2923
G01 X132.5784 Y52.2886
G01 X120.7701
G01 X120.6291 Y52.2895
G01 X120.4885 Y52.2990
G01 X120.3487 Y52.3170
G01 X120.2103 Y52.3435
G01 X120.0737 Y52.3784
G01 X119.9395 Y52.4215
G01 X119.8082 Y52.4728
G01 X119.6803 Y52.5320
G01 X119.5562 Y52.5989
G01 X119.4365 Y52.6732
G01 X119.3215 Y52.7547
G01 X119.2116 Y52.8430
G01 X119.1074 Y52.9379
G01 X119.0092 Y53.0389
G01 X118.9172 Y53.1458
G01 X118.8320 Y53.2581
G01 X118.7538 Y53.3753
G01 X118.6829 Y53.4971
G01 X118.6195 Y53.6230
G01 X118.5640 Y53.7526
M107
G00 Z2.0000


;No. 31: Hole 25
G00 X139.2912 Y53.8357 Z2.0000
G00 Z0.5000
G01 Z0.0000 F400
G01 Z-1.2000
M106 S240
G01 X140.6611 F1000
G01 Y55.3357
G01 X139.2912
G01 Y56.8357
G01 X140.6611
G01 Y58.3357
G01 X141.4732
G01 X139.2912
M107
G00 Z2.0000
G00 X141.1316 Y64.3357
G00 Z0.5000
G01 Z0.0000 F400
G01 Z-1.2000
M106 S240
G01 X155.4422 F1000
G01 Y62.8357
G01 X154.0739
G01 X153.9669 Y61.3357
G01 X155.4422
G01 X155.3236 Y59.8357
G01 X152.3586
G01 X150.9162 Y58.3357
G01 X146.1093
G01 X147.7824 Y56.8357
G01 X150.1628
G01 X149.2828 Y55.3357
G01 X151.4729
G01 X150.7832 Y53.8357
G01 X152.9729
G01 X153.1124 Y53.9791
G01 X154.8028 Y52.2886
G01 X152.0478
G01 X146.4270 Y57.9079
G01 X146.3986 Y57.9352
G01 X146.3693 Y57.9612
G01 X146.3389 Y57.9861
G01 X146.3076 Y58.0098
G01 X146.2754 Y58.0323
G01 X146.2424 Y58.0534
G01 X146.2085 Y58.0733
G01 X146.1739 Y58.0918
G01 X146.1385 Y58.1089
G01 X146.1026 Y58.1247
G01 X146.0660 Y58.1390
G01 X146.0289 Y58.1518
G01 X145.9913 Y58.1632
G01 X145.9533 Y58.1731
G01 X145.9150 Y58.1815
G01 X145.8763 Y58.1884
G01 X145.8375 Y58.1938
G01 X145.7984 Y58.1977
G01 X145.7592 Y58.2000
G01 X145.7199 Y58.2007
G01 X141.8611
G01 X141.7826 Y58.1977
G01 X141.7047 Y58.1884
G01 X141.6277 Y58.1731
G01 X141.5521 Y58.1518
G01 X141.4784 Y58.1246
G01 X141.4071 Y58.0918
G01 X141.3386 Y58.0534
G01 X141.2733 Y58.0098
G01 X141.2117 Y57.9612
G01 X141.1540 Y57.9079
G01 X141.1007 Y57.8502
G01 X141.0521 Y57.7885
G01 X141.0085 Y57.7232
G01 X140.9701 Y57.6547
G01 X140.9372 Y57.5834
G01 X140.9100 Y57.5098
G01 X140.8887 Y57.4342
G01 X140.8734 Y57.3572
G01 X140.8642 Y57.2792
G01 X140.8611 Y57.2007
G01 Y52.2886
G01 X139.0912
G01 Y59.9707
G01 X151.8179
G01 X151.9522 Y59.9755
G01 X152.0859 Y59.9890
G01 X152.2185 Y60.0112
G01 X152.3493 Y60.0420
G01 X152.4779 Y60.0813
G01 X152.6036 Y60.1289
G01 X152.7260 Y60.1845
G01 X152.8445 Y60.2480
G01 X152.9586 Y60.3191
G01 X153.0678 Y60.3975
G01 X153.1716 Y60.4828
G01 X153.2697 Y60.5747
G01 X153.3617 Y60.6728
G01 X153.4470 Y60.7766
G01 X153.5253 Y60.8858
G01 X153.5964 Y60.9999
G01 X153.6600 Y61.1184
G01 X153.7156 Y61.2408
G01 X153.7632 Y61.3665
G01 X153.8025 Y61.4950
G01 X153.8333 Y61.6259
G01 X153.8555 Y61.7584
G01 X153.8691 Y61.8922
G01 X153.8739 Y62.0265
G01 X153.8977 Y62.3374
G01 X153.9036 Y62.6491
G01 X153.8915 Y62.9606
G01 X153.8616 Y63.2709
G01 X153.8537 Y63.3144
G01 X153.8439 Y63.3574
G01 X153.8322 Y63.4000
G01 X153.8187 Y63.4421
G01 X153.8033 Y63.4835
G01 X153.7861 Y63.5242
G01 X153.7671 Y63.5641
G01 X153.7464 Y63.6031
G01 X153.7239 Y63.6411
G01 X153.6998 Y63.6782
G01 X153.6741 Y63.7141
G01 X153.6469 Y63.7488
G01 X153.6181 Y63.7824
G01 X153.5879 Y63.8146
G01 X153.5563 Y63.8454
G01 X153.5233 Y63.8749
G01 X153.4891 Y63.9028
G01 X153.4537 Y63.9292
G01 X153.4171 Y63.9540
G01 X153.3795 Y63.9772
G01 X153.3409 Y63.9987
G01 X153.3014 Y64.0184
G01 X153.2611 Y64.0364
G01 X153.2200 Y64.0526
G01 X153.1782 Y64.0670
G01 X153.1359 Y64.0795
G01 X153.0930 Y64.0902
G01 X153.0497 Y64.0989
G01 X153.0060 Y64.1057
G01 X152.9621 Y64.1106
G01 X152.9180 Y64.1135
G01 X152.8739 Y64.1145
G01 X141.4649
G01 X141.3344 Y64.1151
G01 X141.2042 Y64.1231
G01 X141.0747 Y64.1385
G01 X140.9462 Y64.1611
G01 X140.8192 Y64.1909
G01 X140.6940 Y64.2278
G01 X140.5712 Y64.2717
G01 X140.4510 Y64.3224
G01 X140.3339 Y64.3799
G01 X140.2202 Y64.4438
G01 X140.1103 Y64.5141
G01 X140.0045 Y64.5904
G01 X139.9031 Y64.6725
G01 X139.8066 Y64.7603
G01 X139.7151 Y64.8533
G01 X139.6291 Y64.9513
G01 X139.5487 Y65.0541
G01 X139.4742 Y65.1612
G01 X139.4058 Y65.2723
G01 X139.3438 Y65.3871
G01 X139.2884 Y65.5052
G01 X139.2397 Y65.6262
G01 X139.1980 Y65.7498
G01 X139.1632 Y65.8755
G01 X155.6422 Y65.8828
G01 Y60.5758
G01 X155.6391 Y60.4426
G01 X155.6285 Y60.3099
G01 X155.6105 Y60.1779
G01 X155.5850 Y60.0472
G01 X155.5522 Y59.9181
G01 X155.5122 Y59.7911
G01 X155.4651 Y59.6665
G01 X155.4111 Y59.5447
G01 X155.3503 Y59.4262
G01 X155.2829 Y59.3114
G01 X155.2092 Y59.2005
G01 X155.1293 Y59.0939
G01 X155.0435 Y58.9920
G01 X154.9522 Y58.8951
G01 X154.8555 Y58.8035
G01 X154.7538 Y58.7174
G01 X154.6474 Y58.6373
G01 X154.5367 Y58.5633
G01 X154.4220 Y58.4956
G01 X154.3037 Y58.4345
G01 X154.1821 Y58.3801
G01 X154.0576 Y58.3327
G01 X153.9307 Y58.2924
G01 X153.8017 Y58.2593
G01 X153.6710 Y58.2335
G01 X153.5391 Y58.2151
G01 X153.4064 Y58.2042
G01 X153.2732 Y58.2007
G01 X151.3049
G01 X151.2209 Y58.1972
G01 X151.1374 Y58.1866
G01 X151.0552 Y58.1690
G01 X150.9746 Y58.1446
G01 X150.8965 Y58.1135
G01 X150.8212 Y58.0760
G01 X150.7494 Y58.0322
G01 X150.6814 Y57.9826
G01 X150.6179 Y57.9274
G01 X150.5593 Y57.8671
G01 X150.5059 Y57.8021
G01 X150.4582 Y57.7328
G01 X150.4165 Y57.6597
G01 X150.3810 Y57.5834
G01 X150.3522 Y57.5044
G01 X150.3300 Y57.4233
G01 X150.3147 Y57.3405
G01 X150.3065 Y57.2568
G01 X150.3053 Y57.1727
G01 X150.3112 Y57.0888
G01 X150.3241 Y57.0057
G01 X150.3440 Y56.9239
G01 X150.3707 Y56.8441
G01 X150.4040 Y56.7669
G01 X150.4436 Y56.6927
G01 X150.4894 Y56.6221
G01 X150.5409 Y56.5556
G01 X150.5978 Y56.4936
G01 X153.1124 Y53.9791
G01 X152.9729 Y53.8357
M107
G00 Z2.0000


;No. 32: Hole 26


;No. 33: Hole 26
G00 X159.9289 Y65.6422 Z2.0000
G00 Z0.5000
G01 Z0.0000 F400
G01 Z-1.2000
M106 S240
G01 X159.9082 Y65.7016 F1000
G01 X159.8891 Y65.7615
G01 X159.8717 Y65.8219
G01 X159.8559 Y65.8828
G01 X176.2670
G01 X176.2303 Y65.7580
G01 X176.1868 Y65.6355
G01 X176.1366 Y65.5155
G01 X176.0800 Y65.3985
G01 X176.0171 Y65.2847
G01 X175.9480 Y65.1745
G01 X175.8731 Y65.0683
G01 X175.7924 Y64.9663
G01 X175.7063 Y64.8689
G01 X175.6149 Y64.7764
G01 X175.5187 Y64.6889
G01 X175.4178 Y64.6069
G01 X175.3126 Y64.5305
G01 X175.2034 Y64.4600
G01 X175.0904 Y64.3956
G01 X174.9742 Y64.3374
G01 X174.8549 Y64.2856
G01 X174.7329 Y64.2405
G01 X174.6087 Y64.2021
G01 X174.4826 Y64.1706
G01 X174.3549 Y64.1460
G01 X174.2261 Y64.1284
G01 X174.0965 Y64.1179
G01 X173.9665 Y64.1145
G01 X162.1597
G01 X162.0427 Y64.1146
G01 X161.9260 Y64.1206
G01 X161.8097 Y64.1325
G01 X161.6941 Y64.1503
G01 X161.5796 Y64.1740
G01 X161.4664 Y64.2034
G01 X161.3549 Y64.2386
G01 X161.2453 Y64.2793
G01 X161.1379 Y64.3255
G01 X161.0330 Y64.3772
G01 X160.9308 Y64.4340
G01 X160.8317 Y64.4960
G01 X160.7358 Y64.5630
G01 X160.6435 Y64.6347
G01 X160.5549 Y64.7109
G01 X160.4702 Y64.7916
G01 X160.4790 Y64.7823
G01 X160.3907 Y64.8757
G01 X160.3075 Y64.9737
G01 X160.2297 Y65.0761
G01 X160.1575 Y65.1825
G01 X160.0912 Y65.2926
G01 X160.0308 Y65.4062
G01 X159.9767 Y65.5228
G01 X159.9289 Y65.6422
M107
G00 Z2.0000


;No. 34: Hole 27


;No. 35: Hole 27
G00 X159.9061 Y59.7958 Z2.0000
G00 Z0.5000
G01 Z0.0000 F400
G01 Z-1.2000
M106 S240
G01 X159.8922 Y59.8391 F1000
G01 X159.8792 Y59.8827
G01 X159.8671 Y59.9266
G01 X159.8559 Y59.9707
G01 X176.2670 Y59.9706
G01 X176.2302 Y59.8459
G01 X176.1867 Y59.7234
G01 X176.1365 Y59.6034
G01 X176.0799 Y59.4863
G01 X176.0169 Y59.3725
G01 X175.9478 Y59.2623
G01 X175.8728 Y59.1561
G01 X175.7922 Y59.0541
G01 X175.7061 Y58.9567
G01 X175.6147 Y58.8641
G01 X175.5185 Y58.7766
G01 X175.4176 Y58.6945
G01 X175.3124 Y58.6181
G01 X175.2032 Y58.5475
G01 X175.0903 Y58.4829
G01 X174.9741 Y58.4247
G01 X174.8548 Y58.3729
G01 X174.7329 Y58.3276
G01 X174.6087 Y58.2891
G01 X174.4825 Y58.2574
G01 X174.3549 Y58.2327
G01 X174.2260 Y58.2150
G01 X174.0964 Y58.2043
G01 X173.9665 Y58.2007
G01 X162.1597
G01 X162.0364 Y58.2011
G01 X161.9133 Y58.2080
G01 X161.7908 Y58.2215
G01 X161.6692 Y58.2415
G01 X161.5488 Y58.2679
G01 X161.4300 Y58.3008
G01 X161.3131 Y58.3399
G01 X161.1985 Y58.3851
G01 X161.0864 Y58.4364
G01 X160.9772 Y58.4937
G01 X160.8713 Y58.5566
G01 X160.7688 Y58.6251
G01 X160.6701 Y58.6990
G01 X160.5755 Y58.7780
G01 X160.4853 Y58.8619
G01 X160.3996 Y58.9506
G01 X160.3188 Y59.0436
G01 X160.2431 Y59.1409
G01 X160.1726 Y59.2420
G01 X160.1076 Y59.3468
G01 X160.0484 Y59.4548
G01 X159.9949 Y59.5659
G01 X159.9474 Y59.6796
G01 X159.9061 Y59.7958
M107
G00 Z2.0000


;No. 36: Hole 28


;No. 37: Hole 28
G00 X159.8852 Y53.9497 Z2.0000
G00 Z0.5000
G01 Z0.0000 F400
G01 Z-1.2000
M106 S240
G01 X159.8676 Y54.0122 F1000
G01 X159.8559 Y54.0586
G01 X176.2670 Y54.0585
G01 X176.2302 Y53.9338
G01 X176.1867 Y53.8113
G01 X176.1365 Y53.6913
G01 X176.0799 Y53.5742
G01 X176.0169 Y53.4604
G01 X175.9478 Y53.3503
G01 X175.8729 Y53.2440
G01 X175.7922 Y53.1420
G01 X175.7061 Y53.0446
G01 X175.6147 Y52.9520
G01 X175.5185 Y52.8645
G01 X175.4176 Y52.7824
G01 X175.3124 Y52.7060
G01 X175.2032 Y52.6354
G01 X175.0903 Y52.5709
G01 X174.9741 Y52.5126
G01 X174.8548 Y52.4608
G01 X174.7329 Y52.4155
G01 X174.6087 Y52.3770
G01 X174.4825 Y52.3454
G01 X174.3549 Y52.3206
G01 X174.2260 Y52.3029
G01 X174.0964 Y52.2922
G01 X173.9665 Y52.2886
G01 X162.1597
G01 X162.0335 Y52.2891
G01 X161.9076 Y52.2965
G01 X161.7822 Y52.3107
G01 X161.6579 Y52.3317
G01 X161.5348 Y52.3594
G01 X161.4134 Y52.3939
G01 X161.2941 Y52.4348
G01 X161.1773 Y52.4823
G01 X161.0631 Y52.5360
G01 X160.9521 Y52.5959
G01 X160.8445 Y52.6617
G01 X160.7406 Y52.7333
G01 X160.6408 Y52.8104
G01 X160.5454 Y52.8929
G01 X160.4546 Y52.9805
G01 X160.3686 Y53.0728
G01 X160.2879 Y53.1698
G01 X160.2126 Y53.2709
G01 X160.1428 Y53.3761
G01 X160.0789 Y53.4848
G01 X160.0211 Y53.5969
G01 X159.9694 Y53.7120
G01 X159.9241 Y53.8297
G01 X159.8852 Y53.9497
M107
G00 Z2.0000


;No. 38: Part 1
G00 X47.2655 Y24.7461 Z2.0000
G00 Z0.5000
G01 Z0.0000 F400
G01 Z-2.5000
M106 S240
G01 X49.5679 Y11.8060 F1000
G01 X49.6113 Y11.5190
G01 X49.6774 Y11.2364
G01 X49.7658 Y10.9600
G01 X49.8758 Y10.6915
G01 X50.0069 Y10.4326
G01 X50.1581 Y10.1849
G01 X50.3286 Y9.9500
G01 X50.5171 Y9.7294
G01 X50.6247 Y9.6408
G01 X50.7363 Y9.5572
G01 X50.8516 Y9.4790
G01 X50.9705 Y9.4062
G01 X51.0926 Y9.3391
G01 X51.2178 Y9.2777
G01 X51.3456 Y9.2222
G01 X51.4760 Y9.1728
G01 X51.6084 Y9.1295
G01 X51.7428 Y9.0924
G01 X51.8787 Y9.0616
G01 X52.0160 Y9.0372
G01 X52.1542 Y9.0192
G01 X52.2931 Y9.0077
G01 X52.4324 Y9.0027
G01 X52.5718 Y9.0042
G01 X52.6789 Y9.0020
G01 X52.7860 Y9.0006
G01 X52.8931 Y8.9999
G01 X53.0003 Y9.0000
G01 X221.2372
G01 X221.4749 Y8.9913
G01 X221.7126 Y8.9973
G01 X221.9495 Y9.0179
G01 X222.1847 Y9.0532
G01 X222.4173 Y9.1028
G01 X222.6463 Y9.1667
G01 X222.8710 Y9.2446
G01 X223.0905 Y9.3362
G01 X223.2195 Y9.4168
G01 X223.3440 Y9.5041
G01 X223.4638 Y9.5979
G01 X223.5784 Y9.6980
G01 X223.6875 Y9.8040
G01 X223.7908 Y9.9156
G01 X223.8881 Y10.0326
G01 X223.9790 Y10.1546
G01 X224.0633 Y10.2813
G01 X224.1407 Y10.4122
G01 X224.2111 Y10.5471
G01 X224.2742 Y10.6855
G01 X224.3298 Y10.8271
G01 X224.3779 Y10.9714
G01 X224.4182 Y11.1181
G01 X224.4507 Y11.2667
G01 X224.4779 Y11.3813
G01 X224.5027 Y11.4963
G01 X224.5252 Y11.6119
G01 X224.5452 Y11.7279
G01 X226.8574 Y24.7241
M107
G00 Z-2.0000
M106 S240
G01 X227.7332 Y29.6468
G01 Z-2.5000 F400
G01 X264.2125 Y234.6902 F1000
G01 X264.4448 Y235.8858
G01 X264.6495 Y237.0864
G01 X264.8264 Y238.2915
G01 X264.9756 Y239.5003
G01 X265.0968 Y240.7122
G01 X265.1901 Y241.9266
G01 X265.2554 Y243.1429
G01 X265.2927 Y244.3603
G01 X265.3019 Y245.5782
G01 X265.2830 Y246.7960
G01 X265.2361 Y248.0131
G01 X265.1611 Y249.2288
G01 X265.0772 Y250.1832
G01 X264.9673 Y251.1350
G01 X264.8315 Y252.0835
G01 X264.6698 Y253.0278
G01 X264.4823 Y253.9674
G01 X264.2693 Y254.9016
G01 X264.0309 Y255.8296
G01 X263.7672 Y256.7507
G01 X263.4784 Y257.6642
G01 X263.1648 Y258.5696
G01 X262.8266 Y259.4660
G01 X262.4640 Y260.3529
M107
G00 Z-2.0000
M106 S240
G01 X262.2096 Y260.9237
G01 X261.9424 Y261.4887
G01 X261.6625 Y262.0476
G01 X261.3701 Y262.6000
G01 X261.0654 Y263.1456
G01 X260.7485 Y263.6843
G01 X260.4195 Y264.2157
G01 X260.0787 Y264.7396
G01 Z-2.5000 F400
G01 X259.5841 Y265.4547 F1000
G01 X259.0655 Y266.1528
G01 X258.5237 Y266.8328
G01 X257.9591 Y267.4942
G01 X257.3726 Y268.1361
G01 X256.7647 Y268.7578
G01 X256.1361 Y269.3586
G01 X255.4875 Y269.9378
G01 X254.8197 Y270.4947
G01 X254.1335 Y271.0288
G01 X253.4296 Y271.5393
G01 X252.7089 Y272.0257
G01 X251.9721 Y272.4875
G01 X251.2202 Y272.9241
G01 X250.4539 Y273.3351
G01 X249.6741 Y273.7199
G01 X248.8818 Y274.0781
G01 X248.0778 Y274.4094
G01 X247.2631 Y274.7132
G01 X246.4386 Y274.9894
G01 X245.5896 Y275.2461
G01 X244.7342 Y275.4805
G01 X243.8729 Y275.6924
G01 X243.0064 Y275.8816
G01 X242.1352 Y276.0481
G01 X241.2599 Y276.1918
G01 X240.3812 Y276.3124
G01 X239.4996 Y276.4100
G01 X238.6158 Y276.4845
G01 X237.7304 Y276.5358
G01 X236.8438 Y276.5639
G01 X235.9569 Y276.5687
G01 X37.4565
G01 X36.4803 Y276.5418
G01 X35.5058 Y276.4781
G01 X34.5344 Y276.3777
G01 X33.5675 Y276.2407
G01 X32.6064 Y276.0674
G01 X31.6526 Y275.8579
G01 X30.7073 Y275.6125
G01 X29.7720 Y275.3317
G01 X28.8479 Y275.0158
G01 X27.9364 Y274.6653
G01 X27.0388 Y274.2807
G01 X26.1563 Y273.8624
G01 X25.2902 Y273.4112
G01 X24.4418 Y272.9276
G01 X23.6122 Y272.4124
G01 X22.8026 Y271.8662
G01 X21.9655 Y271.2649
G01 X21.1496 Y270.6351
G01 X20.3560 Y269.9774
G01 X19.5856 Y269.2926
G01 X18.8393 Y268.5817
G01 X18.1180 Y267.8454
G01 X17.4226 Y267.0846
G01 X16.7539 Y266.3002
M107
G00 Z-2.0000
M106 S240
G01 X16.3605 Y265.8146
G01 X15.9767 Y265.3213
G01 X15.6027 Y264.8206
G01 X15.2385 Y264.3127
G01 X14.8844 Y263.7977
G01 X14.5405 Y263.2758
G01 X14.2069 Y262.7473
G01 X13.8837 Y262.2124
G01 Z-2.5000 F400
G01 X13.3590 Y261.2767 F1000
G01 X12.8625 Y260.3257
G01 X12.3945 Y259.3603
G01 X11.9556 Y258.3815
G01 X11.5460 Y257.3899
G01 X11.1662 Y256.3866
G01 X10.8165 Y255.3724
G01 X10.4971 Y254.3483
G01 X10.2085 Y253.3150
G01 X9.9508 Y252.2736
G01 X9.7243 Y251.2250
G01 X9.5291 Y250.1701
G01 X9.3655 Y249.1099
G01 X9.2336 Y248.0452
G01 X9.1335 Y246.9771
G01 X9.0653 Y245.9065
G01 X9.0258 Y244.9595
G01 X9.0067 Y244.0118
G01 X9.0078 Y243.0639
G01 X9.0292 Y242.1163
G01 X9.0709 Y241.1693
G01 X9.1329 Y240.2235
G01 X9.2151 Y239.2791
G01 X9.3175 Y238.3368
G01 X9.4401 Y237.3969
G01 X9.5827 Y236.4598
G01 X9.7454 Y235.5260
G01 X9.9280 Y234.5959
G01 X46.3897 Y29.6688
M107
G00 Z-2.0000
M106 S240
G01 X47.2655 Y24.7461
G01 Z-2.5000 F400
G01 Z-5.0000
G01 X49.5679 Y11.8060 F1000
G01 X49.6113 Y11.5190
G01 X49.6774 Y11.2364
G01 X49.7658 Y10.9600
G01 X49.8758 Y10.6915
G01 X50.0069 Y10.4326
G01 X50.1581 Y10.1849
G01 X50.3286 Y9.9500
G01 X50.5171 Y9.7294
G01 X50.6247 Y9.6408
G01 X50.7363 Y9.5572
G01 X50.8516 Y9.4790
G01 X50.9705 Y9.4062
G01 X51.0926 Y9.3391
G01 X51.2178 Y9.2777
G01 X51.3456 Y9.2222
G01 X51.4760 Y9.1728
G01 X51.6084 Y9.1295
G01 X51.7428 Y9.0924
G01 X51.8787 Y9.0616
G01 X52.0160 Y9.0372
G01 X52.1542 Y9.0192
G01 X52.2931 Y9.0077
G01 X52.4324 Y9.0027
G01 X52.5718 Y9.0042
G01 X52.6789 Y9.0020
G01 X52.7860 Y9.0006
G01 X52.8931 Y8.9999
G01 X53.0003 Y9.0000
G01 X221.2372
G01 X221.4749 Y8.9913
G01 X221.7126 Y8.9973
G01 X221.9495 Y9.0179
G01 X222.1847 Y9.0532
G01 X222.4173 Y9.1028
G01 X222.6463 Y9.1667
G01 X222.8710 Y9.2446
G01 X223.0905 Y9.3362
G01 X223.2195 Y9.4168
G01 X223.3440 Y9.5041
G01 X223.4638 Y9.5979
G01 X223.5784 Y9.6980
G01 X223.6875 Y9.8040
G01 X223.7908 Y9.9156
G01 X223.8881 Y10.0326
G01 X223.9790 Y10.1546
G01 X224.0633 Y10.2813
G01 X224.1407 Y10.4122
G01 X224.2111 Y10.5471
G01 X224.2742 Y10.6855
G01 X224.3298 Y10.8271
G01 X224.3779 Y10.9714
G01 X224.4182 Y11.1181
G01 X224.4507 Y11.2667
G01 X224.4779 Y11.3813
G01 X224.5027 Y11.4963
G01 X224.5252 Y11.6119
G01 X224.5452 Y11.7279
G01 X226.8574 Y24.7241
M107
G00 Z-2.0000
M106 S240
G01 X227.7332 Y29.6468
G01 Z-2.5000 F400
G01 Z-5.0000
G01 X264.2125 Y234.6902 F1000
G01 X264.4448 Y235.8858
G01 X264.6495 Y237.0864
G01 X264.8264 Y238.2915
G01 X264.9756 Y239.5003
G01 X265.0968 Y240.7122
G01 X265.1901 Y241.9266
G01 X265.2554 Y243.1429
G01 X265.2927 Y244.3603
G01 X265.3019 Y245.5782
G01 X265.2830 Y246.7960
G01 X265.2361 Y248.0131
G01 X265.1611 Y249.2288
G01 X265.0772 Y250.1832
G01 X264.9673 Y251.1350
G01 X264.8315 Y252.0835
G01 X264.6698 Y253.0278
G01 X264.4823 Y253.9674
G01 X264.2693 Y254.9016
G01 X264.0309 Y255.8296
G01 X263.7672 Y256.7507
G01 X263.4784 Y257.6642
G01 X263.1648 Y258.5696
G01 X262.8266 Y259.4660
G01 X262.4640 Y260.3529
M107
G00 Z-2.0000
M106 S240
G01 X262.2096 Y260.9237
G01 X261.9424 Y261.4887
G01 X261.6625 Y262.0476
G01 X261.3701 Y262.6000
G01 X261.0654 Y263.1456
G01 X260.7485 Y263.6843
G01 X260.4195 Y264.2157
G01 X260.0787 Y264.7396
G01 Z-2.5000 F400
G01 Z-5.0000
G01 X259.5841 Y265.4547 F1000
G01 X259.0655 Y266.1528
G01 X258.5237 Y266.8328
G01 X257.9591 Y267.4942
G01 X257.3726 Y268.1361
G01 X256.7647 Y268.7578
G01 X256.1361 Y269.3586
G01 X255.4875 Y269.9378
G01 X254.8197 Y270.4947
G01 X254.1335 Y271.0288
G01 X253.4296 Y271.5393
G01 X252.7089 Y272.0257
G01 X251.9721 Y272.4875
G01 X251.2202 Y272.9241
G01 X250.4539 Y273.3351
G01 X249.6741 Y273.7199
G01 X248.8818 Y274.0781
G01 X248.0778 Y274.4094
G01 X247.2631 Y274.7132
G01 X246.4386 Y274.9894
G01 X245.5896 Y275.2461
G01 X244.7342 Y275.4805
G01 X243.8729 Y275.6924
G01 X243.0064 Y275.8816
G01 X242.1352 Y276.0481
G01 X241.2599 Y276.1918
G01 X240.3812 Y276.3124
G01 X239.4996 Y276.4100
G01 X238.6158 Y276.4845
G01 X237.7304 Y276.5358
G01 X236.8438 Y276.5639
G01 X235.9569 Y276.5687
G01 X37.4565
G01 X36.4803 Y276.5418
G01 X35.5058 Y276.4781
G01 X34.5344 Y276.3777
G01 X33.5675 Y276.2407
G01 X32.6064 Y276.0674
G01 X31.6526 Y275.8579
G01 X30.7073 Y275.6125
G01 X29.7720 Y275.3317
G01 X28.8479 Y275.0158
G01 X27.9364 Y274.6653
G01 X27.0388 Y274.2807
G01 X26.1563 Y273.8624
G01 X25.2902 Y273.4112
G01 X24.4418 Y272.9276
G01 X23.6122 Y272.4124
G01 X22.8026 Y271.8662
G01 X21.9655 Y271.2649
G01 X21.1496 Y270.6351
G01 X20.3560 Y269.9774
G01 X19.5856 Y269.2926
G01 X18.8393 Y268.5817
G01 X18.1180 Y267.8454
G01 X17.4226 Y267.0846
G01 X16.7539 Y266.3002
M107
G00 Z-2.0000
M106 S240
G01 X16.3605 Y265.8146
G01 X15.9767 Y265.3213
G01 X15.6027 Y264.8206
G01 X15.2385 Y264.3127
G01 X14.8844 Y263.7977
G01 X14.5405 Y263.2758
G01 X14.2069 Y262.7473
G01 X13.8837 Y262.2124
G01 Z-2.5000 F400
G01 Z-5.0000
G01 X13.3590 Y261.2767 F1000
G01 X12.8625 Y260.3257
G01 X12.3945 Y259.3603
G01 X11.9556 Y258.3815
G01 X11.5460 Y257.3899
G01 X11.1662 Y256.3866
G01 X10.8165 Y255.3724
G01 X10.4971 Y254.3483
G01 X10.2085 Y253.3150
G01 X9.9508 Y252.2736
G01 X9.7243 Y251.2250
G01 X9.5291 Y250.1701
G01 X9.3655 Y249.1099
G01 X9.2336 Y248.0452
G01 X9.1335 Y246.9771
G01 X9.0653 Y245.9065
G01 X9.0258 Y244.9595
G01 X9.0067 Y244.0118
G01 X9.0078 Y243.0639
G01 X9.0292 Y242.1163
G01 X9.0709 Y241.1693
G01 X9.1329 Y240.2235
G01 X9.2151 Y239.2791
G01 X9.3175 Y238.3368
G01 X9.4401 Y237.3969
G01 X9.5827 Y236.4598
G01 X9.7454 Y235.5260
G01 X9.9280 Y234.5959
G01 X46.3897 Y29.6688
M107
G00 Z-2.0000
M106 S240
G01 X47.2655 Y24.7461
M107
G00 Z2.0000
G00 X0.0000 Y0.0000
G00 Z0.0000

M05
