;Project MaxsTeslaParkingOnlySchiefer
;Created by Estlcam version 11 build 11,227
;Machining time about 00:20:17 hours

G90
M03 S18000
G00 X0.0000 Y0.0000 Z0.0000
G00 Z2.0000


;No. 1: Helical drill 1
G00 X33.4458 Y267.4890
G00 Z0.5000
M106 S240
G01 X33.4420 Y267.4018 Z0.4705 F400 S18000
G01 X33.4306 Y267.3153 Z0.4410
G01 X33.4118 Y267.2302 Z0.4115
G01 X33.3855 Y267.1470 Z0.3819
G01 X33.3521 Y267.0664 Z0.3524
G01 X33.3119 Y266.9890 Z0.3229
G01 X33.2650 Y266.9154 Z0.2934
G01 X33.2119 Y266.8462 Z0.2639
G01 X33.1529 Y266.7819 Z0.2344
G01 X33.0886 Y266.7229 Z0.2049
G01 X33.0194 Y266.6698 Z0.1753
G01 X32.9458 Y266.6230 Z0.1458
G01 X32.8684 Y266.5827 Z0.1163
G01 X32.7878 Y266.5493 Z0.0868
G01 X32.7046 Y266.5231 Z0.0573
G01 X32.6195 Y266.5042 Z0.0278
G01 X32.5330 Y266.4928 Z-0.0017
G01 X32.4458 Y266.4890 Z-0.0313
G01 X32.3587 Y266.4928 Z-0.0608
G01 X32.2722 Y266.5042 Z-0.0903
G01 X32.1870 Y266.5231 Z-0.1198
G01 X32.1038 Y266.5493 Z-0.1493
G01 X32.0232 Y266.5827 Z-0.1788
G01 X31.9458 Y266.6230 Z-0.2083
G01 X31.9052 Y266.6477 Z-0.2244
G01 X31.8658 Y266.6744 Z-0.2405
G01 X31.8277 Y266.7029 Z-0.2566
G01 X31.7910 Y266.7332 Z-0.2727
G01 X31.7557 Y266.7653 Z-0.2888
G01 X31.7221 Y266.7989 Z-0.3049
G01 X31.6901 Y266.8341 Z-0.3210
G01 X31.6598 Y266.8708 Z-0.3371
G01 X31.6313 Y266.9089 Z-0.3532
G01 X31.6046 Y266.9483 Z-0.3693
G01 X31.5798 Y266.9890 Z-0.3854
G01 X31.5570 Y267.0308 Z-0.4015
G01 X31.5362 Y267.0736 Z-0.4176
G01 X31.5175 Y267.1173 Z-0.4337
G01 X31.5008 Y267.1619 Z-0.4498
G01 X31.4863 Y267.2073 Z-0.4659
G01 X31.4740 Y267.2532 Z-0.4820
G01 X31.4639 Y267.2997 Z-0.4981
G01 X31.4560 Y267.3467 Z-0.5142
G01 X31.4504 Y267.3939 Z-0.5303
G01 X31.4470 Y267.4414 Z-0.5464
G01 X31.4458 Y267.4890 Z-0.5625
G01 X31.4470 Y267.5366 Z-0.5786
G01 X31.4504 Y267.5840 Z-0.5947
G01 X31.4560 Y267.6313 Z-0.6108
G01 X31.4639 Y267.6782 Z-0.6269
G01 X31.4740 Y267.7247 Z-0.6430
G01 X31.4863 Y267.7707 Z-0.6591
G01 X31.5008 Y267.8161 Z-0.6752
G01 X31.5175 Y267.8606 Z-0.6913
G01 X31.5362 Y267.9044 Z-0.7074
G01 X31.5570 Y267.9472 Z-0.7235
G01 X31.5798 Y267.9890 Z-0.7396
G01 X31.6046 Y268.0296 Z-0.7557
G01 X31.6313 Y268.0690 Z-0.7718
G01 X31.6598 Y268.1071 Z-0.7879
G01 X31.6901 Y268.1438 Z-0.8040
G01 X31.7221 Y268.1791 Z-0.8201
G01 X31.7557 Y268.2127 Z-0.8362
G01 X31.7910 Y268.2447 Z-0.8523
G01 X31.8277 Y268.2750 Z-0.8684
G01 X31.8658 Y268.3036 Z-0.8845
G01 X31.9052 Y268.3302 Z-0.9006
G01 X31.9458 Y268.3550 Z-0.9167
G01 X31.9876 Y268.3778 Z-0.9328
G01 X32.0304 Y268.3986 Z-0.9489
G01 X32.0742 Y268.4174 Z-0.9650
G01 X32.1188 Y268.4340 Z-0.9811
G01 X32.1641 Y268.4485 Z-0.9972
G01 X32.2101 Y268.4608 Z-1.0133
G01 X32.2566 Y268.4709 Z-1.0294
G01 X32.3035 Y268.4788 Z-1.0455
G01 X32.3508 Y268.4845 Z-1.0616
G01 X32.3982 Y268.4879 Z-1.0777
G01 X32.4458 Y268.4890 Z-1.0938
G01 X32.4934 Y268.4879 Z-1.1098
G01 X32.5409 Y268.4845 Z-1.1259
G01 X32.5881 Y268.4788 Z-1.1420
G01 X32.6351 Y268.4709 Z-1.1581
G01 X32.6816 Y268.4608 Z-1.1742
G01 X32.7276 Y268.4485 Z-1.1903
G01 X32.7729 Y268.4340 Z-1.2064
G01 X32.8175 Y268.4174 Z-1.2225
G01 X32.8612 Y268.3986 Z-1.2386
G01 X32.9041 Y268.3778 Z-1.2547
G01 X32.9458 Y268.3550 Z-1.2708
G01 X32.9865 Y268.3302 Z-1.2869
G01 X33.0259 Y268.3036 Z-1.3030
G01 X33.0640 Y268.2750 Z-1.3191
G01 X33.1007 Y268.2447 Z-1.3352
G01 X33.1359 Y268.2127 Z-1.3513
G01 X33.1696 Y268.1791 Z-1.3674
G01 X33.2016 Y268.1438 Z-1.3835
G01 X33.2319 Y268.1071 Z-1.3996
G01 X33.2604 Y268.0690 Z-1.4157
G01 X33.2871 Y268.0296 Z-1.4318
G01 X33.3119 Y267.9890 Z-1.4479
G01 X33.3347 Y267.9472 Z-1.4640
G01 X33.3555 Y267.9044 Z-1.4801
G01 X33.3742 Y267.8606 Z-1.4962
G01 X33.3908 Y267.8161 Z-1.5123
G01 X33.4053 Y267.7707 Z-1.5284
G01 X33.4176 Y267.7247 Z-1.5445
G01 X33.4278 Y267.6782 Z-1.5606
G01 X33.4356 Y267.6313 Z-1.5767
G01 X33.4413 Y267.5840 Z-1.5928
G01 X33.4447 Y267.5366 Z-1.6089
G01 X33.4458 Y267.4890 Z-1.6250
G01 X33.4420 Y267.4018
G01 X33.4306 Y267.3153
G01 X33.4118 Y267.2302
G01 X33.3855 Y267.1470
G01 X33.3521 Y267.0664
G01 X33.3119 Y266.9890
G01 X33.2650 Y266.9154
G01 X33.2119 Y266.8462
G01 X33.1529 Y266.7819
G01 X33.0886 Y266.7229
G01 X33.0194 Y266.6698
G01 X32.9458 Y266.6230
G01 X32.8684 Y266.5827
G01 X32.7878 Y266.5493
G01 X32.7046 Y266.5231
G01 X32.6195 Y266.5042
G01 X32.5330 Y266.4928
G01 X32.4458 Y266.4890
G01 X32.3587 Y266.4928
G01 X32.2722 Y266.5042
G01 X32.1870 Y266.5231
G01 X32.1038 Y266.5493
G01 X32.0232 Y266.5827
G01 X31.9458 Y266.6230
G01 X31.9052 Y266.6477
G01 X31.8658 Y266.6744
G01 X31.8277 Y266.7029
G01 X31.7910 Y266.7332
G01 X31.7557 Y266.7653
G01 X31.7221 Y266.7989
G01 X31.6901 Y266.8341
G01 X31.6598 Y266.8708
G01 X31.6313 Y266.9089
G01 X31.6046 Y266.9483
G01 X31.5798 Y266.9890
G01 X31.5570 Y267.0308
G01 X31.5362 Y267.0736
G01 X31.5175 Y267.1173
G01 X31.5008 Y267.1619
G01 X31.4863 Y267.2073
G01 X31.4740 Y267.2532
G01 X31.4639 Y267.2997
G01 X31.4560 Y267.3467
G01 X31.4504 Y267.3939
G01 X31.4470 Y267.4414
G01 X31.4458 Y267.4890
G01 X31.4470 Y267.5366
G01 X31.4504 Y267.5840
G01 X31.4560 Y267.6313
G01 X31.4639 Y267.6782
G01 X31.4740 Y267.7247
G01 X31.4863 Y267.7707
G01 X31.5008 Y267.8161
G01 X31.5175 Y267.8606
G01 X31.5362 Y267.9044
G01 X31.5570 Y267.9472
G01 X31.5798 Y267.9890
G01 X31.6046 Y268.0296
G01 X31.6313 Y268.0690
G01 X31.6598 Y268.1071
G01 X31.6901 Y268.1438
G01 X31.7221 Y268.1791
G01 X31.7557 Y268.2127
G01 X31.7910 Y268.2447
G01 X31.8277 Y268.2750
G01 X31.8658 Y268.3036
G01 X31.9052 Y268.3302
G01 X31.9458 Y268.3550
G01 X31.9876 Y268.3778
G01 X32.0304 Y268.3986
G01 X32.0742 Y268.4174
G01 X32.1188 Y268.4340
G01 X32.1641 Y268.4485
G01 X32.2101 Y268.4608
G01 X32.2566 Y268.4709
G01 X32.3035 Y268.4788
G01 X32.3508 Y268.4845
G01 X32.3982 Y268.4879
G01 X32.4458 Y268.4890
G01 X32.4934 Y268.4879
G01 X32.5409 Y268.4845
G01 X32.5881 Y268.4788
G01 X32.6351 Y268.4709
G01 X32.6816 Y268.4608
G01 X32.7276 Y268.4485
G01 X32.7729 Y268.4340
G01 X32.8175 Y268.4174
G01 X32.8612 Y268.3986
G01 X32.9041 Y268.3778
G01 X32.9458 Y268.3550
G01 X32.9865 Y268.3302
G01 X33.0259 Y268.3036
G01 X33.0640 Y268.2750
G01 X33.1007 Y268.2447
G01 X33.1359 Y268.2127
G01 X33.1696 Y268.1791
G01 X33.2016 Y268.1438
G01 X33.2319 Y268.1071
G01 X33.2604 Y268.0690
G01 X33.2871 Y268.0296
G01 X33.3119 Y267.9890
G01 X33.3347 Y267.9472
G01 X33.3555 Y267.9044
G01 X33.3742 Y267.8606
G01 X33.3908 Y267.8161
G01 X33.4053 Y267.7707
G01 X33.4176 Y267.7247
G01 X33.4278 Y267.6782
G01 X33.4356 Y267.6313
G01 X33.4413 Y267.5840
G01 X33.4447 Y267.5366
G01 X33.4458 Y267.4890
G01 X33.4566 Y267.4374 F1000
G01 X33.4646 Y267.3853
G01 X33.4700 Y267.3329
G01 X33.4727 Y267.2802
G01 Y267.2275
G01 X33.4699 Y267.1749
G01 X33.4645 Y267.1225
G01 X33.4563 Y267.0704
G01 X33.4446 Y267.0144
G01 X33.4300 Y266.9591
G01 X33.4127 Y266.9046
G01 X33.3925 Y266.8511
G01 X33.3697 Y266.7987
G01 X33.3442 Y266.7475
G01 X33.3161 Y266.6976
G01 X33.2855 Y266.6493
G01 X33.2499 Y266.5989
G01 X33.2118 Y266.5504
G01 X33.1712 Y266.5039
G01 X33.1284 Y266.4595
G01 X33.0833 Y266.4173
G01 X33.0362 Y266.3775
G01 X32.9871 Y266.3401
G01 X32.9361 Y266.3053
G01 X32.8796 Y266.2707
G01 X32.8215 Y266.2390
G01 X32.7618 Y266.2103
G01 X32.7007 Y266.1847
G01 X32.6384 Y266.1622
G01 X32.5751 Y266.1429
G01 X32.5108 Y266.1268
G01 X32.4458 Y266.1140
G01 X32.3758 Y266.1038
G01 X32.3053 Y266.0972
G01 X32.2346 Y266.0941
G01 X32.1639 Y266.0946
G01 X32.0932 Y266.0986
G01 X32.0229 Y266.1062
G01 X31.9530 Y266.1174
G01 X31.8838 Y266.1320
G01 X31.8156 Y266.1580
G01 X31.7488 Y266.1873
G01 X31.6835 Y266.2198
G01 X31.6198 Y266.2556
G01 X31.5581 Y266.2944
G01 X31.4983 Y266.3362
G01 X31.4406 Y266.3809
G01 X31.3852 Y266.4283
G01 X31.3344 Y266.4817
G01 X31.2863 Y266.5374
G01 X31.2410 Y266.5955
G01 X31.1986 Y266.6556
G01 X31.1593 Y266.7178
G01 X31.1230 Y266.7819
G01 X31.0899 Y266.8477
G01 X31.0600 Y266.9150
G01 X31.0335 Y266.9837
G01 X31.0104 Y267.0536
G01 X30.9908 Y267.1245
G01 X30.9747 Y267.1964
G01 X30.9621 Y267.2689
G01 X30.9531 Y267.3420
G01 X30.9477 Y267.4154
G01 X30.9459 Y267.4890
G01 X30.9477 Y267.5626
G01 X30.9531 Y267.6360
G01 X30.9621 Y267.7091
G01 X30.9747 Y267.7816
G01 X30.9908 Y267.8535
G01 X31.0104 Y267.9244
G01 X31.0335 Y267.9943
G01 X31.0600 Y268.0630
G01 X31.0899 Y268.1303
G01 X31.1230 Y268.1961
G01 X31.1593 Y268.2601
G01 X31.1986 Y268.3223
G01 X31.2410 Y268.3825
G01 X31.2863 Y268.4406
G01 X31.3344 Y268.4963
G01 X31.3852 Y268.5496
G01 X31.4385 Y268.6004
G01 X31.4943 Y268.6485
G01 X31.5523 Y268.6938
G01 X31.6125 Y268.7362
G01 X31.6747 Y268.7756
G01 X31.7387 Y268.8118
G01 X31.8045 Y268.8449
G01 X31.8718 Y268.8748
G01 X31.9405 Y268.9013
G01 X32.0104 Y268.9244
G01 X32.0814 Y268.9440
G01 X32.1532 Y268.9601
G01 X32.2257 Y268.9727
G01 X32.2988 Y268.9817
G01 X32.3722 Y268.9872
G01 X32.4458 Y268.9890
G01 X32.5194 Y268.9872
G01 X32.5929 Y268.9817
G01 X32.6659 Y268.9727
G01 X32.7385 Y268.9601
G01 X32.8103 Y268.9440
G01 X32.8812 Y268.9244
G01 X32.9512 Y268.9013
G01 X33.0198 Y268.8748
G01 X33.0871 Y268.8449
G01 X33.1529 Y268.8118
G01 X33.2170 Y268.7756
G01 X33.2792 Y268.7362
G01 X33.3394 Y268.6938
G01 X33.3974 Y268.6485
G01 X33.4531 Y268.6004
G01 X33.5065 Y268.5496
G01 X33.5572 Y268.4963
G01 X33.6053 Y268.4406
G01 X33.6506 Y268.3825
G01 X33.6930 Y268.3223
G01 X33.7324 Y268.2601
G01 X33.7687 Y268.1961
G01 X33.8018 Y268.1303
G01 X33.8316 Y268.0630
G01 X33.8581 Y267.9943
G01 X33.8812 Y267.9244
G01 X33.9008 Y267.8535
G01 X33.9170 Y267.7816
G01 X33.9296 Y267.7091
G01 X33.9386 Y267.6360
G01 X33.9440 Y267.5626
G01 X33.9458 Y267.4890
G01 X33.9416 Y267.3769
G01 X33.9290 Y267.2654
G01 X33.9082 Y267.1552
G01 X33.8792 Y267.0469
G01 X33.8421 Y266.9410
G01 X33.7973 Y266.8382
G01 X33.7448 Y266.7390
G01 X33.6852 Y266.6440
G01 X33.6186 Y266.5538
G01 X33.5454 Y266.4687
G01 X33.4661 Y266.3894
G01 X33.3810 Y266.3163
G01 X33.2908 Y266.2497
G01 X33.1958 Y266.1900
G01 X33.0966 Y266.1376
G01 X32.9938 Y266.0927
G01 X32.8880 Y266.0557
G01 X32.7796 Y266.0266
G01 X32.6694 Y266.0058
G01 X32.5579 Y265.9932
G01 X32.4458 Y265.9890
G01 X32.3337 Y265.9932
G01 X32.2223 Y266.0058
G01 X32.1121 Y266.0266
G01 X32.0037 Y266.0557
G01 X31.8978 Y266.0927
G01 X31.7950 Y266.1376
G01 X31.6958 Y266.1900
G01 X31.6009 Y266.2497
G01 X31.5106 Y266.3163
G01 X31.4256 Y266.3894
G01 X31.3463 Y266.4687
G01 X31.2731 Y266.5538
G01 X31.2065 Y266.6440
G01 X31.1468 Y266.7390
G01 X31.0944 Y266.8382
G01 X31.0495 Y266.9410
G01 X31.0125 Y267.0469
G01 X30.9835 Y267.1552
G01 X30.9626 Y267.2654
G01 X30.9500 Y267.3769
G01 X30.9459 Y267.4890
G01 X30.9500 Y267.6011
G01 X30.9626 Y267.7125
G01 X30.9835 Y267.8228
G01 X31.0125 Y267.9311
G01 X31.0495 Y268.0370
G01 X31.0944 Y268.1398
G01 X31.1468 Y268.2390
G01 X31.2065 Y268.3340
G01 X31.2731 Y268.4242
G01 X31.3463 Y268.5092
G01 X31.4256 Y268.5885
G01 X31.5106 Y268.6617
G01 X31.6009 Y268.7283
G01 X31.6958 Y268.7880
G01 X31.7950 Y268.8404
G01 X31.8978 Y268.8853
G01 X32.0037 Y268.9223
G01 X32.1121 Y268.9514
G01 X32.2223 Y268.9722
G01 X32.3337 Y268.9848
G01 X32.4458 Y268.9890
G01 X32.5579 Y268.9848
G01 X32.6694 Y268.9722
G01 X32.7796 Y268.9514
G01 X32.8880 Y268.9223
G01 X32.9938 Y268.8853
G01 X33.0966 Y268.8404
G01 X33.1958 Y268.7880
G01 X33.2908 Y268.7283
G01 X33.3810 Y268.6617
G01 X33.4661 Y268.5885
G01 X33.5454 Y268.5092
G01 X33.6186 Y268.4242
G01 X33.6852 Y268.3340
G01 X33.7448 Y268.2390
G01 X33.7973 Y268.1398
G01 X33.8421 Y268.0370
G01 X33.8792 Y267.9311
G01 X33.9082 Y267.8228
G01 X33.9290 Y267.7125
G01 X33.9416 Y267.6011
G01 X33.9458 Y267.4890
G01 X33.9419 Y267.3909
G01 X33.9304 Y267.2934
G01 X33.9113 Y267.1972
G01 X33.8846 Y267.1027
G01 X33.8507 Y267.0106
G01 X33.8096 Y266.9215
G01 X33.7616 Y266.8359
G01 X33.7071 Y266.7543
G01 X33.6463 Y266.6772
G01 X33.5797 Y266.6051
G01 X33.5076 Y266.5385
G01 X33.4305 Y266.4777
G01 X33.3489 Y266.4232
G01 X33.2633 Y266.3752
G01 X33.1742 Y266.3342
G01 X33.0821 Y266.3002
G01 X32.9876 Y266.2735
G01 X32.8914 Y266.2544
G01 X32.7939 Y266.2429
G01 X32.6958 Y266.2390
G01 X32.5977 Y266.2429
G01 X32.5003 Y266.2544
G01 X32.4040 Y266.2735
G01 X32.3095 Y266.3002
G01 X32.2175 Y266.3342
G01 X32.1283 Y266.3752
G01 X32.0427 Y266.4232
G01 X31.9611 Y266.4777
G01 X31.8840 Y266.5385
G01 X31.8119 Y266.6051
G01 X31.7453 Y266.6772
G01 X31.6846 Y266.7543
G01 X31.6300 Y266.8359
G01 X31.5821 Y266.9215
G01 X31.5410 Y267.0106
G01 X31.5070 Y267.1027
G01 X31.4804 Y267.1972
G01 X31.4612 Y267.2934
G01 X31.4497 Y267.3909
G01 X31.4458 Y267.4890
G01 X31.4496 Y267.5761
G01 X31.4610 Y267.6626
G01 X31.4799 Y267.7478
G01 X31.5061 Y267.8310
G01 X31.5395 Y267.9116
G01 X31.5798 Y267.9890
G01 X31.6267 Y268.0626
G01 X31.6798 Y268.1318
G01 X31.7387 Y268.1961
G01 X31.8030 Y268.2550
G01 X31.8723 Y268.3081
G01 X31.9458 Y268.3550
G01 X32.0232 Y268.3953
G01 X32.1038 Y268.4287
G01 X32.1870 Y268.4549
G01 X32.2722 Y268.4738
G01 X32.3587 Y268.4852
G01 X32.4458 Y268.4890
G01 X32.5330 Y268.4852
G01 X32.6195 Y268.4738
G01 X32.7046 Y268.4549
G01 X32.7878 Y268.4287
G01 X32.8684 Y268.3953
G01 X32.9458 Y268.3550
G01 X33.0194 Y268.3081
G01 X33.0886 Y268.2550
G01 X33.1529 Y268.1961
G01 X33.2119 Y268.1318
G01 X33.2650 Y268.0626
G01 X33.3119 Y267.9890
G01 X33.3521 Y267.9116
G01 X33.3855 Y267.8310
G01 X33.4118 Y267.7478
G01 X33.4306 Y267.6626
G01 X33.4420 Y267.5761
G01 X33.4458 Y267.4890
M107
M106 S240
G01 X33.4420 Y267.4018 Z-1.6545 F400
G01 X33.4306 Y267.3153 Z-1.6840
G01 X33.4118 Y267.2302 Z-1.7135
G01 X33.3855 Y267.1470 Z-1.7431
G01 X33.3521 Y267.0664 Z-1.7726
G01 X33.3119 Y266.9890 Z-1.8021
G01 X33.2650 Y266.9154 Z-1.8316
G01 X33.2119 Y266.8462 Z-1.8611
G01 X33.1529 Y266.7819 Z-1.8906
G01 X33.0886 Y266.7229 Z-1.9201
G01 X33.0194 Y266.6698 Z-1.9497
G01 X32.9458 Y266.6230 Z-1.9792
G01 X32.8684 Y266.5827 Z-2.0087
G01 X32.7878 Y266.5493 Z-2.0382
G01 X32.7046 Y266.5231 Z-2.0677
G01 X32.6195 Y266.5042 Z-2.0972
G01 X32.5330 Y266.4928 Z-2.1267
G01 X32.4458 Y266.4890 Z-2.1563
G01 X32.3587 Y266.4928 Z-2.1858
G01 X32.2722 Y266.5042 Z-2.2153
G01 X32.1870 Y266.5231 Z-2.2448
G01 X32.1038 Y266.5493 Z-2.2743
G01 X32.0232 Y266.5827 Z-2.3038
G01 X31.9458 Y266.6230 Z-2.3333
G01 X31.9052 Y266.6477 Z-2.3494
G01 X31.8658 Y266.6744 Z-2.3655
G01 X31.8277 Y266.7029 Z-2.3816
G01 X31.7910 Y266.7332 Z-2.3977
G01 X31.7557 Y266.7653 Z-2.4138
G01 X31.7221 Y266.7989 Z-2.4299
G01 X31.6901 Y266.8341 Z-2.4460
G01 X31.6598 Y266.8708 Z-2.4621
G01 X31.6313 Y266.9089 Z-2.4782
G01 X31.6046 Y266.9483 Z-2.4943
G01 X31.5798 Y266.9890 Z-2.5104
G01 X31.5570 Y267.0308 Z-2.5265
G01 X31.5362 Y267.0736 Z-2.5426
G01 X31.5175 Y267.1173 Z-2.5587
G01 X31.5008 Y267.1619 Z-2.5748
G01 X31.4863 Y267.2073 Z-2.5909
G01 X31.4740 Y267.2532 Z-2.6070
G01 X31.4639 Y267.2997 Z-2.6231
G01 X31.4560 Y267.3467 Z-2.6392
G01 X31.4504 Y267.3939 Z-2.6553
G01 X31.4470 Y267.4414 Z-2.6714
G01 X31.4458 Y267.4890 Z-2.6875
G01 X31.4470 Y267.5366 Z-2.7036
G01 X31.4504 Y267.5840 Z-2.7197
G01 X31.4560 Y267.6313 Z-2.7358
G01 X31.4639 Y267.6782 Z-2.7519
G01 X31.4740 Y267.7247 Z-2.7680
G01 X31.4863 Y267.7707 Z-2.7841
G01 X31.5008 Y267.8161 Z-2.8002
G01 X31.5175 Y267.8606 Z-2.8163
G01 X31.5362 Y267.9044 Z-2.8324
G01 X31.5570 Y267.9472 Z-2.8485
G01 X31.5798 Y267.9890 Z-2.8646
G01 X31.6046 Y268.0296 Z-2.8807
G01 X31.6313 Y268.0690 Z-2.8968
G01 X31.6598 Y268.1071 Z-2.9129
G01 X31.6901 Y268.1438 Z-2.9290
G01 X31.7221 Y268.1791 Z-2.9451
G01 X31.7557 Y268.2127 Z-2.9612
G01 X31.7910 Y268.2447 Z-2.9773
G01 X31.8277 Y268.2750 Z-2.9934
G01 X31.8658 Y268.3036 Z-3.0095
G01 X31.9052 Y268.3302 Z-3.0256
G01 X31.9458 Y268.3550 Z-3.0417
G01 X31.9876 Y268.3778 Z-3.0578
G01 X32.0304 Y268.3986 Z-3.0739
G01 X32.0742 Y268.4174 Z-3.0900
G01 X32.1188 Y268.4340 Z-3.1061
G01 X32.1641 Y268.4485 Z-3.1222
G01 X32.2101 Y268.4608 Z-3.1383
G01 X32.2566 Y268.4709 Z-3.1544
G01 X32.3035 Y268.4788 Z-3.1705
G01 X32.3508 Y268.4845 Z-3.1866
G01 X32.3982 Y268.4879 Z-3.2027
G01 X32.4458 Y268.4890 Z-3.2188
G01 X32.4934 Y268.4879 Z-3.2348
G01 X32.5409 Y268.4845 Z-3.2509
G01 X32.5881 Y268.4788 Z-3.2670
G01 X32.6351 Y268.4709 Z-3.2831
G01 X32.6816 Y268.4608 Z-3.2992
G01 X32.7276 Y268.4485 Z-3.3153
G01 X32.7729 Y268.4340 Z-3.3314
G01 X32.8175 Y268.4174 Z-3.3475
G01 X32.8612 Y268.3986 Z-3.3636
G01 X32.9041 Y268.3778 Z-3.3797
G01 X32.9458 Y268.3550 Z-3.3958
G01 X32.9865 Y268.3302 Z-3.4119
G01 X33.0259 Y268.3036 Z-3.4280
G01 X33.0640 Y268.2750 Z-3.4441
G01 X33.1007 Y268.2447 Z-3.4602
G01 X33.1359 Y268.2127 Z-3.4763
G01 X33.1696 Y268.1791 Z-3.4924
G01 X33.2016 Y268.1438 Z-3.5085
G01 X33.2319 Y268.1071 Z-3.5246
G01 X33.2604 Y268.0690 Z-3.5407
G01 X33.2871 Y268.0296 Z-3.5568
G01 X33.3119 Y267.9890 Z-3.5729
G01 X33.3347 Y267.9472 Z-3.5890
G01 X33.3555 Y267.9044 Z-3.6051
G01 X33.3742 Y267.8606 Z-3.6212
G01 X33.3908 Y267.8161 Z-3.6373
G01 X33.4053 Y267.7707 Z-3.6534
G01 X33.4176 Y267.7247 Z-3.6695
G01 X33.4278 Y267.6782 Z-3.6856
G01 X33.4356 Y267.6313 Z-3.7017
G01 X33.4413 Y267.5840 Z-3.7178
G01 X33.4447 Y267.5366 Z-3.7339
G01 X33.4458 Y267.4890 Z-3.7500
G01 X33.4420 Y267.4018
G01 X33.4306 Y267.3153
G01 X33.4118 Y267.2302
G01 X33.3855 Y267.1470
G01 X33.3521 Y267.0664
G01 X33.3119 Y266.9890
G01 X33.2650 Y266.9154
G01 X33.2119 Y266.8462
G01 X33.1529 Y266.7819
G01 X33.0886 Y266.7229
G01 X33.0194 Y266.6698
G01 X32.9458 Y266.6230
G01 X32.8684 Y266.5827
G01 X32.7878 Y266.5493
G01 X32.7046 Y266.5231
G01 X32.6195 Y266.5042
G01 X32.5330 Y266.4928
G01 X32.4458 Y266.4890
G01 X32.3587 Y266.4928
G01 X32.2722 Y266.5042
G01 X32.1870 Y266.5231
G01 X32.1038 Y266.5493
G01 X32.0232 Y266.5827
G01 X31.9458 Y266.6230
G01 X31.9052 Y266.6477
G01 X31.8658 Y266.6744
G01 X31.8277 Y266.7029
G01 X31.7910 Y266.7332
G01 X31.7557 Y266.7653
G01 X31.7221 Y266.7989
G01 X31.6901 Y266.8341
G01 X31.6598 Y266.8708
G01 X31.6313 Y266.9089
G01 X31.6046 Y266.9483
G01 X31.5798 Y266.9890
G01 X31.5570 Y267.0308
G01 X31.5362 Y267.0736
G01 X31.5175 Y267.1173
G01 X31.5008 Y267.1619
G01 X31.4863 Y267.2073
G01 X31.4740 Y267.2532
G01 X31.4639 Y267.2997
G01 X31.4560 Y267.3467
G01 X31.4504 Y267.3939
G01 X31.4470 Y267.4414
G01 X31.4458 Y267.4890
G01 X31.4470 Y267.5366
G01 X31.4504 Y267.5840
G01 X31.4560 Y267.6313
G01 X31.4639 Y267.6782
G01 X31.4740 Y267.7247
G01 X31.4863 Y267.7707
G01 X31.5008 Y267.8161
G01 X31.5175 Y267.8606
G01 X31.5362 Y267.9044
G01 X31.5570 Y267.9472
G01 X31.5798 Y267.9890
G01 X31.6046 Y268.0296
G01 X31.6313 Y268.0690
G01 X31.6598 Y268.1071
G01 X31.6901 Y268.1438
G01 X31.7221 Y268.1791
G01 X31.7557 Y268.2127
G01 X31.7910 Y268.2447
G01 X31.8277 Y268.2750
G01 X31.8658 Y268.3036
G01 X31.9052 Y268.3302
G01 X31.9458 Y268.3550
G01 X31.9876 Y268.3778
G01 X32.0304 Y268.3986
G01 X32.0742 Y268.4174
G01 X32.1188 Y268.4340
G01 X32.1641 Y268.4485
G01 X32.2101 Y268.4608
G01 X32.2566 Y268.4709
G01 X32.3035 Y268.4788
G01 X32.3508 Y268.4845
G01 X32.3982 Y268.4879
G01 X32.4458 Y268.4890
G01 X32.4934 Y268.4879
G01 X32.5409 Y268.4845
G01 X32.5881 Y268.4788
G01 X32.6351 Y268.4709
G01 X32.6816 Y268.4608
G01 X32.7276 Y268.4485
G01 X32.7729 Y268.4340
G01 X32.8175 Y268.4174
G01 X32.8612 Y268.3986
G01 X32.9041 Y268.3778
G01 X32.9458 Y268.3550
G01 X32.9865 Y268.3302
G01 X33.0259 Y268.3036
G01 X33.0640 Y268.2750
G01 X33.1007 Y268.2447
G01 X33.1359 Y268.2127
G01 X33.1696 Y268.1791
G01 X33.2016 Y268.1438
G01 X33.2319 Y268.1071
G01 X33.2604 Y268.0690
G01 X33.2871 Y268.0296
G01 X33.3119 Y267.9890
G01 X33.3347 Y267.9472
G01 X33.3555 Y267.9044
G01 X33.3742 Y267.8606
G01 X33.3908 Y267.8161
G01 X33.4053 Y267.7707
G01 X33.4176 Y267.7247
G01 X33.4278 Y267.6782
G01 X33.4356 Y267.6313
G01 X33.4413 Y267.5840
G01 X33.4447 Y267.5366
G01 X33.4458 Y267.4890
G01 X33.4566 Y267.4374 F1000
G01 X33.4646 Y267.3853
G01 X33.4700 Y267.3329
G01 X33.4727 Y267.2802
G01 Y267.2275
G01 X33.4699 Y267.1749
G01 X33.4645 Y267.1225
G01 X33.4563 Y267.0704
G01 X33.4446 Y267.0144
G01 X33.4300 Y266.9591
G01 X33.4127 Y266.9046
G01 X33.3925 Y266.8511
G01 X33.3697 Y266.7987
G01 X33.3442 Y266.7475
G01 X33.3161 Y266.6976
G01 X33.2855 Y266.6493
G01 X33.2499 Y266.5989
G01 X33.2118 Y266.5504
G01 X33.1712 Y266.5039
G01 X33.1284 Y266.4595
G01 X33.0833 Y266.4173
G01 X33.0362 Y266.3775
G01 X32.9871 Y266.3401
G01 X32.9361 Y266.3053
G01 X32.8796 Y266.2707
G01 X32.8215 Y266.2390
G01 X32.7618 Y266.2103
G01 X32.7007 Y266.1847
G01 X32.6384 Y266.1622
G01 X32.5751 Y266.1429
G01 X32.5108 Y266.1268
G01 X32.4458 Y266.1140
G01 X32.3758 Y266.1038
G01 X32.3053 Y266.0972
G01 X32.2346 Y266.0941
G01 X32.1639 Y266.0946
G01 X32.0932 Y266.0986
G01 X32.0229 Y266.1062
G01 X31.9530 Y266.1174
G01 X31.8838 Y266.1320
G01 X31.8156 Y266.1580
G01 X31.7488 Y266.1873
G01 X31.6835 Y266.2198
G01 X31.6198 Y266.2556
G01 X31.5581 Y266.2944
G01 X31.4983 Y266.3362
G01 X31.4406 Y266.3809
G01 X31.3852 Y266.4283
G01 X31.3344 Y266.4817
G01 X31.2863 Y266.5374
G01 X31.2410 Y266.5955
G01 X31.1986 Y266.6556
G01 X31.1593 Y266.7178
G01 X31.1230 Y266.7819
G01 X31.0899 Y266.8477
G01 X31.0600 Y266.9150
G01 X31.0335 Y266.9837
G01 X31.0104 Y267.0536
G01 X30.9908 Y267.1245
G01 X30.9747 Y267.1964
G01 X30.9621 Y267.2689
G01 X30.9531 Y267.3420
G01 X30.9477 Y267.4154
G01 X30.9459 Y267.4890
G01 X30.9477 Y267.5626
G01 X30.9531 Y267.6360
G01 X30.9621 Y267.7091
G01 X30.9747 Y267.7816
G01 X30.9908 Y267.8535
G01 X31.0104 Y267.9244
G01 X31.0335 Y267.9943
G01 X31.0600 Y268.0630
G01 X31.0899 Y268.1303
G01 X31.1230 Y268.1961
G01 X31.1593 Y268.2601
G01 X31.1986 Y268.3223
G01 X31.2410 Y268.3825
G01 X31.2863 Y268.4406
G01 X31.3344 Y268.4963
G01 X31.3852 Y268.5496
G01 X31.4385 Y268.6004
G01 X31.4943 Y268.6485
G01 X31.5523 Y268.6938
G01 X31.6125 Y268.7362
G01 X31.6747 Y268.7756
G01 X31.7387 Y268.8118
G01 X31.8045 Y268.8449
G01 X31.8718 Y268.8748
G01 X31.9405 Y268.9013
G01 X32.0104 Y268.9244
G01 X32.0814 Y268.9440
G01 X32.1532 Y268.9601
G01 X32.2257 Y268.9727
G01 X32.2988 Y268.9817
G01 X32.3722 Y268.9872
G01 X32.4458 Y268.9890
G01 X32.5194 Y268.9872
G01 X32.5929 Y268.9817
G01 X32.6659 Y268.9727
G01 X32.7385 Y268.9601
G01 X32.8103 Y268.9440
G01 X32.8812 Y268.9244
G01 X32.9512 Y268.9013
G01 X33.0198 Y268.8748
G01 X33.0871 Y268.8449
G01 X33.1529 Y268.8118
G01 X33.2170 Y268.7756
G01 X33.2792 Y268.7362
G01 X33.3394 Y268.6938
G01 X33.3974 Y268.6485
G01 X33.4531 Y268.6004
G01 X33.5065 Y268.5496
G01 X33.5572 Y268.4963
G01 X33.6053 Y268.4406
G01 X33.6506 Y268.3825
G01 X33.6930 Y268.3223
G01 X33.7324 Y268.2601
G01 X33.7687 Y268.1961
G01 X33.8018 Y268.1303
G01 X33.8316 Y268.0630
G01 X33.8581 Y267.9943
G01 X33.8812 Y267.9244
G01 X33.9008 Y267.8535
G01 X33.9170 Y267.7816
G01 X33.9296 Y267.7091
G01 X33.9386 Y267.6360
G01 X33.9440 Y267.5626
G01 X33.9458 Y267.4890
G01 X33.9416 Y267.3769
G01 X33.9290 Y267.2654
G01 X33.9082 Y267.1552
G01 X33.8792 Y267.0469
G01 X33.8421 Y266.9410
G01 X33.7973 Y266.8382
G01 X33.7448 Y266.7390
G01 X33.6852 Y266.6440
G01 X33.6186 Y266.5538
G01 X33.5454 Y266.4687
G01 X33.4661 Y266.3894
G01 X33.3810 Y266.3163
G01 X33.2908 Y266.2497
G01 X33.1958 Y266.1900
G01 X33.0966 Y266.1376
G01 X32.9938 Y266.0927
G01 X32.8880 Y266.0557
G01 X32.7796 Y266.0266
G01 X32.6694 Y266.0058
G01 X32.5579 Y265.9932
G01 X32.4458 Y265.9890
G01 X32.3337 Y265.9932
G01 X32.2223 Y266.0058
G01 X32.1121 Y266.0266
G01 X32.0037 Y266.0557
G01 X31.8978 Y266.0927
G01 X31.7950 Y266.1376
G01 X31.6958 Y266.1900
G01 X31.6009 Y266.2497
G01 X31.5106 Y266.3163
G01 X31.4256 Y266.3894
G01 X31.3463 Y266.4687
G01 X31.2731 Y266.5538
G01 X31.2065 Y266.6440
G01 X31.1468 Y266.7390
G01 X31.0944 Y266.8382
G01 X31.0495 Y266.9410
G01 X31.0125 Y267.0469
G01 X30.9835 Y267.1552
G01 X30.9626 Y267.2654
G01 X30.9500 Y267.3769
G01 X30.9459 Y267.4890
G01 X30.9500 Y267.6011
G01 X30.9626 Y267.7125
G01 X30.9835 Y267.8228
G01 X31.0125 Y267.9311
G01 X31.0495 Y268.0370
G01 X31.0944 Y268.1398
G01 X31.1468 Y268.2390
G01 X31.2065 Y268.3340
G01 X31.2731 Y268.4242
G01 X31.3463 Y268.5092
G01 X31.4256 Y268.5885
G01 X31.5106 Y268.6617
G01 X31.6009 Y268.7283
G01 X31.6958 Y268.7880
G01 X31.7950 Y268.8404
G01 X31.8978 Y268.8853
G01 X32.0037 Y268.9223
G01 X32.1121 Y268.9514
G01 X32.2223 Y268.9722
G01 X32.3337 Y268.9848
G01 X32.4458 Y268.9890
G01 X32.5579 Y268.9848
G01 X32.6694 Y268.9722
G01 X32.7796 Y268.9514
G01 X32.8880 Y268.9223
G01 X32.9938 Y268.8853
G01 X33.0966 Y268.8404
G01 X33.1958 Y268.7880
G01 X33.2908 Y268.7283
G01 X33.3810 Y268.6617
G01 X33.4661 Y268.5885
G01 X33.5454 Y268.5092
G01 X33.6186 Y268.4242
G01 X33.6852 Y268.3340
G01 X33.7448 Y268.2390
G01 X33.7973 Y268.1398
G01 X33.8421 Y268.0370
G01 X33.8792 Y267.9311
G01 X33.9082 Y267.8228
G01 X33.9290 Y267.7125
G01 X33.9416 Y267.6011
G01 X33.9458 Y267.4890
G01 X33.9419 Y267.3909
G01 X33.9304 Y267.2934
G01 X33.9113 Y267.1972
G01 X33.8846 Y267.1027
G01 X33.8507 Y267.0106
G01 X33.8096 Y266.9215
G01 X33.7616 Y266.8359
G01 X33.7071 Y266.7543
G01 X33.6463 Y266.6772
G01 X33.5797 Y266.6051
G01 X33.5076 Y266.5385
G01 X33.4305 Y266.4777
G01 X33.3489 Y266.4232
G01 X33.2633 Y266.3752
G01 X33.1742 Y266.3342
G01 X33.0821 Y266.3002
G01 X32.9876 Y266.2735
G01 X32.8914 Y266.2544
G01 X32.7939 Y266.2429
G01 X32.6958 Y266.2390
G01 X32.5977 Y266.2429
G01 X32.5003 Y266.2544
G01 X32.4040 Y266.2735
G01 X32.3095 Y266.3002
G01 X32.2175 Y266.3342
G01 X32.1283 Y266.3752
G01 X32.0427 Y266.4232
G01 X31.9611 Y266.4777
G01 X31.8840 Y266.5385
G01 X31.8119 Y266.6051
G01 X31.7453 Y266.6772
G01 X31.6846 Y266.7543
G01 X31.6300 Y266.8359
G01 X31.5821 Y266.9215
G01 X31.5410 Y267.0106
G01 X31.5070 Y267.1027
G01 X31.4804 Y267.1972
G01 X31.4612 Y267.2934
G01 X31.4497 Y267.3909
G01 X31.4458 Y267.4890
G01 X31.4496 Y267.5761
G01 X31.4610 Y267.6626
G01 X31.4799 Y267.7478
G01 X31.5061 Y267.8310
G01 X31.5395 Y267.9116
G01 X31.5798 Y267.9890
G01 X31.6267 Y268.0626
G01 X31.6798 Y268.1318
G01 X31.7387 Y268.1961
G01 X31.8030 Y268.2550
G01 X31.8723 Y268.3081
G01 X31.9458 Y268.3550
G01 X32.0232 Y268.3953
G01 X32.1038 Y268.4287
G01 X32.1870 Y268.4549
G01 X32.2722 Y268.4738
G01 X32.3587 Y268.4852
G01 X32.4458 Y268.4890
G01 X32.5330 Y268.4852
G01 X32.6195 Y268.4738
G01 X32.7046 Y268.4549
G01 X32.7878 Y268.4287
G01 X32.8684 Y268.3953
G01 X32.9458 Y268.3550
G01 X33.0194 Y268.3081
G01 X33.0886 Y268.2550
G01 X33.1529 Y268.1961
G01 X33.2119 Y268.1318
G01 X33.2650 Y268.0626
G01 X33.3119 Y267.9890
G01 X33.3521 Y267.9116
G01 X33.3855 Y267.8310
G01 X33.4118 Y267.7478
G01 X33.4306 Y267.6626
G01 X33.4420 Y267.5761
G01 X33.4458 Y267.4890
M107
M106 S240
G01 X33.4420 Y267.4018 Z-3.7795 F400
G01 X33.4306 Y267.3153 Z-3.8090
G01 X33.4118 Y267.2302 Z-3.8385
G01 X33.3855 Y267.1470 Z-3.8681
G01 X33.3521 Y267.0664 Z-3.8976
G01 X33.3119 Y266.9890 Z-3.9271
G01 X33.2650 Y266.9154 Z-3.9566
G01 X33.2119 Y266.8462 Z-3.9861
G01 X33.1529 Y266.7819 Z-4.0156
G01 X33.0886 Y266.7229 Z-4.0451
G01 X33.0194 Y266.6698 Z-4.0747
G01 X32.9458 Y266.6230 Z-4.1042
G01 X32.8684 Y266.5827 Z-4.1337
G01 X32.7878 Y266.5493 Z-4.1632
G01 X32.7046 Y266.5231 Z-4.1927
G01 X32.6195 Y266.5042 Z-4.2222
G01 X32.5330 Y266.4928 Z-4.2517
G01 X32.4458 Y266.4890 Z-4.2813
G01 X32.3587 Y266.4928 Z-4.3108
G01 X32.2722 Y266.5042 Z-4.3403
G01 X32.1870 Y266.5231 Z-4.3698
G01 X32.1038 Y266.5493 Z-4.3993
G01 X32.0232 Y266.5827 Z-4.4288
G01 X31.9458 Y266.6230 Z-4.4583
G01 X31.9052 Y266.6477 Z-4.4744
G01 X31.8658 Y266.6744 Z-4.4905
G01 X31.8277 Y266.7029 Z-4.5066
G01 X31.7910 Y266.7332 Z-4.5227
G01 X31.7557 Y266.7653 Z-4.5388
G01 X31.7221 Y266.7989 Z-4.5549
G01 X31.6901 Y266.8341 Z-4.5710
G01 X31.6598 Y266.8708 Z-4.5871
G01 X31.6313 Y266.9089 Z-4.6032
G01 X31.6046 Y266.9483 Z-4.6193
G01 X31.5798 Y266.9890 Z-4.6354
G01 X31.5570 Y267.0308 Z-4.6515
G01 X31.5362 Y267.0736 Z-4.6676
G01 X31.5175 Y267.1173 Z-4.6837
G01 X31.5008 Y267.1619 Z-4.6998
G01 X31.4863 Y267.2073 Z-4.7159
G01 X31.4740 Y267.2532 Z-4.7320
G01 X31.4639 Y267.2997 Z-4.7481
G01 X31.4560 Y267.3467 Z-4.7642
G01 X31.4504 Y267.3939 Z-4.7803
G01 X31.4470 Y267.4414 Z-4.7964
G01 X31.4458 Y267.4890 Z-4.8125
G01 X31.4470 Y267.5366 Z-4.8286
G01 X31.4504 Y267.5840 Z-4.8447
G01 X31.4560 Y267.6313 Z-4.8608
G01 X31.4639 Y267.6782 Z-4.8769
G01 X31.4740 Y267.7247 Z-4.8930
G01 X31.4863 Y267.7707 Z-4.9091
G01 X31.5008 Y267.8161 Z-4.9252
G01 X31.5175 Y267.8606 Z-4.9413
G01 X31.5362 Y267.9044 Z-4.9574
G01 X31.5570 Y267.9472 Z-4.9735
G01 X31.5798 Y267.9890 Z-4.9896
G01 X31.6046 Y268.0296 Z-5.0057
G01 X31.6313 Y268.0690 Z-5.0218
G01 X31.6598 Y268.1071 Z-5.0379
G01 X31.6901 Y268.1438 Z-5.0540
G01 X31.7221 Y268.1791 Z-5.0701
G01 X31.7557 Y268.2127 Z-5.0862
G01 X31.7910 Y268.2447 Z-5.1023
G01 X31.8277 Y268.2750 Z-5.1184
G01 X31.8658 Y268.3036 Z-5.1345
G01 X31.9052 Y268.3302 Z-5.1506
G01 X31.9458 Y268.3550 Z-5.1667
G01 X31.9876 Y268.3778 Z-5.1828
G01 X32.0304 Y268.3986 Z-5.1989
G01 X32.0742 Y268.4174 Z-5.2150
G01 X32.1188 Y268.4340 Z-5.2311
G01 X32.1641 Y268.4485 Z-5.2472
G01 X32.2101 Y268.4608 Z-5.2633
G01 X32.2566 Y268.4709 Z-5.2794
G01 X32.3035 Y268.4788 Z-5.2955
G01 X32.3508 Y268.4845 Z-5.3116
G01 X32.3982 Y268.4879 Z-5.3277
G01 X32.4458 Y268.4890 Z-5.3438
G01 X32.4934 Y268.4879 Z-5.3598
G01 X32.5409 Y268.4845 Z-5.3759
G01 X32.5881 Y268.4788 Z-5.3920
G01 X32.6351 Y268.4709 Z-5.4081
G01 X32.6816 Y268.4608 Z-5.4242
G01 X32.7276 Y268.4485 Z-5.4403
G01 X32.7729 Y268.4340 Z-5.4564
G01 X32.8175 Y268.4174 Z-5.4725
G01 X32.8612 Y268.3986 Z-5.4886
G01 X32.9041 Y268.3778 Z-5.5047
G01 X32.9458 Y268.3550 Z-5.5208
G01 X32.9865 Y268.3302 Z-5.5369
G01 X33.0259 Y268.3036 Z-5.5530
G01 X33.0640 Y268.2750 Z-5.5691
G01 X33.1007 Y268.2447 Z-5.5852
G01 X33.1359 Y268.2127 Z-5.6013
G01 X33.1696 Y268.1791 Z-5.6174
G01 X33.2016 Y268.1438 Z-5.6335
G01 X33.2319 Y268.1071 Z-5.6496
G01 X33.2604 Y268.0690 Z-5.6657
G01 X33.2871 Y268.0296 Z-5.6818
G01 X33.3119 Y267.9890 Z-5.6979
G01 X33.3347 Y267.9472 Z-5.7140
G01 X33.3555 Y267.9044 Z-5.7301
G01 X33.3742 Y267.8606 Z-5.7462
G01 X33.3908 Y267.8161 Z-5.7623
G01 X33.4053 Y267.7707 Z-5.7784
G01 X33.4176 Y267.7247 Z-5.7945
G01 X33.4278 Y267.6782 Z-5.8106
G01 X33.4356 Y267.6313 Z-5.8267
G01 X33.4413 Y267.5840 Z-5.8428
G01 X33.4447 Y267.5366 Z-5.8589
G01 X33.4458 Y267.4890 Z-5.8750
G01 X33.4420 Y267.4018
G01 X33.4306 Y267.3153
G01 X33.4118 Y267.2302
G01 X33.3855 Y267.1470
G01 X33.3521 Y267.0664
G01 X33.3119 Y266.9890
G01 X33.2650 Y266.9154
G01 X33.2119 Y266.8462
G01 X33.1529 Y266.7819
G01 X33.0886 Y266.7229
G01 X33.0194 Y266.6698
G01 X32.9458 Y266.6230
G01 X32.8684 Y266.5827
G01 X32.7878 Y266.5493
G01 X32.7046 Y266.5231
G01 X32.6195 Y266.5042
G01 X32.5330 Y266.4928
G01 X32.4458 Y266.4890
G01 X32.3587 Y266.4928
G01 X32.2722 Y266.5042
G01 X32.1870 Y266.5231
G01 X32.1038 Y266.5493
G01 X32.0232 Y266.5827
G01 X31.9458 Y266.6230
G01 X31.9052 Y266.6477
G01 X31.8658 Y266.6744
G01 X31.8277 Y266.7029
G01 X31.7910 Y266.7332
G01 X31.7557 Y266.7653
G01 X31.7221 Y266.7989
G01 X31.6901 Y266.8341
G01 X31.6598 Y266.8708
G01 X31.6313 Y266.9089
G01 X31.6046 Y266.9483
G01 X31.5798 Y266.9890
G01 X31.5570 Y267.0308
G01 X31.5362 Y267.0736
G01 X31.5175 Y267.1173
G01 X31.5008 Y267.1619
G01 X31.4863 Y267.2073
G01 X31.4740 Y267.2532
G01 X31.4639 Y267.2997
G01 X31.4560 Y267.3467
G01 X31.4504 Y267.3939
G01 X31.4470 Y267.4414
G01 X31.4458 Y267.4890
G01 X31.4470 Y267.5366
G01 X31.4504 Y267.5840
G01 X31.4560 Y267.6313
G01 X31.4639 Y267.6782
G01 X31.4740 Y267.7247
G01 X31.4863 Y267.7707
G01 X31.5008 Y267.8161
G01 X31.5175 Y267.8606
G01 X31.5362 Y267.9044
G01 X31.5570 Y267.9472
G01 X31.5798 Y267.9890
G01 X31.6046 Y268.0296
G01 X31.6313 Y268.0690
G01 X31.6598 Y268.1071
G01 X31.6901 Y268.1438
G01 X31.7221 Y268.1791
G01 X31.7557 Y268.2127
G01 X31.7910 Y268.2447
G01 X31.8277 Y268.2750
G01 X31.8658 Y268.3036
G01 X31.9052 Y268.3302
G01 X31.9458 Y268.3550
G01 X31.9876 Y268.3778
G01 X32.0304 Y268.3986
G01 X32.0742 Y268.4174
G01 X32.1188 Y268.4340
G01 X32.1641 Y268.4485
G01 X32.2101 Y268.4608
G01 X32.2566 Y268.4709
G01 X32.3035 Y268.4788
G01 X32.3508 Y268.4845
G01 X32.3982 Y268.4879
G01 X32.4458 Y268.4890
G01 X32.4934 Y268.4879
G01 X32.5409 Y268.4845
G01 X32.5881 Y268.4788
G01 X32.6351 Y268.4709
G01 X32.6816 Y268.4608
G01 X32.7276 Y268.4485
G01 X32.7729 Y268.4340
G01 X32.8175 Y268.4174
G01 X32.8612 Y268.3986
G01 X32.9041 Y268.3778
G01 X32.9458 Y268.3550
G01 X32.9865 Y268.3302
G01 X33.0259 Y268.3036
G01 X33.0640 Y268.2750
G01 X33.1007 Y268.2447
G01 X33.1359 Y268.2127
G01 X33.1696 Y268.1791
G01 X33.2016 Y268.1438
G01 X33.2319 Y268.1071
G01 X33.2604 Y268.0690
G01 X33.2871 Y268.0296
G01 X33.3119 Y267.9890
G01 X33.3347 Y267.9472
G01 X33.3555 Y267.9044
G01 X33.3742 Y267.8606
G01 X33.3908 Y267.8161
G01 X33.4053 Y267.7707
G01 X33.4176 Y267.7247
G01 X33.4278 Y267.6782
G01 X33.4356 Y267.6313
G01 X33.4413 Y267.5840
G01 X33.4447 Y267.5366
G01 X33.4458 Y267.4890
G01 X33.4566 Y267.4374 F1000
G01 X33.4646 Y267.3853
G01 X33.4700 Y267.3329
G01 X33.4727 Y267.2802
G01 Y267.2275
G01 X33.4699 Y267.1749
G01 X33.4645 Y267.1225
G01 X33.4563 Y267.0704
G01 X33.4446 Y267.0144
G01 X33.4300 Y266.9591
G01 X33.4127 Y266.9046
G01 X33.3925 Y266.8511
G01 X33.3697 Y266.7987
G01 X33.3442 Y266.7475
G01 X33.3161 Y266.6976
G01 X33.2855 Y266.6493
G01 X33.2499 Y266.5989
G01 X33.2118 Y266.5504
G01 X33.1712 Y266.5039
G01 X33.1284 Y266.4595
G01 X33.0833 Y266.4173
G01 X33.0362 Y266.3775
G01 X32.9871 Y266.3401
G01 X32.9361 Y266.3053
G01 X32.8796 Y266.2707
G01 X32.8215 Y266.2390
G01 X32.7618 Y266.2103
G01 X32.7007 Y266.1847
G01 X32.6384 Y266.1622
G01 X32.5751 Y266.1429
G01 X32.5108 Y266.1268
G01 X32.4458 Y266.1140
G01 X32.3758 Y266.1038
G01 X32.3053 Y266.0972
G01 X32.2346 Y266.0941
G01 X32.1639 Y266.0946
G01 X32.0932 Y266.0986
G01 X32.0229 Y266.1062
G01 X31.9530 Y266.1174
G01 X31.8838 Y266.1320
G01 X31.8156 Y266.1580
G01 X31.7488 Y266.1873
G01 X31.6835 Y266.2198
G01 X31.6198 Y266.2556
G01 X31.5581 Y266.2944
G01 X31.4983 Y266.3362
G01 X31.4406 Y266.3809
G01 X31.3852 Y266.4283
G01 X31.3344 Y266.4817
G01 X31.2863 Y266.5374
G01 X31.2410 Y266.5955
G01 X31.1986 Y266.6556
G01 X31.1593 Y266.7178
G01 X31.1230 Y266.7819
G01 X31.0899 Y266.8477
G01 X31.0600 Y266.9150
G01 X31.0335 Y266.9837
G01 X31.0104 Y267.0536
G01 X30.9908 Y267.1245
G01 X30.9747 Y267.1964
G01 X30.9621 Y267.2689
G01 X30.9531 Y267.3420
G01 X30.9477 Y267.4154
G01 X30.9459 Y267.4890
G01 X30.9477 Y267.5626
G01 X30.9531 Y267.6360
G01 X30.9621 Y267.7091
G01 X30.9747 Y267.7816
G01 X30.9908 Y267.8535
G01 X31.0104 Y267.9244
G01 X31.0335 Y267.9943
G01 X31.0600 Y268.0630
G01 X31.0899 Y268.1303
G01 X31.1230 Y268.1961
G01 X31.1593 Y268.2601
G01 X31.1986 Y268.3223
G01 X31.2410 Y268.3825
G01 X31.2863 Y268.4406
G01 X31.3344 Y268.4963
G01 X31.3852 Y268.5496
G01 X31.4385 Y268.6004
G01 X31.4943 Y268.6485
G01 X31.5523 Y268.6938
G01 X31.6125 Y268.7362
G01 X31.6747 Y268.7756
G01 X31.7387 Y268.8118
G01 X31.8045 Y268.8449
G01 X31.8718 Y268.8748
G01 X31.9405 Y268.9013
G01 X32.0104 Y268.9244
G01 X32.0814 Y268.9440
G01 X32.1532 Y268.9601
G01 X32.2257 Y268.9727
G01 X32.2988 Y268.9817
G01 X32.3722 Y268.9872
G01 X32.4458 Y268.9890
G01 X32.5194 Y268.9872
G01 X32.5929 Y268.9817
G01 X32.6659 Y268.9727
G01 X32.7385 Y268.9601
G01 X32.8103 Y268.9440
G01 X32.8812 Y268.9244
G01 X32.9512 Y268.9013
G01 X33.0198 Y268.8748
G01 X33.0871 Y268.8449
G01 X33.1529 Y268.8118
G01 X33.2170 Y268.7756
G01 X33.2792 Y268.7362
G01 X33.3394 Y268.6938
G01 X33.3974 Y268.6485
G01 X33.4531 Y268.6004
G01 X33.5065 Y268.5496
G01 X33.5572 Y268.4963
G01 X33.6053 Y268.4406
G01 X33.6506 Y268.3825
G01 X33.6930 Y268.3223
G01 X33.7324 Y268.2601
G01 X33.7687 Y268.1961
G01 X33.8018 Y268.1303
G01 X33.8316 Y268.0630
G01 X33.8581 Y267.9943
G01 X33.8812 Y267.9244
G01 X33.9008 Y267.8535
G01 X33.9170 Y267.7816
G01 X33.9296 Y267.7091
G01 X33.9386 Y267.6360
G01 X33.9440 Y267.5626
G01 X33.9458 Y267.4890
G01 X33.9416 Y267.3769
G01 X33.9290 Y267.2654
G01 X33.9082 Y267.1552
G01 X33.8792 Y267.0469
G01 X33.8421 Y266.9410
G01 X33.7973 Y266.8382
G01 X33.7448 Y266.7390
G01 X33.6852 Y266.6440
G01 X33.6186 Y266.5538
G01 X33.5454 Y266.4687
G01 X33.4661 Y266.3894
G01 X33.3810 Y266.3163
G01 X33.2908 Y266.2497
G01 X33.1958 Y266.1900
G01 X33.0966 Y266.1376
G01 X32.9938 Y266.0927
G01 X32.8880 Y266.0557
G01 X32.7796 Y266.0266
G01 X32.6694 Y266.0058
G01 X32.5579 Y265.9932
G01 X32.4458 Y265.9890
G01 X32.3337 Y265.9932
G01 X32.2223 Y266.0058
G01 X32.1121 Y266.0266
G01 X32.0037 Y266.0557
G01 X31.8978 Y266.0927
G01 X31.7950 Y266.1376
G01 X31.6958 Y266.1900
G01 X31.6009 Y266.2497
G01 X31.5106 Y266.3163
G01 X31.4256 Y266.3894
G01 X31.3463 Y266.4687
G01 X31.2731 Y266.5538
G01 X31.2065 Y266.6440
G01 X31.1468 Y266.7390
G01 X31.0944 Y266.8382
G01 X31.0495 Y266.9410
G01 X31.0125 Y267.0469
G01 X30.9835 Y267.1552
G01 X30.9626 Y267.2654
G01 X30.9500 Y267.3769
G01 X30.9459 Y267.4890
G01 X30.9500 Y267.6011
G01 X30.9626 Y267.7125
G01 X30.9835 Y267.8228
G01 X31.0125 Y267.9311
G01 X31.0495 Y268.0370
G01 X31.0944 Y268.1398
G01 X31.1468 Y268.2390
G01 X31.2065 Y268.3340
G01 X31.2731 Y268.4242
G01 X31.3463 Y268.5092
G01 X31.4256 Y268.5885
G01 X31.5106 Y268.6617
G01 X31.6009 Y268.7283
G01 X31.6958 Y268.7880
G01 X31.7950 Y268.8404
G01 X31.8978 Y268.8853
G01 X32.0037 Y268.9223
G01 X32.1121 Y268.9514
G01 X32.2223 Y268.9722
G01 X32.3337 Y268.9848
G01 X32.4458 Y268.9890
G01 X32.5579 Y268.9848
G01 X32.6694 Y268.9722
G01 X32.7796 Y268.9514
G01 X32.8880 Y268.9223
G01 X32.9938 Y268.8853
G01 X33.0966 Y268.8404
G01 X33.1958 Y268.7880
G01 X33.2908 Y268.7283
G01 X33.3810 Y268.6617
G01 X33.4661 Y268.5885
G01 X33.5454 Y268.5092
G01 X33.6186 Y268.4242
G01 X33.6852 Y268.3340
G01 X33.7448 Y268.2390
G01 X33.7973 Y268.1398
G01 X33.8421 Y268.0370
G01 X33.8792 Y267.9311
G01 X33.9082 Y267.8228
G01 X33.9290 Y267.7125
G01 X33.9416 Y267.6011
G01 X33.9458 Y267.4890
G01 X33.9419 Y267.3909
G01 X33.9304 Y267.2934
G01 X33.9113 Y267.1972
G01 X33.8846 Y267.1027
G01 X33.8507 Y267.0106
G01 X33.8096 Y266.9215
G01 X33.7616 Y266.8359
G01 X33.7071 Y266.7543
G01 X33.6463 Y266.6772
G01 X33.5797 Y266.6051
G01 X33.5076 Y266.5385
G01 X33.4305 Y266.4777
G01 X33.3489 Y266.4232
G01 X33.2633 Y266.3752
G01 X33.1742 Y266.3342
G01 X33.0821 Y266.3002
G01 X32.9876 Y266.2735
G01 X32.8914 Y266.2544
G01 X32.7939 Y266.2429
G01 X32.6958 Y266.2390
G01 X32.5977 Y266.2429
G01 X32.5003 Y266.2544
G01 X32.4040 Y266.2735
G01 X32.3095 Y266.3002
G01 X32.2175 Y266.3342
G01 X32.1283 Y266.3752
G01 X32.0427 Y266.4232
G01 X31.9611 Y266.4777
G01 X31.8840 Y266.5385
G01 X31.8119 Y266.6051
G01 X31.7453 Y266.6772
G01 X31.6846 Y266.7543
G01 X31.6300 Y266.8359
G01 X31.5821 Y266.9215
G01 X31.5410 Y267.0106
G01 X31.5070 Y267.1027
G01 X31.4804 Y267.1972
G01 X31.4612 Y267.2934
G01 X31.4497 Y267.3909
G01 X31.4458 Y267.4890
G01 X31.4496 Y267.5761
G01 X31.4610 Y267.6626
G01 X31.4799 Y267.7478
G01 X31.5061 Y267.8310
G01 X31.5395 Y267.9116
G01 X31.5798 Y267.9890
G01 X31.6267 Y268.0626
G01 X31.6798 Y268.1318
G01 X31.7387 Y268.1961
G01 X31.8030 Y268.2550
G01 X31.8723 Y268.3081
G01 X31.9458 Y268.3550
G01 X32.0232 Y268.3953
G01 X32.1038 Y268.4287
G01 X32.1870 Y268.4549
G01 X32.2722 Y268.4738
G01 X32.3587 Y268.4852
G01 X32.4458 Y268.4890
G01 X32.5330 Y268.4852
G01 X32.6195 Y268.4738
G01 X32.7046 Y268.4549
G01 X32.7878 Y268.4287
G01 X32.8684 Y268.3953
G01 X32.9458 Y268.3550
G01 X33.0194 Y268.3081
G01 X33.0886 Y268.2550
G01 X33.1529 Y268.1961
G01 X33.2119 Y268.1318
G01 X33.2650 Y268.0626
G01 X33.3119 Y267.9890
G01 X33.3521 Y267.9116
G01 X33.3855 Y267.8310
G01 X33.4118 Y267.7478
G01 X33.4306 Y267.6626
G01 X33.4420 Y267.5761
G01 X33.4458 Y267.4890
M107
M106 S240
G01 X33.4420 Y267.4018 Z-5.9045 F400
G01 X33.4306 Y267.3153 Z-5.9340
G01 X33.4118 Y267.2302 Z-5.9635
G01 X33.3855 Y267.1470 Z-5.9931
G01 X33.3521 Y267.0664 Z-6.0226
G01 X33.3119 Y266.9890 Z-6.0521
G01 X33.2650 Y266.9154 Z-6.0816
G01 X33.2119 Y266.8462 Z-6.1111
G01 X33.1529 Y266.7819 Z-6.1406
G01 X33.0886 Y266.7229 Z-6.1701
G01 X33.0194 Y266.6698 Z-6.1997
G01 X32.9458 Y266.6230 Z-6.2292
G01 X32.8684 Y266.5827 Z-6.2587
G01 X32.7878 Y266.5493 Z-6.2882
G01 X32.7046 Y266.5231 Z-6.3177
G01 X32.6195 Y266.5042 Z-6.3472
G01 X32.5330 Y266.4928 Z-6.3767
G01 X32.4458 Y266.4890 Z-6.4063
G01 X32.3587 Y266.4928 Z-6.4358
G01 X32.2722 Y266.5042 Z-6.4653
G01 X32.1870 Y266.5231 Z-6.4948
G01 X32.1038 Y266.5493 Z-6.5243
G01 X32.0232 Y266.5827 Z-6.5538
G01 X31.9458 Y266.6230 Z-6.5833
G01 X31.9052 Y266.6477 Z-6.5994
G01 X31.8658 Y266.6744 Z-6.6155
G01 X31.8277 Y266.7029 Z-6.6316
G01 X31.7910 Y266.7332 Z-6.6477
G01 X31.7557 Y266.7653 Z-6.6638
G01 X31.7221 Y266.7989 Z-6.6799
G01 X31.6901 Y266.8341 Z-6.6960
G01 X31.6598 Y266.8708 Z-6.7121
G01 X31.6313 Y266.9089 Z-6.7282
G01 X31.6046 Y266.9483 Z-6.7443
G01 X31.5798 Y266.9890 Z-6.7604
G01 X31.5570 Y267.0308 Z-6.7765
G01 X31.5362 Y267.0736 Z-6.7926
G01 X31.5175 Y267.1173 Z-6.8087
G01 X31.5008 Y267.1619 Z-6.8248
G01 X31.4863 Y267.2073 Z-6.8409
G01 X31.4740 Y267.2532 Z-6.8570
G01 X31.4639 Y267.2997 Z-6.8731
G01 X31.4560 Y267.3467 Z-6.8892
G01 X31.4504 Y267.3939 Z-6.9053
G01 X31.4470 Y267.4414 Z-6.9214
G01 X31.4458 Y267.4890 Z-6.9375
G01 X31.4470 Y267.5366 Z-6.9536
G01 X31.4504 Y267.5840 Z-6.9697
G01 X31.4560 Y267.6313 Z-6.9858
G01 X31.4639 Y267.6782 Z-7.0019
G01 X31.4740 Y267.7247 Z-7.0180
G01 X31.4863 Y267.7707 Z-7.0341
G01 X31.5008 Y267.8161 Z-7.0502
G01 X31.5175 Y267.8606 Z-7.0663
G01 X31.5362 Y267.9044 Z-7.0824
G01 X31.5570 Y267.9472 Z-7.0985
G01 X31.5798 Y267.9890 Z-7.1146
G01 X31.6046 Y268.0296 Z-7.1307
G01 X31.6313 Y268.0690 Z-7.1468
G01 X31.6598 Y268.1071 Z-7.1629
G01 X31.6901 Y268.1438 Z-7.1790
G01 X31.7221 Y268.1791 Z-7.1951
G01 X31.7557 Y268.2127 Z-7.2112
G01 X31.7910 Y268.2447 Z-7.2273
G01 X31.8277 Y268.2750 Z-7.2434
G01 X31.8658 Y268.3036 Z-7.2595
G01 X31.9052 Y268.3302 Z-7.2756
G01 X31.9458 Y268.3550 Z-7.2917
G01 X31.9876 Y268.3778 Z-7.3078
G01 X32.0304 Y268.3986 Z-7.3239
G01 X32.0742 Y268.4174 Z-7.3400
G01 X32.1188 Y268.4340 Z-7.3561
G01 X32.1641 Y268.4485 Z-7.3722
G01 X32.2101 Y268.4608 Z-7.3883
G01 X32.2566 Y268.4709 Z-7.4044
G01 X32.3035 Y268.4788 Z-7.4205
G01 X32.3508 Y268.4845 Z-7.4366
G01 X32.3982 Y268.4879 Z-7.4527
G01 X32.4458 Y268.4890 Z-7.4688
G01 X32.4934 Y268.4879 Z-7.4848
G01 X32.5409 Y268.4845 Z-7.5009
G01 X32.5881 Y268.4788 Z-7.5170
G01 X32.6351 Y268.4709 Z-7.5331
G01 X32.6816 Y268.4608 Z-7.5492
G01 X32.7276 Y268.4485 Z-7.5653
G01 X32.7729 Y268.4340 Z-7.5814
G01 X32.8175 Y268.4174 Z-7.5975
G01 X32.8612 Y268.3986 Z-7.6136
G01 X32.9041 Y268.3778 Z-7.6297
G01 X32.9458 Y268.3550 Z-7.6458
G01 X32.9865 Y268.3302 Z-7.6619
G01 X33.0259 Y268.3036 Z-7.6780
G01 X33.0640 Y268.2750 Z-7.6941
G01 X33.1007 Y268.2447 Z-7.7102
G01 X33.1359 Y268.2127 Z-7.7263
G01 X33.1696 Y268.1791 Z-7.7424
G01 X33.2016 Y268.1438 Z-7.7585
G01 X33.2319 Y268.1071 Z-7.7746
G01 X33.2604 Y268.0690 Z-7.7907
G01 X33.2871 Y268.0296 Z-7.8068
G01 X33.3119 Y267.9890 Z-7.8229
G01 X33.3347 Y267.9472 Z-7.8390
G01 X33.3555 Y267.9044 Z-7.8551
G01 X33.3742 Y267.8606 Z-7.8712
G01 X33.3908 Y267.8161 Z-7.8873
G01 X33.4053 Y267.7707 Z-7.9034
G01 X33.4176 Y267.7247 Z-7.9195
G01 X33.4278 Y267.6782 Z-7.9356
G01 X33.4356 Y267.6313 Z-7.9517
G01 X33.4413 Y267.5840 Z-7.9678
G01 X33.4447 Y267.5366 Z-7.9839
G01 X33.4458 Y267.4890 Z-8.0000
G01 X33.4420 Y267.4018
G01 X33.4306 Y267.3153
G01 X33.4118 Y267.2302
G01 X33.3855 Y267.1470
G01 X33.3521 Y267.0664
G01 X33.3119 Y266.9890
G01 X33.2650 Y266.9154
G01 X33.2119 Y266.8462
G01 X33.1529 Y266.7819
G01 X33.0886 Y266.7229
G01 X33.0194 Y266.6698
G01 X32.9458 Y266.6230
G01 X32.8684 Y266.5827
G01 X32.7878 Y266.5493
G01 X32.7046 Y266.5231
G01 X32.6195 Y266.5042
G01 X32.5330 Y266.4928
G01 X32.4458 Y266.4890
G01 X32.3587 Y266.4928
G01 X32.2722 Y266.5042
G01 X32.1870 Y266.5231
G01 X32.1038 Y266.5493
G01 X32.0232 Y266.5827
G01 X31.9458 Y266.6230
G01 X31.9052 Y266.6477
G01 X31.8658 Y266.6744
G01 X31.8277 Y266.7029
G01 X31.7910 Y266.7332
G01 X31.7557 Y266.7653
G01 X31.7221 Y266.7989
G01 X31.6901 Y266.8341
G01 X31.6598 Y266.8708
G01 X31.6313 Y266.9089
G01 X31.6046 Y266.9483
G01 X31.5798 Y266.9890
G01 X31.5570 Y267.0308
G01 X31.5362 Y267.0736
G01 X31.5175 Y267.1173
G01 X31.5008 Y267.1619
G01 X31.4863 Y267.2073
G01 X31.4740 Y267.2532
G01 X31.4639 Y267.2997
G01 X31.4560 Y267.3467
G01 X31.4504 Y267.3939
G01 X31.4470 Y267.4414
G01 X31.4458 Y267.4890
G01 X31.4470 Y267.5366
G01 X31.4504 Y267.5840
G01 X31.4560 Y267.6313
G01 X31.4639 Y267.6782
G01 X31.4740 Y267.7247
G01 X31.4863 Y267.7707
G01 X31.5008 Y267.8161
G01 X31.5175 Y267.8606
G01 X31.5362 Y267.9044
G01 X31.5570 Y267.9472
G01 X31.5798 Y267.9890
G01 X31.6046 Y268.0296
G01 X31.6313 Y268.0690
G01 X31.6598 Y268.1071
G01 X31.6901 Y268.1438
G01 X31.7221 Y268.1791
G01 X31.7557 Y268.2127
G01 X31.7910 Y268.2447
G01 X31.8277 Y268.2750
G01 X31.8658 Y268.3036
G01 X31.9052 Y268.3302
G01 X31.9458 Y268.3550
G01 X31.9876 Y268.3778
G01 X32.0304 Y268.3986
G01 X32.0742 Y268.4174
G01 X32.1188 Y268.4340
G01 X32.1641 Y268.4485
G01 X32.2101 Y268.4608
G01 X32.2566 Y268.4709
G01 X32.3035 Y268.4788
G01 X32.3508 Y268.4845
G01 X32.3982 Y268.4879
G01 X32.4458 Y268.4890
G01 X32.4934 Y268.4879
G01 X32.5409 Y268.4845
G01 X32.5881 Y268.4788
G01 X32.6351 Y268.4709
G01 X32.6816 Y268.4608
G01 X32.7276 Y268.4485
G01 X32.7729 Y268.4340
G01 X32.8175 Y268.4174
G01 X32.8612 Y268.3986
G01 X32.9041 Y268.3778
G01 X32.9458 Y268.3550
G01 X32.9865 Y268.3302
G01 X33.0259 Y268.3036
G01 X33.0640 Y268.2750
G01 X33.1007 Y268.2447
G01 X33.1359 Y268.2127
G01 X33.1696 Y268.1791
G01 X33.2016 Y268.1438
G01 X33.2319 Y268.1071
G01 X33.2604 Y268.0690
G01 X33.2871 Y268.0296
G01 X33.3119 Y267.9890
G01 X33.3347 Y267.9472
G01 X33.3555 Y267.9044
G01 X33.3742 Y267.8606
G01 X33.3908 Y267.8161
G01 X33.4053 Y267.7707
G01 X33.4176 Y267.7247
G01 X33.4278 Y267.6782
G01 X33.4356 Y267.6313
G01 X33.4413 Y267.5840
G01 X33.4447 Y267.5366
G01 X33.4458 Y267.4890
G01 X33.4566 Y267.4374 F1000
G01 X33.4646 Y267.3853
G01 X33.4700 Y267.3329
G01 X33.4727 Y267.2802
G01 Y267.2275
G01 X33.4699 Y267.1749
G01 X33.4645 Y267.1225
G01 X33.4563 Y267.0704
G01 X33.4446 Y267.0144
G01 X33.4300 Y266.9591
G01 X33.4127 Y266.9046
G01 X33.3925 Y266.8511
G01 X33.3697 Y266.7987
G01 X33.3442 Y266.7475
G01 X33.3161 Y266.6976
G01 X33.2855 Y266.6493
G01 X33.2499 Y266.5989
G01 X33.2118 Y266.5504
G01 X33.1712 Y266.5039
G01 X33.1284 Y266.4595
G01 X33.0833 Y266.4173
G01 X33.0362 Y266.3775
G01 X32.9871 Y266.3401
G01 X32.9361 Y266.3053
G01 X32.8796 Y266.2707
G01 X32.8215 Y266.2390
G01 X32.7618 Y266.2103
G01 X32.7007 Y266.1847
G01 X32.6384 Y266.1622
G01 X32.5751 Y266.1429
G01 X32.5108 Y266.1268
G01 X32.4458 Y266.1140
G01 X32.3758 Y266.1038
G01 X32.3053 Y266.0972
G01 X32.2346 Y266.0941
G01 X32.1639 Y266.0946
G01 X32.0932 Y266.0986
G01 X32.0229 Y266.1062
G01 X31.9530 Y266.1174
G01 X31.8838 Y266.1320
G01 X31.8156 Y266.1580
G01 X31.7488 Y266.1873
G01 X31.6835 Y266.2198
G01 X31.6198 Y266.2556
G01 X31.5581 Y266.2944
G01 X31.4983 Y266.3362
G01 X31.4406 Y266.3809
G01 X31.3852 Y266.4283
G01 X31.3344 Y266.4817
G01 X31.2863 Y266.5374
G01 X31.2410 Y266.5955
G01 X31.1986 Y266.6556
G01 X31.1593 Y266.7178
G01 X31.1230 Y266.7819
G01 X31.0899 Y266.8477
G01 X31.0600 Y266.9150
G01 X31.0335 Y266.9837
G01 X31.0104 Y267.0536
G01 X30.9908 Y267.1245
G01 X30.9747 Y267.1964
G01 X30.9621 Y267.2689
G01 X30.9531 Y267.3420
G01 X30.9477 Y267.4154
G01 X30.9459 Y267.4890
G01 X30.9477 Y267.5626
G01 X30.9531 Y267.6360
G01 X30.9621 Y267.7091
G01 X30.9747 Y267.7816
G01 X30.9908 Y267.8535
G01 X31.0104 Y267.9244
G01 X31.0335 Y267.9943
G01 X31.0600 Y268.0630
G01 X31.0899 Y268.1303
G01 X31.1230 Y268.1961
G01 X31.1593 Y268.2601
G01 X31.1986 Y268.3223
G01 X31.2410 Y268.3825
G01 X31.2863 Y268.4406
G01 X31.3344 Y268.4963
G01 X31.3852 Y268.5496
G01 X31.4385 Y268.6004
G01 X31.4943 Y268.6485
G01 X31.5523 Y268.6938
G01 X31.6125 Y268.7362
G01 X31.6747 Y268.7756
G01 X31.7387 Y268.8118
G01 X31.8045 Y268.8449
G01 X31.8718 Y268.8748
G01 X31.9405 Y268.9013
G01 X32.0104 Y268.9244
G01 X32.0814 Y268.9440
G01 X32.1532 Y268.9601
G01 X32.2257 Y268.9727
G01 X32.2988 Y268.9817
G01 X32.3722 Y268.9872
G01 X32.4458 Y268.9890
G01 X32.5194 Y268.9872
G01 X32.5929 Y268.9817
G01 X32.6659 Y268.9727
G01 X32.7385 Y268.9601
G01 X32.8103 Y268.9440
G01 X32.8812 Y268.9244
G01 X32.9512 Y268.9013
G01 X33.0198 Y268.8748
G01 X33.0871 Y268.8449
G01 X33.1529 Y268.8118
G01 X33.2170 Y268.7756
G01 X33.2792 Y268.7362
G01 X33.3394 Y268.6938
G01 X33.3974 Y268.6485
G01 X33.4531 Y268.6004
G01 X33.5065 Y268.5496
G01 X33.5572 Y268.4963
G01 X33.6053 Y268.4406
G01 X33.6506 Y268.3825
G01 X33.6930 Y268.3223
G01 X33.7324 Y268.2601
G01 X33.7687 Y268.1961
G01 X33.8018 Y268.1303
G01 X33.8316 Y268.0630
G01 X33.8581 Y267.9943
G01 X33.8812 Y267.9244
G01 X33.9008 Y267.8535
G01 X33.9170 Y267.7816
G01 X33.9296 Y267.7091
G01 X33.9386 Y267.6360
G01 X33.9440 Y267.5626
G01 X33.9458 Y267.4890
G01 X33.9416 Y267.3769
G01 X33.9290 Y267.2654
G01 X33.9082 Y267.1552
G01 X33.8792 Y267.0469
G01 X33.8421 Y266.9410
G01 X33.7973 Y266.8382
G01 X33.7448 Y266.7390
G01 X33.6852 Y266.6440
G01 X33.6186 Y266.5538
G01 X33.5454 Y266.4687
G01 X33.4661 Y266.3894
G01 X33.3810 Y266.3163
G01 X33.2908 Y266.2497
G01 X33.1958 Y266.1900
G01 X33.0966 Y266.1376
G01 X32.9938 Y266.0927
G01 X32.8880 Y266.0557
G01 X32.7796 Y266.0266
G01 X32.6694 Y266.0058
G01 X32.5579 Y265.9932
G01 X32.4458 Y265.9890
G01 X32.3337 Y265.9932
G01 X32.2223 Y266.0058
G01 X32.1121 Y266.0266
G01 X32.0037 Y266.0557
G01 X31.8978 Y266.0927
G01 X31.7950 Y266.1376
G01 X31.6958 Y266.1900
G01 X31.6009 Y266.2497
G01 X31.5106 Y266.3163
G01 X31.4256 Y266.3894
G01 X31.3463 Y266.4687
G01 X31.2731 Y266.5538
G01 X31.2065 Y266.6440
G01 X31.1468 Y266.7390
G01 X31.0944 Y266.8382
G01 X31.0495 Y266.9410
G01 X31.0125 Y267.0469
G01 X30.9835 Y267.1552
G01 X30.9626 Y267.2654
G01 X30.9500 Y267.3769
G01 X30.9459 Y267.4890
G01 X30.9500 Y267.6011
G01 X30.9626 Y267.7125
G01 X30.9835 Y267.8228
G01 X31.0125 Y267.9311
G01 X31.0495 Y268.0370
G01 X31.0944 Y268.1398
G01 X31.1468 Y268.2390
G01 X31.2065 Y268.3340
G01 X31.2731 Y268.4242
G01 X31.3463 Y268.5092
G01 X31.4256 Y268.5885
G01 X31.5106 Y268.6617
G01 X31.6009 Y268.7283
G01 X31.6958 Y268.7880
G01 X31.7950 Y268.8404
G01 X31.8978 Y268.8853
G01 X32.0037 Y268.9223
G01 X32.1121 Y268.9514
G01 X32.2223 Y268.9722
G01 X32.3337 Y268.9848
G01 X32.4458 Y268.9890
G01 X32.5579 Y268.9848
G01 X32.6694 Y268.9722
G01 X32.7796 Y268.9514
G01 X32.8880 Y268.9223
G01 X32.9938 Y268.8853
G01 X33.0966 Y268.8404
G01 X33.1958 Y268.7880
G01 X33.2908 Y268.7283
G01 X33.3810 Y268.6617
G01 X33.4661 Y268.5885
G01 X33.5454 Y268.5092
G01 X33.6186 Y268.4242
G01 X33.6852 Y268.3340
G01 X33.7448 Y268.2390
G01 X33.7973 Y268.1398
G01 X33.8421 Y268.0370
G01 X33.8792 Y267.9311
G01 X33.9082 Y267.8228
G01 X33.9290 Y267.7125
G01 X33.9416 Y267.6011
G01 X33.9458 Y267.4890
M107
M106 S240
G01 X33.9427 Y267.4105 Z-7.9750 F400
M107
M106 S240
G01 X33.9335 Y267.3326 Z-7.9500
M107
M106 S240
G01 X33.9182 Y267.2555 Z-7.9250
M107
M106 S240
G01 X33.8969 Y267.1800 Z-7.9000
M107
M106 S240
G01 X33.8697 Y267.1063 Z-7.8750
M107
M106 S240
G01 X33.8368 Y267.0350 Z-7.8500
M107
M106 S240
G01 X33.7984 Y266.9665 Z-7.8250
M107
M106 S240
G01 X33.7548 Y266.9012 Z-7.8000
M107
M106 S240
G01 X33.7062 Y266.8395 Z-7.7750
M107
M106 S240
G01 X33.6529 Y266.7819 Z-7.7500
M107
M106 S240
G01 X33.5952 Y266.7286 Z-7.7250
M107
M106 S240
G01 X33.5336 Y266.6800 Z-7.7000
M107
M106 S240
G01 X33.4683 Y266.6363 Z-7.6750
M107
M106 S240
G01 X33.3998 Y266.5980 Z-7.6500
M107
M106 S240
G01 X33.3285 Y266.5651 Z-7.6250
M107
M106 S240
G01 X33.2548 Y266.5379 Z-7.6000
M107
M106 S240
G01 X33.1792 Y266.5166 Z-7.5750
M107
M106 S240
G01 X33.1022 Y266.5013 Z-7.5500
M107
M106 S240
G01 X33.0243 Y266.4921 Z-7.5250
M107
M106 S240
G01 X32.9458 Y266.4890 Z-7.5000
M107
G00 Z2.0000


;No. 2: Hole 4
G00 X59.7661 Y271.1283 Z2.0000
G00 Z0.5000
G01 Z0.0000 F400
G01 Z-2.3000
M106 S240
G01 X62.4750 F1000
G01 X60.9985 Y269.6283
G01 X63.9750
G01 X65.4750 Y268.1283
G01 X61.0273
G01 Y266.6283
G01 X66.9750
G01 X65.7671 Y265.1283
G01 X68.4750
G01 X67.2665 Y263.6283
G01 X73.6098
G01 X72.4021 Y265.1283
G01 X75.1098
G01 X73.9017 Y266.6283
G01 X79.8481
G01 Y265.1283
G01 X78.1406
G01 Y263.6283
G01 X79.8481
G01 Y262.1283
G01 X78.1406
G01 Y260.6283
G01 X79.8481
G01 Y259.1283
G01 X78.1406
G01 Y257.6283
G01 X79.8481
M107
G00 Z2.0000
G00 Y266.6283
G00 Z0.5000
G01 Z-2.3000 F400
M106 S240
G01 Y268.1283 F1000
G01 X75.4014
G01 X76.9010 Y269.6283
G01 X79.8769
G01 Y271.1283
G01 X81.1098
G01 X78.4007
M107
G00 Z2.0000
G00 X72.1098 Y263.6283
G00 Z0.5000
G01 Z-2.3000 F400
M106 S240
G01 Y262.1283 F1000
G01 X68.7658
G01 X69.5840
G01 Y260.6283
G01 X71.2914
G01 Y259.1283
G01 X69.5840
G01 Y257.6283
G01 X71.2914
M107
G00 Z2.0000
G00 X62.7348 Y266.6283
G00 Z0.5000
G01 Z-2.3000 F400
M106 S240
G01 Y265.1283 F1000
G01 X61.0273
G01 Y263.6283
G01 X62.7348
G01 Y262.1283
G01 X61.0273
G01 Y260.6283
G01 X62.7348
G01 Y259.1283
G01 X61.0273
G01 Y257.6283
G01 X62.7348
G01 X62.9348 Y257.6429
G01 Y256.4789
G01 X60.8273
G01 Y269.3695
G01 X60.8252 Y269.4349
G01 X60.8188 Y269.5000
G01 X60.8081 Y269.5645
G01 X60.7933 Y269.6282
G01 X60.7743 Y269.6909
G01 X60.7513 Y269.7521
G01 X60.7243 Y269.8117
G01 X60.6934 Y269.8694
G01 X60.6589 Y269.9249
G01 X60.6208 Y269.9781
G01 X60.5793 Y270.0287
G01 X60.5346 Y270.0764
G01 X58.3345 Y272.2777
G01 X61.6084
G01 X69.7316 Y264.1546
G01 X69.7892 Y264.1013
G01 X69.8509 Y264.0527
G01 X69.9162 Y264.0090
G01 X69.9847 Y263.9707
G01 X70.0560 Y263.9378
G01 X70.1297 Y263.9106
G01 X70.2053 Y263.8893
G01 X70.2823 Y263.8740
G01 X70.3603 Y263.8648
G01 X70.4387 Y263.8617
G01 X70.5172 Y263.8648
G01 X70.5952 Y263.8740
G01 X70.6722 Y263.8893
G01 X70.7478 Y263.9107
G01 X70.8214 Y263.9379
G01 X70.8927 Y263.9707
G01 X70.9613 Y264.0091
G01 X71.0265 Y264.0527
G01 X71.0882 Y264.1014
G01 X71.1459 Y264.1547
G01 X79.2670 Y272.2777
G01 X82.5420
G01 X80.3409 Y270.0766
G01 X80.3137 Y270.0483
G01 X80.2876 Y270.0190
G01 X80.2627 Y269.9886
G01 X80.2390 Y269.9573
G01 X80.2166 Y269.9251
G01 X80.1954 Y269.8920
G01 X80.1756 Y269.8581
G01 X80.1570 Y269.8235
G01 X80.1399 Y269.7882
G01 X80.1242 Y269.7522
G01 X80.1099 Y269.7156
G01 X80.0970 Y269.6785
G01 X80.0856 Y269.6410
G01 X80.0757 Y269.6030
G01 X80.0673 Y269.5646
G01 X80.0604 Y269.5259
G01 X80.0550 Y269.4870
G01 X80.0511 Y269.4480
G01 X80.0488 Y269.4088
G01 X80.0481 Y269.3695
G01 Y256.4789
G01 X77.9406
G01 Y265.2621
G01 X77.9396 Y265.3074
G01 X77.9365 Y265.3526
G01 X77.9314 Y265.3976
G01 X77.9242 Y265.4423
G01 X77.9151 Y265.4867
G01 X77.9039 Y265.5306
G01 X77.8907 Y265.5740
G01 X77.8756 Y265.6167
G01 X77.8586 Y265.6587
G01 X77.8397 Y265.6999
G01 X77.8190 Y265.7401
G01 X77.7964 Y265.7794
G01 X77.7721 Y265.8177
G01 X77.7461 Y265.8548
G01 X77.7184 Y265.8906
G01 X77.6891 Y265.9252
G01 X77.6583 Y265.9584
G01 X77.6260 Y265.9902
G01 X77.5924 Y266.0205
G01 X77.5573 Y266.0493
G01 X77.5210 Y266.0764
G01 X77.4836 Y266.1019
G01 X77.4450 Y266.1256
G01 X77.4053 Y266.1475
G01 X77.3648 Y266.1677
G01 X77.3233 Y266.1860
G01 X77.2811 Y266.2024
G01 X77.2381 Y266.2168
G01 X77.1946 Y266.2293
G01 X77.1505 Y266.2398
G01 X77.1060 Y266.2483
G01 X77.0612 Y266.2548
G01 X77.0161 Y266.2592
G01 X76.9708 Y266.2616
G01 X76.9255 Y266.2620
G01 X76.8802 Y266.2603
G01 X76.8351 Y266.2565
G01 X76.7902 Y266.2507
G01 X76.7455 Y266.2429
G01 X76.7013 Y266.2330
G01 X76.6576 Y266.2212
G01 X76.6144 Y266.2074
G01 X76.5719 Y266.1916
G01 X76.5302 Y266.1740
G01 X76.4893 Y266.1545
G01 X76.4494 Y266.1331
G01 X76.4104 Y266.1100
G01 X76.3726 Y266.0851
G01 X76.3359 Y266.0585
G01 X76.3004 Y266.0303
G01 X76.2663 Y266.0005
G01 X76.2335 Y265.9692
G01 X71.7843 Y261.5200
G01 X71.7396 Y261.4722
G01 X71.6981 Y261.4216
G01 X71.6599 Y261.3684
G01 X71.6254 Y261.3129
G01 X71.5945 Y261.2552
G01 X71.5675 Y261.1956
G01 X71.5445 Y261.1343
G01 X71.5255 Y261.0717
G01 X71.5106 Y261.0080
G01 X71.5000 Y260.9434
G01 X71.4936 Y260.8783
G01 X71.4914 Y260.8129
G01 Y256.4789
G01 X69.3840
G01 Y260.8129
G01 X69.3832 Y260.8521
G01 X69.3809 Y260.8913
G01 X69.3771 Y260.9304
G01 X69.3717 Y260.9693
G01 X69.3648 Y261.0079
G01 X69.3564 Y261.0463
G01 X69.3465 Y261.0842
G01 X69.3351 Y261.1218
G01 X69.3222 Y261.1589
G01 X69.3079 Y261.1955
G01 X69.2922 Y261.2314
G01 X69.2750 Y261.2667
G01 X69.2565 Y261.3014
G01 X69.2367 Y261.3352
G01 X69.2155 Y261.3683
G01 X69.1931 Y261.4005
G01 X69.1694 Y261.4318
G01 X69.1445 Y261.4622
G01 X69.1184 Y261.4915
G01 X69.0912 Y261.5198
G01 X64.6420 Y265.9710
G01 X64.6093 Y266.0023
G01 X64.5751 Y266.0321
G01 X64.5397 Y266.0603
G01 X64.5030 Y266.0869
G01 X64.4651 Y266.1118
G01 X64.4262 Y266.1350
G01 X64.3862 Y266.1563
G01 X64.3454 Y266.1759
G01 X64.3036 Y266.1935
G01 X64.2611 Y266.2093
G01 X64.2180 Y266.2231
G01 X64.1743 Y266.2349
G01 X64.1300 Y266.2448
G01 X64.0854 Y266.2526
G01 X64.0405 Y266.2584
G01 X63.9953 Y266.2622
G01 X63.9500 Y266.2639
G01 X63.9047 Y266.2636
G01 X63.8595 Y266.2612
G01 X63.8144 Y266.2568
G01 X63.7695 Y266.2503
G01 X63.7250 Y266.2418
G01 X63.6809 Y266.2313
G01 X63.6374 Y266.2188
G01 X63.5944 Y266.2043
G01 X63.5522 Y266.1880
G01 X63.5107 Y266.1697
G01 X63.4701 Y266.1495
G01 X63.4305 Y266.1276
G01 X63.3919 Y266.1039
G01 X63.3544 Y266.0784
G01 X63.3181 Y266.0513
G01 X63.2831 Y266.0225
G01 X63.2494 Y265.9922
G01 X63.2171 Y265.9604
G01 X63.1863 Y265.9272
G01 X63.1570 Y265.8926
G01 X63.1294 Y265.8568
G01 X63.1033 Y265.8197
G01 X63.0790 Y265.7814
G01 X63.0565 Y265.7421
G01 X63.0357 Y265.7018
G01 X63.0168 Y265.6607
G01 X62.9998 Y265.6187
G01 X62.9847 Y265.5760
G01 X62.9715 Y265.5326
G01 X62.9603 Y265.4887
G01 X62.9512 Y265.4443
G01 X62.9440 Y265.3996
G01 X62.9389 Y265.3545
G01 X62.9358 Y265.3093
G01 X62.9348 Y265.2640
G01 Y257.6429
G01 X62.7348 Y257.6283
M107
G00 Z2.0000


;No. 3: Hole 6
G00 X89.0416 Y271.2240 Z2.0000
G00 Z0.5000
G01 Z0.0000 F400
G01 Z-2.3000
M106 S240
G01 X106.5794 F1000
G01 X106.7429 Y271.1066
G01 X106.6431 Y270.9983
G01 X106.5376 Y270.8955
G01 X106.4268 Y270.7985
G01 X106.3108 Y270.7077
G01 X106.1902 Y270.6232
G01 X106.0651 Y270.5454
G01 X105.9361 Y270.4743
G01 X105.8034 Y270.4104
G01 X105.6675 Y270.3537
G01 X105.5287 Y270.3043
G01 X105.3875 Y270.2625
G01 X105.2442 Y270.2284
G01 X105.0993 Y270.2021
G01 X104.9532 Y270.1836
G01 X104.8063 Y270.1729
G01 X104.6590 Y270.1702
G01 X90.9840
G01 X90.8300 Y270.1714
G01 X90.6763 Y270.1813
G01 X90.5235 Y270.1999
G01 X90.3719 Y270.2272
G01 X90.2222 Y270.2630
G01 X90.0747 Y270.3072
G01 X89.9299 Y270.3597
G01 X89.7884 Y270.4204
G01 X89.6506 Y270.4890
G01 X89.5168 Y270.5653
G01 X89.3876 Y270.6490
G01 X89.2633 Y270.7400
G01 X89.1445 Y270.8378
G01 X89.0313 Y270.9422
G01 X88.9243 Y271.0529
G01 X88.8237 Y271.1695
G01 X88.7298 Y271.2916
G01 X88.6431 Y271.4188
G01 X88.5637 Y271.5507
G01 X88.4919 Y271.6870
G01 X88.4280 Y271.8270
G01 X88.3721 Y271.9705
G01 X88.3244 Y272.1169
G01 X88.2851 Y272.2658
G01 X88.2902 Y272.2777
G01 X107.3583 Y272.2765
G01 X107.3311 Y272.1685
G01 X107.2993 Y272.0618
G01 X107.2628 Y271.9565
G01 X107.2219 Y271.8529
G01 X107.1765 Y271.7512
G01 X107.1268 Y271.6515
G01 X107.0728 Y271.5541
G01 X107.0147 Y271.4590
G01 X106.9525 Y271.3666
G01 X106.8864 Y271.2769
G01 X106.8165 Y271.1902
G01 X106.7429 Y271.1066
G01 X106.5794 Y271.2240
M107
G00 Z2.0000


;No. 4: Hole 5
G00 X107.2309 Y263.9554 Z2.0000
G00 Z0.5000
G01 Z0.0000 F400
G01 Z-2.3000
M106 S240
G01 X88.4102 F1000
G01 Y262.4554
G01 X90.1256
G01 X90.1176 Y260.9554
G01 X88.4102
G01 Y259.4554
G01 X90.1176
G01 Y257.9554
G01 X88.4102
M107
G00 Z2.0000
G00 X105.5154 Y263.9554
G00 Z0.5000
G01 Z-2.3000 F400
M106 S240
G01 Y262.4554 F1000
G01 X107.2309
G01 Y260.9554
G01 X105.5234
G01 Y259.4554
G01 X107.2309
G01 Y257.9554
G01 X105.5234
G01 X105.3234 Y257.9643
G01 Y262.3246
G01 X105.3204 Y262.4030
G01 X105.3111 Y262.4810
G01 X105.2958 Y262.5580
G01 X105.2745 Y262.6336
G01 X105.2473 Y262.7073
G01 X105.2144 Y262.7786
G01 X105.1761 Y262.8471
G01 X105.1325 Y262.9124
G01 X105.0838 Y262.9740
G01 X105.0305 Y263.0317
G01 X104.9729 Y263.0850
G01 X104.9112 Y263.1336
G01 X104.8459 Y263.1772
G01 X104.7774 Y263.2156
G01 X104.7061 Y263.2485
G01 X104.6325 Y263.2756
G01 X104.5569 Y263.2970
G01 X104.4799 Y263.3123
G01 X104.4019 Y263.3215
G01 X104.3234 Y263.3246
G01 X91.3176
G01 X91.2391 Y263.3215
G01 X91.1611 Y263.3123
G01 X91.0841 Y263.2970
G01 X91.0086 Y263.2756
G01 X90.9349 Y263.2485
G01 X90.8636 Y263.2156
G01 X90.7951 Y263.1772
G01 X90.7298 Y263.1336
G01 X90.6681 Y263.0850
G01 X90.6105 Y263.0317
G01 X90.5572 Y262.9740
G01 X90.5086 Y262.9124
G01 X90.4649 Y262.8471
G01 X90.4266 Y262.7786
G01 X90.3937 Y262.7073
G01 X90.3665 Y262.6336
G01 X90.3452 Y262.5580
G01 X90.3299 Y262.4810
G01 X90.3207 Y262.4030
G01 X90.3176 Y262.3246
G01 Y256.4789
G01 X88.2102
G01 Y265.4320
G01 X107.4309
G01 Y256.4789
G01 X105.3234
G01 Y257.9643
G01 X105.5234 Y257.9554
M107
G00 Z2.0000


;No. 5: Hole 7
G00 X112.3691 Y257.6284 Z2.0000
G00 Z0.5000
G01 Z0.0000 F400
G01 Z-2.3000
M106 S240
G01 X114.1002 F1000
G01 Y259.1284
G01 X115.3170
G01 X112.6094
G01 X114.1096 Y260.6284
G01 X116.8175
G01 X115.6098 Y262.1284
G01 X118.3180
G01 X117.0982 Y263.6284
G01 X119.8186
G01 X119.8167 Y265.1284
G01 X117.0962
G01 X118.3167 Y266.6284
G01 X115.6088
G01 X116.8167 Y268.1284
G01 X114.1082
G01 X115.3167 Y269.6284
G01 X112.6076
G01 X112.3691 Y271.1284
G01 X114.1002
G01 X114.2921 Y271.1899
G01 X114.2995 Y271.1525
G01 X114.3083 Y271.1156
G01 X114.3185 Y271.0789
G01 X114.3301 Y271.0427
G01 X114.3430 Y271.0070
G01 X114.3573 Y270.9717
G01 X114.3730 Y270.9371
G01 X114.3899 Y270.9030
G01 X114.4081 Y270.8696
G01 X114.4276 Y270.8370
G01 X114.4483 Y270.8051
G01 X114.4702 Y270.7740
G01 X114.4933 Y270.7438
G01 X114.5175 Y270.7145
G01 X114.5429 Y270.6861
G01 X114.5692 Y270.6588
G01 X120.2822 Y264.9458
G01 Y263.8091
G01 X114.5694 Y258.0982
G01 X114.5246 Y258.0505
G01 X114.4831 Y257.9999
G01 X114.4449 Y257.9467
G01 X114.4104 Y257.8911
G01 X114.3795 Y257.8334
G01 X114.3525 Y257.7738
G01 X114.3294 Y257.7125
G01 X114.3104 Y257.6499
G01 X114.2956 Y257.5861
G01 X114.2849 Y257.5216
G01 X114.2785 Y257.4564
G01 X114.2763 Y257.3910
G01 Y256.4790
G01 X112.1691
G01 Y258.9710
G01 X116.8686 Y263.6700
G01 X116.8988 Y263.7015
G01 X116.9275 Y263.7343
G01 X116.9549 Y263.7683
G01 X116.9806 Y263.8035
G01 X117.0049 Y263.8397
G01 X117.0275 Y263.8770
G01 X117.0485 Y263.9153
G01 X117.0678 Y263.9544
G01 X117.0854 Y263.9943
G01 X117.1012 Y264.0349
G01 X117.1152 Y264.0762
G01 X117.1274 Y264.1181
G01 X117.1378 Y264.1605
G01 X117.1463 Y264.2033
G01 X117.1530 Y264.2464
G01 X117.1577 Y264.2897
G01 X117.1606 Y264.3332
G01 X117.1616 Y264.3769
G01 X117.1606 Y264.4205
G01 X117.1578 Y264.4640
G01 X117.1530 Y264.5073
G01 X117.1464 Y264.5505
G01 X117.1379 Y264.5932
G01 X117.1276 Y264.6356
G01 X117.1154 Y264.6775
G01 X117.1014 Y264.7188
G01 X117.0856 Y264.7594
G01 X117.0680 Y264.7994
G01 X117.0488 Y264.8385
G01 X117.0278 Y264.8768
G01 X117.0052 Y264.9141
G01 X116.9810 Y264.9503
G01 X116.9552 Y264.9855
G01 X116.9279 Y265.0195
G01 X116.8992 Y265.0524
G01 X116.8690 Y265.0839
G01 X115.3996 Y266.5548
G01 X112.1691 Y269.7839
G01 Y272.2779
G01 X114.2763
G01 X114.2564 Y272.0109
G01 X114.2518 Y271.7433
G01 X114.2626 Y271.4758
G01 X114.2886 Y271.2094
G01 X114.2921 Y271.1899
G01 X114.1002 Y271.1284
M107
G00 Z2.0000


;No. 6: Hole 8
G00 X123.7437 Y265.1284 Z2.0000
G00 Z0.5000
G01 Z0.0000 F400
G01 Z-2.3000
M106 S240
G01 X126.4591 F1000
G01 Y263.6284
G01 X123.7419
G01 X125.2419 Y262.1284
G01 X127.9494
G01 X126.7419 Y260.6284
G01 X129.4495
G01 X128.2419 Y259.1284
G01 X130.9497
G01 X131.1900 Y257.6284
G01 X129.4584
M107
G00 Z2.0000
G00 X125.2432 Y265.1284
G00 Z0.5000
G01 Z-2.3000 F400
M106 S240
G01 Y266.6284 F1000
G01 X127.9286
G01 X126.7427 Y268.1284
G01 X129.4518
G01 X128.2422 Y269.6284
G01 X130.9518
G01 X131.1900 Y271.1284
G01 X129.4584
G01 X129.2558 Y271.1398
G01 X129.2940 Y271.4228
G01 X129.3112 Y271.7079
G01 X129.3073 Y271.9934
G01 X129.2823 Y272.2779
G01 X131.3900
G01 Y269.7838
G01 X128.3528 Y266.7466
G01 X127.8922 Y266.3184
G01 X127.4433 Y265.8780
G01 X127.0066 Y265.4255
G01 X126.5824 Y264.9613
G01 X126.5344 Y264.8876
G01 X126.4931 Y264.8101
G01 X126.4587 Y264.7292
G01 X126.4316 Y264.6456
G01 X126.4120 Y264.5599
G01 X126.3999 Y264.4728
G01 X126.3955 Y264.3850
G01 X126.3989 Y264.2972
G01 X126.4099 Y264.2100
G01 X126.4286 Y264.1241
G01 X126.4547 Y264.0402
G01 X126.4881 Y263.9589
G01 X126.5285 Y263.8809
G01 X126.5756 Y263.8067
G01 X126.6291 Y263.7369
G01 X126.6884 Y263.6721
G01 X131.3900 Y258.9710
G01 Y256.4790
G01 X129.2823
G01 X129.3022 Y256.7459
G01 X129.3068 Y257.0136
G01 X129.2960 Y257.2810
G01 X129.2699 Y257.5474
G01 X129.2546 Y257.6244
G01 X129.2333 Y257.7000
G01 X129.2061 Y257.7737
G01 X129.1733 Y257.8450
G01 X129.1349 Y257.9135
G01 X129.0913 Y257.9788
G01 X129.0427 Y258.0405
G01 X128.9894 Y258.0981
G01 X123.2821 Y263.8054
G01 Y264.9495
G01 X128.9895 Y270.6589
G01 X129.0216 Y270.6924
G01 X129.0521 Y270.7274
G01 X129.0809 Y270.7638
G01 X129.1079 Y270.8015
G01 X129.1332 Y270.8405
G01 X129.1567 Y270.8805
G01 X129.1782 Y270.9217
G01 X129.1978 Y270.9637
G01 X129.2154 Y271.0067
G01 X129.2309 Y271.0504
G01 X129.2444 Y271.0948
G01 X129.2558 Y271.1398
G01 X129.4584 Y271.1284
M107
G00 Z2.0000


;No. 7: Hole 9
G00 X136.3295 Y271.0850 Z2.0000
G00 Z0.5000
G01 Z0.0000 F400
G01 Z-2.3000
M106 S240
G01 X138.0356 F1000
G01 Y269.5850
G01 X136.3316
G01 X136.3336 Y268.0850
G01 X137.6103
G01 X137.7759 Y267.9728
G01 X137.7011 Y267.8689
G01 X137.6217 Y267.7684
G01 X137.5379 Y267.6716
G01 X137.4498 Y267.5787
G01 X137.3576 Y267.4897
G01 X137.2615 Y267.4051
G01 X137.1618 Y267.3248
G01 X137.0585 Y267.2490
G01 X136.9519 Y267.1780
G01 X136.8423 Y267.1118
G01 X136.7298 Y267.0506
G01 X136.6147 Y266.9945
G01 X136.4971 Y266.9436
G01 X136.3775 Y266.8981
G01 X136.2558 Y266.8580
G01 X136.1325 Y266.8233
G01 X136.1281 Y272.2777
G01 X138.2356
G01 X138.2535 Y271.5325
G01 X138.2582 Y270.7870
G01 X138.2497 Y270.0416
G01 X138.2281 Y269.2964
G01 X138.2186 Y269.1788
G01 X138.2039 Y269.0618
G01 X138.1838 Y268.9455
G01 X138.1586 Y268.8302
G01 X138.1281 Y268.7162
G01 X138.0925 Y268.6037
G01 X138.0518 Y268.4930
G01 X138.0062 Y268.3841
G01 X137.9557 Y268.2775
G01 X137.9004 Y268.1733
G01 X137.8404 Y268.0717
G01 X137.7759 Y267.9728
G01 X137.6103 Y268.0850
M107
G00 Z2.0000


;No. 8: Hole 10
G00 X143.1738 Y268.1283 Z2.0000
G00 Z0.5000
G01 Z0.0000 F400
G01 Z-2.3000
M106 S240
G01 X144.8813 F1000
G01 Y266.6283
G01 X143.1738
G01 Y265.1283
G01 X161.9965
G01 Y263.6283
G01 X143.1738
G01 X160.2871
G01 Y262.1283
G01 X161.9965
G01 Y260.6283
G01 X160.2871
G01 X160.1962 Y259.1283
G01 X161.9965
G01 Y257.6283
G01 X143.9207
M107
G00 Z2.0000
G00 X143.1738 Y268.1283
G00 Z0.5000
G01 Z-2.3000 F400
M106 S240
G01 Y269.6283 F1000
G01 X144.9721
G01 X143.1738 Y271.1283
G01 X161.2510
G01 X161.4092 Y271.0039
G01 X161.3109 Y270.9066
G01 X161.2078 Y270.8144
G01 X161.1001 Y270.7276
G01 X160.9881 Y270.6464
G01 X160.8721 Y270.5710
G01 X160.7524 Y270.5017
G01 X160.6293 Y270.4385
G01 X160.5032 Y270.3817
G01 X160.3743 Y270.3314
G01 X160.2430 Y270.2877
G01 X160.1097 Y270.2508
G01 X159.9747 Y270.2207
G01 X159.8383 Y270.1976
G01 X159.7009 Y270.1815
G01 X159.5629 Y270.1724
G01 X159.4246 Y270.1703
G01 X146.0813
G01 X146.0028 Y270.1672
G01 X145.9248 Y270.1580
G01 X145.8478 Y270.1427
G01 X145.7722 Y270.1213
G01 X145.6986 Y270.0942
G01 X145.6273 Y270.0613
G01 X145.5588 Y270.0229
G01 X145.4935 Y269.9793
G01 X145.4318 Y269.9307
G01 X145.3741 Y269.8774
G01 X145.3208 Y269.8197
G01 X145.2722 Y269.7581
G01 X145.2286 Y269.6928
G01 X145.1902 Y269.6243
G01 X145.1574 Y269.5530
G01 X145.1302 Y269.4793
G01 X145.1089 Y269.4037
G01 X145.0936 Y269.3267
G01 X145.0843 Y269.2488
G01 X145.0813 Y269.1703
G01 Y266.4320
G01 X145.0822 Y266.3884
G01 X145.0851 Y266.3449
G01 X145.0898 Y266.3015
G01 X145.0964 Y266.2584
G01 X145.1050 Y266.2156
G01 X145.1153 Y266.1732
G01 X145.1275 Y266.1313
G01 X145.1416 Y266.0900
G01 X145.1574 Y266.0493
G01 X145.1749 Y266.0094
G01 X145.1942 Y265.9703
G01 X145.2152 Y265.9320
G01 X145.2379 Y265.8947
G01 X145.2621 Y265.8584
G01 X145.2879 Y265.8232
G01 X145.3152 Y265.7892
G01 X145.3440 Y265.7564
G01 X145.3741 Y265.7249
G01 X145.4057 Y265.6947
G01 X145.4385 Y265.6660
G01 X145.4725 Y265.6387
G01 X145.5077 Y265.6129
G01 X145.5440 Y265.5886
G01 X145.5813 Y265.5660
G01 X145.6195 Y265.5450
G01 X145.6586 Y265.5257
G01 X145.6986 Y265.5081
G01 X145.7392 Y265.4923
G01 X145.7805 Y265.4783
G01 X145.8224 Y265.4661
G01 X145.8648 Y265.4557
G01 X145.9076 Y265.4472
G01 X145.9507 Y265.4406
G01 X145.9941 Y265.4358
G01 X146.0376 Y265.4330
G01 X146.0813 Y265.4320
G01 X162.1965
G01 Y256.4789
G01 X143.0538
G01 X143.0945 Y256.6269
G01 X143.1434 Y256.7725
G01 X143.2002 Y256.9151
G01 X143.2649 Y257.0544
G01 X143.3372 Y257.1898
G01 X143.4169 Y257.3210
G01 X143.5037 Y257.4476
G01 X143.5975 Y257.5692
G01 X143.6978 Y257.6854
G01 X143.8045 Y257.7959
G01 X143.9171 Y257.9002
G01 X144.0353 Y257.9982
G01 X144.1587 Y258.0895
G01 X144.2871 Y258.1737
G01 X144.4199 Y258.2507
G01 X144.5568 Y258.3202
G01 X144.6973 Y258.3821
G01 X144.8411 Y258.4360
G01 X144.9876 Y258.4819
G01 X145.1364 Y258.5195
G01 X145.2871 Y258.5489
G01 X145.4392 Y258.5699
G01 X145.5923 Y258.5823
G01 X145.7457 Y258.5863
G01 X159.0871
G01 X159.1307 Y258.5873
G01 X159.1743 Y258.5901
G01 X159.2176 Y258.5949
G01 X159.2608 Y258.6015
G01 X159.3035 Y258.6100
G01 X159.3459 Y258.6204
G01 X159.3878 Y258.6326
G01 X159.4291 Y258.6466
G01 X159.4698 Y258.6624
G01 X159.5097 Y258.6800
G01 X159.5489 Y258.6993
G01 X159.5871 Y258.7203
G01 X159.6244 Y258.7429
G01 X159.6607 Y258.7672
G01 X159.6959 Y258.7930
G01 X159.7299 Y258.8203
G01 X159.7627 Y258.8490
G01 X159.7942 Y258.8792
G01 X159.8244 Y258.9107
G01 X159.8532 Y258.9435
G01 X159.8805 Y258.9775
G01 X159.9063 Y259.0127
G01 X159.9305 Y259.0490
G01 X159.9531 Y259.0863
G01 X159.9741 Y259.1246
G01 X159.9934 Y259.1637
G01 X160.0110 Y259.2036
G01 X160.0268 Y259.2443
G01 X160.0408 Y259.2856
G01 X160.0530 Y259.3275
G01 X160.0634 Y259.3699
G01 X160.0719 Y259.4127
G01 X160.0786 Y259.4558
G01 X160.0833 Y259.4992
G01 X160.0862 Y259.5427
G01 X160.0871 Y259.5863
G01 Y262.3246
G01 X160.0862 Y262.3682
G01 X160.0833 Y262.4117
G01 X160.0786 Y262.4551
G01 X160.0719 Y262.4982
G01 X160.0634 Y262.5410
G01 X160.0530 Y262.5834
G01 X160.0408 Y262.6253
G01 X160.0268 Y262.6666
G01 X160.0110 Y262.7073
G01 X159.9934 Y262.7472
G01 X159.9741 Y262.7863
G01 X159.9531 Y262.8246
G01 X159.9305 Y262.8619
G01 X159.9063 Y262.8982
G01 X159.8805 Y262.9334
G01 X159.8532 Y262.9674
G01 X159.8244 Y263.0002
G01 X159.7942 Y263.0317
G01 X159.7627 Y263.0619
G01 X159.7299 Y263.0906
G01 X159.6959 Y263.1179
G01 X159.6607 Y263.1437
G01 X159.6244 Y263.1680
G01 X159.5871 Y263.1906
G01 X159.5489 Y263.2116
G01 X159.5097 Y263.2309
G01 X159.4698 Y263.2485
G01 X159.4291 Y263.2643
G01 X159.3878 Y263.2783
G01 X159.3459 Y263.2905
G01 X159.3035 Y263.3009
G01 X159.2608 Y263.3094
G01 X159.2176 Y263.3160
G01 X159.1743 Y263.3208
G01 X159.1307 Y263.3236
G01 X159.0871 Y263.3246
G01 X142.9738
G01 Y272.2777
G01 X162.1235 Y272.2769
G01 X162.0928 Y272.1575
G01 X162.0564 Y272.0397
G01 X162.0146 Y271.9238
G01 X161.9673 Y271.8099
G01 X161.9148 Y271.6984
G01 X161.8570 Y271.5895
G01 X161.7942 Y271.4835
G01 X161.7264 Y271.3805
G01 X161.6538 Y271.2809
G01 X161.5767 Y271.1847
G01 X161.4951 Y271.0924
G01 X161.4092 Y271.0039
G01 X161.2510 Y271.1283
M107
G00 Z2.0000


;No. 9: Helical drill 2
G00 X188.4458 Y267.4890 Z2.0000
G00 Z0.5000
M106 S240
G01 X188.4420 Y267.4018 Z0.4705 F400
G01 X188.4306 Y267.3153 Z0.4410
G01 X188.4118 Y267.2301 Z0.4115
G01 X188.3855 Y267.1469 Z0.3819
G01 X188.3521 Y267.0663 Z0.3524
G01 X188.3119 Y266.9890 Z0.3229
G01 X188.2650 Y266.9154 Z0.2934
G01 X188.2119 Y266.8462 Z0.2639
G01 X188.1529 Y266.7818 Z0.2344
G01 X188.0886 Y266.7229 Z0.2049
G01 X188.0194 Y266.6698 Z0.1753
G01 X187.9458 Y266.6229 Z0.1458
G01 X187.8685 Y266.5826 Z0.1163
G01 X187.7879 Y266.5493 Z0.0868
G01 X187.7047 Y266.5230 Z0.0573
G01 X187.6195 Y266.5041 Z0.0278
G01 X187.5330 Y266.4928 Z-0.0017
G01 X187.4458 Y266.4890 Z-0.0313
G01 X187.3587 Y266.4928 Z-0.0608
G01 X187.2722 Y266.5041 Z-0.0903
G01 X187.1870 Y266.5230 Z-0.1198
G01 X187.1038 Y266.5493 Z-0.1493
G01 X187.0232 Y266.5826 Z-0.1788
G01 X186.9458 Y266.6229 Z-0.2083
G01 X186.9052 Y266.6477 Z-0.2244
G01 X186.8658 Y266.6744 Z-0.2405
G01 X186.8277 Y266.7029 Z-0.2566
G01 X186.7910 Y266.7332 Z-0.2727
G01 X186.7558 Y266.7652 Z-0.2888
G01 X186.7221 Y266.7989 Z-0.3049
G01 X186.6901 Y266.8341 Z-0.3210
G01 X186.6598 Y266.8708 Z-0.3371
G01 X186.6313 Y266.9089 Z-0.3532
G01 X186.6046 Y266.9483 Z-0.3693
G01 X186.5798 Y266.9890 Z-0.3854
G01 X186.5570 Y267.0307 Z-0.4015
G01 X186.5362 Y267.0735 Z-0.4176
G01 X186.5175 Y267.1173 Z-0.4337
G01 X186.5008 Y267.1619 Z-0.4498
G01 X186.4863 Y267.2072 Z-0.4659
G01 X186.4740 Y267.2532 Z-0.4820
G01 X186.4639 Y267.2997 Z-0.4981
G01 X186.4560 Y267.3466 Z-0.5142
G01 X186.4504 Y267.3939 Z-0.5303
G01 X186.4470 Y267.4414 Z-0.5464
G01 X186.4458 Y267.4890 Z-0.5625
G01 X186.4470 Y267.5365 Z-0.5786
G01 X186.4504 Y267.5840 Z-0.5947
G01 X186.4560 Y267.6313 Z-0.6108
G01 X186.4639 Y267.6782 Z-0.6269
G01 X186.4740 Y267.7247 Z-0.6430
G01 X186.4863 Y267.7707 Z-0.6591
G01 X186.5008 Y267.8160 Z-0.6752
G01 X186.5175 Y267.8606 Z-0.6913
G01 X186.5362 Y267.9044 Z-0.7074
G01 X186.5570 Y267.9472 Z-0.7235
G01 X186.5798 Y267.9890 Z-0.7396
G01 X186.6046 Y268.0296 Z-0.7557
G01 X186.6313 Y268.0690 Z-0.7718
G01 X186.6598 Y268.1071 Z-0.7879
G01 X186.6901 Y268.1438 Z-0.8040
G01 X186.7221 Y268.1790 Z-0.8201
G01 X186.7558 Y268.2127 Z-0.8362
G01 X186.7910 Y268.2447 Z-0.8523
G01 X186.8277 Y268.2750 Z-0.8684
G01 X186.8658 Y268.3035 Z-0.8845
G01 X186.9052 Y268.3302 Z-0.9006
G01 X186.9458 Y268.3550 Z-0.9167
G01 X186.9876 Y268.3778 Z-0.9328
G01 X187.0304 Y268.3986 Z-0.9489
G01 X187.0742 Y268.4173 Z-0.9650
G01 X187.1188 Y268.4340 Z-0.9811
G01 X187.1641 Y268.4484 Z-0.9972
G01 X187.2101 Y268.4608 Z-1.0133
G01 X187.2566 Y268.4709 Z-1.0294
G01 X187.3035 Y268.4788 Z-1.0455
G01 X187.3508 Y268.4844 Z-1.0616
G01 X187.3983 Y268.4878 Z-1.0777
G01 X187.4458 Y268.4890 Z-1.0938
G01 X187.4934 Y268.4878 Z-1.1098
G01 X187.5409 Y268.4844 Z-1.1259
G01 X187.5882 Y268.4788 Z-1.1420
G01 X187.6351 Y268.4709 Z-1.1581
G01 X187.6816 Y268.4608 Z-1.1742
G01 X187.7276 Y268.4484 Z-1.1903
G01 X187.7729 Y268.4340 Z-1.2064
G01 X187.8175 Y268.4173 Z-1.2225
G01 X187.8613 Y268.3986 Z-1.2386
G01 X187.9041 Y268.3778 Z-1.2547
G01 X187.9458 Y268.3550 Z-1.2708
G01 X187.9865 Y268.3302 Z-1.2869
G01 X188.0259 Y268.3035 Z-1.3030
G01 X188.0640 Y268.2750 Z-1.3191
G01 X188.1007 Y268.2447 Z-1.3352
G01 X188.1359 Y268.2127 Z-1.3513
G01 X188.1696 Y268.1790 Z-1.3674
G01 X188.2016 Y268.1438 Z-1.3835
G01 X188.2319 Y268.1071 Z-1.3996
G01 X188.2604 Y268.0690 Z-1.4157
G01 X188.2871 Y268.0296 Z-1.4318
G01 X188.3119 Y267.9890 Z-1.4479
G01 X188.3347 Y267.9472 Z-1.4640
G01 X188.3555 Y267.9044 Z-1.4801
G01 X188.3742 Y267.8606 Z-1.4962
G01 X188.3908 Y267.8160 Z-1.5123
G01 X188.4053 Y267.7707 Z-1.5284
G01 X188.4176 Y267.7247 Z-1.5445
G01 X188.4278 Y267.6782 Z-1.5606
G01 X188.4357 Y267.6313 Z-1.5767
G01 X188.4413 Y267.5840 Z-1.5928
G01 X188.4447 Y267.5365 Z-1.6089
G01 X188.4458 Y267.4890 Z-1.6250
G01 X188.4420 Y267.4018
G01 X188.4306 Y267.3153
G01 X188.4118 Y267.2301
G01 X188.3855 Y267.1469
G01 X188.3521 Y267.0663
G01 X188.3119 Y266.9890
G01 X188.2650 Y266.9154
G01 X188.2119 Y266.8462
G01 X188.1529 Y266.7818
G01 X188.0886 Y266.7229
G01 X188.0194 Y266.6698
G01 X187.9458 Y266.6229
G01 X187.8685 Y266.5826
G01 X187.7879 Y266.5493
G01 X187.7047 Y266.5230
G01 X187.6195 Y266.5041
G01 X187.5330 Y266.4928
G01 X187.4458 Y266.4890
G01 X187.3587 Y266.4928
G01 X187.2722 Y266.5041
G01 X187.1870 Y266.5230
G01 X187.1038 Y266.5493
G01 X187.0232 Y266.5826
G01 X186.9458 Y266.6229
G01 X186.9052 Y266.6477
G01 X186.8658 Y266.6744
G01 X186.8277 Y266.7029
G01 X186.7910 Y266.7332
G01 X186.7558 Y266.7652
G01 X186.7221 Y266.7989
G01 X186.6901 Y266.8341
G01 X186.6598 Y266.8708
G01 X186.6313 Y266.9089
G01 X186.6046 Y266.9483
G01 X186.5798 Y266.9890
G01 X186.5570 Y267.0307
G01 X186.5362 Y267.0735
G01 X186.5175 Y267.1173
G01 X186.5008 Y267.1619
G01 X186.4863 Y267.2072
G01 X186.4740 Y267.2532
G01 X186.4639 Y267.2997
G01 X186.4560 Y267.3466
G01 X186.4504 Y267.3939
G01 X186.4470 Y267.4414
G01 X186.4458 Y267.4890
G01 X186.4470 Y267.5365
G01 X186.4504 Y267.5840
G01 X186.4560 Y267.6313
G01 X186.4639 Y267.6782
G01 X186.4740 Y267.7247
G01 X186.4863 Y267.7707
G01 X186.5008 Y267.8160
G01 X186.5175 Y267.8606
G01 X186.5362 Y267.9044
G01 X186.5570 Y267.9472
G01 X186.5798 Y267.9890
G01 X186.6046 Y268.0296
G01 X186.6313 Y268.0690
G01 X186.6598 Y268.1071
G01 X186.6901 Y268.1438
G01 X186.7221 Y268.1790
G01 X186.7558 Y268.2127
G01 X186.7910 Y268.2447
G01 X186.8277 Y268.2750
G01 X186.8658 Y268.3035
G01 X186.9052 Y268.3302
G01 X186.9458 Y268.3550
G01 X186.9876 Y268.3778
G01 X187.0304 Y268.3986
G01 X187.0742 Y268.4173
G01 X187.1188 Y268.4340
G01 X187.1641 Y268.4484
G01 X187.2101 Y268.4608
G01 X187.2566 Y268.4709
G01 X187.3035 Y268.4788
G01 X187.3508 Y268.4844
G01 X187.3983 Y268.4878
G01 X187.4458 Y268.4890
G01 X187.4934 Y268.4878
G01 X187.5409 Y268.4844
G01 X187.5882 Y268.4788
G01 X187.6351 Y268.4709
G01 X187.6816 Y268.4608
G01 X187.7276 Y268.4484
G01 X187.7729 Y268.4340
G01 X187.8175 Y268.4173
G01 X187.8613 Y268.3986
G01 X187.9041 Y268.3778
G01 X187.9458 Y268.3550
G01 X187.9865 Y268.3302
G01 X188.0259 Y268.3035
G01 X188.0640 Y268.2750
G01 X188.1007 Y268.2447
G01 X188.1359 Y268.2127
G01 X188.1696 Y268.1790
G01 X188.2016 Y268.1438
G01 X188.2319 Y268.1071
G01 X188.2604 Y268.0690
G01 X188.2871 Y268.0296
G01 X188.3119 Y267.9890
G01 X188.3347 Y267.9472
G01 X188.3555 Y267.9044
G01 X188.3742 Y267.8606
G01 X188.3908 Y267.8160
G01 X188.4053 Y267.7707
G01 X188.4176 Y267.7247
G01 X188.4278 Y267.6782
G01 X188.4357 Y267.6313
G01 X188.4413 Y267.5840
G01 X188.4447 Y267.5365
G01 X188.4458 Y267.4890
G01 X188.4566 Y267.4374 F1000
G01 X188.4647 Y267.3853
G01 X188.4700 Y267.3329
G01 X188.4727 Y267.2802
G01 Y267.2275
G01 X188.4699 Y267.1749
G01 X188.4645 Y267.1225
G01 X188.4563 Y267.0704
G01 X188.4446 Y267.0144
G01 X188.4300 Y266.9591
G01 X188.4127 Y266.9046
G01 X188.3925 Y266.8511
G01 X188.3697 Y266.7986
G01 X188.3442 Y266.7474
G01 X188.3161 Y266.6976
G01 X188.2855 Y266.6493
G01 X188.2499 Y266.5989
G01 X188.2118 Y266.5503
G01 X188.1712 Y266.5038
G01 X188.1284 Y266.4594
G01 X188.0833 Y266.4173
G01 X188.0362 Y266.3774
G01 X187.9871 Y266.3401
G01 X187.9361 Y266.3052
G01 X187.8797 Y266.2707
G01 X187.8215 Y266.2390
G01 X187.7618 Y266.2103
G01 X187.7007 Y266.1847
G01 X187.6384 Y266.1622
G01 X187.5751 Y266.1429
G01 X187.5108 Y266.1268
G01 X187.4458 Y266.1140
G01 X187.3758 Y266.1038
G01 X187.3054 Y266.0971
G01 X187.2347 Y266.0941
G01 X187.1639 Y266.0945
G01 X187.0932 Y266.0986
G01 X187.0229 Y266.1062
G01 X186.9530 Y266.1174
G01 X186.8838 Y266.1320
G01 X186.8156 Y266.1580
G01 X186.7488 Y266.1873
G01 X186.6835 Y266.2198
G01 X186.6198 Y266.2555
G01 X186.5581 Y266.2943
G01 X186.4983 Y266.3361
G01 X186.4406 Y266.3808
G01 X186.3852 Y266.4283
G01 X186.3344 Y266.4816
G01 X186.2863 Y266.5374
G01 X186.2410 Y266.5954
G01 X186.1986 Y266.6556
G01 X186.1593 Y266.7178
G01 X186.1230 Y266.7819
G01 X186.0899 Y266.8476
G01 X186.0600 Y266.9149
G01 X186.0335 Y266.9836
G01 X186.0104 Y267.0535
G01 X185.9908 Y267.1245
G01 X185.9747 Y267.1963
G01 X185.9621 Y267.2689
G01 X185.9531 Y267.3419
G01 X185.9477 Y267.4154
G01 X185.9459 Y267.4890
G01 X185.9477 Y267.5626
G01 X185.9531 Y267.6360
G01 X185.9621 Y267.7090
G01 X185.9747 Y267.7816
G01 X185.9908 Y267.8534
G01 X186.0104 Y267.9244
G01 X186.0335 Y267.9943
G01 X186.0600 Y268.0630
G01 X186.0899 Y268.1303
G01 X186.1230 Y268.1960
G01 X186.1593 Y268.2601
G01 X186.1986 Y268.3223
G01 X186.2410 Y268.3825
G01 X186.2863 Y268.4405
G01 X186.3344 Y268.4963
G01 X186.3852 Y268.5496
G01 X186.4385 Y268.6004
G01 X186.4943 Y268.6485
G01 X186.5523 Y268.6938
G01 X186.6125 Y268.7361
G01 X186.6747 Y268.7755
G01 X186.7387 Y268.8118
G01 X186.8045 Y268.8449
G01 X186.8718 Y268.8748
G01 X186.9405 Y268.9013
G01 X187.0104 Y268.9244
G01 X187.0814 Y268.9440
G01 X187.1532 Y268.9601
G01 X187.2257 Y268.9727
G01 X187.2988 Y268.9817
G01 X187.3722 Y268.9871
G01 X187.4458 Y268.9889
G01 X187.5194 Y268.9871
G01 X187.5929 Y268.9817
G01 X187.6659 Y268.9727
G01 X187.7385 Y268.9601
G01 X187.8103 Y268.9440
G01 X187.8813 Y268.9244
G01 X187.9512 Y268.9013
G01 X188.0199 Y268.8748
G01 X188.0872 Y268.8449
G01 X188.1529 Y268.8118
G01 X188.2170 Y268.7755
G01 X188.2792 Y268.7361
G01 X188.3394 Y268.6938
G01 X188.3974 Y268.6485
G01 X188.4532 Y268.6004
G01 X188.5065 Y268.5496
G01 X188.5572 Y268.4963
G01 X188.6053 Y268.4405
G01 X188.6506 Y268.3825
G01 X188.6930 Y268.3223
G01 X188.7324 Y268.2601
G01 X188.7687 Y268.1960
G01 X188.8018 Y268.1303
G01 X188.8316 Y268.0630
G01 X188.8581 Y267.9943
G01 X188.8812 Y267.9244
G01 X188.9009 Y267.8534
G01 X188.9170 Y267.7816
G01 X188.9296 Y267.7090
G01 X188.9386 Y267.6360
G01 X188.9440 Y267.5626
G01 X188.9458 Y267.4890
G01 X188.9416 Y267.3769
G01 X188.9291 Y267.2654
G01 X188.9082 Y267.1552
G01 X188.8792 Y267.0468
G01 X188.8421 Y266.9410
G01 X188.7973 Y266.8381
G01 X188.7449 Y266.7390
G01 X188.6852 Y266.6440
G01 X188.6186 Y266.5537
G01 X188.5454 Y266.4687
G01 X188.4661 Y266.3894
G01 X188.3811 Y266.3162
G01 X188.2908 Y266.2496
G01 X188.1958 Y266.1899
G01 X188.0967 Y266.1375
G01 X187.9938 Y266.0927
G01 X187.8880 Y266.0556
G01 X187.7796 Y266.0266
G01 X187.6694 Y266.0057
G01 X187.5579 Y265.9932
G01 X187.4458 Y265.9890
G01 X187.3337 Y265.9932
G01 X187.2223 Y266.0057
G01 X187.1121 Y266.0266
G01 X187.0037 Y266.0556
G01 X186.8978 Y266.0927
G01 X186.7950 Y266.1375
G01 X186.6958 Y266.1899
G01 X186.6009 Y266.2496
G01 X186.5106 Y266.3162
G01 X186.4256 Y266.3894
G01 X186.3463 Y266.4687
G01 X186.2731 Y266.5537
G01 X186.2065 Y266.6440
G01 X186.1468 Y266.7390
G01 X186.0944 Y266.8381
G01 X186.0495 Y266.9410
G01 X186.0125 Y267.0468
G01 X185.9835 Y267.1552
G01 X185.9626 Y267.2654
G01 X185.9500 Y267.3769
G01 X185.9459 Y267.4890
G01 X185.9500 Y267.6011
G01 X185.9626 Y267.7125
G01 X185.9835 Y267.8227
G01 X186.0125 Y267.9311
G01 X186.0495 Y268.0370
G01 X186.0944 Y268.1398
G01 X186.1468 Y268.2389
G01 X186.2065 Y268.3339
G01 X186.2731 Y268.4242
G01 X186.3463 Y268.5092
G01 X186.4256 Y268.5885
G01 X186.5106 Y268.6617
G01 X186.6009 Y268.7283
G01 X186.6958 Y268.7880
G01 X186.7950 Y268.8404
G01 X186.8978 Y268.8853
G01 X187.0037 Y268.9223
G01 X187.1121 Y268.9513
G01 X187.2223 Y268.9722
G01 X187.3337 Y268.9847
G01 X187.4458 Y268.9889
G01 X187.5579 Y268.9847
G01 X187.6694 Y268.9722
G01 X187.7796 Y268.9513
G01 X187.8880 Y268.9223
G01 X187.9938 Y268.8853
G01 X188.0967 Y268.8404
G01 X188.1958 Y268.7880
G01 X188.2908 Y268.7283
G01 X188.3811 Y268.6617
G01 X188.4661 Y268.5885
G01 X188.5454 Y268.5092
G01 X188.6186 Y268.4242
G01 X188.6852 Y268.3339
G01 X188.7449 Y268.2389
G01 X188.7973 Y268.1398
G01 X188.8421 Y268.0370
G01 X188.8792 Y267.9311
G01 X188.9082 Y267.8227
G01 X188.9291 Y267.7125
G01 X188.9416 Y267.6011
G01 X188.9458 Y267.4890
G01 X188.9420 Y267.3909
G01 X188.9304 Y267.2934
G01 X188.9113 Y267.1972
G01 X188.8846 Y267.1027
G01 X188.8507 Y267.0106
G01 X188.8096 Y266.9215
G01 X188.7616 Y266.8358
G01 X188.7071 Y266.7542
G01 X188.6463 Y266.6772
G01 X188.5797 Y266.6051
G01 X188.5076 Y266.5385
G01 X188.4306 Y266.4777
G01 X188.3489 Y266.4232
G01 X188.2633 Y266.3752
G01 X188.1742 Y266.3341
G01 X188.0821 Y266.3001
G01 X187.9876 Y266.2735
G01 X187.8914 Y266.2544
G01 X187.7939 Y266.2428
G01 X187.6958 Y266.2390
G01 X187.5978 Y266.2428
G01 X187.5003 Y266.2544
G01 X187.4040 Y266.2735
G01 X187.3096 Y266.3001
G01 X187.2175 Y266.3341
G01 X187.1283 Y266.3752
G01 X187.0427 Y266.4232
G01 X186.9611 Y266.4777
G01 X186.8840 Y266.5385
G01 X186.8119 Y266.6051
G01 X186.7453 Y266.6772
G01 X186.6846 Y266.7542
G01 X186.6300 Y266.8358
G01 X186.5821 Y266.9215
G01 X186.5410 Y267.0106
G01 X186.5070 Y267.1027
G01 X186.4804 Y267.1972
G01 X186.4612 Y267.2934
G01 X186.4497 Y267.3909
G01 X186.4458 Y267.4890
G01 X186.4496 Y267.5761
G01 X186.4610 Y267.6626
G01 X186.4799 Y267.7478
G01 X186.5061 Y267.8310
G01 X186.5395 Y267.9116
G01 X186.5798 Y267.9890
G01 X186.6267 Y268.0625
G01 X186.6798 Y268.1317
G01 X186.7387 Y268.1961
G01 X186.8030 Y268.2550
G01 X186.8723 Y268.3081
G01 X186.9458 Y268.3550
G01 X187.0232 Y268.3953
G01 X187.1038 Y268.4286
G01 X187.1870 Y268.4549
G01 X187.2722 Y268.4738
G01 X187.3587 Y268.4852
G01 X187.4458 Y268.4890
G01 X187.5330 Y268.4852
G01 X187.6195 Y268.4738
G01 X187.7047 Y268.4549
G01 X187.7879 Y268.4286
G01 X187.8685 Y268.3953
G01 X187.9458 Y268.3550
G01 X188.0194 Y268.3081
G01 X188.0886 Y268.2550
G01 X188.1529 Y268.1961
G01 X188.2119 Y268.1317
G01 X188.2650 Y268.0625
G01 X188.3119 Y267.9890
G01 X188.3521 Y267.9116
G01 X188.3855 Y267.8310
G01 X188.4118 Y267.7478
G01 X188.4306 Y267.6626
G01 X188.4420 Y267.5761
G01 X188.4458 Y267.4890
M107
M106 S240
G01 X188.4420 Y267.4018 Z-1.6545 F400
G01 X188.4306 Y267.3153 Z-1.6840
G01 X188.4118 Y267.2301 Z-1.7135
G01 X188.3855 Y267.1469 Z-1.7431
G01 X188.3521 Y267.0663 Z-1.7726
G01 X188.3119 Y266.9890 Z-1.8021
G01 X188.2650 Y266.9154 Z-1.8316
G01 X188.2119 Y266.8462 Z-1.8611
G01 X188.1529 Y266.7818 Z-1.8906
G01 X188.0886 Y266.7229 Z-1.9201
G01 X188.0194 Y266.6698 Z-1.9497
G01 X187.9458 Y266.6229 Z-1.9792
G01 X187.8685 Y266.5826 Z-2.0087
G01 X187.7879 Y266.5493 Z-2.0382
G01 X187.7047 Y266.5230 Z-2.0677
G01 X187.6195 Y266.5041 Z-2.0972
G01 X187.5330 Y266.4928 Z-2.1267
G01 X187.4458 Y266.4890 Z-2.1563
G01 X187.3587 Y266.4928 Z-2.1858
G01 X187.2722 Y266.5041 Z-2.2153
G01 X187.1870 Y266.5230 Z-2.2448
G01 X187.1038 Y266.5493 Z-2.2743
G01 X187.0232 Y266.5826 Z-2.3038
G01 X186.9458 Y266.6229 Z-2.3333
G01 X186.9052 Y266.6477 Z-2.3494
G01 X186.8658 Y266.6744 Z-2.3655
G01 X186.8277 Y266.7029 Z-2.3816
G01 X186.7910 Y266.7332 Z-2.3977
G01 X186.7558 Y266.7652 Z-2.4138
G01 X186.7221 Y266.7989 Z-2.4299
G01 X186.6901 Y266.8341 Z-2.4460
G01 X186.6598 Y266.8708 Z-2.4621
G01 X186.6313 Y266.9089 Z-2.4782
G01 X186.6046 Y266.9483 Z-2.4943
G01 X186.5798 Y266.9890 Z-2.5104
G01 X186.5570 Y267.0307 Z-2.5265
G01 X186.5362 Y267.0735 Z-2.5426
G01 X186.5175 Y267.1173 Z-2.5587
G01 X186.5008 Y267.1619 Z-2.5748
G01 X186.4863 Y267.2072 Z-2.5909
G01 X186.4740 Y267.2532 Z-2.6070
G01 X186.4639 Y267.2997 Z-2.6231
G01 X186.4560 Y267.3466 Z-2.6392
G01 X186.4504 Y267.3939 Z-2.6553
G01 X186.4470 Y267.4414 Z-2.6714
G01 X186.4458 Y267.4890 Z-2.6875
G01 X186.4470 Y267.5365 Z-2.7036
G01 X186.4504 Y267.5840 Z-2.7197
G01 X186.4560 Y267.6313 Z-2.7358
G01 X186.4639 Y267.6782 Z-2.7519
G01 X186.4740 Y267.7247 Z-2.7680
G01 X186.4863 Y267.7707 Z-2.7841
G01 X186.5008 Y267.8160 Z-2.8002
G01 X186.5175 Y267.8606 Z-2.8163
G01 X186.5362 Y267.9044 Z-2.8324
G01 X186.5570 Y267.9472 Z-2.8485
G01 X186.5798 Y267.9890 Z-2.8646
G01 X186.6046 Y268.0296 Z-2.8807
G01 X186.6313 Y268.0690 Z-2.8968
G01 X186.6598 Y268.1071 Z-2.9129
G01 X186.6901 Y268.1438 Z-2.9290
G01 X186.7221 Y268.1790 Z-2.9451
G01 X186.7558 Y268.2127 Z-2.9612
G01 X186.7910 Y268.2447 Z-2.9773
G01 X186.8277 Y268.2750 Z-2.9934
G01 X186.8658 Y268.3035 Z-3.0095
G01 X186.9052 Y268.3302 Z-3.0256
G01 X186.9458 Y268.3550 Z-3.0417
G01 X186.9876 Y268.3778 Z-3.0578
G01 X187.0304 Y268.3986 Z-3.0739
G01 X187.0742 Y268.4173 Z-3.0900
G01 X187.1188 Y268.4340 Z-3.1061
G01 X187.1641 Y268.4484 Z-3.1222
G01 X187.2101 Y268.4608 Z-3.1383
G01 X187.2566 Y268.4709 Z-3.1544
G01 X187.3035 Y268.4788 Z-3.1705
G01 X187.3508 Y268.4844 Z-3.1866
G01 X187.3983 Y268.4878 Z-3.2027
G01 X187.4458 Y268.4890 Z-3.2188
G01 X187.4934 Y268.4878 Z-3.2348
G01 X187.5409 Y268.4844 Z-3.2509
G01 X187.5882 Y268.4788 Z-3.2670
G01 X187.6351 Y268.4709 Z-3.2831
G01 X187.6816 Y268.4608 Z-3.2992
G01 X187.7276 Y268.4484 Z-3.3153
G01 X187.7729 Y268.4340 Z-3.3314
G01 X187.8175 Y268.4173 Z-3.3475
G01 X187.8613 Y268.3986 Z-3.3636
G01 X187.9041 Y268.3778 Z-3.3797
G01 X187.9458 Y268.3550 Z-3.3958
G01 X187.9865 Y268.3302 Z-3.4119
G01 X188.0259 Y268.3035 Z-3.4280
G01 X188.0640 Y268.2750 Z-3.4441
G01 X188.1007 Y268.2447 Z-3.4602
G01 X188.1359 Y268.2127 Z-3.4763
G01 X188.1696 Y268.1790 Z-3.4924
G01 X188.2016 Y268.1438 Z-3.5085
G01 X188.2319 Y268.1071 Z-3.5246
G01 X188.2604 Y268.0690 Z-3.5407
G01 X188.2871 Y268.0296 Z-3.5568
G01 X188.3119 Y267.9890 Z-3.5729
G01 X188.3347 Y267.9472 Z-3.5890
G01 X188.3555 Y267.9044 Z-3.6051
G01 X188.3742 Y267.8606 Z-3.6212
G01 X188.3908 Y267.8160 Z-3.6373
G01 X188.4053 Y267.7707 Z-3.6534
G01 X188.4176 Y267.7247 Z-3.6695
G01 X188.4278 Y267.6782 Z-3.6856
G01 X188.4357 Y267.6313 Z-3.7017
G01 X188.4413 Y267.5840 Z-3.7178
G01 X188.4447 Y267.5365 Z-3.7339
G01 X188.4458 Y267.4890 Z-3.7500
G01 X188.4420 Y267.4018
G01 X188.4306 Y267.3153
G01 X188.4118 Y267.2301
G01 X188.3855 Y267.1469
G01 X188.3521 Y267.0663
G01 X188.3119 Y266.9890
G01 X188.2650 Y266.9154
G01 X188.2119 Y266.8462
G01 X188.1529 Y266.7818
G01 X188.0886 Y266.7229
G01 X188.0194 Y266.6698
G01 X187.9458 Y266.6229
G01 X187.8685 Y266.5826
G01 X187.7879 Y266.5493
G01 X187.7047 Y266.5230
G01 X187.6195 Y266.5041
G01 X187.5330 Y266.4928
G01 X187.4458 Y266.4890
G01 X187.3587 Y266.4928
G01 X187.2722 Y266.5041
G01 X187.1870 Y266.5230
G01 X187.1038 Y266.5493
G01 X187.0232 Y266.5826
G01 X186.9458 Y266.6229
G01 X186.9052 Y266.6477
G01 X186.8658 Y266.6744
G01 X186.8277 Y266.7029
G01 X186.7910 Y266.7332
G01 X186.7558 Y266.7652
G01 X186.7221 Y266.7989
G01 X186.6901 Y266.8341
G01 X186.6598 Y266.8708
G01 X186.6313 Y266.9089
G01 X186.6046 Y266.9483
G01 X186.5798 Y266.9890
G01 X186.5570 Y267.0307
G01 X186.5362 Y267.0735
G01 X186.5175 Y267.1173
G01 X186.5008 Y267.1619
G01 X186.4863 Y267.2072
G01 X186.4740 Y267.2532
G01 X186.4639 Y267.2997
G01 X186.4560 Y267.3466
G01 X186.4504 Y267.3939
G01 X186.4470 Y267.4414
G01 X186.4458 Y267.4890
G01 X186.4470 Y267.5365
G01 X186.4504 Y267.5840
G01 X186.4560 Y267.6313
G01 X186.4639 Y267.6782
G01 X186.4740 Y267.7247
G01 X186.4863 Y267.7707
G01 X186.5008 Y267.8160
G01 X186.5175 Y267.8606
G01 X186.5362 Y267.9044
G01 X186.5570 Y267.9472
G01 X186.5798 Y267.9890
G01 X186.6046 Y268.0296
G01 X186.6313 Y268.0690
G01 X186.6598 Y268.1071
G01 X186.6901 Y268.1438
G01 X186.7221 Y268.1790
G01 X186.7558 Y268.2127
G01 X186.7910 Y268.2447
G01 X186.8277 Y268.2750
G01 X186.8658 Y268.3035
G01 X186.9052 Y268.3302
G01 X186.9458 Y268.3550
G01 X186.9876 Y268.3778
G01 X187.0304 Y268.3986
G01 X187.0742 Y268.4173
G01 X187.1188 Y268.4340
G01 X187.1641 Y268.4484
G01 X187.2101 Y268.4608
G01 X187.2566 Y268.4709
G01 X187.3035 Y268.4788
G01 X187.3508 Y268.4844
G01 X187.3983 Y268.4878
G01 X187.4458 Y268.4890
G01 X187.4934 Y268.4878
G01 X187.5409 Y268.4844
G01 X187.5882 Y268.4788
G01 X187.6351 Y268.4709
G01 X187.6816 Y268.4608
G01 X187.7276 Y268.4484
G01 X187.7729 Y268.4340
G01 X187.8175 Y268.4173
G01 X187.8613 Y268.3986
G01 X187.9041 Y268.3778
G01 X187.9458 Y268.3550
G01 X187.9865 Y268.3302
G01 X188.0259 Y268.3035
G01 X188.0640 Y268.2750
G01 X188.1007 Y268.2447
G01 X188.1359 Y268.2127
G01 X188.1696 Y268.1790
G01 X188.2016 Y268.1438
G01 X188.2319 Y268.1071
G01 X188.2604 Y268.0690
G01 X188.2871 Y268.0296
G01 X188.3119 Y267.9890
G01 X188.3347 Y267.9472
G01 X188.3555 Y267.9044
G01 X188.3742 Y267.8606
G01 X188.3908 Y267.8160
G01 X188.4053 Y267.7707
G01 X188.4176 Y267.7247
G01 X188.4278 Y267.6782
G01 X188.4357 Y267.6313
G01 X188.4413 Y267.5840
G01 X188.4447 Y267.5365
G01 X188.4458 Y267.4890
G01 X188.4566 Y267.4374 F1000
G01 X188.4647 Y267.3853
G01 X188.4700 Y267.3329
G01 X188.4727 Y267.2802
G01 Y267.2275
G01 X188.4699 Y267.1749
G01 X188.4645 Y267.1225
G01 X188.4563 Y267.0704
G01 X188.4446 Y267.0144
G01 X188.4300 Y266.9591
G01 X188.4127 Y266.9046
G01 X188.3925 Y266.8511
G01 X188.3697 Y266.7986
G01 X188.3442 Y266.7474
G01 X188.3161 Y266.6976
G01 X188.2855 Y266.6493
G01 X188.2499 Y266.5989
G01 X188.2118 Y266.5503
G01 X188.1712 Y266.5038
G01 X188.1284 Y266.4594
G01 X188.0833 Y266.4173
G01 X188.0362 Y266.3774
G01 X187.9871 Y266.3401
G01 X187.9361 Y266.3052
G01 X187.8797 Y266.2707
G01 X187.8215 Y266.2390
G01 X187.7618 Y266.2103
G01 X187.7007 Y266.1847
G01 X187.6384 Y266.1622
G01 X187.5751 Y266.1429
G01 X187.5108 Y266.1268
G01 X187.4458 Y266.1140
G01 X187.3758 Y266.1038
G01 X187.3054 Y266.0971
G01 X187.2347 Y266.0941
G01 X187.1639 Y266.0945
G01 X187.0932 Y266.0986
G01 X187.0229 Y266.1062
G01 X186.9530 Y266.1174
G01 X186.8838 Y266.1320
G01 X186.8156 Y266.1580
G01 X186.7488 Y266.1873
G01 X186.6835 Y266.2198
G01 X186.6198 Y266.2555
G01 X186.5581 Y266.2943
G01 X186.4983 Y266.3361
G01 X186.4406 Y266.3808
G01 X186.3852 Y266.4283
G01 X186.3344 Y266.4816
G01 X186.2863 Y266.5374
G01 X186.2410 Y266.5954
G01 X186.1986 Y266.6556
G01 X186.1593 Y266.7178
G01 X186.1230 Y266.7819
G01 X186.0899 Y266.8476
G01 X186.0600 Y266.9149
G01 X186.0335 Y266.9836
G01 X186.0104 Y267.0535
G01 X185.9908 Y267.1245
G01 X185.9747 Y267.1963
G01 X185.9621 Y267.2689
G01 X185.9531 Y267.3419
G01 X185.9477 Y267.4154
G01 X185.9459 Y267.4890
G01 X185.9477 Y267.5626
G01 X185.9531 Y267.6360
G01 X185.9621 Y267.7090
G01 X185.9747 Y267.7816
G01 X185.9908 Y267.8534
G01 X186.0104 Y267.9244
G01 X186.0335 Y267.9943
G01 X186.0600 Y268.0630
G01 X186.0899 Y268.1303
G01 X186.1230 Y268.1960
G01 X186.1593 Y268.2601
G01 X186.1986 Y268.3223
G01 X186.2410 Y268.3825
G01 X186.2863 Y268.4405
G01 X186.3344 Y268.4963
G01 X186.3852 Y268.5496
G01 X186.4385 Y268.6004
G01 X186.4943 Y268.6485
G01 X186.5523 Y268.6938
G01 X186.6125 Y268.7361
G01 X186.6747 Y268.7755
G01 X186.7387 Y268.8118
G01 X186.8045 Y268.8449
G01 X186.8718 Y268.8748
G01 X186.9405 Y268.9013
G01 X187.0104 Y268.9244
G01 X187.0814 Y268.9440
G01 X187.1532 Y268.9601
G01 X187.2257 Y268.9727
G01 X187.2988 Y268.9817
G01 X187.3722 Y268.9871
G01 X187.4458 Y268.9889
G01 X187.5194 Y268.9871
G01 X187.5929 Y268.9817
G01 X187.6659 Y268.9727
G01 X187.7385 Y268.9601
G01 X187.8103 Y268.9440
G01 X187.8813 Y268.9244
G01 X187.9512 Y268.9013
G01 X188.0199 Y268.8748
G01 X188.0872 Y268.8449
G01 X188.1529 Y268.8118
G01 X188.2170 Y268.7755
G01 X188.2792 Y268.7361
G01 X188.3394 Y268.6938
G01 X188.3974 Y268.6485
G01 X188.4532 Y268.6004
G01 X188.5065 Y268.5496
G01 X188.5572 Y268.4963
G01 X188.6053 Y268.4405
G01 X188.6506 Y268.3825
G01 X188.6930 Y268.3223
G01 X188.7324 Y268.2601
G01 X188.7687 Y268.1960
G01 X188.8018 Y268.1303
G01 X188.8316 Y268.0630
G01 X188.8581 Y267.9943
G01 X188.8812 Y267.9244
G01 X188.9009 Y267.8534
G01 X188.9170 Y267.7816
G01 X188.9296 Y267.7090
G01 X188.9386 Y267.6360
G01 X188.9440 Y267.5626
G01 X188.9458 Y267.4890
G01 X188.9416 Y267.3769
G01 X188.9291 Y267.2654
G01 X188.9082 Y267.1552
G01 X188.8792 Y267.0468
G01 X188.8421 Y266.9410
G01 X188.7973 Y266.8381
G01 X188.7449 Y266.7390
G01 X188.6852 Y266.6440
G01 X188.6186 Y266.5537
G01 X188.5454 Y266.4687
G01 X188.4661 Y266.3894
G01 X188.3811 Y266.3162
G01 X188.2908 Y266.2496
G01 X188.1958 Y266.1899
G01 X188.0967 Y266.1375
G01 X187.9938 Y266.0927
G01 X187.8880 Y266.0556
G01 X187.7796 Y266.0266
G01 X187.6694 Y266.0057
G01 X187.5579 Y265.9932
G01 X187.4458 Y265.9890
G01 X187.3337 Y265.9932
G01 X187.2223 Y266.0057
G01 X187.1121 Y266.0266
G01 X187.0037 Y266.0556
G01 X186.8978 Y266.0927
G01 X186.7950 Y266.1375
G01 X186.6958 Y266.1899
G01 X186.6009 Y266.2496
G01 X186.5106 Y266.3162
G01 X186.4256 Y266.3894
G01 X186.3463 Y266.4687
G01 X186.2731 Y266.5537
G01 X186.2065 Y266.6440
G01 X186.1468 Y266.7390
G01 X186.0944 Y266.8381
G01 X186.0495 Y266.9410
G01 X186.0125 Y267.0468
G01 X185.9835 Y267.1552
G01 X185.9626 Y267.2654
G01 X185.9500 Y267.3769
G01 X185.9459 Y267.4890
G01 X185.9500 Y267.6011
G01 X185.9626 Y267.7125
G01 X185.9835 Y267.8227
G01 X186.0125 Y267.9311
G01 X186.0495 Y268.0370
G01 X186.0944 Y268.1398
G01 X186.1468 Y268.2389
G01 X186.2065 Y268.3339
G01 X186.2731 Y268.4242
G01 X186.3463 Y268.5092
G01 X186.4256 Y268.5885
G01 X186.5106 Y268.6617
G01 X186.6009 Y268.7283
G01 X186.6958 Y268.7880
G01 X186.7950 Y268.8404
G01 X186.8978 Y268.8853
G01 X187.0037 Y268.9223
G01 X187.1121 Y268.9513
G01 X187.2223 Y268.9722
G01 X187.3337 Y268.9847
G01 X187.4458 Y268.9889
G01 X187.5579 Y268.9847
G01 X187.6694 Y268.9722
G01 X187.7796 Y268.9513
G01 X187.8880 Y268.9223
G01 X187.9938 Y268.8853
G01 X188.0967 Y268.8404
G01 X188.1958 Y268.7880
G01 X188.2908 Y268.7283
G01 X188.3811 Y268.6617
G01 X188.4661 Y268.5885
G01 X188.5454 Y268.5092
G01 X188.6186 Y268.4242
G01 X188.6852 Y268.3339
G01 X188.7449 Y268.2389
G01 X188.7973 Y268.1398
G01 X188.8421 Y268.0370
G01 X188.8792 Y267.9311
G01 X188.9082 Y267.8227
G01 X188.9291 Y267.7125
G01 X188.9416 Y267.6011
G01 X188.9458 Y267.4890
G01 X188.9420 Y267.3909
G01 X188.9304 Y267.2934
G01 X188.9113 Y267.1972
G01 X188.8846 Y267.1027
G01 X188.8507 Y267.0106
G01 X188.8096 Y266.9215
G01 X188.7616 Y266.8358
G01 X188.7071 Y266.7542
G01 X188.6463 Y266.6772
G01 X188.5797 Y266.6051
G01 X188.5076 Y266.5385
G01 X188.4306 Y266.4777
G01 X188.3489 Y266.4232
G01 X188.2633 Y266.3752
G01 X188.1742 Y266.3341
G01 X188.0821 Y266.3001
G01 X187.9876 Y266.2735
G01 X187.8914 Y266.2544
G01 X187.7939 Y266.2428
G01 X187.6958 Y266.2390
G01 X187.5978 Y266.2428
G01 X187.5003 Y266.2544
G01 X187.4040 Y266.2735
G01 X187.3096 Y266.3001
G01 X187.2175 Y266.3341
G01 X187.1283 Y266.3752
G01 X187.0427 Y266.4232
G01 X186.9611 Y266.4777
G01 X186.8840 Y266.5385
G01 X186.8119 Y266.6051
G01 X186.7453 Y266.6772
G01 X186.6846 Y266.7542
G01 X186.6300 Y266.8358
G01 X186.5821 Y266.9215
G01 X186.5410 Y267.0106
G01 X186.5070 Y267.1027
G01 X186.4804 Y267.1972
G01 X186.4612 Y267.2934
G01 X186.4497 Y267.3909
G01 X186.4458 Y267.4890
G01 X186.4496 Y267.5761
G01 X186.4610 Y267.6626
G01 X186.4799 Y267.7478
G01 X186.5061 Y267.8310
G01 X186.5395 Y267.9116
G01 X186.5798 Y267.9890
G01 X186.6267 Y268.0625
G01 X186.6798 Y268.1317
G01 X186.7387 Y268.1961
G01 X186.8030 Y268.2550
G01 X186.8723 Y268.3081
G01 X186.9458 Y268.3550
G01 X187.0232 Y268.3953
G01 X187.1038 Y268.4286
G01 X187.1870 Y268.4549
G01 X187.2722 Y268.4738
G01 X187.3587 Y268.4852
G01 X187.4458 Y268.4890
G01 X187.5330 Y268.4852
G01 X187.6195 Y268.4738
G01 X187.7047 Y268.4549
G01 X187.7879 Y268.4286
G01 X187.8685 Y268.3953
G01 X187.9458 Y268.3550
G01 X188.0194 Y268.3081
G01 X188.0886 Y268.2550
G01 X188.1529 Y268.1961
G01 X188.2119 Y268.1317
G01 X188.2650 Y268.0625
G01 X188.3119 Y267.9890
G01 X188.3521 Y267.9116
G01 X188.3855 Y267.8310
G01 X188.4118 Y267.7478
G01 X188.4306 Y267.6626
G01 X188.4420 Y267.5761
G01 X188.4458 Y267.4890
M107
M106 S240
G01 X188.4420 Y267.4018 Z-3.7795 F400
G01 X188.4306 Y267.3153 Z-3.8090
G01 X188.4118 Y267.2301 Z-3.8385
G01 X188.3855 Y267.1469 Z-3.8681
G01 X188.3521 Y267.0663 Z-3.8976
G01 X188.3119 Y266.9890 Z-3.9271
G01 X188.2650 Y266.9154 Z-3.9566
G01 X188.2119 Y266.8462 Z-3.9861
G01 X188.1529 Y266.7818 Z-4.0156
G01 X188.0886 Y266.7229 Z-4.0451
G01 X188.0194 Y266.6698 Z-4.0747
G01 X187.9458 Y266.6229 Z-4.1042
G01 X187.8685 Y266.5826 Z-4.1337
G01 X187.7879 Y266.5493 Z-4.1632
G01 X187.7047 Y266.5230 Z-4.1927
G01 X187.6195 Y266.5041 Z-4.2222
G01 X187.5330 Y266.4928 Z-4.2517
G01 X187.4458 Y266.4890 Z-4.2813
G01 X187.3587 Y266.4928 Z-4.3108
G01 X187.2722 Y266.5041 Z-4.3403
G01 X187.1870 Y266.5230 Z-4.3698
G01 X187.1038 Y266.5493 Z-4.3993
G01 X187.0232 Y266.5826 Z-4.4288
G01 X186.9458 Y266.6229 Z-4.4583
G01 X186.9052 Y266.6477 Z-4.4744
G01 X186.8658 Y266.6744 Z-4.4905
G01 X186.8277 Y266.7029 Z-4.5066
G01 X186.7910 Y266.7332 Z-4.5227
G01 X186.7558 Y266.7652 Z-4.5388
G01 X186.7221 Y266.7989 Z-4.5549
G01 X186.6901 Y266.8341 Z-4.5710
G01 X186.6598 Y266.8708 Z-4.5871
G01 X186.6313 Y266.9089 Z-4.6032
G01 X186.6046 Y266.9483 Z-4.6193
G01 X186.5798 Y266.9890 Z-4.6354
G01 X186.5570 Y267.0307 Z-4.6515
G01 X186.5362 Y267.0735 Z-4.6676
G01 X186.5175 Y267.1173 Z-4.6837
G01 X186.5008 Y267.1619 Z-4.6998
G01 X186.4863 Y267.2072 Z-4.7159
G01 X186.4740 Y267.2532 Z-4.7320
G01 X186.4639 Y267.2997 Z-4.7481
G01 X186.4560 Y267.3466 Z-4.7642
G01 X186.4504 Y267.3939 Z-4.7803
G01 X186.4470 Y267.4414 Z-4.7964
G01 X186.4458 Y267.4890 Z-4.8125
G01 X186.4470 Y267.5365 Z-4.8286
G01 X186.4504 Y267.5840 Z-4.8447
G01 X186.4560 Y267.6313 Z-4.8608
G01 X186.4639 Y267.6782 Z-4.8769
G01 X186.4740 Y267.7247 Z-4.8930
G01 X186.4863 Y267.7707 Z-4.9091
G01 X186.5008 Y267.8160 Z-4.9252
G01 X186.5175 Y267.8606 Z-4.9413
G01 X186.5362 Y267.9044 Z-4.9574
G01 X186.5570 Y267.9472 Z-4.9735
G01 X186.5798 Y267.9890 Z-4.9896
G01 X186.6046 Y268.0296 Z-5.0057
G01 X186.6313 Y268.0690 Z-5.0218
G01 X186.6598 Y268.1071 Z-5.0379
G01 X186.6901 Y268.1438 Z-5.0540
G01 X186.7221 Y268.1790 Z-5.0701
G01 X186.7558 Y268.2127 Z-5.0862
G01 X186.7910 Y268.2447 Z-5.1023
G01 X186.8277 Y268.2750 Z-5.1184
G01 X186.8658 Y268.3035 Z-5.1345
G01 X186.9052 Y268.3302 Z-5.1506
G01 X186.9458 Y268.3550 Z-5.1667
G01 X186.9876 Y268.3778 Z-5.1828
G01 X187.0304 Y268.3986 Z-5.1989
G01 X187.0742 Y268.4173 Z-5.2150
G01 X187.1188 Y268.4340 Z-5.2311
G01 X187.1641 Y268.4484 Z-5.2472
G01 X187.2101 Y268.4608 Z-5.2633
G01 X187.2566 Y268.4709 Z-5.2794
G01 X187.3035 Y268.4788 Z-5.2955
G01 X187.3508 Y268.4844 Z-5.3116
G01 X187.3983 Y268.4878 Z-5.3277
G01 X187.4458 Y268.4890 Z-5.3438
G01 X187.4934 Y268.4878 Z-5.3598
G01 X187.5409 Y268.4844 Z-5.3759
G01 X187.5882 Y268.4788 Z-5.3920
G01 X187.6351 Y268.4709 Z-5.4081
G01 X187.6816 Y268.4608 Z-5.4242
G01 X187.7276 Y268.4484 Z-5.4403
G01 X187.7729 Y268.4340 Z-5.4564
G01 X187.8175 Y268.4173 Z-5.4725
G01 X187.8613 Y268.3986 Z-5.4886
G01 X187.9041 Y268.3778 Z-5.5047
G01 X187.9458 Y268.3550 Z-5.5208
G01 X187.9865 Y268.3302 Z-5.5369
G01 X188.0259 Y268.3035 Z-5.5530
G01 X188.0640 Y268.2750 Z-5.5691
G01 X188.1007 Y268.2447 Z-5.5852
G01 X188.1359 Y268.2127 Z-5.6013
G01 X188.1696 Y268.1790 Z-5.6174
G01 X188.2016 Y268.1438 Z-5.6335
G01 X188.2319 Y268.1071 Z-5.6496
G01 X188.2604 Y268.0690 Z-5.6657
G01 X188.2871 Y268.0296 Z-5.6818
G01 X188.3119 Y267.9890 Z-5.6979
G01 X188.3347 Y267.9472 Z-5.7140
