;Project TeslaParkingH-TM3003E
;Created by Estlcam version 11 build 11,233
;Machining time about 00:23:39 hours

G90
M03 S18000
G00 X0.0000 Y0.0000 Z0.0000
G00 Z2.0000


;No. 1: Helical drill 4
G00 X34.8282 Y34.0054
G00 Z0.5000
M106 S240
G01 X34.8244 Y33.9183 Z0.4722 F400 S18000
G01 X34.8130 Y33.8318 Z0.4444
G01 X34.7941 Y33.7466 Z0.4167
G01 X34.7679 Y33.6634 Z0.3889
G01 X34.7345 Y33.5828 Z0.3611
G01 X34.6942 Y33.5054 Z0.3333
G01 X34.6473 Y33.4319 Z0.3056
G01 X34.5942 Y33.3627 Z0.2778
G01 X34.5353 Y33.2983 Z0.2500
G01 X34.4709 Y33.2394 Z0.2222
G01 X34.4017 Y33.1863 Z0.1944
G01 X34.3282 Y33.1394 Z0.1667
G01 X34.2508 Y33.0991 Z0.1389
G01 X34.1702 Y33.0657 Z0.1111
G01 X34.0870 Y33.0395 Z0.0833
G01 X34.0018 Y33.0206 Z0.0556
G01 X33.9153 Y33.0092 Z0.0278
G01 X33.8282 Y33.0054 Z0.0000
G01 X33.7410 Y33.0092 Z-0.0278
G01 X33.6545 Y33.0206 Z-0.0556
G01 X33.5693 Y33.0395 Z-0.0833
G01 X33.4861 Y33.0657 Z-0.1111
G01 X33.4055 Y33.0991 Z-0.1389
G01 X33.3282 Y33.1394 Z-0.1667
G01 X33.2546 Y33.1863 Z-0.1944
G01 X33.1854 Y33.2394 Z-0.2222
G01 X33.1211 Y33.2983 Z-0.2500
G01 X33.0621 Y33.3627 Z-0.2778
G01 X33.0090 Y33.4319 Z-0.3056
G01 X32.9621 Y33.5054 Z-0.3333
G01 X32.9219 Y33.5828 Z-0.3611
G01 X32.8885 Y33.6634 Z-0.3889
G01 X32.8622 Y33.7466 Z-0.4167
G01 X32.8434 Y33.8318 Z-0.4444
G01 X32.8320 Y33.9183 Z-0.4722
G01 X32.8282 Y34.0054 Z-0.5000
G01 X32.8320 Y34.0926 Z-0.5278
G01 X32.8434 Y34.1791 Z-0.5556
G01 X32.8622 Y34.2643 Z-0.5833
G01 X32.8885 Y34.3475 Z-0.6111
G01 X32.9219 Y34.4281 Z-0.6389
G01 X32.9621 Y34.5054 Z-0.6667
G01 X33.0090 Y34.5790 Z-0.6944
G01 X33.0621 Y34.6482 Z-0.7222
G01 X33.1211 Y34.7125 Z-0.7500
G01 X33.1854 Y34.7715 Z-0.7778
G01 X33.2546 Y34.8246 Z-0.8056
G01 X33.3282 Y34.8715 Z-0.8333
G01 X33.4055 Y34.9117 Z-0.8611
G01 X33.4861 Y34.9451 Z-0.8889
G01 X33.5693 Y34.9714 Z-0.9167
G01 X33.6545 Y34.9902 Z-0.9444
G01 X33.7410 Y35.0016 Z-0.9722
G01 X33.8282 Y35.0054 Z-1.0000
G01 X33.9153 Y35.0016 Z-1.0278
G01 X34.0018 Y34.9902 Z-1.0556
G01 X34.0870 Y34.9714 Z-1.0833
G01 X34.1702 Y34.9451 Z-1.1111
G01 X34.2508 Y34.9117 Z-1.1389
G01 X34.3282 Y34.8715 Z-1.1667
G01 X34.4017 Y34.8246 Z-1.1944
G01 X34.4709 Y34.7715 Z-1.2222
G01 X34.5353 Y34.7125 Z-1.2500
G01 X34.5942 Y34.6482 Z-1.2778
G01 X34.6473 Y34.5790 Z-1.3056
G01 X34.6942 Y34.5054 Z-1.3333
G01 X34.7345 Y34.4281 Z-1.3611
G01 X34.7679 Y34.3475 Z-1.3889
G01 X34.7941 Y34.2643 Z-1.4167
G01 X34.8130 Y34.1791 Z-1.4444
G01 X34.8244 Y34.0926 Z-1.4722
G01 X34.8282 Y34.0054 Z-1.5000
G01 X34.8244 Y33.9183
G01 X34.8130 Y33.8318
G01 X34.7941 Y33.7466
G01 X34.7679 Y33.6634
G01 X34.7345 Y33.5828
G01 X34.6942 Y33.5054
G01 X34.6473 Y33.4319
G01 X34.5942 Y33.3627
G01 X34.5353 Y33.2983
G01 X34.4709 Y33.2394
G01 X34.4017 Y33.1863
G01 X34.3282 Y33.1394
G01 X34.2508 Y33.0991
G01 X34.1702 Y33.0657
G01 X34.0870 Y33.0395
G01 X34.0018 Y33.0206
G01 X33.9153 Y33.0092
G01 X33.8282 Y33.0054
G01 X33.7410 Y33.0092
G01 X33.6545 Y33.0206
G01 X33.5693 Y33.0395
G01 X33.4861 Y33.0657
G01 X33.4055 Y33.0991
G01 X33.3282 Y33.1394
G01 X33.2546 Y33.1863
G01 X33.1854 Y33.2394
G01 X33.1211 Y33.2983
G01 X33.0621 Y33.3627
G01 X33.0090 Y33.4319
G01 X32.9621 Y33.5054
G01 X32.9219 Y33.5828
G01 X32.8885 Y33.6634
G01 X32.8622 Y33.7466
G01 X32.8434 Y33.8318
G01 X32.8320 Y33.9183
G01 X32.8282 Y34.0054
G01 X32.8320 Y34.0926
G01 X32.8434 Y34.1791
G01 X32.8622 Y34.2643
G01 X32.8885 Y34.3475
G01 X32.9219 Y34.4281
G01 X32.9621 Y34.5054
G01 X33.0090 Y34.5790
G01 X33.0621 Y34.6482
G01 X33.1211 Y34.7125
G01 X33.1854 Y34.7715
G01 X33.2546 Y34.8246
G01 X33.3282 Y34.8715
G01 X33.4055 Y34.9117
G01 X33.4861 Y34.9451
G01 X33.5693 Y34.9714
G01 X33.6545 Y34.9902
G01 X33.7410 Y35.0016
G01 X33.8282 Y35.0054
G01 X33.9153 Y35.0016
G01 X34.0018 Y34.9902
G01 X34.0870 Y34.9714
G01 X34.1702 Y34.9451
G01 X34.2508 Y34.9117
G01 X34.3282 Y34.8715
G01 X34.4017 Y34.8246
G01 X34.4709 Y34.7715
G01 X34.5353 Y34.7125
G01 X34.5942 Y34.6482
G01 X34.6473 Y34.5790
G01 X34.6942 Y34.5054
G01 X34.7345 Y34.4281
G01 X34.7679 Y34.3475
G01 X34.7941 Y34.2643
G01 X34.8130 Y34.1791
G01 X34.8244 Y34.0926
G01 X34.8282 Y34.0054
G01 X34.8389 Y33.9538 F1000
G01 X34.8470 Y33.9018
G01 X34.8524 Y33.8493
G01 X34.8550 Y33.7967
G01 Y33.7440
G01 X34.8523 Y33.6914
G01 X34.8468 Y33.6390
G01 X34.8387 Y33.5869
G01 X34.8269 Y33.5309
G01 X34.8124 Y33.4756
G01 X34.7950 Y33.4211
G01 X34.7749 Y33.3676
G01 X34.7520 Y33.3151
G01 X34.7265 Y33.2639
G01 X34.6984 Y33.2141
G01 X34.6678 Y33.1658
G01 X34.6322 Y33.1154
G01 X34.5941 Y33.0668
G01 X34.5536 Y33.0203
G01 X34.5107 Y32.9759
G01 X34.4657 Y32.9337
G01 X34.4185 Y32.8939
G01 X34.3694 Y32.8565
G01 X34.3185 Y32.8217
G01 X34.2620 Y32.7872
G01 X34.2038 Y32.7555
G01 X34.1441 Y32.7268
G01 X34.0830 Y32.7012
G01 X34.0207 Y32.6787
G01 X33.9574 Y32.6594
G01 X33.8931 Y32.6433
G01 X33.8282 Y32.6304
G01 X33.7585 Y32.6222
G01 X33.6886 Y32.6175
G01 X33.6185 Y32.6163
G01 X33.5484 Y32.6186
G01 X33.4786 Y32.6243
G01 X33.4091 Y32.6336
G01 X33.3401 Y32.6464
G01 X33.2719 Y32.6625
G01 X33.2067 Y32.6915
G01 X33.1430 Y32.7235
G01 X33.0809 Y32.7587
G01 X33.0206 Y32.7969
G01 X32.9623 Y32.8379
G01 X32.9060 Y32.8818
G01 X32.8520 Y32.9284
G01 X32.8003 Y32.9776
G01 X32.7512 Y33.0293
G01 X32.7046 Y33.0833
G01 X32.6607 Y33.1396
G01 X32.6196 Y33.1979
G01 X32.5814 Y33.2582
G01 X32.5462 Y33.3202
G01 X32.5142 Y33.3840
G01 X32.4853 Y33.4492
G01 X32.4596 Y33.5158
G01 X32.4372 Y33.5835
G01 X32.4182 Y33.6523
G01 X32.4025 Y33.7219
G01 X32.3903 Y33.7922
G01 X32.3816 Y33.8630
G01 X32.3764 Y33.9341
G01 X32.3746 Y34.0054
G01 X32.3764 Y34.0768
G01 X32.3816 Y34.1479
G01 X32.3903 Y34.2187
G01 X32.4025 Y34.2890
G01 X32.4182 Y34.3586
G01 X32.4372 Y34.4274
G01 X32.4596 Y34.4951
G01 X32.4853 Y34.5617
G01 X32.5142 Y34.6269
G01 X32.5462 Y34.6906
G01 X32.5814 Y34.7527
G01 X32.6196 Y34.8130
G01 X32.6607 Y34.8713
G01 X32.7046 Y34.9276
G01 X32.7512 Y34.9816
G01 X32.8003 Y35.0333
G01 X32.8520 Y35.0824
G01 X32.9060 Y35.1290
G01 X32.9623 Y35.1729
G01 X33.0206 Y35.2140
G01 X33.0809 Y35.2522
G01 X33.1430 Y35.2874
G01 X33.2067 Y35.3194
G01 X33.2719 Y35.3483
G01 X33.3385 Y35.3740
G01 X33.4062 Y35.3964
G01 X33.4750 Y35.4154
G01 X33.5446 Y35.4311
G01 X33.6149 Y35.4433
G01 X33.6857 Y35.4520
G01 X33.7568 Y35.4572
G01 X33.8282 Y35.4590
G01 X33.8995 Y35.4572
G01 X33.9706 Y35.4520
G01 X34.0414 Y35.4433
G01 X34.1117 Y35.4311
G01 X34.1813 Y35.4154
G01 X34.2501 Y35.3964
G01 X34.3178 Y35.3740
G01 X34.3844 Y35.3483
G01 X34.4496 Y35.3194
G01 X34.5134 Y35.2874
G01 X34.5754 Y35.2522
G01 X34.6357 Y35.2140
G01 X34.6940 Y35.1729
G01 X34.7503 Y35.1290
G01 X34.8043 Y35.0824
G01 X34.8560 Y35.0333
G01 X34.9052 Y34.9816
G01 X34.9518 Y34.9276
G01 X34.9957 Y34.8713
G01 X35.0367 Y34.8130
G01 X35.0749 Y34.7527
G01 X35.1101 Y34.6906
G01 X35.1421 Y34.6269
G01 X35.1711 Y34.5617
G01 X35.1967 Y34.4951
G01 X35.2191 Y34.4274
G01 X35.2381 Y34.3586
G01 X35.2538 Y34.2890
G01 X35.2660 Y34.2187
G01 X35.2747 Y34.1479
G01 X35.2800 Y34.0768
G01 X35.2817 Y34.0054
G01 X35.2776 Y33.8968
G01 X35.2655 Y33.7888
G01 X35.2453 Y33.6820
G01 X35.2171 Y33.5770
G01 X35.1812 Y33.4744
G01 X35.1378 Y33.3748
G01 X35.0870 Y33.2787
G01 X35.0291 Y33.1866
G01 X34.9646 Y33.0992
G01 X34.8937 Y33.0168
G01 X34.8168 Y32.9399
G01 X34.7344 Y32.8690
G01 X34.6470 Y32.8045
G01 X34.5549 Y32.7466
G01 X34.4588 Y32.6958
G01 X34.3592 Y32.6524
G01 X34.2566 Y32.6165
G01 X34.1516 Y32.5883
G01 X34.0448 Y32.5681
G01 X33.9368 Y32.5560
G01 X33.8282 Y32.5519
G01 X33.7195 Y32.5560
G01 X33.6115 Y32.5681
G01 X33.5047 Y32.5883
G01 X33.3997 Y32.6165
G01 X33.2971 Y32.6524
G01 X33.1975 Y32.6958
G01 X33.1014 Y32.7466
G01 X33.0093 Y32.8045
G01 X32.9219 Y32.8690
G01 X32.8395 Y32.9399
G01 X32.7626 Y33.0168
G01 X32.6917 Y33.0992
G01 X32.6272 Y33.1866
G01 X32.5694 Y33.2787
G01 X32.5186 Y33.3748
G01 X32.4751 Y33.4744
G01 X32.4392 Y33.5770
G01 X32.4111 Y33.6820
G01 X32.3908 Y33.7888
G01 X32.3787 Y33.8968
G01 X32.3746 Y34.0054
G01 X32.3787 Y34.1141
G01 X32.3908 Y34.2221
G01 X32.4111 Y34.3289
G01 X32.4392 Y34.4339
G01 X32.4751 Y34.5365
G01 X32.5186 Y34.6361
G01 X32.5694 Y34.7322
G01 X32.6272 Y34.8243
G01 X32.6917 Y34.9117
G01 X32.7626 Y34.9941
G01 X32.8395 Y35.0710
G01 X32.9219 Y35.1419
G01 X33.0093 Y35.2064
G01 X33.1014 Y35.2642
G01 X33.1975 Y35.3150
G01 X33.2971 Y35.3585
G01 X33.3997 Y35.3944
G01 X33.5047 Y35.4225
G01 X33.6115 Y35.4428
G01 X33.7195 Y35.4549
G01 X33.8282 Y35.4590
G01 X33.9368 Y35.4549
G01 X34.0448 Y35.4428
G01 X34.1516 Y35.4225
G01 X34.2566 Y35.3944
G01 X34.3592 Y35.3585
G01 X34.4588 Y35.3150
G01 X34.5549 Y35.2642
G01 X34.6470 Y35.2064
G01 X34.7344 Y35.1419
G01 X34.8168 Y35.0710
G01 X34.8937 Y34.9941
G01 X34.9646 Y34.9117
G01 X35.0291 Y34.8243
G01 X35.0870 Y34.7322
G01 X35.1378 Y34.6361
G01 X35.1812 Y34.5365
G01 X35.2171 Y34.4339
G01 X35.2453 Y34.3289
G01 X35.2655 Y34.2221
G01 X35.2776 Y34.1141
G01 X35.2817 Y34.0054
G01 X35.2779 Y33.9092
G01 X35.2666 Y33.8135
G01 X35.2478 Y33.7191
G01 X35.2217 Y33.6263
G01 X35.1883 Y33.5360
G01 X35.1480 Y33.4485
G01 X35.1009 Y33.3645
G01 X35.0474 Y33.2844
G01 X34.9878 Y33.2087
G01 X34.9224 Y33.1380
G01 X34.8517 Y33.0726
G01 X34.7760 Y33.0130
G01 X34.6959 Y32.9594
G01 X34.6119 Y32.9124
G01 X34.5244 Y32.8721
G01 X34.4340 Y32.8387
G01 X34.3413 Y32.8126
G01 X34.2468 Y32.7938
G01 X34.1512 Y32.7825
G01 X34.0549 Y32.7787
G01 X33.9587 Y32.7825
G01 X33.8630 Y32.7938
G01 X33.7685 Y32.8126
G01 X33.6758 Y32.8387
G01 X33.5855 Y32.8721
G01 X33.4980 Y32.9124
G01 X33.4139 Y32.9594
G01 X33.3339 Y33.0130
G01 X33.2582 Y33.0726
G01 X33.1875 Y33.1380
G01 X33.1221 Y33.2087
G01 X33.0625 Y33.2844
G01 X33.0089 Y33.3645
G01 X32.9619 Y33.4485
G01 X32.9215 Y33.5360
G01 X32.8882 Y33.6263
G01 X32.8621 Y33.7191
G01 X32.8433 Y33.8135
G01 X32.8319 Y33.9092
G01 X32.8282 Y34.0054
G01 X32.8320 Y34.0926
G01 X32.8434 Y34.1791
G01 X32.8622 Y34.2643
G01 X32.8885 Y34.3475
G01 X32.9219 Y34.4281
G01 X32.9621 Y34.5054
G01 X33.0090 Y34.5790
G01 X33.0621 Y34.6482
G01 X33.1211 Y34.7125
G01 X33.1854 Y34.7715
G01 X33.2546 Y34.8246
G01 X33.3282 Y34.8715
G01 X33.4055 Y34.9117
G01 X33.4861 Y34.9451
G01 X33.5693 Y34.9714
G01 X33.6545 Y34.9902
G01 X33.7410 Y35.0016
G01 X33.8282 Y35.0054
G01 X33.9153 Y35.0016
G01 X34.0018 Y34.9902
G01 X34.0870 Y34.9714
G01 X34.1702 Y34.9451
G01 X34.2508 Y34.9117
G01 X34.3282 Y34.8715
G01 X34.4017 Y34.8246
G01 X34.4709 Y34.7715
G01 X34.5353 Y34.7125
G01 X34.5942 Y34.6482
G01 X34.6473 Y34.5790
G01 X34.6942 Y34.5054
G01 X34.7345 Y34.4281
G01 X34.7679 Y34.3475
G01 X34.7941 Y34.2643
G01 X34.8130 Y34.1791
G01 X34.8244 Y34.0926
G01 X34.8282 Y34.0054
M107
M106 S240
G01 X34.8244 Y33.9183 Z-1.5278 F400
G01 X34.8130 Y33.8318 Z-1.5556
G01 X34.7941 Y33.7466 Z-1.5833
G01 X34.7679 Y33.6634 Z-1.6111
G01 X34.7345 Y33.5828 Z-1.6389
G01 X34.6942 Y33.5054 Z-1.6667
G01 X34.6473 Y33.4319 Z-1.6944
G01 X34.5942 Y33.3627 Z-1.7222
G01 X34.5353 Y33.2983 Z-1.7500
G01 X34.4709 Y33.2394 Z-1.7778
G01 X34.4017 Y33.1863 Z-1.8056
G01 X34.3282 Y33.1394 Z-1.8333
G01 X34.2508 Y33.0991 Z-1.8611
G01 X34.1702 Y33.0657 Z-1.8889
G01 X34.0870 Y33.0395 Z-1.9167
G01 X34.0018 Y33.0206 Z-1.9444
G01 X33.9153 Y33.0092 Z-1.9722
G01 X33.8282 Y33.0054 Z-2.0000
G01 X33.7410 Y33.0092 Z-2.0278
G01 X33.6545 Y33.0206 Z-2.0556
G01 X33.5693 Y33.0395 Z-2.0833
G01 X33.4861 Y33.0657 Z-2.1111
G01 X33.4055 Y33.0991 Z-2.1389
G01 X33.3282 Y33.1394 Z-2.1667
G01 X33.2546 Y33.1863 Z-2.1944
G01 X33.1854 Y33.2394 Z-2.2222
G01 X33.1211 Y33.2983 Z-2.2500
G01 X33.0621 Y33.3627 Z-2.2778
G01 X33.0090 Y33.4319 Z-2.3056
G01 X32.9621 Y33.5054 Z-2.3333
G01 X32.9219 Y33.5828 Z-2.3611
G01 X32.8885 Y33.6634 Z-2.3889
G01 X32.8622 Y33.7466 Z-2.4167
G01 X32.8434 Y33.8318 Z-2.4444
G01 X32.8320 Y33.9183 Z-2.4722
G01 X32.8282 Y34.0054 Z-2.5000
G01 X32.8320 Y34.0926 Z-2.5278
G01 X32.8434 Y34.1791 Z-2.5556
G01 X32.8622 Y34.2643 Z-2.5833
G01 X32.8885 Y34.3475 Z-2.6111
G01 X32.9219 Y34.4281 Z-2.6389
G01 X32.9621 Y34.5054 Z-2.6667
G01 X33.0090 Y34.5790 Z-2.6944
G01 X33.0621 Y34.6482 Z-2.7222
G01 X33.1211 Y34.7125 Z-2.7500
G01 X33.1854 Y34.7715 Z-2.7778
G01 X33.2546 Y34.8246 Z-2.8056
G01 X33.3282 Y34.8715 Z-2.8333
G01 X33.4055 Y34.9117 Z-2.8611
G01 X33.4861 Y34.9451 Z-2.8889
G01 X33.5693 Y34.9714 Z-2.9167
G01 X33.6545 Y34.9902 Z-2.9444
G01 X33.7410 Y35.0016 Z-2.9722
G01 X33.8282 Y35.0054 Z-3.0000
G01 X33.9153 Y35.0016 Z-3.0278
G01 X34.0018 Y34.9902 Z-3.0556
G01 X34.0870 Y34.9714 Z-3.0833
G01 X34.1702 Y34.9451 Z-3.1111
G01 X34.2508 Y34.9117 Z-3.1389
G01 X34.3282 Y34.8715 Z-3.1667
G01 X34.4017 Y34.8246 Z-3.1944
G01 X34.4709 Y34.7715 Z-3.2222
G01 X34.5353 Y34.7125 Z-3.2500
G01 X34.5942 Y34.6482 Z-3.2778
G01 X34.6473 Y34.5790 Z-3.3056
G01 X34.6942 Y34.5054 Z-3.3333
G01 X34.7345 Y34.4281 Z-3.3611
G01 X34.7679 Y34.3475 Z-3.3889
G01 X34.7941 Y34.2643 Z-3.4167
G01 X34.8130 Y34.1791 Z-3.4444
G01 X34.8244 Y34.0926 Z-3.4722
G01 X34.8282 Y34.0054 Z-3.5000
G01 X34.8244 Y33.9183
G01 X34.8130 Y33.8318
G01 X34.7941 Y33.7466
G01 X34.7679 Y33.6634
G01 X34.7345 Y33.5828
G01 X34.6942 Y33.5054
G01 X34.6473 Y33.4319
G01 X34.5942 Y33.3627
G01 X34.5353 Y33.2983
G01 X34.4709 Y33.2394
G01 X34.4017 Y33.1863
G01 X34.3282 Y33.1394
G01 X34.2508 Y33.0991
G01 X34.1702 Y33.0657
G01 X34.0870 Y33.0395
G01 X34.0018 Y33.0206
G01 X33.9153 Y33.0092
G01 X33.8282 Y33.0054
G01 X33.7410 Y33.0092
G01 X33.6545 Y33.0206
G01 X33.5693 Y33.0395
G01 X33.4861 Y33.0657
G01 X33.4055 Y33.0991
G01 X33.3282 Y33.1394
G01 X33.2546 Y33.1863
G01 X33.1854 Y33.2394
G01 X33.1211 Y33.2983
G01 X33.0621 Y33.3627
G01 X33.0090 Y33.4319
G01 X32.9621 Y33.5054
G01 X32.9219 Y33.5828
G01 X32.8885 Y33.6634
G01 X32.8622 Y33.7466
G01 X32.8434 Y33.8318
G01 X32.8320 Y33.9183
G01 X32.8282 Y34.0054
G01 X32.8320 Y34.0926
G01 X32.8434 Y34.1791
G01 X32.8622 Y34.2643
G01 X32.8885 Y34.3475
G01 X32.9219 Y34.4281
G01 X32.9621 Y34.5054
G01 X33.0090 Y34.5790
G01 X33.0621 Y34.6482
G01 X33.1211 Y34.7125
G01 X33.1854 Y34.7715
G01 X33.2546 Y34.8246
G01 X33.3282 Y34.8715
G01 X33.4055 Y34.9117
G01 X33.4861 Y34.9451
G01 X33.5693 Y34.9714
G01 X33.6545 Y34.9902
G01 X33.7410 Y35.0016
G01 X33.8282 Y35.0054
G01 X33.9153 Y35.0016
G01 X34.0018 Y34.9902
G01 X34.0870 Y34.9714
G01 X34.1702 Y34.9451
G01 X34.2508 Y34.9117
G01 X34.3282 Y34.8715
G01 X34.4017 Y34.8246
G01 X34.4709 Y34.7715
G01 X34.5353 Y34.7125
G01 X34.5942 Y34.6482
G01 X34.6473 Y34.5790
G01 X34.6942 Y34.5054
G01 X34.7345 Y34.4281
G01 X34.7679 Y34.3475
G01 X34.7941 Y34.2643
G01 X34.8130 Y34.1791
G01 X34.8244 Y34.0926
G01 X34.8282 Y34.0054
G01 X34.8389 Y33.9538 F1000
G01 X34.8470 Y33.9018
G01 X34.8524 Y33.8493
G01 X34.8550 Y33.7967
G01 Y33.7440
G01 X34.8523 Y33.6914
G01 X34.8468 Y33.6390
G01 X34.8387 Y33.5869
G01 X34.8269 Y33.5309
G01 X34.8124 Y33.4756
G01 X34.7950 Y33.4211
G01 X34.7749 Y33.3676
G01 X34.7520 Y33.3151
G01 X34.7265 Y33.2639
G01 X34.6984 Y33.2141
G01 X34.6678 Y33.1658
G01 X34.6322 Y33.1154
G01 X34.5941 Y33.0668
G01 X34.5536 Y33.0203
G01 X34.5107 Y32.9759
G01 X34.4657 Y32.9337
G01 X34.4185 Y32.8939
G01 X34.3694 Y32.8565
G01 X34.3185 Y32.8217
G01 X34.2620 Y32.7872
G01 X34.2038 Y32.7555
G01 X34.1441 Y32.7268
G01 X34.0830 Y32.7012
G01 X34.0207 Y32.6787
G01 X33.9574 Y32.6594
G01 X33.8931 Y32.6433
G01 X33.8282 Y32.6304
G01 X33.7585 Y32.6222
G01 X33.6886 Y32.6175
G01 X33.6185 Y32.6163
G01 X33.5484 Y32.6186
G01 X33.4786 Y32.6243
G01 X33.4091 Y32.6336
G01 X33.3401 Y32.6464
G01 X33.2719 Y32.6625
G01 X33.2067 Y32.6915
G01 X33.1430 Y32.7235
G01 X33.0809 Y32.7587
G01 X33.0206 Y32.7969
G01 X32.9623 Y32.8379
G01 X32.9060 Y32.8818
G01 X32.8520 Y32.9284
G01 X32.8003 Y32.9776
G01 X32.7512 Y33.0293
G01 X32.7046 Y33.0833
G01 X32.6607 Y33.1396
G01 X32.6196 Y33.1979
G01 X32.5814 Y33.2582
G01 X32.5462 Y33.3202
G01 X32.5142 Y33.3840
G01 X32.4853 Y33.4492
G01 X32.4596 Y33.5158
G01 X32.4372 Y33.5835
G01 X32.4182 Y33.6523
G01 X32.4025 Y33.7219
G01 X32.3903 Y33.7922
G01 X32.3816 Y33.8630
G01 X32.3764 Y33.9341
G01 X32.3746 Y34.0054
G01 X32.3764 Y34.0768
G01 X32.3816 Y34.1479
G01 X32.3903 Y34.2187
G01 X32.4025 Y34.2890
G01 X32.4182 Y34.3586
G01 X32.4372 Y34.4274
G01 X32.4596 Y34.4951
G01 X32.4853 Y34.5617
G01 X32.5142 Y34.6269
G01 X32.5462 Y34.6906
G01 X32.5814 Y34.7527
G01 X32.6196 Y34.8130
G01 X32.6607 Y34.8713
G01 X32.7046 Y34.9276
G01 X32.7512 Y34.9816
G01 X32.8003 Y35.0333
G01 X32.8520 Y35.0824
G01 X32.9060 Y35.1290
G01 X32.9623 Y35.1729
G01 X33.0206 Y35.2140
G01 X33.0809 Y35.2522
G01 X33.1430 Y35.2874
G01 X33.2067 Y35.3194
G01 X33.2719 Y35.3483
G01 X33.3385 Y35.3740
G01 X33.4062 Y35.3964
G01 X33.4750 Y35.4154
G01 X33.5446 Y35.4311
G01 X33.6149 Y35.4433
G01 X33.6857 Y35.4520
G01 X33.7568 Y35.4572
G01 X33.8282 Y35.4590
G01 X33.8995 Y35.4572
G01 X33.9706 Y35.4520
G01 X34.0414 Y35.4433
G01 X34.1117 Y35.4311
G01 X34.1813 Y35.4154
G01 X34.2501 Y35.3964
G01 X34.3178 Y35.3740
G01 X34.3844 Y35.3483
G01 X34.4496 Y35.3194
G01 X34.5134 Y35.2874
G01 X34.5754 Y35.2522
G01 X34.6357 Y35.2140
G01 X34.6940 Y35.1729
G01 X34.7503 Y35.1290
G01 X34.8043 Y35.0824
G01 X34.8560 Y35.0333
G01 X34.9052 Y34.9816
G01 X34.9518 Y34.9276
G01 X34.9957 Y34.8713
G01 X35.0367 Y34.8130
G01 X35.0749 Y34.7527
G01 X35.1101 Y34.6906
G01 X35.1421 Y34.6269
G01 X35.1711 Y34.5617
G01 X35.1967 Y34.4951
G01 X35.2191 Y34.4274
G01 X35.2381 Y34.3586
G01 X35.2538 Y34.2890
G01 X35.2660 Y34.2187
G01 X35.2747 Y34.1479
G01 X35.2800 Y34.0768
G01 X35.2817 Y34.0054
G01 X35.2776 Y33.8968
G01 X35.2655 Y33.7888
G01 X35.2453 Y33.6820
G01 X35.2171 Y33.5770
G01 X35.1812 Y33.4744
G01 X35.1378 Y33.3748
G01 X35.0870 Y33.2787
G01 X35.0291 Y33.1866
G01 X34.9646 Y33.0992
G01 X34.8937 Y33.0168
G01 X34.8168 Y32.9399
G01 X34.7344 Y32.8690
G01 X34.6470 Y32.8045
G01 X34.5549 Y32.7466
G01 X34.4588 Y32.6958
G01 X34.3592 Y32.6524
G01 X34.2566 Y32.6165
G01 X34.1516 Y32.5883
G01 X34.0448 Y32.5681
G01 X33.9368 Y32.5560
G01 X33.8282 Y32.5519
G01 X33.7195 Y32.5560
G01 X33.6115 Y32.5681
G01 X33.5047 Y32.5883
G01 X33.3997 Y32.6165
G01 X33.2971 Y32.6524
G01 X33.1975 Y32.6958
G01 X33.1014 Y32.7466
G01 X33.0093 Y32.8045
G01 X32.9219 Y32.8690
G01 X32.8395 Y32.9399
G01 X32.7626 Y33.0168
G01 X32.6917 Y33.0992
G01 X32.6272 Y33.1866
G01 X32.5694 Y33.2787
G01 X32.5186 Y33.3748
G01 X32.4751 Y33.4744
G01 X32.4392 Y33.5770
G01 X32.4111 Y33.6820
G01 X32.3908 Y33.7888
G01 X32.3787 Y33.8968
G01 X32.3746 Y34.0054
G01 X32.3787 Y34.1141
G01 X32.3908 Y34.2221
G01 X32.4111 Y34.3289
G01 X32.4392 Y34.4339
G01 X32.4751 Y34.5365
G01 X32.5186 Y34.6361
G01 X32.5694 Y34.7322
G01 X32.6272 Y34.8243
G01 X32.6917 Y34.9117
G01 X32.7626 Y34.9941
G01 X32.8395 Y35.0710
G01 X32.9219 Y35.1419
G01 X33.0093 Y35.2064
G01 X33.1014 Y35.2642
G01 X33.1975 Y35.3150
G01 X33.2971 Y35.3585
G01 X33.3997 Y35.3944
G01 X33.5047 Y35.4225
G01 X33.6115 Y35.4428
G01 X33.7195 Y35.4549
G01 X33.8282 Y35.4590
G01 X33.9368 Y35.4549
G01 X34.0448 Y35.4428
G01 X34.1516 Y35.4225
G01 X34.2566 Y35.3944
G01 X34.3592 Y35.3585
G01 X34.4588 Y35.3150
G01 X34.5549 Y35.2642
G01 X34.6470 Y35.2064
G01 X34.7344 Y35.1419
G01 X34.8168 Y35.0710
G01 X34.8937 Y34.9941
G01 X34.9646 Y34.9117
G01 X35.0291 Y34.8243
G01 X35.0870 Y34.7322
G01 X35.1378 Y34.6361
G01 X35.1812 Y34.5365
G01 X35.2171 Y34.4339
G01 X35.2453 Y34.3289
G01 X35.2655 Y34.2221
G01 X35.2776 Y34.1141
G01 X35.2817 Y34.0054
G01 X35.2779 Y33.9092
G01 X35.2666 Y33.8135
G01 X35.2478 Y33.7191
G01 X35.2217 Y33.6263
G01 X35.1883 Y33.5360
G01 X35.1480 Y33.4485
G01 X35.1009 Y33.3645
G01 X35.0474 Y33.2844
G01 X34.9878 Y33.2087
G01 X34.9224 Y33.1380
G01 X34.8517 Y33.0726
G01 X34.7760 Y33.0130
G01 X34.6959 Y32.9594
G01 X34.6119 Y32.9124
G01 X34.5244 Y32.8721
G01 X34.4340 Y32.8387
G01 X34.3413 Y32.8126
G01 X34.2468 Y32.7938
G01 X34.1512 Y32.7825
G01 X34.0549 Y32.7787
G01 X33.9587 Y32.7825
G01 X33.8630 Y32.7938
G01 X33.7685 Y32.8126
G01 X33.6758 Y32.8387
G01 X33.5855 Y32.8721
G01 X33.4980 Y32.9124
G01 X33.4139 Y32.9594
G01 X33.3339 Y33.0130
G01 X33.2582 Y33.0726
G01 X33.1875 Y33.1380
G01 X33.1221 Y33.2087
G01 X33.0625 Y33.2844
G01 X33.0089 Y33.3645
G01 X32.9619 Y33.4485
G01 X32.9215 Y33.5360
G01 X32.8882 Y33.6263
G01 X32.8621 Y33.7191
G01 X32.8433 Y33.8135
G01 X32.8319 Y33.9092
G01 X32.8282 Y34.0054
G01 X32.8320 Y34.0926
G01 X32.8434 Y34.1791
G01 X32.8622 Y34.2643
G01 X32.8885 Y34.3475
G01 X32.9219 Y34.4281
G01 X32.9621 Y34.5054
G01 X33.0090 Y34.5790
G01 X33.0621 Y34.6482
G01 X33.1211 Y34.7125
G01 X33.1854 Y34.7715
G01 X33.2546 Y34.8246
G01 X33.3282 Y34.8715
G01 X33.4055 Y34.9117
G01 X33.4861 Y34.9451
G01 X33.5693 Y34.9714
G01 X33.6545 Y34.9902
G01 X33.7410 Y35.0016
G01 X33.8282 Y35.0054
G01 X33.9153 Y35.0016
G01 X34.0018 Y34.9902
G01 X34.0870 Y34.9714
G01 X34.1702 Y34.9451
G01 X34.2508 Y34.9117
G01 X34.3282 Y34.8715
G01 X34.4017 Y34.8246
G01 X34.4709 Y34.7715
G01 X34.5353 Y34.7125
G01 X34.5942 Y34.6482
G01 X34.6473 Y34.5790
G01 X34.6942 Y34.5054
G01 X34.7345 Y34.4281
G01 X34.7679 Y34.3475
G01 X34.7941 Y34.2643
G01 X34.8130 Y34.1791
G01 X34.8244 Y34.0926
G01 X34.8282 Y34.0054
M107
M106 S240
G01 X34.8244 Y33.9183 Z-3.5278 F400
G01 X34.8130 Y33.8318 Z-3.5556
G01 X34.7941 Y33.7466 Z-3.5833
G01 X34.7679 Y33.6634 Z-3.6111
G01 X34.7345 Y33.5828 Z-3.6389
G01 X34.6942 Y33.5054 Z-3.6667
G01 X34.6473 Y33.4319 Z-3.6944
G01 X34.5942 Y33.3627 Z-3.7222
G01 X34.5353 Y33.2983 Z-3.7500
G01 X34.4709 Y33.2394 Z-3.7778
G01 X34.4017 Y33.1863 Z-3.8056
G01 X34.3282 Y33.1394 Z-3.8333
G01 X34.2508 Y33.0991 Z-3.8611
G01 X34.1702 Y33.0657 Z-3.8889
G01 X34.0870 Y33.0395 Z-3.9167
G01 X34.0018 Y33.0206 Z-3.9444
G01 X33.9153 Y33.0092 Z-3.9722
G01 X33.8282 Y33.0054 Z-4.0000
G01 X33.7410 Y33.0092 Z-4.0278
G01 X33.6545 Y33.0206 Z-4.0556
G01 X33.5693 Y33.0395 Z-4.0833
G01 X33.4861 Y33.0657 Z-4.1111
G01 X33.4055 Y33.0991 Z-4.1389
G01 X33.3282 Y33.1394 Z-4.1667
G01 X33.2546 Y33.1863 Z-4.1944
G01 X33.1854 Y33.2394 Z-4.2222
G01 X33.1211 Y33.2983 Z-4.2500
G01 X33.0621 Y33.3627 Z-4.2778
G01 X33.0090 Y33.4319 Z-4.3056
G01 X32.9621 Y33.5054 Z-4.3333
G01 X32.9219 Y33.5828 Z-4.3611
G01 X32.8885 Y33.6634 Z-4.3889
G01 X32.8622 Y33.7466 Z-4.4167
G01 X32.8434 Y33.8318 Z-4.4444
G01 X32.8320 Y33.9183 Z-4.4722
G01 X32.8282 Y34.0054 Z-4.5000
G01 X32.8320 Y34.0926 Z-4.5278
G01 X32.8434 Y34.1791 Z-4.5556
G01 X32.8622 Y34.2643 Z-4.5833
G01 X32.8885 Y34.3475 Z-4.6111
G01 X32.9219 Y34.4281 Z-4.6389
G01 X32.9621 Y34.5054 Z-4.6667
G01 X33.0090 Y34.5790 Z-4.6944
G01 X33.0621 Y34.6482 Z-4.7222
G01 X33.1211 Y34.7125 Z-4.7500
G01 X33.1854 Y34.7715 Z-4.7778
G01 X33.2546 Y34.8246 Z-4.8056
G01 X33.3282 Y34.8715 Z-4.8333
G01 X33.4055 Y34.9117 Z-4.8611
G01 X33.4861 Y34.9451 Z-4.8889
G01 X33.5693 Y34.9714 Z-4.9167
G01 X33.6545 Y34.9902 Z-4.9444
G01 X33.7410 Y35.0016 Z-4.9722
G01 X33.8282 Y35.0054 Z-5.0000
G01 X33.9153 Y35.0016 Z-5.0278
G01 X34.0018 Y34.9902 Z-5.0556
G01 X34.0870 Y34.9714 Z-5.0833
G01 X34.1702 Y34.9451 Z-5.1111
G01 X34.2508 Y34.9117 Z-5.1389
G01 X34.3282 Y34.8715 Z-5.1667
G01 X34.4017 Y34.8246 Z-5.1944
G01 X34.4709 Y34.7715 Z-5.2222
G01 X34.5353 Y34.7125 Z-5.2500
G01 X34.5942 Y34.6482 Z-5.2778
G01 X34.6473 Y34.5790 Z-5.3056
G01 X34.6942 Y34.5054 Z-5.3333
G01 X34.7345 Y34.4281 Z-5.3611
G01 X34.7679 Y34.3475 Z-5.3889
G01 X34.7941 Y34.2643 Z-5.4167
G01 X34.8130 Y34.1791 Z-5.4444
G01 X34.8244 Y34.0926 Z-5.4722
G01 X34.8282 Y34.0054 Z-5.5000
G01 X34.8244 Y33.9183
G01 X34.8130 Y33.8318
G01 X34.7941 Y33.7466
G01 X34.7679 Y33.6634
G01 X34.7345 Y33.5828
G01 X34.6942 Y33.5054
G01 X34.6473 Y33.4319
G01 X34.5942 Y33.3627
G01 X34.5353 Y33.2983
G01 X34.4709 Y33.2394
G01 X34.4017 Y33.1863
G01 X34.3282 Y33.1394
G01 X34.2508 Y33.0991
G01 X34.1702 Y33.0657
G01 X34.0870 Y33.0395
G01 X34.0018 Y33.0206
G01 X33.9153 Y33.0092
G01 X33.8282 Y33.0054
G01 X33.7410 Y33.0092
G01 X33.6545 Y33.0206
G01 X33.5693 Y33.0395
G01 X33.4861 Y33.0657
G01 X33.4055 Y33.0991
G01 X33.3282 Y33.1394
G01 X33.2546 Y33.1863
G01 X33.1854 Y33.2394
G01 X33.1211 Y33.2983
G01 X33.0621 Y33.3627
G01 X33.0090 Y33.4319
G01 X32.9621 Y33.5054
G01 X32.9219 Y33.5828
G01 X32.8885 Y33.6634
G01 X32.8622 Y33.7466
G01 X32.8434 Y33.8318
G01 X32.8320 Y33.9183
G01 X32.8282 Y34.0054
G01 X32.8320 Y34.0926
G01 X32.8434 Y34.1791
G01 X32.8622 Y34.2643
G01 X32.8885 Y34.3475
G01 X32.9219 Y34.4281
G01 X32.9621 Y34.5054
G01 X33.0090 Y34.5790
G01 X33.0621 Y34.6482
G01 X33.1211 Y34.7125
G01 X33.1854 Y34.7715
G01 X33.2546 Y34.8246
G01 X33.3282 Y34.8715
G01 X33.4055 Y34.9117
G01 X33.4861 Y34.9451
G01 X33.5693 Y34.9714
G01 X33.6545 Y34.9902
G01 X33.7410 Y35.0016
G01 X33.8282 Y35.0054
G01 X33.9153 Y35.0016
G01 X34.0018 Y34.9902
G01 X34.0870 Y34.9714
G01 X34.1702 Y34.9451
G01 X34.2508 Y34.9117
G01 X34.3282 Y34.8715
G01 X34.4017 Y34.8246
G01 X34.4709 Y34.7715
G01 X34.5353 Y34.7125
G01 X34.5942 Y34.6482
G01 X34.6473 Y34.5790
G01 X34.6942 Y34.5054
G01 X34.7345 Y34.4281
G01 X34.7679 Y34.3475
G01 X34.7941 Y34.2643
G01 X34.8130 Y34.1791
G01 X34.8244 Y34.0926
G01 X34.8282 Y34.0054
G01 X34.8389 Y33.9538 F1000
G01 X34.8470 Y33.9018
G01 X34.8524 Y33.8493
G01 X34.8550 Y33.7967
G01 Y33.7440
G01 X34.8523 Y33.6914
G01 X34.8468 Y33.6390
G01 X34.8387 Y33.5869
G01 X34.8269 Y33.5309
G01 X34.8124 Y33.4756
G01 X34.7950 Y33.4211
G01 X34.7749 Y33.3676
G01 X34.7520 Y33.3151
G01 X34.7265 Y33.2639
G01 X34.6984 Y33.2141
G01 X34.6678 Y33.1658
G01 X34.6322 Y33.1154
G01 X34.5941 Y33.0668
G01 X34.5536 Y33.0203
G01 X34.5107 Y32.9759
G01 X34.4657 Y32.9337
G01 X34.4185 Y32.8939
G01 X34.3694 Y32.8565
G01 X34.3185 Y32.8217
G01 X34.2620 Y32.7872
G01 X34.2038 Y32.7555
G01 X34.1441 Y32.7268
G01 X34.0830 Y32.7012
G01 X34.0207 Y32.6787
G01 X33.9574 Y32.6594
G01 X33.8931 Y32.6433
G01 X33.8282 Y32.6304
G01 X33.7585 Y32.6222
G01 X33.6886 Y32.6175
G01 X33.6185 Y32.6163
G01 X33.5484 Y32.6186
G01 X33.4786 Y32.6243
G01 X33.4091 Y32.6336
G01 X33.3401 Y32.6464
G01 X33.2719 Y32.6625
G01 X33.2067 Y32.6915
G01 X33.1430 Y32.7235
G01 X33.0809 Y32.7587
G01 X33.0206 Y32.7969
G01 X32.9623 Y32.8379
G01 X32.9060 Y32.8818
G01 X32.8520 Y32.9284
G01 X32.8003 Y32.9776
G01 X32.7512 Y33.0293
G01 X32.7046 Y33.0833
G01 X32.6607 Y33.1396
G01 X32.6196 Y33.1979
G01 X32.5814 Y33.2582
G01 X32.5462 Y33.3202
G01 X32.5142 Y33.3840
G01 X32.4853 Y33.4492
G01 X32.4596 Y33.5158
G01 X32.4372 Y33.5835
G01 X32.4182 Y33.6523
G01 X32.4025 Y33.7219
G01 X32.3903 Y33.7922
G01 X32.3816 Y33.8630
G01 X32.3764 Y33.9341
G01 X32.3746 Y34.0054
G01 X32.3764 Y34.0768
G01 X32.3816 Y34.1479
G01 X32.3903 Y34.2187
G01 X32.4025 Y34.2890
G01 X32.4182 Y34.3586
G01 X32.4372 Y34.4274
G01 X32.4596 Y34.4951
G01 X32.4853 Y34.5617
G01 X32.5142 Y34.6269
G01 X32.5462 Y34.6906
G01 X32.5814 Y34.7527
G01 X32.6196 Y34.8130
G01 X32.6607 Y34.8713
G01 X32.7046 Y34.9276
G01 X32.7512 Y34.9816
G01 X32.8003 Y35.0333
G01 X32.8520 Y35.0824
G01 X32.9060 Y35.1290
G01 X32.9623 Y35.1729
G01 X33.0206 Y35.2140
G01 X33.0809 Y35.2522
G01 X33.1430 Y35.2874
G01 X33.2067 Y35.3194
G01 X33.2719 Y35.3483
G01 X33.3385 Y35.3740
G01 X33.4062 Y35.3964
G01 X33.4750 Y35.4154
G01 X33.5446 Y35.4311
G01 X33.6149 Y35.4433
G01 X33.6857 Y35.4520
G01 X33.7568 Y35.4572
G01 X33.8282 Y35.4590
G01 X33.8995 Y35.4572
G01 X33.9706 Y35.4520
G01 X34.0414 Y35.4433
G01 X34.1117 Y35.4311
G01 X34.1813 Y35.4154
G01 X34.2501 Y35.3964
G01 X34.3178 Y35.3740
G01 X34.3844 Y35.3483
G01 X34.4496 Y35.3194
G01 X34.5134 Y35.2874
G01 X34.5754 Y35.2522
G01 X34.6357 Y35.2140
G01 X34.6940 Y35.1729
G01 X34.7503 Y35.1290
G01 X34.8043 Y35.0824
G01 X34.8560 Y35.0333
G01 X34.9052 Y34.9816
G01 X34.9518 Y34.9276
G01 X34.9957 Y34.8713
G01 X35.0367 Y34.8130
G01 X35.0749 Y34.7527
G01 X35.1101 Y34.6906
G01 X35.1421 Y34.6269
G01 X35.1711 Y34.5617
G01 X35.1967 Y34.4951
G01 X35.2191 Y34.4274
G01 X35.2381 Y34.3586
G01 X35.2538 Y34.2890
G01 X35.2660 Y34.2187
G01 X35.2747 Y34.1479
G01 X35.2800 Y34.0768
G01 X35.2817 Y34.0054
G01 X35.2776 Y33.8968
G01 X35.2655 Y33.7888
G01 X35.2453 Y33.6820
G01 X35.2171 Y33.5770
G01 X35.1812 Y33.4744
G01 X35.1378 Y33.3748
G01 X35.0870 Y33.2787
G01 X35.0291 Y33.1866
G01 X34.9646 Y33.0992
G01 X34.8937 Y33.0168
G01 X34.8168 Y32.9399
G01 X34.7344 Y32.8690
G01 X34.6470 Y32.8045
G01 X34.5549 Y32.7466
G01 X34.4588 Y32.6958
G01 X34.3592 Y32.6524
G01 X34.2566 Y32.6165
G01 X34.1516 Y32.5883
G01 X34.0448 Y32.5681
G01 X33.9368 Y32.5560
G01 X33.8282 Y32.5519
G01 X33.7195 Y32.5560
G01 X33.6115 Y32.5681
G01 X33.5047 Y32.5883
G01 X33.3997 Y32.6165
G01 X33.2971 Y32.6524
G01 X33.1975 Y32.6958
G01 X33.1014 Y32.7466
G01 X33.0093 Y32.8045
G01 X32.9219 Y32.8690
G01 X32.8395 Y32.9399
G01 X32.7626 Y33.0168
G01 X32.6917 Y33.0992
G01 X32.6272 Y33.1866
G01 X32.5694 Y33.2787
G01 X32.5186 Y33.3748
G01 X32.4751 Y33.4744
G01 X32.4392 Y33.5770
G01 X32.4111 Y33.6820
G01 X32.3908 Y33.7888
G01 X32.3787 Y33.8968
G01 X32.3746 Y34.0054
G01 X32.3787 Y34.1141
G01 X32.3908 Y34.2221
G01 X32.4111 Y34.3289
G01 X32.4392 Y34.4339
G01 X32.4751 Y34.5365
G01 X32.5186 Y34.6361
G01 X32.5694 Y34.7322
G01 X32.6272 Y34.8243
G01 X32.6917 Y34.9117
G01 X32.7626 Y34.9941
G01 X32.8395 Y35.0710
G01 X32.9219 Y35.1419
G01 X33.0093 Y35.2064
G01 X33.1014 Y35.2642
G01 X33.1975 Y35.3150
G01 X33.2971 Y35.3585
G01 X33.3997 Y35.3944
G01 X33.5047 Y35.4225
G01 X33.6115 Y35.4428
G01 X33.7195 Y35.4549
G01 X33.8282 Y35.4590
G01 X33.9368 Y35.4549
G01 X34.0448 Y35.4428
G01 X34.1516 Y35.4225
G01 X34.2566 Y35.3944
G01 X34.3592 Y35.3585
G01 X34.4588 Y35.3150
G01 X34.5549 Y35.2642
G01 X34.6470 Y35.2064
G01 X34.7344 Y35.1419
G01 X34.8168 Y35.0710
G01 X34.8937 Y34.9941
G01 X34.9646 Y34.9117
G01 X35.0291 Y34.8243
G01 X35.0870 Y34.7322
G01 X35.1378 Y34.6361
G01 X35.1812 Y34.5365
G01 X35.2171 Y34.4339
G01 X35.2453 Y34.3289
G01 X35.2655 Y34.2221
G01 X35.2776 Y34.1141
G01 X35.2817 Y34.0054
M107
M106 S240
G01 X35.2786 Y33.9270 Z-5.4750 F400
M107
M106 S240
G01 X35.2694 Y33.8490 Z-5.4500
M107
M106 S240
G01 X35.2541 Y33.7720 Z-5.4250
M107
M106 S240
G01 X35.2328 Y33.6964 Z-5.4000
M107
M106 S240
G01 X35.2056 Y33.6228 Z-5.3750
M107
M106 S240
G01 X35.1727 Y33.5515 Z-5.3500
M107
M106 S240
G01 X35.1343 Y33.4829 Z-5.3250
M107
M106 S240
G01 X35.0907 Y33.4177 Z-5.3000
M107
M106 S240
G01 X35.0421 Y33.3560 Z-5.2750
M107
M106 S240
G01 X34.9888 Y33.2983 Z-5.2500
M107
M106 S240
G01 X34.9312 Y33.2450 Z-5.2250
M107
M106 S240
G01 X34.8695 Y33.1964 Z-5.2000
M107
M106 S240
G01 X34.8042 Y33.1528 Z-5.1750
M107
M106 S240
G01 X34.7357 Y33.1144 Z-5.1500
M107
M106 S240
G01 X34.6644 Y33.0816 Z-5.1250
M107
M106 S240
G01 X34.5907 Y33.0544 Z-5.1000
M107
M106 S240
G01 X34.5151 Y33.0331 Z-5.0750
M107
M106 S240
G01 X34.4381 Y33.0178 Z-5.0500
M107
M106 S240
G01 X34.3602 Y33.0085 Z-5.0250
M107
M106 S240
G01 X34.2817 Y33.0054 Z-5.0000
M107
G00 Z2.0000


;No. 2: Hole 30
G00 X70.3576 Y33.6329 Z2.0000
G00 Z0.5000
G01 Z0.0000 F400
G01 Z-1.2000
M106 S240
G01 X71.2424 F1000
G01 Y32.1329
G01 X70.3576
G01 Y30.6329
G01 X71.2736
G01 X70.3576 Y29.1329
G01 X86.2478
G01 Y30.6329
G01 X85.3319
G01 X85.3631 Y32.1329
G01 X86.2478
G01 Y33.6329
G01 X85.3631
G01 Y35.1329
G01 X86.2478
M107
G00 Z2.0000
G00 X71.2424 Y33.6329
G00 Z0.5000
G01 Z-1.2000 F400
M106 S240
G01 Y35.1329 F1000
G01 X70.3576
G01 X70.1176 Y35.1106
G01 Y36.2082
G01 X71.4824
G01 Y30.9257
G01 X71.4861 Y30.8316
G01 X71.4972 Y30.7380
G01 X71.5156 Y30.6456
G01 X71.5412 Y30.5549
G01 X71.5738 Y30.4665
G01 X71.6132 Y30.3809
G01 X71.6593 Y30.2987
G01 X71.7116 Y30.2204
G01 X71.7699 Y30.1464
G01 X71.8339 Y30.0772
G01 X71.9031 Y30.0132
G01 X71.9771 Y29.9549
G01 X72.0554 Y29.9026
G01 X72.1376 Y29.8565
G01 X72.2232 Y29.8171
G01 X72.3116 Y29.7845
G01 X72.4023 Y29.7589
G01 X72.4947 Y29.7405
G01 X72.5883 Y29.7294
G01 X72.6824 Y29.7257
G01 X83.9231
G01 X84.0172 Y29.7294
G01 X84.1108 Y29.7405
G01 X84.2032 Y29.7589
G01 X84.2939 Y29.7845
G01 X84.3823 Y29.8171
G01 X84.4678 Y29.8565
G01 X84.5501 Y29.9026
G01 X84.6284 Y29.9549
G01 X84.7024 Y30.0132
G01 X84.7716 Y30.0772
G01 X84.8355 Y30.1464
G01 X84.8939 Y30.2204
G01 X84.9462 Y30.2987
G01 X84.9923 Y30.3809
G01 X85.0317 Y30.4665
G01 X85.0643 Y30.5549
G01 X85.0899 Y30.6456
G01 X85.1083 Y30.7380
G01 X85.1194 Y30.8316
G01 X85.1231 Y30.9257
G01 Y36.2082
G01 X86.4878
G01 Y28.0577
G01 X70.1176
G01 Y35.1106
G01 X70.3576 Y35.1329
M107
G00 Z2.0000


;No. 3: Hole 30
G00 X70.1176 Y28.0577 Z2.0000
G00 Z0.5000
G01 Z-1.2000 F400
M106 S240
G01 X69.9176 Y27.8577 F1000
G01 Y36.4082
G01 X71.6824
G01 Y30.9257
G01 X71.6855 Y30.8473
G01 X71.6947 Y30.7693
G01 X71.7101 Y30.6923
G01 X71.7314 Y30.6167
G01 X71.7585 Y30.5430
G01 X71.7914 Y30.4717
G01 X71.8298 Y30.4032
G01 X71.8734 Y30.3379
G01 X71.9220 Y30.2763
G01 X71.9753 Y30.2186
G01 X72.0330 Y30.1653
G01 X72.0946 Y30.1167
G01 X72.1599 Y30.0731
G01 X72.2284 Y30.0347
G01 X72.2997 Y30.0018
G01 X72.3734 Y29.9747
G01 X72.4490 Y29.9534
G01 X72.5260 Y29.9380
G01 X72.6040 Y29.9288
G01 X72.6824 Y29.9257
G01 X83.9231
G01 X84.0015 Y29.9288
G01 X84.0795 Y29.9380
G01 X84.1565 Y29.9534
G01 X84.2321 Y29.9747
G01 X84.3057 Y30.0018
G01 X84.3770 Y30.0347
G01 X84.4456 Y30.0731
G01 X84.5108 Y30.1167
G01 X84.5725 Y30.1653
G01 X84.6302 Y30.2186
G01 X84.6835 Y30.2763
G01 X84.7321 Y30.3379
G01 X84.7757 Y30.4032
G01 X84.8141 Y30.4717
G01 X84.8469 Y30.5430
G01 X84.8741 Y30.6167
G01 X84.8954 Y30.6923
G01 X84.9107 Y30.7693
G01 X84.9200 Y30.8473
G01 X84.9231 Y30.9257
G01 Y36.4082
G01 X86.6878
G01 Y27.8577
G01 X69.9176
G01 X70.1176 Y28.0577
M107
G00 Z0.0000
G00 Z2.0000


;No. 4: Hole 29


;No. 5: Hole 29
G00 X70.4855 Y42.0930 Z2.0000
G00 Z0.5000
G01 Z0.0000 F400
G01 Z-1.2000
M106 S240
G01 X70.4443 Y42.1635 F1000
G01 X70.4057 Y42.2354
G01 X70.3695 Y42.3085
G01 X70.3359 Y42.3829
G01 X70.3048 Y42.4584
G01 X70.2764 Y42.5349
G01 X70.2507 Y42.6123
G01 X70.2276 Y42.6906
G01 X86.3780
G01 X86.3388 Y42.5605
G01 X86.2917 Y42.4329
G01 X86.2371 Y42.3084
G01 X86.1752 Y42.1874
G01 X86.1060 Y42.0703
G01 X86.0300 Y41.9576
G01 X85.9474 Y41.8496
G01 X85.8584 Y41.7468
G01 X85.7634 Y41.6496
G01 X85.6627 Y41.5582
G01 X85.5568 Y41.4730
G01 X85.4459 Y41.3943
G01 X85.3305 Y41.3225
G01 X85.2109 Y41.2576
G01 X85.0877 Y41.2001
G01 X84.9613 Y41.1501
G01 X84.8321 Y41.1078
G01 X84.7006 Y41.0732
G01 X84.5673 Y41.0467
G01 X84.4326 Y41.0282
G01 X84.3691 Y41.0253
G01 X84.2962 Y41.0242
G01 X72.3039 Y41.0243
G01 X72.1966 Y41.0257
G01 X72.0896 Y41.0328
G01 X71.9831 Y41.0456
G01 X71.8774 Y41.0641
G01 X71.7729 Y41.0883
G01 X71.6698 Y41.1180
G01 X71.5685 Y41.1532
G01 X71.4692 Y41.1938
G01 X71.3722 Y41.2396
G01 X71.2778 Y41.2906
G01 X71.1863 Y41.3466
G01 X71.0979 Y41.4073
G01 X71.0129 Y41.4728
G01 X70.9315 Y41.5426
G01 X70.8540 Y41.6168
G01 X70.7805 Y41.6950
G01 X70.7920 Y41.6819
G01 X70.7079 Y41.7789
G01 X70.6287 Y41.8800
G01 X70.5545 Y41.9847
G01 X70.4855 Y42.0930
M107
G00 Z2.0000


;No. 6: Hole 29
G00 X70.4855 Y42.0930 Z2.0000
G00 Z0.5000
G01 Z-1.2000 F400
M106 S240
G01 X70.3140 Y41.9900 F1000
G01 X70.2536 Y42.0947
G01 X70.1981 Y42.2021
G01 X70.1479 Y42.3121
G01 X70.1029 Y42.4243
G01 X70.0633 Y42.5385
G01 X70.0292 Y42.6544
G01 X70.0006 Y42.7719
G01 X69.9776 Y42.8906
G01 X86.6280
G01 X86.5980 Y42.7427
G01 X86.5592 Y42.5968
G01 X86.5116 Y42.4535
G01 X86.4556 Y42.3133
G01 X86.3913 Y42.1767
G01 X86.3189 Y42.0443
G01 X86.2387 Y41.9164
G01 X86.1510 Y41.7935
G01 X86.0560 Y41.6761
G01 X85.9542 Y41.5646
G01 X85.8459 Y41.4595
G01 X85.7315 Y41.3610
G01 X85.6114 Y41.2695
G01 X85.4860 Y41.1854
G01 X85.3558 Y41.1090
G01 X85.2213 Y41.0405
G01 X85.0829 Y40.9802
G01 X84.9411 Y40.9283
G01 X84.7965 Y40.8850
G01 X84.6495 Y40.8505
G01 X84.5620 Y40.8388
G01 X84.4741 Y40.8305
G01 X84.3860 Y40.8257
G01 X84.2977 Y40.8242
G01 X72.3024 Y40.8243
G01 X72.1848 Y40.8260
G01 X72.0675 Y40.8340
G01 X71.9508 Y40.8482
G01 X71.8350 Y40.8687
G01 X71.7205 Y40.8953
G01 X71.6075 Y40.9279
G01 X71.4965 Y40.9666
G01 X71.3877 Y41.0111
G01 X71.2814 Y41.0614
G01 X71.1780 Y41.1173
G01 X71.0777 Y41.1786
G01 X70.9808 Y41.2452
G01 X70.8876 Y41.3168
G01 X70.7983 Y41.3934
G01 X70.7133 Y41.4746
G01 X70.6327 Y41.5602
G01 X70.6411 Y41.5505
G01 X70.5514 Y41.6543
G01 X70.4669 Y41.7623
G01 X70.3877 Y41.8743
G01 X70.3140 Y41.9900
G01 X70.4855 Y42.0930
M107
G00 Z0.0000
G00 Z2.0000


;No. 7: Hole 29
G00 X70.4855 Y42.0930 Z2.0000
G00 Z0.5000
G01 Z-1.2000 F400
M106 S240
G01 X70.3140 Y41.9900 F1000
G01 X70.2536 Y42.0947
G01 X70.1981 Y42.2021
G01 X70.1479 Y42.3121
G01 X70.1029 Y42.4243
G01 X70.0633 Y42.5385
G01 X70.0292 Y42.6544
G01 X70.0006 Y42.7719
G01 X69.9776 Y42.8906
G01 X86.6280
G01 X86.5980 Y42.7427
G01 X86.5592 Y42.5968
G01 X86.5116 Y42.4535
G01 X86.4556 Y42.3133
G01 X86.3913 Y42.1767
G01 X86.3189 Y42.0443
G01 X86.2387 Y41.9164
G01 X86.1510 Y41.7935
G01 X86.0560 Y41.6761
G01 X85.9542 Y41.5646
G01 X85.8459 Y41.4595
G01 X85.7315 Y41.3610
G01 X85.6114 Y41.2695
G01 X85.4860 Y41.1854
G01 X85.3558 Y41.1090
G01 X85.2213 Y41.0405
G01 X85.0829 Y40.9802
G01 X84.9411 Y40.9283
G01 X84.7965 Y40.8850
G01 X84.6495 Y40.8505
G01 X84.5620 Y40.8388
G01 X84.4741 Y40.8305
G01 X84.3860 Y40.8257
G01 X84.2977 Y40.8242
G01 X72.3024 Y40.8243
G01 X72.1848 Y40.8260
G01 X72.0675 Y40.8340
G01 X71.9508 Y40.8482
G01 X71.8350 Y40.8687
G01 X71.7205 Y40.8953
G01 X71.6075 Y40.9279
G01 X71.4965 Y40.9666
G01 X71.3877 Y41.0111
G01 X71.2814 Y41.0614
G01 X71.1780 Y41.1173
G01 X71.0777 Y41.1786
G01 X70.9808 Y41.2452
G01 X70.8876 Y41.3168
G01 X70.7983 Y41.3934
G01 X70.7133 Y41.4746
G01 X70.6327 Y41.5602
G01 X70.6411 Y41.5505
G01 X70.5514 Y41.6543
G01 X70.4669 Y41.7623
G01 X70.3877 Y41.8743
G01 X70.3140 Y41.9900
G01 X70.4855 Y42.0930
M107
G00 Z0.0000
G00 Z2.0000


;No. 8: Hole 31
G00 X93.6781 Y41.3741 Z2.0000
G00 Z0.5000
G01 Z0.0000 F400
G01 Z-1.2000
M106 S240
G01 X95.3356 F1000
G01 X94.3669 Y39.8741
G01 X96.7243
G01 X98.1131 Y38.3741
G01 X94.3669
G01 Y36.8741
G01 X95.5487
G01 X95.2517
G01 Y35.3741
G01 X94.3669
G01 Y33.8741
G01 X95.2517
G01 Y32.3741
G01 X94.3669
G01 Y30.8741
G01 X95.2517
G01 Y29.3741
G01 X94.3669
M107
G00 Z2.0000
G00 X97.8443 Y38.3741
G00 Z0.5000
G01 Z-1.2000 F400
M106 S240
G01 Y36.8741 F1000
G01 X99.5018
G01 X99.2330 Y35.3741
G01 X100.8905
G01 X100.6218 Y33.8741
G01 X102.2793
G01 X102.0105 Y32.3741
G01 X103.6680
G01 X103.3992 Y30.8741
G01 X107.2563
G01 Y29.3741
G01 X104.7880
G01 X106.1567 Y32.3741
G01 X107.2563
G01 Y33.8741
G01 X106.3715
G01 Y35.3741
G01 X107.2563
G01 Y36.8741
G01 X106.3715
G01 Y38.3741
G01 X107.2563
G01 Y39.8741
G01 X106.3715
G01 Y41.3741
G01 X107.2563
G01 X107.4963 Y41.3546
G01 Y28.0577
G01 X105.6797
G01 X97.5722 Y36.8147
G01 X97.4994 Y36.8870
G01 X97.4206 Y36.9527
G01 X97.3365 Y37.0115
G01 X97.2477 Y37.0629
G01 X97.1549 Y37.1065
G01 X97.0586 Y37.1420
G01 X96.9597 Y37.1692
G01 X96.8588 Y37.1878
G01 X96.7567 Y37.1977
G01 X96.6541 Y37.1989
G01 X96.5518 Y37.1913
G01 X96.4505 Y37.1750
G01 X96.3509 Y37.1501
G01 X96.2539 Y37.1168
G01 X96.1600 Y37.0753
G01 X96.0701 Y37.0260
G01 X95.9847 Y36.9691
G01 X95.9044 Y36.9052
G01 X95.8300 Y36.8346
G01 X95.7618 Y36.7580
G01 X95.7004 Y36.6758
G01 X95.6462 Y36.5886
G01 X95.5997 Y36.4971
G01 X95.5612 Y36.4021
G01 X95.5310 Y36.3040
G01 X95.5092 Y36.2038
G01 X95.4961 Y36.1020
G01 X95.4917 Y35.9995
G01 Y28.0577
G01 X94.1269
G01 Y40.0659
G01 X94.1246 Y40.1406
G01 X94.1176 Y40.2149
G01 X94.1060 Y40.2887
G01 X94.0899 Y40.3616
G01 X94.0693 Y40.4334
G01 X94.0442 Y40.5037
G01 X94.0148 Y40.5724
G01 X93.9812 Y40.6391
G01 X93.9435 Y40.7035
G01 X93.9019 Y40.7655
G01 X93.8565 Y40.8248
G01 X93.8075 Y40.8812
G01 X92.1323 Y42.6906
G01 X94.4439
G01 X104.0510 Y32.3137
G01 X104.1238 Y32.2415
G01 X104.2026 Y32.1757
G01 X104.2867 Y32.1170
G01 X104.3755 Y32.0656
G01 X104.4684 Y32.0220
G01 X104.5646 Y31.9864
G01 X104.6635 Y31.9593
G01 X104.7644 Y31.9407
G01 X104.8666 Y31.9307
G01 X104.9692 Y31.9296
G01 X105.0715 Y31.9372
G01 X105.1728 Y31.9535
G01 X105.2723 Y31.9784
G01 X105.3693 Y32.0117
G01 X105.4632 Y32.0532
G01 X105.5531 Y32.1025
G01 X105.6385 Y32.1594
G01 X105.7188 Y32.2233
G01 X105.7933 Y32.2939
G01 X105.8614 Y32.3705
G01 X105.9228 Y32.4527
G01 X105.9770 Y32.5399
G01 X106.0235 Y32.6313
G01 X106.0620 Y32.7264
G01 X106.0923 Y32.8245
G01 X106.1140 Y32.9247
G01 X106.1271 Y33.0265
G01 X106.1315 Y33.1290
G01 Y42.6906
G01 X107.4963
G01 Y41.3546
G01 X107.2563 Y41.3741
M107
G00 Z2.0000


;No. 9: Hole 31
G00 X94.1269 Y28.0577 Z2.0000
G00 Z0.5000
G01 Z-1.2000 F400
M106 S240
G01 X93.9269 Y27.8577 F1000
G01 Y40.0659
G01 X93.9258 Y40.1126
G01 X93.9225 Y40.1591
G01 X93.9171 Y40.2055
G01 X93.9095 Y40.2516
G01 X93.8998 Y40.2972
G01 X93.8879 Y40.3424
G01 X93.8740 Y40.3869
G01 X93.8580 Y40.4307
G01 X93.8399 Y40.4738
G01 X93.8199 Y40.5160
G01 X93.7979 Y40.5571
G01 X93.7741 Y40.5973
G01 X93.7483 Y40.6362
G01 X93.7208 Y40.6739
G01 X93.6916 Y40.7103
G01 X93.6607 Y40.7453
G01 X91.6745 Y42.8906
G01 X94.5313
G01 X104.1977 Y32.4496
G01 X104.2585 Y32.3894
G01 X104.3241 Y32.3346
G01 X104.3942 Y32.2856
G01 X104.4682 Y32.2428
G01 X104.5456 Y32.2065
G01 X104.6258 Y32.1769
G01 X104.7082 Y32.1542
G01 X104.7923 Y32.1387
G01 X104.8774 Y32.1304
G01 X104.9629 Y32.1295
G01 X105.0481 Y32.1358
G01 X105.1326 Y32.1494
G01 X105.2155 Y32.1701
G01 X105.2964 Y32.1979
G01 X105.3746 Y32.2325
G01 X105.4495 Y32.2736
G01 X105.5207 Y32.3210
G01 X105.5876 Y32.3742
G01 X105.6496 Y32.4330
G01 X105.7065 Y32.4969
G01 X105.7576 Y32.5654
G01 X105.8027 Y32.6381
G01 X105.8415 Y32.7143
G01 X105.8736 Y32.7935
G01 X105.8988 Y32.8752
G01 X105.9169 Y32.9588
G01 X105.9279 Y33.0436
G01 X105.9315 Y33.1290
G01 Y42.8906
G01 X107.6963
G01 Y27.8577
G01 X105.5923
G01 X97.4255 Y36.6789
G01 X97.3934 Y36.7119
G01 X97.3599 Y36.7435
G01 X97.3249 Y36.7734
G01 X97.2886 Y36.8018
G01 X97.2511 Y36.8284
G01 X97.2123 Y36.8533
G01 X97.1725 Y36.8763
G01 X97.1316 Y36.8975
G01 X97.0898 Y36.9168
G01 X97.0471 Y36.9342
G01 X97.0037 Y36.9496
G01 X96.9596 Y36.9629
G01 X96.9150 Y36.9742
G01 X96.8699 Y36.9835
G01 X96.8244 Y36.9906
G01 X96.7786 Y36.9957
G01 X96.7327 Y36.9987
G01 X96.6866 Y36.9995
G01 X96.6406 Y36.9982
G01 X96.5947 Y36.9948
G01 X96.5490 Y36.9893
G01 X96.5036 Y36.9816
G01 X96.4586 Y36.9719
G01 X96.4140 Y36.9602
G01 X96.3701 Y36.9464
G01 X96.3269 Y36.9306
G01 X96.2844 Y36.9128
G01 X96.2428 Y36.8931
G01 X96.2021 Y36.8715
G01 X96.1625 Y36.8480
G01 X96.1240 Y36.8227
G01 X96.0867 Y36.7957
G01 X96.0507 Y36.7670
G01 X96.0160 Y36.7367
G01 X95.9828 Y36.7048
G01 X95.9511 Y36.6714
G01 X95.9209 Y36.6366
G01 X95.8924 Y36.6005
G01 X95.8656 Y36.5630
G01 X95.8405 Y36.5244
G01 X95.8173 Y36.4847
G01 X95.7959 Y36.4439
G01 X95.7764 Y36.4022
G01 X95.7588 Y36.3596
G01 X95.7432 Y36.3163
G01 X95.7296 Y36.2723
G01 X95.7181 Y36.2277
G01 X95.7086 Y36.1827
G01 X95.7012 Y36.1372
G01 X95.6959 Y36.0915
G01 X95.6927 Y36.0455
G01 X95.6917 Y35.9995
G01 Y27.8577
G01 X93.9269
G01 X94.1269 Y28.0577
M107
G00 Z0.0000
G00 Z2.0000


;No. 10: Hole 32
G00 X112.3731 Y29.3741 Z2.0000
G00 Z0.5000
G01 Z0.0000 F400
G01 Z-1.2000
M106 S240
G01 X127.9950 F1000
G01 X113.2614
G01 Y30.8741
G01 X112.3731
G01 Y32.3741
G01 X113.2594
G01 Y33.8741
G01 X112.3731
G01 Y35.3741
G01 X113.2594
G01 Y36.8741
G01 X112.3731
G01 Y38.3741
G01 X113.2594
G01 Y39.8741
G01 X112.3731
G01 Y41.3741
G01 X113.2594
G01 X113.4994 Y41.3552
G01 Y30.9257
G01 X113.5031 Y30.8316
G01 X113.5142 Y30.7380
G01 X113.5325 Y30.6456
G01 X113.5581 Y30.5549
G01 X113.5907 Y30.4665
G01 X113.6302 Y30.3809
G01 X113.6762 Y30.2987
G01 X113.7286 Y30.2204
G01 X113.7869 Y30.1464
G01 X113.8508 Y30.0772
G01 X113.9200 Y30.0132
G01 X113.9940 Y29.9549
G01 X114.0724 Y29.9026
G01 X114.1546 Y29.8565
G01 X114.2402 Y29.8171
G01 X114.3286 Y29.7845
G01 X114.4192 Y29.7589
G01 X114.5117 Y29.7405
G01 X114.6052 Y29.7294
G01 X114.6994 Y29.7257
G01 X128.3948
G01 X128.3563 Y29.5985
G01 X128.3105 Y29.4738
G01 X128.2575 Y29.3520
G01 X128.1974 Y29.2334
G01 X128.1306 Y29.1186
G01 X128.0571 Y29.0079
G01 X127.9773 Y28.9016
G01 X127.8915 Y28.8002
G01 X127.7999 Y28.7039
G01 X127.7028 Y28.6132
G01 X127.6006 Y28.5283
G01 X127.4936 Y28.4495
G01 X127.3822 Y28.3771
G01 X127.2667 Y28.3113
G01 X127.1477 Y28.2523
G01 X127.0253 Y28.2004
G01 X126.9002 Y28.1557
G01 X126.7727 Y28.1184
G01 X126.6432 Y28.0886
G01 X126.5122 Y28.0664
G01 X126.4624 Y28.0625
G01 X126.4127 Y28.0598
G01 X126.3628 Y28.0582
G01 X126.3130 Y28.0577
G01 X112.1331
G01 Y42.6906
G01 X113.4994
G01 Y41.3552
G01 X113.2594 Y41.3741
M107
G00 Z2.0000


;No. 11: Hole 32
G00 X112.1331 Y28.0577 Z2.0000
G00 Z0.5000
G01 Z-1.2000 F400
M106 S240
G01 X111.9331 Y27.8577 F1000
G01 Y42.8906
G01 X113.6994
G01 Y30.9257
G01 X113.7025 Y30.8473
G01 X113.7117 Y30.7693
G01 X113.7270 Y30.6923
G01 X113.7483 Y30.6167
G01 X113.7755 Y30.5430
G01 X113.8084 Y30.4717
G01 X113.8467 Y30.4032
G01 X113.8904 Y30.3379
G01 X113.9390 Y30.2763
G01 X113.9923 Y30.2186
G01 X114.0499 Y30.1653
G01 X114.1116 Y30.1167
G01 X114.1769 Y30.0731
G01 X114.2454 Y30.0347
G01 X114.3167 Y30.0018
G01 X114.3904 Y29.9747
G01 X114.4659 Y29.9534
G01 X114.5429 Y29.9380
G01 X114.6209 Y29.9288
G01 X114.6994 Y29.9257
G01 X128.6448
G01 X128.6147 Y29.7777
G01 X128.5758 Y29.6318
G01 X128.5282 Y29.4885
G01 X128.4721 Y29.3483
G01 X128.4078 Y29.2117
G01 X128.3354 Y29.0792
G01 X128.2551 Y28.9513
G01 X128.1674 Y28.8283
G01 X128.0725 Y28.7109
G01 X127.9707 Y28.5994
G01 X127.8624 Y28.4941
G01 X127.7480 Y28.3956
G01 X127.6279 Y28.3040
G01 X127.5025 Y28.2198
G01 X127.3724 Y28.1433
G01 X127.2379 Y28.0747
G01 X127.0995 Y28.0142
G01 X126.9577 Y27.9622
G01 X126.8131 Y27.9187
G01 X126.6661 Y27.8840
G01 X126.5787 Y27.8723
G01 X126.4908 Y27.8640
G01 X126.4027 Y27.8591
G01 X126.3145 Y27.8577
G01 X111.9331
G01 X112.1331 Y28.0577
M107
G00 Z0.0000
G00 Z2.0000


;No. 12: Hole 33
G00 X134.0815 Y39.8741 Z2.0000
G00 Z0.5000
G01 Z0.0000 F400
G01 Z-1.2000
M106 S240
G01 X135.7390 F1000
G01 X135.4703 Y38.3741
G01 X137.1277
G01 X136.8590 Y36.8741
G01 X138.5165
G01 X138.2477 Y35.3741
G01 X139.9052
G01 X139.6364 Y33.8741
G01 X143.0169
G01 X142.7495 Y35.3741
G01 X144.4056
G01 X144.1379 Y36.8741
G01 X145.7944
G01 X145.5263 Y38.3741
G01 X147.1831
G01 X146.9146 Y39.8741
G01 X148.5718
G01 X148.2287 Y41.3741
G01 X149.2718
M107
G00 Z2.0000
G00 X141.8299 Y33.8741
G00 Z0.5000
G01 Z-1.2000 F400
M106 S240
G01 Y32.3741 F1000
G01 X140.8234
G01 X140.8843 Y30.8741
G01 X141.7691
G01 Y29.3741
G01 X140.8843
M107
G00 Z2.0000
G00 X134.4246 Y39.8741
G00 Z0.5000
G01 Z-1.2000 F400
M106 S240
G01 Y41.3741 F1000
G01 X133.3816
G01 X133.1416 Y41.3860
G01 Y42.6906
G01 X134.5064
G01 X134.4926 Y42.5710
G01 X134.4841 Y42.4510
G01 X134.4808 Y42.3307
G01 X134.4828 Y42.2103
G01 X134.4901 Y42.0902
G01 X134.5026 Y41.9705
G01 X134.5204 Y41.8515
G01 X134.5434 Y41.7333
G01 X134.5640 Y41.6616
G01 X134.5891 Y41.5912
G01 X134.6185 Y41.5226
G01 X134.6521 Y41.4559
G01 X134.6898 Y41.3914
G01 X134.7314 Y41.3294
G01 X134.7768 Y41.2701
G01 X134.8258 Y41.2138
G01 X140.4469 Y35.1423
G01 X140.5169 Y35.0726
G01 X140.5925 Y35.0089
G01 X140.6731 Y34.9517
G01 X140.7581 Y34.9012
G01 X140.8470 Y34.8580
G01 X140.9391 Y34.8221
G01 X141.0339 Y34.7940
G01 X141.1306 Y34.7738
G01 X141.2287 Y34.7617
G01 X141.3275 Y34.7576
G01 X141.4263 Y34.7617
G01 X141.5244 Y34.7739
G01 X141.6211 Y34.7941
G01 X141.7159 Y34.8222
G01 X141.8080 Y34.8580
G01 X141.8969 Y34.9013
G01 X141.9819 Y34.9518
G01 X142.0624 Y35.0090
G01 X142.1380 Y35.0727
G01 X142.2081 Y35.1425
G01 X147.8277 Y41.2139
G01 X147.8766 Y41.2702
G01 X147.9220 Y41.3295
G01 X147.9636 Y41.3915
G01 X148.0013 Y41.4560
G01 X148.0349 Y41.5227
G01 X148.0643 Y41.5913
G01 X148.0894 Y41.6616
G01 X148.1100 Y41.7334
G01 X148.1261 Y41.8063
G01 X148.1377 Y41.8801
G01 X148.1447 Y41.9544
G01 X148.1470 Y42.0290
G01 Y42.6906
G01 X149.5118
G01 Y40.5361
G01 X142.3285 Y32.7773
G01 X142.2795 Y32.7210
G01 X142.2341 Y32.6617
G01 X142.1925 Y32.5997
G01 X142.1548 Y32.5352
G01 X142.1212 Y32.4685
G01 X142.0918 Y32.3999
G01 X142.0667 Y32.3295
G01 X142.0461 Y32.2578
G01 X142.0299 Y32.1848
G01 X142.0183 Y32.1111
G01 X142.0114 Y32.0367
G01 X142.0091 Y31.9621
G01 Y28.0577
G01 X140.6443
G01 Y31.9621
G01 X140.6420 Y32.0367
G01 X140.6350 Y32.1111
G01 X140.6234 Y32.1848
G01 X140.6073 Y32.2578
G01 X140.5866 Y32.3295
G01 X140.5616 Y32.3999
G01 X140.5322 Y32.4685
G01 X140.4986 Y32.5352
G01 X140.4609 Y32.5997
G01 X140.4192 Y32.6617
G01 X140.3738 Y32.7210
G01 X140.3248 Y32.7773
G01 X133.1416 Y40.5361
G01 Y41.3860
G01 X133.3816 Y41.3741
M107
G00 Z2.0000


;No. 13: Hole 33
G00 X133.1416 Y40.5361 Z2.0000
G00 Z0.5000
G01 Z-1.2000 F400
M106 S240
G01 X132.9416 Y40.4578 F1000
G01 Y42.8906
G01 X134.7064
G01 X134.6841 Y42.6289
G01 X134.6795 Y42.3664
G01 X134.6928 Y42.1041
G01 X134.7237 Y41.8434
G01 X134.7391 Y41.7751
G01 X134.7593 Y41.7080
G01 X134.7840 Y41.6426
G01 X134.8133 Y41.5790
G01 X134.8470 Y41.5176
G01 X134.8849 Y41.4587
G01 X134.9268 Y41.4027
G01 X134.9726 Y41.3497
G01 X140.5936 Y35.2782
G01 X140.6255 Y35.2454
G01 X140.6588 Y35.2140
G01 X140.6935 Y35.1842
G01 X140.7296 Y35.1560
G01 X140.7669 Y35.1294
G01 X140.8054 Y35.1047
G01 X140.8450 Y35.0817
G01 X140.8855 Y35.0605
G01 X140.9271 Y35.0412
G01 X140.9694 Y35.0239
G01 X141.0125 Y35.0085
G01 X141.0563 Y34.9950
G01 X141.1006 Y34.9836
G01 X141.1454 Y34.9743
G01 X141.1906 Y34.9670
G01 X141.2361 Y34.9618
G01 X141.2817 Y34.9586
G01 X141.3275 Y34.9576
G01 X141.3732 Y34.9586
G01 X141.4189 Y34.9618
G01 X141.4644 Y34.9670
G01 X141.5096 Y34.9743
G01 X141.5544 Y34.9837
G01 X141.5987 Y34.9951
G01 X141.6425 Y35.0085
G01 X141.6856 Y35.0239
G01 X141.7279 Y35.0413
G01 X141.7694 Y35.0606
G01 X141.8100 Y35.0817
G01 X141.8496 Y35.1047
G01 X141.8880 Y35.1295
G01 X141.9254 Y35.1560
G01 X141.9614 Y35.1842
G01 X141.9961 Y35.2141
G01 X142.0295 Y35.2454
G01 X142.0613 Y35.2783
G01 X147.6809 Y41.3498
G01 X147.7118 Y41.3847
G01 X147.7410 Y41.4211
G01 X147.7685 Y41.4588
G01 X147.7942 Y41.4978
G01 X147.8181 Y41.5379
G01 X147.8400 Y41.5791
G01 X147.8601 Y41.6212
G01 X147.8781 Y41.6643
G01 X147.8941 Y41.7081
G01 X147.9080 Y41.7526
G01 X147.9199 Y41.7978
G01 X147.9296 Y41.8434
G01 X147.9372 Y41.8895
G01 X147.9426 Y41.9358
G01 X147.9459 Y41.9824
G01 X147.9470 Y42.0290
G01 Y42.8906
G01 X149.7118
G01 Y40.4578
G01 X142.4753 Y32.6414
G01 X142.4151 Y32.5701
G01 X142.3619 Y32.4934
G01 X142.3161 Y32.4121
G01 X142.2780 Y32.3269
G01 X142.2480 Y32.2385
G01 X142.2264 Y32.1477
G01 X142.2134 Y32.0553
G01 X142.2091 Y31.9621
G01 Y27.8577
G01 X140.4443
G01 Y31.9621
G01 X140.4432 Y32.0087
G01 X140.4399 Y32.0553
G01 X140.4345 Y32.1017
G01 X140.4269 Y32.1477
G01 X140.4172 Y32.1934
G01 X140.4053 Y32.2385
G01 X140.3914 Y32.2831
G01 X140.3754 Y32.3269
G01 X140.3573 Y32.3700
G01 X140.3373 Y32.4121
G01 X140.3153 Y32.4533
G01 X140.2914 Y32.4934
G01 X140.2657 Y32.5324
G01 X140.2382 Y32.5701
G01 X140.2090 Y32.6065
G01 X140.1781 Y32.6414
G01 X132.9416 Y40.4578
G01 X133.1416 Y40.5361
M107
G00 Z0.0000
G00 Z2.0000


;No. 14: Helical drill 3
G00 X186.8568 Y34.2919 Z2.0000
G00 Z0.5000
M106 S240
G01 X186.8530 Y34.2048 Z0.4722 F400
G01 X186.8416 Y34.1183 Z0.4444
G01 X186.8227 Y34.0331 Z0.4167
G01 X186.7965 Y33.9499 Z0.3889
G01 X186.7631 Y33.8693 Z0.3611
G01 X186.7228 Y33.7919 Z0.3333
G01 X186.6760 Y33.7184 Z0.3056
G01 X186.6228 Y33.6491 Z0.2778
G01 X186.5639 Y33.5848 Z0.2500
G01 X186.4996 Y33.5259 Z0.2222
G01 X186.4304 Y33.4728 Z0.1944
G01 X186.3568 Y33.4259 Z0.1667
G01 X186.2794 Y33.3856 Z0.1389
G01 X186.1988 Y33.3522 Z0.1111
G01 X186.1156 Y33.3260 Z0.0833
G01 X186.0305 Y33.3071 Z0.0556
G01 X185.9440 Y33.2957 Z0.0278
G01 X185.8568 Y33.2919 Z0.0000
G01 X185.7696 Y33.2957 Z-0.0278
G01 X185.6832 Y33.3071 Z-0.0556
G01 X185.5980 Y33.3260 Z-0.0833
G01 X185.5148 Y33.3522 Z-0.1111
G01 X185.4342 Y33.3856 Z-0.1389
G01 X185.3568 Y33.4259 Z-0.1667
G01 X185.2832 Y33.4728 Z-0.1944
G01 X185.2140 Y33.5259 Z-0.2222
G01 X185.1497 Y33.5848 Z-0.2500
G01 X185.0908 Y33.6491 Z-0.2778
G01 X185.0377 Y33.7184 Z-0.3056
G01 X184.9908 Y33.7919 Z-0.3333
G01 X184.9505 Y33.8693 Z-0.3611
G01 X184.9171 Y33.9499 Z-0.3889
G01 X184.8909 Y34.0331 Z-0.4167
G01 X184.8720 Y34.1183 Z-0.4444
G01 X184.8606 Y34.2048 Z-0.4722
G01 X184.8568 Y34.2919 Z-0.5000
G01 X184.8606 Y34.3791 Z-0.5278
G01 X184.8720 Y34.4656 Z-0.5556
G01 X184.8909 Y34.5507 Z-0.5833
G01 X184.9171 Y34.6340 Z-0.6111
G01 X184.9505 Y34.7145 Z-0.6389
G01 X184.9908 Y34.7919 Z-0.6667
G01 X185.0377 Y34.8655 Z-0.6944
G01 X185.0908 Y34.9347 Z-0.7222
G01 X185.1497 Y34.9990 Z-0.7500
G01 X185.2140 Y35.0580 Z-0.7778
G01 X185.2832 Y35.1111 Z-0.8056
G01 X185.3568 Y35.1580 Z-0.8333
G01 X185.4342 Y35.1982 Z-0.8611
G01 X185.5148 Y35.2316 Z-0.8889
G01 X185.5980 Y35.2579 Z-0.9167
G01 X185.6832 Y35.2767 Z-0.9444
G01 X185.7696 Y35.2881 Z-0.9722
G01 X185.8568 Y35.2919 Z-1.0000
G01 X185.9440 Y35.2881 Z-1.0278
G01 X186.0305 Y35.2767 Z-1.0556
G01 X186.1156 Y35.2579 Z-1.0833
G01 X186.1988 Y35.2316 Z-1.1111
G01 X186.2794 Y35.1982 Z-1.1389
G01 X186.3568 Y35.1580 Z-1.1667
G01 X186.4304 Y35.1111 Z-1.1944
G01 X186.4996 Y35.0580 Z-1.2222
G01 X186.5639 Y34.9990 Z-1.2500
G01 X186.6228 Y34.9347 Z-1.2778
G01 X186.6760 Y34.8655 Z-1.3056
G01 X186.7228 Y34.7919 Z-1.3333
G01 X186.7631 Y34.7145 Z-1.3611
G01 X186.7965 Y34.6340 Z-1.3889
G01 X186.8227 Y34.5507 Z-1.4167
G01 X186.8416 Y34.4656 Z-1.4444
G01 X186.8530 Y34.3791 Z-1.4722
G01 X186.8568 Y34.2919 Z-1.5000
G01 X186.8530 Y34.2048
G01 X186.8416 Y34.1183
G01 X186.8227 Y34.0331
G01 X186.7965 Y33.9499
G01 X186.7631 Y33.8693
G01 X186.7228 Y33.7919
G01 X186.6760 Y33.7184
G01 X186.6228 Y33.6491
G01 X186.5639 Y33.5848
G01 X186.4996 Y33.5259
G01 X186.4304 Y33.4728
G01 X186.3568 Y33.4259
G01 X186.2794 Y33.3856
G01 X186.1988 Y33.3522
G01 X186.1156 Y33.3260
G01 X186.0305 Y33.3071
G01 X185.9440 Y33.2957
G01 X185.8568 Y33.2919
G01 X185.7696 Y33.2957
G01 X185.6832 Y33.3071
G01 X185.5980 Y33.3260
G01 X185.5148 Y33.3522
G01 X185.4342 Y33.3856
G01 X185.3568 Y33.4259
G01 X185.2832 Y33.4728
G01 X185.2140 Y33.5259
G01 X185.1497 Y33.5848
G01 X185.0908 Y33.6491
G01 X185.0377 Y33.7184
G01 X184.9908 Y33.7919
G01 X184.9505 Y33.8693
G01 X184.9171 Y33.9499
G01 X184.8909 Y34.0331
G01 X184.8720 Y34.1183
G01 X184.8606 Y34.2048
G01 X184.8568 Y34.2919
G01 X184.8606 Y34.3791
G01 X184.8720 Y34.4656
G01 X184.8909 Y34.5507
G01 X184.9171 Y34.6340
G01 X184.9505 Y34.7145
G01 X184.9908 Y34.7919
G01 X185.0377 Y34.8655
G01 X185.0908 Y34.9347
G01 X185.1497 Y34.9990
G01 X185.2140 Y35.0580
G01 X185.2832 Y35.1111
G01 X185.3568 Y35.1580
G01 X185.4342 Y35.1982
G01 X185.5148 Y35.2316
G01 X185.5980 Y35.2579
G01 X185.6832 Y35.2767
G01 X185.7696 Y35.2881
G01 X185.8568 Y35.2919
G01 X185.9440 Y35.2881
G01 X186.0305 Y35.2767
G01 X186.1156 Y35.2579
G01 X186.1988 Y35.2316
G01 X186.2794 Y35.1982
G01 X186.3568 Y35.1580
G01 X186.4304 Y35.1111
G01 X186.4996 Y35.0580
G01 X186.5639 Y34.9990
G01 X186.6228 Y34.9347
G01 X186.6760 Y34.8655
G01 X186.7228 Y34.7919
G01 X186.7631 Y34.7145
G01 X186.7965 Y34.6340
G01 X186.8227 Y34.5507
G01 X186.8416 Y34.4656
G01 X186.8530 Y34.3791
G01 X186.8568 Y34.2919
G01 X186.8676 Y34.2403 F1000
G01 X186.8756 Y34.1883
G01 X186.8810 Y34.1358
G01 X186.8837 Y34.0832
G01 Y34.0305
G01 X186.8809 Y33.9779
G01 X186.8754 Y33.9254
G01 X186.8673 Y33.8734
G01 X186.8556 Y33.8174
G01 X186.8410 Y33.7621
G01 X186.8236 Y33.7076
G01 X186.8035 Y33.6540
G01 X186.7807 Y33.6016
G01 X186.7552 Y33.5504
G01 X186.7271 Y33.5006
G01 X186.6965 Y33.4522
G01 X186.6609 Y33.4018
G01 X186.6228 Y33.3533
G01 X186.5822 Y33.3068
G01 X186.5394 Y33.2624
G01 X186.4943 Y33.2202
G01 X186.4472 Y33.1804
G01 X186.3981 Y33.1430
G01 X186.3471 Y33.1082
G01 X186.2906 Y33.0736
G01 X186.2325 Y33.0420
G01 X186.1728 Y33.0133
G01 X186.1117 Y32.9877
G01 X186.0494 Y32.9652
G01 X185.9860 Y32.9458
G01 X185.9218 Y32.9298
G01 X185.8568 Y32.9169
G01 X185.7872 Y32.9087
G01 X185.7172 Y32.9040
G01 X185.6471 Y32.9028
G01 X185.5771 Y32.9050
G01 X185.5072 Y32.9108
G01 X185.4377 Y32.9201
G01 X185.3688 Y32.9328
G01 X185.3006 Y32.9490
G01 X185.2353 Y32.9779
G01 X185.1716 Y33.0100
G01 X185.1095 Y33.0452
G01 X185.0493 Y33.0833
G01 X184.9909 Y33.1244
G01 X184.9347 Y33.1683
G01 X184.8807 Y33.2149
G01 X184.8290 Y33.2641
G01 X184.7798 Y33.3158
G01 X184.7332 Y33.3698
G01 X184.6893 Y33.4260
G01 X184.6482 Y33.4844
G01 X184.6100 Y33.5447
G01 X184.5749 Y33.6067
G01 X184.5428 Y33.6705
G01 X184.5139 Y33.7357
G01 X184.4882 Y33.8022
G01 X184.4658 Y33.8700
G01 X184.4468 Y33.9387
G01 X184.4312 Y34.0084
G01 X184.4190 Y34.0787
G01 X184.4102 Y34.1495
G01 X184.4050 Y34.2206
G01 X184.4032 Y34.2919
G01 X184.4050 Y34.3633
G01 X184.4102 Y34.4344
G01 X184.4190 Y34.5052
G01 X184.4312 Y34.5755
G01 X184.4468 Y34.6451
G01 X184.4658 Y34.7139
G01 X184.4882 Y34.7816
G01 X184.5139 Y34.8482
G01 X184.5428 Y34.9134
G01 X184.5749 Y34.9771
G01 X184.6100 Y35.0392
G01 X184.6482 Y35.0995
G01 X184.6893 Y35.1578
G01 X184.7332 Y35.2141
G01 X184.7798 Y35.2681
G01 X184.8290 Y35.3197
G01 X184.8807 Y35.3689
G01 X184.9347 Y35.4155
G01 X184.9909 Y35.4594
G01 X185.0493 Y35.5005
G01 X185.1095 Y35.5387
G01 X185.1716 Y35.5739
G01 X185.2353 Y35.6059
G01 X185.3006 Y35.6348
G01 X185.3671 Y35.6605
G01 X185.4349 Y35.6829
G01 X185.5036 Y35.7019
G01 X185.5732 Y35.7176
G01 X185.6435 Y35.7298
G01 X185.7143 Y35.7385
G01 X185.7855 Y35.7437
G01 X185.8568 Y35.7455
G01 X185.9281 Y35.7437
G01 X185.9993 Y35.7385
G01 X186.0701 Y35.7298
G01 X186.1404 Y35.7176
G01 X186.2100 Y35.7019
G01 X186.2787 Y35.6829
G01 X186.3465 Y35.6605
G01 X186.4131 Y35.6348
G01 X186.4783 Y35.6059
G01 X186.5420 Y35.5739
G01 X186.6041 Y35.5387
G01 X186.6644 Y35.5005
G01 X186.7227 Y35.4594
G01 X186.7789 Y35.4155
G01 X186.8330 Y35.3689
G01 X186.8846 Y35.3197
G01 X186.9338 Y35.2681
G01 X186.9804 Y35.2141
G01 X187.0243 Y35.1578
G01 X187.0654 Y35.0995
G01 X187.1036 Y35.0392
G01 X187.1387 Y34.9771
G01 X187.1708 Y34.9134
G01 X187.1997 Y34.8482
G01 X187.2254 Y34.7816
G01 X187.2478 Y34.7139
G01 X187.2668 Y34.6451
G01 X187.2824 Y34.5755
G01 X187.2946 Y34.5052
G01 X187.3034 Y34.4344
G01 X187.3086 Y34.3633
G01 X187.3104 Y34.2919
G01 X187.3063 Y34.1833
G01 X187.2941 Y34.0753
G01 X187.2739 Y33.9685
G01 X187.2458 Y33.8635
G01 X187.2099 Y33.7609
G01 X187.1664 Y33.6613
G01 X187.1156 Y33.5652
G01 X187.0578 Y33.4731
G01 X186.9932 Y33.3857
G01 X186.9223 Y33.3033
G01 X186.8455 Y33.2264
G01 X186.7631 Y33.1555
G01 X186.6756 Y33.0909
G01 X186.5836 Y33.0331
G01 X186.4875 Y32.9823
G01 X186.3878 Y32.9389
G01 X186.2852 Y32.9030
G01 X186.1803 Y32.8748
G01 X186.0734 Y32.8546
G01 X185.9654 Y32.8424
G01 X185.8568 Y32.8384
G01 X185.7482 Y32.8424
G01 X185.6402 Y32.8546
G01 X185.5334 Y32.8748
G01 X185.4284 Y32.9030
G01 X185.3258 Y32.9389
G01 X185.2261 Y32.9823
G01 X185.1300 Y33.0331
G01 X185.0380 Y33.0909
G01 X184.9505 Y33.1555
G01 X184.8681 Y33.2264
G01 X184.7913 Y33.3033
G01 X184.7204 Y33.3857
G01 X184.6558 Y33.4731
G01 X184.5980 Y33.5652
G01 X184.5472 Y33.6613
G01 X184.5037 Y33.7609
G01 X184.4678 Y33.8635
G01 X184.4397 Y33.9685
G01 X184.4195 Y34.0753
G01 X184.4073 Y34.1833
G01 X184.4032 Y34.2919
G01 X184.4073 Y34.4006
G01 X184.4195 Y34.5086
G01 X184.4397 Y34.6154
G01 X184.4678 Y34.7204
G01 X184.5037 Y34.8230
G01 X184.5472 Y34.9226
G01 X184.5980 Y35.0187
G01 X184.6558 Y35.1107
G01 X184.7204 Y35.1982
G01 X184.7913 Y35.2806
G01 X184.8681 Y35.3575
G01 X184.9505 Y35.4284
G01 X185.0380 Y35.4929
G01 X185.1300 Y35.5507
G01 X185.2261 Y35.6015
G01 X185.3258 Y35.6450
G01 X185.4284 Y35.6809
G01 X185.5334 Y35.7090
G01 X185.6402 Y35.7293
G01 X185.7482 Y35.7414
G01 X185.8568 Y35.7455
G01 X185.9654 Y35.7414
G01 X186.0734 Y35.7293
G01 X186.1803 Y35.7090
G01 X186.2852 Y35.6809
G01 X186.3878 Y35.6450
G01 X186.4875 Y35.6015
G01 X186.5836 Y35.5507
G01 X186.6756 Y35.4929
G01 X186.7631 Y35.4284
G01 X186.8455 Y35.3575
G01 X186.9223 Y35.2806
G01 X186.9932 Y35.1982
G01 X187.0578 Y35.1107
G01 X187.1156 Y35.0187
G01 X187.1664 Y34.9226
G01 X187.2099 Y34.8230
G01 X187.2458 Y34.7204
G01 X187.2739 Y34.6154
G01 X187.2941 Y34.5086
G01 X187.3063 Y34.4006
G01 X187.3104 Y34.2919
G01 X187.3066 Y34.1957
G01 X187.2953 Y34.1000
G01 X187.2765 Y34.0055
G01 X187.2503 Y33.9128
G01 X187.2170 Y33.8225
G01 X187.1766 Y33.7350
G01 X187.1296 Y33.6509
G01 X187.0761 Y33.5708
G01 X187.0164 Y33.4952
G01 X186.9510 Y33.4245
G01 X186.8803 Y33.3591
G01 X186.8047 Y33.2994
G01 X186.7246 Y33.2459
G01 X186.6405 Y33.1989
G01 X186.5530 Y33.1585
G01 X186.4627 Y33.1252
G01 X186.3700 Y33.0990
G01 X186.2755 Y33.0803
G01 X186.1798 Y33.0689
G01 X186.0836 Y33.0652
G01 X185.9873 Y33.0689
G01 X185.8917 Y33.0803
G01 X185.7972 Y33.0990
G01 X185.7045 Y33.1252
G01 X185.6141 Y33.1585
G01 X185.5266 Y33.1989
G01 X185.4426 Y33.2459
G01 X185.3625 Y33.2994
G01 X185.2869 Y33.3591
G01 X185.2161 Y33.4245
G01 X185.1507 Y33.4952
G01 X185.0911 Y33.5708
G01 X185.0376 Y33.6509
G01 X184.9905 Y33.7350
G01 X184.9502 Y33.8225
G01 X184.9168 Y33.9128
G01 X184.8907 Y34.0055
G01 X184.8719 Y34.1000
G01 X184.8606 Y34.1957
G01 X184.8568 Y34.2919
G01 X184.8606 Y34.3791
G01 X184.8720 Y34.4656
G01 X184.8909 Y34.5507
G01 X184.9171 Y34.6340
G01 X184.9505 Y34.7145
G01 X184.9908 Y34.7919
G01 X185.0377 Y34.8655
G01 X185.0908 Y34.9347
G01 X185.1497 Y34.9990
G01 X185.2140 Y35.0580
G01 X185.2832 Y35.1111
G01 X185.3568 Y35.1580
G01 X185.4342 Y35.1982
G01 X185.5148 Y35.2316
G01 X185.5980 Y35.2579
G01 X185.6832 Y35.2767
G01 X185.7696 Y35.2881
G01 X185.8568 Y35.2919
G01 X185.9440 Y35.2881
G01 X186.0305 Y35.2767
G01 X186.1156 Y35.2579
G01 X186.1988 Y35.2316
G01 X186.2794 Y35.1982
G01 X186.3568 Y35.1580
G01 X186.4304 Y35.1111
G01 X186.4996 Y35.0580
G01 X186.5639 Y34.9990
G01 X186.6228 Y34.9347
G01 X186.6760 Y34.8655
G01 X186.7228 Y34.7919
G01 X186.7631 Y34.7145
G01 X186.7965 Y34.6340
G01 X186.8227 Y34.5507
G01 X186.8416 Y34.4656
G01 X186.8530 Y34.3791
G01 X186.8568 Y34.2919
M107
M106 S240
G01 X186.8530 Y34.2048 Z-1.5278 F400
G01 X186.8416 Y34.1183 Z-1.5556
G01 X186.8227 Y34.0331 Z-1.5833
G01 X186.7965 Y33.9499 Z-1.6111
G01 X186.7631 Y33.8693 Z-1.6389
G01 X186.7228 Y33.7919 Z-1.6667
G01 X186.6760 Y33.7184 Z-1.6944
G01 X186.6228 Y33.6491 Z-1.7222
G01 X186.5639 Y33.5848 Z-1.7500
G01 X186.4996 Y33.5259 Z-1.7778
G01 X186.4304 Y33.4728 Z-1.8056
G01 X186.3568 Y33.4259 Z-1.8333
G01 X186.2794 Y33.3856 Z-1.8611
G01 X186.1988 Y33.3522 Z-1.8889
G01 X186.1156 Y33.3260 Z-1.9167
G01 X186.0305 Y33.3071 Z-1.9444
G01 X185.9440 Y33.2957 Z-1.9722
G01 X185.8568 Y33.2919 Z-2.0000
G01 X185.7696 Y33.2957 Z-2.0278
G01 X185.6832 Y33.3071 Z-2.0556
G01 X185.5980 Y33.3260 Z-2.0833
G01 X185.5148 Y33.3522 Z-2.1111
G01 X185.4342 Y33.3856 Z-2.1389
G01 X185.3568 Y33.4259 Z-2.1667
G01 X185.2832 Y33.4728 Z-2.1944
G01 X185.2140 Y33.5259 Z-2.2222
G01 X185.1497 Y33.5848 Z-2.2500
G01 X185.0908 Y33.6491 Z-2.2778
G01 X185.0377 Y33.7184 Z-2.3056
G01 X184.9908 Y33.7919 Z-2.3333
G01 X184.9505 Y33.8693 Z-2.3611
G01 X184.9171 Y33.9499 Z-2.3889
G01 X184.8909 Y34.0331 Z-2.4167
G01 X184.8720 Y34.1183 Z-2.4444
G01 X184.8606 Y34.2048 Z-2.4722
G01 X184.8568 Y34.2919 Z-2.5000
G01 X184.8606 Y34.3791 Z-2.5278
G01 X184.8720 Y34.4656 Z-2.5556
G01 X184.8909 Y34.5507 Z-2.5833
G01 X184.9171 Y34.6340 Z-2.6111
G01 X184.9505 Y34.7145 Z-2.6389
G01 X184.9908 Y34.7919 Z-2.6667
G01 X185.0377 Y34.8655 Z-2.6944
G01 X185.0908 Y34.9347 Z-2.7222
G01 X185.1497 Y34.9990 Z-2.7500
G01 X185.2140 Y35.0580 Z-2.7778
G01 X185.2832 Y35.1111 Z-2.8056
G01 X185.3568 Y35.1580 Z-2.8333
G01 X185.4342 Y35.1982 Z-2.8611
G01 X185.5148 Y35.2316 Z-2.8889
G01 X185.5980 Y35.2579 Z-2.9167
G01 X185.6832 Y35.2767 Z-2.9444
G01 X185.7696 Y35.2881 Z-2.9722
G01 X185.8568 Y35.2919 Z-3.0000
G01 X185.9440 Y35.2881 Z-3.0278
G01 X186.0305 Y35.2767 Z-3.0556
G01 X186.1156 Y35.2579 Z-3.0833
G01 X186.1988 Y35.2316 Z-3.1111
G01 X186.2794 Y35.1982 Z-3.1389
G01 X186.3568 Y35.1580 Z-3.1667
G01 X186.4304 Y35.1111 Z-3.1944
G01 X186.4996 Y35.0580 Z-3.2222
G01 X186.5639 Y34.9990 Z-3.2500
G01 X186.6228 Y34.9347 Z-3.2778
G01 X186.6760 Y34.8655 Z-3.3056
G01 X186.7228 Y34.7919 Z-3.3333
G01 X186.7631 Y34.7145 Z-3.3611
G01 X186.7965 Y34.6340 Z-3.3889
G01 X186.8227 Y34.5507 Z-3.4167
G01 X186.8416 Y34.4656 Z-3.4444
G01 X186.8530 Y34.3791 Z-3.4722
G01 X186.8568 Y34.2919 Z-3.5000
G01 X186.8530 Y34.2048
G01 X186.8416 Y34.1183
G01 X186.8227 Y34.0331
G01 X186.7965 Y33.9499
G01 X186.7631 Y33.8693
G01 X186.7228 Y33.7919
G01 X186.6760 Y33.7184
G01 X186.6228 Y33.6491
G01 X186.5639 Y33.5848
G01 X186.4996 Y33.5259
G01 X186.4304 Y33.4728
G01 X186.3568 Y33.4259
G01 X186.2794 Y33.3856
G01 X186.1988 Y33.3522
G01 X186.1156 Y33.3260
G01 X186.0305 Y33.3071
G01 X185.9440 Y33.2957
G01 X185.8568 Y33.2919
G01 X185.7696 Y33.2957
G01 X185.6832 Y33.3071
G01 X185.5980 Y33.3260
G01 X185.5148 Y33.3522
G01 X185.4342 Y33.3856
G01 X185.3568 Y33.4259
G01 X185.2832 Y33.4728
G01 X185.2140 Y33.5259
G01 X185.1497 Y33.5848
G01 X185.0908 Y33.6491
G01 X185.0377 Y33.7184
G01 X184.9908 Y33.7919
G01 X184.9505 Y33.8693
G01 X184.9171 Y33.9499
G01 X184.8909 Y34.0331
G01 X184.8720 Y34.1183
G01 X184.8606 Y34.2048
G01 X184.8568 Y34.2919
G01 X184.8606 Y34.3791
G01 X184.8720 Y34.4656
G01 X184.8909 Y34.5507
G01 X184.9171 Y34.6340
G01 X184.9505 Y34.7145
G01 X184.9908 Y34.7919
G01 X185.0377 Y34.8655
G01 X185.0908 Y34.9347
G01 X185.1497 Y34.9990
G01 X185.2140 Y35.0580
G01 X185.2832 Y35.1111
G01 X185.3568 Y35.1580
G01 X185.4342 Y35.1982
G01 X185.5148 Y35.2316
G01 X185.5980 Y35.2579
G01 X185.6832 Y35.2767
G01 X185.7696 Y35.2881
G01 X185.8568 Y35.2919
G01 X185.9440 Y35.2881
G01 X186.0305 Y35.2767
G01 X186.1156 Y35.2579
G01 X186.1988 Y35.2316
G01 X186.2794 Y35.1982
G01 X186.3568 Y35.1580
G01 X186.4304 Y35.1111
G01 X186.4996 Y35.0580
G01 X186.5639 Y34.9990
G01 X186.6228 Y34.9347
G01 X186.6760 Y34.8655
G01 X186.7228 Y34.7919
G01 X186.7631 Y34.7145
G01 X186.7965 Y34.6340
G01 X186.8227 Y34.5507
G01 X186.8416 Y34.4656
G01 X186.8530 Y34.3791
G01 X186.8568 Y34.2919
G01 X186.8676 Y34.2403 F1000
G01 X186.8756 Y34.1883
G01 X186.8810 Y34.1358
G01 X186.8837 Y34.0832
G01 Y34.0305
G01 X186.8809 Y33.9779
G01 X186.8754 Y33.9254
G01 X186.8673 Y33.8734
G01 X186.8556 Y33.8174
G01 X186.8410 Y33.7621
G01 X186.8236 Y33.7076
G01 X186.8035 Y33.6540
G01 X186.7807 Y33.6016
G01 X186.7552 Y33.5504
G01 X186.7271 Y33.5006
G01 X186.6965 Y33.4522
G01 X186.6609 Y33.4018
G01 X186.6228 Y33.3533
G01 X186.5822 Y33.3068
G01 X186.5394 Y33.2624
G01 X186.4943 Y33.2202
G01 X186.4472 Y33.1804
G01 X186.3981 Y33.1430
G01 X186.3471 Y33.1082
G01 X186.2906 Y33.0736
G01 X186.2325 Y33.0420
G01 X186.1728 Y33.0133
G01 X186.1117 Y32.9877
G01 X186.0494 Y32.9652
G01 X185.9860 Y32.9458
G01 X185.9218 Y32.9298
G01 X185.8568 Y32.9169
G01 X185.7872 Y32.9087
G01 X185.7172 Y32.9040
G01 X185.6471 Y32.9028
G01 X185.5771 Y32.9050
G01 X185.5072 Y32.9108
G01 X185.4377 Y32.9201
G01 X185.3688 Y32.9328
G01 X185.3006 Y32.9490
G01 X185.2353 Y32.9779
G01 X185.1716 Y33.0100
G01 X185.1095 Y33.0452
G01 X185.0493 Y33.0833
G01 X184.9909 Y33.1244
G01 X184.9347 Y33.1683
G01 X184.8807 Y33.2149
G01 X184.8290 Y33.2641
G01 X184.7798 Y33.3158
G01 X184.7332 Y33.3698
G01 X184.6893 Y33.4260
G01 X184.6482 Y33.4844
G01 X184.6100 Y33.5447
G01 X184.5749 Y33.6067
G01 X184.5428 Y33.6705
G01 X184.5139 Y33.7357
G01 X184.4882 Y33.8022
G01 X184.4658 Y33.8700
G01 X184.4468 Y33.9387
G01 X184.4312 Y34.0084
G01 X184.4190 Y34.0787
G01 X184.4102 Y34.1495
G01 X184.4050 Y34.2206
G01 X184.4032 Y34.2919
G01 X184.4050 Y34.3633
G01 X184.4102 Y34.4344
G01 X184.4190 Y34.5052
G01 X184.4312 Y34.5755
G01 X184.4468 Y34.6451
G01 X184.4658 Y34.7139
G01 X184.4882 Y34.7816
G01 X184.5139 Y34.8482
G01 X184.5428 Y34.9134
G01 X184.5749 Y34.9771
G01 X184.6100 Y35.0392
G01 X184.6482 Y35.0995
G01 X184.6893 Y35.1578
G01 X184.7332 Y35.2141
G01 X184.7798 Y35.2681
G01 X184.8290 Y35.3197
G01 X184.8807 Y35.3689
G01 X184.9347 Y35.4155
G01 X184.9909 Y35.4594
G01 X185.0493 Y35.5005
G01 X185.1095 Y35.5387
G01 X185.1716 Y35.5739
G01 X185.2353 Y35.6059
G01 X185.3006 Y35.6348
G01 X185.3671 Y35.6605
G01 X185.4349 Y35.6829
G01 X185.5036 Y35.7019
G01 X185.5732 Y35.7176
G01 X185.6435 Y35.7298
G01 X185.7143 Y35.7385
G01 X185.7855 Y35.7437
G01 X185.8568 Y35.7455
G01 X185.9281 Y35.7437
G01 X185.9993 Y35.7385
G01 X186.0701 Y35.7298
G01 X186.1404 Y35.7176
G01 X186.2100 Y35.7019
G01 X186.2787 Y35.6829
G01 X186.3465 Y35.6605
G01 X186.4131 Y35.6348
G01 X186.4783 Y35.6059
G01 X186.5420 Y35.5739
G01 X186.6041 Y35.5387
G01 X186.6644 Y35.5005
G01 X186.7227 Y35.4594
G01 X186.7789 Y35.4155
G01 X186.8330 Y35.3689
G01 X186.8846 Y35.3197
G01 X186.9338 Y35.2681
G01 X186.9804 Y35.2141
G01 X187.0243 Y35.1578
G01 X187.0654 Y35.0995
G01 X187.1036 Y35.0392
G01 X187.1387 Y34.9771
G01 X187.1708 Y34.9134
G01 X187.1997 Y34.8482
G01 X187.2254 Y34.7816
G01 X187.2478 Y34.7139
G01 X187.2668 Y34.6451
G01 X187.2824 Y34.5755
G01 X187.2946 Y34.5052
G01 X187.3034 Y34.4344
G01 X187.3086 Y34.3633
G01 X187.3104 Y34.2919
G01 X187.3063 Y34.1833
G01 X187.2941 Y34.0753
G01 X187.2739 Y33.9685
G01 X187.2458 Y33.8635
G01 X187.2099 Y33.7609
G01 X187.1664 Y33.6613
G01 X187.1156 Y33.5652
G01 X187.0578 Y33.4731
G01 X186.9932 Y33.3857
G01 X186.9223 Y33.3033
G01 X186.8455 Y33.2264
G01 X186.7631 Y33.1555
G01 X186.6756 Y33.0909
G01 X186.5836 Y33.0331
G01 X186.4875 Y32.9823
G01 X186.3878 Y32.9389
G01 X186.2852 Y32.9030
G01 X186.1803 Y32.8748
G01 X186.0734 Y32.8546
G01 X185.9654 Y32.8424
G01 X185.8568 Y32.8384
G01 X185.7482 Y32.8424
G01 X185.6402 Y32.8546
G01 X185.5334 Y32.8748
G01 X185.4284 Y32.9030
G01 X185.3258 Y32.9389
G01 X185.2261 Y32.9823
G01 X185.1300 Y33.0331
G01 X185.0380 Y33.0909
G01 X184.9505 Y33.1555
G01 X184.8681 Y33.2264
G01 X184.7913 Y33.3033
G01 X184.7204 Y33.3857
G01 X184.6558 Y33.4731
G01 X184.5980 Y33.5652
G01 X184.5472 Y33.6613
G01 X184.5037 Y33.7609
G01 X184.4678 Y33.8635
G01 X184.4397 Y33.9685
G01 X184.4195 Y34.0753
G01 X184.4073 Y34.1833
G01 X184.4032 Y34.2919
G01 X184.4073 Y34.4006
G01 X184.4195 Y34.5086
G01 X184.4397 Y34.6154
G01 X184.4678 Y34.7204
G01 X184.5037 Y34.8230
G01 X184.5472 Y34.9226
G01 X184.5980 Y35.0187
G01 X184.6558 Y35.1107
G01 X184.7204 Y35.1982
G01 X184.7913 Y35.2806
G01 X184.8681 Y35.3575
G01 X184.9505 Y35.4284
G01 X185.0380 Y35.4929
G01 X185.1300 Y35.5507
G01 X185.2261 Y35.6015
G01 X185.3258 Y35.6450
G01 X185.4284 Y35.6809
G01 X185.5334 Y35.7090
G01 X185.6402 Y35.7293
G01 X185.7482 Y35.7414
G01 X185.8568 Y35.7455
G01 X185.9654 Y35.7414
G01 X186.0734 Y35.7293
G01 X186.1803 Y35.7090
G01 X186.2852 Y35.6809
G01 X186.3878 Y35.6450
G01 X186.4875 Y35.6015
G01 X186.5836 Y35.5507
G01 X186.6756 Y35.4929
G01 X186.7631 Y35.4284
G01 X186.8455 Y35.3575
G01 X186.9223 Y35.2806
G01 X186.9932 Y35.1982
G01 X187.0578 Y35.1107
G01 X187.1156 Y35.0187
G01 X187.1664 Y34.9226
G01 X187.2099 Y34.8230
G01 X187.2458 Y34.7204
G01 X187.2739 Y34.6154
G01 X187.2941 Y34.5086
G01 X187.3063 Y34.4006
G01 X187.3104 Y34.2919
G01 X187.3066 Y34.1957
G01 X187.2953 Y34.1000
G01 X187.2765 Y34.0055
G01 X187.2503 Y33.9128
G01 X187.2170 Y33.8225
G01 X187.1766 Y33.7350
G01 X187.1296 Y33.6509
G01 X187.0761 Y33.5708
G01 X187.0164 Y33.4952
G01 X186.9510 Y33.4245
G01 X186.8803 Y33.3591
G01 X186.8047 Y33.2994
G01 X186.7246 Y33.2459
G01 X186.6405 Y33.1989
G01 X186.5530 Y33.1585
G01 X186.4627 Y33.1252
G01 X186.3700 Y33.0990
G01 X186.2755 Y33.0803
G01 X186.1798 Y33.0689
G01 X186.0836 Y33.0652
G01 X185.9873 Y33.0689
G01 X185.8917 Y33.0803
G01 X185.7972 Y33.0990
G01 X185.7045 Y33.1252
G01 X185.6141 Y33.1585
G01 X185.5266 Y33.1989
G01 X185.4426 Y33.2459
G01 X185.3625 Y33.2994
G01 X185.2869 Y33.3591
G01 X185.2161 Y33.4245
G01 X185.1507 Y33.4952
G01 X185.0911 Y33.5708
G01 X185.0376 Y33.6509
G01 X184.9905 Y33.7350
G01 X184.9502 Y33.8225
G01 X184.9168 Y33.9128
G01 X184.8907 Y34.0055
G01 X184.8719 Y34.1000
G01 X184.8606 Y34.1957
G01 X184.8568 Y34.2919
G01 X184.8606 Y34.3791
G01 X184.8720 Y34.4656
G01 X184.8909 Y34.5507
G01 X184.9171 Y34.6340
G01 X184.9505 Y34.7145
G01 X184.9908 Y34.7919
G01 X185.0377 Y34.8655
G01 X185.0908 Y34.9347
G01 X185.1497 Y34.9990
G01 X185.2140 Y35.0580
G01 X185.2832 Y35.1111
G01 X185.3568 Y35.1580
G01 X185.4342 Y35.1982
G01 X185.5148 Y35.2316
G01 X185.5980 Y35.2579
G01 X185.6832 Y35.2767
G01 X185.7696 Y35.2881
G01 X185.8568 Y35.2919
G01 X185.9440 Y35.2881
G01 X186.0305 Y35.2767
G01 X186.1156 Y35.2579
G01 X186.1988 Y35.2316
G01 X186.2794 Y35.1982
G01 X186.3568 Y35.1580
G01 X186.4304 Y35.1111
G01 X186.4996 Y35.0580
G01 X186.5639 Y34.9990
G01 X186.6228 Y34.9347
G01 X186.6760 Y34.8655
G01 X186.7228 Y34.7919
G01 X186.7631 Y34.7145
G01 X186.7965 Y34.6340
G01 X186.8227 Y34.5507
G01 X186.8416 Y34.4656
G01 X186.8530 Y34.3791
G01 X186.8568 Y34.2919
M107
M106 S240
G01 X186.8530 Y34.2048 Z-3.5278 F400
G01 X186.8416 Y34.1183 Z-3.5556
G01 X186.8227 Y34.0331 Z-3.5833
G01 X186.7965 Y33.9499 Z-3.6111
G01 X186.7631 Y33.8693 Z-3.6389
G01 X186.7228 Y33.7919 Z-3.6667
G01 X186.6760 Y33.7184 Z-3.6944
G01 X186.6228 Y33.6491 Z-3.7222
G01 X186.5639 Y33.5848 Z-3.7500
G01 X186.4996 Y33.5259 Z-3.7778
G01 X186.4304 Y33.4728 Z-3.8056
G01 X186.3568 Y33.4259 Z-3.8333
G01 X186.2794 Y33.3856 Z-3.8611
G01 X186.1988 Y33.3522 Z-3.8889
G01 X186.1156 Y33.3260 Z-3.9167
G01 X186.0305 Y33.3071 Z-3.9444
G01 X185.9440 Y33.2957 Z-3.9722
G01 X185.8568 Y33.2919 Z-4.0000
G01 X185.7696 Y33.2957 Z-4.0278
G01 X185.6832 Y33.3071 Z-4.0556
G01 X185.5980 Y33.3260 Z-4.0833
G01 X185.5148 Y33.3522 Z-4.1111
G01 X185.4342 Y33.3856 Z-4.1389
G01 X185.3568 Y33.4259 Z-4.1667
G01 X185.2832 Y33.4728 Z-4.1944
G01 X185.2140 Y33.5259 Z-4.2222
G01 X185.1497 Y33.5848 Z-4.2500
G01 X185.0908 Y33.6491 Z-4.2778
G01 X185.0377 Y33.7184 Z-4.3056
G01 X184.9908 Y33.7919 Z-4.3333
G01 X184.9505 Y33.8693 Z-4.3611
G01 X184.9171 Y33.9499 Z-4.3889
G01 X184.8909 Y34.0331 Z-4.4167
G01 X184.8720 Y34.1183 Z-4.4444
G01 X184.8606 Y34.2048 Z-4.4722
G01 X184.8568 Y34.2919 Z-4.5000
G01 X184.8606 Y34.3791 Z-4.5278
G01 X184.8720 Y34.4656 Z-4.5556
G01 X184.8909 Y34.5507 Z-4.5833
G01 X184.9171 Y34.6340 Z-4.6111
G01 X184.9505 Y34.7145 Z-4.6389
G01 X184.9908 Y34.7919 Z-4.6667
G01 X185.0377 Y34.8655 Z-4.6944
G01 X185.0908 Y34.9347 Z-4.7222
G01 X185.1497 Y34.9990 Z-4.7500
G01 X185.2140 Y35.0580 Z-4.7778
G01 X185.2832 Y35.1111 Z-4.8056
G01 X185.3568 Y35.1580 Z-4.8333
G01 X185.4342 Y35.1982 Z-4.8611
G01 X185.5148 Y35.2316 Z-4.8889
G01 X185.5980 Y35.2579 Z-4.9167
G01 X185.6832 Y35.2767 Z-4.9444
G01 X185.7696 Y35.2881 Z-4.9722
G01 X185.8568 Y35.2919 Z-5.0000
G01 X185.9440 Y35.2881 Z-5.0278
G01 X186.0305 Y35.2767 Z-5.0556
G01 X186.1156 Y35.2579 Z-5.0833
G01 X186.1988 Y35.2316 Z-5.1111
G01 X186.2794 Y35.1982 Z-5.1389
G01 X186.3568 Y35.1580 Z-5.1667
G01 X186.4304 Y35.1111 Z-5.1944
G01 X186.4996 Y35.0580 Z-5.2222
G01 X186.5639 Y34.9990 Z-5.2500
G01 X186.6228 Y34.9347 Z-5.2778
G01 X186.6760 Y34.8655 Z-5.3056
G01 X186.7228 Y34.7919 Z-5.3333
G01 X186.7631 Y34.7145 Z-5.3611
G01 X186.7965 Y34.6340 Z-5.3889
G01 X186.8227 Y34.5507 Z-5.4167
G01 X186.8416 Y34.4656 Z-5.4444
G01 X186.8530 Y34.3791 Z-5.4722
G01 X186.8568 Y34.2919 Z-5.5000
G01 X186.8530 Y34.2048
G01 X186.8416 Y34.1183
G01 X186.8227 Y34.0331
G01 X186.7965 Y33.9499
G01 X186.7631 Y33.8693
G01 X186.7228 Y33.7919
G01 X186.6760 Y33.7184
G01 X186.6228 Y33.6491
G01 X186.5639 Y33.5848
G01 X186.4996 Y33.5259
G01 X186.4304 Y33.4728
G01 X186.3568 Y33.4259
G01 X186.2794 Y33.3856
G01 X186.1988 Y33.3522
G01 X186.1156 Y33.3260
G01 X186.0305 Y33.3071
G01 X185.9440 Y33.2957
G01 X185.8568 Y33.2919
G01 X185.7696 Y33.2957
G01 X185.6832 Y33.3071
G01 X185.5980 Y33.3260
G01 X185.5148 Y33.3522
G01 X185.4342 Y33.3856
G01 X185.3568 Y33.4259
G01 X185.2832 Y33.4728
G01 X185.2140 Y33.5259
G01 X185.1497 Y33.5848
G01 X185.0908 Y33.6491
G01 X185.0377 Y33.7184
G01 X184.9908 Y33.7919
G01 X184.9505 Y33.8693
G01 X184.9171 Y33.9499
G01 X184.8909 Y34.0331
G01 X184.8720 Y34.1183
G01 X184.8606 Y34.2048
G01 X184.8568 Y34.2919
G01 X184.8606 Y34.3791
G01 X184.8720 Y34.4656
G01 X184.8909 Y34.5507
G01 X184.9171 Y34.6340
G01 X184.9505 Y34.7145
G01 X184.9908 Y34.7919
G01 X185.0377 Y34.8655
G01 X185.0908 Y34.9347
G01 X185.1497 Y34.9990
G01 X185.2140 Y35.0580
G01 X185.2832 Y35.1111
G01 X185.3568 Y35.1580
G01 X185.4342 Y35.1982
G01 X185.5148 Y35.2316
G01 X185.5980 Y35.2579
G01 X185.6832 Y35.2767
G01 X185.7696 Y35.2881
G01 X185.8568 Y35.2919
G01 X185.9440 Y35.2881
G01 X186.0305 Y35.2767
G01 X186.1156 Y35.2579
G01 X186.1988 Y35.2316
G01 X186.2794 Y35.1982
G01 X186.3568 Y35.1580
G01 X186.4304 Y35.1111
G01 X186.4996 Y35.0580
G01 X186.5639 Y34.9990
G01 X186.6228 Y34.9347
G01 X186.6760 Y34.8655
G01 X186.7228 Y34.7919
G01 X186.7631 Y34.7145
G01 X186.7965 Y34.6340
G01 X186.8227 Y34.5507
G01 X186.8416 Y34.4656
G01 X186.8530 Y34.3791
G01 X186.8568 Y34.2919
G01 X186.8676 Y34.2403 F1000
G01 X186.8756 Y34.1883
G01 X186.8810 Y34.1358
G01 X186.8837 Y34.0832
G01 Y34.0305
G01 X186.8809 Y33.9779
G01 X186.8754 Y33.9254
G01 X186.8673 Y33.8734
G01 X186.8556 Y33.8174
G01 X186.8410 Y33.7621
G01 X186.8236 Y33.7076
G01 X186.8035 Y33.6540
G01 X186.7807 Y33.6016
G01 X186.7552 Y33.5504
G01 X186.7271 Y33.5006
G01 X186.6965 Y33.4522
G01 X186.6609 Y33.4018
G01 X186.6228 Y33.3533
G01 X186.5822 Y33.3068
G01 X186.5394 Y33.2624
G01 X186.4943 Y33.2202
G01 X186.4472 Y33.1804
G01 X186.3981 Y33.1430
G01 X186.3471 Y33.1082
G01 X186.2906 Y33.0736
G01 X186.2325 Y33.0420
G01 X186.1728 Y33.0133
G01 X186.1117 Y32.9877
G01 X186.0494 Y32.9652
G01 X185.9860 Y32.9458
G01 X185.9218 Y32.9298
G01 X185.8568 Y32.9169
G01 X185.7872 Y32.9087
G01 X185.7172 Y32.9040
G01 X185.6471 Y32.9028
G01 X185.5771 Y32.9050
G01 X185.5072 Y32.9108
G01 X185.4377 Y32.9201
G01 X185.3688 Y32.9328
G01 X185.3006 Y32.9490
G01 X185.2353 Y32.9779
G01 X185.1716 Y33.0100
G01 X185.1095 Y33.0452
G01 X185.0493 Y33.0833
G01 X184.9909 Y33.1244
G01 X184.9347 Y33.1683
G01 X184.8807 Y33.2149
G01 X184.8290 Y33.2641
G01 X184.7798 Y33.3158
G01 X184.7332 Y33.3698
G01 X184.6893 Y33.4260
G01 X184.6482 Y33.4844
G01 X184.6100 Y33.5447
G01 X184.5749 Y33.6067
G01 X184.5428 Y33.6705
G01 X184.5139 Y33.7357
G01 X184.4882 Y33.8022
G01 X184.4658 Y33.8700
G01 X184.4468 Y33.9387
G01 X184.4312 Y34.0084
G01 X184.4190 Y34.0787
G01 X184.4102 Y34.1495
G01 X184.4050 Y34.2206
G01 X184.4032 Y34.2919
G01 X184.4050 Y34.3633
G01 X184.4102 Y34.4344
G01 X184.4190 Y34.5052
G01 X184.4312 Y34.5755
G01 X184.4468 Y34.6451
G01 X184.4658 Y34.7139
G01 X184.4882 Y34.7816
G01 X184.5139 Y34.8482
G01 X184.5428 Y34.9134
G01 X184.5749 Y34.9771
G01 X184.6100 Y35.0392
G01 X184.6482 Y35.0995
G01 X184.6893 Y35.1578
G01 X184.7332 Y35.2141
G01 X184.7798 Y35.2681
G01 X184.8290 Y35.3197
G01 X184.8807 Y35.3689
G01 X184.9347 Y35.4155
G01 X184.9909 Y35.4594
G01 X185.0493 Y35.5005
G01 X185.1095 Y35.5387
G01 X185.1716 Y35.5739
G01 X185.2353 Y35.6059
G01 X185.3006 Y35.6348
G01 X185.3671 Y35.6605
G01 X185.4349 Y35.6829
G01 X185.5036 Y35.7019
G01 X185.5732 Y35.7176
G01 X185.6435 Y35.7298
G01 X185.7143 Y35.7385
G01 X185.7855 Y35.7437
G01 X185.8568 Y35.7455
G01 X185.9281 Y35.7437
G01 X185.9993 Y35.7385
G01 X186.0701 Y35.7298
G01 X186.1404 Y35.7176
G01 X186.2100 Y35.7019
G01 X186.2787 Y35.6829
G01 X186.3465 Y35.6605
G01 X186.4131 Y35.6348
G01 X186.4783 Y35.6059
G01 X186.5420 Y35.5739
G01 X186.6041 Y35.5387
G01 X186.6644 Y35.5005
G01 X186.7227 Y35.4594
G01 X186.7789 Y35.4155
G01 X186.8330 Y35.3689
G01 X186.8846 Y35.3197
G01 X186.9338 Y35.2681
G01 X186.9804 Y35.2141
G01 X187.0243 Y35.1578
G01 X187.0654 Y35.0995
G01 X187.1036 Y35.0392
G01 X187.1387 Y34.9771
G01 X187.1708 Y34.9134
G01 X187.1997 Y34.8482
G01 X187.2254 Y34.7816
G01 X187.2478 Y34.7139
G01 X187.2668 Y34.6451
G01 X187.2824 Y34.5755
G01 X187.2946 Y34.5052
G01 X187.3034 Y34.4344
G01 X187.3086 Y34.3633
G01 X187.3104 Y34.2919
G01 X187.3063 Y34.1833
G01 X187.2941 Y34.0753
G01 X187.2739 Y33.9685
G01 X187.2458 Y33.8635
G01 X187.2099 Y33.7609
G01 X187.1664 Y33.6613
G01 X187.1156 Y33.5652
G01 X187.0578 Y33.4731
G01 X186.9932 Y33.3857
G01 X186.9223 Y33.3033
G01 X186.8455 Y33.2264
G01 X186.7631 Y33.1555
G01 X186.6756 Y33.0909
G01 X186.5836 Y33.0331
G01 X186.4875 Y32.9823
G01 X186.3878 Y32.9389
G01 X186.2852 Y32.9030
G01 X186.1803 Y32.8748
G01 X186.0734 Y32.8546
G01 X185.9654 Y32.8424
G01 X185.8568 Y32.8384
G01 X185.7482 Y32.8424
G01 X185.6402 Y32.8546
G01 X185.5334 Y32.8748
G01 X185.4284 Y32.9030
G01 X185.3258 Y32.9389
G01 X185.2261 Y32.9823
G01 X185.1300 Y33.0331
G01 X185.0380 Y33.0909
G01 X184.9505 Y33.1555
G01 X184.8681 Y33.2264
G01 X184.7913 Y33.3033
G01 X184.7204 Y33.3857
G01 X184.6558 Y33.4731
G01 X184.5980 Y33.5652
G01 X184.5472 Y33.6613
G01 X184.5037 Y33.7609
G01 X184.4678 Y33.8635
G01 X184.4397 Y33.9685
G01 X184.4195 Y34.0753
G01 X184.4073 Y34.1833
G01 X184.4032 Y34.2919
G01 X184.4073 Y34.4006
G01 X184.4195 Y34.5086
G01 X184.4397 Y34.6154
G01 X184.4678 Y34.7204
G01 X184.5037 Y34.8230
G01 X184.5472 Y34.9226
G01 X184.5980 Y35.0187
G01 X184.6558 Y35.1107
G01 X184.7204 Y35.1982
G01 X184.7913 Y35.2806
G01 X184.8681 Y35.3575
G01 X184.9505 Y35.4284
G01 X185.0380 Y35.4929
G01 X185.1300 Y35.5507
G01 X185.2261 Y35.6015
G01 X185.3258 Y35.6450
G01 X185.4284 Y35.6809
G01 X185.5334 Y35.7090
G01 X185.6402 Y35.7293
G01 X185.7482 Y35.7414
G01 X185.8568 Y35.7455
G01 X185.9654 Y35.7414
G01 X186.0734 Y35.7293
G01 X186.1803 Y35.7090
G01 X186.2852 Y35.6809
G01 X186.3878 Y35.6450
G01 X186.4875 Y35.6015
G01 X186.5836 Y35.5507
G01 X186.6756 Y35.4929
G01 X186.7631 Y35.4284
G01 X186.8455 Y35.3575
G01 X186.9223 Y35.2806
G01 X186.9932 Y35.1982
G01 X187.0578 Y35.1107
G01 X187.1156 Y35.0187
G01 X187.1664 Y34.9226
G01 X187.2099 Y34.8230
G01 X187.2458 Y34.7204
G01 X187.2739 Y34.6154
G01 X187.2941 Y34.5086
G01 X187.3063 Y34.4006
G01 X187.3104 Y34.2919
M107
M106 S240
G01 X187.3073 Y34.2135 Z-5.4750 F400
M107
M106 S240
G01 X187.2980 Y34.1355 Z-5.4500
M107
M106 S240
G01 X187.2827 Y34.0585 Z-5.4250
M107
M106 S240
G01 X187.2614 Y33.9829 Z-5.4000
M107
M106 S240
G01 X187.2342 Y33.9092 Z-5.3750
M107
M106 S240
G01 X187.2014 Y33.8379 Z-5.3500
M107
M106 S240
G01 X187.1630 Y33.7694 Z-5.3250
M107
M106 S240
G01 X187.1194 Y33.7041 Z-5.3000
M107
M106 S240
G01 X187.0708 Y33.6425 Z-5.2750
M107
M106 S240
G01 X187.0175 Y33.5848 Z-5.2500
M107
M106 S240
G01 X186.9598 Y33.5315 Z-5.2250
M107
M106 S240
G01 X186.8981 Y33.4829 Z-5.2000
M107
M106 S240
G01 X186.8329 Y33.4393 Z-5.1750
M107
M106 S240
G01 X186.7643 Y33.4009 Z-5.1500
M107
M106 S240
G01 X186.6930 Y33.3681 Z-5.1250
M107
M106 S240
G01 X186.6194 Y33.3409 Z-5.1000
M107
M106 S240
G01 X186.5438 Y33.3196 Z-5.0750
M107
M106 S240
G01 X186.4668 Y33.3042 Z-5.0500
M107
M106 S240
G01 X186.3888 Y33.2950 Z-5.0250
M107
M106 S240
G01 X186.3104 Y33.2919 Z-5.0000
M107
G00 Z2.0000


;No. 15: Hole 20
G00 X173.2811 Y52.5761 Z2.0000
G00 Z0.5000
G01 Z0.0000 F400
G01 Z-1.2000
M106 S240
G01 X157.7999 F1000
G01 X157.3908 Y54.0761
G01 X158.7081
G01 X158.2757 Y55.5761
G01 X157.3908
G01 Y57.0761
G01 X158.2757
G01 Y58.5761
G01 X157.3908
M107
G00 Z2.0000
G00 X172.3652 Y52.5761
G00 Z0.5000
G01 Z-1.2000 F400
M106 S240
G01 Y54.0761 F1000
G01 X173.2811
G01 Y55.5761
G01 X172.3963
G01 X172.3654 Y57.0761
G01 X173.2811
G01 Y58.5761
G01 X164.2587
G01 X164.1293 Y58.3732
G01 X164.0461 Y58.4381
G01 X163.9660 Y58.5067
G01 X163.8891 Y58.5791
G01 X163.8158 Y58.6549
G01 X163.8268 Y58.6423
G01 X163.7313 Y58.7525
G01 X163.6423 Y58.8681
G01 X163.5602 Y58.9886
G01 X163.4851 Y59.1137
G01 X163.4174 Y59.2429
G01 X163.3573 Y59.3757
G01 X163.3049 Y59.5118
G01 X163.2605 Y59.6508
G01 X173.5211 Y59.6510
G01 Y51.5005
G01 X159.3369 Y51.5006
G01 X159.2297 Y51.5020
G01 X159.1227 Y51.5091
G01 X159.0163 Y51.5219
G01 X158.9107 Y51.5404
G01 X158.8062 Y51.5645
G01 X158.7032 Y51.5942
G01 X158.6019 Y51.6294
G01 X158.5027 Y51.6699
G01 X158.4057 Y51.7157
G01 X158.3114 Y51.7666
G01 X158.2199 Y51.8226
G01 X158.1315 Y51.8833
G01 X158.0465 Y51.9487
G01 X157.9652 Y52.0185
G01 X157.8877 Y52.0926
G01 X157.8143 Y52.1707
G01 X157.8253 Y52.1580
G01 X157.7447 Y52.2513
G01 X157.6685 Y52.3483
G01 X157.5970 Y52.4488
G01 X157.5303 Y52.5527
G01 X157.4687 Y52.6595
G01 X157.4121 Y52.7691
G01 X157.3609 Y52.8813
G01 X157.3150 Y52.9958
G01 X157.2745 Y53.1124
G01 X157.2397 Y53.2307
G01 X157.2104 Y53.3506
G01 X157.1869 Y53.4717
G01 X157.1692 Y53.5938
G01 X157.1572 Y53.7165
G01 X157.1511 Y53.8397
G01 X157.1508 Y53.9631
G01 Y59.6510
G01 X158.5157
G01 Y55.5586
G01 X158.5151 Y55.4265
G01 X158.5220 Y55.2947
G01 X158.5365 Y55.1634
G01 X158.5584 Y55.0332
G01 X158.5877 Y54.9045
G01 X158.6243 Y54.7776
G01 X158.6680 Y54.6530
G01 X158.7189 Y54.5312
G01 X158.7765 Y54.4124
G01 X158.8409 Y54.2971
G01 X158.9117 Y54.1857
G01 X158.9888 Y54.0785
G01 X159.0719 Y53.9759
G01 X159.1607 Y53.8781
G01 X159.2549 Y53.7856
G01 X159.3542 Y53.6987
G01 X159.4584 Y53.6175
G01 X159.5670 Y53.5424
G01 X159.6797 Y53.4736
G01 X159.7961 Y53.4114
G01 X159.9159 Y53.3559
G01 X160.0387 Y53.3074
G01 X160.1641 Y53.2659
G01 X160.2916 Y53.2316
G01 X160.4208 Y53.2047
G01 X160.5514 Y53.1852
G01 X160.6829 Y53.1731
G01 X160.8149 Y53.1686
G01 X170.9563
G01 X171.0505 Y53.1723
G01 X171.1440 Y53.1834
G01 X171.2365 Y53.2018
G01 X171.3271 Y53.2274
G01 X171.4155 Y53.2600
G01 X171.5011 Y53.2994
G01 X171.5833 Y53.3455
G01 X171.6617 Y53.3978
G01 X171.7357 Y53.4562
G01 X171.8049 Y53.5201
G01 X171.8688 Y53.5893
G01 X171.9271 Y53.6633
G01 X171.9795 Y53.7416
G01 X172.0255 Y53.8239
G01 X172.0650 Y53.9094
G01 X172.0976 Y53.9978
G01 X172.1232 Y54.0885
G01 X172.1416 Y54.1809
G01 X172.1526 Y54.2745
G01 X172.1563 Y54.3686
G01 Y56.7847
G01 X172.1526 Y56.8788
G01 X172.1416 Y56.9724
G01 X172.1232 Y57.0648
G01 X172.0976 Y57.1555
G01 X172.0650 Y57.2439
G01 X172.0255 Y57.3294
G01 X171.9795 Y57.4116
G01 X171.9271 Y57.4900
G01 X171.8688 Y57.5640
G01 X171.8049 Y57.6332
G01 X171.7357 Y57.6971
G01 X171.6617 Y57.7555
G01 X171.5833 Y57.8078
G01 X171.5011 Y57.8539
G01 X171.4156 Y57.8933
G01 X171.3272 Y57.9259
G01 X171.2365 Y57.9515
G01 X171.1441 Y57.9699
G01 X171.0505 Y57.9809
G01 X170.9563 Y57.9846
G01 X165.3406 Y57.9847
G01 X165.2327 Y57.9857
G01 X165.1250 Y57.9926
G01 X165.0178 Y58.0053
G01 X164.9115 Y58.0239
G01 X164.8064 Y58.0484
G01 X164.7027 Y58.0785
G01 X164.6009 Y58.1142
G01 X164.5012 Y58.1555
G01 X164.4039 Y58.2022
G01 X164.3093 Y58.2542
G01 X164.2177 Y58.3112
G01 X164.1293 Y58.3732
G01 X164.2587 Y58.5761
M107
G00 Z2.0000


;No. 16: Hole 20
G00 X157.2922 Y53.0606 Z2.0000
G00 Z0.5000
G01 Z-1.2000 F400
M106 S240
G01 X157.1026 Y52.9968 F1000
G01 X157.0353 Y53.2327
G01 X156.9873 Y53.4732
G01 X156.9591 Y53.7168
G01 X156.9508 Y53.9619
G01 Y59.8510
G01 X158.7157
G01 Y55.5614
G01 X158.7146 Y55.4404
G01 X158.7205 Y55.3195
G01 X158.7333 Y55.1992
G01 X158.7530 Y55.0797
G01 X158.7794 Y54.9616
G01 X158.8126 Y54.8452
G01 X158.8524 Y54.7309
G01 X158.8986 Y54.6190
G01 X158.9512 Y54.5100
G01 X159.0100 Y54.4042
G01 X159.0746 Y54.3019
G01 X159.1451 Y54.2035
G01 X159.2211 Y54.1093
G01 X159.3023 Y54.0195
G01 X159.3885 Y53.9346
G01 X159.4795 Y53.8547
G01 X159.5749 Y53.7802
G01 X159.6743 Y53.7113
G01 X159.7776 Y53.6481
G01 X159.8843 Y53.5910
G01 X159.9941 Y53.5401
G01 X160.1067 Y53.4956
G01 X160.2216 Y53.4575
G01 X160.3385 Y53.4261
G01 X160.4570 Y53.4015
G01 X160.5767 Y53.3836
G01 X160.6972 Y53.3727
G01 X160.8182 Y53.3686
G01 X170.9563
G01 X170.9999 Y53.3696
G01 X171.0435 Y53.3724
G01 X171.0869 Y53.3772
G01 X171.1300 Y53.3838
G01 X171.1728 Y53.3923
G01 X171.2151 Y53.4027
G01 X171.2570 Y53.4149
G01 X171.2983 Y53.4289
G01 X171.3390 Y53.4448
G01 X171.3789 Y53.4623
G01 X171.4181 Y53.4816
G01 X171.4563 Y53.5026
G01 X171.4936 Y53.5253
G01 X171.5299 Y53.5495
G01 X171.5651 Y53.5753
G01 X171.5991 Y53.6026
G01 X171.6319 Y53.6314
G01 X171.6634 Y53.6615
G01 X171.6936 Y53.6931
G01 X171.7224 Y53.7259
G01 X171.7497 Y53.7599
G01 X171.7755 Y53.7951
G01 X171.7997 Y53.8313
G01 X171.8224 Y53.8686
G01 X171.8433 Y53.9069
G01 X171.8626 Y53.9460
G01 X171.8802 Y53.9860
G01 X171.8960 Y54.0266
G01 X171.9100 Y54.0679
G01 X171.9223 Y54.1098
G01 X171.9326 Y54.1522
G01 X171.9411 Y54.1950
G01 X171.9478 Y54.2381
G01 X171.9525 Y54.2815
G01 X171.9554 Y54.3250
G01 X171.9563 Y54.3686
G01 Y56.7847
G01 X171.9532 Y56.8631
G01 X171.9440 Y56.9411
G01 X171.9287 Y57.0181
G01 X171.9074 Y57.0937
G01 X171.8802 Y57.1673
G01 X171.8473 Y57.2386
G01 X171.8090 Y57.3071
G01 X171.7653 Y57.3724
G01 X171.7167 Y57.4341
G01 X171.6634 Y57.4918
G01 X171.6058 Y57.5451
G01 X171.5441 Y57.5937
G01 X171.4788 Y57.6373
G01 X171.4103 Y57.6757
G01 X171.3390 Y57.7085
G01 X171.2654 Y57.7357
G01 X171.1898 Y57.7570
G01 X171.1128 Y57.7723
G01 X171.0348 Y57.7816
G01 X170.9563 Y57.7846
G01 X165.3391 Y57.7847
G01 X165.2080 Y57.7906
G01 X165.0774 Y57.8038
G01 X164.9478 Y57.8241
G01 X164.8195 Y57.8515
G01 X164.6928 Y57.8859
G01 X164.5683 Y57.9272
G01 X164.4462 Y57.9753
G01 X164.3270 Y58.0301
G01 X164.2109 Y58.0913
G01 X164.0984 Y58.1588
G01 X163.9898 Y58.2325
G01 X163.8854 Y58.3119
G01 X163.7855 Y58.3971
G01 X163.6905 Y58.4875
G01 X163.6006 Y58.5831
G01 X163.5160 Y58.6835
G01 X163.4372 Y58.7883
G01 X163.3642 Y58.8974
G01 X163.2973 Y59.0103
G01 X163.2368 Y59.1267
G01 X163.1827 Y59.2463
G01 X163.1353 Y59.3686
G01 X163.0947 Y59.4934
G01 X163.0611 Y59.6202
G01 X163.0462 Y59.6756
G01 X163.0325 Y59.7313
G01 X163.0199 Y59.7872
G01 X163.0085 Y59.8434
G01 X173.7211 Y59.8510
G01 Y51.3005
G01 X159.3354 Y51.3006
G01 X159.2179 Y51.3023
G01 X159.1006 Y51.3103
G01 X158.9840 Y51.3245
G01 X158.8682 Y51.3449
G01 X158.7538 Y51.3715
G01 X158.6409 Y51.4042
G01 X158.5299 Y51.4428
G01 X158.4211 Y51.4873
G01 X158.3148 Y51.5375
G01 X158.2114 Y51.5934
G01 X158.1112 Y51.6546
G01 X158.0143 Y51.7212
G01 X157.9211 Y51.7928
G01 X157.8319 Y51.8693
G01 X157.7469 Y51.9505
G01 X157.6663 Y52.0360
G01 X157.6745 Y52.0267
G01 X157.5816 Y52.1338
G01 X157.4945 Y52.2456
G01 X157.4132 Y52.3618
G01 X157.3381 Y52.4820
G01 X157.2693 Y52.6060
G01 X157.2070 Y52.7333
G01 X157.1514 Y52.8637
G01 X157.1026 Y52.9968
G01 X157.2922 Y53.0606
M107
G00 Z0.0000
G00 Z2.0000


;No. 17: Hole 19


;No. 18: Hole 19
G00 X157.1508 Y64.4670 Z2.0000
G00 Z0.5000
G01 Z0.0000 F400
G01 Z-1.2000
M106 S240
G01 Y66.1350 F1000
G01 X173.4110
G01 X173.3719 Y66.0047
G01 X173.3249 Y65.8770
G01 X173.2704 Y65.7524
G01 X173.2085 Y65.6313
G01 X173.1395 Y65.5141
G01 X173.0635 Y65.4012
G01 X172.9809 Y65.2932
G01 X172.8919 Y65.1903
G01 X172.7969 Y65.0929
G01 X172.6963 Y65.0014
G01 X172.5903 Y64.9161
G01 X172.4793 Y64.8374
G01 X172.3639 Y64.7654
G01 X172.2443 Y64.7005
G01 X172.1211 Y64.6430
G01 X171.9946 Y64.5929
G01 X171.8653 Y64.5505
G01 X171.7338 Y64.5160
G01 X171.6003 Y64.4894
G01 X171.4656 Y64.4709
G01 X171.4021 Y64.4681
G01 X171.3292 Y64.4670
G01 X157.1508
M107
G00 Z2.0000


;No. 19: Hole 19
G00 X157.1508 Y64.4670 Z2.0000
G00 Z0.5000
G01 Z-1.2000 F400
M106 S240
G01 X156.9508 Y64.2670 F1000
G01 Y66.3350
G01 X173.6610
G01 X173.6311 Y66.1869
G01 X173.5924 Y66.0409
G01 X173.5450 Y65.8975
G01 X173.4890 Y65.7572
G01 X173.4248 Y65.6205
G01 X173.3524 Y65.4879
G01 X173.2722 Y65.3599
G01 X173.1845 Y65.2370
G01 X173.0896 Y65.1195
G01 X172.9878 Y65.0079
G01 X172.8795 Y64.9026
G01 X172.7650 Y64.8040
G01 X172.6449 Y64.7125
G01 X172.5194 Y64.6283
G01 X172.3892 Y64.5519
G01 X172.2546 Y64.4833
G01 X172.1161 Y64.4230
G01 X171.9742 Y64.3711
G01 X171.8295 Y64.3278
G01 X171.6825 Y64.2932
G01 X171.5950 Y64.2816
G01 X171.5071 Y64.2733
G01 X171.4190 Y64.2684
G01 X171.3307 Y64.2670
G01 X156.9508
G01 X157.1508 Y64.4670
M107
G00 Z0.0000
G00 Z2.0000


;No. 20: Hole 19
G00 X157.1508 Y64.4670 Z2.0000
G00 Z0.5000
G01 Z-1.2000 F400
M106 S240
G01 X156.9508 Y64.2670 F1000
G01 Y66.3350
G01 X173.6610
G01 X173.6311 Y66.1869
G01 X173.5924 Y66.0409
G01 X173.5450 Y65.8975
G01 X173.4890 Y65.7572
G01 X173.4248 Y65.6205
G01 X173.3524 Y65.4879
G01 X173.2722 Y65.3599
G01 X173.1845 Y65.2370
G01 X173.0896 Y65.1195
G01 X172.9878 Y65.0079
G01 X172.8795 Y64.9026
G01 X172.7650 Y64.8040
G01 X172.6449 Y64.7125
G01 X172.5194 Y64.6283
G01 X172.3892 Y64.5519
G01 X172.2546 Y64.4833
G01 X172.1161 Y64.4230
G01 X171.9742 Y64.3711
G01 X171.8295 Y64.3278
G01 X171.6825 Y64.2932
G01 X171.5950 Y64.2816
G01 X171.5071 Y64.2733
G01 X171.4190 Y64.2684
G01 X171.3307 Y64.2670
G01 X156.9508
G01 X157.1508 Y64.4670
M107
G00 Z0.0000
G00 Z2.0000


;No. 21: Hole 21
G00 X152.2740 Y64.8177 Z2.0000
G00 Z0.5000
G01 Z0.0000 F400
G01 Z-1.2000
M106 S240
G01 X151.3878 F1000
G01 Y63.3177
G01 X152.2740
G01 Y61.8177
G01 X151.3878
G01 Y60.3177
G01 X152.2740
G01 Y58.8177
G01 X151.3878
G01 Y57.3177
G01 X152.2740
G01 Y55.8177
G01 X151.1735
G01 X152.2740 Y54.3177
G01 X148.4152
G01 X148.6835 Y55.8177
G01 X147.0267
G01 X147.2950 Y57.3177
G01 X145.6383
G01 X145.9065 Y58.8177
G01 X144.2498
G01 X144.5179 Y60.3177
G01 X142.8613
G01 X143.1294 Y61.8177
G01 X139.3831
G01 Y60.3177
G01 X140.5671
G01 X140.2694
G01 Y58.8177
G01 X139.3831
G01 Y57.3177
G01 X140.2694
G01 Y55.8177
G01 X139.3831
G01 Y54.3177
G01 X140.2694
G01 Y52.8177
G01 X139.3831
M107
G00 Z2.0000
G00 Y61.8177
G00 Z0.5000
G01 Z-1.2000 F400
M106 S240
G01 Y63.3177 F1000
G01 X141.7409
G01 X140.3524 Y64.8177
G01 X138.6937
M107
G00 Z2.0000
G00 X149.8037 Y54.3177
G00 Z0.5000
G01 Z-1.2000 F400
M106 S240
G01 Y52.8177 F1000
G01 X152.2740
G01 X152.5140 Y52.8373
G01 Y51.5005
G01 X150.6960
G01 X142.5900 Y60.2575
G01 X142.5172 Y60.3297
G01 X142.4384 Y60.3955
G01 X142.3543 Y60.4543
G01 X142.2655 Y60.5057
G01 X142.1727 Y60.5493
G01 X142.0764 Y60.5848
G01 X141.9775 Y60.6120
G01 X141.8766 Y60.6306
G01 X141.7745 Y60.6405
G01 X141.6719 Y60.6417
G01 X141.5695 Y60.6341
G01 X141.4682 Y60.6178
G01 X141.3687 Y60.5929
G01 X141.2717 Y60.5596
G01 X141.1778 Y60.5181
G01 X141.0879 Y60.4688
G01 X141.0025 Y60.4119
G01 X140.9222 Y60.3480
G01 X140.8477 Y60.2774
G01 X140.7795 Y60.2008
G01 X140.7181 Y60.1186
G01 X140.6640 Y60.0314
G01 X140.6175 Y59.9400
G01 X140.5790 Y59.8449
G01 X140.5487 Y59.7468
G01 X140.5269 Y59.6466
G01 X140.5138 Y59.5448
G01 X140.5094 Y59.4423
G01 Y51.5005
G01 X139.1431
G01 Y63.5087
G01 X139.1408 Y63.5833
G01 X139.1339 Y63.6577
G01 X139.1223 Y63.7314
G01 X139.1062 Y63.8043
G01 X139.0855 Y63.8761
G01 X139.0605 Y63.9464
G01 X139.0311 Y64.0150
G01 X138.9975 Y64.0817
G01 X138.9598 Y64.1462
G01 X138.9182 Y64.2082
G01 X138.8728 Y64.2674
G01 X138.8239 Y64.3238
G01 X137.1477 Y66.1350
G01 X139.4601
G01 X149.0671 Y55.7566
G01 X149.1400 Y55.6844
G01 X149.2188 Y55.6186
G01 X149.3028 Y55.5598
G01 X149.3917 Y55.5084
G01 X149.4845 Y55.4648
G01 X149.5808 Y55.4293
G01 X149.6797 Y55.4021
G01 X149.7806 Y55.3835
G01 X149.8827 Y55.3735
G01 X149.9853 Y55.3724
G01 X150.0876 Y55.3800
G01 X150.1889 Y55.3963
G01 X150.2885 Y55.4212
G01 X150.3855 Y55.4545
G01 X150.4794 Y55.4960
G01 X150.5693 Y55.5453
G01 X150.6547 Y55.6021
G01 X150.7350 Y55.6661
G01 X150.8095 Y55.7366
G01 X150.8777 Y55.8133
G01 X150.9391 Y55.8955
G01 X150.9932 Y55.9827
G01 X151.0397 Y56.0741
G01 X151.0782 Y56.1692
G01 X151.1085 Y56.2673
G01 X151.1303 Y56.3675
G01 X151.1434 Y56.4693
G01 X151.1478 Y56.5718
G01 Y66.1350
G01 X152.5140
G01 Y52.8373
G01 X152.2740 Y52.8177
M107
G00 Z2.0000


;No. 22: Hole 21
G00 X139.1431 Y51.5005 Z2.0000
G00 Z0.5000
G01 Z-1.2000 F400
M106 S240
G01 X138.9431 Y51.3005 F1000
G01 Y63.5087
G01 X138.9421 Y63.5554
G01 X138.9388 Y63.6019
G01 X138.9334 Y63.6483
G01 X138.9258 Y63.6943
G01 X138.9160 Y63.7400
G01 X138.9042 Y63.7851
G01 X138.8903 Y63.8296
G01 X138.8743 Y63.8735
G01 X138.8562 Y63.9165
G01 X138.8362 Y63.9587
G01 X138.8142 Y63.9998
G01 X138.7904 Y64.0399
G01 X138.7647 Y64.0789
G01 X138.7372 Y64.1166
G01 X138.7080 Y64.1530
G01 X138.6771 Y64.1879
G01 X136.6901 Y66.3350
G01 X139.5475
G01 X149.2139 Y55.8925
G01 X149.2746 Y55.8323
G01 X149.3403 Y55.7775
G01 X149.4103 Y55.7285
G01 X149.4843 Y55.6856
G01 X149.5617 Y55.6493
G01 X149.6419 Y55.6197
G01 X149.7244 Y55.5971
G01 X149.8085 Y55.5815
G01 X149.8936 Y55.5733
G01 X149.9791 Y55.5723
G01 X150.0643 Y55.5786
G01 X150.1487 Y55.5922
G01 X150.2317 Y55.6129
G01 X150.3126 Y55.6407
G01 X150.3908 Y55.6753
G01 X150.4657 Y55.7164
G01 X150.5369 Y55.7638
G01 X150.6038 Y55.8170
G01 X150.6659 Y55.8758
G01 X150.7227 Y55.9397
G01 X150.7738 Y56.0082
G01 X150.8190 Y56.0808
G01 X150.8577 Y56.1571
G01 X150.8898 Y56.2363
G01 X150.9150 Y56.3180
G01 X150.9332 Y56.4016
G01 X150.9441 Y56.4864
G01 X150.9478 Y56.5718
G01 Y66.3350
G01 X152.7140
G01 Y51.3005
G01 X150.6086
G01 X142.4433 Y60.1216
G01 X142.3826 Y60.1818
G01 X142.3169 Y60.2366
G01 X142.2469 Y60.2856
G01 X142.1729 Y60.3284
G01 X142.0955 Y60.3648
G01 X142.0153 Y60.3944
G01 X141.9328 Y60.4170
G01 X141.8487 Y60.4326
G01 X141.7636 Y60.4408
G01 X141.6781 Y60.4418
G01 X141.5929 Y60.4355
G01 X141.5084 Y60.4219
G01 X141.4255 Y60.4011
G01 X141.3446 Y60.3734
G01 X141.2664 Y60.3388
G01 X141.1915 Y60.2977
G01 X141.1203 Y60.2503
G01 X141.0534 Y60.1971
G01 X140.9913 Y60.1383
G01 X140.9345 Y60.0744
G01 X140.8833 Y60.0059
G01 X140.8382 Y59.9332
G01 X140.7995 Y59.8570
G01 X140.7674 Y59.7778
G01 X140.7422 Y59.6961
G01 X140.7240 Y59.6125
G01 X140.7131 Y59.5277
G01 X140.7094 Y59.4423
G01 Y51.3005
G01 X138.9431
G01 X139.1431 Y51.5005
M107
G00 Z0.0000
G00 Z2.0000


;No. 23: Hole 22
G00 X131.2656 Y52.8177 Z2.0000
G00 Z0.5000
G01 Z0.0000 F400
G01 Z-1.2000
M106 S240
G01 X130.3808 F1000
G01 Y54.3177
G01 X131.2656
G01 Y55.8177
G01 X130.3808
G01 Y57.3177
G01 X131.2656
G01 Y58.8177
G01 X130.3808
G01 Y60.3177
G01 X131.2656
G01 Y61.8177
G01 X130.3808
G01 Y63.3177
G01 X131.2656
G01 Y64.8177
G01 X130.3808
G01 X130.1408 Y64.7982
G01 Y66.1350
G01 X131.5056
G01 Y51.5005
G01 X130.1408
G01 Y64.7982
G01 X130.3808 Y64.8177
M107
G00 Z2.0000


;No. 24: Hole 22
G00 X130.1408 Y51.5005 Z2.0000
G00 Z0.5000
G01 Z-1.2000 F400
M106 S240
G01 X129.9408 Y51.3005 F1000
G01 Y66.3350
G01 X131.7056
G01 Y51.3005
G01 X129.9408
G01 X130.1408 Y51.5005
M107
G00 Z0.0000
G00 Z2.0000


;No. 25: Hole 23
G00 X122.9513 Y52.8177 Z2.0000
G00 Z0.5000
G01 Z0.0000 F400
G01 Z-1.2000
M106 S240
G01 X121.2940 F1000
G01 X121.5625 Y54.3177
G01 X119.9056
G01 X120.1738 Y55.8177
G01 X118.5171
G01 X118.7851 Y57.3177
G01 X117.1286
G01 X117.9166 Y58.8177
G01 X115.7402
G01 X117.1276 Y60.3177
G01 X118.7735
G01 X118.5163 Y61.8177
G01 X120.1738
G01 X119.9050 Y63.3177
G01 X121.5625
G01 X121.2938 Y64.8177
G01 X122.9512
G01 X123.1219 Y64.6488
G01 X119.9528 Y61.2258
G01 X119.5561 Y60.8203
G01 X119.1670 Y60.4076
G01 X118.7857 Y59.9877
G01 X118.4123 Y59.5608
G01 X118.3624 Y59.4924
G01 X118.3175 Y59.4206
G01 X118.2777 Y59.3458
G01 X118.2433 Y59.2684
G01 X118.2145 Y59.1887
G01 X118.1913 Y59.1072
G01 X118.1740 Y59.0243
G01 X118.1625 Y58.9404
G01 X118.1570 Y58.8559
G01 X118.1575 Y58.7712
G01 X118.1639 Y58.6867
G01 X118.1763 Y58.6029
G01 X118.1946 Y58.5202
G01 X118.2186 Y58.4390
G01 X118.2484 Y58.3596
G01 X118.2836 Y58.2826
G01 X118.3242 Y58.2083
G01 X118.3700 Y58.1370
G01 X118.4206 Y58.0691
G01 X118.4759 Y58.0049
G01 X124.4979 Y51.5005
G01 X122.1863
G01 X115.4125 Y58.8185
G01 X122.1863 Y66.1350
G01 X124.4979
G01 X123.1219 Y64.6488
G01 X122.9512 Y64.8177
M107
G00 Z2.0000


;No. 26: Hole 23
G00 X115.4125 Y58.8185 Z2.0000
G00 Z0.5000
G01 Z-1.2000 F400
M106 S240
G01 X115.1399 F1000
G01 X122.0989 Y66.3350
G01 X124.9556
G01 X120.0402 Y61.0258
G01 X119.6488 Y60.6287
G01 X119.2667 Y60.2228
G01 X118.8942 Y59.8081
G01 X118.5312 Y59.3849
G01 X118.5082 Y59.3497
G01 X118.4867 Y59.3135
G01 X118.4667 Y59.2765
G01 X118.4483 Y59.2387
G01 X118.4315 Y59.2001
G01 X118.4163 Y59.1608
G01 X118.4028 Y59.1209
G01 X118.3910 Y59.0805
G01 X118.3809 Y59.0397
G01 X118.3725 Y58.9984
G01 X118.3659 Y58.9568
G01 X118.3610 Y58.9150
G01 X118.3579 Y58.8731
G01 X118.3565 Y58.8310
G01 X118.3570 Y58.7889
G01 X118.3592 Y58.7469
G01 X118.3631 Y58.7050
G01 X118.3689 Y58.6633
G01 X118.3764 Y58.6218
G01 X118.3856 Y58.5808
G01 X118.3965 Y58.5401
G01 X118.4091 Y58.5000
G01 X118.4235 Y58.4604
G01 X118.4394 Y58.4214
G01 X118.4570 Y58.3832
G01 X118.4762 Y58.3457
G01 X118.4969 Y58.3091
G01 X118.5192 Y58.2734
G01 X118.5430 Y58.2386
G01 X118.5682 Y58.2049
G01 X118.5947 Y58.1723
G01 X118.6227 Y58.1408
G01 X124.9556 Y51.3005
G01 X122.0989
G01 X115.1399 Y58.8185
G01 X115.4125
M107
G00 Z0.0000
G00 Z2.0000


;No. 27: Hole 24
G00 X110.2571 Y58.8177 Z2.0000
G00 Z0.5000
G01 Z0.0000 F400
G01 Z-1.2000
M106 S240
G01 X109.3723 F1000
G01 Y57.3177
G01 X110.2571
G01 Y55.8177
G01 X109.3723
G01 Y54.3177
G01 X110.2571
G01 Y52.8177
G01 X109.3723
M107
G00 Z2.0000
G00 Y58.8177
G00 Z0.5000
G01 Z-1.2000 F400
M106 S240
G01 Y60.3177 F1000
G01 X110.2571
G01 Y61.8177
G01 X109.3723
G01 Y63.3177
G01 X110.2571
G01 Y64.8177
G01 X109.3723
G01 X109.1323 Y64.7982
G01 Y66.1350
G01 X110.4971
G01 Y51.5005
G01 X109.1323
G01 Y64.7982
G01 X109.3723 Y64.8177
M107
G00 Z2.0000


;No. 28: Hole 24
G00 X109.1323 Y51.5005 Z2.0000
G00 Z0.5000
G01 Z-1.2000 F400
M106 S240
G01 X108.9323 Y51.3005 F1000
G01 Y66.3350
G01 X110.6971
G01 Y51.3005
G01 X108.9323
G01 X109.1323 Y51.5005
M107
G00 Z0.0000
G00 Z2.0000


;No. 29: Hole 25
G00 X101.9431 Y52.8178 Z2.0000
G00 Z0.5000
G01 Z0.0000 F400
G01 Z-1.2000
M106 S240
G01 X100.2856 F1000
G01 X100.5544 Y54.3178
G01 X98.8969
G01 X99.1664 Y55.8178
G01 X97.5081
G01 X98.8963 Y57.3178
G01 X96.1194
G01 Y58.8178
G01 X103.6319
G01 X88.3641
G01 Y57.3178
G01 X89.3534
G01 X89.2504 Y55.8178
G01 X88.3641
G01 Y54.3178
G01 X89.2504
G01 Y52.8178
G01 X88.3641
M107
G00 Z2.0000
G00 X102.7434 Y58.8178
G00 Z0.5000
G01 Z-1.2000 F400
M106 S240
G01 Y60.3178 F1000
G01 X104.2529
G01 X104.2558 Y61.8178
G01 X103.3608
G01 X103.3691 Y63.3178
G01 X104.2558
G01 Y64.8178
G01 X89.6682
G01 X89.5908 Y64.5905
G01 X89.4767 Y64.6377
G01 X89.3656 Y64.6915
G01 X89.2578 Y64.7518
G01 X89.1538 Y64.8184
G01 X89.0540 Y64.8911
G01 X88.9586 Y64.9695
G01 X88.8680 Y65.0534
G01 X88.7826 Y65.1426
G01 X88.7938 Y65.1297
G01 X88.6990 Y65.2397
G01 X88.6108 Y65.3549
G01 X88.5293 Y65.4750
G01 X88.4548 Y65.5996
G01 X88.3876 Y65.7282
G01 X88.3280 Y65.8605
G01 X88.2760 Y65.9960
G01 X88.2319 Y66.1343
G01 X104.4958 Y66.1350
G01 X104.5158 Y64.6814
G01 X104.5221 Y63.2277
G01 X104.5146 Y61.7739
G01 X104.4933 Y60.3203
G01 X104.4848 Y60.1697
G01 X104.4675 Y60.0198
G01 X104.4412 Y59.8712
G01 X104.4062 Y59.7244
G01 X104.3626 Y59.5799
G01 X104.3105 Y59.4383
G01 X104.2501 Y59.3000
G01 X104.1816 Y59.1656
G01 X104.1052 Y59.0354
G01 X104.0213 Y58.9100
G01 X103.9301 Y58.7898
G01 X103.8319 Y58.6752
G01 X103.7271 Y58.5666
G01 X103.6160 Y58.4645
G01 X103.4991 Y58.3691
G01 X103.3768 Y58.2808
G01 X103.2494 Y58.1999
