;Project TinTinPortrait
;Created by Estlcam version 11 build 11,112
;Machining time about 00:23:18 hours

G90
M03 S18000
G00 X0.0000 Y0.0000 Z0.0000
G00 Z2.0000


;No. 1: Hole 6
G00 X115.4379 Y32.5659
G00 Z0.5000
G01 Z-1.5000 F400 S18000
M106 S200
G01 X121.8161 F800
G01 Y34.0659
G01 X123.9989
G01 X111.9070
G01 Y35.5659
G01 X109.1239
G01 X124.7593
G01 X125.4475 Y37.0659
G01 X106.7673
G01 Y38.5659
G01 X104.6408
G01 X125.9967
G01 X126.5098 Y40.0659
G01 X102.5139
G01 Y41.5659
G01 X100.4890
G01 X126.9969
G01 X127.4580 Y43.0659
G01 X98.6543
G01 Y44.5659
G01 X96.7307
G01 X127.8942
G01 X128.3050 Y46.0659
G01 X95.2001
G01 X93.6829 Y47.5659
G01 X128.6900
G01 X129.0501 Y49.0659
G01 X92.1705
G01 X90.6631 Y50.5659
G01 X129.3843
G01 X129.6926 Y52.0659
G01 X89.1646
G01 X89.0108 Y53.5659
G01 X129.9747
G01 X130.2297 Y55.0659
G01 X89.2437
G01 X89.3063 Y56.5659
G01 X130.4582
G01 X130.6582 Y58.0659
G01 X89.7682
G01 X90.1505 Y59.5659
G01 X130.8313
G01 X106.7712
G01 Y61.0659
G01 X90.2422
G01 X90.4991 Y62.5659
G01 X99.3363
G01 X95.4757
G01 Y64.0659
G01 X91.0653
M107
G00 Z2.0000
G00 X109.1871 Y59.5659
G00 Z0.5000
G01 Z-1.5000 F400
M106 S200
G01 Y61.0659 F800
G01 X130.9747
G01 X131.0691 Y62.5659
G01 X116.1785
G01 X119.1118
G01 Y64.0659
G01 X131.1176
G01 X131.1389 Y65.5659
G01 X120.7345
G01 X121.7235 Y67.0659
G01 X131.1465
G01 X131.1463 Y68.5659
G01 X123.6661
G01 X124.5221 Y70.0659
G01 X131.1438
G01 X131.1382 Y71.5659
G01 X124.9865
G01 X125.2914 Y73.0659
G01 X131.1304
G01 X131.1159 Y74.5659
G01 X125.4171
G01 X125.3045 Y76.0659
G01 X131.0902
G01 X131.0448 Y77.5659
G01 X125.0105
G01 X124.7129 Y79.0659
G01 X130.9676
G01 X130.8553 Y80.5659
G01 X126.7143
G01 X127.5114 Y82.0659
G01 X130.7152
G01 X130.5611 Y83.5659
G01 X128.0135
G01 X128.2306 Y85.0659
G01 X130.4009
G01 X130.2346 Y86.5659
G01 X128.1614
G01 X127.7821 Y88.0659
G01 X130.0621
G01 X129.8828 Y89.5659
G01 X127.0400
G01 X125.7965 Y91.0659
G01 X129.6956
G01 X129.4999 Y92.5659
G01 X123.5205
G01 X129.2949
G01 Y94.0659
G01 X108.1466
G01 X114.8761
G01 Y92.5659
G01 X117.9993
M107
G00 Z2.0000
G00 X129.0789 Y94.0659
G00 Z0.5000
G01 Z-1.5000 F400
M106 S200
G01 Y95.5659 F800
G01 X104.2433
G01 Y97.0659
G01 X101.4352
G01 X128.8518
G01 X128.6122 Y98.5659
G01 X99.7891
G01 X99.2835 Y100.0659
G01 X128.3588
G01 X128.0915 Y101.5659
G01 X99.1402
G01 X99.0555 Y103.0659
G01 X127.8171
G01 X127.5445 Y104.5659
G01 X98.7790
G01 X97.7726 Y106.0659
G01 X127.2779
G01 X127.0209 Y107.5659
G01 X91.0999
G01 X90.3196 Y109.0659
G01 X126.7798
G01 X126.5699 Y110.5659
G01 X89.8197
G01 X89.3893 Y112.0659
G01 X126.4212
G01 X126.3777 Y113.5659
G01 X89.0069
G01 X88.6670 Y115.0659
G01 X126.4172
G01 X126.5030 Y116.5659
G01 X88.3641
G01 X88.0276 Y118.0659
G01 X126.6296
G01 X126.7984 Y119.5659
G01 X87.5885
G01 X86.6228 Y121.0659
G01 X127.0180
G01 X127.3095 Y122.5659
G01 X84.7414
G01 Y124.0659
G01 X81.2475
G01 X127.0098
G01 X125.7838 Y125.5659
G01 X79.1662
G01 X77.8177 Y127.0659
G01 X95.2418
G01 X91.9805
G01 Y128.5659
G01 X58.3503
G01 X56.9685 Y127.0659
G01 X75.7047
G01 X75.6539 Y125.5659
G01 X55.6823
G01 X54.5337 Y124.0659
G01 X66.8152
G01 X67.0885 Y122.5659
G01 X53.5045
G01 X52.6400 Y121.0659
G01 X67.6925
G01 X65.1197
G01 Y119.5659
G01 X51.9313
G01 X51.3320 Y118.0659
G01 X65.9186
G01 Y116.5659
G01 X68.4336
G01 X50.7993
G01 X50.3101 Y115.0659
G01 X69.1901
G01 X70.1508 Y113.5659
G01 X49.8488
G01 X49.4068 Y112.0659
G01 X70.3097
G01 X71.0809 Y110.5659
G01 X48.9780
G01 X48.5581 Y109.0659
G01 X71.0639
G01 X71.1273 Y107.5659
G01 X48.1450
G01 X47.7371 Y106.0659
G01 X68.1161
G01 X67.3433 Y104.5659
G01 X47.3327
G01 X46.9320 Y103.0659
G01 X67.1677
G01 X67.1537 Y101.5659
G01 X46.5363
G01 X46.1463 Y100.0659
G01 X66.3192
G01 X65.3181 Y98.5659
G01 X45.7644
G01 X45.3917 Y97.0659
G01 X64.6451
G01 X63.2508 Y95.5659
G01 X45.0382
G01 X47.1890
G01 Y94.0659
G01 X61.9265
G01 X61.2706 Y92.5659
G01 X49.5051
G01 X51.3571
G01 Y91.0659
G01 X60.5918
G01 X59.4602 Y89.5659
G01 X53.0996
G01 X54.6704 Y88.0659
G01 X58.6252
G01 X57.2161 Y86.5659
G01 X56.0296
M107
G00 Z2.0000
G00 X70.1476 Y125.5659
G00 Z0.5000
G01 Z-1.5000 F400
M106 S200
G01 Y124.0659 F800
G01 X76.3944
G01 X77.4282 Y122.5659
G01 X75.0906
G01 X77.1436
G01 Y121.0659
G01 X78.8651
G01 X78.2490 Y119.5659
G01 X79.7046
M107
G00 Z2.0000
G00 X98.4456 Y125.5659
G00 Z0.5000
G01 Z-1.5000 F400
M106 S200
G01 Y127.0659 F800
G01 X124.5621
G01 X123.3716 Y128.5659
G01 X97.8882
G01 Y130.0659
G01 X96.0025
G01 X122.4103
G01 X122.7595 Y131.5659
G01 X93.7504
G01 Y133.0659
G01 X90.9958
G01 X127.7103
G01 X126.9636 Y134.5659
G01 X91.1250
G01 X92.4196 Y136.0659
G01 X126.4363
G01 X125.9469 Y137.5659
G01 X93.6880
G01 X93.4200 Y139.0659
G01 X104.6980
G01 X103.1839 Y140.5659
G01 X74.2581
G01 X74.6146 Y139.0659
G01 X80.5634
M107
G00 Z2.0000
G00 X87.0777 Y128.5659
G00 Z0.5000
G01 Z-1.5000 F400
M106 S200
G01 Y130.0659 F800
G01 X59.7833
G01 X61.2418 Y131.5659
G01 X84.1440
G01 X84.3319 Y133.0659
G01 X62.7128
G01 X64.1909 Y134.5659
G01 X71.9069
G01 X71.6028 Y136.0659
G01 X65.6718
G01 X67.1527 Y137.5659
G01 X70.9545
G01 X70.4060 Y139.0659
G01 X68.6336
M107
G00 Z2.0000
G00 X79.8127 Y133.0659
G00 Z0.5000
G01 Z-1.5000 F400
M106 S200
G01 Y134.5659 F800
G01 X85.2221
M107
G00 Z2.0000
G00 X107.2324 Y137.5659
G00 Z0.5000
G01 Z-1.5000 F400
M106 S200
G01 Y139.0659 F800
G01 X125.4816
G01 X116.0527
G01 Y140.5659
G01 X107.5182
G01 X107.7339 Y142.0659
G01 X115.0215
G01 X114.0450 Y143.5659
G01 X107.9542
G01 X108.1767 Y145.0659
G01 X113.0644
G01 X112.0059 Y146.5659
G01 X108.3936
G01 X108.5986 Y148.0659
G01 X110.8114
G01 X110.3553 Y149.5659
G01 X108.4669
G01 Y151.0659
G01 X104.7678
G01 X112.8941
G01 X113.9398 Y152.5659
G01 X101.6321
G01 Y154.0659
G01 X98.8122
G01 X119.5358
G01 X120.0600 Y152.5659
G01 X116.8188
G01 X117.5732 Y151.0659
G01 X120.7640
G01 X121.4817 Y149.5659
G01 X118.2277
G01 X118.7350 Y148.0659
G01 X122.1558
G01 X122.7912 Y146.5659
G01 X119.0310
G01 X119.1090 Y145.0659
G01 X123.3911
G01 X123.9586 Y143.5659
G01 X119.0239
G01 X118.8400 Y142.0659
G01 X124.4949
G01 X125.0021 Y140.5659
G01 X118.4949
M107
G00 Z2.0000
G00 X101.7381
G00 Z0.5000
G01 Z-1.5000 F400
M106 S200
G01 Y142.0659 F800
G01 X73.8784
G01 X73.4655 Y143.5659
G01 X100.3215
G01 X98.9250 Y145.0659
G01 X72.9997
G01 X72.4404 Y146.5659
G01 X97.5452
G01 X96.1817 Y148.0659
G01 X71.8343
G01 X71.3150 Y149.5659
G01 X94.8367
G01 X93.5175 Y151.0659
G01 X70.8455
G01 X70.4150 Y152.5659
G01 X92.2688
G01 X91.0693 Y154.0659
G01 X70.0205
G01 X69.6658 Y155.5659
G01 X89.9087
G01 X88.7998 Y157.0659
G01 X69.3635
G01 X69.2024 Y158.5659
G01 X87.9626
G01 X89.1094 Y160.0659
G01 X69.1922
G01 X69.2286 Y161.5659
G01 X129.8103
G01 X128.4584 Y160.0659
G01 X89.3355
G01 X91.8058
G01 Y158.5659
G01 X126.7858
G01 X124.4498
G01 Y157.0659
G01 X93.8766
G01 X96.2100
G01 Y155.5659
G01 X120.5448
M107
G00 Z2.0000
G00 X69.2841 Y161.5659
G00 Z0.5000
G01 Z-1.5000 F400
M106 S200
G01 Y163.0659 F800
G01 X130.9251
G01 X131.8730 Y164.5659
G01 X69.3804
G01 X69.5588 Y166.0659
G01 X132.7441
G01 X133.5817 Y167.5659
G01 X69.8433
G01 X70.2035 Y169.0659
G01 X134.3737
G01 X135.0530 Y170.5659
G01 X70.6308
G01 X71.1230 Y172.0659
G01 X135.6036
G01 X136.0828 Y173.5659
G01 X71.6869
G01 X72.3331 Y175.0659
G01 X136.5360
G01 X136.9968 Y176.5659
G01 X73.0803
G01 X73.9500 Y178.0659
G01 X137.4958
G01 Y179.5659
G01 X139.3467
G01 X74.6260
G01 X74.3113 Y181.0659
G01 X143.0805
G01 X143.4919 Y182.5659
G01 X73.6828
G01 X73.1458 Y184.0659
G01 X143.3972
G01 X141.1403
G01 Y185.5659
G01 X72.6441
G01 X72.1898 Y187.0659
G01 X137.4810
G01 X137.3521 Y188.5659
G01 X71.8394
G01 X71.5627 Y190.0659
G01 X137.2863
G01 X137.1378 Y191.5659
G01 X71.3337
G01 X71.1425 Y193.0659
G01 X136.9402
G01 X136.7141 Y194.5659
G01 X70.9881
G01 X70.8716 Y196.0659
G01 X136.4690
G01 X136.2123 Y197.5659
G01 X70.8047
G01 X70.8146 Y199.0659
G01 X135.9551
G01 X135.6978 Y200.5659
G01 X70.9088
G01 X71.0302 Y202.0659
G01 X135.4065
G01 X135.0315 Y203.5659
G01 X71.1858
G01 X71.3830 Y205.0659
G01 X134.6297
G01 X134.2106 Y206.5659
G01 X71.6313
G01 X71.9431 Y208.0659
G01 X133.7674
G01 X133.2613 Y209.5659
G01 X72.3290
G01 X72.8068 Y211.0659
G01 X132.6727
G01 X132.0571 Y212.5659
G01 X73.3887
G01 X74.0865 Y214.0659
G01 X131.4461
G01 X130.8817 Y215.5659
G01 X74.9053
G01 X75.8943 Y217.0659
G01 X130.5244
G01 X131.0535 Y218.5659
G01 X77.2660
G01 X78.8354 Y220.0659
G01 X132.1003
G01 X132.8257 Y221.5659
G01 X80.5181
G01 X82.5319
G01 Y223.0659
G01 X133.3179
G01 X133.6294 Y224.5659
G01 X85.1644
G01 X88.2823
G01 Y226.0659
G01 X116.5098
G01 X112.7334
G01 Y227.5659
G01 X92.4384
G01 X99.0630
G01 Y229.0659
G01 X105.3563
M107
G00 Z2.0000
G00 X120.7304 Y224.5659
G00 Z0.5000
G01 Z-1.5000 F400
M106 S200
G01 Y226.0659 F800
G01 X133.7817
G01 X133.7756 Y227.5659
G01 X122.2668
G01 X123.2802 Y229.0659
G01 X133.6021
G01 X133.2319 Y230.5659
G01 X123.7661
G01 X123.9384 Y232.0659
G01 X130.5181
G01 X126.3924
G01 Y233.5659
G01 X123.7508
G01 X123.0958 Y235.0659
G01 X124.4324
M107
G00 Z2.0000
G00 X128.6247 Y232.0659
G00 Z0.5000
G01 Z-1.5000 F400
M106 S200
G01 Y233.5659 F800
G01 X129.7124
M107
G00 Z2.0000
G00 X123.6053 Y83.5659
G00 Z0.5000
G01 Z-1.5000 F400
M106 S200
G01 X122.5949 F800
G01 X121.6205 Y85.0659
G01 X124.1643
G01 X124.2887 Y86.5659
G01 X120.6424
G01 X119.6643 Y88.0659
G01 X123.3634
M107
G00 Z2.0000
G00 Z0.5000
G01 Z-1.5000 F400
M106 S200
G01 X123.4839 Y88.2256 F800
G01 X123.5877 Y88.1486
G01 X123.6872 Y88.0662
G01 X123.7823 Y87.9787
G01 X123.8726 Y87.8862
G01 X123.9579 Y87.7891
G01 X124.0380 Y87.6877
G01 X124.1126 Y87.5822
G01 X124.1815 Y87.4728
G01 X124.2445 Y87.3600
G01 X124.3015 Y87.2440
G01 X124.3523 Y87.1252
G01 X124.3967 Y87.0038
G01 X124.4347 Y86.8803
G01 X124.4661 Y86.7549
G01 X124.4908 Y86.6281
G01 X124.5088 Y86.5001
G01 X124.5201 Y86.3714
G01 X124.5245 Y86.2422
G01 X124.5220 Y86.1130
G01 X124.5128 Y85.9841
G01 X124.4675 Y85.6204
G01 X124.4040 Y85.2595
G01 X124.3223 Y84.9023
G01 X124.2227 Y84.5496
G01 X124.1054 Y84.2025
G01 X123.9708 Y83.8617
G01 X123.8191 Y83.5281
G01 X123.6507 Y83.2026
G01 X123.6111 Y83.1108
G01 X123.5808 Y83.0156
G01 X123.5602 Y82.9177
G01 X123.5494 Y82.8184
G01 X123.5486 Y82.7184
G01 X123.5935 Y82.4116
G01 X123.6618 Y82.1090
G01 X123.7531 Y81.8127
G01 X123.8669 Y81.5241
G01 X124.0024 Y81.2452
G01 X124.1589 Y80.9774
G01 X124.3355 Y80.7225
G01 X124.5311 Y80.4818
G01 X124.6113 Y80.4016
G01 X124.6981 Y80.3285
G01 X124.7908 Y80.2632
G01 X124.8889 Y80.2061
G01 X124.9914 Y80.1575
G01 X125.0977 Y80.1180
G01 X125.2071 Y80.0877
G01 X125.3186 Y80.0669
G01 X125.4315 Y80.0557
G01 X125.5449 Y80.0543
G01 X125.6581 Y80.0625
G01 X125.7701 Y80.0805
G01 X125.8802 Y80.1080
G01 X125.9875 Y80.1448
G01 X126.0912 Y80.1907
G01 X126.1907 Y80.2453
G01 X126.2727 Y80.3245
G01 X126.3509 Y80.4074
G01 X126.4250 Y80.4940
G01 X126.4950 Y80.5840
G01 X126.5606 Y80.6772
G01 X126.6217 Y80.7734
G01 X126.6782 Y80.8724
G01 X126.7299 Y80.9740
G01 X126.9680 Y81.3782
G01 X127.1834 Y81.7950
G01 X127.3757 Y82.2229
G01 X127.5440 Y82.6608
G01 X127.6881 Y83.1073
G01 X127.8073 Y83.5610
G01 X127.9014 Y84.0207
G01 X127.9701 Y84.4847
G01 X128.0132 Y84.9519
G01 X128.0304 Y85.4207
G01 X128.0219 Y85.8898
G01 X127.9876 Y86.3577
G01 X127.9067 Y86.8564
G01 X127.7929 Y87.3486
G01 X127.6466 Y87.8322
G01 X127.4684 Y88.3049
G01 X127.2591 Y88.7647
G01 X127.0197 Y89.2096
G01 X126.7512 Y89.6376
G01 X126.4549 Y90.0468
G01 X126.1319 Y90.4353
G01 X125.7838 Y90.8015
G01 X125.4122 Y91.1436
G01 X125.0185 Y91.4603
G01 X124.6047 Y91.7502
G01 X124.1725 Y92.0118
G01 X123.7239 Y92.2441
G01 X123.2608 Y92.4460
G01 X122.7852 Y92.6166
G01 X122.2994 Y92.7552
G01 X121.8055 Y92.8612
G01 X121.3055 Y92.9341
G01 X120.8475 Y92.9640
G01 X120.3885 Y92.9590
G01 X119.9312 Y92.9188
G01 X119.4783 Y92.8439
G01 X119.0325 Y92.7346
G01 X118.5963 Y92.5916
G01 X118.1723 Y92.4157
G01 X117.7630 Y92.2080
G01 X117.7051 Y92.1604
G01 X117.6509 Y92.1086
G01 X117.6007 Y92.0529
G01 X117.5548 Y91.9935
G01 X117.5135 Y91.9309
G01 X117.4771 Y91.8654
G01 X117.4456 Y91.7974
G01 X117.4193 Y91.7271
G01 X117.3984 Y91.6551
G01 X117.3829 Y91.5818
G01 X117.3729 Y91.5075
G01 X117.3686 Y91.4326
G01 X117.3715 Y91.3327
G01 X117.3817 Y91.2548
G01 X117.3975 Y91.1778
G01 X117.4189 Y91.1022
G01 X117.4458 Y91.0284
G01 X117.4781 Y90.9568
G01 X117.5156 Y90.8877
G01 X117.5580 Y90.8216
G01 X117.6051 Y90.7588
G01 X117.6580 Y90.6273
G01 X117.7190 Y90.4995
G01 X117.7881 Y90.3757
G01 X117.8649 Y90.2567
G01 X117.9491 Y90.1427
G01 X118.0403 Y90.0343
G01 X118.1383 Y89.9320
G01 X118.2425 Y89.8361
G01 X118.3527 Y89.7469
G01 X118.4683 Y89.6650
G01 X118.5888 Y89.5906
G01 X118.7139 Y89.5240
G01 X118.8153 Y89.4885
G01 X118.9183 Y89.4580
G01 X119.0226 Y89.4324
G01 X119.1281 Y89.4119
G01 X119.2344 Y89.3966
G01 X119.3413 Y89.3863
G01 X119.4486 Y89.3813
G01 X119.5560 Y89.3814
G01 X119.9852 Y89.3534
G01 X120.4126 Y89.3048
G01 X120.8371 Y89.2359
G01 X121.2578 Y89.1467
G01 X121.6738 Y89.0374
G01 X122.0841 Y88.9083
G01 X122.4877 Y88.7597
G01 X122.8837 Y88.5920
G01 X123.0398 Y88.5106
G01 X123.1920 Y88.4222
G01 X123.3402 Y88.3272
G01 X123.4839 Y88.2256
G01 X123.3634 Y88.0659
M107
G00 Z2.0000
G00 X117.4710 Y139.0659
G00 Z0.5000
G01 Z-1.5000 F400
M106 S200
G01 Y140.0122 F800
G01 X117.5610 Y140.0303
G01 X117.6493 Y140.0555
G01 X117.7354 Y140.0877
G01 X117.8186 Y140.1265
G01 X117.8985 Y140.1718
G01 X117.9745 Y140.2234
G01 X118.0462 Y140.2808
G01 X118.1131 Y140.3437
G01 X118.1748 Y140.4117
G01 X118.2309 Y140.4844
G01 X118.2810 Y140.5613
G01 X118.3249 Y140.6420
G01 X118.3623 Y140.7259
G01 X118.3929 Y140.8125
G01 X118.4165 Y140.9012
G01 X118.4330 Y140.9916
G01 X118.5649 Y141.6333
G01 X118.6749 Y142.2793
G01 X118.7628 Y142.9285
G01 X118.8286 Y143.5804
G01 X118.8721 Y144.2342
G01 X118.8934 Y144.8890
G01 X118.8924 Y145.5442
G01 X118.8691 Y146.1990
G01 X118.8107 Y146.6852
G01 X118.7322 Y147.1686
G01 X118.6337 Y147.6484
G01 X118.5154 Y148.1236
G01 X118.3774 Y148.5935
G01 X118.2201 Y149.0572
G01 X118.0437 Y149.5141
G01 X117.8484 Y149.9632
G01 X117.5298 Y150.7157
G01 X117.1802 Y151.4542
G01 X116.8002 Y152.1776
G01 X116.3905 Y152.8846
G01 X116.3355 Y152.9673
G01 X116.2731 Y153.0446
G01 X116.2040 Y153.1160
G01 X116.1287 Y153.1807
G01 X116.0479 Y153.2384
G01 X115.9621 Y153.2885
G01 X115.8722 Y153.3306
G01 X115.7788 Y153.3643
G01 X115.6827 Y153.3894
G01 X115.5847 Y153.4057
G01 X115.4857 Y153.4131
G01 X115.3864 Y153.4114
G01 X115.2876 Y153.4006
G01 X115.1903 Y153.3810
G01 X115.0951 Y153.3526
G01 X115.0029 Y153.3157
G01 X114.9144 Y153.2706
G01 X114.8304 Y153.2176
G01 X114.7516 Y153.1572
G01 X114.6786 Y153.0899
G01 X114.4179 Y152.8258
G01 X114.1737 Y152.5464
G01 X113.9467 Y152.2528
G01 X113.7380 Y151.9459
G01 X113.4378 Y151.4923
G01 X113.2981 Y151.2611
G01 X113.1405 Y151.0418
G01 X112.9660 Y150.8356
G01 X112.7756 Y150.6441
G01 X112.7176 Y150.6099
G01 X112.6577 Y150.5790
G01 X112.5963 Y150.5516
G01 X112.5333 Y150.5278
G01 X112.4691 Y150.5075
G01 X112.4038 Y150.4910
G01 X112.3377 Y150.4782
G01 X112.2710 Y150.4691
G01 X112.1226 Y150.4434
G01 X111.9748 Y150.4144
G01 X111.8277 Y150.3823
G01 X111.6813 Y150.3470
G01 X111.5830 Y150.3292
G01 X111.4861 Y150.3051
G01 X111.3909 Y150.2750
G01 X111.2978 Y150.2390
G01 X111.2071 Y150.1971
G01 X111.1192 Y150.1496
G01 X111.0346 Y150.0967
G01 X110.9534 Y150.0385
G01 X110.8761 Y149.9753
G01 X110.8029 Y149.9074
G01 X110.7341 Y149.8350
G01 X110.6700 Y149.7584
G01 X110.6428 Y149.7165
G01 X110.6178 Y149.6732
G01 X110.5949 Y149.6287
G01 X110.5742 Y149.5832
G01 X110.5559 Y149.5367
G01 X110.5399 Y149.4893
G01 X110.5263 Y149.4412
G01 X110.5152 Y149.3925
G01 X110.5065 Y149.3432
G01 X110.5002 Y149.2936
G01 X110.4965 Y149.2438
G01 X110.4952 Y149.1938
G01 X110.5002 Y149.0940
G01 X110.5259 Y148.9794
G01 X110.5593 Y148.8669
G01 X110.6004 Y148.7570
G01 X110.6489 Y148.6501
G01 X110.7045 Y148.5467
G01 X110.7671 Y148.4474
G01 X110.8363 Y148.3526
G01 X110.9118 Y148.2627
G01 X111.2952 Y147.8006
G01 X111.6701 Y147.3317
G01 X112.0366 Y146.8562
G01 X112.3944 Y146.3741
G01 X112.9435 Y145.5952
G01 X113.4801 Y144.8077
G01 X114.0040 Y144.0117
G01 X114.5152 Y143.2075
G01 X115.0632 Y142.3660
G01 X115.2437 Y142.0898
G01 X115.4258 Y141.8146
G01 X115.6095 Y141.5405
G01 X115.7947 Y141.2674
G01 X115.9722 Y140.9888
G01 X116.1710 Y140.7250
G01 X116.3899 Y140.4775
G01 X116.6275 Y140.2480
G01 X116.6876 Y140.2033
G01 X116.7506 Y140.1627
G01 X116.8162 Y140.1263
G01 X116.8840 Y140.0945
G01 X116.9538 Y140.0672
G01 X117.0253 Y140.0446
G01 X117.0981 Y140.0268
G01 X117.1720 Y140.0140
G01 X117.2465 Y140.0061
G01 X117.3214 Y140.0031
G01 X117.3964 Y140.0052
G01 X117.4710 Y140.0122
G01 Y139.0659
M107
G00 Z2.0000
G00 X107.5182 Y140.5659
G00 Z0.5000
G01 Z-1.5000 F400
M106 S200
G01 X107.3037 Y140.4738 F800
G01 X107.3379 Y140.7204
G01 X107.6233 Y142.6036
G01 X107.8992 Y144.4883
G01 X108.1655 Y146.3743
G01 X108.4222 Y148.2617
G01 X108.4590 Y148.5725
G01 X108.4774 Y148.6553
G01 X108.4892 Y148.7393
G01 X108.4942 Y148.8239
G01 X108.4923 Y148.9087
G01 X108.4837 Y148.9931
G01 X108.4684 Y149.0765
G01 X108.4464 Y149.1584
G01 X108.4179 Y149.2382
G01 X108.3831 Y149.3156
G01 X108.3423 Y149.3899
G01 X108.2956 Y149.4606
G01 X108.2434 Y149.5274
G01 X108.1860 Y149.5899
G01 X108.1237 Y149.6475
G01 X108.0571 Y149.6999
G01 X107.9865 Y149.7468
G01 X107.7178 Y149.8667
G01 X107.4418 Y149.9685
G01 X107.1596 Y150.0518
G01 X106.8725 Y150.1161
G01 X106.4304 Y150.2293
G01 X105.5565 Y150.5314
G01 X104.6959 Y150.8696
G01 X103.8501 Y151.2432
G01 X103.0206 Y151.6517
G01 X101.8606 Y152.2197
G01 X100.7102 Y152.8066
G01 X99.5696 Y153.4125
G01 X98.4391 Y154.0371
G01 X97.3191 Y154.6803
G01 X96.2098 Y155.3418
G01 X95.1117 Y156.0216
G01 X94.0248 Y156.7193
G01 X93.7886 Y156.8830
G01 X93.5553 Y157.0494
G01 X91.5447 Y158.5083
G01 X90.8920 Y158.9794
G01 X90.6099 Y159.1952
G01 X90.3176 Y159.3969
G01 X90.0158 Y159.5841
G01 X89.7052 Y159.7562
G01 X89.6244 Y159.7916
G01 X89.5410 Y159.8202
G01 X89.4556 Y159.8420
G01 X89.3687 Y159.8569
G01 X89.2809 Y159.8646
G01 X89.1927 Y159.8652
G01 X89.1048 Y159.8587
G01 X89.0177 Y159.8451
G01 X88.9320 Y159.8244
G01 X88.8482 Y159.7969
G01 X88.7670 Y159.7627
G01 X88.6888 Y159.7220
G01 X88.6141 Y159.6751
G01 X88.5435 Y159.6223
G01 X88.4774 Y159.5640
G01 X88.4162 Y159.5005
G01 X88.3603 Y159.4323
G01 X88.3102 Y159.3598
G01 X88.2661 Y159.2834
G01 X88.2284 Y159.2038
G01 X88.1972 Y159.1213
G01 X88.1728 Y159.0366
G01 X88.1553 Y158.9502
G01 X88.1449 Y158.8626
G01 X88.1418 Y158.7627
G01 X88.1665 Y158.6198
G01 X88.2007 Y158.4789
G01 X88.2445 Y158.3406
G01 X88.2976 Y158.2056
G01 X88.3597 Y158.0745
G01 X88.4305 Y157.9480
G01 X88.5098 Y157.8265
G01 X88.5971 Y157.7107
G01 X89.5006 Y156.4628
G01 X90.4240 Y155.2296
G01 X91.3672 Y154.0114
G01 X92.3298 Y152.8085
G01 X93.3116 Y151.6212
G01 X94.3123 Y150.4498
G01 X95.3318 Y149.2947
G01 X96.3696 Y148.1561
G01 X98.3542 Y145.9652
G01 X100.3674 Y143.8005
G01 X102.4089 Y141.6625
G01 X104.4784 Y139.5515
G01 X104.7185 Y139.3048
G01 X104.9742 Y139.0742
G01 X105.2442 Y138.8607
G01 X105.5276 Y138.6651
G01 X105.6123 Y138.6256
G01 X105.7000 Y138.5931
G01 X105.7901 Y138.5679
G01 X105.8819 Y138.5501
G01 X105.9749 Y138.5400
G01 X106.0684 Y138.5374
G01 X106.1618 Y138.5426
G01 X106.2545 Y138.5553
G01 X106.3458 Y138.5756
G01 X106.4351 Y138.6033
G01 X106.5219 Y138.6382
G01 X106.6055 Y138.6801
G01 X106.6854 Y138.7287
G01 X106.7611 Y138.7836
G01 X106.8320 Y138.8446
G01 X106.8977 Y138.9112
G01 X106.9577 Y138.9829
G01 X107.0117 Y139.0593
G01 X107.0592 Y139.1399
G01 X107.1000 Y139.2241
G01 X107.1337 Y139.3113
G01 X107.1602 Y139.4010
G01 X107.1793 Y139.4925
G01 X107.1908 Y139.5854
G01 X107.2093 Y139.7679
G01 X107.2564 Y140.1317
G01 X107.3037 Y140.4738
G01 X107.5182 Y140.5659
M107
G00 Z2.0000
G00 X93.6270 Y139.0659
G00 Z0.5000
G01 Z-1.5000 F400
M106 S200
G01 Y138.3264 F800
G01 X93.6097 Y138.4057
G01 X93.5859 Y138.4834
G01 X93.5560 Y138.5589
G01 X93.5200 Y138.6318
G01 X93.4783 Y138.7014
G01 X93.4310 Y138.7675
G01 X93.3785 Y138.8295
G01 X93.3212 Y138.8870
G01 X93.2593 Y138.9397
G01 X93.1934 Y138.9872
G01 X93.1239 Y139.0292
G01 X93.0512 Y139.0654
G01 X92.9758 Y139.0956
G01 X92.8982 Y139.1195
G01 X92.8189 Y139.1371
G01 X92.7384 Y139.1482
G01 X91.2445 Y139.2944
G01 X90.6059 Y139.3534
G01 X89.9663 Y139.3996
G01 X89.3259 Y139.4328
G01 X88.6849 Y139.4531
G01 X88.0436 Y139.4605
G01 X87.4024 Y139.4549
G01 X86.7613 Y139.4364
G01 X86.1208 Y139.4050
G01 X85.3953 Y139.3595
G01 X84.6704 Y139.3039
G01 X83.9465 Y139.2383
G01 X83.2234 Y139.1628
G01 X81.0722 Y138.9222
G01 X78.9231 Y138.6629
G01 X76.7764 Y138.3848
G01 X74.6322 Y138.0880
G01 X74.2650 Y139.7249
G01 X73.8618 Y141.3533
G01 X73.4227 Y142.9724
G01 X72.9480 Y144.5814
G01 X72.6749 Y145.3674
G01 X72.3861 Y146.1478
G01 X72.0815 Y146.9222
G01 X71.7613 Y147.6903
G01 X71.3476 Y148.8577
G01 X70.9579 Y150.0334
G01 X70.5924 Y151.2169
G01 X70.2513 Y152.4076
G01 X69.9346 Y153.6050
G01 X69.6426 Y154.8087
G01 X69.3752 Y156.0181
G01 X69.1328 Y157.2327
G01 X69.0708 Y157.6926
G01 X69.0261 Y158.1545
G01 X68.9987 Y158.6177
G01 X68.9886 Y159.0816
G01 X68.9869 Y159.2738
G01 Y159.5644
G01 X69.0021 Y160.8222
G01 X69.0396 Y162.0794
G01 X69.0995 Y163.3359
G01 X69.1818 Y164.5910
G01 X69.2761 Y165.3967
G01 X69.3919 Y166.1996
G01 X69.5291 Y166.9992
G01 X69.6876 Y167.7947
G01 X69.8673 Y168.5858
G01 X70.0681 Y169.3718
G01 X70.2898 Y170.1521
G01 X70.5323 Y170.9262
G01 X70.8427 Y171.8954
G01 X71.1843 Y172.8541
G01 X71.5569 Y173.8011
G01 X71.9600 Y174.7356
G01 X72.3931 Y175.6565
G01 X72.8559 Y176.5629
G01 X73.3479 Y177.4538
G01 X73.8685 Y178.3282
G01 X74.0412 Y178.6272
G01 X74.1923 Y178.9376
G01 X74.3211 Y179.2579
G01 X74.4269 Y179.5865
G01 X74.4362 Y179.6890
G01 X74.4406 Y179.7919
G01 X74.4400 Y179.8948
G01 X74.4343 Y179.9977
G01 X74.4237 Y180.1001
G01 X74.4082 Y180.2018
G01 X74.3877 Y180.3027
G01 X74.3623 Y180.4025
G01 X74.3321 Y180.5010
G01 X74.2972 Y180.5978
G01 X74.2576 Y180.6929
G01 X74.2135 Y180.7859
G01 X74.1498 Y180.9365
G01 X74.0834 Y181.0859
G01 X74.0141 Y181.2340
G01 X73.9421 Y181.3808
G01 X73.6501 Y182.1163
G01 X73.3687 Y182.8559
G01 X73.0977 Y183.5995
G01 X72.8374 Y184.3468
G01 X72.5878 Y185.0977
G01 X72.3489 Y185.8521
G01 X72.1207 Y186.6099
G01 X71.9034 Y187.3708
G01 X71.6651 Y188.4894
G01 X71.4499 Y189.6127
G01 X71.2580 Y190.7401
G01 X71.0895 Y191.8713
G01 X70.9444 Y193.0058
G01 X70.8228 Y194.1430
G01 X70.7247 Y195.2824
G01 X70.6502 Y196.4237
G01 X70.6285 Y196.8465
G01 X70.6122 Y197.2695
G01 X70.6014 Y197.6927
G01 X70.5961 Y198.1160
G01 X70.5962 Y198.3548
G01 X70.6399 Y199.5426
G01 X70.7097 Y200.7291
G01 X70.8056 Y201.9139
G01 X70.9276 Y203.0962
G01 X71.0756 Y204.2755
G01 X71.2495 Y205.4513
G01 X71.4494 Y206.6230
G01 X71.6749 Y207.7900
G01 X71.8591 Y208.6055
G01 X72.0698 Y209.4145
G01 X72.3067 Y210.2162
G01 X72.5695 Y211.0098
G01 X72.8581 Y211.7944
G01 X73.1721 Y212.5692
G01 X73.5111 Y213.3334
G01 X73.8748 Y214.0861
G01 X74.2628 Y214.8266
G01 X74.6748 Y215.5541
G01 X75.1102 Y216.2677
G01 X75.5686 Y216.9668
G01 X76.1261 Y217.6486
G01 X76.7140 Y218.3043
G01 X77.3312 Y218.9325
G01 X77.9764 Y219.5320
G01 X78.4451 Y219.9914
G01 X78.9229 Y220.4414
G01 X79.4097 Y220.8816
G01 X79.9053 Y221.3120
G01 X80.4094 Y221.7322
G01 X80.9218 Y222.1423
G01 X81.4424 Y222.5420
G01 X81.9710 Y222.9311
G01 X82.5722 Y223.3172
G01 X83.1807 Y223.6916
G01 X83.7962 Y224.0544
G01 X84.4186 Y224.4053
G01 X85.0475 Y224.7443
G01 X85.6828 Y225.0711
G01 X86.3243 Y225.3858
G01 X86.9717 Y225.6881
G01 X87.9872 Y226.1511
G01 X89.0158 Y226.5844
G01 X90.0565 Y226.9876
G01 X91.1085 Y227.3603
G01 X92.1709 Y227.7023
G01 X93.2428 Y228.0132
G01 X94.3233 Y228.2928
G01 X95.4115 Y228.5409
G01 X96.2911 Y228.7493
G01 X97.1752 Y228.9378
G01 X98.0634 Y229.1062
G01 X98.9551 Y229.2544
G01 X99.8164 Y229.3261
G01 X100.6796 Y229.3676
G01 X101.5438 Y229.3790
G01 X102.4078 Y229.3601
G01 X103.3685 Y229.3587
G01 X104.3287 Y229.3285
G01 X105.2876 Y229.2696
G01 X106.2444 Y229.1819
G01 X107.0277 Y229.0590
G01 X107.8091 Y228.9242
G01 X108.5883 Y228.7775
G01 X109.3652 Y228.6189
G01 X110.1396 Y228.4485
G01 X110.9113 Y228.2662
G01 X111.6802 Y228.0723
G01 X112.4460 Y227.8666
G01 X113.3440 Y227.5633
G01 X114.2335 Y227.2357
G01 X115.1138 Y226.8842
G01 X115.9843 Y226.5090
G01 X118.4029 Y225.4714
G01 X118.4728 Y225.4429
G01 X118.5447 Y225.4197
G01 X118.6182 Y225.4021
G01 X118.6928 Y225.3900
G01 X118.7680 Y225.3836
G01 X118.8436 Y225.3829
G01 X118.9190 Y225.3878
G01 X118.9938 Y225.3985
G01 X119.0675 Y225.4148
G01 X119.1399 Y225.4365
G01 X119.2104 Y225.4637
G01 X119.2786 Y225.4961
G01 X120.1593 Y225.9562
G01 X120.4639 Y226.1391
G01 X120.7576 Y226.3391
G01 X121.0393 Y226.5555
G01 X121.3083 Y226.7877
G01 X121.5636 Y227.0348
G01 X121.8043 Y227.2961
G01 X122.0298 Y227.5707
G01 X122.2392 Y227.8577
G01 X122.5360 Y228.2406
G01 X122.8066 Y228.6425
G01 X123.0497 Y229.0616
G01 X123.2642 Y229.4960
G01 X123.4259 Y229.9779
G01 X123.5508 Y230.4705
G01 X123.6382 Y230.9712
G01 X123.6877 Y231.4771
G01 X123.7303 Y231.7671
G01 X123.7528 Y232.0594
G01 X123.7549 Y232.3526
G01 X123.7368 Y232.6452
G01 X123.6984 Y232.9358
G01 X123.6399 Y233.2231
G01 X123.5617 Y233.5056
G01 X123.4641 Y233.7820
G01 X123.2997 Y234.1856
G01 X123.1174 Y234.5813
G01 X122.9176 Y234.9685
G01 X122.7007 Y235.3464
G01 X122.4671 Y235.7142
G01 X122.2173 Y236.0712
G01 X121.9517 Y236.4167
G01 X121.6710 Y236.7499
G01 X119.4434 Y238.0048
G01 X121.6710 Y236.7499
G01 X122.2064 Y236.5270
G01 X122.7328 Y236.2836
G01 X123.2494 Y236.0200
G01 X123.7554 Y235.7366
G01 X124.2501 Y235.4338
G01 X124.7327 Y235.1122
G01 X125.2025 Y234.7721
G01 X125.6587 Y234.4140
G01 X125.9762 Y234.1627
G01 X126.2913 Y233.9084
G01 X126.6039 Y233.6510
G01 X126.9141 Y233.3907
G01 X126.9883 Y233.3322
G01 X127.0677 Y233.2808
G01 X127.1516 Y233.2372
G01 X127.2392 Y233.2016
G01 X127.3297 Y233.1744
G01 X127.4224 Y233.1558
G01 X127.5165 Y233.1461
G01 X127.6110 Y233.1451
G01 X127.7052 Y233.1531
G01 X127.7983 Y233.1699
G01 X127.8893 Y233.1953
G01 X127.9776 Y233.2292
G01 X128.0623 Y233.2712
G01 X128.1427 Y233.3210
G01 X128.2181 Y233.3781
G01 X128.2877 Y233.4420
G01 X128.3511 Y233.5122
G01 X128.4076 Y233.5880
G01 X128.4567 Y233.6688
G01 X128.4980 Y233.7538
G01 X128.5312 Y233.8424
G01 X128.5558 Y233.9336
G01 X128.5719 Y234.0268
G01 X128.5791 Y234.1211
G01 X128.5774 Y234.2156
G01 X128.5668 Y234.3096
G01 X128.5475 Y234.4021
G01 X128.5196 Y234.4925
G01 X128.2679 Y235.0843
G01 X127.9801 Y235.6595
G01 X127.6573 Y236.2158
G01 X127.3008 Y236.7511
G01 X126.9228 Y237.1107
G01 X127.3008 Y236.7511
G01 X127.7942 Y235.9803
G01 X128.0851 Y235.7876
G01 X128.3631 Y235.5766
G01 X128.6271 Y235.3483
G01 X128.8759 Y235.1036
G01 X129.1086 Y234.8435
G01 X129.3242 Y234.5691
G01 X129.5219 Y234.2814
G01 X129.7007 Y233.9818
G01 X129.9748 Y233.4936
G01 X130.2465 Y233.0041
G01 X130.5158 Y232.5132
G01 X130.7828 Y232.0211
G01 X130.8473 Y231.9466
G01 X130.9174 Y231.8774
G01 X130.9928 Y231.8139
G01 X131.0729 Y231.7565
G01 X131.1572 Y231.7055
G01 X131.2453 Y231.6614
G01 X131.3366 Y231.6242
G01 X131.4305 Y231.5944
G01 X131.5265 Y231.5720
G01 X131.6240 Y231.5572
G01 X131.7222 Y231.5501
G01 X131.8208 Y231.5508
G01 X131.9190 Y231.5591
G01 X132.0162 Y231.5752
G01 X132.1119 Y231.5988
G01 X132.2054 Y231.6298
G01 X132.2962 Y231.6681
G01 X132.3838 Y231.7134
G01 X132.4675 Y231.7655
G01 X132.5468 Y231.8239
G01 X132.6213 Y231.8884
G01 X132.6906 Y231.9585
G01 X132.7541 Y232.0338
G01 X132.8115 Y232.1139
G01 X132.6550 Y233.3635
G01 X132.5000 Y233.8142
G01 X132.6550 Y233.3635
G01 X132.8115 Y232.1139
G01 X133.0395 Y231.6093
G01 X133.2444 Y231.0949
G01 X133.4258 Y230.5717
G01 X133.5833 Y230.0409
G01 X133.7167 Y229.5035
G01 X133.8255 Y228.9605
G01 X133.9097 Y228.4133
G01 X133.9690 Y227.8627
G01 X134.0034 Y227.3101
G01 X134.0127 Y226.7564
G01 X133.9969 Y226.2029
G01 X133.9560 Y225.6507
G01 X133.9123 Y225.1113
G01 X133.8462 Y224.5743
G01 X133.7579 Y224.0404
G01 X133.6476 Y223.5106
G01 X133.5153 Y222.9859
G01 X133.3615 Y222.4671
G01 X133.1862 Y221.9551
G01 X132.9899 Y221.4508
G01 X132.7729 Y220.9551
G01 X132.5354 Y220.4688
G01 X132.2781 Y219.9928
G01 X132.0012 Y219.5279
G01 X131.7520 Y219.1888
G01 X131.5062 Y218.8472
G01 X131.2639 Y218.5032
G01 X131.0250 Y218.1568
G01 X130.9609 Y218.0481
G01 X130.9039 Y217.9355
G01 X130.8544 Y217.8195
G01 X130.8124 Y217.7006
G01 X130.7781 Y217.5791
G01 X130.7518 Y217.4557
G01 X130.7335 Y217.3309
G01 X130.7233 Y217.2052
G01 X130.7225 Y217.1253
G01 X130.7633 Y216.7505
G01 X130.8334 Y216.3801
G01 X130.9325 Y216.0163
G01 X131.0600 Y215.6616
G01 X131.5447 Y214.3902
G01 X132.0417 Y213.1237
G01 X132.5509 Y211.8619
G01 X133.0722 Y210.6052
G01 X133.2076 Y210.2642
G01 X133.3403 Y209.9221
G01 X133.4703 Y209.5790
G01 X133.5976 Y209.2349
G01 X133.9090 Y208.2556
G01 X134.2092 Y207.2728
G01 X134.4981 Y206.2867
G01 X134.7758 Y205.2973
G01 X135.0422 Y204.3048
G01 X135.2972 Y203.3094
G01 X135.5409 Y202.3111
G01 X135.7731 Y201.3100
G01 X136.6462 Y196.2193
G01 X136.9101 Y194.6898
G01 X137.1382 Y193.1545
G01 X137.3304 Y191.6144
G01 X137.4867 Y190.0702
G01 X137.5196 Y189.4507
G01 X137.5453 Y188.8308
G01 X137.5638 Y188.2107
G01 X137.5750 Y187.5905
G01 X137.5837 Y187.4780
G01 X137.6002 Y187.3664
G01 X137.6245 Y187.2562
G01 X137.6564 Y187.1479
G01 X137.6959 Y187.0422
G01 X137.7426 Y186.9395
G01 X137.7965 Y186.8404
G01 X137.8572 Y186.7452
G01 X137.9244 Y186.6546
G01 X137.9977 Y186.5689
G01 X138.0769 Y186.4885
G01 X138.1616 Y186.4139
G01 X138.2512 Y186.3454
G01 X138.3455 Y186.2833
G01 X138.4439 Y186.2280
G01 X138.5458 Y186.1798
G01 X138.6510 Y186.1388
G01 X138.7587 Y186.1053
G01 X138.8685 Y186.0794
G01 X138.9799 Y186.0612
G01 X139.4460 Y185.9891
G01 X139.9133 Y185.9256
G01 X140.3817 Y185.8707
G01 X140.8510 Y185.8244
G01 X141.1389 Y185.7794
G01 X141.4224 Y185.7123
G01 X141.7000 Y185.6236
G01 X141.9699 Y185.5137
G01 X142.2305 Y185.3835
G01 X142.4804 Y185.2335
G01 X142.7179 Y185.0648
G01 X142.9418 Y184.8782
G01 X143.1506 Y184.6750
G01 X143.3432 Y184.4563
G01 X143.5183 Y184.2235
G01 X143.6750 Y183.9778
G01 X143.7074 Y183.6606
G01 X143.7233 Y183.3422
G01 X143.7228 Y183.0234
G01 X143.7059 Y182.7050
G01 X143.6726 Y182.3879
G01 X143.6230 Y182.0730
G01 X143.5573 Y181.7610
G01 X143.4755 Y181.4529
G01 X143.3876 Y181.2378
G01 X143.2852 Y181.0292
G01 X143.1688 Y180.8280
G01 X143.0390 Y180.6353
G01 X142.8963 Y180.4519
G01 X142.7414 Y180.2786
G01 X142.5751 Y180.1164
G01 X142.3981 Y179.9658
G01 X142.3104 Y179.9302
G01 X142.2214 Y179.8977
G01 X142.1314 Y179.8683
G01 X142.0404 Y179.8420
G01 X141.9486 Y179.8188
G01 X141.8561 Y179.7988
G01 X141.7628 Y179.7821
G01 X141.6691 Y179.7685
G01 X141.2585 Y179.6968
G01 X140.8474 Y179.6274
G01 X140.4360 Y179.5602
G01 X140.0242 Y179.4952
G01 X139.6530 Y179.4418
G01 X139.2878 Y179.3568
G01 X138.9312 Y179.2407
G01 X138.5859 Y179.0944
G01 X138.4776 Y179.0355
G01 X138.3738 Y178.9691
G01 X138.2749 Y178.8956
G01 X138.1815 Y178.8153
G01 X138.0939 Y178.7286
G01 X138.0126 Y178.6360
G01 X137.9381 Y178.5378
G01 X137.8707 Y178.4347
G01 X137.8107 Y178.3271
G01 X137.7584 Y178.2155
G01 X137.7141 Y178.1005
G01 X137.6780 Y177.9827
G01 X137.2322 Y176.6112
G01 X136.7957 Y175.2367
G01 X136.3686 Y173.8593
G01 X135.9508 Y172.4790
G01 X135.7280 Y171.8010
G01 X135.4861 Y171.1296
G01 X135.2254 Y170.4653
G01 X134.9460 Y169.8086
G01 X134.6481 Y169.1600
G01 X134.3321 Y168.5201
G01 X133.9981 Y167.8894
G01 X133.6465 Y167.2684
G01 X132.9707 Y166.0339
G01 X132.2608 Y164.8187
G01 X131.5175 Y163.6236
G01 X130.7413 Y162.4496
G01 X130.2336 Y161.7630
G01 X129.6957 Y161.0998
G01 X129.1288 Y160.4613
G01 X128.5339 Y159.8487
G01 X127.9122 Y159.2633
G01 X127.2650 Y158.7062
G01 X126.5936 Y158.1786
G01 X125.8993 Y157.6815
G01 X125.3927 Y157.3653
G01 X124.8746 Y157.0682
G01 X124.3457 Y156.7908
G01 X123.8067 Y156.5335
G01 X123.2585 Y156.2966
G01 X122.7018 Y156.0804
G01 X122.1373 Y155.8853
G01 X121.5659 Y155.7116
G01 X121.2231 Y155.6077
G01 X120.8853 Y155.4886
G01 X120.5532 Y155.3545
G01 X120.2275 Y155.2056
G01 X120.1558 Y155.1582
G01 X120.0882 Y155.1051
G01 X120.0253 Y155.0466
G01 X119.9674 Y154.9831
G01 X119.9150 Y154.9150
G01 X119.8685 Y154.8428
G01 X119.8280 Y154.7670
G01 X119.7940 Y154.6881
G01 X119.7666 Y154.6066
G01 X119.7460 Y154.5232
G01 X119.7324 Y154.4383
G01 X119.7259 Y154.3527
G01 X119.7204 Y154.2529
G01 X119.7877 Y153.8815
G01 X119.8852 Y153.5168
G01 X120.0124 Y153.1615
G01 X120.1684 Y152.8178
G01 X120.3033 Y152.5100
G01 X120.4414 Y152.2037
G01 X120.5828 Y151.8988
G01 X120.7275 Y151.5955
G01 X121.2660 Y150.4820
G01 X121.7881 Y149.3607
G01 X122.2938 Y148.2320
G01 X122.7830 Y147.0960
G01 X123.2556 Y145.9529
G01 X123.7115 Y144.8031
G01 X124.1505 Y143.6468
G01 X124.5726 Y142.4842
G01 X124.9776 Y141.3155
G01 X125.3656 Y140.1411
G01 X125.7364 Y138.9611
G01 X126.0899 Y137.7758
G01 X126.3784 Y136.8429
G01 X126.6876 Y135.9166
G01 X127.0177 Y134.9976
G01 X127.3682 Y134.0862
G01 X127.4095 Y133.9894
G01 X127.4542 Y133.8942
G01 X127.5021 Y133.8005
G01 X127.5532 Y133.7085
G01 X128.9165 Y131.4658
G01 X128.2962 Y131.5614
G01 X127.6737 Y131.6408
G01 X127.0492 Y131.7038
G01 X126.4234 Y131.7503
G01 X125.7965 Y131.7805
G01 X125.1691 Y131.7941
G01 X124.5415 Y131.7914
G01 X123.9142 Y131.7721
G01 X123.8124 Y131.7702
G01 X123.7110 Y131.7616
G01 X123.6103 Y131.7465
G01 X123.5109 Y131.7248
G01 X123.4130 Y131.6968
G01 X123.3172 Y131.6624
G01 X123.2238 Y131.6219
G01 X123.1333 Y131.5754
G01 X123.0460 Y131.5230
G01 X122.9623 Y131.4652
G01 X122.8825 Y131.4020
G01 X122.8070 Y131.3337
G01 X122.7434 Y131.2506
G01 X122.6870 Y131.1624
G01 X122.6382 Y131.0698
G01 X122.5972 Y130.9735
G01 X122.5644 Y130.8741
G01 X122.5399 Y130.7724
G01 X122.5240 Y130.6689
G01 X122.5168 Y130.5645
G01 X122.5282 Y130.4660
G01 X122.5444 Y130.3683
G01 X122.5653 Y130.2714
G01 X122.5908 Y130.1756
G01 X122.6209 Y130.0812
G01 X122.6556 Y129.9884
G01 X122.6947 Y129.8973
G01 X122.7382 Y129.8082
G01 X122.7859 Y129.7214
G01 X122.8378 Y129.6369
G01 X122.8937 Y129.5551
G01 X122.9534 Y129.4760
G01 X123.0303 Y129.3641
G01 X123.1084 Y129.2530
G01 X123.1878 Y129.1428
G01 X123.2683 Y129.0334
G01 X124.3601 Y127.6394
G01 X125.4649 Y126.2555
G01 X126.5825 Y124.8820
G01 X127.7128 Y123.5190
G01 X127.3962 Y122.0029
G01 X127.2076 Y120.9154
G01 X127.0435 Y119.8239
G01 X126.9039 Y118.7290
G01 X126.7890 Y117.6313
G01 X126.6988 Y116.5312
G01 X126.6334 Y115.4294
G01 X126.5927 Y114.3264
G01 X126.5768 Y113.2228
G01 X126.6047 Y112.5670
G01 X126.6450 Y111.9119
G01 X126.6980 Y111.2577
G01 X126.7634 Y110.6046
G01 X126.8414 Y109.9529
G01 X126.9318 Y109.3028
G01 X127.0347 Y108.6546
G01 X127.1500 Y108.0084
G01 X127.4999 Y105.9705
G01 X127.8578 Y103.9339
G01 X128.2235 Y101.8988
G01 X128.5970 Y99.8650
G01 X129.0023 Y97.3304
G01 X129.3826 Y94.7920
G01 X129.7380 Y92.2499
G01 X130.0685 Y89.7045
G01 X130.3739 Y87.1559
G01 X130.6544 Y84.6045
G01 X130.9097 Y82.0504
G01 X131.1400 Y79.4940
G01 X131.2279 Y77.7758
G01 X131.2895 Y76.0565
G01 X131.3247 Y74.3365
G01 X131.3336 Y72.6161
G01 X131.3413 Y71.1853
G01 X131.3461 Y69.7545
G01 X131.3477 Y68.3237
G01 X131.3463 Y66.8929
G01 X131.3499 Y65.4106
G01 X131.3214 Y63.9285
G01 X131.2606 Y62.4475
G01 X131.1677 Y60.9681
G01 X131.0183 Y59.5101
G01 X130.8459 Y58.0546
G01 X130.6507 Y56.6021
G01 X130.4326 Y55.1528
G01 X130.1917 Y53.7071
G01 X129.9282 Y52.2654
G01 X129.6419 Y50.8280
G01 X129.3331 Y49.3952
G01 X129.0018 Y47.9676
G01 X128.6481 Y46.5453
G01 X128.2721 Y45.1287
G01 X127.8738 Y43.7183
G01 X127.4533 Y42.3142
G01 X127.0108 Y40.9170
G01 X126.5464 Y39.5269
G01 X126.0602 Y38.1443
G01 X125.7636 Y37.3195
G01 X125.3267 Y36.3038
G01 X124.8564 Y35.3032
G01 X124.3532 Y34.3187
G01 X123.8175 Y33.3514
G01 X123.3924 Y33.1075
G01 X122.9597 Y32.8771
G01 X122.5199 Y32.6607
G01 X122.0735 Y32.4583
G01 X121.6209 Y32.2703
G01 X121.1625 Y32.0967
G01 X120.6988 Y31.9378
G01 X120.2303 Y31.7937
G01 X120.1519 Y31.7802
G01 X118.9401 Y31.6017
G01 X118.8896
G01 X118.7859 Y31.6095
G01 X118.6824 Y31.6191
G01 X118.5791 Y31.6304
G01 X118.4759 Y31.6435
G01 X117.8779 Y31.7341
G01 X117.2837 Y31.8466
G01 X116.6940 Y31.9809
G01 X116.1097 Y32.1369
G01 X115.5315 Y32.3142
G01 X114.9602 Y32.5128
G01 X114.3966 Y32.7322
G01 X113.8415 Y32.9722
G01 X113.2111 Y33.2470
G01 X112.5840 Y33.5291
G01 X111.9602 Y33.8185
G01 X111.3398 Y34.1151
G01 X111.4104 Y34.0812
G01 X110.2564 Y34.6926
G01 X109.1185 Y35.3335
G01 X107.9974 Y36.0035
G01 X106.8940 Y36.7020
G01 X106.8342 Y36.7560
G01 X106.7730 Y36.8082
G01 X106.7103 Y36.8587
G01 X106.6462 Y36.9075
G01 X105.4909 Y37.7185
G01 X104.3372 Y38.5318
G01 X103.1851 Y39.3473
G01 X102.0346 Y40.1652
G01 X101.1973 Y40.7726
G01 X100.3751 Y41.4001
G01 X99.5683 Y42.0474
G01 X98.7775 Y42.7142
G01 X98.5806 Y42.8696
G01 X98.3827 Y43.0238
G01 X98.1839 Y43.1767
G01 X97.9841 Y43.3283
G01 X96.7141 Y44.3058
G01 X96.6691 Y44.3474
G01 X96.4322 Y44.5760
G01 X96.1056 Y44.8948
G01 X94.1593 Y46.8072
G01 X92.2210 Y48.7277
G01 X90.2908 Y50.6562
G01 X88.3686 Y52.5928
G01 X88.4428 Y52.7305
G01 X88.5138 Y52.8699
G01 X88.5815 Y53.0109
G01 X88.6460 Y53.1534
G01 X88.7424 Y53.4067
G01 X88.8261 Y53.6643
G01 X88.8970 Y53.9259
G01 X88.9547 Y54.1906
G01 X88.9993 Y54.4578
G01 X89.0305 Y54.7269
G01 X89.0483 Y54.9973
G01 X89.0527 Y55.2682
G01 X89.0689 Y55.9677
G01 X89.0772 Y56.2630
G01 X89.1017 Y56.5574
G01 X89.1423 Y56.8499
G01 X89.1991 Y57.1399
G01 X89.3045 Y57.4572
G01 X89.4192 Y57.7713
G01 X89.5431 Y58.0818
G01 X89.6761 Y58.3887
G01 X89.8206 Y58.8900
G01 X89.9267 Y59.4009
G01 X89.9936 Y59.9184
G01 X90.0209 Y60.4395
G01 X90.0259 Y60.7500
G01 X90.0387 Y61.0603
G01 X90.0593 Y61.3702
G01 X90.0876 Y61.6795
G01 X90.1511 Y62.0783
G01 X90.2515 Y62.4694
G01 X90.3878 Y62.8496
G01 X90.5589 Y63.2153
G01 X90.7997 Y63.9013
G01 X91.0119 Y64.5967
G01 X91.1951 Y65.3003
G01 X91.3491 Y66.0108
G01 X91.6189 Y65.9121
G01 X91.8914 Y65.8216
G01 X92.1666 Y65.7393
G01 X92.4442 Y65.6654
G01 X92.7645 Y65.5192
G01 X93.0767 Y65.3564
G01 X93.3799 Y65.1775
G01 X93.6733 Y64.9828
G01 X94.1335 Y64.7543
G01 X94.6071 Y64.5548
G01 X95.0921 Y64.3851
G01 X95.5868 Y64.2459
G01 X96.0891 Y64.1377
G01 X96.5972 Y64.0609
G01 X97.1091 Y64.0157
G01 X97.6228 Y64.0025
G01 X97.7205 Y63.9701
G01 X97.8161 Y63.9321
G01 X97.9094 Y63.8885
G01 X98.0000 Y63.8396
G01 X98.0876 Y63.7855
G01 X98.1718 Y63.7264
G01 X98.2525 Y63.6625
G01 X98.3294 Y63.5940
G01 X98.6793 Y63.2902
G01 X99.0462 Y63.0070
G01 X99.4287 Y62.7453
G01 X99.8256 Y62.5060
G01 X100.0669 Y62.3918
G01 X100.3140 Y62.2908
G01 X100.5663 Y62.2035
G01 X100.8229 Y62.1299
G01 X101.0832 Y62.0704
G01 X101.3463 Y62.0252
G01 X101.6115 Y61.9942
G01 X101.8779 Y61.9778
G01 X102.0889 Y61.9610
G01 X102.8345 Y61.9324
G01 X103.5786 Y61.8778
G01 X104.3204 Y61.7973
G01 X105.0590 Y61.6912
G01 X105.2130 Y61.6637
G01 X105.3664 Y61.6333
G01 X105.5192 Y61.6000
G01 X105.6714 Y61.5637
G01 X105.7518 Y61.5429
G01 X106.2488 Y61.3884
G01 X106.7561 Y61.2724
G01 X107.2708 Y61.1955
G01 X107.7898 Y61.1583
G01 X108.3102 Y61.1610
G01 X108.8289 Y61.2034
G01 X109.3428 Y61.2855
G01 X109.8489 Y61.4066
G01 X110.2413 Y61.5135
G01 X110.6331 Y61.6224
G01 X111.0243 Y61.7335
G01 X111.4149 Y61.8467
G01 X112.1634 Y61.9907
G01 X112.9171 Y62.1045
G01 X113.6747 Y62.1882
G01 X114.4351 Y62.2414
G01 X114.6248 Y62.2541
G01 X114.8136 Y62.2771
G01 X115.0008 Y62.3102
G01 X115.1860 Y62.3535
G01 X115.3686 Y62.4067
G01 X115.5480 Y62.4698
G01 X115.7237 Y62.5424
G01 X115.8952 Y62.6245
G01 X116.0935 Y62.7625
G01 X116.2862 Y62.9080
G01 X116.4731 Y63.0609
G01 X116.6539 Y63.2210
G01 X116.8435 Y63.3543
G01 X117.0412 Y63.4752
G01 X117.2462 Y63.5833
G01 X117.4577 Y63.6780
G01 X117.6748 Y63.7591
G01 X117.8967 Y63.8262
G01 X118.1223 Y63.8789
G01 X118.3509 Y63.9172
G01 X118.5758 Y64.0133
G01 X118.7950 Y64.1218
G01 X119.0078 Y64.2423
G01 X119.2135 Y64.3745
G01 X119.4116 Y64.5179
G01 X119.6015 Y64.6721
G01 X119.7824 Y64.8366
G01 X119.9539 Y65.0109
G01 X120.1842 Y65.2402
G01 X120.4043 Y65.4793
G01 X120.6137 Y65.7277
G01 X120.8121 Y65.9851
G01 X120.9992 Y66.2508
G01 X121.1745 Y66.5244
G01 X121.3377 Y66.8054
G01 X121.4886 Y67.0932
G01 X121.5575 Y67.1781
G01 X121.6325 Y67.2576
G01 X121.7133 Y67.3312
G01 X121.7993 Y67.3987
G01 X121.8901 Y67.4596
G01 X121.9852 Y67.5135
G01 X122.0840 Y67.5603
G01 X122.1860 Y67.5995
G01 X122.5474 Y67.8207
G01 X122.8872 Y68.0739
G01 X123.2027 Y68.3567
G01 X123.4913 Y68.6671
G01 X123.7505 Y69.0023
G01 X123.9782 Y69.3597
G01 X124.1726 Y69.7362
G01 X124.3320 Y70.1288
G01 X124.5292 Y70.6891
G01 X124.7022 Y71.2574
G01 X124.8506 Y71.8325
G01 X124.9742 Y72.4135
G01 X125.0727 Y72.9993
G01 X125.1460 Y73.5888
G01 X125.1938 Y74.1808
G01 X125.2162 Y74.7744
G01 X125.1980 Y75.1422
G01 X125.1694 Y75.5094
G01 X125.1302 Y75.8756
G01 X125.0807 Y76.2405
G01 X125.0208 Y76.6039
G01 X124.9505 Y76.9654
G01 X124.8699 Y77.3248
G01 X124.7792 Y77.6817
G01 X124.6696 Y78.1540
G01 X124.5784 Y78.6301
G01 X124.5057 Y79.1094
G01 X124.4516 Y79.5912
G01 X124.4072 Y79.8257
G01 X124.3509 Y80.0577
G01 X124.2828 Y80.2865
G01 X124.2031 Y80.5115
G01 X124.1121 Y80.7321
G01 X124.0100 Y80.9479
G01 X123.8970 Y81.1581
G01 X123.7734 Y81.3623
G01 X123.6557 Y81.5585
G01 X123.5334 Y81.7519
G01 X121.6995 Y84.5787
G01 X119.0758 Y88.6024
G01 X118.2547 Y89.8493
G01 X118.1516 Y90.0096
G01 X118.0503 Y90.1710
G01 X117.9508 Y90.3335
G01 X117.8531 Y90.4971
G01 X117.6243 Y90.8177
G01 X117.3829 Y91.1289
G01 X117.1293 Y91.4302
G01 X116.8639 Y91.7212
G01 X116.8073 Y91.8068
G01 X116.7431 Y91.8870
G01 X116.6718 Y91.9609
G01 X116.5941 Y92.0280
G01 X116.5105 Y92.0876
G01 X116.4219 Y92.1394
G01 X116.3288 Y92.1828
G01 X116.2322 Y92.2175
G01 X116.1327 Y92.2431
G01 X116.0314 Y92.2596
G01 X115.9290 Y92.2666
G01 X115.8263 Y92.2643
G01 X114.9016 Y92.3618
G01 X113.9816 Y92.4964
G01 X113.0677 Y92.6679
G01 X112.1615 Y92.8759
G01 X110.9682 Y93.1364
G01 X109.7807 Y93.4223
G01 X108.5996 Y93.7336
G01 X107.4254 Y94.0700
G01 X106.8701 Y94.2538
G01 X106.3192 Y94.4505
G01 X105.7731 Y94.6601
G01 X105.2321 Y94.8824
G01 X104.6964 Y95.1174
G01 X104.1664 Y95.3648
G01 X103.6423 Y95.6246
G01 X103.1245 Y95.8966
G01 X102.7675 Y96.0682
G01 X102.4156 Y96.2499
G01 X102.0691 Y96.4417
G01 X101.7282 Y96.6433
G01 X101.3933 Y96.8547
G01 X101.0647 Y97.0757
G01 X100.7425 Y97.3060
G01 X100.4270 Y97.5455
G01 X100.1843 Y97.7574
G01 X99.9620 Y97.9907
G01 X99.7622 Y98.2435
G01 X99.5864 Y98.5136
G01 X99.4361 Y98.7987
G01 X99.3128 Y99.0964
G01 X99.2173 Y99.4041
G01 X99.1504 Y99.7194
G01 X99.0721 Y100.0863
G01 X99.0121 Y100.4567
G01 X98.9707 Y100.8296
G01 X98.9480 Y101.2041
G01 X98.9427 Y101.9296
G01 X98.8993 Y102.6539
G01 X98.8179 Y103.3748
G01 X98.6987 Y104.0905
G01 X98.6717 Y104.2370
G01 X98.6374 Y104.3820
G01 X98.5960 Y104.5251
G01 X98.5474 Y104.6660
G01 X98.4920 Y104.8042
G01 X98.4297 Y104.9396
G01 X98.3607 Y105.0716
G01 X98.2852 Y105.2001
G01 X98.2035 Y105.3246
G01 X98.1156 Y105.4450
G01 X98.0219 Y105.5608
G01 X97.9225 Y105.6718
G01 X97.7585 Y105.8317
G01 X97.5839 Y105.9800
G01 X97.3994 Y106.1158
G01 X97.2060 Y106.2385
G01 X97.0045 Y106.3476
G01 X96.7960 Y106.4425
G01 X96.5814 Y106.5227
G01 X96.3618 Y106.5879
G01 X96.1459 Y106.6238
G01 X95.9285 Y106.6497
G01 X95.7102 Y106.6655
G01 X95.4913 Y106.6712
G01 X95.2725 Y106.6667
G01 X95.0540 Y106.6521
G01 X94.8365 Y106.6274
G01 X94.6204 Y106.5926
G01 X93.9645 Y106.4972
G01 X93.3125 Y106.3778
G01 X92.6653 Y106.2348
G01 X92.0237 Y106.0682
G01 X91.6550 Y106.5159
G01 X91.2959 Y106.9713
G01 X90.9466 Y107.4343
G01 X90.6072 Y107.9046
G01 X90.4318 Y108.2847
G01 X90.2655 Y108.6689
G01 X90.1086 Y109.0571
G01 X89.9611 Y109.4489
G01 X89.8230 Y109.8441
G01 X89.6946 Y110.2426
G01 X89.5757 Y110.6440
G01 X89.4666 Y111.0482
G01 X89.0661 Y112.5219
G01 X88.6997 Y114.0046
G01 X88.3676 Y115.4952
G01 X88.0699 Y116.9932
G01 X87.9442 Y117.6081
G01 X87.7959 Y118.2180
G01 X87.6252 Y118.8220
G01 X87.4323 Y119.4192
G01 X87.2489 Y119.8059
G01 X87.0374 Y120.1780
G01 X86.7990 Y120.5334
G01 X86.5351 Y120.8703
G01 X86.2470 Y121.1868
G01 X85.9363 Y121.4812
G01 X85.6048 Y121.7518
G01 X85.2542 Y121.9972
G01 X84.8865 Y122.2368
G01 X84.5107 Y122.4636
G01 X84.1273 Y122.6774
G01 X83.7368 Y122.8777
G01 X83.3396 Y123.0645
G01 X82.9362 Y123.2375
G01 X82.5271 Y123.3965
G01 X82.1128 Y123.5413
G01 X81.7615 Y123.6820
G01 X81.4055 Y123.8102
G01 X81.0451 Y123.9257
G01 X80.6809 Y124.0282
G01 X80.2616 Y124.3446
G01 X79.8535 Y124.6753
G01 X79.4571 Y125.0198
G01 X79.0728 Y125.3779
G01 X78.7011 Y125.7490
G01 X78.3424 Y126.1327
G01 X77.9972 Y126.5285
G01 X77.6658 Y126.9361
G01 X77.6118 Y127.0042
G01 X77.5528 Y127.0680
G01 X77.4891 Y127.1272
G01 X77.4211 Y127.1814
G01 X77.3492 Y127.2302
G01 X77.2738 Y127.2734
G01 X77.1953 Y127.3108
G01 X77.1142 Y127.3421
G01 X77.0309 Y127.3671
G01 X76.9460 Y127.3858
G01 X76.8599 Y127.3979
G01 X76.7732 Y127.4035
G01 X76.6863 Y127.4024
G01 X76.5997 Y127.3947
G01 X76.5139 Y127.3805
G01 X76.4295 Y127.3598
G01 X76.3469 Y127.3327
G01 X76.2665 Y127.2995
G01 X76.1890 Y127.2602
G01 X76.1146 Y127.2151
G01 X76.0509 Y127.1604
G01 X75.9913 Y127.1011
G01 X75.9363 Y127.0376
G01 X75.8861 Y126.9702
G01 X75.8410 Y126.8992
G01 X75.8013 Y126.8251
G01 X75.7672 Y126.7483
G01 X75.7389 Y126.6692
G01 X75.7165 Y126.5882
G01 X75.7001 Y126.5058
G01 X75.6899 Y126.4223
G01 X75.6859 Y126.3384
G01 X75.7147 Y126.1409
G01 X75.7541 Y125.9451
G01 X75.8037 Y125.7518
G01 X75.8635 Y125.5613
G01 X75.9333 Y125.3743
G01 X76.0129 Y125.1912
G01 X76.1021 Y125.0127
G01 X76.2006 Y124.8390
G01 X76.4630 Y124.3436
G01 X76.7486 Y123.8611
G01 X77.0567 Y123.3926
G01 X77.3867 Y122.9393
G01 X77.7377 Y122.5022
G01 X78.1091 Y122.0821
G01 X78.4999 Y121.6801
G01 X78.9093 Y121.2970
G01 X79.4038 Y120.8418
G01 X79.6433 Y120.6174
G01 X79.8752 Y120.3853
G01 X80.0991 Y120.1454
G01 X80.3150 Y119.8983
G01 X81.0468 Y119.5332
G01 X80.3150 Y119.8983
G01 X80.2371 Y119.8543
G01 X80.1633 Y119.8036
G01 X80.0944 Y119.7466
G01 X80.0307 Y119.6837
G01 X79.9728 Y119.6154
G01 X79.9212 Y119.5424
G01 X79.8762 Y119.4650
G01 X79.8382 Y119.3840
G01 X79.8074 Y119.2999
G01 X79.7843 Y119.2135
G01 X79.7688 Y119.1254
G01 X79.7611 Y119.0362
G01 X79.7561 Y118.9364
G01 X79.7610 Y118.8365
G01 X79.7712 Y118.7623
G01 X79.7870 Y118.6889
G01 X79.8082 Y118.6170
G01 X79.8347 Y118.5469
G01 X80.0947 Y117.9305
G01 X80.7866 Y117.4614
G01 X80.0947 Y117.9305
G01 X80.0031 Y117.9224
G01 X79.9126 Y117.9060
G01 X79.8241 Y117.8813
G01 X79.7381 Y117.8486
G01 X79.6556 Y117.8081
G01 X79.5771 Y117.7602
G01 X79.5033 Y117.7054
G01 X79.4348 Y117.6439
G01 X79.3723 Y117.5765
G01 X79.3163 Y117.5036
G01 X79.2672 Y117.4259
G01 X79.2254 Y117.3439
G01 X79.1913 Y117.2585
G01 X79.1652 Y117.1704
G01 X79.1474 Y117.0802
G01 X79.1378 Y116.9887
G01 X79.1371 Y116.8888
G01 X79.2483 Y116.4501
G01 X79.5323 Y115.9795
G01 X79.8379 Y115.5227
G01 X80.1644 Y115.0806
G01 X80.5112 Y114.6542
G01 X80.5708 Y114.5362
G01 X80.6242 Y114.4152
G01 X80.6714 Y114.2917
G01 X80.7121 Y114.1659
G01 X80.7464 Y114.0382
G01 X80.7742 Y113.9089
G01 X80.7952 Y113.7784
G01 X80.8096 Y113.6469
G01 X80.8875 Y113.3711
G01 X80.9772 Y113.0989
G01 X81.0786 Y112.8308
G01 X81.1916 Y112.5674
G01 X81.3158 Y112.3091
G01 X81.4511 Y112.0564
G01 X81.5971 Y111.8098
G01 X81.7537 Y111.5697
G01 X81.8106 Y111.4855
G01 X81.8630 Y111.3985
G01 X81.9109 Y111.3089
G01 X81.9540 Y111.2170
G01 X81.9923 Y111.1229
G01 X82.0257 Y111.0270
G01 X82.0541 Y110.9294
G01 X82.0773 Y110.8306
G01 X82.1385 Y110.5217
G01 X82.2187 Y110.2173
G01 X82.3177 Y109.9184
G01 X82.4349 Y109.6262
G01 X82.4186 Y109.6222
G01 X82.1418 Y109.6720
G01 X81.8655 Y109.7244
G01 X81.5896 Y109.7794
G01 X81.3143 Y109.8369
G01 X81.3071 Y109.8515
G01 X80.7799 Y111.3184
G01 X80.2893 Y112.7979
G01 X79.8354 Y114.2891
G01 X79.4186 Y115.7911
G01 X79.2972 Y116.3057
G01 X79.1567 Y116.8153
G01 X78.9972 Y117.3193
G01 X78.8189 Y117.8169
G01 X78.6220 Y118.3076
G01 X78.4069 Y118.7905
G01 X78.1738 Y119.2650
G01 X77.9231 Y119.7304
G01 X77.7381 Y120.0216
G01 X77.5379 Y120.3025
G01 X77.3230 Y120.5725
G01 X77.0942 Y120.8307
G01 X76.8520 Y121.0763
G01 X76.5971 Y121.3088
G01 X76.3302 Y121.5275
G01 X76.0521 Y121.7316
G01 X75.7854 Y121.9325
G01 X75.5063 Y122.1155
G01 X75.2157 Y122.2799
G01 X74.9151 Y122.4249
G01 X74.6056 Y122.5499
G01 X74.2886 Y122.6545
G01 X73.9654 Y122.7382
G01 X73.6375 Y122.8005
G01 X72.0174 Y123.1392
G01 X71.9176 Y123.1717
G01 X71.8183 Y123.2060
G01 X71.7197 Y123.2420
G01 X71.6217 Y123.2797
G01 X71.3313 Y123.3992
G01 X71.0344 Y123.5013
G01 X70.7320 Y123.5856
G01 X70.4251 Y123.6519
G01 X70.0678 Y123.8840
G01 X69.7175 Y124.1265
G01 X69.3746 Y124.3793
G01 X69.0393 Y124.6421
G01 X68.9564 Y124.7080
G01 X68.8688 Y124.7676
G01 X68.7770 Y124.8206
G01 X68.6816 Y124.8666
G01 X68.5830 Y124.9054
G01 X68.4818 Y124.9368
G01 X68.3785 Y124.9607
G01 X68.2738 Y124.9768
G01 X68.1681 Y124.9850
G01 X68.0622 Y124.9855
G01 X67.9565 Y124.9780
G01 X67.8516 Y124.9628
G01 X67.7677 Y124.9404
G01 X67.6858 Y124.9114
G01 X67.6065 Y124.8760
G01 X67.5303 Y124.8343
G01 X67.4576 Y124.7867
G01 X67.3890 Y124.7335
G01 X67.3249 Y124.6749
G01 X67.2656 Y124.6114
G01 X67.2116 Y124.5434
G01 X67.1632 Y124.4713
G01 X67.1206 Y124.3956
G01 X67.0843 Y124.3167
G01 X67.0544 Y124.2351
G01 X67.0311 Y124.1514
G01 X67.0145 Y124.0662
G01 X67.0048 Y123.9799
G01 X67.0008 Y123.8800
G01 X67.0026 Y123.7492
G01 X67.0842 Y123.3152
G01 X67.1909 Y122.8866
G01 X67.3222 Y122.4650
G01 X67.4779 Y122.0517
G01 X67.6819 Y121.5548
G01 X67.9149 Y121.0707
G01 X68.1758 Y120.6012
G01 X68.4639 Y120.1478
G01 X69.3079 Y119.8859
G01 X68.4639 Y120.1478
G01 X67.4665 Y120.2375
G01 X66.4090 Y120.3350
G01 X66.3283 Y120.3407
G01 X66.2474 Y120.3399
G01 X66.1668 Y120.3326
G01 X66.0871 Y120.3188
G01 X66.0087 Y120.2986
G01 X65.9323 Y120.2721
G01 X65.8582 Y120.2395
G01 X65.7870 Y120.2010
G01 X65.7192 Y120.1570
G01 X65.6551 Y120.1075
G01 X65.5952 Y120.0531
G01 X65.5400 Y119.9940
G01 X65.4897 Y119.9306
G01 X65.4446 Y119.8634
G01 X65.4052 Y119.7927
G01 X65.3716 Y119.7191
G01 X65.3441 Y119.6430
G01 X65.3228 Y119.5650
G01 X65.3078 Y119.4854
G01 X65.2994 Y119.4050
G01 X65.2980 Y119.3050
G01 X65.3066 Y119.2054
G01 X65.3251 Y119.1072
G01 X65.3533 Y119.0113
G01 X65.3909 Y118.9187
G01 X65.4376 Y118.8303
G01 X65.4929 Y118.7470
G01 X65.5562 Y118.6697
G01 X65.6269 Y118.5990
G01 X66.1953 Y118.0863
G01 X66.4480 Y117.8980
G01 X66.7089 Y117.7212
G01 X66.9775 Y117.5563
G01 X67.2532 Y117.4037
G01 X67.5355 Y117.2636
G01 X67.8238 Y117.1363
G01 X68.1175 Y117.0220
G01 X68.4161 Y116.9211
G01 X68.4307 Y116.9169
G01 X68.4451 Y116.9116
G01 X68.4590 Y116.9054
G01 X68.4725 Y116.8982
G01 X68.4854 Y116.8901
G01 X68.4977 Y116.8811
G01 X68.5094 Y116.8713
G01 X68.5204 Y116.8606
G01 X68.5306 Y116.8493
G01 X68.5400 Y116.8372
G01 X68.5485 Y116.8246
G01 X68.5561 Y116.8113
G01 X68.5627 Y116.7976
G01 X68.5684 Y116.7834
G01 X68.5731 Y116.7689
G01 X68.5768 Y116.7541
G01 X68.7078 Y116.3872
G01 X68.8625 Y116.0297
G01 X69.0402 Y115.6830
G01 X69.2400 Y115.3486
G01 X69.4613 Y115.0280
G01 X69.7029 Y114.7224
G01 X69.9640 Y114.4333
G01 X70.2433 Y114.1618
G01 X70.3297 Y114.0652
G01 X70.3367 Y114.0602
G01 X70.3433 Y114.0547
G01 X70.3494 Y114.0487
G01 X70.3550 Y114.0422
G01 X70.3601 Y114.0353
G01 X70.3647 Y114.0280
G01 X70.3687 Y114.0204
G01 X70.3721 Y114.0125
G01 X70.3749 Y114.0044
G01 X70.3771 Y113.9961
G01 X70.3786 Y113.9877
G01 X70.3794 Y113.9791
G01 X70.3796 Y113.9705
G01 X70.3791 Y113.9620
G01 X70.3780 Y113.9534
G01 X70.3762 Y113.9450
G01 X70.3723 Y113.8246
G01 X70.3366 Y113.3829
G01 X70.3264 Y113.2263
G01 X70.3214 Y113.0918
G01 X70.3216 Y112.9412
G01 X70.3283 Y112.7998
G01 X70.3447 Y112.6592
G01 X70.3706 Y112.5200
G01 X70.4061 Y112.3830
G01 X70.4508 Y112.2487
G01 X70.5046 Y112.1178
G01 X70.5673 Y111.9909
G01 X70.6385 Y111.8685
G01 X70.7180 Y111.7514
G01 X70.8052 Y111.6399
G01 X70.8999 Y111.5347
G01 X71.0016 Y111.4363
G01 X71.1649 Y111.2721
G01 X71.4582 Y110.9874
G01 X71.4607 Y110.9765
G01 X71.3968 Y110.8289
G01 X71.3365 Y110.6799
G01 X71.2798 Y110.5295
G01 X71.2267 Y110.3777
G01 X71.2018 Y110.3015
G01 X71.1801 Y110.2242
G01 X71.1617 Y110.1461
G01 X71.1465 Y110.0673
G01 X71.1348 Y109.9879
G01 X71.1263 Y109.9081
G01 X71.1212 Y109.8280
G01 X71.1196 Y109.7477
G01 X71.1231 Y109.6680
G01 X71.1388 Y109.5532
G01 X71.1611 Y109.4396
G01 X71.1898 Y109.3274
G01 X71.2250 Y109.2170
G01 X71.2664 Y109.1088
G01 X71.3139 Y109.0032
G01 X71.3675 Y108.9005
G01 X71.4268 Y108.8010
G01 X71.4917 Y108.7051
G01 X71.5620 Y108.6130
G01 X71.6375 Y108.5252
G01 X71.7179 Y108.4418
G01 X71.8612 Y108.2783
G01 X72.1234 Y107.9872
G01 X72.0399 Y107.8942
G01 X71.9515 Y107.8057
G01 X71.8586 Y107.7222
G01 X71.7613 Y107.6437
G01 X71.6600 Y107.5705
G01 X71.5549 Y107.5028
G01 X71.4463 Y107.4408
G01 X71.3346 Y107.3847
G01 X71.0786 Y107.3429
G01 X70.8246 Y107.2897
G01 X70.5734 Y107.2251
G01 X70.3252 Y107.1493
G01 X70.0808 Y107.0625
G01 X69.8404 Y106.9647
G01 X69.6047 Y106.8563
G01 X69.3741 Y106.7375
G01 X69.1162 Y106.6089
G01 X68.8706 Y106.4581
G01 X68.6393 Y106.2863
G01 X68.4241 Y106.0946
G01 X68.2266 Y105.8848
G01 X68.0484 Y105.6583
G01 X67.8908 Y105.4170
G01 X67.7552 Y105.1628
G01 X67.6677 Y104.9334
G01 X67.5913 Y104.7001
G01 X67.5263 Y104.4635
G01 X67.4727 Y104.2239
G01 X67.4307 Y103.9821
G01 X67.4004 Y103.7385
G01 X67.3818 Y103.4937
G01 X67.3751 Y103.2483
G01 X67.3625 Y102.9271
G01 X67.3563 Y102.6093
G01 X67.3545 Y102.3251
G01 X67.3531 Y100.9720
G01 X66.6177 Y100.1129
G01 X66.3384 Y99.7665
G01 X66.0749 Y99.4078
G01 X65.8279 Y99.0376
G01 X65.5978 Y98.6567
G01 X65.3851 Y98.2658
G01 X65.1902 Y97.8657
G01 X65.0135 Y97.4572
G01 X64.8554 Y97.0412
G01 X64.6838 Y96.7313
G01 X64.4783 Y96.4428
G01 X64.2416 Y96.1793
G01 X63.9767 Y95.9441
G01 X63.5159 Y95.5534
G01 X63.0790 Y95.1363
G01 X62.6674 Y94.6940
G01 X62.2827 Y94.2283
G01 X62.0960 Y93.9593
G01 X61.9271 Y93.6787
G01 X61.7768 Y93.3879
G01 X61.6456 Y93.0879
G01 X61.5341 Y92.7800
G01 X61.4429 Y92.4655
G01 X61.3722 Y92.1458
G01 X61.3223 Y91.8222
G01 X61.2878 Y91.7144
G01 X61.2462 Y91.6091
G01 X61.1976 Y91.5069
G01 X61.1423 Y91.4081
G01 X61.0805 Y91.3133
G01 X61.0124 Y91.2228
G01 X60.9385 Y91.1371
G01 X60.8590 Y91.0566
G01 X60.5848 Y90.7566
G01 X60.3234 Y90.4453
G01 X60.0754 Y90.1234
G01 X59.8410 Y89.7913
G01 X59.6209 Y89.4497
G01 X59.4153 Y89.0992
G01 X59.2245 Y88.7403
G01 X59.0491 Y88.3737
G01 X58.9240 Y88.1497
G01 X58.7827 Y87.9355
G01 X58.6259 Y87.7325
G01 X58.4544 Y87.5416
G01 X58.2364 Y87.3554
G01 X58.0257 Y87.1611
G01 X57.8225 Y86.9588
G01 X57.6271 Y86.7490
G01 X57.4399 Y86.5320
G01 X57.2610 Y86.3079
G01 X57.0907 Y86.0773
G01 X56.9294 Y85.8403
G01 X56.6860 Y85.4767
G01 X56.6603 Y85.4455
G01 X56.1619 Y86.0808
G01 X55.6455 Y86.7015
G01 X55.1115 Y87.3072
G01 X54.5603 Y87.8972
G01 X53.9925 Y88.4713
G01 X53.4083 Y89.0287
G01 X52.8085 Y89.5692
G01 X52.1933 Y90.0923
G01 X51.4604 Y90.7334
G01 X50.7134 Y91.3582
G01 X49.9527 Y91.9661
G01 X49.1787 Y92.5570
G01 X49.0885 Y92.6210
G01 X48.9971 Y92.6831
G01 X48.9044 Y92.7434
G01 X48.8106 Y92.8019
G01 X48.6968 Y92.8617
G01 X48.5832 Y92.9216
G01 X48.4696 Y92.9815
G01 X48.3560 Y93.0416
G01 X47.8393 Y93.4138
G01 X47.3089 Y93.7664
G01 X46.7657 Y94.0988
G01 X46.2104 Y94.4106
G01 X44.7670 Y95.2544
G01 X44.7697 Y95.2739
G01 X44.8035 Y95.4310
G01 X45.3088 Y97.5079
G01 X45.8256 Y99.5819
G01 X46.3540 Y101.6530
G01 X46.8939 Y103.7212
G01 X47.4453 Y105.7863
G01 X48.0082 Y107.8483
G01 X48.5826 Y109.9072
G01 X49.1684 Y111.9628
G01 X49.4078 Y112.8145
G01 X49.6570 Y113.6633
G01 X49.9160 Y114.5093
G01 X50.1847 Y115.3522
G01 X50.4630 Y116.1919
G01 X50.7511 Y117.0284
G01 X51.0488 Y117.8615
G01 X51.3561 Y118.6911
G01 X51.6776 Y119.4941
G01 X52.0295 Y120.2841
G01 X52.4112 Y121.0602
G01 X52.8222 Y121.8212
G01 X53.2619 Y122.5660
G01 X53.7296 Y123.2935
G01 X54.2247 Y124.0027
G01 X54.7465 Y124.6925
G01 X55.2589 Y125.3431
G01 X55.7814 Y125.9857
G01 X56.3138 Y126.6201
G01 X56.8559 Y127.2462
G01 X57.4077 Y127.8639
G01 X57.9689 Y128.4730
G01 X58.5395 Y129.0733
G01 X59.1193 Y129.6646
G01 X61.8166 Y132.4388
G01 X64.5250 Y135.2023
G01 X67.2443 Y137.9549
G01 X69.9746 Y140.6967
G01 X70.0969 Y141.4350
G01 X69.9746 Y140.6967
G01 X70.0348 Y140.5553
G01 X70.0942 Y140.4135
G01 X70.1527 Y140.2713
G01 X70.2104 Y140.1288
G01 X70.5045 Y139.3319
G01 X70.8037 Y138.5368
G01 X71.1081 Y137.7438
G01 X71.4176 Y136.9527
G01 X71.4886 Y136.7879
G01 X71.5642 Y136.6253
G01 X71.6444 Y136.4648
G01 X71.7290 Y136.3066
G01 X71.8406 Y135.9491
G01 X71.9312 Y135.5857
G01 X72.0004 Y135.2176
G01 X72.0480 Y134.8462
G01 X72.0619 Y134.7389
G01 X72.0830 Y134.6328
G01 X72.1111 Y134.5283
G01 X72.1461 Y134.4260
G01 X72.1879 Y134.3262
G01 X72.2363 Y134.2294
G01 X72.2910 Y134.1361
G01 X72.3518 Y134.0467
G01 X72.4185 Y133.9615
G01 X72.4908 Y133.8810
G01 X72.5683 Y133.8055
G01 X72.6506 Y133.7354
G01 X72.7375 Y133.6709
G01 X72.8285 Y133.6124
G01 X72.9231 Y133.5601
G01 X73.0211 Y133.5142
G01 X73.1393 Y133.4810
G01 X73.2589 Y133.4533
G01 X73.3797 Y133.4313
G01 X73.5014 Y133.4150
G01 X73.6237 Y133.4044
G01 X73.7464 Y133.3996
G01 X73.8692 Y133.4005
G01 X73.9918 Y133.4072
G01 X74.1139 Y133.4197
G01 X74.2353 Y133.4379
G01 X74.3558 Y133.4617
G01 X74.4749 Y133.4912
G01 X75.2525 Y133.6732
G01 X76.0276 Y133.8654
G01 X76.8002 Y134.0678
G01 X77.5699 Y134.2805
G01 X78.6497 Y134.5346
G01 X79.7341 Y134.7677
G01 X80.8229 Y134.9797
G01 X81.9156 Y135.1705
G01 X83.0118 Y135.3400
G01 X84.1111 Y135.4882
G01 X85.2131 Y135.6151
G01 X86.3173 Y135.7205
G01 X86.3255 Y135.7111
G01 X86.0447 Y135.3689
G01 X85.7749 Y135.0179
G01 X85.5164 Y134.6585
G01 X85.2695 Y134.2911
G01 X85.0343 Y133.9160
G01 X84.8112 Y133.5336
G01 X84.6004 Y133.1443
G01 X84.4020 Y132.7486
G01 X84.3609 Y132.6763
G01 X84.3247 Y132.6015
G01 X84.2936 Y132.5244
G01 X84.2679 Y132.4454
G01 X84.2475 Y132.3648
G01 X84.2326 Y132.2830
G01 X84.2232 Y132.2004
G01 X84.2194 Y132.1174
G01 X84.2302 Y132.0159
G01 X84.2484 Y131.9154
G01 X84.2738 Y131.8164
G01 X84.3063 Y131.7196
G01 X84.3457 Y131.6254
G01 X84.3919 Y131.5343
G01 X84.4446 Y131.4468
G01 X84.5035 Y131.3634
G01 X84.5682 Y131.2844
G01 X84.6386 Y131.2104
G01 X84.7141 Y131.1416
G01 X84.7944 Y131.0786
G01 X84.8791 Y131.0215
G01 X84.9677 Y130.9707
G01 X85.0597 Y130.9264
G01 X85.1547 Y130.8890
G01 X85.8263 Y130.6374
G01 X86.5085 Y130.4162
G01 X87.1998 Y130.2257
G01 X87.8991 Y130.0664
G01 X87.7242 Y130.1090
G01 X88.6940 Y129.8635
G01 X89.6558 Y129.5878
G01 X90.6084 Y129.2822
G01 X91.5511 Y128.9471
G01 X92.4828 Y128.5827
G01 X93.4027 Y128.1894
G01 X94.3099 Y127.7676
G01 X95.2035 Y127.3177
G01 X95.6106 Y127.0738
G01 X96.0301 Y126.8518
G01 X96.4606 Y126.6522
G01 X96.9011 Y126.4756
G01 X96.9939 Y126.4446
G01 X97.0892 Y126.4225
G01 X97.1862 Y126.4096
G01 X97.2840 Y126.4059
G01 X97.3816 Y126.4115
G01 X97.4783 Y126.4264
G01 X97.5732 Y126.4504
G01 X97.6653 Y126.4833
G01 X97.7539 Y126.5248
G01 X97.8382 Y126.5745
G01 X97.9174 Y126.6320
G01 X97.9907 Y126.6967
G01 X98.0576 Y126.7682
G01 X98.1174 Y126.8456
G01 X98.1696 Y126.9284
G01 X98.2137 Y127.0157
G01 X98.2493 Y127.1069
G01 X98.2760 Y127.2010
G01 X98.2938 Y127.2972
G01 X98.3023 Y127.3947
G01 X98.3015 Y127.4925
G01 X98.2914 Y127.5898
G01 X98.2721 Y127.6857
G01 X98.2439 Y127.7794
G01 X98.2068 Y127.8700
G01 X98.1613 Y127.9566
G01 X98.1078 Y128.0385
G01 X98.0468 Y128.1150
G01 X97.6295 Y128.5220
G01 X97.1937 Y128.9090
G01 X96.7402 Y129.2753
G01 X96.2700 Y129.6198
G01 X95.7311 Y130.0179
G01 X95.1836 Y130.4039
G01 X94.6276 Y130.7778
G01 X94.0636 Y131.1393
G01 X93.4917 Y131.4882
G01 X92.9122 Y131.8245
G01 X92.3255 Y132.1479
G01 X91.7317 Y132.4582
G01 X90.3143 Y133.1957
G01 X89.9484 Y133.3893
G01 X89.9306 Y133.4028
G01 X90.7915 Y134.4604
G01 X91.6656 Y135.5071
G01 X92.5527 Y136.5428
G01 X93.4528 Y137.5673
G01 X93.4810 Y137.6085
G01 X93.5072 Y137.6511
G01 X93.5312 Y137.6950
G01 X93.5530 Y137.7400
G01 X93.5725 Y137.7860
G01 X93.5896 Y137.8330
G01 X93.6044 Y137.8807
G01 X93.6168 Y137.9292
G01 X93.6268 Y137.9782
G01 X93.6343 Y138.0276
G01 X93.6393 Y138.0773
G01 X93.6418 Y138.1273
G01 X93.6419 Y138.1773
G01 X93.6394 Y138.2272
G01 X93.6344 Y138.2769
G01 X93.6270 Y138.3264
G01 Y139.0659
M107
G00 Z2.0000


;No. 2: Hole 3
G00 X7.7477 Y9.0104 Z2.0000
G00 Z0.5000
G01 Z-1.5000 F400
M106 S200
G01 X180.3477 F800
G01 Y10.5104
G01 X7.7477
G01 Y12.0104
G01 X30.0737
G01 X29.9724 Y13.5104
G01 X7.7477
G01 Y15.0104
G01 X29.7494
G01 X29.3998 Y16.5104
G01 X7.7477
G01 Y18.0104
G01 X28.9156
G01 X28.2840 Y19.5104
G01 X7.7477
G01 Y21.0104
G01 X27.4892
G01 X26.5062 Y22.5104
G01 X7.7477
G01 Y24.0104
G01 X25.2959
G01 X23.7940 Y25.5104
G01 X7.7477
G01 Y27.0104
G01 X21.8783
G01 X19.2523
G01 Y28.5104
G01 X7.7477
G01 Y30.0104
G01 X14.4656
G01 X10.3478
G01 Y31.5104
G01 X7.7477
G01 Y33.0104
G01 X10.3478
G01 Y34.5104
G01 X7.7477
G01 Y36.0104
G01 X10.3478
G01 Y37.5104
G01 X7.7477
G01 Y39.0104
G01 X10.3478
G01 Y40.5104
G01 X7.7477
G01 Y42.0104
G01 X10.3478
G01 Y43.5104
G01 X7.7477
G01 Y45.0104
G01 X10.3478
G01 Y46.5104
G01 X7.7477
G01 Y48.0104
G01 X10.3478
G01 Y49.5104
G01 X7.7477
G01 Y51.0104
G01 X10.3478
G01 Y52.5104
G01 X7.7477
G01 Y54.0104
G01 X10.3478
G01 Y55.5104
G01 X7.7477
G01 Y57.0104
G01 X10.3478
G01 Y58.5104
G01 X7.7477
G01 Y60.0104
G01 X10.3478
G01 Y61.5104
G01 X7.7477
G01 Y63.0104
G01 X10.3478
G01 Y64.5104
G01 X7.7477
G01 Y66.0104
G01 X10.3478
G01 Y67.5104
G01 X7.7477
G01 Y69.0104
G01 X10.3478
G01 Y70.5104
G01 X7.7477
G01 Y72.0104
G01 X10.3478
G01 Y73.5104
G01 X7.7477
G01 Y75.0104
G01 X10.3478
G01 Y76.5104
G01 X7.7477
G01 Y78.0104
G01 X10.3478
G01 Y79.5104
G01 X7.7477
G01 Y81.0104
G01 X10.3478
G01 Y82.5104
G01 X7.7477
G01 Y84.0104
G01 X10.3478
G01 Y85.5104
G01 X7.7477
G01 Y87.0104
G01 X10.3478
G01 Y88.5104
G01 X7.7477
G01 Y90.0104
G01 X10.3478
G01 Y91.5104
G01 X7.7477
G01 Y93.0104
G01 X10.3478
G01 Y94.5104
G01 X7.7477
G01 Y96.0104
G01 X10.3478
G01 Y97.5104
G01 X7.7477
G01 Y99.0104
G01 X10.3478
G01 Y100.5104
G01 X7.7477
G01 Y102.0104
G01 X10.3478
G01 Y103.5104
G01 X7.7477
G01 Y105.0104
G01 X10.3478
G01 Y106.5104
G01 X7.7477
G01 Y108.0104
G01 X10.3478
G01 Y109.5104
G01 X7.7477
G01 Y111.0104
G01 X10.3478
G01 Y112.5104
G01 X7.7477
G01 Y114.0104
G01 X10.3478
G01 Y115.5104
G01 X7.7477
G01 Y117.0104
G01 X10.3478
G01 Y118.5104
G01 X7.7477
G01 Y120.0104
G01 X10.3478
G01 Y121.5104
G01 X7.7477
G01 Y123.0104
G01 X10.3478
G01 Y124.5104
G01 X7.7477
G01 Y126.0104
G01 X10.3478
G01 Y127.5104
G01 X7.7477
G01 Y129.0104
G01 X10.3478
G01 Y130.5104
G01 X7.7477
G01 Y132.0104
G01 X10.3478
G01 Y133.5104
G01 X7.7477
G01 Y135.0104
G01 X10.3478
G01 Y136.5104
G01 X7.7477
G01 Y138.0104
G01 X10.3478
G01 Y139.5104
G01 X7.7477
G01 Y141.0104
G01 X10.3478
G01 Y142.5104
G01 X7.7477
G01 Y144.0104
G01 X10.3478
G01 Y145.5104
G01 X7.7477
G01 Y147.0104
G01 X10.3478
G01 Y148.5104
G01 X7.7477
G01 Y150.0104
G01 X10.3478
G01 Y151.5104
G01 X7.7477
G01 Y153.0104
G01 X10.3478
G01 Y154.5104
G01 X7.7477
G01 Y156.0104
G01 X10.3478
G01 Y157.5104
G01 X7.7477
G01 Y159.0104
G01 X10.3478
G01 Y160.5104
G01 X7.7477
G01 Y162.0104
G01 X10.3478
G01 Y163.5104
G01 X7.7477
G01 Y165.0104
G01 X10.3478
G01 Y166.5104
G01 X7.7477
G01 Y168.0104
G01 X10.3478
G01 Y169.5104
G01 X7.7477
G01 Y171.0104
G01 X10.3478
G01 Y172.5104
G01 X7.7477
G01 Y174.0104
G01 X10.3478
G01 Y175.5104
G01 X7.7477
G01 Y177.0104
G01 X10.3478
G01 Y178.5104
G01 X7.7477
G01 Y180.0104
G01 X10.3478
G01 Y181.5104
G01 X7.7477
G01 Y183.0104
G01 X10.3478
G01 Y184.5104
G01 X7.7477
G01 Y186.0104
G01 X10.3478
G01 Y187.5104
G01 X7.7477
G01 Y189.0104
G01 X10.3478
G01 Y190.5104
G01 X7.7477
G01 Y192.0104
G01 X10.3478
G01 Y193.5104
G01 X7.7477
G01 Y195.0104
G01 X10.3478
G01 Y196.5104
G01 X7.7477
G01 Y198.0104
G01 X10.3478
G01 Y199.5104
G01 X7.7477
G01 Y201.0104
G01 X10.3478
G01 Y202.5104
G01 X7.7477
G01 Y204.0104
G01 X10.3478
G01 Y205.5104
G01 X7.7477
G01 Y207.0104
G01 X10.3478
G01 Y208.5104
G01 X7.7477
G01 Y210.0104
G01 X10.3478
G01 Y211.5104
G01 X7.7477
G01 Y213.0104
G01 X10.3478
G01 Y214.5104
G01 X7.7477
G01 Y216.0104
G01 X10.3478
G01 Y217.5104
G01 X7.7477
G01 Y219.0104
G01 X10.3478
G01 Y220.5104
G01 X7.7477
G01 Y222.0104
G01 X10.3478
G01 Y223.5104
G01 X7.7477
G01 Y225.0104
G01 X10.3478
G01 Y226.5104
G01 X7.7477
G01 Y228.0104
G01 X10.3478
G01 Y229.5104
G01 X7.7477
G01 Y231.0104
G01 X10.3478
G01 Y232.5104
G01 X7.7477
G01 Y234.0104
G01 X10.3478
G01 Y235.5104
G01 X7.7477
G01 Y237.0104
G01 X10.4356
G01 X7.7477
G01 Y238.5104
G01 X17.3920
G01 Y240.0104
G01 X21.0099
G01 X7.7477
G01 Y241.5104
G01 X23.3419
G01 Y243.0104
G01 X25.0989
G01 X7.7477
G01 Y244.5104
G01 X26.4933
G01 X27.6221 Y246.0104
G01 X7.7477
G01 Y247.5104
G01 X28.5389
G01 X29.2766 Y249.0104
G01 X7.7477
G01 Y250.5104
G01 X29.8572
G01 X30.2954 Y252.0104
G01 X7.7477
G01 Y253.5104
G01 X30.6017
G01 X30.7832 Y255.0104
G01 X7.7477
G01 Y256.5104
G01 X30.8445
G01 X7.7477
G01 Y258.0104
G01 X180.3477
G01 Y256.5104
G01 X158.0303
G01 X158.1214 Y255.0104
G01 X180.3477
G01 Y253.5104
G01 X158.3341
G01 X158.6730 Y252.0104
G01 X180.3477
G01 Y250.5104
G01 X159.1455
G01 X159.7646 Y249.0104
G01 X180.3477
G01 Y247.5104
G01 X160.5449
G01 X161.5112 Y246.0104
G01 X180.3477
G01 Y244.5104
G01 X162.6998
G01 X164.1743 Y243.0104
G01 X180.3477
G01 Y241.5104
G01 X166.0488
G01 X168.5933
G01 Y240.0104
G01 X180.3477
G01 Y238.5104
G01 X172.9815
G01 X177.7429
G01 Y237.0104
G01 X180.3477
G01 Y235.5104
G01 X177.7476
G01 Y234.0104
G01 X180.3477
G01 Y232.5104
G01 X177.7476
G01 Y231.0104
G01 X180.3477
G01 Y229.5104
G01 X177.7476
G01 Y228.0104
G01 X180.3477
G01 Y226.5104
G01 X177.7476
G01 Y225.0104
G01 X180.3477
G01 Y223.5104
G01 X177.7476
G01 Y222.0104
G01 X180.3477
G01 Y220.5104
G01 X177.7476
G01 Y219.0104
G01 X180.3477
G01 Y217.5104
G01 X177.7476
G01 Y216.0104
G01 X180.3477
G01 Y214.5104
G01 X177.7476
G01 Y213.0104
G01 X180.3477
G01 Y211.5104
G01 X177.7476
G01 Y210.0104
G01 X180.3477
G01 Y208.5104
G01 X177.7476
G01 Y207.0104
G01 X180.3477
G01 Y205.5104
G01 X177.7476
G01 Y204.0104
G01 X180.3477
G01 Y202.5104
G01 X177.7476
G01 Y201.0104
G01 X180.3477
G01 Y199.5104
G01 X177.7476
G01 Y198.0104
G01 X180.3477
G01 Y196.5104
G01 X177.7476
G01 Y195.0104
G01 X180.3477
G01 Y193.5104
G01 X177.7476
G01 Y192.0104
G01 X180.3477
G01 Y190.5104
G01 X177.7476
G01 Y189.0104
G01 X180.3477
G01 Y187.5104
G01 X177.7476
G01 Y186.0104
G01 X180.3477
G01 Y184.5104
G01 X177.7476
G01 Y183.0104
G01 X180.3477
G01 Y181.5104
G01 X177.7476
G01 Y180.0104
G01 X180.3477
G01 Y178.5104
G01 X177.7476
G01 Y177.0104
G01 X180.3477
G01 Y175.5104
G01 X177.7476
G01 Y174.0104
G01 X180.3477
G01 Y172.5104
G01 X177.7476
G01 Y171.0104
G01 X180.3477
G01 Y169.5104
G01 X177.7476
G01 Y168.0104
G01 X180.3477
G01 Y166.5104
G01 X177.7476
G01 Y165.0104
G01 X180.3477
G01 Y163.5104
G01 X177.7476
G01 Y162.0104
G01 X180.3477
G01 Y160.5104
G01 X177.7476
G01 Y159.0104
G01 X180.3477
G01 Y157.5104
G01 X177.7476
G01 Y156.0104
G01 X180.3477
G01 Y154.5104
G01 X177.7476
G01 Y153.0104
G01 X180.3477
G01 Y151.5104
G01 X177.7476
G01 Y150.0104
G01 X180.3477
G01 Y148.5104
G01 X177.7476
G01 Y147.0104
G01 X180.3477
G01 Y145.5104
G01 X177.7476
G01 Y144.0104
G01 X180.3477
G01 Y142.5104
G01 X177.7476
G01 Y141.0104
G01 X180.3477
G01 Y139.5104
G01 X177.7476
G01 Y138.0104
G01 X180.3477
G01 Y136.5104
G01 X177.7476
G01 Y135.0104
G01 X180.3477
G01 Y133.5104
G01 X177.7476
G01 Y132.0104
G01 X180.3477
G01 Y130.5104
G01 X177.7476
G01 Y129.0104
G01 X180.3477
G01 Y127.5104
G01 X177.7476
G01 Y126.0104
G01 X180.3477
G01 Y124.5104
G01 X177.7476
G01 Y123.0104
G01 X180.3477
G01 Y121.5104
G01 X177.7476
G01 Y120.0104
G01 X180.3477
G01 Y118.5104
G01 X177.7476
G01 Y117.0104
G01 X180.3477
G01 Y115.5104
G01 X177.7476
G01 Y114.0104
G01 X180.3477
G01 Y112.5104
G01 X177.7476
G01 Y111.0104
G01 X180.3477
G01 Y109.5104
G01 X177.7476
G01 Y108.0104
G01 X180.3477
G01 Y106.5104
G01 X177.7476
G01 Y105.0104
G01 X180.3477
G01 Y103.5104
G01 X177.7476
G01 Y102.0104
G01 X180.3477
G01 Y100.5104
G01 X177.7476
G01 Y99.0104
G01 X180.3477
G01 Y97.5104
G01 X177.7476
G01 Y96.0104
G01 X180.3477
G01 Y94.5104
G01 X177.7476
G01 Y93.0104
G01 X180.3477
G01 Y91.5104
G01 X177.7476
G01 Y90.0104
G01 X180.3477
G01 Y88.5104
G01 X177.7476
G01 Y87.0104
G01 X180.3477
G01 Y85.5104
G01 X177.7476
G01 Y84.0104
G01 X180.3477
G01 Y82.5104
G01 X177.7476
G01 Y81.0104
G01 X180.3477
G01 Y79.5104
G01 X177.7476
G01 Y78.0104
G01 X180.3477
G01 Y76.5104
G01 X177.7476
G01 Y75.0104
G01 X180.3477
G01 Y73.5104
G01 X177.7476
G01 Y72.0104
G01 X180.3477
G01 Y70.5104
G01 X177.7476
G01 Y69.0104
G01 X180.3477
G01 Y67.5104
G01 X177.7476
G01 Y66.0104
G01 X180.3477
G01 Y64.5104
G01 X177.7476
G01 Y63.0104
G01 X180.3477
G01 Y61.5104
G01 X177.7476
G01 Y60.0104
G01 X180.3477
G01 Y58.5104
G01 X177.7476
G01 Y57.0104
G01 X180.3477
G01 Y55.5104
G01 X177.7476
G01 Y54.0104
G01 X180.3477
G01 Y52.5104
G01 X177.7476
G01 Y51.0104
G01 X180.3477
G01 Y49.5104
G01 X177.7476
G01 Y48.0104
G01 X180.3477
G01 Y46.5104
G01 X177.7476
G01 Y45.0104
G01 X180.3477
G01 Y43.5104
G01 X177.7476
G01 Y42.0104
G01 X180.3477
G01 Y40.5104
G01 X177.7476
G01 Y39.0104
G01 X180.3477
G01 Y37.5104
G01 X177.7476
G01 Y36.0104
G01 X180.3477
G01 Y34.5104
G01 X177.7476
G01 Y33.0104
G01 X180.3477
G01 Y31.5104
G01 X177.7476
G01 X180.3477
G01 Y30.0104
G01 X174.2077
G01 Y28.5104
G01 X169.1359
G01 X180.3477
G01 Y27.0104
G01 X166.4635
G01 Y25.5104
G01 X164.5233
G01 X180.3477
G01 Y24.0104
G01 X163.0059
G01 X161.7839 Y22.5104
G01 X180.3477
G01 Y21.0104
G01 X160.7917
G01 X159.9889 Y19.5104
G01 X180.3477
G01 Y18.0104
G01 X159.3509
G01 X158.8599 Y16.5104
G01 X180.3477
G01 Y15.0104
G01 X158.5045
G01 X158.2759 Y13.5104
G01 X180.3477
G01 Y12.0104
G01 X158.1688
M107
G00 Z2.0000
G00 X180.3477 Y258.0104
G00 Z0.5000
G01 Z-1.5000 F400
M106 S200
G01 Y259.5104 F800
G01 X7.7477
M107
G00 Z2.0000
G00 X11.3982 Y238.5104
G00 Z0.5000
G01 Z-1.5000 F400
M106 S200
G01 Y237.5524 F800
G01 X11.3124 Y237.5355
G01 X11.2284 Y237.5112
G01 X11.1468 Y237.4797
G01 X11.0683 Y237.4411
G01 X10.9934 Y237.3959
G01 X10.9228 Y237.3442
G01 X10.8570 Y237.2866
G01 X10.7964 Y237.2235
G01 X10.7417 Y237.1553
G01 X10.6930 Y237.0826
G01 X10.6510 Y237.0059
G01 X10.6157 Y236.9259
G01 X10.5876 Y236.8430
G01 X10.5669 Y236.7580
G01 X10.5537 Y236.6716
G01 X10.5480 Y236.5843
G01 X10.5478 Y236.5436
G01 Y31.4780
G01 X10.5528 Y31.3781
G01 X10.5591 Y31.3285
G01 X10.5678 Y31.2793
G01 X10.5789 Y31.2306
G01 X10.5925 Y31.1824
G01 X10.6085 Y31.1351
G01 X10.6268 Y31.0885
G01 X10.6474 Y31.0430
G01 X10.6702 Y30.9985
G01 X10.6953 Y30.9553
G01 X10.7225 Y30.9133
G01 X10.7517 Y30.8728
G01 X10.7830 Y30.8337
G01 X10.8161 Y30.7963
G01 X10.8511 Y30.7606
G01 X10.8878 Y30.7267
G01 X10.9262 Y30.6946
G01 X10.9661 Y30.6645
G01 X11.0075 Y30.6365
G01 X11.0503 Y30.6105
G01 X11.0942 Y30.5868
G01 X11.1393 Y30.5652
G01 X11.1855 Y30.5459
G01 X11.2325 Y30.5290
G01 X11.2803 Y30.5144
G01 X11.3288 Y30.5022
G01 X11.3779 Y30.4925
G01 X11.4273 Y30.4852
G01 X11.4771 Y30.4805
G01 X12.2958 Y30.4541
G01 X13.1127 Y30.3924
G01 X13.9261 Y30.2956
G01 X14.7346 Y30.1639
G01 X15.5367 Y29.9975
G01 X16.3309 Y29.7967
G01 X17.1157 Y29.5618
G01 X17.8896 Y29.2934
G01 X18.6513 Y28.9919
G01 X19.3992 Y28.6579
G01 X20.1321 Y28.2919
G01 X20.8486 Y27.8947
G01 X21.5472 Y27.4671
G01 X22.2268 Y27.0097
G01 X22.8861 Y26.5235
G01 X23.5238 Y26.0094
G01 X24.1388 Y25.4682
G01 X24.7299 Y24.9011
G01 X25.2961 Y24.3090
G01 X25.8362 Y23.6931
G01 X26.3492 Y23.0545
G01 X26.8343 Y22.3944
G01 X27.2905 Y21.7141
G01 X27.7170 Y21.0147
G01 X28.1130 Y20.2975
G01 X28.4777 Y19.5640
G01 X28.8104 Y18.8155
G01 X29.1106 Y18.0533
G01 X29.3778 Y17.2789
G01 X29.6113 Y16.4938
G01 X29.8107 Y15.6992
G01 X29.9758 Y14.8969
G01 X30.1062 Y14.0881
G01 X30.2016 Y13.2746
G01 X30.2618 Y12.4576
G01 X30.2868 Y11.6388
G01 X30.3022 Y11.5483
G01 X30.3257 Y11.4596
G01 X30.3573 Y11.3734
G01 X30.3967 Y11.2905
G01 X30.4435 Y11.2116
G01 X30.4973 Y11.1372
G01 X30.5577 Y11.0681
G01 X30.6242 Y11.0049
G01 X30.6962 Y10.9480
G01 X30.7732 Y10.8979
G01 X30.8544 Y10.8551
G01 X30.9391 Y10.8199
G01 X31.0268 Y10.7926
G01 X31.1165 Y10.7735
G01 X31.2077 Y10.7627
G01 X31.2994 Y10.7603
G01 X156.9622
G01 X157.0558 Y10.7647
G01 X157.1486 Y10.7778
G01 X157.2398 Y10.7996
G01 X157.3285 Y10.8298
G01 X157.4140 Y10.8682
G01 X157.4955 Y10.9144
G01 X157.5724 Y10.9680
G01 X157.6438 Y11.0286
G01 X157.7093 Y11.0956
G01 X157.7683 Y11.1685
G01 X157.8201 Y11.2466
G01 X157.8645 Y11.3291
G01 X157.9009 Y11.4155
G01 X157.9290 Y11.5049
G01 X157.9487 Y11.5965
G01 X157.9597 Y11.6896
G01 X157.9893 Y12.5024
G01 X158.0537 Y13.3133
G01 X158.1526 Y14.1207
G01 X158.2861 Y14.9231
G01 X158.4537 Y15.7191
G01 X158.6552 Y16.5071
G01 X158.8902 Y17.2858
G01 X159.1583 Y18.0538
G01 X159.4591 Y18.8096
G01 X159.7918 Y19.5518
G01 X160.1560 Y20.2791
G01 X160.5510 Y20.9902
G01 X160.9761 Y21.6838
G01 X161.4304 Y22.3585
G01 X161.9131 Y23.0132
G01 X162.4234 Y23.6466
G01 X162.9604 Y24.2576
G01 X163.5230 Y24.8451
G01 X164.1102 Y25.4080
G01 X164.7209 Y25.9453
G01 X165.3541 Y26.4559
G01 X166.0085 Y26.9390
G01 X166.6829 Y27.3937
G01 X167.3763 Y27.8191
G01 X168.0871 Y28.2145
G01 X168.8143 Y28.5791
G01 X169.5563 Y28.9122
G01 X170.3119 Y29.2134
G01 X171.0798 Y29.4819
G01 X171.8584 Y29.7173
G01 X172.6463 Y29.9193
G01 X173.4422 Y30.0873
G01 X174.2445 Y30.2211
G01 X175.0518 Y30.3206
G01 X175.8627 Y30.3853
G01 X176.6755 Y30.4154
G01 X176.7655 Y30.4312
G01 X176.8537 Y30.4552
G01 X176.9393 Y30.4871
G01 X177.0217 Y30.5267
G01 X177.1001 Y30.5737
G01 X177.1738 Y30.6276
G01 X177.2424 Y30.6880
G01 X177.3051 Y30.7544
G01 X177.3616 Y30.8263
G01 X177.4112 Y30.9030
G01 X177.4536 Y30.9839
G01 X177.4885 Y31.0684
G01 X177.5155 Y31.1557
G01 X177.5345 Y31.2451
G01 X177.5452 Y31.3358
G01 X177.5476 Y31.4272
G01 Y236.9181
G01 X177.5465 Y236.9650
G01 X177.5432 Y237.0117
G01 X177.5377 Y237.0583
G01 X177.5300 Y237.1045
G01 X177.5202 Y237.1504
G01 X177.5083 Y237.1957
G01 X177.4942 Y237.2404
G01 X177.4781 Y237.2844
G01 X177.4599 Y237.3276
G01 X177.4397 Y237.3699
G01 X177.4176 Y237.4112
G01 X177.3935 Y237.4514
G01 X177.3676 Y237.4905
G01 X177.3399 Y237.5283
G01 X177.3104 Y237.5647
G01 X177.2793 Y237.5998
G01 X177.2465 Y237.6333
G01 X177.2122 Y237.6653
G01 X177.1765 Y237.6956
G01 X177.1394 Y237.7242
G01 X177.1010 Y237.7511
G01 X177.0613 Y237.7761
G01 X177.0206 Y237.7992
G01 X176.9787 Y237.8204
G01 X176.9360 Y237.8396
G01 X176.8924 Y237.8568
G01 X176.8480 Y237.8719
G01 X176.8030 Y237.8850
G01 X176.7574 Y237.8959
G01 X176.7114 Y237.9046
G01 X176.6650 Y237.9112
G01 X176.6183 Y237.9156
G01 X175.7966 Y237.9427
G01 X174.9769 Y238.0053
G01 X174.1606 Y238.1032
G01 X173.3493 Y238.2363
G01 X172.5445 Y238.4044
G01 X171.7478 Y238.6071
G01 X170.9605 Y238.8441
G01 X170.1843 Y239.1149
G01 X169.4204 Y239.4190
G01 X168.6705 Y239.7558
G01 X167.9358 Y240.1247
G01 X167.2177 Y240.5250
G01 X166.5176 Y240.9560
G01 X165.8368 Y241.4169
G01 X165.1765 Y241.9068
G01 X164.5380 Y242.4247
G01 X163.9226 Y242.9698
G01 X163.3312 Y243.5410
G01 X162.7651 Y244.1372
G01 X162.2254 Y244.7573
G01 X161.7129 Y245.4001
G01 X161.2287 Y246.0645
G01 X160.7736 Y246.7493
G01 X160.3486 Y247.4530
G01 X159.9544 Y248.1745
G01 X159.5918 Y248.9123
G01 X159.2614 Y249.6652
G01 X158.9639 Y250.4316
G01 X158.6997 Y251.2101
G01 X158.4695 Y251.9993
G01 X158.2736 Y252.7978
G01 X158.1124 Y253.6040
G01 X157.9862 Y254.4164
G01 X157.8952 Y255.2335
G01 X157.8397 Y256.0537
G01 X157.8196 Y256.8756
G01 X157.8048 Y256.9666
G01 X157.7816 Y257.0558
G01 X157.7504 Y257.1425
G01 X157.7112 Y257.2260
G01 X157.6646 Y257.3055
G01 X157.6108 Y257.3803
G01 X157.5504 Y257.4500
G01 X157.4839 Y257.5137
G01 X157.4117 Y257.5711
G01 X157.3346 Y257.6215
G01 X157.2531 Y257.6647
G01 X157.1681 Y257.7002
G01 X157.0801 Y257.7277
G01 X156.9900 Y257.7470
G01 X156.8984 Y257.7579
G01 X156.8063 Y257.7603
G01 X32.0370
G01 X31.9902 Y257.7592
G01 X31.9434 Y257.7559
G01 X31.8968 Y257.7505
G01 X31.8506 Y257.7428
G01 X31.8048 Y257.7330
G01 X31.7595 Y257.7210
G01 X31.7147 Y257.7070
G01 X31.6707 Y257.6908
G01 X31.6275 Y257.6727
G01 X31.5852 Y257.6525
G01 X31.5439 Y257.6303
G01 X31.5037 Y257.6063
G01 X31.4647 Y257.5803
G01 X31.4269 Y257.5526
G01 X31.3904 Y257.5232
G01 X31.3554 Y257.4920
G01 X31.3218 Y257.4593
G01 X31.2899 Y257.4250
G01 X31.2595 Y257.3893
G01 X31.2309 Y257.3521
G01 X31.2041 Y257.3137
G01 X31.1791 Y257.2741
G01 X31.1559 Y257.2333
G01 X31.1347 Y257.1915
G01 X31.1155 Y257.1488
G01 X31.0983 Y257.1052
G01 X31.0832 Y257.0608
G01 X31.0702 Y257.0158
G01 X31.0593 Y256.9702
G01 X31.0505 Y256.9241
G01 X31.0439 Y256.8777
G01 X31.0395 Y256.8311
G01 X31.0342 Y255.9946
G01 X30.9920 Y255.1592
G01 X30.9132 Y254.3265
G01 X30.7977 Y253.4980
G01 X30.6458 Y252.6754
G01 X30.4579 Y251.8604
G01 X30.2343 Y251.0543
G01 X29.9755 Y250.2589
G01 X29.6818 Y249.4757
G01 X29.3540 Y248.7061
G01 X28.9926 Y247.9518
G01 X28.5983 Y247.2141
G01 X28.1720 Y246.4944
G01 X27.7143 Y245.7942
G01 X27.2263 Y245.1149
G01 X26.7089 Y244.4577
G01 X26.1630 Y243.8239
G01 X25.5897 Y243.2147
G01 X24.9902 Y242.6314
G01 X24.3656 Y242.0751
G01 X23.7171 Y241.5467
G01 X23.0460 Y241.0475
G01 X22.3535 Y240.5783
G01 X21.6410 Y240.1400
G01 X20.9100 Y239.7335
G01 X20.1617 Y239.3596
G01 X19.3977 Y239.0190
G01 X18.6195 Y238.7123
G01 X17.8285 Y238.4403
G01 X17.0263 Y238.2033
G01 X16.2145 Y238.0018
G01 X15.3946 Y237.8363
G01 X14.5681 Y237.7071
G01 X13.7368 Y237.6143
G01 X12.9022 Y237.5583
G01 X12.0660 Y237.5390
G01 X11.5977 Y237.5624
G01 X11.4977
G01 X11.3982 Y237.5524
G01 Y238.5104
M107
G00 Z2.0000
G00 X7.7477
G00 Z0.5000
G01 Z-1.5000 F400
M106 S200
G01 X7.5477 F800
G01 Y260.7604
G01 X180.5477
G01 Y7.7604
G01 X7.5477
G01 Y238.5104
G01 X7.7477
M107
G00 Z2.0000


;No. 3: Helical drill 6
G00 X94.7808 Y249.9614 Z2.0000
G00 Z0.5000
M106 S200
G01 X94.7796 Y249.9143 Z0.4958 F400
G01 X94.7759 Y249.8673 Z0.4917
G01 X94.7697 Y249.8206 Z0.4875
G01 X94.7612 Y249.7743 Z0.4833
G01 X94.7502 Y249.7285 Z0.4792
G01 X94.7368 Y249.6833 Z0.4750
G01 X94.7210 Y249.6389 Z0.4708
G01 X94.7030 Y249.5953 Z0.4667
G01 X94.6827 Y249.5528 Z0.4625
G01 X94.6602 Y249.5114 Z0.4583
G01 X94.6356 Y249.4712 Z0.4542
G01 X94.6089 Y249.4324 Z0.4500
G01 X94.5803 Y249.3950 Z0.4458
G01 X94.5497 Y249.3592 Z0.4417
G01 X94.5172 Y249.3250 Z0.4375
G01 X94.4830 Y249.2926 Z0.4333
G01 X94.4472 Y249.2620 Z0.4292
G01 X94.4098 Y249.2333 Z0.4250
G01 X94.3710 Y249.2066 Z0.4208
G01 X94.3308 Y249.1820 Z0.4167
G01 X94.2894 Y249.1595 Z0.4125
G01 X94.2469 Y249.1392 Z0.4083
G01 X94.2034 Y249.1212 Z0.4042
G01 X94.1589 Y249.1054 Z0.4000
G01 X94.1138 Y249.0921 Z0.3958
G01 X94.0679 Y249.0811 Z0.3917
G01 X94.0216 Y249.0725 Z0.3875
G01 X93.9749 Y249.0663 Z0.3833
G01 X93.9279 Y249.0626 Z0.3792
G01 X93.8808 Y249.0614 Z0.3750
G01 X93.8337 Y249.0626 Z0.3708
G01 X93.7867 Y249.0663 Z0.3667
G01 X93.7400 Y249.0725 Z0.3625
G01 X93.6937 Y249.0811 Z0.3583
G01 X93.6479 Y249.0921 Z0.3542
G01 X93.6027 Y249.1054 Z0.3500
G01 X93.5583 Y249.1212 Z0.3458
G01 X93.5148 Y249.1392 Z0.3417
G01 X93.4722 Y249.1595 Z0.3375
G01 X93.4308 Y249.1820 Z0.3333
G01 X93.3906 Y249.2066 Z0.3292
G01 X93.3518 Y249.2333 Z0.3250
G01 X93.3144 Y249.2620 Z0.3208
G01 X93.2786 Y249.2926 Z0.3167
G01 X93.2444 Y249.3250 Z0.3125
G01 X93.2120 Y249.3592 Z0.3083
G01 X93.1814 Y249.3950 Z0.3042
G01 X93.1527 Y249.4324 Z0.3000
G01 X93.1260 Y249.4712 Z0.2958
G01 X93.1014 Y249.5114 Z0.2917
G01 X93.0789 Y249.5528 Z0.2875
G01 X93.0586 Y249.5953 Z0.2833
G01 X93.0406 Y249.6389 Z0.2792
G01 X93.0249 Y249.6833 Z0.2750
G01 X93.0115 Y249.7285 Z0.2708
G01 X93.0005 Y249.7743 Z0.2667
G01 X92.9919 Y249.8206 Z0.2625
G01 X92.9858 Y249.8673 Z0.2583
G01 X92.9821 Y249.9143 Z0.2542
G01 X92.9808 Y249.9614 Z0.2500
G01 X92.9821 Y250.0085 Z0.2458
G01 X92.9858 Y250.0555 Z0.2417
G01 X92.9919 Y250.1022 Z0.2375
G01 X93.0005 Y250.1485 Z0.2333
G01 X93.0115 Y250.1943 Z0.2292
G01 X93.0249 Y250.2395 Z0.2250
G01 X93.0406 Y250.2839 Z0.2208
G01 X93.0586 Y250.3275 Z0.2167
G01 X93.0789 Y250.3700 Z0.2125
G01 X93.1014 Y250.4114 Z0.2083
G01 X93.1260 Y250.4516 Z0.2042
G01 X93.1527 Y250.4904 Z0.2000
G01 X93.1814 Y250.5278 Z0.1958
G01 X93.2120 Y250.5636 Z0.1917
G01 X93.2444 Y250.5978 Z0.1875
G01 X93.2786 Y250.6302 Z0.1833
G01 X93.3144 Y250.6608 Z0.1792
G01 X93.3518 Y250.6895 Z0.1750
G01 X93.3906 Y250.7162 Z0.1708
G01 X93.4308 Y250.7408 Z0.1667
G01 X93.4722 Y250.7633 Z0.1625
G01 X93.5148 Y250.7836 Z0.1583
G01 X93.5583 Y250.8016 Z0.1542
G01 X93.6027 Y250.8173 Z0.1500
G01 X93.6479 Y250.8307 Z0.1458
G01 X93.6937 Y250.8417 Z0.1417
G01 X93.7400 Y250.8503 Z0.1375
G01 X93.7867 Y250.8565 Z0.1333
G01 X93.8337 Y250.8602 Z0.1292
G01 X93.8808 Y250.8614 Z0.1250
G01 X93.9279 Y250.8602 Z0.1208
G01 X93.9749 Y250.8565 Z0.1167
G01 X94.0216 Y250.8503 Z0.1125
G01 X94.0679 Y250.8417 Z0.1083
G01 X94.1138 Y250.8307 Z0.1042
G01 X94.1589 Y250.8173 Z0.1000
G01 X94.2034 Y250.8016 Z0.0958
G01 X94.2469 Y250.7836 Z0.0917
G01 X94.2894 Y250.7633 Z0.0875
G01 X94.3308 Y250.7408 Z0.0833
G01 X94.3710 Y250.7162 Z0.0792
G01 X94.4098 Y250.6895 Z0.0750
G01 X94.4472 Y250.6608 Z0.0708
G01 X94.4830 Y250.6302 Z0.0667
G01 X94.5172 Y250.5978 Z0.0625
G01 X94.5497 Y250.5636 Z0.0583
G01 X94.5803 Y250.5278 Z0.0542
G01 X94.6089 Y250.4904 Z0.0500
G01 X94.6356 Y250.4516 Z0.0458
G01 X94.6602 Y250.4114 Z0.0417
G01 X94.6827 Y250.3700 Z0.0375
G01 X94.7030 Y250.3275 Z0.0333
G01 X94.7210 Y250.2839 Z0.0292
G01 X94.7368 Y250.2395 Z0.0250
G01 X94.7502 Y250.1943 Z0.0208
G01 X94.7612 Y250.1485 Z0.0167
G01 X94.7697 Y250.1022 Z0.0125
G01 X94.7759 Y250.0555 Z0.0083
G01 X94.7796 Y250.0085 Z0.0042
G01 X94.7808 Y249.9614 Z0.0000
G01 X94.7796 Y249.9143
G01 X94.7759 Y249.8673
G01 X94.7697 Y249.8206
G01 X94.7612 Y249.7743
G01 X94.7502 Y249.7285
G01 X94.7368 Y249.6833
G01 X94.7210 Y249.6389
G01 X94.7030 Y249.5953
G01 X94.6827 Y249.5528
G01 X94.6602 Y249.5114
G01 X94.6356 Y249.4712
G01 X94.6089 Y249.4324
G01 X94.5803 Y249.3950
G01 X94.5497 Y249.3592
G01 X94.5172 Y249.3250
G01 X94.4830 Y249.2926
G01 X94.4472 Y249.2620
G01 X94.4098 Y249.2333
G01 X94.3710 Y249.2066
G01 X94.3308 Y249.1820
G01 X94.2894 Y249.1595
G01 X94.2469 Y249.1392
G01 X94.2034 Y249.1212
G01 X94.1589 Y249.1054
G01 X94.1138 Y249.0921
G01 X94.0679 Y249.0811
G01 X94.0216 Y249.0725
G01 X93.9749 Y249.0663
G01 X93.9279 Y249.0626
G01 X93.8808 Y249.0614
G01 X93.8337 Y249.0626
G01 X93.7867 Y249.0663
G01 X93.7400 Y249.0725
G01 X93.6937 Y249.0811
G01 X93.6479 Y249.0921
G01 X93.6027 Y249.1054
G01 X93.5583 Y249.1212
G01 X93.5148 Y249.1392
G01 X93.4722 Y249.1595
G01 X93.4308 Y249.1820
G01 X93.3906 Y249.2066
G01 X93.3518 Y249.2333
G01 X93.3144 Y249.2620
G01 X93.2786 Y249.2926
G01 X93.2444 Y249.3250
G01 X93.2120 Y249.3592
G01 X93.1814 Y249.3950
G01 X93.1527 Y249.4324
G01 X93.1260 Y249.4712
G01 X93.1014 Y249.5114
G01 X93.0789 Y249.5528
G01 X93.0586 Y249.5953
G01 X93.0406 Y249.6389
G01 X93.0249 Y249.6833
G01 X93.0115 Y249.7285
G01 X93.0005 Y249.7743
G01 X92.9919 Y249.8206
G01 X92.9858 Y249.8673
G01 X92.9821 Y249.9143
G01 X92.9808 Y249.9614
G01 X92.9821 Y250.0085
G01 X92.9858 Y250.0555
G01 X92.9919 Y250.1022
G01 X93.0005 Y250.1485
G01 X93.0115 Y250.1943
G01 X93.0249 Y250.2395
G01 X93.0406 Y250.2839
G01 X93.0586 Y250.3275
G01 X93.0789 Y250.3700
G01 X93.1014 Y250.4114
G01 X93.1260 Y250.4516
G01 X93.1527 Y250.4904
G01 X93.1814 Y250.5278
G01 X93.2120 Y250.5636
G01 X93.2444 Y250.5978
G01 X93.2786 Y250.6302
G01 X93.3144 Y250.6608
G01 X93.3518 Y250.6895
G01 X93.3906 Y250.7162
G01 X93.4308 Y250.7408
G01 X93.4722 Y250.7633
G01 X93.5148 Y250.7836
G01 X93.5583 Y250.8016
G01 X93.6027 Y250.8173
G01 X93.6479 Y250.8307
G01 X93.6937 Y250.8417
G01 X93.7400 Y250.8503
G01 X93.7867 Y250.8565
G01 X93.8337 Y250.8602
G01 X93.8808 Y250.8614
G01 X93.9279 Y250.8602
G01 X93.9749 Y250.8565
G01 X94.0216 Y250.8503
G01 X94.0679 Y250.8417
G01 X94.1138 Y250.8307
G01 X94.1589 Y250.8173
G01 X94.2034 Y250.8016
G01 X94.2469 Y250.7836
G01 X94.2894 Y250.7633
G01 X94.3308 Y250.7408
G01 X94.3710 Y250.7162
G01 X94.4098 Y250.6895
G01 X94.4472 Y250.6608
G01 X94.4830 Y250.6302
G01 X94.5172 Y250.5978
G01 X94.5497 Y250.5636
G01 X94.5803 Y250.5278
G01 X94.6089 Y250.4904
G01 X94.6356 Y250.4516
G01 X94.6602 Y250.4114
G01 X94.6827 Y250.3700
G01 X94.7030 Y250.3275
G01 X94.7210 Y250.2839
G01 X94.7368 Y250.2395
G01 X94.7502 Y250.1943
G01 X94.7612 Y250.1485
G01 X94.7697 Y250.1022
G01 X94.7759 Y250.0555
G01 X94.7796 Y250.0085
G01 X94.7808 Y249.9614
M107
M106 S200
G01 X94.7796 Y249.9143 Z-0.0125
G01 X94.7759 Y249.8673 Z-0.0250
G01 X94.7697 Y249.8206 Z-0.0375
G01 X94.7612 Y249.7743 Z-0.0500
G01 X94.7502 Y249.7285 Z-0.0625
G01 X94.7368 Y249.6833 Z-0.0750
G01 X94.7210 Y249.6389 Z-0.0875
G01 X94.7030 Y249.5953 Z-0.1000
G01 X94.6827 Y249.5528 Z-0.1125
G01 X94.6602 Y249.5114 Z-0.1250
G01 X94.6356 Y249.4712 Z-0.1375
G01 X94.6089 Y249.4324 Z-0.1500
G01 X94.5803 Y249.3950 Z-0.1625
G01 X94.5497 Y249.3592 Z-0.1750
G01 X94.5172 Y249.3250 Z-0.1875
G01 X94.4830 Y249.2926 Z-0.2000
G01 X94.4472 Y249.2620 Z-0.2125
G01 X94.4098 Y249.2333 Z-0.2250
G01 X94.3710 Y249.2066 Z-0.2375
G01 X94.3308 Y249.1820 Z-0.2500
G01 X94.2894 Y249.1595 Z-0.2625
G01 X94.2469 Y249.1392 Z-0.2750
G01 X94.2034 Y249.1212 Z-0.2875
G01 X94.1589 Y249.1054 Z-0.3000
G01 X94.1138 Y249.0921 Z-0.3125
G01 X94.0679 Y249.0811 Z-0.3250
G01 X94.0216 Y249.0725 Z-0.3375
G01 X93.9749 Y249.0663 Z-0.3500
G01 X93.9279 Y249.0626 Z-0.3625
G01 X93.8808 Y249.0614 Z-0.3750
G01 X93.8337 Y249.0626 Z-0.3875
G01 X93.7867 Y249.0663 Z-0.4000
G01 X93.7400 Y249.0725 Z-0.4125
G01 X93.6937 Y249.0811 Z-0.4250
G01 X93.6479 Y249.0921 Z-0.4375
G01 X93.6027 Y249.1054 Z-0.4500
G01 X93.5583 Y249.1212 Z-0.4625
G01 X93.5148 Y249.1392 Z-0.4750
G01 X93.4722 Y249.1595 Z-0.4875
G01 X93.4308 Y249.1820 Z-0.5000
G01 X93.3906 Y249.2066 Z-0.5125
G01 X93.3518 Y249.2333 Z-0.5250
G01 X93.3144 Y249.2620 Z-0.5375
G01 X93.2786 Y249.2926 Z-0.5500
G01 X93.2444 Y249.3250 Z-0.5625
G01 X93.2120 Y249.3592 Z-0.5750
G01 X93.1814 Y249.3950 Z-0.5875
G01 X93.1527 Y249.4324 Z-0.6000
G01 X93.1260 Y249.4712 Z-0.6125
G01 X93.1014 Y249.5114 Z-0.6250
G01 X93.0789 Y249.5528 Z-0.6375
G01 X93.0586 Y249.5953 Z-0.6500
G01 X93.0406 Y249.6389 Z-0.6625
G01 X93.0249 Y249.6833 Z-0.6750
G01 X93.0115 Y249.7285 Z-0.6875
G01 X93.0005 Y249.7743 Z-0.7000
G01 X92.9919 Y249.8206 Z-0.7125
G01 X92.9858 Y249.8673 Z-0.7250
G01 X92.9821 Y249.9143 Z-0.7375
G01 X92.9808 Y249.9614 Z-0.7500
G01 X92.9821 Y250.0085 Z-0.7625
G01 X92.9858 Y250.0555 Z-0.7750
G01 X92.9919 Y250.1022 Z-0.7875
G01 X93.0005 Y250.1485 Z-0.8000
G01 X93.0115 Y250.1943 Z-0.8125
G01 X93.0249 Y250.2395 Z-0.8250
G01 X93.0406 Y250.2839 Z-0.8375
G01 X93.0586 Y250.3275 Z-0.8500
G01 X93.0789 Y250.3700 Z-0.8625
G01 X93.1014 Y250.4114 Z-0.8750
G01 X93.1260 Y250.4516 Z-0.8875
G01 X93.1527 Y250.4904 Z-0.9000
G01 X93.1814 Y250.5278 Z-0.9125
G01 X93.2120 Y250.5636 Z-0.9250
G01 X93.2444 Y250.5978 Z-0.9375
G01 X93.2786 Y250.6302 Z-0.9500
G01 X93.3144 Y250.6608 Z-0.9625
G01 X93.3518 Y250.6895 Z-0.9750
G01 X93.3906 Y250.7162 Z-0.9875
G01 X93.4308 Y250.7408 Z-1.0000
G01 X93.4722 Y250.7633 Z-1.0125
G01 X93.5148 Y250.7836 Z-1.0250
G01 X93.5583 Y250.8016 Z-1.0375
G01 X93.6027 Y250.8173 Z-1.0500
G01 X93.6479 Y250.8307 Z-1.0625
G01 X93.6937 Y250.8417 Z-1.0750
G01 X93.7400 Y250.8503 Z-1.0875
G01 X93.7867 Y250.8565 Z-1.1000
G01 X93.8337 Y250.8602 Z-1.1125
G01 X93.8808 Y250.8614 Z-1.1250
G01 X93.9279 Y250.8602 Z-1.1375
G01 X93.9749 Y250.8565 Z-1.1500
G01 X94.0216 Y250.8503 Z-1.1625
G01 X94.0679 Y250.8417 Z-1.1750
G01 X94.1138 Y250.8307 Z-1.1875
G01 X94.1589 Y250.8173 Z-1.2000
G01 X94.2034 Y250.8016 Z-1.2125
G01 X94.2469 Y250.7836 Z-1.2250
G01 X94.2894 Y250.7633 Z-1.2375
G01 X94.3308 Y250.7408 Z-1.2500
G01 X94.3710 Y250.7162 Z-1.2625
G01 X94.4098 Y250.6895 Z-1.2750
G01 X94.4472 Y250.6608 Z-1.2875
G01 X94.4830 Y250.6302 Z-1.3000
G01 X94.5172 Y250.5978 Z-1.3125
G01 X94.5497 Y250.5636 Z-1.3250
G01 X94.5803 Y250.5278 Z-1.3375
G01 X94.6089 Y250.4904 Z-1.3500
G01 X94.6356 Y250.4516 Z-1.3625
G01 X94.6602 Y250.4114 Z-1.3750
G01 X94.6827 Y250.3700 Z-1.3875
G01 X94.7030 Y250.3275 Z-1.4000
G01 X94.7210 Y250.2839 Z-1.4125
G01 X94.7368 Y250.2395 Z-1.4250
G01 X94.7502 Y250.1943 Z-1.4375
G01 X94.7612 Y250.1485 Z-1.4500
G01 X94.7697 Y250.1022 Z-1.4625
G01 X94.7759 Y250.0555 Z-1.4750
G01 X94.7796 Y250.0085 Z-1.4875
G01 X94.7808 Y249.9614 Z-1.5000
G01 X94.7796 Y249.9143
G01 X94.7759 Y249.8673
G01 X94.7697 Y249.8206
G01 X94.7612 Y249.7743
G01 X94.7502 Y249.7285
G01 X94.7368 Y249.6833
G01 X94.7210 Y249.6389
G01 X94.7030 Y249.5953
G01 X94.6827 Y249.5528
G01 X94.6602 Y249.5114
G01 X94.6356 Y249.4712
G01 X94.6089 Y249.4324
G01 X94.5803 Y249.3950
G01 X94.5497 Y249.3592
G01 X94.5172 Y249.3250
G01 X94.4830 Y249.2926
G01 X94.4472 Y249.2620
G01 X94.4098 Y249.2333
G01 X94.3710 Y249.2066
G01 X94.3308 Y249.1820
G01 X94.2894 Y249.1595
G01 X94.2469 Y249.1392
G01 X94.2034 Y249.1212
G01 X94.1589 Y249.1054
G01 X94.1138 Y249.0921
G01 X94.0679 Y249.0811
G01 X94.0216 Y249.0725
G01 X93.9749 Y249.0663
G01 X93.9279 Y249.0626
G01 X93.8808 Y249.0614
G01 X93.8337 Y249.0626
G01 X93.7867 Y249.0663
G01 X93.7400 Y249.0725
G01 X93.6937 Y249.0811
G01 X93.6479 Y249.0921
G01 X93.6027 Y249.1054
G01 X93.5583 Y249.1212
G01 X93.5148 Y249.1392
G01 X93.4722 Y249.1595
G01 X93.4308 Y249.1820
G01 X93.3906 Y249.2066
G01 X93.3518 Y249.2333
G01 X93.3144 Y249.2620
G01 X93.2786 Y249.2926
G01 X93.2444 Y249.3250
G01 X93.2120 Y249.3592
G01 X93.1814 Y249.3950
G01 X93.1527 Y249.4324
G01 X93.1260 Y249.4712
G01 X93.1014 Y249.5114
G01 X93.0789 Y249.5528
G01 X93.0586 Y249.5953
G01 X93.0406 Y249.6389
G01 X93.0249 Y249.6833
G01 X93.0115 Y249.7285
G01 X93.0005 Y249.7743
G01 X92.9919 Y249.8206
G01 X92.9858 Y249.8673
G01 X92.9821 Y249.9143
G01 X92.9808 Y249.9614
G01 X92.9821 Y250.0085
G01 X92.9858 Y250.0555
G01 X92.9919 Y250.1022
G01 X93.0005 Y250.1485
G01 X93.0115 Y250.1943
G01 X93.0249 Y250.2395
G01 X93.0406 Y250.2839
G01 X93.0586 Y250.3275
G01 X93.0789 Y250.3700
G01 X93.1014 Y250.4114
G01 X93.1260 Y250.4516
G01 X93.1527 Y250.4904
G01 X93.1814 Y250.5278
G01 X93.2120 Y250.5636
G01 X93.2444 Y250.5978
G01 X93.2786 Y250.6302
G01 X93.3144 Y250.6608
G01 X93.3518 Y250.6895
G01 X93.3906 Y250.7162
G01 X93.4308 Y250.7408
G01 X93.4722 Y250.7633
G01 X93.5148 Y250.7836
G01 X93.5583 Y250.8016
G01 X93.6027 Y250.8173
G01 X93.6479 Y250.8307
G01 X93.6937 Y250.8417
G01 X93.7400 Y250.8503
G01 X93.7867 Y250.8565
G01 X93.8337 Y250.8602
G01 X93.8808 Y250.8614
G01 X93.9279 Y250.8602
G01 X93.9749 Y250.8565
G01 X94.0216 Y250.8503
G01 X94.0679 Y250.8417
G01 X94.1138 Y250.8307
G01 X94.1589 Y250.8173
G01 X94.2034 Y250.8016
G01 X94.2469 Y250.7836
G01 X94.2894 Y250.7633
G01 X94.3308 Y250.7408
G01 X94.3710 Y250.7162
G01 X94.4098 Y250.6895
G01 X94.4472 Y250.6608
G01 X94.4830 Y250.6302
G01 X94.5172 Y250.5978
G01 X94.5497 Y250.5636
G01 X94.5803 Y250.5278
G01 X94.6089 Y250.4904
G01 X94.6356 Y250.4516
G01 X94.6602 Y250.4114
G01 X94.6827 Y250.3700
G01 X94.7030 Y250.3275
G01 X94.7210 Y250.2839
G01 X94.7368 Y250.2395
G01 X94.7502 Y250.1943
G01 X94.7612 Y250.1485
G01 X94.7697 Y250.1022
G01 X94.7759 Y250.0555
G01 X94.7796 Y250.0085
G01 X94.7808 Y249.9614
G01 X94.7917 Y249.9147 F800
G01 X94.8002 Y249.8675
G01 X94.8062 Y249.8200
G01 X94.8097 Y249.7722
G01 X94.8108 Y249.7243
G01 X94.8093 Y249.6764
G01 X94.8054 Y249.6286
G01 X94.7989 Y249.5811
G01 X94.7892 Y249.5296
G01 X94.7769 Y249.4787
G01 X94.7620 Y249.4284
G01 X94.7445 Y249.3790
G01 X94.7244 Y249.3306
G01 X94.7019 Y249.2833
G01 X94.6770 Y249.2372
G01 X94.6498 Y249.1924
G01 X94.6178 Y249.1454
G01 X94.5834 Y249.1001
G01 X94.5467 Y249.0565
G01 X94.5079 Y249.0150
G01 X94.4670 Y248.9754
G01 X94.4241 Y248.9380
G01 X94.3793 Y248.9029
G01 X94.3329 Y248.8701
G01 X94.2803 Y248.8405
G01 X94.2264 Y248.8136
G01 X94.1712 Y248.7894
G01 X94.1148 Y248.7680
G01 X94.0575 Y248.7495
G01 X93.9992 Y248.7338
G01 X93.9403 Y248.7211
G01 X93.8808 Y248.7114
G01 X93.8195 Y248.7129
G01 X93.7583 Y248.7174
G01 X93.6974 Y248.7249
G01 X93.6370 Y248.7354
G01 X93.5771 Y248.7489
G01 X93.5180 Y248.7652
G01 X93.4597 Y248.7845
G01 X93.4025 Y248.8065
G01 X93.3464 Y248.8314
G01 X93.2916 Y248.8590
G01 X93.2382 Y248.8892
G01 X93.1864 Y248.9221
G01 X93.1362 Y248.9574
G01 X93.0878 Y248.9951
G01 X93.0414 Y249.0352
G01 X92.9969 Y249.0775
G01 X92.9546 Y249.1219
G01 X92.9146 Y249.1684
G01 X92.8768 Y249.2168
G01 X92.8415 Y249.2669
G01 X92.8087 Y249.3188
G01 X92.7784 Y249.3721
G01 X92.7508 Y249.4269
G01 X92.7260 Y249.4830
G01 X92.7039 Y249.5403
G01 X92.6846 Y249.5985
G01 X92.6683 Y249.6577
G01 X92.6548 Y249.7175
G01 X92.6443 Y249.7780
G01 X92.6368 Y249.8389
G01 X92.6323 Y249.9001
G01 X92.6308 Y249.9614
G01 X92.6323 Y250.0227
G01 X92.6368 Y250.0839
G01 X92.6443 Y250.1448
G01 X92.6548 Y250.2053
G01 X92.6683 Y250.2651
G01 X92.6846 Y250.3242
G01 X92.7039 Y250.3825
G01 X92.7260 Y250.4397
G01 X92.7508 Y250.4958
G01 X92.7784 Y250.5506
G01 X92.8087 Y250.6040
G01 X92.8415 Y250.6559
G01 X92.8768 Y250.7060
G01 X92.9146 Y250.7544
G01 X92.9546 Y250.8008
G01 X92.9969 Y250.8453
G01 X93.0414 Y250.8876
G01 X93.0878 Y250.9277
G01 X93.1362 Y250.9654
G01 X93.1864 Y251.0007
G01 X93.2382 Y251.0336
G01 X93.2916 Y251.0638
G01 X93.3464 Y251.0914
G01 X93.4025 Y251.1162
G01 X93.4597 Y251.1383
G01 X93.5180 Y251.1576
G01 X93.5771 Y251.1739
G01 X93.6370 Y251.1874
G01 X93.6974 Y251.1979
G01 X93.7583 Y251.2054
G01 X93.8195 Y251.2099
G01 X93.8808 Y251.2114
G01 X93.9422 Y251.2099
G01 X94.0033 Y251.2054
G01 X94.0642 Y251.1979
G01 X94.1247 Y251.1874
G01 X94.1845 Y251.1739
G01 X94.2437 Y251.1576
G01 X94.3019 Y251.1383
G01 X94.3592 Y251.1162
G01 X94.4153 Y251.0914
G01 X94.4701 Y251.0638
G01 X94.5234 Y251.0336
G01 X94.5753 Y251.0007
G01 X94.6254 Y250.9654
G01 X94.6738 Y250.9277
G01 X94.7203 Y250.8876
G01 X94.7647 Y250.8453
G01 X94.8070 Y250.8008
G01 X94.8471 Y250.7544
G01 X94.8848 Y250.7060
G01 X94.9202 Y250.6559
G01 X94.9530 Y250.6040
G01 X94.9832 Y250.5506
G01 X95.0108 Y250.4958
G01 X95.0357 Y250.4397
G01 X95.0577 Y250.3825
G01 X95.0770 Y250.3242
G01 X95.0934 Y250.2651
G01 X95.1068 Y250.2053
G01 X95.1173 Y250.1448
G01 X95.1248 Y250.0839
G01 X95.1293 Y250.0227
G01 X95.1308 Y249.9614
G01 X95.1261 Y249.8524
G01 X95.1118 Y249.7443
G01 X95.0882 Y249.6379
G01 X95.0554 Y249.5339
G01 X95.0137 Y249.4331
G01 X94.9634 Y249.3364
G01 X94.9048 Y249.2444
G01 X94.8384 Y249.1579
G01 X94.7647 Y249.0775
G01 X94.6843 Y249.0038
G01 X94.5978 Y248.9375
G01 X94.5058 Y248.8789
G01 X94.4091 Y248.8285
G01 X94.3083 Y248.7868
G01 X94.2043 Y248.7540
G01 X94.0979 Y248.7304
G01 X93.9898 Y248.7161
G01 X93.8808 Y248.7114
G01 X93.7719 Y248.7161
G01 X93.6638 Y248.7304
G01 X93.5573 Y248.7540
G01 X93.4533 Y248.7868
G01 X93.3525 Y248.8285
G01 X93.2558 Y248.8789
G01 X93.1638 Y248.9375
G01 X93.0773 Y249.0038
G01 X92.9969 Y249.0775
G01 X92.9233 Y249.1579
G01 X92.8569 Y249.2444
G01 X92.7983 Y249.3364
G01 X92.7479 Y249.4331
G01 X92.7062 Y249.5339
G01 X92.6734 Y249.6379
G01 X92.6498 Y249.7443
G01 X92.6356 Y249.8524
G01 X92.6308 Y249.9614
G01 X92.6356 Y250.0703
G01 X92.6498 Y250.1785
G01 X92.6734 Y250.2849
G01 X92.7062 Y250.3889
G01 X92.7479 Y250.4897
G01 X92.7983 Y250.5864
G01 X92.8569 Y250.6784
G01 X92.9233 Y250.7649
G01 X92.9969 Y250.8453
G01 X93.0773 Y250.9189
G01 X93.1638 Y250.9853
G01 X93.2558 Y251.0439
G01 X93.3525 Y251.0943
G01 X93.4533 Y251.1360
G01 X93.5573 Y251.1688
G01 X93.6638 Y251.1924
G01 X93.7719 Y251.2066
G01 X93.8808 Y251.2114
G01 X93.9898 Y251.2066
G01 X94.0979 Y251.1924
G01 X94.2043 Y251.1688
G01 X94.3083 Y251.1360
G01 X94.4091 Y251.0943
G01 X94.5058 Y251.0439
G01 X94.5978 Y250.9853
G01 X94.6843 Y250.9189
G01 X94.7647 Y250.8453
G01 X94.8384 Y250.7649
G01 X94.9048 Y250.6784
G01 X94.9634 Y250.5864
G01 X95.0137 Y250.4897
G01 X95.0554 Y250.3889
G01 X95.0882 Y250.2849
G01 X95.1118 Y250.1785
G01 X95.1261 Y250.0703
G01 X95.1308 Y249.9614
G01 X95.1267 Y249.8677
G01 X95.1145 Y249.7747
G01 X95.0942 Y249.6832
G01 X95.0660 Y249.5937
G01 X95.0301 Y249.5071
G01 X94.9868 Y249.4239
G01 X94.9364 Y249.3448
G01 X94.8793 Y249.2704
G01 X94.8160 Y249.2013
G01 X94.7468 Y249.1379
G01 X94.6724 Y249.0808
G01 X94.5933 Y249.0304
G01 X94.5101 Y248.9871
G01 X94.4235 Y248.9512
G01 X94.3341 Y248.9230
G01 X94.2425 Y248.9027
G01 X94.1495 Y248.8905
G01 X94.0558 Y248.8864
G01 X93.9621 Y248.8905
G01 X93.8691 Y248.9027
G01 X93.7776 Y248.9230
G01 X93.6881 Y248.9512
G01 X93.6015 Y248.9871
G01 X93.5183 Y249.0304
G01 X93.4392 Y249.0808
G01 X93.3648 Y249.1379
G01 X93.2957 Y249.2013
G01 X93.2323 Y249.2704
G01 X93.1752 Y249.3448
G01 X93.1248 Y249.4239
G01 X93.0815 Y249.5071
G01 X93.0457 Y249.5937
G01 X93.0174 Y249.6832
G01 X92.9972 Y249.7747
G01 X92.9849 Y249.8677
G01 X92.9808 Y249.9614
G01 X92.9821 Y250.0085
G01 X92.9858 Y250.0555
G01 X92.9919 Y250.1022
G01 X93.0005 Y250.1485
G01 X93.0115 Y250.1943
G01 X93.0249 Y250.2395
G01 X93.0406 Y250.2839
G01 X93.0586 Y250.3275
G01 X93.0789 Y250.3700
G01 X93.1014 Y250.4114
G01 X93.1260 Y250.4516
G01 X93.1527 Y250.4904
G01 X93.1814 Y250.5278
G01 X93.2120 Y250.5636
G01 X93.2444 Y250.5978
G01 X93.2786 Y250.6302
G01 X93.3144 Y250.6608
G01 X93.3518 Y250.6895
G01 X93.3906 Y250.7162
G01 X93.4308 Y250.7408
G01 X93.4722 Y250.7633
G01 X93.5148 Y250.7836
G01 X93.5583 Y250.8016
G01 X93.6027 Y250.8173
G01 X93.6479 Y250.8307
G01 X93.6937 Y250.8417
G01 X93.7400 Y250.8503
G01 X93.7867 Y250.8565
G01 X93.8337 Y250.8602
G01 X93.8808 Y250.8614
G01 X93.9279 Y250.8602
G01 X93.9749 Y250.8565
G01 X94.0216 Y250.8503
G01 X94.0679 Y250.8417
G01 X94.1138 Y250.8307
G01 X94.1589 Y250.8173
G01 X94.2034 Y250.8016
G01 X94.2469 Y250.7836
G01 X94.2894 Y250.7633
G01 X94.3308 Y250.7408
G01 X94.3710 Y250.7162
G01 X94.4098 Y250.6895
G01 X94.4472 Y250.6608
G01 X94.4830 Y250.6302
G01 X94.5172 Y250.5978
G01 X94.5497 Y250.5636
G01 X94.5803 Y250.5278
G01 X94.6089 Y250.4904
G01 X94.6356 Y250.4516
G01 X94.6602 Y250.4114
G01 X94.6827 Y250.3700
G01 X94.7030 Y250.3275
G01 X94.7210 Y250.2839
G01 X94.7368 Y250.2395
G01 X94.7502 Y250.1943
G01 X94.7612 Y250.1485
G01 X94.7697 Y250.1022
G01 X94.7759 Y250.0555
G01 X94.7796 Y250.0085
G01 X94.7808 Y249.9614
M107
M106 S200
G01 X94.7796 Y249.9143 Z-1.5125 F400
G01 X94.7759 Y249.8673 Z-1.5250
G01 X94.7697 Y249.8206 Z-1.5375
G01 X94.7612 Y249.7743 Z-1.5500
G01 X94.7502 Y249.7285 Z-1.5625
G01 X94.7368 Y249.6833 Z-1.5750
G01 X94.7210 Y249.6389 Z-1.5875
G01 X94.7030 Y249.5953 Z-1.6000
G01 X94.6827 Y249.5528 Z-1.6125
G01 X94.6602 Y249.5114 Z-1.6250
G01 X94.6356 Y249.4712 Z-1.6375
G01 X94.6089 Y249.4324 Z-1.6500
G01 X94.5803 Y249.3950 Z-1.6625
G01 X94.5497 Y249.3592 Z-1.6750
G01 X94.5172 Y249.3250 Z-1.6875
G01 X94.4830 Y249.2926 Z-1.7000
G01 X94.4472 Y249.2620 Z-1.7125
G01 X94.4098 Y249.2333 Z-1.7250
G01 X94.3710 Y249.2066 Z-1.7375
G01 X94.3308 Y249.1820 Z-1.7500
G01 X94.2894 Y249.1595 Z-1.7625
G01 X94.2469 Y249.1392 Z-1.7750
G01 X94.2034 Y249.1212 Z-1.7875
G01 X94.1589 Y249.1054 Z-1.8000
G01 X94.1138 Y249.0921 Z-1.8125
G01 X94.0679 Y249.0811 Z-1.8250
G01 X94.0216 Y249.0725 Z-1.8375
G01 X93.9749 Y249.0663 Z-1.8500
G01 X93.9279 Y249.0626 Z-1.8625
G01 X93.8808 Y249.0614 Z-1.8750
G01 X93.8337 Y249.0626 Z-1.8875
G01 X93.7867 Y249.0663 Z-1.9000
G01 X93.7400 Y249.0725 Z-1.9125
G01 X93.6937 Y249.0811 Z-1.9250
G01 X93.6479 Y249.0921 Z-1.9375
G01 X93.6027 Y249.1054 Z-1.9500
G01 X93.5583 Y249.1212 Z-1.9625
G01 X93.5148 Y249.1392 Z-1.9750
G01 X93.4722 Y249.1595 Z-1.9875
G01 X93.4308 Y249.1820 Z-2.0000
G01 X93.3906 Y249.2066 Z-2.0125
G01 X93.3518 Y249.2333 Z-2.0250
G01 X93.3144 Y249.2620 Z-2.0375
G01 X93.2786 Y249.2926 Z-2.0500
G01 X93.2444 Y249.3250 Z-2.0625
G01 X93.2120 Y249.3592 Z-2.0750
G01 X93.1814 Y249.3950 Z-2.0875
G01 X93.1527 Y249.4324 Z-2.1000
G01 X93.1260 Y249.4712 Z-2.1125
G01 X93.1014 Y249.5114 Z-2.1250
G01 X93.0789 Y249.5528 Z-2.1375
G01 X93.0586 Y249.5953 Z-2.1500
G01 X93.0406 Y249.6389 Z-2.1625
G01 X93.0249 Y249.6833 Z-2.1750
G01 X93.0115 Y249.7285 Z-2.1875
G01 X93.0005 Y249.7743 Z-2.2000
G01 X92.9919 Y249.8206 Z-2.2125
G01 X92.9858 Y249.8673 Z-2.2250
G01 X92.9821 Y249.9143 Z-2.2375
G01 X92.9808 Y249.9614 Z-2.2500
G01 X92.9821 Y250.0085 Z-2.2625
G01 X92.9858 Y250.0555 Z-2.2750
G01 X92.9919 Y250.1022 Z-2.2875
G01 X93.0005 Y250.1485 Z-2.3000
G01 X93.0115 Y250.1943 Z-2.3125
G01 X93.0249 Y250.2395 Z-2.3250
G01 X93.0406 Y250.2839 Z-2.3375
G01 X93.0586 Y250.3275 Z-2.3500
G01 X93.0789 Y250.3700 Z-2.3625
G01 X93.1014 Y250.4114 Z-2.3750
G01 X93.1260 Y250.4516 Z-2.3875
G01 X93.1527 Y250.4904 Z-2.4000
G01 X93.1814 Y250.5278 Z-2.4125
G01 X93.2120 Y250.5636 Z-2.4250
G01 X93.2444 Y250.5978 Z-2.4375
G01 X93.2786 Y250.6302 Z-2.4500
G01 X93.3144 Y250.6608 Z-2.4625
G01 X93.3518 Y250.6895 Z-2.4750
G01 X93.3906 Y250.7162 Z-2.4875
G01 X93.4308 Y250.7408 Z-2.5000
G01 X93.4722 Y250.7633 Z-2.5125
G01 X93.5148 Y250.7836 Z-2.5250
G01 X93.5583 Y250.8016 Z-2.5375
G01 X93.6027 Y250.8173 Z-2.5500
G01 X93.6479 Y250.8307 Z-2.5625
G01 X93.6937 Y250.8417 Z-2.5750
G01 X93.7400 Y250.8503 Z-2.5875
G01 X93.7867 Y250.8565 Z-2.6000
G01 X93.8337 Y250.8602 Z-2.6125
G01 X93.8808 Y250.8614 Z-2.6250
G01 X93.9279 Y250.8602 Z-2.6375
G01 X93.9749 Y250.8565 Z-2.6500
G01 X94.0216 Y250.8503 Z-2.6625
G01 X94.0679 Y250.8417 Z-2.6750
G01 X94.1138 Y250.8307 Z-2.6875
G01 X94.1589 Y250.8173 Z-2.7000
G01 X94.2034 Y250.8016 Z-2.7125
G01 X94.2469 Y250.7836 Z-2.7250
G01 X94.2894 Y250.7633 Z-2.7375
G01 X94.3308 Y250.7408 Z-2.7500
G01 X94.3710 Y250.7162 Z-2.7625
G01 X94.4098 Y250.6895 Z-2.7750
G01 X94.4472 Y250.6608 Z-2.7875
G01 X94.4830 Y250.6302 Z-2.8000
G01 X94.5172 Y250.5978 Z-2.8125
G01 X94.5497 Y250.5636 Z-2.8250
G01 X94.5803 Y250.5278 Z-2.8375
G01 X94.6089 Y250.4904 Z-2.8500
G01 X94.6356 Y250.4516 Z-2.8625
G01 X94.6602 Y250.4114 Z-2.8750
G01 X94.6827 Y250.3700 Z-2.8875
G01 X94.7030 Y250.3275 Z-2.9000
G01 X94.7210 Y250.2839 Z-2.9125
G01 X94.7368 Y250.2395 Z-2.9250
G01 X94.7502 Y250.1943 Z-2.9375
G01 X94.7612 Y250.1485 Z-2.9500
G01 X94.7697 Y250.1022 Z-2.9625
G01 X94.7759 Y250.0555 Z-2.9750
G01 X94.7796 Y250.0085 Z-2.9875
G01 X94.7808 Y249.9614 Z-3.0000
G01 X94.7796 Y249.9143
G01 X94.7759 Y249.8673
G01 X94.7697 Y249.8206
