;Project FamilieNicolWohntHier
;Created by Estlcam version 11 build 11,116
;Machining time about 00:19:44 hours

G90
M03 S18000
G00 X0.0000 Y0.0000 Z0.0000
G00 Z2.0000


;No. 1: Helical drill 1
G00 X19.6683 Y75.1551
G00 Z0.5000
M106 S240
G01 X19.6671 Y75.1091 Z0.4817 F400 S18000
G01 X19.6635 Y75.0633 Z0.4633
G01 X19.6575 Y75.0177 Z0.4450
G01 X19.6491 Y74.9725 Z0.4267
G01 X19.6384 Y74.9278 Z0.4083
G01 X19.6253 Y74.8837 Z0.3900
G01 X19.6099 Y74.8404 Z0.3717
G01 X19.5924 Y74.7979 Z0.3533
G01 X19.5726 Y74.7564 Z0.3350
G01 X19.5506 Y74.7160 Z0.3167
G01 X19.5266 Y74.6768 Z0.2983
G01 X19.5006 Y74.6389 Z0.2800
G01 X19.4726 Y74.6024 Z0.2617
G01 X19.4427 Y74.5675 Z0.2433
G01 X19.4111 Y74.5341 Z0.2250
G01 X19.3777 Y74.5025 Z0.2067
G01 X19.3427 Y74.4726 Z0.1883
G01 X19.3063 Y74.4446 Z0.1700
G01 X19.2684 Y74.4186 Z0.1517
G01 X19.2292 Y74.3945 Z0.1333
G01 X19.1888 Y74.3726 Z0.1150
G01 X19.1473 Y74.3528 Z0.0967
G01 X19.1048 Y74.3352 Z0.0783
G01 X19.0615 Y74.3199 Z0.0600
G01 X19.0174 Y74.3068 Z0.0417
G01 X18.9727 Y74.2961 Z0.0233
G01 X18.9275 Y74.2877 Z0.0050
G01 X18.8819 Y74.2817 Z-0.0133
G01 X18.8361 Y74.2781 Z-0.0317
G01 X18.7901 Y74.2769 Z-0.0500
G01 X18.7441 Y74.2781 Z-0.0683
G01 X18.6983 Y74.2817 Z-0.0867
G01 X18.6527 Y74.2877 Z-0.1050
G01 X18.6075 Y74.2961 Z-0.1233
G01 X18.5628 Y74.3068 Z-0.1417
G01 X18.5187 Y74.3199 Z-0.1600
G01 X18.4754 Y74.3352 Z-0.1783
G01 X18.4329 Y74.3528 Z-0.1967
G01 X18.3914 Y74.3726 Z-0.2150
G01 X18.3510 Y74.3945 Z-0.2333
G01 X18.3118 Y74.4186 Z-0.2517
G01 X18.2739 Y74.4446 Z-0.2700
G01 X18.2374 Y74.4726 Z-0.2883
G01 X18.2025 Y74.5025 Z-0.3067
G01 X18.1691 Y74.5341 Z-0.3250
G01 X18.1375 Y74.5675 Z-0.3433
G01 X18.1076 Y74.6024 Z-0.3617
G01 X18.0796 Y74.6389 Z-0.3800
G01 X18.0536 Y74.6768 Z-0.3983
G01 X18.0296 Y74.7160 Z-0.4167
G01 X18.0076 Y74.7564 Z-0.4350
G01 X17.9878 Y74.7979 Z-0.4533
G01 X17.9702 Y74.8404 Z-0.4717
G01 X17.9549 Y74.8837 Z-0.4900
G01 X17.9418 Y74.9278 Z-0.5083
G01 X17.9311 Y74.9725 Z-0.5267
G01 X17.9227 Y75.0177 Z-0.5450
G01 X17.9167 Y75.0633 Z-0.5633
G01 X17.9131 Y75.1091 Z-0.5817
G01 X17.9119 Y75.1551 Z-0.6000
G01 X17.9131 Y75.2010 Z-0.6183
G01 X17.9167 Y75.2469 Z-0.6367
G01 X17.9227 Y75.2924 Z-0.6550
G01 X17.9311 Y75.3377 Z-0.6733
G01 X17.9418 Y75.3824 Z-0.6917
G01 X17.9549 Y75.4264 Z-0.7100
G01 X17.9702 Y75.4698 Z-0.7283
G01 X17.9878 Y75.5123 Z-0.7467
G01 X18.0076 Y75.5538 Z-0.7650
G01 X18.0296 Y75.5942 Z-0.7833
G01 X18.0536 Y75.6334 Z-0.8017
G01 X18.0796 Y75.6713 Z-0.8200
G01 X18.1076 Y75.7077 Z-0.8383
G01 X18.1375 Y75.7427 Z-0.8567
G01 X18.1691 Y75.7760 Z-0.8750
G01 X18.2025 Y75.8077 Z-0.8933
G01 X18.2374 Y75.8375 Z-0.9117
G01 X18.2739 Y75.8655 Z-0.9300
G01 X18.3118 Y75.8916 Z-0.9483
G01 X18.3510 Y75.9156 Z-0.9667
G01 X18.3914 Y75.9375 Z-0.9850
G01 X18.4329 Y75.9573 Z-1.0033
G01 X18.4754 Y75.9749 Z-1.0217
G01 X18.5187 Y75.9903 Z-1.0400
G01 X18.5628 Y76.0033 Z-1.0583
G01 X18.6075 Y76.0141 Z-1.0767
G01 X18.6527 Y76.0224 Z-1.0950
G01 X18.6983 Y76.0284 Z-1.1133
G01 X18.7441 Y76.0320 Z-1.1317
G01 X18.7901 Y76.0333 Z-1.1500
G01 X18.8361 Y76.0320 Z-1.1683
G01 X18.8819 Y76.0284 Z-1.1867
G01 X18.9275 Y76.0224 Z-1.2050
G01 X18.9727 Y76.0141 Z-1.2233
G01 X19.0174 Y76.0033 Z-1.2417
G01 X19.0615 Y75.9903 Z-1.2600
G01 X19.1048 Y75.9749 Z-1.2783
G01 X19.1473 Y75.9573 Z-1.2967
G01 X19.1888 Y75.9375 Z-1.3150
G01 X19.2292 Y75.9156 Z-1.3333
G01 X19.2684 Y75.8916 Z-1.3517
G01 X19.3063 Y75.8655 Z-1.3700
G01 X19.3427 Y75.8375 Z-1.3883
G01 X19.3777 Y75.8077 Z-1.4067
G01 X19.4111 Y75.7760 Z-1.4250
G01 X19.4427 Y75.7427 Z-1.4433
G01 X19.4726 Y75.7077 Z-1.4617
G01 X19.5006 Y75.6713 Z-1.4800
G01 X19.5266 Y75.6334 Z-1.4983
G01 X19.5506 Y75.5942 Z-1.5167
G01 X19.5726 Y75.5538 Z-1.5350
G01 X19.5924 Y75.5123 Z-1.5533
G01 X19.6099 Y75.4698 Z-1.5717
G01 X19.6253 Y75.4264 Z-1.5900
G01 X19.6384 Y75.3824 Z-1.6083
G01 X19.6491 Y75.3377 Z-1.6267
G01 X19.6575 Y75.2924 Z-1.6450
G01 X19.6635 Y75.2469 Z-1.6633
G01 X19.6671 Y75.2010 Z-1.6817
G01 X19.6683 Y75.1551 Z-1.7000
G01 X19.6671 Y75.1091 Z-1.7183
G01 X19.6635 Y75.0633 Z-1.7367
G01 X19.6575 Y75.0177 Z-1.7550
G01 X19.6491 Y74.9725 Z-1.7733
G01 X19.6384 Y74.9278 Z-1.7917
G01 X19.6253 Y74.8837 Z-1.8100
G01 X19.6099 Y74.8404 Z-1.8283
G01 X19.5924 Y74.7979 Z-1.8467
G01 X19.5726 Y74.7564 Z-1.8650
G01 X19.5506 Y74.7160 Z-1.8833
G01 X19.5266 Y74.6768 Z-1.9017
G01 X19.5006 Y74.6389 Z-1.9200
G01 X19.4726 Y74.6024 Z-1.9383
G01 X19.4427 Y74.5675 Z-1.9567
G01 X19.4111 Y74.5341 Z-1.9750
G01 X19.3777 Y74.5025 Z-1.9933
G01 X19.3427 Y74.4726 Z-2.0117
G01 X19.3063 Y74.4446 Z-2.0300
G01 X19.2684 Y74.4186 Z-2.0483
G01 X19.2292 Y74.3945 Z-2.0667
G01 X19.1888 Y74.3726 Z-2.0850
G01 X19.1473 Y74.3528 Z-2.1033
G01 X19.1048 Y74.3352 Z-2.1217
G01 X19.0615 Y74.3199 Z-2.1400
G01 X19.0174 Y74.3068 Z-2.1583
G01 X18.9727 Y74.2961 Z-2.1767
G01 X18.9275 Y74.2877 Z-2.1950
G01 X18.8819 Y74.2817 Z-2.2133
G01 X18.8361 Y74.2781 Z-2.2317
G01 X18.7901 Y74.2769 Z-2.2500
G01 X18.7441 Y74.2781 Z-2.2683
G01 X18.6983 Y74.2817 Z-2.2867
G01 X18.6527 Y74.2877 Z-2.3050
G01 X18.6075 Y74.2961 Z-2.3233
G01 X18.5628 Y74.3068 Z-2.3417
G01 X18.5187 Y74.3199 Z-2.3600
G01 X18.4754 Y74.3352 Z-2.3783
G01 X18.4329 Y74.3528 Z-2.3967
G01 X18.3914 Y74.3726 Z-2.4150
G01 X18.3510 Y74.3945 Z-2.4333
G01 X18.3118 Y74.4186 Z-2.4517
G01 X18.2739 Y74.4446 Z-2.4700
G01 X18.2374 Y74.4726 Z-2.4883
G01 X18.2025 Y74.5025 Z-2.5067
G01 X18.1691 Y74.5341 Z-2.5250
G01 X18.1375 Y74.5675 Z-2.5433
G01 X18.1076 Y74.6024 Z-2.5617
G01 X18.0796 Y74.6389 Z-2.5800
G01 X18.0536 Y74.6768 Z-2.5983
G01 X18.0296 Y74.7160 Z-2.6167
G01 X18.0076 Y74.7564 Z-2.6350
G01 X17.9878 Y74.7979 Z-2.6533
G01 X17.9702 Y74.8404 Z-2.6717
G01 X17.9549 Y74.8837 Z-2.6900
G01 X17.9418 Y74.9278 Z-2.7083
G01 X17.9311 Y74.9725 Z-2.7267
G01 X17.9227 Y75.0177 Z-2.7450
G01 X17.9167 Y75.0633 Z-2.7633
G01 X17.9131 Y75.1091 Z-2.7817
G01 X17.9119 Y75.1551 Z-2.8000
G01 X17.9131 Y75.2010 Z-2.8183
G01 X17.9167 Y75.2469 Z-2.8367
G01 X17.9227 Y75.2924 Z-2.8550
G01 X17.9311 Y75.3377 Z-2.8733
G01 X17.9418 Y75.3824 Z-2.8917
G01 X17.9549 Y75.4264 Z-2.9100
G01 X17.9702 Y75.4698 Z-2.9283
G01 X17.9878 Y75.5123 Z-2.9467
G01 X18.0076 Y75.5538 Z-2.9650
G01 X18.0296 Y75.5942 Z-2.9833
G01 X18.0536 Y75.6334 Z-3.0017
G01 X18.0796 Y75.6713 Z-3.0200
G01 X18.1076 Y75.7077 Z-3.0383
G01 X18.1375 Y75.7427 Z-3.0567
G01 X18.1691 Y75.7760 Z-3.0750
G01 X18.2025 Y75.8077 Z-3.0933
G01 X18.2374 Y75.8375 Z-3.1117
G01 X18.2739 Y75.8655 Z-3.1300
G01 X18.3118 Y75.8916 Z-3.1483
G01 X18.3510 Y75.9156 Z-3.1667
G01 X18.3914 Y75.9375 Z-3.1850
G01 X18.4329 Y75.9573 Z-3.2033
G01 X18.4754 Y75.9749 Z-3.2217
G01 X18.5187 Y75.9903 Z-3.2400
G01 X18.5628 Y76.0033 Z-3.2583
G01 X18.6075 Y76.0141 Z-3.2767
G01 X18.6527 Y76.0224 Z-3.2950
G01 X18.6983 Y76.0284 Z-3.3133
G01 X18.7441 Y76.0320 Z-3.3317
G01 X18.7901 Y76.0333 Z-3.3500
G01 X18.8361 Y76.0320 Z-3.3683
G01 X18.8819 Y76.0284 Z-3.3867
G01 X18.9275 Y76.0224 Z-3.4050
G01 X18.9727 Y76.0141 Z-3.4233
G01 X19.0174 Y76.0033 Z-3.4417
G01 X19.0615 Y75.9903 Z-3.4600
G01 X19.1048 Y75.9749 Z-3.4783
G01 X19.1473 Y75.9573 Z-3.4967
G01 X19.1888 Y75.9375 Z-3.5150
G01 X19.2292 Y75.9156 Z-3.5333
G01 X19.2684 Y75.8916 Z-3.5517
G01 X19.3063 Y75.8655 Z-3.5700
G01 X19.3427 Y75.8375 Z-3.5883
G01 X19.3777 Y75.8077 Z-3.6067
G01 X19.4111 Y75.7760 Z-3.6250
G01 X19.4427 Y75.7427 Z-3.6433
G01 X19.4726 Y75.7077 Z-3.6617
G01 X19.5006 Y75.6713 Z-3.6800
G01 X19.5266 Y75.6334 Z-3.6983
G01 X19.5506 Y75.5942 Z-3.7167
G01 X19.5726 Y75.5538 Z-3.7350
G01 X19.5924 Y75.5123 Z-3.7533
G01 X19.6099 Y75.4698 Z-3.7717
G01 X19.6253 Y75.4264 Z-3.7900
G01 X19.6384 Y75.3824 Z-3.8083
G01 X19.6491 Y75.3377 Z-3.8267
G01 X19.6575 Y75.2924 Z-3.8450
G01 X19.6635 Y75.2469 Z-3.8633
G01 X19.6671 Y75.2010 Z-3.8817
G01 X19.6683 Y75.1551 Z-3.9000
G01 X19.6671 Y75.1091 Z-3.9042
G01 X19.6635 Y75.0633 Z-3.9083
G01 X19.6575 Y75.0177 Z-3.9125
G01 X19.6491 Y74.9725 Z-3.9167
G01 X19.6384 Y74.9278 Z-3.9208
G01 X19.6253 Y74.8837 Z-3.9250
G01 X19.6099 Y74.8404 Z-3.9292
G01 X19.5924 Y74.7979 Z-3.9333
G01 X19.5726 Y74.7564 Z-3.9375
G01 X19.5506 Y74.7160 Z-3.9417
G01 X19.5266 Y74.6768 Z-3.9458
G01 X19.5006 Y74.6389 Z-3.9500
G01 X19.4726 Y74.6024 Z-3.9542
G01 X19.4427 Y74.5675 Z-3.9583
G01 X19.4111 Y74.5341 Z-3.9625
G01 X19.3777 Y74.5025 Z-3.9667
G01 X19.3427 Y74.4726 Z-3.9708
G01 X19.3063 Y74.4446 Z-3.9750
G01 X19.2684 Y74.4186 Z-3.9792
G01 X19.2292 Y74.3945 Z-3.9833
G01 X19.1888 Y74.3726 Z-3.9875
G01 X19.1473 Y74.3528 Z-3.9917
G01 X19.1048 Y74.3352 Z-3.9958
G01 X19.0615 Y74.3199 Z-4.0000
G01 X19.0174 Y74.3068 Z-4.0042
G01 X18.9727 Y74.2961 Z-4.0083
G01 X18.9275 Y74.2877 Z-4.0125
G01 X18.8819 Y74.2817 Z-4.0167
G01 X18.8361 Y74.2781 Z-4.0208
G01 X18.7901 Y74.2769 Z-4.0250
G01 X18.7441 Y74.2781 Z-4.0292
G01 X18.6983 Y74.2817 Z-4.0333
G01 X18.6527 Y74.2877 Z-4.0375
G01 X18.6075 Y74.2961 Z-4.0417
G01 X18.5628 Y74.3068 Z-4.0458
G01 X18.5187 Y74.3199 Z-4.0500
G01 X18.4754 Y74.3352 Z-4.0542
G01 X18.4329 Y74.3528 Z-4.0583
G01 X18.3914 Y74.3726 Z-4.0625
G01 X18.3510 Y74.3945 Z-4.0667
G01 X18.3118 Y74.4186 Z-4.0708
G01 X18.2739 Y74.4446 Z-4.0750
G01 X18.2374 Y74.4726 Z-4.0792
G01 X18.2025 Y74.5025 Z-4.0833
G01 X18.1691 Y74.5341 Z-4.0875
G01 X18.1375 Y74.5675 Z-4.0917
G01 X18.1076 Y74.6024 Z-4.0958
G01 X18.0796 Y74.6389 Z-4.1000
G01 X18.0536 Y74.6768 Z-4.1042
G01 X18.0296 Y74.7160 Z-4.1083
G01 X18.0076 Y74.7564 Z-4.1125
G01 X17.9878 Y74.7979 Z-4.1167
G01 X17.9702 Y74.8404 Z-4.1208
G01 X17.9549 Y74.8837 Z-4.1250
G01 X17.9418 Y74.9278 Z-4.1292
G01 X17.9311 Y74.9725 Z-4.1333
G01 X17.9227 Y75.0177 Z-4.1375
G01 X17.9167 Y75.0633 Z-4.1417
G01 X17.9131 Y75.1091 Z-4.1458
G01 X17.9119 Y75.1551 Z-4.1500
G01 X17.9131 Y75.2010 Z-4.1542
G01 X17.9167 Y75.2469 Z-4.1583
G01 X17.9227 Y75.2924 Z-4.1625
G01 X17.9311 Y75.3377 Z-4.1667
G01 X17.9418 Y75.3824 Z-4.1708
G01 X17.9549 Y75.4264 Z-4.1750
G01 X17.9702 Y75.4698 Z-4.1792
G01 X17.9878 Y75.5123 Z-4.1833
G01 X18.0076 Y75.5538 Z-4.1875
G01 X18.0296 Y75.5942 Z-4.1917
G01 X18.0536 Y75.6334 Z-4.1958
G01 X18.0796 Y75.6713 Z-4.2000
G01 X18.1076 Y75.7077 Z-4.2042
G01 X18.1375 Y75.7427 Z-4.2083
G01 X18.1691 Y75.7760 Z-4.2125
G01 X18.2025 Y75.8077 Z-4.2167
G01 X18.2374 Y75.8375 Z-4.2208
G01 X18.2739 Y75.8655 Z-4.2250
G01 X18.3118 Y75.8916 Z-4.2292
G01 X18.3510 Y75.9156 Z-4.2333
G01 X18.3914 Y75.9375 Z-4.2375
G01 X18.4329 Y75.9573 Z-4.2417
G01 X18.4754 Y75.9749 Z-4.2458
G01 X18.5187 Y75.9903 Z-4.2500
G01 X18.5628 Y76.0033 Z-4.2542
G01 X18.6075 Y76.0141 Z-4.2583
G01 X18.6527 Y76.0224 Z-4.2625
G01 X18.6983 Y76.0284 Z-4.2667
G01 X18.7441 Y76.0320 Z-4.2708
G01 X18.7901 Y76.0333 Z-4.2750
G01 X18.8361 Y76.0320 Z-4.2792
G01 X18.8819 Y76.0284 Z-4.2833
G01 X18.9275 Y76.0224 Z-4.2875
G01 X18.9727 Y76.0141 Z-4.2917
G01 X19.0174 Y76.0033 Z-4.2958
G01 X19.0615 Y75.9903 Z-4.3000
G01 X19.1048 Y75.9749 Z-4.3042
G01 X19.1473 Y75.9573 Z-4.3083
G01 X19.1888 Y75.9375 Z-4.3125
G01 X19.2292 Y75.9156 Z-4.3167
G01 X19.2684 Y75.8916 Z-4.3208
G01 X19.3063 Y75.8655 Z-4.3250
G01 X19.3427 Y75.8375 Z-4.3292
G01 X19.3777 Y75.8077 Z-4.3333
G01 X19.4111 Y75.7760 Z-4.3375
G01 X19.4427 Y75.7427 Z-4.3417
G01 X19.4726 Y75.7077 Z-4.3458
G01 X19.5006 Y75.6713 Z-4.3500
G01 X19.5266 Y75.6334 Z-4.3542
G01 X19.5506 Y75.5942 Z-4.3583
G01 X19.5726 Y75.5538 Z-4.3625
G01 X19.5924 Y75.5123 Z-4.3667
G01 X19.6099 Y75.4698 Z-4.3708
G01 X19.6253 Y75.4264 Z-4.3750
G01 X19.6384 Y75.3824 Z-4.3792
G01 X19.6491 Y75.3377 Z-4.3833
G01 X19.6575 Y75.2924 Z-4.3875
G01 X19.6635 Y75.2469 Z-4.3917
G01 X19.6671 Y75.2010 Z-4.3958
G01 X19.6683 Y75.1551 Z-4.4000
G01 X19.6671 Y75.1091
G01 X19.6635 Y75.0633
G01 X19.6575 Y75.0177
G01 X19.6491 Y74.9725
G01 X19.6384 Y74.9278
G01 X19.6253 Y74.8837
G01 X19.6099 Y74.8404
G01 X19.5924 Y74.7979
G01 X19.5726 Y74.7564
G01 X19.5506 Y74.7160
G01 X19.5266 Y74.6768
G01 X19.5006 Y74.6389
G01 X19.4726 Y74.6024
G01 X19.4427 Y74.5675
G01 X19.4111 Y74.5341
G01 X19.3777 Y74.5025
G01 X19.3427 Y74.4726
G01 X19.3063 Y74.4446
G01 X19.2684 Y74.4186
G01 X19.2292 Y74.3945
G01 X19.1888 Y74.3726
G01 X19.1473 Y74.3528
G01 X19.1048 Y74.3352
G01 X19.0615 Y74.3199
G01 X19.0174 Y74.3068
G01 X18.9727 Y74.2961
G01 X18.9275 Y74.2877
G01 X18.8819 Y74.2817
G01 X18.8361 Y74.2781
G01 X18.7901 Y74.2769
G01 X18.7441 Y74.2781
G01 X18.6983 Y74.2817
G01 X18.6527 Y74.2877
G01 X18.6075 Y74.2961
G01 X18.5628 Y74.3068
G01 X18.5187 Y74.3199
G01 X18.4754 Y74.3352
G01 X18.4329 Y74.3528
G01 X18.3914 Y74.3726
G01 X18.3510 Y74.3945
G01 X18.3118 Y74.4186
G01 X18.2739 Y74.4446
G01 X18.2374 Y74.4726
G01 X18.2025 Y74.5025
G01 X18.1691 Y74.5341
G01 X18.1375 Y74.5675
G01 X18.1076 Y74.6024
G01 X18.0796 Y74.6389
G01 X18.0536 Y74.6768
G01 X18.0296 Y74.7160
G01 X18.0076 Y74.7564
G01 X17.9878 Y74.7979
G01 X17.9702 Y74.8404
G01 X17.9549 Y74.8837
G01 X17.9418 Y74.9278
G01 X17.9311 Y74.9725
G01 X17.9227 Y75.0177
G01 X17.9167 Y75.0633
G01 X17.9131 Y75.1091
G01 X17.9119 Y75.1551
G01 X17.9131 Y75.2010
G01 X17.9167 Y75.2469
G01 X17.9227 Y75.2924
G01 X17.9311 Y75.3377
G01 X17.9418 Y75.3824
G01 X17.9549 Y75.4264
G01 X17.9702 Y75.4698
G01 X17.9878 Y75.5123
G01 X18.0076 Y75.5538
G01 X18.0296 Y75.5942
G01 X18.0536 Y75.6334
G01 X18.0796 Y75.6713
G01 X18.1076 Y75.7077
G01 X18.1375 Y75.7427
G01 X18.1691 Y75.7760
G01 X18.2025 Y75.8077
G01 X18.2374 Y75.8375
G01 X18.2739 Y75.8655
G01 X18.3118 Y75.8916
G01 X18.3510 Y75.9156
G01 X18.3914 Y75.9375
G01 X18.4329 Y75.9573
G01 X18.4754 Y75.9749
G01 X18.5187 Y75.9903
G01 X18.5628 Y76.0033
G01 X18.6075 Y76.0141
G01 X18.6527 Y76.0224
G01 X18.6983 Y76.0284
G01 X18.7441 Y76.0320
G01 X18.7901 Y76.0333
G01 X18.8361 Y76.0320
G01 X18.8819 Y76.0284
G01 X18.9275 Y76.0224
G01 X18.9727 Y76.0141
G01 X19.0174 Y76.0033
G01 X19.0615 Y75.9903
G01 X19.1048 Y75.9749
G01 X19.1473 Y75.9573
G01 X19.1888 Y75.9375
G01 X19.2292 Y75.9156
G01 X19.2684 Y75.8916
G01 X19.3063 Y75.8655
G01 X19.3427 Y75.8375
G01 X19.3777 Y75.8077
G01 X19.4111 Y75.7760
G01 X19.4427 Y75.7427
G01 X19.4726 Y75.7077
G01 X19.5006 Y75.6713
G01 X19.5266 Y75.6334
G01 X19.5506 Y75.5942
G01 X19.5726 Y75.5538
G01 X19.5924 Y75.5123
G01 X19.6099 Y75.4698
G01 X19.6253 Y75.4264
G01 X19.6384 Y75.3824
G01 X19.6491 Y75.3377
G01 X19.6575 Y75.2924
G01 X19.6635 Y75.2469
G01 X19.6671 Y75.2010
G01 X19.6683 Y75.1551
M107
M106 S240
G01 X19.6672 Y75.1237 Z-4.3886
M107
M106 S240
G01 X19.6638 Y75.0926 Z-4.3773
M107
M106 S240
G01 X19.6582 Y75.0617 Z-4.3659
M107
M106 S240
G01 X19.6505 Y75.0314 Z-4.3545
M107
M106 S240
G01 X19.6406 Y75.0016 Z-4.3432
M107
M106 S240
G01 X19.6286 Y74.9727 Z-4.3318
M107
M106 S240
G01 X19.6146 Y74.9446 Z-4.3205
M107
M106 S240
G01 X19.5986 Y74.9177 Z-4.3091
M107
M106 S240
G01 X19.5807 Y74.8919 Z-4.2977
M107
M106 S240
G01 X19.5610 Y74.8675 Z-4.2864
M107
M106 S240
G01 X19.5397 Y74.8446 Z-4.2750
M107
M106 S240
G01 X19.5167 Y74.8232 Z-4.2636
M107
M106 S240
G01 X19.4923 Y74.8036 Z-4.2523
M107
M106 S240
G01 X19.4666 Y74.7857 Z-4.2409
M107
M106 S240
G01 X19.4396 Y74.7697 Z-4.2295
M107
M106 S240
G01 X19.4116 Y74.7557 Z-4.2182
M107
M106 S240
G01 X19.3826 Y74.7437 Z-4.2068
M107
M106 S240
G01 X19.3529 Y74.7338 Z-4.1955
M107
M106 S240
G01 X19.3225 Y74.7260 Z-4.1841
M107
M106 S240
G01 X19.2917 Y74.7204 Z-4.1727
M107
M106 S240
G01 X19.2605 Y74.7171 Z-4.1614
M107
M106 S240
G01 X19.2292 Y74.7160 Z-4.1500
M107
M106 S240
G01 X19.1979 Y74.7171 Z-4.1386
M107
M106 S240
G01 X19.1667 Y74.7204 Z-4.1273
M107
M106 S240
G01 X19.1358 Y74.7260 Z-4.1159
M107
M106 S240
G01 X19.1055 Y74.7338 Z-4.1045
M107
M106 S240
G01 X19.0757 Y74.7437 Z-4.0932
M107
M106 S240
G01 X19.0468 Y74.7557 Z-4.0818
M107
M106 S240
G01 X19.0187 Y74.7697 Z-4.0705
M107
M106 S240
G01 X18.9918 Y74.7857 Z-4.0591
M107
M106 S240
G01 X18.9660 Y74.8036 Z-4.0477
M107
M106 S240
G01 X18.9416 Y74.8232 Z-4.0364
M107
M106 S240
G01 X18.9187 Y74.8446 Z-4.0250
M107
M106 S240
G01 X18.8973 Y74.8675 Z-4.0136
M107
M106 S240
G01 X18.8777 Y74.8919 Z-4.0023
M107
M106 S240
G01 X18.8598 Y74.9177 Z-3.9909
M107
M106 S240
G01 X18.8438 Y74.9446 Z-3.9795
M107
M106 S240
G01 X18.8298 Y74.9727 Z-3.9682
M107
M106 S240
G01 X18.8178 Y75.0016 Z-3.9568
M107
M106 S240
G01 X18.8079 Y75.0314 Z-3.9455
M107
M106 S240
G01 X18.8001 Y75.0617 Z-3.9341
M107
M106 S240
G01 X18.7946 Y75.0926 Z-3.9227
M107
M106 S240
G01 X18.7912 Y75.1237 Z-3.9114
M107
M106 S240
G01 X18.7901 Y75.1551 Z-3.9000
M107
G00 Z2.0000


;No. 2: Hole 6
G00 X46.5359 Y47.9171 Z2.0000
G00 Z0.5000
G01 Z-1.2000 F400
M106 S240
G01 X50.7367 F1000
G01 Y49.4171
G01 X53.2014
G01 X44.2592
G01 X43.2758 Y50.9171
G01 X54.3182
G01 X55.0750 Y52.4171
G01 X42.8495
G01 X42.7553 Y53.9171
G01 X55.6138
G01 X56.0177 Y55.4171
G01 X42.9655
G01 X43.5694 Y56.9171
G01 X56.3360
G01 X47.4492
G01 Y58.4171
G01 X44.6606
M107
G00 Z2.0000
G00 X50.8687 Y56.9171
G00 Z0.5000
G01 Z-1.2000 F400
M106 S240
G01 Y58.4171 F1000
G01 X56.5905
G01 X56.7923 Y59.9171
G01 X52.3007
G01 X52.9309 Y61.4171
G01 X56.9456
G01 X57.0597 Y62.9171
G01 X53.3366
G01 X53.6444 Y64.4171
G01 X57.1406
G01 X57.1929 Y65.9171
G01 X53.8775
G01 X54.0551 Y67.4171
G01 X57.2201
G01 X57.2259 Y68.9171
G01 X54.1863
G01 X54.2803 Y70.4171
G01 X57.2131
G01 X57.1838 Y71.9171
G01 X54.3425
G01 X54.3769 Y73.4171
G01 X57.1392
G01 X57.0799 Y74.9171
G01 X54.3880
G01 X54.3731 Y76.4171
G01 X57.0074
G01 X56.9221 Y77.9171
G01 X54.3269
G01 X54.2456 Y79.4171
G01 X56.8250
G01 Y80.9171
G01 X54.1263
G01 X67.8362
G01 X68.8269 Y79.4171
G01 X59.5828
G01 X60.5828 Y77.9171
G01 X69.8175
G01 X70.8082 Y76.4171
G01 X61.5828
G01 X62.5828 Y74.9171
G01 X71.7989
G01 X72.7895 Y73.4171
G01 X63.5828
G01 X64.5829 Y71.9171
G01 X73.7802
G01 X74.7709 Y70.4171
G01 X65.5829
G01 X66.5829 Y68.9171
G01 X75.7615
G01 X76.7522 Y67.4171
G01 X67.5829
G01 X68.5829 Y65.9171
G01 X82.2574
G01 Y64.4171
G01 X69.5829
G01 X70.5830 Y62.9171
G01 X82.2717
G01 X82.4313 Y61.4171
G01 X71.5830
G01 X72.5830 Y59.9171
G01 X82.9836
G01 Y58.4171
G01 X85.1655
G01 X73.5830
G01 X74.5830 Y56.9171
G01 X85.4684
G01 X84.1814 Y55.4171
G01 X75.5830
G01 X76.5831 Y53.9171
G01 X83.3600
G01 X82.8405 Y52.4171
G01 X77.5831
G01 X78.5831 Y50.9171
G01 X82.5282
G01 X82.3692 Y49.4171
G01 X79.5831
G01 X80.7419 Y47.9171
G01 X82.0617
M107
G00 Z2.0000
G00 X82.2573 Y65.9171
G00 Z0.5000
G01 Z-1.2000 F400
M106 S240
G01 Y67.4171 F1000
G01 X79.5689
G01 Y68.9171
G01 X82.2573
G01 Y70.4171
G01 X79.5689
G01 Y71.9171
G01 X82.2573
G01 Y73.4171
G01 X79.5689
G01 Y74.9171
G01 X82.2573
G01 Y76.4171
G01 X79.5689
G01 Y77.9171
G01 X82.2573
G01 Y79.4171
G01 X79.5689
G01 Y80.9171
G01 X82.2573
G01 Y82.4171
G01 X79.5689
G01 X79.5661 Y83.9171
G01 X82.2595
G01 X82.3106 Y85.4171
G01 X79.5039
G01 X79.3428 Y86.9171
G01 X82.4557
G01 X82.7254 Y88.4171
G01 X79.0501
G01 X78.5746 Y89.9171
G01 X83.1713
G01 X83.8933 Y91.4171
G01 X77.8084
G01 X76.6491 Y92.9171
G01 X84.9843
G01 X86.5536 Y94.4171
G01 X75.0432
M107
G00 Z2.0000
G00 X66.8456 Y80.9171
G00 Z0.5000
G01 Z-1.2000 F400
M106 S240
G01 Y82.4171 F1000
G01 X53.9657
G01 X53.7591 Y83.9171
G01 X65.8549
G01 X64.8642 Y85.4171
G01 X53.4950
G01 X53.1474 Y86.9171
G01 X63.8736
G01 X62.8829 Y88.4171
G01 X52.6898
G01 X52.0747 Y89.9171
G01 X61.9849
G01 X61.2882 Y91.4171
G01 X51.2100
G01 X49.9667 Y92.9171
G01 X61.1249
G01 X52.9498
G01 Y94.4171
G01 X48.1251
M107
G00 Z2.0000
G00 X56.4612 Y92.9171
G00 Z0.5000
G01 Z-1.2000 F400
M106 S240
G01 Y94.4171 F1000
G01 X61.8951
M107
G00 Z2.0000
G00 X47.2729 Y95.9171
G00 Z0.5000
G01 Z-1.2000 F400
M106 S240
G01 X45.9133 F1000
M107
G00 Z2.0000
G00 X62.0551
G00 Z0.5000
G01 Z-1.2000 F400
M106 S240
G01 X63.3355 F1000
M107
G00 Z2.0000
G00 X73.1382
G00 Z0.5000
G01 Z-1.2000 F400
M106 S240
G01 X74.3804 F1000
M107
G00 Z2.0000
G00 X87.0956
G00 Z0.5000
G01 Z-1.2000 F400
M106 S240
G01 X88.4531 F1000
M107
G00 Z2.0000
G00 Z0.5000
G01 Z-1.2000 F400
M106 S240
G01 X88.6373 Y95.8382 F1000
G01 X88.5614 Y95.7352
G01 X88.4800 Y95.6364
G01 X88.3934 Y95.5421
G01 X88.3019 Y95.4527
G01 X88.2058 Y95.3682
G01 X88.1052 Y95.2891
G01 X88.0005 Y95.2155
G01 X87.8920 Y95.1476
G01 X87.4130 Y94.8298
G01 X86.9492 Y94.4901
G01 X86.5016 Y94.1292
G01 X86.0713 Y93.7481
G01 X85.6591 Y93.3474
G01 X85.2658 Y92.9280
G01 X84.8925 Y92.4909
G01 X84.5397 Y92.0369
G01 X84.2186 Y91.5574
G01 X83.9254 Y91.0602
G01 X83.6612 Y90.5472
G01 X83.4267 Y90.0198
G01 X83.2227 Y89.4799
G01 X83.0500 Y88.9293
G01 X82.9091 Y88.3696
G01 X82.8004 Y87.8028
G01 X82.7219 Y87.3378
G01 X82.6537 Y86.8711
G01 X82.5957 Y86.4030
G01 X82.5479 Y85.9338
G01 X82.5105 Y85.4637
G01 X82.4833 Y84.9929
G01 X82.4665 Y84.5215
G01 X82.4600 Y84.0500
G01 X82.4573 Y83.6467
G01 Y63.6259
G01 X82.4597 Y63.3360
G01 X82.4700 Y62.8891
G01 X82.4982 Y62.4430
G01 X82.5444 Y61.9984
G01 X82.6083 Y61.5559
G01 X82.6441 Y61.3252
G01 X82.6945 Y61.0971
G01 X82.7590 Y60.8726
G01 X82.8376 Y60.6527
G01 X82.9298 Y60.4381
G01 X83.0354 Y60.2298
G01 X83.1538 Y60.0285
G01 X83.2847 Y59.8351
G01 X83.4892 Y59.6094
G01 X83.7113 Y59.4010
G01 X83.9494 Y59.2112
G01 X84.2021 Y59.0412
G01 X84.4677 Y58.8922
G01 X84.7444 Y58.7651
G01 X85.0305 Y58.6607
G01 X85.3240 Y58.5798
G01 X85.6245 Y58.4999
G01 X85.7163 Y58.4801
G01 X85.8069 Y58.4555
G01 X85.8961 Y58.4261
G01 X85.9837 Y58.3921
G01 X86.0693 Y58.3535
G01 X86.1527 Y58.3104
G01 X86.2338 Y58.2630
G01 X86.3123 Y58.2114
G01 X86.3228 Y58.1699
G01 X86.3316 Y58.1280
G01 X86.3386 Y58.0857
G01 X86.3438 Y58.0432
G01 X86.3471 Y58.0005
G01 X86.3486 Y57.9577
G01 X86.3482 Y57.9149
G01 X86.3460 Y57.8721
G01 X86.3420 Y57.8295
G01 X86.3361 Y57.7871
G01 X86.3284 Y57.7450
G01 X86.3189 Y57.7032
G01 X86.3075 Y57.6619
G01 X86.2945 Y57.6211
G01 X86.2797 Y57.5809
G01 X86.2631 Y57.5414
G01 X86.2449 Y57.5027
G01 X86.2250 Y57.4647
G01 X86.2035 Y57.4277
G01 X86.1805 Y57.3916
G01 X86.1559 Y57.3565
G01 X86.1298 Y57.3226
G01 X86.1023 Y57.2897
G01 X86.0734 Y57.2581
G01 X86.1072 Y57.3014
G01 X86.0628 Y57.2460
G01 X85.1455 Y56.2934
G01 X84.8624 Y55.9675
G01 X84.5948 Y55.6288
G01 X84.3432 Y55.2781
G01 X84.1081 Y54.9161
G01 X83.8900 Y54.5436
G01 X83.6895 Y54.1613
G01 X83.5069 Y53.7702
G01 X83.3427 Y53.3710
G01 X83.1971 Y52.9646
G01 X83.0706 Y52.5519
G01 X82.9633 Y52.1338
G01 X82.8756 Y51.7112
G01 X82.7568 Y51.0591
G01 X82.6612 Y50.4033
G01 X82.5889 Y49.7445
G01 X82.5399 Y49.0835
G01 X82.5225 Y48.9326
G01 X82.5016 Y48.7822
G01 X82.4772 Y48.6323
G01 X82.4493 Y48.4830
G01 X82.4366 Y48.3806
G01 X82.4170 Y48.2793
G01 X82.3906 Y48.1796
G01 X82.3574 Y48.0819
G01 X82.3177 Y47.9866
G01 X82.2717 Y47.8943
G01 X82.2195 Y47.8053
G01 X82.1613 Y47.7201
G01 X82.0859 Y47.6838
G01 X82.0086 Y47.6518
G01 X81.9296 Y47.6242
G01 X81.8491 Y47.6011
G01 X81.7675 Y47.5825
G01 X81.6850 Y47.5685
G01 X81.6019 Y47.5592
G01 X81.5183 Y47.5545
G01 X81.4346 Y47.5546
G01 X81.3511 Y47.5593
G01 X81.2679 Y47.5687
G01 X81.1854 Y47.5828
G01 X81.1356 Y47.5840
G01 X81.0860 Y47.5877
G01 X81.0366 Y47.5939
G01 X80.9876 Y47.6026
G01 X80.9391 Y47.6137
G01 X80.8912 Y47.6272
G01 X80.8440 Y47.6432
G01 X80.7977 Y47.6614
G01 X80.7524 Y47.6820
G01 X80.7081 Y47.7048
G01 X80.6651 Y47.7298
G01 X80.6234 Y47.7570
G01 X80.5831 Y47.7862
G01 X80.5443 Y47.8174
G01 X80.5071 Y47.8505
G01 X80.4716 Y47.8854
G01 X80.4380 Y47.9220
G01 X80.4062 Y47.9604
G01 X80.3763 Y48.0002
G01 X80.3485 Y48.0415
G01 X80.2933 Y48.1070
G01 X80.0854 Y48.3707
G01 X79.8832 Y48.6388
G01 X79.6866 Y48.9110
G01 X79.4959 Y49.1874
G01 X58.8345 Y80.1791
G01 X58.7801 Y80.2499
G01 X58.7196 Y80.3155
G01 X58.6535 Y80.3755
G01 X58.5824 Y80.4294
G01 X58.5067 Y80.4767
G01 X58.4271 Y80.5171
G01 X58.3442 Y80.5502
G01 X58.2587 Y80.5758
G01 X58.1712 Y80.5936
G01 X58.0825 Y80.6036
G01 X57.9933 Y80.6057
G01 X57.9042 Y80.5997
G01 X57.8161 Y80.5859
G01 X57.7295 Y80.5643
G01 X57.6451 Y80.5350
G01 X57.5638 Y80.4983
G01 X57.4860 Y80.4545
G01 X57.4124 Y80.4039
G01 X57.3437 Y80.3470
G01 X57.2803 Y80.2842
G01 X57.2227 Y80.2160
G01 X57.1715 Y80.1429
G01 X57.1269 Y80.0656
G01 X57.0895 Y79.9846
G01 X57.0594 Y79.9005
G01 X57.0369 Y79.8141
G01 X57.0223 Y79.7261
G01 X57.0155 Y79.6371
G01 X57.0174 Y79.5372
G01 X57.1519 Y77.6121
G01 X57.2591 Y75.6853
G01 X57.3389 Y73.7572
G01 X57.3913 Y71.8282
G01 X57.4163 Y69.8986
G01 X57.4139 Y67.9688
G01 X57.3841 Y66.0393
G01 X57.3270 Y64.1104
G01 X57.2738 Y62.9484
G01 X57.1917 Y61.7882
G01 X57.0809 Y60.6303
G01 X56.9413 Y59.4755
G01 X56.7731 Y58.3245
G01 X56.5763 Y57.1781
G01 X56.3511 Y56.0369
G01 X56.0977 Y54.9017
G01 X55.9475 Y54.2970
G01 X55.7711 Y53.6994
G01 X55.5687 Y53.1102
G01 X55.3406 Y52.5304
G01 X55.0874 Y51.9611
G01 X54.8096 Y51.4035
G01 X54.5075 Y50.8585
G01 X54.1820 Y50.3273
G01 X53.9204 Y49.9394
G01 X53.6297 Y49.5728
G01 X53.3116 Y49.2298
G01 X52.9680 Y48.9123
G01 X52.6008 Y48.6223
G01 X52.2124 Y48.3616
G01 X51.8050 Y48.1316
G01 X51.3810 Y47.9337
G01 X50.9833 Y47.7926
G01 X50.5784 Y47.6737
G01 X50.1675 Y47.5772
G01 X49.7520 Y47.5036
G01 X49.3330 Y47.4529
G01 X48.9119 Y47.4255
G01 X48.4899 Y47.4212
G01 X48.0684 Y47.4403
G01 X47.6485 Y47.4826
G01 X47.2316 Y47.5479
G01 X46.8189 Y47.6362
G01 X46.4117 Y47.7470
G01 X46.0243 Y47.9026
G01 X45.6492 Y48.0856
G01 X45.2882 Y48.2952
G01 X44.9432 Y48.5303
G01 X44.6161 Y48.7896
G01 X44.3086 Y49.0719
G01 X44.0221 Y49.3755
G01 X43.7583 Y49.6990
G01 X43.5186 Y50.0407
G01 X43.3040 Y50.3988
G01 X43.1158 Y50.7714
G01 X42.9550 Y51.1566
G01 X42.8223 Y51.5524
G01 X42.7185 Y51.9567
G01 X42.6442 Y52.3674
G01 X42.5996 Y52.7825
G01 X42.5811 Y52.9836
G01 X42.5673 Y53.1852
G01 X42.5580 Y53.3870
G01 X42.5533 Y53.5889
G01 X42.5524 Y53.7152
G01 X42.5545 Y53.8910
G01 X42.5759 Y54.2970
G01 X42.6213 Y54.7011
G01 X42.6903 Y55.1018
G01 X42.7828 Y55.4978
G01 X42.8984 Y55.8876
G01 X43.0367 Y56.2700
G01 X43.1973 Y56.6435
G01 X43.3795 Y57.0070
G01 X43.5829 Y57.3592
G01 X43.8066 Y57.6987
G01 X44.0498 Y58.0245
G01 X44.3118 Y58.3355
G01 X44.4053 Y58.4510
G01 X44.5047 Y58.5615
G01 X44.6099 Y58.6665
G01 X44.7205 Y58.7657
G01 X44.8362 Y58.8590
G01 X44.9566 Y58.9460
G01 X45.0816 Y59.0265
G01 X45.2106 Y59.1003
G01 X45.3433 Y59.1671
G01 X45.4794 Y59.2268
G01 X45.6185 Y59.2791
G01 X45.7601 Y59.3241
G01 X45.8506 Y59.3492
G01 X45.9430 Y59.3663
G01 X46.0365 Y59.3753
G01 X46.1304 Y59.3760
G01 X46.2240 Y59.3686
G01 X46.3166 Y59.3531
G01 X46.4075 Y59.3295
G01 X46.4960 Y59.2980
G01 X46.5814 Y59.2590
G01 X46.6631 Y59.2126
G01 X46.7404 Y59.1593
G01 X46.8128 Y59.0994
G01 X46.9246 Y59.0126
G01 X47.0380 Y58.9279
G01 X47.1530 Y58.8453
G01 X47.2694 Y58.7649
G01 X47.5337 Y58.5920
G01 X47.8137 Y58.4458
G01 X48.1067 Y58.3278
G01 X48.4098 Y58.2391
G01 X48.7202 Y58.1805
G01 X49.0348 Y58.1527
G01 X49.3506 Y58.1558
G01 X49.6647 Y58.1899
G01 X49.9738 Y58.2546
G01 X50.2751 Y58.3493
G01 X50.5657 Y58.4731
G01 X50.8427 Y58.6248
G01 X51.1036 Y58.8029
G01 X51.3457 Y59.0057
G01 X51.5667 Y59.2313
G01 X51.7646 Y59.4775
G01 X51.9483 Y59.7394
G01 X52.1184 Y60.0103
G01 X52.2746 Y60.2894
G01 X52.4164 Y60.5761
G01 X52.5435 Y60.8697
G01 X52.6555 Y61.1693
G01 X52.7522 Y61.4742
G01 X52.8332 Y61.7837
G01 X53.0498 Y62.6273
G01 X53.2451 Y63.4760
G01 X53.4191 Y64.3294
G01 X53.5716 Y65.1869
G01 X53.7026 Y66.0480
G01 X53.8120 Y66.9120
G01 X53.8997 Y67.7786
G01 X53.9656 Y68.6470
G01 X54.0748 Y70.2676
G01 X54.1489 Y71.8902
G01 X54.1878 Y73.5140
G01 X54.1916 Y75.1382
G01 X54.1602 Y76.7622
G01 X54.0937 Y78.3851
G01 X53.9921 Y80.0062
G01 X53.8554 Y81.6247
G01 X53.7807 Y82.3624
G01 X53.6893 Y83.0983
G01 X53.5810 Y83.8319
G01 X53.4561 Y84.5629
G01 X53.3146 Y85.2908
G01 X53.1566 Y86.0153
G01 X52.9820 Y86.7360
G01 X52.7912 Y87.4526
G01 X52.6418 Y87.9664
G01 X52.4714 Y88.4736
G01 X52.2803 Y88.9733
G01 X52.0688 Y89.4648
G01 X51.8373 Y89.9471
G01 X51.5861 Y90.4196
G01 X51.3156 Y90.8812
G01 X51.0264 Y91.3314
G01 X50.7144 Y91.7526
G01 X50.3835 Y92.1592
G01 X50.0344 Y92.5502
G01 X49.6677 Y92.9249
G01 X49.2844 Y93.2825
G01 X48.8851 Y93.6222
G01 X48.4707 Y93.9433
G01 X48.0421 Y94.2451
G01 X47.6002 Y94.5270
G01 X47.1459 Y94.7885
G01 X46.6800 Y95.0290
G01 X46.2037 Y95.2479
G01 X46.1279 Y95.2827
G01 X46.0552 Y95.3236
G01 X45.9861 Y95.3704
G01 X45.9211 Y95.4228
G01 X45.8607 Y95.4804
G01 X45.8053 Y95.5427
G01 X45.7552 Y95.6095
G01 X45.7108 Y95.6801
G01 X45.7049 Y95.6999
G01 X45.6979 Y95.7392
G01 X45.6959 Y95.7828
G01 X45.6972 Y95.8241
G01 X45.7007 Y95.8654
G01 X45.7063 Y95.9063
G01 X45.7141 Y95.9470
G01 X45.7242 Y95.9804
G01 X45.7358 Y96.0134
G01 X45.7488 Y96.0459
G01 X45.7632 Y96.0777
G01 X45.7790 Y96.1089
G01 X45.7961 Y96.1394
G01 X45.8146 Y96.1691
G01 X45.8343 Y96.1980
G01 X45.8552 Y96.2260
G01 X45.8773 Y96.2530
G01 X45.9006 Y96.2791
G01 X45.9251 Y96.3041
G01 X45.9505 Y96.3280
G01 X45.9770 Y96.3509
G01 X46.0045 Y96.3725
G01 X46.0329 Y96.3929
G01 X46.0798 Y96.4051
G01 X46.0973 Y96.4077
G01 X46.1910 Y96.4127
G01 X46.2849 Y96.4119
G01 X46.3786 Y96.4053
G01 X46.4717 Y96.3928
G01 X46.5638 Y96.3745
G01 X46.6546 Y96.3505
G01 X46.7437 Y96.3209
G01 X46.8308 Y96.2858
G01 X48.6396 Y95.6453
G01 X49.3612 Y95.3999
G01 X50.0920 Y95.1834
G01 X50.8308 Y94.9962
G01 X51.5765 Y94.8386
G01 X52.3279 Y94.7108
G01 X53.0837 Y94.6131
G01 X53.8429 Y94.5455
G01 X54.6041 Y94.5082
G01 X55.4061 Y94.5372
G01 X56.2060 Y94.6016
G01 X57.0024 Y94.7012
G01 X57.7935 Y94.8358
G01 X58.5780 Y95.0052
G01 X59.3542 Y95.2091
G01 X60.1206 Y95.4470
G01 X60.8758 Y95.7184
G01 X61.4041 Y95.9223
G01 X61.9411 Y96.1017
G01 X62.4859 Y96.2562
G01 X63.0372 Y96.3855
G01 X63.0724 Y96.3957
G01 X63.1081 Y96.4044
G01 X63.1441 Y96.4114
G01 X63.1805 Y96.4169
G01 X63.2170 Y96.4208
G01 X63.2536 Y96.4230
G01 X63.2903 Y96.4237
G01 X63.3270 Y96.4227
G01 X63.3636 Y96.4201
G01 X63.4001 Y96.4159
G01 X63.4364 Y96.4101
G01 X63.4723 Y96.4026
G01 X63.5079 Y96.3937
G01 X63.5431 Y96.3831
G01 X63.5777 Y96.3710
G01 X63.6118 Y96.3574
G01 X63.6203 Y96.3237
G01 X63.6269 Y96.2897
G01 X63.6317 Y96.2554
G01 X63.6347 Y96.2208
G01 X63.6358 Y96.1861
G01 X63.6351 Y96.1515
G01 X63.6326 Y96.1169
G01 X63.6282 Y96.0825
G01 X63.6220 Y96.0483
G01 X63.6140 Y96.0146
G01 X63.6043 Y95.9813
G01 X63.5928 Y95.9486
G01 X63.5795 Y95.9165
G01 X63.5646 Y95.8852
G01 X63.5480 Y95.8548
G01 X63.5299 Y95.8252
G01 X63.5102 Y95.7967
G01 X63.4890 Y95.7692
G01 X63.4664 Y95.7429
G01 X63.4424 Y95.7179
G01 X63.2378 Y95.4813
G01 X63.0217 Y95.2552
G01 X62.7947 Y95.0402
G01 X62.5572 Y94.8367
G01 X62.3620 Y94.6565
G01 X62.1789 Y94.4640
G01 X62.0087 Y94.2600
G01 X61.8522 Y94.0454
G01 X61.7100 Y93.8210
G01 X61.5827 Y93.5878
G01 X61.4709 Y93.3468
G01 X61.3749 Y93.0991
G01 X61.3389 Y92.9642
G01 X61.3114 Y92.8273
G01 X61.2927 Y92.6889
G01 X61.2828 Y92.5496
G01 X61.2815 Y92.4297
G01 X61.3296 Y92.0374
G01 X61.4167 Y91.6519
G01 X61.5421 Y91.2771
G01 X61.7045 Y90.9167
G01 X61.9953 Y90.3306
G01 X62.3051 Y89.7542
G01 X62.6334 Y89.1881
G01 X62.9799 Y88.6331
G01 X77.5234 Y66.6122
G01 X77.5761 Y66.5368
G01 X77.6356 Y66.4665
G01 X77.7012 Y66.4020
G01 X77.7725 Y66.3438
G01 X77.8488 Y66.2923
G01 X77.9296 Y66.2482
G01 X78.0140 Y66.2116
G01 X78.1015 Y66.1830
G01 X78.1912 Y66.1625
G01 X78.2825 Y66.1503
G01 X78.3744 Y66.1466
G01 X78.4664 Y66.1514
G01 X78.5574 Y66.1645
G01 X78.6469 Y66.1861
G01 X78.7341 Y66.2157
G01 X78.8181 Y66.2532
G01 X78.8983 Y66.2983
G01 X78.9741 Y66.3506
G01 X79.0447 Y66.4096
G01 X79.1096 Y66.4749
G01 X79.1682 Y66.5458
G01 X79.2201 Y66.6219
G01 X79.2647 Y66.7024
G01 X79.3018 Y66.7866
G01 X79.3310 Y66.8739
G01 X79.3520 Y66.9635
G01 X79.3646 Y67.0547
G01 X79.3689 Y67.1466
G01 Y83.5366
G01 X79.3711 Y84.2470
G01 X79.3463 Y84.9570
G01 X79.2946 Y85.6655
G01 X79.2159 Y86.3715
G01 X79.1105 Y87.0741
G01 X78.9785 Y87.7721
G01 X78.8200 Y88.4646
G01 X78.6353 Y89.1506
G01 X78.4447 Y89.6994
G01 X78.2205 Y90.2354
G01 X77.9638 Y90.7565
G01 X77.6753 Y91.2608
G01 X77.3563 Y91.7463
G01 X77.0080 Y92.2112
G01 X76.6316 Y92.6537
G01 X76.2286 Y93.0722
G01 X75.9112 Y93.3817
G01 X75.5864 Y93.6834
G01 X75.2544 Y93.9771
G01 X74.9153 Y94.2627
G01 X74.5694 Y94.5400
G01 X74.2169 Y94.8088
G01 X73.8580 Y95.0690
G01 X73.4929 Y95.3204
G01 X73.4035 Y95.3787
G01 X73.3178 Y95.4422
G01 X73.2362 Y95.5109
G01 X73.1589 Y95.5844
G01 X73.0862 Y95.6624
G01 X73.0184 Y95.7448
G01 X72.9557 Y95.8311
G01 X72.8985 Y95.9211
G01 X72.9030 Y95.9589
G01 X72.9098 Y95.9963
G01 X72.9188 Y96.0332
G01 X72.9301 Y96.0696
G01 X72.9435 Y96.1052
G01 X72.9590 Y96.1399
G01 X72.9766 Y96.1736
G01 X72.9961 Y96.2062
G01 X73.0176 Y96.2376
G01 X73.0410 Y96.2676
G01 X73.0661 Y96.2962
G01 X73.0929 Y96.3232
G01 X73.1212 Y96.3485
G01 X73.1510 Y96.3721
G01 X73.1822 Y96.3938
G01 X73.2147 Y96.4137
G01 X73.7109 Y96.3208
G01 X74.1999 Y96.1952
G01 X74.6794 Y96.0372
G01 X75.1473 Y95.8477
G01 X75.7383 Y95.6334
G01 X76.3377 Y95.4436
G01 X76.9443 Y95.2785
G01 X77.5572 Y95.1384
G01 X78.1753 Y95.0236
G01 X78.7976 Y94.9343
G01 X79.4230 Y94.8705
G01 X80.0505 Y94.8325
G01 X80.6791 Y94.8202
G01 X81.3076 Y94.8337
G01 X81.9350 Y94.8730
G01 X82.5604 Y94.9380
G01 X83.0642 Y95.0191
G01 X83.5657 Y95.1131
G01 X84.0647 Y95.2200
G01 X84.5607 Y95.3396
G01 X85.0536 Y95.4720
G01 X85.5428 Y95.6170
G01 X86.0282 Y95.7744
G01 X86.5094 Y95.9443
G01 X86.9185 Y96.0845
G01 X87.3327 Y96.2086
G01 X87.7515 Y96.3166
G01 X88.1742 Y96.4081
G01 X88.1998 Y96.4151
G01 X88.2259 Y96.4202
G01 X88.2523 Y96.4235
G01 X88.2789 Y96.4251
G01 X88.3055 Y96.4247
G01 X88.3320 Y96.4226
G01 X88.3583 Y96.4186
G01 X88.3843 Y96.4128
G01 X88.4098 Y96.4053
G01 X88.4347 Y96.3960
G01 X88.4589 Y96.3850
G01 X88.4823 Y96.3724
G01 X88.5048 Y96.3581
G01 X88.5263 Y96.3424
G01 X88.5466 Y96.3252
G01 X88.5657 Y96.3067
G01 X88.5835 Y96.2869
G01 X88.5998 Y96.2659
G01 X88.6147 Y96.2439
G01 X88.6280 Y96.2209
G01 X88.6400 Y96.1904
G01 X88.6501 Y96.1593
G01 X88.6581 Y96.1276
G01 X88.6641 Y96.0955
G01 X88.6680 Y96.0631
G01 X88.6699 Y96.0304
G01 X88.6696 Y95.9977
G01 X88.6673 Y95.9651
G01 X88.6628 Y95.9327
G01 X88.6564 Y95.9007
G01 X88.6478 Y95.8691
G01 X88.6373 Y95.8382
G01 X88.4531 Y95.9171
M107
G00 Z2.0000


;No. 3: Hole 7
G00 X94.8617 Y50.0157 Z2.0000
G00 Z0.5000
G01 Z-1.2000 F400
M106 S240
G01 X109.8535 F1000
G01 X107.6881
G01 Y51.5157
G01 X97.0300
G01 X97.9371 Y53.0157
G01 X106.7981
G01 X106.4161 Y54.5157
G01 X98.3052
G01 X98.4303 Y56.0157
G01 X106.2745
G01 X106.2202 Y57.5157
G01 X98.4842
G01 X98.5000 Y59.0157
G01 X106.2033
G01 Y60.5157
G01 X98.5001
G01 Y62.0157
G01 X106.2033
G01 Y63.5157
G01 X98.5001
G01 X98.5002 Y65.0157
G01 X106.2033
G01 Y66.5157
G01 X98.5002
G01 Y68.0157
G01 X106.2033
G01 Y69.5157
G01 X98.5003
G01 Y71.0157
G01 X106.2033
G01 Y72.5157
G01 X98.5004
G01 Y74.0157
G01 X106.2034
G01 Y75.5157
G01 X98.5004
G01 X98.5005 Y77.0157
G01 X106.2034
G01 Y78.5157
G01 X98.5005
G01 Y80.0157
G01 X106.2034
G01 Y81.5157
G01 X98.5006
G01 Y83.0157
G01 X106.2034
G01 Y84.5157
G01 X98.5007
G01 Y86.0157
G01 X106.2034
G01 X106.2200 Y87.5157
G01 X98.4840
G01 X98.3762 Y89.0157
G01 X106.3283
G01 X106.5883 Y90.5157
G01 X98.1200
G01 X97.6007 Y92.0157
G01 X107.1235
G01 X108.2070 Y93.5157
G01 X96.5353
G01 X97.5373 Y95.0157
G01 X94.6217
M107
G00 Z2.0000
G00 X107.1673 Y93.5157
G00 Z0.5000
G01 Z-1.2000 F400
M106 S240
G01 Y95.0157 F1000
G01 X110.0735
M107
G00 Z2.0000
G00 Z0.5000
G01 Z-1.2000 F400
M106 S240
G01 X110.1811 Y94.8464 F1000
G01 X109.7907 Y94.6016
G01 X109.4149 Y94.3349
G01 X109.0549 Y94.0474
G01 X108.7118 Y93.7398
G01 X108.3868 Y93.4132
G01 X108.0808 Y93.0686
G01 X107.7950 Y92.7072
G01 X107.5302 Y92.3301
G01 X107.3470 Y91.9907
G01 X107.1816 Y91.6424
G01 X107.0342 Y91.2860
G01 X106.9054 Y90.9225
G01 X106.7955 Y90.5529
G01 X106.7048 Y90.1781
G01 X106.6335 Y89.7991
G01 X106.5817 Y89.4170
G01 X106.5092 Y88.8147
G01 X106.4557 Y88.2104
G01 X106.4215 Y87.6048
G01 X106.4064 Y86.9983
G01 X106.4034 Y86.6880
G01 X106.4031 Y59.1766
G01 X106.4058 Y58.4685
G01 X106.4119 Y57.7530
G01 X106.4296 Y57.0378
G01 X106.4589 Y56.3229
G01 X106.4999 Y55.6085
G01 X106.5215 Y55.2064
G01 X106.5640 Y54.8059
G01 X106.6273 Y54.4081
G01 X106.7112 Y54.0142
G01 X106.8154 Y53.6252
G01 X106.9398 Y53.2421
G01 X107.0839 Y52.8660
G01 X107.2473 Y52.4979
G01 X107.3873 Y52.2520
G01 X107.5437 Y52.0162
G01 X107.7157 Y51.7915
G01 X107.9026 Y51.5790
G01 X108.1035 Y51.3797
G01 X108.3174 Y51.1944
G01 X108.5434 Y51.0242
G01 X108.7805 Y50.8696
G01 X109.3909 Y50.5081
G01 X110.0099 Y50.1613
G01 X110.6370 Y49.8295
G01 X111.2719 Y49.5129
G01 X111.2968 Y49.4969
G01 X111.3207 Y49.4794
G01 X111.3433 Y49.4603
G01 X111.3647 Y49.4398
G01 X111.3846 Y49.4180
G01 X111.4031 Y49.3949
G01 X111.4201 Y49.3706
G01 X111.4355 Y49.3453
G01 X111.4491 Y49.3190
G01 X111.4611 Y49.2919
G01 X111.4712 Y49.2641
G01 X111.4795 Y49.2357
G01 X111.4860 Y49.2068
G01 X111.4905 Y49.1776
G01 X111.4931 Y49.1481
G01 X111.4939 Y49.1185
G01 X111.4926 Y49.0889
G01 X111.4895 Y49.0595
G01 X111.4845 Y49.0303
G01 X111.4775 Y49.0015
G01 X111.4687 Y48.9733
G01 X111.4581 Y48.9456
G01 X111.4457 Y48.9187
G01 X111.4316 Y48.8927
G01 X111.3503 Y48.8461
G01 X111.2667 Y48.8036
G01 X111.1812 Y48.7653
G01 X111.0939 Y48.7313
G01 X111.0049 Y48.7017
G01 X110.9146 Y48.6765
G01 X110.8232 Y48.6559
G01 X110.7309 Y48.6398
G01 X110.6379 Y48.6283
G01 X110.5444 Y48.6214
G01 X110.4507 Y48.6192
G01 X110.3570 Y48.6217
G01 X110.0873 Y48.6159
G01 X94.4851 Y48.6168
G01 X94.3415 Y48.6129
G01 X94.1980 Y48.6170
G01 X94.0550 Y48.6290
G01 X93.9128 Y48.6490
G01 X93.7720 Y48.6768
G01 X93.6329 Y48.7125
G01 X93.4960 Y48.7558
G01 X93.3618 Y48.8066
G01 X93.3437 Y48.8123
G01 X93.3260 Y48.8194
G01 X93.3090 Y48.8278
G01 X93.2926 Y48.8375
G01 X93.2771 Y48.8484
G01 X93.2624 Y48.8605
G01 X93.2488 Y48.8737
G01 X93.2362 Y48.8879
G01 X93.2247 Y48.9031
G01 X93.2145 Y48.9191
G01 X93.2055 Y48.9358
G01 X93.1978 Y48.9532
G01 X93.1915 Y48.9712
G01 X93.1866 Y48.9895
G01 X93.1832 Y49.0082
G01 X93.1812 Y49.0271
G01 X93.1758 Y49.1242
G01 X93.1794 Y49.1869
G01 X93.1855 Y49.2195
G01 X93.1937 Y49.2516
G01 X93.2041 Y49.2830
G01 X93.2167 Y49.3137
G01 X93.2312 Y49.3435
G01 X93.2478 Y49.3722
G01 X93.2662 Y49.3998
G01 X93.2865 Y49.4260
G01 X93.3085 Y49.4508
G01 X93.3321 Y49.4741
G01 X93.3572 Y49.4957
G01 X93.3838 Y49.5156
G01 X93.4116 Y49.5336
G01 X93.4406 Y49.5497
G01 X93.4705 Y49.5639
G01 X93.5014 Y49.5759
G01 X93.9008 Y49.7486
G01 X94.2942 Y49.9343
G01 X94.6814 Y50.1327
G01 X95.0619 Y50.3437
G01 X95.4353 Y50.5671
G01 X95.8011 Y50.8025
G01 X96.1591 Y51.0498
G01 X96.5088 Y51.3086
G01 X96.5904 Y51.3755
G01 X96.6701 Y51.4448
G01 X96.7477 Y51.5162
G01 X96.8233 Y51.5899
G01 X97.0616 Y51.8736
G01 X97.2782 Y52.1741
G01 X97.4719 Y52.4899
G01 X97.6416 Y52.8191
G01 X97.7864 Y53.1601
G01 X97.9055 Y53.5108
G01 X97.9983 Y53.8695
G01 X98.0643 Y54.2340
G01 X98.1306 Y54.8245
G01 X98.1864 Y55.4160
G01 X98.2317 Y56.0085
G01 X98.2665 Y56.6016
G01 X98.2909 Y57.1953
G01 X98.3047 Y57.7894
G01 X98.3079 Y58.3835
G01 X98.3007 Y58.9777
G01 Y86.6707
G01 X98.3047 Y87.1925
G01 X98.2910 Y87.7141
G01 X98.2596 Y88.2349
G01 X98.2105 Y88.7544
G01 X98.1438 Y89.2718
G01 X98.0595 Y89.7868
G01 X97.9577 Y90.2985
G01 X97.8387 Y90.8065
G01 X97.7324 Y91.1495
G01 X97.6068 Y91.4858
G01 X97.4620 Y91.8144
G01 X97.2987 Y92.1341
G01 X97.1174 Y92.4440
G01 X96.9186 Y92.7429
G01 X96.7030 Y93.0300
G01 X96.4713 Y93.3043
G01 X96.2243 Y93.5649
G01 X95.9628 Y93.8109
G01 X95.6876 Y94.0415
G01 X95.3997 Y94.2559
G01 X95.0044 Y94.5229
G01 X94.6047 Y94.7835
G01 X94.2009 Y95.0375
G01 X93.7931 Y95.2850
G01 X93.7097 Y95.3347
G01 X93.6301 Y95.3902
G01 X93.5545 Y95.4511
G01 X93.4834 Y95.5172
G01 X93.4172 Y95.5882
G01 X93.3562 Y95.6636
G01 X93.3006 Y95.7432
G01 X93.2507 Y95.8265
G01 X93.2513 Y95.8540
G01 X93.2527 Y95.8815
G01 X93.2550 Y95.9089
G01 X93.2581 Y95.9362
G01 X93.2621 Y95.9634
G01 X93.2669 Y95.9905
G01 X93.2725 Y96.0174
G01 X93.2790 Y96.0442
G01 X93.2825 Y96.0721
G01 X93.2880 Y96.0998
G01 X93.2953 Y96.1270
G01 X93.3045 Y96.1536
G01 X93.3155 Y96.1795
G01 X93.3282 Y96.2047
G01 X93.3427 Y96.2288
G01 X93.3588 Y96.2520
G01 X93.3764 Y96.2739
G01 X93.3956 Y96.2946
G01 X93.4161 Y96.3139
G01 X93.4378 Y96.3318
G01 X93.4608 Y96.3481
G01 X93.4848 Y96.3628
G01 X93.5098 Y96.3759
G01 X93.5357 Y96.3871
G01 X93.5622 Y96.3966
G01 X93.5893 Y96.4042
G01 X93.6169 Y96.4099
G01 X93.6448 Y96.4137
G01 X93.8397 Y96.3885
G01 X94.0326 Y96.3510
G01 X94.2227 Y96.3016
G01 X94.4094 Y96.2402
G01 X96.7413 Y95.4629
G01 X97.3993 Y95.2512
G01 X98.0644 Y95.0629
G01 X98.7357 Y94.8981
G01 X99.4124 Y94.7571
G01 X100.0937 Y94.6402
G01 X100.7786 Y94.5473
G01 X101.4665 Y94.4787
G01 X102.1563 Y94.4344
G01 X102.8032 Y94.4545
G01 X103.4490 Y94.4982
G01 X104.0927 Y94.5653
G01 X104.7336 Y94.6556
G01 X105.3708 Y94.7693
G01 X106.0035 Y94.9059
G01 X106.6307 Y95.0655
G01 X107.2518 Y95.2477
G01 X107.4264 Y95.2988
G01 X107.6007 Y95.3509
G01 X107.7747 Y95.4040
G01 X107.9484 Y95.4582
G01 X110.2476 Y96.2370
G01 X110.3552 Y96.2749
G01 X110.4643 Y96.3082
G01 X110.5747 Y96.3370
G01 X110.6862 Y96.3610
G01 X110.7986 Y96.3804
G01 X110.9118 Y96.3951
G01 X111.0254 Y96.4050
G01 X111.1394 Y96.4101
G01 X111.1715 Y96.3833
G01 X111.2019 Y96.3547
G01 X111.2306 Y96.3243
G01 X111.2575 Y96.2923
G01 X111.2824 Y96.2587
G01 X111.3053 Y96.2237
G01 X111.3261 Y96.1875
G01 X111.3447 Y96.1500
G01 X111.3610 Y96.1116
G01 X111.3751 Y96.0722
G01 X111.3868 Y96.0321
G01 X111.3961 Y95.9913
G01 X111.4030 Y95.9501
G01 X111.4074 Y95.9085
G01 X111.4094 Y95.8668
G01 X111.4089 Y95.8250
G01 X111.3397 Y95.7241
G01 X111.2643 Y95.6279
G01 X111.1828 Y95.5367
G01 X111.0958 Y95.4508
G01 X111.0035 Y95.3706
G01 X110.9062 Y95.2965
G01 X110.8045 Y95.2287
G01 X110.6986 Y95.1675
G01 X110.3323 Y94.9425
G01 X110.1811 Y94.8464
G01 X110.0735 Y95.0157
M107
G00 Z2.0000


;No. 4: Hole 8
G00 X132.3350 Y48.7402 Z2.0000
G00 Z0.5000
G01 Z-1.2000 F400
M106 S240
G01 X143.8995 F1000
G01 Y50.2402
G01 X147.0532
G01 X128.7828
G01 Y51.7402
G01 X126.4317
G01 X149.0923
G01 X150.5956 Y53.2402
G01 X124.6612
G01 X123.2571 Y54.7402
G01 X134.8147
G01 X131.9820
G01 Y56.2402
G01 X122.0775
G01 X121.0935 Y57.7402
G01 X130.1250
G01 X128.7523 Y59.2402
G01 X120.2699
G01 X119.5784 Y60.7402
G01 X127.6816
G01 X126.8129 Y62.2402
G01 X119.0006
G01 X118.5115 Y63.7402
G01 X126.1098
G01 X125.5442 Y65.2402
G01 X118.1067
G01 X117.7853 Y66.7402
G01 X125.1164
G01 X124.8072 Y68.2402
G01 X117.5420
G01 X117.3742 Y69.7402
G01 X124.6035
G01 X124.4913 Y71.2402
G01 X117.2768
G01 X117.2467 Y72.7402
G01 X124.4625
G01 X124.5077 Y74.2402
G01 X117.2746
G01 X117.3588 Y75.7402
G01 X124.6292
G01 X124.8352 Y77.2402
G01 X117.5063
G01 X117.7242 Y78.7402
G01 X125.1361
G01 X125.5438 Y80.2402
G01 X118.0231
G01 X118.4072 Y81.7402
G01 X126.0738
G01 X126.7439 Y83.2402
G01 X118.8753
G01 X119.4410 Y84.7402
G01 X127.5976
G01 X128.7118 Y86.2402
G01 X120.1207
G01 X120.9176 Y87.7402
G01 X130.2336
G01 Y89.2402
G01 X132.6495
G01 X121.8767
G01 X123.0473 Y90.7402
G01 X153.1388
G01 X153.2741 Y89.2402
G01 X140.7161
G01 X142.9133
G01 Y87.7402
G01 X153.3076
G01 X153.2413 Y86.2402
G01 X144.1446
G01 X144.8756 Y84.7402
G01 X153.0638
G01 X152.7614 Y83.2402
G01 X145.2353
G01 X145.2967 Y81.7402
G01 X152.3190
G01 X151.7174 Y80.2402
G01 X145.0694
G01 X144.4744 Y78.7402
G01 X150.9419
G01 X149.9406 Y77.2402
G01 X143.3997
G01 Y75.7402
G01 X141.3066
G01 X148.6051
G01 X146.7095
G01 Y74.2402
G01 X134.9955
G01 X138.0331
G01 Y72.7402
G01 X143.2547
M107
G00 Z2.0000
G00 X145.2069 Y53.2402
G00 Z0.5000
G01 Z-1.2000 F400
M106 S240
G01 Y54.7402 F1000
G01 X151.7503
G01 X152.6391 Y56.2402
G01 X147.9113
G01 X149.6808
G01 Y57.7402
G01 X153.3055
G01 X153.7842 Y59.2402
G01 X150.9596
G01 X151.9874 Y60.7402
G01 X154.0947
G01 X154.2532 Y62.2402
G01 X152.8369
M107
G00 Z2.0000
G00 X136.4220 Y74.2402
G00 Z0.5000
G01 Z-1.2000 F400
M106 S240
G01 Y75.7402 F1000
G01 X133.6096
G01 X132.8709 Y77.2402
G01 X134.6605
G01 X134.0773 Y78.7402
G01 X132.5930
G01 X132.7237 Y80.2402
G01 X134.2129
G01 X133.3642 Y81.7402
G01 X135.3689
G01 X134.9427 Y83.2402
G01 X136.8944
M107
G00 Z2.0000
G00 X124.4708 Y90.7402
G00 Z0.5000
G01 Z-1.2000 F400
M106 S240
G01 Y92.2402 F1000
G01 X152.8793
G01 X152.4643 Y93.7402
G01 X126.1761
G01 X128.3466
G01 Y95.2402
G01 X151.8287
G01 X142.9286
G01 Y96.7402
G01 X131.5850
M107
G00 Z2.0000
G00 Z0.5000
G01 Z-1.2000 F400
M106 S240
G01 X131.5198 Y96.9293 F1000
G01 X131.5987 Y96.9565
G01 X132.2226 Y97.1455
G01 X132.8528 Y97.3120
G01 X133.4885 Y97.4559
G01 X134.1290 Y97.5770
G01 X134.7734 Y97.6751
G01 X135.4209 Y97.7501
G01 X136.0706 Y97.8019
G01 X136.7218 Y97.8305
G01 X137.3736 Y97.8358
G01 X138.0252 Y97.8178
G01 X138.6757 Y97.7765
G01 X139.3243 Y97.7120
G01 X139.9702 Y97.6243
G01 X140.6126 Y97.5136
G01 X141.2505 Y97.3800
G01 X141.8833 Y97.2237
G01 X142.8221 Y96.9680
G01 X143.7600 Y96.7090
G01 X144.6969 Y96.4468
G01 X145.6330 Y96.1813
G01 X145.8921 Y96.1111
G01 X146.1538 Y96.0508
G01 X146.4175 Y96.0004
G01 X146.6830 Y95.9602
G01 X146.9498 Y95.9301
G01 X147.2175 Y95.9102
G01 X147.4858 Y95.9004
G01 X147.7543 Y95.9009
G01 X148.0224 Y95.9345
G01 X148.2883 Y95.9823
G01 X148.5513 Y96.0443
G01 X148.8105 Y96.1203
G01 X149.0654 Y96.2101
G01 X149.3150 Y96.3134
G01 X149.5588 Y96.4299
G01 X149.7959 Y96.5593
G01 X149.8830 Y96.6083
G01 X149.9723 Y96.6529
G01 X150.0637 Y96.6931
G01 X150.1570 Y96.7289
G01 X150.2518 Y96.7600
G01 X150.3481 Y96.7865
G01 X150.4456 Y96.8082
G01 X150.5440 Y96.8252
G01 X150.6484 Y96.8046
G01 X150.7504 Y96.7744
G01 X150.8491 Y96.7347
G01 X150.9438 Y96.6860
G01 X151.0334 Y96.6288
G01 X151.1174 Y96.5634
G01 X151.1948 Y96.4904
G01 X151.2652 Y96.4106
G01 X151.4930 Y96.1224
G01 X151.7060 Y95.8230
G01 X151.9036 Y95.5132
G01 X152.0852 Y95.1939
G01 X152.2503 Y94.8657
G01 X152.3987 Y94.5296
G01 X152.5298 Y94.1864
G01 X152.6434 Y93.8370
G01 X152.8812 Y93.0160
G01 X153.0820 Y92.1852
G01 X153.2454 Y91.3463
G01 X153.3710 Y90.5008
G01 X153.4586 Y89.6506
G01 X153.5081 Y88.7973
G01 X153.5193 Y87.9427
G01 X153.4922 Y87.0884
G01 X153.4663 Y86.4523
G01 X153.4174 Y85.8175
G01 X153.3455 Y85.1849
G01 X153.2507 Y84.5553
G01 X153.1331 Y83.9295
G01 X152.9929 Y83.3085
G01 X152.8303 Y82.6929
G01 X152.6455 Y82.0837
G01 X152.4387 Y81.4815
G01 X152.2102 Y80.8872
G01 X151.9603 Y80.3017
G01 X151.6893 Y79.7255
G01 X151.3976 Y79.1596
G01 X151.0856 Y78.6046
G01 X150.7536 Y78.0613
G01 X150.4022 Y77.5304
G01 X149.9909 Y76.9684
G01 X149.5490 Y76.4301
G01 X149.0778 Y75.9172
G01 X148.5789 Y75.4313
G01 X148.0538 Y74.9738
G01 X147.5041 Y74.5462
G01 X146.9316 Y74.1497
G01 X146.3378 Y73.7857
G01 X145.7248 Y73.4552
G01 X145.0943 Y73.1593
G01 X144.4484 Y72.8988
G01 X143.7891 Y72.6746
G01 X143.2990 Y72.5432
G01 X142.8034 Y72.4342
G01 X142.3034 Y72.3479
G01 X141.7999 Y72.2844
G01 X141.2941 Y72.2439
G01 X140.7870 Y72.2265
G01 X140.2796 Y72.2321
G01 X139.7730 Y72.2608
G01 X139.2682 Y72.3126
G01 X138.7663 Y72.3872
G01 X138.2683 Y72.4846
G01 X137.7753 Y72.6046
G01 X137.2458 Y72.7737
G01 X136.7289 Y72.9781
G01 X136.2269 Y73.2167
G01 X135.7421 Y73.4886
G01 X135.2766 Y73.7923
G01 X134.8326 Y74.1267
G01 X134.4121 Y74.4901
G01 X134.0169 Y74.8810
G01 X133.7763 Y75.1603
G01 X133.5527 Y75.4533
G01 X133.3468 Y75.7590
G01 X133.1593 Y76.0764
G01 X132.9909 Y76.4043
G01 X132.8422 Y76.7415
G01 X132.7137 Y77.0870
G01 X132.6058 Y77.4395
G01 X132.5190 Y77.7977
G01 X132.4535 Y78.1605
G01 X132.4095 Y78.5264
G01 X132.3873 Y78.8944
G01 X132.3868 Y79.0932
G01 X132.3953 Y79.3868
G01 X132.4205 Y79.6795
G01 X132.4625 Y79.9702
G01 X132.5210 Y80.2581
G01 X132.5960 Y80.5421
G01 X132.6871 Y80.8214
G01 X132.7941 Y81.0949
G01 X132.9166 Y81.3619
G01 X133.0879 Y81.6860
G01 X133.2843 Y81.9955
G01 X133.5044 Y82.2885
G01 X133.7470 Y82.5633
G01 X134.0105 Y82.8181
G01 X134.2933 Y83.0512
G01 X134.5936 Y83.2614
G01 X134.9096 Y83.4472
G01 X135.0421 Y83.5087
G01 X135.1777 Y83.5630
G01 X135.3161 Y83.6098
G01 X135.4568 Y83.6490
G01 X135.5995 Y83.6805
G01 X135.7436 Y83.7041
G01 X135.8889 Y83.7198
G01 X136.0348 Y83.7276
G01 X136.1808 Y83.7274
G01 X136.3267 Y83.7193
G01 X136.4719 Y83.7032
G01 X136.6160 Y83.6793
G01 X136.6545 Y83.6691
G01 X136.6924 Y83.6567
G01 X136.7295 Y83.6422
G01 X136.7657 Y83.6256
G01 X136.8009 Y83.6070
G01 X136.8350 Y83.5863
G01 X136.8678 Y83.5638
G01 X136.8993 Y83.5394
G01 X136.9294 Y83.5133
G01 X136.9579 Y83.4855
G01 X136.9848 Y83.4561
G01 X137.0100 Y83.4252
G01 X137.0334 Y83.3930
G01 X137.0549 Y83.3595
G01 X137.0744 Y83.3247
G01 X137.0919 Y83.2890
G01 X137.1074 Y83.2523
G01 X137.1207 Y83.2147
G01 X137.1319 Y83.1765
G01 X137.1409 Y83.1377
G01 X137.1477 Y83.0984
G01 X137.1522 Y83.0588
G01 X137.1544 Y83.0191
G01 X137.1543 Y82.9792
G01 X137.1520 Y82.9395
G01 X137.1475 Y82.8999
G01 X137.1406 Y82.8607
G01 X137.1316 Y82.8219
G01 X137.1203 Y82.7837
G01 X137.1069 Y82.7461
G01 X137.0914 Y82.7095
G01 X137.0738 Y82.6737
G01 X137.0541 Y82.6391
G01 X137.0326 Y82.6056
G01 X137.0091 Y82.5734
G01 X136.9839 Y82.5425
G01 X136.8926 Y82.4622
G01 X136.7978 Y82.3860
G01 X136.6997 Y82.3140
G01 X136.5986 Y82.2464
G01 X136.4946 Y82.1834
G01 X136.3879 Y82.1250
G01 X136.2787 Y82.0713
G01 X136.1672 Y82.0226
G01 X135.9136 Y81.8849
G01 X135.6710 Y81.7284
G01 X135.4411 Y81.5541
G01 X135.2249 Y81.3628
G01 X135.0239 Y81.1557
G01 X134.8392 Y80.9340
G01 X134.6717 Y80.6989
G01 X134.5225 Y80.4518
G01 X134.4633 Y80.3272
G01 X134.4108 Y80.1997
G01 X134.3652 Y80.0695
G01 X134.3266 Y79.9371
G01 X134.2952 Y79.8027
G01 X134.2710 Y79.6670
G01 X134.2541 Y79.5301
G01 X134.2445 Y79.3924
G01 X134.2401 Y79.2505
G01 X134.2552 Y78.9320
G01 X134.3001 Y78.6164
G01 X134.3745 Y78.3064
G01 X134.4777 Y78.0047
G01 X134.6438 Y77.6723
G01 X134.8387 Y77.3559
G01 X135.0607 Y77.0578
G01 X135.3081 Y76.7806
G01 X135.5790 Y76.5262
G01 X135.8713 Y76.2967
G01 X136.1827 Y76.0939
G01 X136.5108 Y75.9194
G01 X136.8545 Y75.7693
G01 X137.2077 Y75.6434
G01 X137.5687 Y75.5420
G01 X137.9359 Y75.4659
G01 X138.3074 Y75.4152
G01 X138.6816 Y75.3903
G01 X139.0566 Y75.3912
G01 X139.4306 Y75.4181
G01 X139.8019 Y75.4706
G01 X140.1687 Y75.5487
G01 X140.5292 Y75.6518
G01 X140.8818 Y75.7796
G01 X141.2991 Y75.9632
G01 X141.7030 Y76.1747
G01 X142.0917 Y76.4131
G01 X142.4632 Y76.6774
G01 X142.8159 Y76.9663
G01 X143.1482 Y77.2785
G01 X143.4585 Y77.6126
G01 X143.7453 Y77.9670
G01 X144.0075 Y78.3400
G01 X144.2436 Y78.7300
G01 X144.4528 Y79.1352
G01 X144.6339 Y79.5536
G01 X144.7862 Y79.9833
G01 X144.9090 Y80.4224
G01 X145.0016 Y80.8689
G01 X145.0637 Y81.3206
G01 X145.1058 Y81.8481
G01 X145.1106 Y82.3772
G01 X145.0780 Y82.9054
G01 X145.0082 Y83.4299
G01 X144.9014 Y83.9482
G01 X144.7583 Y84.4577
G01 X144.5795 Y84.9558
G01 X144.3660 Y85.4400
G01 X144.1188 Y85.9079
G01 X143.8391 Y86.3571
G01 X143.5284 Y86.7855
G01 X143.1882 Y87.1908
G01 X142.8202 Y87.5710
G01 X142.4262 Y87.9243
G01 X142.0083 Y88.2489
G01 X141.5684 Y88.5431
G01 X141.4225 Y88.6349
G01 X141.2748 Y88.7238
G01 X141.1254 Y88.8097
G01 X140.9743 Y88.8927
G01 X140.9199 Y88.9214
G01 X140.4533 Y89.1311
G01 X139.9764 Y89.3161
G01 X139.4904 Y89.4760
G01 X138.9968 Y89.6102
G01 X138.4968 Y89.7185
G01 X137.9918 Y89.8004
G01 X137.4833 Y89.8559
G01 X136.9725 Y89.8846
G01 X136.4609 Y89.8867
G01 X135.9500 Y89.8620
G01 X135.4410 Y89.8106
G01 X134.9354 Y89.7327
G01 X134.4346 Y89.6284
G01 X133.9399 Y89.4981
G01 X133.4526 Y89.3422
G01 X132.9743 Y89.1609
G01 X132.4884 Y88.9381
G01 X132.0137 Y88.6925
G01 X131.5513 Y88.4246
G01 X131.1020 Y88.1351
G01 X130.6670 Y87.8246
G01 X130.2473 Y87.4937
G01 X129.8437 Y87.1433
G01 X129.4572 Y86.7741
G01 X129.0887 Y86.3870
G01 X128.7390 Y85.9828
G01 X128.4089 Y85.5624
G01 X128.0991 Y85.1269
G01 X127.7409 Y84.5742
G01 X127.4019 Y84.0094
G01 X127.0827 Y83.4333
G01 X126.7835 Y82.8465
G01 X126.5047 Y82.2498
G01 X126.2467 Y81.6437
G01 X126.0097 Y81.0292
G01 X125.7941 Y80.4068
G01 X125.6001 Y79.7773
G01 X125.4279 Y79.1416
G01 X125.2778 Y78.5002
G01 X125.1498 Y77.8541
G01 X125.0363 Y77.2156
G01 X124.9377 Y76.5746
G01 X124.8541 Y75.9315
G01 X124.7855 Y75.2866
G01 X124.7320 Y74.6402
G01 X124.6936 Y73.9928
G01 X124.6703 Y73.3447
G01 X124.6621 Y72.6962
G01 X124.6634 Y72.2219
G01 X124.6768 Y71.4384
G01 X124.7169 Y70.6559
G01 X124.7835 Y69.8752
G01 X124.8765 Y69.0972
G01 X124.9959 Y68.3228
G01 X125.1415 Y67.5530
G01 X125.3132 Y66.7885
G01 X125.5107 Y66.0302
G01 X125.7234 Y65.3288
G01 X125.9629 Y64.6361
G01 X126.2291 Y63.9531
G01 X126.5213 Y63.2810
G01 X126.8393 Y62.6206
G01 X127.1826 Y61.9729
G01 X127.5505 Y61.3390
G01 X127.9427 Y60.7198
G01 X128.3585 Y60.1162
G01 X128.7972 Y59.5290
G01 X129.2583 Y58.9593
G01 X129.7410 Y58.4077
G01 X130.2399 Y57.9002
G01 X130.7638 Y57.4187
G01 X131.3114 Y56.9643
G01 X131.8813 Y56.5383
G01 X132.4722 Y56.1417
G01 X133.0823 Y55.7756
G01 X133.7103 Y55.4408
G01 X134.3544 Y55.1383
G01 X135.0130 Y54.8689
G01 X135.6844 Y54.6332
G01 X136.3669 Y54.4318
G01 X137.0587 Y54.2653
G01 X137.7581 Y54.1341
G01 X138.4632 Y54.0384
G01 X139.1723 Y53.9787
G01 X139.8835 Y53.9549
G01 X140.5950 Y53.9673
G01 X141.3049 Y54.0157
G01 X142.0115 Y54.1000
G01 X142.7129 Y54.2200
G01 X143.4073 Y54.3754
G01 X144.0929 Y54.5658
G01 X144.7680 Y54.7907
G01 X145.4308 Y55.0496
G01 X146.0176 Y55.3291
G01 X146.5905 Y55.6362
G01 X147.1482 Y55.9700
G01 X147.6894 Y56.3299
G01 X148.2130 Y56.7150
G01 X148.7178 Y57.1246
G01 X149.2025 Y57.5575
G01 X149.6662 Y58.0130
G01 X150.1078 Y58.4899
G01 X150.5263 Y58.9873
G01 X150.9208 Y59.5038
G01 X151.2903 Y60.0386
G01 X151.5764 Y60.4735
G01 X151.8536 Y60.9142
G01 X152.1218 Y61.3604
G01 X152.3810 Y61.8120
G01 X152.6309 Y62.2687
G01 X152.8716 Y62.7303
G01 X153.1029 Y63.1968
G01 X153.3246 Y63.6678
G01 X153.4508 Y63.9303
G01 X153.5867 Y64.1878
G01 X153.7321 Y64.4401
G01 X153.8869 Y64.6867
G01 X153.9165 Y64.6886
G01 X153.9462 Y64.6883
G01 X153.9757 Y64.6858
G01 X154.0050 Y64.6811
G01 X154.0339 Y64.6742
G01 X154.0622 Y64.6653
G01 X154.0897 Y64.6543
G01 X154.1164 Y64.6413
G01 X154.1420 Y64.6263
G01 X154.1665 Y64.6095
G01 X154.1896 Y64.5910
G01 X154.2113 Y64.5708
G01 X154.2315 Y64.5490
G01 X154.2500 Y64.5258
G01 X154.2667 Y64.5013
G01 X154.2816 Y64.4757
G01 X154.2946 Y64.4490
G01 X154.3055 Y64.4214
G01 X154.3144 Y64.3931
G01 X154.3212 Y64.3642
G01 X154.4152 Y63.9906
G01 X154.4728 Y63.6096
G01 X154.4936 Y63.2249
G01 X154.4774 Y62.8399
G01 X154.4467 Y62.0710
G01 X154.3771 Y61.3046
G01 X154.2688 Y60.5427
G01 X154.1220 Y59.7873
G01 X153.9372 Y59.0403
G01 X153.7147 Y58.3036
G01 X153.4552 Y57.5792
G01 X153.1594 Y56.8688
G01 X152.8279 Y56.1743
G01 X152.4617 Y55.4974
G01 X152.0617 Y54.8400
G01 X151.6289 Y54.2037
G01 X151.1644 Y53.5902
G01 X150.6695 Y53.0009
G01 X150.1453 Y52.4375
G01 X149.5933 Y51.9014
G01 X149.0148 Y51.3939
G01 X148.4113 Y50.9164
G01 X147.7845 Y50.4700
G01 X147.1358 Y50.0560
G01 X146.5919 Y49.7377
G01 X146.0362 Y49.4403
G01 X145.4695 Y49.1644
G01 X144.8928 Y48.9103
G01 X144.3068 Y48.6783
G01 X143.7124 Y48.4689
G01 X143.1104 Y48.2823
G01 X142.5017 Y48.1188
G01 X141.8873 Y47.9786
G01 X141.2680 Y47.8619
G01 X140.6446 Y47.7689
G01 X140.0182 Y47.6998
G01 X139.3896 Y47.6546
G01 X138.7597 Y47.6334
G01 X138.1294 Y47.6362
G01 X137.4998 Y47.6631
G01 X136.7384 Y47.7032
G01 X135.9792 Y47.7725
G01 X135.2231 Y47.8710
G01 X134.4715 Y47.9986
G01 X133.7253 Y48.1549
G01 X132.9856 Y48.3399
G01 X132.2536 Y48.5532
G01 X131.5304 Y48.7945
G01 X130.8170 Y49.0634
G01 X130.1145 Y49.3596
G01 X129.4238 Y49.6826
G01 X128.7462 Y50.0319
G01 X128.0824 Y50.4070
G01 X127.4336 Y50.8074
G01 X126.8007 Y51.2325
G01 X126.1846 Y51.6816
G01 X125.5862 Y52.1541
G01 X125.0065 Y52.6493
G01 X124.4462 Y53.1664
G01 X123.9063 Y53.7046
G01 X123.3874 Y54.2633
G01 X122.8905 Y54.8415
G01 X122.4161 Y55.4383
G01 X121.9651 Y56.0530
G01 X121.5613 Y56.6410
G01 X121.1745 Y57.2403
G01 X120.8049 Y57.8504
G01 X120.4530 Y58.4708
G01 X120.1189 Y59.1011
G01 X119.8029 Y59.7406
G01 X119.5054 Y60.3888
G01 X119.2265 Y61.0453
G01 X118.9664 Y61.7096
G01 X118.7255 Y62.3809
G01 X118.5039 Y63.0589
G01 X118.3017 Y63.7429
G01 X118.0132 Y64.7984
G01 X117.7619 Y65.8634
G01 X117.5480 Y66.9364
G01 X117.3717 Y68.0163
G01 X117.2334 Y69.1018
G01 X117.1332 Y70.1913
G01 X117.0711 Y71.2838
G01 X117.0473 Y72.3777
G01 X117.0464 Y72.8796
G01 X117.0519 Y73.5125
G01 X117.0683 Y74.1452
G01 X117.0956 Y74.7775
G01 X117.1337 Y75.4093
G01 X117.1826 Y76.0403
G01 X117.2423 Y76.6704
G01 X117.3129 Y77.2994
G01 X117.3942 Y77.9271
G01 X117.5345 Y78.8564
G01 X117.7070 Y79.7804
G01 X117.9113 Y80.6978
G01 X118.1473 Y81.6076
G01 X118.4146 Y82.5087
G01 X118.7129 Y83.4000
G01 X119.0419 Y84.2804
G01 X119.4012 Y85.1489
G01 X119.7904 Y86.0045
G01 X120.2089 Y86.8461
G01 X120.6562 Y87.6727
G01 X121.1320 Y88.4833
G01 X121.5235 Y89.0753
G01 X121.9343 Y89.6540
G01 X122.3639 Y90.2190
G01 X122.8118 Y90.7696
G01 X123.2775 Y91.3051
G01 X123.7606 Y91.8251
G01 X124.2604 Y92.3289
G01 X124.7766 Y92.8161
G01 X125.3084 Y93.2860
G01 X125.8554 Y93.7382
G01 X126.4170 Y94.1722
G01 X126.9925 Y94.5876
G01 X127.5813 Y94.9838
G01 X128.1829 Y95.3605
G01 X128.7964 Y95.7172
G01 X129.4214 Y96.0536
G01 X129.9346 Y96.2988
G01 X130.4559 Y96.5267
G01 X130.9844 Y96.7369
G01 X131.5198 Y96.9293
G01 X131.5850 Y96.7402
M107
G00 Z2.0000


;No. 5: Hole 11
G00 X173.0861 Y49.4902 Z2.0000
G00 Z0.5000
G01 Z-1.2000 F400
M106 S240
G01 X189.0929 F1000
G01 X177.0110
G01 Y50.9902
G01 X170.2322
G01 Y52.4902
G01 X168.2294
G01 X175.0172
G01 X173.6409 Y53.9902
G01 X166.6644
G01 X165.3791 Y55.4902
G01 X172.5799
G01 X171.7382 Y56.9902
G01 X164.3099
G01 X163.3926 Y58.4902
G01 X171.0535
G01 X170.4887 Y59.9902
G01 X162.6073
G01 X161.9392 Y61.4902
G01 X170.0181
G01 X169.6257 Y62.9902
G01 X161.3755
G01 X160.9019 Y64.4902
G01 X169.3048
G01 X169.0494 Y65.9902
G01 X160.5125
G01 X160.2060 Y67.4902
G01 X168.8536
G01 X168.7129 Y68.9902
G01 X159.9797
G01 X159.8313 Y70.4902
G01 X168.6229
G01 X168.5795 Y71.9902
G01 X159.7590
G01 X159.7593 Y73.4902
G01 X168.5802
G01 X168.6242 Y74.9902
G01 X159.8316
G01 X159.9789 Y76.4902
G01 X168.7156
G01 X168.8573 Y77.9902
G01 X160.2047
G01 X160.5127 Y79.4902
G01 X169.0531
G01 X169.3085 Y80.9902
G01 X160.9077
G01 X161.3859 Y82.4902
G01 X169.6284
G01 X170.0186 Y83.9902
G01 X161.9408
G01 X162.6003 Y85.4902
G01 X170.4765
G01 X171.0273 Y86.9902
G01 X163.3788
G01 X164.2974 Y88.4902
G01 X171.6984
G01 X172.5268 Y89.9902
G01 X165.3781
G01 X166.6724 Y91.4902
G01 X173.5752
G01 X174.9490 Y92.9902
G01 X168.2434
G01 X170.2494
G01 Y94.4902
G01 X176.9586
G01 X173.1029
G01 Y95.9902
G01 X189.1294
G01 Y94.4902
G01 X191.9738
G01 X185.2271
G01 X187.2604
G01 Y92.9902
G01 X193.9690
G01 X195.5267 Y91.4902
G01 X188.6372
G01 X189.6779 Y89.9902
G01 X196.8059
G01 X197.8953 Y88.4902
G01 X190.5052
G01 X191.1789 Y86.9902
G01 X198.8205
G01 X199.6114 Y85.4902
G01 X191.7369
G01 X192.2006 Y83.9902
G01 X200.2878
G01 X200.8661 Y82.4902
G01 X192.5777
G01 X192.8887 Y80.9902
G01 X201.3337
G01 X201.7144 Y79.4902
G01 X193.1381
G01 X193.3307 Y77.9902
G01 X202.0154
G01 X202.2403 Y76.4902
G01 X193.4703
G01 X193.5606 Y74.9902
G01 X202.3882
G01 X202.4626 Y73.4902
G01 X193.6045
G01 X193.6051 Y71.9902
G01 X202.4630
G01 X202.3898 Y70.4902
G01 X193.5639
G01 X193.4765 Y68.9902
G01 X202.2400
G01 X202.0121 Y67.4902
G01 X193.3378
G01 X193.1491 Y65.9902
G01 X201.7030
G01 X201.3101 Y64.4902
G01 X192.9093
G01 X192.5976 Y62.9902
G01 X200.8343
G01 X200.2774 Y61.4902
G01 X192.2048
G01 X191.7340 Y59.9902
G01 X199.6158
G01 X198.8327 Y58.4902
G01 X191.1727
G01 X190.4957 Y56.9902
G01 X197.9056
G01 X196.8063 Y55.4902
G01 X189.6678
G01 X188.6300 Y53.9902
G01 X195.5136
G01 X193.9443 Y52.4902
G01 X187.2610
G01 Y50.9902
G01 X185.2283
G01 X191.9402
M107
G00 Z2.0000
G00 X188.6300 Y53.9902
G00 Z0.5000
G01 Z-1.2000 F400
M106 S240
G01 X188.3126 Y53.9120 F1000
G01 X188.8441 Y54.6319
G01 X189.3431 Y55.3747
G01 X189.8085 Y56.1390
G01 X190.2395 Y56.9232
G01 X190.6353 Y57.7258
G01 X190.9950 Y58.5451
G01 X191.3180 Y59.3797
G01 X191.6035 Y60.2277
G01 X191.9095 Y61.2067
G01 X192.1860 Y62.1943
G01 X192.4328 Y63.1898
G01 X192.6496 Y64.1922
G01 X192.8364 Y65.2007
G01 X192.9928 Y66.2143
G01 X193.1189 Y67.2321
G01 X193.2144 Y68.2533
G01 X193.3058 Y69.3720
G01 X193.3705 Y70.4926
G01 X193.4087 Y71.6145
G01 X193.4201 Y72.7369
G01 X193.4048 Y73.8593
G01 X193.3629 Y74.9810
G01 X193.2943 Y76.1014
G01 X193.1991 Y77.2198
G01 X193.0774 Y78.3357
G01 X192.9291 Y79.4483
G01 X192.7545 Y80.5571
G01 X192.5535 Y81.6615
G01 X192.4156 Y82.3480
G01 X192.2593 Y83.0306
G01 X192.0848 Y83.7088
G01 X191.8922 Y84.3820
G01 X191.6816 Y85.0498
G01 X191.4532 Y85.7118
G01 X191.2071 Y86.3674
G01 X190.9435 Y87.0161
G01 X190.6626 Y87.6576
G01 X190.3647 Y88.2913
G01 X190.0498 Y88.9168
G01 X189.7183 Y89.5336
G01 X189.4694 Y89.9642
G01 X189.2043 Y90.3851
G01 X188.9234 Y90.7956
G01 X188.6271 Y91.1952
G01 X188.3158 Y91.5831
G01 X187.9900 Y91.9590
G01 X187.6501 Y92.3222
G01 X187.2967 Y92.6722
G01 X186.9302 Y93.0085
G01 X186.5512 Y93.3306
G01 X186.1602 Y93.6381
G01 X185.7578 Y93.9304
G01 X185.3069 Y94.2197
G01 X184.8382 Y94.4790
G01 X184.3537 Y94.7073
G01 X183.8554 Y94.9037
G01 X183.3453 Y95.0673
G01 X182.8257 Y95.1974
G01 X182.2988 Y95.2935
G01 X181.7667 Y95.3552
G01 X181.2318 Y95.3822
G01 X180.6962 Y95.3744
G01 X180.1622 Y95.3318
G01 X179.6322 Y95.2546
G01 X179.1083 Y95.1432
G01 X178.5927 Y94.9980
G01 X178.0876 Y94.8196
G01 X177.5952 Y94.6088
G01 X177.1176 Y94.3664
G01 X176.6567 Y94.0936
G01 X176.2144 Y93.7913
G01 X175.7928 Y93.4610
G01 X175.3581 Y93.0821
G01 X174.9381 Y92.6868
G01 X174.5335 Y92.2759
G01 X174.1449 Y91.8498
G01 X173.7728 Y91.4092
G01 X173.4178 Y90.9548
G01 X173.0803 Y90.4872
G01 X172.7609 Y90.0070
G01 X172.4600 Y89.5150
G01 X172.1781 Y89.0120
G01 X171.9155 Y88.4985
G01 X171.6728 Y87.9754
G01 X171.3192 Y87.1462
G01 X170.9898 Y86.3072
G01 X170.6848 Y85.4589
G01 X170.4044 Y84.6022
G01 X170.1489 Y83.7378
G01 X169.9186 Y82.8663
G01 X169.7136 Y81.9885
G01 X169.5340 Y81.1051
G01 X169.3573 Y80.1101
G01 X169.2039 Y79.1112
G01 X169.0737 Y78.1090
G01 X168.9670 Y77.1041
G01 X168.8838 Y76.0969
G01 X168.8241 Y75.0881
G01 X168.7879 Y74.0781
G01 X168.7753 Y73.0676
G01 X168.7742 Y72.7004
G01 X168.7760 Y72.2758
G01 X168.7814 Y71.8513
G01 X168.7903 Y71.4268
G01 X168.8027 Y71.0024
G01 X168.8334 Y70.0819
G01 X168.8866 Y69.1625
G01 X168.9624 Y68.2446
G01 X169.0607 Y67.3289
G01 X169.1814 Y66.4159
G01 X169.3244 Y65.5061
G01 X169.4898 Y64.6001
G01 X169.6773 Y63.6984
G01 X169.8869 Y62.8016
G01 X170.1184 Y61.9102
G01 X170.3717 Y61.0247
G01 X170.6466 Y60.1457
G01 X170.9272 Y59.3228
G01 X171.2442 Y58.5133
G01 X171.5969 Y57.7186
G01 X171.9848 Y56.9405
G01 X172.4069 Y56.1805
G01 X172.8625 Y55.4400
G01 X173.3507 Y54.7206
G01 X173.8705 Y54.0237
G01 X174.1986 Y53.6221
G01 X174.5439 Y53.2353
G01 X174.9059 Y52.8640
G01 X175.2837 Y52.5088
G01 X175.6768 Y52.1706
G01 X176.0842 Y51.8498
G01 X176.5053 Y51.5472
G01 X176.9392 Y51.2633
G01 X177.3523 Y51.0302
G01 X177.7784 Y50.8216
G01 X178.2159 Y50.6382
G01 X178.6634 Y50.4808
G01 X179.1193 Y50.3498
G01 X179.5821 Y50.2457
G01 X180.0502 Y50.1688
G01 X180.5219 Y50.1194
G01 X180.9958 Y50.0976
G01 X181.4701 Y50.1036
G01 X181.9433 Y50.1373
G01 X182.4137 Y50.1987
G01 X182.8797 Y50.2874
G01 X183.3397 Y50.4032
G01 X183.7921 Y50.5457
G01 X184.2355 Y50.7144
G01 X184.6682 Y50.9088
G01 X185.0888 Y51.1281
G01 X185.4959 Y51.3716
G01 X185.8880 Y51.6385
G01 X186.2251 Y51.8838
G01 X186.5533 Y52.1408
G01 X186.8721 Y52.4093
G01 X187.1812 Y52.6890
G01 X187.4802 Y52.9794
G01 X187.7687 Y53.2804
G01 X188.0463 Y53.5913
G01 X188.3126 Y53.9120
G01 X188.6300 Y53.9902
M107
G00 Z2.0000
G00 X190.7086 Y50.9902
G00 Z0.5000
G01 Z-1.2000 F400
M106 S240
G01 Y50.0339 F1000
G01 X189.9917 Y49.6812
G01 X189.2614 Y49.3573
G01 X188.5188 Y49.0628
G01 X187.7650 Y48.7981
G01 X187.0012 Y48.5637
G01 X186.2287 Y48.3599
G01 X185.4487 Y48.1871
G01 X184.6624 Y48.0456
G01 X183.8711 Y47.9355
G01 X183.0761 Y47.8570
G01 X182.2785 Y47.8103
G01 X181.4797 Y47.7954
G01 X180.7465 Y47.7866
G01 X180.0135 Y47.8033
G01 X179.2815 Y47.8456
G01 X178.5513 Y47.9133
G01 X177.8240 Y48.0065
G01 X177.1004 Y48.1249
G01 X176.3814 Y48.2685
G01 X175.6678 Y48.4371
G01 X174.9605 Y48.6305
G01 X174.2604 Y48.8484
G01 X173.5683 Y49.0906
G01 X172.8851 Y49.3568
G01 X172.2706 Y49.6382
G01 X171.6663 Y49.9407
G01 X171.0727 Y50.2640
G01 X170.4908 Y50.6076
G01 X169.9210 Y50.9712
G01 X169.3642 Y51.3543
G01 X168.8210 Y51.7564
G01 X168.2920 Y52.1770
G01 X167.7779 Y52.6157
G01 X167.2793 Y53.0720
G01 X166.7968 Y53.5452
G01 X166.3309 Y54.0349
G01 X165.8823 Y54.5403
G01 X165.4514 Y55.0610
G01 X165.0388 Y55.5963
G01 X164.6450 Y56.1456
G01 X164.1395 Y56.8979
G01 X163.6583 Y57.6660
G01 X163.2020 Y58.4491
G01 X162.7710 Y59.2464
G01 X162.3657 Y60.0572
G01 X161.9866 Y60.8804
G01 X161.6341 Y61.7154
G01 X161.3085 Y62.5613
G01 X161.0102 Y63.4172
G01 X160.7394 Y64.2822
G01 X160.4965 Y65.1554
G01 X160.2816 Y66.0359
G01 X160.0951 Y66.9229
G01 X159.9371 Y67.8154
G01 X159.8077 Y68.7124
G01 X159.7072 Y69.6132
G01 X159.6421 Y70.3364
G01 X159.5942 Y71.0610
G01 X159.5636 Y71.7865
G01 X159.5503 Y72.5125
G01 X159.5502 Y72.9154
G01 X159.5683 Y73.8658
G01 X159.6170 Y74.8152
G01 X159.6960 Y75.7624
G01 X159.8054 Y76.7067
G01 X159.9451 Y77.6469
G01 X160.1149 Y78.5822
G01 X160.3145 Y79.5116
G01 X160.5439 Y80.4341
G01 X160.8028 Y81.3487
G01 X161.0909 Y82.2546
G01 X161.4079 Y83.1507
G01 X161.7535 Y84.0362
G01 X162.1274 Y84.9102
G01 X162.5291 Y85.7717
G01 X162.9582 Y86.6199
G01 X163.4143 Y87.4539
G01 X163.8554 Y88.1934
G01 X164.3262 Y88.9144
G01 X164.8257 Y89.6158
G01 X165.3532 Y90.2964
G01 X165.9079 Y90.9550
G01 X166.4888 Y91.5906
G01 X167.0950 Y92.2022
G01 X167.7255 Y92.7887
G01 X168.3792 Y93.3492
G01 X169.0550 Y93.8827
G01 X169.7519 Y94.3885
G01 X170.4688 Y94.8656
G01 X171.1946 Y95.2828
G01 X171.9378 Y95.6685
G01 X172.6968 Y96.0220
G01 X173.4702 Y96.3425
G01 X174.2568 Y96.6295
G01 X175.0549 Y96.8825
G01 X175.8632 Y97.1009
G01 X176.6800 Y97.2844
G01 X177.5041 Y97.4327
G01 X178.3337 Y97.5455
G01 X179.1674 Y97.6225
G01 X180.0037 Y97.6636
G01 X180.7512 Y97.6936
G01 X181.4994 Y97.6978
G01 X182.2473 Y97.6762
G01 X182.9940 Y97.6287
G01 X183.7386 Y97.5554
G01 X184.4802 Y97.4564
G01 X185.2179 Y97.3318
G01 X185.9509 Y97.1818
G01 X186.6783 Y97.0066
G01 X187.3992 Y96.8063
G01 X188.1128 Y96.5813
G01 X188.8181 Y96.3317
G01 X189.6008 Y95.9994
G01 X190.3679 Y95.6325
G01 X191.1178 Y95.2315
G01 X191.8489 Y94.7974
G01 X192.5599 Y94.3310
G01 X193.2494 Y93.8333
G01 X193.9158 Y93.3051
G01 X194.5579 Y92.7477
G01 X195.1744 Y92.1621
G01 X195.7641 Y91.5494
G01 X196.3258 Y90.9110
G01 X196.8583 Y90.2481
G01 X197.3900 Y89.5421
G01 X197.8984 Y88.8192
G01 X198.3830 Y88.0801
G01 X198.8433 Y87.3257
G01 X199.2788 Y86.5566
G01 X199.6890 Y85.7738
G01 X200.0735 Y84.9780
G01 X200.4319 Y84.1702
G01 X200.7638 Y83.3511
G01 X201.0688 Y82.5216
G01 X201.3467 Y81.6827
G01 X201.5971 Y80.8351
G01 X201.8198 Y79.9798
G01 X202.0145 Y79.1178
G01 X202.1811 Y78.2498
G01 X202.3193 Y77.3769
G01 X202.4552 Y76.4086
G01 X202.5594 Y75.4363
G01 X202.6317 Y74.4612
G01 X202.6720 Y73.4842
G01 X202.6803 Y72.5064
G01 X202.6566 Y71.5288
G01 X202.6009 Y70.5526
G01 X202.5133 Y69.5787
G01 X202.3938 Y68.6082
G01 X202.2426 Y67.6421
G01 X202.0599 Y66.6815
G01 X201.8459 Y65.7274
G01 X201.6007 Y64.7808
G01 X201.3247 Y63.8427
G01 X201.0181 Y62.9142
G01 X200.6813 Y61.9962
G01 X200.3146 Y61.0897
G01 X199.9184 Y60.1958
G01 X199.4932 Y59.3152
G01 X199.0394 Y58.4491
G01 X198.6473 Y57.7740
G01 X198.2322 Y57.1128
G01 X197.7944 Y56.4664
G01 X197.3346 Y55.8355
G01 X196.8533 Y55.2208
G01 X196.3510 Y54.6231
G01 X195.8284 Y54.0431
G01 X195.2861 Y53.4815
G01 X194.7247 Y52.9390
G01 X194.1450 Y52.4161
G01 X193.5475 Y51.9136
G01 X192.9330 Y51.4320
G01 X192.3963 Y51.0525
G01 X191.8462 Y50.6926
G01 X191.2833 Y50.3529
G01 X190.7086 Y50.0339
G01 Y50.9902
M107
G00 Z2.0000


;No. 6: Hole 10
G00 X183.0828 Y72.0446 Z2.0000
G00 Z0.5000
G01 Z-1.2000 F400
M106 S240
G01 X179.1020 F1000
G01 X178.6074 Y73.5446
G01 X183.5772
G01 X183.0817 Y75.0446
G01 X179.1029
M107
G00 Z2.0000
G00 Z0.5000
G01 Z-1.2000 F400
M106 S240
G01 X178.9451 Y75.1678 F1000
G01 X179.0443 Y75.2935
G01 X179.1510 Y75.4131
G01 X179.2645 Y75.5261
G01 X179.3846 Y75.6321
G01 X179.5108 Y75.7308
G01 X179.6427 Y75.8218
G01 X179.7798 Y75.9047
G01 X179.9216 Y75.9793
G01 X180.0675 Y76.0453
G01 X180.2172 Y76.1025
G01 X180.3700 Y76.1506
G01 X180.5254 Y76.1896
G01 X180.6828 Y76.2192
G01 X180.8418 Y76.2393
G01 X181.0016 Y76.2500
G01 X181.1618 Y76.2510
G01 X181.3218 Y76.2425
G01 X181.4810 Y76.2245
G01 X181.6388 Y76.1970
G01 X181.7948 Y76.1602
G01 X181.9482 Y76.1141
G01 X182.0986 Y76.0589
G01 X182.2454 Y75.9948
G01 X182.3882 Y75.9221
G01 X182.5264 Y75.8410
G01 X182.6595 Y75.7518
G01 X182.7870 Y75.6549
G01 X182.9085 Y75.5504
G01 X183.0235 Y75.4390
G01 X183.1317 Y75.3208
G01 X183.2327 Y75.1964
G01 X183.3261 Y75.0662
G01 X183.4115 Y74.9307
G01 X183.4886 Y74.7903
G01 X183.5573 Y74.6455
G01 X183.6172 Y74.4970
G01 X183.6681 Y74.3451
G01 X183.7099 Y74.1904
G01 X183.7424 Y74.0335
G01 X183.7654 Y73.8750
G01 X183.7790 Y73.7153
G01 X183.7829 Y73.5552
G01 X183.7774 Y73.3951
G01 X183.7623 Y73.2356
G01 X183.7408 Y73.0806
G01 X183.7104 Y72.9271
G01 X183.6711 Y72.7757
G01 X183.6231 Y72.6268
G01 X183.5665 Y72.4810
G01 X183.5015 Y72.3387
G01 X183.4283 Y72.2005
G01 X183.3471 Y72.0667
G01 X183.2584 Y71.9379
G01 X183.1622 Y71.8145
G01 X183.0591 Y71.6968
G01 X182.9493 Y71.5854
G01 X182.8332 Y71.4806
G01 X182.7111 Y71.3827
G01 X182.5836 Y71.2921
G01 X182.4510 Y71.2091
G01 X182.3138 Y71.1339
G01 X182.1725 Y71.0668
G01 X182.0275 Y71.0081
G01 X181.8793 Y70.9579
G01 X181.7285 Y70.9165
G01 X181.5755 Y70.8839
G01 X181.4208 Y70.8602
G01 X181.2651 Y70.8456
G01 X181.1087 Y70.8401
G01 X180.9523 Y70.8437
G01 X180.7964 Y70.8564
G01 X180.6415 Y70.8782
G01 X180.4881 Y70.9090
G01 X180.3368 Y70.9486
G01 X180.1880 Y70.9970
G01 X180.0423 Y71.0539
G01 X179.9001 Y71.1193
G01 X179.7621 Y71.1928
G01 X179.6285 Y71.2742
G01 X179.4999 Y71.3633
G01 X179.3767 Y71.4597
G01 X179.2593 Y71.5631
G01 X179.1481 Y71.6732
G01 X179.0436 Y71.7895
G01 X178.9459 Y71.9118
G01 X178.8556 Y72.0395
G01 X178.7729 Y72.1723
G01 X178.6980 Y72.3097
G01 X178.6313 Y72.4512
G01 X178.5729 Y72.5963
G01 X178.5231 Y72.7446
G01 X178.4819 Y72.8955
G01 X178.4497 Y73.0486
G01 X178.4264 Y73.2033
G01 X178.4122 Y73.3591
G01 X178.4070 Y73.5154
G01 X178.4090 Y73.6257
G01 X178.4148 Y73.7358
G01 X178.4244 Y73.8457
G01 X178.4377 Y73.9551
G01 X178.4547 Y74.0646
G01 X178.4765 Y74.1733
G01 X178.5031 Y74.2809
G01 X178.5343 Y74.3872
G01 X178.5703 Y74.4920
G01 X178.6108 Y74.5952
G01 X178.6558 Y74.6964
G01 X178.7052 Y74.7956
G01 X178.7590 Y74.8925
G01 X178.8169 Y74.9870
G01 X178.8790 Y75.0788
G01 X178.9451 Y75.1678
G01 X179.1029 Y75.0446
M107
G00 Z2.0000


;No. 7: Hole 9
G00 X208.6980 Y48.9290 Z2.0000
G00 Z0.5000
G01 Z-1.2000 F400
M106 S240
G01 X245.4230 F1000
G01 X244.6529 Y50.4290
G01 X210.7434
G01 X212.4220
G01 Y51.9290
G01 X243.6770
G01 X226.7034
G01 Y53.4290
G01 X213.1282
G01 X213.3972 Y54.9290
G01 X224.2617
G01 X222.9133 Y56.4290
G01 X213.5220
G01 X213.5776 Y57.9290
G01 X222.1448
G01 X221.7113 Y59.4290
G01 X213.5899
G01 Y60.9290
G01 X221.4833
G01 X221.3642 Y62.4290
G01 X213.5899
G01 Y63.9290
G01 X221.3105
G01 X221.2931 Y65.4290
G01 X213.5899
G01 Y66.9290
G01 X221.2922
G01 Y68.4290
G01 X213.5899
G01 Y69.9290
G01 X221.2923
G01 Y71.4290
G01 X213.5899
G01 X213.5900 Y72.9290
G01 X221.2923
G01 Y74.4290
G01 X213.5900
G01 Y75.9290
G01 X221.2924
G01 Y77.4290
G01 X213.5900
G01 Y78.9290
G01 X221.2924
G01 Y80.4290
G01 X213.5900
G01 Y81.9290
G01 X221.2925
G01 Y83.4290
G01 X213.5900
G01 Y84.9290
G01 X221.2925
G01 X221.2953 Y86.4290
G01 X213.5864
G01 X213.5492 Y87.9290
G01 X221.3629
G01 X221.5507 Y89.4290
G01 X213.4400
G01 X213.1474 Y90.9290
G01 X221.9402
G01 X222.7604 Y92.4290
G01 X212.4753
G01 X211.0829 Y93.9290
G01 X224.2726
G01 X211.3003
G01 Y95.4290
G01 X209.0272
M107
G00 Z2.0000
G00 X233.4967 Y51.9290
G00 Z0.5000
G01 Z-1.2000 F400
M106 S240
G01 Y53.4290 F1000
G01 X243.0304
G01 X242.6795 Y54.9290
G01 X235.8084
G01 X237.1228 Y56.4290
G01 X242.5832
G01 X242.6387 Y57.9290
G01 X238.0139
G01 X238.6041 Y59.4290
G01 X242.7122
G01 X242.7858 Y60.9290
G01 X238.9591
G01 X239.1229 Y62.4290
G01 X242.7596
G01 X242.5500 Y63.9290
G01 X239.1211
G01 X238.9199 Y65.4290
G01 X242.1487
G01 X241.5342 Y66.9290
G01 X238.5183
G01 X237.9164 Y68.4290
G01 X240.6906
G01 X239.2689 Y69.9290
G01 X237.3298
M107
G00 Z2.0000
G00 X223.9491 Y93.9290
G00 Z0.5000
G01 Z-1.2000 F400
M106 S240
G01 Y95.4290 F1000
G01 X226.4834
M107
G00 Z2.0000
G00 Z0.5000
G01 Z-1.2000 F400
M106 S240
G01 X226.6038 Y95.2693 F1000
G01 X226.1657 Y94.9748
G01 X225.7258 Y94.6829
G01 X225.2842 Y94.3935
G01 X224.8410 Y94.1067
G01 X224.4934 Y93.8619
G01 X224.1596 Y93.5986
G01 X223.8406 Y93.3175
G01 X223.5373 Y93.0195
G01 X223.2506 Y92.7055
G01 X222.9815 Y92.3763
G01 X222.7306 Y92.0331
G01 X222.4987 Y91.6767
G01 X222.3327 Y91.3318
G01 X222.1832 Y90.9794
G01 X222.0505 Y90.6203
G01 X221.9350 Y90.2554
G01 X221.8368 Y89.8854
G01 X221.7562 Y89.5112
G01 X221.6933 Y89.1336
G01 X221.6484 Y88.7534
G01 X221.5859 Y88.1787
G01 X221.5395 Y87.6024
G01 X221.5094 Y87.0250
G01 X221.4955 Y86.4470
G01 X221.4925 Y86.1371
G01 X221.4922 Y65.6608
G01 X221.4932 Y65.2560
G01 X221.4962 Y64.8512
G01 X221.5011 Y64.4465
G01 X221.5080 Y64.0418
G01 X221.5259 Y63.0523
G01 X221.5792 Y62.0641
G01 X221.6680 Y61.0785
G01 X221.7921 Y60.0967
G01 X221.8569 Y59.6825
G01 X221.9409 Y59.2717
G01 X222.0440 Y58.8653
G01 X222.1658 Y58.4641
G01 X222.3063 Y58.0691
G01 X222.4650 Y57.6810
G01 X222.6417 Y57.3008
G01 X222.8358 Y56.9292
G01 X223.0147 Y56.6384
G01 X223.2069 Y56.3563
G01 X223.4122 Y56.0835
G01 X223.6300 Y55.8206
G01 X223.8599 Y55.5683
G01 X224.1014 Y55.3269
G01 X224.3539 Y55.0972
G01 X224.6169 Y54.8795
G01 X225.0513 Y54.5553
G01 X225.5049 Y54.2586
G01 X225.9760 Y53.9904
G01 X226.4627 Y53.7519
G01 X226.9632 Y53.5438
G01 X227.4757 Y53.3670
G01 X227.9980 Y53.2222
G01 X228.5283 Y53.1100
G01 X229.0645 Y53.0307
G01 X229.6046 Y52.9846
G01 X230.1465 Y52.9720
G01 X230.6881 Y52.9928
G01 X231.1356 Y53.0267
G01 X231.5804 Y53.0858
G01 X232.0211 Y53.1697
G01 X232.4565 Y53.2784
G01 X232.8850 Y53.4114
G01 X233.3054 Y53.5683
G01 X233.7163 Y53.7485
G01 X234.1164 Y53.9517
G01 X234.5044 Y54.1770
G01 X234.8791 Y54.4238
G01 X235.2394 Y54.6913
G01 X235.5840 Y54.9787
G01 X235.9119 Y55.2850
G01 X236.2221 Y55.6092
G01 X236.5135 Y55.9504
G01 X236.7852 Y56.3075
G01 X237.1022 Y56.7565
G01 X237.3960 Y57.2211
G01 X237.6658 Y57.6999
G01 X237.9110 Y58.1918
G01 X238.1310 Y58.6955
G01 X238.3251 Y59.2098
G01 X238.4929 Y59.7332
G01 X238.6339 Y60.2644
G01 X238.7478 Y60.8021
G01 X238.8342 Y61.3449
G01 X238.8931 Y61.8914
G01 X238.9241 Y62.4402
G01 X238.9412 Y62.9658
G01 X238.9354 Y63.4917
G01 X238.9067 Y64.0168
G01 X238.8551 Y64.5402
G01 X238.7808 Y65.0608
G01 X238.6840 Y65.5777
G01 X238.5646 Y66.0899
G01 X238.4231 Y66.5964
G01 X238.2597 Y67.0962
G01 X238.0747 Y67.5885
G01 X237.8684 Y68.0723
G01 X237.6412 Y68.5466
G01 X237.4748 Y68.8883
G01 X237.3318 Y69.2404
G01 X237.2128 Y69.6014
G01 X237.1184 Y69.9696
G01 X237.1133 Y70.0119
G01 X237.1121 Y70.0391
G01 X237.1130 Y70.0825
G01 X237.1139 Y70.1165
G01 X237.1165 Y70.1504
G01 X237.1207 Y70.1840
G01 X237.1266 Y70.2175
G01 X237.1341 Y70.2506
G01 X237.1433 Y70.2833
G01 X237.1540 Y70.3156
G01 X237.1663 Y70.3472
G01 X237.1802 Y70.3782
G01 X237.1955 Y70.4085
G01 X237.2123 Y70.4380
G01 X237.2306 Y70.4667
G01 X237.2615 Y70.5046
G01 X237.2935 Y70.5415
G01 X237.3266 Y70.5775
G01 X237.3609 Y70.6124
G01 X237.3874 Y70.6326
G01 X237.4149 Y70.6514
G01 X237.4433 Y70.6690
G01 X237.4725 Y70.6850
G01 X237.5024 Y70.6997
G01 X237.5331 Y70.7128
G01 X237.5643 Y70.7245
G01 X237.5961 Y70.7346
G01 X237.6284 Y70.7431
G01 X237.6610 Y70.7500
G01 X237.6939 Y70.7553
G01 X237.7270 Y70.7590
G01 X237.7603 Y70.7611
G01 X237.7937 Y70.7615
G01 X237.8270 Y70.7603
G01 X237.8602 Y70.7574
G01 X237.8933 Y70.7530
G01 X237.9260 Y70.7469
G01 X237.9585 Y70.7392
G01 X237.9905 Y70.7299
G01 X238.1994 Y70.6871
G01 X238.4047 Y70.6297
G01 X238.6055 Y70.5580
G01 X238.8007 Y70.4723
G01 X238.9894 Y70.3731
G01 X239.1707 Y70.2608
G01 X239.3436 Y70.1360
G01 X239.5072 Y69.9994
G01 X239.8110 Y69.7385
G01 X240.0998 Y69.4611
G01 X240.3726 Y69.1680
G01 X240.6286 Y68.8601
G01 X240.8670 Y68.5384
G01 X241.0870 Y68.2039
G01 X241.2880 Y67.8576
G01 X241.4694 Y67.5006
G01 X241.7132 Y67.0241
G01 X241.9370 Y66.5379
G01 X242.1404 Y66.0428
G01 X242.3230 Y65.5396
G01 X242.4845 Y65.0293
G01 X242.6246 Y64.5127
G01 X242.7431 Y63.9908
G01 X242.8399 Y63.4643
G01 X242.9146 Y62.9343
G01 X242.9672 Y62.4016
G01 X242.9976 Y61.8672
G01 X243.0058 Y61.3320
G01 X242.8210 Y57.5625
G01 X242.8188 Y57.4935
G01 X242.8181 Y56.9341
G01 X242.8064 Y56.8395
G01 X242.7972 Y56.7446
G01 X242.7904 Y56.6496
G01 X242.7860 Y56.5543
G01 X242.7817 Y56.3577
G01 X242.7821 Y56.1789
G01 X242.8005 Y55.6898
G01 X242.8453 Y55.2025
G01 X242.9166 Y54.7183
G01 X243.0141 Y54.2387
G01 X243.1375 Y53.7651
G01 X243.2864 Y53.2989
G01 X243.4605 Y52.8415
G01 X243.6592 Y52.3942
G01 X243.8818 Y51.9584
G01 X244.1279 Y51.5354
G01 X244.3965 Y51.1263
G01 X244.6870 Y50.7324
G01 X244.9601 Y50.3524
G01 X245.2028 Y49.9523
G01 X245.4134 Y49.5344
G01 X245.5907 Y49.1013
G01 X245.5996 Y49.0563
G01 X245.6063 Y49.0109
G01 X245.6108 Y48.9652
G01 X245.6131 Y48.9193
G01 X245.6132 Y48.8734
G01 X245.6111 Y48.8276
G01 X245.6067 Y48.7819
G01 X245.6002 Y48.7364
G01 X245.5915 Y48.6914
G01 X245.5806 Y48.6468
G01 X245.5676 Y48.6027
G01 X245.5524 Y48.5594
G01 X245.5352 Y48.5168
G01 X245.5160 Y48.4751
G01 X245.4948 Y48.4344
G01 X245.4716 Y48.3948
G01 X245.4466 Y48.3563
G01 X245.4197 Y48.3191
G01 X245.3910 Y48.2832
G01 X245.3607 Y48.2488
G01 X245.3287 Y48.2158
G01 X245.2952 Y48.1844
G01 X245.2602 Y48.1547
G01 X245.2238 Y48.1267
G01 X245.1862 Y48.1005
G01 X245.1472 Y48.0761
G01 X245.1072 Y48.0537
G01 X245.0661 Y48.0332
G01 X245.0241 Y48.0147
G01 X244.9812 Y47.9982
G01 X244.9376 Y47.9839
G01 X244.8934 Y47.9716
G01 X244.8486 Y47.9615
G01 X244.8034 Y47.9536
G01 X244.7578 Y47.9479
G01 X244.7121 Y47.9444
G01 X244.7537 Y47.9459
G01 X244.4367 Y47.9545
G01 X244.1215 Y47.9893
G01 X243.8103 Y48.0502
G01 X243.5053 Y48.1368
G01 X243.1218 Y48.2380
G01 X242.7354 Y48.3275
G01 X242.3465 Y48.4053
G01 X241.9555 Y48.4713
G01 X241.5626 Y48.5253
G01 X241.1682 Y48.5675
G01 X240.7728 Y48.5977
G01 X240.3766 Y48.6159
G01 X209.5745 Y48.6168
G01 X209.4320 Y48.6129
G01 X209.2895 Y48.6170
G01 X209.1475 Y48.6292
G01 X209.0064 Y48.6495
G01 X208.8667 Y48.6777
G01 X208.7288 Y48.7139
G01 X208.5932 Y48.7578
G01 X208.4603 Y48.8094
G01 X208.4300 Y48.8255
G01 X208.4007 Y48.8435
G01 X208.3727 Y48.8635
G01 X208.3460 Y48.8852
G01 X208.3355 Y48.8964
G01 X208.3256 Y48.9082
G01 X208.3165 Y48.9205
G01 X208.3081 Y48.9334
G01 X208.3006 Y48.9468
G01 X208.2938 Y48.9606
G01 X208.2879 Y48.9748
G01 X208.2828 Y48.9893
G01 X208.2786 Y49.0041
G01 X208.2753 Y49.0191
G01 X208.2729 Y49.0343
G01 X208.2715 Y49.0496
G01 X208.2673 Y49.0869
G01 X208.2648 Y49.1453
G01 X208.2685 Y49.2175
G01 X208.2724 Y49.2445
G01 X208.2781 Y49.2711
G01 X208.2857 Y49.2973
G01 X208.2951 Y49.3229
G01 X208.3063 Y49.3477
G01 X208.3192 Y49.3717
G01 X208.3339 Y49.3947
G01 X208.3501 Y49.4166
G01 X208.3678 Y49.4373
G01 X208.3869 Y49.4567
G01 X208.4074 Y49.4747
G01 X208.4291 Y49.4912
G01 X208.4519 Y49.5061
G01 X208.4757 Y49.5193
G01 X208.5004 Y49.5309
G01 X208.5258 Y49.5406
G01 X208.9057 Y49.7345
G01 X209.2889 Y49.9217
G01 X209.6753 Y50.1023
G01 X210.0647 Y50.2762
G01 X210.4095 Y50.4500
G01 X210.7419 Y50.6464
G01 X211.0604 Y50.8647
G01 X211.3637 Y51.1037
G01 X211.6502 Y51.3625
G01 X211.9188 Y51.6398
G01 X212.1683 Y51.9345
G01 X212.3976 Y52.2452
G01 X212.5287 Y52.4709
G01 X212.6478 Y52.7033
G01 X212.7543 Y52.9416
G01 X212.8480 Y53.1852
G01 X212.9287 Y53.4335
G01 X212.9960 Y53.6857
G01 X213.0499 Y53.9411
G01 X213.0902 Y54.1991
G01 X213.1711 Y54.8020
G01 X213.2397 Y55.4064
G01 X213.2958 Y56.0122
G01 X213.3396 Y56.6189
G01 X213.3708 Y57.2265
G01 X213.3896 Y57.8345
G01 X213.3960 Y58.4428
G01 X213.3899 Y59.0511
G01 X213.3900 Y85.8178
G01 X213.3984 Y86.3386
G01 X213.3963 Y86.8595
G01 X213.3837 Y87.3801
G01 X213.3607 Y87.9005
G01 X213.3272 Y88.4202
G01 X213.2833 Y88.9392
G01 X213.2290 Y89.4572
G01 X213.1644 Y89.9741
G01 X213.0952 Y90.3853
G01 X212.9960 Y90.7903
G01 X212.8674 Y91.1870
G01 X212.7099 Y91.5731
G01 X212.5246 Y91.9467
G01 X212.3123 Y92.3056
G01 X212.0742 Y92.6479
G01 X211.8116 Y92.9719
G01 X211.4882 Y93.2853
G01 X211.1560 Y93.5895
G01 X210.8153 Y93.8841
G01 X210.4664 Y94.1690
G01 X210.1096 Y94.4439
G01 X209.7452 Y94.7085
G01 X209.3734 Y94.9628
G01 X208.9946 Y95.2064
G01 X208.8951 Y95.2650
G01 X208.8000 Y95.3303
G01 X208.7095 Y95.4020
G01 X208.6243 Y95.4798
G01 X208.5446 Y95.5633
G01 X208.4708 Y95.6520
G01 X208.4034 Y95.7457
G01 X208.3426 Y95.8438
G01 X208.3407 Y95.8594
G01 X208.3406 Y95.8907
G01 X208.3416 Y95.9223
G01 X208.3443 Y95.9538
G01 X208.3486 Y95.9851
G01 X208.3546 Y96.0162
G01 X208.3621 Y96.0469
G01 X208.3713 Y96.0771
G01 X208.3819 Y96.1069
G01 X208.3942 Y96.1360
G01 X208.4079 Y96.1645
G01 X208.4230 Y96.1923
G01 X208.4396 Y96.2192
G01 X208.4576 Y96.2452
G01 X208.4769 Y96.2702
G01 X208.4975 Y96.2942
G01 X208.5193 Y96.3171
G01 X208.5422 Y96.3389
G01 X208.5662 Y96.3594
G01 X208.5913 Y96.3786
G01 X208.6174 Y96.3965
G01 X208.6443 Y96.4131
G01 X208.6642 Y96.4145
G01 X208.7061 Y96.4133
G01 X208.7480 Y96.4110
G01 X208.7898 Y96.4074
G01 X208.8314 Y96.4027
G01 X209.0014 Y96.3738
G01 X209.1698 Y96.3369
G01 X209.3363 Y96.2921
G01 X209.5005 Y96.2396
G01 X211.8303 Y95.4629
G01 X212.6282 Y95.2116
G01 X213.4361 Y94.9950
G01 X214.2526 Y94.8135
G01 X215.0762 Y94.6674
G01 X215.9054 Y94.5571
G01 X216.7385 Y94.4826
G01 X217.5741 Y94.4442
G01 X218.4106 Y94.4419
G01 X218.9001 Y94.4599
G01 X219.3886 Y94.4964
G01 X219.8754 Y94.5513
G01 X220.3597 Y94.6245
G01 X220.8410 Y94.7159
G01 X221.3184 Y94.8255
G01 X221.7914 Y94.9530
G01 X222.2592 Y95.0982
G01 X223.0907 Y95.3640
G01 X223.9204 Y95.6357
G01 X224.7481 Y95.9132
G01 X225.5738 Y96.1964
G01 X225.8369 Y96.2849
G01 X226.1065 Y96.3509
G01 X226.3806 Y96.3940
G01 X226.6575 Y96.4139
G01 X226.6786 Y96.4174
G01 X226.7000 Y96.4194
G01 X226.7214 Y96.4201
G01 X226.7429 Y96.4193
G01 X226.7642 Y96.4170
G01 X226.7854 Y96.4133
G01 X226.8062 Y96.4082
G01 X226.8266 Y96.4017
G01 X226.8466 Y96.3939
G01 X226.8660 Y96.3847
G01 X226.8847 Y96.3742
G01 X226.9027 Y96.3625
G01 X226.9199 Y96.3496
G01 X226.9361 Y96.3356
G01 X226.9514 Y96.3205
G01 X226.9656 Y96.3045
G01 X226.9787 Y96.2875
G01 X226.9907 Y96.2697
G01 X227.0014 Y96.2511
G01 X227.0108 Y96.2318
G01 X227.0189 Y96.2119
G01 X227.0257 Y96.1916
G01 X227.0310 Y96.1708
G01 X227.0350 Y96.1497
G01 X227.0464 Y96.1162
G01 X227.0559 Y96.0821
G01 X227.0637 Y96.0476
G01 X227.0696 Y96.0127
G01 X227.0738 Y95.9776
G01 X227.0760 Y95.9422
G01 X227.0764 Y95.9068
G01 X227.0750 Y95.8715
G01 X227.0717 Y95.8362
G01 X227.0666 Y95.8012
G01 X227.0596 Y95.7665
G01 X227.0508 Y95.7322
G01 X227.0403 Y95.6985
G01 X227.0280 Y95.6653
G01 X227.0139 Y95.6328
G01 X226.9982 Y95.6011
G01 X226.9799 Y95.5745
G01 X226.8707 Y95.4776
G01 X226.7385 Y95.3709
G01 X226.6038 Y95.2693
G01 X226.4834 Y95.4290
M107
G00 Z2.0000


;No. 8: Helical drill 2
G00 X263.9213 Y75.1550 Z2.0000
G00 Z0.5000
M106 S240
G01 X263.9201 Y75.1090 Z0.4817 F400
G01 X263.9165 Y75.0631 Z0.4633
G01 X263.9105 Y75.0175 Z0.4450
G01 X263.9021 Y74.9722 Z0.4267
G01 X263.8914 Y74.9275 Z0.4083
G01 X263.8783 Y74.8834 Z0.3900
G01 X263.8629 Y74.8400 Z0.3717
G01 X263.8453 Y74.7975 Z0.3533
G01 X263.8255 Y74.7560 Z0.3350
G01 X263.8036 Y74.7155 Z0.3167
G01 X263.7795 Y74.6763 Z0.2983
G01 X263.7535 Y74.6384 Z0.2800
G01 X263.7255 Y74.6019 Z0.2617
G01 X263.6956 Y74.5669 Z0.2433
G01 X263.6639 Y74.5335 Z0.2250
G01 X263.6305 Y74.5019 Z0.2067
G01 X263.5955 Y74.4720 Z0.1883
G01 X263.5590 Y74.4440 Z0.1700
G01 X263.5211 Y74.4179 Z0.1517
G01 X263.4819 Y74.3939 Z0.1333
G01 X263.4415 Y74.3719 Z0.1150
G01 X263.3999 Y74.3521 Z0.0967
G01 X263.3574 Y74.3345 Z0.0783
G01 X263.3140 Y74.3191 Z0.0600
G01 X263.2699 Y74.3061 Z0.0417
G01 X263.2252 Y74.2953 Z0.0233
G01 X263.1800 Y74.2870 Z0.0050
G01 X263.1343 Y74.2809 Z-0.0133
G01 X263.0885 Y74.2773 Z-0.0317
G01 X263.0425 Y74.2761 Z-0.0500
G01 X262.9965 Y74.2773 Z-0.0683
G01 X262.9506 Y74.2809 Z-0.0867
G01 X262.9050 Y74.2870 Z-0.1050
G01 X262.8598 Y74.2953 Z-0.1233
G01 X262.8150 Y74.3061 Z-0.1417
G01 X262.7709 Y74.3191 Z-0.1600
G01 X262.7275 Y74.3345 Z-0.1783
G01 X262.6850 Y74.3521 Z-0.1967
G01 X262.6435 Y74.3719 Z-0.2150
G01 X262.6031 Y74.3939 Z-0.2333
G01 X262.5638 Y74.4179 Z-0.2517
G01 X262.5259 Y74.4440 Z-0.2700
G01 X262.4894 Y74.4720 Z-0.2883
G01 X262.4544 Y74.5019 Z-0.3067
G01 X262.4210 Y74.5335 Z-0.3250
G01 X262.3894 Y74.5669 Z-0.3433
G01 X262.3595 Y74.6019 Z-0.3617
G01 X262.3315 Y74.6384 Z-0.3800
G01 X262.3054 Y74.6763 Z-0.3983
G01 X262.2814 Y74.7155 Z-0.4167
G01 X262.2594 Y74.7560 Z-0.4350
G01 X262.2396 Y74.7975 Z-0.4533
G01 X262.2220 Y74.8400 Z-0.4717
G01 X262.2067 Y74.8834 Z-0.4900
G01 X262.1936 Y74.9275 Z-0.5083
G01 X262.1828 Y74.9722 Z-0.5267
G01 X262.1745 Y75.0175 Z-0.5450
G01 X262.1685 Y75.0631 Z-0.5633
G01 X262.1648 Y75.1090 Z-0.5817
G01 X262.1636 Y75.1550 Z-0.6000
G01 X262.1648 Y75.2010 Z-0.6183
G01 X262.1685 Y75.2468 Z-0.6367
G01 X262.1745 Y75.2924 Z-0.6550
G01 X262.1828 Y75.3377 Z-0.6733
G01 X262.1936 Y75.3824 Z-0.6917
G01 X262.2067 Y75.4265 Z-0.7100
G01 X262.2220 Y75.4699 Z-0.7283
G01 X262.2396 Y75.5124 Z-0.7467
G01 X262.2594 Y75.5539 Z-0.7650
G01 X262.2814 Y75.5944 Z-0.7833
G01 X262.3054 Y75.6336 Z-0.8017
G01 X262.3315 Y75.6715 Z-0.8200
G01 X262.3595 Y75.7080 Z-0.8383
G01 X262.3894 Y75.7430 Z-0.8567
G01 X262.4210 Y75.7764 Z-0.8750
G01 X262.4544 Y75.8081 Z-0.8933
G01 X262.4894 Y75.8379 Z-0.9117
G01 X262.5259 Y75.8660 Z-0.9300
G01 X262.5638 Y75.8920 Z-0.9483
G01 X262.6031 Y75.9161 Z-0.9667
G01 X262.6435 Y75.9380 Z-0.9850
G01 X262.6850 Y75.9578 Z-1.0033
G01 X262.7275 Y75.9754 Z-1.0217
G01 X262.7709 Y75.9908 Z-1.0400
G01 X262.8150 Y76.0039 Z-1.0583
G01 X262.8598 Y76.0146 Z-1.0767
G01 X262.9050 Y76.0230 Z-1.0950
G01 X262.9506 Y76.0290 Z-1.1133
G01 X262.9965 Y76.0326 Z-1.1317
G01 X263.0425 Y76.0338 Z-1.1500
G01 X263.0885 Y76.0326 Z-1.1683
G01 X263.1343 Y76.0290 Z-1.1867
G01 X263.1800 Y76.0230 Z-1.2050
G01 X263.2252 Y76.0146 Z-1.2233
G01 X263.2699 Y76.0039 Z-1.2417
G01 X263.3140 Y75.9908 Z-1.2600
G01 X263.3574 Y75.9754 Z-1.2783
G01 X263.3999 Y75.9578 Z-1.2967
G01 X263.4415 Y75.9380 Z-1.3150
G01 X263.4819 Y75.9161 Z-1.3333
G01 X263.5211 Y75.8920 Z-1.3517
G01 X263.5590 Y75.8660 Z-1.3700
G01 X263.5955 Y75.8379 Z-1.3883
G01 X263.6305 Y75.8081 Z-1.4067
G01 X263.6639 Y75.7764 Z-1.4250
G01 X263.6956 Y75.7430 Z-1.4433
G01 X263.7255 Y75.7080 Z-1.4617
G01 X263.7535 Y75.6715 Z-1.4800
G01 X263.7795 Y75.6336 Z-1.4983
G01 X263.8036 Y75.5944 Z-1.5167
G01 X263.8255 Y75.5539 Z-1.5350
G01 X263.8453 Y75.5124 Z-1.5533
G01 X263.8629 Y75.4699 Z-1.5717
G01 X263.8783 Y75.4265 Z-1.5900
G01 X263.8914 Y75.3824 Z-1.6083
G01 X263.9021 Y75.3377 Z-1.6267
G01 X263.9105 Y75.2924 Z-1.6450
G01 X263.9165 Y75.2468 Z-1.6633
G01 X263.9201 Y75.2010 Z-1.6817
G01 X263.9213 Y75.1550 Z-1.7000
G01 X263.9201 Y75.1090 Z-1.7183
G01 X263.9165 Y75.0631 Z-1.7367
G01 X263.9105 Y75.0175 Z-1.7550
G01 X263.9021 Y74.9722 Z-1.7733
G01 X263.8914 Y74.9275 Z-1.7917
G01 X263.8783 Y74.8834 Z-1.8100
G01 X263.8629 Y74.8400 Z-1.8283
G01 X263.8453 Y74.7975 Z-1.8467
G01 X263.8255 Y74.7560 Z-1.8650
G01 X263.8036 Y74.7155 Z-1.8833
G01 X263.7795 Y74.6763 Z-1.9017
G01 X263.7535 Y74.6384 Z-1.9200
G01 X263.7255 Y74.6019 Z-1.9383
G01 X263.6956 Y74.5669 Z-1.9567
G01 X263.6639 Y74.5335 Z-1.9750
G01 X263.6305 Y74.5019 Z-1.9933
G01 X263.5955 Y74.4720 Z-2.0117
G01 X263.5590 Y74.4440 Z-2.0300
G01 X263.5211 Y74.4179 Z-2.0483
G01 X263.4819 Y74.3939 Z-2.0667
G01 X263.4415 Y74.3719 Z-2.0850
G01 X263.3999 Y74.3521 Z-2.1033
G01 X263.3574 Y74.3345 Z-2.1217
G01 X263.3140 Y74.3191 Z-2.1400
G01 X263.2699 Y74.3061 Z-2.1583
G01 X263.2252 Y74.2953 Z-2.1767
G01 X263.1800 Y74.2870 Z-2.1950
G01 X263.1343 Y74.2809 Z-2.2133
G01 X263.0885 Y74.2773 Z-2.2317
G01 X263.0425 Y74.2761 Z-2.2500
G01 X262.9965 Y74.2773 Z-2.2683
G01 X262.9506 Y74.2809 Z-2.2867
G01 X262.9050 Y74.2870 Z-2.3050
G01 X262.8598 Y74.2953 Z-2.3233
G01 X262.8150 Y74.3061 Z-2.3417
G01 X262.7709 Y74.3191 Z-2.3600
G01 X262.7275 Y74.3345 Z-2.3783
G01 X262.6850 Y74.3521 Z-2.3967
G01 X262.6435 Y74.3719 Z-2.4150
G01 X262.6031 Y74.3939 Z-2.4333
G01 X262.5638 Y74.4179 Z-2.4517
G01 X262.5259 Y74.4440 Z-2.4700
G01 X262.4894 Y74.4720 Z-2.4883
G01 X262.4544 Y74.5019 Z-2.5067
G01 X262.4210 Y74.5335 Z-2.5250
G01 X262.3894 Y74.5669 Z-2.5433
G01 X262.3595 Y74.6019 Z-2.5617
G01 X262.3315 Y74.6384 Z-2.5800
G01 X262.3054 Y74.6763 Z-2.5983
G01 X262.2814 Y74.7155 Z-2.6167
G01 X262.2594 Y74.7560 Z-2.6350
G01 X262.2396 Y74.7975 Z-2.6533
G01 X262.2220 Y74.8400 Z-2.6717
G01 X262.2067 Y74.8834 Z-2.6900
G01 X262.1936 Y74.9275 Z-2.7083
G01 X262.1828 Y74.9722 Z-2.7267
G01 X262.1745 Y75.0175 Z-2.7450
G01 X262.1685 Y75.0631 Z-2.7633
G01 X262.1648 Y75.1090 Z-2.7817
G01 X262.1636 Y75.1550 Z-2.8000
G01 X262.1648 Y75.2010 Z-2.8183
G01 X262.1685 Y75.2468 Z-2.8367
G01 X262.1745 Y75.2924 Z-2.8550
G01 X262.1828 Y75.3377 Z-2.8733
G01 X262.1936 Y75.3824 Z-2.8917
G01 X262.2067 Y75.4265 Z-2.9100
G01 X262.2220 Y75.4699 Z-2.9283
G01 X262.2396 Y75.5124 Z-2.9467
G01 X262.2594 Y75.5539 Z-2.9650
G01 X262.2814 Y75.5944 Z-2.9833
G01 X262.3054 Y75.6336 Z-3.0017
G01 X262.3315 Y75.6715 Z-3.0200
G01 X262.3595 Y75.7080 Z-3.0383
G01 X262.3894 Y75.7430 Z-3.0567
G01 X262.4210 Y75.7764 Z-3.0750
G01 X262.4544 Y75.8081 Z-3.0933
G01 X262.4894 Y75.8379 Z-3.1117
G01 X262.5259 Y75.8660 Z-3.1300
G01 X262.5638 Y75.8920 Z-3.1483
G01 X262.6031 Y75.9161 Z-3.1667
G01 X262.6435 Y75.9380 Z-3.1850
G01 X262.6850 Y75.9578 Z-3.2033
G01 X262.7275 Y75.9754 Z-3.2217
G01 X262.7709 Y75.9908 Z-3.2400
G01 X262.8150 Y76.0039 Z-3.2583
G01 X262.8598 Y76.0146 Z-3.2767
G01 X262.9050 Y76.0230 Z-3.2950
G01 X262.9506 Y76.0290 Z-3.3133
G01 X262.9965 Y76.0326 Z-3.3317
G01 X263.0425 Y76.0338 Z-3.3500
G01 X263.0885 Y76.0326 Z-3.3683
G01 X263.1343 Y76.0290 Z-3.3867
G01 X263.1800 Y76.0230 Z-3.4050
G01 X263.2252 Y76.0146 Z-3.4233
G01 X263.2699 Y76.0039 Z-3.4417
G01 X263.3140 Y75.9908 Z-3.4600
G01 X263.3574 Y75.9754 Z-3.4783
G01 X263.3999 Y75.9578 Z-3.4967
G01 X263.4415 Y75.9380 Z-3.5150
G01 X263.4819 Y75.9161 Z-3.5333
G01 X263.5211 Y75.8920 Z-3.5517
G01 X263.5590 Y75.8660 Z-3.5700
G01 X263.5955 Y75.8379 Z-3.5883
G01 X263.6305 Y75.8081 Z-3.6067
G01 X263.6639 Y75.7764 Z-3.6250
G01 X263.6956 Y75.7430 Z-3.6433
G01 X263.7255 Y75.7080 Z-3.6617
G01 X263.7535 Y75.6715 Z-3.6800
G01 X263.7795 Y75.6336 Z-3.6983
G01 X263.8036 Y75.5944 Z-3.7167
G01 X263.8255 Y75.5539 Z-3.7350
G01 X263.8453 Y75.5124 Z-3.7533
G01 X263.8629 Y75.4699 Z-3.7717
G01 X263.8783 Y75.4265 Z-3.7900
G01 X263.8914 Y75.3824 Z-3.8083
G01 X263.9021 Y75.3377 Z-3.8267
G01 X263.9105 Y75.2924 Z-3.8450
G01 X263.9165 Y75.2468 Z-3.8633
G01 X263.9201 Y75.2010 Z-3.8817
G01 X263.9213 Y75.1550 Z-3.9000
G01 X263.9201 Y75.1090 Z-3.9042
G01 X263.9165 Y75.0631 Z-3.9083
G01 X263.9105 Y75.0175 Z-3.9125
G01 X263.9021 Y74.9722 Z-3.9167
G01 X263.8914 Y74.9275 Z-3.9208
G01 X263.8783 Y74.8834 Z-3.9250
G01 X263.8629 Y74.8400 Z-3.9292
G01 X263.8453 Y74.7975 Z-3.9333
G01 X263.8255 Y74.7560 Z-3.9375
G01 X263.8036 Y74.7155 Z-3.9417
G01 X263.7795 Y74.6763 Z-3.9458
G01 X263.7535 Y74.6384 Z-3.9500
G01 X263.7255 Y74.6019 Z-3.9542
G01 X263.6956 Y74.5669 Z-3.9583
G01 X263.6639 Y74.5335 Z-3.9625
G01 X263.6305 Y74.5019 Z-3.9667
G01 X263.5955 Y74.4720 Z-3.9708
G01 X263.5590 Y74.4440 Z-3.9750
G01 X263.5211 Y74.4179 Z-3.9792
G01 X263.4819 Y74.3939 Z-3.9833
G01 X263.4415 Y74.3719 Z-3.9875
G01 X263.3999 Y74.3521 Z-3.9917
G01 X263.3574 Y74.3345 Z-3.9958
G01 X263.3140 Y74.3191 Z-4.0000
G01 X263.2699 Y74.3061 Z-4.0042
G01 X263.2252 Y74.2953 Z-4.0083
G01 X263.1800 Y74.2870 Z-4.0125
G01 X263.1343 Y74.2809 Z-4.0167
G01 X263.0885 Y74.2773 Z-4.0208
G01 X263.0425 Y74.2761 Z-4.0250
G01 X262.9965 Y74.2773 Z-4.0292
G01 X262.9506 Y74.2809 Z-4.0333
G01 X262.9050 Y74.2870 Z-4.0375
G01 X262.8598 Y74.2953 Z-4.0417
G01 X262.8150 Y74.3061 Z-4.0458
G01 X262.7709 Y74.3191 Z-4.0500
G01 X262.7275 Y74.3345 Z-4.0542
G01 X262.6850 Y74.3521 Z-4.0583
G01 X262.6435 Y74.3719 Z-4.0625
G01 X262.6031 Y74.3939 Z-4.0667
G01 X262.5638 Y74.4179 Z-4.0708
G01 X262.5259 Y74.4440 Z-4.0750
G01 X262.4894 Y74.4720 Z-4.0792
G01 X262.4544 Y74.5019 Z-4.0833
G01 X262.4210 Y74.5335 Z-4.0875
G01 X262.3894 Y74.5669 Z-4.0917
G01 X262.3595 Y74.6019 Z-4.0958
G01 X262.3315 Y74.6384 Z-4.1000
G01 X262.3054 Y74.6763 Z-4.1042
G01 X262.2814 Y74.7155 Z-4.1083
G01 X262.2594 Y74.7560 Z-4.1125
G01 X262.2396 Y74.7975 Z-4.1167
G01 X262.2220 Y74.8400 Z-4.1208
G01 X262.2067 Y74.8834 Z-4.1250
G01 X262.1936 Y74.9275 Z-4.1292
G01 X262.1828 Y74.9722 Z-4.1333
G01 X262.1745 Y75.0175 Z-4.1375
G01 X262.1685 Y75.0631 Z-4.1417
G01 X262.1648 Y75.1090 Z-4.1458
G01 X262.1636 Y75.1550 Z-4.1500
G01 X262.1648 Y75.2010 Z-4.1542
G01 X262.1685 Y75.2468 Z-4.1583
G01 X262.1745 Y75.2924 Z-4.1625
G01 X262.1828 Y75.3377 Z-4.1667
G01 X262.1936 Y75.3824 Z-4.1708
G01 X262.2067 Y75.4265 Z-4.1750
G01 X262.2220 Y75.4699 Z-4.1792
G01 X262.2396 Y75.5124 Z-4.1833
G01 X262.2594 Y75.5539 Z-4.1875
G01 X262.2814 Y75.5944 Z-4.1917
G01 X262.3054 Y75.6336 Z-4.1958
G01 X262.3315 Y75.6715 Z-4.2000
G01 X262.3595 Y75.7080 Z-4.2042
G01 X262.3894 Y75.7430 Z-4.2083
G01 X262.4210 Y75.7764 Z-4.2125
G01 X262.4544 Y75.8081 Z-4.2167
G01 X262.4894 Y75.8379 Z-4.2208
G01 X262.5259 Y75.8660 Z-4.2250
G01 X262.5638 Y75.8920 Z-4.2292
G01 X262.6031 Y75.9161 Z-4.2333
G01 X262.6435 Y75.9380 Z-4.2375
G01 X262.6850 Y75.9578 Z-4.2417
G01 X262.7275 Y75.9754 Z-4.2458
G01 X262.7709 Y75.9908 Z-4.2500
G01 X262.8150 Y76.0039 Z-4.2542
G01 X262.8598 Y76.0146 Z-4.2583
G01 X262.9050 Y76.0230 Z-4.2625
G01 X262.9506 Y76.0290 Z-4.2667
G01 X262.9965 Y76.0326 Z-4.2708
G01 X263.0425 Y76.0338 Z-4.2750
G01 X263.0885 Y76.0326 Z-4.2792
G01 X263.1343 Y76.0290 Z-4.2833
G01 X263.1800 Y76.0230 Z-4.2875
G01 X263.2252 Y76.0146 Z-4.2917
G01 X263.2699 Y76.0039 Z-4.2958
G01 X263.3140 Y75.9908 Z-4.3000
G01 X263.3574 Y75.9754 Z-4.3042
G01 X263.3999 Y75.9578 Z-4.3083
G01 X263.4415 Y75.9380 Z-4.3125
G01 X263.4819 Y75.9161 Z-4.3167
G01 X263.5211 Y75.8920 Z-4.3208
G01 X263.5590 Y75.8660 Z-4.3250
G01 X263.5955 Y75.8379 Z-4.3292
G01 X263.6305 Y75.8081 Z-4.3333
G01 X263.6639 Y75.7764 Z-4.3375
G01 X263.6956 Y75.7430 Z-4.3417
G01 X263.7255 Y75.7080 Z-4.3458
G01 X263.7535 Y75.6715 Z-4.3500
G01 X263.7795 Y75.6336 Z-4.3542
G01 X263.8036 Y75.5944 Z-4.3583
G01 X263.8255 Y75.5539 Z-4.3625
G01 X263.8453 Y75.5124 Z-4.3667
G01 X263.8629 Y75.4699 Z-4.3708
G01 X263.8783 Y75.4265 Z-4.3750
G01 X263.8914 Y75.3824 Z-4.3792
G01 X263.9021 Y75.3377 Z-4.3833
G01 X263.9105 Y75.2924 Z-4.3875
G01 X263.9165 Y75.2468 Z-4.3917
G01 X263.9201 Y75.2010 Z-4.3958
G01 X263.9213 Y75.1550 Z-4.4000
G01 X263.9201 Y75.1090
G01 X263.9165 Y75.0631
G01 X263.9105 Y75.0175
G01 X263.9021 Y74.9722
G01 X263.8914 Y74.9275
G01 X263.8783 Y74.8834
G01 X263.8629 Y74.8400
G01 X263.8453 Y74.7975
G01 X263.8255 Y74.7560
G01 X263.8036 Y74.7155
G01 X263.7795 Y74.6763
G01 X263.7535 Y74.6384
G01 X263.7255 Y74.6019
G01 X263.6956 Y74.5669
G01 X263.6639 Y74.5335
G01 X263.6305 Y74.5019
G01 X263.5955 Y74.4720
G01 X263.5590 Y74.4440
G01 X263.5211 Y74.4179
G01 X263.4819 Y74.3939
G01 X263.4415 Y74.3719
G01 X263.3999 Y74.3521
G01 X263.3574 Y74.3345
G01 X263.3140 Y74.3191
G01 X263.2699 Y74.3061
G01 X263.2252 Y74.2953
G01 X263.1800 Y74.2870
G01 X263.1343 Y74.2809
G01 X263.0885 Y74.2773
G01 X263.0425 Y74.2761
G01 X262.9965 Y74.2773
G01 X262.9506 Y74.2809
G01 X262.9050 Y74.2870
G01 X262.8598 Y74.2953
G01 X262.8150 Y74.3061
G01 X262.7709 Y74.3191
G01 X262.7275 Y74.3345
G01 X262.6850 Y74.3521
G01 X262.6435 Y74.3719
G01 X262.6031 Y74.3939
G01 X262.5638 Y74.4179
G01 X262.5259 Y74.4440
G01 X262.4894 Y74.4720
G01 X262.4544 Y74.5019
G01 X262.4210 Y74.5335
G01 X262.3894 Y74.5669
G01 X262.3595 Y74.6019
G01 X262.3315 Y74.6384
G01 X262.3054 Y74.6763
G01 X262.2814 Y74.7155
G01 X262.2594 Y74.7560
G01 X262.2396 Y74.7975
G01 X262.2220 Y74.8400
G01 X262.2067 Y74.8834
G01 X262.1936 Y74.9275
G01 X262.1828 Y74.9722
G01 X262.1745 Y75.0175
G01 X262.1685 Y75.0631
G01 X262.1648 Y75.1090
G01 X262.1636 Y75.1550
G01 X262.1648 Y75.2010
G01 X262.1685 Y75.2468
G01 X262.1745 Y75.2924
G01 X262.1828 Y75.3377
G01 X262.1936 Y75.3824
G01 X262.2067 Y75.4265
G01 X262.2220 Y75.4699
G01 X262.2396 Y75.5124
G01 X262.2594 Y75.5539
G01 X262.2814 Y75.5944
G01 X262.3054 Y75.6336
G01 X262.3315 Y75.6715
G01 X262.3595 Y75.7080
G01 X262.3894 Y75.7430
G01 X262.4210 Y75.7764
G01 X262.4544 Y75.8081
G01 X262.4894 Y75.8379
G01 X262.5259 Y75.8660
G01 X262.5638 Y75.8920
G01 X262.6031 Y75.9161
G01 X262.6435 Y75.9380
G01 X262.6850 Y75.9578
G01 X262.7275 Y75.9754
G01 X262.7709 Y75.9908
G01 X262.8150 Y76.0039
G01 X262.8598 Y76.0146
G01 X262.9050 Y76.0230
G01 X262.9506 Y76.0290
G01 X262.9965 Y76.0326
G01 X263.0425 Y76.0338
G01 X263.0885 Y76.0326
G01 X263.1343 Y76.0290
G01 X263.1800 Y76.0230
G01 X263.2252 Y76.0146
G01 X263.2699 Y76.0039
G01 X263.3140 Y75.9908
G01 X263.3574 Y75.9754
G01 X263.3999 Y75.9578
G01 X263.4415 Y75.9380
G01 X263.4819 Y75.9161
G01 X263.5211 Y75.8920
G01 X263.5590 Y75.8660
G01 X263.5955 Y75.8379
G01 X263.6305 Y75.8081
G01 X263.6639 Y75.7764
G01 X263.6956 Y75.7430
G01 X263.7255 Y75.7080
G01 X263.7535 Y75.6715
G01 X263.7795 Y75.6336
G01 X263.8036 Y75.5944
G01 X263.8255 Y75.5539
G01 X263.8453 Y75.5124
G01 X263.8629 Y75.4699
G01 X263.8783 Y75.4265
G01 X263.8914 Y75.3824
G01 X263.9021 Y75.3377
G01 X263.9105 Y75.2924
G01 X263.9165 Y75.2468
G01 X263.9201 Y75.2010
G01 X263.9213 Y75.1550
M107
M106 S240
G01 X263.9202 Y75.1236 Z-4.3886
M107
M106 S240
G01 X263.9168 Y75.0924 Z-4.3773
M107
M106 S240
G01 X263.9113 Y75.0616 Z-4.3659
M107
M106 S240
G01 X263.9035 Y75.0312 Z-4.3545
M107
M106 S240
G01 X263.8936 Y75.0014 Z-4.3432
M107
M106 S240
G01 X263.8816 Y74.9724 Z-4.3318
M107
M106 S240
G01 X263.8676 Y74.9444 Z-4.3205
M107
M106 S240
G01 X263.8516 Y74.9174 Z-4.3091
M107
M106 S240
G01 X263.8337 Y74.8916 Z-4.2977
M107
M106 S240
G01 X263.8140 Y74.8672 Z-4.2864
M107
M106 S240
G01 X263.7926 Y74.8443 Z-4.2750
M107
M106 S240
G01 X263.7696 Y74.8229 Z-4.2636
M107
M106 S240
G01 X263.7452 Y74.8032 Z-4.2523
M107
M106 S240
G01 X263.7195 Y74.7853 Z-4.2409
M107
M106 S240
G01 X263.6925 Y74.7693 Z-4.2295
M107
M106 S240
G01 X263.6644 Y74.7553 Z-4.2182
M107
M106 S240
G01 X263.6355 Y74.7433 Z-4.2068
M107
M106 S240
G01 X263.6057 Y74.7333 Z-4.1955
M107
M106 S240
G01 X263.5753 Y74.7256 Z-4.1841
M107
M106 S240
G01 X263.5444 Y74.7200 Z-4.1727
M107
M106 S240
G01 X263.5132 Y74.7167 Z-4.1614
M107
M106 S240
G01 X263.4819 Y74.7155 Z-4.1500
M107
M106 S240
G01 X263.4505 Y74.7167 Z-4.1386
M107
M106 S240
G01 X263.4194 Y74.7200 Z-4.1273
M107
M106 S240
G01 X263.3885 Y74.7256 Z-4.1159
M107
M106 S240
G01 X263.3581 Y74.7333 Z-4.1045
M107
M106 S240
G01 X263.3283 Y74.7433 Z-4.0932
M107
M106 S240
G01 X263.2993 Y74.7553 Z-4.0818
M107
M106 S240
G01 X263.2713 Y74.7693 Z-4.0705
M107
M106 S240
G01 X263.2443 Y74.7853 Z-4.0591
M107
M106 S240
G01 X263.2186 Y74.8032 Z-4.0477
M107
M106 S240
G01 X263.1941 Y74.8229 Z-4.0364
M107
M106 S240
G01 X263.1712 Y74.8443 Z-4.0250
M107
M106 S240
G01 X263.1498 Y74.8672 Z-4.0136
M107
M106 S240
G01 X263.1301 Y74.8916 Z-4.0023
M107
M106 S240
G01 X263.1122 Y74.9174 Z-3.9909
M107
M106 S240
G01 X263.0962 Y74.9444 Z-3.9795
M107
M106 S240
G01 X263.0822 Y74.9724 Z-3.9682
M107
M106 S240
G01 X263.0702 Y75.0014 Z-3.9568
M107
M106 S240
G01 X263.0603 Y75.0312 Z-3.9455
M107
M106 S240
G01 X263.0525 Y75.0616 Z-3.9341
M107
M106 S240
G01 X263.0469 Y75.0924 Z-3.9227
M107
M106 S240
G01 X263.0436 Y75.1236 Z-3.9114
M107
M106 S240
G01 X263.0425 Y75.1550 Z-3.9000
M107
G00 Z2.0000


;No. 9: Hole 27
G00 X241.7322 Y18.9327 Z2.0000
G00 Z0.5000
G01 Z-1.2000 F400
M106 S240
G01 X238.5169 F1000
M107
G00 Z2.0000
G00 Z0.5000
G01 Z-1.2000 F400
M106 S240
G01 X238.3167 Y18.9364 F1000
G01 X238.3181 Y19.0051
G01 X238.3222 Y19.0738
G01 X238.3291 Y19.1422
G01 X238.3386 Y19.2103
G01 X238.3509 Y19.2780
G01 X238.3659 Y19.3451
G01 X238.3835 Y19.4116
G01 X238.4038 Y19.4773
G01 X238.4515 Y19.5937
G01 X238.5072 Y19.7065
G01 X238.5704 Y19.8153
G01 X238.6409 Y19.9195
G01 X238.7184 Y20.0186
G01 X238.8025 Y20.1121
G01 X238.8929 Y20.1997
G01 X238.9890 Y20.2808
G01 X239.0905 Y20.3552
G01 X239.1968 Y20.4224
G01 X239.3075 Y20.4822
G01 X239.4221 Y20.5342
G01 X239.5399 Y20.5783
G01 X239.6605 Y20.6142
G01 X239.7833 Y20.6417
G01 X239.9076 Y20.6607
G01 X240.0330 Y20.6712
G01 X240.1588 Y20.6730
G01 X240.2844 Y20.6662
G01 X240.4093 Y20.6508
G01 X240.5328 Y20.6268
G01 X240.6544 Y20.5945
G01 X240.7734 Y20.5538
G01 X240.8894 Y20.5052
G01 X241.0018 Y20.4486
G01 X241.1101 Y20.3845
G01 X241.2137 Y20.3131
G01 X241.3121 Y20.2348
G01 X241.4050 Y20.1499
G01 X241.4918 Y20.0588
G01 X241.5721 Y19.9620
G01 X241.6456 Y19.8599
G01 X241.7120 Y19.7530
G01 X241.7708 Y19.6418
G01 X241.8219 Y19.5269
G01 X241.8650 Y19.4087
G01 X241.8974 Y19.2972
G01 X241.9218 Y19.1836
G01 X241.9382 Y19.0687
G01 X241.9463 Y18.9528
G01 Y18.8367
G01 X241.9380 Y18.7209
G01 X241.9216 Y18.6060
G01 X241.8971 Y18.4925
G01 X241.8646 Y18.3810
G01 X241.8243 Y18.2721
G01 X241.7764 Y18.1663
G01 X241.7211 Y18.0642
G01 X241.6588 Y17.9662
G01 X241.5896 Y17.8729
G01 X241.5141 Y17.7847
G01 X241.4325 Y17.7021
G01 X241.3345 Y17.6170
G01 X241.2310 Y17.5387
G01 X241.1223 Y17.4677
G01 X241.0091 Y17.4043
G01 X240.8918 Y17.3488
G01 X240.7709 Y17.3014
G01 X240.6471 Y17.2624
G01 X240.5210 Y17.2319
G01 X240.3930 Y17.2101
G01 X240.2639 Y17.1971
G01 X240.1342 Y17.1930
G01 X240.0045 Y17.1977
G01 X239.8754 Y17.2113
G01 X239.7475 Y17.2337
G01 X239.6215 Y17.2647
G01 X239.4979 Y17.3043
G01 X239.3773 Y17.3522
G01 X239.2602 Y17.4083
G01 X239.1473 Y17.4722
G01 X239.0389 Y17.5437
G01 X238.9372 Y17.6175
G01 X238.8415 Y17.6989
G01 X238.7524 Y17.7875
G01 X238.6704 Y17.8828
G01 X238.5959 Y17.9841
G01 X238.5296 Y18.0908
G01 X238.4717 Y18.2023
G01 X238.4226 Y18.3180
G01 X238.3826 Y18.4372
G01 X238.3519 Y18.5591
G01 X238.3307 Y18.6829
G01 X238.3192 Y18.8081
G01 X238.3163 Y18.9158
