;Project FamilieRogelWohntHier
;Created by Estlcam version 11 build 11,112
;Machining time about 00:31:33 hours

G90
M03 S18000
G00 X0.0000 Y0.0000 Z0.0000
G00 Z2.0000


;No. 1: Hole 7
G00 X55.2200 Y74.5459
G00 Z0.5000
G01 Z-1.8000 F400 S18000
M106 S200
G01 X61.6862 F800
G01 X60.8459 Y76.0459
G01 X56.0742
G01 X56.3066 Y77.5459
G01 X60.5958
G01 X60.5367 Y79.0459
G01 X56.3644
G01 X56.3720 Y80.5459
G01 X60.5288
G01 Y82.0459
G01 X56.3720
G01 Y83.5459
G01 X60.5288
G01 Y85.0459
G01 X56.3720
G01 Y86.5459
G01 X60.5288
G01 X61.6317 Y88.0459
G01 X56.3720
G01 Y89.5459
G01 X60.5399
G01 X60.5288 Y91.0459
G01 X56.3720
G01 Y92.5459
G01 X60.5288
G01 Y94.0459
G01 X56.3720
G01 Y95.5459
G01 X60.5288
G01 Y97.0459
G01 X56.3720
G01 X56.3657 Y98.5459
G01 X60.5344
G01 X60.6503 Y100.0459
G01 X56.2516
G01 X55.8846 Y101.5459
G01 X61.0243
G01 X56.1311
G01 Y103.0459
G01 X54.9025
M107
G00 Z2.0000
G00 X60.7708 Y101.5459
G00 Z0.5000
G01 Z-1.8000 F400
M106 S200
G01 Y103.0459 F800
G01 X62.0245
M107
G00 Z2.0000
G00 X71.0630 Y74.5459
G00 Z0.5000
G01 Z-1.8000 F400
M106 S200
G01 X77.5682 F800
G01 X76.7279 Y76.0459
G01 X71.9153
G01 X72.1831 Y77.5459
G01 X76.4776
G01 X76.4188 Y79.0459
G01 X72.2522
G01 X72.2537 Y80.5459
G01 X76.4109
G01 Y82.0459
G01 X72.2537
G01 X72.2538 Y83.5459
G01 X76.4110
G01 Y85.0459
G01 X72.2539
G01 Y86.5459
G01 X76.4110
G01 X76.4111 Y88.0459
G01 X72.2540
G01 X72.2541 Y89.5459
G01 X76.4111
G01 Y91.0459
G01 X71.4706
G01 X72.2092 Y92.5459
G01 X76.4112
G01 Y94.0459
G01 X72.2541
G01 Y95.5459
G01 X76.4112
G01 X76.4113 Y97.0459
G01 X72.2541
G01 X72.2474 Y98.5459
G01 X76.4282
G01 X76.5492 Y100.0459
G01 X72.1275
G01 X71.7546 Y101.5459
G01 X76.9018
G01 X72.0133
G01 Y103.0459
G01 X70.7770
M107
G00 Z2.0000
G00 X76.6149 Y101.5459
G00 Z0.5000
G01 Z-1.8000 F400
M106 S200
G01 Y103.0459 F800
G01 X77.8663
M107
G00 Z2.0000
G00 X67.1245 Y88.0459
G00 Z0.5000
G01 Z-1.8000 F400
M106 S200
G01 X64.9938 F800
G01 X65.0093 Y89.5459
G01 X67.9294
M107
G00 Z2.0000
G00 X69.4259 Y91.0459
G00 Z0.5000
G01 Z-1.8000 F400
M106 S200
G01 X70.6365 F800
M107
G00 Z2.0000
G00 Z0.5000
G01 Z-1.8000 F400
M106 S200
G01 X70.6996 Y90.8563 F800
G01 X70.6000 Y90.8127
G01 X70.5415 Y90.7829
G01 X70.0235 Y90.5824
G01 X69.5167 Y90.3550
G01 X69.0226 Y90.1010
G01 X68.5426 Y89.8214
G01 X68.3415 Y89.6646
G01 X68.1541 Y89.4917
G01 X67.9817 Y89.3037
G01 X67.8256 Y89.1020
G01 X67.6869 Y88.8880
G01 X67.5665 Y88.6633
G01 X67.4652 Y88.4292
G01 X67.3837 Y88.1875
G01 X67.2269 Y87.6665
G01 X67.0808 Y87.1424
G01 X66.9454 Y86.6154
G01 X66.8208 Y86.0858
G01 X66.8149 Y86.0538
G01 X66.8068 Y86.0223
G01 X66.7966 Y85.9915
G01 X66.7842 Y85.9614
G01 X66.7697 Y85.9322
G01 X66.7533 Y85.9042
G01 X66.7349 Y85.8774
G01 X66.7147 Y85.8519
G01 X66.6927 Y85.8279
G01 X66.6692 Y85.8054
G01 X66.6441 Y85.7847
G01 X66.6177 Y85.7658
G01 X66.5900 Y85.7487
G01 X66.5612 Y85.7337
G01 X66.5313 Y85.7207
G01 X66.5007 Y85.7098
G01 X66.4907 Y85.7082
G01 X66.4806 Y85.7073
G01 X66.4705 Y85.7072
G01 X66.4604 Y85.7077
G01 X66.4504 Y85.7089
G01 X66.4404 Y85.7108
G01 X66.4307 Y85.7134
G01 X66.4211 Y85.7167
G01 X66.4118 Y85.7206
G01 X66.4027 Y85.7252
G01 X66.3940 Y85.7303
G01 X66.3857 Y85.7361
G01 X66.3778 Y85.7424
G01 X66.3704 Y85.7492
G01 X66.3634 Y85.7566
G01 X66.3570 Y85.7644
G01 X66.3511 Y85.7726
G01 X66.3458 Y85.7812
G01 X66.3411 Y85.7902
G01 X66.3370 Y85.7995
G01 X66.3336 Y85.8090
G01 X66.3309 Y85.8187
G01 X66.3288 Y85.8286
G01 X66.3274 Y85.8386
G01 X65.8931 Y86.6965
G01 X65.8366 Y86.8150
G01 X65.7745 Y86.9306
G01 X65.7069 Y87.0431
G01 X65.6339 Y87.1522
G01 X65.5558 Y87.2576
G01 X65.4727 Y87.3592
G01 X65.3848 Y87.4566
G01 X65.2923 Y87.5497
G01 X65.1954 Y87.6382
G01 X65.0944 Y87.7220
G01 X64.9894 Y87.8008
G01 X64.8808 Y87.8744
G01 X64.7688 Y87.9428
G01 X64.6536 Y88.0056
G01 X64.5355 Y88.0629
G01 X64.4148 Y88.1144
G01 X64.2887 Y88.1523
G01 X64.1610 Y88.1842
G01 X64.0320 Y88.2101
G01 X63.9018 Y88.2299
G01 X63.7709 Y88.2435
G01 X63.6395 Y88.2509
G01 X63.5078 Y88.2521
G01 X63.3763 Y88.2470
G01 X63.2451 Y88.2358
G01 X63.1146 Y88.2183
G01 X62.9851 Y88.1948
G01 X62.8569 Y88.1651
G01 X62.4278 Y88.0771
G01 X62.0054 Y87.9608
G01 X61.5917 Y87.8167
G01 X61.1885 Y87.6455
G01 X61.1204 Y87.5976
G01 X61.0564 Y87.5442
G01 X60.9972 Y87.4856
G01 X60.9430 Y87.4224
G01 X60.8942 Y87.3548
G01 X60.8513 Y87.2834
G01 X60.8144 Y87.2087
G01 X60.7839 Y87.1312
G01 X60.7599 Y87.0514
G01 X60.7427 Y86.9699
G01 X60.7323 Y86.8872
G01 X60.7288 Y86.8040
G01 Y79.9738
G01 X60.7302 Y79.5673
G01 X60.7345 Y79.1295
G01 X60.7440 Y78.6918
G01 X60.7587 Y78.2542
G01 X60.7786 Y77.8168
G01 X60.8029 Y77.4475
G01 X60.8230 Y77.1329
G01 X60.8636 Y76.8204
G01 X60.9245 Y76.5111
G01 X61.0055 Y76.2064
G01 X61.1061 Y75.9077
G01 X61.2261 Y75.6162
G01 X61.3648 Y75.3332
G01 X61.5217 Y75.0598
G01 X61.6534 Y74.8893
G01 X61.7949 Y74.7270
G01 X61.9459 Y74.5733
G01 X62.1057 Y74.4289
G01 X62.2738 Y74.2943
G01 X62.4497 Y74.1698
G01 X62.6326 Y74.0561
G01 X62.8220 Y73.9534
G01 X63.0949 Y73.8065
G01 X63.3675 Y73.6591
G01 X63.6400 Y73.5113
G01 X63.9121 Y73.3630
G01 X63.8597 Y73.3541
G01 X63.8070 Y73.3468
G01 X63.7540 Y73.3411
G01 X63.7010 Y73.3369
G01 X63.4573 Y73.3291
G01 X53.4071
G01 X53.2940 Y73.3252
G01 X53.1810 Y73.3306
G01 X53.0688 Y73.3452
G01 X52.9582 Y73.3689
G01 X53.2348 Y73.4888
G01 X53.5064 Y73.6195
G01 X53.7725 Y73.7610
G01 X54.0329 Y73.9129
G01 X54.2870 Y74.0750
G01 X54.5345 Y74.2471
G01 X54.7749 Y74.4289
G01 X55.0080 Y74.6201
G01 X55.2056 Y74.8330
G01 X55.3849 Y75.0615
G01 X55.5446 Y75.3041
G01 X55.6836 Y75.5591
G01 X55.8011 Y75.8248
G01 X55.8961 Y76.0993
G01 X55.9680 Y76.3807
G01 X56.0164 Y76.6671
G01 X56.0955 Y77.4917
G01 X56.1479 Y78.3184
G01 X56.1734 Y79.1464
G01 X56.1720 Y79.9748
G01 X56.1717 Y98.1954
G01 X56.1761 Y98.5962
G01 X56.1638 Y98.9968
G01 X56.1348 Y99.3965
G01 X56.0891 Y99.7947
G01 X56.0268 Y100.1906
G01 X55.9479 Y100.5836
G01 X55.8527 Y100.9729
G01 X55.7413 Y101.3579
G01 X55.5721 Y101.7419
G01 X55.3702 Y102.1098
G01 X55.1372 Y102.4589
G01 X54.8749 Y102.7865
G01 X54.5852 Y103.0901
G01 X54.2703 Y103.3675
G01 X53.9326 Y103.6166
G01 X53.5746 Y103.8355
G01 X53.4190 Y103.9194
G01 X53.2683 Y104.0118
G01 X53.1229 Y104.1124
G01 X52.9833 Y104.2208
G01 X52.9941 Y104.2220
G01 X53.0252 Y104.2135
G01 X53.1797 Y104.1656
G01 X54.6858 Y103.6541
G01 X55.1115 Y103.5120
G01 X55.5421 Y103.3853
G01 X55.9770 Y103.2742
G01 X56.4155 Y103.1787
G01 X56.8572 Y103.0991
G01 X57.3015 Y103.0353
G01 X57.7478 Y102.9876
G01 X58.1955 Y102.9559
G01 X58.6382 Y102.9606
G01 X59.0803 Y102.9832
G01 X59.5212 Y103.0237
G01 X59.9601 Y103.0819
G01 X60.3963 Y103.1578
G01 X60.8291 Y103.2512
G01 X61.2577 Y103.3620
G01 X61.6815 Y103.4901
G01 X61.9849 Y103.5813
G01 X62.2008 Y103.6493
G01 X63.6841 Y104.1613
G01 X63.7943 Y104.1932
G01 X63.8815 Y104.2161
G01 X63.8742 Y104.2066
G01 X63.8414 Y104.1793
G01 X63.8079 Y104.1530
G01 X63.7738 Y104.1275
G01 X63.7389 Y104.1030
G01 X63.4453 Y103.9316
G01 X63.1610 Y103.7452
G01 X62.8867 Y103.5444
G01 X62.6232 Y103.3297
G01 X62.3711 Y103.1015
G01 X62.1312 Y102.8607
G01 X61.9041 Y102.6077
G01 X61.6904 Y102.3433
G01 X61.5197 Y102.0736
G01 X61.3664 Y101.7937
G01 X61.2310 Y101.5046
G01 X61.1142 Y101.2076
G01 X61.0164 Y100.9037
G01 X60.9380 Y100.5943
G01 X60.8793 Y100.2806
G01 X60.8405 Y99.9638
G01 X60.7947 Y99.5614
G01 X60.7611 Y99.1579
G01 X60.7398 Y98.7535
G01 X60.7307 Y98.3487
G01 X60.7288 Y98.0870
G01 Y89.7190
G01 X60.7337 Y89.6010
G01 X60.7465 Y89.5119
G01 X60.7673 Y89.4244
G01 X60.7959 Y89.3391
G01 X60.8320 Y89.2567
G01 X60.8754 Y89.1779
G01 X60.9257 Y89.1033
G01 X60.9825 Y89.0335
G01 X61.0453 Y88.9691
G01 X61.1137 Y88.9106
G01 X61.1870 Y88.8585
G01 X61.2648 Y88.8132
G01 X61.3463 Y88.7751
G01 X61.4309 Y88.7445
G01 X61.5179 Y88.7215
G01 X61.6066 Y88.7065
G01 X61.6963 Y88.6996
G01 X61.7862 Y88.7007
G01 X61.8757 Y88.7099
G01 X61.9640 Y88.7271
G01 X62.0504 Y88.7521
G01 X71.4164 Y91.9341
G01 X71.4626 Y91.9534
G01 X71.5077 Y91.9750
G01 X71.5517 Y91.9988
G01 X71.5944 Y92.0247
G01 X71.6358 Y92.0528
G01 X71.6757 Y92.0829
G01 X71.7141 Y92.1149
G01 X71.7508 Y92.1488
G01 X71.7858 Y92.1845
G01 X71.8189 Y92.2220
G01 X71.8502 Y92.2610
G01 X71.8794 Y92.3015
G01 X71.9066 Y92.3435
G01 X71.9317 Y92.3868
G01 X71.9545 Y92.4312
G01 X71.9751 Y92.4768
G01 X71.9935 Y92.5233
G01 X72.0094 Y92.5707
G01 X72.0230 Y92.6188
G01 X72.0342 Y92.6675
G01 X72.0429 Y92.7167
G01 X72.0491 Y92.7663
G01 X72.0528 Y92.8162
G01 X72.0541 Y92.8662
G01 Y98.0907
G01 X72.0604 Y98.5102
G01 X72.0485 Y98.9295
G01 X72.0183 Y99.3479
G01 X71.9699 Y99.7647
G01 X71.9033 Y100.1789
G01 X71.8188 Y100.5898
G01 X71.7165 Y100.9967
G01 X71.5965 Y101.3987
G01 X71.4415 Y101.7513
G01 X71.2581 Y102.0900
G01 X71.0475 Y102.4126
G01 X70.8113 Y102.7169
G01 X70.5510 Y103.0009
G01 X70.2683 Y103.2625
G01 X69.9651 Y103.5002
G01 X69.6435 Y103.7122
G01 X69.4491 Y103.8368
G01 X69.1997 Y103.9858
G01 X69.1121 Y104.0386
G01 X69.0270 Y104.0955
G01 X68.9447 Y104.1563
G01 X68.8654 Y104.2209
G01 X68.8761 Y104.2220
G01 X68.9504 Y104.2012
G01 X69.0618 Y104.1656
G01 X70.5679 Y103.6541
G01 X70.9936 Y103.5121
G01 X71.4242 Y103.3854
G01 X71.8590 Y103.2742
G01 X72.2976 Y103.1787
G01 X72.7393 Y103.0991
G01 X73.1835 Y103.0353
G01 X73.6298 Y102.9876
G01 X74.0775 Y102.9559
G01 X74.4564 Y102.9543
G01 X74.8350 Y102.9681
G01 X75.2127 Y102.9971
G01 X75.5890 Y103.0413
G01 X75.9632 Y103.1007
G01 X76.3347 Y103.1751
G01 X76.7029 Y103.2645
G01 X77.0671 Y103.3687
G01 X77.4604 Y103.4747
G01 X78.0066 Y103.6261
G01 X78.0828 Y103.6493
G01 X79.5809 Y104.1663
G01 X79.6372 Y104.1847
G01 X79.7357 Y104.2138
G01 X79.7510 Y104.2179
G01 X79.7716 Y104.2195
G01 X79.5570 Y104.0600
G01 X79.3380 Y103.9068
G01 X79.1145 Y103.7600
G01 X78.8870 Y103.6197
G01 X78.6861 Y103.4855
G01 X78.4921 Y103.3414
G01 X78.3056 Y103.1878
G01 X78.1270 Y103.0251
G01 X77.9567 Y102.8537
G01 X77.7952 Y102.6741
G01 X77.6428 Y102.4866
G01 X77.5000 Y102.2917
G01 X77.3449 Y102.0212
G01 X77.2062 Y101.7420
G01 X77.0841 Y101.4552
G01 X76.9791 Y101.1616
G01 X76.8916 Y100.8624
G01 X76.8219 Y100.5585
G01 X76.7703 Y100.2511
G01 X76.7368 Y99.9411
G01 X76.6874 Y99.4669
G01 X76.6505 Y98.9915
G01 X76.6262 Y98.5154
G01 X76.6145 Y98.0387
G01 X76.6113 Y97.7272
G01 X76.6109 Y79.9739
G01 X76.6130 Y79.4655
G01 X76.6178 Y79.0002
G01 X76.6295 Y78.5351
G01 X76.6481 Y78.0702
G01 X76.6736 Y77.6057
G01 X76.6867 Y77.3076
G01 X76.7169 Y77.0107
G01 X76.7641 Y76.7161
G01 X76.8282 Y76.4247
G01 X76.9089 Y76.1374
G01 X77.0060 Y75.8553
G01 X77.1191 Y75.5792
G01 X77.2480 Y75.3101
G01 X77.3746 Y75.1081
G01 X77.5153 Y74.9157
G01 X77.6692 Y74.7336
G01 X77.8356 Y74.5629
G01 X78.0137 Y74.4044
G01 X78.2025 Y74.2589
G01 X78.4012 Y74.1272
G01 X78.6087 Y74.0098
G01 X78.9031 Y73.8446
G01 X79.1989 Y73.6817
G01 X79.4959 Y73.5212
G01 X79.7942 Y73.3630
G01 X79.7417 Y73.3542
G01 X79.6890 Y73.3469
G01 X79.6361 Y73.3411
G01 X79.5830 Y73.3369
G01 X79.3394 Y73.3291
G01 X69.2891
G01 X69.1759 Y73.3258
G01 X69.0627 Y73.3313
G01 X68.9503 Y73.3455
G01 X68.8393 Y73.3685
G01 X69.5863 Y73.7144
G01 X69.8884 Y73.8636
G01 X70.1765 Y74.0382
G01 X70.4485 Y74.2369
G01 X70.7024 Y74.4584
G01 X70.9363 Y74.7009
G01 X71.1485 Y74.9626
G01 X71.3373 Y75.2416
G01 X71.5014 Y75.5358
G01 X71.6396 Y75.8431
G01 X71.7508 Y76.1611
G01 X71.8342 Y76.4875
G01 X71.8891 Y76.8199
G01 X71.9678 Y77.4386
G01 X72.0216 Y78.0600
G01 X72.0504 Y78.6831
G01 X72.0541 Y79.3068
G01 X72.0532 Y89.9638
G01 X72.0501 Y90.0110
G01 X72.0448 Y90.0579
G01 X72.0373 Y90.1046
G01 X72.0275 Y90.1509
G01 X72.0156 Y90.1966
G01 X72.0015 Y90.2418
G01 X71.9854 Y90.2862
G01 X71.9671 Y90.3298
G01 X71.9468 Y90.3725
G01 X71.9245 Y90.4142
G01 X71.9003 Y90.4547
G01 X71.8741 Y90.4941
G01 X71.8462 Y90.5322
G01 X71.8164 Y90.5690
G01 X71.7850 Y90.6043
G01 X71.7519 Y90.6381
G01 X71.7173 Y90.6702
G01 X71.6811 Y90.7007
G01 X71.6436 Y90.7295
G01 X71.6048 Y90.7564
G01 X71.5647 Y90.7815
G01 X71.5235 Y90.8047
G01 X71.4812 Y90.8259
G01 X71.4380 Y90.8450
G01 X71.3939 Y90.8621
G01 X71.3491 Y90.8771
G01 X71.3036 Y90.8900
G01 X71.2576 Y90.9007
G01 X71.2111 Y90.9092
G01 X71.1642 Y90.9155
G01 X71.1171 Y90.9195
G01 X71.0699 Y90.9214
G01 X71.0226 Y90.9210
G01 X70.9754 Y90.9184
G01 X70.9284 Y90.9135
G01 X70.8816 Y90.9064
G01 X70.8353 Y90.8972
G01 X70.7894 Y90.8857
G01 X70.7442 Y90.8721
G01 X70.6996 Y90.8563
G01 X70.6365 Y91.0459
M107
G00 Z2.0000


;No. 2: Hole 8
G00 X85.6632 Y74.4389 Z2.0000
G00 Z0.5000
G01 Z-1.8000 F400
M106 S200
G01 X89.9541 F800
G01 X89.5188 Y75.9389
G01 X86.0650
G01 X86.1424 Y77.4389
G01 X89.4517
G01 Y78.9389
G01 X86.1440
G01 X86.1441 Y80.4389
G01 X89.4517
G01 Y81.9389
G01 X86.1443
G01 X86.1444 Y83.4389
G01 X89.4517
G01 Y84.9389
G01 X86.1446
G01 X86.1447 Y86.4389
G01 X89.4517
G01 Y87.9389
G01 X86.1280
G01 X85.9224 Y89.4389
G01 X89.4517
G01 Y90.9389
G01 X85.0243
M107
G00 Z2.0000
G00 Z0.5000
G01 Z-1.8000 F400
M106 S200
G01 X84.9773 Y91.1329 F800
G01 X85.0228 Y91.1439
G01 X85.5343 Y91.2674
G01 X86.0388 Y91.4167
G01 X86.5351 Y91.5916
G01 X87.0218 Y91.7914
G01 X87.4977 Y92.0158
G01 X87.9616 Y92.2641
G01 X88.4122 Y92.5357
G01 X88.8485 Y92.8299
G01 X89.1942 Y93.0653
G01 X89.6395 Y93.3788
G01 X89.6517 Y93.3800
G01 Y77.4234
G01 X89.6539 Y77.1102
G01 X89.6586 Y76.8351
G01 X89.6699 Y76.5601
G01 X89.6875 Y76.2855
G01 X89.7116 Y76.0114
G01 X89.7370 Y75.7509
G01 X89.7813 Y75.4929
G01 X89.8441 Y75.2389
G01 X89.9252 Y74.9900
G01 X90.0240 Y74.7476
G01 X90.1401 Y74.5130
G01 X90.2729 Y74.2875
G01 X90.4217 Y74.0722
G01 X90.5856 Y73.8681
G01 X90.7639 Y73.6765
G01 X90.9556 Y73.4983
G01 X91.1597 Y73.3344
G01 X91.1488 Y73.3291
G01 X84.4377
G01 X84.4328 Y73.3396
G01 X84.6368 Y73.4926
G01 X84.8284 Y73.6607
G01 X85.0066 Y73.8431
G01 X85.1703 Y74.0386
G01 X85.3185 Y74.2460
G01 X85.4503 Y74.4642
G01 X85.5651 Y74.6919
G01 X85.6620 Y74.9277
G01 X85.7406 Y75.1702
G01 X85.8004 Y75.4181
G01 X85.8409 Y75.6698
G01 X85.8621 Y75.9239
G01 X85.9013 Y76.3789
G01 X85.9281 Y76.8348
G01 X85.9426 Y77.2912
G01 X85.9448 Y77.7479
G01 X85.9440 Y87.2352
G01 X85.9422 Y87.4397
G01 X85.9382 Y87.6441
G01 X85.9319 Y87.8484
G01 X85.9234 Y88.0527
G01 X85.9186 Y88.3455
G01 X85.8929 Y88.6372
G01 X85.8464 Y88.9263
G01 X85.7793 Y89.2113
G01 X85.6919 Y89.4907
G01 X85.5848 Y89.7632
G01 X85.4584 Y90.0274
G01 X85.3134 Y90.2818
G01 X85.1241 Y90.4887
G01 X84.9195 Y90.6806
G01 X84.7008 Y90.8562
G01 X84.4694 Y91.0146
G01 X84.8187 Y91.0945
G01 X84.9773 Y91.1329
G01 X85.0243 Y90.9389
M107
G00 Z2.0000


;No. 3: Hole 9
G00 X86.3446 Y98.1783 Z2.0000
G00 Z0.5000
G01 Z-1.8000 F400
M106 S200
G01 X89.6472 F800
G01 X89.6473 Y99.6783
G01 X86.3445
M107
G00 Z2.0000
G00 Z0.5000
G01 Z-1.8000 F400
M106 S200
G01 X86.1616 Y99.7590 F800
G01 X86.1681 Y99.7736
G01 X86.2224 Y99.8855
G01 X86.2835 Y99.9938
G01 X86.3511 Y100.0981
G01 X86.4249 Y100.1981
G01 X86.5048 Y100.2934
G01 X86.5903 Y100.3836
G01 X86.6812 Y100.4684
G01 X86.7772 Y100.5475
G01 X86.8778 Y100.6205
G01 X86.9827 Y100.6873
G01 X87.0915 Y100.7474
G01 X87.2037 Y100.8008
G01 X87.3191 Y100.8472
G01 X87.4370 Y100.8865
G01 X87.5572 Y100.9185
G01 X87.6791 Y100.9430
G01 X87.8022 Y100.9600
G01 X87.9262 Y100.9694
G01 X88.0505 Y100.9713
G01 X88.1747 Y100.9655
G01 X88.2983 Y100.9521
G01 X88.4208 Y100.9311
G01 X88.5418 Y100.9027
G01 X88.6609 Y100.8669
G01 X88.7830 Y100.8161
G01 X88.9015 Y100.7576
G01 X89.0161 Y100.6917
G01 X89.1262 Y100.6186
G01 X89.2315 Y100.5385
G01 X89.3314 Y100.4520
G01 X89.4255 Y100.3592
G01 X89.5136 Y100.2605
G01 X89.5951 Y100.1565
G01 X89.6699 Y100.0475
G01 X89.7375 Y99.9339
G01 X89.7977 Y99.8162
G01 X89.8503 Y99.6949
G01 X89.8950 Y99.5705
G01 X89.9316 Y99.4434
G01 X89.9601 Y99.3143
G01 X89.9803 Y99.1837
G01 X89.9920 Y99.0520
G01 X89.9954 Y98.9199
G01 X89.9902 Y98.7878
G01 X89.9767 Y98.6563
G01 X89.9547 Y98.5259
G01 X89.9245 Y98.3972
G01 X89.8861 Y98.2707
G01 X89.8397 Y98.1469
G01 X89.7855 Y98.0263
G01 X89.7236 Y97.9095
G01 X89.6545 Y97.7968
G01 X89.5783 Y97.6888
G01 X89.4953 Y97.5859
G01 X89.4059 Y97.4885
G01 X89.3105 Y97.3970
G01 X89.2094 Y97.3118
G01 X89.1031 Y97.2332
G01 X88.9920 Y97.1616
G01 X88.8765 Y97.0972
G01 X88.7571 Y97.0404
G01 X88.6344 Y96.9913
G01 X88.5088 Y96.9501
G01 X88.3808 Y96.9171
G01 X88.2550 Y96.9001
G01 X88.1284 Y96.8911
G01 X88.0014 Y96.8898
G01 X87.8747 Y96.8964
G01 X87.7486 Y96.9109
G01 X87.6236 Y96.9331
G01 X87.5002 Y96.9630
G01 X87.3790 Y97.0005
G01 X87.2602 Y97.0454
G01 X87.1445 Y97.0975
G01 X87.0322 Y97.1567
G01 X86.9238 Y97.2228
G01 X86.8197 Y97.2954
G01 X86.7203 Y97.3743
G01 X86.6260 Y97.4592
G01 X86.5371 Y97.5498
G01 X86.4539 Y97.6458
G01 X86.3769 Y97.7466
G01 X86.3062 Y97.8521
G01 X86.2422 Y97.9617
G01 X86.1851 Y98.0751
G01 X86.1352 Y98.1918
G01 X86.0925 Y98.3113
G01 X86.0573 Y98.4333
G01 X86.0297 Y98.5572
G01 X86.0099 Y98.6825
G01 X85.9978 Y98.8089
G01 X85.9936 Y98.9358
G01 X85.9953 Y99.0215
G01 X86.0002 Y99.1072
G01 X86.0084 Y99.1926
G01 X86.0198 Y99.2776
G01 X86.0428 Y99.4013
G01 X86.0743 Y99.5231
G01 X86.1139 Y99.6426
G01 X86.1616 Y99.7590
G01 X86.3445 Y99.6783
M107
G00 Z2.0000


;No. 4: Hole 16
G00 X100.9288 Y73.6023 Z2.0000
G00 Z0.5000
G01 Z-1.8000 F400
M106 S200
G01 X106.0201 F800
G01 Y75.1023
G01 X108.3891
G01 X98.5659
G01 X97.3585 Y76.6023
G01 X102.3401
G01 X100.3323
G01 Y78.1023
G01 X96.5915
G01 X96.0881 Y79.6023
G01 X99.2651
G01 X98.6545 Y81.1023
G01 X95.8013
G01 X95.6922 Y82.6023
G01 X98.2604
G01 X99.2653 Y84.1023
G01 X95.7337
G01 X95.9304 Y85.6023
G01 X99.8000
G01 X98.2149 Y87.1023
G01 X96.3039
G01 X96.8822 Y88.6023
G01 X98.4077
G01 X98.9871 Y90.1023
G01 X97.7159
G01 X98.9753 Y91.6023
G01 X100.0637
M107
G00 Z2.0000
G00 X108.1478 Y75.1023
G00 Z0.5000
G01 Z-1.8000 F400
M106 S200
G01 Y76.6023 F800
G01 X109.5467
M107
G00 Z2.0000
G00 X106.2613 Y82.6023
G00 Z0.5000
G01 Z-1.8000 F400
M106 S200
G01 X104.0123 F800
M107
G00 Z2.0000
G00 X106.3138 Y84.1023
G00 Z0.5000
G01 Z-1.8000 F400
M106 S200
G01 X108.2439 F800
G01 X107.2155 Y85.6023
G01 X109.3841
G01 X110.0783 Y87.1023
G01 X107.6249
G01 X107.6999 Y88.6023
G01 X110.4101
G01 X110.4390 Y90.1023
G01 X107.4075
G01 X106.5140 Y91.6023
G01 X110.1973
M107
G00 Z2.0000
G00 X105.8151 Y93.1023
G00 Z0.5000
G01 Z-1.8000 F400
M106 S200
G01 X101.2805 F800
M107
G00 Z2.0000
G00 X101.5764
G00 Z0.5000
G01 Z-1.8000 F400
M106 S200
G01 Y92.4313 F800
G01 X101.5663 Y92.4268
G01 X101.2803 Y92.2725
G01 X101.0040 Y92.1012
G01 X100.7385 Y91.9136
G01 X100.4849 Y91.7103
G01 X100.2439 Y91.4922
G01 X100.0165 Y91.2599
G01 X99.8034 Y91.0144
G01 X99.6056 Y90.7565
G01 X99.4236 Y90.4872
G01 X99.2581 Y90.2074
G01 X99.1098 Y89.9181
G01 X98.9791 Y89.6205
G01 X98.8689 Y89.3546
G01 X98.7682 Y89.0850
G01 X98.6771 Y88.8119
G01 X98.5958 Y88.5359
G01 X98.5243 Y88.2570
G01 X98.4628 Y87.9759
G01 X98.4113 Y87.6927
G01 X98.3699 Y87.4079
G01 X98.3760 Y87.3117
G01 X98.3913 Y87.2165
G01 X98.4157 Y87.1233
G01 X98.4489 Y87.0328
G01 X98.4907 Y86.9460
G01 X98.5407 Y86.8636
G01 X98.5984 Y86.7864
G01 X98.6632 Y86.7150
G01 X98.7346 Y86.6503
G01 X98.8119 Y86.5927
G01 X98.8944 Y86.5429
G01 X98.9813 Y86.5012
G01 X99.0718 Y86.4681
G01 X99.1651 Y86.4438
G01 X99.2603 Y86.4286
G01 X99.3565 Y86.4227
G01 X99.4528 Y86.4260
G01 X99.5483 Y86.4386
G01 X99.6422 Y86.4604
G01 X99.7336 Y86.4911
G01 X99.8216 Y86.5304
G01 X99.9054 Y86.5780
G01 X99.9842 Y86.6335
G01 X100.0573 Y86.6963
G01 X100.1241 Y86.7658
G01 X100.1838 Y86.8415
G01 X100.2360 Y86.9225
G01 X100.2801 Y87.0082
G01 X100.3418 Y87.1545
G01 X100.4112 Y87.2974
G01 X100.4881 Y87.4363
G01 X100.5723 Y87.5710
G01 X100.6635 Y87.7010
G01 X100.7615 Y87.8259
G01 X100.8661 Y87.9455
G01 X100.9768 Y88.0593
G01 X101.0385 Y88.1056
G01 X101.1034 Y88.1474
G01 X101.1711 Y88.1844
G01 X101.2413 Y88.2163
G01 X101.3137 Y88.2431
G01 X101.3878 Y88.2645
G01 X101.4633 Y88.2805
G01 X101.5397 Y88.2910
G01 X101.6167 Y88.2959
G01 X101.6938 Y88.2952
G01 X101.7707 Y88.2890
G01 X101.8470 Y88.2771
G01 X101.9469 Y88.2687
G01 X102.0461 Y88.2542
G01 X102.1442 Y88.2335
G01 X102.2408 Y88.2068
G01 X102.3356 Y88.1741
G01 X102.4282 Y88.1356
G01 X102.5182 Y88.0914
G01 X102.6053 Y88.0418
G01 X102.6892 Y87.9868
G01 X102.7694 Y87.9267
G01 X102.8458 Y87.8618
G01 X102.9180 Y87.7922
G01 X102.9294 Y87.7618
G01 X102.9395 Y87.7310
G01 X102.9486 Y87.6998
G01 X102.9565 Y87.6683
G01 X102.9601 Y87.6516
G01 X102.9587 Y87.6355
G01 X102.8348 Y87.6840
G01 X102.7080 Y87.7243
G01 X102.5788 Y87.7564
G01 X102.4479 Y87.7801
G01 X102.3157 Y87.7953
G01 X102.1828 Y87.8020
G01 X102.0497 Y87.8000
G01 X101.9171 Y87.7895
G01 X101.7854 Y87.7705
G01 X101.6552 Y87.7430
G01 X101.5270 Y87.7072
G01 X101.4014 Y87.6632
G01 X101.2789 Y87.6111
G01 X101.1601 Y87.5513
G01 X101.0453 Y87.4840
G01 X100.9351 Y87.4094
G01 X100.8300 Y87.3278
G01 X100.7303 Y87.2396
G01 X100.6365 Y87.1452
G01 X100.5490 Y87.0450
G01 X100.4682 Y86.9393
G01 X100.3943 Y86.8286
G01 X100.3277 Y86.7133
G01 X100.2687 Y86.5941
G01 X100.2078 Y86.4694
G01 X100.1542 Y86.3414
G01 X100.1083 Y86.2105
G01 X100.0702 Y86.0771
G01 X100.0399 Y85.9417
G01 X100.0177 Y85.8048
G01 X100.0035 Y85.6668
G01 X99.9975 Y85.5282
G01 X99.9977 Y85.4463
G01 X100.0072 Y85.2887
G01 X100.0255 Y85.1319
G01 X100.0525 Y84.9763
G01 X100.0882 Y84.8225
G01 X100.1324 Y84.6710
G01 X100.1851 Y84.5221
G01 X100.2460 Y84.3764
G01 X100.3149 Y84.2344
G01 X100.3917 Y84.0964
G01 X100.4760 Y83.9629
G01 X100.5677 Y83.8344
G01 X100.6665 Y83.7112
G01 X100.7719 Y83.5937
G01 X100.8838 Y83.4823
G01 X101.0018 Y83.3773
G01 X101.1254 Y83.2791
G01 X101.2543 Y83.1880
G01 X101.3881 Y83.1042
G01 X101.5264 Y83.0280
G01 X101.6687 Y82.9597
G01 X101.8147 Y82.8994
G01 X101.9638 Y82.8474
G01 X102.1155 Y82.8038
G01 X102.2695 Y82.7688
G01 X102.6365 Y82.7131
G01 X103.0071 Y82.6923
G01 X103.3780 Y82.7065
G01 X103.7460 Y82.7555
G01 X104.1077 Y82.8390
G01 X104.4599 Y82.9561
G01 X104.7995 Y83.1060
G01 X105.1235 Y83.2871
G01 X105.4291 Y83.4979
G01 X105.7134 Y83.7366
G01 X105.9739 Y84.0009
G01 X106.2084 Y84.2887
G01 X106.4396 Y84.6085
G01 X106.6503 Y84.9422
G01 X106.8397 Y85.2884
G01 X107.0070 Y85.6458
G01 X107.1515 Y86.0130
G01 X107.2728 Y86.3886
G01 X107.3703 Y86.7710
G01 X107.4437 Y87.1587
G01 X107.4926 Y87.5503
G01 X107.5169 Y87.9442
G01 X107.5164 Y88.3388
G01 X107.4912 Y88.7326
G01 X107.4670 Y89.0456
G01 X107.4200 Y89.3559
G01 X107.3505 Y89.6620
G01 X107.2588 Y89.9622
G01 X107.1455 Y90.2549
G01 X107.0111 Y90.5385
G01 X106.8564 Y90.8116
G01 X106.6821 Y91.0727
G01 X106.4892 Y91.3203
G01 X106.2788 Y91.5532
G01 X106.0520 Y91.7701
G01 X105.8099 Y91.9699
G01 X105.5538 Y92.1515
G01 X105.2853 Y92.3139
G01 X105.0055 Y92.4563
G01 X104.7161 Y92.5779
G01 X104.3296 Y92.6877
G01 X103.9346 Y92.7614
G01 X103.5344 Y92.7983
G01 X103.1326 Y92.7981
G01 X102.7325 Y92.7609
G01 X102.3375 Y92.6868
G01 X101.9511 Y92.5767
G01 X101.5764 Y92.4313
G01 Y93.1023
M107
G00 Z2.0000
G00 X101.4789
G00 Z0.5000
G01 Z-1.8000 F400
M106 S200
G01 Y93.3896 F800
G01 X101.8189 Y93.4994
G01 X102.1646 Y93.5894
G01 X102.5149 Y93.6593
G01 X102.8687 Y93.7090
G01 X103.2247 Y93.7383
G01 X103.5819 Y93.7469
G01 X103.9389 Y93.7351
G01 X104.2947 Y93.7027
G01 X104.6480 Y93.6498
G01 X104.9976 Y93.5768
G01 X105.3425 Y93.4837
G01 X105.6815 Y93.3709
G01 X106.7739 Y92.9354
G01 X107.0775 Y92.8239
G01 X107.3884 Y92.7348
G01 X107.7050 Y92.6684
G01 X108.0255 Y92.6252
G01 X108.3483 Y92.6054
G01 X108.6717 Y92.6091
G01 X108.9940 Y92.6363
G01 X109.3135 Y92.6868
G01 X109.7168 Y92.7064
G01 X109.7426 Y92.6988
G01 X109.7680 Y92.6898
G01 X109.7929 Y92.6795
G01 X109.8171 Y92.6678
G01 X109.8407 Y92.6547
G01 X109.8635 Y92.6404
G01 X109.8855 Y92.6248
G01 X109.9066 Y92.6081
G01 X109.9267 Y92.5902
G01 X109.9458 Y92.5712
G01 X109.9639 Y92.5512
G01 X109.9808 Y92.5303
G01 X109.9965 Y92.5084
G01 X110.0110 Y92.4857
G01 X110.0242 Y92.4622
G01 X110.0361 Y92.4381
G01 X110.1575 Y92.2153
G01 X110.2653 Y91.9856
G01 X110.3591 Y91.7498
G01 X110.4385 Y91.5088
G01 X110.5033 Y91.2635
G01 X110.5532 Y91.0147
G01 X110.5880 Y90.7634
G01 X110.6077 Y90.5104
G01 X110.6511 Y90.0574
G01 X110.6684 Y89.6027
G01 X110.6597 Y89.1477
G01 X110.6249 Y88.6940
G01 X110.5641 Y88.2430
G01 X110.4776 Y87.7962
G01 X110.3657 Y87.3551
G01 X110.2286 Y86.9212
G01 X110.0669 Y86.4958
G01 X109.8810 Y86.0804
G01 X109.6717 Y85.6764
G01 X109.4395 Y85.2850
G01 X109.1853 Y84.9076
G01 X108.9099 Y84.5453
G01 X108.6141 Y84.1995
G01 X108.2990 Y83.8711
G01 X107.9385 Y83.5112
G01 X107.5515 Y83.1799
G01 X107.1403 Y82.8792
G01 X106.7072 Y82.6109
G01 X106.2549 Y82.3766
G01 X105.7860 Y82.1776
G01 X105.3032 Y82.0150
G01 X104.8093 Y81.8899
G01 X104.5034 Y81.8314
G01 X104.1940 Y81.7940
G01 X103.8829 Y81.7781
G01 X103.5714 Y81.7838
G01 X103.2610 Y81.8109
G01 X102.9533 Y81.8593
G01 X102.6496 Y81.9289
G01 X102.3514 Y82.0193
G01 X102.0602 Y82.1300
G01 X101.7773 Y82.2606
G01 X101.5041 Y82.4103
G01 X101.2419 Y82.5786
G01 X100.9355 Y82.8173
G01 X100.6442 Y83.0743
G01 X100.3692 Y83.3486
G01 X100.1114 Y83.6391
G01 X100.0388 Y83.7016
G01 X99.9605 Y83.7569
G01 X99.8773 Y83.8044
G01 X99.7900 Y83.8437
G01 X99.6993 Y83.8745
G01 X99.6060 Y83.8965
G01 X99.5111 Y83.9095
G01 X99.4154 Y83.9133
G01 X99.3198 Y83.9079
G01 X99.2251 Y83.8934
G01 X99.1322 Y83.8699
G01 X99.0420 Y83.8377
G01 X98.9553 Y83.7969
G01 X98.8729 Y83.7480
G01 X98.7955 Y83.6915
G01 X98.7240 Y83.6279
G01 X98.6588 Y83.5576
G01 X98.6006 Y83.4815
G01 X98.5501 Y83.4002
G01 X98.5075 Y83.3143
G01 X98.4733 Y83.2249
G01 X98.4479 Y83.1325
G01 X98.4314 Y83.0381
G01 X98.4240 Y82.9426
G01 X98.4269 Y82.8579
G01 X98.4343 Y82.7735
G01 X98.4463 Y82.6896
G01 X98.4627 Y82.6065
G01 X98.5549 Y82.1584
G01 X98.6664 Y81.7147
G01 X98.7972 Y81.2763
G01 X98.9469 Y80.8440
G01 X99.1153 Y80.4187
G01 X99.3021 Y80.0011
G01 X99.5069 Y79.5920
G01 X99.7293 Y79.1922
G01 X99.9929 Y78.8214
G01 X100.2796 Y78.4683
G01 X100.5883 Y78.1343
G01 X100.9178 Y77.8207
G01 X101.2666 Y77.5288
G01 X101.6334 Y77.2598
G01 X102.0167 Y77.0148
G01 X102.4148 Y76.7949
G01 X102.8262 Y76.6008
G01 X103.2492 Y76.4335
G01 X103.6820 Y76.2936
G01 X104.1229 Y76.1816
G01 X104.5497 Y76.1234
G01 X104.9795 Y76.0941
G01 X105.4102 Y76.0939
G01 X105.8400 Y76.1227
G01 X106.2669 Y76.1805
G01 X106.6889 Y76.2669
G01 X107.1041 Y76.3816
G01 X107.5106 Y76.5241
G01 X107.9066 Y76.6937
G01 X108.2902 Y76.8896
G01 X108.6598 Y77.1110
G01 X109.0135 Y77.3567
G01 X109.4665 Y77.7000
G01 X109.9005 Y78.0669
G01 X110.3143 Y78.4564
G01 X110.7068 Y78.8674
G01 X110.5859 Y78.4317
G01 X110.4424 Y78.0030
G01 X110.2768 Y77.5823
G01 X110.0895 Y77.1708
G01 X109.8811 Y76.7697
G01 X109.6521 Y76.3799
G01 X109.4030 Y76.0026
G01 X109.1347 Y75.6387
G01 X108.8620 Y75.3141
G01 X108.5704 Y75.0065
G01 X108.2609 Y74.7169
G01 X107.9346 Y74.4463
G01 X107.5926 Y74.1958
G01 X107.2363 Y73.9662
G01 X106.8668 Y73.7583
G01 X106.4856 Y73.5730
G01 X106.0940 Y73.4108
G01 X105.6933 Y73.2724
G01 X105.2851 Y73.1582
G01 X104.8707 Y73.0687
G01 X104.4518 Y73.0042
G01 X104.0297 Y72.9649
G01 X103.6060 Y72.9509
G01 X103.1823 Y72.9623
G01 X102.9161 Y72.9755
G01 X102.4781 Y73.0180
G01 X102.0434 Y73.0872
G01 X101.6138 Y73.1828
G01 X101.1908 Y73.3044
G01 X100.7760 Y73.4515
G01 X100.3710 Y73.6237
G01 X99.9772 Y73.8202
G01 X99.5961 Y74.0404
G01 X99.2292 Y74.2834
G01 X98.8777 Y74.5483
G01 X98.5430 Y74.8341
G01 X98.2264 Y75.1398
G01 X97.9290 Y75.4642
G01 X97.6520 Y75.8062
G01 X97.3963 Y76.1644
G01 X97.1629 Y76.5375
G01 X96.9020 Y77.0000
G01 X96.6619 Y77.4736
G01 X96.4432 Y77.9574
G01 X96.2462 Y78.4506
G01 X96.0714 Y78.9519
G01 X95.9191 Y79.4606
G01 X95.7897 Y79.9756
G01 X95.6832 Y80.4958
G01 X95.6001 Y81.0202
G01 X95.5404 Y81.5478
G01 X95.5043 Y82.0776
G01 X95.4917 Y82.6084
G01 X95.4891 Y82.7959
G01 X95.4889 Y83.0134
G01 X95.4963 Y83.4690
G01 X95.5183 Y83.9241
G01 X95.5549 Y84.3783
G01 X95.6061 Y84.8311
G01 X95.6718 Y85.2820
G01 X95.7519 Y85.7306
G01 X95.8464 Y86.1764
G01 X95.9552 Y86.6189
G01 X96.0762 Y87.0652
G01 X96.2155 Y87.5061
G01 X96.3728 Y87.9409
G01 X96.5480 Y88.3689
G01 X96.7406 Y88.7892
G01 X96.9504 Y89.2013
G01 X97.1771 Y89.6043
G01 X97.4202 Y89.9977
G01 X97.6793 Y90.3807
G01 X97.9540 Y90.7526
G01 X98.2437 Y91.1130
G01 X98.5481 Y91.4610
G01 X98.8605 Y91.7745
G01 X99.1907 Y92.0691
G01 X99.5376 Y92.3439
G01 X99.9000 Y92.5978
G01 X100.2767 Y92.8302
G01 X100.6663 Y93.0400
G01 X101.0675 Y93.2267
G01 X101.4789 Y93.3896
G01 Y93.1023
M107
G00 Z2.0000


;No. 5: Hole 10
G00 X115.9749 Y73.7879 Z2.0000
G00 Z0.5000
G01 Z-1.8000 F400
M106 S200
G01 X121.0914 F800
G01 X120.3491 Y75.2879
G01 X116.6716
G01 X116.8306 Y76.7879
G01 X120.1782
G01 X120.1715 Y78.2879
G01 X116.8404
G01 Y79.7879
G01 X120.1715
G01 Y81.2879
G01 X116.8404
G01 Y82.7879
G01 X120.1715
G01 Y84.2879
G01 X116.8404
G01 Y85.7879
G01 X120.1735
G01 X120.2792 Y87.2879
G01 X116.8403
G01 X116.7664 Y88.7879
G01 X120.7066
G01 X120.3798 Y90.2879
G01 X116.2283
G01 X118.3466
G01 Y91.7879
G01 X120.1715
M107
G00 Z2.0000
G00 X125.0832 Y88.7879
G00 Z0.5000
G01 Z-1.8000 F400
M106 S200
G01 X126.6549 F800
G01 X128.3005 Y90.2879
G01 X122.3648
G01 X123.1382 Y91.7879
G01 X128.2771
G01 X126.7187 Y93.2879
G01 X124.6444
M107
G00 Z2.0000
G00 Z0.5000
G01 Z-1.8000 F400
M106 S200
G01 X124.5497 Y93.4634 F800
G01 X124.6631 Y93.5197
G01 X124.7792 Y93.5701
G01 X124.8978 Y93.6144
G01 X125.0186 Y93.6524
G01 X125.1411 Y93.6841
G01 X125.2652 Y93.7095
G01 X125.3903 Y93.7283
G01 X125.5163 Y93.7406
G01 X125.6428 Y93.7464
G01 X125.7694 Y93.7455
G01 X125.8958 Y93.7381
G01 X126.0216 Y93.7242
G01 X126.1465 Y93.7037
G01 X126.2702 Y93.6768
G01 X126.3923 Y93.6435
G01 X126.5126 Y93.6038
G01 X126.6306 Y93.5580
G01 X126.7460 Y93.5062
G01 X126.8587 Y93.4484
G01 X126.9681 Y93.3848
G01 X127.0956 Y93.3113
G01 X127.1413 Y93.2803
G01 X127.4101 Y93.0900
G01 X127.6620 Y92.8779
G01 X127.8953 Y92.6454
G01 X128.1084 Y92.3943
G01 X128.2997 Y92.1262
G01 X128.4679 Y91.8431
G01 X128.6119 Y91.5469
G01 X128.7305 Y91.2397
G01 X128.7627 Y91.1426
G01 X128.7859 Y91.0429
G01 X128.7997 Y90.9415
G01 X128.8042 Y90.8393
G01 X128.7992 Y90.7371
G01 X128.7849 Y90.6358
G01 X128.7613 Y90.5362
G01 X128.7286 Y90.4392
G01 X128.5188 Y90.2184
G01 X128.2894 Y90.0180
G01 X128.0424 Y89.8398
G01 X127.7799 Y89.6854
G01 X127.5097 Y89.4572
G01 X127.2565 Y89.2104
G01 X127.0217 Y88.9461
G01 X126.8063 Y88.6657
G01 X126.6115 Y88.3706
G01 X126.4383 Y88.0623
G01 X126.2876 Y87.7425
G01 X126.1602 Y87.4127
G01 X126.0566 Y87.0746
G01 X125.9775 Y86.7300
G01 X125.9232 Y86.3806
G01 X125.8940 Y86.0282
G01 X125.9324 Y85.6328
G01 X125.9952 Y85.2405
G01 X126.0822 Y84.8528
G01 X126.1931 Y84.4713
G01 X126.2208 Y84.3222
G01 X126.1823 Y84.3118
G01 X126.1435 Y84.3031
G01 X126.1043 Y84.2963
G01 X126.0648 Y84.2912
G01 X126.0251 Y84.2880
G01 X125.9853 Y84.2866
G01 X125.9455 Y84.2870
G01 X125.9057 Y84.2892
G01 X125.8661 Y84.2933
G01 X125.8267 Y84.2992
G01 X125.7877 Y84.3068
G01 X125.7490 Y84.3163
G01 X125.7405 Y84.3209
G01 X125.7322 Y84.3259
G01 X125.7242 Y84.3312
G01 X125.7164 Y84.3369
G01 X125.7089 Y84.3429
G01 X125.7016 Y84.3493
G01 X125.6946 Y84.3559
G01 X125.6879 Y84.3629
G01 X125.6124 Y84.4840
G01 X125.5451 Y84.6099
G01 X125.4862 Y84.7400
G01 X125.4360 Y84.8736
G01 X125.3948 Y85.0103
G01 X125.3626 Y85.1493
G01 X125.3396 Y85.2902
G01 X125.3260 Y85.4323
G01 X125.3031 Y85.6288
G01 X125.2853 Y85.8258
G01 X125.2728 Y86.0233
G01 X125.2654 Y86.2209
G01 X125.2703 Y86.4935
G01 X125.2650 Y86.7660
G01 X125.2495 Y87.0381
G01 X125.2238 Y87.3095
G01 X125.1879 Y87.5797
G01 X125.1420 Y87.8483
G01 X125.0860 Y88.1151
G01 X125.0201 Y88.3796
G01 X124.9829 Y88.5070
G01 X124.9380 Y88.6318
G01 X124.8855 Y88.7537
G01 X124.8255 Y88.8720
G01 X124.7584 Y88.9865
G01 X124.6843 Y89.0966
G01 X124.6036 Y89.2019
G01 X124.5165 Y89.3020
G01 X124.4234 Y89.3965
G01 X124.3247 Y89.4852
G01 X124.2207 Y89.5676
G01 X124.1118 Y89.6434
G01 X123.9984 Y89.7123
G01 X123.8810 Y89.7742
G01 X123.7600 Y89.8286
G01 X123.6359 Y89.8755
G01 X123.5091 Y89.9147
G01 X123.3802 Y89.9459
G01 X123.2495 Y89.9692
G01 X123.1177 Y89.9843
G01 X122.9852 Y89.9913
G01 X122.8525 Y89.9901
G01 X122.7202 Y89.9807
G01 X122.5887 Y89.9632
G01 X122.4643 Y89.9416
G01 X122.3414 Y89.9131
G01 X122.2203 Y89.8779
G01 X122.1013 Y89.8359
G01 X121.9848 Y89.7873
G01 X121.8712 Y89.7324
G01 X121.7609 Y89.6711
G01 X121.6541 Y89.6039
G01 X121.5513 Y89.5308
G01 X121.4527 Y89.4520
G01 X121.3586 Y89.3679
G01 X121.2694 Y89.2787
G01 X121.1853 Y89.1846
G01 X121.1066 Y89.0860
G01 X121.0334 Y88.9832
G01 X120.9662 Y88.8764
G01 X120.9049 Y88.7661
G01 X120.8500 Y88.6525
G01 X120.8014 Y88.5361
G01 X120.7594 Y88.4171
G01 X120.6750 Y88.1539
G01 X120.6011 Y87.8876
G01 X120.5380 Y87.6185
G01 X120.4858 Y87.3471
G01 X120.4444 Y87.0739
G01 X120.4141 Y86.7992
G01 X120.3948 Y86.5235
G01 X120.3866 Y86.2472
G01 X120.3802 Y86.0710
G01 X120.3755 Y85.8947
G01 X120.3726 Y85.7184
G01 X120.3715 Y85.5421
G01 X120.3719 Y77.1436
G01 X120.3751 Y76.8892
G01 X120.3841 Y76.6349
G01 X120.3989 Y76.3809
G01 X120.4193 Y76.1273
G01 X120.4389 Y75.8552
G01 X120.4779 Y75.5852
G01 X120.5363 Y75.3188
G01 X120.6136 Y75.0572
G01 X120.7095 Y74.8018
G01 X120.8235 Y74.5540
G01 X120.9551 Y74.3151
G01 X121.1034 Y74.0861
G01 X121.2902 Y73.8706
G01 X121.4946 Y73.6717
G01 X121.7150 Y73.4908
G01 X121.9500 Y73.3291
G01 X115.2261
G01 X115.2502 Y73.3541
G01 X115.5234 Y73.5910
G01 X115.7700 Y73.8554
G01 X115.9872 Y74.1444
G01 X116.1726 Y74.4548
G01 X116.3242 Y74.7830
G01 X116.4401 Y75.1255
G01 X116.5192 Y75.4783
G01 X116.5604 Y75.8375
G01 X116.5951 Y76.1890
G01 X116.6200 Y76.5414
G01 X116.6348 Y76.8943
G01 X116.6398 Y77.2475
G01 X116.6404 Y87.6770
G01 X116.6451 Y87.9513
G01 X116.6350 Y88.2254
G01 X116.6102 Y88.4985
G01 X116.5707 Y88.7699
G01 X116.5166 Y89.0388
G01 X116.4481 Y89.3044
G01 X116.3654 Y89.5659
G01 X116.2687 Y89.8226
G01 X116.2057 Y89.9433
G01 X116.1367 Y90.0607
G01 X116.0617 Y90.1743
G01 X115.9811 Y90.2841
G01 X115.8949 Y90.3895
G01 X115.8035 Y90.4904
G01 X115.7070 Y90.5865
G01 X115.6057 Y90.6775
G01 X115.4999 Y90.7633
G01 X115.3899 Y90.8435
G01 X115.2759 Y90.9180
G01 X115.1583 Y90.9866
G01 X115.1657 Y90.9957
G01 X115.7769 Y91.1023
G01 X116.3806 Y91.2455
G01 X116.9745 Y91.4248
G01 X117.5566 Y91.6395
G01 X118.1247 Y91.8889
G01 X118.6768 Y92.1720
G01 X119.2108 Y92.4878
G01 X119.7248 Y92.8352
G01 X119.8801 Y92.9553
G01 X120.0397 Y93.0694
G01 X120.2036 Y93.1773
G01 X120.3715 Y93.2790
G01 Y90.9809
G01 X120.3727 Y90.9127
G01 X120.3820 Y90.8168
G01 X120.4004 Y90.7222
G01 X120.4279 Y90.6298
G01 X120.4642 Y90.5405
G01 X120.5089 Y90.4551
G01 X120.5616 Y90.3744
G01 X120.6218 Y90.2991
G01 X120.6890 Y90.2300
G01 X120.7626 Y90.1677
G01 X120.8418 Y90.1128
G01 X120.9259 Y90.0657
G01 X121.0142 Y90.0270
G01 X121.1057 Y89.9969
G01 X121.1998 Y89.9758
G01 X121.2954 Y89.9638
G01 X121.3918 Y89.9611
G01 X121.4880 Y89.9677
G01 X121.5830 Y89.9836
G01 X121.6762 Y90.0085
G01 X121.7665 Y90.0422
G01 X121.8531 Y90.0845
G01 X121.9352 Y90.1350
G01 X122.0121 Y90.1931
G01 X122.0831 Y90.2583
G01 X122.1474 Y90.3301
G01 X122.2045 Y90.4077
G01 X122.2539 Y90.4905
G01 X122.2951 Y90.5776
G01 X122.4468 Y90.9567
G01 X122.6235 Y91.3248
G01 X122.8245 Y91.6802
G01 X123.0488 Y92.0214
G01 X123.2954 Y92.3468
G01 X123.5633 Y92.6550
G01 X123.8511 Y92.9446
G01 X124.1577 Y93.2143
G01 X124.2520 Y93.2823
G01 X124.3488 Y93.3466
G01 X124.4481 Y93.4070
G01 X124.5497 Y93.4634
G01 X124.6444 Y93.2879
M107
G00 Z2.0000


;No. 6: Hole 11
G00 X147.9101 Y74.5379 Z2.0000
G00 Z0.5000
G01 Z-1.8000 F400
M106 S200
G01 X151.4521 F800
G01 X151.3519 Y76.0379
G01 X148.0886
G01 X147.7488 Y77.5379
G01 X151.6545
G01 X152.0237 Y79.0379
G01 X147.2336
G01 X146.6879 Y80.5379
G01 X152.3930
G01 X149.6771
G01 Y82.0379
G01 X146.1422
G01 X145.5964 Y83.5379
G01 X149.1255
G01 X148.5738 Y85.0379
G01 X145.0507
G01 X144.5050 Y86.5379
G01 X148.0221
G01 X147.4704 Y88.0379
G01 X143.8792
G01 X142.8041 Y89.5379
G01 X146.9187
G01 X146.3671 Y91.0379
G01 X143.0671
M107
G00 Z2.0000
G00 X158.7499 Y74.5379
G00 Z0.5000
G01 Z-1.8000 F400
M106 S200
G01 X162.4133 F800
G01 X161.9647 Y76.0379
G01 X158.8353
G01 X158.4192 Y77.5379
G01 X162.0619
G01 X162.5543 Y79.0379
G01 X157.8945
G01 X157.3502 Y80.5379
G01 X160.9144
G01 X160.3647 Y82.0379
G01 X156.8059
G01 X156.2616 Y83.5379
G01 X159.8151
G01 X159.2655 Y85.0379
G01 X155.7135
G01 Y86.5379
G01 X153.4254
G01 X158.7159
G01 X158.1663 Y88.0379
G01 X153.7989
G01 X154.1723 Y89.5379
G01 X157.6167
G01 X157.0671 Y91.0379
G01 X154.5458
G01 X154.9795 Y92.5379
G01 X156.4728
M107
G00 Z2.0000
G00 X165.7868 Y86.5379
G00 Z0.5000
G01 Z-1.8000 F400
M106 S200
G01 X166.9810 F800
G01 X167.6181 Y88.0379
G01 X165.7771
G01 X164.7499 Y89.5379
G01 X167.9048
G01 X167.7492 Y91.0379
G01 X161.2575
G01 X161.9095 Y92.5379
G01 X166.8557
M107
G00 Z2.0000
G00 Z0.5000
G01 Z-1.8000 F400
M106 S200
G01 X166.9968 Y92.6801 F800
G01 X167.0223 Y92.6548
G01 X167.2211 Y92.4302
G01 X167.4025 Y92.1913
G01 X167.5655 Y91.9395
G01 X167.7092 Y91.6762
G01 X167.8327 Y91.4029
G01 X167.9354 Y91.1210
G01 X168.0167 Y90.8323
G01 X168.0761 Y90.5383
G01 X168.1133 Y90.2406
G01 X168.1281 Y89.9410
G01 X168.1204 Y89.6411
G01 X168.0903 Y89.3427
G01 X168.0308 Y88.9301
G01 X167.9500 Y88.5213
G01 X167.8480 Y88.1171
G01 X167.7252 Y87.7188
G01 X167.5818 Y87.3275
G01 X167.4182 Y86.9441
G01 X167.2349 Y86.5698
G01 X167.0324 Y86.2055
G01 X166.8478 Y85.8712
G01 X166.6574 Y85.5402
G01 X166.4613 Y85.2125
G01 X166.2594 Y84.8883
G01 X164.0360 Y81.3840
G01 X163.7805 Y80.9874
G01 X163.5386 Y80.5824
G01 X163.3107 Y80.1694
G01 X163.0969 Y79.7488
G01 X162.8975 Y79.3212
G01 X162.7128 Y78.8871
G01 X162.5430 Y78.4470
G01 X162.3882 Y78.0014
G01 X162.2837 Y77.6264
G01 X162.2074 Y77.2446
G01 X162.1597 Y76.8583
G01 X162.1409 Y76.4694
G01 X162.1575 Y76.1755
G01 X162.1935 Y75.8834
G01 X162.2488 Y75.5943
G01 X162.3231 Y75.3094
G01 X162.4161 Y75.0302
G01 X162.5274 Y74.7577
G01 X162.6565 Y74.4931
G01 X162.8029 Y74.2378
G01 X162.9658 Y73.9926
G01 X163.1447 Y73.7588
G01 X163.3386 Y73.5374
G01 X163.5468 Y73.3292
G01 X157.6925 Y73.3291
G01 X157.6800 Y73.3321
G01 X157.9226 Y73.5718
G01 X158.1407 Y73.8339
G01 X158.3323 Y74.1159
G01 X158.4956 Y74.4152
G01 X158.5753 Y74.6944
G01 X158.6321 Y74.9791
G01 X158.6656 Y75.2675
G01 X158.6756 Y75.5577
G01 X158.6620 Y75.8478
G01 X158.6249 Y76.1357
G01 X158.5647 Y76.4198
G01 X158.4815 Y76.6980
G01 X158.2654 Y77.3586
G01 X158.1068 Y77.8663
G01 X155.5638 Y84.8747
G01 X155.5302 Y84.9602
G01 X155.4890 Y85.0422
G01 X155.4404 Y85.1201
G01 X155.3848 Y85.1932
G01 X155.3228 Y85.2610
G01 X155.2548 Y85.3227
G01 X155.1814 Y85.3779
G01 X155.1033 Y85.4262
G01 X155.0211 Y85.4671
G01 X154.9355 Y85.5003
G01 X154.8472 Y85.5256
G01 X154.7569 Y85.5426
G01 X154.6655 Y85.5512
G01 X154.5737 Y85.5515
G01 X154.4822 Y85.5433
G01 X154.3919 Y85.5267
G01 X154.3034 Y85.5019
G01 X154.2177 Y85.4692
G01 X154.1352 Y85.4287
G01 X154.0569 Y85.3808
G01 X153.9832 Y85.3259
G01 X153.9150 Y85.2645
G01 X153.8526 Y85.1971
G01 X153.7967 Y85.1243
G01 X153.7476 Y85.0466
G01 X153.7060 Y84.9648
G01 X153.6720 Y84.8795
G01 X153.6459 Y84.7914
G01 X151.7565 Y77.1156
G01 X151.6528 Y76.6708
G01 X151.5765 Y76.2205
G01 X151.5279 Y75.7664
G01 X151.5073 Y75.3102
G01 X151.5196 Y75.1553
G01 X151.5411 Y75.0015
G01 X151.5717 Y74.8492
G01 X151.6113 Y74.6990
G01 X151.6596 Y74.5514
G01 X151.7167 Y74.4070
G01 X151.7822 Y74.2661
G01 X151.8559 Y74.1294
G01 X151.9376 Y73.9973
G01 X152.0269 Y73.8702
G01 X152.1236 Y73.7487
G01 X152.2274 Y73.6331
G01 X152.5237 Y73.3306
G01 X152.4842 Y73.3291
G01 X146.9032
G01 X146.8124 Y73.3309
G01 X146.7771 Y73.3404
G01 X146.9759 Y73.5145
G01 X147.1593 Y73.7048
G01 X147.3260 Y73.9098
G01 X147.4749 Y74.1281
G01 X147.6048 Y74.3582
G01 X147.7150 Y74.5984
G01 X147.8045 Y74.8470
G01 X147.8728 Y75.1023
G01 X147.8959 Y75.3426
G01 X147.9059 Y75.5838
G01 X147.9027 Y75.8252
G01 X147.8864 Y76.0661
G01 X147.8569 Y76.3057
G01 X147.8144 Y76.5434
G01 X147.7590 Y76.7784
G01 X147.6908 Y77.0100
G01 X147.5973 Y77.3440
G01 X147.4971 Y77.6762
G01 X147.3903 Y78.0062
G01 X147.2768 Y78.3341
G01 X144.1378 Y86.9620
G01 X143.9996 Y87.3381
G01 X143.8380 Y87.7046
G01 X143.6534 Y88.0602
G01 X143.4468 Y88.4034
G01 X143.2189 Y88.7329
G01 X142.9706 Y89.0472
G01 X142.7029 Y89.3453
G01 X142.4169 Y89.6258
G01 X142.1127 Y89.8675
G01 X141.7875 Y90.0801
G01 X141.4440 Y90.2617
G01 X141.0852 Y90.4109
G01 X141.5234 Y90.5467
G01 X141.9531 Y90.7075
G01 X142.3729 Y90.8925
G01 X142.7814 Y91.1014
G01 X143.1773 Y91.3332
G01 X143.5592 Y91.5874
G01 X143.9260 Y91.8630
G01 X144.2763 Y92.1592
G01 X144.6417 Y92.4778
G01 X144.9980 Y92.8065
G01 X145.3450 Y93.1450
G01 X145.6823 Y93.4931
G01 X145.6901 Y93.4785
G01 X145.7047 Y93.4374
G01 X145.7617 Y93.2633
G01 X150.0774 Y81.5289
G01 X150.1112 Y81.4438
G01 X150.1527 Y81.3622
G01 X150.2015 Y81.2847
G01 X150.2571 Y81.2119
G01 X150.3192 Y81.1446
G01 X150.3872 Y81.0832
G01 X150.4605 Y81.0283
G01 X150.5385 Y80.9804
G01 X150.6206 Y80.9397
G01 X150.7061 Y80.9068
G01 X150.7942 Y80.8818
G01 X150.8842 Y80.8650
G01 X150.9754 Y80.8564
G01 X151.0670 Y80.8563
G01 X151.1582 Y80.8645
G01 X151.2483 Y80.8811
G01 X151.3364 Y80.9058
G01 X151.4220 Y80.9385
G01 X151.5042 Y80.9788
G01 X151.5824 Y81.0266
G01 X151.6558 Y81.0812
G01 X151.7240 Y81.1424
G01 X151.7863 Y81.2095
G01 X151.8422 Y81.2821
G01 X151.8912 Y81.3594
G01 X151.9329 Y81.4410
G01 X151.9670 Y81.5260
G01 X151.9932 Y81.6137
G01 X154.4929 Y91.6530
G01 X154.5335 Y91.8072
G01 X154.5765 Y91.9608
G01 X154.6217 Y92.1137
G01 X154.6693 Y92.2659
G01 X154.6968 Y92.3643
G01 X154.7282 Y92.4615
G01 X154.7636 Y92.5574
G01 X154.8028 Y92.6517
G01 X154.8457 Y92.7444
G01 X154.8924 Y92.8353
G01 X154.9427 Y92.9242
G01 X154.9966 Y93.0110
G01 X155.1157 Y93.0421
G01 X155.2362 Y93.0673
G01 X155.3578 Y93.0866
G01 X155.4802 Y93.0999
G01 X155.6031 Y93.1071
G01 X155.7262 Y93.1083
G01 X155.8493 Y93.1035
G01 X155.9719 Y93.0927
G01 X156.0938 Y93.0758
G01 X156.2148 Y93.0530
G01 X156.3345 Y93.0243
G01 X156.4527 Y92.9897
G01 X156.6275 Y92.6668
G01 X156.7864 Y92.3357
G01 X156.9290 Y91.9973
G01 X157.0549 Y91.6524
G01 X161.1265 Y80.5403
G01 X161.1614 Y80.4526
G01 X161.2044 Y80.3685
G01 X161.2552 Y80.2888
G01 X161.3133 Y80.2143
G01 X161.3781 Y80.1456
G01 X161.4492 Y80.0833
G01 X161.5258 Y80.0281
G01 X161.6073 Y79.9802
G01 X161.6929 Y79.9403
G01 X161.7819 Y79.9087
G01 X161.8735 Y79.8855
G01 X161.9669 Y79.8712
G01 X162.0612 Y79.8657
G01 X162.1556 Y79.8691
G01 X162.2492 Y79.8814
G01 X162.3413 Y79.9025
G01 X162.4310 Y79.9322
G01 X162.5175 Y79.9702
G01 X162.6000 Y80.0162
G01 X162.6778 Y80.0698
G01 X162.7502 Y80.1305
G01 X162.8166 Y80.1977
G01 X162.8763 Y80.2710
G01 X162.9288 Y80.3495
G01 X163.2583 Y80.8824
G01 X163.5735 Y81.4240
G01 X163.8741 Y81.9738
G01 X164.1599 Y82.5314
G01 X164.4307 Y83.0965
G01 X164.6863 Y83.6687
G01 X164.9265 Y84.2474
G01 X165.1511 Y84.8324
G01 X165.2680 Y85.1539
G01 X165.3695 Y85.4807
G01 X165.4552 Y85.8120
G01 X165.5250 Y86.1470
G01 X165.5787 Y86.4849
G01 X165.6163 Y86.8251
G01 X165.6375 Y87.1666
G01 X165.6424 Y87.5087
G01 X165.6413 Y87.6382
G01 X165.6324 Y87.7673
G01 X165.6157 Y87.8957
G01 X165.5912 Y88.0228
G01 X165.5590 Y88.1482
G01 X165.5193 Y88.2714
G01 X165.4721 Y88.3920
G01 X165.4177 Y88.5094
G01 X165.3562 Y88.6234
G01 X165.2879 Y88.7334
G01 X165.2131 Y88.8390
G01 X165.1320 Y88.9399
G01 X165.0449 Y89.0357
G01 X164.9521 Y89.1260
G01 X164.8540 Y89.2105
G01 X164.7510 Y89.2889
G01 X164.6434 Y89.3608
G01 X164.5316 Y89.4261
G01 X164.4160 Y89.4845
G01 X164.2972 Y89.5357
G01 X164.1687 Y89.5809
G01 X164.0372 Y89.6168
G01 X163.9036 Y89.6432
G01 X163.7684 Y89.6600
G01 X163.6324 Y89.6670
G01 X163.4962 Y89.6642
G01 X163.3605 Y89.6518
G01 X163.2261 Y89.6296
G01 X163.0937 Y89.5979
G01 X162.9638 Y89.5567
G01 X162.8372 Y89.5064
G01 X162.7146 Y89.4471
G01 X162.5965 Y89.3792
G01 X162.4835 Y89.3030
G01 X162.3763 Y89.2190
G01 X162.2755 Y89.1274
G01 X162.2143 Y89.0575
G01 X162.1568 Y88.9844
G01 X162.1032 Y88.9084
G01 X162.0536 Y88.8298
G01 X162.0083 Y88.7486
G01 X161.9672 Y88.6653
G01 X161.9305 Y88.5798
G01 X161.8983 Y88.4926
G01 X161.7079 Y88.7166
G01 X161.5388 Y88.9570
G01 X161.3921 Y89.2117
G01 X161.2692 Y89.4787
G01 X161.1711 Y89.7558
G01 X161.0986 Y90.0406
G01 X161.0523 Y90.3309
G01 X161.0325 Y90.6241
G01 X161.0343 Y90.7383
G01 X161.0396 Y90.8524
G01 X161.0482 Y90.9663
G01 X161.0603 Y91.0799
G01 X161.1229 Y91.4215
G01 X161.2244 Y91.7536
G01 X161.3634 Y92.0719
G01 X161.5379 Y92.3722
G01 X161.7458 Y92.6505
G01 X161.9842 Y92.9030
G01 X162.2501 Y93.1265
G01 X162.5398 Y93.3181
G01 X162.8496 Y93.4751
G01 X163.1754 Y93.5955
G01 X163.5128 Y93.6777
G01 X163.8575 Y93.7207
G01 X164.1415 Y93.7489
G01 X164.4268 Y93.7554
G01 X164.7118 Y93.7402
G01 X164.9948 Y93.7033
G01 X165.2741 Y93.6450
G01 X165.5482 Y93.5656
G01 X165.8155 Y93.4656
G01 X166.0744 Y93.3455
G01 X166.3234 Y93.2060
G01 X166.5610 Y93.0480
G01 X166.7859 Y92.8723
G01 X166.9968 Y92.6801
G01 X166.8557 Y92.5379
M107
G00 Z2.0000


;No. 7: Hole 12
G00 X175.4014 Y74.3770 Z2.0000
G00 Z0.5000
G01 Z-1.8000 F400
M106 S200
G01 X183.0453 F800
G01 X184.5451 Y75.8770
G01 X173.7809
G01 X172.6689 Y77.3770
G01 X178.0633
G01 X175.9253
G01 Y78.8770
G01 X171.8954
G01 X171.3815 Y80.3770
G01 X174.7168
G01 X173.9088 Y81.8770
G01 X171.0850
G01 X170.9846 Y83.3770
G01 X173.3473
G01 X172.9987 Y84.8770
G01 X171.0780
G01 X171.3767 Y86.3770
G01 X172.8380
M107
G00 Z2.0000
G00 X182.4766 Y75.8770
G00 Z0.5000
G01 Z-1.8000 F400
M106 S200
G01 Y77.3770 F800
G01 X185.4453
G01 X186.0425 Y78.8770
G01 X184.3288
G01 X185.2382 Y80.3770
G01 X186.4236
M107
G00 Z2.0000
G00 X186.3929 Y86.3770
G00 Z0.5000
G01 Z-1.8000 F400
M106 S200
G01 X185.2540 F800
G01 X186.0035 Y87.8770
G01 X184.4641
G01 X185.4007 Y89.3770
G01 X182.8997
G01 X184.5035 Y90.8770
G01 X176.6054
G01 X176.7396 Y89.3770
G01 X179.6250
M107
G00 Z2.0000
G00 X177.2056 Y90.8770
G00 Z0.5000
G01 Z-1.8000 F400
M106 S200
G01 Y92.3770 F800
G01 X183.1024
M107
G00 Z2.0000
G00 Z0.5000
G01 Z-1.8000 F400
M106 S200
G01 X183.2310 Y92.5301 F800
G01 X183.5521 Y92.2396
G01 X183.8598 Y91.9349
G01 X184.1537 Y91.6168
G01 X184.4330 Y91.2859
G01 X184.6973 Y90.9429
G01 X184.9460 Y90.5884
G01 X185.1786 Y90.2231
G01 X185.3947 Y89.8478
G01 X185.5938 Y89.4633
G01 X185.7755 Y89.0702
G01 X185.9394 Y88.6694
G01 X186.0853 Y88.2616
G01 X186.3168 Y87.5005
G01 X186.5096 Y86.7286
G01 X186.6631 Y85.9480
G01 X186.7770 Y85.1606
G01 X186.8509 Y84.3685
G01 X186.8847 Y83.5737
G01 X186.8784 Y82.7781
G01 X186.8318 Y81.9839
G01 X186.7452 Y81.1931
G01 X186.6187 Y80.4077
G01 X186.4527 Y79.6296
G01 X186.2476 Y78.8609
G01 X186.0812 Y78.3451
G01 X185.8864 Y77.8392
G01 X185.6636 Y77.3451
G01 X185.4137 Y76.8641
G01 X185.1374 Y76.3978
G01 X184.8355 Y75.9476
G01 X184.5090 Y75.5150
G01 X184.1589 Y75.1012
G01 X183.8612 Y74.7907
G01 X183.5439 Y74.5003
G01 X183.2083 Y74.2313
G01 X182.8558 Y73.9849
G01 X182.4879 Y73.7620
G01 X182.1063 Y73.5637
G01 X181.7124 Y73.3908
G01 X181.3082 Y73.2440
G01 X180.8951 Y73.1239
G01 X180.4751 Y73.0312
G01 X180.0500 Y72.9661
G01 X179.6215 Y72.9290
G01 X179.1915 Y72.9200
G01 X178.7618 Y72.9392
G01 X178.3343 Y72.9864
G01 X177.9108 Y73.0615
G01 X177.4574 Y73.1651
G01 X177.0126 Y73.3007
G01 X176.5785 Y73.4675
G01 X176.1574 Y73.6648
G01 X175.7514 Y73.8915
G01 X175.3626 Y74.1466
G01 X174.9928 Y74.4286
G01 X174.6441 Y74.7362
G01 X174.2080 Y75.1429
G01 X173.7937 Y75.5718
G01 X173.4023 Y76.0217
G01 X173.0349 Y76.4914
G01 X172.6924 Y76.9796
G01 X172.3759 Y77.4850
G01 X172.0861 Y78.0062
G01 X171.8239 Y78.5418
G01 X171.5899 Y79.0903
G01 X171.3849 Y79.6503
G01 X171.2093 Y80.2202
G01 X171.0636 Y80.7985
G01 X170.9483 Y81.3835
G01 X170.8636 Y81.9738
G01 X170.8098 Y82.5677
G01 X170.7870 Y83.1636
G01 X170.7845 Y83.3672
G01 X170.7856 Y83.5706
G01 X170.7963 Y84.0393
G01 X170.8280 Y84.5071
G01 X170.8805 Y84.9731
G01 X170.9536 Y85.4362
G01 X171.0474 Y85.8956
G01 X171.1616 Y86.3503
G01 X171.2959 Y86.7996
G01 X171.4501 Y87.2423
G01 X171.6238 Y87.6778
G01 X171.8169 Y88.1051
G01 X172.0287 Y88.5234
G01 X172.2590 Y88.9318
G01 X172.5220 Y89.3332
G01 X172.8129 Y89.7149
G01 X173.1303 Y90.0748
G01 X173.4726 Y90.4111
G01 X173.3702 Y90.0014
G01 X173.2808 Y89.5887
G01 X173.2044 Y89.1734
G01 X173.1411 Y88.7559
G01 X173.0910 Y88.3366
G01 X173.0541 Y87.9160
G01 X173.0305 Y87.4944
G01 X173.0202 Y87.0722
G01 X173.0220 Y86.8565
G01 X173.0271 Y86.6408
G01 X173.0356 Y86.4252
G01 X173.0474 Y86.2098
G01 X173.0936 Y85.6300
G01 X173.1683 Y85.0533
G01 X173.2714 Y84.4809
G01 X173.4026 Y83.9143
G01 X173.5616 Y83.3549
G01 X173.7480 Y82.8039
G01 X173.9614 Y82.2629
G01 X174.2012 Y81.7331
G01 X174.4669 Y81.2157
G01 X174.7578 Y80.7121
G01 X175.0732 Y80.2234
G01 X175.4123 Y79.7509
G01 X175.6397 Y79.4636
G01 X175.8820 Y79.1886
G01 X176.1385 Y78.9268
G01 X176.4084 Y78.6790
G01 X176.6910 Y78.4457
G01 X176.9856 Y78.2277
G01 X177.2912 Y78.0255
G01 X177.6071 Y77.8397
G01 X177.9324 Y77.6709
G01 X178.2661 Y77.5195
G01 X178.6074 Y77.3859
G01 X178.9552 Y77.2706
G01 X179.3248 Y77.1812
G01 X179.7002 Y77.1207
G01 X180.0791 Y77.0895
G01 X180.4593 Y77.0878
G01 X180.8385 Y77.1154
G01 X181.2144 Y77.1724
G01 X181.5848 Y77.2583
G01 X181.9474 Y77.3726
G01 X182.3001 Y77.5147
G01 X182.6407 Y77.6837
G01 X182.9672 Y77.8785
G01 X183.2776 Y78.0980
G01 X183.5701 Y78.3410
G01 X183.8429 Y78.6058
G01 X184.0944 Y78.8910
G01 X184.3230 Y79.1948
G01 X184.5685 Y79.5632
G01 X184.7906 Y79.9462
G01 X184.9884 Y80.3422
G01 X185.1614 Y80.7497
G01 X185.3087 Y81.1672
G01 X185.4297 Y81.5931
G01 X185.5242 Y82.0256
G01 X185.5915 Y82.4631
G01 X185.6316 Y82.9040
G01 X185.6442 Y83.3466
G01 X185.6294 Y83.7890
G01 X185.5871 Y84.2297
G01 X185.5388 Y84.6197
G01 X185.4699 Y85.0067
G01 X185.3806 Y85.3894
G01 X185.2711 Y85.7668
G01 X185.1417 Y86.1380
G01 X184.9929 Y86.5017
G01 X184.8250 Y86.8570
G01 X184.6384 Y87.2030
G01 X184.4338 Y87.5385
G01 X184.2117 Y87.8628
G01 X183.9727 Y88.1748
G01 X183.7175 Y88.4736
G01 X183.5404 Y88.6602
G01 X183.3501 Y88.8332
G01 X183.1475 Y88.9918
G01 X182.9337 Y89.1349
G01 X182.7100 Y89.2619
G01 X182.4776 Y89.3721
G01 X182.2376 Y89.4649
G01 X181.9915 Y89.5397
G01 X181.7405 Y89.5962
G01 X181.4861 Y89.6340
G01 X181.2295 Y89.6529
G01 X180.9723
G01 X180.8350 Y89.6389
G01 X180.6987 Y89.6172
G01 X180.5639 Y89.5877
G01 X180.4309 Y89.5507
G01 X180.3003 Y89.5062
G01 X180.1724 Y89.4543
G01 X180.0476 Y89.3953
G01 X179.9264 Y89.3293
G01 X179.8091 Y89.2566
G01 X179.6961 Y89.1774
G01 X179.5878 Y89.0918
G01 X179.4845 Y89.0003
G01 X179.3866 Y88.9031
G01 X179.2943 Y88.8004
G01 X179.2080 Y88.6927
G01 X179.1279 Y88.5803
G01 X179.0543 Y88.4636
G01 X178.9875 Y88.3428
G01 X178.9275 Y88.2185
G01 X178.8748 Y88.0910
G01 X178.8293 Y87.9607
G01 X178.7913 Y87.8280
G01 X178.7609 Y87.6934
G01 X178.7381 Y87.5573
G01 X178.7301 Y87.4281
G01 X178.7279 Y87.3091
G01 X178.7368 Y87.2095
G01 X178.7659 Y87.0017
G01 X178.7464 Y86.9996
G01 X178.4921 Y87.1052
G01 X178.2466 Y87.2298
G01 X178.0113 Y87.3726
G01 X177.7875 Y87.5329
G01 X177.5765 Y87.7098
G01 X177.3795 Y87.9021
G01 X177.1977 Y88.1088
G01 X177.0321 Y88.3287
G01 X176.8837 Y88.5606
G01 X176.7533 Y88.8030
G01 X176.6416 Y89.0547
G01 X176.5494 Y89.3141
G01 X176.4815 Y89.5586
G01 X176.4309 Y89.8073
G01 X176.3979 Y90.0589
G01 X176.3824 Y90.3123
G01 X176.3804 Y90.4378
G01 X176.3810 Y90.5215
G01 X176.3908 Y90.7732
G01 X176.4199 Y91.0233
G01 X176.4681 Y91.2704
G01 X176.5352 Y91.5131
G01 X176.6208 Y91.7499
G01 X176.7242 Y91.9795
G01 X176.8451 Y92.2004
G01 X176.9825 Y92.4114
G01 X177.1518 Y92.6419
G01 X177.3411 Y92.8564
G01 X177.5489 Y93.0530
G01 X177.7734 Y93.2302
G01 X178.0129 Y93.3866
G01 X178.2655 Y93.5208
G01 X178.5290 Y93.6319
G01 X178.8015 Y93.7190
G01 X179.0807 Y93.7812
G01 X179.3643 Y93.8182
G01 X179.6502 Y93.8296
G01 X179.9358 Y93.8154
G01 X180.3846 Y93.7788
G01 X180.8287 Y93.7051
G01 X181.2652 Y93.5948
G01 X181.6911 Y93.4488
G01 X182.1034 Y93.2679
G01 X182.4993 Y93.0535
G01 X182.8760 Y92.8070
G01 X183.2310 Y92.5301
G01 X183.1024 Y92.3770
M107
G00 Z2.0000


;No. 8: Hole 13
G00 X192.1958 Y74.1052 Z2.0000
G00 Z0.5000
G01 Z-1.8000 F400
M106 S200
G01 X196.8914 F800
G01 X196.3182 Y75.6052
G01 X192.7694
G01 X192.8905 Y77.1052
G01 X196.2084
G01 X196.2065 Y78.6052
G01 X192.8994
G01 X192.8993 Y80.1052
G01 X196.2065
G01 Y81.6052
G01 X192.8993
G01 Y83.1052
G01 X196.2065
G01 Y84.6052
G01 X192.8993
G01 Y86.1052
G01 X196.2087
G01 X196.3496 Y87.6052
G01 X192.8993
G01 X192.8992 Y89.1052
G01 X196.8137
G01 X197.9341 Y90.6052
G01 X192.8992
G01 Y92.1052
G01 X196.2062
G01 Y93.6052
G01 X192.8992
G01 Y95.1052
G01 X196.2062
G01 Y96.6052
G01 X192.8991
G01 Y98.1052
G01 X196.2062
G01 Y99.6052
G01 X192.8687
G01 X192.5565 Y101.1052
G01 X196.2062
G01 Y102.6052
G01 X192.9919
M107
G00 Z2.0000
G00 X203.5890 Y74.1052
G00 Z0.5000
G01 Z-1.8000 F400
M106 S200
G01 X208.2326 F800
G01 X207.6638 Y75.6052
G01 X204.1448
G01 X204.2703 Y77.1052
G01 X207.5285
G01 X207.5231 Y78.6052
G01 X204.2888
G01 Y80.1052
G01 X207.5230
G01 Y81.6052
G01 X204.2888
G01 X204.2887 Y83.1052
G01 X207.5229
G01 Y84.6052
G01 X204.2887
G01 Y86.1052
G01 X207.5228
G01 Y87.6052
G01 X204.2225
G01 X203.8965 Y89.1052
G01 X207.4762
G01 X207.2093 Y90.6052
G01 X202.9545
G01 X206.3889
G01 Y92.1052
G01 X199.1718
M107
G00 Z2.0000
G00 Z0.5000
G01 Z-1.8000 F400
M106 S200
G01 X199.0402 Y92.2558 F800
G01 X199.0555 Y92.2691
G01 X199.3074 Y92.4886
G01 X199.5718 Y92.6929
G01 X199.8478 Y92.8812
G01 X200.1344 Y93.0529
G01 X200.4306 Y93.2074
G01 X200.7354 Y93.3442
G01 X201.0478 Y93.4628
G01 X201.3666 Y93.5628
G01 X201.6907 Y93.6438
G01 X202.0191 Y93.7056
G01 X202.3505 Y93.7479
G01 X202.6838 Y93.7706
G01 X203.0387 Y93.7709
G01 X203.3927 Y93.7469
G01 X203.7443 Y93.6985
G01 X204.0917 Y93.6262
G01 X204.4333 Y93.5301
G01 X204.7675 Y93.4108
G01 X205.0928 Y93.2689
G01 X205.4075 Y93.1049
G01 X205.7102 Y92.9197
G01 X205.9995 Y92.7142
G01 X206.2739 Y92.4892
G01 X206.5323 Y92.2460
G01 X206.7449 Y91.9769
G01 X206.9367 Y91.6927
G01 X207.1067 Y91.3949
G01 X207.2538 Y91.0852
G01 X207.3772 Y90.7653
G01 X207.4763 Y90.4370
G01 X207.5505 Y90.1023
G01 X207.5993 Y89.7629
G01 X207.6557 Y89.3153
G01 X207.6951 Y88.8658
G01 X207.7174 Y88.4152
G01 X207.7228 Y87.9641
G01 X207.7231 Y77.4409
G01 X207.7265 Y77.1506
G01 X207.7364 Y76.8604
G01 X207.7528 Y76.5705
G01 X207.7758 Y76.2811
G01 X207.7944 Y76.0107
G01 X207.8301 Y75.7420
G01 X207.8828 Y75.4762
G01 X207.9523 Y75.2142
G01 X208.0384 Y74.9572
G01 X208.1406 Y74.7062
G01 X208.2586 Y74.4622
G01 X208.3918 Y74.2263
G01 X208.5794 Y73.9800
G01 X208.7840 Y73.7476
G01 X209.0045 Y73.5303
G01 X209.2399 Y73.3291
G01 X202.5688
G01 X202.5874 Y73.3496
G01 X202.7812 Y73.5001
G01 X202.9634 Y73.6642
G01 X203.1332 Y73.8413
G01 X203.2897 Y74.0302
G01 X203.4319 Y74.2301
G01 X203.5592 Y74.4398
G01 X203.6708 Y74.6582
G01 X203.7662 Y74.8842
G01 X203.8448 Y75.1166
G01 X203.9063 Y75.3541
G01 X203.9503 Y75.5954
G01 X203.9766 Y75.8393
G01 X204.0311 Y76.4387
G01 X204.0680 Y77.0394
G01 X204.0872 Y77.6409
G01 X204.0888 Y78.2428
G01 X204.0882 Y86.4463
G01 X204.0893 Y86.8018
G01 X204.0737 Y87.1570
G01 X204.0414 Y87.5111
G01 X203.9924 Y87.8633
G01 X203.9269 Y88.2128
G01 X203.8451 Y88.5588
G01 X203.7470 Y88.9005
G01 X203.6329 Y89.2373
G01 X203.5087 Y89.5297
G01 X203.3554 Y89.8079
G01 X203.1747 Y90.0692
G01 X202.9683 Y90.3107
G01 X202.7385 Y90.5301
G01 X202.4876 Y90.7249
G01 X202.2182 Y90.8933
G01 X201.9331 Y91.0334
G01 X201.6353 Y91.1439
G01 X201.3278 Y91.2236
G01 X201.0137 Y91.2716
G01 X200.6964 Y91.2875
G01 X200.3254 Y91.2982
G01 X199.9552 Y91.2714
G01 X199.5896 Y91.2075
G01 X199.2322 Y91.1071
G01 X198.8868 Y90.9711
G01 X198.5569 Y90.8011
G01 X198.2458 Y90.5986
G01 X197.9566 Y90.3659
G01 X197.6924 Y90.1052
G01 X197.4558 Y89.8192
G01 X197.2493 Y89.5108
G01 X197.0748 Y89.1831
G01 X196.9235 Y88.8440
G01 X196.7911 Y88.4971
G01 X196.6781 Y88.1434
G01 X196.5849 Y87.7840
G01 X196.5116 Y87.4200
G01 X196.4587 Y87.0525
G01 X196.4261 Y86.6826
G01 X196.4141 Y86.3114
G01 X196.4083 Y86.0899
G01 X196.4062 Y85.8885
G01 X196.4065 Y77.2700
G01 X196.4101 Y76.9544
G01 X196.4152 Y76.6720
G01 X196.4293 Y76.3898
G01 X196.4525 Y76.1083
G01 X196.4847 Y75.8276
G01 X196.5384 Y75.4602
G01 X196.6312 Y75.1008
G01 X196.7620 Y74.7533
G01 X196.9293 Y74.4219
G01 X197.1312 Y74.1103
G01 X197.3653 Y73.8221
G01 X197.6289 Y73.5607
G01 X197.9190 Y73.3291
G01 X191.1723
G01 X191.3088 Y73.4373
G01 X191.5775 Y73.6729
G01 X191.8203 Y73.9351
G01 X192.0345 Y74.2211
G01 X192.2179 Y74.5278
G01 X192.3684 Y74.8519
G01 X192.4844 Y75.1899
G01 X192.5646 Y75.5381
G01 X192.6082 Y75.8928
G01 X192.6516 Y76.3554
G01 X192.6813 Y76.8190
G01 X192.6972 Y77.2833
G01 X192.6994 Y77.7479
G01 Y98.4607
G01 X192.7072 Y99.0006
G01 X192.6802 Y99.5399
G01 X192.6184 Y100.0763
G01 X192.5221 Y100.6076
G01 X192.4875 Y100.7267
G01 X192.4473 Y100.8441
G01 X192.4014 Y100.9593
G01 X192.3499 Y101.0722
G01 X192.2931 Y101.1825
G01 X192.2311 Y101.2900
G01 X192.1639 Y101.3943
G01 X192.0918 Y101.4952
G01 X192.0150 Y101.5926
G01 X191.9335 Y101.6861
G01 X191.8475 Y101.7756
G01 X191.7574 Y101.8609
G01 X191.6633 Y101.9417
G01 X191.5654 Y102.0179
G01 X191.4639 Y102.0893
G01 X191.3591 Y102.1556
G01 X191.2542 Y102.2252
G01 X191.1326 Y102.3011
G01 X191.1417 Y102.3075
G01 X191.5752 Y102.4020
G01 X192.0055 Y102.5098
G01 X192.4323 Y102.6311
G01 X192.8550 Y102.7655
G01 X193.2734 Y102.9130
G01 X193.6871 Y103.0735
G01 X194.0955 Y103.2467
G01 X194.4983 Y103.4326
G01 X194.9970 Y103.7080
G01 X195.4819 Y104.0070
G01 X195.9520 Y104.3287
G01 X196.4062 Y104.6725
G01 Y92.0463
G01 X196.4115 Y91.9465
G01 X196.4268 Y91.8477
G01 X196.4519 Y91.7509
G01 X196.4864 Y91.6571
G01 X196.5302 Y91.5673
G01 X196.5828 Y91.4822
G01 X196.6435 Y91.4029
G01 X196.7119 Y91.3300
G01 X196.7872 Y91.2642
G01 X196.8687 Y91.2064
G01 X196.9556 Y91.1569
G01 X197.0470 Y91.1164
G01 X197.1419 Y91.0852
G01 X197.2395 Y91.0636
G01 X197.3388 Y91.0519
G01 X197.4388 Y91.0502
G01 X197.5384 Y91.0584
G01 X197.6367 Y91.0766
G01 X197.7327 Y91.1044
G01 X197.8254 Y91.1418
G01 X197.9139 Y91.1881
G01 X197.9974 Y91.2431
G01 X198.0750 Y91.3062
G01 X198.1459 Y91.3767
G01 X198.3586 Y91.6073
G01 X198.5787 Y91.8308
G01 X198.8060 Y92.0470
G01 X199.0402 Y92.2558
G01 X199.1718 Y92.1052
M107
G00 Z2.0000


;No. 9: Hole 14
G00 X214.7245 Y73.8003 Z2.0000
G00 Z0.5000
G01 Z-1.8000 F400
M106 S200
G01 X219.8558 F800
G01 X219.0916 Y75.3003
G01 X215.4749
G01 X215.6359 Y76.8003
G01 X218.9444
G01 X218.9367 Y78.3003
G01 X215.6532
G01 X215.6533 Y79.8003
G01 X218.9366
G01 Y81.3003
G01 X215.6534
G01 Y82.8003
G01 X218.9365
G01 Y84.3003
G01 X215.6535
G01 Y85.8003
G01 X218.9367
G01 X219.0253 Y87.3003
G01 X215.6507
G01 X215.5444 Y88.8003
G01 X219.4162
G01 X220.4207 Y90.3003
G01 X214.9436
G01 X217.1843
G01 Y91.8003
G01 X218.9636
M107
G00 Z2.0000
G00 X226.0365 Y73.8003
G00 Z0.5000
G01 Z-1.8000 F400
M106 S200
G01 X231.1681 F800
G01 X230.4102 Y75.3003
G01 X226.7643
G01 X226.9271 Y76.8003
G01 X230.2078
G01 X230.1805 Y78.3003
G01 X226.9461
G01 X226.9460 Y79.8003
G01 X230.1804
G01 Y81.3003
G01 X226.9459
G01 Y82.8003
G01 X230.1803
G01 Y84.3003
G01 X226.9458
G01 Y85.8003
G01 X230.1802
G01 Y87.3003
G01 X226.9177
G01 X226.6850 Y88.8003
G01 X230.1422
G01 X229.9665 Y90.3003
G01 X225.8890
G01 X229.2931
G01 Y91.8003
G01 X221.5764
G01 X223.8439
G01 Y93.3003
G01 X227.1992
M107
G00 Z2.0000
G00 Z0.5000
G01 Z-1.8000 F400
M106 S200
G01 X227.2657 Y93.4890 F800
G01 X227.6034 Y93.3659
G01 X227.9297 Y93.2151
G01 X228.2424 Y93.0378
G01 X228.5392 Y92.8351
G01 X228.8182 Y92.6085
G01 X229.0775 Y92.3595
G01 X229.3151 Y92.0899
G01 X229.5296 Y91.8014
G01 X229.7194 Y91.4962
G01 X229.8831 Y91.1762
G01 X230.0198 Y90.8438
G01 X230.1283 Y90.5011
G01 X230.1970 Y90.1171
G01 X230.2551 Y89.7313
G01 X230.3026 Y89.3440
G01 X230.3395 Y88.9556
G01 X230.3657 Y88.5664
G01 X230.3812 Y88.1766
G01 X230.3861 Y87.7864
G01 X230.3802 Y87.3963
G01 X230.3810 Y77.6600
G01 X230.3851 Y77.3394
G01 X230.3961 Y77.0190
G01 X230.4138 Y76.6990
G01 X230.4384 Y76.3793
G01 X230.4565 Y76.0955
G01 X230.4936 Y75.8134
G01 X230.5494 Y75.5345
G01 X230.6237 Y75.2599
G01 X230.7161 Y74.9909
G01 X230.8263 Y74.7287
G01 X230.9538 Y74.4744
G01 X231.0980 Y74.2292
G01 X231.2843 Y73.9734
G01 X231.4942 Y73.7368
G01 X231.7260 Y73.5213
G01 X231.9773 Y73.3291
G01 X225.2391
G01 X225.4386 Y73.4807
G01 X225.6263 Y73.6468
G01 X225.8009 Y73.8265
G01 X225.9616 Y74.0188
G01 X226.1075 Y74.2226
G01 X226.2376 Y74.4368
G01 X226.3513 Y74.6601
G01 X226.4480 Y74.8913
G01 X226.5270 Y75.1291
G01 X226.5880 Y75.3722
G01 X226.6306 Y75.6192
G01 X226.6546 Y75.8686
G01 X226.6951 Y76.2946
G01 X226.7238 Y76.7216
G01 X226.7406 Y77.1492
G01 X226.7454 Y77.5772
G01 X226.7462 Y86.3376
G01 X226.7532 Y86.6857
G01 X226.7451 Y87.0338
G01 X226.7220 Y87.3812
G01 X226.6837 Y87.7272
G01 X226.6304 Y88.0713
G01 X226.5623 Y88.4127
G01 X226.4793 Y88.7509
G01 X226.3818 Y89.0851
G01 X226.2515 Y89.3888
G01 X226.0924 Y89.6785
G01 X225.9061 Y89.9515
G01 X225.6942 Y90.2052
G01 X225.4588 Y90.4372
G01 X225.2021 Y90.6453
G01 X224.9265 Y90.8277
G01 X224.6346 Y90.9826
G01 X224.3290 Y91.1085
G01 X224.0127 Y91.2043
G01 X223.6886 Y91.2691
G01 X223.3598 Y91.3023
G01 X223.0293 Y91.3035
G01 X222.7002 Y91.2727
G01 X222.3756 Y91.2103
G01 X222.0586 Y91.1168
G01 X221.6997 Y90.9658
G01 X221.3565 Y90.7818
G01 X221.0320 Y90.5665
G01 X220.7290 Y90.3218
G01 X220.4503 Y90.0499
G01 X220.1983 Y89.7530
G01 X219.9752 Y89.4338
G01 X219.7829 Y89.0952
G01 X219.6423 Y88.8010
G01 X219.5189 Y88.4991
G01 X219.4132 Y88.1906
G01 X219.3254 Y87.8765
G01 X219.2560 Y87.5579
G01 X219.2051 Y87.2358
G01 X219.1729 Y86.9112
G01 X219.1595 Y86.5854
G01 X219.1523 Y86.4501
G01 X219.1465 Y86.3148
G01 X219.1421 Y86.1794
G01 X219.1391 Y86.0439
G01 X219.1365 Y85.7648
G01 X219.1373 Y77.2174
G01 X219.1397 Y76.9500
G01 X219.1466 Y76.6827
G01 X219.1581 Y76.4155
G01 X219.1742 Y76.1486
G01 X219.1896 Y75.8402
G01 X219.2329 Y75.5346
G01 X219.3036 Y75.2341
G01 X219.4012 Y74.9412
G01 X219.5248 Y74.6584
G01 X219.6735 Y74.3878
G01 X219.8461 Y74.1318
G01 X220.0411 Y73.8925
G01 X220.1867 Y73.7437
G01 X220.3375 Y73.6001
G01 X220.4932 Y73.4619
G01 X220.6536 Y73.3291
G01 X213.9268
G01 X214.0389 Y73.4168
G01 X214.1483 Y73.5080
G01 X214.2547 Y73.6026
G01 X214.3580 Y73.7005
G01 X214.5778 Y73.9332
G01 X214.7741 Y74.1860
G01 X214.9454 Y74.4563
G01 X215.0899 Y74.7419
G01 X215.2064 Y75.0400
G01 X215.2937 Y75.3479
G01 X215.3511 Y75.6627
G01 X215.3781 Y75.9816
G01 X215.4140 Y76.4223
G01 X215.4387 Y76.8638
G01 X215.4520 Y77.3058
G01 X215.4539 Y77.7479
G01 Y86.9309
G01 X215.4576 Y87.4938
G01 X215.4279 Y88.0559
G01 X215.3650 Y88.6153
G01 X215.2692 Y89.1700
G01 X215.2308 Y89.3080
G01 X215.1854 Y89.4440
G01 X215.1332 Y89.5774
G01 X215.0742 Y89.7080
G01 X215.0086 Y89.8354
G01 X214.9366 Y89.9592
G01 X214.8584 Y90.0793
G01 X214.7741 Y90.1952
G01 X214.6841 Y90.3067
G01 X214.5885 Y90.4134
G01 X214.4875 Y90.5151
G01 X214.3815 Y90.6115
G01 X214.2708 Y90.7024
G01 X214.1555 Y90.7875
G01 X214.0360 Y90.8666
G01 X213.9127 Y90.9396
G01 X214.7861 Y91.1461
G01 X215.3784 Y91.3011
G01 X215.9606 Y91.4908
G01 X216.5306 Y91.7146
G01 X217.0864 Y91.9716
G01 X217.6260 Y92.2610
G01 X218.1475 Y92.5818
G01 X218.6492 Y92.9329
G01 X219.1293 Y93.3130
G01 X219.1365 Y93.3058
G01 Y92.0697
G01 X219.1404 Y91.9605
G01 X219.1459 Y91.9129
G01 X219.1535 Y91.8656
G01 X219.1635 Y91.8187
G01 X219.1757 Y91.7724
G01 X219.1900 Y91.7267
G01 X219.2066 Y91.6817
G01 X219.2253 Y91.6376
G01 X219.2461 Y91.5945
G01 X219.2689 Y91.5523
G01 X219.2937 Y91.5113
G01 X219.3205 Y91.4716
G01 X219.3491 Y91.4332
G01 X219.3795 Y91.3962
G01 X219.4117 Y91.3607
G01 X219.4455 Y91.3267
G01 X219.4809 Y91.2945
G01 X219.5179 Y91.2639
G01 X219.5562 Y91.2352
G01 X219.5959 Y91.2084
G01 X219.6368 Y91.1834
G01 X219.6789 Y91.1605
G01 X219.7220 Y91.1396
G01 X219.7660 Y91.1208
G01 X219.8110 Y91.1041
G01 X219.8566 Y91.0896
G01 X219.9029 Y91.0773
G01 X219.9498 Y91.0672
G01 X219.9970 Y91.0594
G01 X220.0446 Y91.0539
G01 X220.0924 Y91.0506
G01 X220.1403 Y91.0497
G01 X220.1882 Y91.0510
G01 X220.2360 Y91.0546
G01 X220.2835 Y91.0605
G01 X220.3308 Y91.0687
G01 X220.3775 Y91.0791
G01 X220.4237 Y91.0918
G01 X220.4693 Y91.1067
G01 X220.5141 Y91.1237
G01 X220.5580 Y91.1428
G01 X220.6009 Y91.1641
G01 X220.6428 Y91.1873
G01 X220.6835 Y91.2126
G01 X220.7230 Y91.2397
G01 X220.7611 Y91.2688
G01 X220.7978 Y91.2996
G01 X220.8330 Y91.3321
G01 X220.8666 Y91.3663
G01 X221.1423 Y91.6702
G01 X221.4330 Y91.9598
G01 X221.7379 Y92.2344
G01 X222.0563 Y92.4933
G01 X222.3873 Y92.7358
G01 X222.7300 Y92.9613
G01 X223.0838 Y93.1693
G01 X223.4475 Y93.3592
G01 X223.7517 Y93.4741
G01 X224.0622 Y93.5706
G01 X224.3779 Y93.6486
G01 X224.6977 Y93.7076
G01 X225.0204 Y93.7476
G01 X225.3449 Y93.7683
G01 X225.6701 Y93.7697
G01 X225.9948 Y93.7517
G01 X226.3178 Y93.7145
G01 X226.6381 Y93.6582
G01 X226.9544 Y93.5829
G01 X227.2657 Y93.4890
G01 X227.1992 Y93.3003
M107
G00 Z2.0000


;No. 10: Hole 15
G00 X238.6505 Y74.2149 Z2.0000
G00 Z0.5000
G01 Z-1.8000 F400
M106 S200
G01 X244.5302 F800
G01 X242.0546
G01 Y75.7149
G01 X238.0389
G01 X237.9238 Y77.2149
G01 X241.3569
G01 X241.1940 Y78.7149
G01 X237.9227
G01 Y80.2149
G01 X241.1814
G01 X241.1813 Y81.7149
G01 X237.9227
G01 Y83.2149
G01 X241.1813
G01 X241.1812 Y84.7149
G01 X237.9227
G01 Y86.2149
G01 X241.1812
G01 X241.1811 Y87.7149
G01 X237.9227
G01 Y89.2149
G01 X241.1811
G01 X241.1810 Y90.7149
G01 X237.9227
G01 X237.3741 Y92.2149
G01 X241.7281
G01 X241.2554 Y93.7149
G01 X237.4550
G01 X239.1379
G01 Y95.2149
G01 X241.1810
G01 Y96.7149
G01 X240.0796
M107
G00 Z2.0000
G00 Z0.5000
G01 Z-1.8000 F400
M106 S200
G01 X239.8996 Y96.8012 F800
G01 X240.1010 Y97.2673
G01 X240.2881 Y97.7393
G01 X240.4606 Y98.2169
G01 X240.6185 Y98.6995
G01 X240.7615 Y99.1867
G01 X240.8896 Y99.6780
G01 X241.0026 Y100.1730
G01 X241.1004 Y100.6713
G01 X241.1205 Y100.7475
G01 X241.1422 Y100.8232
G01 X241.1658 Y100.8983
G01 X241.1911 Y100.9729
G01 X241.2094 Y101.0149
G01 X241.2403 Y101.0183
G01 X241.2714 Y101.0203
G01 X241.3025 Y101.0209
G01 X241.3336 Y101.0201
G01 X241.3422 Y101.0126
G01 X241.3602 Y100.8880
G01 X241.3727 Y100.7627
G01 X241.3796 Y100.6370
G01 X241.3809 Y100.5112
G01 X241.3810 Y94.1481
G01 X241.3835 Y94.0574
G01 X241.3945 Y93.9643
G01 X241.4142 Y93.8727
G01 X241.4424 Y93.7833
G01 X241.4788 Y93.6969
G01 X241.5231 Y93.6144
G01 X241.5749 Y93.5363
G01 X241.6339 Y93.4634
G01 X241.6994 Y93.3964
G01 X241.7709 Y93.3358
G01 X241.8477 Y93.2822
G01 X241.9293 Y93.2360
G01 X242.0147 Y93.1976
G01 X242.1035 Y93.1674
G01 X242.1946 Y93.1456
G01 X242.2874 Y93.1325
G01 X242.3810 Y93.1281
G01 X244.8780
G01 Y92.2084
G01 X242.4010
G01 X242.3017 Y92.2054
G01 X242.2031 Y92.1926
G01 X242.1063 Y92.1700
G01 X242.0122 Y92.1380
G01 X241.9218 Y92.0968
G01 X241.8359 Y92.0468
G01 X241.7554 Y91.9885
G01 X241.6811 Y91.9225
G01 X241.6136 Y91.8495
G01 X241.5538 Y91.7702
G01 X241.5021 Y91.6853
G01 X241.4591 Y91.5957
G01 X241.4252 Y91.5022
G01 X241.4008 Y91.4059
G01 X241.3860 Y91.3076
G01 X241.3810 Y91.2084
G01 X241.3814 Y79.2976
G01 X241.3846 Y79.0015
G01 X241.3939 Y78.7054
G01 X241.4094 Y78.4096
G01 X241.4311 Y78.1142
G01 X241.4433 Y77.8884
G01 X241.4674 Y77.6635
G01 X241.5032 Y77.4401
G01 X241.5507 Y77.2190
G01 X241.6097 Y77.0006
G01 X241.6801 Y76.7857
G01 X241.7617 Y76.5747
G01 X241.8542 Y76.3683
G01 X241.9224 Y76.2429
G01 X241.9969 Y76.1211
G01 X242.0774 Y76.0032
G01 X242.1638 Y75.8896
G01 X242.2558 Y75.7804
G01 X242.3532 Y75.6761
G01 X242.4557 Y75.5767
G01 X242.5632 Y75.4827
G01 X242.6752 Y75.3942
G01 X242.7915 Y75.3115
G01 X242.9119 Y75.2348
G01 X243.0360 Y75.1642
G01 X243.1635 Y75.1000
G01 X243.2940 Y75.0422
G01 X243.4273 Y74.9912
G01 X243.5631 Y74.9469
G01 X243.7008 Y74.9096
G01 X243.8403 Y74.8792
G01 X243.9812 Y74.8559
G01 X244.1230 Y74.8398
G01 X244.2655 Y74.8308
G01 X244.4082 Y74.8290
G01 X244.5509 Y74.8345
G01 X244.6930 Y74.8471
G01 X244.9459 Y74.8999
G01 X245.1934 Y74.9739
G01 X245.4338 Y75.0683
G01 X245.6653 Y75.1827
G01 X245.6608 Y75.1699
G01 X245.4033 Y74.8163
G01 X245.1163 Y74.4861
G01 X244.8020 Y74.1819
G01 X244.4626 Y73.9059
G01 X244.1008 Y73.6602
G01 X243.7191 Y73.4466
G01 X243.3204 Y73.2666
G01 X242.9077 Y73.1216
G01 X242.4840 Y73.0127
G01 X242.0526 Y72.9407
G01 X241.6165 Y72.9061
G01 X241.1791 Y72.9092
G01 X240.8858 Y72.9095
G01 X240.5935 Y72.9348
G01 X240.3044 Y72.9846
G01 X240.0206 Y73.0589
G01 X239.7441 Y73.1569
G01 X239.4769 Y73.2780
G01 X239.2210 Y73.4213
G01 X238.9781 Y73.5857
G01 X238.7386 Y73.8142
G01 X238.5224 Y74.0647
G01 X238.3315 Y74.3350
G01 X238.1676 Y74.6226
G01 X238.0323 Y74.9246
G01 X237.9270 Y75.2383
G01 X237.8525 Y75.5608
G01 X237.8095 Y75.8889
G01 X237.7874 Y76.0641
G01 X237.7777 Y76.1524
G01 X237.7575 Y76.3800
G01 X237.7420 Y76.6080
G01 X237.7313 Y76.8363
G01 X237.7252 Y77.0647
G01 X237.7227 Y77.3309
G01 Y91.1884
G01 X237.7198 Y91.2877
G01 X237.7069 Y91.3863
G01 X237.6844 Y91.4831
G01 X237.6523 Y91.5771
G01 X237.6111 Y91.6676
G01 X237.5611 Y91.7535
G01 X237.5029 Y91.8340
G01 X237.4369 Y91.9083
G01 X237.3639 Y91.9758
G01 X237.2845 Y92.0356
G01 X237.1996 Y92.0873
G01 X237.1100 Y92.1303
G01 X237.0166 Y92.1642
G01 X236.9203 Y92.1886
G01 X236.8220 Y92.2034
G01 X236.7227 Y92.2084
G01 X234.8815
G01 Y92.6663
G01 X234.8962 Y92.6857
G01 X235.3577 Y92.8498
G01 X235.8104 Y93.0366
G01 X236.2533 Y93.2457
G01 X236.6853 Y93.4765
G01 X237.1053 Y93.7285
G01 X237.5123 Y94.0010
G01 X237.9052 Y94.2934
G01 X238.2831 Y94.6049
G01 X238.5309 Y94.8417
G01 X238.7666 Y95.0904
G01 X238.9897 Y95.3505
G01 X239.1997 Y95.6213
G01 X239.3960 Y95.9021
G01 X239.5781 Y96.1924
G01 X239.7457 Y96.4913
G01 X239.8982 Y96.7982
G01 X240.0796 Y96.7149
M107
G00 Z2.0000


;No. 11: Helical drill 3
G00 X275.8155 Y102.2312 Z2.0000
G00 Z0.5000
M106 S200
G01 X275.8143 Y102.1841 Z0.4958 F400
G01 X275.8106 Y102.1371 Z0.4917
G01 X275.8044 Y102.0904 Z0.4875
G01 X275.7958 Y102.0441 Z0.4833
G01 X275.7848 Y101.9983 Z0.4792
G01 X275.7715 Y101.9531 Z0.4750
G01 X275.7557 Y101.9087 Z0.4708
G01 X275.7377 Y101.8652 Z0.4667
G01 X275.7174 Y101.8226 Z0.4625
G01 X275.6949 Y101.7812 Z0.4583
G01 X275.6703 Y101.7410 Z0.4542
G01 X275.6436 Y101.7022 Z0.4500
G01 X275.6149 Y101.6648 Z0.4458
G01 X275.5843 Y101.6290 Z0.4417
G01 X275.5519 Y101.5948 Z0.4375
G01 X275.5177 Y101.5624 Z0.4333
G01 X275.4819 Y101.5318 Z0.4292
G01 X275.4445 Y101.5031 Z0.4250
G01 X275.4057 Y101.4764 Z0.4208
G01 X275.3655 Y101.4518 Z0.4167
G01 X275.3241 Y101.4293 Z0.4125
G01 X275.2816 Y101.4090 Z0.4083
G01 X275.2380 Y101.3910 Z0.4042
G01 X275.1936 Y101.3753 Z0.4000
G01 X275.1485 Y101.3619 Z0.3958
G01 X275.1026 Y101.3509 Z0.3917
G01 X275.0563 Y101.3423 Z0.3875
G01 X275.0096 Y101.3362 Z0.3833
G01 X274.9626 Y101.3325 Z0.3792
G01 X274.9155 Y101.3312 Z0.3750
G01 X274.8684 Y101.3325 Z0.3708
G01 X274.8214 Y101.3362 Z0.3667
G01 X274.7747 Y101.3423 Z0.3625
G01 X274.7284 Y101.3509 Z0.3583
G01 X274.6826 Y101.3619 Z0.3542
G01 X274.6374 Y101.3753 Z0.3500
G01 X274.5930 Y101.3910 Z0.3458
G01 X274.5495 Y101.4090 Z0.3417
G01 X274.5069 Y101.4293 Z0.3375
G01 X274.4655 Y101.4518 Z0.3333
G01 X274.4253 Y101.4764 Z0.3292
G01 X274.3865 Y101.5031 Z0.3250
G01 X274.3491 Y101.5318 Z0.3208
G01 X274.3133 Y101.5624 Z0.3167
G01 X274.2791 Y101.5948 Z0.3125
G01 X274.2467 Y101.6290 Z0.3083
G01 X274.2161 Y101.6648 Z0.3042
G01 X274.1874 Y101.7022 Z0.3000
G01 X274.1607 Y101.7410 Z0.2958
G01 X274.1361 Y101.7812 Z0.2917
G01 X274.1136 Y101.8226 Z0.2875
G01 X274.0933 Y101.8652 Z0.2833
G01 X274.0753 Y101.9087 Z0.2792
G01 X274.0596 Y101.9531 Z0.2750
G01 X274.0462 Y101.9983 Z0.2708
G01 X274.0352 Y102.0441 Z0.2667
G01 X274.0266 Y102.0904 Z0.2625
G01 X274.0204 Y102.1371 Z0.2583
G01 X274.0167 Y102.1841 Z0.2542
G01 X274.0155 Y102.2312 Z0.2500
G01 X274.0167 Y102.2783 Z0.2458
G01 X274.0204 Y102.3253 Z0.2417
G01 X274.0266 Y102.3720 Z0.2375
G01 X274.0352 Y102.4183 Z0.2333
G01 X274.0462 Y102.4642 Z0.2292
G01 X274.0596 Y102.5093 Z0.2250
G01 X274.0753 Y102.5538 Z0.2208
G01 X274.0933 Y102.5973 Z0.2167
G01 X274.1136 Y102.6398 Z0.2125
G01 X274.1361 Y102.6812 Z0.2083
G01 X274.1607 Y102.7214 Z0.2042
G01 X274.1874 Y102.7602 Z0.2000
G01 X274.2161 Y102.7976 Z0.1958
G01 X274.2467 Y102.8334 Z0.1917
G01 X274.2791 Y102.8676 Z0.1875
G01 X274.3133 Y102.9001 Z0.1833
G01 X274.3491 Y102.9307 Z0.1792
G01 X274.3865 Y102.9593 Z0.1750
G01 X274.4253 Y102.9860 Z0.1708
G01 X274.4655 Y103.0106 Z0.1667
G01 X274.5069 Y103.0331 Z0.1625
G01 X274.5495 Y103.0534 Z0.1583
G01 X274.5930 Y103.0714 Z0.1542
G01 X274.6374 Y103.0872 Z0.1500
G01 X274.6826 Y103.1006 Z0.1458
G01 X274.7284 Y103.1116 Z0.1417
G01 X274.7747 Y103.1201 Z0.1375
G01 X274.8214 Y103.1263 Z0.1333
G01 X274.8684 Y103.1300 Z0.1292
G01 X274.9155 Y103.1312 Z0.1250
G01 X274.9626 Y103.1300 Z0.1208
G01 X275.0096 Y103.1263 Z0.1167
G01 X275.0563 Y103.1201 Z0.1125
G01 X275.1026 Y103.1116 Z0.1083
G01 X275.1485 Y103.1006 Z0.1042
G01 X275.1936 Y103.0872 Z0.1000
G01 X275.2380 Y103.0714 Z0.0958
G01 X275.2816 Y103.0534 Z0.0917
G01 X275.3241 Y103.0331 Z0.0875
G01 X275.3655 Y103.0106 Z0.0833
G01 X275.4057 Y102.9860 Z0.0792
G01 X275.4445 Y102.9593 Z0.0750
G01 X275.4819 Y102.9307 Z0.0708
G01 X275.5177 Y102.9001 Z0.0667
G01 X275.5519 Y102.8676 Z0.0625
G01 X275.5843 Y102.8334 Z0.0583
G01 X275.6149 Y102.7976 Z0.0542
G01 X275.6436 Y102.7602 Z0.0500
G01 X275.6703 Y102.7214 Z0.0458
G01 X275.6949 Y102.6812 Z0.0417
G01 X275.7174 Y102.6398 Z0.0375
G01 X275.7377 Y102.5973 Z0.0333
G01 X275.7557 Y102.5538 Z0.0292
G01 X275.7715 Y102.5093 Z0.0250
G01 X275.7848 Y102.4642 Z0.0208
G01 X275.7958 Y102.4183 Z0.0167
G01 X275.8044 Y102.3720 Z0.0125
G01 X275.8106 Y102.3253 Z0.0083
G01 X275.8143 Y102.2783 Z0.0042
G01 X275.8155 Y102.2312 Z0.0000
G01 X275.8143 Y102.1841
G01 X275.8106 Y102.1371
G01 X275.8044 Y102.0904
G01 X275.7958 Y102.0441
G01 X275.7848 Y101.9983
G01 X275.7715 Y101.9531
G01 X275.7557 Y101.9087
G01 X275.7377 Y101.8652
G01 X275.7174 Y101.8226
G01 X275.6949 Y101.7812
G01 X275.6703 Y101.7410
G01 X275.6436 Y101.7022
G01 X275.6149 Y101.6648
G01 X275.5843 Y101.6290
G01 X275.5519 Y101.5948
G01 X275.5177 Y101.5624
G01 X275.4819 Y101.5318
G01 X275.4445 Y101.5031
G01 X275.4057 Y101.4764
G01 X275.3655 Y101.4518
G01 X275.3241 Y101.4293
G01 X275.2816 Y101.4090
G01 X275.2380 Y101.3910
G01 X275.1936 Y101.3753
G01 X275.1485 Y101.3619
G01 X275.1026 Y101.3509
G01 X275.0563 Y101.3423
G01 X275.0096 Y101.3362
G01 X274.9626 Y101.3325
G01 X274.9155 Y101.3312
G01 X274.8684 Y101.3325
G01 X274.8214 Y101.3362
G01 X274.7747 Y101.3423
G01 X274.7284 Y101.3509
G01 X274.6826 Y101.3619
G01 X274.6374 Y101.3753
G01 X274.5930 Y101.3910
G01 X274.5495 Y101.4090
G01 X274.5069 Y101.4293
G01 X274.4655 Y101.4518
G01 X274.4253 Y101.4764
G01 X274.3865 Y101.5031
G01 X274.3491 Y101.5318
G01 X274.3133 Y101.5624
G01 X274.2791 Y101.5948
G01 X274.2467 Y101.6290
G01 X274.2161 Y101.6648
G01 X274.1874 Y101.7022
G01 X274.1607 Y101.7410
G01 X274.1361 Y101.7812
G01 X274.1136 Y101.8226
G01 X274.0933 Y101.8652
G01 X274.0753 Y101.9087
G01 X274.0596 Y101.9531
G01 X274.0462 Y101.9983
G01 X274.0352 Y102.0441
G01 X274.0266 Y102.0904
G01 X274.0204 Y102.1371
G01 X274.0167 Y102.1841
G01 X274.0155 Y102.2312
G01 X274.0167 Y102.2783
G01 X274.0204 Y102.3253
G01 X274.0266 Y102.3720
G01 X274.0352 Y102.4183
G01 X274.0462 Y102.4642
G01 X274.0596 Y102.5093
G01 X274.0753 Y102.5538
G01 X274.0933 Y102.5973
G01 X274.1136 Y102.6398
G01 X274.1361 Y102.6812
G01 X274.1607 Y102.7214
G01 X274.1874 Y102.7602
G01 X274.2161 Y102.7976
G01 X274.2467 Y102.8334
G01 X274.2791 Y102.8676
G01 X274.3133 Y102.9001
G01 X274.3491 Y102.9307
G01 X274.3865 Y102.9593
G01 X274.4253 Y102.9860
G01 X274.4655 Y103.0106
G01 X274.5069 Y103.0331
G01 X274.5495 Y103.0534
G01 X274.5930 Y103.0714
G01 X274.6374 Y103.0872
G01 X274.6826 Y103.1006
G01 X274.7284 Y103.1116
G01 X274.7747 Y103.1201
G01 X274.8214 Y103.1263
G01 X274.8684 Y103.1300
G01 X274.9155 Y103.1312
G01 X274.9626 Y103.1300
G01 X275.0096 Y103.1263
G01 X275.0563 Y103.1201
G01 X275.1026 Y103.1116
G01 X275.1485 Y103.1006
G01 X275.1936 Y103.0872
G01 X275.2380 Y103.0714
G01 X275.2816 Y103.0534
G01 X275.3241 Y103.0331
G01 X275.3655 Y103.0106
G01 X275.4057 Y102.9860
G01 X275.4445 Y102.9593
G01 X275.4819 Y102.9307
G01 X275.5177 Y102.9001
G01 X275.5519 Y102.8676
G01 X275.5843 Y102.8334
G01 X275.6149 Y102.7976
G01 X275.6436 Y102.7602
G01 X275.6703 Y102.7214
G01 X275.6949 Y102.6812
G01 X275.7174 Y102.6398
G01 X275.7377 Y102.5973
G01 X275.7557 Y102.5538
G01 X275.7715 Y102.5093
G01 X275.7848 Y102.4642
G01 X275.7958 Y102.4183
G01 X275.8044 Y102.3720
G01 X275.8106 Y102.3253
G01 X275.8143 Y102.2783
G01 X275.8155 Y102.2312
M107
M106 S200
G01 X275.8143 Y102.1841 Z-0.0167
G01 X275.8106 Y102.1371 Z-0.0333
G01 X275.8044 Y102.0904 Z-0.0500
G01 X275.7958 Y102.0441 Z-0.0667
G01 X275.7848 Y101.9983 Z-0.0833
G01 X275.7715 Y101.9531 Z-0.1000
G01 X275.7557 Y101.9087 Z-0.1167
G01 X275.7377 Y101.8652 Z-0.1333
G01 X275.7174 Y101.8226 Z-0.1500
G01 X275.6949 Y101.7812 Z-0.1667
G01 X275.6703 Y101.7410 Z-0.1833
G01 X275.6436 Y101.7022 Z-0.2000
G01 X275.6149 Y101.6648 Z-0.2167
G01 X275.5843 Y101.6290 Z-0.2333
G01 X275.5519 Y101.5948 Z-0.2500
G01 X275.5177 Y101.5624 Z-0.2667
G01 X275.4819 Y101.5318 Z-0.2833
G01 X275.4445 Y101.5031 Z-0.3000
G01 X275.4057 Y101.4764 Z-0.3167
G01 X275.3655 Y101.4518 Z-0.3333
G01 X275.3241 Y101.4293 Z-0.3500
G01 X275.2816 Y101.4090 Z-0.3667
G01 X275.2380 Y101.3910 Z-0.3833
G01 X275.1936 Y101.3753 Z-0.4000
G01 X275.1485 Y101.3619 Z-0.4167
G01 X275.1026 Y101.3509 Z-0.4333
G01 X275.0563 Y101.3423 Z-0.4500
G01 X275.0096 Y101.3362 Z-0.4667
G01 X274.9626 Y101.3325 Z-0.4833
G01 X274.9155 Y101.3312 Z-0.5000
G01 X274.8684 Y101.3325 Z-0.5167
G01 X274.8214 Y101.3362 Z-0.5333
G01 X274.7747 Y101.3423 Z-0.5500
G01 X274.7284 Y101.3509 Z-0.5667
G01 X274.6826 Y101.3619 Z-0.5833
G01 X274.6374 Y101.3753 Z-0.6000
G01 X274.5930 Y101.3910 Z-0.6167
G01 X274.5495 Y101.4090 Z-0.6333
G01 X274.5069 Y101.4293 Z-0.6500
G01 X274.4655 Y101.4518 Z-0.6667
G01 X274.4253 Y101.4764 Z-0.6833
G01 X274.3865 Y101.5031 Z-0.7000
G01 X274.3491 Y101.5318 Z-0.7167
G01 X274.3133 Y101.5624 Z-0.7333
G01 X274.2791 Y101.5948 Z-0.7500
G01 X274.2467 Y101.6290 Z-0.7667
G01 X274.2161 Y101.6648 Z-0.7833
G01 X274.1874 Y101.7022 Z-0.8000
G01 X274.1607 Y101.7410 Z-0.8167
G01 X274.1361 Y101.7812 Z-0.8333
G01 X274.1136 Y101.8226 Z-0.8500
G01 X274.0933 Y101.8652 Z-0.8667
G01 X274.0753 Y101.9087 Z-0.8833
G01 X274.0596 Y101.9531 Z-0.9000
G01 X274.0462 Y101.9983 Z-0.9167
G01 X274.0352 Y102.0441 Z-0.9333
G01 X274.0266 Y102.0904 Z-0.9500
G01 X274.0204 Y102.1371 Z-0.9667
G01 X274.0167 Y102.1841 Z-0.9833
G01 X274.0155 Y102.2312 Z-1.0000
G01 X274.0167 Y102.2783 Z-1.0167
G01 X274.0204 Y102.3253 Z-1.0333
G01 X274.0266 Y102.3720 Z-1.0500
G01 X274.0352 Y102.4183 Z-1.0667
G01 X274.0462 Y102.4642 Z-1.0833
G01 X274.0596 Y102.5093 Z-1.1000
G01 X274.0753 Y102.5538 Z-1.1167
G01 X274.0933 Y102.5973 Z-1.1333
G01 X274.1136 Y102.6398 Z-1.1500
G01 X274.1361 Y102.6812 Z-1.1667
G01 X274.1607 Y102.7214 Z-1.1833
G01 X274.1874 Y102.7602 Z-1.2000
G01 X274.2161 Y102.7976 Z-1.2167
G01 X274.2467 Y102.8334 Z-1.2333
G01 X274.2791 Y102.8676 Z-1.2500
G01 X274.3133 Y102.9001 Z-1.2667
G01 X274.3491 Y102.9307 Z-1.2833
G01 X274.3865 Y102.9593 Z-1.3000
G01 X274.4253 Y102.9860 Z-1.3167
G01 X274.4655 Y103.0106 Z-1.3333
G01 X274.5069 Y103.0331 Z-1.3500
G01 X274.5495 Y103.0534 Z-1.3667
G01 X274.5930 Y103.0714 Z-1.3833
G01 X274.6374 Y103.0872 Z-1.4000
G01 X274.6826 Y103.1006 Z-1.4167
G01 X274.7284 Y103.1116 Z-1.4333
G01 X274.7747 Y103.1201 Z-1.4500
G01 X274.8214 Y103.1263 Z-1.4667
G01 X274.8684 Y103.1300 Z-1.4833
G01 X274.9155 Y103.1312 Z-1.5000
G01 X274.9626 Y103.1300 Z-1.5167
G01 X275.0096 Y103.1263 Z-1.5333
G01 X275.0563 Y103.1201 Z-1.5500
G01 X275.1026 Y103.1116 Z-1.5667
G01 X275.1485 Y103.1006 Z-1.5833
G01 X275.1936 Y103.0872 Z-1.6000
G01 X275.2380 Y103.0714 Z-1.6167
G01 X275.2816 Y103.0534 Z-1.6333
G01 X275.3241 Y103.0331 Z-1.6500
G01 X275.3655 Y103.0106 Z-1.6667
G01 X275.4057 Y102.9860 Z-1.6833
G01 X275.4445 Y102.9593 Z-1.7000
G01 X275.4819 Y102.9307 Z-1.7167
G01 X275.5177 Y102.9001 Z-1.7333
G01 X275.5519 Y102.8676 Z-1.7500
G01 X275.5843 Y102.8334 Z-1.7667
G01 X275.6149 Y102.7976 Z-1.7833
G01 X275.6436 Y102.7602 Z-1.8000
G01 X275.6703 Y102.7214 Z-1.8167
G01 X275.6949 Y102.6812 Z-1.8333
G01 X275.7174 Y102.6398 Z-1.8500
G01 X275.7377 Y102.5973 Z-1.8667
G01 X275.7557 Y102.5538 Z-1.8833
G01 X275.7715 Y102.5093 Z-1.9000
G01 X275.7848 Y102.4642 Z-1.9167
G01 X275.7958 Y102.4183 Z-1.9333
G01 X275.8044 Y102.3720 Z-1.9500
G01 X275.8106 Y102.3253 Z-1.9667
G01 X275.8143 Y102.2783 Z-1.9833
G01 X275.8155 Y102.2312 Z-2.0000
G01 X275.8143 Y102.1841
G01 X275.8106 Y102.1371
G01 X275.8044 Y102.0904
G01 X275.7958 Y102.0441
G01 X275.7848 Y101.9983
G01 X275.7715 Y101.9531
G01 X275.7557 Y101.9087
G01 X275.7377 Y101.8652
G01 X275.7174 Y101.8226
G01 X275.6949 Y101.7812
G01 X275.6703 Y101.7410
G01 X275.6436 Y101.7022
G01 X275.6149 Y101.6648
G01 X275.5843 Y101.6290
G01 X275.5519 Y101.5948
G01 X275.5177 Y101.5624
G01 X275.4819 Y101.5318
G01 X275.4445 Y101.5031
G01 X275.4057 Y101.4764
G01 X275.3655 Y101.4518
G01 X275.3241 Y101.4293
G01 X275.2816 Y101.4090
G01 X275.2380 Y101.3910
G01 X275.1936 Y101.3753
G01 X275.1485 Y101.3619
G01 X275.1026 Y101.3509
G01 X275.0563 Y101.3423
G01 X275.0096 Y101.3362
G01 X274.9626 Y101.3325
G01 X274.9155 Y101.3312
G01 X274.8684 Y101.3325
G01 X274.8214 Y101.3362
G01 X274.7747 Y101.3423
G01 X274.7284 Y101.3509
G01 X274.6826 Y101.3619
G01 X274.6374 Y101.3753
G01 X274.5930 Y101.3910
G01 X274.5495 Y101.4090
G01 X274.5069 Y101.4293
G01 X274.4655 Y101.4518
G01 X274.4253 Y101.4764
G01 X274.3865 Y101.5031
G01 X274.3491 Y101.5318
G01 X274.3133 Y101.5624
G01 X274.2791 Y101.5948
G01 X274.2467 Y101.6290
G01 X274.2161 Y101.6648
G01 X274.1874 Y101.7022
G01 X274.1607 Y101.7410
G01 X274.1361 Y101.7812
G01 X274.1136 Y101.8226
G01 X274.0933 Y101.8652
G01 X274.0753 Y101.9087
G01 X274.0596 Y101.9531
G01 X274.0462 Y101.9983
G01 X274.0352 Y102.0441
G01 X274.0266 Y102.0904
G01 X274.0204 Y102.1371
G01 X274.0167 Y102.1841
G01 X274.0155 Y102.2312
G01 X274.0167 Y102.2783
G01 X274.0204 Y102.3253
G01 X274.0266 Y102.3720
G01 X274.0352 Y102.4183
G01 X274.0462 Y102.4642
G01 X274.0596 Y102.5093
G01 X274.0753 Y102.5538
G01 X274.0933 Y102.5973
G01 X274.1136 Y102.6398
G01 X274.1361 Y102.6812
G01 X274.1607 Y102.7214
G01 X274.1874 Y102.7602
G01 X274.2161 Y102.7976
G01 X274.2467 Y102.8334
G01 X274.2791 Y102.8676
G01 X274.3133 Y102.9001
G01 X274.3491 Y102.9307
G01 X274.3865 Y102.9593
G01 X274.4253 Y102.9860
G01 X274.4655 Y103.0106
G01 X274.5069 Y103.0331
G01 X274.5495 Y103.0534
G01 X274.5930 Y103.0714
G01 X274.6374 Y103.0872
G01 X274.6826 Y103.1006
G01 X274.7284 Y103.1116
G01 X274.7747 Y103.1201
G01 X274.8214 Y103.1263
G01 X274.8684 Y103.1300
G01 X274.9155 Y103.1312
G01 X274.9626 Y103.1300
G01 X275.0096 Y103.1263
G01 X275.0563 Y103.1201
G01 X275.1026 Y103.1116
G01 X275.1485 Y103.1006
G01 X275.1936 Y103.0872
G01 X275.2380 Y103.0714
G01 X275.2816 Y103.0534
G01 X275.3241 Y103.0331
G01 X275.3655 Y103.0106
G01 X275.4057 Y102.9860
G01 X275.4445 Y102.9593
G01 X275.4819 Y102.9307
G01 X275.5177 Y102.9001
G01 X275.5519 Y102.8676
G01 X275.5843 Y102.8334
G01 X275.6149 Y102.7976
G01 X275.6436 Y102.7602
G01 X275.6703 Y102.7214
G01 X275.6949 Y102.6812
G01 X275.7174 Y102.6398
G01 X275.7377 Y102.5973
G01 X275.7557 Y102.5538
G01 X275.7715 Y102.5093
G01 X275.7848 Y102.4642
G01 X275.7958 Y102.4183
G01 X275.8044 Y102.3720
G01 X275.8106 Y102.3253
G01 X275.8143 Y102.2783
G01 X275.8155 Y102.2312
G01 X275.8249 Y102.1848 F800
G01 X275.8320 Y102.1380
G01 X275.8366 Y102.0909
G01 X275.8388 Y102.0436
G01 X275.8385 Y101.9963
G01 X275.8359 Y101.9490
G01 X275.8308 Y101.9020
G01 X275.8232 Y101.8552
G01 X275.8037 Y101.8111
G01 X275.7820 Y101.7681
G01 X275.7582 Y101.7261
G01 X275.7324 Y101.6854
G01 X275.7047 Y101.6459
G01 X275.6750 Y101.6079
G01 X275.6435 Y101.5714
G01 X275.6103 Y101.5365
G01 X275.5753 Y101.5032
G01 X275.5388 Y101.4717
G01 X275.5008 Y101.4421
G01 X275.4614 Y101.4143
G01 X275.4206 Y101.3885
G01 X275.3787 Y101.3647
G01 X275.3356 Y101.3430
G01 X275.2915 Y101.3235
G01 X275.2465 Y101.3061
G01 X275.2007 Y101.2910
G01 X275.1542 Y101.2781
G01 X275.1072 Y101.2676
G01 X275.0597 Y101.2593
G01 X275.0118 Y101.2534
G01 X274.9637 Y101.2499
G01 X274.9155 Y101.2487
G01 X274.8673 Y101.2499
G01 X274.8192 Y101.2534
G01 X274.7713 Y101.2593
G01 X274.7238 Y101.2676
G01 X274.6768 Y101.2781
G01 X274.6303 Y101.2910
G01 X274.5845 Y101.3061
G01 X274.5395 Y101.3235
G01 X274.4954 Y101.3430
G01 X274.4524 Y101.3647
G01 X274.4104 Y101.3885
G01 X274.3697 Y101.4143
G01 X274.3302 Y101.4421
G01 X274.2922 Y101.4717
G01 X274.2557 Y101.5032
G01 X274.2208 Y101.5365
G01 X274.1875 Y101.5714
G01 X274.1560 Y101.6079
G01 X274.1263 Y101.6459
G01 X274.0986 Y101.6854
G01 X274.0728 Y101.7261
G01 X274.0490 Y101.7681
G01 X274.0273 Y101.8111
G01 X274.0078 Y101.8552
G01 X273.9904 Y101.9002
G01 X273.9753 Y101.9460
G01 X273.9624 Y101.9925
G01 X273.9519 Y102.0395
G01 X273.9436 Y102.0871
G01 X273.9377 Y102.1349
G01 X273.9342 Y102.1830
G01 X273.9330 Y102.2312
G01 X273.9342 Y102.2794
G01 X273.9377 Y102.3275
G01 X273.9436 Y102.3754
G01 X273.9519 Y102.4229
G01 X273.9624 Y102.4700
G01 X273.9753 Y102.5164
G01 X273.9904 Y102.5622
G01 X274.0078 Y102.6072
G01 X274.0273 Y102.6513
G01 X274.0490 Y102.6944
G01 X274.0728 Y102.7363
G01 X274.0986 Y102.7771
G01 X274.1263 Y102.8165
G01 X274.1560 Y102.8545
G01 X274.1875 Y102.8910
G01 X274.2208 Y102.9260
G01 X274.2557 Y102.9592
G01 X274.2922 Y102.9907
G01 X274.3302 Y103.0204
G01 X274.3697 Y103.0482
G01 X274.4104 Y103.0740
G01 X274.4524 Y103.0977
G01 X274.4954 Y103.1194
G01 X274.5395 Y103.1390
G01 X274.5845 Y103.1563
G01 X274.6303 Y103.1714
G01 X274.6768 Y103.1843
G01 X274.7238 Y103.1949
G01 X274.7713 Y103.2031
G01 X274.8192 Y103.2090
G01 X274.8673 Y103.2126
G01 X274.9155 Y103.2137
G01 X274.9637 Y103.2126
G01 X275.0118 Y103.2090
G01 X275.0597 Y103.2031
G01 X275.1072 Y103.1949
G01 X275.1542 Y103.1843
G01 X275.2007 Y103.1714
G01 X275.2465 Y103.1563
G01 X275.2915 Y103.1390
G01 X275.3356 Y103.1194
G01 X275.3787 Y103.0977
G01 X275.4206 Y103.0740
G01 X275.4614 Y103.0482
G01 X275.5008 Y103.0204
G01 X275.5388 Y102.9907
G01 X275.5753 Y102.9592
G01 X275.6103 Y102.9260
G01 X275.6435 Y102.8910
G01 X275.6750 Y102.8545
G01 X275.7047 Y102.8165
G01 X275.7324 Y102.7771
G01 X275.7582 Y102.7363
G01 X275.7820 Y102.6944
G01 X275.8037 Y102.6513
G01 X275.8232 Y102.6072
G01 X275.8406 Y102.5622
G01 X275.8557 Y102.5164
G01 X275.8686 Y102.4700
G01 X275.8792 Y102.4229
G01 X275.8874 Y102.3754
G01 X275.8933 Y102.3275
G01 X275.8969 Y102.2794
G01 X275.8980 Y102.2312
G01 X275.8969 Y102.1845
G01 X275.8936 Y102.1378
G01 X275.8880 Y102.0914
G01 X275.8803 Y102.0453
G01 X275.8703 Y101.9996
G01 X275.8582 Y101.9544
G01 X275.8440 Y101.9099
G01 X275.8277 Y101.8661
G01 X275.8092 Y101.8231
G01 X275.7888 Y101.7810
G01 X275.7664 Y101.7400
G01 X275.7421 Y101.7000
G01 X275.7159 Y101.6613
G01 X275.6878 Y101.6239
G01 X275.6581 Y101.5878
G01 X275.6266 Y101.5532
G01 X275.5935 Y101.5201
G01 X275.5589 Y101.4887
G01 X275.5229 Y101.4589
G01 X275.4854 Y101.4309
G01 X275.4467 Y101.4047
G01 X275.4068 Y101.3803
G01 X275.3657 Y101.3579
G01 X275.3237 Y101.3375
G01 X275.2807 Y101.3191
G01 X275.2369 Y101.3027
G01 X275.1923 Y101.2885
G01 X275.1472 Y101.2764
G01 X275.1015 Y101.2665
G01 X275.0553 Y101.2587
G01 X275.0089 Y101.2532
G01 X274.9623 Y101.2498
G01 X274.9155 Y101.2487
G01 X274.8688 Y101.2498
G01 X274.8221 Y101.2532
G01 X274.7757 Y101.2587
G01 X274.7296 Y101.2665
G01 X274.6839 Y101.2764
G01 X274.6387 Y101.2885
G01 X274.5942 Y101.3027
G01 X274.5503 Y101.3191
G01 X274.5074 Y101.3375
G01 X274.4653 Y101.3579
G01 X274.4243 Y101.3803
G01 X274.3843 Y101.4047
G01 X274.3456 Y101.4309
G01 X274.3082 Y101.4589
G01 X274.2721 Y101.4887
G01 X274.2375 Y101.5201
G01 X274.2044 Y101.5532
G01 X274.1730 Y101.5878
G01 X274.1432 Y101.6239
G01 X274.1152 Y101.6613
G01 X274.0890 Y101.7000
G01 X274.0646 Y101.7400
G01 X274.0422 Y101.7810
G01 X274.0218 Y101.8231
G01 X274.0034 Y101.8661
G01 X273.9870 Y101.9099
G01 X273.9728 Y101.9544
G01 X273.9607 Y101.9996
G01 X273.9507 Y102.0453
G01 X273.9430 Y102.0914
G01 X273.9374 Y102.1378
G01 X273.9341 Y102.1845
G01 X273.9330 Y102.2312
G01 X273.9341 Y102.2780
G01 X273.9374 Y102.3246
G01 X273.9430 Y102.3710
G01 X273.9507 Y102.4172
G01 X273.9607 Y102.4629
G01 X273.9728 Y102.5080
G01 X273.9870 Y102.5526
G01 X274.0034 Y102.5964
G01 X274.0218 Y102.6394
G01 X274.0422 Y102.6814
G01 X274.0646 Y102.7225
G01 X274.0890 Y102.7624
G01 X274.1152 Y102.8011
G01 X274.1432 Y102.8386
G01 X274.1730 Y102.8746
G01 X274.2044 Y102.9092
G01 X274.2375 Y102.9423
G01 X274.2721 Y102.9738
G01 X274.3082 Y103.0035
G01 X274.3456 Y103.0316
G01 X274.3843 Y103.0578
G01 X274.4243 Y103.0821
G01 X274.4653 Y103.1045
G01 X274.5074 Y103.1250
G01 X274.5503 Y103.1434
G01 X274.5942 Y103.1597
G01 X274.6387 Y103.1739
G01 X274.6839 Y103.1860
G01 X274.7296 Y103.1960
G01 X274.7757 Y103.2037
G01 X274.8221 Y103.2093
G01 X274.8688 Y103.2126
G01 X274.9155 Y103.2137
G01 X274.9623 Y103.2126
G01 X275.0089 Y103.2093
G01 X275.0553 Y103.2037
G01 X275.1015 Y103.1960
G01 X275.1472 Y103.1860
G01 X275.1923 Y103.1739
G01 X275.2369 Y103.1597
G01 X275.2807 Y103.1434
G01 X275.3237 Y103.1250
G01 X275.3657 Y103.1045
G01 X275.4068 Y103.0821
G01 X275.4467 Y103.0578
G01 X275.4854 Y103.0316
G01 X275.5229 Y103.0035
G01 X275.5589 Y102.9738
G01 X275.5935 Y102.9423
G01 X275.6266 Y102.9092
G01 X275.6581 Y102.8746
G01 X275.6878 Y102.8386
G01 X275.7159 Y102.8011
G01 X275.7421 Y102.7624
G01 X275.7664 Y102.7225
G01 X275.7888 Y102.6814
G01 X275.8092 Y102.6394
G01 X275.8277 Y102.5964
G01 X275.8440 Y102.5526
G01 X275.8582 Y102.5080
G01 X275.8703 Y102.4629
G01 X275.8803 Y102.4172
G01 X275.8880 Y102.3710
G01 X275.8936 Y102.3246
G01 X275.8969 Y102.2780
G01 X275.8980 Y102.2312
G01 X275.8969 Y102.1850
G01 X275.8935 Y102.1390
G01 X275.8878 Y102.0931
G01 X275.8799 Y102.0476
G01 X275.8698 Y102.0025
G01 X275.8575 Y101.9580
G01 X275.8430 Y101.9141
G01 X275.8264 Y101.8710
G01 X275.8077 Y101.8288
G01 X275.7869 Y101.7875
G01 X275.7641 Y101.7473
G01 X275.7394 Y101.7083
G01 X275.7128 Y101.6705
G01 X275.6844 Y101.6341
G01 X275.6542 Y101.5991
G01 X275.6223 Y101.5657
G01 X275.5889 Y101.5338
G01 X275.5539 Y101.5036
G01 X275.5175 Y101.4752
G01 X275.4797 Y101.4486
G01 X275.4407 Y101.4239
G01 X275.4005 Y101.4011
G01 X275.3592 Y101.3803
G01 X275.3170 Y101.3616
G01 X275.2739 Y101.3450
G01 X275.2300 Y101.3305
G01 X275.1855 Y101.3182
G01 X275.1404 Y101.3080
G01 X275.0949 Y101.3002
G01 X275.0490 Y101.2945
G01 X275.0030 Y101.2911
G01 X274.9568 Y101.2900
G01 X274.9106 Y101.2911
G01 X274.8645 Y101.2945
G01 X274.8187 Y101.3002
G01 X274.7731 Y101.3080
G01 X274.7281 Y101.3182
G01 X274.6835 Y101.3305
G01 X274.6397 Y101.3450
G01 X274.5966 Y101.3616
G01 X274.5543 Y101.3803
G01 X274.5131 Y101.4011
G01 X274.4729 Y101.4239
G01 X274.4338 Y101.4486
G01 X274.3961 Y101.4752
G01 X274.3596 Y101.5036
G01 X274.3247 Y101.5338
G01 X274.2912 Y101.5657
G01 X274.2593 Y101.5991
G01 X274.2292 Y101.6341
G01 X274.2007 Y101.6705
G01 X274.1741 Y101.7083
G01 X274.1494 Y101.7473
G01 X274.1267 Y101.7875
G01 X274.1059 Y101.8288
G01 X274.0872 Y101.8710
G01 X274.0705 Y101.9141
G01 X274.0560 Y101.9580
G01 X274.0437 Y102.0025
G01 X274.0336 Y102.0476
G01 X274.0257 Y102.0931
G01 X274.0200 Y102.1390
G01 X274.0166 Y102.1850
G01 X274.0155 Y102.2312
G01 X274.0167 Y102.2783
G01 X274.0204 Y102.3253
G01 X274.0266 Y102.3720
G01 X274.0352 Y102.4183
G01 X274.0462 Y102.4642
G01 X274.0596 Y102.5093
G01 X274.0753 Y102.5538
G01 X274.0933 Y102.5973
G01 X274.1136 Y102.6398
G01 X274.1361 Y102.6812
G01 X274.1607 Y102.7214
G01 X274.1874 Y102.7602
G01 X274.2161 Y102.7976
G01 X274.2467 Y102.8334
G01 X274.2791 Y102.8676
G01 X274.3133 Y102.9001
G01 X274.3491 Y102.9307
G01 X274.3865 Y102.9593
G01 X274.4253 Y102.9860
G01 X274.4655 Y103.0106
G01 X274.5069 Y103.0331
G01 X274.5495 Y103.0534
G01 X274.5930 Y103.0714
G01 X274.6374 Y103.0872
G01 X274.6826 Y103.1006
G01 X274.7284 Y103.1116
G01 X274.7747 Y103.1201
G01 X274.8214 Y103.1263
G01 X274.8684 Y103.1300
G01 X274.9155 Y103.1312
G01 X274.9626 Y103.1300
G01 X275.0096 Y103.1263
G01 X275.0563 Y103.1201
G01 X275.1026 Y103.1116
G01 X275.1485 Y103.1006
G01 X275.1936 Y103.0872
G01 X275.2380 Y103.0714
G01 X275.2816 Y103.0534
G01 X275.3241 Y103.0331
G01 X275.3655 Y103.0106
G01 X275.4057 Y102.9860
G01 X275.4445 Y102.9593
G01 X275.4819 Y102.9307
G01 X275.5177 Y102.9001
G01 X275.5519 Y102.8676
G01 X275.5843 Y102.8334
G01 X275.6149 Y102.7976
G01 X275.6436 Y102.7602
G01 X275.6703 Y102.7214
G01 X275.6949 Y102.6812
G01 X275.7174 Y102.6398
G01 X275.7377 Y102.5973
G01 X275.7557 Y102.5538
G01 X275.7715 Y102.5093
G01 X275.7848 Y102.4642
G01 X275.7958 Y102.4183
G01 X275.8044 Y102.3720
G01 X275.8106 Y102.3253
G01 X275.8143 Y102.2783
G01 X275.8155 Y102.2312
M107
M106 S200
G01 X275.8143 Y102.1841 Z-2.0167 F400
G01 X275.8106 Y102.1371 Z-2.0333
G01 X275.8044 Y102.0904 Z-2.0500
G01 X275.7958 Y102.0441 Z-2.0667
G01 X275.7848 Y101.9983 Z-2.0833
G01 X275.7715 Y101.9531 Z-2.1000
G01 X275.7557 Y101.9087 Z-2.1167
G01 X275.7377 Y101.8652 Z-2.1333
G01 X275.7174 Y101.8226 Z-2.1500
G01 X275.6949 Y101.7812 Z-2.1667
G01 X275.6703 Y101.7410 Z-2.1833
G01 X275.6436 Y101.7022 Z-2.2000
G01 X275.6149 Y101.6648 Z-2.2167
G01 X275.5843 Y101.6290 Z-2.2333
G01 X275.5519 Y101.5948 Z-2.2500
G01 X275.5177 Y101.5624 Z-2.2667
G01 X275.4819 Y101.5318 Z-2.2833
G01 X275.4445 Y101.5031 Z-2.3000
G01 X275.4057 Y101.4764 Z-2.3167
G01 X275.3655 Y101.4518 Z-2.3333
G01 X275.3241 Y101.4293 Z-2.3500
G01 X275.2816 Y101.4090 Z-2.3667
G01 X275.2380 Y101.3910 Z-2.3833
G01 X275.1936 Y101.3753 Z-2.4000
G01 X275.1485 Y101.3619 Z-2.4167
G01 X275.1026 Y101.3509 Z-2.4333
G01 X275.0563 Y101.3423 Z-2.4500
G01 X275.0096 Y101.3362 Z-2.4667
G01 X274.9626 Y101.3325 Z-2.4833
G01 X274.9155 Y101.3312 Z-2.5000
G01 X274.8684 Y101.3325 Z-2.5167
G01 X274.8214 Y101.3362 Z-2.5333
G01 X274.7747 Y101.3423 Z-2.5500
G01 X274.7284 Y101.3509 Z-2.5667
G01 X274.6826 Y101.3619 Z-2.5833
G01 X274.6374 Y101.3753 Z-2.6000
G01 X274.5930 Y101.3910 Z-2.6167
G01 X274.5495 Y101.4090 Z-2.6333
G01 X274.5069 Y101.4293 Z-2.6500
G01 X274.4655 Y101.4518 Z-2.6667
G01 X274.4253 Y101.4764 Z-2.6833
G01 X274.3865 Y101.5031 Z-2.7000
G01 X274.3491 Y101.5318 Z-2.7167
G01 X274.3133 Y101.5624 Z-2.7333
G01 X274.2791 Y101.5948 Z-2.7500
G01 X274.2467 Y101.6290 Z-2.7667
G01 X274.2161 Y101.6648 Z-2.7833
G01 X274.1874 Y101.7022 Z-2.8000
G01 X274.1607 Y101.7410 Z-2.8167
G01 X274.1361 Y101.7812 Z-2.8333
G01 X274.1136 Y101.8226 Z-2.8500
G01 X274.0933 Y101.8652 Z-2.8667
G01 X274.0753 Y101.9087 Z-2.8833
G01 X274.0596 Y101.9531 Z-2.9000
G01 X274.0462 Y101.9983 Z-2.9167
G01 X274.0352 Y102.0441 Z-2.9333
G01 X274.0266 Y102.0904 Z-2.9500
G01 X274.0204 Y102.1371 Z-2.9667
G01 X274.0167 Y102.1841 Z-2.9833
G01 X274.0155 Y102.2312 Z-3.0000
G01 X274.0167 Y102.2783 Z-3.0167
G01 X274.0204 Y102.3253 Z-3.0333
G01 X274.0266 Y102.3720 Z-3.0500
G01 X274.0352 Y102.4183 Z-3.0667
G01 X274.0462 Y102.4642 Z-3.0833
G01 X274.0596 Y102.5093 Z-3.1000
G01 X274.0753 Y102.5538 Z-3.1167
G01 X274.0933 Y102.5973 Z-3.1333
G01 X274.1136 Y102.6398 Z-3.1500
G01 X274.1361 Y102.6812 Z-3.1667
G01 X274.1607 Y102.7214 Z-3.1833
G01 X274.1874 Y102.7602 Z-3.2000
G01 X274.2161 Y102.7976 Z-3.2167
G01 X274.2467 Y102.8334 Z-3.2333
G01 X274.2791 Y102.8676 Z-3.2500
G01 X274.3133 Y102.9001 Z-3.2667
G01 X274.3491 Y102.9307 Z-3.2833
G01 X274.3865 Y102.9593 Z-3.3000
G01 X274.4253 Y102.9860 Z-3.3167
G01 X274.4655 Y103.0106 Z-3.3333
G01 X274.5069 Y103.0331 Z-3.3500
G01 X274.5495 Y103.0534 Z-3.3667
G01 X274.5930 Y103.0714 Z-3.3833
G01 X274.6374 Y103.0872 Z-3.4000
G01 X274.6826 Y103.1006 Z-3.4167
G01 X274.7284 Y103.1116 Z-3.4333
G01 X274.7747 Y103.1201 Z-3.4500
G01 X274.8214 Y103.1263 Z-3.4667
G01 X274.8684 Y103.1300 Z-3.4833
G01 X274.9155 Y103.1312 Z-3.5000
G01 X274.9626 Y103.1300 Z-3.5167
G01 X275.0096 Y103.1263 Z-3.5333
G01 X275.0563 Y103.1201 Z-3.5500
G01 X275.1026 Y103.1116 Z-3.5667
G01 X275.1485 Y103.1006 Z-3.5833
G01 X275.1936 Y103.0872 Z-3.6000
G01 X275.2380 Y103.0714 Z-3.6167
G01 X275.2816 Y103.0534 Z-3.6333
G01 X275.3241 Y103.0331 Z-3.6500
G01 X275.3655 Y103.0106 Z-3.6667
G01 X275.4057 Y102.9860 Z-3.6833
G01 X275.4445 Y102.9593 Z-3.7000
G01 X275.4819 Y102.9307 Z-3.7167
G01 X275.5177 Y102.9001 Z-3.7333
G01 X275.5519 Y102.8676 Z-3.7500
G01 X275.5843 Y102.8334 Z-3.7667
G01 X275.6149 Y102.7976 Z-3.7833
G01 X275.6436 Y102.7602 Z-3.8000
G01 X275.6703 Y102.7214 Z-3.8167
G01 X275.6949 Y102.6812 Z-3.8333
G01 X275.7174 Y102.6398 Z-3.8500
G01 X275.7377 Y102.5973 Z-3.8667
G01 X275.7557 Y102.5538 Z-3.8833
G01 X275.7715 Y102.5093 Z-3.9000
G01 X275.7848 Y102.4642 Z-3.9167
G01 X275.7958 Y102.4183 Z-3.9333
G01 X275.8044 Y102.3720 Z-3.9500
G01 X275.8106 Y102.3253 Z-3.9667
G01 X275.8143 Y102.2783 Z-3.9833
G01 X275.8155 Y102.2312 Z-4.0000
G01 X275.8143 Y102.1841
G01 X275.8106 Y102.1371
G01 X275.8044 Y102.0904
G01 X275.7958 Y102.0441
G01 X275.7848 Y101.9983
G01 X275.7715 Y101.9531
G01 X275.7557 Y101.9087
G01 X275.7377 Y101.8652
G01 X275.7174 Y101.8226
G01 X275.6949 Y101.7812
G01 X275.6703 Y101.7410
G01 X275.6436 Y101.7022
G01 X275.6149 Y101.6648
G01 X275.5843 Y101.6290
G01 X275.5519 Y101.5948
G01 X275.5177 Y101.5624
G01 X275.4819 Y101.5318
G01 X275.4445 Y101.5031
G01 X275.4057 Y101.4764
G01 X275.3655 Y101.4518
G01 X275.3241 Y101.4293
G01 X275.2816 Y101.4090
G01 X275.2380 Y101.3910
G01 X275.1936 Y101.3753
G01 X275.1485 Y101.3619
G01 X275.1026 Y101.3509
G01 X275.0563 Y101.3423
G01 X275.0096 Y101.3362
G01 X274.9626 Y101.3325
G01 X274.9155 Y101.3312
G01 X274.8684 Y101.3325
G01 X274.8214 Y101.3362
G01 X274.7747 Y101.3423
G01 X274.7284 Y101.3509
G01 X274.6826 Y101.3619
G01 X274.6374 Y101.3753
G01 X274.5930 Y101.3910
G01 X274.5495 Y101.4090
G01 X274.5069 Y101.4293
G01 X274.4655 Y101.4518
G01 X274.4253 Y101.4764
G01 X274.3865 Y101.5031
G01 X274.3491 Y101.5318
G01 X274.3133 Y101.5624
G01 X274.2791 Y101.5948
G01 X274.2467 Y101.6290
G01 X274.2161 Y101.6648
G01 X274.1874 Y101.7022
G01 X274.1607 Y101.7410
G01 X274.1361 Y101.7812
G01 X274.1136 Y101.8226
G01 X274.0933 Y101.8652
G01 X274.0753 Y101.9087
G01 X274.0596 Y101.9531
G01 X274.0462 Y101.9983
G01 X274.0352 Y102.0441
G01 X274.0266 Y102.0904
G01 X274.0204 Y102.1371
G01 X274.0167 Y102.1841
G01 X274.0155 Y102.2312
G01 X274.0167 Y102.2783
G01 X274.0204 Y102.3253
G01 X274.0266 Y102.3720
G01 X274.0352 Y102.4183
G01 X274.0462 Y102.4642
G01 X274.0596 Y102.5093
G01 X274.0753 Y102.5538
G01 X274.0933 Y102.5973
G01 X274.1136 Y102.6398
G01 X274.1361 Y102.6812
G01 X274.1607 Y102.7214
G01 X274.1874 Y102.7602
G01 X274.2161 Y102.7976
G01 X274.2467 Y102.8334
G01 X274.2791 Y102.8676
G01 X274.3133 Y102.9001
G01 X274.3491 Y102.9307
G01 X274.3865 Y102.9593
G01 X274.4253 Y102.9860
G01 X274.4655 Y103.0106
G01 X274.5069 Y103.0331
G01 X274.5495 Y103.0534
G01 X274.5930 Y103.0714
G01 X274.6374 Y103.0872
G01 X274.6826 Y103.1006
G01 X274.7284 Y103.1116
G01 X274.7747 Y103.1201
G01 X274.8214 Y103.1263
G01 X274.8684 Y103.1300
G01 X274.9155 Y103.1312
G01 X274.9626 Y103.1300
G01 X275.0096 Y103.1263
G01 X275.0563 Y103.1201
G01 X275.1026 Y103.1116
G01 X275.1485 Y103.1006
G01 X275.1936 Y103.0872
G01 X275.2380 Y103.0714
G01 X275.2816 Y103.0534
G01 X275.3241 Y103.0331
G01 X275.3655 Y103.0106
G01 X275.4057 Y102.9860
G01 X275.4445 Y102.9593
G01 X275.4819 Y102.9307
G01 X275.5177 Y102.9001
G01 X275.5519 Y102.8676
G01 X275.5843 Y102.8334
G01 X275.6149 Y102.7976
G01 X275.6436 Y102.7602
G01 X275.6703 Y102.7214
G01 X275.6949 Y102.6812
G01 X275.7174 Y102.6398
G01 X275.7377 Y102.5973
G01 X275.7557 Y102.5538
G01 X275.7715 Y102.5093
G01 X275.7848 Y102.4642
G01 X275.7958 Y102.4183
G01 X275.8044 Y102.3720
G01 X275.8106 Y102.3253
G01 X275.8143 Y102.2783
G01 X275.8155 Y102.2312
G01 X275.8249 Y102.1848 F800
G01 X275.8320 Y102.1380
G01 X275.8366 Y102.0909
G01 X275.8388 Y102.0436
G01 X275.8385 Y101.9963
G01 X275.8359 Y101.9490
G01 X275.8308 Y101.9020
G01 X275.8232 Y101.8552
G01 X275.8037 Y101.8111
G01 X275.7820 Y101.7681
G01 X275.7582 Y101.7261
G01 X275.7324 Y101.6854
G01 X275.7047 Y101.6459
G01 X275.6750 Y101.6079
G01 X275.6435 Y101.5714
G01 X275.6103 Y101.5365
G01 X275.5753 Y101.5032
G01 X275.5388 Y101.4717
G01 X275.5008 Y101.4421
G01 X275.4614 Y101.4143
G01 X275.4206 Y101.3885
G01 X275.3787 Y101.3647
G01 X275.3356 Y101.3430
G01 X275.2915 Y101.3235
G01 X275.2465 Y101.3061
G01 X275.2007 Y101.2910
G01 X275.1542 Y101.2781
G01 X275.1072 Y101.2676
G01 X275.0597 Y101.2593
G01 X275.0118 Y101.2534
G01 X274.9637 Y101.2499
G01 X274.9155 Y101.2487
G01 X274.8673 Y101.2499
G01 X274.8192 Y101.2534
G01 X274.7713 Y101.2593
G01 X274.7238 Y101.2676
G01 X274.6768 Y101.2781
G01 X274.6303 Y101.2910
G01 X274.5845 Y101.3061
G01 X274.5395 Y101.3235
G01 X274.4954 Y101.3430
G01 X274.4524 Y101.3647
G01 X274.4104 Y101.3885
G01 X274.3697 Y101.4143
G01 X274.3302 Y101.4421
G01 X274.2922 Y101.4717
G01 X274.2557 Y101.5032
G01 X274.2208 Y101.5365
G01 X274.1875 Y101.5714
G01 X274.1560 Y101.6079
G01 X274.1263 Y101.6459
G01 X274.0986 Y101.6854
G01 X274.0728 Y101.7261
G01 X274.0490 Y101.7681
G01 X274.0273 Y101.8111
G01 X274.0078 Y101.8552
G01 X273.9904 Y101.9002
G01 X273.9753 Y101.9460
G01 X273.9624 Y101.9925
G01 X273.9519 Y102.0395
G01 X273.9436 Y102.0871
G01 X273.9377 Y102.1349
G01 X273.9342 Y102.1830
G01 X273.9330 Y102.2312
G01 X273.9342 Y102.2794
G01 X273.9377 Y102.3275
G01 X273.9436 Y102.3754
G01 X273.9519 Y102.4229
G01 X273.9624 Y102.4700
G01 X273.9753 Y102.5164
G01 X273.9904 Y102.5622
G01 X274.0078 Y102.6072
G01 X274.0273 Y102.6513
G01 X274.0490 Y102.6944
G01 X274.0728 Y102.7363
G01 X274.0986 Y102.7771
G01 X274.1263 Y102.8165
G01 X274.1560 Y102.8545
G01 X274.1875 Y102.8910
G01 X274.2208 Y102.9260
G01 X274.2557 Y102.9592
G01 X274.2922 Y102.9907
G01 X274.3302 Y103.0204
G01 X274.3697 Y103.0482
G01 X274.4104 Y103.0740
G01 X274.4524 Y103.0977
G01 X274.4954 Y103.1194
G01 X274.5395 Y103.1390
G01 X274.5845 Y103.1563
G01 X274.6303 Y103.1714
