;Project FamilieGeithWohntHier
;Created by Estlcam version 11 build 11,112
;Machining time about 00:30:59 hours

G90
M03 S18000
G00 X0.0000 Y0.0000 Z0.0000
G00 Z2.0000


;No. 1: Hole 23
G00 X37.2590 Y7.2112
G00 Z0.5000
G01 Z-1.8000 F400 S18000
M106 S200
G01 X263.8093 F800
G01 X263.6829 Y8.7112
G01 X37.3216
G01 X37.2881 Y10.2112
G01 X38.7985
G01 X38.7495 Y11.7112
G01 X37.1604
G01 X36.9400 Y13.2112
G01 X38.6228
G01 X38.4159 Y14.7112
G01 X36.6273
G01 X36.2219 Y16.2112
G01 X38.1284
G01 X37.7558 Y17.7112
G01 X35.7228
G01 X35.1274 Y19.2112
G01 X37.2952
G01 X36.7420 Y20.7112
G01 X34.4307
G01 X33.6298 Y22.2112
G01 X36.0906
G01 X35.3324 Y23.7112
G01 X32.7164
G01 X31.6808 Y25.2112
G01 X34.4592
G01 X33.4578 Y26.7112
G01 X30.5090
G01 X29.1818 Y28.2112
G01 X32.3115
G01 X30.9981 Y29.7112
G01 X27.6706
G01 Y31.2112
G01 X25.9303
G01 X29.4808
G01 X27.7115
G01 Y32.7112
G01 X23.8851
G01 X25.6020
G01 Y34.2112
G01 X21.3912
G01 X22.9891 Y35.7112
G01 X18.0729
G01 X19.4564 Y37.2112
G01 X11.0946
G01 X12.2783 Y38.7112
G01 X7.0403
G01 X7.0325 Y37.2112
G01 X8.4580
M107
G00 Z2.0000
G00 X261.2018 Y8.7112
G00 Z0.5000
G01 Z-1.8000 F400
M106 S200
G01 Y10.2112 F800
G01 X263.6600
G01 X263.7391 Y11.7112
G01 X261.2507
G01 X261.3775 Y13.2112
G01 X263.9177
G01 X264.1944 Y14.7112
G01 X261.5843
G01 X261.8719 Y16.2112
G01 X264.5706
G01 X265.0473 Y17.7112
G01 X262.2445
G01 X262.7051 Y19.2112
G01 X265.6268
G01 X266.3120 Y20.7112
G01 X263.2582
G01 X263.9096 Y22.2112
G01 X267.1072
G01 X268.0210 Y23.7112
G01 X264.6679
G01 X265.5411 Y25.2112
G01 X269.0620
G01 X270.2454 Y26.7112
G01 X266.5425
G01 X267.6888 Y28.2112
G01 X271.5887
G01 X273.1205 Y29.7112
G01 X269.0022
G01 X270.5195 Y31.2112
G01 X274.8853
G01 Y32.7112
G01 X276.9530
G01 X272.2888
G01 X274.3983
G01 Y34.2112
G01 X279.4619
G01 X277.0112
G01 Y35.7112
G01 X282.7441
G01 X280.5439
G01 Y37.2112
G01 X288.4858
G01 X287.7220 Y38.7112
G01 X293.6760
G01 X293.6818 Y40.2112
G01 X291.1999
G01 Y41.7112
G01 X293.6876
G01 X293.6934 Y43.2112
G01 X291.1999
G01 Y44.7112
G01 X293.6992
G01 X293.7050 Y46.2112
G01 X291.1999
G01 Y47.7112
G01 X293.7108
G01 X293.7166 Y49.2112
G01 X291.1999
G01 Y50.7112
G01 X293.7220
G01 X293.7273 Y52.2112
G01 X291.1999
G01 Y53.7112
G01 X293.7327
G01 X293.7380 Y55.2112
G01 X291.1999
G01 Y56.7112
G01 X293.7434
G01 X293.7488 Y58.2112
G01 X291.1999
G01 Y59.7112
G01 X293.7541
G01 X293.7595 Y61.2112
G01 X291.1999
G01 Y62.7112
G01 X293.7645
G01 X293.7694 Y64.2112
G01 X291.1999
G01 Y65.7112
G01 X293.7743
G01 X293.7792 Y67.2112
G01 X291.1999
G01 Y68.7112
G01 X293.7841
G01 X293.7890 Y70.2112
G01 X291.1999
G01 Y71.7112
G01 X293.7939
G01 X293.7988 Y73.2112
G01 X291.1999
G01 Y74.7112
G01 X293.8032
G01 X293.8076 Y76.2112
G01 X291.1999
G01 Y77.7112
G01 X293.8120
G01 X293.8164 Y79.2112
G01 X291.1999
G01 Y80.7112
G01 X293.8208
G01 X293.8252 Y82.2112
G01 X291.1999
G01 Y83.7112
G01 X293.8296
G01 X293.8335 Y85.2112
G01 X291.1999
G01 Y86.7112
G01 X293.8373
G01 X293.8411 Y88.2112
G01 X291.1999
G01 Y89.7112
G01 X293.8449
G01 X293.8487 Y91.2112
G01 X291.1999
G01 Y92.7112
G01 X293.8525
G01 X293.8561 Y94.2112
G01 X291.1999
G01 Y95.7112
G01 X293.8592
G01 X293.8623 Y97.2112
G01 X291.1999
G01 Y98.7112
G01 X293.8654
G01 X293.8685 Y100.2112
G01 X291.1999
G01 Y101.7112
G01 X293.8716
G01 X293.8744 Y103.2112
G01 X291.1999
G01 Y104.7112
G01 X293.8766
G01 X293.8787 Y106.2112
G01 X291.1999
G01 Y107.7112
G01 X293.8809
G01 X293.8830 Y109.2112
G01 X291.1999
G01 Y110.7112
G01 X293.8852
G01 X293.8864 Y112.2112
G01 X291.1999
G01 X291.1988 Y113.7112
G01 X293.8874
G01 X293.8884 Y115.2112
G01 X280.8177
G01 X282.3836 Y116.7112
G01 X293.8893
G01 X287.4088
G01 Y118.2112
G01 X283.6219
G01 X284.6241 Y119.7112
G01 X287.5211
G01 X288.4087 Y121.2112
G01 X285.4675
G01 X286.1735 Y122.7112
G01 X289.0510
G01 X289.5070 Y124.2112
G01 X286.7221
G01 X287.0899 Y125.7112
G01 X289.7882
G01 X289.8850 Y127.2112
G01 X287.2466
G01 X287.0482 Y128.7112
G01 X289.7597
G01 X289.3220 Y130.2112
G01 X285.8990
G01 X288.3175
G01 Y131.7112
G01 X278.6630
G01 Y130.2112
G01 X276.0936
G01 X283.4131
G01 X281.8693 Y128.7112
G01 X263.8024
G01 X264.9454 Y127.2112
G01 X280.4079
G01 X278.5523
G01 Y125.7112
G01 X266.6636
G01 X269.4851
G01 Y124.2112
G01 X275.6336
M107
G00 Z2.0000
G00 X8.7999 Y38.7112
G00 Z0.5000
G01 Z-1.8000 F400
M106 S200
G01 Y40.2112 F800
G01 X7.0473
G01 X7.0518 Y41.7112
G01 X8.7999
G01 Y43.2112
G01 X7.0563
G01 X7.0581 Y44.7112
G01 X8.7999
G01 Y46.2112
G01 X7.0595
G01 X7.0589 Y47.7112
G01 X8.7999
G01 Y49.2112
G01 X7.0580
G01 X7.0556 Y50.7112
G01 X8.7999
G01 Y52.2112
G01 X7.0527
G01 X7.0487 Y53.7112
G01 X8.7999
G01 Y55.2112
G01 X7.0447
G01 X7.0392 Y56.7112
G01 X8.7999
G01 Y58.2112
G01 X7.0336
G01 X7.0281 Y59.7112
G01 X8.7999
G01 Y61.2112
G01 X7.0226
G01 X7.0170 Y62.7112
G01 X8.7999
G01 Y64.2112
G01 X7.0115
G01 X7.0060 Y65.7112
G01 X8.7999
G01 Y67.2112
G01 X7.0004
G01 X6.9954 Y68.7112
G01 X8.7999
G01 Y70.2112
G01 X6.9907
G01 X6.9868 Y71.7112
G01 X8.7999
G01 Y73.2112
G01 X6.9831
G01 X6.9809 Y74.7112
G01 X8.7999
G01 Y76.2112
G01 X6.9789
G01 X6.9785 Y77.7112
G01 X8.7999
G01 Y79.2112
G01 X6.9787
G01 X6.9805 Y80.7112
G01 X8.7999
G01 Y82.2112
G01 X6.9833
G01 X6.9874 Y83.7112
G01 X8.7999
G01 Y85.2112
G01 X6.9940
G01 X7.0011 Y86.7112
G01 X8.7999
G01 Y88.2112
G01 X7.0109
G01 X7.0219 Y89.7112
G01 X8.7999
G01 Y91.2112
G01 X7.0353
G01 X7.0506 Y92.7112
G01 X8.7999
G01 Y94.2112
G01 X7.0680
G01 X7.0874 Y95.7112
G01 X8.7999
G01 Y97.2112
G01 X7.1096
G01 X7.1344 Y98.7112
G01 X8.7999
G01 Y100.2112
G01 X7.1617
G01 X7.1924 Y101.7112
G01 X8.7999
G01 Y103.2112
G01 X7.2256
G01 X7.2611 Y104.7112
G01 X8.7999
G01 Y106.2112
G01 X7.1735
G01 X6.9952 Y107.7112
G01 X8.7999
G01 Y109.2112
G01 X6.8432
G01 X6.7506 Y110.7112
G01 X8.7999
G01 Y112.2112
G01 X6.7557
G01 X6.9145 Y113.7112
G01 X8.8011
G01 X7.3513 Y115.2112
G01 X13.5221
G01 X14.0390 Y116.7112
G01 X8.5455
G01 X12.2110
G01 Y118.2112
G01 X16.1831
G01 X14.7931 Y119.7112
G01 X18.7701
G01 X19.8304 Y121.2112
G01 X16.8582
G01 X18.0218 Y122.7112
G01 X20.1563
G01 X20.2741 Y124.2112
G01 X18.4131
G01 X18.4207 Y125.7112
G01 X20.3337
G01 X20.3602 Y127.2112
G01 X18.4336
G01 X18.4522 Y128.7112
G01 X20.3647
G01 Y130.2112
G01 X18.4744
G01 X18.4998 Y131.7112
G01 X20.3648
G01 Y133.2112
G01 X18.5273
G01 X18.5549 Y134.7112
G01 X20.3648
G01 Y136.2112
G01 X18.5823
G01 X18.6085 Y137.7112
G01 X20.3648
G01 Y139.2112
G01 X18.6319
G01 X18.6522 Y140.7112
G01 X20.3648
G01 Y142.2112
G01 X18.6682
G01 X18.6778 Y143.7112
G01 X20.3648
G01 Y145.2112
G01 X18.6814
G01 X18.6774 Y146.7112
G01 X20.3648
G01 Y148.2112
G01 X18.6641
G01 X18.6410 Y149.7112
G01 X20.3649
G01 Y151.2112
G01 X18.6069
G01 X18.5606 Y152.7112
G01 X20.3649
G01 Y154.2112
G01 X18.5012
G01 X18.4274 Y155.7112
G01 X20.3649
G01 Y157.2112
G01 X18.3381
G01 X18.2321 Y158.7112
G01 X20.3267
G01 X20.1870 Y160.2112
G01 X18.1083
G01 X17.8303 Y161.7112
G01 X19.8793
G01 X19.1146 Y163.2112
G01 X15.2854
G01 X15.7476 Y164.7112
G01 X13.6567
G01 X14.4805 Y166.2112
G01 X12.7832
G01 X12.4979 Y167.7112
G01 X14.4076
G01 X14.8241 Y169.2112
G01 X12.9314
G01 X13.6448 Y170.7112
G01 X15.6566
G01 X14.5314 Y172.2112
G01 X16.8811
G01 X15.6170 Y173.7112
G01 X18.4761
G01 X16.9370 Y175.2112
G01 X20.4085
G01 X18.5384
G01 Y176.7112
G01 X22.6656
G01 X20.4929
G01 Y178.2112
G01 X25.3947
G01 X22.9137
G01 Y179.7112
G01 X28.9128
G01 X26.0118
G01 Y181.2112
G01 X34.7338
G01 X30.2817
G01 Y182.7112
G01 X52.1147
G01 Y181.2112
G01 X56.2909
G01 X47.2061
G01 X52.4764
G01 Y179.7112
G01 X59.6229
G01 X56.1579
G01 Y178.2112
G01 X71.5387
G01 X72.6560 Y176.7112
G01 X69.2966
G01 X70.3323 Y175.2112
G01 X73.3703
G01 X73.8377 Y173.7112
G01 X70.9147
G01 X71.2634 Y172.2112
G01 X74.1220
G01 X74.2522 Y170.7112
G01 X71.4497
G01 X71.4849 Y169.2112
G01 X74.2394
G01 X74.0803 Y167.7112
G01 X71.3749
G01 X71.1109 Y166.2112
G01 X73.7549
G01 X73.0855 Y164.7112
G01 X70.6710
G01 X70.0295 Y163.2112
G01 X73.0183
G01 X74.1052 Y161.7112
G01 X69.1524
G01 X67.9948 Y160.2112
G01 X96.1967
G01 Y158.7112
G01 X98.6714
G01 X92.1181
G01 X95.8366
G01 Y157.2112
G01 X101.0049
G01 Y155.7112
G01 X103.7257
G01 X97.6745
G01 X98.9021 Y154.2112
G01 X116.6868
G01 X111.4090
G01 Y152.7112
G01 X99.7991
G01 X100.4847 Y151.2112
G01 X110.3567
G01 X110.3945 Y149.7112
G01 X101.0202
G01 X101.4416 Y148.2112
G01 X111.6764
G01 Y146.7112
G01 X113.9140
G01 X101.7738
G01 X102.0335 Y145.2112
G01 X114.2121
G01 X114.2945 Y143.7112
G01 X102.2695
G01 X102.5054 Y142.2112
G01 X114.3121
G01 X114.3122 Y140.7112
G01 X102.7413
G01 X102.9772 Y139.2112
G01 X114.3123
G01 Y137.7112
G01 X103.2132
G01 X103.4491 Y136.2112
G01 X114.3124
G01 Y134.7112
G01 X103.6850
G01 X103.9210 Y133.2112
G01 X114.3125
G01 Y131.7112
G01 X104.1569
G01 X104.3928 Y130.2112
G01 X114.3126
G01 X114.3127 Y128.7112
G01 X104.6287
G01 X104.8647 Y127.2112
G01 X114.3127
G01 X114.3128 Y125.7112
G01 X105.1006
G01 X105.3365 Y124.2112
G01 X114.3128
G01 X114.2994 Y122.7112
G01 X105.5725
G01 X105.8150 Y121.2112
G01 X114.2257
G01 X114.0284 Y119.7112
G01 X106.1954
G01 X107.0223 Y118.2112
G01 X113.2395
G01 X111.3254
G01 Y116.7112
G01 X108.9625
M107
G00 Z2.0000
G00 X280.5369 Y131.7112
G00 Z0.5000
G01 Z-1.8000 F400
M106 S200
G01 Y133.2112 F800
G01 X285.4642
G01 X285.0576 Y134.7112
G01 X282.0316
G01 X283.2547 Y136.2112
G01 X286.1230
G01 X287.0361 Y137.7112
G01 X284.2702
G01 X285.1037 Y139.2112
G01 X287.7923
G01 X288.4137 Y140.7112
G01 X285.7681
G01 X286.2811 Y142.2112
G01 X288.9138
G01 X289.2997 Y143.7112
G01 X286.6505
G01 X286.8843 Y145.2112
G01 X289.5747
G01 X289.7387 Y146.7112
G01 X286.9910
G01 X286.9831 Y148.2112
G01 X289.7878
G01 X289.7137 Y149.7112
G01 X286.8800
G01 X286.6586 Y151.2112
G01 X289.5052
G01 X289.1445 Y152.7112
G01 X286.2785
G01 X285.6640 Y154.2112
G01 X288.6047
G01 X287.8444 Y155.7112
G01 X284.6191
G01 X286.7970
G01 Y157.2112
G01 X276.9724
G01 Y158.7112
G01 X272.6803
G01 X285.2965
G01 X276.4882
G01 Y160.2112
G01 X262.4424
G01 Y158.7112
G01 X259.5222
G01 X265.6930
G01 X261.4641
G01 Y157.2112
G01 X257.3543
G01 X259.0153 Y155.7112
G01 X255.6050
G01 X254.1438 Y154.2112
G01 X257.1682
G01 X255.6940 Y152.7112
G01 X252.9037
G01 X251.8476 Y151.2112
G01 X254.4802
G01 X253.4619 Y149.7112
G01 X250.9496
G01 X250.1949 Y148.2112
G01 X252.5970
G01 X251.8580 Y146.7112
G01 X249.5735
G01 X249.0785 Y145.2112
G01 X251.2246
G01 X250.6896 Y143.7112
G01 X248.3509
G01 X250.2468
G01 Y142.2112
G01 X243.7278
G01 Y140.7112
G01 X249.8905
G01 X249.6157 Y139.2112
G01 X243.7278
G01 Y137.7112
G01 X249.4176
G01 X249.2926 Y136.2112
G01 X243.7278
G01 Y134.7112
G01 X249.2362
G01 X249.2462 Y133.2112
G01 X243.7278
G01 Y131.7112
G01 X249.3245
G01 X249.4767 Y130.2112
G01 X243.7278
G01 Y128.7112
G01 X249.7081
G01 X250.0251 Y127.2112
G01 X243.7278
G01 Y125.7112
G01 X250.4349
G01 X250.9448 Y124.2112
G01 X243.7278
G01 X243.7305 Y122.7112
G01 X251.5660
G01 X252.2984 Y121.2112
G01 X243.7855
G01 X244.0109 Y119.7112
G01 X253.1697
G01 X254.2170 Y118.2112
G01 X244.7905
G01 X246.6608
G01 Y116.7112
G01 X255.4963
G01 X257.0936 Y115.2112
G01 X247.7249
M107
G00 Z2.0000
G00 X247.0561 Y142.2112
G00 Z0.5000
G01 Z-1.8000 F400
M106 S200
G01 Y143.7112 F800
G01 X243.7278
G01 Y145.2112
G01 X246.5213
G01 X246.5571 Y146.7112
G01 X243.7278
G01 Y148.2112
G01 X246.5642
G01 X246.5428 Y149.7112
G01 X243.7278
G01 Y151.2112
G01 X246.4929
G01 X246.4135 Y152.7112
G01 X243.7278
G01 Y154.2112
G01 X246.3014
G01 X246.1529 Y155.7112
G01 X243.7140
G01 X243.3524 Y157.2112
G01 X245.9617
G01 X245.7167 Y158.7112
G01 X231.9017
G01 X232.0447 Y157.2112
G01 X237.7746
G01 X235.3802
G01 Y155.7112
G01 X227.5968
G01 Y154.2112
G01 X225.0113
G01 X231.8107
G01 X226.5608
G01 Y152.7112
G01 X219.9656
G01 Y151.2112
G01 X225.5852
G01 X225.6792 Y149.7112
G01 X219.9656
G01 Y148.2112
G01 X227.1143
G01 Y146.7112
G01 X229.0851
G01 X219.9656
G01 Y145.2112
G01 X229.4635
G01 X229.5543 Y143.7112
G01 X219.9656
G01 Y142.2112
G01 X229.5714
G01 Y140.7112
G01 X219.9656
G01 Y139.2112
G01 X229.5714
G01 X229.5713 Y137.7112
G01 X219.9656
G01 Y136.2112
G01 X229.5713
G01 Y134.7112
G01 X219.9657
G01 Y133.2112
G01 X229.5712
G01 Y131.7112
G01 X219.9657
G01 Y130.2112
G01 X229.5712
G01 X229.5711 Y128.7112
G01 X219.9657
G01 Y127.2112
G01 X229.5711
G01 Y125.7112
G01 X219.9657
G01 Y124.2112
G01 X229.5710
G01 X229.5585 Y122.7112
G01 X219.9682
G01 X220.0233 Y121.2112
G01 X229.4862
G01 X229.2969 Y119.7112
G01 X220.2487
G01 X221.0281 Y118.2112
G01 X228.5263
G01 X226.5623
G01 Y116.7112
G01 X222.9227
G01 X223.9669 Y115.2112
G01 X225.6863
M107
G00 Z2.0000
G00 X222.8616 Y152.7112
G00 Z0.5000
G01 Z-1.8000 F400
M106 S200
G01 Y154.2112 F800
G01 X219.9656
G01 Y155.7112
G01 X222.6781
G01 X222.6538 Y157.2112
G01 X219.9656
G01 X219.9655 Y158.7112
G01 X222.6485
G01 X222.6568 Y160.2112
G01 X219.9655
G01 Y161.7112
G01 X222.6745
G01 X222.6972 Y163.2112
G01 X219.9655
G01 Y164.7112
G01 X222.7209
G01 X222.7409 Y166.2112
G01 X219.9655
G01 Y167.7112
G01 X222.7536
G01 X222.7545 Y169.2112
G01 X219.9655
G01 Y170.7112
G01 X222.7385
G01 X222.7009 Y172.2112
G01 X219.9655
G01 Y173.7112
G01 X222.6371
G01 X222.5417 Y175.2112
G01 X219.9655
G01 Y176.7112
G01 X222.4099
G01 X222.2362 Y178.2112
G01 X219.9616
G01 X219.6905 Y179.7112
G01 X222.0124
G01 X221.7338 Y181.2112
G01 X218.2921
G01 X221.0830
G01 Y182.7112
G01 X213.8967
G01 X216.1619
G01 Y181.2112
G01 X211.4716
G01 X213.9469
G01 Y179.7112
G01 X208.5973
G01 X211.4801
G01 Y178.2112
G01 X203.4896
G01 Y176.7112
G01 X201.1522
G01 X207.4999
G01 X202.5949
G01 Y175.2112
G01 X200.1713
G01 X199.9238 Y173.7112
G01 X201.7111
G01 X201.8418 Y172.2112
G01 X199.4018
G01 Y170.7112
G01 X195.6795
G01 X203.3119
G01 Y169.2112
G01 X205.4418
G01 X196.5936
G01 X197.0664 Y167.7112
G01 X205.7197
G01 X205.7966 Y166.2112
G01 X197.2036
G01 X197.0505 Y164.7112
G01 X205.8092
G01 Y163.2112
G01 X196.5572
G01 X195.6144 Y161.7112
G01 X205.8092
G01 Y160.2112
G01 X193.9954
G01 Y158.7112
G01 X185.0088
G01 X205.8092
G01 X205.8091 Y157.2112
G01 X196.1284
G01 X196.4904 Y155.7112
G01 X205.8091
G01 Y154.2112
G01 X196.5039
G01 Y152.7112
G01 X205.8091
G01 Y151.2112
G01 X196.5039
G01 Y149.7112
G01 X205.8091
G01 Y148.2112
G01 X196.5040
G01 Y146.7112
G01 X205.8091
G01 Y145.2112
G01 X196.5040
G01 X196.5041 Y143.7112
G01 X205.8091
G01 Y142.2112
G01 X196.5041
G01 Y140.7112
G01 X205.8091
G01 Y139.2112
G01 X196.5041
G01 X196.5042 Y137.7112
G01 X205.8091
G01 Y136.2112
G01 X196.5042
G01 Y134.7112
G01 X205.8091
G01 Y133.2112
G01 X196.5043
G01 Y131.7112
G01 X205.8091
G01 Y130.2112
G01 X196.5043
G01 Y128.7112
G01 X205.8091
G01 Y127.2112
G01 X196.5044
G01 Y125.7112
G01 X205.8091
G01 X205.8062 Y124.2112
G01 X196.5044
G01 X196.5069 Y122.7112
G01 X205.7766
G01 X205.6990 Y121.2112
G01 X196.5614
G01 X196.7869 Y119.7112
G01 X205.5284
G01 X204.8643 Y118.2112
G01 X197.5665
G01 X199.4368
G01 Y116.7112
G01 X202.9199
G01 X201.9861 Y115.2112
G01 X200.5009
M107
G00 Z2.0000
G00 X112.1966 Y154.2112
G00 Z0.5000
G01 Z-1.8000 F400
M106 S200
G01 Y155.7112 F800
G01 X120.4247
G01 Y157.2112
G01 X122.7622
G01 X117.8092
G01 X120.5480
G01 Y158.7112
G01 X134.5606
G01 X130.5686
G01 Y157.2112
G01 X127.9318
M107
G00 Z2.0000
G00 X185.0190 Y158.7112
G00 Z0.5000
G01 Z-1.8000 F400
M106 S200
G01 Y157.2112 F800
G01 X190.5507
G01 X188.1564
G01 Y155.7112
G01 X180.3607
G01 Y154.2112
G01 X177.8402
G01 X184.5879
G01 X179.3368
G01 Y152.7112
G01 X176.7156
G01 X178.3612 Y151.2112
G01 X171.8928
G01 X172.3279 Y149.7112
G01 X178.4552
G01 X179.8903 Y148.2112
G01 X172.6176
G01 X172.7934 Y146.7112
G01 X181.8612
G01 X182.2388 Y145.2112
G01 X172.8782
G01 X172.8919 Y143.7112
G01 X182.3302
G01 X182.3470 Y142.2112
G01 X172.8919
G01 Y140.7112
G01 X182.3470
G01 Y139.2112
G01 X172.8920
G01 Y137.7112
G01 X182.3471
G01 Y136.2112
G01 X172.8921
G01 Y134.7112
G01 X182.3471
G01 X182.3472 Y133.2112
G01 X172.8921
G01 X172.8922 Y131.7112
G01 X182.3472
G01 Y130.2112
G01 X172.8922
G01 X172.8923 Y128.7112
G01 X182.3472
G01 X182.3473 Y127.2112
G01 X172.8923
G01 Y125.7112
G01 X182.3473
G01 Y124.2112
G01 X172.8924
G01 X172.8977 Y122.7112
G01 X182.3342
G01 X182.2622 Y121.2112
G01 X173.0078
G01 X173.3550 Y119.7112
G01 X182.0726
G01 X181.3023 Y118.2112
G01 X174.2249
G01 X176.0719
G01 Y116.7112
G01 X179.3384
G01 X178.4623 Y115.2112
G01 X177.0140
M107
G00 Z2.0000
G00 X174.2742 Y151.2112
G00 Z0.5000
G01 Z-1.8000 F400
M106 S200
G01 Y152.7112 F800
G01 X171.2645
G01 X170.3109 Y154.2112
G01 X173.6468
G01 X172.7577 Y155.7112
G01 X168.9539
G01 Y157.2112
G01 X166.9478
G01 X171.5235
G01 X169.7870
G01 Y158.7112
G01 X163.1648
G01 X167.1605
G01 Y160.2112
G01 X152.4083
G01 Y158.7112
G01 X149.7549
G01 X155.6966
G01 X152.0777
G01 Y157.2112
G01 X144.4672
G01 X146.5777
G01 Y155.7112
G01 X150.1235
M107
G00 Z2.0000
G00 X69.0933 Y160.2112
G00 Z0.5000
G01 Z-1.8000 F400
M106 S200
G01 Y158.7112 F800
G01 X66.4915
G01 X68.0799 Y157.2112
G01 X64.4498
G01 X67.5086
G01 Y155.7112
G01 X60.9779
G01 X67.1659
G01 Y154.2112
G01 X47.0911
G01 X47.2097 Y152.7112
G01 X67.0216
G01 X67.0631 Y151.2112
G01 X47.3765
G01 X47.6027 Y149.7112
G01 X67.3121
G01 X67.8125 Y148.2112
G01 X47.8945
G01 X48.2603 Y146.7112
G01 X68.6227
G01 X69.8389 Y145.2112
G01 X48.7042
G01 X49.2251 Y143.7112
G01 X71.6719
G01 Y142.2112
G01 X76.0720
G01 X49.8236
G01 X50.4646 Y140.7112
G01 X73.1218
G01 X70.7719
G01 Y139.2112
G01 X51.1056
G01 X51.7572 Y137.7112
G01 X69.1525
G01 X67.9628 Y136.2112
G01 X52.0745
G01 X51.8222 Y134.7112
G01 X67.0503
G01 X66.3642 Y133.2112
G01 X50.3240
G01 Y131.7112
G01 X36.2724
G01 X65.8677
G01 X65.5326 Y130.2112
G01 X36.2725
G01 Y128.7112
G01 X65.3369
G01 X65.2645 Y127.2112
G01 X36.2809
G01 X36.3253 Y125.7112
G01 X65.3045
G01 X65.4649 Y124.2112
G01 X36.4209
G01 X36.5949 Y122.7112
G01 X65.7587
G01 X66.2049 Y121.2112
G01 X36.9452
G01 X37.8982 Y119.7112
G01 X66.8264
G01 X67.6531 Y118.2112
G01 X41.0332
G01 X43.6186
G01 Y116.7112
G01 X68.7250
G01 X70.0966 Y115.2112
G01 X44.1187
M107
G00 Z2.0000
G00 X47.5830 Y131.7112
G00 Z0.5000
G01 Z-1.8000 F400
M106 S200
G01 Y133.2112 F800
G01 X36.2724
G01 Y134.7112
G01 X46.0952
G01 X45.1029 Y136.2112
G01 X36.2724
G01 X36.2723 Y137.7112
G01 X43.9683
G01 X42.5847 Y139.2112
G01 X36.2723
G01 Y140.7112
G01 X40.5655
M107
G00 Z2.0000
G00 X53.4366 Y154.2112
G00 Z0.5000
G01 Z-1.8000 F400
M106 S200
G01 Y155.7112 F800
G01 X47.0165
G01 X46.9800 Y157.2112
G01 X50.3604
G01 X48.5793
G01 Y158.7112
G01 X46.7635
G01 X47.4960 Y160.2112
G01 X45.6066
G01 X46.9326 Y161.7112
G01 X36.5120
G01 X36.3702 Y160.2112
G01 X42.2343
G01 X41.0299 Y158.7112
G01 X36.2939
G01 X36.2724 Y157.2112
G01 X40.6398
G01 X40.3162 Y155.7112
G01 X36.2739
G01 X36.2755 Y154.2112
G01 X39.8802
G01 X39.1739 Y152.7112
G01 X36.2770
G01 X36.2786 Y151.2112
G01 X37.6692
M107
G00 Z2.0000
G00 X74.0832 Y160.2112
G00 Z0.5000
G01 Z-1.8000 F400
M106 S200
G01 Y158.7112 F800
G01 X85.5070
M107
G00 Z2.0000
G00 X147.4488 Y157.2112
G00 Z0.5000
G01 Z-1.8000 F400
M106 S200
G01 Y158.7112 F800
G01 X140.3304
G01 X144.8966
G01 Y160.2112
G01 X130.1461
M107
G00 Z2.0000
G00 X129.1268 Y158.7112
G00 Z0.5000
G01 Z-1.8000 F400
M106 S200
G01 Y160.2112 F800
G01 X123.1378
M107
G00 Z2.0000
G00 X185.7434 Y158.7112
G00 Z0.5000
G01 Z-1.8000 F400
M106 S200
G01 Y160.2112 F800
G01 X183.1357
G01 X184.0736 Y161.7112
G01 X181.9844
G01 X181.2685 Y163.2112
G01 X183.1096
G01 X182.6051 Y164.7112
G01 X180.8577
G01 X180.7040 Y166.2112
G01 X182.4485
G01 X182.5883 Y167.7112
G01 X180.8010
G01 X181.0286 Y169.2112
G01 X183.0724
G01 X184.0076 Y170.7112
G01 X181.5236
G01 X182.3977 Y172.2112
G01 X185.6260
G01 X183.8010
G01 Y173.7112
G01 X196.8051
G01 X198.0797 Y172.2112
G01 X194.1093
M107
G00 Z2.0000
G00 X232.9674 Y158.7112
G00 Z0.5000
G01 Z-1.8000 F400
M106 S200
G01 Y160.2112 F800
G01 X230.1669
G01 X229.1650 Y161.7112
G01 X231.2987
G01 X230.3336 Y163.2112
G01 X228.5513
G01 X228.2021 Y164.7112
G01 X229.8288
G01 X229.6725 Y166.2112
G01 X228.0677
G01 X228.1305 Y167.7112
G01 X229.8123
G01 X230.2960 Y169.2112
G01 X228.3936
G01 X228.8815 Y170.7112
G01 X231.2314
G01 X229.6566 Y172.2112
G01 X232.8500
G01 X230.8674
G01 Y173.7112
G01 X243.7450
G01 X245.1021 Y172.2112
G01 X241.3333
G01 X242.9033 Y170.7112
G01 X246.0595
G01 X246.7130 Y169.2112
G01 X243.8176
G01 X244.2904 Y167.7112
G01 X247.1005
G01 X247.2257 Y166.2112
G01 X244.4277
G01 X244.2745 Y164.7112
G01 X247.0749
G01 X246.6096 Y163.2112
G01 X243.7812
G01 X242.8375 Y161.7112
G01 X245.7606
G01 X245.4007 Y160.2112
G01 X241.2183
M107
G00 Z2.0000
G00 X268.7509
G00 Z0.5000
G01 Z-1.8000 F400
M106 S200
G01 Y161.7112 F800
G01 X270.8280
M107
G00 Z2.0000
G00 X46.7817
G00 Z0.5000
G01 Z-1.8000 F400
M106 S200
G01 Y163.2112 F800
G01 X36.7333
G01 X37.0537 Y164.7112
G01 X47.1779
G01 Y166.2112
G01 X52.8506
G01 X37.5030
G01 X38.1307 Y167.7112
G01 X53.2809
G01 X53.0309 Y169.2112
G01 X39.0300
G01 X40.4283 Y170.7112
G01 X51.9844
G01 X49.2305
G01 Y172.2112
G01 X43.3505
M107
G00 Z2.0000
G00 X186.1739 Y173.7112
G00 Z0.5000
G01 Z-1.8000 F400
M106 S200
G01 Y175.2112 F800
G01 X194.7873
M107
G00 Z2.0000
G00 X233.0488 Y173.7112
G00 Z0.5000
G01 Z-1.8000 F400
M106 S200
G01 Y175.2112 F800
G01 X241.6846
M107
G00 Z2.0000
G00 X65.2261 Y178.2112
G00 Z0.5000
G01 Z-1.8000 F400
M106 S200
G01 Y176.7112 F800
G01 X59.7643
M107
G00 Z2.0000
G00 X65.9984 Y178.2112
G00 Z0.5000
G01 Z-1.8000 F400
M106 S200
G01 Y179.7112 F800
G01 X69.3495
M107
G00 Z2.0000
G00 X45.2428 Y182.7112
G00 Z0.5000
G01 Z-1.8000 F400
M106 S200
G01 Y184.2112 F800
G01 X38.3333
M107
G00 Z2.0000
G00 X81.5915 Y122.7112
G00 Z0.5000
G01 Z-1.8000 F400
M106 S200
G01 X87.3671 F800
G01 X88.6113 Y124.2112
G01 X80.4658
G01 X79.9827 Y125.7112
G01 X89.3189
G01 X89.7012 Y127.2112
G01 X79.8718
G01 X80.0643 Y128.7112
G01 X84.5950
G01 X83.6586 Y130.2112
G01 X80.7706
M107
G00 Z2.0000
G00 X87.9396 Y127.2112
G00 Z0.5000
G01 Z-1.8000 F400
M106 S200
G01 Y128.7112 F800
G01 X89.8604
M107
G00 Z2.0000
G00 X88.7221 Y139.2112
G00 Z0.5000
G01 Z-1.8000 F400
M106 S200
G01 X87.4940 F800
G01 X88.4439 Y140.7112
G01 X85.8633
G01 X88.1495
G01 Y142.2112
G01 X82.4946
G01 X82.5395 Y143.7112
G01 X87.8092
G01 X87.4004 Y145.2112
G01 X83.6344
G01 X83.5004 Y146.7112
G01 X86.8835
G01 X86.1423 Y148.2112
G01 X81.8963
G01 X82.4216 Y149.7112
G01 X84.1832
M107
G00 Z2.0000
G00 X182.6051 Y164.7112
G00 Z0.5000
G01 Z-1.8000 F400
M106 S200
G01 X182.7245 Y165.1815 F800
G01 X182.8145 Y164.7052
G01 X182.9375 Y164.2364
G01 X183.0929 Y163.7772
G01 X183.2801 Y163.3301
G01 X183.4980 Y162.8971
G01 X183.7456 Y162.4803
G01 X184.0217 Y162.0819
G01 X184.3249 Y161.7038
G01 X184.6538 Y161.3477
G01 X185.0068 Y161.0155
G01 X185.3821 Y160.7087
G01 X185.7779 Y160.4289
G01 X186.1906 Y160.1617
G01 X186.6207 Y159.9235
G01 X187.0661 Y159.7153
G01 X187.5247 Y159.5382
G01 X187.9944 Y159.3929
G01 X188.4729 Y159.2803
G01 X188.9581 Y159.2007
G01 X189.4475 Y159.1546
G01 X189.9390 Y159.1422
G01 X190.4302 Y159.1636
G01 X190.9187 Y159.2186
G01 X191.4024 Y159.3070
G01 X191.8788 Y159.4283
G01 X192.3457 Y159.5821
G01 X192.8011 Y159.7675
G01 X193.2426 Y159.9838
G01 X193.6682 Y160.2298
G01 X194.0760 Y160.5045
G01 X194.4639 Y160.8065
G01 X194.8302 Y161.1344
G01 X195.1732 Y161.4867
G01 X195.4912 Y161.8616
G01 X195.7827 Y162.2575
G01 X196.0463 Y162.6725
G01 X196.2730 Y163.0973
G01 X196.4706 Y163.5365
G01 X196.6381 Y163.9879
G01 X196.7749 Y164.4496
G01 X196.8803 Y164.9195
G01 X196.9538 Y165.3954
G01 X196.9952 Y165.8751
G01 X197.0041 Y166.3566
G01 X196.9806 Y166.8375
G01 X196.9248 Y167.3158
G01 X196.8369 Y167.7893
G01 X196.7173 Y168.2557
G01 X196.5666 Y168.7131
G01 X196.3855 Y169.1592
G01 X196.1747 Y169.5922
G01 X195.9353 Y170.0100
G01 X195.6585 Y170.4201
G01 X195.3538 Y170.8100
G01 X195.0227 Y171.1777
G01 X194.6669 Y171.5216
G01 X194.2880 Y171.8398
G01 X193.8879 Y172.1309
G01 X193.4685 Y172.3934
G01 X193.0318 Y172.6262
G01 X192.5800 Y172.8280
G01 X192.1153 Y172.9979
G01 X191.6399 Y173.1351
G01 X191.1561 Y173.2388
G01 X190.7001 Y173.3031
G01 X190.2409 Y173.3387
G01 X189.7805 Y173.3455
G01 X189.3205 Y173.3234
G01 X188.8628 Y173.2726
G01 X188.4092 Y173.1933
G01 X187.9614 Y173.0857
G01 X187.5213 Y172.9503
G01 X187.0904 Y172.7876
G01 X186.6706 Y172.5983
G01 X186.2635 Y172.3831
G01 X185.8707 Y172.1428
G01 X185.4936 Y171.8784
G01 X185.1339 Y171.5909
G01 X184.7928 Y171.2815
G01 X184.4718 Y170.9513
G01 X184.1721 Y170.6016
G01 X183.8948 Y170.2339
G01 X183.6412 Y169.8496
G01 X183.4120 Y169.4502
G01 X183.2397 Y169.0941
G01 X183.0885 Y168.7286
G01 X182.9590 Y168.3549
G01 X182.8516 Y167.9743
G01 X182.7667 Y167.5879
G01 X182.7045 Y167.1973
G01 X182.6654 Y166.8037
G01 X182.6494 Y166.4085
G01 X182.6478 Y166.2613
G01 X182.6509 Y166.0291
G01 X182.6597 Y165.8165
G01 X182.6749 Y165.6042
G01 X182.6965 Y165.3925
G01 X182.7245 Y165.1815
G01 X182.6051 Y164.7112
M107
G00 Z2.0000
G00 X229.6725 Y166.2112
G00 Z0.5000
G01 Z-1.8000 F400
M106 S200
G01 X229.8749 Y166.0291 F800
G01 X229.8958 Y165.6343
G01 X229.9393 Y165.2413
G01 X230.0055 Y164.8515
G01 X230.0940 Y164.4661
G01 X230.2047 Y164.0865
G01 X230.3370 Y163.7139
G01 X230.4906 Y163.3496
G01 X230.6650 Y162.9947
G01 X230.8596 Y162.6505
G01 X231.0737 Y162.3181
G01 X231.3066 Y161.9986
G01 X231.5575 Y161.6930
G01 X231.8257 Y161.4025
G01 X232.1102 Y161.1279
G01 X232.4101 Y160.8702
G01 X232.7243 Y160.6302
G01 X233.1129 Y160.3526
G01 X233.5190 Y160.1015
G01 X233.9410 Y159.8779
G01 X234.3769 Y159.6829
G01 X234.8248 Y159.5174
G01 X235.2828 Y159.3820
G01 X235.7487 Y159.2774
G01 X236.2206 Y159.2040
G01 X236.6962 Y159.1621
G01 X237.1737 Y159.1520
G01 X237.6507 Y159.1737
G01 X238.1252 Y159.2270
G01 X238.5952 Y159.3118
G01 X239.0585 Y159.4277
G01 X239.5130 Y159.5741
G01 X239.9568 Y159.7504
G01 X240.3878 Y159.9559
G01 X240.8043 Y160.1895
G01 X241.2043 Y160.4504
G01 X241.5860 Y160.7373
G01 X241.9375 Y161.0343
G01 X242.2686 Y161.3539
G01 X242.5780 Y161.6945
G01 X242.8643 Y162.0548
G01 X243.1263 Y162.4331
G01 X243.3627 Y162.8279
G01 X243.5727 Y163.2373
G01 X243.7552 Y163.6598
G01 X243.9096 Y164.0933
G01 X244.0350 Y164.5360
G01 X244.1310 Y164.9861
G01 X244.1972 Y165.4414
G01 X244.2333 Y165.9002
G01 X244.2391 Y166.3603
G01 X244.2145 Y166.8198
G01 X244.1598 Y167.2767
G01 X244.0798 Y167.7361
G01 X243.9692 Y168.1891
G01 X243.8286 Y168.6337
G01 X243.6586 Y169.0679
G01 X243.4599 Y169.4897
G01 X243.2334 Y169.8973
G01 X242.9801 Y170.2888
G01 X242.7013 Y170.6625
G01 X242.3980 Y171.0167
G01 X242.0717 Y171.3498
G01 X241.7239 Y171.6604
G01 X241.3561 Y171.9469
G01 X241.0007 Y172.1927
G01 X240.6311 Y172.4166
G01 X240.2489 Y172.6180
G01 X239.8552 Y172.7960
G01 X239.4515 Y172.9501
G01 X239.0393 Y173.0797
G01 X238.6201 Y173.1843
G01 X238.1953 Y173.2635
G01 X237.7666 Y173.3171
G01 X237.3354 Y173.3448
G01 X236.9033 Y173.3466
G01 X236.4719 Y173.3225
G01 X236.0427 Y173.2725
G01 X235.6173 Y173.1969
G01 X235.1972 Y173.0958
G01 X234.7839 Y172.9697
G01 X234.3790 Y172.8190
G01 X233.9838 Y172.6443
G01 X233.5998 Y172.4462
G01 X233.2285 Y172.2253
G01 X232.8700 Y171.9907
G01 X232.5265 Y171.7348
G01 X232.1989 Y171.4587
G01 X231.8887 Y171.1633
G01 X231.5969 Y170.8497
G01 X231.3245 Y170.5190
G01 X231.0727 Y170.1725
G01 X230.8422 Y169.8114
G01 X230.6339 Y169.4371
G01 X230.4486 Y169.0508
G01 X230.2870 Y168.6541
G01 X230.1497 Y168.2483
G01 X230.0349 Y167.7963
G01 X229.9504 Y167.3376
G01 X229.8964 Y166.8743
G01 X229.8733 Y166.4085
G01 X229.8717 Y166.2613
G01 X229.8749 Y166.0291
G01 X229.6725 Y166.2112
M107
G00 Z2.0000
G00 X219.9655
G00 Z0.5000
G01 Z-1.8000 F400
M106 S200
G01 X219.7655 F800
G01 Y177.9985
G01 X219.7709 Y178.2605
G01 X219.7588 Y178.5223
G01 X219.7292 Y178.7827
G01 X219.6821 Y179.0405
G01 X219.6178 Y179.2945
G01 X219.5366 Y179.5437
G01 X219.4388 Y179.7869
G01 X219.3250 Y180.0229
G01 X219.2507 Y180.1419
G01 X219.1699 Y180.2564
G01 X219.0826 Y180.3661
G01 X218.9892 Y180.4707
G01 X218.8900 Y180.5697
G01 X218.7853 Y180.6630
G01 X218.6754 Y180.7501
G01 X218.5608 Y180.8308
G01 X218.4418 Y180.9048
G01 X218.3187 Y180.9719
G01 X218.1920 Y181.0319
G01 X218.0620 Y181.0846
G01 X217.9293 Y181.1298
G01 X217.7942 Y181.1673
G01 X217.6572 Y181.1970
G01 X217.5187 Y181.2189
G01 X217.3792 Y181.2328
G01 X217.2392 Y181.2388
G01 X217.0990 Y181.2368
G01 X216.9591 Y181.2267
G01 X216.8201 Y181.2087
G01 X216.6823 Y181.1828
G01 X216.5462 Y181.1491
G01 X216.4123 Y181.1077
G01 X216.2809 Y181.0587
G01 X216.1526 Y181.0023
G01 X216.0277 Y180.9386
G01 X215.9066 Y180.8680
G01 X215.5711 Y180.6625
G01 X215.2455 Y180.4419
G01 X214.9303 Y180.2065
G01 X214.6262 Y179.9569
G01 X214.1229 Y179.5829
G01 X213.6077 Y179.2254
G01 X213.0813 Y178.8846
G01 X212.5442 Y178.5611
G01 X211.9969 Y178.2550
G01 X211.4400 Y177.9668
G01 X210.8740 Y177.6968
G01 X210.2997 Y177.4451
G01 X209.7175 Y177.2122
G01 X209.1281 Y176.9981
G01 X208.5321 Y176.8032
G01 X207.9301 Y176.6277
G01 X206.9322 Y176.3562
G01 X205.9295 Y176.1034
G01 X204.9221 Y175.8694
G01 X203.9106 Y175.6543
G01 X203.7739 Y175.6204
G01 X203.6392 Y175.5794
G01 X203.5067 Y175.5315
G01 X203.3770 Y175.4767
G01 X203.2503 Y175.4152
G01 X203.1270 Y175.3472
G01 X203.0074 Y175.2728
G01 X202.8918 Y175.1923
G01 X202.7806 Y175.1059
G01 X202.6741 Y175.0138
G01 X202.5725 Y174.9162
G01 X202.4762 Y174.8135
G01 X202.3853 Y174.7059
G01 X202.3002 Y174.5937
G01 X202.2211 Y174.4772
G01 X202.1481 Y174.3567
G01 X202.0884 Y174.2357
G01 X202.0353 Y174.1117
G01 X201.9890 Y173.9850
G01 X201.9496 Y173.8559
G01 X201.9172 Y173.7249
G01 X201.8920 Y173.5924
G01 X201.8740 Y173.4586
G01 X201.8632 Y173.3241
G01 X201.8578 Y173.1715
G01 X201.8590 Y173.0879
G01 X201.8687 Y172.9607
G01 X201.8849 Y172.8342
G01 X201.9076 Y172.7087
G01 X201.9367 Y172.5845
G01 X201.9721 Y172.4619
G01 X202.0138 Y172.3414
G01 X202.0617 Y172.2231
G01 X202.1156 Y172.1075
G01 X202.1753 Y171.9948
G01 X202.2408 Y171.8853
G01 X202.3117 Y171.7794
G01 X202.3881 Y171.6772
G01 X202.4696 Y171.5790
G01 X202.5560 Y171.4852
G01 X202.6472 Y171.3960
G01 X202.7428 Y171.3116
G01 X202.8426 Y171.2321
G01 X202.9464 Y171.1580
G01 X203.0538 Y171.0892
G01 X203.1647 Y171.0261
G01 X203.2110 Y170.9981
G01 X203.2799 Y170.9576
G01 X203.7124 Y170.7487
G01 X204.1341 Y170.5189
G01 X204.5440 Y170.2686
G01 X204.9411 Y169.9985
G01 X205.0505 Y169.9219
G01 X205.1550 Y169.8388
G01 X205.2544 Y169.7496
G01 X205.3483 Y169.6546
G01 X205.4362 Y169.5541
G01 X205.5180 Y169.4485
G01 X205.5932 Y169.3382
G01 X205.6618 Y169.2236
G01 X205.7828 Y168.7389
G01 X205.8720 Y168.2474
G01 X205.9291 Y167.7511
G01 X205.9537 Y167.2521
G01 X205.9774 Y166.7671
G01 X205.9945 Y166.2818
G01 X206.0051 Y165.7963
G01 X206.0092 Y165.3108
G01 X206.0091 Y124.6173
G01 X206.0146 Y124.0231
G01 X206.0095 Y123.4290
G01 X205.9938 Y122.8350
G01 X205.9676 Y122.2414
G01 X205.9309 Y121.6483
G01 X205.8836 Y121.0561
G01 X205.8258 Y120.4647
G01 X205.7575 Y119.8745
G01 X205.7186 Y119.6105
G01 X205.6596 Y119.3502
G01 X205.5811 Y119.0952
G01 X205.4834 Y118.8468
G01 X205.3671 Y118.6067
G01 X205.2329 Y118.3760
G01 X205.0815 Y118.1562
G01 X204.9139 Y117.9486
G01 X204.7310 Y117.7543
G01 X204.5338 Y117.5744
G01 X204.3236 Y117.4101
G01 X204.1015 Y117.2622
G01 X203.8551 Y117.1216
G01 X203.6142 Y116.9717
G01 X203.3793 Y116.8127
G01 X203.1506 Y116.6449
G01 X203.0436 Y116.5586
G01 X202.9412 Y116.4669
G01 X202.8437 Y116.3701
G01 X202.7513 Y116.2683
G01 X202.6643 Y116.1619
G01 X202.5828 Y116.0512
G01 X202.5073 Y115.9364
G01 X202.4377 Y115.8178
G01 X202.3744 Y115.6959
G01 X202.3174 Y115.5708
G01 X202.2670 Y115.4429
G01 X202.2233 Y115.3126
G01 X202.1863 Y115.1802
G01 X202.1562 Y115.0461
G01 X202.1331 Y114.9106
G01 X202.1170 Y114.7741
G01 X201.5800 Y114.6908
G01 X202.0933
G01 X200.4193
G01 X201.0619
G01 X200.3991 Y114.6955
G01 X200.3794 Y114.8232
G01 X200.3536 Y114.9498
G01 X200.3219 Y115.0750
G01 X200.2843 Y115.1986
G01 X200.2409 Y115.3203
G01 X200.1918 Y115.4399
G01 X200.1371 Y115.5569
G01 X200.0770 Y115.6713
G01 X200.0115 Y115.7826
G01 X199.9408 Y115.8908
G01 X199.8650 Y115.9955
G01 X199.7844 Y116.0965
G01 X199.6992 Y116.1935
G01 X199.6094 Y116.2865
G01 X199.5153 Y116.3750
G01 X199.4172 Y116.4591
G01 X199.1822 Y116.6664
G01 X198.9385 Y116.8635
G01 X198.6866 Y117.0498
G01 X198.4269 Y117.2251
G01 X198.4934 Y117.1807
G01 X198.2151 Y117.3581
G01 X197.9517 Y117.5570
G01 X197.7049 Y117.7761
G01 X197.4763 Y118.0141
G01 X197.2672 Y118.2694
G01 X197.0789 Y118.5405
G01 X196.9127 Y118.8256
G01 X196.7697 Y119.1230
G01 X196.6506 Y119.4308
G01 X196.5562 Y119.7471
G01 X196.4872 Y120.0698
G01 X196.4440 Y120.3970
G01 X196.3857 Y120.9364
G01 X196.3436 Y121.4774
G01 X196.3178 Y122.0194
G01 X196.3083 Y122.5619
G01 X196.3045 Y122.9517
G01 X196.3038 Y155.2975
G01 X196.3084 Y155.5841
G01 X196.2910 Y155.8701
G01 X196.2516 Y156.1540
G01 X196.1906 Y156.4340
G01 X196.1082 Y156.7086
G01 X196.0050 Y156.9759
G01 X195.8816 Y157.2346
G01 X195.7387 Y157.4830
G01 X195.6484 Y157.5965
G01 X195.5518 Y157.7045
G01 X195.4491 Y157.8069
G01 X195.3407 Y157.9031
G01 X195.2269 Y157.9930
G01 X195.1081 Y158.0761
G01 X194.9847 Y158.1523
G01 X194.8572 Y158.2212
G01 X194.7259 Y158.2827
G01 X194.5913 Y158.3366
G01 X194.4538 Y158.3826
G01 X194.3139 Y158.4206
G01 X194.1720 Y158.4505
G01 X194.0286 Y158.4721
G01 X193.8843 Y158.4855
G01 X193.7394 Y158.4906
G01 X193.5944 Y158.4873
G01 X193.4499 Y158.4756
G01 X193.3063 Y158.4557
G01 X193.1641 Y158.4275
G01 X193.0237 Y158.3912
G01 X192.8857 Y158.3469
G01 X192.7504 Y158.2947
G01 X192.6184 Y158.2348
G01 X192.1952 Y158.0312
G01 X191.7845 Y157.8037
G01 X191.3875 Y157.5530
G01 X191.0056 Y157.2798
G01 X190.4932 Y156.9198
G01 X189.9727 Y156.5719
G01 X189.4441 Y156.2361
G01 X188.9080 Y155.9127
G01 X188.3644 Y155.6018
G01 X187.8138 Y155.3036
G01 X187.2564 Y155.0183
G01 X186.6925 Y154.7461
G01 X186.0465 Y154.4977
G01 X185.3946 Y154.2656
G01 X184.7370 Y154.0498
G01 X184.0743 Y153.8505
G01 X183.4068 Y153.6679
G01 X182.7349 Y153.5019
G01 X182.0592 Y153.3528
G01 X181.3798 Y153.2207
G01 X180.8047 Y153.1066
G01 X180.6707 Y153.0848
G01 X180.5380 Y153.0568
G01 X180.4067 Y153.0224
G01 X180.2771 Y152.9819
G01 X180.1497 Y152.9354
G01 X180.0245 Y152.8828
G01 X179.9020 Y152.8244
G01 X179.7824 Y152.7603
G01 X179.6660 Y152.6906
G01 X179.5529 Y152.6155
G01 X179.4436 Y152.5351
G01 X179.3382 Y152.4497
G01 X179.2369 Y152.3593
G01 X179.1400 Y152.2643
G01 X179.0477 Y152.1648
G01 X178.9603 Y152.0610
G01 X178.8942 Y151.9665
G01 X178.8327 Y151.8688
G01 X178.7762 Y151.7683
G01 X178.7245 Y151.6652
G01 X178.6780 Y151.5596
G01 X178.6367 Y151.4520
G01 X178.6007 Y151.3424
G01 X178.5700 Y151.2312
G01 X178.5449 Y151.1186
G01 X178.5252 Y151.0050
G01 X178.5111 Y150.8905
G01 X178.5026 Y150.7754
G01 X178.4964 Y150.6318
G01 X178.4970 Y150.5313
G01 X178.5057 Y150.4025
G01 X178.5213 Y150.2743
G01 X178.5437 Y150.1471
G01 X178.5729 Y150.0213
G01 X178.6088 Y149.8972
G01 X178.6513 Y149.7753
G01 X178.7002 Y149.6558
G01 X178.7554 Y149.5390
G01 X178.8168 Y149.4254
G01 X178.8842 Y149.3152
G01 X178.9574 Y149.2088
G01 X179.0361 Y149.1065
G01 X179.1203 Y149.0085
G01 X179.2095 Y148.9151
G01 X179.3036 Y148.8267
G01 X179.4023 Y148.7434
G01 X179.5053 Y148.6655
G01 X179.6123 Y148.5932
G01 X179.7231 Y148.5267
G01 X179.8372 Y148.4663
G01 X180.1092 Y148.3381
G01 X180.3759 Y148.1992
G01 X180.6368 Y148.0497
G01 X180.8915 Y147.8900
G01 X181.1397 Y147.7202
G01 X181.3809 Y147.5407
G01 X181.6148 Y147.3517
G01 X181.8409 Y147.1535
G01 X181.9688 Y146.9205
G01 X182.0825 Y146.6802
G01 X182.1817 Y146.4336
G01 X182.2660 Y146.1816
G01 X182.3350 Y145.9249
G01 X182.3885 Y145.6645
G01 X182.4264 Y145.4015
G01 X182.4485 Y145.1366
G01 X182.4934 Y144.5123
G01 X182.5248 Y143.8872
G01 X182.5426 Y143.2616
G01 X182.5470 Y142.6358
G01 X182.5473 Y123.7256
G01 X182.5546 Y123.2131
G01 X182.5496 Y122.7007
G01 X182.5323 Y122.1885
G01 X182.5028 Y121.6769
G01 X182.4611 Y121.1661
G01 X182.4073 Y120.6565
G01 X182.3412 Y120.1483
G01 X182.2631 Y119.6418
G01 X182.2029 Y119.3993
G01 X182.1245 Y119.1620
G01 X182.0282 Y118.9314
G01 X181.9147 Y118.7088
G01 X181.7846 Y118.4955
G01 X181.6387 Y118.2926
G01 X181.4778 Y118.1015
G01 X181.3029 Y117.9231
G01 X181.1149 Y117.7505
G01 X180.9185 Y117.5875
G01 X180.7142 Y117.4346
G01 X180.5024 Y117.2922
G01 X179.8512 Y116.8313
G01 X179.7409 Y116.7640
G01 X179.6342 Y116.6912
G01 X179.5314 Y116.6129
G01 X179.4328 Y116.5294
G01 X179.3387 Y116.4409
G01 X179.2493 Y116.3476
G01 X179.1648 Y116.2499
G01 X179.0856 Y116.1478
G01 X179.0117 Y116.0419
G01 X178.9434 Y115.9322
G01 X178.8808 Y115.8192
G01 X178.8242 Y115.7030
G01 X178.7737 Y115.5841
G01 X178.7294 Y115.4627
G01 X178.6915 Y115.3392
G01 X178.6600 Y115.2139
G01 X178.6351 Y115.0872
G01 X178.6167 Y114.9593
G01 X178.6050 Y114.8306
G01 X178.6000 Y114.7015
G01 X178.0682 Y114.6908
G01 X178.5816
G01 X176.9003
G01 X177.5145
G01 X176.8906 Y114.6913
G01 X176.8759 Y114.8295
G01 X176.8543 Y114.9668
G01 X176.8258 Y115.1028
G01 X176.7906 Y115.2373
G01 X176.7487 Y115.3698
G01 X176.7002 Y115.5000
G01 X176.6453 Y115.6277
G01 X176.5840 Y115.7524
G01 X176.5166 Y115.8740
G01 X176.4432 Y115.9920
G01 X176.3639 Y116.1062
G01 X176.2791 Y116.2162
G01 X176.1888 Y116.3219
G01 X176.0934 Y116.4230
G01 X175.9930 Y116.5191
G01 X175.8880 Y116.6101
G01 X175.5787 Y116.8590
G01 X175.2641 Y117.1010
G01 X174.9442 Y117.3361
G01 X174.6192 Y117.5640
G01 X174.3230 Y117.8258
G01 X174.0498 Y118.1117
G01 X173.8018 Y118.4196
G01 X173.5806 Y118.7473
G01 X173.3879 Y119.0924
G01 X173.2249 Y119.4527
G01 X173.0929 Y119.8253
G01 X172.9928 Y120.2078
G01 X172.8648 Y120.8379
G01 X172.7725 Y121.4743
G01 X172.7163 Y122.1149
G01 X172.6963 Y122.7576
G01 X172.6924 Y123.0431
G01 X172.6918 Y144.2936
G01 X172.6928 Y145.0524
G01 X172.6676 Y145.8109
G01 X172.6161 Y146.5680
G01 X172.5384 Y147.3229
G01 X172.4347 Y148.0746
G01 X172.3051 Y148.8224
G01 X172.1496 Y149.5651
G01 X171.9686 Y150.3021
G01 X171.8357 Y150.7817
G01 X171.6804 Y151.2544
G01 X171.5030 Y151.7193
G01 X171.3039 Y152.1754
G01 X171.0835 Y152.6215
G01 X170.8423 Y153.0568
G01 X170.5809 Y153.4802
G01 X170.2998 Y153.8908
G01 X169.9703 Y154.3167
G01 X169.6221 Y154.7274
G01 X169.2559 Y155.1222
G01 X168.8724 Y155.5002
G01 X168.4723 Y155.8607
G01 X168.0566 Y156.2029
G01 X167.6259 Y156.5261
G01 X167.1812 Y156.8298
G01 X166.7234 Y157.1133
G01 X166.2534 Y157.3760
G01 X165.7720 Y157.6175
G01 X165.2804 Y157.8372
G01 X164.7794 Y158.0346
G01 X164.2701 Y158.2095
G01 X163.7535 Y158.3614
G01 X163.2306 Y158.4900
G01 X162.5352 Y158.6387
G01 X161.8340 Y158.7571
G01 X161.1284 Y158.8449
G01 X160.4195 Y158.9020
G01 X159.7089 Y158.9284
G01 X158.9978 Y158.9238
G01 X158.2876 Y158.8884
G01 X157.5795 Y158.8222
G01 X156.8750 Y158.7254
G01 X156.1754 Y158.5981
G01 X155.4820 Y158.4405
G01 X154.7960 Y158.2530
G01 X154.3046 Y158.0795
G01 X153.8208 Y157.8855
G01 X153.3457 Y157.6713
G01 X152.8799 Y157.4374
G01 X152.4244 Y157.1841
G01 X151.9800 Y156.9119
G01 X151.5473 Y156.6213
G01 X151.1273 Y156.3128
G01 X150.7205 Y155.9869
G01 X150.3279 Y155.6442
G01 X149.9499 Y155.2853
G01 X149.5874 Y154.9109
G01 X149.2464 Y154.5476
G01 X148.9157 Y154.1749
G01 X148.5955 Y153.7931
G01 X148.2861 Y153.4026
G01 X148.2482 Y153.4565
G01 X147.9779 Y153.8488
G01 X147.6909 Y154.2290
G01 X147.3877 Y154.5964
G01 X147.0689 Y154.9504
G01 X146.7351 Y155.2902
G01 X146.3868 Y155.6152
G01 X146.0249 Y155.9249
G01 X145.6498 Y156.2186
G01 X145.2624 Y156.4959
G01 X144.8634 Y156.7560
G01 X144.4535 Y156.9987
G01 X144.0335 Y157.2234
G01 X143.4927 Y157.5001
G01 X142.9388 Y157.7496
G01 X142.3733 Y157.9715
G01 X141.7976 Y158.1652
G01 X141.2129 Y158.3301
G01 X140.6208 Y158.4660
G01 X140.0228 Y158.5724
G01 X139.4202 Y158.6491
G01 X138.8206 Y158.7213
G01 X138.2184 Y158.7680
G01 X137.6149 Y158.7891
G01 X137.0110 Y158.7846
G01 X136.4078 Y158.7545
G01 X135.8064 Y158.6988
G01 X135.2080 Y158.6176
G01 X134.6135 Y158.5111
G01 X134.0241 Y158.3795
G01 X133.4408 Y158.2230
G01 X132.8647 Y158.0419
G01 X132.2967 Y157.8365
G01 X131.7295 Y157.5884
G01 X131.1746 Y157.3140
G01 X130.6332 Y157.0138
G01 X130.1064 Y156.6886
G01 X129.5955 Y156.3390
G01 X129.1016 Y155.9657
G01 X128.6257 Y155.5698
G01 X128.1690 Y155.1519
G01 X128.1742 Y155.5013
G01 X128.1464 Y155.8496
G01 X128.0860 Y156.1938
G01 X127.9934 Y156.5307
G01 X127.8694 Y156.8574
G01 X127.7153 Y157.1710
G01 X127.5322 Y157.4687
G01 X127.3220 Y157.7478
G01 X127.2135 Y157.8442
G01 X127.0995 Y157.9341
G01 X126.9806 Y158.0173
G01 X126.8570 Y158.0934
G01 X126.7293 Y158.1623
G01 X126.5977 Y158.2236
G01 X126.4629 Y158.2772
G01 X126.3251 Y158.3229
G01 X126.1850 Y158.3606
G01 X126.0429 Y158.3901
G01 X125.8993 Y158.4113
G01 X125.7547 Y158.4241
G01 X125.6096 Y158.4286
G01 X125.4646 Y158.4246
G01 X125.3200 Y158.4122
G01 X125.1763 Y158.3915
G01 X125.0341 Y158.3625
G01 X124.8938 Y158.3253
G01 X124.7559 Y158.2800
G01 X124.6209 Y158.2268
G01 X124.2350 Y158.0364
G01 X123.8656 Y157.8157
G01 X123.5151 Y157.5660
G01 X123.1857 Y157.2890
G01 X122.7064 Y156.9223
G01 X122.2151 Y156.5718
G01 X121.7125 Y156.2377
G01 X121.1991 Y155.9205
G01 X120.6754 Y155.6205
G01 X120.1421 Y155.3381
G01 X119.5997 Y155.0735
G01 X119.0488 Y154.8271
G01 X118.4900 Y154.5991
G01 X117.9240 Y154.3898
G01 X117.3513 Y154.1993
G01 X116.7727 Y154.0280
G01 X115.7158 Y153.7370
G01 X114.6530 Y153.4688
G01 X113.5846 Y153.2235
G01 X112.5113 Y153.0012
G01 X112.3598 Y152.9627
G01 X112.2108 Y152.9152
G01 X112.0649 Y152.8592
G01 X111.9225 Y152.7947
G01 X111.7842 Y152.7219
G01 X111.6503 Y152.6411
G01 X111.5215 Y152.5527
G01 X111.3980 Y152.4568
G01 X111.2804 Y152.3538
G01 X111.1690 Y152.2441
G01 X111.0643 Y152.1281
G01 X110.9665 Y152.0061
G01 X110.8761 Y151.8786
G01 X110.7933 Y151.7460
G01 X110.7184 Y151.6088
G01 X110.6517 Y151.4674
G01 X110.6101 Y151.3560
G01 X110.5736 Y151.2428
G01 X110.5421 Y151.1281
G01 X110.5159 Y151.0121
G01 X110.4949 Y150.8950
G01 X110.4792 Y150.7771
G01 X110.4688 Y150.6586
G01 X110.4637 Y150.5398
G01 X110.4665 Y150.6197
G01 X110.4615 Y150.4743
G01 X110.4635 Y150.3652
G01 X110.4856 Y150.2072
G01 X110.5174 Y150.0509
G01 X110.5587 Y149.8968
G01 X110.6094 Y149.7456
G01 X110.6692 Y149.5977
G01 X110.7380 Y149.4538
G01 X110.8155 Y149.3144
G01 X110.9014 Y149.1800
G01 X110.9954 Y149.0511
G01 X111.0971 Y148.9282
G01 X111.2061 Y148.8118
G01 X111.3221 Y148.7023
G01 X111.4446 Y148.6001
G01 X111.5731 Y148.5056
G01 X111.7072 Y148.4192
G01 X111.8463 Y148.3411
G01 X112.1777 Y148.1694
G01 X112.5067 Y147.9929
G01 X112.8332 Y147.8118
G01 X113.1570 Y147.6260
G01 X113.2573 Y147.5702
G01 X113.3551 Y147.5100
G01 X113.4502 Y147.4457
G01 X113.5424 Y147.3773
G01 X113.6316 Y147.3049
G01 X113.7175 Y147.2288
G01 X113.8000 Y147.1490
G01 X113.8790 Y147.0656
G01 X113.9543 Y146.9789
G01 X114.0258 Y146.8891
G01 X114.0933 Y146.7962
G01 X114.1566 Y146.7004
G01 X114.1805 Y146.6522
G01 X114.1871 Y146.6308
G01 X114.2603 Y146.2842
G01 X114.3236 Y145.9357
G01 X114.3769 Y145.5856
G01 X114.4201 Y145.2340
G01 X114.4532 Y144.8814
G01 X114.4762 Y144.5280
G01 X114.4890 Y144.1740
G01 X114.4917 Y143.8198
G01 X114.4997 Y143.5267
G01 X114.5057 Y143.2336
G01 X114.5099 Y142.9404
G01 X114.5121 Y142.6472
G01 X114.5128 Y123.8241
G01 X114.5207 Y123.3112
G01 X114.5164 Y122.7982
G01 X114.5001 Y122.2855
G01 X114.4717 Y121.7733
G01 X114.4312 Y121.2619
G01 X114.3787 Y120.7516
G01 X114.3142 Y120.2427
G01 X114.2377 Y119.7354
G01 X114.1678 Y119.4451
G01 X114.0729 Y119.1620
G01 X113.9538 Y118.8883
G01 X113.8112 Y118.6259
G01 X113.6463 Y118.3770
G01 X113.4604 Y118.1434
G01 X113.2548 Y117.9269
G01 X113.0312 Y117.7290
G01 X112.7140 Y117.4777
G01 X112.3907 Y117.2344
G01 X112.0615 Y116.9992
G01 X111.7265 Y116.7723
G01 X111.4863 Y116.5973
G01 X111.2623 Y116.4023
G01 X111.0559 Y116.1885
G01 X110.8688 Y115.9577
G01 X110.8006 Y115.8244
G01 X110.7408 Y115.6871
G01 X110.6895 Y115.5464
G01 X110.6471 Y115.4028
G01 X110.6136 Y115.2569
G01 X110.5891 Y115.1091
G01 X110.5739 Y114.9601
G01 X110.5679 Y114.8105
G01 X110.5639 Y114.7075
G01 X110.0336 Y114.6908
G01 X110.5470
G01 X109.8916
G01 X110.3590
G01 X109.8695 Y114.7507
G01 X109.8082 Y115.0319
G01 X109.7208 Y115.3061
G01 X109.6079 Y115.5708
G01 X109.4705 Y115.8237
G01 X109.3099 Y116.0625
G01 X109.1276 Y116.2851
G01 X108.9250 Y116.4895
G01 X108.7041 Y116.6739
G01 X108.3823 Y116.9204
G01 X108.0556 Y117.1601
G01 X107.7240 Y117.3931
G01 X107.3877 Y117.6192
G01 X107.1491 Y117.8046
G01 X106.9274 Y118.0100
G01 X106.7243 Y118.2338
G01 X106.5414 Y118.4743
G01 X106.3799 Y118.7298
G01 X106.2412 Y118.9983
G01 X106.1263 Y119.2778
G01 X106.0359 Y119.5661
G01 X105.8649 Y120.1015
G01 X105.7216 Y120.6450
G01 X105.6066 Y121.1952
G01 X105.5201 Y121.7505
G01 X101.7857 Y145.4998
G01 X101.6476 Y146.3648
G01 X101.4786 Y147.2244
G01 X101.2789 Y148.0773
G01 X101.0486 Y148.9225
G01 X100.7882 Y149.7589
G01 X100.4979 Y150.5854
G01 X100.1781 Y151.4009
G01 X99.8292 Y152.2045
G01 X99.6245 Y152.6341
G01 X99.4023 Y153.0550
G01 X99.1631 Y153.4665
G01 X98.9073 Y153.8678
G01 X98.6352 Y154.2583
G01 X98.3473 Y154.6373
G01 X98.0441 Y155.0042
G01 X97.7262 Y155.3583
G01 X97.3940 Y155.6992
G01 X97.0481 Y156.0261
G01 X96.6891 Y156.3386
G01 X96.3176 Y156.6360
G01 X95.8658 Y156.9450
G01 X95.3999 Y157.2320
G01 X94.9208 Y157.4964
G01 X94.4296 Y157.7377
G01 X93.9275 Y157.9553
G01 X93.4156 Y158.1488
G01 X92.8950 Y158.3175
G01 X92.3670 Y158.4613
G01 X91.8327 Y158.5797
G01 X91.2934 Y158.6725
G01 X90.7502 Y158.7395
G01 X90.2045 Y158.7805
G01 X89.7236 Y158.8073
G01 X89.2422 Y158.8210
G01 X88.7605 Y158.8217
G01 X88.2790 Y158.8093
G01 X87.7980 Y158.7838
G01 X87.3179 Y158.7453
G01 X86.8391 Y158.6938
G01 X86.3617 Y158.6293
G01 X85.8926 Y158.5689
G01 X82.3671 Y158.0199
G01 X81.7047 Y157.9019
G01 X81.0382 Y157.8094
G01 X80.3687 Y157.7426
G01 X79.6972 Y157.7015
G01 X79.0245 Y157.6862
G01 X78.3518 Y157.6966
G01 X77.6799 Y157.7329
G01 X77.0100 Y157.7949
G01 X76.4587 Y157.8875
G01 X75.9105 Y157.9971
G01 X75.3660 Y158.1236
G01 X74.8257 Y158.2669
G01 X74.2901 Y158.4269
G01 X73.7597 Y158.6034
G01 X73.2350 Y158.7962
G01 X72.7166 Y159.0052
G01 X72.4964 Y159.0921
G01 X72.2720 Y159.1674
G01 X72.0439 Y159.2308
G01 X71.8128 Y159.2822
G01 X71.5794 Y159.3215
G01 X71.3442 Y159.3484
G01 X71.1080 Y159.3631
G01 X70.8713 Y159.3653
G01 X70.7331 Y159.3486
G01 X70.5960 Y159.3245
G01 X70.4603 Y159.2934
G01 X70.3265 Y159.2551
G01 X70.1949 Y159.2098
G01 X70.0658 Y159.1577
G01 X69.9397 Y159.0988
G01 X69.8168 Y159.0334
G01 X69.6975 Y158.9617
G01 X69.5822 Y158.8837
G01 X69.4711 Y158.7998
G01 X69.3646 Y158.7102
G01 X69.2630 Y158.6151
G01 X69.1665 Y158.5148
G01 X69.0754 Y158.4095
G01 X68.9900 Y158.2996
G01 X68.7527 Y157.9631
G01 X68.5329 Y157.6149
G01 X68.3311 Y157.2559
G01 X68.1479 Y156.8871
G01 X67.9837 Y156.5095
G01 X67.8389 Y156.1240
G01 X67.7139 Y155.7317
G01 X67.6091 Y155.3334
G01 X67.5198 Y154.9756
G01 X67.4419 Y154.6151
G01 X67.3753 Y154.2523
G01 X67.3201 Y153.8876
G01 X67.2764 Y153.5214
G01 X67.2443 Y153.1540
G01 X67.2237 Y152.7857
G01 X67.2148 Y152.4170
G01 X67.2140 Y152.2490
G01 X67.2216 Y151.8441
G01 X67.2441 Y151.4398
G01 X67.2816 Y151.0366
G01 X67.3339 Y150.6350
G01 X67.4414 Y150.0637
G01 X67.5826 Y149.4997
G01 X67.7570 Y148.9451
G01 X67.9640 Y148.4019
G01 X68.2028 Y147.8718
G01 X68.4726 Y147.3569
G01 X68.7725 Y146.8588
G01 X69.1013 Y146.3794
G01 X69.4580 Y145.9203
G01 X69.8413 Y145.4832
G01 X70.2498 Y145.0695
G01 X70.6821 Y144.6809
G01 X71.1367 Y144.3185
G01 X71.6120 Y143.9837
G01 X72.1063 Y143.6776
G01 X72.6179 Y143.4015
G01 X73.0710 Y143.1962
G01 X73.5332 Y143.0125
G01 X74.0035 Y142.8506
G01 X74.4809 Y142.7109
G01 X74.9644 Y142.5938
G01 X75.4527 Y142.4995
G01 X75.9450 Y142.4282
G01 X76.4401 Y142.3800
G01 X76.9369 Y142.3551
G01 X77.4343 Y142.3535
G01 X77.9312 Y142.3752
G01 X78.4266 Y142.4202
G01 X78.9193 Y142.4884
G01 X79.4082 Y142.5796
G01 X79.8924 Y142.6936
G01 X80.3707 Y142.8302
G01 X80.6830 Y142.9387
G01 X80.9900 Y143.0617
G01 X81.2908 Y143.1990
G01 X81.5848 Y143.3503
G01 X81.8714 Y143.5152
G01 X82.1499 Y143.6934
G01 X82.4198 Y143.8844
G01 X82.6804 Y144.0880
G01 X82.7722 Y144.1666
G01 X82.8596 Y144.2500
G01 X82.9424 Y144.3381
G01 X83.0203 Y144.4305
G01 X83.0931 Y144.5270
G01 X83.1605 Y144.6274
G01 X83.2224 Y144.7312
G01 X83.2786 Y144.8382
G01 X83.3288 Y144.9481
G01 X83.3731 Y145.0606
G01 X83.4112 Y145.1753
G01 X83.4430 Y145.2919
G01 X83.4685 Y145.4101
G01 X83.4875 Y145.5295
G01 X83.5000 Y145.6497
G01 X83.5060 Y145.7704
G01 X83.5054 Y145.8913
G01 X83.4983 Y146.0120
G01 X83.4846 Y146.1321
G01 X83.4645 Y146.2513
G01 X83.4079 Y146.4035
G01 X83.3422 Y146.5521
G01 X83.2676 Y146.6964
G01 X83.1843 Y146.8358
G01 X83.0927 Y146.9700
G01 X82.9931 Y147.0983
G01 X82.8859 Y147.2203
G01 X82.7714 Y147.3356
G01 X82.6501 Y147.4436
G01 X82.5225 Y147.5441
G01 X82.3890 Y147.6366
G01 X82.2501 Y147.7209
G01 X82.0270 Y147.8658
G01 X81.9560 Y147.9043
G01 X81.8875 Y147.9471
G01 X81.8218 Y147.9942
G01 X81.7592 Y148.0452
G01 X81.6999 Y148.1001
G01 X81.6441 Y148.1586
G01 X81.5921 Y148.2204
G01 X81.5441 Y148.2854
G01 X81.5002 Y148.3532
G01 X81.4606 Y148.4236
G01 X81.4255 Y148.4964
G01 X81.3951 Y148.5713
G01 X81.3896 Y148.5926
G01 X81.3848 Y148.6142
G01 X81.3808 Y148.6359
G01 X81.3774 Y148.6577
G01 X81.3748 Y148.6797
G01 X81.3730 Y148.7017
G01 X81.3718 Y148.7237
G01 X81.3714 Y148.7458
G01 X81.3718 Y148.8049
G01 X81.3917 Y148.9102
G01 X81.4203 Y149.0135
G01 X81.4575 Y149.1141
G01 X81.5028 Y149.2112
G01 X81.5562 Y149.3042
G01 X81.6171 Y149.3924
G01 X81.6851 Y149.4752
G01 X81.7598 Y149.5521
G01 X81.8407 Y149.6225
G01 X81.9272 Y149.6858
G01 X82.0186 Y149.7417
G01 X82.1144 Y149.7898
G01 X82.2349 Y149.8452
G01 X82.3581 Y149.8941
G01 X82.4837 Y149.9365
G01 X82.6114 Y149.9722
G01 X82.7408 Y150.0011
G01 X82.8715 Y150.0231
G01 X83.0032 Y150.0382
G01 X83.1356 Y150.0463
G01 X83.2681 Y150.0474
G01 X83.4006 Y150.0416
G01 X83.5325 Y150.0287
G01 X83.6636 Y150.0089
G01 X83.9306 Y149.9726
G01 X84.1939 Y149.9156
G01 X84.4520 Y149.8382
G01 X84.7032 Y149.7409
G01 X84.9461 Y149.6243
G01 X85.1792 Y149.4891
G01 X85.4010 Y149.3362
G01 X85.6102 Y149.1664
G01 X85.8055 Y148.9808
G01 X85.9858 Y148.7806
G01 X86.1499 Y148.5669
G01 X86.2968 Y148.3411
G01 X86.5224 Y147.9369
G01 X86.7339 Y147.5252
G01 X86.9310 Y147.1064
G01 X87.1136 Y146.6811
G01 X87.2814 Y146.2497
G01 X87.4342 Y145.8128
G01 X87.5719 Y145.3709
G01 X87.6942 Y144.9245
G01 X88.0266 Y143.6391
G01 X88.3268 Y142.3459
G01 X88.5946 Y141.0455
G01 X88.8299 Y139.7389
G01 X89.0381 Y138.6394
G01 X89.2298 Y137.5368
G01 X89.4048 Y136.4316
G01 X89.5631 Y135.3238
G01 X89.7048 Y134.2137
G01 X89.8297 Y133.1016
G01 X89.9378 Y131.9878
G01 X90.0291 Y130.8725
G01 X90.0669 Y130.3396
G01 X90.0852 Y129.8057
G01 X90.0841 Y129.2715
G01 X90.0636 Y128.7377
G01 X90.0236 Y128.2050
G01 X89.9642 Y127.6741
G01 X89.8856 Y127.1457
G01 X89.7878 Y126.6205
G01 X89.6945 Y126.2151
G01 X89.5788 Y125.8156
G01 X89.4411 Y125.4231
G01 X89.2818 Y125.0389
G01 X89.1014 Y124.6641
G01 X88.9005 Y124.2999
G01 X88.6796 Y123.9474
G01 X88.4394 Y123.6078
G01 X88.1808 Y123.2821
G01 X87.9044 Y122.9712
G01 X87.6112 Y122.6762
G01 X87.3021 Y122.3979
G01 X86.9576 Y122.1619
G01 X86.5937 Y121.9571
G01 X86.2132 Y121.7850
G01 X85.8190 Y121.6471
G01 X85.4143 Y121.5444
G01 X85.0021 Y121.4777
G01 X84.5856 Y121.4474
G01 X84.1681 Y121.4540
G01 X83.7527 Y121.4971
G01 X83.3428 Y121.5767
G01 X82.9414 Y121.6920
G01 X82.5518 Y121.8421
G01 X82.2298 Y122.0167
G01 X81.9215 Y122.2143
G01 X81.6283 Y122.4339
G01 X81.3518 Y122.6741
G01 X81.0936 Y122.9339
G01 X80.8550 Y123.2117
G01 X80.6372 Y123.5062
G01 X80.4414 Y123.8158
G01 X80.2686 Y124.1387
G01 X80.1198 Y124.4734
G01 X79.9958 Y124.8180
G01 X79.8971 Y125.1708
G01 X79.8048 Y125.5771
G01 X79.7364 Y125.9881
G01 X79.6921 Y126.4025
G01 X79.6721 Y126.8187
G01 X79.6691 Y127.0463
G01 X79.6706 Y127.2017
G01 X79.6750 Y127.3571
G01 X79.6823 Y127.5123
G01 X79.6926 Y127.6674
G01 X79.7262 Y128.0612
G01 X79.7907 Y128.4512
G01 X79.8859 Y128.8348
G01 X80.0112 Y129.2097
G01 X80.1657 Y129.5736
G01 X80.3484 Y129.9240
G01 X80.5583 Y130.2590
G01 X80.7940 Y130.5763
G01 X80.9291 Y130.7786
G01 X81.0657 Y130.9799
G01 X81.2038 Y131.1801
G01 X81.3434 Y131.3793
G01 X81.3536 Y131.3939
G01 X81.3648 Y131.4077
G01 X81.3770 Y131.4207
G01 X81.3901 Y131.4327
G01 X81.4041 Y131.4438
G01 X81.4188 Y131.4538
G01 X81.4342 Y131.4627
G01 X81.4502 Y131.4704
G01 X81.4667 Y131.4770
G01 X81.4837 Y131.4824
G01 X81.5010 Y131.4865
G01 X81.5186 Y131.4893
G01 X81.5363 Y131.4908
G01 X81.5541 Y131.4911
G01 X81.5719 Y131.4900
G01 X81.5895 Y131.4877
G01 X81.7354 Y131.4973
G01 X81.8817 Y131.4974
G01 X82.0276 Y131.4880
G01 X82.1726 Y131.4693
G01 X82.3162 Y131.4411
G01 X82.4575 Y131.4037
G01 X82.5962 Y131.3573
G01 X82.7316 Y131.3019
G01 X82.8631 Y131.2379
G01 X82.9901 Y131.1656
G01 X83.1123 Y131.0851
G01 X83.2289 Y130.9969
G01 X83.3396 Y130.9013
G01 X83.4439 Y130.7988
G01 X83.5413 Y130.6897
G01 X83.6315 Y130.5746
G01 X83.8563 Y130.2697
G01 X84.0644 Y129.9530
G01 X84.2549 Y129.6256
G01 X84.4274 Y129.2883
G01 X84.4817 Y129.1872
G01 X84.5413 Y129.0892
G01 X84.6059 Y128.9944
G01 X84.6754 Y128.9031
G01 X84.7495 Y128.8156
G01 X84.8282 Y128.7321
G01 X84.9111 Y128.6529
G01 X84.9980 Y128.5781
G01 X85.0888 Y128.5079
G01 X85.1831 Y128.4426
G01 X85.2807 Y128.3824
G01 X85.3813 Y128.3273
G01 X85.4847 Y128.2776
G01 X85.5905 Y128.2334
G01 X85.6986 Y128.1948
G01 X85.8084 Y128.1619
G01 X85.8582 Y128.1527
G01 X85.9083 Y128.1446
G01 X85.9584 Y128.1378
G01 X86.0088 Y128.1322
G01 X86.1580 Y128.1320
G01 X86.3069 Y128.1410
G01 X86.4549 Y128.1591
G01 X86.6016 Y128.1862
G01 X86.7464 Y128.2223
G01 X86.8887 Y128.2671
G01 X87.0279 Y128.3206
G01 X87.1637 Y128.3825
G01 X87.2954 Y128.4526
G01 X87.4225 Y128.5307
G01 X87.5446 Y128.6164
G01 X87.6613 Y128.7093
G01 X87.7720 Y128.8093
G01 X87.8764 Y128.9159
G01 X87.9741 Y129.0286
G01 X88.0647 Y129.1471
G01 X88.3095 Y129.5074
G01 X88.5277 Y129.8843
G01 X88.7182 Y130.2759
G01 X88.8800 Y130.6802
G01 X89.0123 Y131.0951
G01 X89.1145 Y131.5185
G01 X89.1858 Y131.9481
G01 X89.2261 Y132.3817
G01 X89.2660 Y132.8853
G01 X89.2791 Y133.3902
G01 X89.2654 Y133.8952
G01 X89.2250 Y134.3987
G01 X89.1579 Y134.8993
G01 X89.0644 Y135.3957
G01 X88.9447 Y135.8865
G01 X88.7992 Y136.3702
G01 X88.6282 Y136.8455
G01 X88.4323 Y137.3111
G01 X88.2120 Y137.7656
G01 X87.9679 Y138.2078
G01 X87.6967 Y138.6067
G01 X87.4035 Y138.9896
G01 X87.0893 Y139.3555
G01 X86.7549 Y139.7031
G01 X86.4015 Y140.0313
G01 X86.0303 Y140.3392
G01 X85.6422 Y140.6256
G01 X85.2387 Y140.8898
G01 X84.8209 Y141.1308
G01 X84.3903 Y141.3480
G01 X83.9481 Y141.5405
G01 X83.4958 Y141.7079
G01 X83.0204 Y141.8570
G01 X82.5390 Y141.9849
G01 X82.0523 Y142.0913
G01 X81.5615 Y142.1762
G01 X81.0673 Y142.2393
G01 X80.5709 Y142.2804
G01 X80.0731 Y142.2996
G01 X79.5749 Y142.2967
G01 X79.0774 Y142.2719
G01 X78.5815 Y142.2250
G01 X78.0881 Y142.1562
G01 X77.5982 Y142.0658
G01 X76.8660 Y141.9092
G01 X76.1420 Y141.7178
G01 X75.4281 Y141.4919
G01 X74.7259 Y141.2320
G01 X74.0369 Y140.9387
G01 X73.3628 Y140.6127
G01 X72.7051 Y140.2549
G01 X72.0652 Y139.8658
G01 X71.4448 Y139.4466
G01 X70.8452 Y138.9981
G01 X70.2678 Y138.5214
G01 X69.7138 Y138.0175
G01 X69.2728 Y137.5456
G01 X68.8527 Y137.0550
G01 X68.4544 Y136.5465
G01 X68.0788 Y136.0211
G01 X67.7263 Y135.4798
G01 X67.3979 Y134.9236
G01 X67.0940 Y134.3537
G01 X66.8153 Y133.7710
G01 X66.5623 Y133.1767
G01 X66.3354 Y132.5719
G01 X66.1352 Y131.9579
G01 X65.9619 Y131.3356
G01 X65.8160 Y130.7064
G01 X65.6976 Y130.0715
G01 X65.6071 Y129.4319
G01 X65.5445 Y128.7891
G01 X65.5145 Y128.4249
G01 X65.4913 Y128.0603
G01 X65.4752 Y127.6952
G01 X65.4660 Y127.3299
G01 X65.4631 Y126.9992
G01 X65.4650 Y126.7246
G01 X65.4755 Y126.1530
G01 X65.5058 Y125.5821
G01 X65.5560 Y125.0126
G01 X65.6259 Y124.4452
G01 X65.7155 Y123.8805
G01 X65.8248 Y123.3194
G01 X65.9535 Y122.7623
G01 X66.1015 Y122.2101
G01 X66.2686 Y121.6634
G01 X66.4546 Y121.1228
G01 X66.6593 Y120.5890
G01 X66.8825 Y120.0627
G01 X67.1294 Y119.5529
G01 X67.3945 Y119.0523
G01 X67.6775 Y118.5617
G01 X67.9780 Y118.0815
G01 X68.2956 Y117.6126
G01 X68.6300 Y117.1554
G01 X68.9807 Y116.7106
G01 X69.3472 Y116.2787
G01 X69.7290 Y115.8603
G01 X70.1257 Y115.4561
G01 X70.5368 Y115.0663
G01 X70.9616 Y114.6917
G01 X43.9178 Y114.6908
G01 X44.6954
G01 X43.9152 Y114.6991
G01 X43.9301 Y114.8565
G01 X43.9359 Y115.0145
G01 X43.9327 Y115.1725
G01 X43.9206 Y115.3302
G01 X43.8994 Y115.4868
G01 X43.8693 Y115.6420
G01 X43.8304 Y115.7952
G01 X43.7828 Y115.9460
G01 X43.7266 Y116.0938
G01 X43.6621 Y116.2381
G01 X43.5895 Y116.3785
G01 X43.5090 Y116.5146
G01 X43.4208 Y116.6458
G01 X43.3253 Y116.7717
G01 X43.2227 Y116.8920
G01 X43.1134 Y117.0063
G01 X42.9978 Y117.1141
G01 X42.8762 Y117.2151
G01 X42.7491 Y117.3091
G01 X42.6167 Y117.3956
G01 X42.4797 Y117.4744
G01 X42.3384 Y117.5452
G01 X42.1932 Y117.6079
G01 X42.0447 Y117.6621
G01 X41.9544 Y117.6962
G01 X41.8633 Y117.7284
G01 X41.7716 Y117.7587
G01 X41.6794 Y117.7872
G01 X40.6399 Y118.1305
G01 X40.2642 Y118.2494
G01 X39.8939 Y118.3843
G01 X39.5297 Y118.5350
G01 X39.1723 Y118.7011
G01 X38.8223 Y118.8824
G01 X38.4805 Y119.0785
G01 X38.1474 Y119.2892
G01 X37.8236 Y119.5139
G01 X37.6444 Y119.6714
G01 X37.4775 Y119.8418
G01 X37.3237 Y120.0242
G01 X37.1840 Y120.2176
G01 X37.0590 Y120.4208
G01 X36.9495 Y120.6327
G01 X36.8561 Y120.8523
G01 X36.7794 Y121.0781
G01 X36.7438 Y121.1807
G01 X36.7098 Y121.2838
G01 X36.6775 Y121.3875
G01 X36.6470 Y121.4916
G01 X36.5404 Y121.9698
G01 X36.4461 Y122.4505
G01 X36.3641 Y122.9335
G01 X36.2946 Y123.4184
G01 X36.2375 Y123.9050
G01 X36.1929 Y124.3928
G01 X36.1608 Y124.8817
G01 X36.1413 Y125.3712
G01 X36.1142 Y125.9841
G01 X36.0939 Y126.5973
G01 X36.0804 Y127.2106
G01 X36.0738 Y127.8241
G01 X36.0723 Y128.2849
G01 Y142.2024
G01 X36.0735 Y142.2125
G01 X36.6805 Y142.1442
G01 X37.2834 Y142.0460
G01 X37.8807 Y141.9181
G01 X38.4710 Y141.7609
G01 X39.0527 Y141.5747
G01 X39.6246 Y141.3601
G01 X40.1852 Y141.1174
G01 X40.7331 Y140.8473
G01 X41.1720 Y140.5743
G01 X41.5984 Y140.2821
G01 X42.0115 Y139.9715
G01 X42.4106 Y139.6429
G01 X42.7947 Y139.2971
G01 X43.1633 Y138.9347
G01 X43.5155 Y138.5563
G01 X43.8507 Y138.1628
G01 X44.5396 Y137.3047
G01 X45.1973 Y136.4225
G01 X45.8231 Y135.5173
G01 X46.4162 Y134.5903
G01 X46.5789 Y134.3490
G01 X46.7622 Y134.1228
G01 X46.9645 Y133.9135
G01 X47.1843 Y133.7227
G01 X47.4200 Y133.5518
G01 X47.6697 Y133.4021
G01 X47.9315 Y133.2749
G01 X48.2035 Y133.1711
G01 X48.4874 Y133.1189
G01 X48.7749 Y133.0934
G01 X49.0635 Y133.0948
G01 X49.3508 Y133.1229
G01 X49.6342 Y133.1777
G01 X49.9113 Y133.2585
G01 X50.1797 Y133.3648
G01 X50.4371 Y133.4955
G01 X50.6811 Y133.6496
G01 X50.9099 Y133.8257
G01 X51.1212 Y134.0223
G01 X51.3133 Y134.2377
G01 X51.4861 Y134.5112
G01 X51.6301 Y134.8009
G01 X51.7437 Y135.1038
G01 X51.8258 Y135.4166
G01 X51.8755 Y135.7363
G01 X51.8923 Y136.0593
G01 X51.8760 Y136.3824
G01 X51.8269 Y136.7021
G01 X51.7688 Y137.0186
G01 X51.6842 Y137.3291
G01 X51.5738 Y137.6314
G01 X51.4383 Y137.9233
G01 X49.6036 Y142.2170
G01 X49.2326 Y143.1305
G01 X48.8877 Y144.0542
G01 X48.5692 Y144.9873
G01 X48.2774 Y145.9291
G01 X48.0125 Y146.8789
G01 X47.7747 Y147.8358
G01 X47.5642 Y148.7990
G01 X47.3812 Y149.7679
G01 X47.2258 Y150.7415
G01 X47.0982 Y151.7192
G01 X46.9984 Y152.7001
G01 X46.9266 Y153.6835
G01 X46.8653 Y154.7021
G01 X46.8164 Y155.7215
G01 X46.7801 Y156.7413
G01 X46.7562 Y157.7615
G01 X46.7476 Y157.9051
G01 X46.7321 Y158.0481
G01 X46.7095 Y158.1902
G01 X46.6799 Y158.3309
G01 X46.6435 Y158.4701
G01 X46.6002 Y158.6072
G01 X46.5502 Y158.7421
G01 X46.4937 Y158.8744
G01 X46.4307 Y159.0037
G01 X46.3614 Y159.1297
G01 X46.2860 Y159.2522
G01 X46.2047 Y159.3709
G01 X46.1176 Y159.4854
G01 X46.0250 Y159.5954
G01 X45.9271 Y159.7008
G01 X45.8241 Y159.8012
G01 X45.7152 Y159.8877
G01 X45.6022 Y159.9688
G01 X45.4854 Y160.0444
G01 X45.3651 Y160.1142
G01 X45.2415 Y160.1781
G01 X45.1150 Y160.2360
G01 X44.9859 Y160.2876
G01 X44.8544 Y160.3330
G01 X44.7209 Y160.3719
G01 X44.5856 Y160.4043
G01 X44.4489 Y160.4301
G01 X44.3111 Y160.4493
G01 X44.1726 Y160.4618
G01 X44.0336 Y160.4675
G01 X43.8945 Y160.4665
G01 X43.7556 Y160.4588
G01 X43.6100 Y160.4523
G01 X43.4648 Y160.4382
G01 X43.3206 Y160.4164
G01 X43.1778 Y160.3870
G01 X43.0367 Y160.3501
G01 X42.8978 Y160.3059
G01 X42.7613 Y160.2544
G01 X42.6278 Y160.1957
G01 X42.4976 Y160.1301
G01 X42.3710 Y160.0577
G01 X42.2484 Y159.9788
G01 X42.1301 Y159.8935
G01 X42.0165 Y159.8021
G01 X41.9079 Y159.7048
G01 X41.8045 Y159.6019
G01 X41.7068 Y159.4937
G01 X41.6148 Y159.3805
G01 X41.5290 Y159.2626
G01 X41.4495 Y159.1403
G01 X41.3765 Y159.0141
G01 X41.3104 Y158.8841
G01 X41.2511 Y158.7509
G01 X41.1990 Y158.6147
G01 X41.1541 Y158.4759
G01 X41.1118 Y158.3506
G01 X41.0729 Y158.2241
G01 X41.0374 Y158.0967
G01 X41.0054 Y157.9683
G01 X40.5770 Y155.9568
G01 X40.4880 Y155.5205
G01 X40.3805 Y155.0885
G01 X40.2546 Y154.6614
G01 X40.1105 Y154.2402
G01 X39.9485 Y153.8255
G01 X39.7690 Y153.4181
G01 X39.5721 Y153.0187
G01 X39.3583 Y152.6282
G01 X39.1669 Y152.3443
G01 X38.9567 Y152.0740
G01 X38.7288 Y151.8185
G01 X38.4841 Y151.5790
G01 X38.2239 Y151.3565
G01 X37.9492 Y151.1521
G01 X37.6614 Y150.9667
G01 X37.3616 Y150.8012
G01 X37.0515 Y150.6562
G01 X36.7322 Y150.5326
G01 X36.4053 Y150.4307
G01 X36.0723 Y150.3511
G01 Y157.3287
G01 X36.0744 Y157.7733
G01 X36.0818 Y158.4602
G01 X36.1035 Y159.1468
G01 X36.1397 Y159.8327
G01 X36.1902 Y160.5178
G01 X36.2551 Y161.2016
G01 X36.3344 Y161.8840
G01 X36.4279 Y162.5645
G01 X36.5357 Y163.2429
G01 X36.6605 Y163.9501
G01 X36.8174 Y164.6509
G01 X37.0062 Y165.3438
G01 X37.2264 Y166.0273
G01 X37.4775 Y166.7001
G01 X37.7591 Y167.3608
G01 X38.0705 Y168.0079
G01 X38.4111 Y168.6401
G01 X38.6572 Y169.0397
G01 X38.9260 Y169.4245
G01 X39.2165 Y169.7932
G01 X39.5278 Y170.1445
G01 X39.8588 Y170.4772
G01 X40.2084 Y170.7904
G01 X40.5755 Y171.0828
G01 X40.9588 Y171.3537
G01 X41.3572 Y171.6019
G01 X41.7691 Y171.8268
G01 X42.1934 Y172.0276
G01 X42.6285 Y172.2036
G01 X43.0731 Y172.3542
G01 X43.5255 Y172.4789
G01 X43.9845 Y172.5773
G01 X44.4483 Y172.6492
G01 X45.1001 Y172.7340
G01 X45.7556 Y172.7819
G01 X46.4129 Y172.7925
G01 X47.0696 Y172.7659
G01 X47.7238 Y172.7021
G01 X48.3734 Y172.6015
G01 X49.0162 Y172.4642
G01 X49.6502 Y172.2907
G01 X50.0955 Y172.1326
G01 X50.5278 Y171.9419
G01 X50.9449 Y171.7198
G01 X51.3444 Y171.4674
G01 X51.7241 Y171.1861
G01 X52.0820 Y170.8775
G01 X52.4160 Y170.5432
G01 X52.7244 Y170.1852
G01 X52.8986 Y169.9223
G01 X53.0516 Y169.6466
G01 X53.1823 Y169.3596
G01 X53.2901 Y169.0633
G01 X53.3742 Y168.7593
G01 X53.4341 Y168.4497
G01 X53.4694 Y168.1364
G01 X53.4800 Y167.8212
G01 X53.4656 Y167.5062
G01 X53.4266 Y167.1933
G01 X53.3629 Y166.8844
G01 X53.2752 Y166.5815
G01 X53.2251 Y166.4514
G01 X53.1660 Y166.3252
G01 X53.0980 Y166.2035
G01 X53.0216 Y166.0869
G01 X52.9372 Y165.9760
G01 X52.8451 Y165.8714
G01 X52.7458 Y165.7735
G01 X52.6399 Y165.6829
G01 X52.5278 Y165.6000
G01 X52.4101 Y165.5253
G01 X52.2875 Y165.4591
G01 X52.1605 Y165.4017
G01 X52.0297 Y165.3535
G01 X51.8958 Y165.3146
G01 X51.7595 Y165.2853
G01 X51.6215 Y165.2657
G01 X51.4825 Y165.2559
G01 X51.3431 Y165.2560
G01 X51.2041 Y165.2660
G01 X51.0661 Y165.2857
G01 X50.7412 Y165.3381
G01 X50.4183 Y165.4021
G01 X50.0981 Y165.4778
G01 X49.7807 Y165.5651
G01 X49.6314 Y165.5953
G01 X49.4804 Y165.6156
G01 X49.3283 Y165.6260
G01 X49.1760 Y165.6263
G01 X49.0239 Y165.6166
G01 X48.8728 Y165.5969
G01 X48.7233 Y165.5674
G01 X48.5761 Y165.5280
G01 X48.4318 Y165.4791
G01 X48.2910 Y165.4207
G01 X48.1544 Y165.3532
G01 X48.0225 Y165.2769
G01 X47.8960 Y165.1921
G01 X47.7752 Y165.0991
G01 X47.6609 Y164.9984
G01 X47.5534 Y164.8904
G01 X47.4692 Y164.7810
G01 X47.3910 Y164.6672
G01 X47.3193 Y164.5492
G01 X47.2541 Y164.4275
G01 X47.1957 Y164.3024
G01 X47.1443 Y164.1742
G01 X47.1000 Y164.0435
G01 X47.0629 Y163.9105
G01 X47.0332 Y163.7756
G01 X47.0110 Y163.6394
G01 X46.9962 Y163.5021
G01 X46.9891 Y163.3642
G01 X46.9822 Y163.2321
G01 X46.9793 Y163.1040
G01 X46.9800 Y162.9704
G01 X47.0058 Y162.5627
G01 X47.0583 Y162.1576
G01 X47.1373 Y161.7568
G01 X47.2424 Y161.3621
G01 X47.3732 Y160.9751
G01 X47.5292 Y160.5975
G01 X47.7095 Y160.2310
G01 X47.9136 Y159.8772
G01 X48.1405 Y159.5375
G01 X48.3891 Y159.2134
G01 X48.6586 Y158.9063
G01 X48.9476 Y158.6176
G01 X49.3911 Y158.2078
G01 X49.8557 Y157.8220
G01 X50.3400 Y157.4612
G01 X50.8427 Y157.1266
G01 X51.3624 Y156.8190
G01 X51.8976 Y156.5392
G01 X52.4468 Y156.2881
G01 X53.0085 Y156.0664
G01 X53.5812 Y155.8747
G01 X54.1632 Y155.7135
G01 X54.7529 Y155.5832
G01 X55.3486 Y155.4843
G01 X55.9488 Y155.4171
G01 X56.5516 Y155.3816
G01 X57.1555 Y155.3780
G01 X57.7587 Y155.4063
G01 X58.4384 Y155.4502
G01 X59.1151 Y155.5275
G01 X59.7872 Y155.6378
G01 X60.4531 Y155.7810
G01 X61.1111 Y155.9566
G01 X61.7597 Y156.1643
G01 X62.3974 Y156.4036
G01 X63.0226 Y156.6738
G01 X63.6338 Y156.9744
G01 X64.2295 Y157.3046
G01 X64.8082 Y157.6636
G01 X65.3687 Y158.0506
G01 X65.9095 Y158.4646
G01 X66.4294 Y158.9046
G01 X66.9271 Y159.3695
G01 X67.4013 Y159.8584
G01 X67.8731 Y160.3674
G01 X68.3186 Y160.8997
G01 X68.7365 Y161.4538
G01 X69.1259 Y162.0284
G01 X69.4857 Y162.6219
G01 X69.8150 Y163.2329
G01 X70.1130 Y163.8597
G01 X70.3789 Y164.5009
G01 X70.6120 Y165.1546
G01 X70.8117 Y165.8193
G01 X70.9776 Y166.4933
G01 X71.1091 Y167.1748
G01 X71.2060 Y167.8621
G01 X71.2680 Y168.5534
G01 X71.2949 Y169.2469
G01 X71.2867 Y169.9409
G01 X71.2695 Y170.5196
G01 X71.2267 Y171.0970
G01 X71.1583 Y171.6718
G01 X71.0644 Y172.2431
G01 X70.9453 Y172.8096
G01 X70.8012 Y173.3703
G01 X70.6324 Y173.9241
G01 X70.4392 Y174.4698
G01 X70.3256 Y174.7738
G01 X70.1945 Y175.0707
G01 X70.0465 Y175.3596
G01 X69.8819 Y175.6393
G01 X69.7014 Y175.9090
G01 X69.5056 Y176.1679
G01 X69.2951 Y176.4149
G01 X69.0707 Y176.6493
G01 X68.9720 Y176.7419
G01 X68.8684 Y176.8289
G01 X68.7601 Y176.9101
G01 X68.6475 Y176.9851
G01 X68.5308 Y177.0537
G01 X68.4106 Y177.1158
G01 X68.2871 Y177.1712
G01 X68.1608 Y177.2196
G01 X68.0319 Y177.2609
G01 X67.9010 Y177.2951
G01 X67.7684 Y177.3220
G01 X67.6345 Y177.3414
G01 X67.4997 Y177.3535
G01 X67.3645 Y177.3580
G01 X67.2292 Y177.3550
G01 X67.0943 Y177.3446
G01 X66.9601 Y177.3267
G01 X66.8272 Y177.3014
G01 X66.6959 Y177.2688
G01 X66.5665 Y177.2290
G01 X66.4396 Y177.1821
G01 X66.3155 Y177.1282
G01 X66.1946 Y177.0675
G01 X66.0771 Y177.0002
G01 X65.7686 Y176.8211
G01 X65.4646 Y176.6344
G01 X65.1653 Y176.4402
G01 X64.8710 Y176.2386
G01 X64.5807 Y176.1057
G01 X64.2817 Y175.9939
G01 X63.9755 Y175.9036
G01 X63.6636 Y175.8353
G01 X63.3477 Y175.7895
G01 X63.0293 Y175.7663
G01 X62.7100 Y175.7658
G01 X62.3916 Y175.7880
G01 X62.1360 Y175.8123
G01 X61.8813 Y175.8452
G01 X61.6279 Y175.8867
G01 X61.3761 Y175.9367
G01 X61.0025 Y176.0370
G01 X60.6341 Y176.1552
G01 X60.2719 Y176.2910
G01 X59.9166 Y176.4441
G01 X58.8514 Y176.8462
G01 X57.7951 Y177.2713
G01 X56.7483 Y177.7192
G01 X55.7114 Y178.1896
G01 X54.8262 Y178.5784
G01 X53.9329 Y178.9484
G01 X53.0321 Y179.2993
G01 X52.1239 Y179.6310
G01 X51.2090 Y179.9434
G01 X50.2876 Y180.2364
G01 X49.3602 Y180.5097
G01 X48.4272 Y180.7632
G01 X47.4813 Y180.9472
G01 X46.5309 Y181.1064
G01 X45.5766 Y181.2405
G01 X44.6191 Y181.3496
G01 X43.6591 Y181.4336
G01 X42.6973 Y181.4924
G01 X41.7342 Y181.5259
G01 X40.7706 Y181.5342
G01 X39.8071 Y181.5172
G01 X38.8443 Y181.4749
G01 X37.8830 Y181.4075
G01 X36.9238 Y181.3148
G01 X35.8543 Y181.1890
G01 X34.7894 Y181.0290
G01 X33.7302 Y180.8348
G01 X32.6778 Y180.6067
G01 X31.6332 Y180.3450
G01 X30.5975 Y180.0499
G01 X29.5719 Y179.7216
G01 X28.5573 Y179.3607
G01 X27.5549 Y178.9673
G01 X26.5656 Y178.5419
G01 X25.5904 Y178.0850
G01 X24.6304 Y177.5971
G01 X23.7024 Y177.0914
G01 X22.7907 Y176.5566
G01 X21.8965 Y175.9931
G01 X21.0207 Y175.4016
G01 X20.1639 Y174.7826
G01 X19.3273 Y174.1368
G01 X18.5115 Y173.4648
G01 X17.7174 Y172.7673
G01 X17.3205 Y172.3949
G01 X16.9416 Y172.0042
G01 X16.5816 Y171.5959
G01 X16.2413 Y171.1712
G01 X15.9215 Y170.7307
G01 X15.6228 Y170.2757
G01 X15.3460 Y169.8071
G01 X15.0917 Y169.3258
G01 X14.9728 Y169.0576
G01 X14.8685 Y168.7834
G01 X14.7791 Y168.5039
G01 X14.7048 Y168.2201
G01 X14.6458 Y167.9327
G01 X14.6024 Y167.6425
G01 X14.5746 Y167.3505
G01 X14.5624 Y167.0573
G01 X14.5653 Y166.9185
G01 X14.5727 Y166.7673
G01 X14.5899 Y166.6169
G01 X14.6167 Y166.4680
G01 X14.6532 Y166.3211
G01 X14.6991 Y166.1768
G01 X14.7543 Y166.0359
G01 X14.8184 Y165.8988
G01 X14.8913 Y165.7662
G01 X14.9726 Y165.6385
G01 X15.0621 Y165.5164
G01 X15.1592 Y165.4003
G01 X15.2637 Y165.2908
G01 X15.3751 Y165.1883
G01 X15.4928 Y165.0932
G01 X15.6165 Y165.0059
G01 X15.7455 Y164.9268
G01 X15.8794 Y164.8563
G01 X16.0176 Y164.7945
G01 X16.1595 Y164.7419
G01 X16.3045 Y164.6985
G01 X17.5412 Y164.3476
G01 X17.8311 Y164.2689
G01 X18.1125 Y164.1641
G01 X18.3833 Y164.0342
G01 X18.6411 Y163.8801
G01 X18.8838 Y163.7032
G01 X19.1094 Y163.5049
G01 X19.3159 Y163.2869
G01 X19.5018 Y163.0509
G01 X19.6654 Y162.7991
G01 X19.8053 Y162.5334
G01 X19.9205 Y162.2560
G01 X20.0100 Y161.9693
G01 X20.0431 Y161.8637
G01 X20.0747 Y161.7576
G01 X20.1048 Y161.6510
G01 X20.1333 Y161.5441
G01 X20.2425 Y161.0244
G01 X20.3360 Y160.5016
G01 X20.4137 Y159.9763
G01 X20.4757 Y159.4489
G01 X20.5219 Y158.9198
G01 X20.5521 Y158.3896
G01 X20.5665 Y157.8588
G01 X20.5649 Y157.3277
G01 X20.5647 Y127.9865
G01 X20.5656 Y126.6632
G01 X20.5311 Y125.3404
G01 X20.4613 Y124.0189
G01 X20.3563 Y122.6998
G01 X20.3397 Y122.5530
G01 X20.3215 Y122.4064
G01 X20.3017 Y122.2600
G01 X20.2804 Y122.1138
G01 X20.2665 Y122.0456
G01 X20.2341 Y121.8946
G01 X20.1984 Y121.7443
G01 X20.1595 Y121.5949
G01 X20.1173 Y121.4463
G01 X20.0562 Y121.2218
G01 X19.9801 Y121.0020
G01 X19.8893 Y120.7878
G01 X19.7841 Y120.5803
G01 X19.6652 Y120.3804
G01 X19.5331 Y120.1889
G01 X19.3883 Y120.0069
G01 X19.2315 Y119.8350
G01 X18.9050 Y119.5766
G01 X18.5701 Y119.3294
G01 X18.2270 Y119.0935
G01 X17.8762 Y118.8693
G01 X17.5181 Y118.6571
G01 X17.1530 Y118.4570
G01 X16.7814 Y118.2693
G01 X16.4037 Y118.0942
G01 X16.0546 Y117.9293
G01 X15.5538 Y117.7009
G01 X15.2563 Y117.5585
G01 X14.9762 Y117.3844
G01 X14.7170 Y117.1806
G01 X14.4816 Y116.9496
G01 X14.2730 Y116.6941
G01 X14.0937 Y116.4173
G01 X13.9458 Y116.1225
G01 X13.8312 Y115.8133
G01 X13.7806 Y115.6104
G01 X13.7438 Y115.4045
G01 X13.7210 Y115.1966
G01 X13.7124 Y114.9877
G01 X13.7144 Y114.8271
G01 X13.7218 Y114.7035
G01 X12.8981 Y114.6908
G01 X13.7192
G01 X9.9999
G01 X9.9530 Y114.6897
G01 X9.9063 Y114.6864
G01 X9.8597 Y114.6809
G01 X9.8135 Y114.6732
G01 X9.7677 Y114.6634
G01 X9.7223 Y114.6515
G01 X9.6776 Y114.6374
G01 X9.6336 Y114.6213
G01 X9.5904 Y114.6031
G01 X9.5481 Y114.5829
G01 X9.5068 Y114.5607
G01 X9.4666 Y114.5367
G01 X9.4276 Y114.5108
G01 X9.3898 Y114.4831
G01 X9.3533 Y114.4536
G01 X9.3183 Y114.4225
G01 X9.2847 Y114.3897
G01 X9.2528 Y114.3554
G01 X9.2224 Y114.3197
G01 X9.1938 Y114.2826
G01 X9.1670 Y114.2441
G01 X9.1420 Y114.2045
G01 X9.1188 Y114.1637
G01 X9.0976 Y114.1219
G01 X9.0784 Y114.0792
G01 X9.0612 Y114.0356
G01 X9.0461 Y113.9912
G01 X9.0331 Y113.9462
G01 X9.0222 Y113.9006
G01 X9.0134 Y113.8546
G01 X9.0068 Y113.8082
G01 X9.0024 Y113.7615
G01 X8.9999 Y113.6708
G01 Y40.0002
G01 X9.0049 Y39.9003
G01 X9.0184 Y39.8087
G01 X9.0404 Y39.7187
G01 X9.0706 Y39.6311
G01 X9.1087 Y39.5466
G01 X9.1545 Y39.4661
G01 X9.2076 Y39.3901
G01 X9.2675 Y39.3194
G01 X9.3336 Y39.2545
G01 X9.4055 Y39.1960
G01 X9.4824 Y39.1444
G01 X9.5639 Y39.1002
G01 X9.6490 Y39.0637
G01 X9.7372 Y39.0352
G01 X9.8276 Y39.0150
G01 X9.9195 Y39.0032
G01 X10.0121 Y39.0000
G01 X11.0494 Y38.9809
G01 X12.0853 Y38.9247
G01 X13.1186 Y38.8315
G01 X14.1478 Y38.7014
G01 X15.1718 Y38.5346
G01 X16.1891 Y38.3313
G01 X17.1985 Y38.0917
G01 X18.1988 Y37.8162
G01 X19.1885 Y37.5051
G01 X20.1664 Y37.1588
G01 X21.1314 Y36.7778
G01 X22.0821 Y36.3625
G01 X23.0173 Y35.9135
G01 X23.9359 Y35.4313
G01 X24.8367 Y34.9166
G01 X25.7185 Y34.3700
G01 X26.5802 Y33.7922
G01 X27.4206 Y33.1840
G01 X28.2388 Y32.5462
G01 X29.0337 Y31.8794
G01 X29.8042 Y31.1847
G01 X30.5494 Y30.4629
G01 X31.2683 Y29.7149
G01 X31.9599 Y28.9417
G01 X32.6235 Y28.1442
G01 X33.2582 Y27.3235
G01 X33.8631 Y26.4807
G01 X34.4375 Y25.6168
G01 X34.9806 Y24.7328
G01 X35.4918 Y23.8301
G01 X35.9704 Y22.9096
G01 X36.4157 Y21.9726
G01 X36.8273 Y21.0202
G01 X37.2045 Y20.0538
G01 X37.5470 Y19.0745
G01 X37.8542 Y18.0836
G01 X38.1258 Y17.0823
G01 X38.3614 Y16.0720
G01 X38.5607 Y15.0538
G01 X38.7235 Y14.0292
G01 X38.8496 Y12.9995
G01 X38.9387 Y11.9659
G01 X38.9909 Y10.9297
G01 X39.0059 Y9.8924
G01 X39.0202 Y9.8008
G01 X39.0428 Y9.7110
G01 X39.0737 Y9.6236
G01 X39.1125 Y9.5395
G01 X39.1589 Y9.4593
G01 X39.2126 Y9.3837
G01 X39.2730 Y9.3135
G01 X39.3397 Y9.2491
G01 X39.4120 Y9.1912
G01 X39.4893 Y9.1402
G01 X39.5711 Y9.0966
G01 X39.6565 Y9.0607
G01 X39.7449 Y9.0330
G01 X39.8355 Y9.0135
G01 X39.9275 Y9.0024
G01 X40.0201 Y8.9999
G01 X260.0002
G01 X260.0989 Y9.0048
G01 X260.1967 Y9.0195
G01 X260.2926 Y9.0437
G01 X260.3857 Y9.0773
G01 X260.4749 Y9.1199
G01 X260.5595 Y9.1711
G01 X260.6387 Y9.2304
G01 X260.7116 Y9.2972
G01 X260.7775 Y9.3709
G01 X260.8359 Y9.4508
G01 X260.8861 Y9.5360
G01 X260.9276 Y9.6257
G01 X260.9600 Y9.7192
G01 X260.9831 Y9.8153
G01 X260.9966 Y9.9133
G01 X261.0003 Y10.0122
G01 X261.0182 Y11.0343
G01 X261.0718 Y12.0552
G01 X261.1611 Y13.0736
G01 X261.2860 Y14.0882
G01 X261.4512 Y15.1140
G01 X261.6530 Y16.1332
G01 X261.8912 Y17.1445
G01 X262.1654 Y18.1467
G01 X262.4753 Y19.1384
G01 X262.8206 Y20.1183
G01 X263.2007 Y21.0853
G01 X263.6151 Y22.0380
G01 X264.0634 Y22.9753
G01 X264.5450 Y23.8960
G01 X265.0592 Y24.7988
G01 X265.6054 Y25.6827
G01 X266.1829 Y26.5464
G01 X266.7910 Y27.3889
G01 X267.4288 Y28.2090
G01 X268.0956 Y29.0058
G01 X268.7905 Y29.7783
G01 X269.5126 Y30.5253
G01 X270.2609 Y31.2461
G01 X271.0346 Y31.9396
G01 X271.8326 Y32.6049
G01 X272.6540 Y33.2413
G01 X273.4975 Y33.8478
G01 X274.3623 Y34.4237
G01 X275.2471 Y34.9684
G01 X276.1508 Y35.4810
G01 X277.0724 Y35.9609
G01 X278.0105 Y36.4075
G01 X278.9640 Y36.8202
G01 X279.9316 Y37.1986
G01 X280.9122 Y37.5421
G01 X281.9045 Y37.8502
G01 X282.9071 Y38.1226
G01 X283.9189 Y38.3590
G01 X284.9384 Y38.5590
G01 X285.9645 Y38.7223
G01 X286.9958 Y38.8488
G01 X288.0309 Y38.9384
G01 X289.0686 Y38.9908
G01 X290.1075 Y39.0060
G01 X290.1990 Y39.0202
G01 X290.2889 Y39.0429
G01 X290.3762 Y39.0737
G01 X290.4604 Y39.1125
G01 X290.5405 Y39.1590
G01 X290.6161 Y39.2126
G01 X290.6863 Y39.2730
G01 X290.7507 Y39.3397
G01 X290.8086 Y39.4120
G01 X290.8596 Y39.4894
G01 X290.9032 Y39.5711
G01 X290.9391 Y39.6566
G01 X290.9669 Y39.7450
G01 X290.9864 Y39.8356
G01 X290.9974 Y39.9276
G01 X290.9999 Y40.0202
G01 Y113.6908
G01 X290.9949 Y113.7900
G01 X290.9801 Y113.8883
G01 X290.9557 Y113.9846
G01 X290.9218 Y114.0781
G01 X290.8788 Y114.1677
G01 X290.8271 Y114.2526
G01 X290.7673 Y114.3319
G01 X290.6998 Y114.4049
G01 X290.6255 Y114.4709
G01 X290.5450 Y114.5292
G01 X290.4591 Y114.5792
G01 X290.3686 Y114.6204
G01 X290.2746 Y114.6524
G01 X290.1778 Y114.6750
G01 X290.0792 Y114.6878
G01 X289.9799 Y114.6908
G01 X279.8539
G01 X280.8802
G01 X279.8481 Y114.6989
G01 X280.3855 Y115.1197
G01 X280.9068 Y115.5604
G01 X281.4112 Y116.0203
G01 X281.8979 Y116.4988
G01 X282.3664 Y116.9952
G01 X282.8159 Y117.5089
G01 X283.2459 Y118.0390
G01 X283.6557 Y118.5849
G01 X284.0447 Y119.1458
G01 X284.4124 Y119.7209
G01 X284.7583 Y120.3094
G01 X285.0818 Y120.9104
G01 X285.4002 Y121.4958
G01 X285.6940 Y122.0938
G01 X285.9628 Y122.7035
G01 X286.2063 Y123.3237
G01 X286.4238 Y123.9535
G01 X286.6152 Y124.5918
G01 X286.7799 Y125.2374
G01 X286.9179 Y125.8893
G01 X286.9709 Y126.1777
G01 X287.0108 Y126.4682
G01 X287.0377 Y126.7602
G01 X287.0515 Y127.0531
G01 X287.0520 Y127.3463
G01 X287.0394 Y127.6393
G01 X287.0136 Y127.9314
G01 X286.9747 Y128.2220
G01 X286.9514 Y128.3501
G01 X286.9218 Y128.4769
G01 X286.8860 Y128.6021
G01 X286.8441 Y128.7254
G01 X286.7960 Y128.8464
G01 X286.7420 Y128.9649
G01 X286.6823 Y129.0806
G01 X286.6168 Y129.1931
G01 X286.5459 Y129.3023
G01 X286.4696 Y129.4079
G01 X286.3882 Y129.5095
G01 X286.3019 Y129.6070
G01 X286.2108 Y129.7000
G01 X286.1153 Y129.7885
G01 X286.0154 Y129.8721
G01 X285.9116 Y129.9506
G01 X285.8040 Y130.0239
G01 X285.6929 Y130.0918
G01 X285.5785 Y130.1541
G01 X285.4612 Y130.2106
G01 X285.3468 Y130.2544
G01 X285.2301 Y130.2915
G01 X285.1114 Y130.3219
G01 X284.9912 Y130.3455
G01 X284.8698 Y130.3622
G01 X284.7477 Y130.3719
G01 X284.6253 Y130.3747
G01 X284.5029 Y130.3705
G01 X284.3809 Y130.3593
G01 X284.2597 Y130.3411
G01 X284.1398 Y130.3161
G01 X284.0215 Y130.2842
G01 X283.9053 Y130.2457
G01 X283.7914 Y130.2006
G01 X283.6803 Y130.1490
G01 X283.5723 Y130.0912
G01 X283.4677 Y130.0273
G01 X283.3670 Y129.9576
G01 X283.2704 Y129.8823
G01 X283.1783 Y129.8015
G01 X282.8715 Y129.5282
G01 X282.5804 Y129.2383
G01 X282.3059 Y128.9326
G01 X282.0489 Y128.6120
G01 X281.5565 Y128.0577
G01 X281.0410 Y127.5250
G01 X280.5031 Y127.0147
G01 X279.9440 Y126.5279
G01 X279.3646 Y126.0653
G01 X278.7660 Y125.6280
G01 X278.1492 Y125.2166
G01 X277.5155 Y124.8319
G01 X277.0994 Y124.6029
G01 X276.6729 Y124.3942
G01 X276.2367 Y124.2064
G01 X275.7921 Y124.0398
G01 X275.3399 Y123.8948
G01 X274.8812 Y123.7717
G01 X274.4172 Y123.6709
G01 X273.9488 Y123.5926
G01 X273.4772 Y123.5370
G01 X273.0035 Y123.5041
G01 X272.5287 Y123.4941
G01 X272.0540 Y123.5070
G01 X271.5805 Y123.5428
G01 X271.1093 Y123.6013
G01 X270.6414 Y123.6825
G01 X270.1780 Y123.7861
G01 X269.5565 Y123.9870
G01 X268.9467 Y124.2208
G01 X268.3503 Y124.4869
G01 X267.7689 Y124.7844
G01 X267.2042 Y125.1125
G01 X266.6579 Y125.4704
G01 X266.1314 Y125.8569
G01 X265.6263 Y126.2709
G01 X265.3045 Y126.5611
G01 X264.9953 Y126.8647
G01 X264.6993 Y127.1812
G01 X264.4171 Y127.5100
G01 X264.1490 Y127.8505
G01 X263.8957 Y128.2020
G01 X263.6575 Y128.5640
G01 X263.4349 Y128.9358
G01 X263.2284 Y129.3168
G01 X263.0382 Y129.7061
G01 X262.8648 Y130.1032
G01 X262.7084 Y130.5074
G01 X262.6494 Y130.6578
G01 X262.5917 Y130.8087
G01 X262.5354 Y130.9601
G01 X262.4804 Y131.1120
G01 X262.4904 Y131.1068
G01 X262.9377 Y130.8090
G01 X263.3977 Y130.5312
G01 X263.8695 Y130.2738
G01 X264.3521 Y130.0374
G01 X264.8446 Y129.8224
G01 X265.3461 Y129.6293
G01 X265.8556 Y129.4584
G01 X266.3721 Y129.3100
G01 X266.8946 Y129.1845
G01 X267.4221 Y129.0820
G01 X267.9536 Y129.0028
G01 X268.4881 Y128.9470
G01 X269.0246 Y128.9147
G01 X269.5619 Y128.9061
G01 X270.0991 Y128.9210
G01 X270.6351 Y128.9595
G01 X271.4298 Y129.0469
G01 X272.2192 Y129.1740
G01 X273.0012 Y129.3404
G01 X273.7739 Y129.5458
G01 X274.5353 Y129.7895
G01 X275.2836 Y130.0711
G01 X276.0169 Y130.3897
G01 X276.7333 Y130.7447
G01 X277.4310 Y131.1350
G01 X278.1084 Y131.5598
G01 X278.7636 Y132.0180
G01 X279.3951 Y132.5083
G01 X279.9640 Y132.9737
G01 X280.5154 Y133.4597
G01 X281.0485 Y133.9658
G01 X281.5624 Y134.4913
G01 X282.0566 Y135.0353
G01 X282.5304 Y135.5973
G01 X282.9830 Y136.1765
G01 X283.4139 Y136.7719
G01 X283.8226 Y137.3829
G01 X284.2083 Y138.0085
G01 X284.5707 Y138.6480
G01 X284.9092 Y139.3005
G01 X285.2233 Y139.9650
G01 X285.5127 Y140.6407
G01 X285.7769 Y141.3266
G01 X286.0155 Y142.0218
G01 X286.1878 Y142.6329
G01 X286.3394 Y143.2494
G01 X286.4702 Y143.8707
G01 X286.5800 Y144.4960
G01 X286.6688 Y145.1247
G01 X286.7363 Y145.7560
G01 X286.7827 Y146.3892
G01 X286.8077 Y147.0236
G01 X286.8114 Y147.6585
G01 X286.7937 Y148.2932
G01 X286.7548 Y148.9269
G01 X286.6945 Y149.5589
G01 X286.6410 Y150.1166
G01 X286.5636 Y150.6715
G01 X286.4623 Y151.2225
G01 X286.3373 Y151.7686
G01 X286.1889 Y152.3089
G01 X286.0174 Y152.8422
G01 X285.8230 Y153.3676
G01 X285.6061 Y153.8842
G01 X285.4480 Y154.2118
G01 X285.2697 Y154.5288
G01 X285.0720 Y154.8340
G01 X284.8555 Y155.1263
G01 X284.6212 Y155.4044
G01 X284.3699 Y155.6674
G01 X284.1027 Y155.9141
G01 X283.8206 Y156.1436
G01 X283.5614 Y156.3115
G01 X283.2886 Y156.4563
G01 X283.0042 Y156.5768
G01 X282.7105 Y156.6722
G01 X282.4096 Y156.7418
G01 X282.1038 Y156.7849
G01 X281.7954 Y156.8014
G01 X281.4868 Y156.7910
G01 X281.0771 Y156.7750
G01 X280.6684 Y156.7433
G01 X280.2612 Y156.6959
G01 X279.8562 Y156.6327
G01 X279.4793 Y156.5947
G01 X279.1007 Y156.5818
G01 X278.7222 Y156.5943
G01 X278.3452 Y156.6320
G01 X277.9717 Y156.6947
G01 X277.6031 Y156.7822
G01 X277.2413 Y156.8941
G01 X276.8876 Y157.0299
G01 X274.4134 Y157.9886
G01 X273.8777 Y158.1686
G01 X273.3357 Y158.3289
G01 X272.7882 Y158.4692
G01 X272.2359 Y158.5893
G01 X271.6796 Y158.6891
G01 X271.1200 Y158.7685
G01 X270.5578 Y158.8272
G01 X269.9939 Y158.8654
G01 X269.4290 Y158.8828
G01 X268.8638 Y158.8795
G01 X268.2991 Y158.8555
G01 X267.7357 Y158.8108
G01 X267.0938 Y158.7393
G01 X266.4549 Y158.6439
G01 X265.8201 Y158.5248
G01 X265.1901 Y158.3821
G01 X264.5659 Y158.2160
G01 X263.9483 Y158.0267
G01 X263.3383 Y157.8146
G01 X262.7365 Y157.5799
G01 X262.1439 Y157.3229
G01 X261.5613 Y157.0440
G01 X260.9895 Y156.7436
G01 X260.4292 Y156.4221
G01 X259.8814 Y156.0800
G01 X259.3467 Y155.7176
G01 X258.8258 Y155.3356
G01 X258.3196 Y154.9344
G01 X257.6932 Y154.4027
G01 X257.0872 Y153.8480
G01 X256.5023 Y153.2709
G01 X255.9394 Y152.6724
G01 X255.3994 Y152.0532
G01 X254.8828 Y151.4143
G01 X254.3906 Y150.7564
G01 X253.9233 Y150.0806
G01 X253.4816 Y149.3878
G01 X253.0662 Y148.6790
G01 X252.6776 Y147.9551
G01 X252.3163 Y147.2171
G01 X251.9738 Y146.4747
G01 X251.6520 Y145.7230
G01 X251.3511 Y144.9627
G01 X251.0716 Y144.1943
G01 X250.8134 Y143.4184
G01 X250.5769 Y142.6357
G01 X250.3622 Y141.8467
G01 X250.1696 Y141.0521
G01 X249.9990 Y140.2524
G01 X249.8507 Y139.4483
G01 X249.7248 Y138.6404
G01 X249.6214 Y137.8293
G01 X249.5406 Y137.0156
G01 X249.4823 Y136.2000
G01 X249.4468 Y135.3831
G01 X249.4339 Y134.5656
G01 X249.4317 Y134.1843
G01 X249.4326 Y133.9426
G01 X249.4497 Y132.9583
G01 X249.5005 Y131.9750
G01 X249.5851 Y130.9942
G01 X249.7032 Y130.0168
G01 X249.8548 Y129.0440
G01 X250.0396 Y128.0770
G01 X250.2575 Y127.1169
G01 X250.5083 Y126.1648
G01 X250.7362 Y125.4001
G01 X250.9901 Y124.6435
G01 X251.2694 Y123.8960
G01 X251.5741 Y123.1584
G01 X251.9036 Y122.4316
G01 X252.2576 Y121.7164
G01 X252.6357 Y121.0136
G01 X253.0375 Y120.3241
G01 X253.4625 Y119.6487
G01 X253.9102 Y118.9880
G01 X254.3800 Y118.3430
G01 X254.8715 Y117.7143
G01 X255.2315 Y117.2952
G01 X255.6040 Y116.8872
G01 X255.9887 Y116.4906
G01 X256.3851 Y116.1058
G01 X256.7930 Y115.7331
G01 X257.2120 Y115.3730
G01 X257.6416 Y115.0256
G01 X258.0815 Y114.6914
G01 X247.6433 Y114.6908
G01 X248.2859
G01 X247.6231 Y114.6955
G01 X247.6034 Y114.8232
G01 X247.5776 Y114.9498
G01 X247.5459 Y115.0750
G01 X247.5083 Y115.1986
G01 X247.4649 Y115.3203
G01 X247.4158 Y115.4399
G01 X247.3611 Y115.5569
G01 X247.3010 Y115.6713
G01 X247.2355 Y115.7826
G01 X247.1648 Y115.8908
G01 X247.0890 Y115.9955
G01 X247.0084 Y116.0965
G01 X246.9231 Y116.1935
G01 X246.8334 Y116.2865
G01 X246.7393 Y116.3750
G01 X246.6412 Y116.4591
G01 X246.3074 Y116.7437
G01 X245.9618 Y117.0139
G01 X245.6050 Y117.2692
G01 X245.2377 Y117.5090
G01 X245.0277 Y117.6854
G01 X244.8298 Y117.8754
G01 X244.6450 Y118.0781
G01 X244.4740 Y118.2926
G01 X244.3176 Y118.5180
G01 X244.1765 Y118.7532
G01 X244.0513 Y118.9973
G01 X243.9426 Y119.2492
G01 X243.8509 Y119.5077
G01 X243.7765 Y119.7717
G01 X243.7197 Y120.0401
G01 X243.6809 Y120.3116
G01 X243.6182 Y120.8478
G01 X243.5728 Y121.3857
G01 X243.5447 Y121.9248
G01 X243.5339 Y122.4645
G01 X243.5299 Y122.7567
G01 X243.5278 Y123.1800
G01 Y155.2975
G01 X243.5330 Y155.5842
G01 X243.5160 Y155.8703
G01 X243.4769 Y156.1543
G01 X243.4160 Y156.4344
G01 X243.3335 Y156.7090
G01 X243.2300 Y156.9763
G01 X243.1062 Y157.2348
G01 X242.9627 Y157.4830
G01 X242.8739 Y157.5949
G01 X242.7789 Y157.7015
G01 X242.6780 Y157.8026
G01 X242.5715 Y157.8977
G01 X242.4598 Y157.9867
G01 X242.3432 Y158.0692
G01 X242.2221 Y158.1449
G01 X242.0969 Y158.2136
G01 X241.9679 Y158.2750
G01 X241.8358 Y158.3291
G01 X241.7007 Y158.3755
G01 X241.5632 Y158.4142
G01 X241.4238 Y158.4450
G01 X241.2828 Y158.4679
G01 X241.1407 Y158.4826
G01 X240.9981 Y158.4893
G01 X240.8553 Y158.4879
G01 X240.7128 Y158.4784
G01 X240.5711 Y158.4607
G01 X240.4306 Y158.4351
G01 X240.2918 Y158.4015
G01 X240.1551 Y158.3601
G01 X240.0210 Y158.3109
G01 X239.8899 Y158.2543
G01 X239.4326 Y158.0356
G01 X238.9890 Y157.7905
G01 X238.5606 Y157.5197
G01 X238.1488 Y157.2242
G01 X237.6656 Y156.8847
G01 X237.1749 Y156.5561
G01 X236.6769 Y156.2386
G01 X236.1720 Y155.9323
G01 X235.6604 Y155.6373
G01 X235.1423 Y155.3539
G01 X234.6179 Y155.0822
G01 X234.0877 Y154.8222
G01 X233.4691 Y154.5744
G01 X232.8443 Y154.3427
G01 X232.2137 Y154.1273
G01 X231.5776 Y153.9285
G01 X230.9367 Y153.7463
G01 X230.2912 Y153.5808
G01 X229.6416 Y153.4321
G01 X228.9883 Y153.3005
G01 X228.6038 Y153.2207
G01 X228.0287 Y153.1066
G01 X227.8947 Y153.0848
G01 X227.7619 Y153.0568
G01 X227.6306 Y153.0224
G01 X227.5011 Y152.9819
G01 X227.3736 Y152.9354
G01 X227.2485 Y152.8828
G01 X227.1260 Y152.8244
G01 X227.0064 Y152.7603
G01 X226.8900 Y152.6906
G01 X226.7769 Y152.6155
G01 X226.6676 Y152.5351
G01 X226.5622 Y152.4497
G01 X226.4609 Y152.3593
G01 X226.3640 Y152.2643
G01 X226.2717 Y152.1648
G01 X226.1843 Y152.0610
G01 X226.1182 Y151.9665
G01 X226.0567 Y151.8688
G01 X226.0001 Y151.7683
G01 X225.9485 Y151.6652
G01 X225.9020 Y151.5596
G01 X225.8607 Y151.4519
G01 X225.8247 Y151.3424
G01 X225.7940 Y151.2312
G01 X225.7688 Y151.1186
G01 X225.7492 Y151.0049
G01 X225.7351 Y150.8905
G01 X225.7266 Y150.7754
G01 X225.7204 Y150.6318
G01 X225.7209 Y150.5313
G01 X225.7297 Y150.4025
G01 X225.7453 Y150.2743
G01 X225.7677 Y150.1471
G01 X225.7969 Y150.0213
G01 X225.8328 Y149.8972
G01 X225.8753 Y149.7753
G01 X225.9242 Y149.6558
G01 X225.9794 Y149.5390
G01 X226.0408 Y149.4254
G01 X226.1082 Y149.3152
G01 X226.1814 Y149.2088
G01 X226.2601 Y149.1065
G01 X226.3443 Y149.0085
G01 X226.4335 Y148.9151
G01 X226.5276 Y148.8267
G01 X226.6263 Y148.7434
G01 X226.7293 Y148.6655
G01 X226.8363 Y148.5932
G01 X226.9470 Y148.5267
G01 X227.0612 Y148.4663
G01 X227.3297 Y148.3380
G01 X227.5932 Y148.1998
G01 X227.8514 Y148.0517
G01 X228.1038 Y147.8941
G01 X228.3501 Y147.7271
G01 X228.5900 Y147.5509
G01 X228.8231 Y147.3659
G01 X229.0490 Y147.1722
G01 X229.1872 Y146.9282
G01 X229.3093 Y146.6757
G01 X229.4149 Y146.4159
G01 X229.5034 Y146.1498
G01 X229.5746 Y145.8785
G01 X229.6281 Y145.6032
G01 X229.6637 Y145.3250
G01 X229.6813 Y145.0451
G01 X229.7254 Y144.3872
G01 X229.7551 Y143.7284
G01 X229.7705 Y143.0691
G01 X229.7714 Y142.4097
G01 X229.7710 Y123.6272
G01 X229.7766 Y123.1162
G01 X229.7697 Y122.6053
G01 X229.7505 Y122.0947
G01 X229.7189 Y121.5847
G01 X229.6749 Y121.0756
G01 X229.6186 Y120.5677
G01 X229.5499 Y120.0614
G01 X229.4690 Y119.5569
G01 X229.3956 Y119.2976
G01 X229.3016 Y119.0450
G01 X229.1877 Y118.8008
G01 X229.0545 Y118.5665
G01 X228.9030 Y118.3436
G01 X228.7341 Y118.1336
G01 X228.5489 Y117.9379
G01 X228.3486 Y117.7576
G01 X227.9599 Y117.4640
G01 X227.5665 Y117.1765
G01 X227.1687 Y116.8954
G01 X226.7664 Y116.6207
G01 X226.6610 Y116.5315
G01 X226.5606 Y116.4368
G01 X226.4656 Y116.3367
G01 X226.3763 Y116.2314
G01 X226.2929 Y116.1215
G01 X226.2156 Y116.0071
G01 X226.1448 Y115.8887
G01 X226.0806 Y115.7665
G01 X226.0232 Y115.6410
G01 X225.9728 Y115.5125
G01 X225.9295 Y115.3814
G01 X225.8935 Y115.2482
G01 X225.8648 Y115.1132
G01 X225.8437 Y114.9768
G01 X225.8300 Y114.8394
G01 X225.8240 Y114.7016
G01 X225.2922 Y114.6908
G01 X225.8056
G01 X223.8809
G01 X224.5235
G01 X223.8604 Y114.7098
G01 X223.8417 Y114.8368
G01 X223.8171 Y114.9628
G01 X223.7864 Y115.0875
G01 X223.7499 Y115.2106
G01 X223.7075 Y115.3318
G01 X223.6595 Y115.4508
G01 X223.6058 Y115.5675
G01 X223.5466 Y115.6814
G01 X223.4821 Y115.7924
G01 X223.4124 Y115.9003
G01 X223.3376 Y116.0046
G01 X223.2580 Y116.1054
G01 X223.1737 Y116.2022
G01 X223.0848 Y116.2949
G01 X222.9917 Y116.3832
G01 X222.8944 Y116.4670
G01 X222.5694 Y116.7379
G01 X222.2335 Y116.9951
G01 X221.8873 Y117.2382
G01 X221.5312 Y117.4667
G01 X221.3136 Y117.6432
G01 X221.1086 Y117.8341
G01 X220.9169 Y118.0384
G01 X220.7396 Y118.2553
G01 X220.5773 Y118.4837
G01 X220.4310 Y118.7226
G01 X220.3012 Y118.9709
G01 X220.1885 Y119.2274
G01 X220.0935 Y119.4909
G01 X220.0167 Y119.7603
G01 X219.9582 Y120.0343
G01 X219.9186 Y120.3116
G01 X219.8569 Y120.8235
G01 X219.8122 Y121.3371
G01 X219.7843 Y121.8518
G01 X219.7734 Y122.3673
G01 X219.7675 Y122.7567
G01 X219.7657 Y123.0496
G01 X219.7655 Y166.2112
G01 X219.9655
M107
G00 Z2.0000
G00 X222.7409
G00 Z0.5000
G01 Z-1.8000 F400
M106 S200
G01 X222.9405 Y166.1780 F800
G01 X222.9357 Y165.7437
G01 X222.9015 Y163.9165
G01 X222.8755 Y162.0891
G01 X222.8575 Y160.2616
G01 X222.8477 Y158.4341
G01 X222.8490 Y157.8688
G01 X222.8535 Y157.1553
G01 X222.8630 Y156.4417
G01 X222.8774 Y155.7283
G01 X222.8969 Y155.0150
G01 X222.9105 Y154.7607
G01 X222.9176 Y154.6731
G01 X222.9322 Y154.5863
G01 X222.9544 Y154.5013
G01 X222.9840 Y154.4184
G01 X223.0207 Y154.3385
G01 X223.0643 Y154.2621
G01 X223.1144 Y154.1898
G01 X223.1707 Y154.1222
G01 X223.2326 Y154.0598
G01 X223.2998 Y154.0030
G01 X223.3717 Y153.9524
G01 X223.4477 Y153.9082
G01 X223.5273 Y153.8708
G01 X223.6099 Y153.8406
G01 X223.6948 Y153.8177
G01 X223.7814 Y153.8024
G01 X223.8690 Y153.7946
G01 X223.9570
G01 X224.0446 Y153.8023
G01 X224.1312 Y153.8176
G01 X224.2161 Y153.8405
G01 X224.2987 Y153.8707
G01 X224.3783 Y153.9080
G01 X224.4544 Y153.9521
G01 X224.5263 Y154.0028
G01 X224.5935 Y154.0595
G01 X224.6555 Y154.1219
G01 X224.7117 Y154.1895
G01 X225.0210 Y154.4826
G01 X225.3479 Y154.7559
G01 X225.6912 Y155.0084
G01 X226.0496 Y155.2389
G01 X226.4216 Y155.4468
G01 X226.8058 Y155.6310
G01 X227.2007 Y155.7910
G01 X227.6049 Y155.9261
G01 X228.1293 Y156.0953
G01 X228.6579 Y156.2514
G01 X229.1901 Y156.3941
G01 X229.7258 Y156.5235
G01 X230.9941 Y156.8291
G01 X231.3046 Y156.9069
G01 X231.3505 Y156.9205
G01 X231.3958 Y156.9362
G01 X231.4402 Y156.9541
G01 X231.4838 Y156.9741
G01 X231.5263 Y156.9962
G01 X231.5677 Y157.0203
G01 X231.6079 Y157.0463
G01 X231.6469 Y157.0742
G01 X231.6844 Y157.1040
G01 X231.7205 Y157.1355
G01 X231.7550 Y157.1687
G01 X231.7879 Y157.2036
G01 X231.8191 Y157.2399
G01 X231.8485 Y157.2777
G01 X231.8761 Y157.3169
G01 X231.9018 Y157.3574
G01 X231.9255 Y157.3990
G01 X231.9471 Y157.4418
G01 X231.9667 Y157.4855
G01 X231.9842 Y157.5301
G01 X231.9995 Y157.5755
G01 X232.0127 Y157.6216
G01 X232.0236 Y157.6682
G01 X232.0322 Y157.7153
G01 X232.0386 Y157.7628
G01 X232.0428 Y157.8106
G01 X232.0446 Y157.8584
G01 X232.0441 Y157.9063
G01 X232.0413 Y157.9542
G01 X232.0363 Y158.0018
G01 X232.0290 Y158.0492
G01 X232.0194 Y158.0961
G01 X232.0075 Y158.1425
G01 X231.9935 Y158.1884
G01 X231.9773 Y158.2334
G01 X231.9589 Y158.2777
G01 X231.9385 Y158.3210
G01 X231.9160 Y158.3633
G01 X231.8915 Y158.4045
G01 X231.8650 Y158.4444
G01 X231.8367 Y158.4831
G01 X231.8065 Y158.5203
G01 X231.7746 Y158.5561
G01 X231.7411 Y158.5902
G01 X231.7059 Y158.6228
G01 X231.6692 Y158.6536
G01 X231.6311 Y158.6826
G01 X231.5916 Y158.7098
G01 X231.2294 Y158.9659
G01 X230.8821 Y159.2419
G01 X230.5509 Y159.5371
G01 X230.2369 Y159.8505
G01 X229.9410 Y160.1810
G01 X229.6642 Y160.5277
G01 X229.4073 Y160.8894
G01 X229.1712 Y161.2650
G01 X228.9567 Y161.6533
G01 X228.7643 Y162.0530
G01 X228.5947 Y162.4630
G01 X228.4484 Y162.8818
G01 X228.3130 Y163.3114
G01 X228.1951 Y163.7462
G01 X228.0950 Y164.1853
G01 X228.0127 Y164.6282
G01 X227.9484 Y165.0741
G01 X227.9022 Y165.5221
G01 X227.8743 Y165.9717
G01 X227.8646 Y166.4221
G01 X227.8655 Y166.6347
G01 X227.8804 Y167.1969
G01 X227.9248 Y167.7576
G01 X227.9985 Y168.3151
G01 X228.1015 Y168.8680
G01 X228.2333 Y169.4148
G01 X228.3937 Y169.9538
G01 X228.5821 Y170.4837
G01 X228.7981 Y171.0030
G01 X229.0411 Y171.5102
G01 X229.3104 Y172.0039
G01 X229.6053 Y172.4828
G01 X229.9248 Y172.9456
G01 X230.1857 Y173.2732
G01 X230.4634 Y173.5867
G01 X230.7570 Y173.8853
G01 X231.0657 Y174.1682
G01 X231.3889 Y174.4346
G01 X231.7254 Y174.6838
G01 X232.0745 Y174.9151
G01 X232.4352 Y175.1279
G01 X232.8065 Y175.3216
G01 X233.1874 Y175.4956
G01 X233.5769 Y175.6495
G01 X233.9739 Y175.7830
G01 X234.4096 Y175.9704
G01 X234.8553 Y176.1328
G01 X235.3095 Y176.2696
G01 X235.7707 Y176.3804
G01 X236.2375 Y176.4648
G01 X236.7083 Y176.5225
G01 X237.1816 Y176.5534
G01 X237.6559 Y176.5574
G01 X238.1297 Y176.5344
G01 X238.6014 Y176.4845
G01 X239.0696 Y176.4079
G01 X239.5326 Y176.3048
G01 X239.9890 Y176.1756
G01 X240.4373 Y176.0207
G01 X240.8761 Y175.8405
G01 X241.3040 Y175.6357
G01 X241.8549 Y175.3404
G01 X242.3886 Y175.0148
G01 X242.9034 Y174.6601
G01 X243.3977 Y174.2774
G01 X243.8699 Y173.8678
G01 X244.3187 Y173.4325
G01 X244.7426 Y172.9730
G01 X245.1403 Y172.4907
G01 X245.5105 Y171.9870
G01 X245.8522 Y171.4635
G01 X246.1643 Y170.9218
G01 X246.4458 Y170.3636
G01 X246.6959 Y169.7907
G01 X246.9137 Y169.2047
G01 X247.0987 Y168.6075
G01 X247.2501 Y168.0010
G01 X247.3337 Y167.5604
G01 X247.3925 Y167.1158
G01 X247.4266 Y166.6686
G01 X247.4357 Y166.2202
G01 X247.4198 Y165.7720
G01 X247.3790 Y165.3253
G01 X247.3134 Y164.8817
G01 X247.2233 Y164.4423
G01 X247.1088 Y164.0087
G01 X246.9703 Y163.5821
G01 X246.8084 Y163.1639
G01 X246.6234 Y162.7553
G01 X246.4159 Y162.3577
G01 X246.1867 Y161.9722
G01 X245.9363 Y161.6001
G01 X245.6656 Y161.2425
G01 X245.6443 Y161.2067
G01 X245.6245 Y161.1701
G01 X245.6062 Y161.1327
G01 X245.5895 Y161.0945
G01 X245.5744 Y161.0557
G01 X245.5609 Y161.0162
G01 X245.5491 Y160.9763
G01 X245.5390 Y160.9359
G01 X245.5305 Y160.8951
G01 X245.5238 Y160.8540
G01 X245.5187 Y160.8126
G01 X245.5154 Y160.7711
G01 X245.5146 Y160.6711
G01 X245.5238 Y160.5716
G01 X245.5428 Y160.4734
G01 X245.7428 Y159.5518
G01 X245.9233 Y158.6261
G01 X246.0843 Y157.6968
G01 X246.2258 Y156.7644
G01 X246.3476 Y155.8292
G01 X246.4497 Y154.8916
G01 X246.5321 Y153.9521
G01 X246.5946 Y153.0111
G01 X246.6558 Y151.9645
G01 X246.7036 Y150.9173
G01 X246.7380 Y149.8696
G01 X246.7589 Y148.8215
G01 X246.7665 Y147.7732
G01 X246.7606 Y146.7249
G01 X246.7413 Y145.6768
G01 X246.7086 Y144.6290
G01 X246.7227 Y144.5300
G01 X246.7467 Y144.4330
G01 X246.7801 Y144.3388
G01 X246.8229 Y144.2484
G01 X246.8744 Y144.1628
G01 X246.9342 Y144.0827
G01 X247.0017 Y144.0090
G01 X247.0763 Y143.9424
G01 X247.1571 Y143.8836
G01 X247.2434 Y143.8331
G01 X247.3343 Y143.7915
G01 X247.4288 Y143.7592
G01 X247.5262 Y143.7365
G01 X247.6253 Y143.7236
G01 X247.7252 Y143.7207
G01 X247.8249 Y143.7277
G01 X247.9234 Y143.7447
G01 X248.0198 Y143.7715
G01 X248.1129 Y143.8077
G01 X248.2020 Y143.8530
G01 X248.2861 Y143.9070
G01 X248.3644 Y143.9692
G01 X248.4361 Y144.0388
G01 X248.5005 Y144.1153
G01 X248.5570 Y144.1978
G01 X248.6049 Y144.2855
G01 X248.6438 Y144.3775
G01 X248.6734 Y144.4730
G01 X248.8802 Y145.2198
G01 X249.1114 Y145.9593
G01 X249.3669 Y146.6908
G01 X249.6462 Y147.4136
G01 X249.9491 Y148.1268
G01 X250.2753 Y148.8296
G01 X250.6243 Y149.5214
G01 X250.9960 Y150.2013
G01 X251.3898 Y150.8686
G01 X251.8052 Y151.5226
G01 X252.2420 Y152.1627
G01 X252.6995 Y152.7880
G01 X253.1774 Y153.3980
G01 X253.6750 Y153.9919
G01 X254.1918 Y154.5692
G01 X254.7274 Y155.1291
G01 X255.2569 Y155.6638
G01 X255.8037 Y156.1808
G01 X256.3673 Y156.6795
G01 X256.9470 Y157.1593
G01 X257.5422 Y157.6197
G01 X258.1522 Y158.0603
G01 X258.7765 Y158.4805
G01 X259.4142 Y158.8799
G01 X260.0648 Y159.2580
G01 X260.7275 Y159.6146
G01 X261.4016 Y159.9490
G01 X262.0863 Y160.2611
G01 X262.7810 Y160.5504
G01 X263.4848 Y160.8167
G01 X264.1970 Y161.0597
G01 X264.9169 Y161.2790
G01 X265.6258 Y161.4619
G01 X266.3417 Y161.6157
G01 X267.0632 Y161.7401
G01 X267.7892 Y161.8349
G01 X268.5185 Y161.8999
G01 X269.2499 Y161.9351
G01 X269.9820 Y161.9403
G01 X270.7138 Y161.9156
G01 X271.4439 Y161.8609
G01 X272.1712 Y161.7765
G01 X272.8945 Y161.6624
G01 X273.6124 Y161.5188
G01 X274.1103 Y161.2597
G01 X274.6202 Y161.0254
G01 X275.1410 Y160.8163
G01 X275.6715 Y160.6330
G01 X276.2103 Y160.4759
G01 X276.7561 Y160.3454
G01 X277.3077 Y160.2418
G01 X277.8637 Y160.1653
G01 X278.8937 Y160.0505
G01 X279.9247 Y159.9435
G01 X280.9564 Y159.8444
G01 X281.9889 Y159.7532
G01 X282.4175 Y159.7075
G01 X282.8441 Y159.6449
G01 X283.2678 Y159.5654
G01 X283.6880 Y159.4693
G01 X284.1041 Y159.3565
G01 X284.5154 Y159.2273
G01 X284.9212 Y159.0819
G01 X285.3210 Y158.9206
G01 X285.3904 Y158.8928
G01 X285.4576 Y158.8602
G01 X285.5223 Y158.8228
G01 X285.5842 Y158.7809
G01 X285.6430 Y158.7347
G01 X285.6982 Y158.6844
G01 X285.7498 Y158.6302
G01 X285.7973 Y158.5726
G01 X286.1899 Y158.1822
G01 X286.5658 Y157.7758
G01 X286.9244 Y157.3540
G01 X287.2651 Y156.9177
G01 X287.5872 Y156.4675
G01 X287.8903 Y156.0042
G01 X288.1738 Y155.5287
G01 X288.4372 Y155.0418
G01 X288.6800 Y154.5443
G01 X288.9018 Y154.0371
G01 X289.1023 Y153.5211
G01 X289.2811 Y152.9971
G01 X289.4378 Y152.4662
G01 X289.5722 Y151.9291
G01 X289.6841 Y151.3870
G01 X289.7732 Y150.8406
G01 X289.8704 Y150.0478
G01 X289.9361 Y149.2517
G01 X289.9702 Y148.4537
G01 X289.9728 Y147.6550
G01 X289.9437 Y146.8568
G01 X289.8830 Y146.0603
G01 X289.7909 Y145.2669
G01 X289.6675 Y144.4778
G01 X289.5129 Y143.6941
G01 X289.3274 Y142.9172
G01 X289.1113 Y142.1482
G01 X288.8649 Y141.3884
G01 X288.6590 Y140.7924
G01 X288.4359 Y140.2026
G01 X288.1958 Y139.6195
G01 X287.9389 Y139.0437
G01 X287.6654 Y138.4755
G01 X287.3756 Y137.9154
G01 X287.0697 Y137.3640
G01 X286.7479 Y136.8217
G01 X286.4106 Y136.2889
G01 X286.0580 Y135.7661
G01 X285.6903 Y135.2538
G01 X285.3080 Y134.7523
G01 X285.2858 Y134.7171
G01 X285.2650 Y134.6810
G01 X285.2457 Y134.6441
G01 X285.2280 Y134.6064
G01 X285.2118 Y134.5680
G01 X285.1973 Y134.5289
G01 X285.1844 Y134.4893
G01 X285.1732 Y134.4492
G01 X285.1636 Y134.4086
G01 X285.1558 Y134.3677
G01 X285.1497 Y134.3265
G01 X285.1453 Y134.2851
G01 X285.1417 Y134.1852
G01 X285.1484 Y134.0933
G01 X285.1632 Y134.0024
G01 X285.1861 Y133.9132
G01 X285.2168 Y133.8264
G01 X285.2552 Y133.7427
G01 X285.3008 Y133.6627
G01 X285.3534 Y133.5872
G01 X285.4126 Y133.5166
G01 X285.4778 Y133.4516
G01 X285.5485 Y133.3926
G01 X285.6242 Y133.3402
G01 X285.7043 Y133.2947
G01 X285.7881 Y133.2566
G01 X285.8750 Y133.2261
G01 X285.9643 Y133.2035
G01 X286.0552 Y133.1889
G01 X286.3892 Y133.0985
G01 X286.7162 Y132.9853
G01 X287.0346 Y132.8498
G01 X287.3430 Y132.6928
G01 X287.6398 Y132.5149
G01 X287.9236 Y132.3169
G01 X288.1931 Y132.0999
G01 X288.4471 Y131.8649
G01 X288.6842 Y131.6129
G01 X288.9035 Y131.3452
G01 X289.1037 Y131.0630
G01 X289.2841 Y130.7677
G01 X289.4437 Y130.4606
G01 X289.5818 Y130.1434
G01 X289.6977 Y129.8173
G01 X289.7909 Y129.4841
G01 X289.9129 Y128.9191
G01 X290.0029 Y128.3481
G01 X290.0606 Y127.7729
G01 X290.0858 Y127.1955
G01 X290.0784 Y126.6175
G01 X290.0385 Y126.0408
G01 X289.9661 Y125.4673
G01 X289.8615 Y124.8988
G01 X289.7595 Y124.4009
G01 X289.6397 Y123.9069
G01 X289.5022 Y123.4176
G01 X289.3472 Y122.9335
G01 X289.1750 Y122.4553
G01 X288.9856 Y121.9836
G01 X288.7794 Y121.5191
G01 X288.5566 Y121.0622
G01 X288.3176 Y120.6136
G01 X288.0626 Y120.1740
G01 X287.7919 Y119.7437
G01 X287.5060 Y119.3235
G01 X287.4850 Y119.2781
G01 X287.4663 Y119.2318
G01 X287.4499 Y119.1845
G01 X287.4360 Y119.1365
G01 X287.4244 Y119.0879
G01 X287.4153 Y119.0387
G01 X287.4086 Y118.9892
G01 X287.4045 Y118.9393
G01 X287.4036 Y118.8394
G01 X287.4124 Y118.7519
G01 X287.4286 Y118.6654
G01 X287.4520 Y118.5806
G01 X287.4825 Y118.4980
G01 X287.5199 Y118.4184
G01 X287.5638 Y118.3422
G01 X287.6141 Y118.2699
G01 X287.6702 Y118.2022
G01 X287.7319 Y118.1395
G01 X287.7987 Y118.0822
G01 X287.8701 Y118.0308
G01 X287.9456 Y117.9856
G01 X288.0246 Y117.9469
G01 X288.1066 Y117.9150
G01 X288.1910 Y117.8902
G01 X288.2772 Y117.8726
G01 X288.7347 Y117.7853
G01 X289.1972 Y117.7295
G01 X289.6624 Y117.7055
G01 X290.1281 Y117.7134
G01 X290.9123 Y117.7440
G01 X291.6969 Y117.7601
G01 X292.4816 Y117.7617
G01 X293.2663 Y117.7489
G01 X293.4728 Y117.7378
G01 X293.6790 Y117.7216
G01 X293.8847 Y117.7002
G01 X294.0899 Y117.6736
G01 X294.0857 Y111.0604
G01 X294.0739 Y102.8184
G01 X294.0571 Y94.5762
G01 X294.0323 Y84.6853
G01 X294.0012 Y73.9702
G01 X293.9609 Y61.6065
G01 X293.9167 Y49.2428
G01 X293.8700 Y37.1837
G01 X293.8617 Y37.1675
G01 X293.0833 Y37.2152
G01 X292.3037 Y37.2388
G01 X291.5239 Y37.2382
G01 X290.7444 Y37.2135
G01 X289.9660 Y37.1647
G01 X289.1896 Y37.0918
G01 X288.4157 Y36.9950
G01 X287.6453 Y36.8742
G01 X286.8789 Y36.7297
G01 X286.1174 Y36.5615
G01 X285.3614 Y36.3699
G01 X284.6117 Y36.1549
G01 X283.8691 Y35.9169
G01 X283.1341 Y35.6560
G01 X282.4076 Y35.3725
G01 X281.6902 Y35.0666
G01 X280.6875 Y34.6040
G01 X279.7020 Y34.1059
G01 X278.7349 Y33.5729
G01 X277.7874 Y33.0057
G01 X276.8607 Y32.4051
G01 X275.9561 Y31.7718
G01 X275.0747 Y31.1066
G01 X274.2175 Y30.4104
G01 X273.3858 Y29.6840
G01 X272.5805 Y28.9285
G01 X271.8027 Y28.1446
G01 X271.0533 Y27.3335
G01 X270.3334 Y26.4961
G01 X269.6439 Y25.6336
G01 X268.9855 Y24.7471
G01 X268.3592 Y23.8376
G01 X267.7658 Y22.9063
G01 X267.2060 Y21.9545
G01 X266.6806 Y20.9832
G01 X266.1901 Y19.9939
G01 X265.8244 Y19.1831
G01 X265.4887 Y18.3595
G01 X265.1833 Y17.5242
G01 X264.9087 Y16.6783
G01 X264.6653 Y15.8228
G01 X264.4534 Y14.9591
G01 X264.2732 Y14.0881
G01 X264.1251 Y13.2111
G01 X264.0091 Y12.3293
G01 X263.9256 Y11.4439
G01 X263.8745 Y10.5560
G01 X263.8559 Y9.6668
G01 X263.8710 Y8.9541
G01 X263.9102 Y8.2423
G01 X263.9737 Y7.5322
G01 X264.0614 Y6.8248
G01 X61.4997
G01 X37.0344 Y6.8937
G01 X37.0492
G01 X37.0321 Y6.8974
G01 X37.0814 Y7.6783
G01 X37.1065 Y8.4603
G01 X37.1074 Y9.2427
G01 X37.0842 Y10.0247
G01 X37.0368 Y10.8057
G01 X36.9654 Y11.5849
G01 X36.8699 Y12.3614
G01 X36.7505 Y13.1347
G01 X36.6072 Y13.9039
G01 X36.4403 Y14.6683
G01 X36.2498 Y15.4271
G01 X36.0360 Y16.1798
G01 X35.7991 Y16.9254
G01 X35.5392 Y17.6634
G01 X35.2567 Y18.3931
G01 X34.9518 Y19.1136
G01 X34.5155 Y20.0735
G01 X34.0468 Y21.0180
G01 X33.5464 Y21.9460
G01 X33.0148 Y22.8565
G01 X32.4525 Y23.7485
G01 X31.8604 Y24.6208
G01 X31.2389 Y25.4726
G01 X30.5889 Y26.3028
G01 X29.9111 Y27.1104
G01 X29.2063 Y27.8946
G01 X28.4753 Y28.6544
G01 X27.7189 Y29.3890
