;Project AshleyKole
;Created by Estlcam version 11 build 11,245
;Machining time about 00:17:46 hours

G90
M03 S10000
G00 Z5.0000


;No. 1: Hole 1
G00 X42.7038 Y81.2396
G00 Z0.5000
G01 Z0.0000 F400 S10000
G01 Z-1.0000
G01 X54.1179 F1000
G01 X52.3244 Y82.7396
G01 X41.2152
G01 X39.7934 Y84.2396
G01 X50.6023
G01 X48.9956 Y85.7396
G01 X38.4366
G01 X37.1437 Y87.2396
G01 X47.4572
G01 X45.9676 Y88.7396
G01 X35.9138
G01 X34.7467 Y90.2396
G01 X44.5233
G01 X43.1323 Y91.7396
G01 X33.6421
G01 X32.6003 Y93.2396
G01 X41.8258
G01 X40.5527 Y94.7396
G01 X31.6246
G01 X30.7138 Y96.2396
G01 X39.3273
G01 X38.2527 Y97.7396
G01 X29.8501
G01 X29.0259 Y99.2396
G01 X38.5149
G01 Y100.7396
G01 X28.2409
G01 X63.7541
G01 X65.7552 Y102.2396
G01 X58.2870
G01 X61.2842
G01 Y103.7396
G01 X70.0381
G01 X69.1850
G01 Y105.2396
G01 X63.3329
G01 X64.9398 Y106.7396
G01 X69.9165
G01 X70.6480 Y108.2396
G01 X66.2369
G01 X67.2456 Y109.7396
G01 X71.2506
G01 X71.7438 Y111.2396
G01 X68.0882
G01 X68.7589 Y112.7396
G01 X72.1367
G01 X72.4338 Y114.2396
G01 X69.2351
G01 X69.5678 Y115.7396
G01 X72.6019
G01 X72.6488 Y117.2396
G01 X69.7643
G01 X69.8000 Y118.7396
G01 X72.7047
G01 X69.6353 Y120.2396
G01 X81.7056
G01 X82.7285 Y121.7396
G01 X69.2863
G01 X68.7632 Y123.2396
G01 X71.8136
G01 X71.3116 Y124.7396
G01 X68.0576
G01 X67.1353 Y126.2396
G01 X70.5193
G01 X69.5402 Y127.7396
G01 X65.9079
G01 X64.2789 Y129.2396
G01 X68.4821
G01 Y130.7396
G01 X68.7658
G01 X61.8189
G01 X64.7640 Y132.2396
G01 X49.2736
G01 X47.6278 Y130.7396
G01 X52.6267
G01 X50.3146 Y129.2396
G01 X46.4972
G01 X45.6711 Y127.7396
G01 X48.9288
G01 X48.1009 Y126.2396
G01 X45.0260
G01 X44.7117 Y124.7396
G01 X47.5917
G01 X47.2860 Y123.2396
G01 X44.5982
G01 X44.6494 Y121.7396
G01 X47.4265
G01 X44.9154 Y120.2396
G01 X55.9562
G01 X55.9867 Y118.7396
G01 X45.5247
G01 X46.5141 Y117.2396
G01 X55.4955
G01 X54.2655 Y115.7396
G01 X48.1997
G00 Z5.0000
G00 X49.9851 Y120.2396
G00 Z0.5000
G01 Z-1.0000 F400
G01 Y121.7396 F1000
G01 X55.3656
G01 X52.8276 Y123.2396
G01 X52.2736
G00 Z5.0000
G00 X51.6693 Y132.2396
G00 Z0.5000
G01 Z-1.0000 F400
G01 Y133.7396 F1000
G01 X62.3216
G01 X62.2117
G01 Y135.2396
G01 X60.7834
G01 Y136.7396
G01 X60.6211
G01 X64.2255
G01 X64.9382 Y138.2396
G01 X59.3800
G01 X58.4891 Y139.7396
G01 X64.1713
G01 X62.9847 Y141.2396
G01 X57.5944
G01 X56.1059 Y142.7396
G01 X61.0148
G01 X60.6275
G01 Y144.2396
G01 X58.5951
G01 X59.1225
G01 Y145.7396
G01 X68.8848
G01 X70.8330 Y147.2396
G01 X59.0323
G01 X59.4734 Y148.7396
G01 X58.0917
G01 X58.7454 Y150.2396
G01 X46.0826
G01 X45.0133 Y151.7396
G01 X51.5625
G01 X50.3379 Y153.2396
G01 X44.6875
G01 Y154.7396
G01 X43.9280
G01 X47.8363
G01 X45.2279
G01 Y156.2396
G01 X33.0936
G01 X31.8481 Y154.7396
G01 X42.6591
G01 X41.0038 Y153.2396
G01 X30.7169
G01 X29.6938 Y151.7396
G01 X39.6851
G01 X38.4646 Y150.2396
G01 X28.7717
G01 X27.9425 Y148.7396
G01 X37.3401
G01 X36.3285 Y147.2396
G01 X27.1924
G01 X26.4885 Y145.7396
G01 X35.4214
G01 X34.6089 Y144.2396
G01 X25.8512
G01 X25.2992 Y142.7396
G01 X33.8827
G01 X33.2354 Y141.2396
G01 X24.8203
G01 X24.3863 Y139.7396
G01 X32.6607
G01 X32.1534 Y138.2396
G01 X23.9920
G01 X23.6544 Y136.7396
G01 X31.7087
G01 X31.3223 Y135.2396
G01 X23.3705
G01 X23.1376 Y133.7396
G01 X30.9906
G01 X30.7101 Y132.2396
G01 X22.9538
G01 X22.8168 Y130.7396
G01 X30.4906
G01 X30.3917 Y129.2396
G01 X22.7244
G01 X22.6750 Y127.7396
G01 X30.3401
G01 X30.3220 Y126.2396
G01 X22.6671
G01 X22.6995 Y124.7396
G01 X30.3338
G01 X30.3862 Y123.2396
G01 X22.7704
G01 X22.8788 Y121.7396
G01 X30.5238
G01 X30.7656 Y120.2396
G01 X23.0236
G01 X23.2042 Y118.7396
G01 X31.0808
G01 X31.4706 Y117.2396
G01 X23.4193
G01 X23.6679 Y115.7396
G01 X31.9450
G01 X32.5168 Y114.2396
G01 X23.9494
G01 X24.2635 Y112.7396
G01 X33.2022
G01 X34.0221 Y111.2396
G01 X24.6090
G01 X24.9854 Y109.7396
G01 X35.0044
G01 X36.1885 Y108.2396
G01 X25.3926
G01 X25.8296 Y106.7396
G01 X37.6319
G01 X39.4270 Y105.2396
G01 X26.2961
G01 X26.8293 Y103.7396
G01 X41.7709
G01 X45.0699 Y102.2396
G01 X27.5014
G00 Z5.0000
G00 X40.7584 Y100.7396
G00 Z0.5000
G01 Z-1.0000 F400
G01 Y99.2396 F1000
G01 X61.5616
G01 X61.4928
G01 Y97.7396
G01 X60.3585
G01 X60.4244
G01 Y96.2396
G01 X63.6417
G01 X64.8884 Y94.7396
G01 X60.0842
G01 X60.7931 Y93.2396
G01 X65.7833
G01 X62.2921 Y91.7396
G01 X72.3010
G01 Y93.2396
G01 X72.3482
G01 X68.2044
G01 X68.2748 Y94.7396
G01 X73.0537
G01 X73.5408 Y96.2396
G01 X68.2330
G01 X68.2113 Y97.7396
G01 X73.9338
G01 X74.0813 Y99.2396
G01 X68.3534
G01 X68.6965 Y100.7396
G01 X74.0358
G01 X73.6534 Y102.2396
G01 X68.8286
G01 X68.6352 Y102.1901
G01 X68.6078 Y102.2802
G01 X68.5732 Y102.3677
G01 X68.5315 Y102.4522
G01 X68.4832 Y102.5329
G01 X68.4283 Y102.6095
G01 X68.3675 Y102.6813
G01 X68.3010 Y102.7479
G01 X68.2293 Y102.8089
G01 X68.1528 Y102.8638
G01 X68.0721 Y102.9123
G01 X67.9878 Y102.9541
G01 X67.9003 Y102.9889
G01 X67.8103 Y103.0164
G01 X67.7183 Y103.0365
G01 X67.6250 Y103.0491
G01 X67.5310 Y103.0540
G01 X67.4369 Y103.0512
G01 X67.3433 Y103.0407
G01 X67.2509 Y103.0227
G01 X67.1603 Y102.9972
G01 X66.9877 Y102.9240
G01 X66.8198 Y102.8406
G01 X66.6572 Y102.7472
G01 X66.5006 Y102.6442
G01 X66.3504 Y102.5320
G01 X66.2073 Y102.4109
G01 X66.0717 Y102.2815
G01 X65.9441 Y102.1440
G01 X65.5093 Y101.7826
G01 X65.0653 Y101.4325
G01 X64.6125 Y101.0938
G01 X64.1512 Y100.7668
G01 X63.6816 Y100.4518
G01 X63.2042 Y100.1489
G01 X62.7191 Y99.8584
G01 X62.2267 Y99.5803
G01 X62.1451 Y99.5307
G01 X62.0666 Y99.4763
G01 X61.9915 Y99.4172
G01 X61.9201 Y99.3537
G01 X61.8527 Y99.2860
G01 X61.7895 Y99.2143
G01 X61.7308 Y99.1390
G01 X61.6767 Y99.0602
G01 X61.6275 Y98.9783
G01 X61.5833 Y98.8936
G01 X61.5443 Y98.8064
G01 X61.5107 Y98.7170
G01 X61.4911 Y98.6368
G01 X61.4777 Y98.5553
G01 X61.4705 Y98.4731
G01 X61.4695 Y98.3906
G01 X61.4747 Y98.3082
G01 X61.4862 Y98.2264
G01 X61.5038 Y98.1458
G01 X61.5274 Y98.0667
G01 X61.5570 Y97.9896
G01 X61.5922 Y97.9150
G01 X61.6331 Y97.8432
G01 X61.6792 Y97.7748
G01 X61.7303 Y97.7100
G01 X61.7863 Y97.6493
G01 X61.8466 Y97.5929
G01 X61.9110 Y97.5413
G01 X62.2143 Y97.3375
G01 X62.5277 Y97.1496
G01 X62.8503 Y96.9782
G01 X63.1815 Y96.8237
G01 X63.4606 Y96.6249
G01 X63.7284 Y96.4111
G01 X63.9841 Y96.1829
G01 X64.2268 Y95.9410
G01 X64.4558 Y95.6861
G01 X64.6705 Y95.4190
G01 X64.8701 Y95.1405
G01 X65.0542 Y94.8514
G01 X65.3176 Y94.4228
G01 X65.5790 Y93.9930
G01 X65.8382 Y93.5619
G01 X66.0953 Y93.1295
G01 X66.1409 Y93.0533
G01 X66.1924 Y92.9812
G01 X66.2497 Y92.9134
G01 X66.3123 Y92.8506
G01 X66.3798 Y92.7931
G01 X66.4518 Y92.7413
G01 X66.5278 Y92.6955
G01 X66.6073 Y92.6560
G01 X66.6897 Y92.6232
G01 X66.7745 Y92.5972
G01 X66.8611 Y92.5782
G01 X66.9490 Y92.5664
G01 X67.0376 Y92.5617
G01 X67.1262 Y92.5643
G01 X67.2144 Y92.5741
G01 X67.3015 Y92.5910
G01 X67.3881 Y92.6196
G01 X67.4719 Y92.6554
G01 X67.5523 Y92.6983
G01 X67.6288 Y92.7479
G01 X67.7007 Y92.8039
G01 X67.7676 Y92.8659
G01 X67.8289 Y92.9334
G01 X67.8842 Y93.0059
G01 X67.9330 Y93.0828
G01 X67.9751 Y93.1637
G01 X68.0101 Y93.2479
G01 X68.0377 Y93.3348
G01 X68.0578 Y93.4237
G01 X68.0702 Y93.5140
G01 X68.0748 Y93.6050
G01 X68.0716 Y93.6962
G01 X68.0610 Y94.7193
G01 X68.0475 Y95.7423
G01 X68.0312 Y96.7654
G01 X68.0121 Y97.7884
G01 X68.0219 Y98.1037
G01 X68.0423 Y98.4186
G01 X68.0733 Y98.7325
G01 X68.1149 Y99.0453
G01 X68.1670 Y99.3565
G01 X68.2296 Y99.6657
G01 X68.3026 Y99.9727
G01 X68.3860 Y100.2770
G01 X68.4699 Y100.6288
G01 X68.5447 Y100.9826
G01 X68.6104 Y101.3383
G01 X68.6668 Y101.6955
G01 X68.6721 Y101.8197
G01 X68.6685 Y101.9440
G01 X68.6562 Y102.0676
G01 X68.6352 Y102.1901
G01 X68.8286 Y102.2396
G00 Z5.0000
G00 X67.8712 Y91.7396
G00 Z0.5000
G01 Z-1.0000 F400
G01 Y90.2396 F1000
G01 X64.1058
G01 X64.1388
G01 Y88.7396
G01 X66.1857
G01 X65.7819 Y87.2396
G01 X58.0118
G01 X57.4481 Y85.7396
G01 X66.0006
G01 X64.6572 Y84.2396
G01 X67.3557
G01 X65.4960 Y82.7396
G01 X76.7577
G01 X78.8957 Y81.2396
G01 X71.6660
G01 X72.3388 Y79.7396
G01 X80.3846
G01 X81.5214 Y78.2396
G01 X73.0721
G01 X74.0323 Y76.7396
G01 X84.8168
G01 X84.7543 Y78.2396
G01 X83.3161
G01 X84.0291
G01 Y79.7396
G01 X84.8789
G01 X85.2386 Y81.2396
G01 X84.2437
G01 X84.6501 Y82.7396
G01 X85.8812
G01 X85.2794 Y84.2396
G01 X86.7154
G01 X86.1448 Y85.7396
G01 X87.7958
G01 X87.2830 Y87.2396
G01 X89.2475
G01 X88.7788 Y88.7396
G01 X91.3685
G01 X90.8514 Y90.2396
G01 X95.6785
G01 X93.4074 Y91.7396
G01 X106.8796
G01 X111.5052 Y90.2396
G01 X101.8173
G01 X107.1602
G01 Y88.7396
G01 X114.4721
G01 X110.5496 Y87.2396
G01 X122.7987
G01 X122.4103 Y88.7396
G01 X118.5994
G01 X118.6810 Y90.2396
G01 X122.1441
G01 X121.9822 Y91.7396
G01 X118.6989
G01 X118.7317 Y93.2396
G01 X121.9096
G01 X121.9011 Y94.7396
G01 X118.8269
G01 X119.0757 Y96.2396
G01 X121.9749
G01 X122.2477 Y97.7396
G01 X119.4321
G01 X119.8322 Y99.2396
G01 X122.6817
G01 X123.2724 Y100.7396
G01 X120.3746
G01 X121.1046 Y102.2396
G01 X124.0468
G01 X125.0452 Y103.7396
G01 X121.9647
G01 X122.9110 Y105.2396
G01 X126.3363
G01 X128.0582 Y106.7396
G01 X123.9144
G01 X124.9566 Y108.2396
G01 X131.4742
G01 Y106.7396
G01 X129.6233
G01 X130.0429
G01 Y105.2396
G01 X131.4742
G01 Y103.7396
G01 X130.0645
G01 X130.0629 Y102.2396
G01 X131.4742
G01 Y100.7396
G01 X130.0644
G01 X130.0676 Y99.2396
G01 X131.4742
G01 Y97.7396
G01 X130.0710
G01 X130.0730 Y96.2396
G01 X131.4742
G01 Y94.7396
G01 X130.0722
G01 X130.0671 Y93.2396
G01 X131.4742
G01 Y91.7396
G01 X130.0561
G01 X130.0378 Y90.2396
G01 X131.4742
G01 X131.4725 Y88.7396
G01 X130.0107
G01 X129.9733 Y87.2396
G01 X131.4411
G01 X131.3335 Y85.7396
G01 X129.8309
G01 X130.5217 Y84.2396
G01 X127.5766
G01 X127.9835 Y82.7396
G01 X117.8925
G01 X119.9168 Y81.2396
G01 X126.2264
G01 X123.8725
G01 Y79.7396
G01 X121.5660
G01 Y78.2396
G01 X121.2733
G01 X122.7697
G01 X122.1706 Y76.7396
G01 X120.7763
G01 X120.5623 Y75.2396
G01 X121.9391
G01 X122.0562 Y73.7396
G01 X120.6299
G01 X121.0189 Y72.2396
G01 X122.5792
G01 X121.6825 Y70.7396
G01 X123.6515
G01 X125.2182 Y69.2396
G01 X121.0178
G01 X120.1454 Y67.7396
G01 X124.9537
G01 X121.8110 Y66.2396
G01 X113.3263
G01 Y67.7396
G01 X112.8490
G01 X117.3657
G01 X117.2509 Y69.2396
G01 X111.8156
G01 X111.1126 Y70.7396
G01 X117.0195
G01 X116.5019 Y72.2396
G01 X110.8394
G01 X111.0122 Y73.7396
G01 X115.6208
G00 Z5.0000
G00 X117.5726 Y66.2396
G00 Z0.5000
G01 Z-1.0000 F400
G01 Y64.7396 F1000
G01 X104.4007
G01 Y66.2396
G01 X104.1452
G01 X109.0524
G01 X104.1758
G01 Y67.7396
G01 X101.9930
G01 X103.2773 Y69.2396
G01 X104.5195
G01 X104.0852 Y70.7396
G01 X105.0807
G01 X105.3605 Y72.2396
G01 X104.5409
G01 X104.6803 Y73.7396
G01 X105.3755
G01 X105.1458 Y75.2396
G01 X104.4946
G01 X104.7313 Y76.7396
G01 X103.9238
G01 X103.9502 Y78.2396
G01 X102.7602
G01 X102.3564 Y79.7396
G01 X95.9625
G01 X95.0233 Y78.2396
G01 X98.9585
G01 X99.4482 Y76.7396
G01 X95.0157
G01 X96.1859 Y75.2396
G01 X98.7126
G00 Z5.0000
G00 X104.9482 Y64.7396
G00 Z0.5000
G01 Z-1.0000 F400
G01 Y63.2396 F1000
G01 X115.6093
G01 X114.3462 Y61.7396
G01 X110.7785
G01 X111.2674
G01 Y60.2396
G01 X113.5122
G01 X112.9587 Y58.7396
G01 X109.4612
G01 X107.9111 Y57.2396
G01 X112.6542
G01 X112.5726 Y55.7396
G01 X107.8086
G01 X110.3252
G01 Y54.2396
G01 X112.7110
G01 X113.0870 Y52.7396
G01 X110.1394
G01 X110.4310 Y51.2396
G01 X107.9017
G01 X108.3029 Y49.7396
G01 X106.3799
G01 X106.9226 Y48.2396
G01 X105.2784
G01 X105.9592 Y46.7396
G01 X104.4620
G01 X105.3042 Y45.2396
G01 X92.5654
G01 X94.4762 Y43.7396
G01 X104.8977
G01 X104.6941 Y42.2396
G01 X96.3230
G01 X98.1410 Y40.7396
G01 X104.6977
G01 X104.9008 Y39.2396
G01 X99.9071
G01 X101.6168 Y37.7396
G01 X105.3089
G01 X105.9452 Y36.2396
G01 X103.2692
G01 X104.8610 Y34.7396
G01 X106.8597
G01 X106.2905 Y33.2396
G01 X108.1644
G01 X107.7968 Y31.7396
G01 X110.1798
G01 X109.9352 Y30.2396
G01 X115.0137
G01 X115.4952 Y28.7396
G01 X116.9676
G01 X117.4032 Y30.2396
G01 X122.8427
G01 X122.5800 Y31.7396
G01 X125.4072
G01 X124.9234 Y33.2396
G01 X127.2302
G01 X126.5506 Y34.7396
G01 X128.6218
G01 X127.8772 Y36.2396
G01 X129.7639
G01 X129.0052 Y37.7396
G01 X133.2096
G01 X133.3588 Y36.2396
G01 X131.8352
G01 X132.3492 Y34.7396
G01 X133.8746
G01 X133.1341 Y33.2396
G01 X134.8977
G01 X134.4394 Y31.7396
G01 X137.2338
G01 X137.1347 Y30.2396
G01 X154.3744
G01 X154.4547 Y31.7396
G01 X159.2229
G01 X159.2259 Y30.2396
G01 X171.2248
G01 X171.1396 Y31.7396
G01 X176.9815
G01 X176.9258 Y30.2396
G01 X219.4735
G01 X219.4135 Y31.7396
G01 X222.6334
G01 X221.8089 Y33.2396
G01 X223.5290
G01 X223.0724 Y31.7396
G01 X226.6193
G01 X226.5751 Y30.2396
G01 X237.5359
G01 X237.8640 Y28.7396
G01 X236.3966
G01 X236.9204 Y27.2396
G01 X238.4677
G01 X237.7331 Y25.7396
G01 X239.4252
G01 X238.9025 Y24.2396
G01 X240.9559
G01 X240.5831 Y22.7396
G01 X243.5373
G01 X243.3125 Y21.2396
G01 X254.2631
G01 X254.1101 Y22.7396
G01 X257.6089
G01 X257.2101 Y24.2396
G01 X259.9052
G01 X259.4795 Y25.7396
G01 X261.8122
G01 X261.3196 Y27.2396
G01 X263.4592
G01 X262.8892 Y28.7396
G01 X264.9125
G01 X264.2699 Y30.2396
G01 X266.2147
G01 X265.5096 Y31.7396
G01 X267.3949
G01 X266.6400 Y33.2396
G01 X268.4744
G01 X267.6835 Y34.7396
G01 X269.4689
G01 X268.6535 Y36.2396
G01 X270.3907
G01 X269.5559 Y37.7396
G01 X271.2495
G01 X272.0533 Y39.2396
G01 X270.3955
G01 X271.1704 Y40.7396
G01 X272.8084
G01 X273.5014 Y42.2396
G01 X271.8794
G01 X272.5205 Y43.7396
G01 X274.1189
G01 X274.6702 Y45.2396
G01 X273.0923
G01 X273.5934 Y46.7396
G01 X275.1530
G01 X275.5644 Y48.2396
G01 X274.0220
G01 X274.3766 Y49.7396
G01 X275.9012
G01 X276.1598 Y51.2396
G01 X274.6555
G01 X274.8572 Y52.7396
G01 X276.3360
G01 X276.4249 Y54.2396
G01 X274.9780
G01 X274.9762 Y55.7396
G01 X276.4213
G01 X276.3189 Y57.2396
G01 X274.8503
G01 X274.5937 Y58.7396
G01 X276.1107
G01 X275.7518 Y60.2396
G01 X274.1930
G01 X273.6251 Y61.7396
G01 X275.2289
G01 X274.5289 Y63.2396
G01 X272.8518
G01 X273.6195 Y64.7396
G01 X271.8073
G01 X272.4371 Y66.2396
G01 X270.3603
G01 X270.8422 Y67.7396
G01 X268.1431
G01 X268.4000 Y69.2396
G01 X257.9613
G01 X258.1329 Y67.7396
G01 X254.0895
G01 X254.4465 Y69.2396
G01 X247.2453
G01 X247.5230 Y67.7396
G01 X245.2299
G01 X245.8399 Y66.2396
G01 X243.6274
G01 X244.0366 Y67.7396
G01 X237.5882
G01 X237.8597 Y69.2396
G01 X232.5603
G01 Y70.7396
G01 X234.1690
G01 X234.0531 Y72.2396
G01 X232.5603
G01 Y73.7396
G01 X234.0545
G01 X234.0559 Y75.2396
G01 X232.5603
G01 Y76.7396
G01 X234.0572
G01 X234.0586 Y78.2396
G01 X232.5603
G01 Y79.7396
G01 X234.0599
G01 X234.0613 Y81.2396
G01 X232.5491
G01 X234.0627 Y82.7396
G01 X225.5334
G01 X226.4930 Y84.2396
G01 X228.8276
G01 X228.8177 Y85.7396
G01 X227.2199
G01 X227.6992 Y87.2396
G01 X229.2208
G01 X229.3488 Y88.7396
G01 X227.8736
G01 Y90.2396
G01 X227.4286
G01 X229.0773
G01 X228.0125 Y91.7396
G01 X223.4503
G01 X224.1509 Y90.2396
G01 X221.3040
G01 X222.7244 Y88.7396
G01 X214.3748
G01 X216.6504 Y87.2396
G01 X220.3382
G00 Z5.0000
G00 X224.9068 Y91.7396
G00 Z0.5000
G01 Z-1.0000 F400
G01 Y93.2396 F1000
G01 X226.9405
G01 X227.6812 Y94.7396
G01 X225.9772
G01 X226.7608 Y96.2396
G01 X228.3477
G01 X228.8180 Y97.7396
G01 X227.2959
G01 X227.6097 Y99.2396
G01 X229.1111
G01 X229.2339 Y100.7396
G01 X227.7207
G01 X227.6630 Y102.2396
G01 X229.1825
G01 X228.9430 Y103.7396
G01 X227.4268
G01 X226.9046 Y105.2396
G01 X228.4880
G01 X227.7558 Y106.7396
G01 X225.7158
G01 X225.9602 Y108.2396
G01 X219.0125
G01 X219.0884 Y109.7396
G01 X214.1036
G01 X210.2333 Y108.2396
G01 X213.8583
G01 X210.4761
G01 Y106.7396
G01 X208.1443
G01 X208.6066 Y105.2396
G01 X206.6817
G01 X207.2835 Y103.7396
G01 X205.5832
G01 X206.2875 Y102.2396
G01 X201.4761
G01 Y100.7396
G01 X205.5159
G01 X204.9148 Y99.2396
G01 X201.4761
G01 Y97.7396
G01 X204.4632
G01 X204.1467 Y96.2396
G01 X201.4761
G01 Y94.7396
G01 X203.9535
G01 X203.8734 Y93.2396
G01 X201.4761
G01 Y91.7396
G01 X203.8996
G01 X204.0386 Y90.2396
G01 X201.4761
G01 Y88.7396
G01 X204.3040
G01 X204.7122 Y87.2396
G01 X201.4761
G01 X201.4790 Y85.7396
G01 X205.2838
G01 X206.0357 Y84.2396
G01 X201.6023
G01 X202.8240 Y82.7396
G01 X207.0335
G00 Z5.0000
G00 X202.9804 Y102.2396
G00 Z0.5000
G01 Z-1.0000 F400
G01 Y103.7396 F1000
G01 X201.4761
G01 Y105.2396
G01 X202.9759
G01 X202.9760 Y106.7396
G01 X201.4761
G01 Y108.2396
G01 X202.9779
G01 X202.9800 Y109.7396
G01 X201.4761
G01 Y111.2396
G01 X202.9807
G01 X202.9783 Y112.7396
G01 X201.4761
G01 Y114.2396
G01 X202.9712
G01 X202.9577 Y115.7396
G01 X201.4761
G01 Y117.2396
G01 X202.9361
G01 X202.9047 Y118.7396
G01 X201.4761
G01 X201.4406 Y120.2396
G01 X202.8619
G01 X202.5867 Y121.7396
G01 X200.6993
G01 X200.9814 Y123.2396
G01 X197.5735
G01 X197.9208 Y121.7396
G01 X195.3849
G01 X195.6787 Y120.2396
G01 X185.3641
G01 X185.4642 Y121.7396
G01 X193.4136
G01 X193.1507
G01 Y123.2396
G01 X185.5235
G01 X185.5421 Y124.7396
G01 X193.2373
G01 X193.2699 Y126.2396
G01 X185.5197
G01 X185.4557 Y127.7396
G01 X193.2548
G01 X193.1952 Y129.2396
G01 X185.3494
G01 X185.2002 Y130.7396
G01 X193.0930
G01 X192.9493 Y132.2396
G01 X185.0069
G01 X184.7683 Y133.7396
G01 X192.7641
G01 X192.5365 Y135.2396
G01 X184.4826
G01 X184.1481 Y136.7396
G01 X192.2646
G01 X191.9453 Y138.2396
G01 X183.7626
G01 X183.3230 Y139.7396
G01 X191.5736
G01 X191.1423 Y141.2396
G01 X182.8264
G01 X182.2688 Y142.7396
G01 X190.6436
G01 X190.0826 Y144.2396
G01 X181.6516
G01 X180.9554 Y145.7396
G01 X189.4571
G01 X188.7631 Y147.2396
G01 X180.1465
G01 X179.2007 Y148.7396
G01 X187.9955
G01 X187.1494 Y150.2396
G01 X178.1201
G01 X176.9314 Y151.7396
G01 X186.2188
G01 X185.1965 Y153.2396
G01 X175.6115
G01 X174.1063 Y154.7396
G01 X184.0740
G01 X182.8420 Y156.2396
G01 X172.3891
G01 X170.4688 Y157.7396
G01 X181.4885
G01 X179.9991 Y159.2396
G01 X168.3665
G01 X164.8299 Y160.7396
G01 X178.3565
G01 X176.5380 Y162.2396
G01 X161.7903
G01 Y163.7396
G01 X156.4954
G01 X174.5148
G01 X172.2699 Y165.2396
G01 X122.0705
G01 X119.6967 Y163.7396
G01 X140.0303
G01 X134.3947
G01 Y162.2396
G01 X117.6080
G01 X115.7223 Y160.7396
G01 X130.7300
G01 X127.8511 Y159.2396
G01 X114.0057
G01 X112.4430 Y157.7396
G01 X125.5353
G01 X123.4928 Y156.2396
G01 X111.0312
G01 X109.7656 Y154.7396
G01 X121.6538
G01 X120.1238 Y153.2396
G01 X96.2948
G01 X97.8492 Y151.7396
G01 X118.9990
G01 X118.1949 Y150.2396
G01 X99.2991
G01 X100.6615 Y148.7396
G01 X117.6522
G01 X117.3335 Y147.2396
G01 X101.9513
G01 X103.1568 Y145.7396
G01 X113.1917
G01 X112.2131 Y144.2396
G01 X104.0675
G01 Y142.7396
G01 X103.3115
G01 X111.3304
G01 X110.4944 Y141.2396
G01 X105.5219
G01 X106.9379
G01 Y139.7396
G01 X109.6977
G01 X108.9501 Y138.2396
G01 X107.6512
G00 Z5.0000
G00 X104.8528 Y142.7396
G00 Z0.5000
G01 Z-1.0000 F400
G01 Y141.2396 F1000
G01 X95.8459
G01 X93.8691 Y139.7396
G01 X103.7324
G01 X103.1471 Y138.2396
G01 X92.5828
G01 X91.2556 Y136.7396
G01 X102.0530
G01 X100.3490 Y135.2396
G01 X66.6151
G01 X67.1457 Y133.7396
G01 X83.5863
G01 X82.3916 Y132.2396
G01 X66.7171
G01 X71.4524 Y130.7396
G01 X82.0008
G01 X82.1971 Y129.2396
G01 X80.3467
G01 Y127.7396
G01 X79.8069
G01 X83.0783
G01 Y126.2396
G01 X77.2726
G01 X92.0006
G01 X91.5056
G01 Y124.7396
G01 X75.5475
G01 X74.6744 Y123.2396
G01 X74.4525 Y123.1567
G01 X74.4769 Y123.2782
G01 X74.5080 Y123.3981
G01 X74.5458 Y123.5161
G01 X74.5901 Y123.6317
G01 X74.6409 Y123.7447
G01 X74.6979 Y123.8547
G01 X74.7610 Y123.9613
G01 X74.8300 Y124.0642
G01 X75.0579 Y124.4285
G01 X75.3093 Y124.7770
G01 X75.5830 Y125.1082
G01 X75.8780 Y125.4207
G01 X76.1928 Y125.7131
G01 X76.5262 Y125.9842
G01 X76.8767 Y126.2328
G01 X77.2428 Y126.4578
G01 X77.6961 Y126.7145
G01 X78.1507 Y126.9687
G01 X78.6067 Y127.2205
G01 X79.0640 Y127.4699
G01 X79.1884 Y127.5385
G01 X79.3093 Y127.6130
G01 X79.4266 Y127.6931
G01 X79.5399 Y127.7788
G01 X79.6490 Y127.8697
G01 X79.7536 Y127.9658
G01 X79.8536 Y128.0667
G01 X79.9486 Y128.1723
G01 X80.0038 Y128.2474
G01 X80.0525 Y128.3269
G01 X80.0944 Y128.4102
G01 X80.1291 Y128.4967
G01 X80.1563 Y128.5858
G01 X80.1760 Y128.6769
G01 X80.1880 Y128.7693
G01 X80.1921 Y128.8624
G01 X80.1883 Y128.9556
G01 X80.1767 Y129.0481
G01 X80.1574 Y129.1392
G01 X80.1304 Y129.2285
G01 X80.0961 Y129.3151
G01 X80.0546 Y129.3985
G01 X80.0061 Y129.4782
G01 X79.9512 Y129.5535
G01 X79.8901 Y129.6239
G01 X79.8233 Y129.6888
G01 X79.7512 Y129.7480
G01 X79.6745 Y129.8008
G01 X79.5935 Y129.8470
G01 X79.5090 Y129.8863
G01 X79.4214 Y129.9182
G01 X79.3315 Y129.9427
G01 X79.2398 Y129.9595
G01 X79.1470 Y129.9685
G01 X79.0538 Y129.9697
G01 X78.9609 Y129.9630
G01 X78.5273 Y129.9273
G01 X78.0934 Y129.8966
G01 X77.6591 Y129.8708
G01 X77.2246 Y129.8500
G01 X76.4760 Y129.8588
G01 X75.7281 Y129.8911
G01 X74.9816 Y129.9470
G01 X74.2372 Y130.0264
G01 X73.4957 Y130.1292
G01 X72.7578 Y130.2553
G01 X72.0242 Y130.4047
G01 X71.2957 Y130.5770
G01 X71.0459 Y130.6698
G01 X70.7948 Y130.7592
G01 X70.5426 Y130.8452
G01 X70.2891 Y130.9276
G01 X70.1828 Y130.9569
G01 X70.0746 Y130.9776
G01 X69.9650 Y130.9898
G01 X69.8549 Y130.9933
G01 X69.7448 Y130.9881
G01 X69.6354 Y130.9743
G01 X69.5275 Y130.9519
G01 X69.4216 Y130.9211
G01 X69.3186 Y130.8820
G01 X69.2189 Y130.8350
G01 X69.1232 Y130.7802
G01 X69.0321 Y130.7181
G01 X68.9681 Y130.6648
G01 X68.9080 Y130.6071
G01 X68.8522 Y130.5452
G01 X68.8009 Y130.4795
G01 X68.7545 Y130.4103
G01 X68.7131 Y130.3380
G01 X68.6770 Y130.2629
G01 X68.6463 Y130.1854
G01 X68.6213 Y130.1059
G01 X68.6020 Y130.0249
G01 X68.5885 Y129.9426
G01 X68.5809 Y129.8596
G01 X68.5793 Y129.7763
G01 X68.5836 Y129.6931
G01 X68.5938 Y129.6104
G01 X68.6099 Y129.5287
G01 X68.6448 Y129.4137
G01 X68.6849 Y129.3005
G01 X68.7301 Y129.1892
G01 X68.7803 Y129.0801
G01 X68.8354 Y128.9733
G01 X68.8953 Y128.8692
G01 X68.9599 Y128.7679
G01 X69.0290 Y128.6697
G01 X69.1025 Y128.5747
G01 X69.1802 Y128.4831
G01 X69.2620 Y128.3951
G01 X69.3477 Y128.3110
G01 X69.6749 Y127.8822
G01 X69.9885 Y127.4434
G01 X70.2883 Y126.9951
G01 X70.5740 Y126.5376
G01 X70.8454 Y126.0715
G01 X71.1021 Y125.5972
G01 X71.3439 Y125.1151
G01 X71.5706 Y124.6258
G01 X71.6197 Y124.3939
G01 X71.6794 Y124.1646
G01 X71.7493 Y123.9381
G01 X71.8295 Y123.7151
G01 X71.9197 Y123.4960
G01 X72.0198 Y123.2811
G01 X72.1294 Y123.0710
G01 X72.2486 Y122.8662
G01 X72.2973 Y122.7857
G01 X72.3516 Y122.7089
G01 X72.4112 Y122.6361
G01 X72.4758 Y122.5678
G01 X72.5451 Y122.5042
G01 X72.6188 Y122.4457
G01 X72.6965 Y122.3926
G01 X72.7777 Y122.3452
G01 X72.8621 Y122.3036
G01 X72.9492 Y122.2681
G01 X73.0386 Y122.2390
G01 X73.1299 Y122.2162
G01 X73.2225 Y122.2000
G01 X73.3161 Y122.1904
G01 X73.4101 Y122.1875
G01 X73.5041 Y122.1912
G01 X73.5931 Y122.2085
G01 X73.6805 Y122.2328
G01 X73.7656 Y122.2641
G01 X73.8480 Y122.3021
G01 X73.9270 Y122.3466
G01 X74.0022 Y122.3973
G01 X74.0730 Y122.4539
G01 X74.1391 Y122.5160
G01 X74.2000 Y122.5832
G01 X74.2554 Y122.6551
G01 X74.3047 Y122.7312
G01 X74.3478 Y122.8110
G01 X74.3843 Y122.8940
G01 X74.4141 Y122.9796
G01 X74.4369 Y123.0674
G01 X74.4525 Y123.1567
G01 X74.6744 Y123.2396
G01 X83.5163
G01 X80.0603 Y118.7396
G01 X76.3798
G00 Z5.0000
G00 X86.4158 Y124.7396
G00 Z0.5000
G01 Z-1.0000 F400
G01 Y123.2396 F1000
G01 X92.3126
G01 X93.1107 Y121.7396
G01 X86.5348
G01 X86.7889 Y120.2396
G01 X93.4858
G01 X93.3879 Y118.7396
G01 X87.4258
G01 X88.6605 Y117.2396
G01 X92.7580
G01 Y115.7396
G01 X93.3661
G01 X92.0034
G01 Y114.2396
G01 X91.7099
G01 X95.9034
G01 X94.9382 Y115.7396
G01 X101.2964
G01 X99.8687 Y114.2396
G01 X103.6954
G01 X104.8177 Y112.7396
G01 X100.8598
G01 Y111.2396
G01 X99.7325
G01 X105.3931
G01 X105.4989 Y109.7396
G01 X98.8495
G01 X98.8671 Y108.2396
G01 X105.1169
G01 X104.0600 Y106.7396
G01 X99.8514
G00 Z5.0000
G00 X92.7324 Y114.2396
G00 Z0.5000
G01 Z-1.0000 F400
G01 Y112.7396 F1000
G01 X90.3279
G01 X91.2130 Y111.2396
G01 X89.2157
G01 X88.3962 Y109.7396
G01 X90.2095
G01 X89.5337 Y108.2396
G01 X87.8033
G01 X87.5161 Y106.7396
G01 X89.1157
G01 X88.9269 Y105.2396
G01 X87.4328
G01 X87.4450 Y103.7396
G01 X88.9836
G01 X89.3513 Y102.2396
G01 X87.5796
G01 X88.0804 Y100.7396
G01 X90.0385
G01 X91.0657 Y99.2396
G01 X88.7587
G01 X89.5713 Y97.7396
G01 X92.4785
G01 X90.7199 Y96.2396
G01 X94.3677
G01 X92.2112 Y94.7396
G01 X96.9358
G01 X93.6996 Y93.2396
G01 X100.7992
G00 Z5.0000
G00 X113.3042 Y87.2396
G00 Z0.5000
G01 Z-1.0000 F400
G01 Y85.7396 F1000
G01 X123.3315
G01 X124.0360 Y84.2396
G01 X124.2258 Y84.3088
G01 X124.3672 Y84.0475
G01 X124.5163 Y83.7906
G01 X124.6730 Y83.5382
G01 X124.8371 Y83.2907
G01 X124.8972 Y83.2296
G01 X124.9622 Y83.1737
G01 X125.0317 Y83.1236
G01 X125.1051 Y83.0794
G01 X125.1820 Y83.0415
G01 X125.2618 Y83.0102
G01 X125.3439 Y82.9857
G01 X125.4277 Y82.9682
G01 X125.5128 Y82.9578
G01 X125.5984 Y82.9545
G01 X125.6840 Y82.9584
G01 X125.7690 Y82.9695
G01 X125.8527 Y82.9877
G01 X125.9347 Y83.0128
G01 X126.0142 Y83.0447
G01 X126.0908 Y83.0832
G01 X126.1638 Y83.1279
G01 X126.2329 Y83.1786
G01 X126.2975 Y83.2350
G01 X126.3571 Y83.2965
G01 X126.5126 Y83.4571
G01 X126.6617 Y83.6235
G01 X126.8042 Y83.7957
G01 X126.9399 Y83.9732
G01 X127.1246 Y84.1329
G01 X127.3158 Y84.2849
G01 X127.5130 Y84.4288
G01 X127.7161 Y84.5644
G01 X127.9246 Y84.6915
G01 X128.1382 Y84.8098
G01 X128.3564 Y84.9192
G01 X128.5791 Y85.0195
G01 X128.7946 Y85.1223
G01 X129.0047 Y85.2358
G01 X129.2089 Y85.3595
G01 X129.4067 Y85.4933
G01 X129.4653 Y85.5512
G01 X129.5192 Y85.6135
G01 X129.5682 Y85.6799
G01 X129.6119 Y85.7498
G01 X129.6500 Y85.8229
G01 X129.6823 Y85.8987
G01 X129.7087 Y85.9768
G01 X129.7290 Y86.0567
G01 X129.7429 Y86.1379
G01 X129.7506 Y86.2200
G01 X129.7518 Y86.3024
G01 X129.7467 Y86.3847
G01 X129.8253 Y90.3625
G01 X129.8709 Y94.3408
G01 X129.8834 Y98.3193
G01 X129.8629 Y102.2979
G01 X129.8605 Y103.2256
G01 X129.8537 Y104.1534
G01 X129.8425 Y105.0811
G01 X129.8269 Y106.0088
G01 X129.8062 Y106.0964
G01 X129.7778 Y106.1818
G01 X129.7419 Y106.2643
G01 X129.6987 Y106.3433
G01 X129.6487 Y106.4181
G01 X129.5923 Y106.4882
G01 X129.5298 Y106.5530
G01 X129.4617 Y106.6119
G01 X129.3887 Y106.6646
G01 X129.3113 Y106.7105
G01 X129.2301 Y106.7493
G01 X129.1458 Y106.7808
G01 X129.0590 Y106.8046
G01 X128.9704 Y106.8205
G01 X128.8808 Y106.8285
G01 X128.7907
G01 X128.7011 Y106.8205
G01 X128.6125 Y106.8045
G01 X128.5257 Y106.7806
G01 X128.4414 Y106.7492
G01 X128.3602 Y106.7103
G01 X128.2829 Y106.6643
G01 X128.2099 Y106.6117
G01 X128.1419 Y106.5527
G01 X127.5956 Y106.1149
G01 X127.0696 Y105.6530
G01 X126.5650 Y105.1680
G01 X126.0826 Y104.6607
G01 X125.6235 Y104.1322
G01 X125.1887 Y103.5837
G01 X124.7790 Y103.0161
G01 X124.3952 Y102.4307
G01 X124.0382 Y101.8286
G01 X123.7086 Y101.2110
G01 X123.4071 Y100.5793
G01 X123.1343 Y99.9346
G01 X122.8907 Y99.2784
G01 X122.6770 Y98.6118
G01 X122.4934 Y97.9363
G01 X122.3404 Y97.2532
G01 X122.2679 Y96.8193
G01 X122.2075 Y96.3835
G01 X122.1594 Y95.9462
G01 X122.1234 Y95.5078
G01 X122.0997 Y95.0685
G01 X122.0884 Y94.6287
G01 X122.0892 Y94.1887
G01 X122.1024 Y93.7490
G01 X122.1032 Y93.1084
G01 X122.1231 Y92.4681
G01 X122.1621 Y91.8287
G01 X122.2202 Y91.1908
G01 X122.2974 Y90.5548
G01 X122.3934 Y89.9215
G01 X122.5084 Y89.2913
G01 X122.6421 Y88.6648
G01 X122.7945 Y88.0426
G01 X122.9654 Y87.4252
G01 X123.1547 Y86.8132
G01 X123.3622 Y86.2072
G01 X123.5549 Y85.7223
G01 X123.7632 Y85.2440
G01 X123.9870 Y84.7726
G01 X124.2258 Y84.3088
G01 X124.0360 Y84.2396
G01 X115.7106
G00 Z5.0000
G00 X125.9303 Y108.2396
G00 Z0.5000
G01 Z-1.0000 F400
G01 Y109.7396 F1000
G01 X131.4742
G01 Y111.2396
G01 X126.7158
G01 X127.3277 Y112.7396
G01 X131.4297
G01 X131.2036 Y114.2396
G01 X127.7725
G01 Y115.7396
G01 X127.6944
G01 X130.3331
G01 X128.2243 Y117.2396
G01 X126.3943
G01 X126.0224 Y118.7396
G01 X127.3922
G01 Y120.2396
G01 X127.7031
G01 X126.2542
G01 X126.8085 Y121.7396
G01 X151.0880
G01 X148.8607
G01 Y120.2396
G01 X145.8019
G01 X146.1154
G01 Y118.7396
G01 X147.6837
G01 X147.0424 Y117.2396
G01 X145.2826
G01 X146.7838 Y115.7396
G01 X143.2409
G01 X142.3413 Y114.2396
G01 X146.8307
G01 X147.2074 Y112.7396
G01 X142.1113
G01 X142.0677 Y111.2396
G01 X147.9818
G01 Y109.7396
G01 X152.2918
G01 X142.0757
G01 X142.0836 Y108.2396
G01 X150.3276
G01 X147.8907 Y106.7396
G01 X142.0915
G01 X142.0994 Y105.2396
G01 X145.5118
G01 X143.4062 Y103.7396
G01 X142.1074
G00 Z5.0000
G00 X143.4170 Y121.7396
G00 Z0.5000
G01 Z-1.0000 F400
G01 Y123.2396 F1000
G01 X125.9707
G01 X126.3747 Y124.7396
G01 X124.3301
G01 X124.4230 Y126.2396
G01 X121.1854
G00 Z5.0000
G00 X128.6241 Y123.2396
G00 Z0.5000
G01 Z-1.0000 F400
G01 Y124.7396 F1000
G01 X143.3352
G01 X145.2807 Y126.2396
G01 X128.9553
G01 X128.9731 Y127.7396
G01 X147.1049
G01 Y129.2396
G01 X152.6054
G01 X129.1328
G01 X129.9397 Y130.7396
G01 X150.1303
G01 X149.1829 Y132.2396
G01 X131.1581
G01 X131.6608
G01 Y133.7396
G01 X148.8430
G01 X148.9372 Y135.2396
G01 X137.7375
G01 X145.6409
G01 Y136.7396
G01 X149.4858
G01 Y138.2396
G01 X150.8220
G01 X145.2466
G01 X143.2425 Y139.7396
G01 X176.0887
G01 X175.8927 Y138.2396
G01 X156.9313
G01 X158.3231 Y136.7396
G01 X175.0188
G01 X172.4011 Y135.2396
G01 X158.9325
G01 X159.0489 Y133.7396
G01 X163.7969
G01 X163.4700
G01 Y132.2396
G01 X158.6155
G01 X157.7018 Y130.7396
G01 X165.9544
G01 X168.4420 Y129.2396
G01 X155.3402
G01 X155.2670 Y129.4268
G01 X155.6264 Y129.5440
G01 X155.9754 Y129.6892
G01 X156.3119 Y129.8614
G01 X156.6338 Y130.0596
G01 X156.9391 Y130.2826
G01 X157.2258 Y130.5289
G01 X157.4923 Y130.7971
G01 X157.7368 Y131.0854
G01 X157.9578 Y131.3920
G01 X158.1540 Y131.7152
G01 X158.3241 Y132.0527
G01 X158.4671 Y132.4027
G01 X158.5914 Y132.6955
G01 X158.6932 Y132.9968
G01 X158.7720 Y133.3050
G01 X158.8274 Y133.6182
G01 X158.8589 Y133.9347
G01 X158.8665 Y134.2527
G01 X158.8500 Y134.5704
G01 X158.8097 Y134.8859
G01 X158.7427 Y135.1676
G01 X158.6621 Y135.4458
G01 X158.5682 Y135.7197
G01 X158.4611 Y135.9887
G01 X158.3412 Y136.2523
G01 X158.2086 Y136.5098
G01 X158.0638 Y136.7605
G01 X157.9069 Y137.0039
G01 X157.6848 Y137.2727
G01 X157.4469 Y137.5277
G01 X157.1942 Y137.7680
G01 X156.9276 Y137.9928
G01 X156.6480 Y138.2012
G01 X156.3564 Y138.3924
G01 X156.0539 Y138.5659
G01 X155.7416 Y138.7210
G01 X155.4205 Y138.8570
G01 X155.0919 Y138.9736
G01 X154.7569 Y139.0704
G01 X154.4166 Y139.1469
G01 X154.1747 Y139.1629
G01 X153.9321 Y139.1641
G01 X153.6900 Y139.1505
G01 X153.4491 Y139.1220
G01 X153.2105 Y139.0788
G01 X152.9750 Y139.0210
G01 X152.7434 Y138.9489
G01 X152.5167 Y138.8628
G01 X152.2341 Y138.7575
G01 X151.9567 Y138.6393
G01 X151.6849 Y138.5086
G01 X151.4194 Y138.3656
G01 X151.1608 Y138.2106
G01 X150.9094 Y138.0440
G01 X150.6660 Y137.8660
G01 X150.4309 Y137.6771
G01 X150.1469 Y137.3529
G01 X149.8915 Y137.0058
G01 X149.6664 Y136.6382
G01 X149.4734 Y136.2529
G01 X149.3137 Y135.8525
G01 X149.1886 Y135.4401
G01 X149.0990 Y135.0185
G01 X149.0455 Y134.5908
G01 X149.0284 Y134.1602
G01 X149.0480 Y133.7296
G01 X149.1041 Y133.3023
G01 X149.1962 Y132.8812
G01 X149.3237 Y132.4695
G01 X149.4857 Y132.0701
G01 X149.6811 Y131.6859
G01 X149.9083 Y131.3197
G01 X150.1429 Y131.0244
G01 X150.3989 Y130.7475
G01 X150.6748 Y130.4904
G01 X150.9692 Y130.2546
G01 X151.2803 Y130.0415
G01 X151.6064 Y129.8521
G01 X151.9457 Y129.6875
G01 X152.2964 Y129.5487
G01 X152.6564 Y129.4365
G01 X153.0238 Y129.3514
G01 X153.3966 Y129.2939
G01 X153.7725 Y129.2644
G01 X154.1497 Y129.2630
G01 X154.5258 Y129.2897
G01 X154.8990 Y129.3444
G01 X155.2670 Y129.4268
G01 X155.3402 Y129.2396
G01 Y127.7396
G01 X148.5846
G01 X170.0792
G01 X171.1134 Y126.2396
G01 X149.0683
G01 X148.4206 Y124.7396
G01 X171.7059
G01 X171.8575 Y123.2396
G01 X147.7614
G01 X147.5768 Y123.3172
G01 X147.8107 Y123.8958
G01 X148.0612 Y124.4673
G01 X148.3281 Y125.0315
G01 X148.6111 Y125.5877
G01 X148.6756 Y125.7076
G01 X148.7335 Y125.8309
G01 X148.7845 Y125.9571
G01 X148.8285 Y126.0860
G01 X148.8654 Y126.2171
G01 X148.8950 Y126.3500
G01 X148.9174 Y126.4844
G01 X148.9323 Y126.6197
G01 X148.9346 Y126.7111
G01 X148.9291 Y126.8024
G01 X148.9159 Y126.8928
G01 X148.8951 Y126.9818
G01 X148.8667 Y127.0687
G01 X148.8311 Y127.1528
G01 X148.7884 Y127.2336
G01 X148.7389 Y127.3105
G01 X148.6832 Y127.3829
G01 X148.6214 Y127.4503
G01 X148.5542 Y127.5122
G01 X148.4819 Y127.5681
G01 X148.4051 Y127.6177
G01 X148.3244 Y127.6606
G01 X148.2403 Y127.6964
G01 X148.1535 Y127.7250
G01 X148.0645 Y127.7460
G01 X147.9741 Y127.7594
G01 X147.8829 Y127.7651
G01 X147.7915 Y127.7629
G01 X147.7007 Y127.7530
G01 X147.6110 Y127.7354
G01 X147.5231 Y127.7102
G01 X147.4377 Y127.6777
G01 X147.1281 Y127.5043
G01 X146.8319 Y127.3087
G01 X146.5508 Y127.0921
G01 X146.2863 Y126.8555
G01 X145.6552 Y126.2988
G01 X145.0030 Y125.7671
G01 X144.3306 Y125.2612
G01 X143.6391 Y124.7818
G01 X143.5782 Y124.7213
G01 X143.5226 Y124.6557
G01 X143.4729 Y124.5857
G01 X143.4294 Y124.5117
G01 X143.3922 Y124.4342
G01 X143.3619 Y124.3539
G01 X143.3385 Y124.2713
G01 X143.3222 Y124.1869
G01 X143.3131 Y124.1015
G01 X143.3114 Y124.0157
G01 X143.3170 Y123.9300
G01 X143.3299 Y123.8450
G01 X143.3500 Y123.7615
G01 X143.3771 Y123.6800
G01 X143.4110 Y123.6012
G01 X143.4516 Y123.5255
G01 X143.4985 Y123.4535
G01 X143.5513 Y123.3858
G01 X143.6097 Y123.3228
G01 X143.6733 Y123.2650
G01 X143.7415 Y123.2129
G01 X143.8140 Y123.1668
G01 X143.8901 Y123.1270
G01 X143.9693 Y123.0939
G01 X144.0511 Y123.0676
G01 X144.1348 Y123.0484
G01 X144.2199 Y123.0364
G01 X144.3056 Y123.0317
G01 X144.5377 Y122.9896
G01 X144.7672 Y122.9355
G01 X144.9936 Y122.8695
G01 X145.2163 Y122.7916
G01 X145.4345 Y122.7023
G01 X145.6478 Y122.6016
G01 X145.8555 Y122.4899
G01 X146.0571 Y122.3674
G01 X146.1431 Y122.3305
G01 X146.2322 Y122.3017
G01 X146.3236 Y122.2812
G01 X146.4164 Y122.2692
G01 X146.5100 Y122.2658
G01 X146.6035 Y122.2711
G01 X146.6961 Y122.2848
G01 X146.7870 Y122.3071
G01 X146.8755 Y122.3376
G01 X146.9609 Y122.3761
G01 X147.0423 Y122.4223
G01 X147.1191 Y122.4758
G01 X147.1907 Y122.5362
G01 X147.2564 Y122.6029
G01 X147.3158 Y122.6753
G01 X147.3682 Y122.7529
G01 X147.4132 Y122.8350
G01 X147.4505 Y122.9208
G01 X147.4798 Y123.0098
G01 X147.5008 Y123.1010
G01 X147.5193 Y123.1552
G01 X147.5381 Y123.2093
G01 X147.5573 Y123.2633
G01 X147.5768 Y123.3172
G01 X147.7614 Y123.2396
G01 X157.8346
G01 Y121.7396
G01 X171.2148
G01 X169.5219 Y120.2396
G01 X160.1582
G01 X161.4393 Y118.7396
G01 X164.6408
G01 X165.1366 Y117.2396
G01 X162.2180
G01 X162.6482 Y115.7396
G01 X165.2233
G01 X165.0233 Y114.2396
G01 X162.8145
G01 X162.7519 Y112.7396
G01 X164.5701
G01 Y111.2396
G01 X164.7875
G01 X162.4417
G01 X161.8586 Y109.7396
G01 X174.2803
G01 X173.9281
G01 Y111.2396
G01 X166.7979
G01 X168.1915 Y112.7396
G01 X174.6477
G01 X174.6090 Y114.2396
G01 X169.9527
G00 Z5.0000
G00 X190.8973 Y120.2396
G00 Z0.5000
G01 Z-1.0000 F400
G01 Y118.7396 F1000
G01 X185.2233
G01 X185.0464 Y117.2396
G01 X189.4912
G01 Y115.7396
G01 X189.6834
G01 X184.8349
G01 X184.5696 Y114.2396
G01 X191.6196
G01 X191.9287 Y112.7396
G01 X184.2083
G01 X183.8135 Y111.2396
G01 X191.9456
G01 Y109.7396
G01 X183.3029
G01 X180.8865 Y108.2396
G01 X191.9456
G01 Y106.7396
G01 X183.8006
G01 X185.4413 Y105.2396
G01 X191.9456
G01 Y103.7396
G01 X186.6242
G01 X187.5213 Y102.2396
G01 X191.9456
G01 Y100.7396
G01 X188.2133
G01 X188.7287 Y99.2396
G01 X191.9456
G01 Y97.7396
G01 X189.1075
G01 X189.3634 Y96.2396
G01 X191.9456
G01 Y94.7396
G01 X189.5081
G01 X189.5515 Y93.2396
G01 X191.9456
G01 Y91.7396
G01 X189.4992
G01 X189.3434 Y90.2396
G01 X191.9456
G01 Y88.7396
G01 X189.0719
G01 X188.6692 Y87.2396
G01 X191.9456
G01 X191.9222 Y85.7396
G01 X188.1164
G01 X187.3918 Y84.2396
G01 X191.8077
G01 X190.6571 Y82.7396
G01 X186.4307
G00 Z5.0000
G00 X175.7093 Y139.7396
G00 Z0.5000
G01 Z-1.0000 F400
G01 Y141.2396 F1000
G01 X165.2490
G01 X168.2254 Y142.7396
G01 X174.5065
G00 Z5.0000
G00 X161.8975 Y139.7396
G00 Z0.5000
G01 Z-1.0000 F400
G01 Y141.2396 F1000
G01 X141.3139
G01 X139.7978 Y142.7396
G01 X152.2493
G01 X151.7829 Y144.2396
G01 X138.5245
G01 Y145.7396
G01 X134.2952
G01 X151.2981
G01 X150.7465 Y147.2396
G01 X136.1614
G01 X136.3606
G01 Y148.7396
G01 X150.0665
G01 X149.3018 Y150.2396
G01 X136.1527
G01 X136.2095 Y151.7396
G01 X148.4105
G01 X147.3027 Y153.2396
G01 X136.5950
G01 X137.5845 Y154.7396
G01 X145.7235
G00 Z5.0000
G00 X136.1130 Y145.7396
G00 Z0.5000
G01 Z-1.0000 F400
G01 Y144.2396 F1000
G01 X134.9936
G01 X135.0955 Y142.7396
G01 X135.8773
G01 X135.7808 Y141.2396
G01 X135.0273
G01 X135.4119 Y139.7396
G01 X134.5472
G01 X134.6667 Y138.2396
G01 X133.5874
G01 X131.9829 Y136.7396
G01 X133.4696
G01 X133.2999
G01 Y135.2396
G01 X133.4862 Y135.3125
G01 X133.5274 Y135.2389
G01 X133.5737 Y135.1684
G01 X133.6249 Y135.1014
G01 X133.6807 Y135.0381
G01 X133.7408 Y134.9790
G01 X133.8049 Y134.9242
G01 X133.8728 Y134.8742
G01 X133.9440 Y134.8290
G01 X134.0182 Y134.7890
G01 X134.0951 Y134.7544
G01 X134.1743 Y134.7253
G01 X134.2553 Y134.7018
G01 X134.3377 Y134.6842
G01 X134.4212 Y134.6724
G01 X134.5054 Y134.6666
G01 X134.5897 Y134.6667
G01 X134.6738 Y134.6728
G01 X134.7573 Y134.6848
G01 X134.8397 Y134.7027
G01 X134.9206 Y134.7264
G01 X135.7151 Y134.9527
G01 X136.5152 Y135.1586
G01 X137.3202 Y135.3438
G01 X138.1298 Y135.5084
G01 X138.9433 Y135.6522
G01 X139.7602 Y135.7751
G01 X140.5800 Y135.8770
G01 X141.4022 Y135.9578
G01 X142.0115 Y136.0161
G01 X142.6232 Y136.0381
G01 X143.2352 Y136.0238
G01 X143.8452 Y135.9732
G01 X143.9464 Y135.9646
G01 X144.0479 Y135.9616
G01 X144.1495 Y135.9642
G01 X144.2507 Y135.9724
G01 X144.3514 Y135.9861
G01 X144.4511 Y136.0053
G01 X144.5496 Y136.0299
G01 X144.6466 Y136.0599
G01 X144.7419 Y136.0952
G01 X144.8350 Y136.1357
G01 X144.9258 Y136.1812
G01 X145.0140 Y136.2316
G01 X145.0949 Y136.2943
G01 X145.1701 Y136.3637
G01 X145.2390 Y136.4394
G01 X145.3011 Y136.5208
G01 X145.3558 Y136.6073
G01 X145.4029 Y136.6982
G01 X145.4419 Y136.7928
G01 X145.4725 Y136.8905
G01 X145.4946 Y136.9904
G01 X145.5079 Y137.0919
G01 X145.5123 Y137.1942
G01 X145.5079 Y137.2964
G01 X145.4946 Y137.3979
G01 X145.4725 Y137.4979
G01 X145.4419 Y137.5955
G01 X145.4029 Y137.6901
G01 X145.3558 Y137.7810
G01 X145.3011 Y137.8675
G01 X145.2390 Y137.9489
G01 X145.1701 Y138.0246
G01 X144.8683 Y138.3053
G01 X144.5516 Y138.5690
G01 X144.2210 Y138.8151
G01 X143.8774 Y139.0427
G01 X143.3610 Y139.3936
G01 X142.8537 Y139.7575
G01 X142.3557 Y140.1342
G01 X141.8674 Y140.5233
G01 X141.3892 Y140.9247
G01 X140.9212 Y141.3381
G01 X140.4639 Y141.7632
G01 X140.0176 Y142.1997
G01 X139.5966 Y142.6840
G01 X139.1768 Y143.1693
G01 X138.7582 Y143.6557
G01 X138.3409 Y144.1431
G01 X138.2595 Y144.2411
G01 X138.1715 Y144.3332
G01 X138.0772 Y144.4188
G01 X137.9770 Y144.4975
G01 X137.8716 Y144.5690
G01 X137.7614 Y144.6329
G01 X137.6469 Y144.6888
G01 X137.5288 Y144.7365
G01 X137.4416 Y144.7560
G01 X137.3531 Y144.7681
G01 X137.2639 Y144.7728
G01 X137.1746 Y144.7701
G01 X137.0859 Y144.7599
G01 X136.9983 Y144.7423
G01 X136.9125 Y144.7175
G01 X136.8290 Y144.6857
G01 X136.7485 Y144.6470
G01 X136.6715 Y144.6017
G01 X136.5986 Y144.5502
G01 X136.5302 Y144.4927
G01 X136.4668 Y144.4298
G01 X136.4089 Y144.3617
G01 X136.3569 Y144.2891
G01 X136.3111 Y144.2124
G01 X136.2719 Y144.1322
G01 X136.2394 Y144.0489
G01 X136.2141 Y143.9633
G01 X136.1960 Y143.8758
G01 X136.1309 Y143.3887
G01 X136.0856 Y142.8993
G01 X136.0601 Y142.4086
G01 X136.0544 Y141.9171
G01 X136.0285 Y141.5520
G01 X135.9849 Y141.1885
G01 X135.9237 Y140.8276
G01 X135.8449 Y140.4702
G01 X135.7487 Y140.1169
G01 X135.6355 Y139.7688
G01 X135.5055 Y139.4266
G01 X135.3589 Y139.0912
G01 X135.1961 Y138.7633
G01 X135.0176 Y138.4437
G01 X134.8237 Y138.1333
G01 X134.6149 Y137.8326
G01 X134.3692 Y137.5649
G01 X134.1326 Y137.2891
G01 X133.9055 Y137.0055
G01 X133.6881 Y136.7144
G01 X133.6312 Y136.6366
G01 X133.5796 Y136.5553
G01 X133.5335 Y136.4707
G01 X133.4932 Y136.3832
G01 X133.4588 Y136.2932
G01 X133.4305 Y136.2012
G01 X133.4083 Y136.1074
G01 X133.3925 Y136.0124
G01 X133.3830 Y135.9165
G01 X133.3800 Y135.8202
G01 X133.3833 Y135.7240
G01 X133.3931 Y135.6281
G01 X133.4089 Y135.5472
G01 X133.4297 Y135.4674
G01 X133.4556 Y135.3890
G01 X133.4862 Y135.3125
G01 X133.2999 Y135.2396
G01 X122.1841
G01 X119.8006 Y136.7396
G01 X121.8680
G01 X120.1103 Y138.2396
G01 X118.3015
G01 X118.8262 Y139.7396
G01 X117.2860
G01 X116.6874 Y141.2396
G01 X118.0105
G01 X117.4942 Y142.7396
G01 X116.3613
G01 X116.1550 Y144.2396
G01 X117.2540
G01 X117.2142 Y145.7396
G01 X116.1027
G00 Z5.0000
G00 X106.1782 Y153.2396
G00 Z0.5000
G01 Z-1.0000 F400
G01 Y154.7396 F1000
G01 X94.6166
G01 X92.7875 Y156.2396
G01 X104.8797
G01 X103.5126 Y157.7396
G01 X90.7649
G01 X88.4776 Y159.2396
G01 X101.9703
G01 X100.1896 Y160.7396
G01 X85.7839
G01 X82.3059 Y162.2396
G01 X98.2444
G01 X96.1357 Y163.7396
G01 X76.9988
G01 Y165.2396
G01 X93.7917
G01 X43.6694
G01 X41.4039 Y163.7396
G01 X60.0144
G01 X56.9306
G01 Y162.2396
G01 X39.4004
G01 X37.5625 Y160.7396
G01 X51.1527
G01 X48.4355 Y159.2396
G01 X35.9431
G01 X34.4578 Y157.7396
G01 X46.0973
G00 Z5.0000
G00 X46.3245 Y165.2396
G00 Z0.5000
G01 Z-1.0000 F400
G01 Y166.7396 F1000
G01 X91.0576
G01 X87.8121 Y168.2396
G01 X49.2423
G01 X53.0033 Y169.7396
G01 X83.8089
G01 X78.1793
G01 Y171.2396
G01 X58.4737
G00 Z5.0000
G00 X55.2577 Y162.2396
G00 Z0.5000
G01 Z-1.0000 F400
G01 Y160.7396 F1000
G01 X57.5969
G01 X59.4717 Y159.2396
G01 X54.9222
G01 X54.2997 Y157.7396
G01 X60.1509
G01 X60.3083 Y156.2396
G01 X54.1333
G01 X54.1760 Y154.7396
G01 X60.3074
G01 X60.0340 Y153.2396
G01 X54.3575
G01 X54.5267 Y151.7396
G01 X54.3347 Y151.7994
G01 X54.3475 Y151.9093
G01 X54.3556 Y152.0198
G01 X54.3591 Y152.1304
G01 X54.3578 Y152.2411
G01 X54.3519 Y152.3517
G01 X54.3412 Y152.4619
G01 X54.3260 Y152.5715
G01 X54.3061 Y152.6804
G01 X54.2815 Y152.7884
G01 X54.2525 Y152.8952
G01 X54.2189 Y153.0007
G01 X54.1809 Y153.1047
G01 X54.0848 Y153.6617
G01 X54.0121 Y154.2222
G01 X53.9628 Y154.7852
G01 X53.9370 Y155.3499
G01 X53.9349 Y155.9151
G01 X53.9563 Y156.4799
G01 X54.0013 Y157.0433
G01 X54.0698 Y157.6043
G01 X54.1076 Y157.8352
G01 X54.1592 Y158.0634
G01 X54.2244 Y158.2881
G01 X54.3030 Y158.5084
G01 X54.3946 Y158.7237
G01 X54.4989 Y158.9331
G01 X54.6156 Y159.1358
G01 X54.7443 Y159.3312
G01 X54.8033 Y159.4239
G01 X54.8570 Y159.5199
G01 X54.9050 Y159.6187
G01 X54.9474 Y159.7202
G01 X54.9838 Y159.8239
G01 X55.0143 Y159.9295
G01 X55.0387 Y160.0367
G01 X55.0569 Y160.1451
G01 X55.0688 Y160.2544
G01 X55.0745 Y160.3642
G01 X55.0739 Y160.4741
G01 X55.0671 Y160.5838
G01 X55.0539 Y160.6930
G01 X55.0346 Y160.8012
G01 X55.0090 Y160.9081
G01 X54.9774 Y161.0134
G01 X54.9392 Y161.1001
G01 X54.8939 Y161.1833
G01 X54.8418 Y161.2624
G01 X54.7832 Y161.3369
G01 X54.7187 Y161.4063
G01 X54.6486 Y161.4701
G01 X54.5735 Y161.5277
G01 X54.4938 Y161.5790
G01 X54.4100 Y161.6234
G01 X54.3229 Y161.6606
G01 X54.2330 Y161.6905
G01 X54.1409 Y161.7128
G01 X54.0473 Y161.7273
G01 X53.9528 Y161.7339
G01 X53.8580 Y161.7327
G01 X53.7637 Y161.7236
G01 X53.6705 Y161.7066
G01 X53.5790 Y161.6819
G01 X53.4899 Y161.6497
G01 X53.4038 Y161.6102
G01 X52.4966 Y161.1857
G01 X51.5980 Y160.7432
G01 X50.7085 Y160.2828
G01 X49.8283 Y159.8047
G01 X48.9578 Y159.3092
G01 X48.0974 Y158.7964
G01 X47.2474 Y158.2665
G01 X46.4082 Y157.7197
G01 X46.3175 Y157.6624
G01 X46.2294 Y157.6012
G01 X46.1441 Y157.5362
G01 X46.0616 Y157.4675
G01 X45.9823 Y157.3953
G01 X45.9062 Y157.3197
G01 X45.8335 Y157.2409
G01 X45.7643 Y157.1589
G01 X45.6987 Y157.0740
G01 X45.6370 Y156.9862
G01 X45.5791 Y156.8959
G01 X45.5252 Y156.8032
G01 X45.4898 Y156.7161
G01 X45.4616 Y156.6264
G01 X45.4409 Y156.5347
G01 X45.4277 Y156.4416
G01 X45.4222 Y156.3478
G01 X45.4244 Y156.2538
G01 X45.4342 Y156.1603
G01 X45.4516 Y156.0679
G01 X45.4766 Y155.9773
G01 X45.5088 Y155.8890
G01 X45.5482 Y155.8036
G01 X45.5944 Y155.7218
G01 X45.6472 Y155.6439
G01 X45.7061 Y155.5707
G01 X45.7708 Y155.5025
G01 X45.8409 Y155.4399
G01 X45.9159 Y155.3831
G01 X45.9952 Y155.3327
G01 X46.0784 Y155.2890
G01 X46.1649 Y155.2522
G01 X46.4889 Y155.1600
G01 X46.8182 Y155.0883
G01 X47.1512 Y155.0376
G01 X47.4868 Y155.0080
G01 X47.8545 Y154.9279
G01 X48.2157 Y154.8221
G01 X48.5684 Y154.6910
G01 X48.9110 Y154.5353
G01 X49.2418 Y154.3558
G01 X49.5590 Y154.1533
G01 X49.8612 Y153.9290
G01 X50.1468 Y153.6839
G01 X50.4138 Y153.4394
G01 X50.6711 Y153.1845
G01 X50.9181 Y152.9198
G01 X51.1546 Y152.6456
G01 X51.3802 Y152.3623
G01 X51.5944 Y152.0704
G01 X51.7971 Y151.7703
G01 X51.9878 Y151.4625
G01 X52.0368 Y151.3804
G01 X52.0906 Y151.3014
G01 X52.1492 Y151.2259
G01 X52.2122 Y151.1541
G01 X52.2796 Y151.0862
G01 X52.3509 Y151.0226
G01 X52.4259 Y150.9634
G01 X52.5045 Y150.9089
G01 X52.5862 Y150.8593
G01 X52.6707 Y150.8147
G01 X52.7579 Y150.7754
G01 X52.8472 Y150.7415
G01 X52.9453 Y150.7210
G01 X53.0447 Y150.7087
G01 X53.1448 Y150.7049
G01 X53.2448 Y150.7094
G01 X53.3442 Y150.7223
G01 X53.4420 Y150.7435
G01 X53.5378 Y150.7729
G01 X53.6308 Y150.8102
G01 X53.7203 Y150.8551
G01 X53.8058 Y150.9074
G01 X53.8865 Y150.9666
G01 X53.9620 Y151.0325
G01 X54.0317 Y151.1044
G01 X54.0951 Y151.1819
G01 X54.1519 Y151.2645
G01 X54.2014 Y151.3515
G01 X54.2436 Y151.4424
G01 X54.2779 Y151.5365
G01 X54.3042 Y151.6331
G01 X54.3224 Y151.7317
G01 X54.3347 Y151.7994
G01 X54.5267 Y151.7396
G01 X59.4544
G00 Z5.0000
G00 X60.5984 Y147.2396
G00 Z0.5000
G01 Z-1.0000 F400
G01 Y148.7396 F1000
G01 X71.1762
G01 X70.5928 Y150.2396
G01 X62.9948
G00 Z5.0000
G00 X53.5201
G00 Z0.5000
G01 Z-1.0000 F400
G01 Y148.7396 F1000
G01 X48.6793
G01 X49.7482
G01 Y147.2396
G01 X52.5764
G01 X52.4375 Y145.7396
G01 X46.2316
G01 X44.0342 Y144.2396
G01 X52.9779
G01 X51.8739 Y142.7396
G01 X55.5975
G01 X55.6485 Y142.9362
G01 X55.7860 Y142.9339
G01 X55.9235 Y142.9380
G01 X56.0606 Y142.9483
G01 X56.1971 Y142.9649
G01 X56.3328 Y142.9877
G01 X56.4672 Y143.0167
G01 X56.6002 Y143.0519
G01 X56.7314 Y143.0931
G01 X56.8606 Y143.1403
G01 X56.9875 Y143.1934
G01 X57.1118 Y143.2522
G01 X57.2333 Y143.3167
G01 X57.4479 Y143.4322
G01 X57.6525 Y143.5645
G01 X57.8458 Y143.7127
G01 X58.0267 Y143.8760
G01 X58.1938 Y144.0533
G01 X58.3463 Y144.2434
G01 X58.4829 Y144.4451
G01 X58.6030 Y144.6572
G01 X58.7057 Y144.8781
G01 X58.7903 Y145.1066
G01 X58.8564 Y145.3412
G01 X58.9034 Y145.5802
G01 X58.9347 Y145.8463
G01 X58.9484 Y146.1139
G01 X58.9447 Y146.3818
G01 X58.9235 Y146.6489
G01 X58.8849 Y146.9141
G01 X58.8290 Y147.1761
G01 X58.7561 Y147.4340
G01 X58.6666 Y147.6865
G01 X58.5264 Y147.9260
G01 X58.3659 Y148.1523
G01 X58.1861 Y148.3637
G01 X57.9885 Y148.5586
G01 X57.7746 Y148.7354
G01 X57.5461 Y148.8928
G01 X57.3047 Y149.0296
G01 X57.0522 Y149.1448
G01 X56.9169 Y149.2082
G01 X56.7785 Y149.2645
G01 X56.6373 Y149.3135
G01 X56.4938 Y149.3552
G01 X56.3484 Y149.3893
G01 X56.2013 Y149.4159
G01 X56.0531 Y149.4348
G01 X55.9041 Y149.4459
G01 X55.7547 Y149.4494
G01 X55.6054 Y149.4450
G01 X55.4565 Y149.4330
G01 X55.3083 Y149.4132
G01 X55.1615 Y149.3858
G01 X55.0162 Y149.3507
G01 X54.8730 Y149.3082
G01 X54.7321 Y149.2583
G01 X54.5940 Y149.2012
G01 X54.4591 Y149.1370
G01 X54.3277 Y149.0659
G01 X54.2002 Y148.9880
G01 X53.9545 Y148.8235
G01 X53.7244 Y148.6376
G01 X53.5118 Y148.4320
G01 X53.3184 Y148.2083
G01 X53.1457 Y147.9682
G01 X52.9952 Y147.7137
G01 X52.8679 Y147.4467
G01 X52.7649 Y147.1695
G01 X52.6870 Y146.8842
G01 X52.6349 Y146.5931
G01 X52.6089 Y146.2985
G01 X52.6093 Y146.0028
G01 X52.6361 Y145.7082
G01 X52.6890 Y145.4173
G01 X52.7677 Y145.1322
G01 X52.8714 Y144.8553
G01 X53.0296 Y144.5516
G01 X53.2190 Y144.2664
G01 X53.4374 Y144.0028
G01 X53.6824 Y143.7637
G01 X53.9513 Y143.5518
G01 X54.2411 Y143.3695
G01 X54.5485 Y143.2188
G01 X54.8701 Y143.1014
G01 X55.0602 Y143.0409
G01 X55.2538 Y142.9930
G01 X55.4502 Y142.9581
G01 X55.6485 Y142.9362
G01 X55.5975 Y142.7396
G01 X55.6848 Y141.2396
G01 X51.8984
G01 X51.0167 Y139.7396
G01 X55.1638
G01 X54.9042 Y138.2396
G01 X50.5315
G01 X51.2628 Y136.7396
G01 X54.2377
G01 Y135.2396
G01 X54.2599
G01 X54.4169 Y135.3643
G01 X54.4833 Y135.2798
G01 X54.5562 Y135.2009
G01 X54.6352 Y135.1280
G01 X54.7197 Y135.0616
G01 X54.8093 Y135.0022
G01 X54.9033 Y134.9501
G01 X55.0012 Y134.9057
G01 X55.1023 Y134.8693
G01 X55.2060 Y134.8410
G01 X55.3116 Y134.8210
G01 X55.4184 Y134.8096
G01 X55.5259 Y134.8067
G01 X56.0543 Y134.7978
G01 X56.5829 Y134.7938
G01 X57.1114 Y134.7948
G01 X57.6400 Y134.8007
G01 X57.8782 Y134.7999
G01 X58.1159 Y134.7836
G01 X58.3520 Y134.7516
G01 X58.5855 Y134.7042
G01 X58.6697 Y134.6637
G01 X58.7559 Y134.6276
G01 X58.8438 Y134.5959
G01 X58.9333 Y134.5687
G01 X59.0240 Y134.5462
G01 X59.1157 Y134.5283
G01 X59.2082 Y134.5152
G01 X59.3013 Y134.5068
G01 X59.3947 Y134.5031
G01 X59.4882 Y134.5043
G01 X59.5814 Y134.5102
G01 X59.6743 Y134.5209
G01 X59.7687 Y134.5454
G01 X59.8610 Y134.5768
G01 X59.9508 Y134.6149
G01 X60.0375 Y134.6595
G01 X60.1207 Y134.7105
G01 X60.1999 Y134.7674
G01 X60.2747 Y134.8300
G01 X60.3446 Y134.8980
G01 X60.4093 Y134.9710
G01 X60.4685 Y135.0485
G01 X60.5218 Y135.1302
G01 X60.5688 Y135.2156
G01 X60.6095 Y135.3043
G01 X60.6435 Y135.3957
G01 X60.6706 Y135.4894
G01 X60.6908 Y135.5848
G01 X60.7038 Y135.6815
G01 X60.7097 Y135.7788
G01 X60.7083 Y135.8763
G01 X60.6998 Y135.9735
G01 X60.6841 Y136.0698
G01 X60.6613 Y136.1646
G01 X60.6316 Y136.2575
G01 X60.5951 Y136.3479
G01 X60.4210 Y136.6577
G01 X60.2180 Y136.9493
G01 X59.9878 Y137.2200
G01 X59.7326 Y137.4673
G01 X59.4696 Y137.7963
G01 X59.2185 Y138.1346
G01 X58.9796 Y138.4817
G01 X58.7534 Y138.8371
G01 X58.5401 Y139.2004
G01 X58.3400 Y139.5711
G01 X58.1533 Y139.9487
G01 X57.9803 Y140.3328
G01 X57.9177 Y140.4596
G01 X57.8484 Y140.5830
G01 X57.7727 Y140.7025
G01 X57.6908 Y140.8178
G01 X57.6030 Y140.9286
G01 X57.5093 Y141.0346
G01 X57.4102 Y141.1355
G01 X57.3059 Y141.2310
G01 X57.2344 Y141.2837
G01 X57.1588 Y141.3303
G01 X57.0797 Y141.3706
G01 X56.9976 Y141.4042
G01 X56.9129 Y141.4311
G01 X56.8264 Y141.4510
G01 X56.7385 Y141.4637
G01 X56.6499 Y141.4692
G01 X56.5612 Y141.4675
G01 X56.4728 Y141.4585
G01 X56.3855 Y141.4423
G01 X56.2999 Y141.4191
G01 X56.2164 Y141.3889
G01 X56.1356 Y141.3520
G01 X56.0581 Y141.3087
G01 X55.9844 Y141.2591
G01 X55.9151 Y141.2038
G01 X55.8504 Y141.1429
G01 X55.7910 Y141.0769
G01 X55.7371 Y141.0064
G01 X55.6892 Y140.9316
G01 X55.6476 Y140.8532
G01 X55.6125 Y140.7717
G01 X55.5841 Y140.6875
G01 X55.4703 Y140.2604
G01 X55.3804 Y139.8276
G01 X55.3149 Y139.3904
G01 X55.2738 Y138.9503
G01 X55.2308 Y138.7098
G01 X55.1766 Y138.4715
G01 X55.1112 Y138.2361
G01 X55.0349 Y138.0040
G01 X54.9478 Y137.7757
G01 X54.8500 Y137.5518
G01 X54.7419 Y137.3327
G01 X54.6236 Y137.1190
G01 X54.4811 Y136.8350
G01 X54.3692 Y136.5377
G01 X54.2891 Y136.2303
G01 X54.2417 Y135.9162
G01 X54.2469 Y135.8431
G01 X54.2570 Y135.7706
G01 X54.2720 Y135.6989
G01 X54.2918 Y135.6284
G01 X54.3163 Y135.5593
G01 X54.3454 Y135.4921
G01 X54.3790 Y135.4270
G01 X54.4169 Y135.3643
G01 X54.2599 Y135.2396
G01 X52.5840
G00 Z5.0000
G00 X49.1320 Y144.2396
G00 Z0.5000
G01 Z-1.0000 F400
G01 Y142.7396 F1000
G01 X44.3075
G01 X44.1447 Y142.6231
G01 X44.0719 Y142.7336
G01 X44.0068 Y142.8486
G01 X43.9495 Y142.9678
G01 X43.9003 Y143.0906
G01 X43.8595 Y143.2163
G01 X43.8272 Y143.3446
G01 X43.8037 Y143.4747
G01 X43.7889 Y143.6061
G01 X43.7830 Y143.7382
G01 X43.7859 Y143.8704
G01 X43.7978 Y144.0021
G01 X43.8184 Y144.1327
G01 X43.8478 Y144.2617
G01 X43.8858 Y144.3883
G01 X43.9322 Y144.5121
G01 X43.9868 Y144.6326
G01 X44.0684 Y144.7453
G01 X44.1552 Y144.8541
G01 X44.2471 Y144.9586
G01 X44.3438 Y145.0587
G01 X44.4452 Y145.1540
G01 X44.5511 Y145.2444
G01 X44.6611 Y145.3296
G01 X44.7750 Y145.4096
G01 X44.8926 Y145.4840
G01 X45.0136 Y145.5527
G01 X45.1377 Y145.6156
G01 X45.2647 Y145.6726
G01 X45.3943 Y145.7234
G01 X45.5261 Y145.7680
G01 X45.6599 Y145.8063
G01 X45.7954 Y145.8382
G01 X46.3305 Y145.9537
G01 X46.8687 Y146.0536
G01 X47.4096 Y146.1378
G01 X47.9527 Y146.2063
G01 X48.1049 Y146.2222
G01 X48.2560 Y146.2461
G01 X48.4056 Y146.2782
G01 X48.5532 Y146.3181
G01 X48.6985 Y146.3660
G01 X48.8411 Y146.4215
G01 X48.9804 Y146.4846
G01 X49.1162 Y146.5551
G01 X49.1853 Y146.6072
G01 X49.2497 Y146.6650
G01 X49.3090 Y146.7280
G01 X49.3628 Y146.7957
G01 X49.4107 Y146.8678
G01 X49.4523 Y146.9436
G01 X49.4874 Y147.0227
G01 X49.5156 Y147.1045
G01 X49.5369 Y147.1883
G01 X49.5511 Y147.2737
G01 X49.5579 Y147.3599
G01 X49.5575 Y147.4464
G01 X49.5498 Y147.5326
G01 X49.5348 Y147.6178
G01 X49.5127 Y147.7015
G01 X49.4836 Y147.7829
G01 X49.4478 Y147.8617
G01 X49.4054 Y147.9371
G01 X49.3568 Y148.0087
G01 X49.3024 Y148.0759
G01 X49.2425 Y148.1383
G01 X49.1775 Y148.1955
G01 X49.1079 Y148.2469
G01 X49.0343 Y148.2923
G01 X48.5219 Y148.5812
G01 X48.0059 Y148.8633
G01 X47.4861 Y149.1387
G01 X46.9629 Y149.4073
G01 X46.7624 Y149.5144
G01 X46.5673 Y149.6313
G01 X46.3783 Y149.7575
G01 X46.1956 Y149.8928
G01 X46.0198 Y150.0370
G01 X45.8512 Y150.1895
G01 X45.6903 Y150.3502
G01 X45.5375 Y150.5185
G01 X45.2610 Y150.9159
G01 X45.0066 Y151.3277
G01 X44.7749 Y151.7528
G01 X44.5667 Y152.1899
G01 X44.5700 Y152.1797
G01 X44.5303 Y152.4730
G01 X44.5013 Y152.7675
G01 X44.4830 Y153.0629
G01 X44.4755 Y153.3588
G01 X44.4711 Y153.4541
G01 X44.4608 Y153.5490
G01 X44.4447 Y153.6430
G01 X44.4229 Y153.7359
G01 X44.3954 Y153.8273
G01 X44.3623 Y153.9167
G01 X44.3238 Y154.0040
G01 X44.2800 Y154.0888
G01 X44.2310 Y154.1707
G01 X44.1771 Y154.2494
G01 X44.1184 Y154.3247
G01 X44.0553 Y154.3962
G01 X43.9844 Y154.4615
G01 X43.9081 Y154.5202
G01 X43.8268 Y154.5720
G01 X43.7413 Y154.6163
G01 X43.6522 Y154.6529
G01 X43.5601 Y154.6814
G01 X43.4659 Y154.7016
G01 X43.3703 Y154.7134
G01 X43.2740 Y154.7167
G01 X43.1779 Y154.7113
G01 X43.0825 Y154.6975
G01 X42.9888 Y154.6753
G01 X42.8974 Y154.6448
G01 X42.8090 Y154.6064
G01 X42.7245 Y154.5602
G01 X42.6443 Y154.5068
G01 X42.2297 Y154.1699
G01 X41.8323 Y153.8129
G01 X41.4532 Y153.4365
G01 X41.0934 Y153.0416
G01 X40.3895 Y152.2582
G01 X39.7043 Y151.4584
G01 X39.0382 Y150.6427
G01 X38.3915 Y149.8114
G01 X37.7646 Y148.9651
G01 X37.1579 Y148.1042
G01 X36.5717 Y147.2293
G01 X36.0062 Y146.3408
G01 X35.5337 Y145.5185
G01 X35.0805 Y144.6854
G01 X34.6471 Y143.8419
G01 X34.2335 Y142.9885
G01 X33.8402 Y142.1256
G01 X33.4672 Y141.2536
G01 X33.1147 Y140.3732
G01 X32.7831 Y139.4847
G01 X32.4724 Y138.5887
G01 X32.1828 Y137.6856
G01 X31.9145 Y136.7760
G01 X31.6677 Y135.8603
G01 X31.4424 Y134.9391
G01 X31.2388 Y134.0128
G01 X31.0570 Y133.0821
G01 X30.8972 Y132.1473
G01 X30.7576 Y131.1901
G01 X30.6540 Y130.2283
G01 X30.5865 Y129.2634
G01 X30.5553 Y128.2966
G01 X30.5332 Y127.5527
G01 X30.5210 Y126.8085
G01 X30.5187 Y126.0643
G01 X30.5263 Y125.3201
G01 X30.5438 Y124.5761
G01 X30.5713 Y123.8323
G01 X30.6087 Y123.0890
G01 X30.6560 Y122.3463
G01 X30.7583 Y121.5264
G01 X30.8835 Y120.7096
G01 X31.0316 Y119.8967
G01 X31.2024 Y119.0882
G01 X31.3959 Y118.2849
G01 X31.6117 Y117.4873
G01 X31.8498 Y116.6960
G01 X32.1100 Y115.9117
G01 X32.3920 Y115.1351
G01 X32.6957 Y114.3666
G01 X33.0209 Y113.6070
G01 X33.3672 Y112.8567
G01 X33.7546 Y112.1014
G01 X34.1730 Y111.3628
G01 X34.6216 Y110.6421
G01 X35.0997 Y109.9407
G01 X35.6064 Y109.2596
G01 X36.1408 Y108.6001
G01 X36.7022 Y107.9634
G01 X37.2894 Y107.3504
G01 X37.9015 Y106.7622
G01 X38.5374 Y106.1999
G01 X39.1961 Y105.6644
G01 X39.8764 Y105.1567
G01 X40.5771 Y104.6776
G01 X41.2971 Y104.2279
G01 X42.0351 Y103.8084
G01 X42.7898 Y103.4198
G01 X43.1692 Y103.2271
G01 X43.5563 Y103.0504
G01 X43.9505 Y102.8901
G01 X44.3510 Y102.7463
G01 X44.6041 Y102.6930
G01 X44.6436 Y102.6882
G01 X44.9349 Y102.5279
G01 X45.2374 Y102.3898
G01 X45.5494 Y102.2749
G01 X45.8691 Y102.1836
G01 X46.3623 Y102.0410
G01 X46.8585 Y101.9092
G01 X47.3574 Y101.7882
G01 X47.8588 Y101.6780
G01 X48.3625 Y101.5788
G01 X48.8683 Y101.4906
G01 X49.3758 Y101.4134
G01 X49.8849 Y101.3472
G01 X50.6609 Y101.3061
G01 X51.4378 Y101.2908
G01 X52.2148 Y101.3014
G01 X52.9910 Y101.3378
G01 X53.7656 Y101.4000
G01 X54.5376 Y101.4879
G01 X55.3064 Y101.6015
G01 X56.0709 Y101.7405
G01 X56.7698 Y101.9258
G01 X57.4588 Y102.1454
G01 X58.1360 Y102.3987
G01 X58.8000 Y102.6852
G01 X59.0911 Y102.7738
G01 X59.3746 Y102.8845
G01 X59.6489 Y103.0165
G01 X59.9122 Y103.1692
G01 X60.5905 Y103.5490
G01 X61.2528 Y103.9560
G01 X61.8982 Y104.3894
G01 X62.5254 Y104.8487
G01 X63.1336 Y105.3329
G01 X63.7217 Y105.8413
G01 X64.2887 Y106.3732
G01 X64.8338 Y106.9275
G01 X65.3559 Y107.5035
G01 X65.8543 Y108.1001
G01 X66.3282 Y108.7164
G01 X66.7767 Y109.3513
G01 X67.0147 Y109.7236
G01 X67.2442 Y110.1011
G01 X67.4652 Y110.4836
G01 X67.6775 Y110.8710
G01 X67.8811 Y111.2631
G01 X68.0758 Y111.6597
G01 X68.2616 Y112.0605
G01 X68.4384 Y112.4654
G01 X68.6297 Y112.9681
G01 X68.8043 Y113.4768
G01 X68.9620 Y113.9911
G01 X69.1027 Y114.5102
G01 X69.2261 Y115.0337
G01 X69.3321 Y115.5610
G01 X69.4207 Y116.0915
G01 X69.4917 Y116.6247
G01 X69.5450 Y117.1599
G01 X69.5806 Y117.6966
G01 X69.5984 Y118.2342
G01 X69.5985 Y118.7720
G01 X69.5409 Y119.3884
G01 X69.4571 Y120.0018
G01 X69.3474 Y120.6111
G01 X69.2118 Y121.2151
G01 X69.0507 Y121.8129
G01 X68.8643 Y122.4032
G01 X68.6530 Y122.9851
G01 X68.4172 Y123.5575
G01 X68.1573 Y124.1194
G01 X67.8737 Y124.6697
G01 X67.5669 Y125.2074
G01 X67.2376 Y125.7316
G01 X66.9297 Y126.1779
G01 X66.6049 Y126.6120
G01 X66.2638 Y127.0334
G01 X65.9068 Y127.4415
G01 X65.5345 Y127.8356
G01 X65.1474 Y128.2153
G01 X64.7461 Y128.5798
G01 X64.3311 Y128.9288
G01 X63.9032 Y129.2616
G01 X63.4628 Y129.5778
G01 X63.0106 Y129.8770
G01 X62.5474 Y130.1587
G01 X62.0568 Y130.4031
G01 X61.5555 Y130.6245
G01 X61.0445 Y130.8226
G01 X60.5249 Y130.9968
G01 X59.9977 Y131.1469
G01 X59.4642 Y131.2724
G01 X58.9255 Y131.3731
G01 X58.3827 Y131.4489
G01 X57.8370 Y131.4995
G01 X57.2895 Y131.5248
G01 X56.7415 Y131.5247
G01 X56.1940 Y131.4994
G01 X55.6683 Y131.4431
G01 X55.1462 Y131.3589
G01 X54.6295 Y131.2471
G01 X54.1194 Y131.1078
G01 X53.6174 Y130.9416
G01 X53.1250 Y130.7489
G01 X52.6436 Y130.5302
G01 X52.1745 Y130.2862
G01 X51.7190 Y130.0176
G01 X51.2786 Y129.7250
G01 X50.8543 Y129.4095
G01 X50.4474 Y129.0718
G01 X50.0591 Y128.7129
G01 X49.6905 Y128.3338
G01 X49.3426 Y127.9356
G01 X49.0164 Y127.5195
G01 X48.8052 Y127.1766
G01 X48.6087 Y126.8252
G01 X48.4271 Y126.4659
G01 X48.2609 Y126.0992
G01 X48.1102 Y125.7258
G01 X47.9753 Y125.3465
G01 X47.8565 Y124.9618
G01 X47.7540 Y124.5724
G01 X47.6795 Y124.2993
G01 X47.6156 Y124.0235
G01 X47.5623 Y123.7454
G01 X47.5198 Y123.4655
G01 X47.4881 Y123.1841
G01 X47.4673 Y122.9018
G01 X47.4574 Y122.6188
G01 X47.4584 Y122.3357
G01 X47.4656 Y122.2320
G01 X47.4813 Y122.1292
G01 X47.5054 Y122.0281
G01 X47.5378 Y121.9293
G01 X47.5782 Y121.8335
G01 X47.6264 Y121.7414
G01 X47.6820 Y121.6535
G01 X47.7447 Y121.5705
G01 X47.8139 Y121.4930
G01 X47.8894 Y121.4215
G01 X47.9705 Y121.3564
G01 X48.0566 Y121.2982
G01 X48.1451 Y121.2517
G01 X48.2372 Y121.2129
G01 X48.3323 Y121.1820
G01 X48.4296 Y121.1593
G01 X48.5285 Y121.1449
G01 X48.6283 Y121.1389
G01 X48.7282 Y121.1415
G01 X48.8276 Y121.1525
G01 X48.9256 Y121.1718
G01 X49.0217 Y121.1994
G01 X49.1151 Y121.2351
G01 X49.2051 Y121.2785
G01 X49.2911 Y121.3294
G01 X49.3725 Y121.3874
G01 X49.4487 Y121.4521
G01 X49.5191 Y121.5231
G01 X49.7714 Y121.8145
G01 X50.0316 Y122.0989
G01 X50.2997 Y122.3760
G01 X50.5752 Y122.6455
G01 X50.6698 Y122.7367
G01 X50.7686 Y122.8232
G01 X50.8714 Y122.9049
G01 X50.9779 Y122.9817
G01 X51.0880 Y123.0533
G01 X51.2014 Y123.1196
G01 X51.3178 Y123.1804
G01 X51.4370 Y123.2356
G01 X51.5586 Y123.2851
G01 X51.6825 Y123.3287
G01 X51.8083 Y123.3664
G01 X51.9358 Y123.3981
G01 X52.0646 Y123.4237
G01 X52.1945 Y123.4431
G01 X52.3251 Y123.4563
G01 X52.4563 Y123.4633
G01 X52.5876 Y123.4641
G01 X52.7188 Y123.4586
G01 X52.8496 Y123.4469
G01 X52.9797 Y123.4289
G01 X53.0692 Y123.4280
G01 X53.1582 Y123.4199
G01 X53.2463 Y123.4046
G01 X53.3330 Y123.3824
G01 X53.4175 Y123.3532
G01 X53.4994 Y123.3173
G01 X53.5782 Y123.2750
G01 X53.6533 Y123.2265
G01 X53.8746 Y123.1231
G01 X54.0917 Y123.0111
G01 X54.3042 Y122.8906
G01 X54.5118 Y122.7619
G01 X54.7142 Y122.6251
G01 X54.9110 Y122.4804
G01 X55.1020 Y122.3281
G01 X55.2868 Y122.1684
G01 X55.4266 Y121.9812
G01 X55.5562 Y121.7868
G01 X55.6751 Y121.5857
G01 X55.7829 Y121.3784
G01 X55.8795 Y121.1656
G01 X55.9644 Y120.9480
G01 X56.0375 Y120.7261
G01 X56.0986 Y120.5006
G01 X56.1761 Y120.1449
G01 X56.2243 Y119.7840
G01 X56.2427 Y119.4204
G01 X56.2312 Y119.0565
G01 X56.1900 Y118.6948
G01 X56.1192 Y118.3377
G01 X56.0195 Y117.9876
G01 X55.8913 Y117.6468
G01 X55.7401 Y117.2762
G01 X55.5568 Y116.9205
G01 X55.3429 Y116.5822
G01 X55.1001 Y116.2640
G01 X54.8303 Y115.9684
G01 X54.5355 Y115.6977
G01 X54.2181 Y115.4539
G01 X53.8804 Y115.2391
G01 X53.5252 Y115.0547
G01 X53.1551 Y114.9023
G01 X52.7730 Y114.7831
G01 X52.3820 Y114.6979
G01 X51.9461 Y114.6356
G01 X51.5069 Y114.6056
G01 X51.0667 Y114.6082
G01 X50.6278 Y114.6433
G01 X50.1927 Y114.7108
G01 X49.7638 Y114.8102
G01 X49.3435 Y114.9409
G01 X48.9339 Y115.1024
G01 X48.5374 Y115.2937
G01 X48.1561 Y115.5138
G01 X47.7920 Y115.7614
G01 X47.4473 Y116.0353
G01 X47.0936 Y116.3465
G01 X46.7577 Y116.6769
G01 X46.4408 Y117.0255
G01 X46.1438 Y117.3912
G01 X45.8676 Y117.7728
G01 X45.6130 Y118.1693
G01 X45.3810 Y118.5793
G01 X45.1721 Y119.0016
G01 X44.9871 Y119.4349
G01 X44.8265 Y119.8778
G01 X44.6908 Y120.3290
G01 X44.5804 Y120.7870
G01 X44.4957 Y121.2504
G01 X44.4369 Y121.7179
G01 X44.4043 Y122.1879
G01 X44.3979 Y122.6590
G01 X44.3908 Y123.1617
G01 X44.4055 Y123.6643
G01 X44.4419 Y124.1658
G01 X44.4998 Y124.6652
G01 X44.5793 Y125.1617
G01 X44.6801 Y125.6542
G01 X44.8021 Y126.1420
G01 X44.9450 Y126.6240
G01 X45.1504 Y127.1057
G01 X45.3697 Y127.5811
G01 X45.6027 Y128.0500
G01 X45.8492 Y128.5120
G01 X46.1089 Y128.9666
G01 X46.3817 Y129.4136
G01 X46.6674 Y129.8524
G01 X46.9656 Y130.2828
G01 X47.3565 Y130.7354
G01 X47.7672 Y131.1703
G01 X48.1968 Y131.5864
G01 X48.6446 Y131.9829
G01 X49.1095 Y132.3592
G01 X49.5907 Y132.7143
G01 X50.0873 Y133.0477
G01 X50.5982 Y133.3587
G01 X50.6730 Y133.3981
G01 X50.7438 Y133.4354
G01 X51.0427 Y133.5929
G01 X51.3332 Y133.7655
G01 X51.6145 Y133.9527
G01 X51.8859 Y134.1540
G01 X51.9517 Y134.2065
G01 X52.0138 Y134.2633
G01 X52.0718 Y134.3242
G01 X52.1256 Y134.3889
G01 X52.1749 Y134.4572
G01 X52.2193 Y134.5286
G01 X52.2588 Y134.6029
G01 X52.2932 Y134.6798
G01 X52.3223 Y134.7588
G01 X52.3459 Y134.8395
G01 X52.3639 Y134.9217
G01 X52.3763 Y135.0050
G01 X52.3830 Y135.0889
G01 X52.3840 Y135.1730
G01 X52.3793 Y135.2570
G01 X52.3688 Y135.3405
G01 X52.3526 Y135.4228
G01 X52.3309 Y135.5038
G01 X52.3039 Y135.5832
G01 X52.2717 Y135.6607
G01 X52.2344 Y135.7358
G01 X52.1921 Y135.8082
G01 X52.1452 Y135.8777
G01 X52.0937 Y135.9439
G01 X52.0379 Y136.0065
G01 X51.9781 Y136.0653
G01 X51.9145 Y136.1200
G01 X51.8474 Y136.1703
G01 X51.7771 Y136.2160
G01 X51.7039 Y136.2570
G01 X51.6281 Y136.2929
G01 X51.5502 Y136.3238
G01 X51.4693 Y136.3631
G01 X51.3904 Y136.4063
G01 X51.3137 Y136.4532
G01 X51.2394 Y136.5038
G01 X51.1676 Y136.5580
G01 X51.0985 Y136.6156
G01 X51.0323 Y136.6765
G01 X50.9692 Y136.7405
G01 X50.9092 Y136.8075
G01 X50.8526 Y136.8773
G01 X50.7994 Y136.9499
G01 X50.7498 Y137.0249
G01 X50.7095 Y137.0780
G01 X50.6718 Y137.1331
G01 X50.6368 Y137.1898
G01 X50.6045 Y137.2482
G01 X50.5750 Y137.3080
G01 X50.5484 Y137.3692
G01 X50.5248 Y137.4316
G01 X50.5042 Y137.4951
G01 X50.3332 Y138.1835
G01 X50.3678 Y138.4169
G01 X50.4132 Y138.6483
G01 X50.4695 Y138.8774
G01 X50.5364 Y139.1036
G01 X50.6139 Y139.3264
G01 X50.7017 Y139.5454
G01 X50.7997 Y139.7600
G01 X50.9076 Y139.9697
G01 X51.0926 Y140.2895
G01 X51.2817 Y140.6069
G01 X51.4750 Y140.9217
G01 X51.6725 Y141.2340
G01 X51.7235 Y141.3156
G01 X51.7682 Y141.4007
G01 X51.8065 Y141.4889
G01 X51.8381 Y141.5798
G01 X51.8628 Y141.6727
G01 X51.8805 Y141.7673
G01 X51.8910 Y141.8629
G01 X51.8944 Y141.9590
G01 X51.8906 Y142.0551
G01 X51.8796 Y142.1506
G01 X51.8614 Y142.2451
G01 X51.8363 Y142.3379
G01 X51.8043 Y142.4286
G01 X51.7656 Y142.5167
G01 X51.7204 Y142.6016
G01 X51.6690 Y142.6829
G01 X51.6109 Y142.7495
G01 X51.5481 Y142.8118
G01 X51.4811 Y142.8695
G01 X51.4101 Y142.9221
G01 X51.3354 Y142.9695
G01 X51.2576 Y143.0115
G01 X51.1769 Y143.0477
G01 X51.0939 Y143.0780
G01 X51.0089 Y143.1023
G01 X50.9223 Y143.1204
G01 X50.8347 Y143.1323
G01 X50.7464 Y143.1378
G01 X50.6580 Y143.1369
G01 X50.5699 Y143.1297
G01 X50.4825 Y143.1162
G01 X50.3963 Y143.0964
G01 X50.1016 Y143.0077
G01 X49.8159 Y142.8934
G01 X49.5414 Y142.7543
G01 X49.2801 Y142.5915
G01 X48.9786 Y142.4423
G01 X48.6700 Y142.3082
G01 X48.3551 Y142.1895
G01 X48.0348 Y142.0866
G01 X47.7097 Y141.9997
G01 X47.3807 Y141.9289
G01 X47.0487 Y141.8745
G01 X46.7143 Y141.8366
G01 X46.3785 Y141.8153
G01 X46.0421 Y141.8107
G01 X45.7058 Y141.8227
G01 X45.3706 Y141.8514
G01 X45.2776 Y141.8637
G01 X45.1855 Y141.8814
G01 X45.0946 Y141.9043
G01 X45.0051 Y141.9323
G01 X44.9174 Y141.9655
G01 X44.8317 Y142.0036
G01 X44.7483 Y142.0465
G01 X44.6676 Y142.0942
G01 X44.5897 Y142.1464
G01 X44.5149 Y142.2030
G01 X44.4435 Y142.2638
G01 X44.3757 Y142.3286
G01 X44.3117 Y142.3971
G01 X44.2517 Y142.4692
G01 X44.1960 Y142.5447
G01 X44.1447 Y142.6231
G01 X44.3075 Y142.7396
G00 Z5.0000
G00 X79.4061 Y135.2396
G00 Z0.5000
G01 Z-1.0000 F400
G01 Y136.7396 F1000
G01 X65.7798
G01 X65.6926 Y136.5574
G01 X65.6077 Y136.6041
G01 X65.5197 Y136.6447
G01 X65.4290 Y136.6789
G01 X65.3362 Y136.7066
G01 X65.2416 Y136.7276
G01 X65.1457 Y136.7418
G01 X65.0491 Y136.7491
G01 X64.9522 Y136.7496
G01 X64.8555 Y136.7432
G01 X64.7595 Y136.7299
G01 X64.6647 Y136.7098
G01 X64.5716 Y136.6830
G01 X64.4806 Y136.6497
G01 X64.3922 Y136.6100
G01 X64.3069 Y136.5641
G01 X64.2250 Y136.5122
G01 X64.0516 Y136.3895
G01 X63.8724 Y136.2753
G01 X63.6879 Y136.1700
G01 X63.4984 Y136.0737
G01 X63.3912 Y136.0438
G01 X63.2863 Y136.0067
G01 X63.1841 Y135.9625
G01 X63.0851 Y135.9115
G01 X62.9899 Y135.8539
G01 X62.8988 Y135.7899
G01 X62.8122 Y135.7199
G01 X62.7306 Y135.6442
G01 X62.6543 Y135.5631
G01 X62.5838 Y135.4770
G01 X62.5192 Y135.3863
G01 X62.4610 Y135.2915
G01 X62.4093 Y135.1929
G01 X62.3644 Y135.0910
G01 X62.3266 Y134.9863
G01 X62.2960 Y134.8793
G01 X62.2727 Y134.7704
G01 X62.2569 Y134.6602
G01 X62.2486 Y134.5492
G01 X62.2479 Y134.4379
G01 X62.2612 Y134.3539
G01 X62.2803 Y134.2712
G01 X62.3053 Y134.1899
G01 X62.3359 Y134.1107
G01 X62.3721 Y134.0338
G01 X62.4137 Y133.9596
G01 X62.4603 Y133.8886
G01 X62.5119 Y133.8211
G01 X62.5681 Y133.7573
G01 X62.6287 Y133.6977
G01 X62.6933 Y133.6426
G01 X62.7617 Y133.5921
G01 X62.8335 Y133.5466
G01 X62.9083 Y133.5063
G01 X62.9858 Y133.4714
G01 X63.0655 Y133.4421
G01 X63.5324 Y133.1720
G01 X64.0007 Y132.9043
G01 X64.4704 Y132.6391
G01 X64.9415 Y132.3764
G01 X65.0345 Y132.3252
G01 X65.1305 Y132.2800
G01 X65.2292 Y132.2407
G01 X65.3301 Y132.2077
G01 X65.4328 Y132.1810
G01 X65.5370 Y132.1607
G01 X65.6423 Y132.1469
G01 X65.7482 Y132.1396
G01 X65.8543 Y132.1389
G01 X65.9603 Y132.1448
G01 X66.0658 Y132.1573
G01 X66.1702 Y132.1763
G01 X66.2628 Y132.2065
G01 X66.3526 Y132.2442
G01 X66.4390 Y132.2894
G01 X66.5212 Y132.3415
G01 X66.5989 Y132.4004
G01 X66.6714 Y132.4655
G01 X66.7382 Y132.5364
G01 X66.7988 Y132.6126
G01 X66.8529 Y132.6937
G01 X66.9000 Y132.7789
G01 X66.9399 Y132.8678
G01 X66.9723 Y132.9597
G01 X66.9968 Y133.0540
G01 X67.0134 Y133.1500
G01 X67.0220 Y133.2470
G01 X67.0225 Y133.3444
G01 X67.0148 Y133.4415
G01 X66.9990 Y133.5377
G01 X66.9754 Y133.6322
G01 X66.9439 Y133.7244
G01 X66.8575 Y133.9306
G01 X66.7716 Y134.1370
G01 X66.6862 Y134.3436
G01 X66.6014 Y134.5505
G01 X66.5147 Y134.8301
G01 X66.4360 Y135.1121
G01 X66.3656 Y135.3962
G01 X66.3033 Y135.6823
G01 X66.2789 Y135.7699
G01 X66.2491 Y135.8558
G01 X66.2142 Y135.9398
G01 X66.1741 Y136.0215
G01 X66.1291 Y136.1005
G01 X66.0794 Y136.1767
G01 X66.0251 Y136.2496
G01 X65.9664 Y136.3191
G01 X65.9036 Y136.3849
G01 X65.8368 Y136.4467
G01 X65.7664 Y136.5042
G01 X65.6926 Y136.5574
G01 X65.7798 Y136.7396
G01 X66.8804 Y138.2396
G01 X77.5730
G01 X74.6741 Y139.7396
G01 X68.4773
G00 Z5.0000
G00 X82.7442 Y135.2396
G00 Z0.5000
G01 Z-1.0000 F400
G01 Y136.7396 F1000
G01 X89.4039
G01 X89.1258
G01 Y138.2396
G01 X82.2328
G01 X81.6102 Y139.7396
G01 X89.5839
G01 X89.9517 Y141.2396
G01 X81.2497
G01 X81.1289 Y142.7396
G01 X90.1884
G01 X90.2822 Y144.2396
G01 X81.1270
G01 X81.2495 Y145.7396
G01 X90.1877
G01 X89.8522 Y147.2396
G01 X81.7192
G01 X82.4977 Y148.7396
G01 X89.1368
G01 X87.3235 Y150.2396
G01 X84.2163
G00 Z5.0000
G00 X89.0232 Y135.2396
G00 Z0.5000
G01 Z-1.0000 F400
G01 Y133.7396 F1000
G01 X97.3705
G01 X94.8160
G01 Y132.2396
G01 X90.1516
G01 X90.5721 Y130.7396
G01 X95.2789
G01 Y129.2396
G01 X90.3448
G01 X101.3730
G01 X102.8673 Y127.7396
G01 X89.4475
G01 X89.2618 Y127.8326
G01 X89.4416 Y128.0355
G01 X89.6073 Y128.2500
G01 X89.7584 Y128.4751
G01 X89.8941 Y128.7098
G01 X90.0138 Y128.9531
G01 X90.1170 Y129.2038
G01 X90.2031 Y129.4608
G01 X90.2720 Y129.7230
G01 X90.3231 Y129.9893
G01 X90.3563 Y130.2583
G01 X90.3715 Y130.5290
G01 X90.3685 Y130.8001
G01 X90.3175 Y131.0977
G01 X90.2473 Y131.3913
G01 X90.1579 Y131.6797
G01 X90.0499 Y131.9617
G01 X89.9237 Y132.2360
G01 X89.7799 Y132.5014
G01 X89.6190 Y132.7569
G01 X89.4417 Y133.0013
G01 X89.2489 Y133.2336
G01 X89.0412 Y133.4528
G01 X88.8197 Y133.6580
G01 X88.5852 Y133.8482
G01 X88.3187 Y134.0530
G01 X88.0332 Y134.2303
G01 X87.7314 Y134.3783
G01 X87.4165 Y134.4956
G01 X87.0914 Y134.5810
G01 X86.7594 Y134.6337
G01 X86.4239 Y134.6532
G01 X86.0881 Y134.6392
G01 X85.7752 Y134.5870
G01 X85.4667 Y134.5133
G01 X85.1639 Y134.4184
G01 X84.8685 Y134.3029
G01 X84.5817 Y134.1673
G01 X84.3050 Y134.0121
G01 X84.0397 Y133.8383
G01 X83.7870 Y133.6465
G01 X83.5481 Y133.4378
G01 X83.3242 Y133.2131
G01 X83.1164 Y132.9734
G01 X82.9256 Y132.7200
G01 X82.7528 Y132.4540
G01 X82.5987 Y132.1767
G01 X82.4642 Y131.8894
G01 X82.3498 Y131.5935
G01 X82.2669 Y131.2270
G01 X82.2187 Y130.8543
G01 X82.2057 Y130.4788
G01 X82.2279 Y130.1037
G01 X82.2852 Y129.7323
G01 X82.3770 Y129.3679
G01 X82.5026 Y129.0138
G01 X82.6609 Y128.6729
G01 X82.8504 Y128.3484
G01 X83.0695 Y128.0432
G01 X83.3162 Y127.7597
G01 X83.5884 Y127.5007
G01 X83.8837 Y127.2683
G01 X84.1995 Y127.0646
G01 X84.5330 Y126.8915
G01 X84.8812 Y126.7503
G01 X85.1653 Y126.6533
G01 X85.4559 Y126.5781
G01 X85.7515 Y126.5253
G01 X86.0501 Y126.4951
G01 X86.3502 Y126.4878
G01 X86.6500 Y126.5033
G01 X86.9478 Y126.5416
G01 X87.2417 Y126.6025
G01 X87.5302 Y126.6855
G01 X87.8115 Y126.7903
G01 X88.0841 Y126.9162
G01 X88.3462 Y127.0624
G01 X88.5965 Y127.2282
G01 X88.8334 Y127.4125
G01 X89.0556 Y127.6144
G01 X89.2618 Y127.8326
G01 X89.4475 Y127.7396
G01 X93.8613 Y126.2396
G01 X103.1283
G01 X102.4609 Y124.7396
G01 X96.1601
G00 Z5.0000
G00 X99.2019 Y141.2396
G00 Z0.5000
G01 Z-1.0000 F400
G01 Y142.7396 F1000
G01 X101.8307
G01 X101.9105 Y142.9279
G01 X102.0078 Y142.9003
G01 X102.1061 Y142.8768
G01 X102.2053 Y142.8574
G01 X102.3052 Y142.8422
G01 X102.4057 Y142.8312
G01 X102.5066 Y142.8245
G01 X102.6076 Y142.8219
G01 X102.7087 Y142.8237
G01 X102.8096 Y142.8296
G01 X102.9101 Y142.8398
G01 X103.0102 Y142.8542
G01 X103.1095 Y142.8728
G01 X103.2017 Y142.9072
G01 X103.2907 Y142.9495
G01 X103.3756 Y142.9992
G01 X103.4560 Y143.0560
G01 X103.5313 Y143.1195
G01 X103.6008 Y143.1892
G01 X103.6641 Y143.2646
G01 X103.7207 Y143.3451
G01 X103.7702 Y143.4302
G01 X103.8123 Y143.5192
G01 X103.8465 Y143.6115
G01 X103.8728 Y143.7064
G01 X103.8908 Y143.8032
G01 X103.9004 Y143.9011
G01 X103.9016 Y143.9996
G01 X103.8944 Y144.0978
G01 X103.8788 Y144.1950
G01 X103.8550 Y144.2905
G01 X103.8230 Y144.3836
G01 X103.7832 Y144.4736
G01 X103.5890 Y144.8035
G01 X103.3784 Y145.1232
G01 X103.1519 Y145.4319
G01 X102.9101 Y145.7287
G01 X102.2087 Y146.6061
G01 X101.4920 Y147.4711
G01 X100.7604 Y148.3235
G01 X100.0140 Y149.1629
G01 X99.2529 Y149.9891
G01 X98.4776 Y150.8019
G01 X97.6881 Y151.6010
G01 X96.8848 Y152.3862
G01 X96.0679 Y153.1572
G01 X95.2376 Y153.9137
G01 X94.3942 Y154.6557
G01 X93.5380 Y155.3828
G01 X92.8083 Y155.9790
G01 X92.0651 Y156.5583
G01 X91.3089 Y157.1205
G01 X90.5400 Y157.6652
G01 X89.7588 Y158.1921
G01 X88.9657 Y158.7011
G01 X88.1612 Y159.1917
G01 X87.3457 Y159.6638
G01 X86.5196 Y160.1171
G01 X85.6834 Y160.5514
G01 X84.8374 Y160.9664
G01 X83.9821 Y161.3619
G01 X82.9842 Y161.7740
G01 X81.9743 Y162.1557
G01 X80.9532 Y162.5064
G01 X79.9220 Y162.8260
G01 X78.8815 Y163.1141
G01 X77.8327 Y163.3704
G01 X76.7767 Y163.5946
G01 X75.7143 Y163.7867
G01 X75.0381 Y163.9206
G01 X74.3589 Y164.0385
G01 X73.6771 Y164.1404
G01 X72.9931 Y164.2261
G01 X71.8310 Y164.2863
G01 X70.6681 Y164.3282
G01 X69.5047 Y164.3517
G01 X68.3410 Y164.3568
G01 X67.1775 Y164.3436
G01 X66.0142 Y164.3119
G01 X64.8517 Y164.2618
G01 X63.6900 Y164.1933
G01 X62.7877 Y164.0578
G01 X61.8881 Y163.9059
G01 X60.9914 Y163.7375
G01 X60.0979 Y163.5527
G01 X59.5460 Y163.4383
G01 X58.9969 Y163.3109
G01 X58.4510 Y163.1707
G01 X57.9085 Y163.0176
G01 X57.8190 Y162.9878
G01 X57.7324 Y162.9506
G01 X57.6492 Y162.9062
G01 X57.5701 Y162.8550
G01 X57.4955 Y162.7973
G01 X57.4261 Y162.7335
G01 X57.3622 Y162.6641
G01 X57.3044 Y162.5896
G01 X57.2531 Y162.5106
G01 X57.2086 Y162.4274
G01 X57.1713 Y162.3409
G01 X57.1414 Y162.2514
G01 X57.1191 Y162.1598
G01 X57.1045 Y162.0667
G01 X57.0979 Y161.9726
G01 X57.0992 Y161.8784
G01 X57.1144 Y161.7709
G01 X57.1384 Y161.6650
G01 X57.1711 Y161.5614
G01 X57.2122 Y161.4609
G01 X57.2615 Y161.3641
G01 X57.3185 Y161.2718
G01 X57.3830 Y161.1844
G01 X57.4545 Y161.1026
G01 X57.5324 Y161.0270
G01 X57.6163 Y160.9581
G01 X57.7056 Y160.8964
G01 X57.7997 Y160.8422
G01 X58.0605 Y160.6977
G01 X58.3167 Y160.5454
G01 X58.5682 Y160.3854
G01 X58.8147 Y160.2178
G01 X59.0509 Y160.0173
G01 X59.2722 Y159.8004
G01 X59.4773 Y159.5682
G01 X59.6651 Y159.3218
G01 X59.8349 Y159.0626
G01 X59.9856 Y158.7919
G01 X60.1164 Y158.5110
G01 X60.2268 Y158.2215
G01 X60.3161 Y157.9248
G01 X60.3839 Y157.6225
G01 X60.4298 Y157.3161
G01 X60.4537 Y157.0072
G01 X60.4905 Y156.6149
G01 X60.5152 Y156.2218
G01 X60.5277 Y155.8280
G01 X60.5280 Y155.4341
G01 X60.5161 Y155.0403
G01 X60.4921 Y154.6471
G01 X60.4558 Y154.2548
G01 X60.4074 Y153.8639
G01 X60.3238 Y153.5294
G01 X60.2293 Y153.1979
G01 X60.1240 Y152.8696
G01 X60.0079 Y152.5450
G01 X59.8812 Y152.2244
G01 X59.7440 Y151.9081
G01 X59.5966 Y151.5965
G01 X59.4389 Y151.2899
G01 X59.3637 Y151.2100
G01 X59.2937 Y151.1255
G01 X59.2294 Y151.0366
G01 X59.1709 Y150.9437
G01 X59.1185 Y150.8472
G01 X59.0725 Y150.7476
G01 X59.0331 Y150.6452
G01 X59.0003 Y150.5404
G01 X58.9744 Y150.4338
G01 X58.9554 Y150.3257
G01 X58.9435 Y150.2166
G01 X58.9386 Y150.1070
G01 X58.9408 Y149.9972
G01 X58.9501 Y149.8879
G01 X58.9665 Y149.7794
G01 X58.9898 Y149.6721
G01 X59.0200 Y149.5666
G01 X59.0570 Y149.4633
G01 X59.1005 Y149.3626
G01 X59.1505 Y149.2649
G01 X59.2036 Y149.1990
G01 X59.2614 Y149.1374
G01 X59.3236 Y149.0802
G01 X59.3900 Y149.0278
G01 X59.4601 Y148.9805
G01 X59.5335 Y148.9386
G01 X59.6098 Y148.9022
G01 X59.6886 Y148.8717
G01 X59.7695 Y148.8472
G01 X59.8520 Y148.8287
G01 X59.9357 Y148.8165
G01 X60.0200 Y148.8105
G01 X60.1045 Y148.8109
G01 X60.1888 Y148.8175
G01 X60.2723 Y148.8304
G01 X60.3547 Y148.8496
G01 X60.4354 Y148.8748
G01 X60.5139 Y148.9060
G01 X60.5900 Y148.9429
G01 X60.6630 Y148.9854
G01 X61.1554 Y149.2608
G01 X61.6350 Y149.5578
G01 X62.1008 Y149.8759
G01 X62.5520 Y150.2145
G01 X62.8790 Y150.3902
G01 X63.2112 Y150.5559
G01 X63.5484 Y150.7112
G01 X63.8902 Y150.8561
G01 X64.2363 Y150.9904
G01 X64.5863 Y151.1140
G01 X64.9400 Y151.2268
G01 X65.2970 Y151.3286
G01 X65.7881 Y151.4488
G01 X66.2858 Y151.5376
G01 X66.7881 Y151.5947
G01 X67.2931 Y151.6199
G01 X67.7986 Y151.6131
G01 X68.3027 Y151.5743
G01 X68.8033 Y151.5036
G01 X69.2985 Y151.4014
G01 X69.5833 Y151.2918
G01 X69.8556 Y151.1540
G01 X70.1126 Y150.9893
G01 X70.3515 Y150.7994
G01 X70.5700 Y150.5863
G01 X70.7658 Y150.3522
G01 X70.9369 Y150.0995
G01 X71.0814 Y149.8307
G01 X71.1981 Y149.5487
G01 X71.2855 Y149.2563
G01 X71.3429 Y148.9565
G01 X71.3696 Y148.6525
G01 X71.3655 Y148.3473
G01 X71.3304 Y148.0442
G01 X71.2648 Y147.7461
G01 X71.1693 Y147.4562
G01 X71.1038 Y147.3215
G01 X71.0315 Y147.1902
G01 X70.9526 Y147.0628
G01 X70.8673 Y146.9396
G01 X70.7759 Y146.8210
G01 X70.6785 Y146.7071
G01 X70.5754 Y146.5983
G01 X70.4669 Y146.4950
G01 X70.3533 Y146.3973
G01 X70.2349 Y146.3055
G01 X70.1119 Y146.2199
G01 X69.9847 Y146.1407
G01 X69.5311 Y145.8600
G01 X69.0592 Y145.6113
G01 X68.5713 Y145.3958
G01 X68.0697 Y145.2145
G01 X67.5568 Y145.0682
G01 X67.0349 Y144.9577
G01 X66.5068 Y144.8834
G01 X65.9747 Y144.8458
G01 X65.1942 Y144.8197
G01 X64.4133 Y144.8132
G01 X63.6326 Y144.8263
G01 X62.8523 Y144.8590
G01 X62.6087 Y144.8620
G01 X62.3650 Y144.8613
G01 X62.1214 Y144.8568
G01 X61.8779 Y144.8485
G01 X61.7980 Y144.8486
G01 X61.7183 Y144.8431
G01 X61.6393 Y144.8318
G01 X61.5612 Y144.8148
G01 X61.4846 Y144.7923
G01 X61.4098 Y144.7644
G01 X61.3372 Y144.7311
G01 X61.2672 Y144.6927
G01 X61.2001 Y144.6494
G01 X61.1363 Y144.6013
G01 X61.0762 Y144.5488
G01 X61.0199 Y144.4921
G01 X60.9679 Y144.4316
G01 X60.9204 Y144.3674
G01 X60.8776 Y144.3000
G01 X60.8398 Y144.2296
G01 X60.8119 Y144.1567
G01 X60.7891 Y144.0821
G01 X60.7715 Y144.0061
G01 X60.7591 Y143.9290
G01 X60.7521 Y143.8513
G01 X60.7504 Y143.7733
G01 X60.7541 Y143.6953
G01 X60.7632 Y143.6178
G01 X60.7776 Y143.5411
G01 X60.7972 Y143.4656
G01 X60.8219 Y143.3916
G01 X60.8517 Y143.3195
G01 X60.8864 Y143.2496
G01 X60.9258 Y143.1822
G01 X60.9698 Y143.1177
G01 X61.0180 Y143.0564
G01 X61.0951 Y142.9493
G01 X61.1774 Y142.8461
G01 X61.2646 Y142.7471
G01 X61.3567 Y142.6526
G01 X61.4533 Y142.5626
G01 X61.5542 Y142.4776
G01 X61.6592 Y142.3976
G01 X61.7680 Y142.3230
G01 X61.8803 Y142.2537
G01 X61.9960 Y142.1901
G01 X62.1146 Y142.1323
G01 X62.2359 Y142.0804
G01 X62.5758 Y141.8435
G01 X62.8997 Y141.5850
G01 X63.2062 Y141.3062
G01 X63.4940 Y141.0081
G01 X63.7619 Y140.6920
G01 X64.0088 Y140.3593
G01 X64.2336 Y140.0112
G01 X64.4355 Y139.6494
G01 X64.4845 Y139.5034
G01 X64.5321 Y139.3570
G01 X64.5785 Y139.2101
G01 X64.6235 Y139.0628
G01 X64.6583 Y138.9584
G01 X64.7012 Y138.8571
G01 X64.7521 Y138.7595
G01 X64.8106 Y138.6663
G01 X64.8763 Y138.5780
G01 X64.9489 Y138.4952
G01 X65.0277 Y138.4185
G01 X65.1124 Y138.3482
G01 X65.2025 Y138.2849
G01 X65.2972 Y138.2289
G01 X65.3961 Y138.1807
G01 X65.4986 Y138.1405
G01 X65.5873 Y138.1144
G01 X65.6776 Y138.0947
G01 X65.7690 Y138.0814
G01 X65.8612 Y138.0747
G01 X65.9536 Y138.0744
G01 X66.0458 Y138.0806
G01 X66.1374 Y138.0934
G01 X66.2278 Y138.1125
G01 X66.3166 Y138.1380
G01 X66.4035 Y138.1697
G01 X66.4878 Y138.2074
G01 X66.5693 Y138.2510
G01 X66.6475 Y138.3003
G01 X66.7221 Y138.3549
G01 X66.7926 Y138.4147
G01 X66.8587 Y138.4793
G01 X67.0579 Y138.6896
G01 X67.2514 Y138.9052
G01 X67.4391 Y139.1258
G01 X67.6209 Y139.3514
G01 X67.7997 Y139.5061
G01 X67.9857 Y139.6519
G01 X68.1786 Y139.7885
G01 X68.3779 Y139.9156
G01 X68.5831 Y140.0329
G01 X68.7938 Y140.1402
G01 X69.0094 Y140.2371
G01 X69.2294 Y140.3235
G01 X69.3456 Y140.3810
G01 X69.4645 Y140.4325
G01 X69.5858 Y140.4780
G01 X69.7093 Y140.5173
G01 X69.8346 Y140.5504
G01 X69.9614 Y140.5771
G01 X70.0894 Y140.5974
G01 X70.2183 Y140.6112
G01 X70.3477 Y140.6185
G01 X70.4773 Y140.6193
G01 X70.6068 Y140.6136
G01 X70.7358 Y140.6014
G01 X71.2659 Y140.5908
G01 X71.7951 Y140.5571
G01 X72.3223 Y140.5001
G01 X72.8465 Y140.4201
G01 X73.3667 Y140.3172
G01 X73.8819 Y140.1915
G01 X74.3911 Y140.0434
G01 X74.8932 Y139.8731
G01 X75.3875 Y139.6809
G01 X75.8728 Y139.4673
G01 X76.3483 Y139.2325
G01 X76.8130 Y138.9772
G01 X77.2661 Y138.7016
G01 X77.7066 Y138.4065
G01 X78.1338 Y138.0924
G01 X78.5468 Y137.7598
G01 X79.0285 Y137.3435
G01 X79.5070 Y136.9236
G01 X79.9825 Y136.5002
G01 X80.4548 Y136.0733
G01 X80.5205 Y136.0101
G01 X80.5896 Y135.9507
G01 X80.6618 Y135.8953
G01 X80.7371 Y135.8439
G01 X80.8151 Y135.7968
G01 X80.8956 Y135.7541
G01 X80.9783 Y135.7159
G01 X81.0631 Y135.6825
G01 X81.1495 Y135.6537
G01 X81.2375 Y135.6298
G01 X81.3266 Y135.6109
G01 X81.4166 Y135.5969
G01 X81.5056 Y135.5966
G01 X81.5944 Y135.6036
G01 X81.6822 Y135.6177
G01 X81.7686 Y135.6390
G01 X81.8530 Y135.6673
G01 X81.9348 Y135.7024
G01 X82.0134 Y135.7440
G01 X82.0884 Y135.7919
G01 X82.1593 Y135.8458
G01 X82.2255 Y135.9052
G01 X82.2866 Y135.9699
G01 X82.3423 Y136.0393
G01 X82.3921 Y136.1131
G01 X82.4357 Y136.1907
G01 X82.4729 Y136.2715
G01 X82.5033 Y136.3552
G01 X82.5268 Y136.4410
G01 X82.5432 Y136.5285
G01 X82.5525 Y136.6170
G01 X82.5544 Y136.7059
G01 X82.5491 Y136.7948
G01 X82.5366 Y136.8829
G01 X82.5170 Y136.9697
G01 X82.4903 Y137.0546
G01 X82.2915 Y137.5698
G01 X82.0831 Y138.0812
G01 X81.8652 Y138.5886
G01 X81.6377 Y139.0918
G01 X81.4589 Y139.5757
G01 X81.3049 Y140.0681
G01 X81.1762 Y140.5678
G01 X81.0732 Y141.0733
G01 X80.9960 Y141.5834
G01 X80.9449 Y142.0968
G01 X80.9200 Y142.6121
G01 X80.9215 Y143.1280
G01 X80.9090 Y143.8383
G01 X80.9330 Y144.5483
G01 X80.9933 Y145.2561
G01 X81.0897 Y145.9600
G01 X81.2779 Y146.6002
G01 X81.5006 Y147.2292
G01 X81.7571 Y147.8452
G01 X82.0468 Y148.4464
G01 X82.2520 Y148.7447
G01 X82.4748 Y149.0302
G01 X82.7143 Y149.3019
G01 X82.9696 Y149.5587
G01 X83.2398 Y149.7998
G01 X83.5241 Y150.0242
G01 X83.8212 Y150.2313
G01 X84.1302 Y150.4201
G01 X84.4225 Y150.5324
G01 X84.7225 Y150.6225
G01 X85.0283 Y150.6898
G01 X85.3384 Y150.7340
G01 X85.6508 Y150.7548
G01 X85.9640 Y150.7520
G01 X86.2761 Y150.7258
G01 X86.5853 Y150.6761
G01 X86.8899 Y150.6035
G01 X87.1882 Y150.5081
G01 X87.4785 Y150.3906
G01 X87.7592 Y150.2517
G01 X88.0286 Y150.0921
G01 X88.2853 Y149.9127
G01 X88.5278 Y149.7145
G01 X88.7548 Y149.4987
G01 X89.0302 Y149.1881
G01 X89.2823 Y148.8581
G01 X89.5095 Y148.5106
G01 X89.7108 Y148.1474
G01 X89.8849 Y147.7705
G01 X90.0311 Y147.3819
G01 X90.1485 Y146.9837
G01 X90.2365 Y146.5779
G01 X90.3422 Y145.9813
G01 X90.4184 Y145.3803
G01 X90.4650 Y144.7762
G01 X90.4819 Y144.1706
G01 X90.4690 Y143.5649
G01 X90.4263 Y142.9605
G01 X90.3539 Y142.3590
G01 X90.2521 Y141.7618
G01 X90.0852 Y140.9107
G01 X89.8828 Y140.0674
G01 X89.6451 Y139.2334
G01 X89.3726 Y138.4101
G01 X89.3315 Y138.2838
G01 X89.2992 Y138.1550
G01 X89.2758 Y138.0243
G01 X89.2616 Y137.8922
G01 X89.2564 Y137.7595
G01 X89.2604 Y137.6268
G01 X89.2735 Y137.4946
G01 X89.2956 Y137.3637
G01 X89.3179 Y137.2770
G01 X89.3474 Y137.1926
G01 X89.3841 Y137.1110
G01 X89.4277 Y137.0329
G01 X89.4778 Y136.9587
G01 X89.5340 Y136.8892
G01 X89.5960 Y136.8247
G01 X89.6633 Y136.7657
G01 X89.7354 Y136.7128
G01 X89.8118 Y136.6662
G01 X89.8919 Y136.6263
G01 X89.9751 Y136.5935
G01 X90.0608 Y136.5678
G01 X90.1484 Y136.5497
G01 X90.2373 Y136.5391
G01 X90.3267 Y136.5361
G01 X90.4160 Y136.5409
G01 X90.5046 Y136.5532
G01 X90.5918 Y136.5731
G01 X90.6770 Y136.6004
G01 X90.7596 Y136.6349
G01 X90.8389 Y136.6764
G01 X90.9143 Y136.7245
G01 X90.9853 Y136.7789
G01 X91.3731 Y137.1468
G01 X91.7424 Y137.5333
G01 X92.0922 Y137.9375
G01 X92.4218 Y138.3584
G01 X92.6829 Y138.7077
G01 X92.9571 Y139.0469
G01 X93.2438 Y139.3754
G01 X93.5428 Y139.6929
G01 X93.8536 Y139.9988
G01 X94.1757 Y140.2928
G01 X94.5087 Y140.5744
G01 X94.8521 Y140.8432
G01 X95.3168 Y141.1433
G01 X95.7903 Y141.4292
G01 X96.2722 Y141.7007
G01 X96.7622 Y141.9574
G01 X97.2598 Y142.1991
G01 X97.7644 Y142.4256
G01 X98.2757 Y142.6367
G01 X98.7931 Y142.8322
G01 X99.1738 Y142.9355
G01 X99.5606 Y143.0132
G01 X99.9517 Y143.0647
G01 X100.3454 Y143.0900
G01 X100.7399 Y143.0889
G01 X101.1334 Y143.0614
G01 X101.5242 Y143.0077
G01 X101.9105 Y142.9279
G01 X101.8307 Y142.7396
G00 Z5.0000
G00 X124.9085 Y165.2396
G00 Z0.5000
G01 Z-1.0000 F400
G01 Y166.7396 F1000
G01 X169.6455
G01 X166.6829 Y168.2396
G01 X127.9932
G01 X132.0030 Y169.7396
G01 X162.8995
G01 X157.5284
G01 Y171.2396
G01 X137.7636
G00 Z5.0000
G00 X166.9068 Y160.7396
G00 Z0.5000
G01 Z-1.0000 F400
G01 Y159.2396 F1000
G01 X164.7343
G01 X166.3535 Y157.7396
G01 X160.7601
G01 X159.0164 Y156.2396
G01 X166.9476
G01 X167.2097 Y154.7396
G01 X157.8701
G01 X157.0158 Y153.2396
G01 X167.2137
G01 X167.1404 Y151.7396
G01 X156.3594
G01 X155.8580 Y150.2396
G01 X166.8173
G01 X166.2707 Y148.7396
G01 X155.4889
G01 X155.2400 Y147.2396
G01 X165.5766
G01 X164.6675 Y145.7396
G01 X155.1043
G01 X155.0726 Y144.2396
G01 X163.6153
G01 X162.3831 Y142.7396
G01 X155.0001
G00 Z5.0000
G00 X139.4933 Y121.7396
G00 Z0.5000
G01 Z-1.0000 F400
G01 Y120.2396 F1000
G01 X134.0481
G00 Z5.0000
G00 X84.1270 Y76.7396
G00 Z0.5000
G01 Z-1.0000 F400
G01 Y75.2396 F1000
G01 X85.0515
G01 X85.4665 Y73.7396
G01 X84.5964
G01 X85.1690 Y72.2396
G01 X86.1005
G01 X85.9543 Y70.7396
G01 X87.0601
G01 X86.9775 Y69.2396
G01 X88.3442
G01 X88.3011 Y67.7396
G01 X90.0617
G01 X90.1641 Y66.2396
G01 X92.6748
G01 X93.8285 Y64.7396
G01 X97.9405
G01 X99.5243 Y66.2396
G01 X99.4434 Y66.4229
G01 X99.8026 Y66.5640
G01 X100.1539 Y66.7239
G01 X100.4962 Y66.9021
G01 X100.8287 Y67.0981
G01 X101.1504 Y67.3113
G01 X101.4604 Y67.5412
G01 X101.7579 Y67.7871
G01 X102.0420 Y68.0483
G01 X102.3119 Y68.3242
G01 X102.5670 Y68.6139
G01 X102.8063 Y68.9166
G01 X103.0294 Y69.2315
G01 X103.3216 Y69.6616
G01 X103.5831 Y70.1111
G01 X103.8125 Y70.5776
G01 X104.0089 Y71.0591
G01 X104.1713 Y71.5530
G01 X104.2987 Y72.0571
G01 X104.3908 Y72.5688
G01 X104.4469 Y73.0857
G01 X104.4669 Y73.6053
G01 X104.4505 Y74.1250
G01 X104.3980 Y74.6423
G01 X104.3095 Y75.1547
G01 X104.2250 Y75.4853
G01 X104.1212 Y75.8104
G01 X103.9986 Y76.1289
G01 X103.8574 Y76.4396
G01 X103.6983 Y76.7415
G01 X103.5218 Y77.0336
G01 X103.3284 Y77.3147
G01 X103.1188 Y77.5841
G01 X102.8938 Y77.8407
G01 X102.6541 Y78.0837
G01 X102.4006 Y78.3121
G01 X102.1342 Y78.5253
G01 X101.8531 Y78.7483
G01 X101.5560 Y78.9494
G01 X101.2445 Y79.1274
G01 X100.9205 Y79.2814
G01 X100.8362 Y79.3152
G01 X100.7498 Y79.3433
G01 X100.6618 Y79.3656
G01 X100.5725 Y79.3819
G01 X100.4822 Y79.3923
G01 X100.3915 Y79.3965
G01 X100.3007 Y79.3947
G01 X100.2102 Y79.3868
G01 X100.1205 Y79.3729
G01 X100.0319 Y79.3531
G01 X99.9448 Y79.3273
G01 X99.8596 Y79.2958
G01 X99.7767 Y79.2586
G01 X99.6965 Y79.2160
G01 X99.6194 Y79.1682
G01 X99.5456 Y79.1153
G01 X99.4795 Y79.0513
G01 X99.4186 Y78.9824
G01 X99.3632 Y78.9089
G01 X99.3138 Y78.8314
G01 X99.2705 Y78.7503
G01 X99.2337 Y78.6660
G01 X99.2036 Y78.5791
G01 X99.1803 Y78.4901
G01 X99.1640 Y78.3996
G01 X99.1548 Y78.3081
G01 X99.1528 Y78.2162
G01 X99.1580 Y78.1243
G01 X99.1703 Y78.0332
G01 X99.1896 Y77.9433
G01 X99.2159 Y77.8552
G01 X99.2490 Y77.7694
G01 X99.3688 Y77.4893
G01 X99.4821 Y77.2066
G01 X99.5889 Y76.9213
G01 X99.6891 Y76.6337
G01 X99.6792 Y76.5303
G01 X99.6643 Y76.4276
G01 X99.6445 Y76.3257
G01 X99.6197 Y76.2249
G01 X99.5900 Y76.1254
G01 X99.5555 Y76.0275
G01 X99.5164 Y75.9314
G01 X99.4725 Y75.8373
G01 X99.4242 Y75.7454
G01 X99.3714 Y75.6560
G01 X99.3144 Y75.5693
G01 X99.2532 Y75.4854
G01 X99.1724 Y75.3930
G01 X99.0867 Y75.3052
G01 X98.9962 Y75.2222
G01 X98.9014 Y75.1442
G01 X98.8024 Y75.0716
G01 X98.6997 Y75.0045
G01 X98.5934 Y74.9431
G01 X98.4838 Y74.8877
G01 X98.3715 Y74.8383
G01 X98.2566 Y74.7951
G01 X98.1395 Y74.7583
G01 X98.0205 Y74.7280
G01 X97.9001 Y74.7042
G01 X97.7785 Y74.6870
G01 X97.6562 Y74.6766
G01 X97.5335 Y74.6728
G01 X97.4108 Y74.6758
G01 X97.2885 Y74.6854
G01 X97.1668 Y74.7018
G01 X97.0462 Y74.7248
G01 X96.9024 Y74.7514
G01 X96.7602 Y74.7855
G01 X96.6199 Y74.8271
G01 X96.4821 Y74.8760
G01 X96.3470 Y74.9321
G01 X96.2151 Y74.9953
G01 X96.0867 Y75.0653
G01 X95.9622 Y75.1421
G01 X95.8419 Y75.2252
G01 X95.7261 Y75.3147
G01 X95.6153 Y75.4101
G01 X95.5096 Y75.5112
G01 X95.4094 Y75.6177
G01 X95.3150 Y75.7294
G01 X95.2265 Y75.8459
G01 X95.1444 Y75.9670
G01 X95.0688 Y76.0922
G01 X94.9998 Y76.2212
G01 X94.9378 Y76.3536
G01 X94.8829 Y76.4892
G01 X94.8351 Y76.6274
G01 X94.7948 Y76.7680
G01 X94.7619 Y76.9105
G01 X94.7366 Y77.0546
G01 X94.7189 Y77.1998
G01 X94.7089 Y77.3457
G01 X94.7066 Y77.4920
G01 X94.7120 Y77.6381
G01 X94.7252 Y77.7838
G01 X94.7460 Y77.9286
G01 X94.7744 Y78.0720
G01 X94.8103 Y78.2138
G01 X94.8866 Y78.4578
G01 X94.9798 Y78.6959
G01 X95.0896 Y78.9267
G01 X95.2154 Y79.1493
G01 X95.3565 Y79.3624
G01 X95.5123 Y79.5650
G01 X95.6821 Y79.7562
G01 X95.8648 Y79.9349
G01 X96.0597 Y80.1003
G01 X96.2658 Y80.2516
G01 X96.4820 Y80.3879
G01 X96.7074 Y80.5087
G01 X96.9576 Y80.6489
G01 X97.2177 Y80.7697
G01 X97.4862 Y80.8705
G01 X97.7616 Y80.9507
G01 X98.0422 Y81.0098
G01 X98.3265 Y81.0475
G01 X98.6129 Y81.0636
G01 X98.8996 Y81.0579
G01 X99.3449 Y81.0675
G01 X99.7898 Y81.0461
G01 X100.2321 Y80.9937
G01 X100.6696 Y80.9106
G01 X101.0062 Y80.7770
G01 X101.3353 Y80.6258
G01 X101.6560 Y80.4575
G01 X101.9674 Y80.2725
G01 X102.3006 Y80.0307
G01 X102.6251 Y79.7774
G01 X102.9405 Y79.5129
G01 X103.2465 Y79.2375
G01 X103.5426 Y78.9516
G01 X103.8286 Y78.6554
G01 X104.1040 Y78.3494
G01 X104.3685 Y78.0340
G01 X104.5347 Y77.7077
G01 X104.6885 Y77.3754
G01 X104.8298 Y77.0375
G01 X104.9583 Y76.6946
G01 X105.0738 Y76.3472
G01 X105.1763 Y75.9956
G01 X105.2654 Y75.6404
G01 X105.3412 Y75.2822
G01 X105.4525 Y74.7601
G01 X105.5333 Y74.2324
G01 X105.5833 Y73.7009
G01 X105.6024 Y73.1675
G01 X105.5903 Y72.6338
G01 X105.5473 Y72.1017
G01 X105.4735 Y71.5730
G01 X105.3691 Y71.0495
G01 X105.2344 Y70.5330
G01 X105.0699 Y70.0251
G01 X104.8762 Y69.5277
G01 X104.6539 Y69.0423
G01 X104.6055 Y68.9396
G01 X104.5615 Y68.8348
G01 X104.5221 Y68.7283
G01 X104.4872 Y68.6202
G01 X104.4569 Y68.5107
G01 X104.4313 Y68.4001
G01 X104.4104 Y68.2884
G01 X104.3943 Y68.1760
G01 X104.3830 Y68.0629
G01 X104.3765 Y67.9495
G01 X104.3749 Y67.8359
G01 X104.3781 Y67.7224
G01 X104.3935 Y67.6185
G01 X104.4175 Y67.5162
G01 X104.4498 Y67.4162
G01 X104.4903 Y67.3192
G01 X104.5386 Y67.2259
G01 X104.5945 Y67.1369
G01 X104.6574 Y67.0528
G01 X104.7272 Y66.9741
G01 X104.8031 Y66.9015
G01 X104.8848 Y66.8354
G01 X104.9716 Y66.7763
G01 X105.0631 Y66.7245
G01 X105.1585 Y66.6804
G01 X105.2572 Y66.6444
G01 X105.3585 Y66.6166
G01 X105.4618 Y66.5972
G01 X105.5663 Y66.5865
G01 X105.6714 Y66.5844
G01 X105.7762 Y66.5909
G01 X105.8802 Y66.6061
G01 X106.0821 Y66.6462
G01 X106.2829 Y66.6913
G01 X106.4826 Y66.7412
G01 X106.6810 Y66.7959
G01 X106.9494 Y66.8054
G01 X107.2181 Y66.8025
G01 X107.4862 Y66.7871
G01 X107.7534 Y66.7593
G01 X108.0191 Y66.7192
G01 X108.2825 Y66.6669
G01 X108.5433 Y66.6024
G01 X108.8008 Y66.5259
G01 X109.3714 Y66.3357
G01 X109.9329 Y66.1203
G01 X110.4843 Y65.8803
G01 X111.0245 Y65.6160
G01 X111.1524 Y65.5520
G01 X111.2839 Y65.4958
G01 X111.4185 Y65.4475
G01 X111.5558 Y65.4074
G01 X111.6952 Y65.3755
G01 X111.8362 Y65.3519
G01 X111.9784 Y65.3368
G01 X112.1212 Y65.3301
G01 X112.2160 Y65.3431
G01 X112.3093 Y65.3641
G01 X112.4006 Y65.3929
G01 X112.4890 Y65.4293
G01 X112.5740 Y65.4731
G01 X112.6551 Y65.5240
G01 X112.7315 Y65.5815
G01 X112.8027 Y65.6453
G01 X112.8683 Y65.7149
G01 X112.9278 Y65.7899
G01 X112.9807 Y65.8696
G01 X113.0266 Y65.9535
G01 X113.0653 Y66.0410
G01 X113.0964 Y66.1314
G01 X113.1197 Y66.2242
G01 X113.1351 Y66.3186
G01 X113.1374 Y66.4395
G01 X113.1319 Y66.5602
G01 X113.1185 Y66.6803
G01 X113.0973 Y66.7993
G01 X113.0683 Y66.9167
G01 X113.0318 Y67.0319
G01 X112.9879 Y67.1445
G01 X112.9367 Y67.2540
G01 X112.8784 Y67.3600
G01 X112.8134 Y67.4619
G01 X112.7419 Y67.5593
G01 X112.6642 Y67.6519
G01 X112.4473 Y67.9173
G01 X112.2401 Y68.1904
G01 X112.0430 Y68.4709
G01 X111.8562 Y68.7584
G01 X111.6799 Y69.0524
G01 X111.5145 Y69.3526
G01 X111.3601 Y69.6587
G01 X111.2169 Y69.9702
G01 X111.0883 Y70.2519
G01 X110.9752 Y70.5403
G01 X110.8781 Y70.8344
G01 X110.7972 Y71.1333
G01 X110.7328 Y71.4363
G01 X110.6849 Y71.7423
G01 X110.6539 Y72.0504
G01 X110.6397 Y72.3598
G01 X110.6424 Y72.6695
G01 X110.6621 Y72.9786
G01 X110.6986 Y73.2862
G01 X110.7518 Y73.5913
G01 X110.7965 Y73.7199
G01 X110.8480 Y73.8459
G01 X110.9062 Y73.9689
G01 X110.9710 Y74.0887
G01 X111.0420 Y74.2048
G01 X111.1192 Y74.3169
G01 X111.2022 Y74.4248
G01 X111.2910 Y74.5280
G01 X111.3851 Y74.6263
G01 X111.4844 Y74.7195
G01 X111.5886 Y74.8071
G01 X111.6973 Y74.8891
G01 X111.8102 Y74.9651
G01 X111.9271 Y75.0349
G01 X112.0475 Y75.0984
G01 X112.1711 Y75.1553
G01 X112.2977 Y75.2055
G01 X112.4267 Y75.2488
G01 X112.5579 Y75.2852
G01 X112.6909 Y75.3145
G01 X112.8252 Y75.3366
G01 X112.9605 Y75.3514
G01 X113.0964 Y75.3590
G01 X113.2325 Y75.3593
G01 X113.3685 Y75.3522
G01 X113.5039 Y75.3379
G01 X113.6383 Y75.3164
G01 X113.7713 Y75.2876
G01 X113.9027 Y75.2518
G01 X114.0319 Y75.2090
G01 X114.1586 Y75.1593
G01 X114.2825 Y75.1029
G01 X114.6042 Y74.9185
G01 X114.9106 Y74.7098
G01 X115.2000 Y74.4779
G01 X115.4705 Y74.2244
G01 X115.7205 Y73.9506
G01 X115.9486 Y73.6583
G01 X116.1534 Y73.3493
G01 X116.3336 Y73.0252
G01 X116.5215 Y72.6686
G01 X116.6935 Y72.3040
G01 X116.8492 Y71.9323
G01 X116.9885 Y71.5540
G01 X117.1109 Y71.1700
G01 X117.2164 Y70.7809
G01 X117.3046 Y70.3876
G01 X117.3754 Y69.9908
G01 X117.4287 Y69.5913
G01 X117.4643 Y69.1898
G01 X117.4822 Y68.7871
G01 X117.4824 Y68.3840
G01 X117.4805 Y68.2822
G01 X117.4848 Y68.1804
G01 X117.4953 Y68.0791
G01 X117.5121 Y67.9787
G01 X117.5349 Y67.8794
G01 X117.5638 Y67.7818
G01 X117.5986 Y67.6861
G01 X117.6392 Y67.5927
G01 X117.6843 Y67.5170
G01 X117.7359 Y67.4456
G01 X117.7936 Y67.3790
G01 X117.8569 Y67.3177
G01 X117.9254 Y67.2623
G01 X117.9985 Y67.2131
G01 X118.0756 Y67.1705
G01 X118.1562 Y67.1349
G01 X118.2396 Y67.1065
G01 X118.3252 Y67.0855
G01 X118.4123 Y67.0722
G01 X118.5002 Y67.0666
G01 X118.5883 Y67.0688
G01 X118.6758 Y67.0786
G01 X118.7621 Y67.0962
G01 X118.8466 Y67.1213
G01 X118.9604 Y67.1427
G01 X119.0726 Y67.1711
G01 X119.1829 Y67.2063
G01 X119.2908 Y67.2483
G01 X119.3960 Y67.2968
G01 X119.4980 Y67.3516
G01 X119.5964 Y67.4126
G01 X119.6908 Y67.4795
G01 X119.7798 Y67.5761
G01 X119.8641 Y67.6769
G01 X119.9434 Y67.7815
G01 X120.0176 Y67.8898
G01 X120.0866 Y68.0016
G01 X120.1501 Y68.1165
G01 X120.2081 Y68.2343
G01 X120.2604 Y68.3548
G01 X120.5201 Y68.8118
G01 X120.7935 Y69.2607
G01 X121.0805 Y69.7011
G01 X121.3807 Y70.1326
G01 X121.4115 Y70.2003
G01 X121.4375 Y70.2700
G01 X121.4585 Y70.3414
G01 X121.4744 Y70.4141
G01 X121.4851 Y70.4877
G01 X121.4906 Y70.5619
G01 X121.4907 Y70.6363
G01 X121.4856 Y70.7105
G01 X121.4753 Y70.7842
G01 X121.4597 Y70.8569
G01 X121.4391 Y70.9284
G01 X121.4134 Y70.9982
G01 X121.3828 Y71.0660
G01 X121.3476 Y71.1315
G01 X121.3077 Y71.1944
G01 X121.2635 Y71.2542
G01 X121.0378 Y71.7100
G01 X120.8425 Y72.1797
G01 X120.6785 Y72.6611
G01 X120.5466 Y73.1523
G01 X120.4472 Y73.6512
G01 X120.3808 Y74.1554
G01 X120.3477 Y74.6630
G01 X120.3481 Y75.1716
G01 X120.3818 Y75.6791
G01 X120.4489 Y76.1833
G01 X120.5490 Y76.6820
G01 X120.6817 Y77.1730
G01 X120.8316 Y77.6442
G01 X121.0024 Y78.1082
G01 X121.1937 Y78.5641
G01 X121.4051 Y79.0110
G01 X121.4260 Y79.0963
G01 X121.4398 Y79.1830
G01 X121.4461 Y79.2705
G01 X121.4451 Y79.3583
G01 X121.4367 Y79.4457
G01 X121.4210 Y79.5321
G01 X121.3980 Y79.6168
G01 X121.3680 Y79.6993
G01 X121.3312 Y79.7790
G01 X121.2878 Y79.8553
G01 X121.2382 Y79.9277
G01 X121.1826 Y79.9956
G01 X121.1215 Y80.0587
G01 X121.0553 Y80.1163
G01 X120.9845 Y80.1682
G01 X120.9096 Y80.2140
G01 X119.7356 Y81.1413
G01 X118.5399 Y82.0403
G01 X117.3230 Y82.9105
G01 X116.0858 Y83.7515
G01 X114.8288 Y84.5627
G01 X113.5529 Y85.3438
G01 X112.2587 Y86.0941
G01 X110.9469 Y86.8135
G01 X110.2638 Y87.1664
G01 X109.5727 Y87.5035
G01 X108.8740 Y87.8244
G01 X108.1680 Y88.1290
G01 X107.4552 Y88.4171
G01 X106.7358 Y88.6886
G01 X106.0103 Y88.9434
G01 X105.2791 Y89.1812
G01 X104.5426 Y89.4021
G01 X103.8012 Y89.6058
G01 X103.0553 Y89.7922
G01 X102.3052 Y89.9612
G01 X101.4273 Y90.0824
G01 X100.5454 Y90.1692
G01 X99.6608 Y90.2215
G01 X98.7748 Y90.2391
G01 X97.8888 Y90.2221
G01 X97.0042 Y90.1705
G01 X96.1222 Y90.0844
G01 X95.2443 Y89.9638
G01 X94.5798 Y89.8142
G01 X93.9243 Y89.6291
G01 X93.2798 Y89.4090
G01 X92.6479 Y89.1547
G01 X92.0306 Y88.8667
G01 X91.4297 Y88.5460
G01 X90.8469 Y88.1936
G01 X90.2839 Y87.8103
G01 X89.7422 Y87.3973
G01 X89.2235 Y86.9558
G01 X88.7293 Y86.4871
G01 X88.2610 Y85.9926
G01 X87.8199 Y85.4736
G01 X87.4073 Y84.9316
G01 X87.0245 Y84.3683
G01 X86.6724 Y83.7852
G01 X86.4610 Y83.4230
G01 X86.2605 Y83.0547
G01 X86.0709 Y82.6807
G01 X85.8925 Y82.3012
G01 X85.7255 Y81.9166
G01 X85.5698 Y81.5272
G01 X85.4258 Y81.1333
G01 X85.2935 Y80.7354
G01 X85.1871 Y80.2533
G01 X85.1005 Y79.7671
G01 X85.0339 Y79.2779
G01 X84.9874 Y78.7863
G01 X84.9611 Y78.2932
G01 X84.9551 Y77.7995
G01 X84.9693 Y77.3059
G01 X85.0038 Y76.8133
G01 X85.0584 Y76.3226
G01 X85.1331 Y75.8345
G01 X85.2277 Y75.3499
G01 X85.3421 Y74.8696
G01 X85.4922 Y74.2856
G01 X85.6765 Y73.7116
G01 X85.8941 Y73.1493
G01 X86.1445 Y72.6009
G01 X86.4267 Y72.0681
G01 X86.7398 Y71.5529
G01 X87.0826 Y71.0569
G01 X87.4540 Y70.5820
G01 X87.8579 Y70.0725
G01 X88.2863 Y69.5835
G01 X88.7382 Y69.1161
G01 X89.2125 Y68.6713
G01 X89.6614 Y68.2920
G01 X90.1269 Y67.9334
G01 X90.6081 Y67.5961
G01 X91.1041 Y67.2808
G01 X91.6138 Y66.9882
G01 X92.1361 Y66.7189
G01 X92.6701 Y66.4734
G01 X93.2145 Y66.2522
G01 X93.7240 Y66.1127
G01 X94.2403 Y66.0007
G01 X94.7618 Y65.9165
G01 X95.2870 Y65.8604
G01 X95.8145 Y65.8324
G01 X96.3428 Y65.8327
G01 X96.8703 Y65.8614
G01 X97.3954 Y65.9182
G01 X97.9168 Y66.0030
G01 X98.4329 Y66.1156
G01 X98.9423 Y66.2557
G01 X99.4434 Y66.4229
G01 X99.5243 Y66.2396
G01 X101.7868
G00 Z5.0000
G00 X101.6922 Y45.2396
G00 Z0.5000
G01 Z-1.0000 F400
G01 Y46.7396 F1000
G01 X90.5999
G01 X88.5985 Y48.2396
G01 X99.9885
G01 X98.2379 Y49.7396
G01 X86.5748
G01 X84.5184 Y51.2396
G01 X96.4404
G01 X94.5910 Y52.7396
G01 X82.3801
G01 X80.2008 Y54.2396
G01 X92.6757
G01 X90.6629 Y55.7396
G01 X77.9944
G01 X75.7637 Y57.2396
G01 X88.6165
G01 X86.5597 Y58.7396
G01 X73.5057
G01 X71.2072 Y60.2396
G01 X84.4371
G01 X82.2643 Y61.7396
G01 X68.8985
G01 X66.4749 Y63.2396
G01 X80.0505
G01 X77.7968 Y64.7396
G01 X64.0713
G01 X61.7792 Y66.2396
G01 X75.4976
G01 X73.1441 Y67.7396
G01 X59.5553
G01 X57.3935 Y69.2396
G01 X70.7854
G01 X68.4491 Y70.7396
G01 X55.2600
G01 X53.2033 Y72.2396
G01 X66.1968
G01 X64.6024
G01 Y73.7396
G01 X51.2451
G01 X49.3777 Y75.2396
G01 X64.9228
G01 X63.5904 Y76.7396
G01 X68.0204
G01 X68.7948 Y78.2396
G01 X63.3954
G01 X63.7430 Y79.7396
G01 X69.0531
G01 Y81.2396
G01 X69.5452
G01 X64.5951
G00 Z5.0000
G00 X63.5947 Y85.7396
G00 Z0.5000
G01 Z-1.0000 F400
G01 Y84.2396 F1000
G01 X58.2543
G00 Z5.0000
G00 X59.8451 Y75.2396
G00 Z0.5000
G01 Z-1.0000 F400
G01 Y76.7396 F1000
G01 X47.5945
G01 X45.8905 Y78.2396
G01 X57.8645
G01 X55.9639 Y79.7396
G01 X44.2615
G01 X44.1136 Y79.6041
G01 X43.0458 Y80.6147
G01 X41.9962 Y81.6443
G01 X40.9654 Y82.6926
G01 X39.9536 Y83.7592
G01 X38.9611 Y84.8439
G01 X37.9882 Y85.9462
G01 X37.0353 Y87.0659
G01 X36.1027 Y88.2024
G01 X35.1907 Y89.3556
G01 X34.2996 Y90.5250
G01 X33.4296 Y91.7102
G01 X32.5810 Y92.9108
G01 X31.7488 Y94.1856
G01 X30.9432 Y95.4775
G01 X30.1647 Y96.7858
G01 X29.4136 Y98.1101
G01 X28.6903 Y99.4497
G01 X27.9950 Y100.8041
G01 X27.3280 Y102.1727
G01 X26.6897 Y103.5548
G01 X26.4297 Y104.2147
G01 X26.1902 Y104.8823
G01 X25.9712 Y105.5569
G01 X25.7730 Y106.2380
G01 X25.3306 Y107.6922
G01 X24.9189 Y109.1554
G01 X24.5380 Y110.6269
G01 X24.1882 Y112.1062
G01 X23.8696 Y113.5924
G01 X23.5824 Y115.0851
G01 X23.3265 Y116.5834
G01 X23.1023 Y118.0868
G01 X22.9098 Y119.5946
G01 X22.7490 Y121.1061
G01 X22.6200 Y122.6206
G01 X22.5229 Y124.1375
G01 X22.4696 Y125.4482
G01 X22.4512 Y126.7598
G01 X22.4676 Y128.0715
G01 X22.5189 Y129.3822
G01 X22.6050 Y130.6912
G01 X22.7259 Y131.9973
G01 X22.8814 Y133.2998
G01 X23.0715 Y134.5977
G01 X23.2961 Y135.8901
G01 X23.5549 Y137.1761
G01 X23.8478 Y138.4547
G01 X24.1746 Y139.7251
G01 X24.4741 Y140.8187
G01 X24.8049 Y141.9032
G01 X25.1665 Y142.9778
G01 X25.5588 Y144.0417
G01 X25.9814 Y145.0938
G01 X26.4339 Y146.1334
G01 X26.9160 Y147.1597
G01 X27.4274 Y148.1717
G01 X27.9547 Y149.1782
G01 X28.5100 Y150.1695
G01 X29.0929 Y151.1448
G01 X29.7029 Y152.1034
G01 X30.3395 Y153.0446
G01 X31.0023 Y153.9675
G01 X31.6906 Y154.8715
G01 X32.4040 Y155.7558
G01 X33.1420 Y156.6198
G01 X33.9038 Y157.4628
G01 X34.6890 Y158.2841
G01 X35.4969 Y159.0831
G01 X36.1922 Y159.7496
G01 X36.9009 Y160.4018
G01 X37.6229 Y161.0392
G01 X38.3579 Y161.6618
G01 X39.1054 Y162.2691
G01 X39.8653 Y162.8610
G01 X40.6371 Y163.4371
G01 X41.4206 Y163.9973
G01 X42.0275 Y164.4136
G01 X42.6413 Y164.8198
G01 X43.2617 Y165.2157
G01 X43.8886 Y165.6014
G01 X44.5217 Y165.9765
G01 X45.1611 Y166.3412
G01 X45.8063 Y166.6952
G01 X46.4574 Y167.0384
G01 X47.4868 Y167.5899
G01 X48.5303 Y168.1141
G01 X49.5874 Y168.6105
G01 X50.6571 Y169.0790
G01 X51.4757 Y169.3985
G01 X52.3002 Y169.7025
G01 X53.1303 Y169.9909
G01 X53.9657 Y170.2635
G01 X54.8061 Y170.5204
G01 X55.6511 Y170.7613
G01 X56.5006 Y170.9863
G01 X57.3542 Y171.1951
G01 X58.2116 Y171.3879
G01 X59.0724 Y171.5644
G01 X59.9364 Y171.7246
G01 X60.8033 Y171.8685
G01 X61.5372 Y171.9982
G01 X62.2740 Y172.1108
G01 X63.0131 Y172.2061
G01 X63.7543 Y172.2842
G01 X64.8774 Y172.3352
G01 X66.0011 Y172.3716
G01 X67.1252 Y172.3934
G01 X68.2495 Y172.4006
G01 X69.3738 Y172.3932
G01 X70.4979 Y172.3712
G01 X71.6216 Y172.3346
G01 X72.7447 Y172.2835
G01 X74.0795 Y172.1114
G01 X75.4114 Y171.9178
G01 X76.7400 Y171.7027
G01 X78.0649 Y171.4664
G01 X79.1902 Y171.2250
G01 X80.3097 Y170.9585
G01 X81.4231 Y170.6669
G01 X82.5296 Y170.3505
G01 X83.6287 Y170.0092
G01 X84.7198 Y169.6434
G01 X85.8025 Y169.2532
G01 X86.8762 Y168.8388
G01 X87.9403 Y168.4004
G01 X88.9943 Y167.9383
G01 X90.0377 Y167.4526
G01 X91.0698 Y166.9436
G01 X92.0904 Y166.4116
G01 X93.0987 Y165.8569
G01 X94.0943 Y165.2796
G01 X95.0767 Y164.6802
G01 X96.0933 Y164.0112
G01 X97.0957 Y163.3212
G01 X98.0836 Y162.6105
G01 X99.0564 Y161.8795
G01 X100.0139 Y161.1283
G01 X100.9555 Y160.3575
G01 X101.8809 Y159.5672
G01 X102.7897 Y158.7578
G01 X103.8262 Y157.6814
G01 X104.8404 Y156.5840
G01 X105.8319 Y155.4659
G01 X106.8002 Y154.3278
G01 X106.8627 Y154.2496
G01 X106.9292 Y154.1747
G01 X106.9994 Y154.1033
G01 X107.0731 Y154.0356
G01 X107.1502 Y153.9717
G01 X107.2304 Y153.9119
G01 X107.3136 Y153.8563
G01 X107.3996 Y153.8049
G01 X107.4880 Y153.7580
G01 X107.5788 Y153.7157
G01 X107.6715 Y153.6781
G01 X107.7661 Y153.6453
