;Project LorettaPhil
;Created by Estlcam version 11 build 11,112
;Machining time about 00:32:01 hours

G90
M03 S18000
G00 X0.0000 Y0.0000 Z0.0000
G00 Z2.0000


;No. 1: Helical drill 1
G00 X25.6881 Y86.4737
G00 Z0.5000
M106 S200
G01 X25.6869 Y86.4266 Z0.4958 F400 S18000
G01 X25.6832 Y86.3797 Z0.4917
G01 X25.6770 Y86.3329 Z0.4875
G01 X25.6685 Y86.2866 Z0.4833
G01 X25.6575 Y86.2408 Z0.4792
G01 X25.6441 Y86.1956 Z0.4750
G01 X25.6283 Y86.1512 Z0.4708
G01 X25.6103 Y86.1077 Z0.4667
G01 X25.5900 Y86.0651 Z0.4625
G01 X25.5675 Y86.0237 Z0.4583
G01 X25.5429 Y85.9836 Z0.4542
G01 X25.5162 Y85.9447 Z0.4500
G01 X25.4876 Y85.9074 Z0.4458
G01 X25.4570 Y85.8715 Z0.4417
G01 X25.4245 Y85.8373 Z0.4375
G01 X25.3903 Y85.8049 Z0.4333
G01 X25.3545 Y85.7743 Z0.4292
G01 X25.3171 Y85.7456 Z0.4250
G01 X25.2783 Y85.7189 Z0.4208
G01 X25.2381 Y85.6943 Z0.4167
G01 X25.1967 Y85.6718 Z0.4125
G01 X25.1542 Y85.6515 Z0.4083
G01 X25.1107 Y85.6335 Z0.4042
G01 X25.0662 Y85.6178 Z0.4000
G01 X25.0211 Y85.6044 Z0.3958
G01 X24.9752 Y85.5934 Z0.3917
G01 X24.9289 Y85.5848 Z0.3875
G01 X24.8822 Y85.5787 Z0.3833
G01 X24.8352 Y85.5750 Z0.3792
G01 X24.7881 Y85.5737 Z0.3750
G01 X24.7410 Y85.5750 Z0.3708
G01 X24.6941 Y85.5787 Z0.3667
G01 X24.6473 Y85.5848 Z0.3625
G01 X24.6010 Y85.5934 Z0.3583
G01 X24.5552 Y85.6044 Z0.3542
G01 X24.5100 Y85.6178 Z0.3500
G01 X24.4656 Y85.6335 Z0.3458
G01 X24.4221 Y85.6515 Z0.3417
G01 X24.3795 Y85.6718 Z0.3375
G01 X24.3381 Y85.6943 Z0.3333
G01 X24.2980 Y85.7189 Z0.3292
G01 X24.2591 Y85.7456 Z0.3250
G01 X24.2217 Y85.7743 Z0.3208
G01 X24.1859 Y85.8049 Z0.3167
G01 X24.1517 Y85.8373 Z0.3125
G01 X24.1193 Y85.8715 Z0.3083
G01 X24.0887 Y85.9074 Z0.3042
G01 X24.0600 Y85.9447 Z0.3000
G01 X24.0333 Y85.9836 Z0.2958
G01 X24.0087 Y86.0237 Z0.2917
G01 X23.9862 Y86.0651 Z0.2875
G01 X23.9659 Y86.1077 Z0.2833
G01 X23.9479 Y86.1512 Z0.2792
G01 X23.9322 Y86.1956 Z0.2750
G01 X23.9188 Y86.2408 Z0.2708
G01 X23.9078 Y86.2866 Z0.2667
G01 X23.8992 Y86.3329 Z0.2625
G01 X23.8931 Y86.3797 Z0.2583
G01 X23.8894 Y86.4266 Z0.2542
G01 X23.8881 Y86.4737 Z0.2500
G01 X23.8894 Y86.5208 Z0.2458
G01 X23.8931 Y86.5678 Z0.2417
G01 X23.8992 Y86.6145 Z0.2375
G01 X23.9078 Y86.6609 Z0.2333
G01 X23.9188 Y86.7067 Z0.2292
G01 X23.9322 Y86.7519 Z0.2250
G01 X23.9479 Y86.7963 Z0.2208
G01 X23.9659 Y86.8398 Z0.2167
G01 X23.9862 Y86.8823 Z0.2125
G01 X24.0087 Y86.9237 Z0.2083
G01 X24.0333 Y86.9639 Z0.2042
G01 X24.0600 Y87.0027 Z0.2000
G01 X24.0887 Y87.0401 Z0.1958
G01 X24.1193 Y87.0760 Z0.1917
G01 X24.1517 Y87.1101 Z0.1875
G01 X24.1859 Y87.1426 Z0.1833
G01 X24.2217 Y87.1732 Z0.1792
G01 X24.2591 Y87.2019 Z0.1750
G01 X24.2980 Y87.2285 Z0.1708
G01 X24.3381 Y87.2532 Z0.1667
G01 X24.3795 Y87.2756 Z0.1625
G01 X24.4221 Y87.2959 Z0.1583
G01 X24.4656 Y87.3140 Z0.1542
G01 X24.5100 Y87.3297 Z0.1500
G01 X24.5552 Y87.3431 Z0.1458
G01 X24.6010 Y87.3541 Z0.1417
G01 X24.6473 Y87.3627 Z0.1375
G01 X24.6941 Y87.3688 Z0.1333
G01 X24.7410 Y87.3725 Z0.1292
G01 X24.7881 Y87.3737 Z0.1250
G01 X24.8352 Y87.3725 Z0.1208
G01 X24.8822 Y87.3688 Z0.1167
G01 X24.9289 Y87.3627 Z0.1125
G01 X24.9752 Y87.3541 Z0.1083
G01 X25.0211 Y87.3431 Z0.1042
G01 X25.0662 Y87.3297 Z0.1000
G01 X25.1107 Y87.3140 Z0.0958
G01 X25.1542 Y87.2959 Z0.0917
G01 X25.1967 Y87.2756 Z0.0875
G01 X25.2381 Y87.2532 Z0.0833
G01 X25.2783 Y87.2285 Z0.0792
G01 X25.3171 Y87.2019 Z0.0750
G01 X25.3545 Y87.1732 Z0.0708
G01 X25.3903 Y87.1426 Z0.0667
G01 X25.4245 Y87.1101 Z0.0625
G01 X25.4570 Y87.0760 Z0.0583
G01 X25.4876 Y87.0401 Z0.0542
G01 X25.5162 Y87.0027 Z0.0500
G01 X25.5429 Y86.9639 Z0.0458
G01 X25.5675 Y86.9237 Z0.0417
G01 X25.5900 Y86.8823 Z0.0375
G01 X25.6103 Y86.8398 Z0.0333
G01 X25.6283 Y86.7963 Z0.0292
G01 X25.6441 Y86.7519 Z0.0250
G01 X25.6575 Y86.7067 Z0.0208
G01 X25.6685 Y86.6609 Z0.0167
G01 X25.6770 Y86.6145 Z0.0125
G01 X25.6832 Y86.5678 Z0.0083
G01 X25.6869 Y86.5208 Z0.0042
G01 X25.6881 Y86.4737 Z0.0000
G01 X25.6869 Y86.4266
G01 X25.6832 Y86.3797
G01 X25.6770 Y86.3329
G01 X25.6685 Y86.2866
G01 X25.6575 Y86.2408
G01 X25.6441 Y86.1956
G01 X25.6283 Y86.1512
G01 X25.6103 Y86.1077
G01 X25.5900 Y86.0651
G01 X25.5675 Y86.0237
G01 X25.5429 Y85.9836
G01 X25.5162 Y85.9447
G01 X25.4876 Y85.9074
G01 X25.4570 Y85.8715
G01 X25.4245 Y85.8373
G01 X25.3903 Y85.8049
G01 X25.3545 Y85.7743
G01 X25.3171 Y85.7456
G01 X25.2783 Y85.7189
G01 X25.2381 Y85.6943
G01 X25.1967 Y85.6718
G01 X25.1542 Y85.6515
G01 X25.1107 Y85.6335
G01 X25.0662 Y85.6178
G01 X25.0211 Y85.6044
G01 X24.9752 Y85.5934
G01 X24.9289 Y85.5848
G01 X24.8822 Y85.5787
G01 X24.8352 Y85.5750
G01 X24.7881 Y85.5737
G01 X24.7410 Y85.5750
G01 X24.6941 Y85.5787
G01 X24.6473 Y85.5848
G01 X24.6010 Y85.5934
G01 X24.5552 Y85.6044
G01 X24.5100 Y85.6178
G01 X24.4656 Y85.6335
G01 X24.4221 Y85.6515
G01 X24.3795 Y85.6718
G01 X24.3381 Y85.6943
G01 X24.2980 Y85.7189
G01 X24.2591 Y85.7456
G01 X24.2217 Y85.7743
G01 X24.1859 Y85.8049
G01 X24.1517 Y85.8373
G01 X24.1193 Y85.8715
G01 X24.0887 Y85.9074
G01 X24.0600 Y85.9447
G01 X24.0333 Y85.9836
G01 X24.0087 Y86.0237
G01 X23.9862 Y86.0651
G01 X23.9659 Y86.1077
G01 X23.9479 Y86.1512
G01 X23.9322 Y86.1956
G01 X23.9188 Y86.2408
G01 X23.9078 Y86.2866
G01 X23.8992 Y86.3329
G01 X23.8931 Y86.3797
G01 X23.8894 Y86.4266
G01 X23.8881 Y86.4737
G01 X23.8894 Y86.5208
G01 X23.8931 Y86.5678
G01 X23.8992 Y86.6145
G01 X23.9078 Y86.6609
G01 X23.9188 Y86.7067
G01 X23.9322 Y86.7519
G01 X23.9479 Y86.7963
G01 X23.9659 Y86.8398
G01 X23.9862 Y86.8823
G01 X24.0087 Y86.9237
G01 X24.0333 Y86.9639
G01 X24.0600 Y87.0027
G01 X24.0887 Y87.0401
G01 X24.1193 Y87.0760
G01 X24.1517 Y87.1101
G01 X24.1859 Y87.1426
G01 X24.2217 Y87.1732
G01 X24.2591 Y87.2019
G01 X24.2980 Y87.2285
G01 X24.3381 Y87.2532
G01 X24.3795 Y87.2756
G01 X24.4221 Y87.2959
G01 X24.4656 Y87.3140
G01 X24.5100 Y87.3297
G01 X24.5552 Y87.3431
G01 X24.6010 Y87.3541
G01 X24.6473 Y87.3627
G01 X24.6941 Y87.3688
G01 X24.7410 Y87.3725
G01 X24.7881 Y87.3737
G01 X24.8352 Y87.3725
G01 X24.8822 Y87.3688
G01 X24.9289 Y87.3627
G01 X24.9752 Y87.3541
G01 X25.0211 Y87.3431
G01 X25.0662 Y87.3297
G01 X25.1107 Y87.3140
G01 X25.1542 Y87.2959
G01 X25.1967 Y87.2756
G01 X25.2381 Y87.2532
G01 X25.2783 Y87.2285
G01 X25.3171 Y87.2019
G01 X25.3545 Y87.1732
G01 X25.3903 Y87.1426
G01 X25.4245 Y87.1101
G01 X25.4570 Y87.0760
G01 X25.4876 Y87.0401
G01 X25.5162 Y87.0027
G01 X25.5429 Y86.9639
G01 X25.5675 Y86.9237
G01 X25.5900 Y86.8823
G01 X25.6103 Y86.8398
G01 X25.6283 Y86.7963
G01 X25.6441 Y86.7519
G01 X25.6575 Y86.7067
G01 X25.6685 Y86.6609
G01 X25.6770 Y86.6145
G01 X25.6832 Y86.5678
G01 X25.6869 Y86.5208
G01 X25.6881 Y86.4737
M107
M106 S200
G01 X25.6869 Y86.4266 Z-0.0167
G01 X25.6832 Y86.3797 Z-0.0333
G01 X25.6770 Y86.3329 Z-0.0500
G01 X25.6685 Y86.2866 Z-0.0667
G01 X25.6575 Y86.2408 Z-0.0833
G01 X25.6441 Y86.1956 Z-0.1000
G01 X25.6283 Y86.1512 Z-0.1167
G01 X25.6103 Y86.1077 Z-0.1333
G01 X25.5900 Y86.0651 Z-0.1500
G01 X25.5675 Y86.0237 Z-0.1667
G01 X25.5429 Y85.9836 Z-0.1833
G01 X25.5162 Y85.9447 Z-0.2000
G01 X25.4876 Y85.9074 Z-0.2167
G01 X25.4570 Y85.8715 Z-0.2333
G01 X25.4245 Y85.8373 Z-0.2500
G01 X25.3903 Y85.8049 Z-0.2667
G01 X25.3545 Y85.7743 Z-0.2833
G01 X25.3171 Y85.7456 Z-0.3000
G01 X25.2783 Y85.7189 Z-0.3167
G01 X25.2381 Y85.6943 Z-0.3333
G01 X25.1967 Y85.6718 Z-0.3500
G01 X25.1542 Y85.6515 Z-0.3667
G01 X25.1107 Y85.6335 Z-0.3833
G01 X25.0662 Y85.6178 Z-0.4000
G01 X25.0211 Y85.6044 Z-0.4167
G01 X24.9752 Y85.5934 Z-0.4333
G01 X24.9289 Y85.5848 Z-0.4500
G01 X24.8822 Y85.5787 Z-0.4667
G01 X24.8352 Y85.5750 Z-0.4833
G01 X24.7881 Y85.5737 Z-0.5000
G01 X24.7410 Y85.5750 Z-0.5167
G01 X24.6941 Y85.5787 Z-0.5333
G01 X24.6473 Y85.5848 Z-0.5500
G01 X24.6010 Y85.5934 Z-0.5667
G01 X24.5552 Y85.6044 Z-0.5833
G01 X24.5100 Y85.6178 Z-0.6000
G01 X24.4656 Y85.6335 Z-0.6167
G01 X24.4221 Y85.6515 Z-0.6333
G01 X24.3795 Y85.6718 Z-0.6500
G01 X24.3381 Y85.6943 Z-0.6667
G01 X24.2980 Y85.7189 Z-0.6833
G01 X24.2591 Y85.7456 Z-0.7000
G01 X24.2217 Y85.7743 Z-0.7167
G01 X24.1859 Y85.8049 Z-0.7333
G01 X24.1517 Y85.8373 Z-0.7500
G01 X24.1193 Y85.8715 Z-0.7667
G01 X24.0887 Y85.9074 Z-0.7833
G01 X24.0600 Y85.9447 Z-0.8000
G01 X24.0333 Y85.9836 Z-0.8167
G01 X24.0087 Y86.0237 Z-0.8333
G01 X23.9862 Y86.0651 Z-0.8500
G01 X23.9659 Y86.1077 Z-0.8667
G01 X23.9479 Y86.1512 Z-0.8833
G01 X23.9322 Y86.1956 Z-0.9000
G01 X23.9188 Y86.2408 Z-0.9167
G01 X23.9078 Y86.2866 Z-0.9333
G01 X23.8992 Y86.3329 Z-0.9500
G01 X23.8931 Y86.3797 Z-0.9667
G01 X23.8894 Y86.4266 Z-0.9833
G01 X23.8881 Y86.4737 Z-1.0000
G01 X23.8894 Y86.5208 Z-1.0167
G01 X23.8931 Y86.5678 Z-1.0333
G01 X23.8992 Y86.6145 Z-1.0500
G01 X23.9078 Y86.6609 Z-1.0667
G01 X23.9188 Y86.7067 Z-1.0833
G01 X23.9322 Y86.7519 Z-1.1000
G01 X23.9479 Y86.7963 Z-1.1167
G01 X23.9659 Y86.8398 Z-1.1333
G01 X23.9862 Y86.8823 Z-1.1500
G01 X24.0087 Y86.9237 Z-1.1667
G01 X24.0333 Y86.9639 Z-1.1833
G01 X24.0600 Y87.0027 Z-1.2000
G01 X24.0887 Y87.0401 Z-1.2167
G01 X24.1193 Y87.0760 Z-1.2333
G01 X24.1517 Y87.1101 Z-1.2500
G01 X24.1859 Y87.1426 Z-1.2667
G01 X24.2217 Y87.1732 Z-1.2833
G01 X24.2591 Y87.2019 Z-1.3000
G01 X24.2980 Y87.2285 Z-1.3167
G01 X24.3381 Y87.2532 Z-1.3333
G01 X24.3795 Y87.2756 Z-1.3500
G01 X24.4221 Y87.2959 Z-1.3667
G01 X24.4656 Y87.3140 Z-1.3833
G01 X24.5100 Y87.3297 Z-1.4000
G01 X24.5552 Y87.3431 Z-1.4167
G01 X24.6010 Y87.3541 Z-1.4333
G01 X24.6473 Y87.3627 Z-1.4500
G01 X24.6941 Y87.3688 Z-1.4667
G01 X24.7410 Y87.3725 Z-1.4833
G01 X24.7881 Y87.3737 Z-1.5000
G01 X24.8352 Y87.3725 Z-1.5167
G01 X24.8822 Y87.3688 Z-1.5333
G01 X24.9289 Y87.3627 Z-1.5500
G01 X24.9752 Y87.3541 Z-1.5667
G01 X25.0211 Y87.3431 Z-1.5833
G01 X25.0662 Y87.3297 Z-1.6000
G01 X25.1107 Y87.3140 Z-1.6167
G01 X25.1542 Y87.2959 Z-1.6333
G01 X25.1967 Y87.2756 Z-1.6500
G01 X25.2381 Y87.2532 Z-1.6667
G01 X25.2783 Y87.2285 Z-1.6833
G01 X25.3171 Y87.2019 Z-1.7000
G01 X25.3545 Y87.1732 Z-1.7167
G01 X25.3903 Y87.1426 Z-1.7333
G01 X25.4245 Y87.1101 Z-1.7500
G01 X25.4570 Y87.0760 Z-1.7667
G01 X25.4876 Y87.0401 Z-1.7833
G01 X25.5162 Y87.0027 Z-1.8000
G01 X25.5429 Y86.9639 Z-1.8167
G01 X25.5675 Y86.9237 Z-1.8333
G01 X25.5900 Y86.8823 Z-1.8500
G01 X25.6103 Y86.8398 Z-1.8667
G01 X25.6283 Y86.7963 Z-1.8833
G01 X25.6441 Y86.7519 Z-1.9000
G01 X25.6575 Y86.7067 Z-1.9167
G01 X25.6685 Y86.6609 Z-1.9333
G01 X25.6770 Y86.6145 Z-1.9500
G01 X25.6832 Y86.5678 Z-1.9667
G01 X25.6869 Y86.5208 Z-1.9833
G01 X25.6881 Y86.4737 Z-2.0000
G01 X25.6869 Y86.4266
G01 X25.6832 Y86.3797
G01 X25.6770 Y86.3329
G01 X25.6685 Y86.2866
G01 X25.6575 Y86.2408
G01 X25.6441 Y86.1956
G01 X25.6283 Y86.1512
G01 X25.6103 Y86.1077
G01 X25.5900 Y86.0651
G01 X25.5675 Y86.0237
G01 X25.5429 Y85.9836
G01 X25.5162 Y85.9447
G01 X25.4876 Y85.9074
G01 X25.4570 Y85.8715
G01 X25.4245 Y85.8373
G01 X25.3903 Y85.8049
G01 X25.3545 Y85.7743
G01 X25.3171 Y85.7456
G01 X25.2783 Y85.7189
G01 X25.2381 Y85.6943
G01 X25.1967 Y85.6718
G01 X25.1542 Y85.6515
G01 X25.1107 Y85.6335
G01 X25.0662 Y85.6178
G01 X25.0211 Y85.6044
G01 X24.9752 Y85.5934
G01 X24.9289 Y85.5848
G01 X24.8822 Y85.5787
G01 X24.8352 Y85.5750
G01 X24.7881 Y85.5737
G01 X24.7410 Y85.5750
G01 X24.6941 Y85.5787
G01 X24.6473 Y85.5848
G01 X24.6010 Y85.5934
G01 X24.5552 Y85.6044
G01 X24.5100 Y85.6178
G01 X24.4656 Y85.6335
G01 X24.4221 Y85.6515
G01 X24.3795 Y85.6718
G01 X24.3381 Y85.6943
G01 X24.2980 Y85.7189
G01 X24.2591 Y85.7456
G01 X24.2217 Y85.7743
G01 X24.1859 Y85.8049
G01 X24.1517 Y85.8373
G01 X24.1193 Y85.8715
G01 X24.0887 Y85.9074
G01 X24.0600 Y85.9447
G01 X24.0333 Y85.9836
G01 X24.0087 Y86.0237
G01 X23.9862 Y86.0651
G01 X23.9659 Y86.1077
G01 X23.9479 Y86.1512
G01 X23.9322 Y86.1956
G01 X23.9188 Y86.2408
G01 X23.9078 Y86.2866
G01 X23.8992 Y86.3329
G01 X23.8931 Y86.3797
G01 X23.8894 Y86.4266
G01 X23.8881 Y86.4737
G01 X23.8894 Y86.5208
G01 X23.8931 Y86.5678
G01 X23.8992 Y86.6145
G01 X23.9078 Y86.6609
G01 X23.9188 Y86.7067
G01 X23.9322 Y86.7519
G01 X23.9479 Y86.7963
G01 X23.9659 Y86.8398
G01 X23.9862 Y86.8823
G01 X24.0087 Y86.9237
G01 X24.0333 Y86.9639
G01 X24.0600 Y87.0027
G01 X24.0887 Y87.0401
G01 X24.1193 Y87.0760
G01 X24.1517 Y87.1101
G01 X24.1859 Y87.1426
G01 X24.2217 Y87.1732
G01 X24.2591 Y87.2019
G01 X24.2980 Y87.2285
G01 X24.3381 Y87.2532
G01 X24.3795 Y87.2756
G01 X24.4221 Y87.2959
G01 X24.4656 Y87.3140
G01 X24.5100 Y87.3297
G01 X24.5552 Y87.3431
G01 X24.6010 Y87.3541
G01 X24.6473 Y87.3627
G01 X24.6941 Y87.3688
G01 X24.7410 Y87.3725
G01 X24.7881 Y87.3737
G01 X24.8352 Y87.3725
G01 X24.8822 Y87.3688
G01 X24.9289 Y87.3627
G01 X24.9752 Y87.3541
G01 X25.0211 Y87.3431
G01 X25.0662 Y87.3297
G01 X25.1107 Y87.3140
G01 X25.1542 Y87.2959
G01 X25.1967 Y87.2756
G01 X25.2381 Y87.2532
G01 X25.2783 Y87.2285
G01 X25.3171 Y87.2019
G01 X25.3545 Y87.1732
G01 X25.3903 Y87.1426
G01 X25.4245 Y87.1101
G01 X25.4570 Y87.0760
G01 X25.4876 Y87.0401
G01 X25.5162 Y87.0027
G01 X25.5429 Y86.9639
G01 X25.5675 Y86.9237
G01 X25.5900 Y86.8823
G01 X25.6103 Y86.8398
G01 X25.6283 Y86.7963
G01 X25.6441 Y86.7519
G01 X25.6575 Y86.7067
G01 X25.6685 Y86.6609
G01 X25.6770 Y86.6145
G01 X25.6832 Y86.5678
G01 X25.6869 Y86.5208
G01 X25.6881 Y86.4737
G01 X25.6990 Y86.4271 F800
G01 X25.7075 Y86.3799
G01 X25.7135 Y86.3323
G01 X25.7170 Y86.2845
G01 X25.7181 Y86.2366
G01 X25.7166 Y86.1887
G01 X25.7127 Y86.1409
G01 X25.7062 Y86.0934
G01 X25.6937 Y86.0439
G01 X25.6786 Y85.9950
G01 X25.6611 Y85.9469
G01 X25.6412 Y85.8998
G01 X25.6189 Y85.8538
G01 X25.5944 Y85.8089
G01 X25.5676 Y85.7654
G01 X25.5387 Y85.7232
G01 X25.5010 Y85.6873
G01 X25.4615 Y85.6532
G01 X25.4204 Y85.6212
G01 X25.3778 Y85.5912
G01 X25.3338 Y85.5633
G01 X25.2885 Y85.5376
G01 X25.2420 Y85.5142
G01 X25.1943 Y85.4931
G01 X25.1457 Y85.4743
G01 X25.0962 Y85.4580
G01 X25.0460 Y85.4441
G01 X24.9952 Y85.4327
G01 X24.9439 Y85.4238
G01 X24.8922 Y85.4174
G01 X24.8402 Y85.4136
G01 X24.7881 Y85.4123
G01 X24.7360 Y85.4136
G01 X24.6841 Y85.4174
G01 X24.6324 Y85.4238
G01 X24.5810 Y85.4327
G01 X24.5302 Y85.4441
G01 X24.4800 Y85.4580
G01 X24.4305 Y85.4743
G01 X24.3819 Y85.4931
G01 X24.3343 Y85.5142
G01 X24.2878 Y85.5376
G01 X24.2424 Y85.5633
G01 X24.1984 Y85.5912
G01 X24.1558 Y85.6212
G01 X24.1148 Y85.6532
G01 X24.0753 Y85.6873
G01 X24.0376 Y85.7232
G01 X24.0016 Y85.7609
G01 X23.9676 Y85.8004
G01 X23.9356 Y85.8414
G01 X23.9056 Y85.8840
G01 X23.8777 Y85.9280
G01 X23.8520 Y85.9734
G01 X23.8286 Y86.0199
G01 X23.8075 Y86.0675
G01 X23.7887 Y86.1161
G01 X23.7724 Y86.1656
G01 X23.7585 Y86.2158
G01 X23.7471 Y86.2667
G01 X23.7382 Y86.3180
G01 X23.7318 Y86.3697
G01 X23.7280 Y86.4217
G01 X23.7267 Y86.4737
G01 X23.7280 Y86.5258
G01 X23.7318 Y86.5778
G01 X23.7382 Y86.6295
G01 X23.7471 Y86.6808
G01 X23.7585 Y86.7317
G01 X23.7724 Y86.7819
G01 X23.7887 Y86.8313
G01 X23.8075 Y86.8799
G01 X23.8286 Y86.9276
G01 X23.8520 Y86.9741
G01 X23.8777 Y87.0194
G01 X23.9056 Y87.0634
G01 X23.9356 Y87.1060
G01 X23.9676 Y87.1471
G01 X24.0016 Y87.1866
G01 X24.0376 Y87.2243
G01 X24.0753 Y87.2602
G01 X24.1148 Y87.2942
G01 X24.1558 Y87.3263
G01 X24.1984 Y87.3563
G01 X24.2424 Y87.3842
G01 X24.2878 Y87.4099
G01 X24.3343 Y87.4333
G01 X24.3819 Y87.4544
G01 X24.4305 Y87.4731
G01 X24.4800 Y87.4895
G01 X24.5302 Y87.5034
G01 X24.5810 Y87.5148
G01 X24.6324 Y87.5237
G01 X24.6841 Y87.5301
G01 X24.7360 Y87.5339
G01 X24.7881 Y87.5352
G01 X24.8402 Y87.5339
G01 X24.8922 Y87.5301
G01 X24.9439 Y87.5237
G01 X24.9952 Y87.5148
G01 X25.0460 Y87.5034
G01 X25.0962 Y87.4895
G01 X25.1457 Y87.4731
G01 X25.1943 Y87.4544
G01 X25.2420 Y87.4333
G01 X25.2885 Y87.4099
G01 X25.3338 Y87.3842
G01 X25.3778 Y87.3563
G01 X25.4204 Y87.3263
G01 X25.4615 Y87.2942
G01 X25.5010 Y87.2602
G01 X25.5387 Y87.2243
G01 X25.5746 Y87.1866
G01 X25.6086 Y87.1471
G01 X25.6407 Y87.1060
G01 X25.6707 Y87.0634
G01 X25.6986 Y87.0194
G01 X25.7242 Y86.9741
G01 X25.7477 Y86.9276
G01 X25.7688 Y86.8799
G01 X25.7875 Y86.8313
G01 X25.8039 Y86.7819
G01 X25.8178 Y86.7317
G01 X25.8292 Y86.6808
G01 X25.8381 Y86.6295
G01 X25.8445 Y86.5778
G01 X25.8483 Y86.5258
G01 X25.8496 Y86.4737
G01 X25.8455 Y86.3812
G01 X25.8334 Y86.2894
G01 X25.8134 Y86.1990
G01 X25.7856 Y86.1107
G01 X25.7501 Y86.0252
G01 X25.7074 Y85.9430
G01 X25.6576 Y85.8649
G01 X25.6012 Y85.7915
G01 X25.5387 Y85.7232
G01 X25.4704 Y85.6606
G01 X25.3969 Y85.6043
G01 X25.3188 Y85.5545
G01 X25.2367 Y85.5117
G01 X25.1512 Y85.4763
G01 X25.0628 Y85.4485
G01 X24.9724 Y85.4284
G01 X24.8806 Y85.4163
G01 X24.7881 Y85.4123
G01 X24.6956 Y85.4163
G01 X24.6038 Y85.4284
G01 X24.5134 Y85.4485
G01 X24.4251 Y85.4763
G01 X24.3395 Y85.5117
G01 X24.2574 Y85.5545
G01 X24.1793 Y85.6043
G01 X24.1058 Y85.6606
G01 X24.0376 Y85.7232
G01 X23.9750 Y85.7915
G01 X23.9186 Y85.8649
G01 X23.8689 Y85.9430
G01 X23.8261 Y86.0252
G01 X23.7907 Y86.1107
G01 X23.7628 Y86.1990
G01 X23.7428 Y86.2894
G01 X23.7307 Y86.3812
G01 X23.7267 Y86.4737
G01 X23.7307 Y86.5663
G01 X23.7428 Y86.6581
G01 X23.7628 Y86.7485
G01 X23.7907 Y86.8368
G01 X23.8261 Y86.9223
G01 X23.8689 Y87.0045
G01 X23.9186 Y87.0826
G01 X23.9750 Y87.1560
G01 X24.0376 Y87.2243
G01 X24.1058 Y87.2869
G01 X24.1793 Y87.3432
G01 X24.2574 Y87.3930
G01 X24.3395 Y87.4357
G01 X24.4251 Y87.4712
G01 X24.5134 Y87.4990
G01 X24.6038 Y87.5191
G01 X24.6956 Y87.5311
G01 X24.7881 Y87.5352
G01 X24.8806 Y87.5311
G01 X24.9724 Y87.5191
G01 X25.0628 Y87.4990
G01 X25.1512 Y87.4712
G01 X25.2367 Y87.4357
G01 X25.3188 Y87.3930
G01 X25.3969 Y87.3432
G01 X25.4704 Y87.2869
G01 X25.5387 Y87.2243
G01 X25.6012 Y87.1560
G01 X25.6576 Y87.0826
G01 X25.7074 Y87.0045
G01 X25.7501 Y86.9223
G01 X25.7856 Y86.8368
G01 X25.8134 Y86.7485
G01 X25.8334 Y86.6581
G01 X25.8455 Y86.5663
G01 X25.8496 Y86.4737
G01 X25.8484 Y86.4256
G01 X25.8448 Y86.3776
G01 X25.8390 Y86.3298
G01 X25.8307 Y86.2824
G01 X25.8202 Y86.2354
G01 X25.8073 Y86.1891
G01 X25.7922 Y86.1433
G01 X25.7749 Y86.0984
G01 X25.7554 Y86.0544
G01 X25.7338 Y86.0114
G01 X25.7100 Y85.9695
G01 X25.6843 Y85.9289
G01 X25.6566 Y85.8895
G01 X25.6270 Y85.8516
G01 X25.5955 Y85.8151
G01 X25.5623 Y85.7803
G01 X25.5275 Y85.7471
G01 X25.4910 Y85.7156
G01 X25.4531 Y85.6860
G01 X25.4137 Y85.6583
G01 X25.3730 Y85.6325
G01 X25.3312 Y85.6088
G01 X25.2882 Y85.5872
G01 X25.2442 Y85.5677
G01 X25.1992 Y85.5503
G01 X25.1535 Y85.5352
G01 X25.1071 Y85.5224
G01 X25.0602 Y85.5119
G01 X25.0128 Y85.5036
G01 X24.9650 Y85.4977
G01 X24.9170 Y85.4942
G01 X24.8688 Y85.4930
G01 X24.8207 Y85.4942
G01 X24.7727 Y85.4977
G01 X24.7249 Y85.5036
G01 X24.6775 Y85.5119
G01 X24.6306 Y85.5224
G01 X24.5842 Y85.5352
G01 X24.5385 Y85.5503
G01 X24.4935 Y85.5677
G01 X24.4495 Y85.5872
G01 X24.4065 Y85.6088
G01 X24.3647 Y85.6325
G01 X24.3240 Y85.6583
G01 X24.2846 Y85.6860
G01 X24.2467 Y85.7156
G01 X24.2102 Y85.7471
G01 X24.1754 Y85.7803
G01 X24.1422 Y85.8151
G01 X24.1107 Y85.8516
G01 X24.0811 Y85.8895
G01 X24.0534 Y85.9289
G01 X24.0277 Y85.9695
G01 X24.0039 Y86.0114
G01 X23.9823 Y86.0544
G01 X23.9628 Y86.0984
G01 X23.9455 Y86.1433
G01 X23.9304 Y86.1891
G01 X23.9175 Y86.2354
G01 X23.9070 Y86.2824
G01 X23.8987 Y86.3298
G01 X23.8928 Y86.3776
G01 X23.8893 Y86.4256
G01 X23.8881 Y86.4737
G01 X23.8894 Y86.5208
G01 X23.8931 Y86.5678
G01 X23.8992 Y86.6145
G01 X23.9078 Y86.6609
G01 X23.9188 Y86.7067
G01 X23.9322 Y86.7519
G01 X23.9479 Y86.7963
G01 X23.9659 Y86.8398
G01 X23.9862 Y86.8823
G01 X24.0087 Y86.9237
G01 X24.0333 Y86.9639
G01 X24.0600 Y87.0027
G01 X24.0887 Y87.0401
G01 X24.1193 Y87.0760
G01 X24.1517 Y87.1101
G01 X24.1859 Y87.1426
G01 X24.2217 Y87.1732
G01 X24.2591 Y87.2019
G01 X24.2980 Y87.2285
G01 X24.3381 Y87.2532
G01 X24.3795 Y87.2756
G01 X24.4221 Y87.2959
G01 X24.4656 Y87.3140
G01 X24.5100 Y87.3297
G01 X24.5552 Y87.3431
G01 X24.6010 Y87.3541
G01 X24.6473 Y87.3627
G01 X24.6941 Y87.3688
G01 X24.7410 Y87.3725
G01 X24.7881 Y87.3737
G01 X24.8352 Y87.3725
G01 X24.8822 Y87.3688
G01 X24.9289 Y87.3627
G01 X24.9752 Y87.3541
G01 X25.0211 Y87.3431
G01 X25.0662 Y87.3297
G01 X25.1107 Y87.3140
G01 X25.1542 Y87.2959
G01 X25.1967 Y87.2756
G01 X25.2381 Y87.2532
G01 X25.2783 Y87.2285
G01 X25.3171 Y87.2019
G01 X25.3545 Y87.1732
G01 X25.3903 Y87.1426
G01 X25.4245 Y87.1101
G01 X25.4570 Y87.0760
G01 X25.4876 Y87.0401
G01 X25.5162 Y87.0027
G01 X25.5429 Y86.9639
G01 X25.5675 Y86.9237
G01 X25.5900 Y86.8823
G01 X25.6103 Y86.8398
G01 X25.6283 Y86.7963
G01 X25.6441 Y86.7519
G01 X25.6575 Y86.7067
G01 X25.6685 Y86.6609
G01 X25.6770 Y86.6145
G01 X25.6832 Y86.5678
G01 X25.6869 Y86.5208
G01 X25.6881 Y86.4737
M107
M106 S200
G01 X25.6869 Y86.4266 Z-2.0167 F400
G01 X25.6832 Y86.3797 Z-2.0333
G01 X25.6770 Y86.3329 Z-2.0500
G01 X25.6685 Y86.2866 Z-2.0667
G01 X25.6575 Y86.2408 Z-2.0833
G01 X25.6441 Y86.1956 Z-2.1000
G01 X25.6283 Y86.1512 Z-2.1167
G01 X25.6103 Y86.1077 Z-2.1333
G01 X25.5900 Y86.0651 Z-2.1500
G01 X25.5675 Y86.0237 Z-2.1667
G01 X25.5429 Y85.9836 Z-2.1833
G01 X25.5162 Y85.9447 Z-2.2000
G01 X25.4876 Y85.9074 Z-2.2167
G01 X25.4570 Y85.8715 Z-2.2333
G01 X25.4245 Y85.8373 Z-2.2500
G01 X25.3903 Y85.8049 Z-2.2667
G01 X25.3545 Y85.7743 Z-2.2833
G01 X25.3171 Y85.7456 Z-2.3000
G01 X25.2783 Y85.7189 Z-2.3167
G01 X25.2381 Y85.6943 Z-2.3333
G01 X25.1967 Y85.6718 Z-2.3500
G01 X25.1542 Y85.6515 Z-2.3667
G01 X25.1107 Y85.6335 Z-2.3833
G01 X25.0662 Y85.6178 Z-2.4000
G01 X25.0211 Y85.6044 Z-2.4167
G01 X24.9752 Y85.5934 Z-2.4333
G01 X24.9289 Y85.5848 Z-2.4500
G01 X24.8822 Y85.5787 Z-2.4667
G01 X24.8352 Y85.5750 Z-2.4833
G01 X24.7881 Y85.5737 Z-2.5000
G01 X24.7410 Y85.5750 Z-2.5167
G01 X24.6941 Y85.5787 Z-2.5333
G01 X24.6473 Y85.5848 Z-2.5500
G01 X24.6010 Y85.5934 Z-2.5667
G01 X24.5552 Y85.6044 Z-2.5833
G01 X24.5100 Y85.6178 Z-2.6000
G01 X24.4656 Y85.6335 Z-2.6167
G01 X24.4221 Y85.6515 Z-2.6333
G01 X24.3795 Y85.6718 Z-2.6500
G01 X24.3381 Y85.6943 Z-2.6667
G01 X24.2980 Y85.7189 Z-2.6833
G01 X24.2591 Y85.7456 Z-2.7000
G01 X24.2217 Y85.7743 Z-2.7167
G01 X24.1859 Y85.8049 Z-2.7333
G01 X24.1517 Y85.8373 Z-2.7500
G01 X24.1193 Y85.8715 Z-2.7667
G01 X24.0887 Y85.9074 Z-2.7833
G01 X24.0600 Y85.9447 Z-2.8000
G01 X24.0333 Y85.9836 Z-2.8167
G01 X24.0087 Y86.0237 Z-2.8333
G01 X23.9862 Y86.0651 Z-2.8500
G01 X23.9659 Y86.1077 Z-2.8667
G01 X23.9479 Y86.1512 Z-2.8833
G01 X23.9322 Y86.1956 Z-2.9000
G01 X23.9188 Y86.2408 Z-2.9167
G01 X23.9078 Y86.2866 Z-2.9333
G01 X23.8992 Y86.3329 Z-2.9500
G01 X23.8931 Y86.3797 Z-2.9667
G01 X23.8894 Y86.4266 Z-2.9833
G01 X23.8881 Y86.4737 Z-3.0000
G01 X23.8894 Y86.5208 Z-3.0167
G01 X23.8931 Y86.5678 Z-3.0333
G01 X23.8992 Y86.6145 Z-3.0500
G01 X23.9078 Y86.6609 Z-3.0667
G01 X23.9188 Y86.7067 Z-3.0833
G01 X23.9322 Y86.7519 Z-3.1000
G01 X23.9479 Y86.7963 Z-3.1167
G01 X23.9659 Y86.8398 Z-3.1333
G01 X23.9862 Y86.8823 Z-3.1500
G01 X24.0087 Y86.9237 Z-3.1667
G01 X24.0333 Y86.9639 Z-3.1833
G01 X24.0600 Y87.0027 Z-3.2000
G01 X24.0887 Y87.0401 Z-3.2167
G01 X24.1193 Y87.0760 Z-3.2333
G01 X24.1517 Y87.1101 Z-3.2500
G01 X24.1859 Y87.1426 Z-3.2667
G01 X24.2217 Y87.1732 Z-3.2833
G01 X24.2591 Y87.2019 Z-3.3000
G01 X24.2980 Y87.2285 Z-3.3167
G01 X24.3381 Y87.2532 Z-3.3333
G01 X24.3795 Y87.2756 Z-3.3500
G01 X24.4221 Y87.2959 Z-3.3667
G01 X24.4656 Y87.3140 Z-3.3833
G01 X24.5100 Y87.3297 Z-3.4000
G01 X24.5552 Y87.3431 Z-3.4167
G01 X24.6010 Y87.3541 Z-3.4333
G01 X24.6473 Y87.3627 Z-3.4500
G01 X24.6941 Y87.3688 Z-3.4667
G01 X24.7410 Y87.3725 Z-3.4833
G01 X24.7881 Y87.3737 Z-3.5000
G01 X24.8352 Y87.3725 Z-3.5167
G01 X24.8822 Y87.3688 Z-3.5333
G01 X24.9289 Y87.3627 Z-3.5500
G01 X24.9752 Y87.3541 Z-3.5667
G01 X25.0211 Y87.3431 Z-3.5833
G01 X25.0662 Y87.3297 Z-3.6000
G01 X25.1107 Y87.3140 Z-3.6167
G01 X25.1542 Y87.2959 Z-3.6333
G01 X25.1967 Y87.2756 Z-3.6500
G01 X25.2381 Y87.2532 Z-3.6667
G01 X25.2783 Y87.2285 Z-3.6833
G01 X25.3171 Y87.2019 Z-3.7000
G01 X25.3545 Y87.1732 Z-3.7167
G01 X25.3903 Y87.1426 Z-3.7333
G01 X25.4245 Y87.1101 Z-3.7500
G01 X25.4570 Y87.0760 Z-3.7667
G01 X25.4876 Y87.0401 Z-3.7833
G01 X25.5162 Y87.0027 Z-3.8000
G01 X25.5429 Y86.9639 Z-3.8167
G01 X25.5675 Y86.9237 Z-3.8333
G01 X25.5900 Y86.8823 Z-3.8500
G01 X25.6103 Y86.8398 Z-3.8667
G01 X25.6283 Y86.7963 Z-3.8833
G01 X25.6441 Y86.7519 Z-3.9000
G01 X25.6575 Y86.7067 Z-3.9167
G01 X25.6685 Y86.6609 Z-3.9333
G01 X25.6770 Y86.6145 Z-3.9500
G01 X25.6832 Y86.5678 Z-3.9667
G01 X25.6869 Y86.5208 Z-3.9833
G01 X25.6881 Y86.4737 Z-4.0000
G01 X25.6869 Y86.4266
G01 X25.6832 Y86.3797
G01 X25.6770 Y86.3329
G01 X25.6685 Y86.2866
G01 X25.6575 Y86.2408
G01 X25.6441 Y86.1956
G01 X25.6283 Y86.1512
G01 X25.6103 Y86.1077
G01 X25.5900 Y86.0651
G01 X25.5675 Y86.0237
G01 X25.5429 Y85.9836
G01 X25.5162 Y85.9447
G01 X25.4876 Y85.9074
G01 X25.4570 Y85.8715
G01 X25.4245 Y85.8373
G01 X25.3903 Y85.8049
G01 X25.3545 Y85.7743
G01 X25.3171 Y85.7456
G01 X25.2783 Y85.7189
G01 X25.2381 Y85.6943
G01 X25.1967 Y85.6718
G01 X25.1542 Y85.6515
G01 X25.1107 Y85.6335
G01 X25.0662 Y85.6178
G01 X25.0211 Y85.6044
G01 X24.9752 Y85.5934
G01 X24.9289 Y85.5848
G01 X24.8822 Y85.5787
G01 X24.8352 Y85.5750
G01 X24.7881 Y85.5737
G01 X24.7410 Y85.5750
G01 X24.6941 Y85.5787
G01 X24.6473 Y85.5848
G01 X24.6010 Y85.5934
G01 X24.5552 Y85.6044
G01 X24.5100 Y85.6178
G01 X24.4656 Y85.6335
G01 X24.4221 Y85.6515
G01 X24.3795 Y85.6718
G01 X24.3381 Y85.6943
G01 X24.2980 Y85.7189
G01 X24.2591 Y85.7456
G01 X24.2217 Y85.7743
G01 X24.1859 Y85.8049
G01 X24.1517 Y85.8373
G01 X24.1193 Y85.8715
G01 X24.0887 Y85.9074
G01 X24.0600 Y85.9447
G01 X24.0333 Y85.9836
G01 X24.0087 Y86.0237
G01 X23.9862 Y86.0651
G01 X23.9659 Y86.1077
G01 X23.9479 Y86.1512
G01 X23.9322 Y86.1956
G01 X23.9188 Y86.2408
G01 X23.9078 Y86.2866
G01 X23.8992 Y86.3329
G01 X23.8931 Y86.3797
G01 X23.8894 Y86.4266
G01 X23.8881 Y86.4737
G01 X23.8894 Y86.5208
G01 X23.8931 Y86.5678
G01 X23.8992 Y86.6145
G01 X23.9078 Y86.6609
G01 X23.9188 Y86.7067
G01 X23.9322 Y86.7519
G01 X23.9479 Y86.7963
G01 X23.9659 Y86.8398
G01 X23.9862 Y86.8823
G01 X24.0087 Y86.9237
G01 X24.0333 Y86.9639
G01 X24.0600 Y87.0027
G01 X24.0887 Y87.0401
G01 X24.1193 Y87.0760
G01 X24.1517 Y87.1101
G01 X24.1859 Y87.1426
G01 X24.2217 Y87.1732
G01 X24.2591 Y87.2019
G01 X24.2980 Y87.2285
G01 X24.3381 Y87.2532
G01 X24.3795 Y87.2756
G01 X24.4221 Y87.2959
G01 X24.4656 Y87.3140
G01 X24.5100 Y87.3297
G01 X24.5552 Y87.3431
G01 X24.6010 Y87.3541
G01 X24.6473 Y87.3627
G01 X24.6941 Y87.3688
G01 X24.7410 Y87.3725
G01 X24.7881 Y87.3737
G01 X24.8352 Y87.3725
G01 X24.8822 Y87.3688
G01 X24.9289 Y87.3627
G01 X24.9752 Y87.3541
G01 X25.0211 Y87.3431
G01 X25.0662 Y87.3297
G01 X25.1107 Y87.3140
G01 X25.1542 Y87.2959
G01 X25.1967 Y87.2756
G01 X25.2381 Y87.2532
G01 X25.2783 Y87.2285
G01 X25.3171 Y87.2019
G01 X25.3545 Y87.1732
G01 X25.3903 Y87.1426
G01 X25.4245 Y87.1101
G01 X25.4570 Y87.0760
G01 X25.4876 Y87.0401
G01 X25.5162 Y87.0027
G01 X25.5429 Y86.9639
G01 X25.5675 Y86.9237
G01 X25.5900 Y86.8823
G01 X25.6103 Y86.8398
G01 X25.6283 Y86.7963
G01 X25.6441 Y86.7519
G01 X25.6575 Y86.7067
G01 X25.6685 Y86.6609
G01 X25.6770 Y86.6145
G01 X25.6832 Y86.5678
G01 X25.6869 Y86.5208
G01 X25.6881 Y86.4737
G01 X25.6990 Y86.4271 F800
G01 X25.7075 Y86.3799
G01 X25.7135 Y86.3323
G01 X25.7170 Y86.2845
G01 X25.7181 Y86.2366
G01 X25.7166 Y86.1887
G01 X25.7127 Y86.1409
G01 X25.7062 Y86.0934
G01 X25.6937 Y86.0439
G01 X25.6786 Y85.9950
G01 X25.6611 Y85.9469
G01 X25.6412 Y85.8998
G01 X25.6189 Y85.8538
G01 X25.5944 Y85.8089
G01 X25.5676 Y85.7654
G01 X25.5387 Y85.7232
G01 X25.5010 Y85.6873
G01 X25.4615 Y85.6532
G01 X25.4204 Y85.6212
G01 X25.3778 Y85.5912
G01 X25.3338 Y85.5633
G01 X25.2885 Y85.5376
G01 X25.2420 Y85.5142
G01 X25.1943 Y85.4931
G01 X25.1457 Y85.4743
G01 X25.0962 Y85.4580
G01 X25.0460 Y85.4441
G01 X24.9952 Y85.4327
G01 X24.9439 Y85.4238
G01 X24.8922 Y85.4174
G01 X24.8402 Y85.4136
G01 X24.7881 Y85.4123
G01 X24.7360 Y85.4136
G01 X24.6841 Y85.4174
G01 X24.6324 Y85.4238
G01 X24.5810 Y85.4327
G01 X24.5302 Y85.4441
G01 X24.4800 Y85.4580
G01 X24.4305 Y85.4743
G01 X24.3819 Y85.4931
G01 X24.3343 Y85.5142
G01 X24.2878 Y85.5376
G01 X24.2424 Y85.5633
G01 X24.1984 Y85.5912
G01 X24.1558 Y85.6212
G01 X24.1148 Y85.6532
G01 X24.0753 Y85.6873
G01 X24.0376 Y85.7232
G01 X24.0016 Y85.7609
G01 X23.9676 Y85.8004
G01 X23.9356 Y85.8414
G01 X23.9056 Y85.8840
G01 X23.8777 Y85.9280
G01 X23.8520 Y85.9734
G01 X23.8286 Y86.0199
G01 X23.8075 Y86.0675
G01 X23.7887 Y86.1161
G01 X23.7724 Y86.1656
G01 X23.7585 Y86.2158
G01 X23.7471 Y86.2667
G01 X23.7382 Y86.3180
G01 X23.7318 Y86.3697
G01 X23.7280 Y86.4217
G01 X23.7267 Y86.4737
G01 X23.7280 Y86.5258
G01 X23.7318 Y86.5778
G01 X23.7382 Y86.6295
G01 X23.7471 Y86.6808
G01 X23.7585 Y86.7317
G01 X23.7724 Y86.7819
G01 X23.7887 Y86.8313
G01 X23.8075 Y86.8799
G01 X23.8286 Y86.9276
G01 X23.8520 Y86.9741
G01 X23.8777 Y87.0194
G01 X23.9056 Y87.0634
G01 X23.9356 Y87.1060
G01 X23.9676 Y87.1471
G01 X24.0016 Y87.1866
G01 X24.0376 Y87.2243
G01 X24.0753 Y87.2602
G01 X24.1148 Y87.2942
G01 X24.1558 Y87.3263
G01 X24.1984 Y87.3563
G01 X24.2424 Y87.3842
G01 X24.2878 Y87.4099
G01 X24.3343 Y87.4333
G01 X24.3819 Y87.4544
G01 X24.4305 Y87.4731
G01 X24.4800 Y87.4895
G01 X24.5302 Y87.5034
G01 X24.5810 Y87.5148
G01 X24.6324 Y87.5237
G01 X24.6841 Y87.5301
G01 X24.7360 Y87.5339
G01 X24.7881 Y87.5352
G01 X24.8402 Y87.5339
G01 X24.8922 Y87.5301
G01 X24.9439 Y87.5237
G01 X24.9952 Y87.5148
G01 X25.0460 Y87.5034
G01 X25.0962 Y87.4895
G01 X25.1457 Y87.4731
G01 X25.1943 Y87.4544
G01 X25.2420 Y87.4333
G01 X25.2885 Y87.4099
G01 X25.3338 Y87.3842
G01 X25.3778 Y87.3563
G01 X25.4204 Y87.3263
G01 X25.4615 Y87.2942
G01 X25.5010 Y87.2602
G01 X25.5387 Y87.2243
G01 X25.5746 Y87.1866
G01 X25.6086 Y87.1471
G01 X25.6407 Y87.1060
G01 X25.6707 Y87.0634
G01 X25.6986 Y87.0194
G01 X25.7242 Y86.9741
G01 X25.7477 Y86.9276
G01 X25.7688 Y86.8799
G01 X25.7875 Y86.8313
G01 X25.8039 Y86.7819
G01 X25.8178 Y86.7317
G01 X25.8292 Y86.6808
G01 X25.8381 Y86.6295
G01 X25.8445 Y86.5778
G01 X25.8483 Y86.5258
G01 X25.8496 Y86.4737
G01 X25.8455 Y86.3812
G01 X25.8334 Y86.2894
G01 X25.8134 Y86.1990
G01 X25.7856 Y86.1107
G01 X25.7501 Y86.0252
G01 X25.7074 Y85.9430
G01 X25.6576 Y85.8649
G01 X25.6012 Y85.7915
G01 X25.5387 Y85.7232
G01 X25.4704 Y85.6606
G01 X25.3969 Y85.6043
G01 X25.3188 Y85.5545
G01 X25.2367 Y85.5117
G01 X25.1512 Y85.4763
G01 X25.0628 Y85.4485
G01 X24.9724 Y85.4284
G01 X24.8806 Y85.4163
G01 X24.7881 Y85.4123
G01 X24.6956 Y85.4163
G01 X24.6038 Y85.4284
G01 X24.5134 Y85.4485
G01 X24.4251 Y85.4763
G01 X24.3395 Y85.5117
G01 X24.2574 Y85.5545
G01 X24.1793 Y85.6043
G01 X24.1058 Y85.6606
G01 X24.0376 Y85.7232
G01 X23.9750 Y85.7915
G01 X23.9186 Y85.8649
G01 X23.8689 Y85.9430
G01 X23.8261 Y86.0252
G01 X23.7907 Y86.1107
G01 X23.7628 Y86.1990
G01 X23.7428 Y86.2894
G01 X23.7307 Y86.3812
G01 X23.7267 Y86.4737
G01 X23.7307 Y86.5663
G01 X23.7428 Y86.6581
G01 X23.7628 Y86.7485
G01 X23.7907 Y86.8368
G01 X23.8261 Y86.9223
G01 X23.8689 Y87.0045
G01 X23.9186 Y87.0826
G01 X23.9750 Y87.1560
G01 X24.0376 Y87.2243
G01 X24.1058 Y87.2869
G01 X24.1793 Y87.3432
G01 X24.2574 Y87.3930
G01 X24.3395 Y87.4357
G01 X24.4251 Y87.4712
G01 X24.5134 Y87.4990
G01 X24.6038 Y87.5191
G01 X24.6956 Y87.5311
G01 X24.7881 Y87.5352
G01 X24.8806 Y87.5311
G01 X24.9724 Y87.5191
G01 X25.0628 Y87.4990
G01 X25.1512 Y87.4712
G01 X25.2367 Y87.4357
G01 X25.3188 Y87.3930
G01 X25.3969 Y87.3432
G01 X25.4704 Y87.2869
G01 X25.5387 Y87.2243
G01 X25.6012 Y87.1560
G01 X25.6576 Y87.0826
G01 X25.7074 Y87.0045
G01 X25.7501 Y86.9223
G01 X25.7856 Y86.8368
G01 X25.8134 Y86.7485
G01 X25.8334 Y86.6581
G01 X25.8455 Y86.5663
G01 X25.8496 Y86.4737
G01 X25.8484 Y86.4256
G01 X25.8448 Y86.3776
G01 X25.8390 Y86.3298
G01 X25.8307 Y86.2824
G01 X25.8202 Y86.2354
G01 X25.8073 Y86.1891
G01 X25.7922 Y86.1433
G01 X25.7749 Y86.0984
G01 X25.7554 Y86.0544
G01 X25.7338 Y86.0114
G01 X25.7100 Y85.9695
G01 X25.6843 Y85.9289
G01 X25.6566 Y85.8895
G01 X25.6270 Y85.8516
G01 X25.5955 Y85.8151
G01 X25.5623 Y85.7803
G01 X25.5275 Y85.7471
G01 X25.4910 Y85.7156
G01 X25.4531 Y85.6860
G01 X25.4137 Y85.6583
G01 X25.3730 Y85.6325
G01 X25.3312 Y85.6088
G01 X25.2882 Y85.5872
G01 X25.2442 Y85.5677
G01 X25.1992 Y85.5503
G01 X25.1535 Y85.5352
G01 X25.1071 Y85.5224
G01 X25.0602 Y85.5119
G01 X25.0128 Y85.5036
G01 X24.9650 Y85.4977
G01 X24.9170 Y85.4942
G01 X24.8688 Y85.4930
G01 X24.8207 Y85.4942
G01 X24.7727 Y85.4977
G01 X24.7249 Y85.5036
G01 X24.6775 Y85.5119
G01 X24.6306 Y85.5224
G01 X24.5842 Y85.5352
G01 X24.5385 Y85.5503
G01 X24.4935 Y85.5677
G01 X24.4495 Y85.5872
G01 X24.4065 Y85.6088
G01 X24.3647 Y85.6325
G01 X24.3240 Y85.6583
G01 X24.2846 Y85.6860
G01 X24.2467 Y85.7156
G01 X24.2102 Y85.7471
G01 X24.1754 Y85.7803
G01 X24.1422 Y85.8151
G01 X24.1107 Y85.8516
G01 X24.0811 Y85.8895
G01 X24.0534 Y85.9289
G01 X24.0277 Y85.9695
G01 X24.0039 Y86.0114
G01 X23.9823 Y86.0544
G01 X23.9628 Y86.0984
G01 X23.9455 Y86.1433
G01 X23.9304 Y86.1891
G01 X23.9175 Y86.2354
G01 X23.9070 Y86.2824
G01 X23.8987 Y86.3298
G01 X23.8928 Y86.3776
G01 X23.8893 Y86.4256
G01 X23.8881 Y86.4737
G01 X23.8894 Y86.5208
G01 X23.8931 Y86.5678
G01 X23.8992 Y86.6145
G01 X23.9078 Y86.6609
G01 X23.9188 Y86.7067
G01 X23.9322 Y86.7519
G01 X23.9479 Y86.7963
G01 X23.9659 Y86.8398
G01 X23.9862 Y86.8823
G01 X24.0087 Y86.9237
G01 X24.0333 Y86.9639
G01 X24.0600 Y87.0027
G01 X24.0887 Y87.0401
G01 X24.1193 Y87.0760
G01 X24.1517 Y87.1101
G01 X24.1859 Y87.1426
G01 X24.2217 Y87.1732
G01 X24.2591 Y87.2019
G01 X24.2980 Y87.2285
G01 X24.3381 Y87.2532
G01 X24.3795 Y87.2756
G01 X24.4221 Y87.2959
G01 X24.4656 Y87.3140
G01 X24.5100 Y87.3297
G01 X24.5552 Y87.3431
G01 X24.6010 Y87.3541
G01 X24.6473 Y87.3627
G01 X24.6941 Y87.3688
G01 X24.7410 Y87.3725
G01 X24.7881 Y87.3737
G01 X24.8352 Y87.3725
G01 X24.8822 Y87.3688
G01 X24.9289 Y87.3627
G01 X24.9752 Y87.3541
G01 X25.0211 Y87.3431
G01 X25.0662 Y87.3297
G01 X25.1107 Y87.3140
G01 X25.1542 Y87.2959
G01 X25.1967 Y87.2756
G01 X25.2381 Y87.2532
G01 X25.2783 Y87.2285
G01 X25.3171 Y87.2019
G01 X25.3545 Y87.1732
G01 X25.3903 Y87.1426
G01 X25.4245 Y87.1101
G01 X25.4570 Y87.0760
G01 X25.4876 Y87.0401
G01 X25.5162 Y87.0027
G01 X25.5429 Y86.9639
G01 X25.5675 Y86.9237
G01 X25.5900 Y86.8823
G01 X25.6103 Y86.8398
G01 X25.6283 Y86.7963
G01 X25.6441 Y86.7519
G01 X25.6575 Y86.7067
G01 X25.6685 Y86.6609
G01 X25.6770 Y86.6145
G01 X25.6832 Y86.5678
G01 X25.6869 Y86.5208
G01 X25.6881 Y86.4737
M107
M106 S200
G01 X25.6869 Y86.4266 Z-4.0125 F400
G01 X25.6832 Y86.3797 Z-4.0250
G01 X25.6770 Y86.3329 Z-4.0375
G01 X25.6685 Y86.2866 Z-4.0500
G01 X25.6575 Y86.2408 Z-4.0625
G01 X25.6441 Y86.1956 Z-4.0750
G01 X25.6283 Y86.1512 Z-4.0875
G01 X25.6103 Y86.1077 Z-4.1000
G01 X25.5900 Y86.0651 Z-4.1125
G01 X25.5675 Y86.0237 Z-4.1250
G01 X25.5429 Y85.9836 Z-4.1375
G01 X25.5162 Y85.9447 Z-4.1500
G01 X25.4876 Y85.9074 Z-4.1625
G01 X25.4570 Y85.8715 Z-4.1750
G01 X25.4245 Y85.8373 Z-4.1875
G01 X25.3903 Y85.8049 Z-4.2000
G01 X25.3545 Y85.7743 Z-4.2125
G01 X25.3171 Y85.7456 Z-4.2250
G01 X25.2783 Y85.7189 Z-4.2375
G01 X25.2381 Y85.6943 Z-4.2500
G01 X25.1967 Y85.6718 Z-4.2625
G01 X25.1542 Y85.6515 Z-4.2750
G01 X25.1107 Y85.6335 Z-4.2875
G01 X25.0662 Y85.6178 Z-4.3000
G01 X25.0211 Y85.6044 Z-4.3125
G01 X24.9752 Y85.5934 Z-4.3250
G01 X24.9289 Y85.5848 Z-4.3375
G01 X24.8822 Y85.5787 Z-4.3500
G01 X24.8352 Y85.5750 Z-4.3625
G01 X24.7881 Y85.5737 Z-4.3750
G01 X24.7410 Y85.5750 Z-4.3875
G01 X24.6941 Y85.5787 Z-4.4000
G01 X24.6473 Y85.5848 Z-4.4125
G01 X24.6010 Y85.5934 Z-4.4250
G01 X24.5552 Y85.6044 Z-4.4375
G01 X24.5100 Y85.6178 Z-4.4500
G01 X24.4656 Y85.6335 Z-4.4625
G01 X24.4221 Y85.6515 Z-4.4750
G01 X24.3795 Y85.6718 Z-4.4875
G01 X24.3381 Y85.6943 Z-4.5000
G01 X24.2980 Y85.7189 Z-4.5125
G01 X24.2591 Y85.7456 Z-4.5250
G01 X24.2217 Y85.7743 Z-4.5375
G01 X24.1859 Y85.8049 Z-4.5500
G01 X24.1517 Y85.8373 Z-4.5625
G01 X24.1193 Y85.8715 Z-4.5750
G01 X24.0887 Y85.9074 Z-4.5875
G01 X24.0600 Y85.9447 Z-4.6000
G01 X24.0333 Y85.9836 Z-4.6125
G01 X24.0087 Y86.0237 Z-4.6250
G01 X23.9862 Y86.0651 Z-4.6375
G01 X23.9659 Y86.1077 Z-4.6500
G01 X23.9479 Y86.1512 Z-4.6625
G01 X23.9322 Y86.1956 Z-4.6750
G01 X23.9188 Y86.2408 Z-4.6875
G01 X23.9078 Y86.2866 Z-4.7000
G01 X23.8992 Y86.3329 Z-4.7125
G01 X23.8931 Y86.3797 Z-4.7250
G01 X23.8894 Y86.4266 Z-4.7375
G01 X23.8881 Y86.4737 Z-4.7500
G01 X23.8894 Y86.5208 Z-4.7625
G01 X23.8931 Y86.5678 Z-4.7750
G01 X23.8992 Y86.6145 Z-4.7875
G01 X23.9078 Y86.6609 Z-4.8000
G01 X23.9188 Y86.7067 Z-4.8125
G01 X23.9322 Y86.7519 Z-4.8250
G01 X23.9479 Y86.7963 Z-4.8375
G01 X23.9659 Y86.8398 Z-4.8500
G01 X23.9862 Y86.8823 Z-4.8625
G01 X24.0087 Y86.9237 Z-4.8750
G01 X24.0333 Y86.9639 Z-4.8875
G01 X24.0600 Y87.0027 Z-4.9000
G01 X24.0887 Y87.0401 Z-4.9125
G01 X24.1193 Y87.0760 Z-4.9250
G01 X24.1517 Y87.1101 Z-4.9375
G01 X24.1859 Y87.1426 Z-4.9500
G01 X24.2217 Y87.1732 Z-4.9625
G01 X24.2591 Y87.2019 Z-4.9750
G01 X24.2980 Y87.2285 Z-4.9875
G01 X24.3381 Y87.2532 Z-5.0000
G01 X24.3795 Y87.2756 Z-5.0125
G01 X24.4221 Y87.2959 Z-5.0250
G01 X24.4656 Y87.3140 Z-5.0375
G01 X24.5100 Y87.3297 Z-5.0500
G01 X24.5552 Y87.3431 Z-5.0625
G01 X24.6010 Y87.3541 Z-5.0750
G01 X24.6473 Y87.3627 Z-5.0875
G01 X24.6941 Y87.3688 Z-5.1000
G01 X24.7410 Y87.3725 Z-5.1125
G01 X24.7881 Y87.3737 Z-5.1250
G01 X24.8352 Y87.3725 Z-5.1375
G01 X24.8822 Y87.3688 Z-5.1500
G01 X24.9289 Y87.3627 Z-5.1625
G01 X24.9752 Y87.3541 Z-5.1750
G01 X25.0211 Y87.3431 Z-5.1875
G01 X25.0662 Y87.3297 Z-5.2000
G01 X25.1107 Y87.3140 Z-5.2125
G01 X25.1542 Y87.2959 Z-5.2250
G01 X25.1967 Y87.2756 Z-5.2375
G01 X25.2381 Y87.2532 Z-5.2500
G01 X25.2783 Y87.2285 Z-5.2625
G01 X25.3171 Y87.2019 Z-5.2750
G01 X25.3545 Y87.1732 Z-5.2875
G01 X25.3903 Y87.1426 Z-5.3000
G01 X25.4245 Y87.1101 Z-5.3125
G01 X25.4570 Y87.0760 Z-5.3250
G01 X25.4876 Y87.0401 Z-5.3375
G01 X25.5162 Y87.0027 Z-5.3500
G01 X25.5429 Y86.9639 Z-5.3625
G01 X25.5675 Y86.9237 Z-5.3750
G01 X25.5900 Y86.8823 Z-5.3875
G01 X25.6103 Y86.8398 Z-5.4000
G01 X25.6283 Y86.7963 Z-5.4125
G01 X25.6441 Y86.7519 Z-5.4250
G01 X25.6575 Y86.7067 Z-5.4375
G01 X25.6685 Y86.6609 Z-5.4500
G01 X25.6770 Y86.6145 Z-5.4625
G01 X25.6832 Y86.5678 Z-5.4750
G01 X25.6869 Y86.5208 Z-5.4875
G01 X25.6881 Y86.4737 Z-5.5000
G01 X25.6869 Y86.4266
G01 X25.6832 Y86.3797
G01 X25.6770 Y86.3329
G01 X25.6685 Y86.2866
G01 X25.6575 Y86.2408
G01 X25.6441 Y86.1956
G01 X25.6283 Y86.1512
G01 X25.6103 Y86.1077
G01 X25.5900 Y86.0651
G01 X25.5675 Y86.0237
G01 X25.5429 Y85.9836
G01 X25.5162 Y85.9447
G01 X25.4876 Y85.9074
G01 X25.4570 Y85.8715
G01 X25.4245 Y85.8373
G01 X25.3903 Y85.8049
G01 X25.3545 Y85.7743
G01 X25.3171 Y85.7456
G01 X25.2783 Y85.7189
G01 X25.2381 Y85.6943
G01 X25.1967 Y85.6718
G01 X25.1542 Y85.6515
G01 X25.1107 Y85.6335
G01 X25.0662 Y85.6178
G01 X25.0211 Y85.6044
G01 X24.9752 Y85.5934
G01 X24.9289 Y85.5848
G01 X24.8822 Y85.5787
G01 X24.8352 Y85.5750
G01 X24.7881 Y85.5737
G01 X24.7410 Y85.5750
G01 X24.6941 Y85.5787
G01 X24.6473 Y85.5848
G01 X24.6010 Y85.5934
G01 X24.5552 Y85.6044
G01 X24.5100 Y85.6178
G01 X24.4656 Y85.6335
G01 X24.4221 Y85.6515
G01 X24.3795 Y85.6718
G01 X24.3381 Y85.6943
G01 X24.2980 Y85.7189
G01 X24.2591 Y85.7456
G01 X24.2217 Y85.7743
G01 X24.1859 Y85.8049
G01 X24.1517 Y85.8373
G01 X24.1193 Y85.8715
G01 X24.0887 Y85.9074
G01 X24.0600 Y85.9447
G01 X24.0333 Y85.9836
G01 X24.0087 Y86.0237
G01 X23.9862 Y86.0651
G01 X23.9659 Y86.1077
G01 X23.9479 Y86.1512
G01 X23.9322 Y86.1956
G01 X23.9188 Y86.2408
G01 X23.9078 Y86.2866
G01 X23.8992 Y86.3329
G01 X23.8931 Y86.3797
G01 X23.8894 Y86.4266
G01 X23.8881 Y86.4737
G01 X23.8894 Y86.5208
G01 X23.8931 Y86.5678
G01 X23.8992 Y86.6145
G01 X23.9078 Y86.6609
G01 X23.9188 Y86.7067
G01 X23.9322 Y86.7519
G01 X23.9479 Y86.7963
G01 X23.9659 Y86.8398
G01 X23.9862 Y86.8823
G01 X24.0087 Y86.9237
G01 X24.0333 Y86.9639
G01 X24.0600 Y87.0027
G01 X24.0887 Y87.0401
G01 X24.1193 Y87.0760
G01 X24.1517 Y87.1101
G01 X24.1859 Y87.1426
G01 X24.2217 Y87.1732
G01 X24.2591 Y87.2019
G01 X24.2980 Y87.2285
G01 X24.3381 Y87.2532
G01 X24.3795 Y87.2756
G01 X24.4221 Y87.2959
G01 X24.4656 Y87.3140
G01 X24.5100 Y87.3297
G01 X24.5552 Y87.3431
G01 X24.6010 Y87.3541
G01 X24.6473 Y87.3627
G01 X24.6941 Y87.3688
G01 X24.7410 Y87.3725
G01 X24.7881 Y87.3737
G01 X24.8352 Y87.3725
G01 X24.8822 Y87.3688
G01 X24.9289 Y87.3627
G01 X24.9752 Y87.3541
G01 X25.0211 Y87.3431
G01 X25.0662 Y87.3297
G01 X25.1107 Y87.3140
G01 X25.1542 Y87.2959
G01 X25.1967 Y87.2756
G01 X25.2381 Y87.2532
G01 X25.2783 Y87.2285
G01 X25.3171 Y87.2019
G01 X25.3545 Y87.1732
G01 X25.3903 Y87.1426
G01 X25.4245 Y87.1101
G01 X25.4570 Y87.0760
G01 X25.4876 Y87.0401
G01 X25.5162 Y87.0027
G01 X25.5429 Y86.9639
G01 X25.5675 Y86.9237
G01 X25.5900 Y86.8823
G01 X25.6103 Y86.8398
G01 X25.6283 Y86.7963
G01 X25.6441 Y86.7519
G01 X25.6575 Y86.7067
G01 X25.6685 Y86.6609
G01 X25.6770 Y86.6145
G01 X25.6832 Y86.5678
G01 X25.6869 Y86.5208
G01 X25.6881 Y86.4737
G01 X25.6990 Y86.4271 F800
G01 X25.7075 Y86.3799
G01 X25.7135 Y86.3323
G01 X25.7170 Y86.2845
G01 X25.7181 Y86.2366
G01 X25.7166 Y86.1887
G01 X25.7127 Y86.1409
G01 X25.7062 Y86.0934
G01 X25.6937 Y86.0439
G01 X25.6786 Y85.9950
G01 X25.6611 Y85.9469
G01 X25.6412 Y85.8998
G01 X25.6189 Y85.8538
G01 X25.5944 Y85.8089
G01 X25.5676 Y85.7654
G01 X25.5387 Y85.7232
G01 X25.5010 Y85.6873
G01 X25.4615 Y85.6532
G01 X25.4204 Y85.6212
G01 X25.3778 Y85.5912
G01 X25.3338 Y85.5633
G01 X25.2885 Y85.5376
G01 X25.2420 Y85.5142
G01 X25.1943 Y85.4931
G01 X25.1457 Y85.4743
G01 X25.0962 Y85.4580
G01 X25.0460 Y85.4441
G01 X24.9952 Y85.4327
G01 X24.9439 Y85.4238
G01 X24.8922 Y85.4174
G01 X24.8402 Y85.4136
G01 X24.7881 Y85.4123
G01 X24.7360 Y85.4136
G01 X24.6841 Y85.4174
G01 X24.6324 Y85.4238
G01 X24.5810 Y85.4327
G01 X24.5302 Y85.4441
G01 X24.4800 Y85.4580
G01 X24.4305 Y85.4743
G01 X24.3819 Y85.4931
G01 X24.3343 Y85.5142
G01 X24.2878 Y85.5376
G01 X24.2424 Y85.5633
G01 X24.1984 Y85.5912
G01 X24.1558 Y85.6212
G01 X24.1148 Y85.6532
G01 X24.0753 Y85.6873
G01 X24.0376 Y85.7232
G01 X24.0016 Y85.7609
G01 X23.9676 Y85.8004
G01 X23.9356 Y85.8414
G01 X23.9056 Y85.8840
G01 X23.8777 Y85.9280
G01 X23.8520 Y85.9734
G01 X23.8286 Y86.0199
G01 X23.8075 Y86.0675
G01 X23.7887 Y86.1161
G01 X23.7724 Y86.1656
G01 X23.7585 Y86.2158
G01 X23.7471 Y86.2667
G01 X23.7382 Y86.3180
G01 X23.7318 Y86.3697
G01 X23.7280 Y86.4217
G01 X23.7267 Y86.4737
G01 X23.7280 Y86.5258
G01 X23.7318 Y86.5778
G01 X23.7382 Y86.6295
G01 X23.7471 Y86.6808
G01 X23.7585 Y86.7317
G01 X23.7724 Y86.7819
G01 X23.7887 Y86.8313
G01 X23.8075 Y86.8799
G01 X23.8286 Y86.9276
G01 X23.8520 Y86.9741
G01 X23.8777 Y87.0194
G01 X23.9056 Y87.0634
G01 X23.9356 Y87.1060
G01 X23.9676 Y87.1471
G01 X24.0016 Y87.1866
G01 X24.0376 Y87.2243
G01 X24.0753 Y87.2602
G01 X24.1148 Y87.2942
G01 X24.1558 Y87.3263
G01 X24.1984 Y87.3563
G01 X24.2424 Y87.3842
G01 X24.2878 Y87.4099
G01 X24.3343 Y87.4333
G01 X24.3819 Y87.4544
G01 X24.4305 Y87.4731
G01 X24.4800 Y87.4895
G01 X24.5302 Y87.5034
G01 X24.5810 Y87.5148
G01 X24.6324 Y87.5237
G01 X24.6841 Y87.5301
G01 X24.7360 Y87.5339
G01 X24.7881 Y87.5352
G01 X24.8402 Y87.5339
G01 X24.8922 Y87.5301
G01 X24.9439 Y87.5237
G01 X24.9952 Y87.5148
G01 X25.0460 Y87.5034
G01 X25.0962 Y87.4895
G01 X25.1457 Y87.4731
G01 X25.1943 Y87.4544
G01 X25.2420 Y87.4333
G01 X25.2885 Y87.4099
G01 X25.3338 Y87.3842
G01 X25.3778 Y87.3563
G01 X25.4204 Y87.3263
G01 X25.4615 Y87.2942
G01 X25.5010 Y87.2602
G01 X25.5387 Y87.2243
G01 X25.5746 Y87.1866
G01 X25.6086 Y87.1471
G01 X25.6407 Y87.1060
G01 X25.6707 Y87.0634
G01 X25.6986 Y87.0194
G01 X25.7242 Y86.9741
G01 X25.7477 Y86.9276
G01 X25.7688 Y86.8799
G01 X25.7875 Y86.8313
G01 X25.8039 Y86.7819
G01 X25.8178 Y86.7317
G01 X25.8292 Y86.6808
G01 X25.8381 Y86.6295
G01 X25.8445 Y86.5778
G01 X25.8483 Y86.5258
G01 X25.8496 Y86.4737
G01 X25.8455 Y86.3812
G01 X25.8334 Y86.2894
G01 X25.8134 Y86.1990
G01 X25.7856 Y86.1107
G01 X25.7501 Y86.0252
G01 X25.7074 Y85.9430
G01 X25.6576 Y85.8649
G01 X25.6012 Y85.7915
G01 X25.5387 Y85.7232
G01 X25.4704 Y85.6606
G01 X25.3969 Y85.6043
G01 X25.3188 Y85.5545
G01 X25.2367 Y85.5117
G01 X25.1512 Y85.4763
G01 X25.0628 Y85.4485
G01 X24.9724 Y85.4284
G01 X24.8806 Y85.4163
G01 X24.7881 Y85.4123
G01 X24.6956 Y85.4163
G01 X24.6038 Y85.4284
G01 X24.5134 Y85.4485
G01 X24.4251 Y85.4763
G01 X24.3395 Y85.5117
G01 X24.2574 Y85.5545
G01 X24.1793 Y85.6043
G01 X24.1058 Y85.6606
G01 X24.0376 Y85.7232
G01 X23.9750 Y85.7915
G01 X23.9186 Y85.8649
G01 X23.8689 Y85.9430
G01 X23.8261 Y86.0252
G01 X23.7907 Y86.1107
G01 X23.7628 Y86.1990
G01 X23.7428 Y86.2894
G01 X23.7307 Y86.3812
G01 X23.7267 Y86.4737
G01 X23.7307 Y86.5663
G01 X23.7428 Y86.6581
G01 X23.7628 Y86.7485
G01 X23.7907 Y86.8368
G01 X23.8261 Y86.9223
G01 X23.8689 Y87.0045
G01 X23.9186 Y87.0826
G01 X23.9750 Y87.1560
G01 X24.0376 Y87.2243
G01 X24.1058 Y87.2869
G01 X24.1793 Y87.3432
G01 X24.2574 Y87.3930
G01 X24.3395 Y87.4357
G01 X24.4251 Y87.4712
G01 X24.5134 Y87.4990
G01 X24.6038 Y87.5191
G01 X24.6956 Y87.5311
G01 X24.7881 Y87.5352
G01 X24.8806 Y87.5311
G01 X24.9724 Y87.5191
G01 X25.0628 Y87.4990
G01 X25.1512 Y87.4712
G01 X25.2367 Y87.4357
G01 X25.3188 Y87.3930
G01 X25.3969 Y87.3432
G01 X25.4704 Y87.2869
G01 X25.5387 Y87.2243
G01 X25.6012 Y87.1560
G01 X25.6576 Y87.0826
G01 X25.7074 Y87.0045
G01 X25.7501 Y86.9223
G01 X25.7856 Y86.8368
G01 X25.8134 Y86.7485
G01 X25.8334 Y86.6581
G01 X25.8455 Y86.5663
G01 X25.8496 Y86.4737
M107
M106 S200
G01 X25.8448 Y86.3757 Z-5.4688 F400
M107
M106 S200
G01 X25.8304 Y86.2786 Z-5.4375
M107
M106 S200
G01 X25.8065 Y86.1835 Z-5.4063
M107
M106 S200
G01 X25.7735 Y86.0911 Z-5.3750
M107
M106 S200
G01 X25.7315 Y86.0023 Z-5.3438
M107
M106 S200
G01 X25.6810 Y85.9182 Z-5.3125
M107
M106 S200
G01 X25.6226 Y85.8393 Z-5.2813
M107
M106 S200
G01 X25.5567 Y85.7666 Z-5.2500
M107
M106 S200
G01 X25.4840 Y85.7007 Z-5.2188
M107
M106 S200
G01 X25.4051 Y85.6423 Z-5.1875
M107
M106 S200
G01 X25.3210 Y85.5918 Z-5.1563
M107
M106 S200
G01 X25.2323 Y85.5499 Z-5.1250
M107
M106 S200
G01 X25.1399 Y85.5168 Z-5.0938
M107
M106 S200
G01 X25.0447 Y85.4930 Z-5.0625
M107
M106 S200
G01 X24.9476 Y85.4786 Z-5.0313
M107
M106 S200
G01 X24.8496 Y85.4737 Z-5.0000
M107
G00 Z2.0000


;No. 2: Hole 3
G00 X82.3792 Y22.2971 Z2.0000
G00 Z0.5000
G01 Z-1.8000 F400
M106 S200
G01 X84.4264 F800
G01 X84.9305 Y23.7971
G01 X40.1183
G01 X41.4165 Y25.2971
G01 X84.3804
G01 X83.5412 Y26.7971
G01 X43.6960
G01 X44.9595 Y28.2971
G01 X82.7536
G01 X64.5948
G01 Y29.7971
G01 X45.6181
G01 X45.9179 Y31.2971
G01 X60.9577
G01 X59.2485
G01 Y32.7971
G01 X46.0825
G01 X46.1793 Y34.2971
G01 X58.0782
G01 X57.2993 Y35.7971
G01 X46.2332
G01 X46.2584 Y37.2971
G01 X56.8034
G01 X56.4684 Y38.7971
G01 X46.2625
G01 Y40.2971
G01 X56.2677
G01 X56.1320 Y41.7971
G01 X46.2625
G01 Y43.2971
G01 X56.0551
G01 X56.0118 Y44.7971
G01 X46.2625
G01 Y46.2971
G01 X55.9909
G01 X55.9853 Y47.7971
G01 X46.2625
G01 Y49.2971
G01 X55.9853
G01 Y50.7971
G01 X46.2625
G01 Y52.2971
G01 X55.9853
G01 Y53.7971
G01 X46.2625
G01 Y55.2971
G01 X55.9853
G01 Y56.7971
G01 X46.2625
G01 Y58.2971
G01 X55.9853
G01 Y59.7971
G01 X46.2625
G01 Y61.2971
G01 X55.9853
G01 Y62.7971
G01 X46.2625
G01 Y64.2971
G01 X55.9853
G01 X55.9854 Y65.7971
G01 X46.2625
G01 Y67.2971
G01 X55.9854
G01 Y68.7971
G01 X46.2625
G01 Y70.2971
G01 X55.9854
G01 Y71.7971
G01 X46.2625
G01 Y73.2971
G01 X55.9854
G01 Y74.7971
G01 X46.2625
G01 X46.2624 Y76.2971
G01 X55.9854
G01 X56.0029 Y77.7971
G01 X46.2503
G01 X46.2112 Y79.2971
G01 X56.0742
G01 X56.2191 Y80.7971
G01 X46.1300
G01 X45.9690 Y82.2971
G01 X56.4707
G01 X56.8917 Y83.7971
G01 X45.6299
G01 X45.0237 Y85.2971
G01 X57.6485
G01 X58.8376 Y86.7971
G01 X43.9491
G01 X42.3958 Y88.2971
G01 X60.5072
G01 X45.5999
G01 Y89.7971
G01 X40.6288
G01 X40.3766 Y91.2971
G01 X41.6625
M107
G00 Z2.0000
G00 X68.1004 Y28.2971
G00 Z0.5000
G01 Z-1.8000 F400
M106 S200
G01 Y29.7971 F800
G01 X82.1819
G01 X81.8017 Y31.2971
G01 X71.5765
G01 X73.2117 Y32.7971
G01 X81.5912
G01 X81.5341 Y34.2971
G01 X74.3392
G01 X75.1913 Y35.7971
G01 X81.5774
G01 X81.6414 Y37.2971
G01 X75.8316
G01 X76.3007 Y38.7971
G01 X81.7075
G01 X81.7699 Y40.2971
G01 X76.6241
G01 X76.8247 Y41.7971
G01 X81.7962
G01 X81.7177 Y43.2971
G01 X76.9172
G01 X76.9104 Y44.7971
G01 X81.5417
G01 X81.2658 Y46.2971
G01 X76.7805
G01 X76.5255 Y47.7971
G01 X80.8616
G01 X80.3413 Y49.2971
G01 X76.1469
G01 X75.6476 Y50.7971
G01 X79.6939
G01 X78.8813 Y52.2971
G01 X75.0852
G01 X74.7295 Y53.7971
G01 X77.6685
M107
G00 Z2.0000
G00 X57.1816 Y88.2971
G00 Z0.5000
G01 Z-1.8000 F400
M106 S200
G01 Y89.7971 F800
G01 X62.3781
G01 X62.5658 Y91.2971
G01 X60.9754
M107
G00 Z2.0000
G00 Z0.5000
G01 Z-1.8000 F400
M106 S200
G01 X60.9078 Y91.4853 F800
G01 X60.9529 Y91.5015
G01 X61.2370 Y91.6060
G01 X61.5282 Y91.6889
G01 X61.8247 Y91.7497
G01 X62.1250 Y91.7880
G01 X62.1597 Y91.7895
G01 X62.1944 Y91.7891
G01 X62.2291 Y91.7868
G01 X62.2636 Y91.7826
G01 X62.2978 Y91.7766
G01 X62.3316 Y91.7686
G01 X62.3649 Y91.7589
G01 X62.3976 Y91.7473
G01 X62.4297 Y91.7339
G01 X62.4610 Y91.7188
G01 X62.4913 Y91.7020
G01 X62.5208 Y91.6836
G01 X62.5492 Y91.6636
G01 X62.5764 Y91.6420
G01 X62.6024 Y91.6190
G01 X62.6271 Y91.5946
G01 X62.6505 Y91.5689
G01 X62.6723 Y91.5419
G01 X62.6927 Y91.5138
G01 X62.7115 Y91.4846
G01 X62.7287 Y91.4545
G01 X62.7442 Y91.4234
G01 X62.7580 Y91.3915
G01 X62.7700 Y91.3589
G01 X62.7802 Y91.3257
G01 X62.7885 Y91.2920
G01 X62.7950 Y91.2579
G01 X62.7997 Y91.2235
G01 X62.8279 Y91.1221
G01 X62.8505 Y91.0193
G01 X62.8674 Y90.9155
G01 X62.8786 Y90.8108
G01 X62.8841 Y90.7057
G01 X62.8838 Y90.6005
G01 X62.8777 Y90.4955
G01 X62.8659 Y90.3909
G01 X62.8483 Y90.2871
G01 X62.8251 Y90.1845
G01 X62.7963 Y90.0833
G01 X62.7619 Y89.9838
G01 X62.7418 Y89.9408
G01 X62.7199 Y89.8986
G01 X62.6963 Y89.8574
G01 X62.6710 Y89.8172
G01 X62.2330 Y89.3962
G01 X61.7745 Y88.9975
G01 X61.2968 Y88.6221
G01 X60.8010 Y88.2710
G01 X60.3540 Y87.9351
G01 X59.9232 Y87.5786
G01 X59.5097 Y87.2023
G01 X59.1143 Y86.8069
G01 X58.7379 Y86.3934
G01 X58.3814 Y85.9627
G01 X58.0455 Y85.5158
G01 X57.7309 Y85.0535
G01 X57.5236 Y84.6881
G01 X57.3342 Y84.3130
G01 X57.1632 Y83.9292
G01 X57.0110 Y83.5376
G01 X56.8779 Y83.1391
G01 X56.7642 Y82.7346
G01 X56.6702 Y82.3251
G01 X56.5962 Y81.9115
G01 X56.5062 Y81.3606
G01 X56.4275 Y80.8080
G01 X56.3601 Y80.2539
G01 X56.3042 Y79.6986
G01 X56.2596 Y79.1422
G01 X56.2265 Y78.5850
G01 X56.2048 Y78.0272
G01 X56.1946 Y77.4691
G01 X56.1882 Y77.0604
G01 X56.1854 Y76.6519
G01 X56.1853 Y47.4445
G01 X56.1872 Y46.7391
G01 X56.1929 Y46.0338
G01 X56.2023 Y45.3285
G01 X56.2153 Y44.6233
G01 X56.2242 Y43.8700
G01 X56.2480 Y43.1170
G01 X56.2867 Y42.3647
G01 X56.3404 Y41.6132
G01 X56.4090 Y40.8630
G01 X56.4924 Y40.1143
G01 X56.5907 Y39.3674
G01 X56.7037 Y38.6226
G01 X56.7757 Y38.2498
G01 X56.8576 Y37.8791
G01 X56.9494 Y37.5107
G01 X57.0511 Y37.1448
G01 X57.1625 Y36.7819
G01 X57.2836 Y36.4220
G01 X57.4143 Y36.0656
G01 X57.5546 Y35.7127
G01 X57.7554 Y35.2781
G01 X57.9776 Y34.8540
G01 X58.2206 Y34.4415
G01 X58.4838 Y34.0416
G01 X58.7665 Y33.6552
G01 X59.0681 Y33.2833
G01 X59.3878 Y32.9269
G01 X59.7248 Y32.5868
G01 X60.1305 Y32.2010
G01 X60.5587 Y31.8404
G01 X61.0079 Y31.5063
G01 X61.4765 Y31.1999
G01 X61.9628 Y30.9224
G01 X62.4649 Y30.6748
G01 X62.9811 Y30.4580
G01 X63.5094 Y30.2727
G01 X64.0479 Y30.1197
G01 X64.5947 Y29.9995
G01 X65.1478 Y29.9126
G01 X65.7051 Y29.8592
G01 X66.2646 Y29.8396
G01 X66.8243 Y29.8538
G01 X67.3821 Y29.9018
G01 X67.9360 Y29.9835
G01 X68.4839 Y30.0984
G01 X69.0239 Y30.2462
G01 X69.5540 Y30.4263
G01 X70.0722 Y30.6382
G01 X70.4618 Y30.8401
G01 X70.8419 Y31.0593
G01 X71.2117 Y31.2954
G01 X71.5705 Y31.5480
G01 X71.9175 Y31.8164
G01 X72.2521 Y32.1002
G01 X72.5736 Y32.3988
G01 X72.8813 Y32.7116
G01 X73.1746 Y33.0379
G01 X73.4529 Y33.3771
G01 X73.7157 Y33.7285
G01 X73.9624 Y34.0913
G01 X74.3323 Y34.6740
G01 X74.6770 Y35.2718
G01 X74.9960 Y35.8838
G01 X75.2886 Y36.5088
G01 X75.5544 Y37.1457
G01 X75.7928 Y37.7934
G01 X76.0034 Y38.4506
G01 X76.1858 Y39.1162
G01 X76.3397 Y39.7889
G01 X76.4648 Y40.4676
G01 X76.5609 Y41.1510
G01 X76.6278 Y41.8379
G01 X76.6957 Y42.6544
G01 X76.7290 Y43.4731
G01 X76.7276 Y44.2925
G01 X76.6916 Y45.1111
G01 X76.6211 Y45.9274
G01 X76.5161 Y46.7400
G01 X76.3768 Y47.5475
G01 X76.2036 Y48.3483
G01 X75.9966 Y49.1411
G01 X75.7563 Y49.9245
G01 X75.4832 Y50.6970
G01 X75.1776 Y51.4572
G01 X74.9644 Y51.9917
G01 X74.7853 Y52.5384
G01 X74.6407 Y53.0953
G01 X74.5314 Y53.6602
G01 X74.5284 Y53.7343
G01 X74.5295 Y53.8056
G01 X74.5326 Y53.8769
G01 X74.5377 Y53.9481
G01 X74.5448 Y54.0191
G01 X74.5568 Y54.1312
G01 X74.5775 Y54.2420
G01 X74.6069 Y54.3508
G01 X74.6448 Y54.4570
G01 X74.6908 Y54.5598
G01 X74.7449 Y54.6588
G01 X74.8065 Y54.7531
G01 X74.8754 Y54.8424
G01 X74.9510 Y54.9259
G01 X75.0330 Y55.0033
G01 X75.1208 Y55.0740
G01 X75.2139 Y55.1375
G01 X75.3079 Y55.1548
G01 X75.4026 Y55.1667
G01 X75.4979 Y55.1735
G01 X75.5934 Y55.1749
G01 X75.6889 Y55.1711
G01 X75.7840 Y55.1619
G01 X75.8784 Y55.1476
G01 X75.9719 Y55.1280
G01 X76.0642 Y55.1032
G01 X76.1549 Y55.0734
G01 X76.2439 Y55.0387
G01 X76.3308 Y54.9990
G01 X76.5782 Y54.8735
G01 X76.8186 Y54.7353
G01 X77.0516 Y54.5847
G01 X77.2763 Y54.4222
G01 X77.4923 Y54.2481
G01 X77.6989 Y54.0630
G01 X77.8955 Y53.8674
G01 X78.0816 Y53.6617
G01 X78.3907 Y53.2939
G01 X78.6844 Y52.9137
G01 X78.9620 Y52.5216
G01 X79.2232 Y52.1184
G01 X79.4675 Y51.7048
G01 X79.6945 Y51.2813
G01 X79.9038 Y50.8489
G01 X80.0950 Y50.4081
G01 X80.4341 Y49.6069
G01 X80.7412 Y48.7928
G01 X81.0158 Y47.9671
G01 X81.2573 Y47.1312
G01 X81.4655 Y46.2864
G01 X81.6400 Y45.4340
G01 X81.7806 Y44.5753
G01 X81.8869 Y43.7118
G01 X81.9589 Y42.8446
G01 X81.9964 Y41.9754
G01 X81.9994 Y41.1053
G01 X81.9678 Y40.2357
G01 X81.9228 Y39.1564
G01 X81.8764 Y38.0772
G01 X81.8286 Y36.9980
G01 X81.7793 Y35.9189
G01 X81.7774 Y35.8533
G01 Y35.0178
G01 X81.7628 Y34.8874
G01 X81.7513 Y34.7566
G01 X81.7430 Y34.6255
G01 X81.7378 Y34.4943
G01 X81.7328 Y34.2303
G01 X81.7340 Y33.9287
G01 X81.7534 Y33.2739
G01 X81.8038 Y32.6208
G01 X81.8850 Y31.9708
G01 X81.9970 Y31.3254
G01 X82.1395 Y30.6861
G01 X82.3121 Y30.0542
G01 X82.5145 Y29.4312
G01 X82.7462 Y28.8185
G01 X83.0067 Y28.2174
G01 X83.2954 Y27.6294
G01 X83.6116 Y27.0558
G01 X83.9546 Y26.4977
G01 X84.2773 Y25.9478
G01 X84.5671 Y25.3799
G01 X84.8230 Y24.7960
G01 X85.0442 Y24.1980
G01 X85.0831 Y24.0757
G01 X85.1138 Y23.9511
G01 X85.1362 Y23.8247
G01 X85.1502 Y23.6971
G01 X85.1557 Y23.5689
G01 X85.1527 Y23.4406
G01 X85.1411 Y23.3128
G01 X85.1212 Y23.1860
G01 X85.0929 Y23.0608
G01 X85.0563 Y22.9378
G01 X85.0117 Y22.8174
G01 X84.9592 Y22.7003
G01 X84.8990 Y22.5869
G01 X84.8315 Y22.4778
G01 X84.7569 Y22.3734
G01 X84.6755 Y22.2741
G01 X84.5877 Y22.1805
G01 X84.4939 Y22.0929
G01 X84.3945 Y22.0117
G01 X84.2900 Y21.9372
G01 X84.2244 Y21.9042
G01 X84.1570 Y21.8753
G01 X84.0879 Y21.8506
G01 X84.0174 Y21.8302
G01 X83.9458 Y21.8142
G01 X83.8734 Y21.8026
G01 X83.8004 Y21.7955
G01 X83.7270 Y21.7929
G01 X83.6537 Y21.7948
G01 X83.5806 Y21.8012
G01 X83.5080 Y21.8121
G01 X83.4363 Y21.8275
G01 X83.1621 Y21.8718
G01 X82.8908 Y21.9312
G01 X82.6231 Y22.0055
G01 X82.3600 Y22.0945
G01 X81.9082 Y22.2343
G01 X81.4518 Y22.3585
G01 X80.9914 Y22.4667
G01 X80.5275 Y22.5590
G01 X80.0607 Y22.6352
G01 X79.5915 Y22.6952
G01 X79.1206 Y22.7389
G01 X78.6484 Y22.7663
G01 X41.7003 Y22.7671
G01 X41.5839 Y22.7627
G01 X41.4675 Y22.7633
G01 X41.3512 Y22.7688
G01 X41.2352 Y22.7793
G01 X41.1198 Y22.7947
G01 X41.0051 Y22.8151
G01 X40.8914 Y22.8403
G01 X40.7789 Y22.8704
G01 X40.6678 Y22.9052
G01 X40.5583 Y22.9448
G01 X40.4506 Y22.9890
G01 X40.3448 Y23.0377
G01 X40.3079 Y23.0597
G01 X40.2722 Y23.0836
G01 X40.2377 Y23.1092
G01 X40.2046 Y23.1367
G01 X40.1730 Y23.1658
G01 X40.1430 Y23.1965
G01 X40.1146 Y23.2288
G01 X40.0879 Y23.2624
G01 X40.0630 Y23.2975
G01 X40.0400 Y23.3337
G01 X40.0188 Y23.3711
G01 X39.9997 Y23.4096
G01 X39.9825 Y23.4490
G01 X39.9675 Y23.4892
G01 X39.9545 Y23.5302
G01 X39.9437 Y23.5718
G01 X39.9351 Y23.6139
G01 X39.9287 Y23.6564
G01 X39.9244 Y23.6991
G01 X39.9225 Y23.7421
G01 X39.9167 Y23.8070
G01 X39.9132 Y23.8713
G01 X39.9116 Y23.9553
G01 X39.9122 Y24.0023
G01 X39.9142 Y24.0492
G01 X39.9174 Y24.0961
G01 X39.9219 Y24.1429
G01 X39.9309 Y24.2271
G01 X39.9470 Y24.3103
G01 X39.9700 Y24.3918
G01 X39.9998 Y24.4711
G01 X40.0361 Y24.5476
G01 X40.0787 Y24.6207
G01 X40.1274 Y24.6901
G01 X40.1817 Y24.7551
G01 X40.2413 Y24.8153
G01 X40.3057 Y24.8703
G01 X40.3745 Y24.9196
G01 X40.4472 Y24.9630
G01 X40.8290 Y25.1956
G01 X41.2164 Y25.4185
G01 X41.6093 Y25.6317
G01 X42.0074 Y25.8350
G01 X42.4574 Y26.0954
G01 X42.8882 Y26.3866
G01 X43.2975 Y26.7072
G01 X43.6834 Y27.0556
G01 X44.0440 Y27.4302
G01 X44.3775 Y27.8290
G01 X44.6823 Y28.2501
G01 X44.9570 Y28.6916
G01 X45.1038 Y28.9997
G01 X45.2363 Y29.3143
G01 X45.3541 Y29.6346
G01 X45.4571 Y29.9600
G01 X45.5450 Y30.2898
G01 X45.6176 Y30.6234
G01 X45.6747 Y30.9599
G01 X45.7163 Y31.2986
G01 X45.8039 Y32.0604
G01 X45.8788 Y32.8235
G01 X45.9409 Y33.5878
G01 X45.9902 Y34.3530
G01 X46.0267 Y35.1189
G01 X46.0504 Y35.8853
G01 X46.0614 Y36.6520
G01 X46.0595 Y37.4188
G01 X46.0625 Y38.2545
G01 Y76.2473
G01 X46.0657 Y77.6006
G01 X46.0315 Y78.9534
G01 X45.9599 Y80.3048
G01 X45.8511 Y81.6536
G01 X45.7967 Y82.1687
G01 X45.7136 Y82.6800
G01 X45.6020 Y83.1858
G01 X45.4624 Y83.6847
G01 X45.2951 Y84.1749
G01 X45.1006 Y84.6550
G01 X44.8796 Y85.1235
G01 X44.6328 Y85.5789
G01 X44.4300 Y85.8747
G01 X44.2170 Y86.1632
G01 X43.9940 Y86.4441
G01 X43.7614 Y86.7171
G01 X43.5193 Y86.9818
G01 X43.2682 Y87.2378
G01 X43.0082 Y87.4849
G01 X42.7398 Y87.7227
G01 X42.2161 Y88.1742
G01 X41.6900 Y88.6227
G01 X41.1613 Y89.0682
G01 X40.6302 Y89.5109
G01 X40.5306 Y89.5981
G01 X40.4373 Y89.6919
G01 X40.3505 Y89.7919
G01 X40.2707 Y89.8975
G01 X40.1983 Y90.0083
G01 X40.1336 Y90.1237
G01 X40.0768 Y90.2433
G01 X40.0284 Y90.3665
G01 X40.0222 Y90.3897
G01 X40.0168 Y90.4131
G01 X40.0122 Y90.4367
G01 X40.0085 Y90.4604
G01 X40.0055 Y90.4842
G01 X40.0033 Y90.5082
G01 X40.0020 Y90.5322
G01 X40.0015 Y90.5562
G01 X40.0032 Y90.6384
G01 X40.0083 Y90.7204
G01 X40.0166 Y90.8022
G01 X40.0283 Y90.8836
G01 X40.0405 Y90.9736
G01 X40.0593 Y91.0624
G01 X40.0846 Y91.1496
G01 X40.1163 Y91.2347
G01 X40.1542 Y91.3172
G01 X40.1981 Y91.3967
G01 X40.2477 Y91.4727
G01 X40.3029 Y91.5448
G01 X40.3632 Y91.6127
G01 X40.4284 Y91.6759
G01 X40.4981 Y91.7341
G01 X40.5720 Y91.7869
G01 X40.7047 Y91.7761
G01 X40.8368 Y91.7592
G01 X40.9680 Y91.7365
G01 X41.0981 Y91.7079
G01 X41.2268 Y91.6735
G01 X41.3538 Y91.6334
G01 X41.4789 Y91.5876
G01 X41.6018 Y91.5362
G01 X44.4062 Y90.4253
G01 X45.1981 Y90.1294
G01 X46.0011 Y89.8654
G01 X46.8141 Y89.6337
G01 X47.6356 Y89.4346
G01 X48.4645 Y89.2686
G01 X49.2993 Y89.1358
G01 X50.1388 Y89.0364
G01 X50.9815 Y88.9707
G01 X51.5533 Y88.9510
G01 X52.1254 Y88.9544
G01 X52.6970 Y88.9809
G01 X53.2670 Y89.0305
G01 X53.8345 Y89.1031
G01 X54.3986 Y89.1985
G01 X54.9584 Y89.3166
G01 X55.5130 Y89.4573
G01 X56.7419 Y89.8604
G01 X57.9587 Y90.2984
G01 X59.1626 Y90.7709
G01 X60.3525 Y91.2777
G01 X60.6897 Y91.4070
G01 X60.9078 Y91.4853
G01 X60.9754 Y91.2971
M107
G00 Z2.0000


;No. 3: Hole 4
G00 X99.9019 Y23.0915 Z2.0000
G00 Z0.5000
G01 Z-1.8000 F400
M106 S200
G01 X109.1860 F800
G01 Y24.5915
G01 X111.6138
G01 X97.4188
G01 X95.7426 Y26.0915
G01 X113.2527
G01 X114.4950 Y27.5915
G01 X94.4706
G01 X93.4656 Y29.0915
G01 X115.4824
G01 X116.2885 Y30.5915
G01 X92.6519
G01 X91.9836 Y32.0915
G01 X116.9573
G01 X103.4993
G01 Y33.5915
G01 X91.4153
G01 X90.9512 Y35.0915
G01 X100.9816
G01 X99.3852 Y36.5915
G01 X90.5842
G01 X90.3018 Y38.0915
G01 X98.1718
G01 X97.2016 Y39.5915
G01 X90.0950
G01 X89.9563 Y41.0915
G01 X96.4082
G01 X95.7511 Y42.5915
G01 X89.8799
G01 X89.8600 Y44.0915
G01 X95.1999
G01 X94.7380 Y45.5915
G01 X89.8973
G01 X89.9943 Y47.0915
G01 X94.3686
G01 X94.0868 Y48.5915
G01 X90.1527
G01 X90.3733 Y50.0915
G01 X93.8848
G01 X93.7590 Y51.5915
G01 X90.6578
G01 X91.0081 Y53.0915
G01 X93.7040
G01 X93.7202 Y54.5915
G01 X91.4235
G01 X91.9066 Y56.0915
G01 X93.8169
G01 X93.9879 Y57.5915
G01 X92.4592
G01 X93.0821 Y59.0915
G01 X94.2274
M107
G00 Z2.0000
G00 X109.4564 Y32.0915
G00 Z0.5000
G01 Z-1.8000 F400
M106 S200
G01 Y33.5915 F800
G01 X117.5189
G01 X117.9928 Y35.0915
G01 X111.7341
G01 X113.0519 Y36.5915
G01 X118.3830
G01 X118.6978 Y38.0915
G01 X113.9904
G01 X114.6763 Y39.5915
G01 X118.9435
G01 X119.1254 Y41.0915
G01 X115.1616
G01 X115.4805 Y42.5915
G01 X119.2493
G01 X119.3183 Y44.0915
G01 X115.6604
G01 X115.7204 Y45.5915
G01 X119.3365
G01 X119.3057 Y47.0915
G01 X115.6614
G01 X115.4726 Y48.5915
G01 X119.2238
G01 X119.0872 Y50.0915
G01 X115.1551
G01 X114.7105 Y51.5915
G01 X118.8923
G01 X118.6362 Y53.0915
G01 X114.1210
G01 X113.3223 Y54.5915
G01 X118.3137
G01 X117.9204 Y56.0915
G01 X112.2177
G01 Y57.5915
G01 X110.3767
G01 X117.4500
G01 X116.8745 Y59.0915
G01 X98.7490
G01 X99.1135 Y57.5915
G01 X106.1021
G01 X104.7498 Y56.0915
G01 X99.7631
G01 X100.7309 Y54.5915
G01 X104.2742
G01 X104.3831 Y53.0915
G01 X102.3160
M107
G00 Z2.0000
G00 X116.1977 Y59.0915
G00 Z0.5000
G01 Z-1.8000 F400
M106 S200
G01 Y60.5915 F800
G01 X98.6174
G01 X98.6850 Y62.0915
G01 X115.3977
G01 X114.4388 Y63.5915
G01 X98.9784
G01 X99.5585 Y65.0915
G01 X113.2627
G01 X111.7652 Y66.5915
G01 X100.5173
G01 X102.0936 Y68.0915
G01 X109.5429
M107
G00 Z2.0000
G00 Z0.5000
G01 Z-1.8000 F400
M106 S200
G01 X109.6326 Y68.2702 F800
G01 X110.1795 Y67.9658
G01 X110.7106 Y67.6344
G01 X111.2244 Y67.2770
G01 X111.7198 Y66.8944
G01 X112.1956 Y66.4876
G01 X112.6504 Y66.0575
G01 X113.0832 Y65.6054
G01 X113.4930 Y65.1322
G01 X113.9131 Y64.6122
G01 X114.3178 Y64.0800
G01 X114.7066 Y63.5362
G01 X115.0793 Y62.9812
G01 X115.4355 Y62.4155
G01 X115.7749 Y61.8395
G01 X116.0972 Y61.2538
G01 X116.4021 Y60.6588
G01 X116.6894 Y60.0552
G01 X116.9588 Y59.4434
G01 X117.2102 Y58.8239
G01 X117.4431 Y58.1972
G01 X117.7660 Y57.2378
G01 X118.0623 Y56.2699
G01 X118.3319 Y55.2942
G01 X118.5746 Y54.3114
G01 X118.7902 Y53.3224
G01 X118.9785 Y52.3278
G01 X119.1393 Y51.3283
G01 X119.2727 Y50.3249
G01 X119.3783 Y49.3181
G01 X119.4563 Y48.3089
G01 X119.5065 Y47.2978
G01 X119.5288 Y46.2858
G01 X119.5453 Y45.3592
G01 X119.5393 Y44.4325
G01 X119.5109 Y43.5063
G01 X119.4601 Y42.5810
G01 X119.3869 Y41.6572
G01 X119.2914 Y40.7354
G01 X119.1736 Y39.8162
G01 X119.0336 Y38.9001
G01 X118.8715 Y37.9877
G01 X118.6873 Y37.0795
G01 X118.4812 Y36.1760
G01 X118.2533 Y35.2778
G01 X117.9907 Y34.3529
G01 X117.6930 Y33.4388
G01 X117.3605 Y32.5367
G01 X116.9938 Y31.6479
G01 X116.5934 Y30.7739
G01 X116.1599 Y29.9158
G01 X115.6939 Y29.0748
G01 X115.1961 Y28.2523
G01 X114.8370 Y27.7093
G01 X114.4543 Y27.1827
G01 X114.0487 Y26.6734
G01 X113.6211 Y26.1826
G01 X113.1722 Y25.7111
G01 X112.7029 Y25.2599
G01 X112.2142 Y24.8299
G01 X111.7069 Y24.4218
G01 X111.1821 Y24.0366
G01 X110.6409 Y23.6749
G01 X110.0841 Y23.3374
G01 X109.5131 Y23.0249
G01 X108.9860 Y22.7858
G01 X108.4473 Y22.5743
G01 X107.8984 Y22.3908
G01 X107.3408 Y22.2359
G01 X106.7760 Y22.1099
G01 X106.2054 Y22.0131
G01 X105.6306 Y21.9460
G01 X105.0531 Y21.9085
G01 X104.4744 Y21.9008
G01 X103.8961 Y21.9230
G01 X103.3197 Y21.9750
G01 X102.7467 Y22.0566
G01 X102.1891 Y22.1574
G01 X101.6370 Y22.2849
G01 X101.0916 Y22.4386
G01 X100.5541 Y22.6183
G01 X100.0260 Y22.8236
G01 X99.5082 Y23.0540
G01 X99.0021 Y23.3089
G01 X98.5088 Y23.5878
G01 X98.0295 Y23.8899
G01 X97.5652 Y24.2148
G01 X97.1169 Y24.5615
G01 X96.6858 Y24.9293
G01 X96.1930 Y25.3796
G01 X95.7177 Y25.8483
G01 X95.2605 Y26.3348
G01 X94.8221 Y26.8383
G01 X94.4032 Y27.3581
G01 X94.0043 Y27.8934
G01 X93.6260 Y28.4435
G01 X93.2690 Y29.0076
G01 X92.9336 Y29.5848
G01 X92.6204 Y30.1744
G01 X92.3299 Y30.7754
G01 X92.0623 Y31.3871
G01 X91.7470 Y32.1374
G01 X91.4537 Y32.8966
G01 X91.1827 Y33.6641
G01 X90.9340 Y34.4391
G01 X90.7081 Y35.2210
G01 X90.5050 Y36.0092
G01 X90.3250 Y36.8029
G01 X90.1681 Y37.6016
G01 X90.0346 Y38.4045
G01 X89.9245 Y39.2109
G01 X89.8380 Y40.0202
G01 X89.7750 Y40.8317
G01 X89.7287 Y41.5115
G01 X89.6942 Y42.1920
G01 X89.6715 Y42.8730
G01 X89.6606 Y43.5543
G01 X89.6595 Y44.0864
G01 X89.6885 Y45.3231
G01 X89.7576 Y46.5582
G01 X89.8668 Y47.7904
G01 X90.0160 Y49.0184
G01 X90.2051 Y50.2409
G01 X90.4339 Y51.4566
G01 X90.7020 Y52.6642
G01 X91.0092 Y53.8625
G01 X91.3553 Y55.0501
G01 X91.7398 Y56.2259
G01 X92.1623 Y57.3886
G01 X92.6224 Y58.5369
G01 X93.1196 Y59.6696
G01 X93.6533 Y60.7855
G01 X94.2231 Y61.8836
G01 X94.8282 Y62.9625
G01 X94.8721 Y63.0431
G01 X94.9200 Y63.1213
G01 X94.9718 Y63.1970
G01 X95.0274 Y63.2700
G01 X95.0867 Y63.3400
G01 X95.1494 Y63.4069
G01 X95.2155 Y63.4706
G01 X95.2847 Y63.5308
G01 X95.2870 Y63.4235
G01 X95.2850 Y63.3161
G01 X95.2789 Y63.2088
G01 X95.2685 Y63.1019
G01 X95.2539 Y62.9955
G01 X95.2351 Y62.8898
G01 X95.2121 Y62.7848
G01 X95.1850 Y62.6809
G01 X94.9921 Y61.8055
G01 X94.8045 Y60.9290
G01 X94.6222 Y60.0514
G01 X94.4453 Y59.1726
G01 X94.3247 Y58.4986
G01 X94.2190 Y57.8221
G01 X94.1283 Y57.1434
G01 X94.0526 Y56.4629
G01 X93.9920 Y55.7808
G01 X93.9464 Y55.0976
G01 X93.9159 Y54.4136
G01 X93.9005 Y53.7290
G01 X93.9015 Y53.2581
G01 X93.9172 Y52.3184
G01 X93.9638 Y51.3797
G01 X94.0412 Y50.4431
G01 X94.1493 Y49.5095
G01 X94.2880 Y48.5799
G01 X94.4571 Y47.6554
G01 X94.6565 Y46.7370
G01 X94.8860 Y45.8255
G01 X95.1452 Y44.9222
G01 X95.4339 Y44.0278
G01 X95.7518 Y43.1433
G01 X96.0986 Y42.2698
G01 X96.3341 Y41.7039
G01 X96.5882 Y41.1462
G01 X96.8608 Y40.5972
G01 X97.1515 Y40.0576
G01 X97.4600 Y39.5280
G01 X97.7860 Y39.0090
G01 X98.1290 Y38.5011
G01 X98.4888 Y38.0049
G01 X98.8649 Y37.5209
G01 X99.2570 Y37.0498
G01 X99.6645 Y36.5919
G01 X100.0870 Y36.1479
G01 X100.5132 Y35.7343
G01 X100.9623 Y35.3456
G01 X101.4328 Y34.9831
G01 X101.9231 Y34.6479
G01 X102.4317 Y34.3411
G01 X102.9568 Y34.0637
G01 X103.4969 Y33.8166
G01 X104.0502 Y33.6007
G01 X104.5700 Y33.4416
G01 X105.1001 Y33.3208
G01 X105.6375 Y33.2391
G01 X106.1795 Y33.1968
G01 X106.7231 Y33.1943
G01 X107.2655 Y33.2314
G01 X107.8037 Y33.3080
G01 X108.3348 Y33.4237
G01 X108.8561 Y33.5779
G01 X109.3648 Y33.7698
G01 X109.8581 Y33.9982
G01 X110.3333 Y34.2621
G01 X110.7881 Y34.5600
G01 X111.2199 Y34.8902
G01 X111.6264 Y35.2512
G01 X112.0055 Y35.6408
G01 X112.4237 Y36.1254
G01 X112.8179 Y36.6298
G01 X113.1870 Y37.1528
G01 X113.5302 Y37.6932
G01 X113.8467 Y38.2496
G01 X114.1358 Y38.8208
G01 X114.3966 Y39.4054
G01 X114.6287 Y40.0020
G01 X114.8315 Y40.6092
G01 X115.0044 Y41.2256
G01 X115.1471 Y41.8496
G01 X115.2593 Y42.4798
G01 X115.3682 Y43.1955
G01 X115.4484 Y43.9150
G01 X115.4999 Y44.6370
G01 X115.5226 Y45.3606
G01 X115.5164 Y46.0845
G01 X115.4814 Y46.8076
G01 X115.4176 Y47.5287
G01 X115.3250 Y48.2466
G01 X115.2039 Y48.9603
G01 X115.0545 Y49.6687
G01 X114.8769 Y50.3705
G01 X114.6715 Y51.0646
G01 X114.4386 Y51.7500
G01 X114.1786 Y52.4256
G01 X113.8918 Y53.0903
G01 X113.5787 Y53.7430
G01 X113.3316 Y54.2098
G01 X113.0590 Y54.6621
G01 X112.7617 Y55.0985
G01 X112.4406 Y55.5178
G01 X112.0967 Y55.9186
G01 X111.7311 Y56.2997
G01 X111.3450 Y56.6600
G01 X110.9394 Y56.9982
G01 X110.6767 Y57.1910
G01 X110.4008 Y57.3644
G01 X110.1132 Y57.5174
G01 X109.8152 Y57.6493
G01 X109.5085 Y57.7594
G01 X109.1947 Y57.8470
G01 X108.8754 Y57.9118
G01 X108.5522 Y57.9534
G01 X108.2269 Y57.9716
G01 X107.9011 Y57.9662
G01 X107.5765 Y57.9374
G01 X107.2549 Y57.8852
G01 X106.9601 Y57.7954
G01 X106.6744 Y57.6799
G01 X106.4001 Y57.5396
G01 X106.1392 Y57.3756
G01 X105.8938 Y57.1893
G01 X105.6658 Y56.9820
G01 X105.4570 Y56.7554
G01 X105.2690 Y56.5112
G01 X105.0851 Y56.2602
G01 X104.9227 Y55.9947
G01 X104.7830 Y55.7166
G01 X104.6669 Y55.4278
G01 X104.5752 Y55.1304
G01 X104.5086 Y54.8264
G01 X104.4676 Y54.5179
G01 X104.4523 Y54.2071
G01 X104.4517 Y54.1237
G01 X104.4533 Y54.0703
G01 X104.4557 Y54.0169
G01 X104.4591 Y53.9635
G01 X104.4633 Y53.9102
G01 X104.4809 Y53.7486
G01 X104.5014 Y53.5872
G01 X104.5248 Y53.4263
G01 X104.5511 Y53.2658
G01 X104.5687 Y53.1750
G01 X104.7343 Y52.4863
G01 X104.7265 Y52.5186
G01 X104.7648 Y52.3285
G01 X104.7603 Y52.2462
G01 X104.7618 Y52.2391
G01 X104.7629 Y52.2319
G01 X104.7634 Y52.2247
G01 X104.7633 Y52.2174
G01 X104.7627 Y52.2102
G01 X104.7615 Y52.2030
G01 X104.7598 Y52.1960
G01 X104.7576 Y52.1890
G01 X104.7548 Y52.1823
G01 X104.7515 Y52.1758
G01 X104.7478 Y52.1696
G01 X104.7435 Y52.1637
G01 X104.7389 Y52.1581
G01 X104.7338 Y52.1529
G01 X104.7283 Y52.1481
G01 X104.7225 Y52.1438
G01 X104.7164 Y52.1398
G01 X104.7100 Y52.1364
G01 X104.7034 Y52.1335
G01 X104.6965 Y52.1310
G01 X104.6895 Y52.1292
G01 X104.6823 Y52.1278
G01 X104.6751 Y52.1270
G01 X104.6679 Y52.1268
G01 X104.6606 Y52.1271
G01 X104.6534 Y52.1279
G01 X104.6463 Y52.1293
G01 X104.6393 Y52.1313
G01 X104.5948 Y52.1250
G01 X104.3066 Y52.1270
G01 X104.0195 Y52.1524
G01 X103.7354 Y52.2011
G01 X103.4563 Y52.2728
G01 X103.1839 Y52.3669
G01 X102.9200 Y52.4828
G01 X102.6665 Y52.6199
G01 X102.4250 Y52.7771
G01 X101.9923 Y53.0825
G01 X101.5804 Y53.4154
G01 X101.1910 Y53.7743
G01 X100.8258 Y54.1579
G01 X100.4863 Y54.5643
G01 X100.1740 Y54.9920
G01 X99.8901 Y55.4391
G01 X99.6359 Y55.9037
G01 X99.3622 Y56.4399
G01 X99.1217 Y56.9919
G01 X98.9154 Y57.5574
G01 X98.7440 Y58.1346
G01 X98.6081 Y58.7211
G01 X98.5084 Y59.3148
G01 X98.4451 Y59.9135
G01 X98.4184 Y60.5149
G01 X98.4144 Y60.8265
G01 X98.4176 Y61.1025
G01 X98.4312 Y61.5917
G01 X98.4710 Y62.0795
G01 X98.5370 Y62.5644
G01 X98.6289 Y63.0451
G01 X98.7464 Y63.5201
G01 X98.8893 Y63.9882
G01 X99.0572 Y64.4479
G01 X99.2494 Y64.8979
G01 X99.4656 Y65.3370
G01 X99.7050 Y65.7638
G01 X99.9669 Y66.1772
G01 X100.2507 Y66.5759
G01 X100.5426 Y66.9561
G01 X100.8613 Y67.3144
G01 X101.2049 Y67.6487
G01 X101.5718 Y67.9573
G01 X101.9599 Y68.2387
G01 X102.3674 Y68.4913
G01 X102.7920 Y68.7138
G01 X103.2316 Y68.9052
G01 X103.6098 Y69.0247
G01 X103.9943 Y69.1218
G01 X104.3838 Y69.1962
G01 X104.7771 Y69.2476
G01 X105.1727 Y69.2759
G01 X105.5692 Y69.2809
G01 X105.9654 Y69.2626
G01 X106.3598 Y69.2211
G01 X106.7851 Y69.1691
G01 X107.2074 Y69.0976
G01 X107.6261 Y69.0068
G01 X108.0401 Y68.8968
G01 X108.4486 Y68.7678
G01 X108.8508 Y68.6202
G01 X109.2457 Y68.4542
G01 X109.6326 Y68.2702
G01 X109.5429 Y68.0915
M107
G00 Z2.0000


;No. 4: Hole 5
G00 X125.5353 Y23.4383 Z2.0000
G00 Z0.5000
G01 Z-1.8000 F400
M106 S200
G01 X141.6045 F800
G01 X139.6875
G01 Y24.9383
G01 X127.0528
G01 X128.1823 Y26.4383
G01 X138.3660
G01 X137.7629 Y27.9383
G01 X128.7499
G01 X129.0008 Y29.4383
G01 X137.4889
G01 X137.3713 Y30.9383
G01 X129.1104
G01 X129.1447 Y32.4383
G01 X137.3415
G01 Y33.9383
G01 X129.1450
G01 Y35.4383
G01 X137.3415
G01 Y36.9383
G01 X129.1450
G01 Y38.4383
G01 X137.3415
G01 Y39.9383
G01 X129.1450
G01 Y41.4383
G01 X137.3415
G01 Y42.9383
G01 X129.1450
G01 X129.1451 Y44.4383
G01 X137.3415
G01 Y45.9383
G01 X129.1451
G01 Y47.4383
G01 X137.3415
G01 Y48.9383
G01 X129.1451
G01 Y50.4383
G01 X137.3422
G01 X137.3774 Y51.9383
G01 X129.1451
G01 Y53.4383
G01 X137.4855
G01 X137.7064 Y54.9383
G01 X129.1451
G01 X129.0852 Y56.4383
G01 X138.1318
G01 X139.0733 Y57.9383
G01 X128.8708
G01 X128.3535 Y59.4383
G01 X152.0091
G01 X150.1449
G01 Y57.9383
G01 X143.6966
G01 X144.5677 Y56.4383
G01 X148.5297
G01 X147.4503 Y54.9383
G01 X144.8985
G01 X145.0415 Y53.4383
G01 X146.8479
G01 X146.6088 Y51.9383
G01 X145.0872
G01 X145.1569 Y50.4383
G01 X146.6611
G01 X146.9433 Y48.9383
G01 X145.3561
G01 X145.8262 Y47.4383
G01 X147.2902
M107
G00 Z2.0000
G00 X137.8909 Y59.4383
G00 Z0.5000
G01 Z-1.8000 F400
M106 S200
G01 Y60.9383 F800
G01 X127.0631
G01 X125.6263 Y62.4383
G01 X137.3415
G01 Y63.9383
G01 X130.4526
G01 X133.2610
G01 Y65.4383
G01 X137.3415
G01 Y66.9383
G01 X135.3375
M107
G00 Z2.0000
G00 X139.1900 Y59.4383
G00 Z0.5000
G01 Z-1.8000 F400
M106 S200
G01 Y60.9383 F800
G01 X152.8768
G01 X152.8440 Y62.4383
G01 X140.0057
G01 X140.6727 Y63.9383
G01 X152.4075
G01 X151.6093 Y65.4383
G01 X141.5230
G01 X142.6713 Y66.9383
G01 X150.4275
G01 X148.4416
G01 Y68.4383
G01 X144.5492
M107
G00 Z2.0000
G00 Z0.5000
G01 Z-1.8000 F400
M106 S200
G01 X144.4584 Y68.6167 F800
G01 X144.7906 Y68.7710
G01 X145.1344 Y68.8976
G01 X145.4874 Y68.9955
G01 X145.8473 Y69.0641
G01 X146.2115 Y69.1029
G01 X146.5778 Y69.1117
G01 X146.9435 Y69.0904
G01 X147.3062 Y69.0392
G01 X147.6635 Y68.9584
G01 X148.0130 Y68.8486
G01 X148.3523 Y68.7104
G01 X148.6791 Y68.5449
G01 X149.0109 Y68.3545
G01 X149.3326 Y68.1476
G01 X149.6434 Y67.9245
G01 X149.9425 Y67.6860
G01 X150.2291 Y67.4325
G01 X150.5024 Y67.1649
G01 X150.7618 Y66.8837
G01 X151.0066 Y66.5897
G01 X151.3667 Y66.1520
G01 X151.6983 Y65.6922
G01 X152.0001 Y65.2124
G01 X152.2707 Y64.7143
G01 X152.5091 Y64.2000
G01 X152.7144 Y63.6717
G01 X152.8857 Y63.1313
G01 X153.0224 Y62.5812
G01 X153.0738 Y62.3180
G01 X153.1086 Y62.0520
G01 X153.1266 Y61.7844
G01 X153.1277 Y61.5162
G01 X153.1119 Y61.2485
G01 X153.0793 Y60.9823
G01 X153.0299 Y60.7187
G01 X152.9641 Y60.4587
G01 X152.8918 Y60.2889
G01 X152.8093 Y60.1239
G01 X152.7170 Y59.9642
G01 X152.6150 Y59.8105
G01 X152.5039 Y59.6632
G01 X152.3840 Y59.5230
G01 X152.2558 Y59.3904
G01 X152.1197 Y59.2658
G01 X151.7296 Y58.9196
G01 X151.3285 Y58.5863
G01 X150.9168 Y58.2660
G01 X150.4950 Y57.9593
G01 X150.0994 Y57.6595
G01 X149.7182 Y57.3418
G01 X149.3520 Y57.0067
G01 X149.0017 Y56.6551
G01 X148.6681 Y56.2877
G01 X148.3519 Y55.9052
G01 X148.0536 Y55.5085
G01 X147.7741 Y55.0984
G01 X147.5517 Y54.6994
G01 X147.3565 Y54.2865
G01 X147.1892 Y53.8614
G01 X147.0507 Y53.4262
G01 X146.9415 Y52.9827
G01 X146.8621 Y52.5329
G01 X146.8130 Y52.0788
G01 X146.7942 Y51.6224
G01 X146.7908 Y51.3669
G01 X146.8168 Y50.9728
G01 X146.8542 Y50.5796
G01 X146.9029 Y50.1876
G01 X146.9628 Y49.7972
G01 X147.0340 Y49.4086
G01 X147.1163 Y49.0223
G01 X147.2097 Y48.6385
G01 X147.3141 Y48.2575
G01 X147.4387 Y47.7017
G01 X147.5166 Y47.3297
G01 X147.5464 Y47.1696
G01 X147.5491 Y47.1318
G01 X147.5497 Y47.0938
G01 X147.5482 Y47.0559
G01 X147.5446 Y47.0181
G01 X147.5389 Y46.9805
G01 X147.5312 Y46.9434
G01 X147.5214 Y46.9067
G01 X147.5096 Y46.8706
G01 X147.4959 Y46.8352
G01 X147.4802 Y46.8007
G01 X147.4626 Y46.7670
G01 X147.4432 Y46.7344
G01 X147.4220 Y46.7029
G01 X147.3990 Y46.6726
G01 X147.3745 Y46.6437
G01 X147.3484 Y46.6161
G01 X147.3208 Y46.5900
G01 X147.2918 Y46.5655
G01 X147.2615 Y46.5427
G01 X147.2300 Y46.5215
G01 X147.1973 Y46.5021
G01 X147.1636 Y46.4846
G01 X147.1291 Y46.4690
G01 X147.0936 Y46.4552
G01 X147.0026 Y46.4334
G01 X146.9100 Y46.4201
G01 X146.8165 Y46.4153
G01 X146.7229 Y46.4192
G01 X146.6302 Y46.4316
G01 X146.5389 Y46.4525
G01 X146.4500 Y46.4817
G01 X146.3641 Y46.5189
G01 X146.2820 Y46.5639
G01 X146.2044 Y46.6163
G01 X146.1319 Y46.6755
G01 X146.0652 Y46.7412
G01 X145.9153 Y46.9331
G01 X145.7781 Y47.1343
G01 X145.6541 Y47.3439
G01 X145.5439 Y47.5611
G01 X145.4480 Y47.7849
G01 X145.3667 Y48.0145
G01 X145.3004 Y48.2488
G01 X145.2494 Y48.4869
G01 X145.1700 Y48.8772
G01 X145.1004 Y49.2694
G01 X145.0408 Y49.6633
G01 X144.9912 Y50.0585
G01 X144.9516 Y50.4548
G01 X144.9221 Y50.8520
G01 X144.9026 Y51.2499
G01 X144.8932 Y51.6481
G01 X144.8966 Y52.1128
G01 X144.8896 Y52.5774
G01 X144.8722 Y53.0418
G01 X144.8444 Y53.5056
G01 X144.8062 Y53.9687
G01 X144.7577 Y54.4309
G01 X144.6988 Y54.8918
G01 X144.6297 Y55.3514
G01 X144.5885 Y55.6119
G01 X144.5338 Y55.8699
G01 X144.4658 Y56.1247
G01 X144.3846 Y56.3757
G01 X144.2905 Y56.6221
G01 X144.1838 Y56.8633
G01 X144.0646 Y57.0986
G01 X143.9335 Y57.3275
G01 X143.7323 Y57.5918
G01 X143.5041 Y57.8331
G01 X143.2515 Y58.0488
G01 X142.9773 Y58.2362
G01 X142.6847 Y58.3933
G01 X142.3770 Y58.5183
G01 X142.0577 Y58.6098
G01 X141.7304 Y58.6667
G01 X141.3990 Y58.6884
G01 X141.0672 Y58.6745
G01 X140.7387 Y58.6254
G01 X140.4173 Y58.5415
G01 X140.0919 Y58.4058
G01 X139.7826 Y58.2366
G01 X139.4928 Y58.0359
G01 X139.2257 Y57.8058
G01 X138.9843 Y57.5489
G01 X138.7712 Y57.2681
G01 X138.5887 Y56.9664
G01 X138.4390 Y56.6473
G01 X138.2878 Y56.2539
G01 X138.1523 Y55.8549
G01 X138.0327 Y55.4509
G01 X137.9293 Y55.0424
G01 X137.8422 Y54.6301
G01 X137.7715 Y54.2147
G01 X137.7174 Y53.7968
G01 X137.6798 Y53.3771
G01 X137.6229 Y52.7069
G01 X137.5813 Y52.0356
G01 X137.5548 Y51.3635
G01 X137.5437 Y50.6909
G01 X137.5415 Y50.2605
G01 X137.5422 Y32.1247
G01 X137.5486 Y31.5582
G01 X137.5678 Y30.9920
G01 X137.5996 Y30.4264
G01 X137.6441 Y29.8617
G01 X137.6746 Y29.4703
G01 X137.7231 Y29.0807
G01 X137.7894 Y28.6937
G01 X137.8735 Y28.3103
G01 X137.9751 Y27.9310
G01 X138.0940 Y27.5569
G01 X138.2300 Y27.1886
G01 X138.3828 Y26.8270
G01 X138.5856 Y26.4662
G01 X138.8159 Y26.1224
G01 X139.0725 Y25.7976
G01 X139.3535 Y25.4938
G01 X139.6575 Y25.2129
G01 X139.9825 Y24.9566
G01 X140.3265 Y24.7265
G01 X140.6874 Y24.5239
G01 X141.0666 Y24.3236
G01 X141.1595 Y24.2785
G01 X141.2504 Y24.2295
G01 X141.3392 Y24.1766
G01 X141.4256 Y24.1201
G01 X141.5095 Y24.0599
G01 X141.5907 Y23.9961
G01 X141.6692 Y23.9290
G01 X141.7447 Y23.8586
G01 X141.7720 Y23.7404
G01 X141.7916 Y23.6206
G01 X141.8033 Y23.4999
G01 X141.8072 Y23.3786
G01 X141.8032 Y23.2574
G01 X141.7913 Y23.1366
G01 X141.7716 Y23.0169
G01 X141.7442 Y22.8988
G01 X141.6336 Y22.8601
G01 X141.5210 Y22.8276
G01 X141.4068 Y22.8014
G01 X141.2914 Y22.7815
G01 X141.1750 Y22.7680
G01 X141.0580 Y22.7610
G01 X140.9409 Y22.7604
G01 X140.8239 Y22.7663
G01 X126.3342
G01 X126.2148 Y22.7581
G01 X126.0950 Y22.7576
G01 X125.9754 Y22.7646
G01 X125.8565 Y22.7791
G01 X125.7388 Y22.8012
G01 X125.6227 Y22.8306
G01 X125.5087 Y22.8673
G01 X125.3973 Y22.9112
G01 X125.3881 Y22.9222
G01 X125.3706 Y22.9631
G01 X125.3553 Y23.0048
G01 X125.3423 Y23.0474
G01 X125.3316 Y23.0905
G01 X125.3232 Y23.1342
G01 X125.3171 Y23.1782
G01 X125.3134 Y23.2226
G01 X125.3121 Y23.2670
G01 X125.3094 Y23.3578
G01 X125.3301 Y23.4408
G01 X125.3572 Y23.5218
G01 X125.3905 Y23.6006
G01 X125.4297 Y23.6765
G01 X125.4747 Y23.7492
G01 X125.5252 Y23.8181
G01 X125.5809 Y23.8830
G01 X125.6415 Y23.9433
G01 X125.8987 Y24.1993
G01 X126.1655 Y24.4454
G01 X126.4414 Y24.6811
G01 X126.7262 Y24.9061
G01 X126.9838 Y25.1527
G01 X127.2266 Y25.4140
G01 X127.4538 Y25.6889
G01 X127.6645 Y25.9767
G01 X127.8581 Y26.2762
G01 X128.0339 Y26.5865
G01 X128.1913 Y26.9066
G01 X128.3298 Y27.2353
G01 X128.4488 Y27.5715
G01 X128.5481 Y27.9140
G01 X128.6272 Y28.2618
G01 X128.6859 Y28.6136
G01 X128.8084 Y29.5716
G01 X128.8925 Y30.5336
G01 X128.9380 Y31.4983
G01 X128.9450 Y32.4641
G01 X128.9451 Y54.9563
G01 X128.9489 Y55.4166
G01 X128.9352 Y55.8768
G01 X128.9040 Y56.3361
G01 X128.8554 Y56.7939
G01 X128.7895 Y57.2495
G01 X128.7063 Y57.7023
G01 X128.6059 Y58.1516
G01 X128.4885 Y58.5967
G01 X128.3896 Y58.8705
G01 X128.2734 Y59.1374
G01 X128.1405 Y59.3963
G01 X127.9914 Y59.6463
G01 X127.8267 Y59.8863
G01 X127.6471 Y60.1154
G01 X127.4533 Y60.3326
G01 X127.2461 Y60.5370
G01 X127.0263 Y60.7279
G01 X126.7949 Y60.9043
G01 X126.5526 Y61.0658
G01 X126.3007 Y61.2115
G01 X126.1769 Y61.2715
G01 X126.0576 Y61.3398
G01 X125.9431 Y61.4160
G01 X125.8341 Y61.4998
G01 X125.7309 Y61.5908
G01 X125.6342 Y61.6885
G01 X125.5443 Y61.7926
G01 X125.4617 Y61.9025
G01 X125.4474 Y61.9268
G01 X125.4349 Y61.9521
G01 X125.4242 Y61.9781
G01 X125.4153 Y62.0049
G01 X125.4083 Y62.0322
G01 X125.4033 Y62.0599
G01 X125.4002 Y62.0880
G01 X125.3990 Y62.1161
G01 X125.4001 Y62.1829
G01 X125.4031 Y62.2496
G01 X125.4080 Y62.3162
G01 X125.4149 Y62.3827
G01 X125.4167 Y62.4105
G01 X125.4197 Y62.4382
G01 X125.4239 Y62.4657
G01 X125.4294 Y62.4931
G01 X125.4360 Y62.5201
G01 X125.4439 Y62.5469
G01 X125.4529 Y62.5732
G01 X125.4631 Y62.5992
G01 X125.4744 Y62.6246
G01 X125.4869 Y62.6496
G01 X125.5004 Y62.6739
G01 X125.5150 Y62.6977
G01 X125.6271 Y62.7796
G01 X125.9366 Y62.9222
G01 X126.2585 Y63.0344
G01 X126.5896 Y63.1152
G01 X126.9269 Y63.1638
G01 X127.4641 Y63.2564
G01 X127.9977 Y63.3681
G01 X128.5269 Y63.4989
G01 X129.0511 Y63.6487
G01 X129.5696 Y63.8171
G01 X130.0817 Y64.0040
G01 X130.5868 Y64.2091
G01 X131.0842 Y64.4323
G01 X131.5732 Y64.6731
G01 X132.0534 Y64.9313
G01 X132.5239 Y65.2066
G01 X132.9843 Y65.4985
G01 X133.8800 Y66.1045
G01 X134.7534 Y66.7423
G01 X135.6034 Y67.4110
G01 X136.4287 Y68.1098
G01 X136.5045 Y68.1769
G01 X136.5838 Y68.2398
G01 X136.6664 Y68.2985
G01 X136.7519 Y68.3526
G01 X136.8402 Y68.4022
G01 X136.9310 Y68.4469
G01 X137.0241 Y68.4868
G01 X137.1191 Y68.5217
G01 X137.1488 Y68.5144
G01 X137.1778 Y68.5048
G01 X137.2061 Y68.4932
G01 X137.2335 Y68.4796
G01 X137.2598 Y68.4640
G01 X137.2848 Y68.4465
G01 X137.3086 Y68.4272
G01 X137.3308 Y68.4063
G01 X137.3515 Y68.3838
G01 X137.3705 Y68.3598
G01 X137.3877 Y68.3345
G01 X137.4029 Y68.3081
G01 X137.4163 Y68.2805
G01 X137.4275 Y68.2521
G01 X137.4367 Y68.2230
G01 X137.4437 Y68.1932
G01 X137.4682 Y68.1139
G01 X137.4893 Y68.0337
G01 X137.5068 Y67.9526
G01 X137.5209 Y67.8708
G01 X137.5314 Y67.7885
G01 X137.5384 Y67.7058
G01 X137.5417 Y67.6229
G01 X137.5415 Y67.5399
G01 Y61.9441
G01 X137.5429 Y61.8942
G01 X137.5467 Y61.8443
G01 X137.5531 Y61.7947
G01 X137.5619 Y61.7455
G01 X137.5732 Y61.6968
G01 X137.5868 Y61.6487
G01 X137.6029 Y61.6014
G01 X137.6213 Y61.5549
G01 X137.6420 Y61.5094
G01 X137.6650 Y61.4650
G01 X137.6901 Y61.4218
G01 X137.7174 Y61.3799
G01 X137.7468 Y61.3394
G01 X137.7781 Y61.3004
G01 X137.8113 Y61.2631
G01 X137.8464 Y61.2274
G01 X137.8832 Y61.1936
G01 X137.9216 Y61.1616
G01 X137.9616 Y61.1316
G01 X138.0030 Y61.1037
G01 X138.0458 Y61.0778
G01 X138.0899 Y61.0541
G01 X138.1350 Y61.0327
G01 X138.1812 Y61.0135
G01 X138.2283 Y60.9966
G01 X138.2761 Y60.9822
G01 X138.3246 Y60.9701
G01 X138.3737 Y60.9605
G01 X138.4232 Y60.9533
G01 X138.4729 Y60.9486
G01 X138.5229 Y60.9465
G01 X138.5729 Y60.9468
G01 X138.6228 Y60.9496
G01 X138.6725 Y60.9549
G01 X138.7219 Y60.9627
G01 X138.7708 Y60.9729
G01 X138.8192 Y60.9856
G01 X138.8669 Y61.0007
G01 X138.9137 Y61.0181
G01 X138.9596 Y61.0379
G01 X139.0045 Y61.0599
G01 X139.0482 Y61.0842
G01 X139.0907 Y61.1106
G01 X139.1318 Y61.1391
G01 X139.1714 Y61.1696
G01 X139.2094 Y61.2020
G01 X139.2458 Y61.2363
G01 X139.2804 Y61.2724
G01 X139.3131 Y61.3102
G01 X139.3440 Y61.3496
G01 X139.3728 Y61.3904
G01 X139.3995 Y61.4326
G01 X139.4241 Y61.4762
G01 X139.4465 Y61.5209
G01 X139.4667 Y61.5666
G01 X139.4845 Y61.6133
G01 X139.7132 Y62.2706
G01 X139.9694 Y62.9177
G01 X140.2527 Y63.5535
G01 X140.5624 Y64.1767
G01 X140.8982 Y64.7863
G01 X141.2593 Y65.3813
G01 X141.6451 Y65.9605
G01 X142.0550 Y66.5230
G01 X142.3028 Y66.8388
G01 X142.5673 Y67.1409
G01 X142.8477 Y67.4283
G01 X143.1432 Y67.7001
G01 X143.4530 Y67.9555
G01 X143.7761 Y68.1939
G01 X144.1115 Y68.4145
G01 X144.4584 Y68.6167
G01 X144.5492 Y68.4383
M107
G00 Z2.0000


;No. 5: Hole 6
G00 X171.3284 Y22.2881 Z2.0000
G00 Z0.5000
G01 Z-1.8000 F400
M106 S200
G01 X174.9249 F800
G01 Y23.7881
G01 X179.3779
G01 X166.9671
G01 Y25.2881
G01 X164.8536
G01 X181.4981
G01 X182.9827 Y26.7881
G01 X163.3467
G01 X162.1797 Y28.2881
G01 X184.1139
G01 X185.0106 Y29.7881
G01 X161.2412
G01 X160.4715 Y31.2881
G01 X173.4932
G01 X170.6568
G01 Y32.7881
G01 X159.8320
G01 X159.2870 Y34.2881
G01 X168.8807
G01 X167.6079 Y35.7881
G01 X158.8388
G01 X158.4771 Y37.2881
G01 X166.6662
G01 X165.9843 Y38.7881
G01 X158.1959
G01 X157.9876 Y40.2881
G01 X165.4580
G01 X165.0375 Y41.7881
G01 X157.8465
G01 X157.7676 Y43.2881
G01 X164.6937
G01 X164.4758 Y44.7881
G01 X157.7467
G01 X157.7805 Y46.2881
G01 X169.0591
G01 X167.0264
G01 Y44.7881
G01 X181.4381
G01 X179.6876
G01 Y43.2881
G01 X168.4313
G01 X170.7725
G01 Y41.7881
G01 X176.9081
M107
G00 Z2.0000
G00 X179.2918 Y29.7881
G00 Z0.5000
G01 Z-1.8000 F400
M106 S200
G01 Y31.2881 F800
G01 X185.7462
G01 X186.3675 Y32.7881
G01 X182.2332
G01 X184.0483
G01 Y34.2881
G01 X186.8560
G01 X187.1849 Y35.7881
G01 X185.4576
M107
G00 Z2.0000
G00 X175.9499 Y44.7881
G00 Z0.5000
G01 Z-1.8000 F400
M106 S200
G01 Y46.2881 F800
G01 X182.7840
G01 X183.8653 Y47.7881
G01 X177.4393
G01 X178.4116 Y49.2881
G01 X184.7522
G01 X185.4799 Y50.7881
G01 X179.0893
G01 X179.5443 Y52.2881
G01 X186.0554
G01 X186.4955 Y53.7881
G01 X179.8213
G01 X179.9522 Y55.2881
G01 X186.8082
G01 X187.0029 Y56.7881
G01 X179.9547
G01 X179.7951 Y58.2881
G01 X187.0854
G01 X187.0700 Y59.7881
G01 X179.4223
G01 X178.7662 Y61.2881
G01 X186.9732
G01 X186.7689 Y62.7881
G01 X177.7009
G01 Y64.2881
G01 X175.7834
G01 X186.4069
G01 X185.7542 Y65.7881
G01 X165.6211
G01 X164.1012 Y64.2881
G01 X169.9973
G01 X167.9721
G01 Y62.7881
G01 X162.8991
G01 X161.9153 Y61.2881
G01 X166.7656
G01 X165.9182 Y59.7881
G01 X161.0927
G01 X160.3957 Y58.2881
G01 X165.3005
G01 X164.8468 Y56.7881
G01 X159.7999
G01 X159.2917 Y55.2881
G01 X164.5177
G01 X164.4983 Y53.7881
G01 X158.8643
G01 X158.5135 Y52.2881
G01 X167.9041
G01 X167.4219 Y50.7881
G01 X158.2333
G01 X158.0202 Y49.2881
G01 X167.4423
G01 X167.9114 Y47.7881
G01 X157.8707
M107
G00 Z2.0000
G00 X166.6588 Y52.2881
G00 Z0.5000
G01 Z-1.8000 F400
M106 S200
G01 Y53.7881 F800
G01 X169.2509
G01 X167.9908 Y55.2881
G01 X171.9447
M107
G00 Z2.0000
G00 X167.6747 Y65.7881
G00 Z0.5000
G01 Z-1.8000 F400
M106 S200
G01 Y67.2881 F800
G01 X179.0748
G01 X175.0379
G01 Y68.7881
G01 X171.7813
M107
G00 Z2.0000
G00 X172.1942 Y65.7881
G00 Z0.5000
G01 Z-1.8000 F400
M106 S200
G01 Y64.7234 F800
G01 X172.1531 Y64.7192
G01 X171.7513 Y64.6557
G01 X171.3540 Y64.5679
G01 X170.9628 Y64.4561
G01 X170.5791 Y64.3208
G01 X170.2044 Y64.1624
G01 X169.8400 Y63.9816
G01 X169.4872 Y63.7789
G01 X169.1474 Y63.5552
G01 X168.8218 Y63.3112
G01 X168.5117 Y63.0479
G01 X168.2181 Y62.7663
G01 X167.9421 Y62.4674
G01 X167.4875 Y61.9225
G01 X167.0645 Y61.3528
G01 X166.6745 Y60.7600
G01 X166.3187 Y60.1460
G01 X165.9983 Y59.5129
G01 X165.7143 Y58.8626
G01 X165.4676 Y58.1972
G01 X165.2591 Y57.5190
G01 X165.0340 Y56.7205
G01 X164.8444 Y55.9128
G01 X164.6905 Y55.0976
G01 X164.5727 Y54.2764
G01 X164.5809 Y54.1872
G01 X164.5970 Y54.0991
G01 X164.6210 Y54.0128
G01 X164.6526 Y53.9290
G01 X164.6915 Y53.8483
G01 X164.7375 Y53.7714
G01 X164.7902 Y53.6990
G01 X164.8492 Y53.6316
G01 X164.9140 Y53.5697
G01 X164.9840 Y53.5139
G01 X165.0588 Y53.4645
G01 X165.1377 Y53.4221
G01 X165.2201 Y53.3868
G01 X165.3052 Y53.3591
G01 X165.3926 Y53.3392
G01 X165.4813 Y53.3271
G01 X165.5708 Y53.3230
G01 X165.6603 Y53.3269
G01 X165.7491 Y53.3388
G01 X165.8365 Y53.3586
G01 X165.9217 Y53.3862
G01 X166.0041 Y53.4213
G01 X166.0831 Y53.4636
G01 X166.1580 Y53.5128
G01 X166.2281 Y53.5685
G01 X166.2930 Y53.6302
G01 X166.3521 Y53.6975
G01 X166.4050 Y53.7699
G01 X166.5825 Y54.0531
G01 X166.7758 Y54.3258
G01 X166.9842 Y54.5872
G01 X167.2070 Y54.8365
G01 X167.4435 Y55.0727
G01 X167.6929 Y55.2953
G01 X167.9545 Y55.5033
G01 X168.2275 Y55.6963
G01 X168.5420 Y55.8685
G01 X168.8731 Y56.0058
G01 X169.2172 Y56.1066
G01 X169.5700 Y56.1699
G01 X169.9277 Y56.1947
G01 X170.2859 Y56.1810
G01 X170.6406 Y56.1287
G01 X170.9876 Y56.0385
G01 X171.3228 Y55.9116
G01 X171.6425 Y55.7492
G01 X171.9428 Y55.5534
G01 X172.2203 Y55.3265
G01 X172.3407 Y55.2327
G01 X172.4551 Y55.1317
G01 X172.5630 Y55.0238
G01 X172.6640 Y54.9095
G01 X172.7578 Y54.7891
G01 X172.8440 Y54.6632
G01 X172.9222 Y54.5322
G01 X172.9922 Y54.3966
G01 X173.0537 Y54.2570
G01 X173.1064 Y54.1138
G01 X173.1502 Y53.9676
G01 X173.1849 Y53.8190
G01 X173.1906 Y53.7773
G01 X173.1945 Y53.7353
G01 X173.1965 Y53.6932
G01 X173.1967 Y53.6511
G01 X173.1950 Y53.6089
G01 X173.1915 Y53.5669
G01 X173.1862 Y53.5251
G01 X173.1790 Y53.4836
G01 X173.1700 Y53.4424
G01 X173.1592 Y53.4017
G01 X173.1467 Y53.3614
G01 X173.1323 Y53.3218
G01 X173.1163 Y53.2828
G01 X173.0986 Y53.2445
G01 X173.0792 Y53.2071
G01 X173.0582 Y53.1706
G01 X173.0356 Y53.1350
G01 X173.0115 Y53.1004
G01 X172.9858 Y53.0670
G01 X172.9588 Y53.0346
G01 X172.7709 Y53.1512
G01 X172.5851 Y53.2710
G01 X172.4015 Y53.3941
G01 X172.2200 Y53.5204
G01 X172.0840 Y53.6051
G01 X171.9432 Y53.6816
G01 X171.7983 Y53.7498
G01 X171.6496 Y53.8095
G01 X171.4977 Y53.8604
G01 X171.3431 Y53.9023
G01 X171.1862 Y53.9352
G01 X171.0278 Y53.9589
G01 X170.8682 Y53.9733
G01 X170.7081 Y53.9783
G01 X170.5479 Y53.9740
G01 X170.3883 Y53.9604
G01 X170.2297 Y53.9375
G01 X170.0728 Y53.9054
G01 X169.9179 Y53.8642
G01 X169.7658 Y53.8140
G01 X169.6168 Y53.7551
G01 X169.4715 Y53.6875
G01 X169.3304 Y53.6117
G01 X169.1940 Y53.5277
G01 X169.0627 Y53.4359
G01 X168.9369 Y53.3366
G01 X168.8172 Y53.2301
G01 X168.7039 Y53.1169
G01 X168.5974 Y52.9972
G01 X168.4980 Y52.8715
G01 X168.4061 Y52.7402
G01 X168.3221 Y52.6038
G01 X168.1526 Y52.3298
G01 X168.0036 Y52.0441
G01 X167.8760 Y51.7482
G01 X167.7705 Y51.4438
G01 X167.6877 Y51.1324
G01 X167.6280 Y50.8158
G01 X167.5916 Y50.4956
G01 X167.5789 Y50.1737
G01 X167.5798 Y50.0443
G01 X167.5975 Y49.6320
G01 X167.6502 Y49.2227
G01 X167.7376 Y48.8194
G01 X167.8590 Y48.4250
G01 X168.0136 Y48.0424
G01 X168.2002 Y47.6744
G01 X168.4174 Y47.3235
G01 X168.6638 Y46.9925
G01 X168.9286 Y46.6913
G01 X169.2181 Y46.4138
G01 X169.5303 Y46.1621
G01 X169.8629 Y45.9380
G01 X170.2134 Y45.7432
G01 X170.5792 Y45.5790
G01 X170.9578 Y45.4467
G01 X171.3463 Y45.3472
G01 X171.7419 Y45.2813
G01 X172.1416 Y45.2494
G01 X172.5426 Y45.2518
G01 X172.9420 Y45.2884
G01 X173.3161 Y45.3440
G01 X173.6859 Y45.4230
G01 X174.0501 Y45.5251
G01 X174.4071 Y45.6498
G01 X174.7556 Y45.7968
G01 X175.0942 Y45.9654
G01 X175.4215 Y46.1549
G01 X175.7362 Y46.3647
G01 X176.0371 Y46.5938
G01 X176.3230 Y46.8414
G01 X176.5928 Y47.1064
G01 X176.8454 Y47.3879
G01 X177.2061 Y47.8297
G01 X177.5451 Y48.2884
G01 X177.8614 Y48.7630
G01 X178.1543 Y49.2524
G01 X178.4232 Y49.7554
G01 X178.6675 Y50.2708
G01 X178.8864 Y50.7975
G01 X179.0796 Y51.3341
G01 X179.2466 Y51.8795
G01 X179.3870 Y52.4323
G01 X179.5004 Y52.9913
G01 X179.5866 Y53.5551
G01 X179.6828 Y54.2391
G01 X179.7462 Y54.9269
G01 X179.7764 Y55.6170
G01 X179.7734 Y56.3078
G01 X179.7373 Y56.9976
G01 X179.6682 Y57.6848
G01 X179.5661 Y58.3680
G01 X179.4314 Y59.0455
G01 X179.3100 Y59.5116
G01 X179.1607 Y59.9695
G01 X178.9840 Y60.4175
G01 X178.7806 Y60.8541
G01 X178.5512 Y61.2776
G01 X178.2966 Y61.6864
G01 X178.0179 Y62.0792
G01 X177.7159 Y62.4544
G01 X177.3919 Y62.8107
G01 X177.0469 Y63.1468
G01 X176.6823 Y63.4615
G01 X176.2993 Y63.7536
G01 X175.9942 Y63.9422
G01 X175.6785 Y64.1127
G01 X175.3534 Y64.2645
G01 X175.0200 Y64.3969
G01 X174.6794 Y64.5097
G01 X174.3328 Y64.6024
G01 X173.9813 Y64.6746
G01 X173.6263 Y64.7262
G01 X173.2688 Y64.7569
G01 X172.9102 Y64.7667
G01 X172.5516 Y64.7555
G01 X172.1942 Y64.7234
G01 Y65.7881
M107
G00 Z2.0000
G00 X171.7813 Y68.7881
G00 Z0.5000
G01 Z-1.8000 F400
M106 S200
G01 X171.6761 Y68.9745 F800
G01 X171.7127 Y68.9804
G01 X172.1829 Y69.0491
G01 X172.6558 Y69.0955
G01 X173.1304 Y69.1194
G01 X173.6056 Y69.1208
G01 X174.0803 Y69.0997
G01 X174.5535 Y69.0562
G01 X175.0241 Y68.9903
G01 X175.4911 Y68.9023
G01 X175.9534 Y68.7922
G01 X176.4099 Y68.6603
G01 X176.8597 Y68.5070
G01 X177.3017 Y68.3326
G01 X179.5251 Y67.2995
G01 X179.9468 Y67.1044
G01 X180.3824 Y66.9424
G01 X180.8292 Y66.8146
G01 X181.2845 Y66.7216
G01 X181.7457 Y66.6640
G01 X182.2099 Y66.6421
G01 X182.6744 Y66.6562
G01 X183.1364 Y66.7061
G01 X183.3639 Y66.7368
G01 X183.5909 Y66.7709
G01 X183.8174 Y66.8082
G01 X184.0433 Y66.8488
G01 X184.2044 Y66.8585
G01 X184.3658 Y66.8651
G01 X184.5272 Y66.8687
G01 X184.6887 Y66.8691
G01 X184.7766 Y66.8605
G01 X184.8636 Y66.8454
G01 X184.9492 Y66.8238
G01 X185.0330 Y66.7958
G01 X185.1144 Y66.7617
G01 X185.1931 Y66.7216
G01 X185.2685 Y66.6757
G01 X185.3404 Y66.6243
G01 X185.4081 Y66.5677
G01 X185.4715 Y66.5062
G01 X185.5301 Y66.4401
G01 X185.5836 Y66.3698
G01 X185.7836 Y66.0869
G01 X185.9686 Y65.7939
G01 X186.1379 Y65.4916
G01 X186.2911 Y65.1808
G01 X186.4278 Y64.8624
G01 X186.5476 Y64.5372
G01 X186.6502 Y64.2062
G01 X186.7352 Y63.8703
G01 X186.8902 Y63.1505
G01 X187.0206 Y62.4257
G01 X187.1262 Y61.6970
G01 X187.2069 Y60.9650
G01 X187.2625 Y60.2308
G01 X187.2931 Y59.4950
G01 X187.2985 Y58.7587
G01 X187.2789 Y58.0226
G01 X187.2430 Y57.2449
G01 X187.1765 Y56.4692
G01 X187.0795 Y55.6968
G01 X186.9521 Y54.9287
G01 X186.7945 Y54.1663
G01 X186.6071 Y53.4108
G01 X186.3899 Y52.6631
G01 X186.1435 Y51.9247
G01 X185.8681 Y51.1965
G01 X185.5643 Y50.4797
G01 X185.2324 Y49.7755
G01 X184.8731 Y49.0848
G01 X184.4868 Y48.4089
G01 X184.0742 Y47.7488
G01 X183.6358 Y47.1054
G01 X183.1724 Y46.4798
G01 X182.6848 Y45.8730
G01 X182.1736 Y45.2858
G01 X181.6396 Y44.7193
G01 X181.0838 Y44.1742
G01 X180.7175 Y43.8395
G01 X180.3376 Y43.5203
G01 X179.9448 Y43.2171
G01 X179.5397 Y42.9304
G01 X179.1232 Y42.6608
G01 X178.6958 Y42.4088
G01 X178.2583 Y42.1747
G01 X177.8114 Y41.9589
G01 X177.3560 Y41.7618
G01 X176.8928 Y41.5839
G01 X176.4227 Y41.4252
G01 X175.9463 Y41.2863
G01 X175.5321 Y41.1878
G01 X175.1135 Y41.1104
G01 X174.6915 Y41.0543
G01 X174.2672 Y41.0196
G01 X173.8417 Y41.0065
G01 X173.4160 Y41.0150
G01 X172.9914 Y41.0449
G01 X172.5688 Y41.0964
G01 X172.1493 Y41.1692
G01 X171.7341 Y41.2631
G01 X171.3241 Y41.3779
G01 X170.9205 Y41.5134
G01 X170.3729 Y41.7562
G01 X169.8421 Y42.0336
G01 X169.3301 Y42.3445
G01 X168.8391 Y42.6877
G01 X168.3712 Y43.0616
G01 X167.9282 Y43.4648
G01 X167.5120 Y43.8956
G01 X167.1243 Y44.3522
G01 X166.9413 Y44.5768
G01 X166.7614 Y44.8039
G01 X166.5845 Y45.0334
G01 X166.4108 Y45.2652
G01 X166.3411 Y45.3369
G01 X166.2646 Y45.4012
G01 X166.1820 Y45.4575
G01 X166.0942 Y45.5053
G01 X166.0021 Y45.5441
G01 X165.9066 Y45.5736
G01 X165.8086 Y45.5933
G01 X165.7091 Y45.6032
G01 X165.6092 Y45.6031
G01 X165.5097 Y45.5930
G01 X165.4118 Y45.5730
G01 X165.3163 Y45.5433
G01 X165.2243 Y45.5043
G01 X165.1366 Y45.4563
G01 X165.0542 Y45.3997
G01 X164.9778 Y45.3353
G01 X164.9083 Y45.2635
G01 X164.8462 Y45.1851
G01 X164.7923 Y45.1009
G01 X164.7471 Y45.0118
G01 X164.7110 Y44.9186
G01 X164.6843 Y44.8222
G01 X164.6675 Y44.7237
G01 X164.6605 Y44.6240
G01 X164.6635 Y44.5241
G01 X164.6765 Y44.4250
G01 X164.8099 Y43.6719
G01 X164.9634 Y42.9227
G01 X165.1370 Y42.1779
G01 X165.3305 Y41.4381
G01 X165.5438 Y40.7037
G01 X165.7768 Y39.9753
G01 X166.0292 Y39.2534
G01 X166.3010 Y38.5385
G01 X166.5527 Y37.9681
G01 X166.8319 Y37.4106
G01 X167.1379 Y36.8674
G01 X167.4699 Y36.3397
G01 X167.8273 Y35.8288
G01 X168.2090 Y35.3359
G01 X168.6143 Y34.8621
G01 X169.0422 Y34.4086
G01 X169.4916 Y33.9765
G01 X169.9615 Y33.5667
G01 X170.4508 Y33.1803
G01 X170.9584 Y32.8182
G01 X171.4829 Y32.4812
G01 X172.0232 Y32.1701
G01 X172.5780 Y31.8857
G01 X173.1460 Y31.6286
G01 X173.6190 Y31.4606
G01 X174.1005 Y31.3191
G01 X174.5891 Y31.2043
G01 X175.0833 Y31.1168
G01 X175.5816 Y31.0566
G01 X176.0825 Y31.0241
G01 X176.5843 Y31.0193
G01 X177.0857 Y31.0422
G01 X177.5851 Y31.0927
G01 X178.0808 Y31.1708
G01 X178.5716 Y31.2761
G01 X179.0557 Y31.4084
G01 X179.5318 Y31.5672
G01 X179.9984 Y31.7521
G01 X180.4541 Y31.9625
G01 X180.8975 Y32.1977
G01 X181.5500 Y32.5906
G01 X182.1830 Y33.0141
G01 X182.7951 Y33.4675
G01 X183.3848 Y33.9495
G01 X183.9508 Y34.4592
G01 X184.4918 Y34.9953
G01 X185.0066 Y35.5566
G01 X185.4940 Y36.1419
G01 X185.8916 Y36.6453
G01 X186.2838 Y37.1529
G01 X186.6705 Y37.6646
G01 X187.0518 Y38.1805
G01 X187.0983 Y38.2332
G01 X187.1468 Y38.2841
G01 X187.1972 Y38.3332
G01 X187.2495 Y38.3802
G01 X187.2597 Y38.3778
G01 X187.3048 Y38.3001
G01 X187.3457 Y38.2201
G01 X187.3825 Y38.1381
G01 X187.4151 Y38.0543
G01 X187.4432 Y37.9690
G01 X187.4670 Y37.8823
G01 X187.4862 Y37.7945
G01 X187.5009 Y37.7058
G01 X187.5110 Y37.6165
G01 X187.5165 Y37.5268
G01 X187.5173 Y37.4370
G01 X187.5135 Y37.3472
G01 X187.4795 Y36.7195
G01 X187.4170 Y36.0939
G01 X187.3262 Y35.4719
G01 X187.2073 Y34.8546
G01 X187.0606 Y34.2434
G01 X186.8863 Y33.6394
G01 X186.6848 Y33.0439
G01 X186.4565 Y32.4582
G01 X186.1895 Y31.7779
G01 X185.8989 Y31.1074
G01 X185.5849 Y30.4475
G01 X185.2480 Y29.7989
G01 X184.8887 Y29.1626
G01 X184.5073 Y28.5392
G01 X184.1043 Y27.9296
G01 X183.6802 Y27.3344
G01 X183.2393 Y26.7673
G01 X182.7684 Y26.2250
G01 X182.2688 Y25.7089
G01 X181.7420 Y25.2206
G01 X181.1896 Y24.7616
G01 X180.6130 Y24.3332
G01 X180.0142 Y23.9366
G01 X179.3947 Y23.5731
G01 X178.7565 Y23.2436
G01 X178.1013 Y22.9492
G01 X177.4312 Y22.6906
G01 X176.7481 Y22.4688
G01 X176.1574 Y22.3105
G01 X175.5597 Y22.1808
G01 X174.9566 Y22.0799
G01 X174.3493 Y22.0081
G01 X173.7392 Y21.9654
G01 X173.1278 Y21.9521
G01 X172.5165 Y21.9682
G01 X171.9066 Y22.0135
G01 X171.2996 Y22.0880
G01 X170.6969 Y22.1916
G01 X170.0999 Y22.3240
G01 X169.5099 Y22.4849
G01 X168.9283 Y22.6739
G01 X168.3564 Y22.8905
G01 X167.7956 Y23.1344
G01 X167.2471 Y23.4049
G01 X166.7123 Y23.7014
G01 X166.1922 Y24.0232
G01 X165.6883 Y24.3695
G01 X165.2015 Y24.7397
G01 X164.7083 Y25.1592
G01 X164.2312 Y25.5967
G01 X163.7707 Y26.0517
G01 X163.3274 Y26.5236
G01 X162.9021 Y27.0117
G01 X162.4953 Y27.5153
G01 X162.1075 Y28.0337
G01 X161.7393 Y28.5662
G01 X161.3912 Y29.1120
G01 X161.0637 Y29.6705
G01 X160.7572 Y30.2407
G01 X160.4723 Y30.8220
G01 X160.0513 Y31.7532
G01 X159.6620 Y32.6981
G01 X159.3050 Y33.6557
G01 X158.9804 Y34.6247
G01 X158.6888 Y35.6042
G01 X158.4305 Y36.5929
G01 X158.2057 Y37.5898
G01 X158.0148 Y38.5938
G01 X157.8578 Y39.6036
G01 X157.7351 Y40.6181
G01 X157.6468 Y41.6362
G01 X157.5929 Y42.6568
G01 X157.5756 Y43.0520
G01 X157.5623 Y43.4475
G01 X157.5529 Y43.8430
G01 X157.5475 Y44.2387
G01 X157.5459 Y44.6046
G01 X157.5477 Y44.9907
G01 X157.5615 Y45.9732
G01 X157.6027 Y46.9550
G01 X157.6714 Y47.9353
G01 X157.7673 Y48.9133
G01 X157.8906 Y49.8882
G01 X158.0409 Y50.8593
G01 X158.2184 Y51.8258
G01 X158.4227 Y52.7870
G01 X158.6538 Y53.7421
G01 X158.9115 Y54.6904
G01 X159.1955 Y55.6311
G01 X159.5056 Y56.5635
G01 X159.8431 Y57.4970
G01 X160.2181 Y58.4160
G01 X160.6300 Y59.3191
G01 X161.0781 Y60.2048
G01 X161.5618 Y61.0716
G01 X162.0801 Y61.9180
G01 X162.6324 Y62.7428
G01 X163.2175 Y63.5446
G01 X163.5906 Y64.0151
G01 X163.9816 Y64.4709
G01 X164.3900 Y64.9112
G01 X164.8151 Y65.3354
G01 X165.2563 Y65.7428
G01 X165.7129 Y66.1329
G01 X166.1843 Y66.5050
G01 X166.6697 Y66.8585
G01 X167.1684 Y67.1930
G01 X167.6797 Y67.5080
G01 X168.2028 Y67.8029
G01 X168.7370 Y68.0774
G01 X169.0891 Y68.2340
G01 X169.4464 Y68.3782
G01 X169.8086 Y68.5098
G01 X170.1752 Y68.6287
G01 X170.5456 Y68.7347
G01 X170.9196 Y68.8278
G01 X171.2966 Y68.9077
G01 X171.6761 Y68.9745
G01 X171.7813 Y68.7881
M107
G00 Z2.0000


;No. 6: Hole 7
G00 X201.5327 Y22.5787 Z2.0000
G00 Z0.5000
G01 Z-1.8000 F400
M106 S200
G01 X207.6383 F800
G01 Y24.0787
G01 X210.3229
G01 X199.4484
G01 X198.4353 Y25.5787
G01 X211.8412
G01 X212.9096 Y27.0787
G01 X197.8163
G01 X197.4808 Y28.5787
G01 X208.2362
G01 X206.5597 Y30.0787
G01 X197.3032
G01 X197.2253 Y31.5787
G01 X205.8121
G01 X205.4958 Y33.0787
G01 X197.2118
G01 Y34.5787
G01 X205.3455
G01 X205.2829 Y36.0787
G01 X197.2118
G01 Y37.5787
G01 X205.2732
G01 Y39.0787
G01 X197.2118
G01 Y40.5787
G01 X205.2732
G01 Y42.0787
G01 X197.2118
G01 Y43.5787
G01 X205.2732
G01 Y45.0787
G01 X197.2118
G01 Y46.5787
G01 X205.2732
G01 Y48.0787
G01 X197.2118
G01 Y49.5787
G01 X205.2732
G01 Y51.0787
G01 X197.2118
G01 Y52.5787
G01 X205.2732
G01 Y54.0787
G01 X197.2118
G01 Y55.5787
G01 X205.2732
G01 Y57.0787
G01 X197.2118
G01 Y58.5787
G01 X205.2732
G01 Y60.0787
G01 X197.2118
G01 Y61.5787
G01 X205.2732
G01 X205.4345 Y63.0787
G01 X197.0500
G01 Y64.5787
G01 X191.9587
G01 X211.7386
G01 Y66.0787
G01 X191.9587
G01 X194.5385
G01 Y67.5787
G01 X206.4270
G01 X205.2732 Y69.0787
G01 X196.8567
G01 X198.5272 Y70.5787
G01 X205.2732
G01 Y72.0787
G01 X199.7489
G01 X200.6552 Y73.5787
G01 X205.2732
G01 Y75.0787
G01 X201.3539
G01 X201.9145 Y76.5787
G01 X205.2732
G01 Y78.0787
G01 X202.3766
G01 X202.7624 Y79.5787
G01 X205.2732
G01 Y81.0787
G01 X203.0870
G01 X203.3656 Y82.5787
G01 X205.2726
G01 X205.1333 Y84.0787
G01 X203.7332
M107
G00 Z2.0000
G00 X211.9165 Y27.0787
G00 Z0.5000
G01 Z-1.8000 F400
M106 S200
G01 Y28.5787 F800
G01 X213.5960
M107
G00 Z2.0000
G00 Z0.5000
G01 Z-1.8000 F400
M106 S200
G01 X213.7860 Y28.5158 F800
G01 X213.7769 Y28.4882
G01 X213.6199 Y28.0799
G01 X213.4442 Y27.6792
G01 X213.2503 Y27.2871
G01 X213.0385 Y26.9044
G01 X212.8094 Y26.5317
G01 X212.5633 Y26.1701
G01 X212.3009 Y25.8201
G01 X212.0226 Y25.4826
G01 X211.7097 Y25.1077
G01 X211.3782 Y24.7491
G01 X211.0289 Y24.4079
G01 X210.6627 Y24.0849
G01 X210.2806 Y23.7808
G01 X209.8836 Y23.4966
G01 X209.4726 Y23.2329
G01 X209.0488 Y22.9904
G01 X208.6132 Y22.7697
G01 X208.1669 Y22.5715
G01 X207.7112 Y22.3962
G01 X207.2472 Y22.2442
G01 X206.8361 Y22.1355
G01 X206.4207 Y22.0446
G01 X206.0018 Y21.9717
G01 X205.5802 Y21.9170
G01 X205.1566 Y21.8805
G01 X204.7318 Y21.8623
G01 X204.3066 Y21.8625
G01 X203.8818 Y21.8809
G01 X203.4582 Y21.9177
G01 X203.0366 Y21.9727
G01 X202.6178 Y22.0459
G01 X202.2025 Y22.1371
G01 X201.8038 Y22.2626
G01 X201.4146 Y22.4149
G01 X201.0367 Y22.5935
G01 X200.6718 Y22.7974
G01 X200.3217 Y23.0257
G01 X199.9880 Y23.2774
G01 X199.6722 Y23.5512
G01 X199.3758 Y23.8459
G01 X199.1002 Y24.1601
G01 X198.8466 Y24.4924
G01 X198.6163 Y24.8412
G01 X198.4103 Y25.2049
G01 X198.1736 Y25.6566
G01 X197.9605 Y26.1200
G01 X197.7717 Y26.5938
G01 X197.6077 Y27.0768
G01 X197.4688 Y27.5675
G01 X197.3554 Y28.0648
G01 X197.2679 Y28.5672
G01 X197.2065 Y29.0736
G01 X197.1224 Y29.8639
G01 X197.0622 Y30.6564
G01 X197.0257 Y31.4503
G01 X197.0130 Y32.2450
G01 X197.0118 Y32.5382
G01 Y62.4599
G01 X197.0088 Y62.5592
G01 X196.9960 Y62.6578
G01 X196.9735 Y62.7546
G01 X196.9414 Y62.8487
G01 X196.9002 Y62.9391
G01 X196.8502 Y63.0250
G01 X196.7919 Y63.1055
G01 X196.7260 Y63.1799
G01 X196.6530 Y63.2473
G01 X196.5736 Y63.3071
G01 X196.4887 Y63.3588
G01 X196.3991 Y63.4018
G01 X196.3057 Y63.4357
G01 X196.2094 Y63.4602
G01 X196.1111 Y63.4749
G01 X196.0118 Y63.4799
G01 X191.7587
G01 Y66.5191
G01 X192.3106 Y66.7301
G01 X192.8556 Y66.9585
G01 X193.3931 Y67.2042
G01 X193.9225 Y67.4668
G01 X194.4433 Y67.7460
G01 X194.9549 Y68.0417
G01 X195.4569 Y68.3535
G01 X195.9487 Y68.6811
G01 X196.4299 Y69.0242
G01 X196.8999 Y69.3824
G01 X197.3583 Y69.7553
G01 X197.8046 Y70.1426
G01 X198.1695 Y70.5007
G01 X198.5209 Y70.8721
G01 X198.8581 Y71.2563
G01 X199.1808 Y71.6529
G01 X199.4884 Y72.0613
G01 X199.7806 Y72.4808
G01 X200.0569 Y72.9110
G01 X200.3170 Y73.3512
G01 X200.5604 Y73.8008
G01 X200.7869 Y74.2591
G01 X200.9961 Y74.7256
G01 X201.1878 Y75.1996
G01 X201.5138 Y76.0727
