;Project PaulAngie
;Created by Estlcam version 11 build 11,112
;Machining time about 00:29:17 hours

G90
M03 S18000
G00 X0.0000 Y0.0000 Z0.0000
G00 Z2.0000


;No. 1: Helical drill 1
G00 X29.7892 Y90.8051
G00 Z0.5000
M106 S200
G01 X29.7879 Y90.7580 Z0.4958 F400 S18000
G01 X29.7842 Y90.7110 Z0.4917
G01 X29.7781 Y90.6643 Z0.4875
G01 X29.7695 Y90.6180 Z0.4833
G01 X29.7585 Y90.5721 Z0.4792
G01 X29.7451 Y90.5270 Z0.4750
G01 X29.7294 Y90.4826 Z0.4708
G01 X29.7113 Y90.4390 Z0.4667
G01 X29.6911 Y90.3965 Z0.4625
G01 X29.6686 Y90.3551 Z0.4583
G01 X29.6440 Y90.3149 Z0.4542
G01 X29.6173 Y90.2761 Z0.4500
G01 X29.5886 Y90.2387 Z0.4458
G01 X29.5580 Y90.2029 Z0.4417
G01 X29.5256 Y90.1687 Z0.4375
G01 X29.4914 Y90.1363 Z0.4333
G01 X29.4555 Y90.1057 Z0.4292
G01 X29.4182 Y90.0770 Z0.4250
G01 X29.3793 Y90.0503 Z0.4208
G01 X29.3392 Y90.0257 Z0.4167
G01 X29.2977 Y90.0032 Z0.4125
G01 X29.2552 Y89.9829 Z0.4083
G01 X29.2117 Y89.9649 Z0.4042
G01 X29.1673 Y89.9491 Z0.4000
G01 X29.1221 Y89.9358 Z0.3958
G01 X29.0763 Y89.9248 Z0.3917
G01 X29.0299 Y89.9162 Z0.3875
G01 X28.9832 Y89.9100 Z0.3833
G01 X28.9363 Y89.9063 Z0.3792
G01 X28.8892 Y89.9051 Z0.3750
G01 X28.8421 Y89.9063 Z0.3708
G01 X28.7951 Y89.9100 Z0.3667
G01 X28.7484 Y89.9162 Z0.3625
G01 X28.7020 Y89.9248 Z0.3583
G01 X28.6562 Y89.9358 Z0.3542
G01 X28.6110 Y89.9491 Z0.3500
G01 X28.5666 Y89.9649 Z0.3458
G01 X28.5231 Y89.9829 Z0.3417
G01 X28.4806 Y90.0032 Z0.3375
G01 X28.4392 Y90.0257 Z0.3333
G01 X28.3990 Y90.0503 Z0.3292
G01 X28.3602 Y90.0770 Z0.3250
G01 X28.3228 Y90.1057 Z0.3208
G01 X28.2869 Y90.1363 Z0.3167
G01 X28.2528 Y90.1687 Z0.3125
G01 X28.2203 Y90.2029 Z0.3083
G01 X28.1897 Y90.2387 Z0.3042
G01 X28.1610 Y90.2761 Z0.3000
G01 X28.1344 Y90.3149 Z0.2958
G01 X28.1097 Y90.3551 Z0.2917
G01 X28.0873 Y90.3965 Z0.2875
G01 X28.0670 Y90.4390 Z0.2833
G01 X28.0489 Y90.4826 Z0.2792
G01 X28.0332 Y90.5270 Z0.2750
G01 X28.0198 Y90.5721 Z0.2708
G01 X28.0088 Y90.6180 Z0.2667
G01 X28.0002 Y90.6643 Z0.2625
G01 X27.9941 Y90.7110 Z0.2583
G01 X27.9904 Y90.7580 Z0.2542
G01 X27.9892 Y90.8051 Z0.2500
G01 X27.9904 Y90.8522 Z0.2458
G01 X27.9941 Y90.8992 Z0.2417
G01 X28.0002 Y90.9459 Z0.2375
G01 X28.0088 Y90.9922 Z0.2333
G01 X28.0198 Y91.0380 Z0.2292
G01 X28.0332 Y91.0832 Z0.2250
G01 X28.0489 Y91.1276 Z0.2208
G01 X28.0670 Y91.1711 Z0.2167
G01 X28.0873 Y91.2137 Z0.2125
G01 X28.1097 Y91.2551 Z0.2083
G01 X28.1344 Y91.2953 Z0.2042
G01 X28.1610 Y91.3341 Z0.2000
G01 X28.1897 Y91.3715 Z0.1958
G01 X28.2203 Y91.4073 Z0.1917
G01 X28.2528 Y91.4415 Z0.1875
G01 X28.2869 Y91.4739 Z0.1833
G01 X28.3228 Y91.5045 Z0.1792
G01 X28.3602 Y91.5332 Z0.1750
G01 X28.3990 Y91.5599 Z0.1708
G01 X28.4392 Y91.5845 Z0.1667
G01 X28.4806 Y91.6070 Z0.1625
G01 X28.5231 Y91.6273 Z0.1583
G01 X28.5666 Y91.6453 Z0.1542
G01 X28.6110 Y91.6610 Z0.1500
G01 X28.6562 Y91.6744 Z0.1458
G01 X28.7020 Y91.6854 Z0.1417
G01 X28.7484 Y91.6940 Z0.1375
G01 X28.7951 Y91.7002 Z0.1333
G01 X28.8421 Y91.7039 Z0.1292
G01 X28.8892 Y91.7051 Z0.1250
G01 X28.9363 Y91.7039 Z0.1208
G01 X28.9832 Y91.7002 Z0.1167
G01 X29.0299 Y91.6940 Z0.1125
G01 X29.0763 Y91.6854 Z0.1083
G01 X29.1221 Y91.6744 Z0.1042
G01 X29.1673 Y91.6610 Z0.1000
G01 X29.2117 Y91.6453 Z0.0958
G01 X29.2552 Y91.6273 Z0.0917
G01 X29.2977 Y91.6070 Z0.0875
G01 X29.3392 Y91.5845 Z0.0833
G01 X29.3793 Y91.5599 Z0.0792
G01 X29.4182 Y91.5332 Z0.0750
G01 X29.4555 Y91.5045 Z0.0708
G01 X29.4914 Y91.4739 Z0.0667
G01 X29.5256 Y91.4415 Z0.0625
G01 X29.5580 Y91.4073 Z0.0583
G01 X29.5886 Y91.3715 Z0.0542
G01 X29.6173 Y91.3341 Z0.0500
G01 X29.6440 Y91.2953 Z0.0458
G01 X29.6686 Y91.2551 Z0.0417
G01 X29.6911 Y91.2137 Z0.0375
G01 X29.7113 Y91.1711 Z0.0333
G01 X29.7294 Y91.1276 Z0.0292
G01 X29.7451 Y91.0832 Z0.0250
G01 X29.7585 Y91.0380 Z0.0208
G01 X29.7695 Y90.9922 Z0.0167
G01 X29.7781 Y90.9459 Z0.0125
G01 X29.7842 Y90.8992 Z0.0083
G01 X29.7879 Y90.8522 Z0.0042
G01 X29.7892 Y90.8051 Z0.0000
G01 X29.7879 Y90.7580
G01 X29.7842 Y90.7110
G01 X29.7781 Y90.6643
G01 X29.7695 Y90.6180
G01 X29.7585 Y90.5721
G01 X29.7451 Y90.5270
G01 X29.7294 Y90.4826
G01 X29.7113 Y90.4390
G01 X29.6911 Y90.3965
G01 X29.6686 Y90.3551
G01 X29.6440 Y90.3149
G01 X29.6173 Y90.2761
G01 X29.5886 Y90.2387
G01 X29.5580 Y90.2029
G01 X29.5256 Y90.1687
G01 X29.4914 Y90.1363
G01 X29.4555 Y90.1057
G01 X29.4182 Y90.0770
G01 X29.3793 Y90.0503
G01 X29.3392 Y90.0257
G01 X29.2977 Y90.0032
G01 X29.2552 Y89.9829
G01 X29.2117 Y89.9649
G01 X29.1673 Y89.9491
G01 X29.1221 Y89.9358
G01 X29.0763 Y89.9248
G01 X29.0299 Y89.9162
G01 X28.9832 Y89.9100
G01 X28.9363 Y89.9063
G01 X28.8892 Y89.9051
G01 X28.8421 Y89.9063
G01 X28.7951 Y89.9100
G01 X28.7484 Y89.9162
G01 X28.7020 Y89.9248
G01 X28.6562 Y89.9358
G01 X28.6110 Y89.9491
G01 X28.5666 Y89.9649
G01 X28.5231 Y89.9829
G01 X28.4806 Y90.0032
G01 X28.4392 Y90.0257
G01 X28.3990 Y90.0503
G01 X28.3602 Y90.0770
G01 X28.3228 Y90.1057
G01 X28.2869 Y90.1363
G01 X28.2528 Y90.1687
G01 X28.2203 Y90.2029
G01 X28.1897 Y90.2387
G01 X28.1610 Y90.2761
G01 X28.1344 Y90.3149
G01 X28.1097 Y90.3551
G01 X28.0873 Y90.3965
G01 X28.0670 Y90.4390
G01 X28.0489 Y90.4826
G01 X28.0332 Y90.5270
G01 X28.0198 Y90.5721
G01 X28.0088 Y90.6180
G01 X28.0002 Y90.6643
G01 X27.9941 Y90.7110
G01 X27.9904 Y90.7580
G01 X27.9892 Y90.8051
G01 X27.9904 Y90.8522
G01 X27.9941 Y90.8992
G01 X28.0002 Y90.9459
G01 X28.0088 Y90.9922
G01 X28.0198 Y91.0380
G01 X28.0332 Y91.0832
G01 X28.0489 Y91.1276
G01 X28.0670 Y91.1711
G01 X28.0873 Y91.2137
G01 X28.1097 Y91.2551
G01 X28.1344 Y91.2953
G01 X28.1610 Y91.3341
G01 X28.1897 Y91.3715
G01 X28.2203 Y91.4073
G01 X28.2528 Y91.4415
G01 X28.2869 Y91.4739
G01 X28.3228 Y91.5045
G01 X28.3602 Y91.5332
G01 X28.3990 Y91.5599
G01 X28.4392 Y91.5845
G01 X28.4806 Y91.6070
G01 X28.5231 Y91.6273
G01 X28.5666 Y91.6453
G01 X28.6110 Y91.6610
G01 X28.6562 Y91.6744
G01 X28.7020 Y91.6854
G01 X28.7484 Y91.6940
G01 X28.7951 Y91.7002
G01 X28.8421 Y91.7039
G01 X28.8892 Y91.7051
G01 X28.9363 Y91.7039
G01 X28.9832 Y91.7002
G01 X29.0299 Y91.6940
G01 X29.0763 Y91.6854
G01 X29.1221 Y91.6744
G01 X29.1673 Y91.6610
G01 X29.2117 Y91.6453
G01 X29.2552 Y91.6273
G01 X29.2977 Y91.6070
G01 X29.3392 Y91.5845
G01 X29.3793 Y91.5599
G01 X29.4182 Y91.5332
G01 X29.4555 Y91.5045
G01 X29.4914 Y91.4739
G01 X29.5256 Y91.4415
G01 X29.5580 Y91.4073
G01 X29.5886 Y91.3715
G01 X29.6173 Y91.3341
G01 X29.6440 Y91.2953
G01 X29.6686 Y91.2551
G01 X29.6911 Y91.2137
G01 X29.7113 Y91.1711
G01 X29.7294 Y91.1276
G01 X29.7451 Y91.0832
G01 X29.7585 Y91.0380
G01 X29.7695 Y90.9922
G01 X29.7781 Y90.9459
G01 X29.7842 Y90.8992
G01 X29.7879 Y90.8522
G01 X29.7892 Y90.8051
M107
M106 S200
G01 X29.7879 Y90.7580 Z-0.0167
G01 X29.7842 Y90.7110 Z-0.0333
G01 X29.7781 Y90.6643 Z-0.0500
G01 X29.7695 Y90.6180 Z-0.0667
G01 X29.7585 Y90.5721 Z-0.0833
G01 X29.7451 Y90.5270 Z-0.1000
G01 X29.7294 Y90.4826 Z-0.1167
G01 X29.7113 Y90.4390 Z-0.1333
G01 X29.6911 Y90.3965 Z-0.1500
G01 X29.6686 Y90.3551 Z-0.1667
G01 X29.6440 Y90.3149 Z-0.1833
G01 X29.6173 Y90.2761 Z-0.2000
G01 X29.5886 Y90.2387 Z-0.2167
G01 X29.5580 Y90.2029 Z-0.2333
G01 X29.5256 Y90.1687 Z-0.2500
G01 X29.4914 Y90.1363 Z-0.2667
G01 X29.4555 Y90.1057 Z-0.2833
G01 X29.4182 Y90.0770 Z-0.3000
G01 X29.3793 Y90.0503 Z-0.3167
G01 X29.3392 Y90.0257 Z-0.3333
G01 X29.2977 Y90.0032 Z-0.3500
G01 X29.2552 Y89.9829 Z-0.3667
G01 X29.2117 Y89.9649 Z-0.3833
G01 X29.1673 Y89.9491 Z-0.4000
G01 X29.1221 Y89.9358 Z-0.4167
G01 X29.0763 Y89.9248 Z-0.4333
G01 X29.0299 Y89.9162 Z-0.4500
G01 X28.9832 Y89.9100 Z-0.4667
G01 X28.9363 Y89.9063 Z-0.4833
G01 X28.8892 Y89.9051 Z-0.5000
G01 X28.8421 Y89.9063 Z-0.5167
G01 X28.7951 Y89.9100 Z-0.5333
G01 X28.7484 Y89.9162 Z-0.5500
G01 X28.7020 Y89.9248 Z-0.5667
G01 X28.6562 Y89.9358 Z-0.5833
G01 X28.6110 Y89.9491 Z-0.6000
G01 X28.5666 Y89.9649 Z-0.6167
G01 X28.5231 Y89.9829 Z-0.6333
G01 X28.4806 Y90.0032 Z-0.6500
G01 X28.4392 Y90.0257 Z-0.6667
G01 X28.3990 Y90.0503 Z-0.6833
G01 X28.3602 Y90.0770 Z-0.7000
G01 X28.3228 Y90.1057 Z-0.7167
G01 X28.2869 Y90.1363 Z-0.7333
G01 X28.2528 Y90.1687 Z-0.7500
G01 X28.2203 Y90.2029 Z-0.7667
G01 X28.1897 Y90.2387 Z-0.7833
G01 X28.1610 Y90.2761 Z-0.8000
G01 X28.1344 Y90.3149 Z-0.8167
G01 X28.1097 Y90.3551 Z-0.8333
G01 X28.0873 Y90.3965 Z-0.8500
G01 X28.0670 Y90.4390 Z-0.8667
G01 X28.0489 Y90.4826 Z-0.8833
G01 X28.0332 Y90.5270 Z-0.9000
G01 X28.0198 Y90.5721 Z-0.9167
G01 X28.0088 Y90.6180 Z-0.9333
G01 X28.0002 Y90.6643 Z-0.9500
G01 X27.9941 Y90.7110 Z-0.9667
G01 X27.9904 Y90.7580 Z-0.9833
G01 X27.9892 Y90.8051 Z-1.0000
G01 X27.9904 Y90.8522 Z-1.0167
G01 X27.9941 Y90.8992 Z-1.0333
G01 X28.0002 Y90.9459 Z-1.0500
G01 X28.0088 Y90.9922 Z-1.0667
G01 X28.0198 Y91.0380 Z-1.0833
G01 X28.0332 Y91.0832 Z-1.1000
G01 X28.0489 Y91.1276 Z-1.1167
G01 X28.0670 Y91.1711 Z-1.1333
G01 X28.0873 Y91.2137 Z-1.1500
G01 X28.1097 Y91.2551 Z-1.1667
G01 X28.1344 Y91.2953 Z-1.1833
G01 X28.1610 Y91.3341 Z-1.2000
G01 X28.1897 Y91.3715 Z-1.2167
G01 X28.2203 Y91.4073 Z-1.2333
G01 X28.2528 Y91.4415 Z-1.2500
G01 X28.2869 Y91.4739 Z-1.2667
G01 X28.3228 Y91.5045 Z-1.2833
G01 X28.3602 Y91.5332 Z-1.3000
G01 X28.3990 Y91.5599 Z-1.3167
G01 X28.4392 Y91.5845 Z-1.3333
G01 X28.4806 Y91.6070 Z-1.3500
G01 X28.5231 Y91.6273 Z-1.3667
G01 X28.5666 Y91.6453 Z-1.3833
G01 X28.6110 Y91.6610 Z-1.4000
G01 X28.6562 Y91.6744 Z-1.4167
G01 X28.7020 Y91.6854 Z-1.4333
G01 X28.7484 Y91.6940 Z-1.4500
G01 X28.7951 Y91.7002 Z-1.4667
G01 X28.8421 Y91.7039 Z-1.4833
G01 X28.8892 Y91.7051 Z-1.5000
G01 X28.9363 Y91.7039 Z-1.5167
G01 X28.9832 Y91.7002 Z-1.5333
G01 X29.0299 Y91.6940 Z-1.5500
G01 X29.0763 Y91.6854 Z-1.5667
G01 X29.1221 Y91.6744 Z-1.5833
G01 X29.1673 Y91.6610 Z-1.6000
G01 X29.2117 Y91.6453 Z-1.6167
G01 X29.2552 Y91.6273 Z-1.6333
G01 X29.2977 Y91.6070 Z-1.6500
G01 X29.3392 Y91.5845 Z-1.6667
G01 X29.3793 Y91.5599 Z-1.6833
G01 X29.4182 Y91.5332 Z-1.7000
G01 X29.4555 Y91.5045 Z-1.7167
G01 X29.4914 Y91.4739 Z-1.7333
G01 X29.5256 Y91.4415 Z-1.7500
G01 X29.5580 Y91.4073 Z-1.7667
G01 X29.5886 Y91.3715 Z-1.7833
G01 X29.6173 Y91.3341 Z-1.8000
G01 X29.6440 Y91.2953 Z-1.8167
G01 X29.6686 Y91.2551 Z-1.8333
G01 X29.6911 Y91.2137 Z-1.8500
G01 X29.7113 Y91.1711 Z-1.8667
G01 X29.7294 Y91.1276 Z-1.8833
G01 X29.7451 Y91.0832 Z-1.9000
G01 X29.7585 Y91.0380 Z-1.9167
G01 X29.7695 Y90.9922 Z-1.9333
G01 X29.7781 Y90.9459 Z-1.9500
G01 X29.7842 Y90.8992 Z-1.9667
G01 X29.7879 Y90.8522 Z-1.9833
G01 X29.7892 Y90.8051 Z-2.0000
G01 X29.7879 Y90.7580
G01 X29.7842 Y90.7110
G01 X29.7781 Y90.6643
G01 X29.7695 Y90.6180
G01 X29.7585 Y90.5721
G01 X29.7451 Y90.5270
G01 X29.7294 Y90.4826
G01 X29.7113 Y90.4390
G01 X29.6911 Y90.3965
G01 X29.6686 Y90.3551
G01 X29.6440 Y90.3149
G01 X29.6173 Y90.2761
G01 X29.5886 Y90.2387
G01 X29.5580 Y90.2029
G01 X29.5256 Y90.1687
G01 X29.4914 Y90.1363
G01 X29.4555 Y90.1057
G01 X29.4182 Y90.0770
G01 X29.3793 Y90.0503
G01 X29.3392 Y90.0257
G01 X29.2977 Y90.0032
G01 X29.2552 Y89.9829
G01 X29.2117 Y89.9649
G01 X29.1673 Y89.9491
G01 X29.1221 Y89.9358
G01 X29.0763 Y89.9248
G01 X29.0299 Y89.9162
G01 X28.9832 Y89.9100
G01 X28.9363 Y89.9063
G01 X28.8892 Y89.9051
G01 X28.8421 Y89.9063
G01 X28.7951 Y89.9100
G01 X28.7484 Y89.9162
G01 X28.7020 Y89.9248
G01 X28.6562 Y89.9358
G01 X28.6110 Y89.9491
G01 X28.5666 Y89.9649
G01 X28.5231 Y89.9829
G01 X28.4806 Y90.0032
G01 X28.4392 Y90.0257
G01 X28.3990 Y90.0503
G01 X28.3602 Y90.0770
G01 X28.3228 Y90.1057
G01 X28.2869 Y90.1363
G01 X28.2528 Y90.1687
G01 X28.2203 Y90.2029
G01 X28.1897 Y90.2387
G01 X28.1610 Y90.2761
G01 X28.1344 Y90.3149
G01 X28.1097 Y90.3551
G01 X28.0873 Y90.3965
G01 X28.0670 Y90.4390
G01 X28.0489 Y90.4826
G01 X28.0332 Y90.5270
G01 X28.0198 Y90.5721
G01 X28.0088 Y90.6180
G01 X28.0002 Y90.6643
G01 X27.9941 Y90.7110
G01 X27.9904 Y90.7580
G01 X27.9892 Y90.8051
G01 X27.9904 Y90.8522
G01 X27.9941 Y90.8992
G01 X28.0002 Y90.9459
G01 X28.0088 Y90.9922
G01 X28.0198 Y91.0380
G01 X28.0332 Y91.0832
G01 X28.0489 Y91.1276
G01 X28.0670 Y91.1711
G01 X28.0873 Y91.2137
G01 X28.1097 Y91.2551
G01 X28.1344 Y91.2953
G01 X28.1610 Y91.3341
G01 X28.1897 Y91.3715
G01 X28.2203 Y91.4073
G01 X28.2528 Y91.4415
G01 X28.2869 Y91.4739
G01 X28.3228 Y91.5045
G01 X28.3602 Y91.5332
G01 X28.3990 Y91.5599
G01 X28.4392 Y91.5845
G01 X28.4806 Y91.6070
G01 X28.5231 Y91.6273
G01 X28.5666 Y91.6453
G01 X28.6110 Y91.6610
G01 X28.6562 Y91.6744
G01 X28.7020 Y91.6854
G01 X28.7484 Y91.6940
G01 X28.7951 Y91.7002
G01 X28.8421 Y91.7039
G01 X28.8892 Y91.7051
G01 X28.9363 Y91.7039
G01 X28.9832 Y91.7002
G01 X29.0299 Y91.6940
G01 X29.0763 Y91.6854
G01 X29.1221 Y91.6744
G01 X29.1673 Y91.6610
G01 X29.2117 Y91.6453
G01 X29.2552 Y91.6273
G01 X29.2977 Y91.6070
G01 X29.3392 Y91.5845
G01 X29.3793 Y91.5599
G01 X29.4182 Y91.5332
G01 X29.4555 Y91.5045
G01 X29.4914 Y91.4739
G01 X29.5256 Y91.4415
G01 X29.5580 Y91.4073
G01 X29.5886 Y91.3715
G01 X29.6173 Y91.3341
G01 X29.6440 Y91.2953
G01 X29.6686 Y91.2551
G01 X29.6911 Y91.2137
G01 X29.7113 Y91.1711
G01 X29.7294 Y91.1276
G01 X29.7451 Y91.0832
G01 X29.7585 Y91.0380
G01 X29.7695 Y90.9922
G01 X29.7781 Y90.9459
G01 X29.7842 Y90.8992
G01 X29.7879 Y90.8522
G01 X29.7892 Y90.8051
G01 X29.8001 Y90.7584 F800
G01 X29.8085 Y90.7112
G01 X29.8145 Y90.6637
G01 X29.8181 Y90.6159
G01 X29.8191 Y90.5680
G01 X29.8176 Y90.5201
G01 X29.8137 Y90.4723
G01 X29.8073 Y90.4248
G01 X29.7881 Y90.3797
G01 X29.7668 Y90.3357
G01 X29.7434 Y90.2927
G01 X29.7179 Y90.2510
G01 X29.6903 Y90.2105
G01 X29.6608 Y90.1715
G01 X29.6294 Y90.1339
G01 X29.5963 Y90.0980
G01 X29.5236 Y90.0321
G01 X29.4447 Y89.9736
G01 X29.3606 Y89.9232
G01 X29.2718 Y89.8812
G01 X29.1794 Y89.8481
G01 X29.0842 Y89.8243
G01 X28.9872 Y89.8099
G01 X28.8892 Y89.8051
G01 X28.7911 Y89.8099
G01 X28.6941 Y89.8243
G01 X28.5989 Y89.8481
G01 X28.5065 Y89.8812
G01 X28.4178 Y89.9232
G01 X28.3336 Y89.9736
G01 X28.2548 Y90.0321
G01 X28.1821 Y90.0980
G01 X28.1482 Y90.1335
G01 X28.1161 Y90.1707
G01 X28.0859 Y90.2094
G01 X28.0577 Y90.2495
G01 X28.0314 Y90.2910
G01 X28.0072 Y90.3337
G01 X27.9852 Y90.3775
G01 X27.9653 Y90.4224
G01 X27.9476 Y90.4682
G01 X27.9322 Y90.5148
G01 X27.9191 Y90.5621
G01 X27.9084 Y90.6100
G01 X27.9000 Y90.6584
G01 X27.8940 Y90.7071
G01 X27.8904 Y90.7560
G01 X27.8892 Y90.8051
G01 X27.8940 Y90.9031
G01 X27.9084 Y91.0002
G01 X27.9322 Y91.0954
G01 X27.9653 Y91.1878
G01 X28.0072 Y91.2765
G01 X28.0577 Y91.3607
G01 X28.1161 Y91.4395
G01 X28.1821 Y91.5122
G01 X28.2176 Y91.5460
G01 X28.2548 Y91.5781
G01 X28.2935 Y91.6083
G01 X28.3336 Y91.6366
G01 X28.3751 Y91.6628
G01 X28.4178 Y91.6870
G01 X28.4616 Y91.7091
G01 X28.5065 Y91.7290
G01 X28.5989 Y91.7620
G01 X28.6941 Y91.7859
G01 X28.7911 Y91.8003
G01 X28.8892 Y91.8051
G01 X28.9382 Y91.8039
G01 X28.9872 Y91.8003
G01 X29.0359 Y91.7943
G01 X29.0842 Y91.7859
G01 X29.1321 Y91.7751
G01 X29.1794 Y91.7620
G01 X29.2260 Y91.7466
G01 X29.2718 Y91.7290
G01 X29.3167 Y91.7091
G01 X29.3606 Y91.6870
G01 X29.4033 Y91.6628
G01 X29.4447 Y91.6366
G01 X29.4849 Y91.6083
G01 X29.5236 Y91.5781
G01 X29.5607 Y91.5460
G01 X29.5963 Y91.5122
G01 X29.6301 Y91.4766
G01 X29.6622 Y91.4395
G01 X29.6924 Y91.4008
G01 X29.7206 Y91.3607
G01 X29.7469 Y91.3192
G01 X29.7711 Y91.2765
G01 X29.7931 Y91.2326
G01 X29.8130 Y91.1878
G01 X29.8307 Y91.1420
G01 X29.8461 Y91.0954
G01 X29.8592 Y91.0481
G01 X29.8699 Y91.0002
G01 X29.8783 Y90.9518
G01 X29.8843 Y90.9031
G01 X29.8880 Y90.8542
G01 X29.8892 Y90.8051
G01 X29.8854 Y90.7179
G01 X29.8740 Y90.6314
G01 X29.8551 Y90.5463
G01 X29.8288 Y90.4631
G01 X29.7955 Y90.3825
G01 X29.7552 Y90.3051
G01 X29.7083 Y90.2315
G01 X29.6552 Y90.1623
G01 X29.5963 Y90.0980
G01 X29.5319 Y90.0390
G01 X29.4627 Y89.9859
G01 X29.3892 Y89.9391
G01 X29.3118 Y89.8988
G01 X29.2312 Y89.8654
G01 X29.1480 Y89.8392
G01 X29.0628 Y89.8203
G01 X28.9763 Y89.8089
G01 X28.8892 Y89.8051
G01 X28.8020 Y89.8089
G01 X28.7155 Y89.8203
G01 X28.6303 Y89.8392
G01 X28.5471 Y89.8654
G01 X28.4665 Y89.8988
G01 X28.3892 Y89.9391
G01 X28.3485 Y89.9638
G01 X28.3091 Y89.9905
G01 X28.2710 Y90.0190
G01 X28.2343 Y90.0493
G01 X28.1991 Y90.0814
G01 X28.1654 Y90.1150
G01 X28.1334 Y90.1502
G01 X28.1031 Y90.1869
G01 X28.0746 Y90.2250
G01 X28.0479 Y90.2644
G01 X28.0231 Y90.3051
G01 X28.0003 Y90.3469
G01 X27.9795 Y90.3897
G01 X27.9608 Y90.4334
G01 X27.9442 Y90.4780
G01 X27.9297 Y90.5234
G01 X27.9173 Y90.5693
G01 X27.9072 Y90.6158
G01 X27.8993 Y90.6628
G01 X27.8937 Y90.7100
G01 X27.8903 Y90.7575
G01 X27.8892 Y90.8051
G01 X27.8903 Y90.8527
G01 X27.8937 Y90.9001
G01 X27.8993 Y90.9474
G01 X27.9072 Y90.9943
G01 X27.9173 Y91.0408
G01 X27.9297 Y91.0868
G01 X27.9442 Y91.1322
G01 X27.9608 Y91.1767
G01 X27.9795 Y91.2205
G01 X28.0003 Y91.2633
G01 X28.0231 Y91.3051
G01 X28.0479 Y91.3457
G01 X28.0746 Y91.3851
G01 X28.1031 Y91.4232
G01 X28.1334 Y91.4599
G01 X28.1654 Y91.4952
G01 X28.1991 Y91.5288
G01 X28.2343 Y91.5608
G01 X28.2710 Y91.5911
G01 X28.3091 Y91.6197
G01 X28.3485 Y91.6463
G01 X28.3892 Y91.6711
G01 X28.4309 Y91.6939
G01 X28.4737 Y91.7147
G01 X28.5175 Y91.7335
G01 X28.5621 Y91.7501
G01 X28.6074 Y91.7646
G01 X28.6534 Y91.7769
G01 X28.6999 Y91.7870
G01 X28.7468 Y91.7949
G01 X28.7941 Y91.8006
G01 X28.8416 Y91.8040
G01 X28.8892 Y91.8051
G01 X28.9367 Y91.8040
G01 X28.9842 Y91.8006
G01 X29.0315 Y91.7949
G01 X29.0784 Y91.7870
G01 X29.1249 Y91.7769
G01 X29.1709 Y91.7646
G01 X29.2162 Y91.7501
G01 X29.2608 Y91.7335
G01 X29.3046 Y91.7147
G01 X29.3474 Y91.6939
G01 X29.3892 Y91.6711
G01 X29.4298 Y91.6463
G01 X29.4692 Y91.6197
G01 X29.5073 Y91.5911
G01 X29.5440 Y91.5608
G01 X29.5792 Y91.5288
G01 X29.6129 Y91.4952
G01 X29.6449 Y91.4599
G01 X29.6752 Y91.4232
G01 X29.7037 Y91.3851
G01 X29.7304 Y91.3457
G01 X29.7552 Y91.3051
G01 X29.7780 Y91.2633
G01 X29.7988 Y91.2205
G01 X29.8175 Y91.1767
G01 X29.8342 Y91.1322
G01 X29.8486 Y91.0868
G01 X29.8610 Y91.0408
G01 X29.8711 Y90.9943
G01 X29.8790 Y90.9474
G01 X29.8846 Y90.9001
G01 X29.8880 Y90.8527
G01 X29.8892 Y90.8051
G01 X29.8880 Y90.7585
G01 X29.8846 Y90.7120
G01 X29.8789 Y90.6657
G01 X29.8709 Y90.6198
G01 X29.8607 Y90.5743
G01 X29.8483 Y90.5293
G01 X29.8336 Y90.4850
G01 X29.8168 Y90.4415
G01 X29.7979 Y90.3989
G01 X29.7770 Y90.3573
G01 X29.7540 Y90.3167
G01 X29.7291 Y90.2773
G01 X29.7022 Y90.2392
G01 X29.6735 Y90.2024
G01 X29.6431 Y90.1671
G01 X29.6109 Y90.1333
G01 X29.5771 Y90.1012
G01 X29.5418 Y90.0707
G01 X29.5051 Y90.0420
G01 X29.4669 Y90.0152
G01 X29.4276 Y89.9902
G01 X29.3870 Y89.9673
G01 X29.3453 Y89.9463
G01 X29.3027 Y89.9274
G01 X29.2592 Y89.9106
G01 X29.2149 Y89.8960
G01 X29.1700 Y89.8836
G01 X29.1245 Y89.8733
G01 X29.0786 Y89.8654
G01 X29.0323 Y89.8597
G01 X28.9858 Y89.8562
G01 X28.9392 Y89.8551
G01 X28.8925 Y89.8562
G01 X28.8460 Y89.8597
G01 X28.7998 Y89.8654
G01 X28.7538 Y89.8733
G01 X28.7083 Y89.8836
G01 X28.6634 Y89.8960
G01 X28.6191 Y89.9106
G01 X28.5756 Y89.9274
G01 X28.5330 Y89.9463
G01 X28.4913 Y89.9673
G01 X28.4508 Y89.9902
G01 X28.4114 Y90.0152
G01 X28.3732 Y90.0420
G01 X28.3365 Y90.0707
G01 X28.3012 Y90.1012
G01 X28.2674 Y90.1333
G01 X28.2353 Y90.1671
G01 X28.2048 Y90.2024
G01 X28.1761 Y90.2392
G01 X28.1493 Y90.2773
G01 X28.1243 Y90.3167
G01 X28.1013 Y90.3573
G01 X28.0804 Y90.3989
G01 X28.0615 Y90.4415
G01 X28.0447 Y90.4850
G01 X28.0301 Y90.5293
G01 X28.0176 Y90.5743
G01 X28.0074 Y90.6198
G01 X27.9994 Y90.6657
G01 X27.9937 Y90.7120
G01 X27.9903 Y90.7585
G01 X27.9892 Y90.8051
G01 X27.9904 Y90.8522
G01 X27.9941 Y90.8992
G01 X28.0002 Y90.9459
G01 X28.0088 Y90.9922
G01 X28.0198 Y91.0380
G01 X28.0332 Y91.0832
G01 X28.0489 Y91.1276
G01 X28.0670 Y91.1711
G01 X28.0873 Y91.2137
G01 X28.1097 Y91.2551
G01 X28.1344 Y91.2953
G01 X28.1610 Y91.3341
G01 X28.1897 Y91.3715
G01 X28.2203 Y91.4073
G01 X28.2528 Y91.4415
G01 X28.2869 Y91.4739
G01 X28.3228 Y91.5045
G01 X28.3602 Y91.5332
G01 X28.3990 Y91.5599
G01 X28.4392 Y91.5845
G01 X28.4806 Y91.6070
G01 X28.5231 Y91.6273
G01 X28.5666 Y91.6453
G01 X28.6110 Y91.6610
G01 X28.6562 Y91.6744
G01 X28.7020 Y91.6854
G01 X28.7484 Y91.6940
G01 X28.7951 Y91.7002
G01 X28.8421 Y91.7039
G01 X28.8892 Y91.7051
G01 X28.9363 Y91.7039
G01 X28.9832 Y91.7002
G01 X29.0299 Y91.6940
G01 X29.0763 Y91.6854
G01 X29.1221 Y91.6744
G01 X29.1673 Y91.6610
G01 X29.2117 Y91.6453
G01 X29.2552 Y91.6273
G01 X29.2977 Y91.6070
G01 X29.3392 Y91.5845
G01 X29.3793 Y91.5599
G01 X29.4182 Y91.5332
G01 X29.4555 Y91.5045
G01 X29.4914 Y91.4739
G01 X29.5256 Y91.4415
G01 X29.5580 Y91.4073
G01 X29.5886 Y91.3715
G01 X29.6173 Y91.3341
G01 X29.6440 Y91.2953
G01 X29.6686 Y91.2551
G01 X29.6911 Y91.2137
G01 X29.7113 Y91.1711
G01 X29.7294 Y91.1276
G01 X29.7451 Y91.0832
G01 X29.7585 Y91.0380
G01 X29.7695 Y90.9922
G01 X29.7781 Y90.9459
G01 X29.7842 Y90.8992
G01 X29.7879 Y90.8522
G01 X29.7892 Y90.8051
M107
M106 S200
G01 X29.7879 Y90.7580 Z-2.0167 F400
G01 X29.7842 Y90.7110 Z-2.0333
G01 X29.7781 Y90.6643 Z-2.0500
G01 X29.7695 Y90.6180 Z-2.0667
G01 X29.7585 Y90.5721 Z-2.0833
G01 X29.7451 Y90.5270 Z-2.1000
G01 X29.7294 Y90.4826 Z-2.1167
G01 X29.7113 Y90.4390 Z-2.1333
G01 X29.6911 Y90.3965 Z-2.1500
G01 X29.6686 Y90.3551 Z-2.1667
G01 X29.6440 Y90.3149 Z-2.1833
G01 X29.6173 Y90.2761 Z-2.2000
G01 X29.5886 Y90.2387 Z-2.2167
G01 X29.5580 Y90.2029 Z-2.2333
G01 X29.5256 Y90.1687 Z-2.2500
G01 X29.4914 Y90.1363 Z-2.2667
G01 X29.4555 Y90.1057 Z-2.2833
G01 X29.4182 Y90.0770 Z-2.3000
G01 X29.3793 Y90.0503 Z-2.3167
G01 X29.3392 Y90.0257 Z-2.3333
G01 X29.2977 Y90.0032 Z-2.3500
G01 X29.2552 Y89.9829 Z-2.3667
G01 X29.2117 Y89.9649 Z-2.3833
G01 X29.1673 Y89.9491 Z-2.4000
G01 X29.1221 Y89.9358 Z-2.4167
G01 X29.0763 Y89.9248 Z-2.4333
G01 X29.0299 Y89.9162 Z-2.4500
G01 X28.9832 Y89.9100 Z-2.4667
G01 X28.9363 Y89.9063 Z-2.4833
G01 X28.8892 Y89.9051 Z-2.5000
G01 X28.8421 Y89.9063 Z-2.5167
G01 X28.7951 Y89.9100 Z-2.5333
G01 X28.7484 Y89.9162 Z-2.5500
G01 X28.7020 Y89.9248 Z-2.5667
G01 X28.6562 Y89.9358 Z-2.5833
G01 X28.6110 Y89.9491 Z-2.6000
G01 X28.5666 Y89.9649 Z-2.6167
G01 X28.5231 Y89.9829 Z-2.6333
G01 X28.4806 Y90.0032 Z-2.6500
G01 X28.4392 Y90.0257 Z-2.6667
G01 X28.3990 Y90.0503 Z-2.6833
G01 X28.3602 Y90.0770 Z-2.7000
G01 X28.3228 Y90.1057 Z-2.7167
G01 X28.2869 Y90.1363 Z-2.7333
G01 X28.2528 Y90.1687 Z-2.7500
G01 X28.2203 Y90.2029 Z-2.7667
G01 X28.1897 Y90.2387 Z-2.7833
G01 X28.1610 Y90.2761 Z-2.8000
G01 X28.1344 Y90.3149 Z-2.8167
G01 X28.1097 Y90.3551 Z-2.8333
G01 X28.0873 Y90.3965 Z-2.8500
G01 X28.0670 Y90.4390 Z-2.8667
G01 X28.0489 Y90.4826 Z-2.8833
G01 X28.0332 Y90.5270 Z-2.9000
G01 X28.0198 Y90.5721 Z-2.9167
G01 X28.0088 Y90.6180 Z-2.9333
G01 X28.0002 Y90.6643 Z-2.9500
G01 X27.9941 Y90.7110 Z-2.9667
G01 X27.9904 Y90.7580 Z-2.9833
G01 X27.9892 Y90.8051 Z-3.0000
G01 X27.9904 Y90.8522 Z-3.0167
G01 X27.9941 Y90.8992 Z-3.0333
G01 X28.0002 Y90.9459 Z-3.0500
G01 X28.0088 Y90.9922 Z-3.0667
G01 X28.0198 Y91.0380 Z-3.0833
G01 X28.0332 Y91.0832 Z-3.1000
G01 X28.0489 Y91.1276 Z-3.1167
G01 X28.0670 Y91.1711 Z-3.1333
G01 X28.0873 Y91.2137 Z-3.1500
G01 X28.1097 Y91.2551 Z-3.1667
G01 X28.1344 Y91.2953 Z-3.1833
G01 X28.1610 Y91.3341 Z-3.2000
G01 X28.1897 Y91.3715 Z-3.2167
G01 X28.2203 Y91.4073 Z-3.2333
G01 X28.2528 Y91.4415 Z-3.2500
G01 X28.2869 Y91.4739 Z-3.2667
G01 X28.3228 Y91.5045 Z-3.2833
G01 X28.3602 Y91.5332 Z-3.3000
G01 X28.3990 Y91.5599 Z-3.3167
G01 X28.4392 Y91.5845 Z-3.3333
G01 X28.4806 Y91.6070 Z-3.3500
G01 X28.5231 Y91.6273 Z-3.3667
G01 X28.5666 Y91.6453 Z-3.3833
G01 X28.6110 Y91.6610 Z-3.4000
G01 X28.6562 Y91.6744 Z-3.4167
G01 X28.7020 Y91.6854 Z-3.4333
G01 X28.7484 Y91.6940 Z-3.4500
G01 X28.7951 Y91.7002 Z-3.4667
G01 X28.8421 Y91.7039 Z-3.4833
G01 X28.8892 Y91.7051 Z-3.5000
G01 X28.9363 Y91.7039 Z-3.5167
G01 X28.9832 Y91.7002 Z-3.5333
G01 X29.0299 Y91.6940 Z-3.5500
G01 X29.0763 Y91.6854 Z-3.5667
G01 X29.1221 Y91.6744 Z-3.5833
G01 X29.1673 Y91.6610 Z-3.6000
G01 X29.2117 Y91.6453 Z-3.6167
G01 X29.2552 Y91.6273 Z-3.6333
G01 X29.2977 Y91.6070 Z-3.6500
G01 X29.3392 Y91.5845 Z-3.6667
G01 X29.3793 Y91.5599 Z-3.6833
G01 X29.4182 Y91.5332 Z-3.7000
G01 X29.4555 Y91.5045 Z-3.7167
G01 X29.4914 Y91.4739 Z-3.7333
G01 X29.5256 Y91.4415 Z-3.7500
G01 X29.5580 Y91.4073 Z-3.7667
G01 X29.5886 Y91.3715 Z-3.7833
G01 X29.6173 Y91.3341 Z-3.8000
G01 X29.6440 Y91.2953 Z-3.8167
G01 X29.6686 Y91.2551 Z-3.8333
G01 X29.6911 Y91.2137 Z-3.8500
G01 X29.7113 Y91.1711 Z-3.8667
G01 X29.7294 Y91.1276 Z-3.8833
G01 X29.7451 Y91.0832 Z-3.9000
G01 X29.7585 Y91.0380 Z-3.9167
G01 X29.7695 Y90.9922 Z-3.9333
G01 X29.7781 Y90.9459 Z-3.9500
G01 X29.7842 Y90.8992 Z-3.9667
G01 X29.7879 Y90.8522 Z-3.9833
G01 X29.7892 Y90.8051 Z-4.0000
G01 X29.7879 Y90.7580
G01 X29.7842 Y90.7110
G01 X29.7781 Y90.6643
G01 X29.7695 Y90.6180
G01 X29.7585 Y90.5721
G01 X29.7451 Y90.5270
G01 X29.7294 Y90.4826
G01 X29.7113 Y90.4390
G01 X29.6911 Y90.3965
G01 X29.6686 Y90.3551
G01 X29.6440 Y90.3149
G01 X29.6173 Y90.2761
G01 X29.5886 Y90.2387
G01 X29.5580 Y90.2029
G01 X29.5256 Y90.1687
G01 X29.4914 Y90.1363
G01 X29.4555 Y90.1057
G01 X29.4182 Y90.0770
G01 X29.3793 Y90.0503
G01 X29.3392 Y90.0257
G01 X29.2977 Y90.0032
G01 X29.2552 Y89.9829
G01 X29.2117 Y89.9649
G01 X29.1673 Y89.9491
G01 X29.1221 Y89.9358
G01 X29.0763 Y89.9248
G01 X29.0299 Y89.9162
G01 X28.9832 Y89.9100
G01 X28.9363 Y89.9063
G01 X28.8892 Y89.9051
G01 X28.8421 Y89.9063
G01 X28.7951 Y89.9100
G01 X28.7484 Y89.9162
G01 X28.7020 Y89.9248
G01 X28.6562 Y89.9358
G01 X28.6110 Y89.9491
G01 X28.5666 Y89.9649
G01 X28.5231 Y89.9829
G01 X28.4806 Y90.0032
G01 X28.4392 Y90.0257
G01 X28.3990 Y90.0503
G01 X28.3602 Y90.0770
G01 X28.3228 Y90.1057
G01 X28.2869 Y90.1363
G01 X28.2528 Y90.1687
G01 X28.2203 Y90.2029
G01 X28.1897 Y90.2387
G01 X28.1610 Y90.2761
G01 X28.1344 Y90.3149
G01 X28.1097 Y90.3551
G01 X28.0873 Y90.3965
G01 X28.0670 Y90.4390
G01 X28.0489 Y90.4826
G01 X28.0332 Y90.5270
G01 X28.0198 Y90.5721
G01 X28.0088 Y90.6180
G01 X28.0002 Y90.6643
G01 X27.9941 Y90.7110
G01 X27.9904 Y90.7580
G01 X27.9892 Y90.8051
G01 X27.9904 Y90.8522
G01 X27.9941 Y90.8992
G01 X28.0002 Y90.9459
G01 X28.0088 Y90.9922
G01 X28.0198 Y91.0380
G01 X28.0332 Y91.0832
G01 X28.0489 Y91.1276
G01 X28.0670 Y91.1711
G01 X28.0873 Y91.2137
G01 X28.1097 Y91.2551
G01 X28.1344 Y91.2953
G01 X28.1610 Y91.3341
G01 X28.1897 Y91.3715
G01 X28.2203 Y91.4073
G01 X28.2528 Y91.4415
G01 X28.2869 Y91.4739
G01 X28.3228 Y91.5045
G01 X28.3602 Y91.5332
G01 X28.3990 Y91.5599
G01 X28.4392 Y91.5845
G01 X28.4806 Y91.6070
G01 X28.5231 Y91.6273
G01 X28.5666 Y91.6453
G01 X28.6110 Y91.6610
G01 X28.6562 Y91.6744
G01 X28.7020 Y91.6854
G01 X28.7484 Y91.6940
G01 X28.7951 Y91.7002
G01 X28.8421 Y91.7039
G01 X28.8892 Y91.7051
G01 X28.9363 Y91.7039
G01 X28.9832 Y91.7002
G01 X29.0299 Y91.6940
G01 X29.0763 Y91.6854
G01 X29.1221 Y91.6744
G01 X29.1673 Y91.6610
G01 X29.2117 Y91.6453
G01 X29.2552 Y91.6273
G01 X29.2977 Y91.6070
G01 X29.3392 Y91.5845
G01 X29.3793 Y91.5599
G01 X29.4182 Y91.5332
G01 X29.4555 Y91.5045
G01 X29.4914 Y91.4739
G01 X29.5256 Y91.4415
G01 X29.5580 Y91.4073
G01 X29.5886 Y91.3715
G01 X29.6173 Y91.3341
G01 X29.6440 Y91.2953
G01 X29.6686 Y91.2551
G01 X29.6911 Y91.2137
G01 X29.7113 Y91.1711
G01 X29.7294 Y91.1276
G01 X29.7451 Y91.0832
G01 X29.7585 Y91.0380
G01 X29.7695 Y90.9922
G01 X29.7781 Y90.9459
G01 X29.7842 Y90.8992
G01 X29.7879 Y90.8522
G01 X29.7892 Y90.8051
G01 X29.8001 Y90.7584 F800
G01 X29.8085 Y90.7112
G01 X29.8145 Y90.6637
G01 X29.8181 Y90.6159
G01 X29.8191 Y90.5680
G01 X29.8176 Y90.5201
G01 X29.8137 Y90.4723
G01 X29.8073 Y90.4248
G01 X29.7881 Y90.3797
G01 X29.7668 Y90.3357
G01 X29.7434 Y90.2927
G01 X29.7179 Y90.2510
G01 X29.6903 Y90.2105
G01 X29.6608 Y90.1715
G01 X29.6294 Y90.1339
G01 X29.5963 Y90.0980
G01 X29.5236 Y90.0321
G01 X29.4447 Y89.9736
G01 X29.3606 Y89.9232
G01 X29.2718 Y89.8812
G01 X29.1794 Y89.8481
G01 X29.0842 Y89.8243
G01 X28.9872 Y89.8099
G01 X28.8892 Y89.8051
G01 X28.7911 Y89.8099
G01 X28.6941 Y89.8243
G01 X28.5989 Y89.8481
G01 X28.5065 Y89.8812
G01 X28.4178 Y89.9232
G01 X28.3336 Y89.9736
G01 X28.2548 Y90.0321
G01 X28.1821 Y90.0980
G01 X28.1482 Y90.1335
G01 X28.1161 Y90.1707
G01 X28.0859 Y90.2094
G01 X28.0577 Y90.2495
G01 X28.0314 Y90.2910
G01 X28.0072 Y90.3337
G01 X27.9852 Y90.3775
G01 X27.9653 Y90.4224
G01 X27.9476 Y90.4682
G01 X27.9322 Y90.5148
G01 X27.9191 Y90.5621
G01 X27.9084 Y90.6100
G01 X27.9000 Y90.6584
G01 X27.8940 Y90.7071
G01 X27.8904 Y90.7560
G01 X27.8892 Y90.8051
G01 X27.8940 Y90.9031
G01 X27.9084 Y91.0002
G01 X27.9322 Y91.0954
G01 X27.9653 Y91.1878
G01 X28.0072 Y91.2765
G01 X28.0577 Y91.3607
G01 X28.1161 Y91.4395
G01 X28.1821 Y91.5122
G01 X28.2176 Y91.5460
G01 X28.2548 Y91.5781
G01 X28.2935 Y91.6083
G01 X28.3336 Y91.6366
G01 X28.3751 Y91.6628
G01 X28.4178 Y91.6870
G01 X28.4616 Y91.7091
G01 X28.5065 Y91.7290
G01 X28.5989 Y91.7620
G01 X28.6941 Y91.7859
G01 X28.7911 Y91.8003
G01 X28.8892 Y91.8051
G01 X28.9382 Y91.8039
G01 X28.9872 Y91.8003
G01 X29.0359 Y91.7943
G01 X29.0842 Y91.7859
G01 X29.1321 Y91.7751
G01 X29.1794 Y91.7620
G01 X29.2260 Y91.7466
G01 X29.2718 Y91.7290
G01 X29.3167 Y91.7091
G01 X29.3606 Y91.6870
G01 X29.4033 Y91.6628
G01 X29.4447 Y91.6366
G01 X29.4849 Y91.6083
G01 X29.5236 Y91.5781
G01 X29.5607 Y91.5460
G01 X29.5963 Y91.5122
G01 X29.6301 Y91.4766
G01 X29.6622 Y91.4395
G01 X29.6924 Y91.4008
G01 X29.7206 Y91.3607
G01 X29.7469 Y91.3192
G01 X29.7711 Y91.2765
G01 X29.7931 Y91.2326
G01 X29.8130 Y91.1878
G01 X29.8307 Y91.1420
G01 X29.8461 Y91.0954
G01 X29.8592 Y91.0481
G01 X29.8699 Y91.0002
G01 X29.8783 Y90.9518
G01 X29.8843 Y90.9031
G01 X29.8880 Y90.8542
G01 X29.8892 Y90.8051
G01 X29.8854 Y90.7179
G01 X29.8740 Y90.6314
G01 X29.8551 Y90.5463
G01 X29.8288 Y90.4631
G01 X29.7955 Y90.3825
G01 X29.7552 Y90.3051
G01 X29.7083 Y90.2315
G01 X29.6552 Y90.1623
G01 X29.5963 Y90.0980
G01 X29.5319 Y90.0390
G01 X29.4627 Y89.9859
G01 X29.3892 Y89.9391
G01 X29.3118 Y89.8988
G01 X29.2312 Y89.8654
G01 X29.1480 Y89.8392
G01 X29.0628 Y89.8203
G01 X28.9763 Y89.8089
G01 X28.8892 Y89.8051
G01 X28.8020 Y89.8089
G01 X28.7155 Y89.8203
G01 X28.6303 Y89.8392
G01 X28.5471 Y89.8654
G01 X28.4665 Y89.8988
G01 X28.3892 Y89.9391
G01 X28.3485 Y89.9638
G01 X28.3091 Y89.9905
G01 X28.2710 Y90.0190
G01 X28.2343 Y90.0493
G01 X28.1991 Y90.0814
G01 X28.1654 Y90.1150
G01 X28.1334 Y90.1502
G01 X28.1031 Y90.1869
G01 X28.0746 Y90.2250
G01 X28.0479 Y90.2644
G01 X28.0231 Y90.3051
G01 X28.0003 Y90.3469
G01 X27.9795 Y90.3897
G01 X27.9608 Y90.4334
G01 X27.9442 Y90.4780
G01 X27.9297 Y90.5234
G01 X27.9173 Y90.5693
G01 X27.9072 Y90.6158
G01 X27.8993 Y90.6628
G01 X27.8937 Y90.7100
G01 X27.8903 Y90.7575
G01 X27.8892 Y90.8051
G01 X27.8903 Y90.8527
G01 X27.8937 Y90.9001
G01 X27.8993 Y90.9474
G01 X27.9072 Y90.9943
G01 X27.9173 Y91.0408
G01 X27.9297 Y91.0868
G01 X27.9442 Y91.1322
G01 X27.9608 Y91.1767
G01 X27.9795 Y91.2205
G01 X28.0003 Y91.2633
G01 X28.0231 Y91.3051
G01 X28.0479 Y91.3457
G01 X28.0746 Y91.3851
G01 X28.1031 Y91.4232
G01 X28.1334 Y91.4599
G01 X28.1654 Y91.4952
G01 X28.1991 Y91.5288
G01 X28.2343 Y91.5608
G01 X28.2710 Y91.5911
G01 X28.3091 Y91.6197
G01 X28.3485 Y91.6463
G01 X28.3892 Y91.6711
G01 X28.4309 Y91.6939
G01 X28.4737 Y91.7147
G01 X28.5175 Y91.7335
G01 X28.5621 Y91.7501
G01 X28.6074 Y91.7646
G01 X28.6534 Y91.7769
G01 X28.6999 Y91.7870
G01 X28.7468 Y91.7949
G01 X28.7941 Y91.8006
G01 X28.8416 Y91.8040
G01 X28.8892 Y91.8051
G01 X28.9367 Y91.8040
G01 X28.9842 Y91.8006
G01 X29.0315 Y91.7949
G01 X29.0784 Y91.7870
G01 X29.1249 Y91.7769
G01 X29.1709 Y91.7646
G01 X29.2162 Y91.7501
G01 X29.2608 Y91.7335
G01 X29.3046 Y91.7147
G01 X29.3474 Y91.6939
G01 X29.3892 Y91.6711
G01 X29.4298 Y91.6463
G01 X29.4692 Y91.6197
G01 X29.5073 Y91.5911
G01 X29.5440 Y91.5608
G01 X29.5792 Y91.5288
G01 X29.6129 Y91.4952
G01 X29.6449 Y91.4599
G01 X29.6752 Y91.4232
G01 X29.7037 Y91.3851
G01 X29.7304 Y91.3457
G01 X29.7552 Y91.3051
G01 X29.7780 Y91.2633
G01 X29.7988 Y91.2205
G01 X29.8175 Y91.1767
G01 X29.8342 Y91.1322
G01 X29.8486 Y91.0868
G01 X29.8610 Y91.0408
G01 X29.8711 Y90.9943
G01 X29.8790 Y90.9474
G01 X29.8846 Y90.9001
G01 X29.8880 Y90.8527
G01 X29.8892 Y90.8051
G01 X29.8880 Y90.7585
G01 X29.8846 Y90.7120
G01 X29.8789 Y90.6657
G01 X29.8709 Y90.6198
G01 X29.8607 Y90.5743
G01 X29.8483 Y90.5293
G01 X29.8336 Y90.4850
G01 X29.8168 Y90.4415
G01 X29.7979 Y90.3989
G01 X29.7770 Y90.3573
G01 X29.7540 Y90.3167
G01 X29.7291 Y90.2773
G01 X29.7022 Y90.2392
G01 X29.6735 Y90.2024
G01 X29.6431 Y90.1671
G01 X29.6109 Y90.1333
G01 X29.5771 Y90.1012
G01 X29.5418 Y90.0707
G01 X29.5051 Y90.0420
G01 X29.4669 Y90.0152
G01 X29.4276 Y89.9902
G01 X29.3870 Y89.9673
G01 X29.3453 Y89.9463
G01 X29.3027 Y89.9274
G01 X29.2592 Y89.9106
G01 X29.2149 Y89.8960
G01 X29.1700 Y89.8836
G01 X29.1245 Y89.8733
G01 X29.0786 Y89.8654
G01 X29.0323 Y89.8597
G01 X28.9858 Y89.8562
G01 X28.9392 Y89.8551
G01 X28.8925 Y89.8562
G01 X28.8460 Y89.8597
G01 X28.7998 Y89.8654
G01 X28.7538 Y89.8733
G01 X28.7083 Y89.8836
G01 X28.6634 Y89.8960
G01 X28.6191 Y89.9106
G01 X28.5756 Y89.9274
G01 X28.5330 Y89.9463
G01 X28.4913 Y89.9673
G01 X28.4508 Y89.9902
G01 X28.4114 Y90.0152
G01 X28.3732 Y90.0420
G01 X28.3365 Y90.0707
G01 X28.3012 Y90.1012
G01 X28.2674 Y90.1333
G01 X28.2353 Y90.1671
G01 X28.2048 Y90.2024
G01 X28.1761 Y90.2392
G01 X28.1493 Y90.2773
G01 X28.1243 Y90.3167
G01 X28.1013 Y90.3573
G01 X28.0804 Y90.3989
G01 X28.0615 Y90.4415
G01 X28.0447 Y90.4850
G01 X28.0301 Y90.5293
G01 X28.0176 Y90.5743
G01 X28.0074 Y90.6198
G01 X27.9994 Y90.6657
G01 X27.9937 Y90.7120
G01 X27.9903 Y90.7585
G01 X27.9892 Y90.8051
G01 X27.9904 Y90.8522
G01 X27.9941 Y90.8992
G01 X28.0002 Y90.9459
G01 X28.0088 Y90.9922
G01 X28.0198 Y91.0380
G01 X28.0332 Y91.0832
G01 X28.0489 Y91.1276
G01 X28.0670 Y91.1711
G01 X28.0873 Y91.2137
G01 X28.1097 Y91.2551
G01 X28.1344 Y91.2953
G01 X28.1610 Y91.3341
G01 X28.1897 Y91.3715
G01 X28.2203 Y91.4073
G01 X28.2528 Y91.4415
G01 X28.2869 Y91.4739
G01 X28.3228 Y91.5045
G01 X28.3602 Y91.5332
G01 X28.3990 Y91.5599
G01 X28.4392 Y91.5845
G01 X28.4806 Y91.6070
G01 X28.5231 Y91.6273
G01 X28.5666 Y91.6453
G01 X28.6110 Y91.6610
G01 X28.6562 Y91.6744
G01 X28.7020 Y91.6854
G01 X28.7484 Y91.6940
G01 X28.7951 Y91.7002
G01 X28.8421 Y91.7039
G01 X28.8892 Y91.7051
G01 X28.9363 Y91.7039
G01 X28.9832 Y91.7002
G01 X29.0299 Y91.6940
G01 X29.0763 Y91.6854
G01 X29.1221 Y91.6744
G01 X29.1673 Y91.6610
G01 X29.2117 Y91.6453
G01 X29.2552 Y91.6273
G01 X29.2977 Y91.6070
G01 X29.3392 Y91.5845
G01 X29.3793 Y91.5599
G01 X29.4182 Y91.5332
G01 X29.4555 Y91.5045
G01 X29.4914 Y91.4739
G01 X29.5256 Y91.4415
G01 X29.5580 Y91.4073
G01 X29.5886 Y91.3715
G01 X29.6173 Y91.3341
G01 X29.6440 Y91.2953
G01 X29.6686 Y91.2551
G01 X29.6911 Y91.2137
G01 X29.7113 Y91.1711
G01 X29.7294 Y91.1276
G01 X29.7451 Y91.0832
G01 X29.7585 Y91.0380
G01 X29.7695 Y90.9922
G01 X29.7781 Y90.9459
G01 X29.7842 Y90.8992
G01 X29.7879 Y90.8522
G01 X29.7892 Y90.8051
M107
M106 S200
G01 X29.7879 Y90.7580 Z-4.0125 F400
G01 X29.7842 Y90.7110 Z-4.0250
G01 X29.7781 Y90.6643 Z-4.0375
G01 X29.7695 Y90.6180 Z-4.0500
G01 X29.7585 Y90.5721 Z-4.0625
G01 X29.7451 Y90.5270 Z-4.0750
G01 X29.7294 Y90.4826 Z-4.0875
G01 X29.7113 Y90.4390 Z-4.1000
G01 X29.6911 Y90.3965 Z-4.1125
G01 X29.6686 Y90.3551 Z-4.1250
G01 X29.6440 Y90.3149 Z-4.1375
G01 X29.6173 Y90.2761 Z-4.1500
G01 X29.5886 Y90.2387 Z-4.1625
G01 X29.5580 Y90.2029 Z-4.1750
G01 X29.5256 Y90.1687 Z-4.1875
G01 X29.4914 Y90.1363 Z-4.2000
G01 X29.4555 Y90.1057 Z-4.2125
G01 X29.4182 Y90.0770 Z-4.2250
G01 X29.3793 Y90.0503 Z-4.2375
G01 X29.3392 Y90.0257 Z-4.2500
G01 X29.2977 Y90.0032 Z-4.2625
G01 X29.2552 Y89.9829 Z-4.2750
G01 X29.2117 Y89.9649 Z-4.2875
G01 X29.1673 Y89.9491 Z-4.3000
G01 X29.1221 Y89.9358 Z-4.3125
G01 X29.0763 Y89.9248 Z-4.3250
G01 X29.0299 Y89.9162 Z-4.3375
G01 X28.9832 Y89.9100 Z-4.3500
G01 X28.9363 Y89.9063 Z-4.3625
G01 X28.8892 Y89.9051 Z-4.3750
G01 X28.8421 Y89.9063 Z-4.3875
G01 X28.7951 Y89.9100 Z-4.4000
G01 X28.7484 Y89.9162 Z-4.4125
G01 X28.7020 Y89.9248 Z-4.4250
G01 X28.6562 Y89.9358 Z-4.4375
G01 X28.6110 Y89.9491 Z-4.4500
G01 X28.5666 Y89.9649 Z-4.4625
G01 X28.5231 Y89.9829 Z-4.4750
G01 X28.4806 Y90.0032 Z-4.4875
G01 X28.4392 Y90.0257 Z-4.5000
G01 X28.3990 Y90.0503 Z-4.5125
G01 X28.3602 Y90.0770 Z-4.5250
G01 X28.3228 Y90.1057 Z-4.5375
G01 X28.2869 Y90.1363 Z-4.5500
G01 X28.2528 Y90.1687 Z-4.5625
G01 X28.2203 Y90.2029 Z-4.5750
G01 X28.1897 Y90.2387 Z-4.5875
G01 X28.1610 Y90.2761 Z-4.6000
G01 X28.1344 Y90.3149 Z-4.6125
G01 X28.1097 Y90.3551 Z-4.6250
G01 X28.0873 Y90.3965 Z-4.6375
G01 X28.0670 Y90.4390 Z-4.6500
G01 X28.0489 Y90.4826 Z-4.6625
G01 X28.0332 Y90.5270 Z-4.6750
G01 X28.0198 Y90.5721 Z-4.6875
G01 X28.0088 Y90.6180 Z-4.7000
G01 X28.0002 Y90.6643 Z-4.7125
G01 X27.9941 Y90.7110 Z-4.7250
G01 X27.9904 Y90.7580 Z-4.7375
G01 X27.9892 Y90.8051 Z-4.7500
G01 X27.9904 Y90.8522 Z-4.7625
G01 X27.9941 Y90.8992 Z-4.7750
G01 X28.0002 Y90.9459 Z-4.7875
G01 X28.0088 Y90.9922 Z-4.8000
G01 X28.0198 Y91.0380 Z-4.8125
G01 X28.0332 Y91.0832 Z-4.8250
G01 X28.0489 Y91.1276 Z-4.8375
G01 X28.0670 Y91.1711 Z-4.8500
G01 X28.0873 Y91.2137 Z-4.8625
G01 X28.1097 Y91.2551 Z-4.8750
G01 X28.1344 Y91.2953 Z-4.8875
G01 X28.1610 Y91.3341 Z-4.9000
G01 X28.1897 Y91.3715 Z-4.9125
G01 X28.2203 Y91.4073 Z-4.9250
G01 X28.2528 Y91.4415 Z-4.9375
G01 X28.2869 Y91.4739 Z-4.9500
G01 X28.3228 Y91.5045 Z-4.9625
G01 X28.3602 Y91.5332 Z-4.9750
G01 X28.3990 Y91.5599 Z-4.9875
G01 X28.4392 Y91.5845 Z-5.0000
G01 X28.4806 Y91.6070 Z-5.0125
G01 X28.5231 Y91.6273 Z-5.0250
G01 X28.5666 Y91.6453 Z-5.0375
G01 X28.6110 Y91.6610 Z-5.0500
G01 X28.6562 Y91.6744 Z-5.0625
G01 X28.7020 Y91.6854 Z-5.0750
G01 X28.7484 Y91.6940 Z-5.0875
G01 X28.7951 Y91.7002 Z-5.1000
G01 X28.8421 Y91.7039 Z-5.1125
G01 X28.8892 Y91.7051 Z-5.1250
G01 X28.9363 Y91.7039 Z-5.1375
G01 X28.9832 Y91.7002 Z-5.1500
G01 X29.0299 Y91.6940 Z-5.1625
G01 X29.0763 Y91.6854 Z-5.1750
G01 X29.1221 Y91.6744 Z-5.1875
G01 X29.1673 Y91.6610 Z-5.2000
G01 X29.2117 Y91.6453 Z-5.2125
G01 X29.2552 Y91.6273 Z-5.2250
G01 X29.2977 Y91.6070 Z-5.2375
G01 X29.3392 Y91.5845 Z-5.2500
G01 X29.3793 Y91.5599 Z-5.2625
G01 X29.4182 Y91.5332 Z-5.2750
G01 X29.4555 Y91.5045 Z-5.2875
G01 X29.4914 Y91.4739 Z-5.3000
G01 X29.5256 Y91.4415 Z-5.3125
G01 X29.5580 Y91.4073 Z-5.3250
G01 X29.5886 Y91.3715 Z-5.3375
G01 X29.6173 Y91.3341 Z-5.3500
G01 X29.6440 Y91.2953 Z-5.3625
G01 X29.6686 Y91.2551 Z-5.3750
G01 X29.6911 Y91.2137 Z-5.3875
G01 X29.7113 Y91.1711 Z-5.4000
G01 X29.7294 Y91.1276 Z-5.4125
G01 X29.7451 Y91.0832 Z-5.4250
G01 X29.7585 Y91.0380 Z-5.4375
G01 X29.7695 Y90.9922 Z-5.4500
G01 X29.7781 Y90.9459 Z-5.4625
G01 X29.7842 Y90.8992 Z-5.4750
G01 X29.7879 Y90.8522 Z-5.4875
G01 X29.7892 Y90.8051 Z-5.5000
G01 X29.7879 Y90.7580
G01 X29.7842 Y90.7110
G01 X29.7781 Y90.6643
G01 X29.7695 Y90.6180
G01 X29.7585 Y90.5721
G01 X29.7451 Y90.5270
G01 X29.7294 Y90.4826
G01 X29.7113 Y90.4390
G01 X29.6911 Y90.3965
G01 X29.6686 Y90.3551
G01 X29.6440 Y90.3149
G01 X29.6173 Y90.2761
G01 X29.5886 Y90.2387
G01 X29.5580 Y90.2029
G01 X29.5256 Y90.1687
G01 X29.4914 Y90.1363
G01 X29.4555 Y90.1057
G01 X29.4182 Y90.0770
G01 X29.3793 Y90.0503
G01 X29.3392 Y90.0257
G01 X29.2977 Y90.0032
G01 X29.2552 Y89.9829
G01 X29.2117 Y89.9649
G01 X29.1673 Y89.9491
G01 X29.1221 Y89.9358
G01 X29.0763 Y89.9248
G01 X29.0299 Y89.9162
G01 X28.9832 Y89.9100
G01 X28.9363 Y89.9063
G01 X28.8892 Y89.9051
G01 X28.8421 Y89.9063
G01 X28.7951 Y89.9100
G01 X28.7484 Y89.9162
G01 X28.7020 Y89.9248
G01 X28.6562 Y89.9358
G01 X28.6110 Y89.9491
G01 X28.5666 Y89.9649
G01 X28.5231 Y89.9829
G01 X28.4806 Y90.0032
G01 X28.4392 Y90.0257
G01 X28.3990 Y90.0503
G01 X28.3602 Y90.0770
G01 X28.3228 Y90.1057
G01 X28.2869 Y90.1363
G01 X28.2528 Y90.1687
G01 X28.2203 Y90.2029
G01 X28.1897 Y90.2387
G01 X28.1610 Y90.2761
G01 X28.1344 Y90.3149
G01 X28.1097 Y90.3551
G01 X28.0873 Y90.3965
G01 X28.0670 Y90.4390
G01 X28.0489 Y90.4826
G01 X28.0332 Y90.5270
G01 X28.0198 Y90.5721
G01 X28.0088 Y90.6180
G01 X28.0002 Y90.6643
G01 X27.9941 Y90.7110
G01 X27.9904 Y90.7580
G01 X27.9892 Y90.8051
G01 X27.9904 Y90.8522
G01 X27.9941 Y90.8992
G01 X28.0002 Y90.9459
G01 X28.0088 Y90.9922
G01 X28.0198 Y91.0380
G01 X28.0332 Y91.0832
G01 X28.0489 Y91.1276
G01 X28.0670 Y91.1711
G01 X28.0873 Y91.2137
G01 X28.1097 Y91.2551
G01 X28.1344 Y91.2953
G01 X28.1610 Y91.3341
G01 X28.1897 Y91.3715
G01 X28.2203 Y91.4073
G01 X28.2528 Y91.4415
G01 X28.2869 Y91.4739
G01 X28.3228 Y91.5045
G01 X28.3602 Y91.5332
G01 X28.3990 Y91.5599
G01 X28.4392 Y91.5845
G01 X28.4806 Y91.6070
G01 X28.5231 Y91.6273
G01 X28.5666 Y91.6453
G01 X28.6110 Y91.6610
G01 X28.6562 Y91.6744
G01 X28.7020 Y91.6854
G01 X28.7484 Y91.6940
G01 X28.7951 Y91.7002
G01 X28.8421 Y91.7039
G01 X28.8892 Y91.7051
G01 X28.9363 Y91.7039
G01 X28.9832 Y91.7002
G01 X29.0299 Y91.6940
G01 X29.0763 Y91.6854
G01 X29.1221 Y91.6744
G01 X29.1673 Y91.6610
G01 X29.2117 Y91.6453
G01 X29.2552 Y91.6273
G01 X29.2977 Y91.6070
G01 X29.3392 Y91.5845
G01 X29.3793 Y91.5599
G01 X29.4182 Y91.5332
G01 X29.4555 Y91.5045
G01 X29.4914 Y91.4739
G01 X29.5256 Y91.4415
G01 X29.5580 Y91.4073
G01 X29.5886 Y91.3715
G01 X29.6173 Y91.3341
G01 X29.6440 Y91.2953
G01 X29.6686 Y91.2551
G01 X29.6911 Y91.2137
G01 X29.7113 Y91.1711
G01 X29.7294 Y91.1276
G01 X29.7451 Y91.0832
G01 X29.7585 Y91.0380
G01 X29.7695 Y90.9922
G01 X29.7781 Y90.9459
G01 X29.7842 Y90.8992
G01 X29.7879 Y90.8522
G01 X29.7892 Y90.8051
G01 X29.8001 Y90.7584 F800
G01 X29.8085 Y90.7112
G01 X29.8145 Y90.6637
G01 X29.8181 Y90.6159
G01 X29.8191 Y90.5680
G01 X29.8176 Y90.5201
G01 X29.8137 Y90.4723
G01 X29.8073 Y90.4248
G01 X29.7881 Y90.3797
G01 X29.7668 Y90.3357
G01 X29.7434 Y90.2927
G01 X29.7179 Y90.2510
G01 X29.6903 Y90.2105
G01 X29.6608 Y90.1715
G01 X29.6294 Y90.1339
G01 X29.5963 Y90.0980
G01 X29.5236 Y90.0321
G01 X29.4447 Y89.9736
G01 X29.3606 Y89.9232
G01 X29.2718 Y89.8812
G01 X29.1794 Y89.8481
G01 X29.0842 Y89.8243
G01 X28.9872 Y89.8099
G01 X28.8892 Y89.8051
G01 X28.7911 Y89.8099
G01 X28.6941 Y89.8243
G01 X28.5989 Y89.8481
G01 X28.5065 Y89.8812
G01 X28.4178 Y89.9232
G01 X28.3336 Y89.9736
G01 X28.2548 Y90.0321
G01 X28.1821 Y90.0980
G01 X28.1482 Y90.1335
G01 X28.1161 Y90.1707
G01 X28.0859 Y90.2094
G01 X28.0577 Y90.2495
G01 X28.0314 Y90.2910
G01 X28.0072 Y90.3337
G01 X27.9852 Y90.3775
G01 X27.9653 Y90.4224
G01 X27.9476 Y90.4682
G01 X27.9322 Y90.5148
G01 X27.9191 Y90.5621
G01 X27.9084 Y90.6100
G01 X27.9000 Y90.6584
G01 X27.8940 Y90.7071
G01 X27.8904 Y90.7560
G01 X27.8892 Y90.8051
G01 X27.8940 Y90.9031
G01 X27.9084 Y91.0002
G01 X27.9322 Y91.0954
G01 X27.9653 Y91.1878
G01 X28.0072 Y91.2765
G01 X28.0577 Y91.3607
G01 X28.1161 Y91.4395
G01 X28.1821 Y91.5122
G01 X28.2176 Y91.5460
G01 X28.2548 Y91.5781
G01 X28.2935 Y91.6083
G01 X28.3336 Y91.6366
G01 X28.3751 Y91.6628
G01 X28.4178 Y91.6870
G01 X28.4616 Y91.7091
G01 X28.5065 Y91.7290
G01 X28.5989 Y91.7620
G01 X28.6941 Y91.7859
G01 X28.7911 Y91.8003
G01 X28.8892 Y91.8051
G01 X28.9382 Y91.8039
G01 X28.9872 Y91.8003
G01 X29.0359 Y91.7943
G01 X29.0842 Y91.7859
G01 X29.1321 Y91.7751
G01 X29.1794 Y91.7620
G01 X29.2260 Y91.7466
G01 X29.2718 Y91.7290
G01 X29.3167 Y91.7091
G01 X29.3606 Y91.6870
G01 X29.4033 Y91.6628
G01 X29.4447 Y91.6366
G01 X29.4849 Y91.6083
G01 X29.5236 Y91.5781
G01 X29.5607 Y91.5460
G01 X29.5963 Y91.5122
G01 X29.6301 Y91.4766
G01 X29.6622 Y91.4395
G01 X29.6924 Y91.4008
G01 X29.7206 Y91.3607
G01 X29.7469 Y91.3192
G01 X29.7711 Y91.2765
G01 X29.7931 Y91.2326
G01 X29.8130 Y91.1878
G01 X29.8307 Y91.1420
G01 X29.8461 Y91.0954
G01 X29.8592 Y91.0481
G01 X29.8699 Y91.0002
G01 X29.8783 Y90.9518
G01 X29.8843 Y90.9031
G01 X29.8880 Y90.8542
G01 X29.8892 Y90.8051
G01 X29.8854 Y90.7179
G01 X29.8740 Y90.6314
G01 X29.8551 Y90.5463
G01 X29.8288 Y90.4631
G01 X29.7955 Y90.3825
G01 X29.7552 Y90.3051
G01 X29.7083 Y90.2315
G01 X29.6552 Y90.1623
G01 X29.5963 Y90.0980
G01 X29.5319 Y90.0390
G01 X29.4627 Y89.9859
G01 X29.3892 Y89.9391
G01 X29.3118 Y89.8988
G01 X29.2312 Y89.8654
G01 X29.1480 Y89.8392
G01 X29.0628 Y89.8203
G01 X28.9763 Y89.8089
G01 X28.8892 Y89.8051
G01 X28.8020 Y89.8089
G01 X28.7155 Y89.8203
G01 X28.6303 Y89.8392
G01 X28.5471 Y89.8654
G01 X28.4665 Y89.8988
G01 X28.3892 Y89.9391
G01 X28.3485 Y89.9638
G01 X28.3091 Y89.9905
G01 X28.2710 Y90.0190
G01 X28.2343 Y90.0493
G01 X28.1991 Y90.0814
G01 X28.1654 Y90.1150
G01 X28.1334 Y90.1502
G01 X28.1031 Y90.1869
G01 X28.0746 Y90.2250
G01 X28.0479 Y90.2644
G01 X28.0231 Y90.3051
G01 X28.0003 Y90.3469
G01 X27.9795 Y90.3897
G01 X27.9608 Y90.4334
G01 X27.9442 Y90.4780
G01 X27.9297 Y90.5234
G01 X27.9173 Y90.5693
G01 X27.9072 Y90.6158
G01 X27.8993 Y90.6628
G01 X27.8937 Y90.7100
G01 X27.8903 Y90.7575
G01 X27.8892 Y90.8051
G01 X27.8903 Y90.8527
G01 X27.8937 Y90.9001
G01 X27.8993 Y90.9474
G01 X27.9072 Y90.9943
G01 X27.9173 Y91.0408
G01 X27.9297 Y91.0868
G01 X27.9442 Y91.1322
G01 X27.9608 Y91.1767
G01 X27.9795 Y91.2205
G01 X28.0003 Y91.2633
G01 X28.0231 Y91.3051
G01 X28.0479 Y91.3457
G01 X28.0746 Y91.3851
G01 X28.1031 Y91.4232
G01 X28.1334 Y91.4599
G01 X28.1654 Y91.4952
G01 X28.1991 Y91.5288
G01 X28.2343 Y91.5608
G01 X28.2710 Y91.5911
G01 X28.3091 Y91.6197
G01 X28.3485 Y91.6463
G01 X28.3892 Y91.6711
G01 X28.4309 Y91.6939
G01 X28.4737 Y91.7147
G01 X28.5175 Y91.7335
G01 X28.5621 Y91.7501
G01 X28.6074 Y91.7646
G01 X28.6534 Y91.7769
G01 X28.6999 Y91.7870
G01 X28.7468 Y91.7949
G01 X28.7941 Y91.8006
G01 X28.8416 Y91.8040
G01 X28.8892 Y91.8051
G01 X28.9367 Y91.8040
G01 X28.9842 Y91.8006
G01 X29.0315 Y91.7949
G01 X29.0784 Y91.7870
G01 X29.1249 Y91.7769
G01 X29.1709 Y91.7646
G01 X29.2162 Y91.7501
G01 X29.2608 Y91.7335
G01 X29.3046 Y91.7147
G01 X29.3474 Y91.6939
G01 X29.3892 Y91.6711
G01 X29.4298 Y91.6463
G01 X29.4692 Y91.6197
G01 X29.5073 Y91.5911
G01 X29.5440 Y91.5608
G01 X29.5792 Y91.5288
G01 X29.6129 Y91.4952
G01 X29.6449 Y91.4599
G01 X29.6752 Y91.4232
G01 X29.7037 Y91.3851
G01 X29.7304 Y91.3457
G01 X29.7552 Y91.3051
G01 X29.7780 Y91.2633
G01 X29.7988 Y91.2205
G01 X29.8175 Y91.1767
G01 X29.8342 Y91.1322
G01 X29.8486 Y91.0868
G01 X29.8610 Y91.0408
G01 X29.8711 Y90.9943
G01 X29.8790 Y90.9474
G01 X29.8846 Y90.9001
G01 X29.8880 Y90.8527
G01 X29.8892 Y90.8051
M107
M106 S200
G01 X29.8881 Y90.7724 Z-5.4896 F400
M107
M106 S200
G01 X29.8849 Y90.7398 Z-5.4792
M107
M106 S200
G01 X29.8795 Y90.7075 Z-5.4688
M107
M106 S200
G01 X29.8721 Y90.6757 Z-5.4583
M107
M106 S200
G01 X29.8626 Y90.6444 Z-5.4479
M107
M106 S200
G01 X29.8511 Y90.6137 Z-5.4375
M107
M106 S200
G01 X29.8376 Y90.5839 Z-5.4271
M107
M106 S200
G01 X29.8222 Y90.5551 Z-5.4167
M107
M106 S200
G01 X29.8049 Y90.5273 Z-5.4063
M107
M106 S200
G01 X29.7858 Y90.5007 Z-5.3958
M107
M106 S200
G01 X29.7651 Y90.4754 Z-5.3854
M107
M106 S200
G01 X29.7427 Y90.4515 Z-5.3750
M107
M106 S200
G01 X29.7188 Y90.4292 Z-5.3646
M107
M106 S200
G01 X29.6935 Y90.4084 Z-5.3542
M107
M106 S200
G01 X29.6669 Y90.3894 Z-5.3438
M107
M106 S200
G01 X29.6392 Y90.3721 Z-5.3333
M107
M106 S200
G01 X29.6103 Y90.3566 Z-5.3229
M107
M106 S200
G01 X29.5805 Y90.3431 Z-5.3125
M107
M106 S200
G01 X29.5499 Y90.3316 Z-5.3021
M107
M106 S200
G01 X29.5186 Y90.3221 Z-5.2917
M107
M106 S200
G01 X29.4867 Y90.3147 Z-5.2813
M107
M106 S200
G01 X29.4544 Y90.3094 Z-5.2708
M107
M106 S200
G01 X29.4219 Y90.3062 Z-5.2604
M107
M106 S200
G01 X29.3892 Y90.3051 Z-5.2500
M107
M106 S200
G01 X29.3565 Y90.3062 Z-5.2396
M107
M106 S200
G01 X29.3239 Y90.3094 Z-5.2292
M107
M106 S200
G01 X29.2916 Y90.3147 Z-5.2188
M107
M106 S200
G01 X29.2597 Y90.3221 Z-5.2083
M107
M106 S200
G01 X29.2284 Y90.3316 Z-5.1979
M107
M106 S200
G01 X29.1978 Y90.3431 Z-5.1875
M107
M106 S200
G01 X29.1680 Y90.3566 Z-5.1771
M107
M106 S200
G01 X29.1392 Y90.3721 Z-5.1667
M107
M106 S200
G01 X29.1114 Y90.3894 Z-5.1563
M107
M106 S200
G01 X29.0848 Y90.4084 Z-5.1458
M107
M106 S200
G01 X29.0595 Y90.4292 Z-5.1354
M107
M106 S200
G01 X29.0356 Y90.4515 Z-5.1250
M107
M106 S200
G01 X29.0132 Y90.4754 Z-5.1146
M107
M106 S200
G01 X28.9925 Y90.5007 Z-5.1042
M107
M106 S200
G01 X28.9734 Y90.5273 Z-5.0938
M107
M106 S200
G01 X28.9561 Y90.5551 Z-5.0833
M107
M106 S200
G01 X28.9407 Y90.5839 Z-5.0729
M107
M106 S200
G01 X28.9272 Y90.6137 Z-5.0625
M107
M106 S200
G01 X28.9157 Y90.6444 Z-5.0521
M107
M106 S200
G01 X28.9062 Y90.6757 Z-5.0417
M107
M106 S200
G01 X28.8988 Y90.7075 Z-5.0313
M107
M106 S200
G01 X28.8934 Y90.7398 Z-5.0208
M107
M106 S200
G01 X28.8902 Y90.7724 Z-5.0104
M107
M106 S200
G01 X28.8892 Y90.8051 Z-5.0000
M107
G00 Z2.0000


;No. 2: Hole 7
G00 X37.5399 Y76.2238 Z2.0000
G00 Z0.5000
G01 Z-1.8000 F400
M106 S200
G01 X44.9030 F800
G01 Y77.7238
G01 X48.9495
G01 X30.4934
G01 Y79.2238
G01 X26.8535
G01 X46.7700
G01 X44.4592
G01 Y80.7238
G01 X24.1696
G01 Y82.2238
G01 X22.0785
G01 X42.0431
G01 X39.5218
G01 Y83.7238
G01 X20.4416
G01 X19.1925 Y85.2238
G01 X36.8804
G01 X34.0716
G01 Y86.7238
G01 X18.1934
G01 X17.3261 Y88.2238
G01 X31.0847
G01 X28.3153
G01 Y89.7238
G01 X16.5501
G01 X15.8478 Y91.2238
G01 X27.7662
G01 Y92.7238
G01 X15.2124
G01 X45.0548
G01 X46.5963 Y91.2238
G01 X33.0524
G01 X38.0872
G01 Y89.7238
G01 X47.9771
G01 X49.2114 Y88.2238
G01 X42.2164
G01 X45.8446
G01 Y86.7238
G01 X50.2935
G01 X51.2608 Y85.2238
G01 X49.0768
M107
G00 Z2.0000
G00 X43.3084 Y92.7238
G00 Z0.5000
G01 Z-1.8000 F400
M106 S200
G01 Y94.2238 F800
G01 X14.6397
G01 X14.1324 Y95.7238
G01 X41.2041
G01 X38.1665
G01 Y97.2238
G01 X13.6995
G01 X13.3323 Y98.7238
G01 X33.5852
G01 X23.5320
G01 Y100.2238
G01 X16.1802
M107
G00 Z2.0000
G00 Z0.5000
G01 Z-1.8000 F400
M106 S200
G01 X16.1715 Y100.4240 F800
G01 X16.5584 Y100.4403
G01 X16.9454 Y100.4559
G01 X17.3324 Y100.4706
G01 X17.7194 Y100.4844
G01 X19.4020 Y100.5213
G01 X20.6232 Y100.5288
G01 X21.8444 Y100.5093
G01 X23.0648 Y100.4630
G01 X24.2839 Y100.3898
G01 X25.5010 Y100.2898
G01 X26.7157 Y100.1629
G01 X27.9273 Y100.0094
G01 X29.1352 Y99.8292
G01 X30.3389 Y99.6224
G01 X31.5377 Y99.3892
G01 X32.7310 Y99.1296
G01 X33.9184 Y98.8438
G01 X34.8266 Y98.6005
G01 X35.7268 Y98.3292
G01 X36.6182 Y98.0302
G01 X37.4999 Y97.7038
G01 X38.3711 Y97.3503
G01 X39.2310 Y96.9701
G01 X40.0787 Y96.5634
G01 X40.9134 Y96.1308
G01 X41.6009 Y95.6934
G01 X42.2752 Y95.2359
G01 X42.9357 Y94.7587
G01 X43.5819 Y94.2623
G01 X44.2132 Y93.7470
G01 X44.8290 Y93.2134
G01 X45.4288 Y92.6619
G01 X46.0121 Y92.0929
G01 X46.7912 Y91.3188
G01 X47.5446 Y90.5196
G01 X48.2715 Y89.6962
G01 X48.9710 Y88.8495
G01 X49.6425 Y87.9804
G01 X50.2853 Y87.0898
G01 X50.8986 Y86.1787
G01 X51.4817 Y85.2480
G01 X51.8363 Y84.6763
G01 X52.1854 Y84.1013
G01 X52.5290 Y83.5231
G01 X52.8671 Y82.9415
G01 X51.8369 Y83.5314
G01 X50.7966 Y84.1031
G01 X49.7464 Y84.6565
G01 X48.6866 Y85.1914
G01 X47.6176 Y85.7076
G01 X46.5398 Y86.2051
G01 X45.4534 Y86.6835
G01 X44.3588 Y87.1429
G01 X42.9054 Y87.7440
G01 X41.4409 Y88.3175
G01 X39.9658 Y88.8632
G01 X38.4806 Y89.3808
G01 X36.9859 Y89.8702
G01 X35.4822 Y90.3312
G01 X33.9700 Y90.7636
G01 X32.4499 Y91.1673
G01 X31.6476 Y91.3609
G01 X30.8400 Y91.5315
G01 X30.0278 Y91.6788
G01 X29.2118 Y91.8027
G01 X29.1321 Y91.8171
G01 X29.0516 Y91.8257
G01 X28.9707 Y91.8286
G01 X28.8898 Y91.8256
G01 X28.8093 Y91.8168
G01 X28.7297 Y91.8023
G01 X28.6513 Y91.7821
G01 X28.5746 Y91.7563
G01 X28.4999 Y91.7251
G01 X28.4276 Y91.6886
G01 X28.3581 Y91.6470
G01 X28.2918 Y91.6006
G01 X28.2290 Y91.5495
G01 X28.1701 Y91.4940
G01 X28.1152 Y91.4345
G01 X28.0648 Y91.3711
G01 X28.0247 Y91.3078
G01 X27.9895 Y91.2416
G01 X27.9593 Y91.1730
G01 X27.9343 Y91.1022
G01 X27.9147 Y91.0299
G01 X27.9006 Y90.9562
G01 X27.8921 Y90.8817
G01 X27.8892 Y90.8068
G01 X27.8940 Y90.7070
G01 X27.9114 Y90.6113
G01 X27.9366 Y90.5174
G01 X27.9696 Y90.4259
G01 X28.0099 Y90.3374
G01 X28.0574 Y90.2525
G01 X28.1118 Y90.1719
G01 X28.1726 Y90.0960
G01 X28.2395 Y90.0254
G01 X28.3120 Y89.9606
G01 X28.3896 Y89.9019
G01 X28.4717 Y89.8499
G01 X28.5579 Y89.8048
G01 X29.7914 Y89.1247
G01 X31.0360 Y88.4652
G01 X32.2914 Y87.8266
G01 X33.5573 Y87.2088
G01 X35.5752 Y86.1506
G01 X37.5751 Y85.0587
G01 X39.5563 Y83.9334
G01 X41.5184 Y82.7749
G01 X43.4608 Y81.5838
G01 X45.3829 Y80.3601
G01 X47.2843 Y79.1045
G01 X49.1642 Y77.8170
G01 X49.5791 Y77.5203
G01 X49.9877 Y77.2149
G01 X50.3899 Y76.9012
G01 X50.7855 Y76.5791
G01 X49.8359 Y76.4479
G01 X48.8843 Y76.3318
G01 X47.9310 Y76.2310
G01 X46.9761 Y76.1455
G01 X46.0201 Y76.0753
G01 X45.0630 Y76.0203
G01 X44.1052 Y75.9807
G01 X43.1469 Y75.9565
G01 X42.3175 Y75.9287
G01 X41.4879 Y75.9145
G01 X40.6581 Y75.9139
G01 X39.8284 Y75.9269
G01 X38.9990 Y75.9536
G01 X38.1702 Y75.9939
G01 X37.3421 Y76.0478
G01 X36.5151 Y76.1153
G01 X35.6531 Y76.2387
G01 X34.7949 Y76.3862
G01 X33.9411 Y76.5578
G01 X33.0926 Y76.7533
G01 X32.2498 Y76.9725
G01 X31.4136 Y77.2154
G01 X30.5845 Y77.4816
G01 X29.7632 Y77.7710
G01 X28.9503 Y78.0833
G01 X28.1466 Y78.4184
G01 X27.3526 Y78.7759
G01 X26.5689 Y79.1555
G01 X25.7962 Y79.5570
G01 X25.0351 Y79.9801
G01 X24.2862 Y80.4244
G01 X23.5500 Y80.8895
G01 X22.9420 Y81.2991
G01 X22.3518 Y81.7339
G01 X21.7804 Y82.1931
G01 X21.2287 Y82.6759
G01 X20.6978 Y83.1815
G01 X20.1887 Y83.7089
G01 X19.7021 Y84.2572
G01 X19.2390 Y84.8255
G01 X18.7277 Y85.5565
G01 X18.2361 Y86.3010
G01 X17.7647 Y87.0584
G01 X17.3137 Y87.8281
G01 X16.8834 Y88.6096
G01 X16.4742 Y89.4023
G01 X16.0864 Y90.2057
G01 X15.7202 Y91.0192
G01 X15.2326 Y92.1278
G01 X14.7798 Y93.2511
G01 X14.3622 Y94.3880
G01 X13.9802 Y95.5373
G01 X13.6341 Y96.6979
G01 X13.3244 Y97.8688
G01 X13.0512 Y99.0487
G01 X12.8149 Y100.2366
G01 X12.8735 Y100.2411
G01 X13.6975 Y100.2956
G01 X14.5219 Y100.3442
G01 X15.3465 Y100.3870
G01 X16.1715 Y100.4240
G01 X16.1802 Y100.2238
M107
G00 Z2.0000


;No. 3: Hole 8
G00 X15.0635 Y107.5562 Z2.0000
G00 Z0.5000
G01 Z-1.8000 F400
M106 S200
G01 X18.7958 F800
G01 X17.9670 Y109.0562
G01 X12.6888
G01 X11.1778 Y110.5562
G01 X17.0890
G01 X16.1287 Y112.0562
G01 X9.9685
G01 X9.1486 Y113.5562
G01 X15.1567
G01 X14.6862 Y115.0562
G01 X8.6727
G01 X8.4152 Y116.5562
G01 X20.2316
G01 X21.0601 Y115.0562
G01 X17.3125
G01 X18.8048 Y113.5562
G01 X21.6762
G01 X22.1084 Y112.0562
G01 X20.2572
M107
G00 Z2.0000
G00 X19.1896 Y116.5562
G00 Z0.5000
G01 Z-1.8000 F400
M106 S200
G01 Y118.0562 F800
G01 X8.2855
G01 X8.2315 Y119.5562
G01 X17.8484
G01 X16.0484
G01 Y121.0562
G01 X8.2221
G01 X8.2450 Y122.5562
G01 X13.4198
M107
G00 Z2.0000
G00 Z0.5000
G01 Z-1.8000 F400
M106 S200
G01 X13.5024 Y122.7386 F800
G01 X13.5521 Y122.7161
G01 X14.1605 Y122.4258
G01 X14.7557 Y122.1093
G01 X15.3367 Y121.7674
G01 X15.9022 Y121.4005
G01 X16.4513 Y121.0095
G01 X16.9829 Y120.5950
G01 X17.4961 Y120.1578
G01 X17.9898 Y119.6988
G01 X18.4631 Y119.2189
G01 X18.9152 Y118.7188
G01 X19.3451 Y118.1996
G01 X19.7521 Y117.6622
G01 X20.1355 Y117.1077
G01 X20.4944 Y116.5371
G01 X20.8282 Y115.9514
G01 X21.1363 Y115.3518
G01 X21.3641 Y114.8761
G01 X21.5744 Y114.3924
G01 X21.7668 Y113.9013
G01 X21.9411 Y113.4035
G01 X22.0970 Y112.8997
G01 X22.2343 Y112.3904
G01 X22.3529 Y111.8765
G01 X22.4526 Y111.3586
G01 X22.5332 Y110.8373
G01 X22.5947 Y110.3135
G01 X22.6369 Y109.7877
G01 X22.6598 Y109.2608
G01 X22.6573 Y109.2133
G01 X21.1917 Y110.7940
G01 X19.7025 Y112.3525
G01 X18.1901 Y113.8886
G01 X16.6549 Y115.4018
G01 X16.5928 Y115.4646
G01 X16.5258 Y115.5222
G01 X16.4543 Y115.5740
G01 X16.3787 Y115.6198
G01 X16.2996 Y115.6591
G01 X16.2176 Y115.6918
G01 X16.1331 Y115.7177
G01 X16.0468 Y115.7365
G01 X15.9592 Y115.7481
G01 X15.8710 Y115.7525
G01 X15.7827 Y115.7495
G01 X15.6950 Y115.7393
G01 X15.6084 Y115.7220
G01 X15.5235 Y115.6975
G01 X15.4409 Y115.6661
G01 X15.3612 Y115.6280
G01 X15.2901 Y115.5846
G01 X15.2229 Y115.5353
G01 X15.1601 Y115.4807
G01 X15.1020 Y115.4210
G01 X15.0490 Y115.3566
G01 X15.0016 Y115.2881
G01 X14.9601 Y115.2159
G01 X14.9247 Y115.1405
G01 X14.8958 Y115.0624
G01 X14.8734 Y114.9821
G01 X14.8578 Y114.9003
G01 X14.8491 Y114.8174
G01 X14.8477 Y114.7175
G01 X14.8651 Y114.6045
G01 X14.8901 Y114.4929
G01 X14.9225 Y114.3833
G01 X14.9623 Y114.2761
G01 X15.0091 Y114.1718
G01 X15.0629 Y114.0709
G01 X15.1233 Y113.9739
G01 X15.1901 Y113.8811
G01 X15.6969 Y113.0885
G01 X16.2052 Y112.2968
G01 X16.7149 Y111.5060
G01 X17.2260 Y110.7162
G01 X17.9381 Y109.5097
G01 X18.6249 Y108.2888
G01 X19.2864 Y107.0539
G01 X19.9222 Y105.8056
G01 X19.9101 Y105.8048
G01 X19.1448 Y105.9644
G01 X18.3860 Y106.1526
G01 X17.6348 Y106.3690
G01 X16.8922 Y106.6134
G01 X16.1592 Y106.8853
G01 X15.4369 Y107.1845
G01 X14.7263 Y107.5105
G01 X14.0284 Y107.8628
G01 X13.6084 Y108.1303
G01 X13.1994 Y108.4144
G01 X12.8021 Y108.7147
G01 X12.4172 Y109.0306
G01 X12.0452 Y109.3617
G01 X11.6867 Y109.7074
G01 X11.3424 Y110.0671
G01 X11.0128 Y110.4404
G01 X10.6940 Y110.7816
G01 X10.3912 Y111.1372
G01 X10.1051 Y111.5062
G01 X9.8362 Y111.8880
G01 X9.5852 Y112.2818
G01 X9.3526 Y112.6867
G01 X9.1388 Y113.1019
G01 X8.9443 Y113.5264
G01 X8.7807 Y113.9753
G01 X8.6349 Y114.4303
G01 X8.5070 Y114.8907
G01 X8.3973 Y115.3557
G01 X8.3058 Y115.8246
G01 X8.2328 Y116.2968
G01 X8.1783 Y116.7714
G01 X8.1424 Y117.2478
G01 X8.0949 Y117.9241
G01 X8.0595 Y118.6010
G01 X8.0361 Y119.2785
G01 X8.0248 Y119.9563
G01 X8.0212 Y120.5044
G01 X8.0227 Y121.1600
G01 X8.0285 Y121.8474
G01 X8.0431 Y122.5347
G01 X8.0662 Y123.2217
G01 X8.0980 Y123.9084
G01 X8.1160 Y124.1960
G01 X8.1240 Y124.3082
G01 X8.1327 Y124.3267
G01 X8.8239 Y124.2049
G01 X9.5109 Y124.0609
G01 X10.1928 Y123.8947
G01 X10.8690 Y123.7065
G01 X11.5387 Y123.4966
G01 X12.2014 Y123.2652
G01 X12.8561 Y123.0124
G01 X13.5024 Y122.7386
G01 X13.4198 Y122.5562
M107
G00 Z2.0000


;No. 4: Hole 1
G00 X40.3521 Y108.0795 Z2.0000
G00 Z0.5000
G01 Z-1.8000 F400
M106 S200
G01 X42.4203 F800
G01 X42.2667 Y109.5795
G01 X36.3191
G01 Y111.0795
G01 X33.0846
G01 X42.0703
G01 X41.8317 Y112.5795
G01 X30.6719
G01 Y114.0795
G01 X28.6888
G01 X41.5535
G01 X41.2367 Y115.5795
G01 X27.0022
G01 X25.5476 Y117.0795
G01 X40.8835
G01 X40.4920 Y118.5795
G01 X24.2956
G01 X23.2289 Y120.0795
G01 X40.0635
G01 X39.5934 Y121.5795
G01 X22.3435
G01 X21.6265 Y123.0795
G01 X39.0803
G01 X38.5171 Y124.5795
G01 X21.0268
G01 X20.5152 Y126.0795
G01 X37.8963
G01 X37.2033 Y127.5795
G01 X20.0720
G01 X19.6882 Y129.0795
G01 X36.4304
G01 X35.7373 Y130.5795
G01 X19.3571
G01 X19.0733 Y132.0795
G01 X35.8781
G01 Y133.5795
G01 X51.6813
G01 X18.8360
G01 X37.8121
G01 Y132.0795
G01 X52.3901
G01 X52.9410 Y130.5795
G01 X39.5297
G01 X41.0665 Y129.0795
G01 X53.3364
G01 X53.5979 Y127.5795
G01 X42.4399
G01 X43.6746 Y126.0795
G01 X53.7557
G01 X53.8372 Y124.5795
G01 X44.7925
G01 X45.8096 Y123.0795
G01 X53.8568
G01 X53.7982 Y121.5795
G01 X46.7374
G01 X47.5831 Y120.0795
G01 X53.6403
G01 X53.3656 Y118.5795
G01 X48.3553
G01 X49.0587 Y117.0795
G01 X52.9695
G01 X52.4590 Y115.5795
G01 X49.6970
G01 X50.2737 Y114.0795
G01 X51.8528
M107
G00 Z2.0000
G00 X50.8340 Y133.5795
G00 Z0.5000
G01 Z-1.8000 F400
M106 S200
G01 Y135.0795 F800
G01 X18.6426
G01 X18.4928 Y136.5795
G01 X49.8538
G01 X48.7305 Y138.0795
G01 X18.3903
G01 X18.3358 Y139.5795
G01 X47.4657
G01 X46.0584 Y141.0795
G01 X18.3338
G01 X18.3905 Y142.5795
G01 X44.5078
G01 X42.8096
G01 Y144.0795
G01 X18.5066
G01 X18.6598 Y145.5795
G01 X40.9550
G01 X38.9352
G01 Y147.0795
G01 X18.8432
G01 X19.0524 Y148.5795
G01 X36.7359
G01 X34.3379
G01 Y150.0795
G01 X19.2849
G01 X19.5435 Y151.5795
G01 X31.7140
G01 X28.8237
G01 Y153.0795
G01 X19.8285
G01 X20.1495 Y154.5795
G01 X25.6887
G01 X22.3111
G01 Y156.0795
G01 X20.5257
M107
G00 Z2.0000
G00 Z0.5000
G01 Z-1.8000 F400
M106 S200
G01 X20.3332 Y156.1345 F800
G01 X20.3878 Y156.3287
G01 X20.4456 Y156.5219
G01 X20.5069 Y156.7141
G01 X20.5714 Y156.9052
G01 X20.6062 Y156.9734
G01 X22.0563 Y156.4015
G01 X23.4938 Y155.7989
G01 X24.9182 Y155.1658
G01 X26.3288 Y154.5025
G01 X27.8110 Y153.8126
G01 X29.2786 Y153.0923
G01 X30.7311 Y152.3418
G01 X32.1678 Y151.5616
G01 X33.5881 Y150.7519
G01 X34.9914 Y149.9132
G01 X36.3771 Y149.0456
G01 X37.7446 Y148.1497
G01 X38.6096 Y147.5641
G01 X39.4630 Y146.9617
G01 X40.3045 Y146.3428
G01 X41.1338 Y145.7077
G01 X41.9506 Y145.0565
G01 X42.7546 Y144.3896
G01 X43.5454 Y143.7071
G01 X44.3228 Y143.0094
G01 X45.0864 Y142.2966
G01 X45.8360 Y141.5692
G01 X46.5714 Y140.8272
G01 X47.2921 Y140.0711
G01 X47.7996 Y139.5174
G01 X48.2925 Y138.9507
G01 X48.7706 Y138.3715
G01 X49.2335 Y137.7800
G01 X49.6809 Y137.1767
G01 X50.1125 Y136.5620
G01 X50.5280 Y135.9364
G01 X50.9272 Y135.3001
G01 X51.3097 Y134.6538
G01 X51.6754 Y133.9977
G01 X52.0239 Y133.3324
G01 X52.3550 Y132.6582
G01 X52.6807 Y131.8918
G01 X52.9711 Y131.1114
G01 X53.2257 Y130.3185
G01 X53.4439 Y129.5149
G01 X53.6253 Y128.7021
G01 X53.7694 Y127.8820
G01 X53.8760 Y127.0561
G01 X53.9449 Y126.2262
G01 X54.0092 Y125.4304
G01 X54.0504 Y124.6330
G01 X54.0683 Y123.8348
G01 X54.0629 Y123.0364
G01 X54.0343 Y122.2385
G01 X53.9825 Y121.4418
G01 X53.9075 Y120.6469
G01 X53.8094 Y119.8545
G01 X53.6600 Y119.0463
G01 X53.4832 Y118.2436
G01 X53.2791 Y117.4474
G01 X53.0480 Y116.6587
G01 X52.7902 Y115.8782
G01 X52.5059 Y115.1070
G01 X52.1956 Y114.3459
G01 X51.8595 Y113.5958
G01 X51.7012 Y113.2438
G01 X51.4851 Y112.7752
G01 X50.9142 Y111.5610
G01 X50.5931 Y112.5882
G01 X50.2470 Y113.6073
G01 X49.8762 Y114.6177
G01 X49.4809 Y115.6187
G01 X49.0613 Y116.6098
G01 X48.6177 Y117.5904
G01 X48.1504 Y118.5600
G01 X47.6596 Y119.5178
G01 X47.1456 Y120.4634
G01 X46.6088 Y121.3962
G01 X46.0494 Y122.3157
G01 X45.4677 Y123.2212
G01 X44.8642 Y124.1123
G01 X44.2391 Y124.9885
G01 X43.5929 Y125.8492
G01 X42.9259 Y126.6938
G01 X42.3163 Y127.4161
G01 X41.6887 Y128.1227
G01 X41.0436 Y128.8134
G01 X40.3812 Y129.4876
G01 X39.7021 Y130.1449
G01 X39.0067 Y130.7849
G01 X38.2954 Y131.4073
G01 X37.5687 Y132.0115
G01 X37.5045 Y132.0643
G01 X37.4367 Y132.1122
G01 X37.3655 Y132.1550
G01 X37.2913 Y132.1926
G01 X37.2147 Y132.2246
G01 X37.1359 Y132.2509
G01 X37.0554 Y132.2714
G01 X36.9736 Y132.2860
G01 X36.8909 Y132.2945
G01 X36.8079 Y132.2970
G01 X36.7249 Y132.2935
G01 X36.6423 Y132.2838
G01 X36.5607 Y132.2682
G01 X36.4805 Y132.2467
G01 X36.4021 Y132.2193
G01 X36.3258 Y132.1863
G01 X36.2537 Y132.1447
G01 X36.1852 Y132.0971
G01 X36.1210 Y132.0441
G01 X36.0614 Y131.9859
G01 X36.0069 Y131.9229
G01 X35.9578 Y131.8556
G01 X35.9144 Y131.7844
G01 X35.8772 Y131.7099
G01 X35.8462 Y131.6326
G01 X35.8219 Y131.5529
G01 X35.8042 Y131.4715
G01 X35.7934 Y131.3889
G01 X35.7895 Y131.2890
G01 X35.7931 Y131.1454
G01 X35.8933 Y130.7638
G01 X36.0210 Y130.3904
G01 X36.1756 Y130.0274
G01 X36.3563 Y129.6766
G01 X36.7388 Y128.9471
G01 X37.1114 Y128.2125
G01 X37.4740 Y127.4730
G01 X37.8266 Y126.7287
G01 X38.2691 Y125.6899
G01 X38.6920 Y124.6430
G01 X39.0951 Y123.5883
G01 X39.4782 Y122.5262
G01 X39.8413 Y121.4570
G01 X40.1842 Y120.3812
G01 X40.5067 Y119.2992
G01 X40.8088 Y118.2112
G01 X41.0904 Y117.1178
G01 X41.3513 Y116.0193
G01 X41.5915 Y114.9160
G01 X41.8109 Y113.8084
G01 X41.9683 Y112.9756
G01 X42.1123 Y112.1404
G01 X42.2429 Y111.3030
G01 X42.3600 Y110.4637
G01 X42.4636 Y109.6225
G01 X42.5537 Y108.7798
G01 X42.6301 Y107.9357
G01 X42.6930 Y107.0905
G01 X41.8046 Y107.3643
G01 X40.9215 Y107.6550
G01 X40.0441 Y107.9625
G01 X39.1728 Y108.2866
G01 X37.8800 Y108.7487
G01 X36.5996 Y109.2444
G01 X35.3326 Y109.7732
G01 X34.0799 Y110.3349
G01 X33.2936 Y110.7427
G01 X32.5202 Y111.1742
G01 X31.7602 Y111.6291
G01 X31.0145 Y112.1069
G01 X30.2837 Y112.6072
G01 X29.5684 Y113.1296
G01 X28.8694 Y113.6735
G01 X28.1873 Y114.2384
G01 X27.5227 Y114.8239
G01 X26.8763 Y115.4293
G01 X26.2486 Y116.0542
G01 X25.6402 Y116.6979
G01 X25.0517 Y117.3598
G01 X24.4837 Y118.0393
G01 X23.9366 Y118.7358
G01 X23.4110 Y119.4487
G01 X22.9600 Y120.1356
G01 X22.5345 Y120.8387
G01 X22.1350 Y121.5568
G01 X21.7622 Y122.2892
G01 X21.4164 Y123.0347
G01 X21.0983 Y123.7923
G01 X20.8081 Y124.5612
G01 X20.5463 Y125.3401
G01 X20.1702 Y126.5523
G01 X19.8252 Y127.7736
G01 X19.5116 Y129.0034
G01 X19.2296 Y130.2408
G01 X18.9793 Y131.4850
G01 X18.7610 Y132.7353
G01 X18.5747 Y133.9906
G01 X18.4205 Y135.2504
G01 X18.2987 Y136.5137
G01 X18.2092 Y137.7797
G01 X18.1521 Y139.0475
G01 X18.1275 Y140.3164
G01 X18.1290 Y140.7563
G01 X18.1556 Y141.6231
G01 X18.1956 Y142.4894
G01 X18.2492 Y143.3550
G01 X18.3163 Y144.2196
G01 X18.3969 Y145.0831
G01 X18.4910 Y145.9452
G01 X18.5985 Y146.8058
G01 X18.7194 Y147.6645
G01 X18.8634 Y148.7333
G01 X19.0240 Y149.7998
G01 X19.2012 Y150.8636
G01 X19.3948 Y151.9246
G01 X19.6048 Y152.9824
G01 X19.8313 Y154.0368
G01 X20.0741 Y155.0876
G01 X20.3332 Y156.1345
G01 X20.5257 Y156.0795
M107
G00 Z2.0000


;No. 5: Hole 3
G00 X46.0188 Y152.3167 Z2.0000
G00 Z0.5000
G01 Z-1.8000 F400
M106 S200
G01 X49.9193 F800
G01 X49.4521 Y153.8167
G01 X43.5549
G01 Y155.3167
G01 X41.7640
G01 X48.9679
G01 X48.4703 Y156.8167
G01 X40.4046
G01 X39.3615 Y158.3167
G01 X47.9554
G01 X47.4166 Y159.8167
G01 X38.5639
G01 X37.9690 Y161.3167
G01 X46.8218
G01 X46.1526 Y162.8167
G01 X37.5456
G01 X37.2732 Y164.3167
G01 X45.5725
G01 X46.0532 Y165.8167
G01 X37.1343
G01 X37.1186 Y167.3167
G01 X52.8102
G01 X53.7945 Y165.8167
G01 X47.3824
G01 X48.6918 Y164.3167
G01 X54.4633
G01 X54.9081 Y162.8167
G01 X49.6270
G01 X50.4944 Y161.3167
G01 X55.0491
G01 X55.0271 Y159.8167
G01 X51.3234
G01 X52.1208 Y158.3167
G01 X54.9536
G01 X54.8132 Y156.8167
G01 X52.8916
M107
G00 Z2.0000
G00 X51.4844 Y167.3167
G00 Z0.5000
G01 Z-1.8000 F400
M106 S200
G01 Y168.8167 F800
G01 X37.2152
G01 X37.4169 Y170.3167
G01 X49.7662
G01 X47.5650
G01 Y171.8167
G01 X37.7192
G01 X38.1162 Y173.3167
G01 X44.7004
G01 X40.7646
G01 Y174.8167
G01 X38.5954
M107
G00 Z2.0000
G00 Z0.5000
G01 Z-1.8000 F400
M106 S200
G01 X38.4085 Y174.8872 F800
G01 X38.4338 Y174.9704
G01 X38.4628 Y175.0524
G01 X38.4955 Y175.1331
G01 X38.5317 Y175.2121
G01 X38.5714 Y175.2895
G01 X38.6145 Y175.3651
G01 X38.6610 Y175.4386
G01 X38.7107 Y175.5100
G01 X38.7280 Y175.5206
G01 X39.0983 Y175.4900
G01 X39.4648 Y175.4291
G01 X39.8250 Y175.3381
G01 X40.1766 Y175.2179
G01 X40.9478 Y174.9789
G01 X41.7134 Y174.7226
G01 X42.4730 Y174.4490
G01 X43.2263 Y174.1582
G01 X43.9727 Y173.8505
G01 X44.7120 Y173.5259
G01 X45.4437 Y173.1846
G01 X46.1675 Y172.8268
G01 X46.7284 Y172.5375
G01 X47.2806 Y172.2318
G01 X47.8235 Y171.9099
G01 X48.3567 Y171.5723
G01 X48.8798 Y171.2190
G01 X49.3922 Y170.8505
G01 X49.8935 Y170.4671
G01 X50.3833 Y170.0690
G01 X50.8612 Y169.6567
G01 X51.3267 Y169.2306
G01 X51.7795 Y168.7909
G01 X52.2191 Y168.3380
G01 X52.5948 Y167.9209
G01 X52.9494 Y167.4858
G01 X53.2822 Y167.0338
G01 X53.5923 Y166.5659
G01 X53.8790 Y166.0833
G01 X54.1415 Y165.5872
G01 X54.3793 Y165.0787
G01 X54.5917 Y164.5591
G01 X54.7783 Y164.0297
G01 X54.9385 Y163.4918
G01 X55.0720 Y162.9465
G01 X55.1785 Y162.3954
G01 X55.2344 Y161.4914
G01 X55.2535 Y160.5859
G01 X55.2358 Y159.6803
G01 X55.1812 Y158.7762
G01 X55.1400 Y158.0798
G01 X55.0814 Y157.3847
G01 X55.0053 Y156.6912
G01 X54.9118 Y155.9999
G01 X54.8011 Y155.3111
G01 X54.6731 Y154.6254
G01 X54.5279 Y153.9430
G01 X54.3656 Y153.2646
G01 X53.7318 Y154.6350
G01 X53.0766 Y155.9955
G01 X52.4002 Y157.3455
G01 X51.7029 Y158.6848
G01 X50.9847 Y160.0130
G01 X50.2459 Y161.3299
G01 X49.4866 Y162.6350
G01 X48.7070 Y163.9282
G01 X48.4540 Y164.3382
G01 X48.1750 Y164.7310
G01 X47.8714 Y165.1050
G01 X47.5442 Y165.4586
G01 X47.4678 Y165.5294
G01 X47.3855 Y165.5930
G01 X47.2977 Y165.6491
G01 X47.2054 Y165.6972
G01 X47.1091 Y165.7368
G01 X47.0097 Y165.7678
G01 X46.9080 Y165.7898
G01 X46.8047 Y165.8026
G01 X46.7006 Y165.8062
G01 X46.5967 Y165.8006
G01 X46.4936 Y165.7857
G01 X46.3923 Y165.7618
G01 X46.3201 Y165.7342
G01 X46.2501 Y165.7012
G01 X46.1829 Y165.6630
G01 X46.1188 Y165.6198
G01 X46.0581 Y165.5719
G01 X46.0013 Y165.5195
G01 X45.9486 Y165.4629
G01 X45.9003 Y165.4025
G01 X45.8568 Y165.3385
G01 X45.8183 Y165.2715
G01 X45.7850 Y165.2017
G01 X45.7570 Y165.1296
G01 X45.7347 Y165.0556
G01 X45.7180 Y164.9801
G01 X45.7071 Y164.9035
G01 X45.7021 Y164.8263
G01 X45.7001 Y164.7264
G01 X45.7375 Y164.4944
G01 X45.7926 Y164.2659
G01 X45.8653 Y164.0424
G01 X45.9549 Y163.8251
G01 X46.2900 Y163.0339
G01 X46.6272 Y162.2437
G01 X46.9665 Y161.4543
G01 X47.3079 Y160.6659
G01 X47.4372 Y160.3301
G01 X47.5644 Y159.9935
G01 X47.6894 Y159.6561
G01 X47.8122 Y159.3179
G01 X48.2088 Y158.2066
G01 X48.5951 Y157.0917
G01 X48.9711 Y155.9732
G01 X49.3366 Y154.8513
G01 X49.6917 Y153.7261
G01 X50.0363 Y152.5976
G01 X50.3705 Y151.4660
G01 X50.6941 Y150.3313
G01 X50.0390 Y150.5163
G01 X49.3892 Y150.7190
G01 X48.7450 Y150.9391
G01 X48.1070 Y151.1765
G01 X47.4757 Y151.4309
G01 X46.8514 Y151.7023
G01 X46.2347 Y151.9905
G01 X45.6259 Y152.2951
G01 X44.9456 Y152.6623
G01 X44.2836 Y153.0615
G01 X43.6413 Y153.4918
G01 X43.0203 Y153.9522
G01 X42.4219 Y154.4416
G01 X41.8475 Y154.9590
G01 X41.2983 Y155.5032
G01 X40.7757 Y156.0728
G01 X40.2809 Y156.6668
G01 X39.8148 Y157.2836
G01 X39.3787 Y157.9219
G01 X38.9735 Y158.5802
G01 X38.6554 Y159.1804
G01 X38.3626 Y159.7933
G01 X38.0956 Y160.4179
G01 X37.8548 Y161.0531
G01 X37.6407 Y161.6978
G01 X37.4537 Y162.3508
G01 X37.2940 Y163.0110
G01 X37.1620 Y163.6773
G01 X37.0579 Y164.3486
G01 X36.9819 Y165.0236
G01 X36.9340 Y165.7012
G01 X36.9144 Y166.3802
G01 X36.9108 Y166.6638
G01 X36.9113 Y166.9476
G01 X36.9358 Y167.6235
G01 X36.9787 Y168.2984
G01 X37.0400 Y168.9719
G01 X37.1196 Y169.6435
G01 X37.2176 Y170.3127
G01 X37.3339 Y170.9789
G01 X37.4683 Y171.6417
G01 X37.6207 Y172.3006
G01 X37.7911 Y172.9551
G01 X37.9793 Y173.6047
G01 X38.1851 Y174.2489
G01 X38.4085 Y174.8872
G01 X38.5954 Y174.8167
M107
G00 Z2.0000


;No. 6: Hole 2
G00 X67.9279 Y141.1600 Z2.0000
G00 Z0.5000
G01 Z-1.8000 F400
M106 S200
G01 X69.9215 F800
G01 X69.9786 Y142.6600
G01 X66.3310
G01 X65.0514 Y144.1600
G01 X70.0683
G01 X70.1825 Y145.6600
G01 X64.0111
G01 X63.1617 Y147.1600
G01 X70.3135
G01 X70.4561 Y148.6600
G01 X62.4700
G01 X61.9117 Y150.1600
G01 X70.6102
G01 X70.7731 Y151.6600
G01 X61.4709
G01 X61.1333 Y153.1600
G01 X70.9442
G01 X71.1237 Y154.6600
G01 X60.8898
G01 X60.7312 Y156.1600
G01 X71.3122
G01 X71.5090 Y157.6600
G01 X60.6511
G01 X60.6424 Y159.1600
G01 X71.7169
G01 X71.9380 Y160.6600
G01 X60.6949
G01 X60.8069 Y162.1600
G01 X72.1774
G01 X72.4474 Y163.6600
G01 X60.9798
G01 X61.2159 Y165.1600
G01 X72.8121
G01 X61.5173
G01 Y166.6600
G01 X84.6764
G01 X84.9896 Y165.1600
G01 X75.3207
G01 X75.6268 Y163.6600
G01 X85.2580
G01 X85.4797 Y162.1600
G01 X75.8875
G01 X76.1341 Y160.6600
G01 X85.6462
G01 X85.7201 Y159.1600
G01 X76.3719
G01 X76.6030 Y157.6600
G01 X85.6497
G01 X85.4598 Y156.1600
G01 X76.8285
G01 X77.0485 Y154.6600
G01 X85.1615
G01 X84.7608 Y153.1600
G01 X77.2616
G01 X77.4681 Y151.6600
G01 X84.2623
G01 X83.6679 Y150.1600
G01 X77.6643
G01 X77.8455 Y148.6600
G01 X82.9778
G01 X82.1903 Y147.1600
G01 X77.9947
G01 X78.1120 Y145.6600
G01 X81.3041
G01 X80.3128 Y144.1600
G01 X78.2056
M107
G00 Z2.0000
G00 X84.3080 Y166.6600
G00 Z0.5000
G01 Z-1.8000 F400
M106 S200
G01 Y168.1600 F800
G01 X61.8860
G01 X62.3250 Y169.6600
G01 X83.8508
G01 X83.2872 Y171.1600
G01 X62.8370
G01 X63.4256 Y172.6600
G01 X82.6430
G01 X81.9179 Y174.1600
G01 X64.0941
G01 X64.8470 Y175.6600
G01 X81.1139
G01 X80.2311 Y177.1600
G01 X65.6892
G01 X66.6264 Y178.6600
G01 X79.2673
G01 X78.2230 Y180.1600
G01 X67.6649
G01 X68.8114 Y181.6600
G01 X77.0932
G01 X75.8774 Y183.1600
G01 X70.0760
G01 X71.4670 Y184.6600
G01 X74.5717
M107
G00 Z2.0000
G00 Z0.5000
G01 Z-1.8000 F400
M106 S200
G01 X74.7209 Y184.7931 F800
G01 X75.4944 Y183.9289
G01 X76.2471 Y183.0466
G01 X76.9786 Y182.1467
G01 X77.6885 Y181.2297
G01 X78.3765 Y180.2960
G01 X79.0421 Y179.3463
G01 X79.6850 Y178.3810
G01 X80.3047 Y177.4008
G01 X80.9010 Y176.4061
G01 X81.4735 Y175.3975
G01 X82.0219 Y174.3756
G01 X82.5459 Y173.3410
G01 X82.9726 Y172.4423
G01 X83.3682 Y171.5295
G01 X83.7321 Y170.6037
G01 X84.0639 Y169.6659
G01 X84.3632 Y168.7172
G01 X84.6298 Y167.7587
G01 X84.8632 Y166.7917
G01 X85.0631 Y165.8172
G01 X85.2331 Y165.0083
G01 X85.3852 Y164.1959
G01 X85.5194 Y163.3804
G01 X85.6356 Y162.5621
G01 X85.7339 Y161.7414
G01 X85.8140 Y160.9188
G01 X85.8761 Y160.0946
G01 X85.9200 Y159.2692
G01 X85.8997 Y158.5855
G01 X85.8588 Y157.9027
G01 X85.7971 Y157.2214
G01 X85.7149 Y156.5423
G01 X85.6121 Y155.8660
G01 X85.4889 Y155.1932
G01 X85.3454 Y154.5243
G01 X85.1817 Y153.8602
G01 X84.9979 Y153.2013
G01 X84.7943 Y152.5482
G01 X84.5710 Y151.9016
G01 X84.3282 Y151.2621
G01 X83.9497 Y150.3314
G01 X83.5445 Y149.4119
G01 X83.1130 Y148.5045
G01 X82.6554 Y147.6100
G01 X82.1721 Y146.7291
G01 X81.6636 Y145.8625
G01 X81.1304 Y145.0109
G01 X80.5727 Y144.1751
G01 X79.9911 Y143.3557
G01 X79.3862 Y142.5535
G01 X78.7583 Y141.7691
G01 X78.1080 Y141.0031
G01 X78.1048 Y141.0172
G01 X78.0766 Y142.3544
G01 X78.0264 Y143.6910
G01 X77.9542 Y145.0265
G01 X77.8600 Y146.3607
G01 X77.7439 Y147.6931
G01 X77.6059 Y149.0235
G01 X77.4460 Y150.3514
G01 X77.2643 Y151.6765
G01 X77.0449 Y153.3209
G01 X76.8146 Y154.9639
G01 X76.5733 Y156.6054
G01 X76.3212 Y158.2452
G01 X76.0582 Y159.8833
G01 X75.7844 Y161.5196
G01 X75.4996 Y163.1540
G01 X75.2041 Y164.7865
G01 X75.1831 Y164.9166
G01 X75.1534 Y165.0449
G01 X75.1150 Y165.1709
G01 X75.0681 Y165.2940
G01 X75.0130 Y165.4136
G01 X74.9498 Y165.5292
G01 X74.8790 Y165.6402
G01 X74.8007 Y165.7461
G01 X74.7670 Y165.7796
G01 X74.7318 Y165.8115
G01 X74.6951 Y165.8416
G01 X74.6570 Y165.8700
G01 X74.6176 Y165.8965
G01 X74.5770 Y165.9211
G01 X74.5352 Y165.9437
G01 X74.4925 Y165.9644
G01 X74.4487 Y165.9830
G01 X74.4042 Y165.9995
G01 X74.3589 Y166.0139
G01 X74.3130 Y166.0261
G01 X74.2666 Y166.0361
G01 X74.2198 Y166.0439
G01 X74.1726 Y166.0494
G01 X74.1252 Y166.0527
G01 X74.0777 Y166.0538
G01 X74.0302 Y166.0526
G01 X73.9829 Y166.0491
G01 X73.9357 Y166.0434
G01 X73.8889 Y166.0355
G01 X73.8425 Y166.0254
G01 X73.7966 Y166.0130
G01 X73.7514 Y165.9985
G01 X73.7069 Y165.9819
G01 X73.6633 Y165.9632
G01 X73.6205 Y165.9424
G01 X73.5789 Y165.9196
G01 X73.5383 Y165.8949
G01 X73.4990 Y165.8683
G01 X73.4610 Y165.8398
G01 X73.4244 Y165.8096
G01 X73.3892 Y165.7776
G01 X73.3556 Y165.7440
G01 X73.3237 Y165.7089
G01 X73.2934 Y165.6723
G01 X73.2649 Y165.6343
G01 X73.2383 Y165.5950
G01 X73.2135 Y165.5544
G01 X73.1907 Y165.5127
G01 X73.1411 Y165.4267
G01 X73.0962 Y165.3382
G01 X73.0560 Y165.2474
G01 X73.0206 Y165.1546
G01 X72.7892 Y164.2629
G01 X72.5882 Y163.3638
G01 X72.4180 Y162.4584
G01 X72.2787 Y161.5477
G01 X71.9416 Y159.2952
G01 X71.6273 Y157.0395
G01 X71.3358 Y154.7806
G01 X71.0672 Y152.5190
G01 X70.8215 Y150.2547
G01 X70.5988 Y147.9880
G01 X70.3990 Y145.7193
G01 X70.2222 Y143.4486
G01 X70.1832 Y142.4995
G01 X70.1401 Y141.5506
G01 X70.0930 Y140.6019
G01 X70.0419 Y139.6534
G01 X70.0205 Y139.3624
G01 X70.0062 Y139.3651
G01 X69.5433 Y139.6746
G01 X69.0885 Y139.9958
G01 X68.6419 Y140.3284
G01 X68.2039 Y140.6723
G01 X67.7747 Y141.0271
G01 X67.3546 Y141.3926
G01 X66.9440 Y141.7687
G01 X66.5430 Y142.1551
G01 X65.9360 Y142.7974
G01 X65.3576 Y143.4657
G01 X64.8090 Y144.1586
G01 X64.2913 Y144.8749
G01 X63.8055 Y145.6131
G01 X63.3524 Y146.3719
G01 X62.9330 Y147.1498
G01 X62.5480 Y147.9454
G01 X62.1982 Y148.7570
G01 X61.8843 Y149.5832
G01 X61.6069 Y150.4223
G01 X61.3665 Y151.2727
G01 X61.1504 Y152.1405
G01 X60.9627 Y153.0149
G01 X60.8034 Y153.8948
G01 X60.6727 Y154.7795
G01 X60.5707 Y155.6680
G01 X60.4976 Y156.5593
G01 X60.4535 Y157.4524
G01 X60.4384 Y158.3466
G01 X60.4388 Y158.8471
G01 X60.4569 Y159.8817
G01 X60.5044 Y160.9153
G01 X60.5811 Y161.9471
G01 X60.6872 Y162.9764
G01 X60.8224 Y164.0022
G01 X60.9866 Y165.0238
G01 X61.1797 Y166.0403
G01 X61.4017 Y167.0509
G01 X61.6522 Y168.0548
G01 X61.9310 Y169.0512
G01 X62.2381 Y170.0393
G01 X62.5730 Y171.0183
G01 X62.9356 Y171.9874
G01 X63.3256 Y172.9458
G01 X63.7425 Y173.8927
G01 X64.1862 Y174.8275
G01 X64.6562 Y175.7492
G01 X65.1522 Y176.6573
G01 X65.6737 Y177.5510
G01 X66.2204 Y178.4294
G01 X66.7918 Y179.2921
G01 X67.3875 Y180.1381
G01 X68.0069 Y180.9669
G01 X68.6495 Y181.7778
G01 X69.2005 Y182.4496
G01 X69.7652 Y183.1098
G01 X70.3435 Y183.7582
G01 X70.9351 Y184.3944
G01 X73.0824 Y186.6299
G01 X74.7209 Y184.7931
G01 X74.5717 Y184.6600
M107
G00 Z2.0000


;No. 7: Hole 4
G00 X95.5751 Y163.6300 Z2.0000
G00 Z0.5000
G01 Z-1.8000 F400
M106 S200
G01 X96.9703 F800
G01 X95.7492 Y165.1300
G01 X98.6925
G01 X99.9632 Y166.6300
G01 X95.9233
G01 X96.0945 Y168.1300
G01 X100.8100
G01 X101.3125 Y169.6300
G01 X96.2390
G01 X96.3152 Y171.1300
G01 X101.5504
G01 X101.5964 Y172.6300
G01 X88.9029
G01 X88.6289 Y171.1300
G01 X93.6890
G01 X93.1818 Y169.6300
G01 X88.6064
G01 X88.8365 Y168.1300
G01 X92.7132
G01 X92.2645 Y166.6300
G01 X89.3465
G01 X90.0839 Y165.1300
G01 X91.8169
M107
G00 Z2.0000
G00 X89.4374 Y172.6300
G00 Z0.5000
G01 Z-1.8000 F400
M106 S200
G01 Y174.1300 F800
G01 X101.5106
G01 X101.0576 Y175.6300
G01 X90.2558
G01 X91.4037 Y177.1300
G01 X100.3528
G01 X99.5876 Y178.6300
G01 X92.9585
G01 X94.9224
G01 Y180.1300
G01 X98.7837
M107
G00 Z2.0000
G00 Z0.5000
G01 Z-1.8000 F400
M106 S200
G01 X98.9578 Y180.2271 F800
G01 X99.5779 Y179.0921
G01 X100.1724 Y177.9435
G01 X100.7411 Y176.7819
G01 X101.2837 Y175.6078
G01 X101.4140 Y175.2797
G01 X101.5259 Y174.9448
G01 X101.6190 Y174.6043
G01 X101.6930 Y174.2591
G01 X101.7478 Y173.9104
G01 X101.7831 Y173.5591
G01 X101.7988 Y173.2064
G01 X101.7950 Y172.8534
G01 X101.8105 Y172.3667
G01 X101.8054 Y171.8797
G01 X101.7800 Y171.3935
G01 X101.7341 Y170.9087
G01 X101.6678 Y170.4262
G01 X101.5814 Y169.9470
G01 X101.4749 Y169.4719
G01 X101.3485 Y169.0016
G01 X101.2059 Y168.5939
G01 X101.0456 Y168.1929
G01 X100.8678 Y167.7993
G01 X100.6729 Y167.4139
G01 X100.4612 Y167.0374
G01 X100.2331 Y166.6706
G01 X99.9892 Y166.3142
G01 X99.7298 Y165.9689
G01 X99.4555 Y165.6353
G01 X99.1668 Y165.3141
G01 X98.8642 Y165.0059
G01 X98.5484 Y164.7113
G01 X98.1536 Y164.3560
G01 X97.7516 Y164.0089
G01 X97.3425 Y163.6701
G01 X96.9265 Y163.3399
G01 X96.5037 Y163.0183
G01 X96.0745 Y162.7055
G01 X95.6388 Y162.4016
G01 X95.1970 Y162.1068
G01 X95.8364 Y167.6150
G01 X95.9414 Y168.4842
G01 X96.0231 Y169.3560
G01 X96.0813 Y170.2296
G01 X96.1162 Y171.1045
G01 X96.1213 Y171.2082
G01 X96.1170 Y171.3120
G01 X96.1032 Y171.4149
G01 X96.0802 Y171.5162
G01 X96.0481 Y171.6150
G01 X96.0072 Y171.7104
G01 X95.9578 Y171.8017
G01 X95.9002 Y171.8882
G01 X95.8351 Y171.9691
G01 X95.7629 Y172.0437
G01 X95.6842 Y172.1115
G01 X95.5997 Y172.1719
G01 X95.5196 Y172.2128
G01 X95.4361 Y172.2466
G01 X95.3501 Y172.2732
G01 X95.2622 Y172.2922
G01 X95.1729 Y172.3037
G01 X95.0829 Y172.3074
G01 X94.9930 Y172.3034
G01 X94.9038 Y172.2917
G01 X94.8159 Y172.2723
G01 X94.7299 Y172.2455
G01 X94.6466 Y172.2114
G01 X94.5666 Y172.1702
G01 X94.4903 Y172.1224
G01 X94.4185 Y172.0681
G01 X94.3516 Y172.0079
G01 X94.2901 Y171.9422
G01 X94.2345 Y171.8714
G01 X94.1852 Y171.7961
G01 X94.1425 Y171.7168
G01 X94.1068 Y171.6342
G01 X93.7922 Y170.8093
G01 X93.4980 Y169.9770
G01 X93.2244 Y169.1376
G01 X92.9714 Y168.2918
G01 X92.5676 Y166.9065
G01 X92.1503 Y165.5252
G01 X91.7195 Y164.1481
G01 X91.2753 Y162.7752
G01 X91.2656 Y162.7503
G01 X90.9093 Y163.2902
G01 X90.5683 Y163.8399
G01 X90.2430 Y164.3990
G01 X89.9335 Y164.9670
G01 X89.6400 Y165.5434
G01 X89.3629 Y166.1279
G01 X89.1024 Y166.7200
G01 X88.8586 Y167.3191
G01 X88.7524 Y167.6612
G01 X88.6595 Y168.0071
G01 X88.5799 Y168.3563
G01 X88.5138 Y168.7084
G01 X88.4612 Y169.0627
G01 X88.4222 Y169.4187
G01 X88.3969 Y169.7760
G01 X88.3854 Y170.1340
G01 X88.3857 Y170.3756
G01 X88.4191 Y170.9450
G01 X88.4835 Y171.5116
G01 X88.5790 Y172.0739
G01 X88.7051 Y172.6301
G01 X88.8615 Y173.1786
G01 X89.0477 Y173.7176
G01 X89.2631 Y174.2457
G01 X89.5072 Y174.7611
G01 X89.7791 Y175.2624
G01 X90.0781 Y175.7481
G01 X90.4033 Y176.2166
G01 X90.7536 Y176.6667
G01 X91.0967 Y177.0773
G01 X91.4533 Y177.4763
G01 X91.8231 Y177.8630
G01 X92.2057 Y178.2372
G01 X92.6006 Y178.5982
G01 X93.0074 Y178.9459
G01 X93.4257 Y179.2796
G01 X93.8549 Y179.5992
G01 X94.3208 Y179.9557
G01 X94.7953 Y180.3007
G01 X95.2781 Y180.6341
G01 X95.7689 Y180.9556
G01 X96.2673 Y181.2651
G01 X96.7732 Y181.5622
G01 X97.2861 Y181.8470
G01 X97.8058 Y182.1192
G01 X97.8238 Y182.1147
G01 X97.8663 Y182.0521
G01 X98.1518 Y181.6035
G01 X98.4290 Y181.1497
G01 X98.6977 Y180.6909
G01 X98.9578 Y180.2271
G01 X98.7837 Y180.1300
M107
G00 Z2.0000


;No. 8: Hole 5
G00 X87.4816 Y102.9217 Z2.0000
G00 Z0.5000
G01 Z-1.8000 F400
M106 S200
G01 X86.1324 F800
G01 X86.4386 Y104.4217
G01 X88.7168
G01 X89.4605 Y105.9217
G01 X86.7035
G01 X86.9239 Y107.4217
G01 X89.8204
G01 X89.9834 Y108.9217
G01 X87.0862
G01 X87.1850 Y110.4217
G01 X90.0133
G01 X89.9369 Y111.9217
G01 X87.2253
G01 X89.7688
G01 Y113.4217
G01 X81.1017
G01 X80.4518 Y111.9217
G01 X84.6350
G01 X84.1544 Y110.4217
G01 X80.1434
G01 X80.0823 Y108.9217
G01 X83.7062
G01 X83.2610 Y107.4217
G01 X80.0781
G01 X80.1075 Y105.9217
G01 X82.7985
G01 X82.2880 Y104.4217
G01 X80.2813
M107
G00 Z2.0000
G00 X81.8932 Y113.4217
G00 Z0.5000
G01 Z-1.8000 F400
M106 S200
G01 Y114.9217 F800
G01 X89.5149
G01 X89.1766 Y116.4217
G01 X82.9071
G01 X84.1466 Y117.9217
G01 X88.7509
G01 X88.2303 Y119.4217
G01 X85.5670
M107
G00 Z2.0000
G00 Z0.5000
G01 Z-1.8000 F400
M106 S200
G01 X85.4254 Y119.5628 F800
G01 X87.4963 Y121.6405
G01 X87.6606 Y121.2841
G01 X87.8214 Y120.9261
G01 X87.9789 Y120.5666
G01 X88.1328 Y120.2056
G01 X88.4732 Y119.3457
G01 X88.7841 Y118.4747
G01 X89.0650 Y117.5936
G01 X89.3158 Y116.7034
G01 X89.5360 Y115.8052
G01 X89.7254 Y114.8999
G01 X89.8838 Y113.9888
G01 X90.0111 Y113.0727
G01 X90.1070 Y112.1529
G01 X90.1715 Y111.2303
G01 X90.2044 Y110.3061
G01 X90.2058 Y109.3813
G01 X90.1928 Y108.8875
G01 X90.1589 Y108.3947
G01 X90.1043 Y107.9037
G01 X90.0289 Y107.4156
G01 X89.9330 Y106.9310
G01 X89.8167 Y106.4509
G01 X89.6802 Y105.9762
G01 X89.5237 Y105.5077
G01 X89.3665 Y105.1636
G01 X89.1933 Y104.8273
G01 X89.0044 Y104.4995
G01 X88.8004 Y104.1810
G01 X88.5816 Y103.8724
G01 X88.3486 Y103.5744
G01 X88.1018 Y103.2877
G01 X87.8418 Y103.0129
G01 X87.5677 Y102.7197
G01 X87.2855 Y102.4342
G01 X86.9956 Y102.1567
G01 X86.6980 Y101.8873
G01 X86.3931 Y101.6263
G01 X86.0810 Y101.3738
G01 X85.7621 Y101.1301
G01 X85.4365 Y100.8954
G01 X85.6985 Y101.9273
G01 X85.9386 Y102.9647
G01 X86.1566 Y104.0068
G01 X86.3524 Y105.0534
G01 X86.5260 Y106.1039
G01 X86.6773 Y107.1578
G01 X86.8062 Y108.2147
G01 X86.9126 Y109.2741
G01 X87.0022 Y110.7149
G01 X87.0320 Y111.0428
G01 X87.0436 Y111.3719
G01 X87.0369 Y111.7011
G01 X87.0120 Y112.0295
G01 X86.9982 Y112.1149
G01 X86.9775 Y112.1988
G01 X86.9499 Y112.2808
G01 X86.9156 Y112.3602
G01 X86.8749 Y112.4365
G01 X86.8279 Y112.5091
G01 X86.7752 Y112.5777
G01 X86.7169 Y112.6416
G01 X86.6536 Y112.7005
G01 X86.5856 Y112.7539
G01 X86.5134 Y112.8016
G01 X86.4375 Y112.8431
G01 X86.3584 Y112.8782
G01 X86.2768 Y112.9066
G01 X86.1930 Y112.9282
G01 X86.1077 Y112.9428
G01 X86.0216 Y112.9502
G01 X85.9351 Y112.9505
G01 X85.8489 Y112.9437
G01 X85.7635 Y112.9297
G01 X85.6630 Y112.8955
G01 X85.5657 Y112.8529
G01 X85.4723 Y112.8024
G01 X85.3834 Y112.7443
G01 X85.2997 Y112.6790
G01 X85.2218 Y112.6069
G01 X85.1501 Y112.5286
G01 X85.0851 Y112.4445
G01 X85.0275 Y112.3554
G01 X84.9774 Y112.2617
G01 X84.9354 Y112.1642
G01 X84.9016 Y112.0635
G01 X84.6896 Y111.4543
G01 X84.4883 Y110.8415
G01 X84.2977 Y110.2252
G01 X84.1179 Y109.6057
G01 X83.2811 Y106.7868
G01 X83.0701 Y106.1006
G01 X82.8488 Y105.4177
G01 X82.6173 Y104.7381
G01 X82.3756 Y104.0621
G01 X82.1239 Y103.3898
G01 X81.8621 Y102.7213
G01 X81.5903 Y102.0568
G01 X81.3087 Y101.3965
G01 X80.8810 Y102.2860
G01 X80.6204 Y102.8143
G01 X80.3963 Y103.3591
G01 X80.2100 Y103.9179
G01 X80.0622 Y104.4882
G01 X79.9938 Y104.9161
G01 X79.9432 Y105.3464
G01 X79.9105 Y105.7785
G01 X79.8958 Y106.2116
G01 X79.8884 Y106.5045
G01 X79.8829 Y106.7975
G01 X79.8792 Y107.0905
G01 X79.8773 Y107.3835
G01 X79.8763 Y107.8790
G01 X79.8772 Y108.3914
G01 X79.8836 Y109.0795
G01 X79.8890 Y109.4572
G01 X79.9032 Y109.8346
G01 X79.9263 Y110.2117
G01 X79.9582 Y110.5880
G01 X79.9905 Y110.8524
G01 X80.0417 Y111.1483
G01 X80.1051 Y111.4419
G01 X80.1809 Y111.7325
G01 X80.2688 Y112.0197
G01 X80.3686 Y112.3029
G01 X80.4802 Y112.5818
G01 X80.6035 Y112.8557
G01 X80.7381 Y113.1241
G01 X81.0645 Y113.8164
G01 X81.4200 Y114.4943
G01 X81.8037 Y115.1566
G01 X82.2151 Y115.8021
G01 X82.6533 Y116.4297
G01 X83.1176 Y117.0381
G01 X83.6072 Y117.6265
G01 X84.1212 Y118.1936
G01 X84.4409 Y118.5419
G01 X84.7649 Y118.8863
G01 X85.0931 Y119.2266
G01 X85.4254 Y119.5628
G01 X85.5670 Y119.4217
M107
G00 Z2.0000


;No. 9: Hole 6
G00 X60.3454 Y96.0782 Z2.0000
G00 Z0.5000
G01 Z-1.8000 F400
M106 S200
G01 X58.7336 F800
G01 X60.0877 Y97.5782
G01 X57.2199
G01 X56.1257 Y99.0782
G01 X59.8874
G01 X59.7307 Y100.5782
G01 X55.3686
G01 X54.8823 Y102.0782
G01 X59.6131
G01 X59.5332 Y103.5782
G01 X54.6182
G01 X54.5369 Y105.0782
G01 X59.4996
G01 X59.5281 Y106.5782
G01 X54.6080
G01 X54.8081 Y108.0782
G01 X59.6805
G01 X60.0934 Y109.5782
G01 X55.1184
G01 X55.5241 Y111.0782
G01 X66.3559
G01 X66.9181 Y109.5782
G01 X62.3062
G01 X62.5909 Y108.0782
G01 X67.2483
G01 X67.3999 Y106.5782
G01 X62.7272
G01 X62.9252 Y105.0782
G01 X67.4507
G01 X67.4505 Y103.5782
G01 X63.1892
G01 X63.4990 Y102.0782
G01 X67.3981
G01 X67.2584 Y100.5782
G01 X63.8468
G01 X64.2320 Y99.0782
G01 X66.9764
G01 X66.4967 Y97.5782
G01 X64.6592
M107
G00 Z2.0000
G00 X65.6006 Y111.0782
G00 Z0.5000
G01 Z-1.8000 F400
M106 S200
G01 Y112.5782 F800
G01 X56.0136
G01 X56.5772 Y114.0782
G01 X64.7333
G01 X63.7680 Y115.5782
G01 X57.2042
G01 X57.8906 Y117.0782
G01 X62.6798
G01 X61.5060 Y118.5782
G01 X58.6277
M107
G00 Z2.0000
G00 Z0.5000
G01 Z-1.8000 F400
M106 S200
G01 X58.4490 Y118.6680 F800
G01 X58.5000 Y118.7694
G01 X58.7838 Y119.3252
G01 X59.0763 Y119.8765
G01 X59.3774 Y120.4231
G01 X59.6871 Y120.9649
G01 X60.3859 Y120.1982
G01 X61.0671 Y119.4158
G01 X61.7302 Y118.6180
G01 X62.3750 Y117.8054
G01 X63.0011 Y116.9783
G01 X63.6082 Y116.1371
G01 X64.1960 Y115.2824
G01 X64.7641 Y114.4144
G01 X65.0593 Y113.9445
G01 X65.3439 Y113.4680
G01 X65.6176 Y112.9853
G01 X65.8804 Y112.4965
G01 X66.1322 Y112.0020
G01 X66.3728 Y111.5019
G01 X66.6020 Y110.9965
G01 X66.8199 Y110.4861
G01 X67.0057 Y109.9380
G01 X67.1679 Y109.3824
G01 X67.3061 Y108.8204
G01 X67.4201 Y108.2529
G01 X67.5096 Y107.6811
G01 X67.5746 Y107.1060
G01 X67.6148 Y106.5286
G01 X67.6302 Y105.9500
G01 X67.6556 Y105.2803
G01 X67.6678 Y104.6102
G01 X67.6668 Y103.9400
G01 X67.6525 Y103.2699
G01 X67.6249 Y102.6003
G01 X67.5841 Y101.9313
G01 X67.5301 Y101.2633
G01 X67.4629 Y100.5965
G01 X67.3618 Y99.9289
G01 X67.2266 Y99.2674
G01 X67.0575 Y98.6137
G01 X66.8550 Y97.9696
G01 X66.6196 Y97.3368
G01 X66.3520 Y96.7169
G01 X66.0529 Y96.1116
G01 X65.7230 Y95.5225
G01 X65.5216 Y95.1725
G01 X65.4090 Y94.9824
G01 X65.3730 Y94.9249
G01 X65.1208 Y95.5943
G01 X64.8802 Y96.2679
G01 X64.6515 Y96.9457
G01 X64.4346 Y97.6273
G01 X64.2296 Y98.3126
G01 X64.0367 Y99.0014
G01 X63.8557 Y99.6934
G01 X63.6869 Y100.3885
G01 X63.4940 Y101.1623
G01 X63.3144 Y101.9392
G01 X63.1481 Y102.7191
G01 X62.9953 Y103.5018
G01 X62.8558 Y104.2869
G01 X62.7298 Y105.0743
G01 X62.6174 Y105.8638
G01 X62.5184 Y106.6550
G01 X62.4790 Y107.2444
G01 X62.4255 Y107.8327
G01 X62.3580 Y108.4195
G01 X62.2764 Y109.0045
G01 X62.2654 Y109.1054
G01 X62.2454 Y109.2049
G01 X62.2168 Y109.3022
G01 X62.1796 Y109.3967
G01 X62.1342 Y109.4874
G01 X62.0809 Y109.5738
G01 X62.0202 Y109.6551
G01 X61.9525 Y109.7307
G01 X61.8784 Y109.8001
G01 X61.7984 Y109.8626
G01 X61.7132 Y109.9177
G01 X61.6235 Y109.9651
G01 X61.5372 Y109.9968
G01 X61.4486 Y110.0211
G01 X61.3582 Y110.0377
G01 X61.2667 Y110.0465
G01 X61.1748 Y110.0475
G01 X61.0831 Y110.0407
G01 X60.9924 Y110.0260
G01 X60.9032 Y110.0037
G01 X60.8163 Y109.9738
G01 X60.7322 Y109.9366
G01 X60.6517 Y109.8924
G01 X60.5751 Y109.8415
G01 X60.5032 Y109.7842
G01 X60.4365 Y109.7210
G01 X60.3754 Y109.6524
G01 X60.3204 Y109.5787
G01 X60.2718 Y109.5007
G01 X60.2301 Y109.4188
G01 X60.1956 Y109.3336
G01 X60.1684 Y109.2458
G01 X60.0699 Y108.9037
G01 X59.9834 Y108.5584
G01 X59.9091 Y108.2102
G01 X59.8469 Y107.8597
G01 X59.7971 Y107.5072
G01 X59.7597 Y107.1532
G01 X59.7346 Y106.7981
G01 X59.7220 Y106.4423
G01 X59.7124 Y106.1750
G01 X59.7053 Y105.9077
G01 X59.7007 Y105.6403
G01 X59.6986 Y105.3729
G01 X59.6987 Y105.1075
G01 X59.7189 Y103.9379
G01 X59.7657 Y102.7690
G01 X59.8392 Y101.6015
G01 X59.9393 Y100.4360
G01 X60.0660 Y99.2731
G01 X60.2192 Y98.1134
G01 X60.3988 Y96.9574
G01 X60.6047 Y95.8059
G01 X60.6921 Y95.4093
G01 X60.7556 Y95.1431
G01 X60.9739 Y94.2701
G01 X60.9851 Y94.2115
G01 X60.3726 Y94.5890
G01 X59.7780 Y94.9943
G01 X59.2027 Y95.4263
G01 X58.6477 Y95.8843
G01 X58.1143 Y96.3672
G01 X57.6037 Y96.8741
G01 X57.1168 Y97.4038
G01 X56.6546 Y97.9553
G01 X56.3035 Y98.4385
G01 X55.9788 Y98.9397
G01 X55.6813 Y99.4576
G01 X55.4119 Y99.9907
G01 X55.1715 Y100.5374
G01 X54.9606 Y101.0962
G01 X54.7799 Y101.6654
G01 X54.6299 Y102.2436
G01 X54.5110 Y102.8289
G01 X54.4236 Y103.4197
G01 X54.3679 Y104.0143
G01 X54.3441 Y104.6111
G01 X54.3380 Y104.8709
G01 X54.3365 Y105.1313
G01 X54.3732 Y105.9606
G01 X54.4410 Y106.7879
G01 X54.5396 Y107.6120
G01 X54.6690 Y108.4319
G01 X54.8291 Y109.2464
G01 X55.0194 Y110.0544
G01 X55.2399 Y110.8546
G01 X55.4902 Y111.6461
G01 X55.7987 Y112.5482
G01 X56.1250 Y113.4441
G01 X56.4690 Y114.3334
G01 X56.8305 Y115.2156
G01 X57.2094 Y116.0906
G01 X57.6056 Y116.9579
G01 X58.0188 Y117.8171
G01 X58.4490 Y118.6680
G01 X58.6277 Y118.5782
M107
G00 Z2.0000


;No. 10: Hole 12
G00 X86.2853 Y40.4217 Z2.0000
G00 Z0.5000
G01 Z-1.8000 F400
M106 S200
G01 X95.5691 F800
G01 Y41.9217
G01 X97.9370
G01 X84.4001
G01 X83.3424 Y43.4217
G01 X99.6221
G01 X100.9581 Y44.9217
G01 X82.7404
G01 X82.4847 Y46.4217
G01 X102.0912
G01 X103.0869 Y47.9217
G01 X82.4925
G01 X82.7619 Y49.4217
G01 X103.9800
G01 X92.5918
G01 Y50.9217
G01 X83.3661
G01 X84.4158 Y52.4217
G01 X90.5898
G01 X89.9525 Y53.9217
G01 X86.3081
M107
G00 Z2.0000
G00 X95.5775 Y49.4217
G00 Z0.5000
G01 Z-1.8000 F400
M106 S200
G01 Y50.9217 F800
G01 X104.7832
G01 X105.5205 Y52.4217
G01 X98.4696
G01 X100.0171 Y53.9217
G01 X106.2028
G01 X106.8393 Y55.4217
G01 X101.1769
G01 X102.1290 Y56.9217
G01 X107.4353
G01 X107.9969 Y58.4217
G01 X102.9516
G01 X103.6738 Y59.9217
G01 X108.5279
G01 X109.0317 Y61.4217
G01 X104.3395
G01 X104.9608 Y62.9217
G01 X109.5027
G01 X105.5456
G01 Y64.4217
G01 X114.3102
G01 X115.0753 Y62.9217
G01 X112.1573
G01 X113.0129 Y61.4217
G01 X115.7513
G01 X116.3627 Y59.9217
G01 X113.7579
G01 X114.4122 Y58.4217
G01 X120.8242
G01 X120.0345 Y56.9217
G01 X114.9857
G01 X115.4912 Y55.4217
G01 X119.3218
G01 X118.6268 Y53.9217
G01 X115.9546
M107
G00 Z2.0000
G00 X119.0416 Y58.4217
G00 Z0.5000
G01 Z-1.8000 F400
M106 S200
G01 Y59.9217 F800
G01 X121.7325
G01 X119.8347
G01 Y61.4217
G01 X133.4802
G01 X133.9055 Y59.9217
G01 X124.1161
G01 X124.5357 Y58.4217
G01 X134.3308
G01 X134.7561 Y56.9217
G01 X124.9548
G01 X125.3738 Y55.4217
G01 X135.1814
G01 X135.6066 Y53.9217
G01 X125.7928
G01 X126.2118 Y52.4217
G01 X136.0319
G01 X136.4860 Y50.9217
G01 X126.6309
G01 X127.0499 Y49.4217
G01 X137.0041
G01 X137.6162 Y47.9217
G01 X127.4398
G01 X127.5975 Y46.4217
G01 X138.4160
G01 X139.5633 Y44.9217
G01 X127.3749
G01 X126.3718 Y43.4217
G01 X141.3926
G01 Y41.9217
G01 X143.8168
G01 X123.9954
M107
G00 Z2.0000
G00 X120.6933 Y61.4217
G00 Z0.5000
G01 Z-1.8000 F400
M106 S200
G01 Y62.9217 F800
G01 X133.0549
G01 X132.6297 Y64.4217
G01 X121.6585
G01 X122.3430 Y65.9217
G01 X132.2044
G01 X131.7791 Y67.4217
G01 X121.9362
G01 X121.5150 Y68.9217
G01 X131.3538
G01 X130.9285 Y70.4217
G01 X121.0937
G01 X120.6724 Y71.9217
G01 X130.5032
G01 X130.0780 Y73.4217
G01 X120.2512
G01 X119.8299 Y74.9217
G01 X129.6527
G01 X129.2274 Y76.4217
G01 X119.4087
G01 X118.9874 Y77.9217
G01 X128.8021
G01 X128.3768 Y79.4217
G01 X118.5662
G01 X118.1449 Y80.9217
G01 X127.9516
G01 X127.5263 Y82.4217
G01 X117.7236
G01 Y83.9217
G01 X111.7979
G01 X127.1030
G01 X115.1607
G01 Y82.4217
G01 X111.3984
G01 X110.9791 Y80.9217
G01 X114.7631
G01 X114.3493 Y79.4217
G01 X110.5463
G01 X110.1043 Y77.9217
G01 X113.9355
G01 X113.5135 Y76.4217
G01 X109.6557
G01 X109.2011 Y74.9217
G01 X113.0900
G01 X112.6764 Y73.4217
G01 X108.7091
G01 X112.2815
G01 Y71.9217
G01 X95.1132
G01 X94.2784 Y70.4217
G01 X111.8814
G01 X111.5404 Y68.9217
G01 X106.0237
G01 X106.6289 Y67.4217
G01 X112.4139
G01 X113.4208 Y65.9217
G01 X106.1000
M107
G00 Z2.0000
G00 X99.7211 Y70.4217
G00 Z0.5000
G01 Z-1.8000 F400
M106 S200
G01 Y68.9217 F800
G01 X93.9186
G01 X93.9198 Y67.4217
G01 X98.5706
G01 X98.3112 Y65.9217
G01 X94.3488
G01 X95.4855 Y64.4217
G01 X98.6320
M107
G00 Z2.0000
G00 X96.6133 Y71.9217
G00 Z0.5000
G01 Z-1.8000 F400
M106 S200
G01 Y73.4217 F800
G01 X106.0895
M107
G00 Z2.0000
G00 X112.1350 Y83.9217
G00 Z0.5000
G01 Z-1.8000 F400
M106 S200
G01 Y85.4217 F800
G01 X126.7288
G01 X126.4387 Y86.9217
G01 X112.3426
G01 X112.3807 Y88.4217
G01 X126.3025
G01 X126.4443 Y89.9217
G01 X112.1864
G01 X111.6547 Y91.4217
G01 X126.9474
G01 X127.9599 Y92.9217
G01 X110.5999
G01 X108.9966 Y94.4217
G01 X129.4824
G01 X112.6841
G01 Y95.9217
G01 X107.5351
M107
G00 Z2.0000
G00 X125.7965 Y94.4217
G00 Z0.5000
G01 Z-1.8000 F400
M106 S200
G01 Y95.9217 F800
G01 X130.8937
M107
G00 Z2.0000
G00 X117.1522 Y83.9217
G00 Z0.5000
G01 Z-1.8000 F400
M106 S200
G01 Y83.2639 F800
G01 X117.0884 Y83.3237
G01 X117.0196 Y83.3778
G01 X116.9464 Y83.4256
G01 X116.8692 Y83.4668
G01 X116.7888 Y83.5011
G01 X116.7056 Y83.5283
G01 X116.6204 Y83.5481
G01 X116.5338 Y83.5604
G01 X116.4465 Y83.5650
G01 X116.3590 Y83.5620
G01 X116.2722 Y83.5514
G01 X116.1867 Y83.5332
G01 X116.1030 Y83.5077
G01 X116.0219 Y83.4749
G01 X115.9440 Y83.4351
G01 X115.8698 Y83.3887
G01 X115.8000 Y83.3360
G01 X115.7351 Y83.2774
G01 X115.6755 Y83.2133
G01 X115.6218 Y83.1443
G01 X115.5743 Y83.0709
G01 X115.5334 Y82.9935
G01 X115.4994 Y82.9129
G01 X115.4726 Y82.8297
G01 X114.8733 Y80.5894
G01 X114.2624 Y78.3523
G01 X113.6400 Y76.1184
G01 X113.0059 Y73.8878
G01 X112.4670 Y71.8410
G01 X112.1077 Y70.4922
G01 X112.0205 Y70.1683
G01 X111.9315 Y69.8449
G01 X111.8407 Y69.5220
G01 X111.7482 Y69.1996
G01 X111.7363 Y69.1003
G01 X111.7344 Y69.0004
G01 X111.7372 Y68.9505
G01 X111.7425 Y68.9007
G01 X111.7503 Y68.8513
G01 X111.7605 Y68.8024
G01 X111.7731 Y68.7540
G01 X111.7882 Y68.7064
G01 X111.8056 Y68.6595
G01 X111.8254 Y68.6136
G01 X111.8474 Y68.5687
G01 X111.8716 Y68.5250
G01 X111.8980 Y68.4825
G01 X111.9265 Y68.4414
G01 X112.4593 Y67.7256
G01 X112.9710 Y66.9946
G01 X113.4611 Y66.2489
G01 X113.9292 Y65.4892
G01 X114.3749 Y64.7161
G01 X114.7979 Y63.9304
G01 X115.1976 Y63.1326
G01 X115.5739 Y62.3234
G01 X115.8885 Y61.6048
G01 X116.1933 Y60.8819
G01 X116.4882 Y60.1550
G01 X116.7732 Y59.4242
G01 X116.8179 Y59.3441
G01 X116.8697 Y59.2686
G01 X116.9282 Y59.1980
G01 X116.9929 Y59.1331
G01 X117.0632 Y59.0744
G01 X117.1387 Y59.0224
G01 X117.2186 Y58.9775
G01 X117.3022 Y58.9402
G01 X117.3890 Y58.9106
G01 X117.4780 Y58.8891
G01 X117.5687 Y58.8758
G01 X117.6602 Y58.8709
G01 X117.7518 Y58.8744
G01 X117.8426 Y58.8863
G01 X117.9320 Y58.9064
G01 X118.0192 Y58.9347
G01 X118.1035 Y58.9707
G01 X118.1840 Y59.0144
G01 X118.2603 Y59.0652
G01 X118.3315 Y59.1228
G01 X118.3972 Y59.1867
G01 X118.4568 Y59.2564
G01 X118.5097 Y59.3312
G01 X118.5556 Y59.4105
G01 X118.8890 Y60.0888
G01 X119.2350 Y60.7607
G01 X119.5936 Y61.4261
G01 X119.9647 Y62.0846
G01 X120.3480 Y62.7360
G01 X120.7435 Y63.3800
G01 X121.1510 Y64.0166
G01 X121.5704 Y64.6454
G01 X121.7363 Y64.8770
G01 X121.9518 Y65.1664
G01 X121.9966 Y65.2308
G01 X122.0361 Y65.2984
G01 X122.0703 Y65.3690
G01 X122.0988 Y65.4420
G01 X122.1215 Y65.5170
G01 X122.1383 Y65.5935
G01 X122.1491 Y65.6712
G01 X122.1537 Y65.7494
G01 X122.1522 Y65.8278
G01 X122.1446 Y65.9058
G01 X122.1309 Y65.9829
G01 X122.1113 Y66.0588
G01 X117.3997 Y82.8354
G01 X117.3809 Y82.8951
G01 X117.3585 Y82.9534
G01 X117.3324 Y83.0102
G01 X117.3029 Y83.0652
G01 X117.2700 Y83.1183
G01 X117.2338 Y83.1693
G01 X117.1945 Y83.2179
G01 X117.1522 Y83.2639
G01 Y83.9217
M107
G00 Z2.0000
G00 X112.1350 Y85.4217
G00 Z0.5000
G01 Z-1.8000 F400
M106 S200
G01 X111.8550 Y85.0352 F800
G01 X111.8735 Y85.1228
G01 X111.9873 Y85.6658
G01 X112.0756 Y86.2135
G01 X112.1382 Y86.7647
G01 X112.1749 Y87.3183
G01 X112.1856 Y87.8730
G01 X112.1704 Y88.4275
G01 X112.1291 Y88.9808
G01 X112.0621 Y89.5315
G01 X111.9678 Y89.9958
G01 X111.8386 Y90.4516
G01 X111.6750 Y90.8963
G01 X111.4782 Y91.3273
G01 X111.2491 Y91.7420
G01 X110.9892 Y92.1381
G01 X110.6999 Y92.5133
G01 X110.3829 Y92.8655
G01 X109.9161 Y93.3446
G01 X109.4279 Y93.8020
G01 X108.9194 Y94.2366
G01 X108.3915 Y94.6475
G01 X108.1888 Y94.8227
G01 X107.9468 Y95.0357
G01 X107.7278 Y95.2723
G01 X107.5340 Y95.5300
G01 X107.3674 Y95.8060
G01 X107.3519 Y95.8374
G01 X107.3384 Y95.8697
G01 X107.3267 Y95.9027
G01 X107.3170 Y95.9363
G01 X107.3093 Y95.9705
G01 X107.3036 Y96.0050
G01 X107.2999 Y96.0398
G01 X107.2983 Y96.0748
G01 X107.3002 Y96.1433
G01 X107.3055 Y96.2116
G01 X107.3141 Y96.2796
G01 X107.3260 Y96.3471
G01 X107.3607 Y96.4496
G01 X107.4048 Y96.5484
G01 X107.4578 Y96.6426
G01 X107.5194 Y96.7316
G01 X107.5890 Y96.8144
G01 X107.6659 Y96.8904
G01 X107.7496 Y96.9590
G01 X107.8393 Y97.0194
G01 X107.9342 Y97.0713
G01 X108.0335 Y97.1142
G01 X108.1364 Y97.1476
G01 X108.2419 Y97.1714
G01 X108.4866 Y97.1967
G01 X108.7325 Y97.2069
G01 X108.9785 Y97.2021
G01 X109.2237 Y97.1822
G01 X109.4673 Y97.1473
G01 X109.7082 Y97.0976
G01 X109.9457 Y97.0332
G01 X110.1788 Y96.9544
G01 X113.0555 Y96.0103
G01 X113.7107 Y95.8019
G01 X114.3728 Y95.6166
G01 X115.0410 Y95.4545
G01 X115.7144 Y95.3160
G01 X116.3923 Y95.2011
G01 X117.0738 Y95.1101
G01 X117.7581 Y95.0429
G01 X118.4443 Y94.9998
G01 X119.1316 Y94.9808
G01 X119.8192 Y94.9858
G01 X120.5061 Y95.0149
G01 X121.1916 Y95.0680
G01 X121.8586 Y95.1630
G01 X122.5226 Y95.2765
G01 X123.1832 Y95.4086
G01 X123.8398 Y95.5592
G01 X124.4920 Y95.7280
G01 X125.1392 Y95.9151
G01 X125.7809 Y96.1202
G01 X126.4166 Y96.3432
G01 X127.1807 Y96.5961
G01 X127.9540 Y96.8194
G01 X128.7353 Y97.0128
G01 X129.5235 Y97.1760
G01 X129.6398 Y97.2003
G01 X129.7574 Y97.2166
G01 X129.8759 Y97.2247
G01 X129.9947 Y97.2246
G01 X130.1132 Y97.2164
G01 X130.2308 Y97.2000
G01 X130.3470 Y97.1756
G01 X130.4613 Y97.1432
G01 X130.5731 Y97.1030
G01 X130.6818 Y97.0552
G01 X130.7870 Y97.0001
G01 X130.8882 Y96.9379
G01 X130.9507 Y96.8668
G01 X131.0064 Y96.7903
G01 X131.0546 Y96.7088
G01 X131.0950 Y96.6232
G01 X131.1271 Y96.5342
G01 X131.1508 Y96.4425
G01 X131.1657 Y96.3490
G01 X131.1718 Y96.2546
G01 X131.1690 Y96.1600
G01 X131.1573 Y96.0660
G01 X131.1369 Y95.9736
G01 X131.1079 Y95.8835
G01 X131.0705 Y95.7965
G01 X131.0252 Y95.7134
G01 X130.9722 Y95.6350
G01 X130.9121 Y95.5618
G01 X130.6314 Y95.2140
G01 X130.3266 Y94.8872
G01 X129.9991 Y94.5830
G01 X129.6508 Y94.3029
G01 X129.3222 Y94.0288
G01 X129.0048 Y93.7416
G01 X128.6992 Y93.4420
G01 X128.4058 Y93.1304
G01 X128.1252 Y92.8072
G01 X127.8578 Y92.4731
G01 X127.6039 Y92.1285
G01 X127.3641 Y91.7741
G01 X127.1717 Y91.4180
G01 X127.0024 Y91.0503
G01 X126.8570 Y90.6725
G01 X126.7361 Y90.2862
G01 X126.6401 Y89.8930
G01 X126.5695 Y89.4944
G01 X126.5244 Y89.0922
G01 X126.5053 Y88.6879
G01 X126.5020 Y88.4623
G01 X126.5332 Y87.9607
G01 X126.5790 Y87.4604
G01 X126.6392 Y86.9615
G01 X126.7140 Y86.4646
G01 X126.8031 Y85.9701
G01 X126.9065 Y85.4784
G01 X127.0242 Y84.9899
G01 X127.1560 Y84.5050
G01 X127.2391 Y84.1859
G01 X127.3334 Y83.8352
G01 X136.2854 Y52.2610
G01 X136.4648 Y51.6314
G01 X136.6583 Y51.0059
G01 X136.8658 Y50.3849
G01 X137.0871 Y49.7688
G01 X137.3222 Y49.1577
G01 X137.5709 Y48.5521
G01 X137.8331 Y47.9522
G01 X138.1087 Y47.3583
G01 X138.3252 Y46.9464
G01 X138.5617 Y46.5455
G01 X138.8177 Y46.1568
G01 X139.0925 Y45.7812
G01 X139.3855 Y45.4196
G01 X139.6959 Y45.0728
G01 X140.0230 Y44.7417
G01 X140.3660 Y44.4272
G01 X140.7241 Y44.1299
G01 X141.0964 Y43.8506
G01 X141.4820 Y43.5900
G01 X141.8799 Y43.3486
G01 X142.3241 Y43.0997
G01 X142.7665 Y42.8476
G01 X143.2072 Y42.5925
G01 X143.6460 Y42.3344
G01 X143.7295 Y42.2846
G01 X143.8077 Y42.2270
G01 X143.8800 Y42.1621
G01 X143.9456 Y42.0905
G01 X144.0040 Y42.0129
G01 X144.0546 Y41.9299
G01 X144.0969 Y41.8425
G01 X144.1305 Y41.7513
G01 X144.1376 Y41.7133
G01 X144.1426 Y41.6748
G01 X144.1452 Y41.6362
G01 X144.1456 Y41.5974
G01 X144.1438 Y41.5588
G01 X144.1397 Y41.5202
G01 X144.1333 Y41.4820
G01 X144.1248 Y41.4442
G01 X144.1141 Y41.4070
G01 X144.1012 Y41.3705
G01 X144.0862 Y41.3347
G01 X144.0691 Y41.3000
G01 X144.0501 Y41.2662
G01 X144.0291 Y41.2336
G01 X144.0063 Y41.2023
G01 X143.9817 Y41.1724
G01 X143.9554 Y41.1440
G01 X143.9274 Y41.1172
G01 X143.8980 Y41.0920
G01 X143.8671 Y41.0686
G01 X143.7478 Y41.0080
G01 X143.6248 Y40.9552
G01 X143.4987 Y40.9103
G01 X143.3700 Y40.8735
G01 X143.2393 Y40.8449
G01 X143.1070 Y40.8248
G01 X142.9736 Y40.8130
G01 X142.8398 Y40.8098
G01 X141.9337 Y40.7598
G01 X125.0364 Y40.7605
G01 X124.8847 Y40.7550
G01 X124.7330 Y40.7588
G01 X124.5819 Y40.7719
G01 X124.4318 Y40.7942
G01 X124.2833 Y40.8256
G01 X124.1371 Y40.8660
G01 X123.9936 Y40.9154
G01 X123.8533 Y40.9734
G01 X123.8329 Y40.9896
G01 X123.8138 Y41.0075
G01 X123.7961 Y41.0267
G01 X123.7800 Y41.0472
G01 X123.7654 Y41.0689
G01 X123.7526 Y41.0917
G01 X123.7416 Y41.1154
G01 X123.7324 Y41.1398
G01 X123.7251 Y41.1649
G01 X123.7198 Y41.1905
G01 X123.7164 Y41.2164
G01 X123.7151 Y41.2425
G01 X123.7089 Y41.2862
G01 X123.7040 Y41.3301
G01 X123.7005 Y41.3741
G01 X123.6984 Y41.4181
G01 X123.6971 Y41.4775
G01 X123.6983 Y41.5417
G01 X123.7002 Y41.5994
G01 X123.7052 Y41.6568
G01 X123.7135 Y41.7139
G01 X123.7249 Y41.7704
G01 X123.7394 Y41.8262
G01 X123.7570 Y41.8812
G01 X123.7777 Y41.9350
G01 X123.8013 Y41.9876
G01 X123.8489 Y42.0441
G01 X123.9000 Y42.0975
G01 X123.9543 Y42.1476
G01 X124.0117 Y42.1942
G01 X124.0719 Y42.2371
G01 X124.1347 Y42.2761
G01 X124.1998 Y42.3110
G01 X124.2669 Y42.3418
G01 X124.5911 Y42.5047
G01 X124.9119 Y42.6741
G01 X125.2291 Y42.8501
G01 X125.5427 Y43.0326
G01 X125.8035 Y43.1976
G01 X126.0496 Y43.3837
G01 X126.2795 Y43.5897
G01 X126.4914 Y43.8140
G01 X126.6839 Y44.0552
G01 X126.8557 Y44.3115
G01 X127.0056 Y44.5813
G01 X127.1326 Y44.8626
G01 X127.2357 Y45.1535
G01 X127.3143 Y45.4519
G01 X127.3677 Y45.7559
G01 X127.3957 Y46.0632
