;Project HeimathafenEO21
;Created by Estlcam version 11 build 11,236
;Machining time about 00:15:02 hours

G90
M03 S18000
G00 X0.0000 Y0.0000 Z0.0000
G00 Z2.0000


;No. 1: Helical drill 4
G00 X27.8981 Y22.9980
G00 Z0.5000
M106 S240
G01 X27.8971 Y22.9552 Z0.4877 F400 S18000
G01 X27.8940 Y22.9124 Z0.4754
G01 X27.8889 Y22.8699 Z0.4631
G01 X27.8818 Y22.8277 Z0.4508
G01 X27.8727 Y22.7858 Z0.4384
G01 X27.8616 Y22.7444 Z0.4261
G01 X27.8486 Y22.7036 Z0.4138
G01 X27.8336 Y22.6635 Z0.4015
G01 X27.8168 Y22.6241 Z0.3892
G01 X27.7980 Y22.5856 Z0.3769
G01 X27.7775 Y22.5480 Z0.3646
G01 X27.7552 Y22.5114 Z0.3523
G01 X27.7312 Y22.4759 Z0.3400
G01 X27.7055 Y22.4416 Z0.3277
G01 X27.6783 Y22.4086 Z0.3153
G01 X27.6495 Y22.3769 Z0.3030
G01 X27.6192 Y22.3466 Z0.2907
G01 X27.5875 Y22.3178 Z0.2784
G01 X27.5544 Y22.2905 Z0.2661
G01 X27.5201 Y22.2649 Z0.2538
G01 X27.4847 Y22.2409 Z0.2415
G01 X27.4481 Y22.2186 Z0.2292
G01 X27.4105 Y22.1980 Z0.2169
G01 X27.3720 Y22.1793 Z0.2045
G01 X27.3326 Y22.1625 Z0.1922
G01 X27.2925 Y22.1475 Z0.1799
G01 X27.2517 Y22.1344 Z0.1676
G01 X27.2103 Y22.1234 Z0.1553
G01 X27.1684 Y22.1143 Z0.1430
G01 X27.1262 Y22.1072 Z0.1307
G01 X27.0836 Y22.1021 Z0.1184
G01 X27.0409 Y22.0990 Z0.1061
G01 X26.9981 Y22.0980 Z0.0938
G01 X26.9553 Y22.0990 Z0.0814
G01 X26.9125 Y22.1021 Z0.0691
G01 X26.8700 Y22.1072 Z0.0568
G01 X26.8278 Y22.1143 Z0.0445
G01 X26.7859 Y22.1234 Z0.0322
G01 X26.7445 Y22.1344 Z0.0199
G01 X26.7037 Y22.1475 Z0.0076
G01 X26.6636 Y22.1625 Z-0.0047
G01 X26.6242 Y22.1793 Z-0.0170
G01 X26.5857 Y22.1980 Z-0.0294
G01 X26.5481 Y22.2186 Z-0.0417
G01 X26.5115 Y22.2409 Z-0.0540
G01 X26.4760 Y22.2649 Z-0.0663
G01 X26.4418 Y22.2905 Z-0.0786
G01 X26.4087 Y22.3178 Z-0.0909
G01 X26.3770 Y22.3466 Z-0.1032
G01 X26.3467 Y22.3769 Z-0.1155
G01 X26.3179 Y22.4086 Z-0.1278
G01 X26.2906 Y22.4416 Z-0.1402
G01 X26.2650 Y22.4759 Z-0.1525
G01 X26.2410 Y22.5114 Z-0.1648
G01 X26.2187 Y22.5480 Z-0.1771
G01 X26.1981 Y22.5856 Z-0.1894
G01 X26.1794 Y22.6241 Z-0.2017
G01 X26.1626 Y22.6635 Z-0.2140
G01 X26.1476 Y22.7036 Z-0.2263
G01 X26.1346 Y22.7444 Z-0.2386
G01 X26.1235 Y22.7858 Z-0.2509
G01 X26.1144 Y22.8277 Z-0.2633
G01 X26.1073 Y22.8699 Z-0.2756
G01 X26.1022 Y22.9124 Z-0.2879
G01 X26.0991 Y22.9552 Z-0.3002
G01 X26.0981 Y22.9980 Z-0.3125
G01 X26.0991 Y23.0408 Z-0.3248
G01 X26.1022 Y23.0835 Z-0.3371
G01 X26.1073 Y23.1261 Z-0.3494
G01 X26.1144 Y23.1683 Z-0.3617
G01 X26.1235 Y23.2102 Z-0.3741
G01 X26.1346 Y23.2516 Z-0.3864
G01 X26.1476 Y23.2924 Z-0.3987
G01 X26.1626 Y23.3325 Z-0.4110
G01 X26.1794 Y23.3719 Z-0.4233
G01 X26.1981 Y23.4104 Z-0.4356
G01 X26.2187 Y23.4480 Z-0.4479
G01 X26.2410 Y23.4846 Z-0.4602
G01 X26.2650 Y23.5200 Z-0.4725
G01 X26.2906 Y23.5543 Z-0.4848
G01 X26.3179 Y23.5874 Z-0.4972
G01 X26.3467 Y23.6191 Z-0.5095
G01 X26.3770 Y23.6494 Z-0.5218
G01 X26.4087 Y23.6782 Z-0.5341
G01 X26.4418 Y23.7054 Z-0.5464
G01 X26.4760 Y23.7311 Z-0.5587
G01 X26.5115 Y23.7551 Z-0.5710
G01 X26.5481 Y23.7774 Z-0.5833
G01 X26.5857 Y23.7979 Z-0.5956
G01 X26.6242 Y23.8167 Z-0.6080
G01 X26.6636 Y23.8335 Z-0.6203
G01 X26.7037 Y23.8485 Z-0.6326
G01 X26.7445 Y23.8615 Z-0.6449
G01 X26.7859 Y23.8726 Z-0.6572
G01 X26.8278 Y23.8817 Z-0.6695
G01 X26.8700 Y23.8888 Z-0.6818
G01 X26.9125 Y23.8939 Z-0.6941
G01 X26.9553 Y23.8970 Z-0.7064
G01 X26.9981 Y23.8980 Z-0.7188
G01 X27.0409 Y23.8970 Z-0.7311
G01 X27.0836 Y23.8939 Z-0.7434
G01 X27.1262 Y23.8888 Z-0.7557
G01 X27.1684 Y23.8817 Z-0.7680
G01 X27.2103 Y23.8726 Z-0.7803
G01 X27.2517 Y23.8615 Z-0.7926
G01 X27.2925 Y23.8485 Z-0.8049
G01 X27.3326 Y23.8335 Z-0.8172
G01 X27.3720 Y23.8167 Z-0.8295
G01 X27.4105 Y23.7979 Z-0.8419
G01 X27.4481 Y23.7774 Z-0.8542
G01 X27.4847 Y23.7551 Z-0.8665
G01 X27.5201 Y23.7311 Z-0.8788
G01 X27.5544 Y23.7054 Z-0.8911
G01 X27.5875 Y23.6782 Z-0.9034
G01 X27.6192 Y23.6494 Z-0.9157
G01 X27.6495 Y23.6191 Z-0.9280
G01 X27.6783 Y23.5874 Z-0.9403
G01 X27.7055 Y23.5543 Z-0.9527
G01 X27.7312 Y23.5200 Z-0.9650
G01 X27.7552 Y23.4846 Z-0.9773
G01 X27.7775 Y23.4480 Z-0.9896
G01 X27.7980 Y23.4104 Z-1.0019
G01 X27.8168 Y23.3719 Z-1.0142
G01 X27.8336 Y23.3325 Z-1.0265
G01 X27.8486 Y23.2924 Z-1.0388
G01 X27.8616 Y23.2516 Z-1.0511
G01 X27.8727 Y23.2102 Z-1.0634
G01 X27.8818 Y23.1683 Z-1.0758
G01 X27.8889 Y23.1261 Z-1.0881
G01 X27.8940 Y23.0835 Z-1.1004
G01 X27.8971 Y23.0408 Z-1.1127
G01 X27.8981 Y22.9980 Z-1.1250
G01 X27.8971 Y22.9552
G01 X27.8940 Y22.9124
G01 X27.8889 Y22.8699
G01 X27.8818 Y22.8277
G01 X27.8727 Y22.7858
G01 X27.8616 Y22.7444
G01 X27.8486 Y22.7036
G01 X27.8336 Y22.6635
G01 X27.8168 Y22.6241
G01 X27.7980 Y22.5856
G01 X27.7775 Y22.5480
G01 X27.7552 Y22.5114
G01 X27.7312 Y22.4759
G01 X27.7055 Y22.4416
G01 X27.6783 Y22.4086
G01 X27.6495 Y22.3769
G01 X27.6192 Y22.3466
G01 X27.5875 Y22.3178
G01 X27.5544 Y22.2905
G01 X27.5201 Y22.2649
G01 X27.4847 Y22.2409
G01 X27.4481 Y22.2186
G01 X27.4105 Y22.1980
G01 X27.3720 Y22.1793
G01 X27.3326 Y22.1625
G01 X27.2925 Y22.1475
G01 X27.2517 Y22.1344
G01 X27.2103 Y22.1234
G01 X27.1684 Y22.1143
G01 X27.1262 Y22.1072
G01 X27.0836 Y22.1021
G01 X27.0409 Y22.0990
G01 X26.9981 Y22.0980
G01 X26.9553 Y22.0990
G01 X26.9125 Y22.1021
G01 X26.8700 Y22.1072
G01 X26.8278 Y22.1143
G01 X26.7859 Y22.1234
G01 X26.7445 Y22.1344
G01 X26.7037 Y22.1475
G01 X26.6636 Y22.1625
G01 X26.6242 Y22.1793
G01 X26.5857 Y22.1980
G01 X26.5481 Y22.2186
G01 X26.5115 Y22.2409
G01 X26.4760 Y22.2649
G01 X26.4418 Y22.2905
G01 X26.4087 Y22.3178
G01 X26.3770 Y22.3466
G01 X26.3467 Y22.3769
G01 X26.3179 Y22.4086
G01 X26.2906 Y22.4416
G01 X26.2650 Y22.4759
G01 X26.2410 Y22.5114
G01 X26.2187 Y22.5480
G01 X26.1981 Y22.5856
G01 X26.1794 Y22.6241
G01 X26.1626 Y22.6635
G01 X26.1476 Y22.7036
G01 X26.1346 Y22.7444
G01 X26.1235 Y22.7858
G01 X26.1144 Y22.8277
G01 X26.1073 Y22.8699
G01 X26.1022 Y22.9124
G01 X26.0991 Y22.9552
G01 X26.0981 Y22.9980
G01 X26.0991 Y23.0408
G01 X26.1022 Y23.0835
G01 X26.1073 Y23.1261
G01 X26.1144 Y23.1683
G01 X26.1235 Y23.2102
G01 X26.1346 Y23.2516
G01 X26.1476 Y23.2924
G01 X26.1626 Y23.3325
G01 X26.1794 Y23.3719
G01 X26.1981 Y23.4104
G01 X26.2187 Y23.4480
G01 X26.2410 Y23.4846
G01 X26.2650 Y23.5200
G01 X26.2906 Y23.5543
G01 X26.3179 Y23.5874
G01 X26.3467 Y23.6191
G01 X26.3770 Y23.6494
G01 X26.4087 Y23.6782
G01 X26.4418 Y23.7054
G01 X26.4760 Y23.7311
G01 X26.5115 Y23.7551
G01 X26.5481 Y23.7774
G01 X26.5857 Y23.7979
G01 X26.6242 Y23.8167
G01 X26.6636 Y23.8335
G01 X26.7037 Y23.8485
G01 X26.7445 Y23.8615
G01 X26.7859 Y23.8726
G01 X26.8278 Y23.8817
G01 X26.8700 Y23.8888
G01 X26.9125 Y23.8939
G01 X26.9553 Y23.8970
G01 X26.9981 Y23.8980
G01 X27.0409 Y23.8970
G01 X27.0836 Y23.8939
G01 X27.1262 Y23.8888
G01 X27.1684 Y23.8817
G01 X27.2103 Y23.8726
G01 X27.2517 Y23.8615
G01 X27.2925 Y23.8485
G01 X27.3326 Y23.8335
G01 X27.3720 Y23.8167
G01 X27.4105 Y23.7979
G01 X27.4481 Y23.7774
G01 X27.4847 Y23.7551
G01 X27.5201 Y23.7311
G01 X27.5544 Y23.7054
G01 X27.5875 Y23.6782
G01 X27.6192 Y23.6494
G01 X27.6495 Y23.6191
G01 X27.6783 Y23.5874
G01 X27.7055 Y23.5543
G01 X27.7312 Y23.5200
G01 X27.7552 Y23.4846
G01 X27.7775 Y23.4480
G01 X27.7980 Y23.4104
G01 X27.8168 Y23.3719
G01 X27.8336 Y23.3325
G01 X27.8486 Y23.2924
G01 X27.8616 Y23.2516
G01 X27.8727 Y23.2102
G01 X27.8818 Y23.1683
G01 X27.8889 Y23.1261
G01 X27.8940 Y23.0835
G01 X27.8971 Y23.0408
G01 X27.8981 Y22.9980
G01 X27.9056 Y22.9669 F1000
G01 X27.9121 Y22.9356
G01 X27.9175 Y22.9041
G01 X27.9217 Y22.8725
G01 X27.9249 Y22.8407
G01 X27.9270 Y22.8088
G01 X27.9280 Y22.7769
G01 X27.9278 Y22.7449
G01 X27.9266 Y22.7130
G01 X27.9242 Y22.6811
G01 X27.9208 Y22.6493
G01 X27.9162 Y22.6177
G01 X27.9065 Y22.5662
G01 X27.8942 Y22.5153
G01 X27.8792 Y22.4650
G01 X27.8617 Y22.4156
G01 X27.8417 Y22.3672
G01 X27.8192 Y22.3199
G01 X27.7943 Y22.2738
G01 X27.7671 Y22.2290
G01 X27.7350 Y22.1820
G01 X27.7007 Y22.1367
G01 X27.6640 Y22.0931
G01 X27.6252 Y22.0516
G01 X27.5842 Y22.0120
G01 X27.5414 Y21.9746
G01 X27.4966 Y21.9395
G01 X27.4501 Y21.9067
G01 X27.3982 Y21.8738
G01 X27.3447 Y21.8437
G01 X27.2898 Y21.8163
G01 X27.2335 Y21.7918
G01 X27.1760 Y21.7701
G01 X27.1175 Y21.7514
G01 X27.0582 Y21.7357
G01 X26.9981 Y21.7230
G01 X26.9330 Y21.7127
G01 X26.8674 Y21.7056
G01 X26.8016 Y21.7020
G01 X26.7357 Y21.7016
G01 X26.6698 Y21.7046
G01 X26.6042 Y21.7109
G01 X26.5389 Y21.7205
G01 X26.4743 Y21.7334
G01 X26.4060 Y21.7507
G01 X26.3386 Y21.7714
G01 X26.2724 Y21.7954
G01 X26.2075 Y21.8228
G01 X26.1440 Y21.8534
G01 X26.0821 Y21.8872
G01 X26.0221 Y21.9240
G01 X25.9640 Y21.9638
G01 X25.9104 Y22.0133
G01 X25.8594 Y22.0653
G01 X25.8110 Y22.1197
G01 X25.7654 Y22.1765
G01 X25.7226 Y22.2355
G01 X25.6827 Y22.2965
G01 X25.6459 Y22.3594
G01 X25.6123 Y22.4240
G01 X25.5858 Y22.4927
G01 X25.5627 Y22.5626
G01 X25.5431 Y22.6335
G01 X25.5269 Y22.7054
G01 X25.5144 Y22.7779
G01 X25.5053 Y22.8510
G01 X25.4999 Y22.9244
G01 X25.4981 Y22.9980
G01 X25.4999 Y23.0716
G01 X25.5053 Y23.1450
G01 X25.5144 Y23.2181
G01 X25.5269 Y23.2906
G01 X25.5431 Y23.3625
G01 X25.5627 Y23.4334
G01 X25.5858 Y23.5033
G01 X25.6123 Y23.5720
G01 X25.6421 Y23.6393
G01 X25.6752 Y23.7051
G01 X25.7115 Y23.7691
G01 X25.7509 Y23.8313
G01 X25.7933 Y23.8915
G01 X25.8386 Y23.9496
G01 X25.8867 Y24.0053
G01 X25.9375 Y24.0586
G01 X25.9908 Y24.1094
G01 X26.0465 Y24.1575
G01 X26.1046 Y24.2028
G01 X26.1648 Y24.2452
G01 X26.2270 Y24.2846
G01 X26.2910 Y24.3208
G01 X26.3568 Y24.3540
G01 X26.4241 Y24.3838
G01 X26.4928 Y24.4103
G01 X26.5627 Y24.4334
G01 X26.6336 Y24.4530
G01 X26.7055 Y24.4691
G01 X26.7780 Y24.4817
G01 X26.8511 Y24.4907
G01 X26.9245 Y24.4962
G01 X26.9981 Y24.4980
G01 X27.0717 Y24.4962
G01 X27.1451 Y24.4907
G01 X27.2182 Y24.4817
G01 X27.2907 Y24.4691
G01 X27.3626 Y24.4530
G01 X27.4335 Y24.4334
G01 X27.5034 Y24.4103
G01 X27.5721 Y24.3838
G01 X27.6394 Y24.3540
G01 X27.7052 Y24.3208
G01 X27.7692 Y24.2846
G01 X27.8314 Y24.2452
G01 X27.8916 Y24.2028
G01 X27.9497 Y24.1575
G01 X28.0054 Y24.1094
G01 X28.0587 Y24.0586
G01 X28.1095 Y24.0053
G01 X28.1576 Y23.9496
G01 X28.2029 Y23.8915
G01 X28.2453 Y23.8313
G01 X28.2847 Y23.7691
G01 X28.3210 Y23.7051
G01 X28.3541 Y23.6393
G01 X28.3839 Y23.5720
G01 X28.4104 Y23.5033
G01 X28.4335 Y23.4334
G01 X28.4531 Y23.3625
G01 X28.4692 Y23.2906
G01 X28.4818 Y23.2181
G01 X28.4908 Y23.1450
G01 X28.4963 Y23.0716
G01 X28.4981 Y22.9980
G01 X28.4939 Y22.8859
G01 X28.4813 Y22.7744
G01 X28.4605 Y22.6642
G01 X28.4314 Y22.5559
G01 X28.3944 Y22.4500
G01 X28.3495 Y22.3472
G01 X28.2971 Y22.2480
G01 X28.2374 Y22.1530
G01 X28.1708 Y22.0628
G01 X28.0977 Y21.9778
G01 X28.0183 Y21.8984
G01 X27.9333 Y21.8253
G01 X27.8431 Y21.7587
G01 X27.7481 Y21.6990
G01 X27.6489 Y21.6466
G01 X27.5461 Y21.6017
G01 X27.4402 Y21.5647
G01 X27.3319 Y21.5356
G01 X27.2217 Y21.5148
G01 X27.1102 Y21.5022
G01 X26.9981 Y21.4980
G01 X26.8860 Y21.5022
G01 X26.7745 Y21.5148
G01 X26.6643 Y21.5356
G01 X26.5560 Y21.5647
G01 X26.4501 Y21.6017
G01 X26.3473 Y21.6466
G01 X26.2481 Y21.6990
G01 X26.1531 Y21.7587
G01 X26.0629 Y21.8253
G01 X25.9779 Y21.8984
G01 X25.8985 Y21.9778
G01 X25.8254 Y22.0628
G01 X25.7588 Y22.1530
G01 X25.6991 Y22.2480
G01 X25.6467 Y22.3472
G01 X25.6018 Y22.4500
G01 X25.5648 Y22.5559
G01 X25.5357 Y22.6642
G01 X25.5149 Y22.7744
G01 X25.5023 Y22.8859
G01 X25.4981 Y22.9980
G01 X25.5023 Y23.1101
G01 X25.5149 Y23.2216
G01 X25.5357 Y23.3318
G01 X25.5648 Y23.4401
G01 X25.6018 Y23.5460
G01 X25.6467 Y23.6488
G01 X25.6991 Y23.7480
G01 X25.7588 Y23.8430
G01 X25.8254 Y23.9332
G01 X25.8985 Y24.0182
G01 X25.9779 Y24.0975
G01 X26.0629 Y24.1707
G01 X26.1531 Y24.2373
G01 X26.2481 Y24.2970
G01 X26.3473 Y24.3494
G01 X26.4501 Y24.3943
G01 X26.5560 Y24.4313
G01 X26.6643 Y24.4604
G01 X26.7745 Y24.4812
G01 X26.8860 Y24.4938
G01 X26.9981 Y24.4980
G01 X27.1102 Y24.4938
G01 X27.2217 Y24.4812
G01 X27.3319 Y24.4604
G01 X27.4402 Y24.4313
G01 X27.5461 Y24.3943
G01 X27.6489 Y24.3494
G01 X27.7481 Y24.2970
G01 X27.8431 Y24.2373
G01 X27.9333 Y24.1707
G01 X28.0183 Y24.0975
G01 X28.0977 Y24.0182
G01 X28.1708 Y23.9332
G01 X28.2374 Y23.8430
G01 X28.2971 Y23.7480
G01 X28.3495 Y23.6488
G01 X28.3944 Y23.5460
G01 X28.4314 Y23.4401
G01 X28.4605 Y23.3318
G01 X28.4813 Y23.2216
G01 X28.4939 Y23.1101
G01 X28.4981 Y22.9980
G01 X28.4935 Y22.8934
G01 X28.4798 Y22.7896
G01 X28.4572 Y22.6874
G01 X28.4257 Y22.5876
G01 X28.3856 Y22.4909
G01 X28.3373 Y22.3980
G01 X28.2811 Y22.3097
G01 X28.2173 Y22.2267
G01 X28.1466 Y22.1495
G01 X28.0694 Y22.0788
G01 X27.9864 Y22.0150
G01 X27.8981 Y21.9588
G01 X27.8052 Y21.9104
G01 X27.7085 Y21.8704
G01 X27.6087 Y21.8389
G01 X27.5065 Y21.8162
G01 X27.4027 Y21.8026
G01 X27.2981 Y21.7980
G01 X27.1935 Y21.8026
G01 X27.0897 Y21.8162
G01 X26.9875 Y21.8389
G01 X26.8877 Y21.8704
G01 X26.7909 Y21.9104
G01 X26.6981 Y21.9588
G01 X26.6098 Y22.0150
G01 X26.5267 Y22.0788
G01 X26.4496 Y22.1495
G01 X26.3788 Y22.2267
G01 X26.3151 Y22.3097
G01 X26.2589 Y22.3980
G01 X26.2105 Y22.4909
G01 X26.1705 Y22.5876
G01 X26.1390 Y22.6874
G01 X26.1163 Y22.7896
G01 X26.1027 Y22.8934
G01 X26.0981 Y22.9980
G01 X26.0992 Y23.0422
G01 X26.1024 Y23.0862
G01 X26.1078 Y23.1301
G01 X26.1154 Y23.1736
G01 X26.1251 Y23.2167
G01 X26.1368 Y23.2592
G01 X26.1507 Y23.3012
G01 X26.1666 Y23.3424
G01 X26.1845 Y23.3828
G01 X26.2044 Y23.4222
G01 X26.2261 Y23.4607
G01 X26.2498 Y23.4980
G01 X26.2752 Y23.5341
G01 X26.3024 Y23.5689
G01 X26.3312 Y23.6024
G01 X26.3617 Y23.6344
G01 X26.3937 Y23.6648
G01 X26.4271 Y23.6937
G01 X26.4620 Y23.7209
G01 X26.4981 Y23.7463
G01 X26.5354 Y23.7699
G01 X26.5738 Y23.7917
G01 X26.6133 Y23.8116
G01 X26.6537 Y23.8295
G01 X26.6949 Y23.8454
G01 X26.7368 Y23.8592
G01 X26.7794 Y23.8710
G01 X26.8225 Y23.8807
G01 X26.8660 Y23.8883
G01 X26.9099 Y23.8937
G01 X26.9539 Y23.8969
G01 X26.9981 Y23.8980
G01 X27.0423 Y23.8969
G01 X27.0863 Y23.8937
G01 X27.1302 Y23.8883
G01 X27.1737 Y23.8807
G01 X27.2168 Y23.8710
G01 X27.2594 Y23.8592
G01 X27.3013 Y23.8454
G01 X27.3425 Y23.8295
G01 X27.3829 Y23.8116
G01 X27.4224 Y23.7917
G01 X27.4608 Y23.7699
G01 X27.4981 Y23.7463
G01 X27.5342 Y23.7209
G01 X27.5690 Y23.6937
G01 X27.6025 Y23.6648
G01 X27.6345 Y23.6344
G01 X27.6650 Y23.6024
G01 X27.6938 Y23.5689
G01 X27.7210 Y23.5341
G01 X27.7464 Y23.4980
G01 X27.7701 Y23.4607
G01 X27.7918 Y23.4222
G01 X27.8117 Y23.3828
G01 X27.8296 Y23.3424
G01 X27.8455 Y23.3012
G01 X27.8593 Y23.2592
G01 X27.8711 Y23.2167
G01 X27.8808 Y23.1736
G01 X27.8884 Y23.1301
G01 X27.8938 Y23.0862
G01 X27.8970 Y23.0422
G01 X27.8981 Y22.9980
M107
M106 S240
G01 X27.8971 Y22.9552 Z-1.1373 F400
G01 X27.8940 Y22.9124 Z-1.1496
G01 X27.8889 Y22.8699 Z-1.1619
G01 X27.8818 Y22.8277 Z-1.1742
G01 X27.8727 Y22.7858 Z-1.1866
G01 X27.8616 Y22.7444 Z-1.1989
G01 X27.8486 Y22.7036 Z-1.2112
G01 X27.8336 Y22.6635 Z-1.2235
G01 X27.8168 Y22.6241 Z-1.2358
G01 X27.7980 Y22.5856 Z-1.2481
G01 X27.7775 Y22.5480 Z-1.2604
G01 X27.7552 Y22.5114 Z-1.2727
G01 X27.7312 Y22.4759 Z-1.2850
G01 X27.7055 Y22.4416 Z-1.2973
G01 X27.6783 Y22.4086 Z-1.3097
G01 X27.6495 Y22.3769 Z-1.3220
G01 X27.6192 Y22.3466 Z-1.3343
G01 X27.5875 Y22.3178 Z-1.3466
G01 X27.5544 Y22.2905 Z-1.3589
G01 X27.5201 Y22.2649 Z-1.3712
G01 X27.4847 Y22.2409 Z-1.3835
G01 X27.4481 Y22.2186 Z-1.3958
G01 X27.4105 Y22.1980 Z-1.4081
G01 X27.3720 Y22.1793 Z-1.4205
G01 X27.3326 Y22.1625 Z-1.4328
G01 X27.2925 Y22.1475 Z-1.4451
G01 X27.2517 Y22.1344 Z-1.4574
G01 X27.2103 Y22.1234 Z-1.4697
G01 X27.1684 Y22.1143 Z-1.4820
G01 X27.1262 Y22.1072 Z-1.4943
G01 X27.0836 Y22.1021 Z-1.5066
G01 X27.0409 Y22.0990 Z-1.5189
G01 X26.9981 Y22.0980 Z-1.5313
G01 X26.9553 Y22.0990 Z-1.5436
G01 X26.9125 Y22.1021 Z-1.5559
G01 X26.8700 Y22.1072 Z-1.5682
G01 X26.8278 Y22.1143 Z-1.5805
G01 X26.7859 Y22.1234 Z-1.5928
G01 X26.7445 Y22.1344 Z-1.6051
G01 X26.7037 Y22.1475 Z-1.6174
G01 X26.6636 Y22.1625 Z-1.6297
G01 X26.6242 Y22.1793 Z-1.6420
G01 X26.5857 Y22.1980 Z-1.6544
G01 X26.5481 Y22.2186 Z-1.6667
G01 X26.5115 Y22.2409 Z-1.6790
G01 X26.4760 Y22.2649 Z-1.6913
G01 X26.4418 Y22.2905 Z-1.7036
G01 X26.4087 Y22.3178 Z-1.7159
G01 X26.3770 Y22.3466 Z-1.7282
G01 X26.3467 Y22.3769 Z-1.7405
G01 X26.3179 Y22.4086 Z-1.7528
G01 X26.2906 Y22.4416 Z-1.7652
G01 X26.2650 Y22.4759 Z-1.7775
G01 X26.2410 Y22.5114 Z-1.7898
G01 X26.2187 Y22.5480 Z-1.8021
G01 X26.1981 Y22.5856 Z-1.8144
G01 X26.1794 Y22.6241 Z-1.8267
G01 X26.1626 Y22.6635 Z-1.8390
G01 X26.1476 Y22.7036 Z-1.8513
G01 X26.1346 Y22.7444 Z-1.8636
G01 X26.1235 Y22.7858 Z-1.8759
G01 X26.1144 Y22.8277 Z-1.8883
G01 X26.1073 Y22.8699 Z-1.9006
G01 X26.1022 Y22.9124 Z-1.9129
G01 X26.0991 Y22.9552 Z-1.9252
G01 X26.0981 Y22.9980 Z-1.9375
G01 X26.0991 Y23.0408 Z-1.9498
G01 X26.1022 Y23.0835 Z-1.9621
G01 X26.1073 Y23.1261 Z-1.9744
G01 X26.1144 Y23.1683 Z-1.9867
G01 X26.1235 Y23.2102 Z-1.9991
G01 X26.1346 Y23.2516 Z-2.0114
G01 X26.1476 Y23.2924 Z-2.0237
G01 X26.1626 Y23.3325 Z-2.0360
G01 X26.1794 Y23.3719 Z-2.0483
G01 X26.1981 Y23.4104 Z-2.0606
G01 X26.2187 Y23.4480 Z-2.0729
G01 X26.2410 Y23.4846 Z-2.0852
G01 X26.2650 Y23.5200 Z-2.0975
G01 X26.2906 Y23.5543 Z-2.1098
G01 X26.3179 Y23.5874 Z-2.1222
G01 X26.3467 Y23.6191 Z-2.1345
G01 X26.3770 Y23.6494 Z-2.1468
G01 X26.4087 Y23.6782 Z-2.1591
G01 X26.4418 Y23.7054 Z-2.1714
G01 X26.4760 Y23.7311 Z-2.1837
G01 X26.5115 Y23.7551 Z-2.1960
G01 X26.5481 Y23.7774 Z-2.2083
G01 X26.5857 Y23.7979 Z-2.2206
G01 X26.6242 Y23.8167 Z-2.2330
G01 X26.6636 Y23.8335 Z-2.2453
G01 X26.7037 Y23.8485 Z-2.2576
G01 X26.7445 Y23.8615 Z-2.2699
G01 X26.7859 Y23.8726 Z-2.2822
G01 X26.8278 Y23.8817 Z-2.2945
G01 X26.8700 Y23.8888 Z-2.3068
G01 X26.9125 Y23.8939 Z-2.3191
G01 X26.9553 Y23.8970 Z-2.3314
G01 X26.9981 Y23.8980 Z-2.3438
G01 X27.0409 Y23.8970 Z-2.3561
G01 X27.0836 Y23.8939 Z-2.3684
G01 X27.1262 Y23.8888 Z-2.3807
G01 X27.1684 Y23.8817 Z-2.3930
G01 X27.2103 Y23.8726 Z-2.4053
G01 X27.2517 Y23.8615 Z-2.4176
G01 X27.2925 Y23.8485 Z-2.4299
G01 X27.3326 Y23.8335 Z-2.4422
G01 X27.3720 Y23.8167 Z-2.4545
G01 X27.4105 Y23.7979 Z-2.4669
G01 X27.4481 Y23.7774 Z-2.4792
G01 X27.4847 Y23.7551 Z-2.4915
G01 X27.5201 Y23.7311 Z-2.5038
G01 X27.5544 Y23.7054 Z-2.5161
G01 X27.5875 Y23.6782 Z-2.5284
G01 X27.6192 Y23.6494 Z-2.5407
G01 X27.6495 Y23.6191 Z-2.5530
G01 X27.6783 Y23.5874 Z-2.5653
G01 X27.7055 Y23.5543 Z-2.5777
G01 X27.7312 Y23.5200 Z-2.5900
G01 X27.7552 Y23.4846 Z-2.6023
G01 X27.7775 Y23.4480 Z-2.6146
G01 X27.7980 Y23.4104 Z-2.6269
G01 X27.8168 Y23.3719 Z-2.6392
G01 X27.8336 Y23.3325 Z-2.6515
G01 X27.8486 Y23.2924 Z-2.6638
G01 X27.8616 Y23.2516 Z-2.6761
G01 X27.8727 Y23.2102 Z-2.6884
G01 X27.8818 Y23.1683 Z-2.7008
G01 X27.8889 Y23.1261 Z-2.7131
G01 X27.8940 Y23.0835 Z-2.7254
G01 X27.8971 Y23.0408 Z-2.7377
G01 X27.8981 Y22.9980 Z-2.7500
G01 X27.8971 Y22.9552
G01 X27.8940 Y22.9124
G01 X27.8889 Y22.8699
G01 X27.8818 Y22.8277
G01 X27.8727 Y22.7858
G01 X27.8616 Y22.7444
G01 X27.8486 Y22.7036
G01 X27.8336 Y22.6635
G01 X27.8168 Y22.6241
G01 X27.7980 Y22.5856
G01 X27.7775 Y22.5480
G01 X27.7552 Y22.5114
G01 X27.7312 Y22.4759
G01 X27.7055 Y22.4416
G01 X27.6783 Y22.4086
G01 X27.6495 Y22.3769
G01 X27.6192 Y22.3466
G01 X27.5875 Y22.3178
G01 X27.5544 Y22.2905
G01 X27.5201 Y22.2649
G01 X27.4847 Y22.2409
G01 X27.4481 Y22.2186
G01 X27.4105 Y22.1980
G01 X27.3720 Y22.1793
G01 X27.3326 Y22.1625
G01 X27.2925 Y22.1475
G01 X27.2517 Y22.1344
G01 X27.2103 Y22.1234
G01 X27.1684 Y22.1143
G01 X27.1262 Y22.1072
G01 X27.0836 Y22.1021
G01 X27.0409 Y22.0990
G01 X26.9981 Y22.0980
G01 X26.9553 Y22.0990
G01 X26.9125 Y22.1021
G01 X26.8700 Y22.1072
G01 X26.8278 Y22.1143
G01 X26.7859 Y22.1234
G01 X26.7445 Y22.1344
G01 X26.7037 Y22.1475
G01 X26.6636 Y22.1625
G01 X26.6242 Y22.1793
G01 X26.5857 Y22.1980
G01 X26.5481 Y22.2186
G01 X26.5115 Y22.2409
G01 X26.4760 Y22.2649
G01 X26.4418 Y22.2905
G01 X26.4087 Y22.3178
G01 X26.3770 Y22.3466
G01 X26.3467 Y22.3769
G01 X26.3179 Y22.4086
G01 X26.2906 Y22.4416
G01 X26.2650 Y22.4759
G01 X26.2410 Y22.5114
G01 X26.2187 Y22.5480
G01 X26.1981 Y22.5856
G01 X26.1794 Y22.6241
G01 X26.1626 Y22.6635
G01 X26.1476 Y22.7036
G01 X26.1346 Y22.7444
G01 X26.1235 Y22.7858
G01 X26.1144 Y22.8277
G01 X26.1073 Y22.8699
G01 X26.1022 Y22.9124
G01 X26.0991 Y22.9552
G01 X26.0981 Y22.9980
G01 X26.0991 Y23.0408
G01 X26.1022 Y23.0835
G01 X26.1073 Y23.1261
G01 X26.1144 Y23.1683
G01 X26.1235 Y23.2102
G01 X26.1346 Y23.2516
G01 X26.1476 Y23.2924
G01 X26.1626 Y23.3325
G01 X26.1794 Y23.3719
G01 X26.1981 Y23.4104
G01 X26.2187 Y23.4480
G01 X26.2410 Y23.4846
G01 X26.2650 Y23.5200
G01 X26.2906 Y23.5543
G01 X26.3179 Y23.5874
G01 X26.3467 Y23.6191
G01 X26.3770 Y23.6494
G01 X26.4087 Y23.6782
G01 X26.4418 Y23.7054
G01 X26.4760 Y23.7311
G01 X26.5115 Y23.7551
G01 X26.5481 Y23.7774
G01 X26.5857 Y23.7979
G01 X26.6242 Y23.8167
G01 X26.6636 Y23.8335
G01 X26.7037 Y23.8485
G01 X26.7445 Y23.8615
G01 X26.7859 Y23.8726
G01 X26.8278 Y23.8817
G01 X26.8700 Y23.8888
G01 X26.9125 Y23.8939
G01 X26.9553 Y23.8970
G01 X26.9981 Y23.8980
G01 X27.0409 Y23.8970
G01 X27.0836 Y23.8939
G01 X27.1262 Y23.8888
G01 X27.1684 Y23.8817
G01 X27.2103 Y23.8726
G01 X27.2517 Y23.8615
G01 X27.2925 Y23.8485
G01 X27.3326 Y23.8335
G01 X27.3720 Y23.8167
G01 X27.4105 Y23.7979
G01 X27.4481 Y23.7774
G01 X27.4847 Y23.7551
G01 X27.5201 Y23.7311
G01 X27.5544 Y23.7054
G01 X27.5875 Y23.6782
G01 X27.6192 Y23.6494
G01 X27.6495 Y23.6191
G01 X27.6783 Y23.5874
G01 X27.7055 Y23.5543
G01 X27.7312 Y23.5200
G01 X27.7552 Y23.4846
G01 X27.7775 Y23.4480
G01 X27.7980 Y23.4104
G01 X27.8168 Y23.3719
G01 X27.8336 Y23.3325
G01 X27.8486 Y23.2924
G01 X27.8616 Y23.2516
G01 X27.8727 Y23.2102
G01 X27.8818 Y23.1683
G01 X27.8889 Y23.1261
G01 X27.8940 Y23.0835
G01 X27.8971 Y23.0408
G01 X27.8981 Y22.9980
G01 X27.9056 Y22.9669 F1000
G01 X27.9121 Y22.9356
G01 X27.9175 Y22.9041
G01 X27.9217 Y22.8725
G01 X27.9249 Y22.8407
G01 X27.9270 Y22.8088
G01 X27.9280 Y22.7769
G01 X27.9278 Y22.7449
G01 X27.9266 Y22.7130
G01 X27.9242 Y22.6811
G01 X27.9208 Y22.6493
G01 X27.9162 Y22.6177
G01 X27.9065 Y22.5662
G01 X27.8942 Y22.5153
G01 X27.8792 Y22.4650
G01 X27.8617 Y22.4156
G01 X27.8417 Y22.3672
G01 X27.8192 Y22.3199
G01 X27.7943 Y22.2738
G01 X27.7671 Y22.2290
G01 X27.7350 Y22.1820
G01 X27.7007 Y22.1367
G01 X27.6640 Y22.0931
G01 X27.6252 Y22.0516
G01 X27.5842 Y22.0120
G01 X27.5414 Y21.9746
G01 X27.4966 Y21.9395
G01 X27.4501 Y21.9067
G01 X27.3982 Y21.8738
G01 X27.3447 Y21.8437
G01 X27.2898 Y21.8163
G01 X27.2335 Y21.7918
G01 X27.1760 Y21.7701
G01 X27.1175 Y21.7514
G01 X27.0582 Y21.7357
G01 X26.9981 Y21.7230
G01 X26.9330 Y21.7127
G01 X26.8674 Y21.7056
G01 X26.8016 Y21.7020
G01 X26.7357 Y21.7016
G01 X26.6698 Y21.7046
G01 X26.6042 Y21.7109
G01 X26.5389 Y21.7205
G01 X26.4743 Y21.7334
G01 X26.4060 Y21.7507
G01 X26.3386 Y21.7714
G01 X26.2724 Y21.7954
G01 X26.2075 Y21.8228
G01 X26.1440 Y21.8534
G01 X26.0821 Y21.8872
G01 X26.0221 Y21.9240
G01 X25.9640 Y21.9638
G01 X25.9104 Y22.0133
G01 X25.8594 Y22.0653
G01 X25.8110 Y22.1197
G01 X25.7654 Y22.1765
G01 X25.7226 Y22.2355
G01 X25.6827 Y22.2965
G01 X25.6459 Y22.3594
G01 X25.6123 Y22.4240
G01 X25.5858 Y22.4927
G01 X25.5627 Y22.5626
G01 X25.5431 Y22.6335
G01 X25.5269 Y22.7054
G01 X25.5144 Y22.7779
G01 X25.5053 Y22.8510
G01 X25.4999 Y22.9244
G01 X25.4981 Y22.9980
G01 X25.4999 Y23.0716
G01 X25.5053 Y23.1450
G01 X25.5144 Y23.2181
G01 X25.5269 Y23.2906
G01 X25.5431 Y23.3625
G01 X25.5627 Y23.4334
G01 X25.5858 Y23.5033
G01 X25.6123 Y23.5720
G01 X25.6421 Y23.6393
G01 X25.6752 Y23.7051
G01 X25.7115 Y23.7691
G01 X25.7509 Y23.8313
G01 X25.7933 Y23.8915
G01 X25.8386 Y23.9496
G01 X25.8867 Y24.0053
G01 X25.9375 Y24.0586
G01 X25.9908 Y24.1094
G01 X26.0465 Y24.1575
G01 X26.1046 Y24.2028
G01 X26.1648 Y24.2452
G01 X26.2270 Y24.2846
G01 X26.2910 Y24.3208
G01 X26.3568 Y24.3540
G01 X26.4241 Y24.3838
G01 X26.4928 Y24.4103
G01 X26.5627 Y24.4334
G01 X26.6336 Y24.4530
G01 X26.7055 Y24.4691
G01 X26.7780 Y24.4817
G01 X26.8511 Y24.4907
G01 X26.9245 Y24.4962
G01 X26.9981 Y24.4980
G01 X27.0717 Y24.4962
G01 X27.1451 Y24.4907
G01 X27.2182 Y24.4817
G01 X27.2907 Y24.4691
G01 X27.3626 Y24.4530
G01 X27.4335 Y24.4334
G01 X27.5034 Y24.4103
G01 X27.5721 Y24.3838
G01 X27.6394 Y24.3540
G01 X27.7052 Y24.3208
G01 X27.7692 Y24.2846
G01 X27.8314 Y24.2452
G01 X27.8916 Y24.2028
G01 X27.9497 Y24.1575
G01 X28.0054 Y24.1094
G01 X28.0587 Y24.0586
G01 X28.1095 Y24.0053
G01 X28.1576 Y23.9496
G01 X28.2029 Y23.8915
G01 X28.2453 Y23.8313
G01 X28.2847 Y23.7691
G01 X28.3210 Y23.7051
G01 X28.3541 Y23.6393
G01 X28.3839 Y23.5720
G01 X28.4104 Y23.5033
G01 X28.4335 Y23.4334
G01 X28.4531 Y23.3625
G01 X28.4692 Y23.2906
G01 X28.4818 Y23.2181
G01 X28.4908 Y23.1450
G01 X28.4963 Y23.0716
G01 X28.4981 Y22.9980
G01 X28.4939 Y22.8859
G01 X28.4813 Y22.7744
G01 X28.4605 Y22.6642
G01 X28.4314 Y22.5559
G01 X28.3944 Y22.4500
G01 X28.3495 Y22.3472
G01 X28.2971 Y22.2480
G01 X28.2374 Y22.1530
G01 X28.1708 Y22.0628
G01 X28.0977 Y21.9778
G01 X28.0183 Y21.8984
G01 X27.9333 Y21.8253
G01 X27.8431 Y21.7587
G01 X27.7481 Y21.6990
G01 X27.6489 Y21.6466
G01 X27.5461 Y21.6017
G01 X27.4402 Y21.5647
G01 X27.3319 Y21.5356
G01 X27.2217 Y21.5148
G01 X27.1102 Y21.5022
G01 X26.9981 Y21.4980
G01 X26.8860 Y21.5022
G01 X26.7745 Y21.5148
G01 X26.6643 Y21.5356
G01 X26.5560 Y21.5647
G01 X26.4501 Y21.6017
G01 X26.3473 Y21.6466
G01 X26.2481 Y21.6990
G01 X26.1531 Y21.7587
G01 X26.0629 Y21.8253
G01 X25.9779 Y21.8984
G01 X25.8985 Y21.9778
G01 X25.8254 Y22.0628
G01 X25.7588 Y22.1530
G01 X25.6991 Y22.2480
G01 X25.6467 Y22.3472
G01 X25.6018 Y22.4500
G01 X25.5648 Y22.5559
G01 X25.5357 Y22.6642
G01 X25.5149 Y22.7744
G01 X25.5023 Y22.8859
G01 X25.4981 Y22.9980
G01 X25.5023 Y23.1101
G01 X25.5149 Y23.2216
G01 X25.5357 Y23.3318
G01 X25.5648 Y23.4401
G01 X25.6018 Y23.5460
G01 X25.6467 Y23.6488
G01 X25.6991 Y23.7480
G01 X25.7588 Y23.8430
G01 X25.8254 Y23.9332
G01 X25.8985 Y24.0182
G01 X25.9779 Y24.0975
G01 X26.0629 Y24.1707
G01 X26.1531 Y24.2373
G01 X26.2481 Y24.2970
G01 X26.3473 Y24.3494
G01 X26.4501 Y24.3943
G01 X26.5560 Y24.4313
G01 X26.6643 Y24.4604
G01 X26.7745 Y24.4812
G01 X26.8860 Y24.4938
G01 X26.9981 Y24.4980
G01 X27.1102 Y24.4938
G01 X27.2217 Y24.4812
G01 X27.3319 Y24.4604
G01 X27.4402 Y24.4313
G01 X27.5461 Y24.3943
G01 X27.6489 Y24.3494
G01 X27.7481 Y24.2970
G01 X27.8431 Y24.2373
G01 X27.9333 Y24.1707
G01 X28.0183 Y24.0975
G01 X28.0977 Y24.0182
G01 X28.1708 Y23.9332
G01 X28.2374 Y23.8430
G01 X28.2971 Y23.7480
G01 X28.3495 Y23.6488
G01 X28.3944 Y23.5460
G01 X28.4314 Y23.4401
G01 X28.4605 Y23.3318
G01 X28.4813 Y23.2216
G01 X28.4939 Y23.1101
G01 X28.4981 Y22.9980
G01 X28.4935 Y22.8934
G01 X28.4798 Y22.7896
G01 X28.4572 Y22.6874
G01 X28.4257 Y22.5876
G01 X28.3856 Y22.4909
G01 X28.3373 Y22.3980
G01 X28.2811 Y22.3097
G01 X28.2173 Y22.2267
G01 X28.1466 Y22.1495
G01 X28.0694 Y22.0788
G01 X27.9864 Y22.0150
G01 X27.8981 Y21.9588
G01 X27.8052 Y21.9104
G01 X27.7085 Y21.8704
G01 X27.6087 Y21.8389
G01 X27.5065 Y21.8162
G01 X27.4027 Y21.8026
G01 X27.2981 Y21.7980
G01 X27.1935 Y21.8026
G01 X27.0897 Y21.8162
G01 X26.9875 Y21.8389
G01 X26.8877 Y21.8704
G01 X26.7909 Y21.9104
G01 X26.6981 Y21.9588
G01 X26.6098 Y22.0150
G01 X26.5267 Y22.0788
G01 X26.4496 Y22.1495
G01 X26.3788 Y22.2267
G01 X26.3151 Y22.3097
G01 X26.2589 Y22.3980
G01 X26.2105 Y22.4909
G01 X26.1705 Y22.5876
G01 X26.1390 Y22.6874
G01 X26.1163 Y22.7896
G01 X26.1027 Y22.8934
G01 X26.0981 Y22.9980
G01 X26.0992 Y23.0422
G01 X26.1024 Y23.0862
G01 X26.1078 Y23.1301
G01 X26.1154 Y23.1736
G01 X26.1251 Y23.2167
G01 X26.1368 Y23.2592
G01 X26.1507 Y23.3012
G01 X26.1666 Y23.3424
G01 X26.1845 Y23.3828
G01 X26.2044 Y23.4222
G01 X26.2261 Y23.4607
G01 X26.2498 Y23.4980
G01 X26.2752 Y23.5341
G01 X26.3024 Y23.5689
G01 X26.3312 Y23.6024
G01 X26.3617 Y23.6344
G01 X26.3937 Y23.6648
G01 X26.4271 Y23.6937
G01 X26.4620 Y23.7209
G01 X26.4981 Y23.7463
G01 X26.5354 Y23.7699
G01 X26.5738 Y23.7917
G01 X26.6133 Y23.8116
G01 X26.6537 Y23.8295
G01 X26.6949 Y23.8454
G01 X26.7368 Y23.8592
G01 X26.7794 Y23.8710
G01 X26.8225 Y23.8807
G01 X26.8660 Y23.8883
G01 X26.9099 Y23.8937
G01 X26.9539 Y23.8969
G01 X26.9981 Y23.8980
G01 X27.0423 Y23.8969
G01 X27.0863 Y23.8937
G01 X27.1302 Y23.8883
G01 X27.1737 Y23.8807
G01 X27.2168 Y23.8710
G01 X27.2594 Y23.8592
G01 X27.3013 Y23.8454
G01 X27.3425 Y23.8295
G01 X27.3829 Y23.8116
G01 X27.4224 Y23.7917
G01 X27.4608 Y23.7699
G01 X27.4981 Y23.7463
G01 X27.5342 Y23.7209
G01 X27.5690 Y23.6937
G01 X27.6025 Y23.6648
G01 X27.6345 Y23.6344
G01 X27.6650 Y23.6024
G01 X27.6938 Y23.5689
G01 X27.7210 Y23.5341
G01 X27.7464 Y23.4980
G01 X27.7701 Y23.4607
G01 X27.7918 Y23.4222
G01 X27.8117 Y23.3828
G01 X27.8296 Y23.3424
G01 X27.8455 Y23.3012
G01 X27.8593 Y23.2592
G01 X27.8711 Y23.2167
G01 X27.8808 Y23.1736
G01 X27.8884 Y23.1301
G01 X27.8938 Y23.0862
G01 X27.8970 Y23.0422
G01 X27.8981 Y22.9980
M107
M106 S240
G01 X27.8971 Y22.9552 Z-2.7623 F400
G01 X27.8940 Y22.9124 Z-2.7746
G01 X27.8889 Y22.8699 Z-2.7869
G01 X27.8818 Y22.8277 Z-2.7992
G01 X27.8727 Y22.7858 Z-2.8116
G01 X27.8616 Y22.7444 Z-2.8239
G01 X27.8486 Y22.7036 Z-2.8362
G01 X27.8336 Y22.6635 Z-2.8485
G01 X27.8168 Y22.6241 Z-2.8608
G01 X27.7980 Y22.5856 Z-2.8731
G01 X27.7775 Y22.5480 Z-2.8854
G01 X27.7552 Y22.5114 Z-2.8977
G01 X27.7312 Y22.4759 Z-2.9100
G01 X27.7055 Y22.4416 Z-2.9223
G01 X27.6783 Y22.4086 Z-2.9347
G01 X27.6495 Y22.3769 Z-2.9470
G01 X27.6192 Y22.3466 Z-2.9593
G01 X27.5875 Y22.3178 Z-2.9716
G01 X27.5544 Y22.2905 Z-2.9839
G01 X27.5201 Y22.2649 Z-2.9962
G01 X27.4847 Y22.2409 Z-3.0085
G01 X27.4481 Y22.2186 Z-3.0208
G01 X27.4105 Y22.1980 Z-3.0331
G01 X27.3720 Y22.1793 Z-3.0455
G01 X27.3326 Y22.1625 Z-3.0578
G01 X27.2925 Y22.1475 Z-3.0701
G01 X27.2517 Y22.1344 Z-3.0824
G01 X27.2103 Y22.1234 Z-3.0947
G01 X27.1684 Y22.1143 Z-3.1070
G01 X27.1262 Y22.1072 Z-3.1193
G01 X27.0836 Y22.1021 Z-3.1316
G01 X27.0409 Y22.0990 Z-3.1439
G01 X26.9981 Y22.0980 Z-3.1563
G01 X26.9553 Y22.0990 Z-3.1686
G01 X26.9125 Y22.1021 Z-3.1809
G01 X26.8700 Y22.1072 Z-3.1932
G01 X26.8278 Y22.1143 Z-3.2055
G01 X26.7859 Y22.1234 Z-3.2178
G01 X26.7445 Y22.1344 Z-3.2301
G01 X26.7037 Y22.1475 Z-3.2424
G01 X26.6636 Y22.1625 Z-3.2547
G01 X26.6242 Y22.1793 Z-3.2670
G01 X26.5857 Y22.1980 Z-3.2794
G01 X26.5481 Y22.2186 Z-3.2917
G01 X26.5115 Y22.2409 Z-3.3040
G01 X26.4760 Y22.2649 Z-3.3163
G01 X26.4418 Y22.2905 Z-3.3286
G01 X26.4087 Y22.3178 Z-3.3409
G01 X26.3770 Y22.3466 Z-3.3532
G01 X26.3467 Y22.3769 Z-3.3655
G01 X26.3179 Y22.4086 Z-3.3778
G01 X26.2906 Y22.4416 Z-3.3902
G01 X26.2650 Y22.4759 Z-3.4025
G01 X26.2410 Y22.5114 Z-3.4148
G01 X26.2187 Y22.5480 Z-3.4271
G01 X26.1981 Y22.5856 Z-3.4394
G01 X26.1794 Y22.6241 Z-3.4517
G01 X26.1626 Y22.6635 Z-3.4640
G01 X26.1476 Y22.7036 Z-3.4763
G01 X26.1346 Y22.7444 Z-3.4886
G01 X26.1235 Y22.7858 Z-3.5009
G01 X26.1144 Y22.8277 Z-3.5133
G01 X26.1073 Y22.8699 Z-3.5256
G01 X26.1022 Y22.9124 Z-3.5379
G01 X26.0991 Y22.9552 Z-3.5502
G01 X26.0981 Y22.9980 Z-3.5625
G01 X26.0991 Y23.0408 Z-3.5748
G01 X26.1022 Y23.0835 Z-3.5871
G01 X26.1073 Y23.1261 Z-3.5994
G01 X26.1144 Y23.1683 Z-3.6117
G01 X26.1235 Y23.2102 Z-3.6241
G01 X26.1346 Y23.2516 Z-3.6364
G01 X26.1476 Y23.2924 Z-3.6487
G01 X26.1626 Y23.3325 Z-3.6610
G01 X26.1794 Y23.3719 Z-3.6733
G01 X26.1981 Y23.4104 Z-3.6856
G01 X26.2187 Y23.4480 Z-3.6979
G01 X26.2410 Y23.4846 Z-3.7102
G01 X26.2650 Y23.5200 Z-3.7225
G01 X26.2906 Y23.5543 Z-3.7348
G01 X26.3179 Y23.5874 Z-3.7472
G01 X26.3467 Y23.6191 Z-3.7595
G01 X26.3770 Y23.6494 Z-3.7718
G01 X26.4087 Y23.6782 Z-3.7841
G01 X26.4418 Y23.7054 Z-3.7964
G01 X26.4760 Y23.7311 Z-3.8087
G01 X26.5115 Y23.7551 Z-3.8210
G01 X26.5481 Y23.7774 Z-3.8333
G01 X26.5857 Y23.7979 Z-3.8456
G01 X26.6242 Y23.8167 Z-3.8580
G01 X26.6636 Y23.8335 Z-3.8703
G01 X26.7037 Y23.8485 Z-3.8826
G01 X26.7445 Y23.8615 Z-3.8949
G01 X26.7859 Y23.8726 Z-3.9072
G01 X26.8278 Y23.8817 Z-3.9195
G01 X26.8700 Y23.8888 Z-3.9318
G01 X26.9125 Y23.8939 Z-3.9441
G01 X26.9553 Y23.8970 Z-3.9564
G01 X26.9981 Y23.8980 Z-3.9688
G01 X27.0409 Y23.8970 Z-3.9811
G01 X27.0836 Y23.8939 Z-3.9934
G01 X27.1262 Y23.8888 Z-4.0057
G01 X27.1684 Y23.8817 Z-4.0180
G01 X27.2103 Y23.8726 Z-4.0303
G01 X27.2517 Y23.8615 Z-4.0426
G01 X27.2925 Y23.8485 Z-4.0549
G01 X27.3326 Y23.8335 Z-4.0672
G01 X27.3720 Y23.8167 Z-4.0795
G01 X27.4105 Y23.7979 Z-4.0919
G01 X27.4481 Y23.7774 Z-4.1042
G01 X27.4847 Y23.7551 Z-4.1165
G01 X27.5201 Y23.7311 Z-4.1288
G01 X27.5544 Y23.7054 Z-4.1411
G01 X27.5875 Y23.6782 Z-4.1534
G01 X27.6192 Y23.6494 Z-4.1657
G01 X27.6495 Y23.6191 Z-4.1780
G01 X27.6783 Y23.5874 Z-4.1903
G01 X27.7055 Y23.5543 Z-4.2027
G01 X27.7312 Y23.5200 Z-4.2150
G01 X27.7552 Y23.4846 Z-4.2273
G01 X27.7775 Y23.4480 Z-4.2396
G01 X27.7980 Y23.4104 Z-4.2519
G01 X27.8168 Y23.3719 Z-4.2642
G01 X27.8336 Y23.3325 Z-4.2765
G01 X27.8486 Y23.2924 Z-4.2888
G01 X27.8616 Y23.2516 Z-4.3011
G01 X27.8727 Y23.2102 Z-4.3134
G01 X27.8818 Y23.1683 Z-4.3258
G01 X27.8889 Y23.1261 Z-4.3381
G01 X27.8940 Y23.0835 Z-4.3504
G01 X27.8971 Y23.0408 Z-4.3627
G01 X27.8981 Y22.9980 Z-4.3750
G01 X27.8971 Y22.9552
G01 X27.8940 Y22.9124
G01 X27.8889 Y22.8699
G01 X27.8818 Y22.8277
G01 X27.8727 Y22.7858
G01 X27.8616 Y22.7444
G01 X27.8486 Y22.7036
G01 X27.8336 Y22.6635
G01 X27.8168 Y22.6241
G01 X27.7980 Y22.5856
G01 X27.7775 Y22.5480
G01 X27.7552 Y22.5114
G01 X27.7312 Y22.4759
G01 X27.7055 Y22.4416
G01 X27.6783 Y22.4086
G01 X27.6495 Y22.3769
G01 X27.6192 Y22.3466
G01 X27.5875 Y22.3178
G01 X27.5544 Y22.2905
G01 X27.5201 Y22.2649
G01 X27.4847 Y22.2409
G01 X27.4481 Y22.2186
G01 X27.4105 Y22.1980
G01 X27.3720 Y22.1793
G01 X27.3326 Y22.1625
G01 X27.2925 Y22.1475
G01 X27.2517 Y22.1344
G01 X27.2103 Y22.1234
G01 X27.1684 Y22.1143
G01 X27.1262 Y22.1072
G01 X27.0836 Y22.1021
G01 X27.0409 Y22.0990
G01 X26.9981 Y22.0980
G01 X26.9553 Y22.0990
G01 X26.9125 Y22.1021
G01 X26.8700 Y22.1072
G01 X26.8278 Y22.1143
G01 X26.7859 Y22.1234
G01 X26.7445 Y22.1344
G01 X26.7037 Y22.1475
G01 X26.6636 Y22.1625
G01 X26.6242 Y22.1793
G01 X26.5857 Y22.1980
G01 X26.5481 Y22.2186
G01 X26.5115 Y22.2409
G01 X26.4760 Y22.2649
G01 X26.4418 Y22.2905
G01 X26.4087 Y22.3178
G01 X26.3770 Y22.3466
G01 X26.3467 Y22.3769
G01 X26.3179 Y22.4086
G01 X26.2906 Y22.4416
G01 X26.2650 Y22.4759
G01 X26.2410 Y22.5114
G01 X26.2187 Y22.5480
G01 X26.1981 Y22.5856
G01 X26.1794 Y22.6241
G01 X26.1626 Y22.6635
G01 X26.1476 Y22.7036
G01 X26.1346 Y22.7444
G01 X26.1235 Y22.7858
G01 X26.1144 Y22.8277
G01 X26.1073 Y22.8699
G01 X26.1022 Y22.9124
G01 X26.0991 Y22.9552
G01 X26.0981 Y22.9980
G01 X26.0991 Y23.0408
G01 X26.1022 Y23.0835
G01 X26.1073 Y23.1261
G01 X26.1144 Y23.1683
G01 X26.1235 Y23.2102
G01 X26.1346 Y23.2516
G01 X26.1476 Y23.2924
G01 X26.1626 Y23.3325
G01 X26.1794 Y23.3719
G01 X26.1981 Y23.4104
G01 X26.2187 Y23.4480
G01 X26.2410 Y23.4846
G01 X26.2650 Y23.5200
G01 X26.2906 Y23.5543
G01 X26.3179 Y23.5874
G01 X26.3467 Y23.6191
G01 X26.3770 Y23.6494
G01 X26.4087 Y23.6782
G01 X26.4418 Y23.7054
G01 X26.4760 Y23.7311
G01 X26.5115 Y23.7551
G01 X26.5481 Y23.7774
G01 X26.5857 Y23.7979
G01 X26.6242 Y23.8167
G01 X26.6636 Y23.8335
G01 X26.7037 Y23.8485
G01 X26.7445 Y23.8615
G01 X26.7859 Y23.8726
G01 X26.8278 Y23.8817
G01 X26.8700 Y23.8888
G01 X26.9125 Y23.8939
G01 X26.9553 Y23.8970
G01 X26.9981 Y23.8980
G01 X27.0409 Y23.8970
G01 X27.0836 Y23.8939
G01 X27.1262 Y23.8888
G01 X27.1684 Y23.8817
G01 X27.2103 Y23.8726
G01 X27.2517 Y23.8615
G01 X27.2925 Y23.8485
G01 X27.3326 Y23.8335
G01 X27.3720 Y23.8167
G01 X27.4105 Y23.7979
G01 X27.4481 Y23.7774
G01 X27.4847 Y23.7551
G01 X27.5201 Y23.7311
G01 X27.5544 Y23.7054
G01 X27.5875 Y23.6782
G01 X27.6192 Y23.6494
G01 X27.6495 Y23.6191
G01 X27.6783 Y23.5874
G01 X27.7055 Y23.5543
G01 X27.7312 Y23.5200
G01 X27.7552 Y23.4846
G01 X27.7775 Y23.4480
G01 X27.7980 Y23.4104
G01 X27.8168 Y23.3719
G01 X27.8336 Y23.3325
G01 X27.8486 Y23.2924
G01 X27.8616 Y23.2516
G01 X27.8727 Y23.2102
G01 X27.8818 Y23.1683
G01 X27.8889 Y23.1261
G01 X27.8940 Y23.0835
G01 X27.8971 Y23.0408
G01 X27.8981 Y22.9980
G01 X27.9056 Y22.9669 F1000
G01 X27.9121 Y22.9356
G01 X27.9175 Y22.9041
G01 X27.9217 Y22.8725
G01 X27.9249 Y22.8407
G01 X27.9270 Y22.8088
G01 X27.9280 Y22.7769
G01 X27.9278 Y22.7449
G01 X27.9266 Y22.7130
G01 X27.9242 Y22.6811
G01 X27.9208 Y22.6493
G01 X27.9162 Y22.6177
G01 X27.9065 Y22.5662
G01 X27.8942 Y22.5153
G01 X27.8792 Y22.4650
G01 X27.8617 Y22.4156
G01 X27.8417 Y22.3672
G01 X27.8192 Y22.3199
G01 X27.7943 Y22.2738
G01 X27.7671 Y22.2290
G01 X27.7350 Y22.1820
G01 X27.7007 Y22.1367
G01 X27.6640 Y22.0931
G01 X27.6252 Y22.0516
G01 X27.5842 Y22.0120
G01 X27.5414 Y21.9746
G01 X27.4966 Y21.9395
G01 X27.4501 Y21.9067
G01 X27.3982 Y21.8738
G01 X27.3447 Y21.8437
G01 X27.2898 Y21.8163
G01 X27.2335 Y21.7918
G01 X27.1760 Y21.7701
G01 X27.1175 Y21.7514
G01 X27.0582 Y21.7357
G01 X26.9981 Y21.7230
G01 X26.9330 Y21.7127
G01 X26.8674 Y21.7056
G01 X26.8016 Y21.7020
G01 X26.7357 Y21.7016
G01 X26.6698 Y21.7046
G01 X26.6042 Y21.7109
G01 X26.5389 Y21.7205
G01 X26.4743 Y21.7334
G01 X26.4060 Y21.7507
G01 X26.3386 Y21.7714
G01 X26.2724 Y21.7954
G01 X26.2075 Y21.8228
G01 X26.1440 Y21.8534
G01 X26.0821 Y21.8872
G01 X26.0221 Y21.9240
G01 X25.9640 Y21.9638
G01 X25.9104 Y22.0133
G01 X25.8594 Y22.0653
G01 X25.8110 Y22.1197
G01 X25.7654 Y22.1765
G01 X25.7226 Y22.2355
G01 X25.6827 Y22.2965
G01 X25.6459 Y22.3594
G01 X25.6123 Y22.4240
G01 X25.5858 Y22.4927
G01 X25.5627 Y22.5626
G01 X25.5431 Y22.6335
G01 X25.5269 Y22.7054
G01 X25.5144 Y22.7779
G01 X25.5053 Y22.8510
G01 X25.4999 Y22.9244
G01 X25.4981 Y22.9980
G01 X25.4999 Y23.0716
G01 X25.5053 Y23.1450
G01 X25.5144 Y23.2181
G01 X25.5269 Y23.2906
G01 X25.5431 Y23.3625
G01 X25.5627 Y23.4334
G01 X25.5858 Y23.5033
G01 X25.6123 Y23.5720
G01 X25.6421 Y23.6393
G01 X25.6752 Y23.7051
G01 X25.7115 Y23.7691
G01 X25.7509 Y23.8313
G01 X25.7933 Y23.8915
G01 X25.8386 Y23.9496
G01 X25.8867 Y24.0053
G01 X25.9375 Y24.0586
G01 X25.9908 Y24.1094
G01 X26.0465 Y24.1575
G01 X26.1046 Y24.2028
G01 X26.1648 Y24.2452
G01 X26.2270 Y24.2846
G01 X26.2910 Y24.3208
G01 X26.3568 Y24.3540
G01 X26.4241 Y24.3838
G01 X26.4928 Y24.4103
G01 X26.5627 Y24.4334
G01 X26.6336 Y24.4530
G01 X26.7055 Y24.4691
G01 X26.7780 Y24.4817
G01 X26.8511 Y24.4907
G01 X26.9245 Y24.4962
G01 X26.9981 Y24.4980
G01 X27.0717 Y24.4962
G01 X27.1451 Y24.4907
G01 X27.2182 Y24.4817
G01 X27.2907 Y24.4691
G01 X27.3626 Y24.4530
G01 X27.4335 Y24.4334
G01 X27.5034 Y24.4103
G01 X27.5721 Y24.3838
G01 X27.6394 Y24.3540
G01 X27.7052 Y24.3208
G01 X27.7692 Y24.2846
G01 X27.8314 Y24.2452
G01 X27.8916 Y24.2028
G01 X27.9497 Y24.1575
G01 X28.0054 Y24.1094
G01 X28.0587 Y24.0586
G01 X28.1095 Y24.0053
G01 X28.1576 Y23.9496
G01 X28.2029 Y23.8915
G01 X28.2453 Y23.8313
G01 X28.2847 Y23.7691
G01 X28.3210 Y23.7051
G01 X28.3541 Y23.6393
G01 X28.3839 Y23.5720
G01 X28.4104 Y23.5033
G01 X28.4335 Y23.4334
G01 X28.4531 Y23.3625
G01 X28.4692 Y23.2906
G01 X28.4818 Y23.2181
G01 X28.4908 Y23.1450
G01 X28.4963 Y23.0716
G01 X28.4981 Y22.9980
G01 X28.4939 Y22.8859
G01 X28.4813 Y22.7744
G01 X28.4605 Y22.6642
G01 X28.4314 Y22.5559
G01 X28.3944 Y22.4500
G01 X28.3495 Y22.3472
G01 X28.2971 Y22.2480
G01 X28.2374 Y22.1530
G01 X28.1708 Y22.0628
G01 X28.0977 Y21.9778
G01 X28.0183 Y21.8984
G01 X27.9333 Y21.8253
G01 X27.8431 Y21.7587
G01 X27.7481 Y21.6990
G01 X27.6489 Y21.6466
G01 X27.5461 Y21.6017
G01 X27.4402 Y21.5647
G01 X27.3319 Y21.5356
G01 X27.2217 Y21.5148
G01 X27.1102 Y21.5022
G01 X26.9981 Y21.4980
G01 X26.8860 Y21.5022
G01 X26.7745 Y21.5148
G01 X26.6643 Y21.5356
G01 X26.5560 Y21.5647
G01 X26.4501 Y21.6017
G01 X26.3473 Y21.6466
G01 X26.2481 Y21.6990
G01 X26.1531 Y21.7587
G01 X26.0629 Y21.8253
G01 X25.9779 Y21.8984
G01 X25.8985 Y21.9778
G01 X25.8254 Y22.0628
G01 X25.7588 Y22.1530
G01 X25.6991 Y22.2480
G01 X25.6467 Y22.3472
G01 X25.6018 Y22.4500
G01 X25.5648 Y22.5559
G01 X25.5357 Y22.6642
G01 X25.5149 Y22.7744
G01 X25.5023 Y22.8859
G01 X25.4981 Y22.9980
G01 X25.5023 Y23.1101
G01 X25.5149 Y23.2216
G01 X25.5357 Y23.3318
G01 X25.5648 Y23.4401
G01 X25.6018 Y23.5460
G01 X25.6467 Y23.6488
G01 X25.6991 Y23.7480
G01 X25.7588 Y23.8430
G01 X25.8254 Y23.9332
G01 X25.8985 Y24.0182
G01 X25.9779 Y24.0975
G01 X26.0629 Y24.1707
G01 X26.1531 Y24.2373
G01 X26.2481 Y24.2970
G01 X26.3473 Y24.3494
G01 X26.4501 Y24.3943
G01 X26.5560 Y24.4313
G01 X26.6643 Y24.4604
G01 X26.7745 Y24.4812
G01 X26.8860 Y24.4938
G01 X26.9981 Y24.4980
G01 X27.1102 Y24.4938
G01 X27.2217 Y24.4812
G01 X27.3319 Y24.4604
G01 X27.4402 Y24.4313
G01 X27.5461 Y24.3943
G01 X27.6489 Y24.3494
G01 X27.7481 Y24.2970
G01 X27.8431 Y24.2373
G01 X27.9333 Y24.1707
G01 X28.0183 Y24.0975
G01 X28.0977 Y24.0182
G01 X28.1708 Y23.9332
G01 X28.2374 Y23.8430
G01 X28.2971 Y23.7480
G01 X28.3495 Y23.6488
G01 X28.3944 Y23.5460
G01 X28.4314 Y23.4401
G01 X28.4605 Y23.3318
G01 X28.4813 Y23.2216
G01 X28.4939 Y23.1101
G01 X28.4981 Y22.9980
G01 X28.4935 Y22.8934
G01 X28.4798 Y22.7896
G01 X28.4572 Y22.6874
G01 X28.4257 Y22.5876
G01 X28.3856 Y22.4909
G01 X28.3373 Y22.3980
G01 X28.2811 Y22.3097
G01 X28.2173 Y22.2267
G01 X28.1466 Y22.1495
G01 X28.0694 Y22.0788
G01 X27.9864 Y22.0150
G01 X27.8981 Y21.9588
G01 X27.8052 Y21.9104
G01 X27.7085 Y21.8704
G01 X27.6087 Y21.8389
G01 X27.5065 Y21.8162
G01 X27.4027 Y21.8026
G01 X27.2981 Y21.7980
G01 X27.1935 Y21.8026
G01 X27.0897 Y21.8162
G01 X26.9875 Y21.8389
G01 X26.8877 Y21.8704
G01 X26.7909 Y21.9104
G01 X26.6981 Y21.9588
G01 X26.6098 Y22.0150
G01 X26.5267 Y22.0788
G01 X26.4496 Y22.1495
G01 X26.3788 Y22.2267
G01 X26.3151 Y22.3097
G01 X26.2589 Y22.3980
G01 X26.2105 Y22.4909
G01 X26.1705 Y22.5876
G01 X26.1390 Y22.6874
G01 X26.1163 Y22.7896
G01 X26.1027 Y22.8934
G01 X26.0981 Y22.9980
G01 X26.0992 Y23.0422
G01 X26.1024 Y23.0862
G01 X26.1078 Y23.1301
G01 X26.1154 Y23.1736
G01 X26.1251 Y23.2167
G01 X26.1368 Y23.2592
G01 X26.1507 Y23.3012
G01 X26.1666 Y23.3424
G01 X26.1845 Y23.3828
G01 X26.2044 Y23.4222
G01 X26.2261 Y23.4607
G01 X26.2498 Y23.4980
G01 X26.2752 Y23.5341
G01 X26.3024 Y23.5689
G01 X26.3312 Y23.6024
G01 X26.3617 Y23.6344
G01 X26.3937 Y23.6648
G01 X26.4271 Y23.6937
G01 X26.4620 Y23.7209
G01 X26.4981 Y23.7463
G01 X26.5354 Y23.7699
G01 X26.5738 Y23.7917
G01 X26.6133 Y23.8116
G01 X26.6537 Y23.8295
G01 X26.6949 Y23.8454
G01 X26.7368 Y23.8592
G01 X26.7794 Y23.8710
G01 X26.8225 Y23.8807
G01 X26.8660 Y23.8883
G01 X26.9099 Y23.8937
G01 X26.9539 Y23.8969
G01 X26.9981 Y23.8980
G01 X27.0423 Y23.8969
G01 X27.0863 Y23.8937
G01 X27.1302 Y23.8883
G01 X27.1737 Y23.8807
G01 X27.2168 Y23.8710
G01 X27.2594 Y23.8592
G01 X27.3013 Y23.8454
G01 X27.3425 Y23.8295
G01 X27.3829 Y23.8116
G01 X27.4224 Y23.7917
G01 X27.4608 Y23.7699
G01 X27.4981 Y23.7463
G01 X27.5342 Y23.7209
G01 X27.5690 Y23.6937
G01 X27.6025 Y23.6648
G01 X27.6345 Y23.6344
G01 X27.6650 Y23.6024
G01 X27.6938 Y23.5689
G01 X27.7210 Y23.5341
G01 X27.7464 Y23.4980
G01 X27.7701 Y23.4607
G01 X27.7918 Y23.4222
G01 X27.8117 Y23.3828
G01 X27.8296 Y23.3424
G01 X27.8455 Y23.3012
G01 X27.8593 Y23.2592
G01 X27.8711 Y23.2167
G01 X27.8808 Y23.1736
G01 X27.8884 Y23.1301
G01 X27.8938 Y23.0862
G01 X27.8970 Y23.0422
G01 X27.8981 Y22.9980
M107
M106 S240
G01 X27.8971 Y22.9552 Z-4.3873 F400
G01 X27.8940 Y22.9124 Z-4.3996
G01 X27.8889 Y22.8699 Z-4.4119
G01 X27.8818 Y22.8277 Z-4.4242
G01 X27.8727 Y22.7858 Z-4.4366
G01 X27.8616 Y22.7444 Z-4.4489
G01 X27.8486 Y22.7036 Z-4.4612
G01 X27.8336 Y22.6635 Z-4.4735
G01 X27.8168 Y22.6241 Z-4.4858
G01 X27.7980 Y22.5856 Z-4.4981
G01 X27.7775 Y22.5480 Z-4.5104
G01 X27.7552 Y22.5114 Z-4.5227
G01 X27.7312 Y22.4759 Z-4.5350
G01 X27.7055 Y22.4416 Z-4.5473
G01 X27.6783 Y22.4086 Z-4.5597
G01 X27.6495 Y22.3769 Z-4.5720
G01 X27.6192 Y22.3466 Z-4.5843
G01 X27.5875 Y22.3178 Z-4.5966
G01 X27.5544 Y22.2905 Z-4.6089
G01 X27.5201 Y22.2649 Z-4.6212
G01 X27.4847 Y22.2409 Z-4.6335
G01 X27.4481 Y22.2186 Z-4.6458
G01 X27.4105 Y22.1980 Z-4.6581
G01 X27.3720 Y22.1793 Z-4.6705
G01 X27.3326 Y22.1625 Z-4.6828
G01 X27.2925 Y22.1475 Z-4.6951
G01 X27.2517 Y22.1344 Z-4.7074
G01 X27.2103 Y22.1234 Z-4.7197
G01 X27.1684 Y22.1143 Z-4.7320
G01 X27.1262 Y22.1072 Z-4.7443
G01 X27.0836 Y22.1021 Z-4.7566
G01 X27.0409 Y22.0990 Z-4.7689
G01 X26.9981 Y22.0980 Z-4.7813
G01 X26.9553 Y22.0990 Z-4.7936
G01 X26.9125 Y22.1021 Z-4.8059
G01 X26.8700 Y22.1072 Z-4.8182
G01 X26.8278 Y22.1143 Z-4.8305
G01 X26.7859 Y22.1234 Z-4.8428
G01 X26.7445 Y22.1344 Z-4.8551
G01 X26.7037 Y22.1475 Z-4.8674
G01 X26.6636 Y22.1625 Z-4.8797
G01 X26.6242 Y22.1793 Z-4.8920
G01 X26.5857 Y22.1980 Z-4.9044
G01 X26.5481 Y22.2186 Z-4.9167
G01 X26.5115 Y22.2409 Z-4.9290
G01 X26.4760 Y22.2649 Z-4.9413
G01 X26.4418 Y22.2905 Z-4.9536
G01 X26.4087 Y22.3178 Z-4.9659
G01 X26.3770 Y22.3466 Z-4.9782
G01 X26.3467 Y22.3769 Z-4.9905
G01 X26.3179 Y22.4086 Z-5.0028
G01 X26.2906 Y22.4416 Z-5.0152
G01 X26.2650 Y22.4759 Z-5.0275
G01 X26.2410 Y22.5114 Z-5.0398
G01 X26.2187 Y22.5480 Z-5.0521
G01 X26.1981 Y22.5856 Z-5.0644
G01 X26.1794 Y22.6241 Z-5.0767
G01 X26.1626 Y22.6635 Z-5.0890
G01 X26.1476 Y22.7036 Z-5.1013
G01 X26.1346 Y22.7444 Z-5.1136
G01 X26.1235 Y22.7858 Z-5.1259
G01 X26.1144 Y22.8277 Z-5.1383
G01 X26.1073 Y22.8699 Z-5.1506
G01 X26.1022 Y22.9124 Z-5.1629
G01 X26.0991 Y22.9552 Z-5.1752
G01 X26.0981 Y22.9980 Z-5.1875
G01 X26.0991 Y23.0408 Z-5.1998
G01 X26.1022 Y23.0835 Z-5.2121
G01 X26.1073 Y23.1261 Z-5.2244
G01 X26.1144 Y23.1683 Z-5.2367
G01 X26.1235 Y23.2102 Z-5.2491
G01 X26.1346 Y23.2516 Z-5.2614
G01 X26.1476 Y23.2924 Z-5.2737
G01 X26.1626 Y23.3325 Z-5.2860
G01 X26.1794 Y23.3719 Z-5.2983
G01 X26.1981 Y23.4104 Z-5.3106
G01 X26.2187 Y23.4480 Z-5.3229
G01 X26.2410 Y23.4846 Z-5.3352
G01 X26.2650 Y23.5200 Z-5.3475
G01 X26.2906 Y23.5543 Z-5.3598
G01 X26.3179 Y23.5874 Z-5.3722
G01 X26.3467 Y23.6191 Z-5.3845
G01 X26.3770 Y23.6494 Z-5.3968
G01 X26.4087 Y23.6782 Z-5.4091
G01 X26.4418 Y23.7054 Z-5.4214
G01 X26.4760 Y23.7311 Z-5.4337
G01 X26.5115 Y23.7551 Z-5.4460
G01 X26.5481 Y23.7774 Z-5.4583
G01 X26.5857 Y23.7979 Z-5.4706
G01 X26.6242 Y23.8167 Z-5.4830
G01 X26.6636 Y23.8335 Z-5.4953
G01 X26.7037 Y23.8485 Z-5.5076
G01 X26.7445 Y23.8615 Z-5.5199
G01 X26.7859 Y23.8726 Z-5.5322
G01 X26.8278 Y23.8817 Z-5.5445
G01 X26.8700 Y23.8888 Z-5.5568
G01 X26.9125 Y23.8939 Z-5.5691
G01 X26.9553 Y23.8970 Z-5.5814
G01 X26.9981 Y23.8980 Z-5.5938
G01 X27.0409 Y23.8970 Z-5.6061
G01 X27.0836 Y23.8939 Z-5.6184
G01 X27.1262 Y23.8888 Z-5.6307
G01 X27.1684 Y23.8817 Z-5.6430
G01 X27.2103 Y23.8726 Z-5.6553
G01 X27.2517 Y23.8615 Z-5.6676
G01 X27.2925 Y23.8485 Z-5.6799
G01 X27.3326 Y23.8335 Z-5.6922
G01 X27.3720 Y23.8167 Z-5.7045
G01 X27.4105 Y23.7979 Z-5.7169
G01 X27.4481 Y23.7774 Z-5.7292
G01 X27.4847 Y23.7551 Z-5.7415
G01 X27.5201 Y23.7311 Z-5.7538
G01 X27.5544 Y23.7054 Z-5.7661
G01 X27.5875 Y23.6782 Z-5.7784
G01 X27.6192 Y23.6494 Z-5.7907
G01 X27.6495 Y23.6191 Z-5.8030
G01 X27.6783 Y23.5874 Z-5.8153
G01 X27.7055 Y23.5543 Z-5.8277
G01 X27.7312 Y23.5200 Z-5.8400
G01 X27.7552 Y23.4846 Z-5.8523
G01 X27.7775 Y23.4480 Z-5.8646
G01 X27.7980 Y23.4104 Z-5.8769
G01 X27.8168 Y23.3719 Z-5.8892
G01 X27.8336 Y23.3325 Z-5.9015
G01 X27.8486 Y23.2924 Z-5.9138
G01 X27.8616 Y23.2516 Z-5.9261
G01 X27.8727 Y23.2102 Z-5.9384
G01 X27.8818 Y23.1683 Z-5.9508
G01 X27.8889 Y23.1261 Z-5.9631
G01 X27.8940 Y23.0835 Z-5.9754
G01 X27.8971 Y23.0408 Z-5.9877
G01 X27.8981 Y22.9980 Z-6.0000
G01 X27.8971 Y22.9552
G01 X27.8940 Y22.9124
G01 X27.8889 Y22.8699
G01 X27.8818 Y22.8277
G01 X27.8727 Y22.7858
G01 X27.8616 Y22.7444
G01 X27.8486 Y22.7036
G01 X27.8336 Y22.6635
G01 X27.8168 Y22.6241
G01 X27.7980 Y22.5856
G01 X27.7775 Y22.5480
G01 X27.7552 Y22.5114
G01 X27.7312 Y22.4759
G01 X27.7055 Y22.4416
G01 X27.6783 Y22.4086
G01 X27.6495 Y22.3769
G01 X27.6192 Y22.3466
G01 X27.5875 Y22.3178
G01 X27.5544 Y22.2905
G01 X27.5201 Y22.2649
G01 X27.4847 Y22.2409
G01 X27.4481 Y22.2186
G01 X27.4105 Y22.1980
G01 X27.3720 Y22.1793
G01 X27.3326 Y22.1625
G01 X27.2925 Y22.1475
G01 X27.2517 Y22.1344
G01 X27.2103 Y22.1234
G01 X27.1684 Y22.1143
G01 X27.1262 Y22.1072
G01 X27.0836 Y22.1021
G01 X27.0409 Y22.0990
G01 X26.9981 Y22.0980
G01 X26.9553 Y22.0990
G01 X26.9125 Y22.1021
G01 X26.8700 Y22.1072
G01 X26.8278 Y22.1143
G01 X26.7859 Y22.1234
G01 X26.7445 Y22.1344
G01 X26.7037 Y22.1475
G01 X26.6636 Y22.1625
G01 X26.6242 Y22.1793
G01 X26.5857 Y22.1980
G01 X26.5481 Y22.2186
G01 X26.5115 Y22.2409
G01 X26.4760 Y22.2649
G01 X26.4418 Y22.2905
G01 X26.4087 Y22.3178
G01 X26.3770 Y22.3466
G01 X26.3467 Y22.3769
G01 X26.3179 Y22.4086
G01 X26.2906 Y22.4416
G01 X26.2650 Y22.4759
G01 X26.2410 Y22.5114
G01 X26.2187 Y22.5480
G01 X26.1981 Y22.5856
G01 X26.1794 Y22.6241
G01 X26.1626 Y22.6635
G01 X26.1476 Y22.7036
G01 X26.1346 Y22.7444
G01 X26.1235 Y22.7858
G01 X26.1144 Y22.8277
G01 X26.1073 Y22.8699
G01 X26.1022 Y22.9124
G01 X26.0991 Y22.9552
G01 X26.0981 Y22.9980
G01 X26.0991 Y23.0408
G01 X26.1022 Y23.0835
G01 X26.1073 Y23.1261
G01 X26.1144 Y23.1683
G01 X26.1235 Y23.2102
G01 X26.1346 Y23.2516
G01 X26.1476 Y23.2924
G01 X26.1626 Y23.3325
G01 X26.1794 Y23.3719
G01 X26.1981 Y23.4104
G01 X26.2187 Y23.4480
G01 X26.2410 Y23.4846
G01 X26.2650 Y23.5200
G01 X26.2906 Y23.5543
G01 X26.3179 Y23.5874
G01 X26.3467 Y23.6191
G01 X26.3770 Y23.6494
G01 X26.4087 Y23.6782
G01 X26.4418 Y23.7054
G01 X26.4760 Y23.7311
G01 X26.5115 Y23.7551
G01 X26.5481 Y23.7774
G01 X26.5857 Y23.7979
G01 X26.6242 Y23.8167
G01 X26.6636 Y23.8335
G01 X26.7037 Y23.8485
G01 X26.7445 Y23.8615
G01 X26.7859 Y23.8726
G01 X26.8278 Y23.8817
G01 X26.8700 Y23.8888
G01 X26.9125 Y23.8939
G01 X26.9553 Y23.8970
G01 X26.9981 Y23.8980
G01 X27.0409 Y23.8970
G01 X27.0836 Y23.8939
G01 X27.1262 Y23.8888
G01 X27.1684 Y23.8817
G01 X27.2103 Y23.8726
G01 X27.2517 Y23.8615
G01 X27.2925 Y23.8485
G01 X27.3326 Y23.8335
G01 X27.3720 Y23.8167
G01 X27.4105 Y23.7979
G01 X27.4481 Y23.7774
G01 X27.4847 Y23.7551
G01 X27.5201 Y23.7311
G01 X27.5544 Y23.7054
G01 X27.5875 Y23.6782
G01 X27.6192 Y23.6494
G01 X27.6495 Y23.6191
G01 X27.6783 Y23.5874
G01 X27.7055 Y23.5543
G01 X27.7312 Y23.5200
G01 X27.7552 Y23.4846
G01 X27.7775 Y23.4480
G01 X27.7980 Y23.4104
G01 X27.8168 Y23.3719
G01 X27.8336 Y23.3325
G01 X27.8486 Y23.2924
G01 X27.8616 Y23.2516
G01 X27.8727 Y23.2102
G01 X27.8818 Y23.1683
G01 X27.8889 Y23.1261
G01 X27.8940 Y23.0835
G01 X27.8971 Y23.0408
G01 X27.8981 Y22.9980
G01 X27.9056 Y22.9669 F1000
G01 X27.9121 Y22.9356
G01 X27.9175 Y22.9041
G01 X27.9217 Y22.8725
G01 X27.9249 Y22.8407
G01 X27.9270 Y22.8088
G01 X27.9280 Y22.7769
G01 X27.9278 Y22.7449
G01 X27.9266 Y22.7130
G01 X27.9242 Y22.6811
G01 X27.9208 Y22.6493
G01 X27.9162 Y22.6177
G01 X27.9065 Y22.5662
G01 X27.8942 Y22.5153
G01 X27.8792 Y22.4650
G01 X27.8617 Y22.4156
G01 X27.8417 Y22.3672
G01 X27.8192 Y22.3199
G01 X27.7943 Y22.2738
G01 X27.7671 Y22.2290
G01 X27.7350 Y22.1820
G01 X27.7007 Y22.1367
G01 X27.6640 Y22.0931
G01 X27.6252 Y22.0516
G01 X27.5842 Y22.0120
G01 X27.5414 Y21.9746
G01 X27.4966 Y21.9395
G01 X27.4501 Y21.9067
G01 X27.3982 Y21.8738
G01 X27.3447 Y21.8437
G01 X27.2898 Y21.8163
G01 X27.2335 Y21.7918
G01 X27.1760 Y21.7701
G01 X27.1175 Y21.7514
G01 X27.0582 Y21.7357
G01 X26.9981 Y21.7230
G01 X26.9330 Y21.7127
G01 X26.8674 Y21.7056
G01 X26.8016 Y21.7020
G01 X26.7357 Y21.7016
G01 X26.6698 Y21.7046
G01 X26.6042 Y21.7109
G01 X26.5389 Y21.7205
G01 X26.4743 Y21.7334
G01 X26.4060 Y21.7507
G01 X26.3386 Y21.7714
G01 X26.2724 Y21.7954
G01 X26.2075 Y21.8228
G01 X26.1440 Y21.8534
G01 X26.0821 Y21.8872
G01 X26.0221 Y21.9240
G01 X25.9640 Y21.9638
G01 X25.9104 Y22.0133
G01 X25.8594 Y22.0653
G01 X25.8110 Y22.1197
G01 X25.7654 Y22.1765
G01 X25.7226 Y22.2355
G01 X25.6827 Y22.2965
G01 X25.6459 Y22.3594
G01 X25.6123 Y22.4240
G01 X25.5858 Y22.4927
G01 X25.5627 Y22.5626
G01 X25.5431 Y22.6335
G01 X25.5269 Y22.7054
G01 X25.5144 Y22.7779
G01 X25.5053 Y22.8510
G01 X25.4999 Y22.9244
G01 X25.4981 Y22.9980
G01 X25.4999 Y23.0716
G01 X25.5053 Y23.1450
G01 X25.5144 Y23.2181
G01 X25.5269 Y23.2906
G01 X25.5431 Y23.3625
G01 X25.5627 Y23.4334
G01 X25.5858 Y23.5033
G01 X25.6123 Y23.5720
G01 X25.6421 Y23.6393
G01 X25.6752 Y23.7051
G01 X25.7115 Y23.7691
G01 X25.7509 Y23.8313
G01 X25.7933 Y23.8915
G01 X25.8386 Y23.9496
G01 X25.8867 Y24.0053
G01 X25.9375 Y24.0586
G01 X25.9908 Y24.1094
G01 X26.0465 Y24.1575
G01 X26.1046 Y24.2028
G01 X26.1648 Y24.2452
G01 X26.2270 Y24.2846
G01 X26.2910 Y24.3208
G01 X26.3568 Y24.3540
G01 X26.4241 Y24.3838
G01 X26.4928 Y24.4103
G01 X26.5627 Y24.4334
G01 X26.6336 Y24.4530
G01 X26.7055 Y24.4691
G01 X26.7780 Y24.4817
G01 X26.8511 Y24.4907
G01 X26.9245 Y24.4962
G01 X26.9981 Y24.4980
G01 X27.0717 Y24.4962
G01 X27.1451 Y24.4907
G01 X27.2182 Y24.4817
G01 X27.2907 Y24.4691
G01 X27.3626 Y24.4530
G01 X27.4335 Y24.4334
G01 X27.5034 Y24.4103
G01 X27.5721 Y24.3838
G01 X27.6394 Y24.3540
G01 X27.7052 Y24.3208
G01 X27.7692 Y24.2846
G01 X27.8314 Y24.2452
G01 X27.8916 Y24.2028
G01 X27.9497 Y24.1575
G01 X28.0054 Y24.1094
G01 X28.0587 Y24.0586
G01 X28.1095 Y24.0053
G01 X28.1576 Y23.9496
G01 X28.2029 Y23.8915
G01 X28.2453 Y23.8313
G01 X28.2847 Y23.7691
G01 X28.3210 Y23.7051
G01 X28.3541 Y23.6393
G01 X28.3839 Y23.5720
G01 X28.4104 Y23.5033
G01 X28.4335 Y23.4334
G01 X28.4531 Y23.3625
G01 X28.4692 Y23.2906
G01 X28.4818 Y23.2181
G01 X28.4908 Y23.1450
G01 X28.4963 Y23.0716
G01 X28.4981 Y22.9980
G01 X28.4939 Y22.8859
G01 X28.4813 Y22.7744
G01 X28.4605 Y22.6642
G01 X28.4314 Y22.5559
G01 X28.3944 Y22.4500
G01 X28.3495 Y22.3472
G01 X28.2971 Y22.2480
G01 X28.2374 Y22.1530
G01 X28.1708 Y22.0628
G01 X28.0977 Y21.9778
G01 X28.0183 Y21.8984
G01 X27.9333 Y21.8253
G01 X27.8431 Y21.7587
G01 X27.7481 Y21.6990
G01 X27.6489 Y21.6466
G01 X27.5461 Y21.6017
G01 X27.4402 Y21.5647
G01 X27.3319 Y21.5356
G01 X27.2217 Y21.5148
G01 X27.1102 Y21.5022
G01 X26.9981 Y21.4980
G01 X26.8860 Y21.5022
G01 X26.7745 Y21.5148
G01 X26.6643 Y21.5356
G01 X26.5560 Y21.5647
G01 X26.4501 Y21.6017
G01 X26.3473 Y21.6466
G01 X26.2481 Y21.6990
G01 X26.1531 Y21.7587
G01 X26.0629 Y21.8253
G01 X25.9779 Y21.8984
G01 X25.8985 Y21.9778
G01 X25.8254 Y22.0628
G01 X25.7588 Y22.1530
G01 X25.6991 Y22.2480
G01 X25.6467 Y22.3472
G01 X25.6018 Y22.4500
G01 X25.5648 Y22.5559
G01 X25.5357 Y22.6642
G01 X25.5149 Y22.7744
G01 X25.5023 Y22.8859
G01 X25.4981 Y22.9980
G01 X25.5023 Y23.1101
G01 X25.5149 Y23.2216
G01 X25.5357 Y23.3318
G01 X25.5648 Y23.4401
G01 X25.6018 Y23.5460
G01 X25.6467 Y23.6488
G01 X25.6991 Y23.7480
G01 X25.7588 Y23.8430
G01 X25.8254 Y23.9332
G01 X25.8985 Y24.0182
G01 X25.9779 Y24.0975
G01 X26.0629 Y24.1707
G01 X26.1531 Y24.2373
G01 X26.2481 Y24.2970
G01 X26.3473 Y24.3494
G01 X26.4501 Y24.3943
G01 X26.5560 Y24.4313
G01 X26.6643 Y24.4604
G01 X26.7745 Y24.4812
G01 X26.8860 Y24.4938
G01 X26.9981 Y24.4980
G01 X27.1102 Y24.4938
G01 X27.2217 Y24.4812
G01 X27.3319 Y24.4604
G01 X27.4402 Y24.4313
G01 X27.5461 Y24.3943
G01 X27.6489 Y24.3494
G01 X27.7481 Y24.2970
G01 X27.8431 Y24.2373
G01 X27.9333 Y24.1707
G01 X28.0183 Y24.0975
G01 X28.0977 Y24.0182
G01 X28.1708 Y23.9332
G01 X28.2374 Y23.8430
G01 X28.2971 Y23.7480
G01 X28.3495 Y23.6488
G01 X28.3944 Y23.5460
G01 X28.4314 Y23.4401
G01 X28.4605 Y23.3318
G01 X28.4813 Y23.2216
G01 X28.4939 Y23.1101
G01 X28.4981 Y22.9980
M107
M106 S240
G01 X28.4950 Y22.9195 Z-5.9750 F400
M107
M106 S240
G01 X28.4858 Y22.8416 Z-5.9500
M107
M106 S240
G01 X28.4704 Y22.7645 Z-5.9250
M107
M106 S240
G01 X28.4491 Y22.6890 Z-5.9000
M107
M106 S240
G01 X28.4219 Y22.6153 Z-5.8750
M107
M106 S240
G01 X28.3891 Y22.5440 Z-5.8500
M107
M106 S240
G01 X28.3507 Y22.4755 Z-5.8250
M107
M106 S240
G01 X28.3071 Y22.4102 Z-5.8000
M107
M106 S240
G01 X28.2585 Y22.3485 Z-5.7750
M107
M106 S240
G01 X28.2052 Y22.2909 Z-5.7500
M107
M106 S240
G01 X28.1475 Y22.2376 Z-5.7250
M107
M106 S240
G01 X28.0859 Y22.1890 Z-5.7000
M107
M106 S240
G01 X28.0206 Y22.1454 Z-5.6750
M107
M106 S240
G01 X27.9521 Y22.1070 Z-5.6500
M107
M106 S240
G01 X27.8807 Y22.0741 Z-5.6250
M107
M106 S240
G01 X27.8071 Y22.0469 Z-5.6000
M107
M106 S240
G01 X27.7315 Y22.0256 Z-5.5750
M107
M106 S240
G01 X27.6545 Y22.0103 Z-5.5500
M107
M106 S240
G01 X27.5765 Y22.0011 Z-5.5250
M107
M106 S240
G01 X27.4981 Y21.9980 Z-5.5000
M107
G00 Z2.0000


;No. 2: Hole 22
G00 X41.4587 Y40.8944 Z2.0000
G00 Z0.5000
G01 Z0.0000 F400
G01 Z-1.2000
M106 S240
G01 X46.2307 F1000
G01 Y42.3944
G01 X41.4587
G01 Y43.8944
G01 X46.2307
G01 Y45.3944
G01 X41.4587
G01 Y46.8944
G01 X46.8434
G01 Y48.3944
G01 X41.4587
G01 X57.0447
G01 X59.0067 Y49.8944
G01 X41.4587
G01 Y51.3944
G01 X46.2336
G01 X46.2307 Y52.8944
G01 X41.4587
G01 Y54.3944
G01 X46.2307
G01 Y55.8944
G01 X41.4587
G01 Y57.3944
G01 X46.2307
G01 X46.3851 Y58.8944
G01 X41.4587
G01 Y60.3944
G01 X59.0661
G01 X60.1055 Y58.8944
G01 X53.7683
G01 X55.4637
G01 Y57.3944
G01 X60.6570
G01 X60.8858 Y55.8944
G01 X56.0458
G01 X56.1161 Y54.3944
G01 X60.8780
G01 X60.6326 Y52.8944
G01 X55.7180
G01 Y51.3944
G01 X54.5190
G01 X54.3973 Y51.5531
G01 X54.6588 Y51.7824
G01 X54.9002 Y52.0327
G01 X55.1200 Y52.3022
G01 X55.3164 Y52.5891
G01 X55.4883 Y52.8915
G01 X55.6343 Y53.2071
G01 X55.7535 Y53.5338
G01 X55.8450 Y53.8693
G01 X55.9082 Y54.2112
G01 X55.9427 Y54.5573
G01 X55.9482 Y54.9050
G01 X55.9246 Y55.2520
G01 X55.9019 Y55.5702
G01 X55.8541 Y55.8857
G01 X55.7813 Y56.1964
G01 X55.6841 Y56.5003
G01 X55.5631 Y56.7956
G01 X55.4191 Y57.0803
G01 X55.2529 Y57.3527
G01 X55.0656 Y57.6110
G01 X54.8584 Y57.8537
G01 X54.6325 Y58.0791
G01 X54.3895 Y58.2859
G01 X54.1309 Y58.4728
G01 X53.8582 Y58.6385
G01 X53.5733 Y58.7821
G01 X53.2778 Y58.9026
G01 X52.9737 Y58.9993
G01 X52.7083 Y59.0738
G01 X52.4403 Y59.1382
G01 X52.1701 Y59.1924
G01 X51.8979 Y59.2362
G01 X51.6243 Y59.2697
G01 X51.3497 Y59.2928
G01 X51.0743 Y59.3054
G01 X50.7987 Y59.3075
G01 X47.4307
G01 X47.3522 Y59.3044
G01 X47.2743 Y59.2952
G01 X47.1973 Y59.2799
G01 X47.1217 Y59.2586
G01 X47.0480 Y59.2314
G01 X46.9767 Y59.1985
G01 X46.9082 Y59.1601
G01 X46.8429 Y59.1165
G01 X46.7813 Y59.0679
G01 X46.7236 Y59.0146
G01 X46.6703 Y58.9569
G01 X46.6217 Y58.8953
G01 X46.5781 Y58.8300
G01 X46.5397 Y58.7615
G01 X46.5068 Y58.6902
G01 X46.4796 Y58.6165
G01 X46.4583 Y58.5409
G01 X46.4430 Y58.4639
G01 X46.4338 Y58.3860
G01 X46.4307 Y58.3075
G01 Y51.4683
G01 X46.4317 Y51.4247
G01 X46.4345 Y51.3811
G01 X46.4393 Y51.3378
G01 X46.4459 Y51.2947
G01 X46.4544 Y51.2519
G01 X46.4648 Y51.2095
G01 X46.4770 Y51.1676
G01 X46.4910 Y51.1263
G01 X46.5068 Y51.0856
G01 X46.5244 Y51.0457
G01 X46.5437 Y51.0066
G01 X46.5647 Y50.9683
G01 X46.5873 Y50.9310
G01 X46.6115 Y50.8947
G01 X46.6373 Y50.8595
G01 X46.6646 Y50.8255
G01 X46.6934 Y50.7927
G01 X46.7236 Y50.7612
G01 X46.7551 Y50.7310
G01 X46.7879 Y50.7023
G01 X46.8219 Y50.6750
G01 X46.8571 Y50.6492
G01 X46.8934 Y50.6249
G01 X46.9307 Y50.6023
G01 X46.9689 Y50.5813
G01 X47.0081 Y50.5620
G01 X47.0480 Y50.5444
G01 X47.0887 Y50.5286
G01 X47.1300 Y50.5146
G01 X47.1719 Y50.5024
G01 X47.2142 Y50.4920
G01 X47.2570 Y50.4835
G01 X47.3001 Y50.4769
G01 X47.3435 Y50.4721
G01 X47.3871 Y50.4693
G01 X47.4307 Y50.4683
G01 X48.3891 Y50.4447
G01 X49.3479 Y50.4387
G01 X50.3065 Y50.4505
G01 X51.2648 Y50.4800
G01 X51.6843 Y50.5062
G01 X52.1006 Y50.5644
G01 X52.5112 Y50.6542
G01 X52.9138 Y50.7752
G01 X53.3059 Y50.9265
G01 X53.6853 Y51.1073
G01 X54.0498 Y51.3166
G01 X54.3973 Y51.5531
G01 X54.5190 Y51.3944
G01 X60.0629
M107
G00 Z2.0000
G00 X57.0898 Y60.3944
G00 Z0.5000
G01 Z-1.2000 F400
M106 S240
G01 Y61.8944 F1000
G01 X41.4587
G01 X41.2587 Y61.8815
G01 Y63.3336
G01 X51.3471
G01 X51.8146 Y63.3364
G01 X52.2820 Y63.3221
G01 X52.7485 Y63.2909
G01 X53.2135 Y63.2426
G01 X53.6765 Y63.1775
G01 X54.1368 Y63.0955
G01 X54.5938 Y62.9969
G01 X55.0469 Y62.8817
G01 X55.4955 Y62.7500
G01 X55.9391 Y62.6021
G01 X56.3769 Y62.4382
G01 X56.8085 Y62.2584
G01 X57.1651 Y62.0909
G01 X57.5118 Y61.9037
G01 X57.8475 Y61.6976
G01 X58.1712 Y61.4730
G01 X58.4819 Y61.2307
G01 X58.7786 Y60.9715
G01 X59.0603 Y60.6961
G01 X59.3263 Y60.4055
G01 X59.5757 Y60.1005
G01 X59.8076 Y59.7820
G01 X60.0215 Y59.4511
G01 X60.2165 Y59.1088
G01 X60.3922 Y58.7562
G01 X60.5479 Y58.3943
G01 X60.6832 Y58.0243
G01 X60.7977 Y57.6473
G01 X60.9070 Y57.1817
G01 X60.9929 Y56.7112
G01 X61.0554 Y56.2370
G01 X61.0942 Y55.7603
G01 X61.1093 Y55.2823
G01 X61.1006 Y54.8041
G01 X61.0681 Y54.3270
G01 X61.0119 Y53.8520
G01 X60.9321 Y53.3804
G01 X60.8290 Y52.9134
G01 X60.7029 Y52.4521
G01 X60.5539 Y51.9976
G01 X60.3607 Y51.5557
G01 X60.1390 Y51.1274
G01 X59.8897 Y50.7145
G01 X59.6140 Y50.3188
G01 X59.3130 Y49.9419
G01 X58.9880 Y49.5856
G01 X58.6404 Y49.2513
G01 X58.2716 Y48.9404
G01 X57.8834 Y48.6543
G01 X57.4772 Y48.3942
G01 X57.0549 Y48.1612
G01 X56.6183 Y47.9564
G01 X56.1717 Y47.7731
G01 X55.7190 Y47.6058
G01 X55.2605 Y47.4547
G01 X54.7970 Y47.3200
G01 X54.3290 Y47.2019
G01 X53.8571 Y47.1005
G01 X53.3819 Y47.0160
G01 X52.9040 Y46.9484
G01 X52.4239 Y46.8979
G01 X51.9424 Y46.8644
G01 X51.4600 Y46.8481
G01 X50.9773 Y46.8490
G01 X47.4307
G01 X47.3522 Y46.8459
G01 X47.2743 Y46.8367
G01 X47.1973 Y46.8214
G01 X47.1217 Y46.8001
G01 X47.0480 Y46.7729
G01 X46.9767 Y46.7400
G01 X46.9082 Y46.7016
G01 X46.8429 Y46.6580
G01 X46.7813 Y46.6094
G01 X46.7236 Y46.5561
G01 X46.6703 Y46.4984
G01 X46.6217 Y46.4368
G01 X46.5781 Y46.3715
G01 X46.5397 Y46.3030
G01 X46.5068 Y46.2317
G01 X46.4796 Y46.1580
G01 X46.4583 Y46.0824
G01 X46.4430 Y46.0054
G01 X46.4338 Y45.9275
G01 X46.4307 Y45.8490
G01 Y39.4552
G01 X41.2587
G01 Y61.8815
G01 X41.4587 Y61.8944
M107
G00 Z2.0000


;No. 3: Hole 16
G00 X66.3694 Y61.8944 Z2.0000
G00 Z0.5000
G01 Z0.0000 F400
G01 Z-1.2000
M106 S240
G01 X71.1414 F1000
G01 Y60.3944
G01 X66.3694
G01 Y58.8944
G01 X71.1414
G01 Y57.3944
G01 X66.3694
G01 Y55.8944
G01 X71.1414
G01 Y54.3944
G01 X66.3694
G01 Y52.8944
G01 X71.1414
G01 Y51.3944
G01 X66.3694
G01 Y49.8944
G01 X71.1414
G01 Y48.3944
G01 X66.3694
G01 Y46.8944
G01 X71.1414
G01 Y45.3944
G01 X66.3694
G01 Y43.8944
G01 X71.4901
G01 Y42.3944
G01 X66.3694
G01 X83.6738
G01 Y40.8944
G01 X66.3694
G01 X66.1694 Y40.9073
G01 Y63.3335
G01 X71.3414
G01 Y44.7399
G01 X71.3445 Y44.6614
G01 X71.3537 Y44.5835
G01 X71.3690 Y44.5065
G01 X71.3903 Y44.4309
G01 X71.4175 Y44.3572
G01 X71.4504 Y44.2859
G01 X71.4888 Y44.2174
G01 X71.5324 Y44.1521
G01 X71.5810 Y44.0905
G01 X71.6343 Y44.0328
G01 X71.6920 Y43.9795
G01 X71.7536 Y43.9309
G01 X71.8189 Y43.8873
G01 X71.8874 Y43.8489
G01 X71.9587 Y43.8160
G01 X72.0324 Y43.7888
G01 X72.1080 Y43.7675
G01 X72.1850 Y43.7522
G01 X72.2629 Y43.7430
G01 X72.3414 Y43.7399
G01 X83.8738
G01 Y39.4552
G01 X66.1694
G01 Y40.9073
G01 X66.3694 Y40.8944
M107
G00 Z2.0000


;No. 4: Hole 21
G00 X88.7831 Y47.6443 Z2.0000
G00 Z0.5000
G01 Z0.0000 F400
G01 Z-1.2000
M106 S240
G01 X94.0261 F1000
G01 X93.4748 Y49.1443
G01 X88.4169
G01 X88.2452 Y50.6443
G01 X93.2152
G01 X93.2089 Y52.1443
G01 X88.2495
G01 X88.4327 Y53.6443
G01 X93.4511
G01 X93.9825 Y55.1443
G01 X88.8118
G01 X89.4104 Y56.6443
G01 X94.8904
G01 X96.4227 Y58.1443
G01 X90.2687
G01 X91.4608 Y59.6443
G01 X110.5383
G01 X111.7163 Y58.1443
G01 X105.4509
G01 X107.0072 Y56.6443
G01 X112.5599
G01 X113.1448 Y55.1443
G01 X107.9380
G01 X108.4901 Y53.6443
G01 X113.5110
G01 X113.6827 Y52.1443
G01 X108.7498
G01 X108.7561 Y50.6443
G01 X113.6784
G01 X113.4952 Y49.1443
G01 X108.5138
G01 X107.9815 Y47.6443
G01 X113.1161
G01 X112.5175 Y46.1443
G01 X107.0715
G01 X105.5334 Y44.6443
G01 X111.6592
G01 X110.4671 Y43.1443
G01 X91.3896
G01 X90.2116 Y44.6443
G01 X96.5054
G01 X94.9547 Y46.1443
G01 X95.1329 Y46.2414
G01 X95.4081 Y45.9122
G01 X95.7017 Y45.5993
G01 X96.0128 Y45.3038
G01 X96.3404 Y45.0266
G01 X96.6832 Y44.7687
G01 X97.0404 Y44.5308
G01 X97.4105 Y44.3138
G01 X97.7925 Y44.1184
G01 X98.1851 Y43.9453
G01 X98.5869 Y43.7949
G01 X98.9968 Y43.6678
G01 X99.4132 Y43.5644
G01 X99.8349 Y43.4851
G01 X100.2604 Y43.4301
G01 X100.6884 Y43.3996
G01 X101.1174 Y43.3937
G01 X101.5461 Y43.4123
G01 X101.9730 Y43.4556
G01 X102.3967 Y43.5232
G01 X102.8158 Y43.6151
G01 X103.3036 Y43.7521
G01 X103.7810 Y43.9219
G01 X104.2458 Y44.1237
G01 X104.6958 Y44.3566
G01 X105.1290 Y44.6194
G01 X105.5434 Y44.9111
G01 X105.9370 Y45.2301
G01 X106.3081 Y45.5752
G01 X106.6549 Y45.9446
G01 X106.9758 Y46.3367
G01 X107.2694 Y46.7497
G01 X107.5343 Y47.1816
G01 X107.7693 Y47.6305
G01 X107.9733 Y48.0943
G01 X108.1454 Y48.5709
G01 X108.2848 Y49.0581
G01 X108.4093 Y49.5654
G01 X108.5025 Y50.0794
G01 X108.5640 Y50.5981
G01 X108.5936 Y51.1197
G01 X108.5911 Y51.6421
G01 X108.5567 Y52.1633
G01 X108.4903 Y52.6814
G01 X108.3924 Y53.1945
G01 X108.2631 Y53.7007
G01 X108.1031 Y54.1979
G01 X107.9129 Y54.6845
G01 X107.6932 Y55.1584
G01 X107.4449 Y55.6180
G01 X107.1689 Y56.0615
G01 X106.8662 Y56.4872
G01 X106.5380 Y56.8936
G01 X106.2100 Y57.2343
G01 X105.8614 Y57.5538
G01 X105.4934 Y57.8508
G01 X105.1076 Y58.1243
G01 X104.7055 Y58.3731
G01 X104.2886 Y58.5963
G01 X103.8586 Y58.7930
G01 X103.4171 Y58.9624
G01 X102.9658 Y59.1038
G01 X102.5066 Y59.2168
G01 X102.0413 Y59.3009
G01 X101.5716 Y59.3557
G01 X101.0994 Y59.3810
G01 X100.6265 Y59.3767
G01 X100.1548 Y59.3429
G01 X99.6862 Y59.2797
G01 X99.2224 Y59.1872
G01 X98.7653 Y59.0660
G01 X98.3167 Y58.9164
G01 X97.8784 Y58.7391
G01 X97.4519 Y58.5347
G01 X97.0391 Y58.3041
G01 X96.6415 Y58.0480
G01 X96.2607 Y57.7677
G01 X95.9176 Y57.4619
G01 X95.5925 Y57.1372
G01 X95.2863 Y56.7946
G01 X95.0000 Y56.4351
G01 X94.7346 Y56.0599
G01 X94.4909 Y55.6703
G01 X94.2698 Y55.2675
G01 X94.0718 Y54.8527
G01 X93.8978 Y54.4274
G01 X93.7481 Y53.9930
G01 X93.6234 Y53.5507
G01 X93.5240 Y53.1020
G01 X93.4502 Y52.6484
G01 X93.4022 Y52.1914
G01 X93.3803 Y51.7324
G01 X93.3845 Y51.2729
G01 X93.4004 Y50.8213
G01 X93.4409 Y50.3713
G01 X93.5057 Y49.9242
G01 X93.5948 Y49.4812
G01 X93.7078 Y49.0438
G01 X93.8444 Y48.6131
G01 X94.0043 Y48.1906
G01 X94.1869 Y47.7773
G01 X94.3917 Y47.3746
G01 X94.6181 Y46.9836
G01 X94.8654 Y46.6055
G01 X95.1329 Y46.2414
G01 X94.9547 Y46.1443
G01 X89.3680
G01 X93.0625 Y41.6443
G01 X108.7818
G01 X106.1177 Y40.1443
G01 X95.7183
M107
G00 Z2.0000
G00 X93.1460 Y59.6443
G00 Z0.5000
G01 Z-1.2000 F400
M106 S240
G01 Y61.1443 F1000
G01 X108.8654
G01 X106.2096 Y62.6443
G01 X95.8100
G01 X95.7800 Y62.8480
G01 X96.3396 Y63.0581
G01 X96.9077 Y63.2443
G01 X97.4833 Y63.4060
G01 X98.0652 Y63.5431
G01 X98.6524 Y63.6554
G01 X99.2438 Y63.7425
G01 X99.8384 Y63.8044
G01 X100.4351 Y63.8409
G01 X101.0328 Y63.8520
G01 X101.6305 Y63.8376
G01 X102.2270 Y63.7978
G01 X102.8212 Y63.7326
G01 X103.4122 Y63.6422
G01 X103.9988 Y63.5267
G01 X104.5799 Y63.3864
G01 X105.1545 Y63.2215
G01 X105.7216 Y63.0322
G01 X106.2801 Y62.8190
G01 X106.8290 Y62.5822
G01 X107.3674 Y62.3222
G01 X107.8923 Y62.0313
G01 X108.4022 Y61.7149
G01 X108.8960 Y61.3737
G01 X109.3723 Y61.0087
G01 X109.8302 Y60.6207
G01 X110.2684 Y60.2106
G01 X110.6859 Y59.7795
G01 X111.0816 Y59.3284
G01 X111.4547 Y58.8583
G01 X111.8042 Y58.3704
G01 X112.1293 Y57.8659
G01 X112.4291 Y57.3461
G01 X112.7031 Y56.8121
G01 X112.9504 Y56.2653
G01 X113.1705 Y55.7069
G01 X113.3628 Y55.1384
G01 X113.5270 Y54.5612
G01 X113.6625 Y53.9766
G01 X113.7692 Y53.3860
G01 X113.8466 Y52.7908
G01 X113.8946 Y52.1926
G01 X113.9132 Y51.5928
G01 X113.9022 Y50.9927
G01 X113.8617 Y50.3939
G01 X113.7963 Y49.7808
G01 X113.7003 Y49.1716
G01 X113.5740 Y48.5680
G01 X113.4179 Y47.9715
G01 X113.2321 Y47.3835
G01 X113.0173 Y46.8055
G01 X112.7738 Y46.2389
G01 X112.5025 Y45.6852
G01 X112.2038 Y45.1456
G01 X111.8786 Y44.6217
G01 X111.5277 Y44.1146
G01 X111.1519 Y43.6257
G01 X110.7522 Y43.1562
G01 X110.3296 Y42.7071
G01 X109.8851 Y42.2797
G01 X109.4198 Y41.8750
G01 X108.9349 Y41.4940
G01 X108.4316 Y41.1377
G01 X107.9112 Y40.8069
G01 X107.3749 Y40.5025
G01 X106.8241 Y40.2252
G01 X106.2602 Y39.9758
G01 X105.6845 Y39.7547
G01 X105.0985 Y39.5627
G01 X104.4346 Y39.3744
G01 X103.7622 Y39.2189
G01 X103.0829 Y39.0968
G01 X102.3985 Y39.0082
G01 X101.7106 Y38.9534
G01 X101.0208 Y38.9326
G01 X100.3308 Y38.9457
G01 X99.6422 Y38.9928
G01 X98.9569 Y39.0737
G01 X98.2763 Y39.1882
G01 X97.6022 Y39.3361
G01 X96.9362 Y39.5170
G01 X96.2799 Y39.7305
G01 X95.6350 Y39.9760
G01 X95.0029 Y40.2529
G01 X94.3851 Y40.5607
G01 X93.8721 Y40.8557
G01 X93.3740 Y41.1754
G01 X92.8920 Y41.5188
G01 X92.4272 Y41.8853
G01 X91.9808 Y42.2738
G01 X91.5538 Y42.6836
G01 X91.1471 Y43.1136
G01 X90.7618 Y43.5628
G01 X90.3988 Y44.0302
G01 X90.0588 Y44.5147
G01 X89.7428 Y45.0151
G01 X89.4514 Y45.5303
G01 X89.1854 Y46.0590
G01 X88.9454 Y46.6000
G01 X88.7319 Y47.1519
G01 X88.5454 Y47.7136
G01 X88.3864 Y48.2837
G01 X88.2553 Y48.8609
G01 X88.1524 Y49.4437
G01 X88.0778 Y50.0308
G01 X88.0318 Y50.6209
G01 X88.0146 Y51.2124
G01 X88.0260 Y51.8042
G01 X88.0662 Y52.3947
G01 X88.1249 Y52.9618
G01 X88.2097 Y53.5256
G01 X88.3206 Y54.0849
G01 X88.4573 Y54.6384
G01 X88.6194 Y55.1850
G01 X88.8067 Y55.7236
G01 X89.0187 Y56.2529
G01 X89.2550 Y56.7717
G01 X89.5150 Y57.2791
G01 X89.7983 Y57.7740
G01 X90.1042 Y58.2551
G01 X90.4320 Y58.7216
G01 X90.7811 Y59.1724
G01 X91.1507 Y59.6066
G01 X91.5399 Y60.0232
G01 X91.9481 Y60.4213
G01 X92.3742 Y60.8001
G01 X92.8174 Y61.1588
G01 X93.2768 Y61.4965
G01 X93.7513 Y61.8127
G01 X94.2399 Y62.1065
G01 X94.7416 Y62.3774
G01 X95.2553 Y62.6247
G01 X95.7800 Y62.8480
G01 X95.8100 Y62.6443
M107
G00 Z2.0000


;No. 5: Hole 15
G00 X95.1030 Y68.7143 Z2.0000
G00 Z0.5000
G01 Z0.0000 F400
G01 Z-1.2000
M106 S240
G01 X99.0029 F1000
G01 Y67.0710
G01 X94.9030
G01 Y70.3575
G01 X99.0029
G01 Y68.7143
G01 X98.8029
M107
G00 Z2.0000


;No. 6: Hole 14
G00 X103.1992 Y68.7143 Z2.0000
G00 Z0.5000
G01 Z0.0000 F400
G01 Z-1.2000
M106 S240
G01 X107.0991 F1000
G01 Y67.0710
G01 X102.9992
G01 Y70.3575
G01 X107.0991
G01 Y68.7143
G01 X106.8991
M107
G00 Z2.0000


;No. 7: Hole 13
G00 X118.9877 Y50.7580 Z2.0000
G00 Z0.5000
G01 Z0.0000 F400
G01 Z-1.2000
M106 S240
G01 X128.7135 F1000
G01 Y49.2580
G01 X118.9877
G01 X118.7877 Y49.2658
G01 Y52.0949
G01 X128.9135
G01 Y47.9211
G01 X118.7877
G01 Y49.2658
G01 X118.9877 Y49.2580
M107
G00 Z2.0000


;No. 8: Hole 12
G00 X134.8918 Y49.8944 Z2.0000
G00 Z0.5000
G01 Z0.0000 F400
G01 Z-1.2000
M106 S240
G01 X152.0114 F1000
G01 Y51.3944
G01 X134.8918
G01 Y52.8944
G01 X152.0114
G01 X139.5899
G01 Y54.3944
G01 X134.8918
G01 Y55.8944
G01 X139.5899
G01 Y57.3944
G01 X134.8918
G01 Y58.8944
G01 X139.7893
G01 Y60.3944
G01 X134.8918
G01 X153.3053
G01 Y61.8944
G01 X134.8918
M107
G00 Z2.0000
G00 Y49.8944
G00 Z0.5000
G01 Z-1.2000 F400
M106 S240
G01 Y48.3944 F1000
G01 X139.5899
G01 Y46.8944
G01 X134.8918
G01 Y45.3944
G01 X139.5899
G01 Y43.8944
G01 X139.7893
G01 X134.8918
G01 Y42.3944
G01 X153.4902
G01 Y40.8944
G01 X134.8918
G01 X134.6918 Y40.9073
G01 Y63.3335
G01 X153.5053
G01 Y59.2336
G01 X140.7899
G01 X140.7463 Y59.2326
G01 X140.7027 Y59.2298
G01 X140.6594 Y59.2250
G01 X140.6163 Y59.2184
G01 X140.5735 Y59.2099
G01 X140.5311 Y59.1995
G01 X140.4892 Y59.1873
G01 X140.4479 Y59.1733
G01 X140.4072 Y59.1575
G01 X140.3673 Y59.1399
G01 X140.3282 Y59.1206
G01 X140.2899 Y59.0996
G01 X140.2526 Y59.0770
G01 X140.2163 Y59.0528
G01 X140.1811 Y59.0270
G01 X140.1471 Y58.9996
G01 X140.1143 Y58.9709
G01 X140.0828 Y58.9407
G01 X140.0526 Y58.9092
G01 X140.0239 Y58.8764
G01 X139.9965 Y58.8424
G01 X139.9707 Y58.8072
G01 X139.9465 Y58.7709
G01 X139.9239 Y58.7336
G01 X139.9029 Y58.6953
G01 X139.8836 Y58.6562
G01 X139.8660 Y58.6163
G01 X139.8502 Y58.5756
G01 X139.8362 Y58.5343
G01 X139.8240 Y58.4924
G01 X139.8136 Y58.4500
G01 X139.8051 Y58.4072
G01 X139.7985 Y58.3641
G01 X139.7937 Y58.3208
G01 X139.7909 Y58.2772
G01 X139.7899 Y58.2336
G01 Y54.3149
G01 X139.7930 Y54.2364
G01 X139.8022 Y54.1585
G01 X139.8175 Y54.0815
G01 X139.8388 Y54.0059
G01 X139.8660 Y53.9322
G01 X139.8989 Y53.8609
G01 X139.9373 Y53.7924
G01 X139.9809 Y53.7271
G01 X140.0295 Y53.6655
G01 X140.0828 Y53.6078
G01 X140.1405 Y53.5545
G01 X140.2021 Y53.5059
G01 X140.2674 Y53.4623
G01 X140.3359 Y53.4239
G01 X140.4072 Y53.3910
G01 X140.4809 Y53.3638
G01 X140.5565 Y53.3425
G01 X140.6335 Y53.3272
G01 X140.7114 Y53.3180
G01 X140.7899 Y53.3149
G01 X152.2114
G01 Y49.6586
G01 X140.7899
G01 X140.7463 Y49.6576
G01 X140.7027 Y49.6548
G01 X140.6594 Y49.6500
G01 X140.6163 Y49.6434
G01 X140.5735 Y49.6349
G01 X140.5311 Y49.6245
G01 X140.4892 Y49.6123
G01 X140.4479 Y49.5983
G01 X140.4072 Y49.5825
G01 X140.3673 Y49.5649
G01 X140.3282 Y49.5456
G01 X140.2899 Y49.5246
G01 X140.2526 Y49.5020
G01 X140.2163 Y49.4778
G01 X140.1811 Y49.4520
G01 X140.1471 Y49.4246
G01 X140.1143 Y49.3959
G01 X140.0828 Y49.3657
G01 X140.0526 Y49.3342
G01 X140.0239 Y49.3014
G01 X139.9965 Y49.2674
G01 X139.9707 Y49.2322
G01 X139.9465 Y49.1959
G01 X139.9239 Y49.1586
G01 X139.9029 Y49.1203
G01 X139.8836 Y49.0812
G01 X139.8660 Y49.0413
G01 X139.8502 Y49.0006
G01 X139.8362 Y48.9593
G01 X139.8240 Y48.9174
G01 X139.8136 Y48.8750
G01 X139.8051 Y48.8322
G01 X139.7985 Y48.7891
G01 X139.7937 Y48.7458
G01 X139.7909 Y48.7022
G01 X139.7899 Y48.6586
G01 Y44.5551
G01 X139.7930 Y44.4766
G01 X139.8022 Y44.3987
G01 X139.8175 Y44.3217
G01 X139.8388 Y44.2461
G01 X139.8660 Y44.1724
G01 X139.8989 Y44.1011
G01 X139.9373 Y44.0326
G01 X139.9809 Y43.9673
G01 X140.0295 Y43.9057
G01 X140.0828 Y43.8480
G01 X140.1405 Y43.7947
G01 X140.2021 Y43.7461
G01 X140.2674 Y43.7025
G01 X140.3359 Y43.6641
G01 X140.4072 Y43.6312
G01 X140.4809 Y43.6040
G01 X140.5565 Y43.5827
G01 X140.6335 Y43.5674
G01 X140.7114 Y43.5582
G01 X140.7899 Y43.5551
G01 X153.6902
G01 Y39.4552
G01 X134.6918
G01 Y40.9073
G01 X134.8918 Y40.8944
M107
G00 Z2.0000


;No. 9: Hole 20
G00 X159.0384 Y47.6443 Z2.0000
G00 Z0.5000
G01 Z0.0000 F400
G01 Z-1.2000
M106 S240
G01 X164.2814 F1000
G01 X163.7301 Y49.1443
G01 X158.6722
G01 X158.5005 Y50.6443
G01 X163.4705
G01 X163.4642 Y52.1443
G01 X158.5048
G01 X158.6880 Y53.6443
G01 X163.7064
G01 X164.2378 Y55.1443
G01 X159.0671
G01 X159.6657 Y56.6443
G01 X165.1457
G01 X166.6779 Y58.1443
G01 X160.5240
G01 X161.7161 Y59.6443
G01 X180.7937
G01 X181.9717 Y58.1443
G01 X175.7061
G01 X177.2624 Y56.6443
G01 X182.8153
G01 X183.4002 Y55.1443
G01 X178.1932
G01 X178.7453 Y53.6443
G01 X183.7664
G01 X183.9381 Y52.1443
G01 X179.0050
G01 X179.0113 Y50.6443
G01 X183.9338
G01 X183.7506 Y49.1443
G01 X178.7690
G01 X178.2367 Y47.6443
G01 X183.3715
G01 X182.7729 Y46.1443
G01 X177.3267
G01 X175.7887 Y44.6443
G01 X181.9145
G01 X180.7224 Y43.1443
G01 X161.6450
G01 X160.4669 Y44.6443
G01 X166.7607
G01 X165.2100 Y46.1443
G01 X165.3882 Y46.2414
G01 X165.6634 Y45.9122
G01 X165.9570 Y45.5993
G01 X166.2681 Y45.3038
G01 X166.5957 Y45.0266
G01 X166.9385 Y44.7687
G01 X167.2957 Y44.5308
G01 X167.6658 Y44.3138
G01 X168.0478 Y44.1184
G01 X168.4404 Y43.9453
G01 X168.8422 Y43.7949
G01 X169.2521 Y43.6678
G01 X169.6685 Y43.5644
G01 X170.0902 Y43.4851
G01 X170.5157 Y43.4301
G01 X170.9437 Y43.3996
G01 X171.3727 Y43.3937
G01 X171.8014 Y43.4123
G01 X172.2283 Y43.4556
G01 X172.6520 Y43.5232
G01 X173.0711 Y43.6151
G01 X173.5589 Y43.7521
G01 X174.0363 Y43.9219
G01 X174.5011 Y44.1237
G01 X174.9511 Y44.3566
G01 X175.3843 Y44.6194
G01 X175.7987 Y44.9111
G01 X176.1923 Y45.2301
G01 X176.5633 Y45.5752
G01 X176.9101 Y45.9446
G01 X177.2311 Y46.3367
G01 X177.5247 Y46.7497
G01 X177.7896 Y47.1816
G01 X178.0246 Y47.6305
G01 X178.2286 Y48.0943
G01 X178.4006 Y48.5709
G01 X178.5400 Y49.0581
G01 X178.6645 Y49.5654
G01 X178.7577 Y50.0794
G01 X178.8192 Y50.5982
G01 X178.8488 Y51.1197
G01 X178.8463 Y51.6421
G01 X178.8119 Y52.1633
G01 X178.7455 Y52.6815
G01 X178.6476 Y53.1946
G01 X178.5183 Y53.7007
G01 X178.3583 Y54.1980
G01 X178.1681 Y54.6845
G01 X177.9484 Y55.1584
G01 X177.7001 Y55.6180
G01 X177.4241 Y56.0615
G01 X177.1214 Y56.4872
G01 X176.7932 Y56.8936
G01 X176.4652 Y57.2343
G01 X176.1166 Y57.5538
G01 X175.7486 Y57.8508
G01 X175.3628 Y58.1243
G01 X174.9607 Y58.3731
G01 X174.5438 Y58.5963
G01 X174.1138 Y58.7930
G01 X173.6723 Y58.9624
G01 X173.2210 Y59.1038
G01 X172.7618 Y59.2168
G01 X172.2965 Y59.3009
G01 X171.8268 Y59.3557
G01 X171.3546 Y59.3810
G01 X170.8817 Y59.3767
G01 X170.4100 Y59.3429
G01 X169.9414 Y59.2797
G01 X169.4776 Y59.1872
G01 X169.0206 Y59.0660
G01 X168.5720 Y58.9164
G01 X168.1336 Y58.7391
G01 X167.7071 Y58.5347
G01 X167.2943 Y58.3040
G01 X166.8967 Y58.0480
G01 X166.5159 Y57.7677
G01 X166.1729 Y57.4619
G01 X165.8477 Y57.1372
G01 X165.5415 Y56.7945
G01 X165.2552 Y56.4351
G01 X164.9899 Y56.0599
G01 X164.7462 Y55.6703
G01 X164.5250 Y55.2675
G01 X164.3271 Y54.8527
G01 X164.1530 Y54.4274
G01 X164.0034 Y53.9929
G01 X163.8787 Y53.5506
G01 X163.7793 Y53.1020
G01 X163.7055 Y52.6484
G01 X163.6575 Y52.1914
G01 X163.6356 Y51.7324
G01 X163.6398 Y51.2729
G01 X163.6557 Y50.8213
G01 X163.6962 Y50.3713
G01 X163.7610 Y49.9242
G01 X163.8501 Y49.4812
G01 X163.9631 Y49.0438
G01 X164.0997 Y48.6131
G01 X164.2596 Y48.1906
G01 X164.4422 Y47.7773
G01 X164.6470 Y47.3746
G01 X164.8734 Y46.9836
G01 X165.1207 Y46.6055
G01 X165.3882 Y46.2414
G01 X165.2100 Y46.1443
G01 X159.6233
G01 X163.3178 Y41.6443
G01 X179.0371
G01 X176.3730 Y40.1443
G01 X165.9736
M107
G00 Z2.0000
G00 X163.4014 Y59.6443
G00 Z0.5000
G01 Z-1.2000 F400
M106 S240
G01 Y61.1443 F1000
G01 X179.1208
G01 X176.4650 Y62.6443
G01 X166.0654
G01 X166.0353 Y62.8480
G01 X166.5950 Y63.0582
G01 X167.1631 Y63.2443
G01 X167.7386 Y63.4060
G01 X168.3205 Y63.5432
G01 X168.9077 Y63.6554
G01 X169.4992 Y63.7425
G01 X170.0938 Y63.8044
G01 X170.6905 Y63.8409
G01 X171.2882 Y63.8520
G01 X171.8859 Y63.8376
G01 X172.4824 Y63.7978
G01 X173.0766 Y63.7326
G01 X173.6676 Y63.6422
G01 X174.2541 Y63.5267
G01 X174.8353 Y63.3864
G01 X175.4099 Y63.2215
G01 X175.9770 Y63.0322
G01 X176.5355 Y62.8190
G01 X177.0844 Y62.5822
G01 X177.6228 Y62.3222
G01 X178.1477 Y62.0313
G01 X178.6576 Y61.7149
G01 X179.1514 Y61.3737
G01 X179.6277 Y61.0087
G01 X180.0856 Y60.6207
G01 X180.5238 Y60.2106
G01 X180.9413 Y59.7795
G01 X181.3370 Y59.3284
G01 X181.7101 Y58.8583
G01 X182.0596 Y58.3704
G01 X182.3847 Y57.8659
G01 X182.6845 Y57.3461
G01 X182.9585 Y56.8121
G01 X183.2058 Y56.2653
G01 X183.4259 Y55.7069
G01 X183.6182 Y55.1384
G01 X183.7824 Y54.5612
G01 X183.9179 Y53.9766
G01 X184.0246 Y53.3860
G01 X184.1020 Y52.7908
G01 X184.1500 Y52.1926
G01 X184.1686 Y51.5928
G01 X184.1576 Y50.9927
G01 X184.1171 Y50.3939
G01 X184.0516 Y49.7808
G01 X183.9557 Y49.1716
G01 X183.8294 Y48.5680
G01 X183.6732 Y47.9715
G01 X183.4875 Y47.3835
G01 X183.2726 Y46.8055
G01 X183.0292 Y46.2389
G01 X182.7578 Y45.6851
G01 X182.4592 Y45.1456
G01 X182.1340 Y44.6217
G01 X181.7830 Y44.1146
G01 X181.4073 Y43.6257
G01 X181.0075 Y43.1561
G01 X180.5849 Y42.7071
G01 X180.1404 Y42.2797
G01 X179.6751 Y41.8750
G01 X179.1902 Y41.4940
G01 X178.6870 Y41.1377
G01 X178.1665 Y40.8069
G01 X177.6302 Y40.5025
G01 X177.0794 Y40.2252
G01 X176.5155 Y39.9758
G01 X175.9398 Y39.7547
G01 X175.3538 Y39.5627
G01 X174.6899 Y39.3744
G01 X174.0175 Y39.2189
G01 X173.3382 Y39.0968
G01 X172.6538 Y39.0082
G01 X171.9659 Y38.9534
G01 X171.2761 Y38.9326
G01 X170.5861 Y38.9457
G01 X169.8976 Y38.9928
G01 X169.2122 Y39.0737
G01 X168.5316 Y39.1882
G01 X167.8575 Y39.3361
G01 X167.1915 Y39.5170
G01 X166.5353 Y39.7305
G01 X165.8903 Y39.9760
G01 X165.2582 Y40.2529
G01 X164.6405 Y40.5607
G01 X164.1274 Y40.8558
G01 X163.6293 Y41.1754
G01 X163.1473 Y41.5188
G01 X162.6826 Y41.8853
G01 X162.2361 Y42.2738
G01 X161.8091 Y42.6836
G01 X161.4024 Y43.1136
G01 X161.0171 Y43.5628
G01 X160.6541 Y44.0303
G01 X160.3141 Y44.5147
G01 X159.9981 Y45.0151
G01 X159.7068 Y45.5303
G01 X159.4407 Y46.0590
G01 X159.2007 Y46.6000
G01 X158.9872 Y47.1519
G01 X158.8007 Y47.7136
G01 X158.6418 Y48.2837
G01 X158.5106 Y48.8609
G01 X158.4077 Y49.4437
G01 X158.3331 Y50.0308
G01 X158.2871 Y50.6209
G01 X158.2699 Y51.2125
G01 X158.2813 Y51.8042
G01 X158.3215 Y52.3947
G01 X158.3802 Y52.9618
G01 X158.4650 Y53.5256
G01 X158.5759 Y54.0849
G01 X158.7126 Y54.6384
G01 X158.8747 Y55.1851
G01 X159.0620 Y55.7236
G01 X159.2740 Y56.2529
G01 X159.5103 Y56.7718
G01 X159.7704 Y57.2792
G01 X160.0536 Y57.7740
G01 X160.3595 Y58.2552
G01 X160.6873 Y58.7216
G01 X161.0364 Y59.1725
G01 X161.4060 Y59.6066
G01 X161.7953 Y60.0232
G01 X162.2034 Y60.4213
G01 X162.6296 Y60.8001
G01 X163.0728 Y61.1588
G01 X163.5321 Y61.4965
G01 X164.0066 Y61.8127
G01 X164.4953 Y62.1065
G01 X164.9970 Y62.3774
G01 X165.5107 Y62.6247
G01 X166.0353 Y62.8480
G01 X166.0654 Y62.6443
M107
G00 Z2.0000


;No. 10: Hole 9
G00 X200.2004 Y59.1162 Z2.0000
G00 Z0.5000
G01 Z0.0000 F400
G01 Z-1.2000
M106 S240
G01 X205.6829 F1000
G01 X203.6619 Y57.6162
G01 X202.0031
G01 X200.9908 Y60.6162
G01 X215.7343
G01 X216.5849 Y59.1162
G01 X210.5282
G01 X211.8828
G01 Y57.6162
G01 X216.9823
G01 X217.0535 Y56.1162
G01 X212.2442
G01 X212.0720 Y54.6162
G01 X216.8717
G01 X216.3425 Y53.1162
G01 X211.3440
G01 X210.0141 Y51.6162
G01 X215.3374
G01 X213.8182 Y50.1162
G01 X208.2200
G01 X206.2551 Y48.6162
G01 X211.9006
G01 X209.7700 Y47.1162
G01 X204.2901
G01 X202.3251 Y45.6162
G01 X207.6271
G01 X206.6479
G01 Y44.1162
G01 X200.3601
G01 X199.2374 Y42.6162
G01 X217.3181
G01 Y41.1162
G01 X199.2374
M107
G00 Z2.0000
G00 X202.8806 Y60.6162
G00 Z0.5000
G01 Z-1.2000 F400
M106 S240
G01 Y62.1162 F1000
G01 X214.1160
G01 X214.2684 Y62.2546
G01 X214.6208 Y62.0044
G01 X214.9564 Y61.7319
G01 X215.2736 Y61.4383
G01 X215.5713 Y61.1249
G01 X215.8481 Y60.7930
G01 X216.1030 Y60.4438
G01 X216.3347 Y60.0790
G01 X216.5425 Y59.6999
G01 X216.7254 Y59.3083
G01 X216.8826 Y58.9056
G01 X217.0136 Y58.4937
G01 X217.1176 Y58.0742
G01 X217.1944 Y57.6488
G01 X217.2436 Y57.2194
G01 X217.2650 Y56.7876
G01 X217.2585 Y56.3554
G01 X217.2523 Y55.8672
G01 X217.2130 Y55.3805
G01 X217.1410 Y54.8976
G01 X217.0365 Y54.4206
G01 X216.9000 Y53.9518
G01 X216.7322 Y53.4932
G01 X216.5337 Y53.0471
G01 X216.3055 Y52.6154
G01 X216.0487 Y52.2001
G01 X215.7644 Y51.8031
G01 X215.4540 Y51.4263
G01 X215.1187 Y51.0712
G01 X214.7195 Y50.6809
G01 X214.3114 Y50.2998
G01 X213.8948 Y49.9281
G01 X213.4698 Y49.5659
G01 X213.0367 Y49.2135
G01 X212.5956 Y48.8710
G01 X212.1469 Y48.5387
G01 X211.6908 Y48.2166
G01 X207.2606 Y45.1155
G01 X207.1890 Y45.0604
G01 X207.1227 Y44.9991
G01 X207.0622 Y44.9320
G01 X207.0079 Y44.8597
G01 X206.9604 Y44.7828
G01 X206.9201 Y44.7020
G01 X206.8872 Y44.6178
G01 X206.8620 Y44.5311
G01 X206.8448 Y44.4424
G01 X206.8357 Y44.3525
G01 X206.8347 Y44.2621
G01 X206.8419 Y44.1720
G01 X206.8571 Y44.0830
G01 X206.8804 Y43.9957
G01 X206.9114 Y43.9108
G01 X206.9500 Y43.8291
G01 X206.9957 Y43.7512
G01 X207.0484 Y43.6777
G01 X207.1074 Y43.6093
G01 X207.1724 Y43.5465
G01 X207.2428 Y43.4899
G01 X207.3180 Y43.4398
G01 X207.3974 Y43.3967
G01 X207.4804 Y43.3610
G01 X207.5662 Y43.3328
G01 X207.6543 Y43.3126
G01 X207.7438 Y43.3004
G01 X207.8341 Y43.2963
G01 X217.5181
G01 Y39.4552
G01 X199.0374
G01 Y43.3581
G01 X208.3364 Y50.4566
G01 X208.3506 Y50.4679
G01 X208.7155 Y50.7477
G01 X209.0717 Y51.0383
G01 X209.4190 Y51.3397
G01 X209.7570 Y51.6513
G01 X210.0855 Y51.9731
G01 X210.4041 Y52.3046
G01 X210.7125 Y52.6456
G01 X211.0105 Y52.9958
G01 X211.2307 Y53.2843
G01 X211.4269 Y53.5898
G01 X211.5978 Y53.9100
G01 X211.7423 Y54.2430
G01 X211.8595 Y54.5865
G01 X211.9485 Y54.9384
G01 X212.0089 Y55.2964
G01 X212.0403 Y55.6580
G01 X212.0423 Y56.0210
G01 X212.0150 Y56.3829
G01 X211.9587 Y56.7415
G01 X211.8735 Y57.0944
G01 X211.7533 Y57.4069
G01 X211.6037 Y57.7064
G01 X211.4261 Y57.9903
G01 X211.2223 Y58.2559
G01 X210.9940 Y58.5008
G01 X210.7434 Y58.7228
G01 X210.4727 Y58.9198
G01 X210.1844 Y59.0901
G01 X209.8811 Y59.2320
G01 X209.5657 Y59.3443
G01 X209.2410 Y59.4260
G01 X208.9100 Y59.4762
G01 X208.5536 Y59.5137
G01 X208.1954 Y59.5270
G01 X207.8372 Y59.5162
G01 X207.4805 Y59.4812
G01 X207.1270 Y59.4223
G01 X206.7783 Y59.3397
G01 X206.4359 Y59.2338
G01 X206.1015 Y59.1051
G01 X205.7764 Y58.9541
G01 X205.4623 Y58.7815
G01 X205.1606 Y58.5882
G01 X204.8725 Y58.3750
G01 X204.3572 Y57.9603
G01 X203.8597 Y57.5243
G01 X203.3811 Y57.0677
G01 X202.9222 Y56.5913
G01 X199.5858 Y59.3674
G01 X199.9934 Y59.8701
G01 X200.4269 Y60.3504
G01 X200.8854 Y60.8071
G01 X201.3674 Y61.2389
G01 X201.8716 Y61.6446
G01 X202.3965 Y62.0229
G01 X202.9408 Y62.3729
G01 X203.5029 Y62.6936
G01 X203.9030 Y62.8728
G01 X204.3097 Y63.0365
G01 X204.7224 Y63.1843
G01 X205.1405 Y63.3162
G01 X205.5634 Y63.4319
G01 X205.9904 Y63.5312
G01 X206.4209 Y63.6140
G01 X206.8543 Y63.6801
G01 X207.2899 Y63.7296
G01 X207.7271 Y63.7622
G01 X208.1653 Y63.7779
G01 X208.6037 Y63.7768
G01 X209.0741 Y63.7815
G01 X209.5443 Y63.7643
G01 X210.0131 Y63.7254
G01 X210.4796 Y63.6646
G01 X210.9428 Y63.5823
G01 X211.4017 Y63.4786
G01 X211.8553 Y63.3536
G01 X212.3026 Y63.2077
G01 X212.7426 Y63.0412
G01 X213.1744 Y62.8544
G01 X213.5970 Y62.6478
G01 X214.0096 Y62.4218
G01 X214.0751 Y62.3812
G01 X214.1401 Y62.3398
G01 X214.2045 Y62.2976
G01 X214.2684 Y62.2546
G01 X214.1160 Y62.1162
M107
G00 Z2.0000


;No. 11: Hole 10
G00 X221.8480 Y60.4868 Z2.0000
G00 Z0.5000
G01 Z0.0000 F400
G01 Z-1.2000
M106 S240
G01 X231.7377 F1000
G01 Y58.9868
G01 X226.1813
G01 X227.0767
G01 Y57.4868
G01 X231.7377
G01 Y55.9868
G01 X227.0767
G01 Y54.4868
G01 X231.7377
G01 Y52.9868
G01 X227.0767
G01 Y51.4868
G01 X231.7377
G01 Y49.9868
G01 X227.0767
G01 Y48.4868
G01 X231.7377
G01 Y46.9868
G01 X227.0767
G01 Y45.4868
G01 X231.7377
G01 Y43.9868
G01 X227.0767
G01 Y42.4868
G01 X231.7377
G01 Y40.9868
G01 X227.0767
M107
G00 Z2.0000
G00 X225.5657 Y60.4868
G00 Z0.5000
G01 Z-1.2000 F400
M106 S240
G01 Y58.9868 F1000
G01 X222.2180
G01 X223.1853 Y61.9868
G01 X231.7377
G01 X231.9377 Y61.9746
G01 Y39.4552
G01 X226.8767
G01 Y57.8269
G01 X226.8727 Y57.9166
G01 X226.8606 Y58.0055
G01 X226.8406 Y58.0930
G01 X226.8129 Y58.1784
G01 X226.7776 Y58.2609
G01 X226.7351 Y58.3399
G01 X226.6856 Y58.4148
G01 X226.6296 Y58.4850
G01 X226.5676 Y58.5499
G01 X226.5000 Y58.6089
G01 X226.4274 Y58.6616
G01 X226.3503 Y58.7076
G01 X226.2694 Y58.7466
G01 X226.1854 Y58.7781
G01 X226.0988 Y58.8019
G01 X226.0105 Y58.8179
G01 X225.9211 Y58.8259
G01 X225.8314
G01 X225.7420 Y58.8178
G01 X225.6537 Y58.8017
G01 X222.2497 Y58.0229
G01 X221.3489 Y61.6750
G01 X227.8638 Y63.5183
G01 X231.9377
G01 Y61.9746
G01 X231.7377 Y61.9868
M107
G00 Z2.0000


;No. 12: Helical drill 3
G00 X272.8981 Y22.9980 Z2.0000
G00 Z0.5000
M106 S240
G01 X272.8971 Y22.9552 Z0.4877 F400
G01 X272.8940 Y22.9125 Z0.4754
G01 X272.8890 Y22.8699 Z0.4631
G01 X272.8818 Y22.8277 Z0.4508
G01 X272.8727 Y22.7858 Z0.4384
G01 X272.8617 Y22.7444 Z0.4261
G01 X272.8486 Y22.7036 Z0.4138
G01 X272.8336 Y22.6635 Z0.4015
G01 X272.8168 Y22.6241 Z0.3892
G01 X272.7981 Y22.5856 Z0.3769
G01 X272.7775 Y22.5480 Z0.3646
G01 X272.7552 Y22.5114 Z0.3523
G01 X272.7312 Y22.4760 Z0.3400
G01 X272.7056 Y22.4417 Z0.3277
G01 X272.6783 Y22.4086 Z0.3153
G01 X272.6495 Y22.3769 Z0.3030
G01 X272.6192 Y22.3466 Z0.2907
G01 X272.5875 Y22.3178 Z0.2784
G01 X272.5545 Y22.2906 Z0.2661
G01 X272.5202 Y22.2649 Z0.2538
G01 X272.4847 Y22.2409 Z0.2415
G01 X272.4481 Y22.2186 Z0.2292
G01 X272.4105 Y22.1981 Z0.2169
G01 X272.3720 Y22.1793 Z0.2045
G01 X272.3326 Y22.1625 Z0.1922
G01 X272.2925 Y22.1475 Z0.1799
G01 X272.2517 Y22.1345 Z0.1676
G01 X272.2103 Y22.1234 Z0.1553
G01 X272.1684 Y22.1143 Z0.1430
G01 X272.1262 Y22.1072 Z0.1307
G01 X272.0837 Y22.1021 Z0.1184
G01 X272.0409 Y22.0990 Z0.1061
G01 X271.9981 Y22.0980 Z0.0938
G01 X271.9553 Y22.0990 Z0.0814
G01 X271.9126 Y22.1021 Z0.0691
G01 X271.8700 Y22.1072 Z0.0568
G01 X271.8278 Y22.1143 Z0.0445
G01 X271.7859 Y22.1234 Z0.0322
G01 X271.7446 Y22.1345 Z0.0199
G01 X271.7038 Y22.1475 Z0.0076
G01 X271.6636 Y22.1625 Z-0.0047
G01 X271.6242 Y22.1793 Z-0.0170
G01 X271.5857 Y22.1981 Z-0.0294
G01 X271.5481 Y22.2186 Z-0.0417
G01 X271.5115 Y22.2409 Z-0.0540
G01 X271.4761 Y22.2649 Z-0.0663
G01 X271.4418 Y22.2906 Z-0.0786
G01 X271.4087 Y22.3178 Z-0.0909
G01 X271.3770 Y22.3466 Z-0.1032
G01 X271.3468 Y22.3769 Z-0.1155
G01 X271.3179 Y22.4086 Z-0.1278
G01 X271.2907 Y22.4417 Z-0.1402
G01 X271.2650 Y22.4760 Z-0.1525
G01 X271.2410 Y22.5114 Z-0.1648
G01 X271.2187 Y22.5480 Z-0.1771
G01 X271.1982 Y22.5856 Z-0.1894
G01 X271.1794 Y22.6241 Z-0.2017
G01 X271.1626 Y22.6635 Z-0.2140
G01 X271.1476 Y22.7036 Z-0.2263
G01 X271.1346 Y22.7444 Z-0.2386
G01 X271.1235 Y22.7858 Z-0.2509
G01 X271.1144 Y22.8277 Z-0.2633
G01 X271.1073 Y22.8699 Z-0.2756
G01 X271.1022 Y22.9125 Z-0.2879
G01 X271.0991 Y22.9552 Z-0.3002
G01 X271.0981 Y22.9980 Z-0.3125
G01 X271.0991 Y23.0408 Z-0.3248
G01 X271.1022 Y23.0836 Z-0.3371
G01 X271.1073 Y23.1261 Z-0.3494
G01 X271.1144 Y23.1683 Z-0.3617
G01 X271.1235 Y23.2102 Z-0.3741
G01 X271.1346 Y23.2516 Z-0.3864
G01 X271.1476 Y23.2924 Z-0.3987
G01 X271.1626 Y23.3325 Z-0.4110
G01 X271.1794 Y23.3719 Z-0.4233
G01 X271.1982 Y23.4104 Z-0.4356
G01 X271.2187 Y23.4480 Z-0.4479
G01 X271.2410 Y23.4846 Z-0.4602
G01 X271.2650 Y23.5201 Z-0.4725
G01 X271.2907 Y23.5544 Z-0.4848
G01 X271.3179 Y23.5874 Z-0.4972
G01 X271.3468 Y23.6191 Z-0.5095
G01 X271.3770 Y23.6494 Z-0.5218
G01 X271.4087 Y23.6782 Z-0.5341
G01 X271.4418 Y23.7055 Z-0.5464
G01 X271.4761 Y23.7311 Z-0.5587
G01 X271.5115 Y23.7551 Z-0.5710
G01 X271.5481 Y23.7774 Z-0.5833
G01 X271.5857 Y23.7980 Z-0.5956
G01 X271.6242 Y23.8167 Z-0.6080
G01 X271.6636 Y23.8335 Z-0.6203
G01 X271.7038 Y23.8485 Z-0.6326
G01 X271.7446 Y23.8616 Z-0.6449
G01 X271.7859 Y23.8726 Z-0.6572
G01 X271.8278 Y23.8817 Z-0.6695
G01 X271.8700 Y23.8888 Z-0.6818
G01 X271.9126 Y23.8939 Z-0.6941
G01 X271.9553 Y23.8970 Z-0.7064
G01 X271.9981 Y23.8980 Z-0.7188
G01 X272.0409 Y23.8970 Z-0.7311
G01 X272.0837 Y23.8939 Z-0.7434
G01 X272.1262 Y23.8888 Z-0.7557
G01 X272.1684 Y23.8817 Z-0.7680
G01 X272.2103 Y23.8726 Z-0.7803
G01 X272.2517 Y23.8616 Z-0.7926
G01 X272.2925 Y23.8485 Z-0.8049
G01 X272.3326 Y23.8335 Z-0.8172
G01 X272.3720 Y23.8167 Z-0.8295
G01 X272.4105 Y23.7980 Z-0.8419
G01 X272.4481 Y23.7774 Z-0.8542
G01 X272.4847 Y23.7551 Z-0.8665
G01 X272.5202 Y23.7311 Z-0.8788
G01 X272.5545 Y23.7055 Z-0.8911
G01 X272.5875 Y23.6782 Z-0.9034
G01 X272.6192 Y23.6494 Z-0.9157
G01 X272.6495 Y23.6191 Z-0.9280
G01 X272.6783 Y23.5874 Z-0.9403
G01 X272.7056 Y23.5544 Z-0.9527
G01 X272.7312 Y23.5201 Z-0.9650
G01 X272.7552 Y23.4846 Z-0.9773
G01 X272.7775 Y23.4480 Z-0.9896
G01 X272.7981 Y23.4104 Z-1.0019
G01 X272.8168 Y23.3719 Z-1.0142
G01 X272.8336 Y23.3325 Z-1.0265
G01 X272.8486 Y23.2924 Z-1.0388
G01 X272.8617 Y23.2516 Z-1.0511
G01 X272.8727 Y23.2102 Z-1.0634
G01 X272.8818 Y23.1683 Z-1.0758
G01 X272.8890 Y23.1261 Z-1.0881
G01 X272.8940 Y23.0836 Z-1.1004
G01 X272.8971 Y23.0408 Z-1.1127
G01 X272.8981 Y22.9980 Z-1.1250
G01 X272.8971 Y22.9552
G01 X272.8940 Y22.9125
G01 X272.8890 Y22.8699
G01 X272.8818 Y22.8277
G01 X272.8727 Y22.7858
G01 X272.8617 Y22.7444
G01 X272.8486 Y22.7036
G01 X272.8336 Y22.6635
G01 X272.8168 Y22.6241
G01 X272.7981 Y22.5856
G01 X272.7775 Y22.5480
G01 X272.7552 Y22.5114
G01 X272.7312 Y22.4760
G01 X272.7056 Y22.4417
G01 X272.6783 Y22.4086
G01 X272.6495 Y22.3769
G01 X272.6192 Y22.3466
G01 X272.5875 Y22.3178
G01 X272.5545 Y22.2906
G01 X272.5202 Y22.2649
G01 X272.4847 Y22.2409
G01 X272.4481 Y22.2186
G01 X272.4105 Y22.1981
G01 X272.3720 Y22.1793
G01 X272.3326 Y22.1625
G01 X272.2925 Y22.1475
G01 X272.2517 Y22.1345
G01 X272.2103 Y22.1234
G01 X272.1684 Y22.1143
G01 X272.1262 Y22.1072
G01 X272.0837 Y22.1021
G01 X272.0409 Y22.0990
G01 X271.9981 Y22.0980
G01 X271.9553 Y22.0990
G01 X271.9126 Y22.1021
G01 X271.8700 Y22.1072
G01 X271.8278 Y22.1143
G01 X271.7859 Y22.1234
G01 X271.7446 Y22.1345
G01 X271.7038 Y22.1475
G01 X271.6636 Y22.1625
G01 X271.6242 Y22.1793
G01 X271.5857 Y22.1981
G01 X271.5481 Y22.2186
G01 X271.5115 Y22.2409
G01 X271.4761 Y22.2649
G01 X271.4418 Y22.2906
G01 X271.4087 Y22.3178
G01 X271.3770 Y22.3466
G01 X271.3468 Y22.3769
G01 X271.3179 Y22.4086
G01 X271.2907 Y22.4417
G01 X271.2650 Y22.4760
G01 X271.2410 Y22.5114
G01 X271.2187 Y22.5480
G01 X271.1982 Y22.5856
G01 X271.1794 Y22.6241
G01 X271.1626 Y22.6635
G01 X271.1476 Y22.7036
G01 X271.1346 Y22.7444
G01 X271.1235 Y22.7858
G01 X271.1144 Y22.8277
G01 X271.1073 Y22.8699
G01 X271.1022 Y22.9125
G01 X271.0991 Y22.9552
G01 X271.0981 Y22.9980
G01 X271.0991 Y23.0408
G01 X271.1022 Y23.0836
G01 X271.1073 Y23.1261
G01 X271.1144 Y23.1683
G01 X271.1235 Y23.2102
G01 X271.1346 Y23.2516
G01 X271.1476 Y23.2924
G01 X271.1626 Y23.3325
G01 X271.1794 Y23.3719
G01 X271.1982 Y23.4104
G01 X271.2187 Y23.4480
G01 X271.2410 Y23.4846
G01 X271.2650 Y23.5201
G01 X271.2907 Y23.5544
G01 X271.3179 Y23.5874
G01 X271.3468 Y23.6191
G01 X271.3770 Y23.6494
G01 X271.4087 Y23.6782
G01 X271.4418 Y23.7055
G01 X271.4761 Y23.7311
G01 X271.5115 Y23.7551
G01 X271.5481 Y23.7774
G01 X271.5857 Y23.7980
G01 X271.6242 Y23.8167
G01 X271.6636 Y23.8335
G01 X271.7038 Y23.8485
G01 X271.7446 Y23.8616
G01 X271.7859 Y23.8726
G01 X271.8278 Y23.8817
G01 X271.8700 Y23.8888
G01 X271.9126 Y23.8939
G01 X271.9553 Y23.8970
G01 X271.9981 Y23.8980
G01 X272.0409 Y23.8970
G01 X272.0837 Y23.8939
G01 X272.1262 Y23.8888
G01 X272.1684 Y23.8817
G01 X272.2103 Y23.8726
G01 X272.2517 Y23.8616
G01 X272.2925 Y23.8485
G01 X272.3326 Y23.8335
G01 X272.3720 Y23.8167
G01 X272.4105 Y23.7980
G01 X272.4481 Y23.7774
G01 X272.4847 Y23.7551
G01 X272.5202 Y23.7311
G01 X272.5545 Y23.7055
G01 X272.5875 Y23.6782
G01 X272.6192 Y23.6494
G01 X272.6495 Y23.6191
G01 X272.6783 Y23.5874
G01 X272.7056 Y23.5544
G01 X272.7312 Y23.5201
G01 X272.7552 Y23.4846
G01 X272.7775 Y23.4480
G01 X272.7981 Y23.4104
G01 X272.8168 Y23.3719
G01 X272.8336 Y23.3325
G01 X272.8486 Y23.2924
G01 X272.8617 Y23.2516
G01 X272.8727 Y23.2102
G01 X272.8818 Y23.1683
G01 X272.8890 Y23.1261
G01 X272.8940 Y23.0836
G01 X272.8971 Y23.0408
G01 X272.8981 Y22.9980
G01 X272.9057 Y22.9670 F1000
G01 X272.9121 Y22.9357
G01 X272.9175 Y22.9042
G01 X272.9218 Y22.8725
G01 X272.9249 Y22.8407
G01 X272.9270 Y22.8088
G01 X272.9280 Y22.7769
G01 X272.9278 Y22.7449
G01 X272.9266 Y22.7130
G01 X272.9242 Y22.6811
G01 X272.9208 Y22.6493
G01 X272.9162 Y22.6177
G01 X272.9065 Y22.5662
G01 X272.8942 Y22.5153
G01 X272.8793 Y22.4651
G01 X272.8618 Y22.4157
G01 X272.8417 Y22.3672
G01 X272.8192 Y22.3199
G01 X272.7943 Y22.2738
G01 X272.7671 Y22.2290
G01 X272.7351 Y22.1820
G01 X272.7007 Y22.1367
G01 X272.6640 Y22.0932
G01 X272.6252 Y22.0516
G01 X272.5843 Y22.0120
G01 X272.5414 Y21.9746
G01 X272.4966 Y21.9395
G01 X272.4502 Y21.9067
G01 X272.3983 Y21.8739
G01 X272.3448 Y21.8437
G01 X272.2898 Y21.8163
G01 X272.2335 Y21.7918
G01 X272.1760 Y21.7701
G01 X272.1176 Y21.7514
G01 X272.0582 Y21.7357
G01 X271.9981 Y21.7230
G01 X271.9330 Y21.7127
G01 X271.8674 Y21.7057
G01 X271.8016 Y21.7020
G01 X271.7357 Y21.7016
G01 X271.6698 Y21.7046
G01 X271.6042 Y21.7109
G01 X271.5390 Y21.7205
G01 X271.4743 Y21.7334
G01 X271.4060 Y21.7507
G01 X271.3386 Y21.7714
G01 X271.2724 Y21.7955
G01 X271.2075 Y21.8228
G01 X271.1440 Y21.8534
G01 X271.0822 Y21.8872
G01 X271.0221 Y21.9240
G01 X270.9640 Y21.9639
G01 X270.9105 Y22.0133
G01 X270.8594 Y22.0653
G01 X270.8110 Y22.1198
G01 X270.7654 Y22.1765
G01 X270.7226 Y22.2355
G01 X270.6828 Y22.2965
G01 X270.6460 Y22.3594
G01 X270.6123 Y22.4240
G01 X270.5858 Y22.4927
G01 X270.5627 Y22.5626
G01 X270.5431 Y22.6335
G01 X270.5270 Y22.7054
G01 X270.5144 Y22.7779
G01 X270.5054 Y22.8510
G01 X270.5000 Y22.9244
G01 X270.4981 Y22.9980
G01 X270.5000 Y23.0716
G01 X270.5054 Y23.1450
G01 X270.5144 Y23.2181
G01 X270.5270 Y23.2906
G01 X270.5431 Y23.3625
G01 X270.5627 Y23.4334
G01 X270.5858 Y23.5033
G01 X270.6123 Y23.5720
G01 X270.6422 Y23.6393
G01 X270.6753 Y23.7051
G01 X270.7115 Y23.7691
G01 X270.7509 Y23.8313
G01 X270.7933 Y23.8915
G01 X270.8386 Y23.9496
G01 X270.8867 Y24.0053
G01 X270.9375 Y24.0586
G01 X270.9908 Y24.1094
G01 X271.0465 Y24.1575
G01 X271.1046 Y24.2028
G01 X271.1648 Y24.2452
G01 X271.2270 Y24.2846
G01 X271.2910 Y24.3209
G01 X271.3568 Y24.3540
G01 X271.4241 Y24.3838
G01 X271.4928 Y24.4103
G01 X271.5627 Y24.4334
G01 X271.6336 Y24.4530
G01 X271.7055 Y24.4692
G01 X271.7780 Y24.4817
G01 X271.8511 Y24.4908
G01 X271.9245 Y24.4962
G01 X271.9981 Y24.4980
G01 X272.0717 Y24.4962
G01 X272.1451 Y24.4908
G01 X272.2182 Y24.4817
G01 X272.2907 Y24.4692
G01 X272.3626 Y24.4530
G01 X272.4335 Y24.4334
G01 X272.5034 Y24.4103
G01 X272.5721 Y24.3838
G01 X272.6394 Y24.3540
G01 X272.7052 Y24.3209
G01 X272.7692 Y24.2846
G01 X272.8314 Y24.2452
G01 X272.8916 Y24.2028
G01 X272.9497 Y24.1575
G01 X273.0054 Y24.1094
G01 X273.0587 Y24.0586
G01 X273.1095 Y24.0053
G01 X273.1576 Y23.9496
G01 X273.2029 Y23.8915
G01 X273.2453 Y23.8313
G01 X273.2847 Y23.7691
G01 X273.3210 Y23.7051
G01 X273.3541 Y23.6393
G01 X273.3839 Y23.5720
G01 X273.4104 Y23.5033
G01 X273.4335 Y23.4334
G01 X273.4531 Y23.3625
G01 X273.4693 Y23.2906
G01 X273.4818 Y23.2181
G01 X273.4909 Y23.1450
G01 X273.4963 Y23.0716
G01 X273.4981 Y22.9980
G01 X273.4939 Y22.8859
G01 X273.4813 Y22.7745
G01 X273.4605 Y22.6642
G01 X273.4314 Y22.5559
G01 X273.3944 Y22.4500
G01 X273.3495 Y22.3472
G01 X273.2971 Y22.2480
G01 X273.2374 Y22.1530
G01 X273.1708 Y22.0628
G01 X273.0977 Y21.9778
G01 X273.0183 Y21.8985
G01 X272.9333 Y21.8253
G01 X272.8431 Y21.7587
G01 X272.7481 Y21.6990
G01 X272.6489 Y21.6466
G01 X272.5461 Y21.6017
G01 X272.4402 Y21.5647
G01 X272.3319 Y21.5357
G01 X272.2217 Y21.5148
G01 X272.1102 Y21.5022
G01 X271.9981 Y21.4980
G01 X271.8860 Y21.5022
G01 X271.7746 Y21.5148
G01 X271.6643 Y21.5357
G01 X271.5560 Y21.5647
G01 X271.4501 Y21.6017
G01 X271.3473 Y21.6466
G01 X271.2481 Y21.6990
G01 X271.1532 Y21.7587
G01 X271.0629 Y21.8253
G01 X270.9779 Y21.8985
G01 X270.8986 Y21.9778
G01 X270.8254 Y22.0628
G01 X270.7588 Y22.1530
G01 X270.6991 Y22.2480
G01 X270.6467 Y22.3472
G01 X270.6018 Y22.4500
G01 X270.5648 Y22.5559
G01 X270.5358 Y22.6642
G01 X270.5149 Y22.7745
G01 X270.5023 Y22.8859
G01 X270.4981 Y22.9980
G01 X270.5023 Y23.1101
G01 X270.5149 Y23.2216
G01 X270.5358 Y23.3318
G01 X270.5648 Y23.4401
G01 X270.6018 Y23.5460
G01 X270.6467 Y23.6488
G01 X270.6991 Y23.7480
G01 X270.7588 Y23.8430
G01 X270.8254 Y23.9332
G01 X270.8986 Y24.0182
G01 X270.9779 Y24.0976
G01 X271.0629 Y24.1707
G01 X271.1532 Y24.2373
G01 X271.2481 Y24.2970
G01 X271.3473 Y24.3494
G01 X271.4501 Y24.3943
G01 X271.5560 Y24.4313
G01 X271.6643 Y24.4604
G01 X271.7746 Y24.4812
G01 X271.8860 Y24.4938
G01 X271.9981 Y24.4980
G01 X272.1102 Y24.4938
G01 X272.2217 Y24.4812
G01 X272.3319 Y24.4604
G01 X272.4402 Y24.4313
G01 X272.5461 Y24.3943
G01 X272.6489 Y24.3494
G01 X272.7481 Y24.2970
G01 X272.8431 Y24.2373
G01 X272.9333 Y24.1707
G01 X273.0183 Y24.0976
G01 X273.0977 Y24.0182
G01 X273.1708 Y23.9332
G01 X273.2374 Y23.8430
G01 X273.2971 Y23.7480
G01 X273.3495 Y23.6488
G01 X273.3944 Y23.5460
G01 X273.4314 Y23.4401
G01 X273.4605 Y23.3318
G01 X273.4813 Y23.2216
G01 X273.4939 Y23.1101
G01 X273.4981 Y22.9980
G01 X273.4935 Y22.8934
G01 X273.4798 Y22.7896
G01 X273.4572 Y22.6874
G01 X273.4257 Y22.5876
G01 X273.3856 Y22.4909
G01 X273.3373 Y22.3980
G01 X273.2811 Y22.3097
G01 X273.2173 Y22.2267
G01 X273.1466 Y22.1495
G01 X273.0694 Y22.0788
G01 X272.9864 Y22.0150
G01 X272.8981 Y21.9588
G01 X272.8052 Y21.9105
G01 X272.7085 Y21.8704
G01 X272.6087 Y21.8389
G01 X272.5065 Y21.8163
G01 X272.4027 Y21.8026
G01 X272.2981 Y21.7980
G01 X272.1935 Y21.8026
G01 X272.0897 Y21.8163
G01 X271.9875 Y21.8389
G01 X271.8877 Y21.8704
G01 X271.7910 Y21.9105
G01 X271.6981 Y21.9588
G01 X271.6098 Y22.0150
G01 X271.5268 Y22.0788
G01 X271.4496 Y22.1495
G01 X271.3789 Y22.2267
G01 X271.3151 Y22.3097
G01 X271.2589 Y22.3980
G01 X271.2105 Y22.4909
G01 X271.1705 Y22.5876
G01 X271.1390 Y22.6874
G01 X271.1163 Y22.7896
G01 X271.1027 Y22.8934
G01 X271.0981 Y22.9980
G01 X271.0992 Y23.0422
G01 X271.1024 Y23.0862
G01 X271.1079 Y23.1301
G01 X271.1154 Y23.1736
G01 X271.1251 Y23.2167
G01 X271.1369 Y23.2593
G01 X271.1507 Y23.3012
G01 X271.1666 Y23.3424
G01 X271.1845 Y23.3828
G01 X271.2044 Y23.4223
G01 X271.2262 Y23.4607
G01 X271.2498 Y23.4980
G01 X271.2752 Y23.5341
G01 X271.3024 Y23.5690
G01 X271.3313 Y23.6024
G01 X271.3617 Y23.6344
G01 X271.3937 Y23.6649
G01 X271.4272 Y23.6937
G01 X271.4620 Y23.7209
G01 X271.4981 Y23.7463
G01 X271.5354 Y23.7700
G01 X271.5739 Y23.7917
G01 X271.6133 Y23.8116
G01 X271.6537 Y23.8295
G01 X271.6949 Y23.8454
G01 X271.7369 Y23.8593
G01 X271.7794 Y23.8710
G01 X271.8225 Y23.8807
G01 X271.8661 Y23.8883
G01 X271.9099 Y23.8937
G01 X271.9540 Y23.8969
G01 X271.9981 Y23.8980
G01 X272.0423 Y23.8969
G01 X272.0863 Y23.8937
G01 X272.1302 Y23.8883
G01 X272.1737 Y23.8807
G01 X272.2168 Y23.8710
G01 X272.2594 Y23.8593
G01 X272.3013 Y23.8454
G01 X272.3425 Y23.8295
G01 X272.3829 Y23.8116
G01 X272.4224 Y23.7917
G01 X272.4608 Y23.7700
G01 X272.4981 Y23.7463
G01 X272.5342 Y23.7209
G01 X272.5691 Y23.6937
G01 X272.6025 Y23.6649
G01 X272.6345 Y23.6344
G01 X272.6650 Y23.6024
G01 X272.6938 Y23.5690
G01 X272.7210 Y23.5341
G01 X272.7464 Y23.4980
G01 X272.7701 Y23.4607
G01 X272.7918 Y23.4223
G01 X272.8117 Y23.3828
G01 X272.8296 Y23.3424
G01 X272.8455 Y23.3012
G01 X272.8594 Y23.2593
G01 X272.8711 Y23.2167
G01 X272.8808 Y23.1736
G01 X272.8884 Y23.1301
G01 X272.8938 Y23.0862
G01 X272.8970 Y23.0422
G01 X272.8981 Y22.9980
M107
M106 S240
G01 X272.8971 Y22.9552 Z-1.1373 F400
G01 X272.8940 Y22.9125 Z-1.1496
G01 X272.8890 Y22.8699 Z-1.1619
G01 X272.8818 Y22.8277 Z-1.1742
G01 X272.8727 Y22.7858 Z-1.1866
G01 X272.8617 Y22.7444 Z-1.1989
G01 X272.8486 Y22.7036 Z-1.2112
G01 X272.8336 Y22.6635 Z-1.2235
G01 X272.8168 Y22.6241 Z-1.2358
G01 X272.7981 Y22.5856 Z-1.2481
G01 X272.7775 Y22.5480 Z-1.2604
G01 X272.7552 Y22.5114 Z-1.2727
G01 X272.7312 Y22.4760 Z-1.2850
G01 X272.7056 Y22.4417 Z-1.2973
G01 X272.6783 Y22.4086 Z-1.3097
G01 X272.6495 Y22.3769 Z-1.3220
G01 X272.6192 Y22.3466 Z-1.3343
G01 X272.5875 Y22.3178 Z-1.3466
G01 X272.5545 Y22.2906 Z-1.3589
G01 X272.5202 Y22.2649 Z-1.3712
G01 X272.4847 Y22.2409 Z-1.3835
G01 X272.4481 Y22.2186 Z-1.3958
G01 X272.4105 Y22.1981 Z-1.4081
G01 X272.3720 Y22.1793 Z-1.4205
G01 X272.3326 Y22.1625 Z-1.4328
G01 X272.2925 Y22.1475 Z-1.4451
G01 X272.2517 Y22.1345 Z-1.4574
G01 X272.2103 Y22.1234 Z-1.4697
G01 X272.1684 Y22.1143 Z-1.4820
G01 X272.1262 Y22.1072 Z-1.4943
G01 X272.0837 Y22.1021 Z-1.5066
G01 X272.0409 Y22.0990 Z-1.5189
G01 X271.9981 Y22.0980 Z-1.5313
G01 X271.9553 Y22.0990 Z-1.5436
G01 X271.9126 Y22.1021 Z-1.5559
G01 X271.8700 Y22.1072 Z-1.5682
G01 X271.8278 Y22.1143 Z-1.5805
G01 X271.7859 Y22.1234 Z-1.5928
G01 X271.7446 Y22.1345 Z-1.6051
G01 X271.7038 Y22.1475 Z-1.6174
G01 X271.6636 Y22.1625 Z-1.6297
