;Project SchildNeu2
;Created by Estlcam version 11 build 11,236
;Machining time about 00:28:14 hours

G90
M03 S18000
G00 X0.0000 Y0.0000 Z0.0000
G00 Z2.0000


;No. 1: Helical drill 7
G00 X27.9000 Y27.1760
G00 Z0.5000
M106 S240
G01 X27.8990 Y27.1332 Z0.4877 F400 S18000
G01 X27.8959 Y27.0905 Z0.4754
G01 X27.8908 Y27.0479 Z0.4631
G01 X27.8837 Y27.0057 Z0.4508
G01 X27.8746 Y26.9638 Z0.4384
G01 X27.8635 Y26.9225 Z0.4261
G01 X27.8505 Y26.8817 Z0.4138
G01 X27.8355 Y26.8415 Z0.4015
G01 X27.8187 Y26.8021 Z0.3892
G01 X27.7999 Y26.7636 Z0.3769
G01 X27.7794 Y26.7260 Z0.3646
G01 X27.7571 Y26.6894 Z0.3523
G01 X27.7331 Y26.6540 Z0.3400
G01 X27.7074 Y26.6197 Z0.3277
G01 X27.6802 Y26.5866 Z0.3153
G01 X27.6514 Y26.5549 Z0.3030
G01 X27.6211 Y26.5247 Z0.2907
G01 X27.5894 Y26.4958 Z0.2784
G01 X27.5563 Y26.4686 Z0.2661
G01 X27.5220 Y26.4429 Z0.2538
G01 X27.4866 Y26.4189 Z0.2415
G01 X27.4500 Y26.3966 Z0.2292
G01 X27.4124 Y26.3761 Z0.2169
G01 X27.3739 Y26.3573 Z0.2045
G01 X27.3345 Y26.3405 Z0.1922
G01 X27.2944 Y26.3255 Z0.1799
G01 X27.2536 Y26.3125 Z0.1676
G01 X27.2122 Y26.3014 Z0.1553
G01 X27.1703 Y26.2923 Z0.1430
G01 X27.1281 Y26.2852 Z0.1307
G01 X27.0855 Y26.2801 Z0.1184
G01 X27.0428 Y26.2770 Z0.1061
G01 X27.0000 Y26.2760 Z0.0938
G01 X26.9572 Y26.2770 Z0.0814
G01 X26.9144 Y26.2801 Z0.0691
G01 X26.8719 Y26.2852 Z0.0568
G01 X26.8297 Y26.2923 Z0.0445
G01 X26.7878 Y26.3014 Z0.0322
G01 X26.7464 Y26.3125 Z0.0199
G01 X26.7056 Y26.3255 Z0.0076
G01 X26.6655 Y26.3405 Z-0.0047
G01 X26.6261 Y26.3573 Z-0.0170
G01 X26.5876 Y26.3761 Z-0.0294
G01 X26.5500 Y26.3966 Z-0.0417
G01 X26.5134 Y26.4189 Z-0.0540
G01 X26.4779 Y26.4429 Z-0.0663
G01 X26.4436 Y26.4686 Z-0.0786
G01 X26.4106 Y26.4958 Z-0.0909
G01 X26.3789 Y26.5247 Z-0.1032
G01 X26.3486 Y26.5549 Z-0.1155
G01 X26.3198 Y26.5866 Z-0.1278
G01 X26.2925 Y26.6197 Z-0.1402
G01 X26.2669 Y26.6540 Z-0.1525
G01 X26.2429 Y26.6894 Z-0.1648
G01 X26.2206 Y26.7260 Z-0.1771
G01 X26.2000 Y26.7636 Z-0.1894
G01 X26.1813 Y26.8021 Z-0.2017
G01 X26.1645 Y26.8415 Z-0.2140
G01 X26.1495 Y26.8817 Z-0.2263
G01 X26.1364 Y26.9225 Z-0.2386
G01 X26.1254 Y26.9638 Z-0.2509
G01 X26.1163 Y27.0057 Z-0.2633
G01 X26.1092 Y27.0479 Z-0.2756
G01 X26.1041 Y27.0905 Z-0.2879
G01 X26.1010 Y27.1332 Z-0.3002
G01 X26.1000 Y27.1760 Z-0.3125
G01 X26.1010 Y27.2188 Z-0.3248
G01 X26.1041 Y27.2616 Z-0.3371
G01 X26.1092 Y27.3041 Z-0.3494
G01 X26.1163 Y27.3463 Z-0.3617
G01 X26.1254 Y27.3882 Z-0.3741
G01 X26.1364 Y27.4296 Z-0.3864
G01 X26.1495 Y27.4704 Z-0.3987
G01 X26.1645 Y27.5105 Z-0.4110
G01 X26.1813 Y27.5499 Z-0.4233
G01 X26.2000 Y27.5884 Z-0.4356
G01 X26.2206 Y27.6260 Z-0.4479
G01 X26.2429 Y27.6626 Z-0.4602
G01 X26.2669 Y27.6981 Z-0.4725
G01 X26.2925 Y27.7324 Z-0.4848
G01 X26.3198 Y27.7654 Z-0.4972
G01 X26.3486 Y27.7971 Z-0.5095
G01 X26.3789 Y27.8274 Z-0.5218
G01 X26.4106 Y27.8562 Z-0.5341
G01 X26.4436 Y27.8835 Z-0.5464
G01 X26.4779 Y27.9091 Z-0.5587
G01 X26.5134 Y27.9331 Z-0.5710
G01 X26.5500 Y27.9554 Z-0.5833
G01 X26.5876 Y27.9760 Z-0.5956
G01 X26.6261 Y27.9947 Z-0.6080
G01 X26.6655 Y28.0115 Z-0.6203
G01 X26.7056 Y28.0265 Z-0.6326
G01 X26.7464 Y28.0396 Z-0.6449
G01 X26.7878 Y28.0506 Z-0.6572
G01 X26.8297 Y28.0598 Z-0.6695
G01 X26.8719 Y28.0669 Z-0.6818
G01 X26.9144 Y28.0719 Z-0.6941
G01 X26.9572 Y28.0750 Z-0.7064
G01 X27.0000 Y28.0760 Z-0.7188
G01 X27.0428 Y28.0750 Z-0.7311
G01 X27.0855 Y28.0719 Z-0.7434
G01 X27.1281 Y28.0669 Z-0.7557
G01 X27.1703 Y28.0598 Z-0.7680
G01 X27.2122 Y28.0506 Z-0.7803
G01 X27.2536 Y28.0396 Z-0.7926
G01 X27.2944 Y28.0265 Z-0.8049
G01 X27.3345 Y28.0115 Z-0.8172
G01 X27.3739 Y27.9947 Z-0.8295
G01 X27.4124 Y27.9760 Z-0.8419
G01 X27.4500 Y27.9554 Z-0.8542
G01 X27.4866 Y27.9331 Z-0.8665
G01 X27.5220 Y27.9091 Z-0.8788
G01 X27.5563 Y27.8835 Z-0.8911
G01 X27.5894 Y27.8562 Z-0.9034
G01 X27.6211 Y27.8274 Z-0.9157
G01 X27.6514 Y27.7971 Z-0.9280
G01 X27.6802 Y27.7654 Z-0.9403
G01 X27.7074 Y27.7324 Z-0.9527
G01 X27.7331 Y27.6981 Z-0.9650
G01 X27.7571 Y27.6626 Z-0.9773
G01 X27.7794 Y27.6260 Z-0.9896
G01 X27.7999 Y27.5884 Z-1.0019
G01 X27.8187 Y27.5499 Z-1.0142
G01 X27.8355 Y27.5105 Z-1.0265
G01 X27.8505 Y27.4704 Z-1.0388
G01 X27.8635 Y27.4296 Z-1.0511
G01 X27.8746 Y27.3882 Z-1.0634
G01 X27.8837 Y27.3463 Z-1.0758
G01 X27.8908 Y27.3041 Z-1.0881
G01 X27.8959 Y27.2616 Z-1.1004
G01 X27.8990 Y27.2188 Z-1.1127
G01 X27.9000 Y27.1760 Z-1.1250
G01 X27.8990 Y27.1332
G01 X27.8959 Y27.0905
G01 X27.8908 Y27.0479
G01 X27.8837 Y27.0057
G01 X27.8746 Y26.9638
G01 X27.8635 Y26.9225
G01 X27.8505 Y26.8817
G01 X27.8355 Y26.8415
G01 X27.8187 Y26.8021
G01 X27.7999 Y26.7636
G01 X27.7794 Y26.7260
G01 X27.7571 Y26.6894
G01 X27.7331 Y26.6540
G01 X27.7074 Y26.6197
G01 X27.6802 Y26.5866
G01 X27.6514 Y26.5549
G01 X27.6211 Y26.5247
G01 X27.5894 Y26.4958
G01 X27.5563 Y26.4686
G01 X27.5220 Y26.4429
G01 X27.4866 Y26.4189
G01 X27.4500 Y26.3966
G01 X27.4124 Y26.3761
G01 X27.3739 Y26.3573
G01 X27.3345 Y26.3405
G01 X27.2944 Y26.3255
G01 X27.2536 Y26.3125
G01 X27.2122 Y26.3014
G01 X27.1703 Y26.2923
G01 X27.1281 Y26.2852
G01 X27.0855 Y26.2801
G01 X27.0428 Y26.2770
G01 X27.0000 Y26.2760
G01 X26.9572 Y26.2770
G01 X26.9144 Y26.2801
G01 X26.8719 Y26.2852
G01 X26.8297 Y26.2923
G01 X26.7878 Y26.3014
G01 X26.7464 Y26.3125
G01 X26.7056 Y26.3255
G01 X26.6655 Y26.3405
G01 X26.6261 Y26.3573
G01 X26.5876 Y26.3761
G01 X26.5500 Y26.3966
G01 X26.5134 Y26.4189
G01 X26.4779 Y26.4429
G01 X26.4436 Y26.4686
G01 X26.4106 Y26.4958
G01 X26.3789 Y26.5247
G01 X26.3486 Y26.5549
G01 X26.3198 Y26.5866
G01 X26.2925 Y26.6197
G01 X26.2669 Y26.6540
G01 X26.2429 Y26.6894
G01 X26.2206 Y26.7260
G01 X26.2000 Y26.7636
G01 X26.1813 Y26.8021
G01 X26.1645 Y26.8415
G01 X26.1495 Y26.8817
G01 X26.1364 Y26.9225
G01 X26.1254 Y26.9638
G01 X26.1163 Y27.0057
G01 X26.1092 Y27.0479
G01 X26.1041 Y27.0905
G01 X26.1010 Y27.1332
G01 X26.1000 Y27.1760
G01 X26.1010 Y27.2188
G01 X26.1041 Y27.2616
G01 X26.1092 Y27.3041
G01 X26.1163 Y27.3463
G01 X26.1254 Y27.3882
G01 X26.1364 Y27.4296
G01 X26.1495 Y27.4704
G01 X26.1645 Y27.5105
G01 X26.1813 Y27.5499
G01 X26.2000 Y27.5884
G01 X26.2206 Y27.6260
G01 X26.2429 Y27.6626
G01 X26.2669 Y27.6981
G01 X26.2925 Y27.7324
G01 X26.3198 Y27.7654
G01 X26.3486 Y27.7971
G01 X26.3789 Y27.8274
G01 X26.4106 Y27.8562
G01 X26.4436 Y27.8835
G01 X26.4779 Y27.9091
G01 X26.5134 Y27.9331
G01 X26.5500 Y27.9554
G01 X26.5876 Y27.9760
G01 X26.6261 Y27.9947
G01 X26.6655 Y28.0115
G01 X26.7056 Y28.0265
G01 X26.7464 Y28.0396
G01 X26.7878 Y28.0506
G01 X26.8297 Y28.0598
G01 X26.8719 Y28.0669
G01 X26.9144 Y28.0719
G01 X26.9572 Y28.0750
G01 X27.0000 Y28.0760
G01 X27.0428 Y28.0750
G01 X27.0855 Y28.0719
G01 X27.1281 Y28.0669
G01 X27.1703 Y28.0598
G01 X27.2122 Y28.0506
G01 X27.2536 Y28.0396
G01 X27.2944 Y28.0265
G01 X27.3345 Y28.0115
G01 X27.3739 Y27.9947
G01 X27.4124 Y27.9760
G01 X27.4500 Y27.9554
G01 X27.4866 Y27.9331
G01 X27.5220 Y27.9091
G01 X27.5563 Y27.8835
G01 X27.5894 Y27.8562
G01 X27.6211 Y27.8274
G01 X27.6514 Y27.7971
G01 X27.6802 Y27.7654
G01 X27.7074 Y27.7324
G01 X27.7331 Y27.6981
G01 X27.7571 Y27.6626
G01 X27.7794 Y27.6260
G01 X27.7999 Y27.5884
G01 X27.8187 Y27.5499
G01 X27.8355 Y27.5105
G01 X27.8505 Y27.4704
G01 X27.8635 Y27.4296
G01 X27.8746 Y27.3882
G01 X27.8837 Y27.3463
G01 X27.8908 Y27.3041
G01 X27.8959 Y27.2616
G01 X27.8990 Y27.2188
G01 X27.9000 Y27.1760
G01 X27.9075 Y27.1450 F1000
G01 X27.9140 Y27.1137
G01 X27.9194 Y27.0822
G01 X27.9236 Y27.0505
G01 X27.9268 Y27.0187
G01 X27.9289 Y26.9868
G01 X27.9299 Y26.9549
G01 X27.9297 Y26.9229
G01 X27.9285 Y26.8910
G01 X27.9261 Y26.8591
G01 X27.9227 Y26.8274
G01 X27.9181 Y26.7957
G01 X27.9084 Y26.7442
G01 X27.8961 Y26.6933
G01 X27.8811 Y26.6431
G01 X27.8636 Y26.5937
G01 X27.8436 Y26.5452
G01 X27.8211 Y26.4979
G01 X27.7962 Y26.4518
G01 X27.7690 Y26.4070
G01 X27.7369 Y26.3600
G01 X27.7026 Y26.3147
G01 X27.6659 Y26.2712
G01 X27.6271 Y26.2296
G01 X27.5861 Y26.1901
G01 X27.5433 Y26.1527
G01 X27.4985 Y26.1175
G01 X27.4520 Y26.0847
G01 X27.4001 Y26.0519
G01 X27.3466 Y26.0217
G01 X27.2917 Y25.9943
G01 X27.2354 Y25.9698
G01 X27.1779 Y25.9481
G01 X27.1194 Y25.9294
G01 X27.0601 Y25.9137
G01 X27.0000 Y25.9010
G01 X26.9349 Y25.8907
G01 X26.8693 Y25.8837
G01 X26.8035 Y25.8800
G01 X26.7376 Y25.8796
G01 X26.6717 Y25.8826
G01 X26.6061 Y25.8889
G01 X26.5408 Y25.8985
G01 X26.4762 Y25.9115
G01 X26.4079 Y25.9287
G01 X26.3405 Y25.9494
G01 X26.2743 Y25.9735
G01 X26.2094 Y26.0008
G01 X26.1459 Y26.0314
G01 X26.0840 Y26.0652
G01 X26.0240 Y26.1021
G01 X25.9658 Y26.1419
G01 X25.9123 Y26.1913
G01 X25.8613 Y26.2433
G01 X25.8129 Y26.2978
G01 X25.7673 Y26.3545
G01 X25.7245 Y26.4135
G01 X25.6846 Y26.4745
G01 X25.6478 Y26.5374
G01 X25.6142 Y26.6020
G01 X25.5877 Y26.6707
G01 X25.5646 Y26.7406
G01 X25.5450 Y26.8116
G01 X25.5288 Y26.8834
G01 X25.5162 Y26.9559
G01 X25.5072 Y27.0290
G01 X25.5018 Y27.1024
G01 X25.5000 Y27.1760
G01 X25.5018 Y27.2496
G01 X25.5072 Y27.3230
G01 X25.5162 Y27.3961
G01 X25.5288 Y27.4687
G01 X25.5450 Y27.5405
G01 X25.5646 Y27.6114
G01 X25.5877 Y27.6813
G01 X25.6142 Y27.7500
G01 X25.6440 Y27.8173
G01 X25.6771 Y27.8831
G01 X25.7134 Y27.9472
G01 X25.7528 Y28.0094
G01 X25.7952 Y28.0696
G01 X25.8405 Y28.1276
G01 X25.8886 Y28.1833
G01 X25.9393 Y28.2367
G01 X25.9927 Y28.2874
G01 X26.0484 Y28.3355
G01 X26.1065 Y28.3808
G01 X26.1666 Y28.4232
G01 X26.2288 Y28.4626
G01 X26.2929 Y28.4989
G01 X26.3587 Y28.5320
G01 X26.4260 Y28.5618
G01 X26.4947 Y28.5883
G01 X26.5646 Y28.6114
G01 X26.6355 Y28.6311
G01 X26.7074 Y28.6472
G01 X26.7799 Y28.6598
G01 X26.8530 Y28.6688
G01 X26.9264 Y28.6742
G01 X27.0000 Y28.6760
G01 X27.0736 Y28.6742
G01 X27.1470 Y28.6688
G01 X27.2201 Y28.6598
G01 X27.2926 Y28.6472
G01 X27.3645 Y28.6311
G01 X27.4354 Y28.6114
G01 X27.5053 Y28.5883
G01 X27.5740 Y28.5618
G01 X27.6413 Y28.5320
G01 X27.7071 Y28.4989
G01 X27.7711 Y28.4626
G01 X27.8333 Y28.4232
G01 X27.8935 Y28.3808
G01 X27.9516 Y28.3355
G01 X28.0073 Y28.2874
G01 X28.0606 Y28.2367
G01 X28.1114 Y28.1833
G01 X28.1595 Y28.1276
G01 X28.2048 Y28.0696
G01 X28.2472 Y28.0094
G01 X28.2866 Y27.9472
G01 X28.3229 Y27.8831
G01 X28.3560 Y27.8173
G01 X28.3858 Y27.7500
G01 X28.4123 Y27.6813
G01 X28.4354 Y27.6114
G01 X28.4550 Y27.5405
G01 X28.4712 Y27.4687
G01 X28.4837 Y27.3961
G01 X28.4928 Y27.3230
G01 X28.4982 Y27.2496
G01 X28.5000 Y27.1760
G01 X28.4958 Y27.0639
G01 X28.4832 Y26.9525
G01 X28.4624 Y26.8422
G01 X28.4333 Y26.7339
G01 X28.3963 Y26.6280
G01 X28.3514 Y26.5252
G01 X28.2990 Y26.4260
G01 X28.2393 Y26.3310
G01 X28.1727 Y26.2408
G01 X28.0996 Y26.1558
G01 X28.0202 Y26.0765
G01 X27.9352 Y26.0033
G01 X27.8450 Y25.9367
G01 X27.7500 Y25.8770
G01 X27.6508 Y25.8246
G01 X27.5480 Y25.7797
G01 X27.4421 Y25.7427
G01 X27.3338 Y25.7136
G01 X27.2236 Y25.6928
G01 X27.1121 Y25.6802
G01 X27.0000 Y25.6760
G01 X26.8879 Y25.6802
G01 X26.7764 Y25.6928
G01 X26.6662 Y25.7136
G01 X26.5579 Y25.7427
G01 X26.4520 Y25.7797
G01 X26.3492 Y25.8246
G01 X26.2500 Y25.8770
G01 X26.1550 Y25.9367
G01 X26.0648 Y26.0033
G01 X25.9797 Y26.0765
G01 X25.9004 Y26.1558
G01 X25.8273 Y26.2408
G01 X25.7606 Y26.3310
G01 X25.7010 Y26.4260
G01 X25.6486 Y26.5252
G01 X25.6037 Y26.6280
G01 X25.5666 Y26.7339
G01 X25.5376 Y26.8422
G01 X25.5168 Y26.9525
G01 X25.5042 Y27.0639
G01 X25.5000 Y27.1760
G01 X25.5042 Y27.2881
G01 X25.5168 Y27.3996
G01 X25.5376 Y27.5098
G01 X25.5666 Y27.6181
G01 X25.6037 Y27.7240
G01 X25.6486 Y27.8268
G01 X25.7010 Y27.9260
G01 X25.7606 Y28.0210
G01 X25.8273 Y28.1112
G01 X25.9004 Y28.1963
G01 X25.9797 Y28.2756
G01 X26.0648 Y28.3488
G01 X26.1550 Y28.4154
G01 X26.2500 Y28.4750
G01 X26.3492 Y28.5275
G01 X26.4520 Y28.5723
G01 X26.5579 Y28.6094
G01 X26.6662 Y28.6384
G01 X26.7764 Y28.6593
G01 X26.8879 Y28.6718
G01 X27.0000 Y28.6760
G01 X27.1121 Y28.6718
G01 X27.2236 Y28.6593
G01 X27.3338 Y28.6384
G01 X27.4421 Y28.6094
G01 X27.5480 Y28.5723
G01 X27.6508 Y28.5275
G01 X27.7500 Y28.4750
G01 X27.8450 Y28.4154
G01 X27.9352 Y28.3488
G01 X28.0202 Y28.2756
G01 X28.0996 Y28.1963
G01 X28.1727 Y28.1112
G01 X28.2393 Y28.0210
G01 X28.2990 Y27.9260
G01 X28.3514 Y27.8268
G01 X28.3963 Y27.7240
G01 X28.4333 Y27.6181
G01 X28.4624 Y27.5098
G01 X28.4832 Y27.3996
G01 X28.4958 Y27.2881
G01 X28.5000 Y27.1760
G01 X28.4954 Y27.0714
G01 X28.4817 Y26.9676
G01 X28.4591 Y26.8654
G01 X28.4276 Y26.7656
G01 X28.3875 Y26.6689
G01 X28.3392 Y26.5760
G01 X28.2830 Y26.4877
G01 X28.2192 Y26.4047
G01 X28.1485 Y26.3275
G01 X28.0713 Y26.2568
G01 X27.9883 Y26.1930
G01 X27.9000 Y26.1368
G01 X27.8071 Y26.0885
G01 X27.7104 Y26.0484
G01 X27.6106 Y26.0169
G01 X27.5084 Y25.9943
G01 X27.4046 Y25.9806
G01 X27.3000 Y25.9760
G01 X27.1954 Y25.9806
G01 X27.0916 Y25.9943
G01 X26.9894 Y26.0169
G01 X26.8896 Y26.0484
G01 X26.7928 Y26.0885
G01 X26.7000 Y26.1368
G01 X26.6117 Y26.1930
G01 X26.5286 Y26.2568
G01 X26.4515 Y26.3275
G01 X26.3807 Y26.4047
G01 X26.3170 Y26.4877
G01 X26.2608 Y26.5760
G01 X26.2124 Y26.6689
G01 X26.1724 Y26.7656
G01 X26.1409 Y26.8654
G01 X26.1182 Y26.9676
G01 X26.1046 Y27.0714
G01 X26.1000 Y27.1760
G01 X26.1011 Y27.2202
G01 X26.1043 Y27.2642
G01 X26.1097 Y27.3081
G01 X26.1173 Y27.3516
G01 X26.1270 Y27.3947
G01 X26.1387 Y27.4373
G01 X26.1526 Y27.4792
G01 X26.1685 Y27.5204
G01 X26.1864 Y27.5608
G01 X26.2063 Y27.6003
G01 X26.2280 Y27.6387
G01 X26.2517 Y27.6760
G01 X26.2771 Y27.7121
G01 X26.3043 Y27.7470
G01 X26.3331 Y27.7804
G01 X26.3636 Y27.8124
G01 X26.3956 Y27.8429
G01 X26.4290 Y27.8717
G01 X26.4639 Y27.8989
G01 X26.5000 Y27.9243
G01 X26.5373 Y27.9480
G01 X26.5757 Y27.9697
G01 X26.6152 Y27.9896
G01 X26.6556 Y28.0075
G01 X26.6968 Y28.0234
G01 X26.7387 Y28.0373
G01 X26.7813 Y28.0490
G01 X26.8244 Y28.0587
G01 X26.8679 Y28.0663
G01 X26.9118 Y28.0717
G01 X26.9558 Y28.0749
G01 X27.0000 Y28.0760
G01 X27.0442 Y28.0749
G01 X27.0882 Y28.0717
G01 X27.1320 Y28.0663
G01 X27.1756 Y28.0587
G01 X27.2187 Y28.0490
G01 X27.2612 Y28.0373
G01 X27.3032 Y28.0234
G01 X27.3444 Y28.0075
G01 X27.3848 Y27.9896
G01 X27.4242 Y27.9697
G01 X27.4627 Y27.9480
G01 X27.5000 Y27.9243
G01 X27.5361 Y27.8989
G01 X27.5709 Y27.8717
G01 X27.6044 Y27.8429
G01 X27.6364 Y27.8124
G01 X27.6668 Y27.7804
G01 X27.6957 Y27.7470
G01 X27.7229 Y27.7121
G01 X27.7483 Y27.6760
G01 X27.7719 Y27.6387
G01 X27.7937 Y27.6003
G01 X27.8136 Y27.5608
G01 X27.8315 Y27.5204
G01 X27.8474 Y27.4792
G01 X27.8612 Y27.4373
G01 X27.8730 Y27.3947
G01 X27.8827 Y27.3516
G01 X27.8902 Y27.3081
G01 X27.8957 Y27.2642
G01 X27.8989 Y27.2202
G01 X27.9000 Y27.1760
M107
M106 S240
G01 X27.8990 Y27.1332 Z-1.1373 F400
G01 X27.8959 Y27.0905 Z-1.1496
G01 X27.8908 Y27.0479 Z-1.1619
G01 X27.8837 Y27.0057 Z-1.1742
G01 X27.8746 Y26.9638 Z-1.1866
G01 X27.8635 Y26.9225 Z-1.1989
G01 X27.8505 Y26.8817 Z-1.2112
G01 X27.8355 Y26.8415 Z-1.2235
G01 X27.8187 Y26.8021 Z-1.2358
G01 X27.7999 Y26.7636 Z-1.2481
G01 X27.7794 Y26.7260 Z-1.2604
G01 X27.7571 Y26.6894 Z-1.2727
G01 X27.7331 Y26.6540 Z-1.2850
G01 X27.7074 Y26.6197 Z-1.2973
G01 X27.6802 Y26.5866 Z-1.3097
G01 X27.6514 Y26.5549 Z-1.3220
G01 X27.6211 Y26.5247 Z-1.3343
G01 X27.5894 Y26.4958 Z-1.3466
G01 X27.5563 Y26.4686 Z-1.3589
G01 X27.5220 Y26.4429 Z-1.3712
G01 X27.4866 Y26.4189 Z-1.3835
G01 X27.4500 Y26.3966 Z-1.3958
G01 X27.4124 Y26.3761 Z-1.4081
G01 X27.3739 Y26.3573 Z-1.4205
G01 X27.3345 Y26.3405 Z-1.4328
G01 X27.2944 Y26.3255 Z-1.4451
G01 X27.2536 Y26.3125 Z-1.4574
G01 X27.2122 Y26.3014 Z-1.4697
G01 X27.1703 Y26.2923 Z-1.4820
G01 X27.1281 Y26.2852 Z-1.4943
G01 X27.0855 Y26.2801 Z-1.5066
G01 X27.0428 Y26.2770 Z-1.5189
G01 X27.0000 Y26.2760 Z-1.5313
G01 X26.9572 Y26.2770 Z-1.5436
G01 X26.9144 Y26.2801 Z-1.5559
G01 X26.8719 Y26.2852 Z-1.5682
G01 X26.8297 Y26.2923 Z-1.5805
G01 X26.7878 Y26.3014 Z-1.5928
G01 X26.7464 Y26.3125 Z-1.6051
G01 X26.7056 Y26.3255 Z-1.6174
G01 X26.6655 Y26.3405 Z-1.6297
G01 X26.6261 Y26.3573 Z-1.6420
G01 X26.5876 Y26.3761 Z-1.6544
G01 X26.5500 Y26.3966 Z-1.6667
G01 X26.5134 Y26.4189 Z-1.6790
G01 X26.4779 Y26.4429 Z-1.6913
G01 X26.4436 Y26.4686 Z-1.7036
G01 X26.4106 Y26.4958 Z-1.7159
G01 X26.3789 Y26.5247 Z-1.7282
G01 X26.3486 Y26.5549 Z-1.7405
G01 X26.3198 Y26.5866 Z-1.7528
G01 X26.2925 Y26.6197 Z-1.7652
G01 X26.2669 Y26.6540 Z-1.7775
G01 X26.2429 Y26.6894 Z-1.7898
G01 X26.2206 Y26.7260 Z-1.8021
G01 X26.2000 Y26.7636 Z-1.8144
G01 X26.1813 Y26.8021 Z-1.8267
G01 X26.1645 Y26.8415 Z-1.8390
G01 X26.1495 Y26.8817 Z-1.8513
G01 X26.1364 Y26.9225 Z-1.8636
G01 X26.1254 Y26.9638 Z-1.8759
G01 X26.1163 Y27.0057 Z-1.8883
G01 X26.1092 Y27.0479 Z-1.9006
G01 X26.1041 Y27.0905 Z-1.9129
G01 X26.1010 Y27.1332 Z-1.9252
G01 X26.1000 Y27.1760 Z-1.9375
G01 X26.1010 Y27.2188 Z-1.9498
G01 X26.1041 Y27.2616 Z-1.9621
G01 X26.1092 Y27.3041 Z-1.9744
G01 X26.1163 Y27.3463 Z-1.9867
G01 X26.1254 Y27.3882 Z-1.9991
G01 X26.1364 Y27.4296 Z-2.0114
G01 X26.1495 Y27.4704 Z-2.0237
G01 X26.1645 Y27.5105 Z-2.0360
G01 X26.1813 Y27.5499 Z-2.0483
G01 X26.2000 Y27.5884 Z-2.0606
G01 X26.2206 Y27.6260 Z-2.0729
G01 X26.2429 Y27.6626 Z-2.0852
G01 X26.2669 Y27.6981 Z-2.0975
G01 X26.2925 Y27.7324 Z-2.1098
G01 X26.3198 Y27.7654 Z-2.1222
G01 X26.3486 Y27.7971 Z-2.1345
G01 X26.3789 Y27.8274 Z-2.1468
G01 X26.4106 Y27.8562 Z-2.1591
G01 X26.4436 Y27.8835 Z-2.1714
G01 X26.4779 Y27.9091 Z-2.1837
G01 X26.5134 Y27.9331 Z-2.1960
G01 X26.5500 Y27.9554 Z-2.2083
G01 X26.5876 Y27.9760 Z-2.2206
G01 X26.6261 Y27.9947 Z-2.2330
G01 X26.6655 Y28.0115 Z-2.2453
G01 X26.7056 Y28.0265 Z-2.2576
G01 X26.7464 Y28.0396 Z-2.2699
G01 X26.7878 Y28.0506 Z-2.2822
G01 X26.8297 Y28.0598 Z-2.2945
G01 X26.8719 Y28.0669 Z-2.3068
G01 X26.9144 Y28.0719 Z-2.3191
G01 X26.9572 Y28.0750 Z-2.3314
G01 X27.0000 Y28.0760 Z-2.3438
G01 X27.0428 Y28.0750 Z-2.3561
G01 X27.0855 Y28.0719 Z-2.3684
G01 X27.1281 Y28.0669 Z-2.3807
G01 X27.1703 Y28.0598 Z-2.3930
G01 X27.2122 Y28.0506 Z-2.4053
G01 X27.2536 Y28.0396 Z-2.4176
G01 X27.2944 Y28.0265 Z-2.4299
G01 X27.3345 Y28.0115 Z-2.4422
G01 X27.3739 Y27.9947 Z-2.4545
G01 X27.4124 Y27.9760 Z-2.4669
G01 X27.4500 Y27.9554 Z-2.4792
G01 X27.4866 Y27.9331 Z-2.4915
G01 X27.5220 Y27.9091 Z-2.5038
G01 X27.5563 Y27.8835 Z-2.5161
G01 X27.5894 Y27.8562 Z-2.5284
G01 X27.6211 Y27.8274 Z-2.5407
G01 X27.6514 Y27.7971 Z-2.5530
G01 X27.6802 Y27.7654 Z-2.5653
G01 X27.7074 Y27.7324 Z-2.5777
G01 X27.7331 Y27.6981 Z-2.5900
G01 X27.7571 Y27.6626 Z-2.6023
G01 X27.7794 Y27.6260 Z-2.6146
G01 X27.7999 Y27.5884 Z-2.6269
G01 X27.8187 Y27.5499 Z-2.6392
G01 X27.8355 Y27.5105 Z-2.6515
G01 X27.8505 Y27.4704 Z-2.6638
G01 X27.8635 Y27.4296 Z-2.6761
G01 X27.8746 Y27.3882 Z-2.6884
G01 X27.8837 Y27.3463 Z-2.7008
G01 X27.8908 Y27.3041 Z-2.7131
G01 X27.8959 Y27.2616 Z-2.7254
G01 X27.8990 Y27.2188 Z-2.7377
G01 X27.9000 Y27.1760 Z-2.7500
G01 X27.8990 Y27.1332
G01 X27.8959 Y27.0905
G01 X27.8908 Y27.0479
G01 X27.8837 Y27.0057
G01 X27.8746 Y26.9638
G01 X27.8635 Y26.9225
G01 X27.8505 Y26.8817
G01 X27.8355 Y26.8415
G01 X27.8187 Y26.8021
G01 X27.7999 Y26.7636
G01 X27.7794 Y26.7260
G01 X27.7571 Y26.6894
G01 X27.7331 Y26.6540
G01 X27.7074 Y26.6197
G01 X27.6802 Y26.5866
G01 X27.6514 Y26.5549
G01 X27.6211 Y26.5247
G01 X27.5894 Y26.4958
G01 X27.5563 Y26.4686
G01 X27.5220 Y26.4429
G01 X27.4866 Y26.4189
G01 X27.4500 Y26.3966
G01 X27.4124 Y26.3761
G01 X27.3739 Y26.3573
G01 X27.3345 Y26.3405
G01 X27.2944 Y26.3255
G01 X27.2536 Y26.3125
G01 X27.2122 Y26.3014
G01 X27.1703 Y26.2923
G01 X27.1281 Y26.2852
G01 X27.0855 Y26.2801
G01 X27.0428 Y26.2770
G01 X27.0000 Y26.2760
G01 X26.9572 Y26.2770
G01 X26.9144 Y26.2801
G01 X26.8719 Y26.2852
G01 X26.8297 Y26.2923
G01 X26.7878 Y26.3014
G01 X26.7464 Y26.3125
G01 X26.7056 Y26.3255
G01 X26.6655 Y26.3405
G01 X26.6261 Y26.3573
G01 X26.5876 Y26.3761
G01 X26.5500 Y26.3966
G01 X26.5134 Y26.4189
G01 X26.4779 Y26.4429
G01 X26.4436 Y26.4686
G01 X26.4106 Y26.4958
G01 X26.3789 Y26.5247
G01 X26.3486 Y26.5549
G01 X26.3198 Y26.5866
G01 X26.2925 Y26.6197
G01 X26.2669 Y26.6540
G01 X26.2429 Y26.6894
G01 X26.2206 Y26.7260
G01 X26.2000 Y26.7636
G01 X26.1813 Y26.8021
G01 X26.1645 Y26.8415
G01 X26.1495 Y26.8817
G01 X26.1364 Y26.9225
G01 X26.1254 Y26.9638
G01 X26.1163 Y27.0057
G01 X26.1092 Y27.0479
G01 X26.1041 Y27.0905
G01 X26.1010 Y27.1332
G01 X26.1000 Y27.1760
G01 X26.1010 Y27.2188
G01 X26.1041 Y27.2616
G01 X26.1092 Y27.3041
G01 X26.1163 Y27.3463
G01 X26.1254 Y27.3882
G01 X26.1364 Y27.4296
G01 X26.1495 Y27.4704
G01 X26.1645 Y27.5105
G01 X26.1813 Y27.5499
G01 X26.2000 Y27.5884
G01 X26.2206 Y27.6260
G01 X26.2429 Y27.6626
G01 X26.2669 Y27.6981
G01 X26.2925 Y27.7324
G01 X26.3198 Y27.7654
G01 X26.3486 Y27.7971
G01 X26.3789 Y27.8274
G01 X26.4106 Y27.8562
G01 X26.4436 Y27.8835
G01 X26.4779 Y27.9091
G01 X26.5134 Y27.9331
G01 X26.5500 Y27.9554
G01 X26.5876 Y27.9760
G01 X26.6261 Y27.9947
G01 X26.6655 Y28.0115
G01 X26.7056 Y28.0265
G01 X26.7464 Y28.0396
G01 X26.7878 Y28.0506
G01 X26.8297 Y28.0598
G01 X26.8719 Y28.0669
G01 X26.9144 Y28.0719
G01 X26.9572 Y28.0750
G01 X27.0000 Y28.0760
G01 X27.0428 Y28.0750
G01 X27.0855 Y28.0719
G01 X27.1281 Y28.0669
G01 X27.1703 Y28.0598
G01 X27.2122 Y28.0506
G01 X27.2536 Y28.0396
G01 X27.2944 Y28.0265
G01 X27.3345 Y28.0115
G01 X27.3739 Y27.9947
G01 X27.4124 Y27.9760
G01 X27.4500 Y27.9554
G01 X27.4866 Y27.9331
G01 X27.5220 Y27.9091
G01 X27.5563 Y27.8835
G01 X27.5894 Y27.8562
G01 X27.6211 Y27.8274
G01 X27.6514 Y27.7971
G01 X27.6802 Y27.7654
G01 X27.7074 Y27.7324
G01 X27.7331 Y27.6981
G01 X27.7571 Y27.6626
G01 X27.7794 Y27.6260
G01 X27.7999 Y27.5884
G01 X27.8187 Y27.5499
G01 X27.8355 Y27.5105
G01 X27.8505 Y27.4704
G01 X27.8635 Y27.4296
G01 X27.8746 Y27.3882
G01 X27.8837 Y27.3463
G01 X27.8908 Y27.3041
G01 X27.8959 Y27.2616
G01 X27.8990 Y27.2188
G01 X27.9000 Y27.1760
G01 X27.9075 Y27.1450 F1000
G01 X27.9140 Y27.1137
G01 X27.9194 Y27.0822
G01 X27.9236 Y27.0505
G01 X27.9268 Y27.0187
G01 X27.9289 Y26.9868
G01 X27.9299 Y26.9549
G01 X27.9297 Y26.9229
G01 X27.9285 Y26.8910
G01 X27.9261 Y26.8591
G01 X27.9227 Y26.8274
G01 X27.9181 Y26.7957
G01 X27.9084 Y26.7442
G01 X27.8961 Y26.6933
G01 X27.8811 Y26.6431
G01 X27.8636 Y26.5937
G01 X27.8436 Y26.5452
G01 X27.8211 Y26.4979
G01 X27.7962 Y26.4518
G01 X27.7690 Y26.4070
G01 X27.7369 Y26.3600
G01 X27.7026 Y26.3147
G01 X27.6659 Y26.2712
G01 X27.6271 Y26.2296
G01 X27.5861 Y26.1901
G01 X27.5433 Y26.1527
G01 X27.4985 Y26.1175
G01 X27.4520 Y26.0847
G01 X27.4001 Y26.0519
G01 X27.3466 Y26.0217
G01 X27.2917 Y25.9943
G01 X27.2354 Y25.9698
G01 X27.1779 Y25.9481
G01 X27.1194 Y25.9294
G01 X27.0601 Y25.9137
G01 X27.0000 Y25.9010
G01 X26.9349 Y25.8907
G01 X26.8693 Y25.8837
G01 X26.8035 Y25.8800
G01 X26.7376 Y25.8796
G01 X26.6717 Y25.8826
G01 X26.6061 Y25.8889
G01 X26.5408 Y25.8985
G01 X26.4762 Y25.9115
G01 X26.4079 Y25.9287
G01 X26.3405 Y25.9494
G01 X26.2743 Y25.9735
G01 X26.2094 Y26.0008
G01 X26.1459 Y26.0314
G01 X26.0840 Y26.0652
G01 X26.0240 Y26.1021
G01 X25.9658 Y26.1419
G01 X25.9123 Y26.1913
G01 X25.8613 Y26.2433
G01 X25.8129 Y26.2978
G01 X25.7673 Y26.3545
G01 X25.7245 Y26.4135
G01 X25.6846 Y26.4745
G01 X25.6478 Y26.5374
G01 X25.6142 Y26.6020
G01 X25.5877 Y26.6707
G01 X25.5646 Y26.7406
G01 X25.5450 Y26.8116
G01 X25.5288 Y26.8834
G01 X25.5162 Y26.9559
G01 X25.5072 Y27.0290
G01 X25.5018 Y27.1024
G01 X25.5000 Y27.1760
G01 X25.5018 Y27.2496
G01 X25.5072 Y27.3230
G01 X25.5162 Y27.3961
G01 X25.5288 Y27.4687
G01 X25.5450 Y27.5405
G01 X25.5646 Y27.6114
G01 X25.5877 Y27.6813
G01 X25.6142 Y27.7500
G01 X25.6440 Y27.8173
G01 X25.6771 Y27.8831
G01 X25.7134 Y27.9472
G01 X25.7528 Y28.0094
G01 X25.7952 Y28.0696
G01 X25.8405 Y28.1276
G01 X25.8886 Y28.1833
G01 X25.9393 Y28.2367
G01 X25.9927 Y28.2874
G01 X26.0484 Y28.3355
G01 X26.1065 Y28.3808
G01 X26.1666 Y28.4232
G01 X26.2288 Y28.4626
G01 X26.2929 Y28.4989
G01 X26.3587 Y28.5320
G01 X26.4260 Y28.5618
G01 X26.4947 Y28.5883
G01 X26.5646 Y28.6114
G01 X26.6355 Y28.6311
G01 X26.7074 Y28.6472
G01 X26.7799 Y28.6598
G01 X26.8530 Y28.6688
G01 X26.9264 Y28.6742
G01 X27.0000 Y28.6760
G01 X27.0736 Y28.6742
G01 X27.1470 Y28.6688
G01 X27.2201 Y28.6598
G01 X27.2926 Y28.6472
G01 X27.3645 Y28.6311
G01 X27.4354 Y28.6114
G01 X27.5053 Y28.5883
G01 X27.5740 Y28.5618
G01 X27.6413 Y28.5320
G01 X27.7071 Y28.4989
G01 X27.7711 Y28.4626
G01 X27.8333 Y28.4232
G01 X27.8935 Y28.3808
G01 X27.9516 Y28.3355
G01 X28.0073 Y28.2874
G01 X28.0606 Y28.2367
G01 X28.1114 Y28.1833
G01 X28.1595 Y28.1276
G01 X28.2048 Y28.0696
G01 X28.2472 Y28.0094
G01 X28.2866 Y27.9472
G01 X28.3229 Y27.8831
G01 X28.3560 Y27.8173
G01 X28.3858 Y27.7500
G01 X28.4123 Y27.6813
G01 X28.4354 Y27.6114
G01 X28.4550 Y27.5405
G01 X28.4712 Y27.4687
G01 X28.4837 Y27.3961
G01 X28.4928 Y27.3230
G01 X28.4982 Y27.2496
G01 X28.5000 Y27.1760
G01 X28.4958 Y27.0639
G01 X28.4832 Y26.9525
G01 X28.4624 Y26.8422
G01 X28.4333 Y26.7339
G01 X28.3963 Y26.6280
G01 X28.3514 Y26.5252
G01 X28.2990 Y26.4260
G01 X28.2393 Y26.3310
G01 X28.1727 Y26.2408
G01 X28.0996 Y26.1558
G01 X28.0202 Y26.0765
G01 X27.9352 Y26.0033
G01 X27.8450 Y25.9367
G01 X27.7500 Y25.8770
G01 X27.6508 Y25.8246
G01 X27.5480 Y25.7797
G01 X27.4421 Y25.7427
G01 X27.3338 Y25.7136
G01 X27.2236 Y25.6928
G01 X27.1121 Y25.6802
G01 X27.0000 Y25.6760
G01 X26.8879 Y25.6802
G01 X26.7764 Y25.6928
G01 X26.6662 Y25.7136
G01 X26.5579 Y25.7427
G01 X26.4520 Y25.7797
G01 X26.3492 Y25.8246
G01 X26.2500 Y25.8770
G01 X26.1550 Y25.9367
G01 X26.0648 Y26.0033
G01 X25.9797 Y26.0765
G01 X25.9004 Y26.1558
G01 X25.8273 Y26.2408
G01 X25.7606 Y26.3310
G01 X25.7010 Y26.4260
G01 X25.6486 Y26.5252
G01 X25.6037 Y26.6280
G01 X25.5666 Y26.7339
G01 X25.5376 Y26.8422
G01 X25.5168 Y26.9525
G01 X25.5042 Y27.0639
G01 X25.5000 Y27.1760
G01 X25.5042 Y27.2881
G01 X25.5168 Y27.3996
G01 X25.5376 Y27.5098
G01 X25.5666 Y27.6181
G01 X25.6037 Y27.7240
G01 X25.6486 Y27.8268
G01 X25.7010 Y27.9260
G01 X25.7606 Y28.0210
G01 X25.8273 Y28.1112
G01 X25.9004 Y28.1963
G01 X25.9797 Y28.2756
G01 X26.0648 Y28.3488
G01 X26.1550 Y28.4154
G01 X26.2500 Y28.4750
G01 X26.3492 Y28.5275
G01 X26.4520 Y28.5723
G01 X26.5579 Y28.6094
G01 X26.6662 Y28.6384
G01 X26.7764 Y28.6593
G01 X26.8879 Y28.6718
G01 X27.0000 Y28.6760
G01 X27.1121 Y28.6718
G01 X27.2236 Y28.6593
G01 X27.3338 Y28.6384
G01 X27.4421 Y28.6094
G01 X27.5480 Y28.5723
G01 X27.6508 Y28.5275
G01 X27.7500 Y28.4750
G01 X27.8450 Y28.4154
G01 X27.9352 Y28.3488
G01 X28.0202 Y28.2756
G01 X28.0996 Y28.1963
G01 X28.1727 Y28.1112
G01 X28.2393 Y28.0210
G01 X28.2990 Y27.9260
G01 X28.3514 Y27.8268
G01 X28.3963 Y27.7240
G01 X28.4333 Y27.6181
G01 X28.4624 Y27.5098
G01 X28.4832 Y27.3996
G01 X28.4958 Y27.2881
G01 X28.5000 Y27.1760
G01 X28.4954 Y27.0714
G01 X28.4817 Y26.9676
G01 X28.4591 Y26.8654
G01 X28.4276 Y26.7656
G01 X28.3875 Y26.6689
G01 X28.3392 Y26.5760
G01 X28.2830 Y26.4877
G01 X28.2192 Y26.4047
G01 X28.1485 Y26.3275
G01 X28.0713 Y26.2568
G01 X27.9883 Y26.1930
G01 X27.9000 Y26.1368
G01 X27.8071 Y26.0885
G01 X27.7104 Y26.0484
G01 X27.6106 Y26.0169
G01 X27.5084 Y25.9943
G01 X27.4046 Y25.9806
G01 X27.3000 Y25.9760
G01 X27.1954 Y25.9806
G01 X27.0916 Y25.9943
G01 X26.9894 Y26.0169
G01 X26.8896 Y26.0484
G01 X26.7928 Y26.0885
G01 X26.7000 Y26.1368
G01 X26.6117 Y26.1930
G01 X26.5286 Y26.2568
G01 X26.4515 Y26.3275
G01 X26.3807 Y26.4047
G01 X26.3170 Y26.4877
G01 X26.2608 Y26.5760
G01 X26.2124 Y26.6689
G01 X26.1724 Y26.7656
G01 X26.1409 Y26.8654
G01 X26.1182 Y26.9676
G01 X26.1046 Y27.0714
G01 X26.1000 Y27.1760
G01 X26.1011 Y27.2202
G01 X26.1043 Y27.2642
G01 X26.1097 Y27.3081
G01 X26.1173 Y27.3516
G01 X26.1270 Y27.3947
G01 X26.1387 Y27.4373
G01 X26.1526 Y27.4792
G01 X26.1685 Y27.5204
G01 X26.1864 Y27.5608
G01 X26.2063 Y27.6003
G01 X26.2280 Y27.6387
G01 X26.2517 Y27.6760
G01 X26.2771 Y27.7121
G01 X26.3043 Y27.7470
G01 X26.3331 Y27.7804
G01 X26.3636 Y27.8124
G01 X26.3956 Y27.8429
G01 X26.4290 Y27.8717
G01 X26.4639 Y27.8989
G01 X26.5000 Y27.9243
G01 X26.5373 Y27.9480
G01 X26.5757 Y27.9697
G01 X26.6152 Y27.9896
G01 X26.6556 Y28.0075
G01 X26.6968 Y28.0234
G01 X26.7387 Y28.0373
G01 X26.7813 Y28.0490
G01 X26.8244 Y28.0587
G01 X26.8679 Y28.0663
G01 X26.9118 Y28.0717
G01 X26.9558 Y28.0749
G01 X27.0000 Y28.0760
G01 X27.0442 Y28.0749
G01 X27.0882 Y28.0717
G01 X27.1320 Y28.0663
G01 X27.1756 Y28.0587
G01 X27.2187 Y28.0490
G01 X27.2612 Y28.0373
G01 X27.3032 Y28.0234
G01 X27.3444 Y28.0075
G01 X27.3848 Y27.9896
G01 X27.4242 Y27.9697
G01 X27.4627 Y27.9480
G01 X27.5000 Y27.9243
G01 X27.5361 Y27.8989
G01 X27.5709 Y27.8717
G01 X27.6044 Y27.8429
G01 X27.6364 Y27.8124
G01 X27.6668 Y27.7804
G01 X27.6957 Y27.7470
G01 X27.7229 Y27.7121
G01 X27.7483 Y27.6760
G01 X27.7719 Y27.6387
G01 X27.7937 Y27.6003
G01 X27.8136 Y27.5608
G01 X27.8315 Y27.5204
G01 X27.8474 Y27.4792
G01 X27.8612 Y27.4373
G01 X27.8730 Y27.3947
G01 X27.8827 Y27.3516
G01 X27.8902 Y27.3081
G01 X27.8957 Y27.2642
G01 X27.8989 Y27.2202
G01 X27.9000 Y27.1760
M107
M106 S240
G01 X27.8990 Y27.1332 Z-2.7623 F400
G01 X27.8959 Y27.0905 Z-2.7746
G01 X27.8908 Y27.0479 Z-2.7869
G01 X27.8837 Y27.0057 Z-2.7992
G01 X27.8746 Y26.9638 Z-2.8116
G01 X27.8635 Y26.9225 Z-2.8239
G01 X27.8505 Y26.8817 Z-2.8362
G01 X27.8355 Y26.8415 Z-2.8485
G01 X27.8187 Y26.8021 Z-2.8608
G01 X27.7999 Y26.7636 Z-2.8731
G01 X27.7794 Y26.7260 Z-2.8854
G01 X27.7571 Y26.6894 Z-2.8977
G01 X27.7331 Y26.6540 Z-2.9100
G01 X27.7074 Y26.6197 Z-2.9223
G01 X27.6802 Y26.5866 Z-2.9347
G01 X27.6514 Y26.5549 Z-2.9470
G01 X27.6211 Y26.5247 Z-2.9593
G01 X27.5894 Y26.4958 Z-2.9716
G01 X27.5563 Y26.4686 Z-2.9839
G01 X27.5220 Y26.4429 Z-2.9962
G01 X27.4866 Y26.4189 Z-3.0085
G01 X27.4500 Y26.3966 Z-3.0208
G01 X27.4124 Y26.3761 Z-3.0331
G01 X27.3739 Y26.3573 Z-3.0455
G01 X27.3345 Y26.3405 Z-3.0578
G01 X27.2944 Y26.3255 Z-3.0701
G01 X27.2536 Y26.3125 Z-3.0824
G01 X27.2122 Y26.3014 Z-3.0947
G01 X27.1703 Y26.2923 Z-3.1070
G01 X27.1281 Y26.2852 Z-3.1193
G01 X27.0855 Y26.2801 Z-3.1316
G01 X27.0428 Y26.2770 Z-3.1439
G01 X27.0000 Y26.2760 Z-3.1563
G01 X26.9572 Y26.2770 Z-3.1686
G01 X26.9144 Y26.2801 Z-3.1809
G01 X26.8719 Y26.2852 Z-3.1932
G01 X26.8297 Y26.2923 Z-3.2055
G01 X26.7878 Y26.3014 Z-3.2178
G01 X26.7464 Y26.3125 Z-3.2301
G01 X26.7056 Y26.3255 Z-3.2424
G01 X26.6655 Y26.3405 Z-3.2547
G01 X26.6261 Y26.3573 Z-3.2670
G01 X26.5876 Y26.3761 Z-3.2794
G01 X26.5500 Y26.3966 Z-3.2917
G01 X26.5134 Y26.4189 Z-3.3040
G01 X26.4779 Y26.4429 Z-3.3163
G01 X26.4436 Y26.4686 Z-3.3286
G01 X26.4106 Y26.4958 Z-3.3409
G01 X26.3789 Y26.5247 Z-3.3532
G01 X26.3486 Y26.5549 Z-3.3655
G01 X26.3198 Y26.5866 Z-3.3778
G01 X26.2925 Y26.6197 Z-3.3902
G01 X26.2669 Y26.6540 Z-3.4025
G01 X26.2429 Y26.6894 Z-3.4148
G01 X26.2206 Y26.7260 Z-3.4271
G01 X26.2000 Y26.7636 Z-3.4394
G01 X26.1813 Y26.8021 Z-3.4517
G01 X26.1645 Y26.8415 Z-3.4640
G01 X26.1495 Y26.8817 Z-3.4763
G01 X26.1364 Y26.9225 Z-3.4886
G01 X26.1254 Y26.9638 Z-3.5009
G01 X26.1163 Y27.0057 Z-3.5133
G01 X26.1092 Y27.0479 Z-3.5256
G01 X26.1041 Y27.0905 Z-3.5379
G01 X26.1010 Y27.1332 Z-3.5502
G01 X26.1000 Y27.1760 Z-3.5625
G01 X26.1010 Y27.2188 Z-3.5748
G01 X26.1041 Y27.2616 Z-3.5871
G01 X26.1092 Y27.3041 Z-3.5994
G01 X26.1163 Y27.3463 Z-3.6117
G01 X26.1254 Y27.3882 Z-3.6241
G01 X26.1364 Y27.4296 Z-3.6364
G01 X26.1495 Y27.4704 Z-3.6487
G01 X26.1645 Y27.5105 Z-3.6610
G01 X26.1813 Y27.5499 Z-3.6733
G01 X26.2000 Y27.5884 Z-3.6856
G01 X26.2206 Y27.6260 Z-3.6979
G01 X26.2429 Y27.6626 Z-3.7102
G01 X26.2669 Y27.6981 Z-3.7225
G01 X26.2925 Y27.7324 Z-3.7348
G01 X26.3198 Y27.7654 Z-3.7472
G01 X26.3486 Y27.7971 Z-3.7595
G01 X26.3789 Y27.8274 Z-3.7718
G01 X26.4106 Y27.8562 Z-3.7841
G01 X26.4436 Y27.8835 Z-3.7964
G01 X26.4779 Y27.9091 Z-3.8087
G01 X26.5134 Y27.9331 Z-3.8210
G01 X26.5500 Y27.9554 Z-3.8333
G01 X26.5876 Y27.9760 Z-3.8456
G01 X26.6261 Y27.9947 Z-3.8580
G01 X26.6655 Y28.0115 Z-3.8703
G01 X26.7056 Y28.0265 Z-3.8826
G01 X26.7464 Y28.0396 Z-3.8949
G01 X26.7878 Y28.0506 Z-3.9072
G01 X26.8297 Y28.0598 Z-3.9195
G01 X26.8719 Y28.0669 Z-3.9318
G01 X26.9144 Y28.0719 Z-3.9441
G01 X26.9572 Y28.0750 Z-3.9564
G01 X27.0000 Y28.0760 Z-3.9688
G01 X27.0428 Y28.0750 Z-3.9811
G01 X27.0855 Y28.0719 Z-3.9934
G01 X27.1281 Y28.0669 Z-4.0057
G01 X27.1703 Y28.0598 Z-4.0180
G01 X27.2122 Y28.0506 Z-4.0303
G01 X27.2536 Y28.0396 Z-4.0426
G01 X27.2944 Y28.0265 Z-4.0549
G01 X27.3345 Y28.0115 Z-4.0672
G01 X27.3739 Y27.9947 Z-4.0795
G01 X27.4124 Y27.9760 Z-4.0919
G01 X27.4500 Y27.9554 Z-4.1042
G01 X27.4866 Y27.9331 Z-4.1165
G01 X27.5220 Y27.9091 Z-4.1288
G01 X27.5563 Y27.8835 Z-4.1411
G01 X27.5894 Y27.8562 Z-4.1534
G01 X27.6211 Y27.8274 Z-4.1657
G01 X27.6514 Y27.7971 Z-4.1780
G01 X27.6802 Y27.7654 Z-4.1903
G01 X27.7074 Y27.7324 Z-4.2027
G01 X27.7331 Y27.6981 Z-4.2150
G01 X27.7571 Y27.6626 Z-4.2273
G01 X27.7794 Y27.6260 Z-4.2396
G01 X27.7999 Y27.5884 Z-4.2519
G01 X27.8187 Y27.5499 Z-4.2642
G01 X27.8355 Y27.5105 Z-4.2765
G01 X27.8505 Y27.4704 Z-4.2888
G01 X27.8635 Y27.4296 Z-4.3011
G01 X27.8746 Y27.3882 Z-4.3134
G01 X27.8837 Y27.3463 Z-4.3258
G01 X27.8908 Y27.3041 Z-4.3381
G01 X27.8959 Y27.2616 Z-4.3504
G01 X27.8990 Y27.2188 Z-4.3627
G01 X27.9000 Y27.1760 Z-4.3750
G01 X27.8990 Y27.1332
G01 X27.8959 Y27.0905
G01 X27.8908 Y27.0479
G01 X27.8837 Y27.0057
G01 X27.8746 Y26.9638
G01 X27.8635 Y26.9225
G01 X27.8505 Y26.8817
G01 X27.8355 Y26.8415
G01 X27.8187 Y26.8021
G01 X27.7999 Y26.7636
G01 X27.7794 Y26.7260
G01 X27.7571 Y26.6894
G01 X27.7331 Y26.6540
G01 X27.7074 Y26.6197
G01 X27.6802 Y26.5866
G01 X27.6514 Y26.5549
G01 X27.6211 Y26.5247
G01 X27.5894 Y26.4958
G01 X27.5563 Y26.4686
G01 X27.5220 Y26.4429
G01 X27.4866 Y26.4189
G01 X27.4500 Y26.3966
G01 X27.4124 Y26.3761
G01 X27.3739 Y26.3573
G01 X27.3345 Y26.3405
G01 X27.2944 Y26.3255
G01 X27.2536 Y26.3125
G01 X27.2122 Y26.3014
G01 X27.1703 Y26.2923
G01 X27.1281 Y26.2852
G01 X27.0855 Y26.2801
G01 X27.0428 Y26.2770
G01 X27.0000 Y26.2760
G01 X26.9572 Y26.2770
G01 X26.9144 Y26.2801
G01 X26.8719 Y26.2852
G01 X26.8297 Y26.2923
G01 X26.7878 Y26.3014
G01 X26.7464 Y26.3125
G01 X26.7056 Y26.3255
G01 X26.6655 Y26.3405
G01 X26.6261 Y26.3573
G01 X26.5876 Y26.3761
G01 X26.5500 Y26.3966
G01 X26.5134 Y26.4189
G01 X26.4779 Y26.4429
G01 X26.4436 Y26.4686
G01 X26.4106 Y26.4958
G01 X26.3789 Y26.5247
G01 X26.3486 Y26.5549
G01 X26.3198 Y26.5866
G01 X26.2925 Y26.6197
G01 X26.2669 Y26.6540
G01 X26.2429 Y26.6894
G01 X26.2206 Y26.7260
G01 X26.2000 Y26.7636
G01 X26.1813 Y26.8021
G01 X26.1645 Y26.8415
G01 X26.1495 Y26.8817
G01 X26.1364 Y26.9225
G01 X26.1254 Y26.9638
G01 X26.1163 Y27.0057
G01 X26.1092 Y27.0479
G01 X26.1041 Y27.0905
G01 X26.1010 Y27.1332
G01 X26.1000 Y27.1760
G01 X26.1010 Y27.2188
G01 X26.1041 Y27.2616
G01 X26.1092 Y27.3041
G01 X26.1163 Y27.3463
G01 X26.1254 Y27.3882
G01 X26.1364 Y27.4296
G01 X26.1495 Y27.4704
G01 X26.1645 Y27.5105
G01 X26.1813 Y27.5499
G01 X26.2000 Y27.5884
G01 X26.2206 Y27.6260
G01 X26.2429 Y27.6626
G01 X26.2669 Y27.6981
G01 X26.2925 Y27.7324
G01 X26.3198 Y27.7654
G01 X26.3486 Y27.7971
G01 X26.3789 Y27.8274
G01 X26.4106 Y27.8562
G01 X26.4436 Y27.8835
G01 X26.4779 Y27.9091
G01 X26.5134 Y27.9331
G01 X26.5500 Y27.9554
G01 X26.5876 Y27.9760
G01 X26.6261 Y27.9947
G01 X26.6655 Y28.0115
G01 X26.7056 Y28.0265
G01 X26.7464 Y28.0396
G01 X26.7878 Y28.0506
G01 X26.8297 Y28.0598
G01 X26.8719 Y28.0669
G01 X26.9144 Y28.0719
G01 X26.9572 Y28.0750
G01 X27.0000 Y28.0760
G01 X27.0428 Y28.0750
G01 X27.0855 Y28.0719
G01 X27.1281 Y28.0669
G01 X27.1703 Y28.0598
G01 X27.2122 Y28.0506
G01 X27.2536 Y28.0396
G01 X27.2944 Y28.0265
G01 X27.3345 Y28.0115
G01 X27.3739 Y27.9947
G01 X27.4124 Y27.9760
G01 X27.4500 Y27.9554
G01 X27.4866 Y27.9331
G01 X27.5220 Y27.9091
G01 X27.5563 Y27.8835
G01 X27.5894 Y27.8562
G01 X27.6211 Y27.8274
G01 X27.6514 Y27.7971
G01 X27.6802 Y27.7654
G01 X27.7074 Y27.7324
G01 X27.7331 Y27.6981
G01 X27.7571 Y27.6626
G01 X27.7794 Y27.6260
G01 X27.7999 Y27.5884
G01 X27.8187 Y27.5499
G01 X27.8355 Y27.5105
G01 X27.8505 Y27.4704
G01 X27.8635 Y27.4296
G01 X27.8746 Y27.3882
G01 X27.8837 Y27.3463
G01 X27.8908 Y27.3041
G01 X27.8959 Y27.2616
G01 X27.8990 Y27.2188
G01 X27.9000 Y27.1760
G01 X27.9075 Y27.1450 F1000
G01 X27.9140 Y27.1137
G01 X27.9194 Y27.0822
G01 X27.9236 Y27.0505
G01 X27.9268 Y27.0187
G01 X27.9289 Y26.9868
G01 X27.9299 Y26.9549
G01 X27.9297 Y26.9229
G01 X27.9285 Y26.8910
G01 X27.9261 Y26.8591
G01 X27.9227 Y26.8274
G01 X27.9181 Y26.7957
G01 X27.9084 Y26.7442
G01 X27.8961 Y26.6933
G01 X27.8811 Y26.6431
G01 X27.8636 Y26.5937
G01 X27.8436 Y26.5452
G01 X27.8211 Y26.4979
G01 X27.7962 Y26.4518
G01 X27.7690 Y26.4070
G01 X27.7369 Y26.3600
G01 X27.7026 Y26.3147
G01 X27.6659 Y26.2712
G01 X27.6271 Y26.2296
G01 X27.5861 Y26.1901
G01 X27.5433 Y26.1527
G01 X27.4985 Y26.1175
G01 X27.4520 Y26.0847
G01 X27.4001 Y26.0519
G01 X27.3466 Y26.0217
G01 X27.2917 Y25.9943
G01 X27.2354 Y25.9698
G01 X27.1779 Y25.9481
G01 X27.1194 Y25.9294
G01 X27.0601 Y25.9137
G01 X27.0000 Y25.9010
G01 X26.9349 Y25.8907
G01 X26.8693 Y25.8837
G01 X26.8035 Y25.8800
G01 X26.7376 Y25.8796
G01 X26.6717 Y25.8826
G01 X26.6061 Y25.8889
G01 X26.5408 Y25.8985
G01 X26.4762 Y25.9115
G01 X26.4079 Y25.9287
G01 X26.3405 Y25.9494
G01 X26.2743 Y25.9735
G01 X26.2094 Y26.0008
G01 X26.1459 Y26.0314
G01 X26.0840 Y26.0652
G01 X26.0240 Y26.1021
G01 X25.9658 Y26.1419
G01 X25.9123 Y26.1913
G01 X25.8613 Y26.2433
G01 X25.8129 Y26.2978
G01 X25.7673 Y26.3545
G01 X25.7245 Y26.4135
G01 X25.6846 Y26.4745
G01 X25.6478 Y26.5374
G01 X25.6142 Y26.6020
G01 X25.5877 Y26.6707
G01 X25.5646 Y26.7406
G01 X25.5450 Y26.8116
G01 X25.5288 Y26.8834
G01 X25.5162 Y26.9559
G01 X25.5072 Y27.0290
G01 X25.5018 Y27.1024
G01 X25.5000 Y27.1760
G01 X25.5018 Y27.2496
G01 X25.5072 Y27.3230
G01 X25.5162 Y27.3961
G01 X25.5288 Y27.4687
G01 X25.5450 Y27.5405
G01 X25.5646 Y27.6114
G01 X25.5877 Y27.6813
G01 X25.6142 Y27.7500
G01 X25.6440 Y27.8173
G01 X25.6771 Y27.8831
G01 X25.7134 Y27.9472
G01 X25.7528 Y28.0094
G01 X25.7952 Y28.0696
G01 X25.8405 Y28.1276
G01 X25.8886 Y28.1833
G01 X25.9393 Y28.2367
G01 X25.9927 Y28.2874
G01 X26.0484 Y28.3355
G01 X26.1065 Y28.3808
G01 X26.1666 Y28.4232
G01 X26.2288 Y28.4626
G01 X26.2929 Y28.4989
G01 X26.3587 Y28.5320
G01 X26.4260 Y28.5618
G01 X26.4947 Y28.5883
G01 X26.5646 Y28.6114
G01 X26.6355 Y28.6311
G01 X26.7074 Y28.6472
G01 X26.7799 Y28.6598
G01 X26.8530 Y28.6688
G01 X26.9264 Y28.6742
G01 X27.0000 Y28.6760
G01 X27.0736 Y28.6742
G01 X27.1470 Y28.6688
G01 X27.2201 Y28.6598
G01 X27.2926 Y28.6472
G01 X27.3645 Y28.6311
G01 X27.4354 Y28.6114
G01 X27.5053 Y28.5883
G01 X27.5740 Y28.5618
G01 X27.6413 Y28.5320
G01 X27.7071 Y28.4989
G01 X27.7711 Y28.4626
G01 X27.8333 Y28.4232
G01 X27.8935 Y28.3808
G01 X27.9516 Y28.3355
G01 X28.0073 Y28.2874
G01 X28.0606 Y28.2367
G01 X28.1114 Y28.1833
G01 X28.1595 Y28.1276
G01 X28.2048 Y28.0696
G01 X28.2472 Y28.0094
G01 X28.2866 Y27.9472
G01 X28.3229 Y27.8831
G01 X28.3560 Y27.8173
G01 X28.3858 Y27.7500
G01 X28.4123 Y27.6813
G01 X28.4354 Y27.6114
G01 X28.4550 Y27.5405
G01 X28.4712 Y27.4687
G01 X28.4837 Y27.3961
G01 X28.4928 Y27.3230
G01 X28.4982 Y27.2496
G01 X28.5000 Y27.1760
G01 X28.4958 Y27.0639
G01 X28.4832 Y26.9525
G01 X28.4624 Y26.8422
G01 X28.4333 Y26.7339
G01 X28.3963 Y26.6280
G01 X28.3514 Y26.5252
G01 X28.2990 Y26.4260
G01 X28.2393 Y26.3310
G01 X28.1727 Y26.2408
G01 X28.0996 Y26.1558
G01 X28.0202 Y26.0765
G01 X27.9352 Y26.0033
G01 X27.8450 Y25.9367
G01 X27.7500 Y25.8770
G01 X27.6508 Y25.8246
G01 X27.5480 Y25.7797
G01 X27.4421 Y25.7427
G01 X27.3338 Y25.7136
G01 X27.2236 Y25.6928
G01 X27.1121 Y25.6802
G01 X27.0000 Y25.6760
G01 X26.8879 Y25.6802
G01 X26.7764 Y25.6928
G01 X26.6662 Y25.7136
G01 X26.5579 Y25.7427
G01 X26.4520 Y25.7797
G01 X26.3492 Y25.8246
G01 X26.2500 Y25.8770
G01 X26.1550 Y25.9367
G01 X26.0648 Y26.0033
G01 X25.9797 Y26.0765
G01 X25.9004 Y26.1558
G01 X25.8273 Y26.2408
G01 X25.7606 Y26.3310
G01 X25.7010 Y26.4260
G01 X25.6486 Y26.5252
G01 X25.6037 Y26.6280
G01 X25.5666 Y26.7339
G01 X25.5376 Y26.8422
G01 X25.5168 Y26.9525
G01 X25.5042 Y27.0639
G01 X25.5000 Y27.1760
G01 X25.5042 Y27.2881
G01 X25.5168 Y27.3996
G01 X25.5376 Y27.5098
G01 X25.5666 Y27.6181
G01 X25.6037 Y27.7240
G01 X25.6486 Y27.8268
G01 X25.7010 Y27.9260
G01 X25.7606 Y28.0210
G01 X25.8273 Y28.1112
G01 X25.9004 Y28.1963
G01 X25.9797 Y28.2756
G01 X26.0648 Y28.3488
G01 X26.1550 Y28.4154
G01 X26.2500 Y28.4750
G01 X26.3492 Y28.5275
G01 X26.4520 Y28.5723
G01 X26.5579 Y28.6094
G01 X26.6662 Y28.6384
G01 X26.7764 Y28.6593
G01 X26.8879 Y28.6718
G01 X27.0000 Y28.6760
G01 X27.1121 Y28.6718
G01 X27.2236 Y28.6593
G01 X27.3338 Y28.6384
G01 X27.4421 Y28.6094
G01 X27.5480 Y28.5723
G01 X27.6508 Y28.5275
G01 X27.7500 Y28.4750
G01 X27.8450 Y28.4154
G01 X27.9352 Y28.3488
G01 X28.0202 Y28.2756
G01 X28.0996 Y28.1963
G01 X28.1727 Y28.1112
G01 X28.2393 Y28.0210
G01 X28.2990 Y27.9260
G01 X28.3514 Y27.8268
G01 X28.3963 Y27.7240
G01 X28.4333 Y27.6181
G01 X28.4624 Y27.5098
G01 X28.4832 Y27.3996
G01 X28.4958 Y27.2881
G01 X28.5000 Y27.1760
G01 X28.4954 Y27.0714
G01 X28.4817 Y26.9676
G01 X28.4591 Y26.8654
G01 X28.4276 Y26.7656
G01 X28.3875 Y26.6689
G01 X28.3392 Y26.5760
G01 X28.2830 Y26.4877
G01 X28.2192 Y26.4047
G01 X28.1485 Y26.3275
G01 X28.0713 Y26.2568
G01 X27.9883 Y26.1930
G01 X27.9000 Y26.1368
G01 X27.8071 Y26.0885
G01 X27.7104 Y26.0484
G01 X27.6106 Y26.0169
G01 X27.5084 Y25.9943
G01 X27.4046 Y25.9806
G01 X27.3000 Y25.9760
G01 X27.1954 Y25.9806
G01 X27.0916 Y25.9943
G01 X26.9894 Y26.0169
G01 X26.8896 Y26.0484
G01 X26.7928 Y26.0885
G01 X26.7000 Y26.1368
G01 X26.6117 Y26.1930
G01 X26.5286 Y26.2568
G01 X26.4515 Y26.3275
G01 X26.3807 Y26.4047
G01 X26.3170 Y26.4877
G01 X26.2608 Y26.5760
G01 X26.2124 Y26.6689
G01 X26.1724 Y26.7656
G01 X26.1409 Y26.8654
G01 X26.1182 Y26.9676
G01 X26.1046 Y27.0714
G01 X26.1000 Y27.1760
G01 X26.1011 Y27.2202
G01 X26.1043 Y27.2642
G01 X26.1097 Y27.3081
G01 X26.1173 Y27.3516
G01 X26.1270 Y27.3947
G01 X26.1387 Y27.4373
G01 X26.1526 Y27.4792
G01 X26.1685 Y27.5204
G01 X26.1864 Y27.5608
G01 X26.2063 Y27.6003
G01 X26.2280 Y27.6387
G01 X26.2517 Y27.6760
G01 X26.2771 Y27.7121
G01 X26.3043 Y27.7470
G01 X26.3331 Y27.7804
G01 X26.3636 Y27.8124
G01 X26.3956 Y27.8429
G01 X26.4290 Y27.8717
G01 X26.4639 Y27.8989
G01 X26.5000 Y27.9243
G01 X26.5373 Y27.9480
G01 X26.5757 Y27.9697
G01 X26.6152 Y27.9896
G01 X26.6556 Y28.0075
G01 X26.6968 Y28.0234
G01 X26.7387 Y28.0373
G01 X26.7813 Y28.0490
G01 X26.8244 Y28.0587
G01 X26.8679 Y28.0663
G01 X26.9118 Y28.0717
G01 X26.9558 Y28.0749
G01 X27.0000 Y28.0760
G01 X27.0442 Y28.0749
G01 X27.0882 Y28.0717
G01 X27.1320 Y28.0663
G01 X27.1756 Y28.0587
G01 X27.2187 Y28.0490
G01 X27.2612 Y28.0373
G01 X27.3032 Y28.0234
G01 X27.3444 Y28.0075
G01 X27.3848 Y27.9896
G01 X27.4242 Y27.9697
G01 X27.4627 Y27.9480
G01 X27.5000 Y27.9243
G01 X27.5361 Y27.8989
G01 X27.5709 Y27.8717
G01 X27.6044 Y27.8429
G01 X27.6364 Y27.8124
G01 X27.6668 Y27.7804
G01 X27.6957 Y27.7470
G01 X27.7229 Y27.7121
G01 X27.7483 Y27.6760
G01 X27.7719 Y27.6387
G01 X27.7937 Y27.6003
G01 X27.8136 Y27.5608
G01 X27.8315 Y27.5204
G01 X27.8474 Y27.4792
G01 X27.8612 Y27.4373
G01 X27.8730 Y27.3947
G01 X27.8827 Y27.3516
G01 X27.8902 Y27.3081
G01 X27.8957 Y27.2642
G01 X27.8989 Y27.2202
G01 X27.9000 Y27.1760
M107
M106 S240
G01 X27.8990 Y27.1332 Z-4.3873 F400
G01 X27.8959 Y27.0905 Z-4.3996
G01 X27.8908 Y27.0479 Z-4.4119
G01 X27.8837 Y27.0057 Z-4.4242
G01 X27.8746 Y26.9638 Z-4.4366
G01 X27.8635 Y26.9225 Z-4.4489
G01 X27.8505 Y26.8817 Z-4.4612
G01 X27.8355 Y26.8415 Z-4.4735
G01 X27.8187 Y26.8021 Z-4.4858
G01 X27.7999 Y26.7636 Z-4.4981
G01 X27.7794 Y26.7260 Z-4.5104
G01 X27.7571 Y26.6894 Z-4.5227
G01 X27.7331 Y26.6540 Z-4.5350
G01 X27.7074 Y26.6197 Z-4.5473
G01 X27.6802 Y26.5866 Z-4.5597
G01 X27.6514 Y26.5549 Z-4.5720
G01 X27.6211 Y26.5247 Z-4.5843
G01 X27.5894 Y26.4958 Z-4.5966
G01 X27.5563 Y26.4686 Z-4.6089
G01 X27.5220 Y26.4429 Z-4.6212
G01 X27.4866 Y26.4189 Z-4.6335
G01 X27.4500 Y26.3966 Z-4.6458
G01 X27.4124 Y26.3761 Z-4.6581
G01 X27.3739 Y26.3573 Z-4.6705
G01 X27.3345 Y26.3405 Z-4.6828
G01 X27.2944 Y26.3255 Z-4.6951
G01 X27.2536 Y26.3125 Z-4.7074
G01 X27.2122 Y26.3014 Z-4.7197
G01 X27.1703 Y26.2923 Z-4.7320
G01 X27.1281 Y26.2852 Z-4.7443
G01 X27.0855 Y26.2801 Z-4.7566
G01 X27.0428 Y26.2770 Z-4.7689
G01 X27.0000 Y26.2760 Z-4.7813
G01 X26.9572 Y26.2770 Z-4.7936
G01 X26.9144 Y26.2801 Z-4.8059
G01 X26.8719 Y26.2852 Z-4.8182
G01 X26.8297 Y26.2923 Z-4.8305
G01 X26.7878 Y26.3014 Z-4.8428
G01 X26.7464 Y26.3125 Z-4.8551
G01 X26.7056 Y26.3255 Z-4.8674
G01 X26.6655 Y26.3405 Z-4.8797
G01 X26.6261 Y26.3573 Z-4.8920
G01 X26.5876 Y26.3761 Z-4.9044
G01 X26.5500 Y26.3966 Z-4.9167
G01 X26.5134 Y26.4189 Z-4.9290
G01 X26.4779 Y26.4429 Z-4.9413
G01 X26.4436 Y26.4686 Z-4.9536
G01 X26.4106 Y26.4958 Z-4.9659
G01 X26.3789 Y26.5247 Z-4.9782
G01 X26.3486 Y26.5549 Z-4.9905
G01 X26.3198 Y26.5866 Z-5.0028
G01 X26.2925 Y26.6197 Z-5.0152
G01 X26.2669 Y26.6540 Z-5.0275
G01 X26.2429 Y26.6894 Z-5.0398
G01 X26.2206 Y26.7260 Z-5.0521
G01 X26.2000 Y26.7636 Z-5.0644
G01 X26.1813 Y26.8021 Z-5.0767
G01 X26.1645 Y26.8415 Z-5.0890
G01 X26.1495 Y26.8817 Z-5.1013
G01 X26.1364 Y26.9225 Z-5.1136
G01 X26.1254 Y26.9638 Z-5.1259
G01 X26.1163 Y27.0057 Z-5.1383
G01 X26.1092 Y27.0479 Z-5.1506
G01 X26.1041 Y27.0905 Z-5.1629
G01 X26.1010 Y27.1332 Z-5.1752
G01 X26.1000 Y27.1760 Z-5.1875
G01 X26.1010 Y27.2188 Z-5.1998
G01 X26.1041 Y27.2616 Z-5.2121
G01 X26.1092 Y27.3041 Z-5.2244
G01 X26.1163 Y27.3463 Z-5.2367
G01 X26.1254 Y27.3882 Z-5.2491
G01 X26.1364 Y27.4296 Z-5.2614
G01 X26.1495 Y27.4704 Z-5.2737
G01 X26.1645 Y27.5105 Z-5.2860
G01 X26.1813 Y27.5499 Z-5.2983
G01 X26.2000 Y27.5884 Z-5.3106
G01 X26.2206 Y27.6260 Z-5.3229
G01 X26.2429 Y27.6626 Z-5.3352
G01 X26.2669 Y27.6981 Z-5.3475
G01 X26.2925 Y27.7324 Z-5.3598
G01 X26.3198 Y27.7654 Z-5.3722
G01 X26.3486 Y27.7971 Z-5.3845
G01 X26.3789 Y27.8274 Z-5.3968
G01 X26.4106 Y27.8562 Z-5.4091
G01 X26.4436 Y27.8835 Z-5.4214
G01 X26.4779 Y27.9091 Z-5.4337
G01 X26.5134 Y27.9331 Z-5.4460
G01 X26.5500 Y27.9554 Z-5.4583
G01 X26.5876 Y27.9760 Z-5.4706
G01 X26.6261 Y27.9947 Z-5.4830
G01 X26.6655 Y28.0115 Z-5.4953
G01 X26.7056 Y28.0265 Z-5.5076
G01 X26.7464 Y28.0396 Z-5.5199
G01 X26.7878 Y28.0506 Z-5.5322
G01 X26.8297 Y28.0598 Z-5.5445
G01 X26.8719 Y28.0669 Z-5.5568
G01 X26.9144 Y28.0719 Z-5.5691
G01 X26.9572 Y28.0750 Z-5.5814
G01 X27.0000 Y28.0760 Z-5.5938
G01 X27.0428 Y28.0750 Z-5.6061
G01 X27.0855 Y28.0719 Z-5.6184
G01 X27.1281 Y28.0669 Z-5.6307
G01 X27.1703 Y28.0598 Z-5.6430
G01 X27.2122 Y28.0506 Z-5.6553
G01 X27.2536 Y28.0396 Z-5.6676
G01 X27.2944 Y28.0265 Z-5.6799
G01 X27.3345 Y28.0115 Z-5.6922
G01 X27.3739 Y27.9947 Z-5.7045
G01 X27.4124 Y27.9760 Z-5.7169
G01 X27.4500 Y27.9554 Z-5.7292
G01 X27.4866 Y27.9331 Z-5.7415
G01 X27.5220 Y27.9091 Z-5.7538
G01 X27.5563 Y27.8835 Z-5.7661
G01 X27.5894 Y27.8562 Z-5.7784
G01 X27.6211 Y27.8274 Z-5.7907
G01 X27.6514 Y27.7971 Z-5.8030
G01 X27.6802 Y27.7654 Z-5.8153
G01 X27.7074 Y27.7324 Z-5.8277
G01 X27.7331 Y27.6981 Z-5.8400
G01 X27.7571 Y27.6626 Z-5.8523
G01 X27.7794 Y27.6260 Z-5.8646
G01 X27.7999 Y27.5884 Z-5.8769
G01 X27.8187 Y27.5499 Z-5.8892
G01 X27.8355 Y27.5105 Z-5.9015
G01 X27.8505 Y27.4704 Z-5.9138
G01 X27.8635 Y27.4296 Z-5.9261
G01 X27.8746 Y27.3882 Z-5.9384
G01 X27.8837 Y27.3463 Z-5.9508
G01 X27.8908 Y27.3041 Z-5.9631
G01 X27.8959 Y27.2616 Z-5.9754
G01 X27.8990 Y27.2188 Z-5.9877
G01 X27.9000 Y27.1760 Z-6.0000
G01 X27.8990 Y27.1332
G01 X27.8959 Y27.0905
G01 X27.8908 Y27.0479
G01 X27.8837 Y27.0057
G01 X27.8746 Y26.9638
G01 X27.8635 Y26.9225
G01 X27.8505 Y26.8817
G01 X27.8355 Y26.8415
G01 X27.8187 Y26.8021
G01 X27.7999 Y26.7636
G01 X27.7794 Y26.7260
G01 X27.7571 Y26.6894
G01 X27.7331 Y26.6540
G01 X27.7074 Y26.6197
G01 X27.6802 Y26.5866
G01 X27.6514 Y26.5549
G01 X27.6211 Y26.5247
G01 X27.5894 Y26.4958
G01 X27.5563 Y26.4686
G01 X27.5220 Y26.4429
G01 X27.4866 Y26.4189
G01 X27.4500 Y26.3966
G01 X27.4124 Y26.3761
G01 X27.3739 Y26.3573
G01 X27.3345 Y26.3405
G01 X27.2944 Y26.3255
G01 X27.2536 Y26.3125
G01 X27.2122 Y26.3014
G01 X27.1703 Y26.2923
G01 X27.1281 Y26.2852
G01 X27.0855 Y26.2801
G01 X27.0428 Y26.2770
G01 X27.0000 Y26.2760
G01 X26.9572 Y26.2770
G01 X26.9144 Y26.2801
G01 X26.8719 Y26.2852
G01 X26.8297 Y26.2923
G01 X26.7878 Y26.3014
G01 X26.7464 Y26.3125
G01 X26.7056 Y26.3255
G01 X26.6655 Y26.3405
G01 X26.6261 Y26.3573
G01 X26.5876 Y26.3761
G01 X26.5500 Y26.3966
G01 X26.5134 Y26.4189
G01 X26.4779 Y26.4429
G01 X26.4436 Y26.4686
G01 X26.4106 Y26.4958
G01 X26.3789 Y26.5247
G01 X26.3486 Y26.5549
G01 X26.3198 Y26.5866
G01 X26.2925 Y26.6197
G01 X26.2669 Y26.6540
G01 X26.2429 Y26.6894
G01 X26.2206 Y26.7260
G01 X26.2000 Y26.7636
G01 X26.1813 Y26.8021
G01 X26.1645 Y26.8415
G01 X26.1495 Y26.8817
G01 X26.1364 Y26.9225
G01 X26.1254 Y26.9638
G01 X26.1163 Y27.0057
G01 X26.1092 Y27.0479
G01 X26.1041 Y27.0905
G01 X26.1010 Y27.1332
G01 X26.1000 Y27.1760
G01 X26.1010 Y27.2188
G01 X26.1041 Y27.2616
G01 X26.1092 Y27.3041
G01 X26.1163 Y27.3463
G01 X26.1254 Y27.3882
G01 X26.1364 Y27.4296
G01 X26.1495 Y27.4704
G01 X26.1645 Y27.5105
G01 X26.1813 Y27.5499
G01 X26.2000 Y27.5884
G01 X26.2206 Y27.6260
G01 X26.2429 Y27.6626
G01 X26.2669 Y27.6981
G01 X26.2925 Y27.7324
G01 X26.3198 Y27.7654
G01 X26.3486 Y27.7971
G01 X26.3789 Y27.8274
G01 X26.4106 Y27.8562
G01 X26.4436 Y27.8835
G01 X26.4779 Y27.9091
G01 X26.5134 Y27.9331
G01 X26.5500 Y27.9554
G01 X26.5876 Y27.9760
G01 X26.6261 Y27.9947
G01 X26.6655 Y28.0115
G01 X26.7056 Y28.0265
G01 X26.7464 Y28.0396
G01 X26.7878 Y28.0506
G01 X26.8297 Y28.0598
G01 X26.8719 Y28.0669
G01 X26.9144 Y28.0719
G01 X26.9572 Y28.0750
G01 X27.0000 Y28.0760
G01 X27.0428 Y28.0750
G01 X27.0855 Y28.0719
G01 X27.1281 Y28.0669
G01 X27.1703 Y28.0598
G01 X27.2122 Y28.0506
G01 X27.2536 Y28.0396
G01 X27.2944 Y28.0265
G01 X27.3345 Y28.0115
G01 X27.3739 Y27.9947
G01 X27.4124 Y27.9760
G01 X27.4500 Y27.9554
G01 X27.4866 Y27.9331
G01 X27.5220 Y27.9091
G01 X27.5563 Y27.8835
G01 X27.5894 Y27.8562
G01 X27.6211 Y27.8274
G01 X27.6514 Y27.7971
G01 X27.6802 Y27.7654
G01 X27.7074 Y27.7324
G01 X27.7331 Y27.6981
G01 X27.7571 Y27.6626
G01 X27.7794 Y27.6260
G01 X27.7999 Y27.5884
G01 X27.8187 Y27.5499
G01 X27.8355 Y27.5105
G01 X27.8505 Y27.4704
G01 X27.8635 Y27.4296
G01 X27.8746 Y27.3882
G01 X27.8837 Y27.3463
G01 X27.8908 Y27.3041
G01 X27.8959 Y27.2616
G01 X27.8990 Y27.2188
G01 X27.9000 Y27.1760
G01 X27.9075 Y27.1450 F1000
G01 X27.9140 Y27.1137
G01 X27.9194 Y27.0822
G01 X27.9236 Y27.0505
G01 X27.9268 Y27.0187
G01 X27.9289 Y26.9868
G01 X27.9299 Y26.9549
G01 X27.9297 Y26.9229
G01 X27.9285 Y26.8910
G01 X27.9261 Y26.8591
G01 X27.9227 Y26.8274
G01 X27.9181 Y26.7957
G01 X27.9084 Y26.7442
G01 X27.8961 Y26.6933
G01 X27.8811 Y26.6431
G01 X27.8636 Y26.5937
G01 X27.8436 Y26.5452
G01 X27.8211 Y26.4979
G01 X27.7962 Y26.4518
G01 X27.7690 Y26.4070
G01 X27.7369 Y26.3600
G01 X27.7026 Y26.3147
G01 X27.6659 Y26.2712
G01 X27.6271 Y26.2296
G01 X27.5861 Y26.1901
G01 X27.5433 Y26.1527
G01 X27.4985 Y26.1175
G01 X27.4520 Y26.0847
G01 X27.4001 Y26.0519
G01 X27.3466 Y26.0217
G01 X27.2917 Y25.9943
G01 X27.2354 Y25.9698
G01 X27.1779 Y25.9481
G01 X27.1194 Y25.9294
G01 X27.0601 Y25.9137
G01 X27.0000 Y25.9010
G01 X26.9349 Y25.8907
G01 X26.8693 Y25.8837
G01 X26.8035 Y25.8800
G01 X26.7376 Y25.8796
G01 X26.6717 Y25.8826
G01 X26.6061 Y25.8889
G01 X26.5408 Y25.8985
G01 X26.4762 Y25.9115
G01 X26.4079 Y25.9287
G01 X26.3405 Y25.9494
G01 X26.2743 Y25.9735
G01 X26.2094 Y26.0008
G01 X26.1459 Y26.0314
G01 X26.0840 Y26.0652
G01 X26.0240 Y26.1021
G01 X25.9658 Y26.1419
G01 X25.9123 Y26.1913
G01 X25.8613 Y26.2433
G01 X25.8129 Y26.2978
G01 X25.7673 Y26.3545
G01 X25.7245 Y26.4135
G01 X25.6846 Y26.4745
G01 X25.6478 Y26.5374
G01 X25.6142 Y26.6020
G01 X25.5877 Y26.6707
G01 X25.5646 Y26.7406
G01 X25.5450 Y26.8116
G01 X25.5288 Y26.8834
G01 X25.5162 Y26.9559
G01 X25.5072 Y27.0290
G01 X25.5018 Y27.1024
G01 X25.5000 Y27.1760
G01 X25.5018 Y27.2496
G01 X25.5072 Y27.3230
G01 X25.5162 Y27.3961
G01 X25.5288 Y27.4687
G01 X25.5450 Y27.5405
G01 X25.5646 Y27.6114
G01 X25.5877 Y27.6813
G01 X25.6142 Y27.7500
G01 X25.6440 Y27.8173
G01 X25.6771 Y27.8831
G01 X25.7134 Y27.9472
G01 X25.7528 Y28.0094
G01 X25.7952 Y28.0696
G01 X25.8405 Y28.1276
G01 X25.8886 Y28.1833
G01 X25.9393 Y28.2367
G01 X25.9927 Y28.2874
G01 X26.0484 Y28.3355
G01 X26.1065 Y28.3808
G01 X26.1666 Y28.4232
G01 X26.2288 Y28.4626
G01 X26.2929 Y28.4989
G01 X26.3587 Y28.5320
G01 X26.4260 Y28.5618
G01 X26.4947 Y28.5883
G01 X26.5646 Y28.6114
G01 X26.6355 Y28.6311
G01 X26.7074 Y28.6472
G01 X26.7799 Y28.6598
G01 X26.8530 Y28.6688
G01 X26.9264 Y28.6742
G01 X27.0000 Y28.6760
G01 X27.0736 Y28.6742
G01 X27.1470 Y28.6688
G01 X27.2201 Y28.6598
G01 X27.2926 Y28.6472
G01 X27.3645 Y28.6311
G01 X27.4354 Y28.6114
G01 X27.5053 Y28.5883
G01 X27.5740 Y28.5618
G01 X27.6413 Y28.5320
G01 X27.7071 Y28.4989
G01 X27.7711 Y28.4626
G01 X27.8333 Y28.4232
G01 X27.8935 Y28.3808
G01 X27.9516 Y28.3355
G01 X28.0073 Y28.2874
G01 X28.0606 Y28.2367
G01 X28.1114 Y28.1833
G01 X28.1595 Y28.1276
G01 X28.2048 Y28.0696
G01 X28.2472 Y28.0094
G01 X28.2866 Y27.9472
G01 X28.3229 Y27.8831
G01 X28.3560 Y27.8173
G01 X28.3858 Y27.7500
G01 X28.4123 Y27.6813
G01 X28.4354 Y27.6114
G01 X28.4550 Y27.5405
G01 X28.4712 Y27.4687
G01 X28.4837 Y27.3961
G01 X28.4928 Y27.3230
G01 X28.4982 Y27.2496
G01 X28.5000 Y27.1760
G01 X28.4958 Y27.0639
G01 X28.4832 Y26.9525
G01 X28.4624 Y26.8422
G01 X28.4333 Y26.7339
G01 X28.3963 Y26.6280
G01 X28.3514 Y26.5252
G01 X28.2990 Y26.4260
G01 X28.2393 Y26.3310
G01 X28.1727 Y26.2408
G01 X28.0996 Y26.1558
G01 X28.0202 Y26.0765
G01 X27.9352 Y26.0033
G01 X27.8450 Y25.9367
G01 X27.7500 Y25.8770
G01 X27.6508 Y25.8246
G01 X27.5480 Y25.7797
G01 X27.4421 Y25.7427
G01 X27.3338 Y25.7136
G01 X27.2236 Y25.6928
G01 X27.1121 Y25.6802
G01 X27.0000 Y25.6760
G01 X26.8879 Y25.6802
G01 X26.7764 Y25.6928
G01 X26.6662 Y25.7136
G01 X26.5579 Y25.7427
G01 X26.4520 Y25.7797
G01 X26.3492 Y25.8246
G01 X26.2500 Y25.8770
G01 X26.1550 Y25.9367
G01 X26.0648 Y26.0033
G01 X25.9797 Y26.0765
G01 X25.9004 Y26.1558
G01 X25.8273 Y26.2408
G01 X25.7606 Y26.3310
G01 X25.7010 Y26.4260
G01 X25.6486 Y26.5252
G01 X25.6037 Y26.6280
G01 X25.5666 Y26.7339
G01 X25.5376 Y26.8422
G01 X25.5168 Y26.9525
G01 X25.5042 Y27.0639
G01 X25.5000 Y27.1760
G01 X25.5042 Y27.2881
G01 X25.5168 Y27.3996
G01 X25.5376 Y27.5098
G01 X25.5666 Y27.6181
G01 X25.6037 Y27.7240
G01 X25.6486 Y27.8268
G01 X25.7010 Y27.9260
G01 X25.7606 Y28.0210
G01 X25.8273 Y28.1112
G01 X25.9004 Y28.1963
G01 X25.9797 Y28.2756
G01 X26.0648 Y28.3488
G01 X26.1550 Y28.4154
G01 X26.2500 Y28.4750
G01 X26.3492 Y28.5275
G01 X26.4520 Y28.5723
G01 X26.5579 Y28.6094
G01 X26.6662 Y28.6384
G01 X26.7764 Y28.6593
G01 X26.8879 Y28.6718
G01 X27.0000 Y28.6760
G01 X27.1121 Y28.6718
G01 X27.2236 Y28.6593
G01 X27.3338 Y28.6384
G01 X27.4421 Y28.6094
G01 X27.5480 Y28.5723
G01 X27.6508 Y28.5275
G01 X27.7500 Y28.4750
G01 X27.8450 Y28.4154
G01 X27.9352 Y28.3488
G01 X28.0202 Y28.2756
G01 X28.0996 Y28.1963
G01 X28.1727 Y28.1112
G01 X28.2393 Y28.0210
G01 X28.2990 Y27.9260
G01 X28.3514 Y27.8268
G01 X28.3963 Y27.7240
G01 X28.4333 Y27.6181
G01 X28.4624 Y27.5098
G01 X28.4832 Y27.3996
G01 X28.4958 Y27.2881
G01 X28.5000 Y27.1760
M107
M106 S240
G01 X28.4969 Y27.0976 Z-5.9750 F400
M107
M106 S240
G01 X28.4877 Y27.0196 Z-5.9500
M107
M106 S240
G01 X28.4723 Y26.9426 Z-5.9250
M107
M106 S240
G01 X28.4510 Y26.8670 Z-5.9000
M107
M106 S240
G01 X28.4239 Y26.7933 Z-5.8750
M107
M106 S240
G01 X28.3910 Y26.7220 Z-5.8500
M107
M106 S240
G01 X28.3526 Y26.6535 Z-5.8250
M107
M106 S240
G01 X28.3090 Y26.5882 Z-5.8000
M107
M106 S240
G01 X28.2604 Y26.5266 Z-5.7750
M107
M106 S240
G01 X28.2071 Y26.4689 Z-5.7500
M107
M106 S240
G01 X28.1494 Y26.4156 Z-5.7250
M107
M106 S240
G01 X28.0878 Y26.3670 Z-5.7000
M107
M106 S240
G01 X28.0225 Y26.3234 Z-5.6750
M107
M106 S240
G01 X27.9540 Y26.2850 Z-5.6500
M107
M106 S240
G01 X27.8827 Y26.2521 Z-5.6250
M107
M106 S240
G01 X27.8090 Y26.2250 Z-5.6000
M107
M106 S240
G01 X27.7334 Y26.2036 Z-5.5750
M107
M106 S240
G01 X27.6564 Y26.1883 Z-5.5500
M107
M106 S240
G01 X27.5784 Y26.1791 Z-5.5250
M107
M106 S240
G01 X27.5000 Y26.1760 Z-5.5000
M107
G00 Z2.0000


;No. 2: Hole 16
G00 X37.9268 Y36.6747 Z2.0000
G00 Z0.5000
G01 Z0.0000 F400
G01 Z-1.2000
M106 S240
G01 X109.9216 F1000
G01 X110.1204 Y36.7126
G01 X110.1233 Y36.3147
G01 X110.1173 Y35.9168
G01 X110.1024 Y35.5191
G01 X110.0788 Y35.1219
G01 X37.7426 Y35.1216
G01 X37.7098 Y35.6870
G01 X37.7108 Y36.2534
G01 X37.7457 Y36.8187
G01 X37.8144 Y37.3808
G01 X37.8190 Y37.4204
G01 X37.8259 Y37.4596
G01 X37.8349 Y37.4984
G01 X37.8461 Y37.5366
G01 X37.8594 Y37.5741
G01 X37.8748 Y37.6108
G01 X37.8922 Y37.6466
G01 X37.9117 Y37.6814
G01 X37.9330 Y37.7150
G01 X37.9562 Y37.7474
G01 X37.9811 Y37.7784
G01 X38.0078 Y37.8079
G01 X38.0360 Y37.8360
G01 X38.0658 Y37.8624
G01 X38.0970 Y37.8871
G01 X38.1296 Y37.9100
G01 X38.1634 Y37.9310
G01 X38.1983 Y37.9501
G01 X38.2343 Y37.9673
G01 X38.2711 Y37.9824
G01 X38.3087 Y37.9954
G01 X38.3470 Y38.0062
G01 X38.3859 Y38.0149
G01 X38.4252 Y38.0215
G01 X38.9977 Y38.1193
G01 X39.5748 Y38.1857
G01 X40.1546 Y38.2204
G01 X40.7355 Y38.2234
G01 X40.9390 Y38.2253
G01 X41.1426 Y38.2267
G01 X41.3461 Y38.2274
G01 X41.5497 Y38.2277
G01 X106.3956 Y38.2274
G01 X107.1202 Y38.2356
G01 X107.8444 Y38.2142
G01 X108.5672 Y38.1633
G01 X109.2873 Y38.0830
G01 X109.3685 Y38.0730
G01 X109.4488 Y38.0567
G01 X109.5274 Y38.0340
G01 X109.6040 Y38.0052
G01 X109.6782 Y37.9704
G01 X109.7493 Y37.9299
G01 X109.8170 Y37.8839
G01 X109.8809 Y37.8327
G01 X109.9403 Y37.7187
G01 X109.9914 Y37.6009
G01 X110.0341 Y37.4797
G01 X110.0682 Y37.3558
G01 X110.0934 Y37.2298
G01 X110.1096 Y37.1024
G01 X110.1168 Y36.9741
G01 X110.1149 Y36.8456
G01 X110.1189 Y36.7584
G01 X110.1204 Y36.7126
G01 X109.9216 Y36.6747
M107
G00 Z2.0000


;No. 3: Hole 59
G00 X106.7902 Y43.5135 Z2.0000
G00 Z0.5000
G01 Z0.0000 F400
G01 Z-1.2000
M106 S240
G01 X41.0644 F1000
G01 X40.9489 Y45.0135
G01 X42.4415
G01 X42.3350 Y46.5135
G01 X40.8929
G01 X41.0466 Y48.0135
G01 X42.5443
G01 X41.9562 Y49.5135
G01 X53.2699
G01 X53.7072 Y51.0135
G01 X51.8890
G01 X52.2759
G01 Y52.5135
G01 X53.7090
G01 X53.7108 Y54.0135
G01 X52.2777
G01 X52.2797 Y55.5135
G01 X53.7127
G01 X53.7147 Y57.0135
G01 X52.2816
G01 X52.2836 Y58.5135
G01 X53.7167
G01 X53.7187 Y60.0135
G01 X52.2856
G01 X52.2877 Y61.5135
G01 X53.7208
G01 X53.7228 Y63.0135
G01 X52.2897
G01 X52.2918 Y64.5135
G01 X53.7248
G01 X53.7269 Y66.0135
G01 X52.2938
G01 X52.2958 Y67.5135
G01 X53.7289
G01 X53.7308 Y69.0135
G01 X52.2977
G01 X52.2997 Y70.5135
G01 X53.7327
G01 X53.7346 Y72.0135
G01 X52.3015
G01 X52.3033 Y73.5135
G01 X53.7364
G01 X53.7381 Y75.0135
G01 X52.3050
G01 X52.3067 Y76.5135
G01 X53.7398
G01 X53.7413 Y78.0135
G01 X52.3082
G01 X52.3096 Y79.5135
G01 X53.7427
G01 X53.7441 Y81.0135
G01 X52.3110
G01 X52.3121 Y82.5135
G01 X53.7453
G01 X53.7463 Y84.0135
G01 X52.3132
G01 X52.3141 Y85.5135
G01 X53.7472
G01 X53.7480 Y87.0135
G01 X52.3149
G01 X52.3155 Y88.5135
G01 X53.7486
G01 X53.7490 Y90.0135
G01 X52.3159
G01 X52.3161 Y91.5135
G01 X53.7493
G01 Y93.0135
G01 X52.3162
G01 X52.3160 Y94.5135
G01 X53.7492
G01 X53.7488 Y96.0135
G01 X52.3156
G01 X52.3150 Y97.5135
G01 X53.7482
G01 X53.7474 Y99.0135
G01 X52.3142
G01 X52.3131 Y100.5135
G01 X53.7463
G01 X53.7450 Y102.0135
G01 X52.3118
G01 X52.3102 Y103.5135
G01 X53.7434
G01 X53.7415 Y105.0135
G01 X52.3083
G01 X52.3062 Y106.5135
G01 X53.7393
G01 X53.7369 Y108.0135
G01 X52.3037
G01 X52.3010 Y109.5135
G01 X53.7342
G01 X53.7311 Y111.0135
G01 X52.2979
G01 X52.2945 Y112.5135
G01 X53.7277
G01 X53.7240 Y114.0135
G01 X52.2908
G01 X52.2868 Y115.5135
G01 X53.7199
G01 X53.7155 Y117.0135
G01 X52.2823
G01 X52.2776 Y118.5135
G01 X53.7108
G01 X53.7056 Y120.0135
G01 X52.2724
G01 X52.2669 Y121.5135
G01 X53.7001
G01 X53.6942 Y123.0135
G01 X52.2609
G01 X52.2546 Y124.5135
G01 X53.6878
G01 X53.6811 Y126.0135
G01 X52.2479
G01 X52.1429 Y127.5135
G01 X53.5871
G01 X53.1587 Y129.0135
G01 X51.4175
G01 X51.7687 Y130.5135
G01 X47.5321
G01 X47.5094 Y132.0135
G01 X48.9432
G01 X48.8939 Y133.5135
G01 X47.4800
G01 X47.4444 Y135.0135
G01 X48.8593
G01 X48.8197 Y136.5135
G01 X47.4032
G01 X47.3570 Y138.0135
G01 X48.7754
G01 X48.7269 Y139.5135
G01 X47.3062
G01 X47.2515 Y141.0135
G01 X48.6746
G01 X48.6188 Y142.5135
G01 X47.1933
G01 X47.1323 Y144.0135
G01 X48.5601
G01 X48.4987 Y145.5135
G01 X47.0688
G01 X47.0036 Y147.0135
G01 X48.4353
G01 X48.3700 Y148.5135
G01 X46.9370
G01 X46.8697 Y150.0135
G01 X48.3035
G01 X48.2583 Y151.5135
G01 X46.8247
G01 X47.0558 Y153.0135
G01 X48.5972
G01 X47.9214 Y154.5135
G01 X51.5837
G01 X51.7837 Y156.0135
G01 X59.5949
G01 X59.9235 Y157.5135
G01 X89.8558
G01 X90.2197 Y156.0135
G01 X97.6032
G01 X97.6538 Y154.5135
G01 X100.7623
G01 X101.5288 Y153.0135
G01 X99.9808
G01 X100.1922 Y151.5135
G01 X101.6955
G01 X101.6929 Y150.0135
G01 X100.2481
G01 X100.2451 Y148.5135
G01 X101.6778
G01 X101.6668 Y147.0135
G01 X100.2340
G01 X100.2228 Y145.5135
G01 X101.6557
G01 X101.6446 Y144.0135
G01 X100.2117
G01 X100.2006 Y142.5135
G01 X101.6335
G01 X101.6224 Y141.0135
G01 X100.1894
G01 X100.1783 Y139.5135
G01 X101.6114
G01 X101.6003 Y138.0135
G01 X100.1672
G01 X100.1560 Y136.5135
G01 X101.5892
G01 X101.5781 Y135.0135
G01 X100.1449
G01 X100.1338 Y133.5135
G01 X101.5670
G01 X101.5560 Y132.0135
G01 X100.0992
G01 X101.5449 Y130.5135
G01 X97.1902
G01 X97.5150 Y129.0135
G01 X95.6949
G01 X95.1502 Y127.5135
G01 X96.6409
G01 X96.3694 Y126.0135
G01 X94.9268
G01 X94.8747 Y124.5135
G01 X96.3073
G01 X96.3093 Y123.0135
G01 X94.8767
G01 X94.8786 Y121.5135
G01 X96.3112
G01 X96.3130 Y120.0135
G01 X94.8804
G01 X94.8821 Y118.5135
G01 X96.3147
G01 X96.3162 Y117.0135
G01 X94.8836
G01 X94.8851 Y115.5135
G01 X96.3177
G01 X96.3190 Y114.0135
G01 X94.8864
G01 X94.8876 Y112.5135
G01 X96.3203
G01 X96.3214 Y111.0135
G01 X94.8888
G01 X94.8899 Y109.5135
G01 X96.3225
G01 X96.3235 Y108.0135
G01 X94.8908
G01 X94.8917 Y106.5135
G01 X96.3244
G01 X96.3252 Y105.0135
G01 X94.8925
G01 X94.8933 Y103.5135
G01 X96.3260
G01 X96.3266 Y102.0135
G01 X94.8939
G01 X94.8945 Y100.5135
G01 X96.3272
G01 X96.3278 Y99.0135
G01 X94.8951
G01 X94.8955 Y97.5135
G01 X96.3283
G01 X96.3287 Y96.0135
G01 X94.8960
G01 X94.8963 Y94.5135
G01 X96.3291
G01 X96.3294 Y93.0135
G01 X94.8967
G01 X94.8969 Y91.5135
G01 X96.3297
G01 X96.3299 Y90.0135
G01 X94.8972
G01 X94.8974 Y88.5135
G01 X96.3301
G01 X96.3303 Y87.0135
G01 X94.8976
G01 X94.8977 Y85.5135
G01 X96.3305
G01 X96.3306 Y84.0135
G01 X94.8978
G01 X94.8979 Y82.5135
G01 X96.3307
G01 X96.3308 Y81.0135
G01 X94.8980
G01 X94.8981 Y79.5135
G01 X96.3309
G01 X96.3310 Y78.0135
G01 X94.8982
G01 Y76.5135
G01 X96.3310
G01 X96.3311 Y75.0135
G01 X94.8983
G01 X94.8984 Y73.5135
G01 X96.3312
G01 X96.3313 Y72.0135
G01 X94.8985
G01 X94.8986 Y70.5135
G01 X96.3314
G01 X96.3315 Y69.0135
G01 X94.8987
G01 X94.8988 Y67.5135
G01 X96.3316
G01 X96.3318 Y66.0135
G01 X94.8990
G01 X94.8992 Y64.5135
G01 X96.3320
G01 X96.3322 Y63.0135
G01 X94.8994
G01 X94.8997 Y61.5135
G01 X96.3324
G01 X96.3327 Y60.0135
G01 X94.9000
G01 X94.9003 Y58.5135
G01 X96.3330
G01 X96.3334 Y57.0135
G01 X94.9007
G01 X94.9011 Y55.5135
G01 X96.3339
G01 X96.3344 Y54.0135
G01 X94.9016
G01 X94.9077 Y52.5135
G01 X96.3567
G01 Y51.0135
G01 X96.7805
G01 X94.9936
G01 X95.0969 Y49.5135
G01 X105.6425
G01 X105.1329 Y48.0135
G01 X106.7167
G01 X106.9461 Y46.5135
G01 X105.3554
G01 X105.3471 Y45.0135
G01 X105.1562 Y45.0788
G01 X105.1681 Y45.7148
G01 X105.1602 Y46.3509
G01 X105.1325 Y46.9864
G01 X105.0849 Y47.6208
G01 X105.0612 Y47.6955
G01 X105.0325 Y47.7684
G01 X104.9991 Y47.8393
G01 X104.9610 Y47.9078
G01 X104.9184 Y47.9736
G01 X104.8716 Y48.0365
G01 X104.8207 Y48.0961
G01 X104.7660 Y48.1522
G01 X104.7076 Y48.2045
G01 X104.6459 Y48.2529
G01 X104.5812 Y48.2970
G01 X104.5136 Y48.3367
G01 X104.4436 Y48.3719
G01 X104.3713 Y48.4023
G01 X104.2972 Y48.4279
G01 X104.2216 Y48.4485
G01 X103.6188 Y48.6261
G01 X103.0090 Y48.7776
G01 X102.3931 Y48.9027
G01 X101.7725 Y49.0010
G01 X101.6564 Y49.0209
G01 X101.5398 Y49.0376
G01 X101.4228 Y49.0512
G01 X101.3055 Y49.0615
G01 X94.9318
G01 X94.8523 Y50.0260
G01 X94.7875 Y50.9915
G01 X94.7374 Y51.9579
G01 X94.7020 Y52.9249
G01 X94.7018 Y53.6458
G01 X94.7015 Y54.3684
G01 X94.7013 Y55.0909
G01 X94.7010 Y55.8135
G01 X94.7008 Y56.5360
G01 X94.7006 Y57.2585
G01 X94.7004 Y57.9811
G01 X94.7003 Y58.7036
G01 X94.7001 Y59.4262
G01 X94.6999 Y60.1487
G01 X94.6998 Y60.8713
G01 X94.6996 Y61.5939
G01 X94.6995 Y62.3164
G01 X94.6994 Y63.0390
G01 X94.6993 Y63.7615
G01 X94.6992 Y64.4841
G01 X94.6991 Y65.2066
G01 X94.6990 Y65.9292
G01 X94.6989 Y66.6517
G01 X94.6988 Y67.3743
G01 Y68.0969
G01 X94.6987 Y68.8194
G01 X94.6986 Y69.5420
G01 Y70.2645
G01 X94.6985 Y70.9871
G01 Y71.7097
G01 Y72.4322
G01 X94.6984 Y73.1548
G01 Y73.8773
G01 X94.6983 Y74.5999
G01 Y75.3225
G01 Y76.0450
G01 X94.6982 Y76.7676
G01 Y77.4902
G01 Y78.2127
G01 X94.6981 Y78.9353
G01 Y79.6579
G01 Y80.3804
G01 X94.6980 Y81.1030
G01 Y81.8256
G01 X94.6979 Y82.5481
G01 Y83.2707
G01 X94.6978 Y83.9933
G01 Y84.7159
G01 X94.6977 Y85.4384
G01 X94.6976 Y86.1610
G01 Y86.8836
G01 X94.6975 Y87.6062
G01 X94.6974 Y88.3287
G01 X94.6973 Y89.0513
G01 X94.6972 Y89.7739
G01 X94.6971 Y90.4965
G01 X94.6970 Y91.2190
G01 X94.6969 Y91.9416
G01 X94.6967 Y92.6642
G01 X94.6966 Y93.3868
G01 X94.6964 Y94.1094
G01 X94.6963 Y94.8319
G01 X94.6961 Y95.5545
G01 X94.6959 Y96.2771
G01 X94.6957 Y96.9997
G01 X94.6955 Y97.7223
G01 X94.6953 Y98.4448
G01 X94.6950 Y99.1674
G01 X94.6948 Y99.8900
G01 X94.6945 Y100.6126
G01 X94.6942 Y101.3352
G01 X94.6939 Y102.0578
G01 X94.6936 Y102.7804
G01 X94.6933 Y103.5030
G01 X94.6929 Y104.2255
G01 X94.6926 Y104.9481
G01 X94.6922 Y105.6707
G01 X94.6918 Y106.3933
G01 X94.6914 Y107.1159
G01 X94.6909 Y107.8385
G01 X94.6905 Y108.5611
G01 X94.6900 Y109.2837
G01 X94.6895 Y110.0063
G01 X94.6890 Y110.7289
G01 X94.6885 Y111.4515
G01 X94.6879 Y112.1741
G01 X94.6873 Y112.8967
G01 X94.6867 Y113.6193
G01 X94.6861 Y114.3418
G01 X94.6855 Y115.0644
G01 X94.6848 Y115.7870
G01 X94.6841 Y116.5096
G01 X94.6834 Y117.2322
G01 X94.6827 Y117.9548
G01 X94.6819 Y118.6774
G01 X94.6811 Y119.4000
G01 X94.6803 Y120.1226
G01 X94.6794 Y120.8453
G01 X94.6785 Y121.5679
G01 X94.6776 Y122.2905
G01 X94.6767 Y123.0131
G01 X94.6758 Y123.7357
G01 X94.6692 Y124.1074
G01 X94.6668 Y124.4791
G01 X94.6686 Y124.8508
G01 X94.6747 Y125.2225
G01 X94.6876 Y125.6501
G01 X94.7182 Y126.0767
G01 X94.7664 Y126.5017
G01 X94.8321 Y126.9244
G01 X94.9153 Y127.3440
G01 X95.0157 Y127.7598
G01 X95.1333 Y128.1711
G01 X95.2677 Y128.5771
G01 X95.4042 Y128.8993
G01 X95.5681 Y129.2085
G01 X95.7582 Y129.5024
G01 X95.9730 Y129.7786
G01 X96.2109 Y130.0352
G01 X96.4702 Y130.2703
G01 X96.7488 Y130.4820
G01 X97.0448 Y130.6688
G01 X97.3558 Y130.8292
G01 X97.6795 Y130.9621
G01 X98.0135 Y131.0665
G01 X98.3553 Y131.1415
G01 X98.5748 Y131.1825
G01 X98.7944 Y131.2233
G01 X99.0140 Y131.2639
G01 X99.2337 Y131.3043
G01 X99.2758 Y131.3190
G01 X99.3172 Y131.3356
G01 X99.3578 Y131.3541
G01 X99.3975 Y131.3743
G01 X99.4363 Y131.3963
G01 X99.4741 Y131.4200
G01 X99.5108 Y131.4453
G01 X99.5464 Y131.4722
G01 X99.5807 Y131.5008
G01 X99.6137 Y131.5308
G01 X99.6453 Y131.5622
G01 X99.6755 Y131.5951
G01 X99.7042 Y131.6292
G01 X99.7313 Y131.6646
G01 X99.7569 Y131.7012
G01 X99.7807 Y131.7388
G01 X99.8029 Y131.7775
G01 X99.8233 Y131.8172
G01 X99.8420 Y131.8577
G01 X99.8588 Y131.8990
G01 X99.8738 Y131.9410
G01 X99.8868 Y131.9837
G01 X99.8980 Y132.0269
G01 X99.9072 Y132.0705
G01 X99.9145 Y132.1145
G01 X99.9197 Y132.1588
G01 X99.9231 Y132.2033
G01 X99.9244 Y132.2479
G01 X99.9710 Y136.5791
G01 X100.0077 Y140.9104
G01 X100.0344 Y145.2418
G01 X100.0512 Y149.5733
G01 X100.0488 Y150.3760
G01 X100.0127 Y151.1780
G01 X99.9429 Y151.9778
G01 X99.8397 Y152.7739
G01 X99.8237 Y152.8593
G01 X99.8023 Y152.9436
G01 X99.7754 Y153.0262
G01 X99.7433 Y153.1070
G01 X99.7061 Y153.1855
G01 X99.6638 Y153.2614
G01 X99.6168 Y153.3345
G01 X99.5651 Y153.4044
G01 X99.5091 Y153.4708
G01 X99.4488 Y153.5335
G01 X99.3847 Y153.5921
G01 X99.3169 Y153.6465
G01 X99.2458 Y153.6964
G01 X99.1715 Y153.7416
G01 X99.0946 Y153.7819
G01 X99.0151 Y153.8172
G01 X98.4382 Y154.0465
G01 X97.8508 Y154.2477
G01 X97.2544 Y154.4204
G01 X96.6504 Y154.5641
G01 X95.2711 Y154.8760
G01 X93.8865 Y155.1637
G01 X92.4972 Y155.4273
G01 X91.1034 Y155.6666
G01 X89.7057 Y155.8816
G01 X88.3045 Y156.0722
G01 X86.9001 Y156.2384
G01 X85.4931 Y156.3801
G01 X84.0838 Y156.4972
G01 X82.6727 Y156.5898
G01 X81.2602 Y156.6578
G01 X79.8467 Y156.7011
G01 X77.8579 Y156.7328
G01 X75.8689 Y156.7405
G01 X73.8799 Y156.7243
G01 X71.8913 Y156.6843
G01 X69.9033 Y156.6204
G01 X67.9162 Y156.5326
G01 X65.9303 Y156.4209
G01 X63.9458 Y156.2853
G01 X62.8460 Y156.1934
G01 X61.7478 Y156.0827
G01 X60.6517 Y155.9534
G01 X59.5579 Y155.8055
G01 X58.4668 Y155.6390
G01 X57.3787 Y155.4540
G01 X56.2939 Y155.2506
G01 X55.2127 Y155.0287
G01 X54.4566 Y154.8788
G01 X53.7006 Y154.7288
G01 X52.9446 Y154.5785
G01 X52.1887 Y154.4282
G01 X51.6599 Y154.3284
G01 X51.1325 Y154.2216
G01 X50.6065 Y154.1078
G01 X50.0821 Y153.9871
G01 X49.9628 Y153.9498
G01 X49.8458 Y153.9057
G01 X49.7316 Y153.8548
G01 X49.6206 Y153.7973
G01 X49.5131 Y153.7335
G01 X49.4095 Y153.6636
G01 X49.3102 Y153.5877
G01 X49.2154 Y153.5062
G01 X49.1256 Y153.4193
G01 X49.0409 Y153.3273
G01 X48.9618 Y153.2305
G01 X48.8884 Y153.1293
G01 X48.8210 Y153.0240
G01 X48.7599 Y152.9150
G01 X48.7053 Y152.8025
G01 X48.6572 Y152.6871
G01 X48.6160 Y152.5691
G01 X48.5817 Y152.4489
G01 X48.5545 Y152.3269
G01 X48.5344 Y152.2035
G01 X48.4796 Y151.7092
G01 X48.4546 Y151.2125
G01 X48.4596 Y150.7151
G01 X48.4945 Y150.2190
G01 X48.6960 Y145.6801
G01 X48.8704 Y141.1401
G01 X49.0176 Y136.5991
G01 X49.1377 Y132.0573
G01 X49.1554 Y131.9825
G01 X49.1788 Y131.9093
G01 X49.2078 Y131.8381
G01 X49.2421 Y131.7693
G01 X49.2817 Y131.7033
G01 X49.3261 Y131.6406
G01 X49.3753 Y131.5815
G01 X49.4289 Y131.5264
G01 X49.4865 Y131.4755
G01 X49.5479 Y131.4292
G01 X49.6127 Y131.3878
G01 X49.6804 Y131.3514
G01 X49.7508 Y131.3204
G01 X49.8233 Y131.2948
G01 X49.8976 Y131.2750
G01 X49.9731 Y131.2608
G01 X49.9515 Y131.2640
G01 X50.2706 Y131.2266
G01 X50.5863 Y131.1676
G01 X50.8973 Y131.0871
G01 X51.2021 Y130.9857
G01 X51.4992 Y130.8637
G01 X51.7874 Y130.7218
G01 X52.0652 Y130.5606
G01 X52.3314 Y130.3808
G01 X52.5948 Y130.1421
G01 X52.8355 Y129.8806
G01 X53.0517 Y129.5984
G01 X53.2415 Y129.2979
G01 X53.4034 Y128.9814
G01 X53.5360 Y128.6517
G01 X53.6384 Y128.3113
G01 X53.7096 Y127.9630
G01 X53.8014 Y127.4135
G01 X53.8609 Y126.8595
G01 X53.8879 Y126.3030
G01 X53.8823 Y125.7459
G01 X53.8993 Y120.8711
G01 X53.9139 Y115.9963
G01 X53.9262 Y111.1215
G01 X53.9360 Y106.2467
G01 X53.9434 Y101.3719
G01 X53.9485 Y96.4971
G01 X53.9511 Y91.6223
G01 X53.9514 Y86.7475
G01 X53.9492 Y81.8726
G01 X53.9447 Y76.9978
G01 X53.9378 Y72.1230
G01 X53.9285 Y67.2482
G01 X53.9275 Y66.4885
G01 X53.9265 Y65.7287
G01 X53.9255 Y64.9689
G01 X53.9244 Y64.2091
G01 X53.9234 Y63.4493
G01 X53.9224 Y62.6895
G01 X53.9213 Y61.9298
G01 X53.9203 Y61.1700
G01 X53.9193 Y60.4102
G01 X53.9182 Y59.6504
G01 X53.9172 Y58.8906
G01 X53.9162 Y58.1308
G01 X53.9152 Y57.3710
G01 X53.9142 Y56.6112
G01 X53.9132 Y55.8514
G01 X53.9122 Y55.0916
G01 X53.9112 Y54.3318
G01 X53.9103 Y53.5720
G01 X53.9093 Y52.8122
G01 X53.9084 Y52.0524
G01 X53.9198 Y51.6390
G01 X53.9222 Y51.2255
G01 X53.9155 Y50.8121
G01 X53.8998 Y50.3988
G01 X53.8954 Y50.3534
G01 X53.8889 Y50.3083
G01 X53.8802 Y50.2635
G01 X53.8695 Y50.2192
G01 X53.8566 Y50.1754
G01 X53.8417 Y50.1323
G01 X53.8247 Y50.0899
G01 X53.8058 Y50.0484
G01 X53.7849 Y50.0079
G01 X53.7621 Y49.9684
G01 X53.7375 Y49.9300
G01 X53.7111 Y49.8928
G01 X53.4981 Y49.5175
G01 X53.2331 Y49.0147
G01 X51.9315 Y48.9967
G01 X50.6297 Y48.9944
G01 X49.3281 Y49.0077
G01 X48.0267 Y49.0367
G01 X47.0442 Y48.9848
G01 X46.0637 Y48.9048
G01 X45.0858 Y48.7969
G01 X44.1115 Y48.6611
G01 X43.9568 Y48.6341
G01 X43.8039 Y48.5986
G01 X43.6532 Y48.5548
G01 X43.5051 Y48.5027
G01 X43.3602 Y48.4425
G01 X43.2187 Y48.3744
G01 X43.0813 Y48.2986
G01 X42.9482 Y48.2153
G01 X42.8862 Y48.1440
G01 X42.8288 Y48.0689
G01 X42.7764 Y47.9902
G01 X42.7292 Y47.9083
G01 X42.6873 Y47.8236
G01 X42.6509 Y47.7363
G01 X42.6202 Y47.6469
G01 X42.5953 Y47.5557
G01 X42.5764 Y47.4631
G01 X42.5633 Y47.3695
G01 X42.5564 Y47.2752
G01 X42.5555 Y47.1807
G01 X42.5441 Y46.6885
G01 X42.5503 Y46.1963
G01 X42.5739 Y45.7046
G01 X42.6149 Y45.2140
G01 X42.6187 Y45.1668
G01 X42.6247 Y45.1199
G01 X42.6329 Y45.0733
G01 X42.6434 Y45.0272
G01 X42.6560 Y44.9816
G01 X42.6707 Y44.9367
G01 X42.6876 Y44.8925
G01 X42.7065 Y44.8491
G01 X42.7275 Y44.8067
G01 X42.7504 Y44.7653
G01 X42.7753 Y44.7251
G01 X42.8021 Y44.6861
G01 X42.8306 Y44.6484
G01 X42.8609 Y44.6121
G01 X42.8929 Y44.5772
G01 X42.9266 Y44.5440
G01 X42.9617 Y44.5123
G01 X42.9983 Y44.4823
G01 X43.0363 Y44.4541
G01 X43.0756 Y44.4278
G01 X43.1160 Y44.4033
G01 X43.1576 Y44.3807
G01 X43.2002 Y44.3602
G01 X43.2437 Y44.3417
G01 X43.2881 Y44.3252
G01 X43.3332 Y44.3109
G01 X43.3789 Y44.2988
G01 X43.4251 Y44.2888
G01 X43.4718 Y44.2810
G01 X43.5188 Y44.2754
G01 X43.5659 Y44.2720
G01 X43.6132 Y44.2709
G01 X104.1757
G01 X104.2187 Y44.2718
G01 X104.2616 Y44.2746
G01 X104.3044 Y44.2792
G01 X104.3470 Y44.2856
G01 X104.3892 Y44.2939
G01 X104.4310 Y44.3039
G01 X104.4724 Y44.3158
G01 X104.5132 Y44.3294
G01 X104.5534 Y44.3448
G01 X104.5929 Y44.3619
G01 X104.6316 Y44.3807
G01 X104.6695 Y44.4012
G01 X104.7064 Y44.4232
G01 X104.7424 Y44.4469
G01 X104.7773 Y44.4720
G01 X104.8111 Y44.4987
G01 X104.8437 Y44.5267
G01 X104.8751 Y44.5562
G01 X104.9052 Y44.5870
G01 X104.9339 Y44.6190
G01 X104.9612 Y44.6523
G01 X104.9871 Y44.6867
G01 X105.0114 Y44.7222
G01 X105.0342 Y44.7587
G01 X105.0554 Y44.7961
G01 X105.0750 Y44.8344
G01 X105.0929 Y44.8736
G01 X105.1091 Y44.9134
G01 X105.1235 Y44.9540
G01 X105.1362 Y44.9951
G01 X105.1471 Y45.0367
G01 X105.1562 Y45.0788
G01 X105.3471 Y45.0135
G01 X106.8937
G01 X107.0904 Y44.9579
G01 X107.0721 Y44.6958
G01 X107.0537 Y44.4337
G01 X107.0352 Y44.1716
G01 X107.0167 Y43.9095
G01 X106.9924 Y43.5419
G01 X106.9693 Y43.1742
G01 X106.9474 Y42.8064
G01 X106.9266 Y42.4386
G01 X40.9504
G01 X40.9198 Y42.8187
G01 X40.8891 Y43.1989
G01 X40.8584 Y43.5790
G01 X40.8276 Y43.9591
G01 X40.7810 Y44.4026
G01 X40.7450 Y44.8470
G01 X40.7196 Y45.2922
G01 X40.7048 Y45.7378
G01 X40.7007 Y46.1837
G01 X40.7071 Y46.6295
G01 X40.7242 Y47.0750
G01 X40.7519 Y47.5201
G01 X40.7859 Y47.8140
G01 X40.8476 Y48.1033
G01 X40.9365 Y48.3855
G01 X41.0518 Y48.6580
G01 X41.1923 Y48.9183
G01 X41.3569 Y49.1642
G01 X41.5441 Y49.3933
G01 X41.7522 Y49.6036
G01 X41.9816 Y49.7714
G01 X42.2217 Y49.9236
G01 X42.4715 Y50.0593
G01 X42.7297 Y50.1781
G01 X42.9953 Y50.2793
G01 X43.2671 Y50.3626
G01 X43.5438 Y50.4275
G01 X43.8243 Y50.4738
G01 X44.7244 Y50.6023
G01 X45.6273 Y50.7092
G01 X46.5326 Y50.7944
G01 X47.4396 Y50.8579
G01 X48.3479 Y50.8996
G01 X49.2569 Y50.9195
G01 X50.1662 Y50.9177
G01 X51.0751 Y50.8940
G01 X51.1187 Y50.8950
G01 X51.1622 Y50.8978
G01 X51.2055 Y50.9026
G01 X51.2486 Y50.9092
G01 X51.2914 Y50.9177
G01 X51.3337 Y50.9281
G01 X51.3756 Y50.9403
G01 X51.4169 Y50.9543
G01 X51.4575 Y50.9700
G01 X51.4974 Y50.9876
G01 X51.5365 Y51.0069
G01 X51.5748 Y51.0278
G01 X51.6120 Y51.0504
G01 X51.6483 Y51.0746
G01 X51.6835 Y51.1004
G01 X51.7175 Y51.1276
G01 X51.7503 Y51.1564
G01 X51.7818 Y51.1865
G01 X51.8120 Y51.2180
G01 X51.8407 Y51.2507
G01 X51.8680 Y51.2847
G01 X51.8938 Y51.3199
G01 X51.9181 Y51.3561
G01 X51.9407 Y51.3933
G01 X51.9617 Y51.4315
G01 X51.9810 Y51.4706
G01 X51.9986 Y51.5105
G01 X52.0145 Y51.5511
G01 X52.0285 Y51.5924
G01 X52.0408 Y51.6342
G01 X52.0512 Y51.6766
G01 X52.0597 Y51.7193
G01 X52.0664 Y51.7624
G01 X52.0712 Y51.8057
G01 X52.0741 Y51.8492
G01 X52.0751 Y51.8928
G01 X52.0760 Y52.6382
G01 X52.0769 Y53.3836
G01 X52.0779 Y54.1289
G01 X52.0788 Y54.8743
G01 X52.0798 Y55.6197
G01 X52.0808 Y56.3651
G01 X52.0817 Y57.1104
G01 X52.0827 Y57.8558
G01 X52.0837 Y58.6012
G01 X52.0847 Y59.3466
G01 X52.0858 Y60.0920
G01 X52.0868 Y60.8373
G01 X52.0878 Y61.5827
G01 X52.0888 Y62.3281
G01 X52.0898 Y63.0735
G01 X52.0908 Y63.8189
G01 X52.0918 Y64.5643
G01 X52.0928 Y65.3097
G01 X52.0938 Y66.0551
G01 X52.0948 Y66.8005
G01 X52.0958 Y67.5459
G01 X52.0968 Y68.2913
G01 X52.0978 Y69.0367
G01 X52.0987 Y69.7821
G01 X52.0997 Y70.5275
G01 X52.1006 Y71.2729
G01 X52.1015 Y72.0183
G01 X52.1024 Y72.7637
G01 X52.1033 Y73.5091
G01 X52.1042 Y74.2546
G01 X52.1050 Y75.0000
G01 X52.1058 Y75.7454
G01 X52.1066 Y76.4908
G01 X52.1074 Y77.2362
G01 X52.1082 Y77.9816
G01 X52.1089 Y78.7271
G01 X52.1096 Y79.4725
G01 X52.1103 Y80.2179
G01 X52.1109 Y80.9634
G01 X52.1115 Y81.7088
G01 X52.1121 Y82.4542
G01 X52.1127 Y83.1997
G01 X52.1132 Y83.9451
G01 X52.1136 Y84.6905
G01 X52.1141 Y85.4360
G01 X52.1145 Y86.1814
G01 X52.1148 Y86.9268
G01 X52.1152 Y87.6723
G01 X52.1154 Y88.4177
G01 X52.1157 Y89.1632
G01 X52.1159 Y89.9086
G01 X52.1160 Y90.6541
G01 X52.1161 Y91.3995
G01 X52.1162 Y92.1450
G01 Y92.8904
G01 X52.1161 Y93.6359
G01 X52.1160 Y94.3814
G01 X52.1159 Y95.1268
G01 Y99.0661
G01 X52.1130 Y103.0054
G01 X52.1072 Y106.9447
G01 X52.0985 Y110.8840
G01 X52.0869 Y114.8233
G01 X52.0725 Y118.7626
G01 X52.0552 Y122.7019
G01 X52.0350 Y126.6411
G01 X52.0287 Y126.8766
G01 X52.0090 Y127.1115
G01 X51.9760 Y127.3448
G01 X51.9298 Y127.5758
G01 X51.8704 Y127.8038
G01 X51.7982 Y128.0281
G01 X51.7133 Y128.2479
G01 X51.6161 Y128.4626
G01 X51.5461 Y128.5671
G01 X51.4693 Y128.6667
G01 X51.3859 Y128.7609
G01 X51.2964 Y128.8493
G01 X51.2011 Y128.9314
G01 X51.1005 Y129.0070
G01 X50.9951 Y129.0756
G01 X50.8853 Y129.1370
G01 X50.7716 Y129.1908
G01 X50.6546 Y129.2369
G01 X50.5347 Y129.2750
G01 X50.4125 Y129.3050
G01 X49.8797 Y129.4186
G01 X49.3407 Y129.4973
G01 X48.7976 Y129.5407
G01 X48.2529 Y129.5485
G01 X47.3442
G01 X47.2931 Y132.2581
G01 X47.2307 Y134.9675
G01 X47.1571 Y137.6765
G01 X47.0724 Y140.3853
G01 X46.9764 Y143.0936
G01 X46.8693 Y145.8016
G01 X46.7509 Y148.5091
G01 X46.6214 Y151.2160
G01 X46.6158 Y151.6031
G01 X46.6398 Y151.9894
G01 X46.6931 Y152.3729
G01 X46.7755 Y152.7511
G01 X46.8865 Y153.1219
G01 X47.0254 Y153.4833
G01 X47.1914 Y153.8330
G01 X47.3835 Y154.1690
G01 X47.5621 Y154.3945
G01 X47.7548 Y154.6081
G01 X47.9608 Y154.8088
G01 X48.1793 Y154.9959
G01 X48.4094 Y155.1686
G01 X48.6501 Y155.3261
G01 X48.9005 Y155.4678
G01 X49.1594 Y155.5932
G01 X49.4258 Y155.7016
G01 X49.6987 Y155.7927
G01 X49.9769 Y155.8660
G01 X50.2592 Y155.9213
G01 X51.6830 Y156.2012
G01 X53.1067 Y156.4817
G01 X54.5303 Y156.7627
G01 X55.9537 Y157.0443
G01 X57.1715 Y157.2795
G01 X58.3937 Y157.4904
G01 X59.6198 Y157.6768
G01 X60.8494 Y157.8387
G01 X62.0820 Y157.9760
G01 X63.3171 Y158.0886
G01 X64.5542 Y158.1766
G01 X65.7929 Y158.2399
G01 X67.7664 Y158.3588
G01 X69.7413 Y158.4518
G01 X71.7172 Y158.5190
G01 X73.6938 Y158.5604
G01 X75.6709 Y158.5759
G01 X77.6479 Y158.5656
G01 X79.6246 Y158.5294
G01 X81.6008 Y158.4673
G01 X82.9869 Y158.4022
G01 X84.3717 Y158.3129
G01 X85.7547 Y158.1995
G01 X87.1355 Y158.0620
G01 X88.5137 Y157.9004
G01 X89.8889 Y157.7149
G01 X91.2607 Y157.5054
G01 X92.6286 Y157.2720
G01 X93.9922 Y157.0148
G01 X95.3511 Y156.7339
G01 X96.7049 Y156.4294
G01 X98.0532 Y156.1013
G01 X98.3729 Y156.0221
G01 X98.6885 Y155.9280
G01 X98.9994 Y155.8191
G01 X99.3047 Y155.6958
G01 X99.6039 Y155.5582
G01 X99.8964 Y155.4067
G01 X100.1813 Y155.2416
G01 X100.4582 Y155.0632
G01 X100.6509 Y154.8979
G01 X100.8317 Y154.7197
G01 X100.9998 Y154.5295
G01 X101.1545 Y154.3281
G01 X101.2949 Y154.1166
G01 X101.4204 Y153.8959
G01 X101.5304 Y153.6671
G01 X101.6245 Y153.4313
G01 X101.7020 Y153.1896
G01 X101.7628 Y152.9431
G01 X101.8064 Y152.6930
G01 X101.8327 Y152.4405
G01 X101.8785 Y151.6495
G01 X101.9023 Y150.8576
G01 X101.9040 Y150.0653
G01 X101.8836 Y149.2733
G01 X101.8827 Y149.1721
G01 X101.7445 Y130.4585
G01 X101.7376 Y129.5458
G01 X101.1019 Y129.5626
G01 X100.4660 Y129.5520
G01 X99.8312 Y129.5140
G01 X99.1986 Y129.4485
G01 X99.0552 Y129.4333
G01 X98.9128 Y129.4113
G01 X98.7716 Y129.3824
G01 X98.6319 Y129.3467
G01 X98.4941 Y129.3044
G01 X98.3585 Y129.2555
G01 X98.2255 Y129.2001
G01 X98.0952 Y129.1384
G01 X97.9681 Y129.0705
G01 X97.8443 Y128.9965
G01 X97.7243 Y128.9167
G01 X97.6083 Y128.8312
G01 X97.5103 Y128.7283
G01 X97.4173 Y128.6209
G01 X97.3296 Y128.5092
G01 X97.2473 Y128.3934
G01 X97.1706 Y128.2738
G01 X97.0997 Y128.1507
G01 X97.0347 Y128.0244
G01 X96.9759 Y127.8951
G01 X96.9233 Y127.7631
G01 X96.8770 Y127.6288
G01 X96.8373 Y127.4925
G01 X96.8040 Y127.3543
G01 X96.7234 Y126.9900
G01 X96.6550 Y126.6231
G01 X96.5991 Y126.2542
G01 X96.5557 Y125.8836
G01 X96.5248 Y125.5117
G01 X96.5064 Y125.1390
G01 X96.5006 Y124.7658
G01 X96.5075 Y124.3927
G01 X96.5084 Y123.6709
G01 X96.5094 Y122.9490
G01 X96.5103 Y122.2271
G01 X96.5112 Y121.5052
G01 X96.5121 Y120.7833
G01 X96.5129 Y120.0615
G01 X96.5138 Y119.3396
G01 X96.5146 Y118.6177
G01 X96.5153 Y117.8958
G01 X96.5161 Y117.1739
G01 X96.5168 Y116.4521
G01 X96.5175 Y115.7302
G01 X96.5181 Y115.0083
G01 X96.5188 Y114.2864
G01 X96.5194 Y113.5645
G01 X96.5200 Y112.8426
G01 X96.5206 Y112.1208
G01 X96.5212 Y111.3989
G01 X96.5217 Y110.6770
G01 X96.5222 Y109.9551
G01 X96.5227 Y109.2332
G01 X96.5232 Y108.5113
G01 X96.5236 Y107.7894
G01 X96.5241 Y107.0675
G01 X96.5245 Y106.3456
G01 X96.5249 Y105.6238
G01 X96.5253 Y104.9019
G01 X96.5256 Y104.1800
G01 X96.5260 Y103.4581
G01 X96.5263 Y102.7362
G01 X96.5266 Y102.0143
G01 X96.5269 Y101.2924
G01 X96.5272 Y100.5705
G01 X96.5275 Y99.8486
G01 X96.5277 Y99.1267
G01 X96.5280 Y98.4048
G01 X96.5282 Y97.6829
G01 X96.5284 Y96.9610
G01 X96.5286 Y96.2391
G01 X96.5288 Y95.5172
G01 X96.5290 Y94.7953
G01 X96.5292 Y94.0734
G01 X96.5293 Y93.3515
G01 X96.5295 Y92.6296
G01 X96.5296 Y91.9077
G01 X96.5297 Y91.1858
G01 X96.5299 Y90.4639
G01 X96.5300 Y89.7420
G01 X96.5301 Y89.0201
G01 X96.5302 Y88.2982
G01 X96.5303 Y87.5763
G01 Y86.8544
G01 X96.5304 Y86.1325
G01 X96.5305 Y85.4105
G01 X96.5306 Y84.6886
G01 Y83.9667
G01 X96.5307 Y83.2448
G01 Y82.5229
G01 X96.5308 Y81.8010
G01 Y81.0791
G01 X96.5309 Y80.3572
G01 Y79.6353
G01 Y78.9133
G01 X96.5310 Y78.1914
G01 Y77.4695
G01 Y76.7476
G01 X96.5311 Y76.0257
G01 Y75.3038
G01 Y74.5818
G01 X96.5312 Y73.8599
G01 Y73.1380
G01 X96.5313 Y72.4161
G01 Y71.6942
G01 Y70.9722
G01 X96.5314 Y70.2503
G01 Y69.5284
G01 X96.5315 Y68.8065
G01 X96.5316 Y68.0846
G01 Y67.3626
G01 X96.5317 Y66.6407
G01 X96.5318 Y65.9188
G01 X96.5319 Y65.1969
G01 X96.5320 Y64.4749
G01 X96.5321 Y63.7530
G01 X96.5322 Y63.0311
G01 X96.5323 Y62.3091
G01 X96.5324 Y61.5872
G01 X96.5325 Y60.8653
G01 X96.5327 Y60.1434
G01 X96.5328 Y59.4214
G01 X96.5330 Y58.6995
G01 X96.5332 Y57.9776
G01 X96.5334 Y57.2556
G01 X96.5336 Y56.5337
G01 X96.5338 Y55.8118
G01 X96.5340 Y55.0898
G01 X96.5342 Y54.3679
G01 X96.5218 Y53.7108
G01 X96.5298 Y53.0537
G01 X96.5581 Y52.3971
G01 X96.6067 Y51.7418
G01 X96.6144 Y51.6981
G01 X96.6241 Y51.6549
G01 X96.6356 Y51.6121
G01 X96.6491 Y51.5699
G01 X96.6644 Y51.5283
G01 X96.6815 Y51.4875
G01 X96.7004 Y51.4474
G01 X96.7210 Y51.4082
G01 X96.7434 Y51.3700
G01 X96.7675 Y51.3328
G01 X96.7932 Y51.2967
G01 X96.8204 Y51.2617
G01 X96.8492 Y51.2280
G01 X96.8794 Y51.1957
G01 X96.9111 Y51.1647
G01 X96.9440 Y51.1351
G01 X96.9783 Y51.1070
G01 X97.0138 Y51.0804
G01 X97.0504 Y51.0555
G01 X97.0881 Y51.0322
G01 X97.1267 Y51.0106
G01 X97.1663 Y50.9907
G01 X97.2068 Y50.9726
G01 X97.2480 Y50.9563
G01 X97.2898 Y50.9419
G01 X97.3323 Y50.9293
G01 X97.3753 Y50.9186
G01 X97.4187 Y50.9098
G01 X97.4625 Y50.9030
G01 X97.5065 Y50.8981
G01 X97.5507 Y50.8951
G01 X97.5950 Y50.8942
G01 X101.5702
G01 X101.9870 Y50.8411
G01 X102.4022 Y50.7773
G01 X102.8157 Y50.7026
G01 X103.2270 Y50.6172
G01 X103.6361 Y50.5211
G01 X104.0424 Y50.4144
G01 X104.4459 Y50.2972
G01 X104.8461 Y50.1695
G01 X105.0709 Y50.0842
G01 X105.2887 Y49.9826
G01 X105.4984 Y49.8652
G01 X105.6989 Y49.7326
G01 X105.8890 Y49.5855
G01 X106.0677 Y49.4248
G01 X106.2340 Y49.2513
G01 X106.3871 Y49.0660
G01 X106.5260 Y48.8699
G01 X106.6501 Y48.6640
G01 X106.7586 Y48.4495
G01 X106.8509 Y48.2276
G01 X106.9418 Y47.9306
G01 X107.0172 Y47.6292
G01 X107.0769 Y47.3244
G01 X107.1208 Y47.0168
G01 X107.1488 Y46.7074
G01 X107.1607 Y46.3970
G01 X107.1565 Y46.0864
G01 X107.1363 Y45.7764
G01 X107.1269 Y45.5717
G01 X107.1161 Y45.3670
G01 X107.1039 Y45.1624
G01 X107.0904 Y44.9579
G01 X106.8937 Y45.0135
M107
G00 Z2.0000


;No. 4: Hole 1
G00 X84.7826 Y70.1297 Z2.0000
G00 Z0.5000
G01 Z0.0000 F400
G01 Z-2.0000
M106 S240
G01 X81.8210 F1000
G01 X82.7079 Y68.6297
G01 X78.7229
G01 X79.3783 Y67.1297
G01 X69.4856
G01 X70.0441 Y68.6297
G01 X66.1868
G01 X66.9422 Y70.1297
G01 X64.1246
G01 X65.0740 Y71.6297
G01 X62.6233
G01 X63.7435 Y73.1297
G01 X61.4838
G01 X60.6159 Y74.6297
G01 X62.7548
G01 X62.0179 Y76.1297
G01 X59.9694
G01 X59.5141 Y77.6297
G01 X61.4841
G01 X61.1234 Y79.1297
G01 X59.2311
G01 X59.1100 Y80.6297
G01 X60.9164
G01 X60.8497 Y82.1297
G01 X59.1020
G01 X59.1019 Y83.6297
G01 X60.8458
G01 X60.8425 Y85.1297
G01 X59.1019
G01 Y86.6297
G01 X60.8399
G01 X60.8378 Y88.1297
G01 X59.1018
G01 Y89.6297
G01 X60.8362
G01 X60.8350 Y91.1297
G01 X59.1018
G01 X59.1017 Y92.6297
G01 X60.8343
G01 X60.8339 Y94.1297
G01 X59.1017
G01 Y95.6297
G01 X60.8338
G01 X60.8339 Y97.1297
G01 X59.1016
G01 Y98.6297
G01 X60.8343
G01 X60.8347 Y100.1297
G01 X59.1016
G01 X59.1015 Y101.6297
G01 X60.8353
G01 X60.8359 Y103.1297
G01 X59.1015
G01 Y104.6297
G01 X60.8365
G01 X60.8370 Y106.1297
G01 X59.1011
G01 X59.1002 Y107.6297
G01 X60.8374
G01 X60.8376 Y109.1297
G01 X59.0989
G01 X59.0974 Y110.6297
G01 X60.8376
G01 X60.8373 Y112.1297
G01 X59.0958
G01 X59.0942 Y113.6297
G01 X60.8367
G01 X60.8357 Y115.1297
G01 X59.0927
G01 X59.0915 Y116.6297
G01 X60.8342
G01 X60.8323 Y118.1297
G01 X59.0906
G01 X59.0902 Y119.6297
G01 X60.8299
G01 X60.8269 Y121.1297
G01 X59.0905
G01 X59.0914 Y122.6297
G01 X60.8232
G01 X60.8188 Y124.1297
G01 X59.0931
G01 X59.0959 Y125.6297
G01 X60.8137
G01 X60.8078 Y127.1297
G01 X59.0996
G01 X59.1046 Y128.6297
G01 X60.8022
G01 X60.9188 Y130.1297
G01 X59.1147
G01 X59.2616 Y131.6297
G01 X61.3834
G01 Y133.1297
G01 X62.7273
G01 X59.7462
G01 X61.2431 Y134.6297
G01 X87.6215
G01 X89.1081 Y133.1297
G01 X86.0453
G01 X87.3976
G01 Y131.6297
G01 X89.5809
G01 X89.6912 Y130.1297
G01 X87.8627
G01 X87.9723 Y128.6297
G01 X89.6950
G01 X89.6989 Y127.1297
G01 X87.9563
G01 X87.9425 Y125.6297
G01 X89.7027
G01 X89.7066 Y124.1297
G01 X87.9321
G01 X87.9247 Y122.6297
G01 X89.7103
G01 X89.7141 Y121.1297
G01 X87.9199
G01 X87.9174 Y119.6297
G01 X89.7176
G01 X89.7211 Y118.1297
G01 X87.9168
G01 X87.9177 Y116.6297
G01 X89.7243
G01 X89.7274 Y115.1297
G01 X87.9198
G01 X87.9227 Y113.6297
G01 X89.7302
G01 X89.7327 Y112.1297
G01 X87.9262
G01 X87.9297 Y110.6297
G01 X89.7349
G01 X89.7367 Y109.1297
G01 X87.9329
G01 X87.9356 Y107.6297
G01 X89.7382
G01 X89.7392 Y106.1297
G01 X87.9373
G01 X87.9377 Y104.6297
G01 X89.7398
G01 X89.7399 Y103.1297
G01 X87.9382
G01 X87.9396 Y101.6297
G01 X89.7395
G01 X89.7385 Y100.1297
G01 X87.9415
G01 X87.9437 Y98.6297
G01 X89.7370
G01 X89.7348 Y97.1297
G01 X87.9460
G01 X87.9482 Y95.6297
G01 X89.7320
G01 X89.7285 Y94.1297
G01 X87.9501
G01 X87.9514 Y92.6297
G01 X89.7242
G01 X89.7192 Y91.1297
G01 X87.9519
G01 X87.9514 Y89.6297
G01 X89.7135
G01 X89.7069 Y88.1297
G01 X87.9497
G01 X87.9465 Y86.6297
G01 X89.6994
G01 X89.6911 Y85.1297
G01 X87.9417
G01 X87.9350 Y83.6297
G01 X89.6818
G01 X89.6716 Y82.1297
G01 X87.9262
G01 X87.8545 Y80.6297
G01 X89.6604
G01 X89.5759 Y79.1297
G01 X87.6435
G01 X87.2798 Y77.6297
G01 X89.3263
G01 X88.8982 Y76.1297
G01 X86.7438
G01 X86.0058 Y74.6297
G01 X88.2725
G01 X87.4185 Y73.1297
G01 X85.0167
G01 X86.2857 Y71.6297
G01 X86.4264 Y71.4866
G01 X85.9754 Y70.9995
G01 X85.5043 Y70.5317
G01 X85.0140 Y70.0841
G01 X84.5054 Y69.6575
G01 X83.9793 Y69.2526
G01 X83.4367 Y68.8702
G01 X82.8785 Y68.5108
G01 X82.3057 Y68.1752
G01 X81.7193 Y67.8640
G01 X81.1204 Y67.5776
G01 X80.5099 Y67.3167
G01 X79.8891 Y67.0815
G01 X79.2589 Y66.8727
G01 X78.6206 Y66.6905
G01 X77.9751 Y66.5352
G01 X77.3237 Y66.4072
G01 X76.6675 Y66.3067
G01 X76.0077 Y66.2337
G01 X75.3453 Y66.1886
G01 X74.6817 Y66.1712
G01 X73.9428 Y66.1684
G01 X73.2047 Y66.2005
G01 X72.4689 Y66.2674
G01 X71.7370 Y66.3689
G01 X71.0108 Y66.5048
G01 X70.2917 Y66.6748
G01 X69.5815 Y66.8786
G01 X68.8817 Y67.1156
G01 X68.1939 Y67.3854
G01 X67.5195 Y67.6873
G01 X66.8602 Y68.0207
G01 X66.2173 Y68.3848
G01 X65.5923 Y68.7789
G01 X64.9865 Y69.2020
G01 X64.4014 Y69.6532
G01 X63.8383 Y70.1315
G01 X63.2983 Y70.6358
G01 X62.7828 Y71.1651
G01 X62.2927 Y71.7181
G01 X61.8294 Y72.2935
G01 X61.4803 Y72.7768
G01 X61.1513 Y73.2740
G01 X60.8430 Y73.7843
G01 X60.5559 Y74.3068
G01 X60.2905 Y74.8406
G01 X60.0472 Y75.3848
G01 X59.8264 Y75.9386
G01 X59.6286 Y76.5010
G01 X59.4540 Y77.0710
G01 X59.3029 Y77.6477
G01 X59.1756 Y78.2301
G01 X59.0723 Y78.8173
G01 X58.9932 Y79.4082
G01 X58.9383 Y80.0018
G01 X58.9079 Y80.5972
G01 X58.9020 Y81.1933
G01 X58.9015 Y105.1498
G01 X58.9004 Y107.1227
G01 X58.8989 Y109.0955
G01 X58.8971 Y111.0684
G01 X58.8948 Y113.0413
G01 X58.8946 Y113.2879
G01 X58.8943 Y113.5344
G01 X58.8940 Y113.7810
G01 X58.8938 Y114.0276
G01 X58.8935 Y114.2741
G01 X58.8933 Y114.5207
G01 X58.8872 Y118.4999
G01 X58.8907 Y122.4790
G01 X58.9039 Y126.4582
G01 X58.9268 Y130.4373
G01 X58.9426 Y130.8303
G01 X58.9820 Y131.2216
G01 X59.0448 Y131.6098
G01 X59.1308 Y131.9935
G01 X59.2397 Y132.3714
G01 X59.3712 Y132.7421
G01 X59.5246 Y133.1042
G01 X59.6995 Y133.4564
G01 X59.8457 Y133.6708
G01 X60.0054 Y133.8752
G01 X60.1781 Y134.0688
G01 X60.3629 Y134.2509
G01 X60.5592 Y134.4206
G01 X60.7660 Y134.5772
G01 X60.9826 Y134.7200
G01 X61.2080 Y134.8486
G01 X61.4412 Y134.9622
G01 X61.6813 Y135.0605
G01 X61.9272 Y135.1430
G01 X62.1780 Y135.2094
G01 X62.5320 Y135.2944
G01 X62.8886 Y135.3676
G01 X63.2474 Y135.4290
G01 X63.6081 Y135.4785
G01 X63.9702 Y135.5161
G01 X64.3334 Y135.5416
G01 X64.6971 Y135.5552
G01 X65.0612 Y135.5567
G01 X69.9874 Y135.5931
G01 X74.9138 Y135.6003
G01 X79.8401 Y135.5785
G01 X84.7663 Y135.5275
G01 X85.1731 Y135.5069
G01 X85.5780 Y135.4624
G01 X85.9796 Y135.3941
G01 X86.3765 Y135.3023
G01 X86.7673 Y135.1873
G01 X87.1506 Y135.0496
G01 X87.5252 Y134.8895
G01 X87.8897 Y134.7076
G01 X88.1166 Y134.5578
G01 X88.3325 Y134.3926
G01 X88.5363 Y134.2127
G01 X88.7272 Y134.0191
G01 X88.9042 Y133.8127
G01 X89.0663 Y133.5945
G01 X89.2129 Y133.3656
G01 X89.3433 Y133.1270
G01 X89.4567 Y132.8799
G01 X89.5527 Y132.6256
G01 X89.6308 Y132.3652
G01 X89.6905 Y132.1000
G01 X89.7491 Y131.8053
G01 X89.7982 Y131.5090
G01 X89.8379 Y131.2112
G01 X89.8679 Y130.9123
G01 X89.8884 Y130.6126
G01 X89.8993 Y130.3123
G01 X89.9006 Y130.0119
G01 X89.8923 Y129.7116
G01 X89.8935 Y129.2150
G01 X89.8948 Y128.7183
G01 X89.8961 Y128.2217
G01 X89.8973 Y127.7250
G01 X89.8986 Y127.2284
G01 X89.8999 Y126.7318
G01 X89.9012 Y126.2351
G01 X89.9024 Y125.7385
G01 X89.9037 Y125.2419
G01 X89.9050 Y124.7452
G01 X89.9063 Y124.2486
G01 X89.9075 Y123.7520
G01 X89.9088 Y123.2554
G01 X89.9100 Y122.7588
G01 X89.9113 Y122.2621
G01 X89.9125 Y121.7655
G01 X89.9137 Y121.2689
G01 X89.9149 Y120.7723
G01 X89.9161 Y120.2757
G01 X89.9173 Y119.7791
G01 X89.9185 Y119.2825
G01 X89.9196 Y118.7859
G01 X89.9207 Y118.2893
G01 X89.9218 Y117.7927
G01 X89.9229 Y117.2961
G01 X89.9240 Y116.7995
G01 X89.9368 Y112.2106
G01 X89.9433 Y107.6217
G01 X89.9434 Y103.0328
G01 X89.9371 Y98.4438
G01 X89.9245 Y93.8549
G01 X89.9056 Y89.2660
G01 X89.8803 Y84.6771
G01 X89.8486 Y80.0883
G01 X89.8130 Y79.4996
G01 X89.7524 Y78.9129
G01 X89.6670 Y78.3293
G01 X89.5570 Y77.7498
G01 X89.4224 Y77.1756
G01 X89.2636 Y76.6076
G01 X89.0809 Y76.0468
G01 X88.8745 Y75.4942
G01 X88.6449 Y74.9510
G01 X88.3925 Y74.4179
G01 X88.1176 Y73.8960
G01 X87.8209 Y73.3863
G01 X87.5028 Y72.8896
G01 X87.1640 Y72.4069
G01 X86.8049 Y71.9389
G01 X86.4264 Y71.4866
G01 X86.2857 Y71.6297
G01 X83.6872
G01 X83.5116 Y71.7384
G01 X83.9460 Y72.1855
G01 X84.3600 Y72.6515
G01 X84.7530 Y73.1354
G01 X85.1241 Y73.6362
G01 X85.4725 Y74.1531
G01 X85.7976 Y74.6850
G01 X86.0988 Y75.2307
G01 X86.3754 Y75.7893
G01 X86.6269 Y76.3597
G01 X86.8528 Y76.9407
G01 X87.0527 Y77.5311
G01 X87.2262 Y78.1298
G01 X87.3728 Y78.7357
G01 X87.4924 Y79.3475
G01 X87.5847 Y79.9640
G01 X87.6495 Y80.5839
G01 X87.6979 Y81.4692
G01 X87.7287 Y82.3553
G01 X87.7419 Y83.2418
G01 X87.7374 Y84.1285
G01 X87.7409 Y88.2020
G01 X87.7427 Y92.2755
G01 Y96.3491
G01 X87.7411 Y100.4226
G01 X87.7378 Y104.4961
G01 X87.7327 Y108.5697
G01 X87.7260 Y112.6432
G01 X87.7176 Y116.7167
G01 X87.7183 Y119.8146
G01 X87.7262 Y122.9125
G01 X87.7411 Y126.0103
G01 X87.7631 Y129.1081
G01 X87.7506 Y129.4743
G01 X87.7142 Y129.8389
G01 X87.6540 Y130.2004
G01 X87.5704 Y130.5571
G01 X87.4637 Y130.9077
G01 X87.3343 Y131.2505
G01 X87.1827 Y131.5841
G01 X87.0097 Y131.9071
G01 X86.8450 Y132.1293
G01 X86.6648 Y132.3391
G01 X86.4701 Y132.5355
G01 X86.2619 Y132.7176
G01 X86.0412 Y132.8843
G01 X85.8092 Y133.0348
G01 X85.5670 Y133.1684
G01 X85.3159 Y133.2843
G01 X85.0572 Y133.3820
G01 X84.7921 Y133.4610
G01 X84.5221 Y133.5209
G01 X84.2485 Y133.5613
G01 X83.6717 Y133.6212
G01 X83.0927 Y133.6535
G01 X82.5128 Y133.6582
G01 X81.9334 Y133.6353
G01 X79.8747 Y133.6035
G01 X77.8160 Y133.5813
G01 X75.7572 Y133.5687
G01 X73.6983 Y133.5657
G01 X71.6395 Y133.5723
G01 X69.5807 Y133.5884
G01 X67.5220 Y133.6142
G01 X65.4634 Y133.6496
G01 X65.1063 Y133.6408
G01 X64.7507 Y133.6072
G01 X64.3982 Y133.5489
G01 X64.0507 Y133.4663
G01 X63.7098 Y133.3596
G01 X63.3771 Y133.2296
G01 X63.0543 Y133.0767
G01 X62.7428 Y132.9017
G01 X62.5338 Y132.7410
G01 X62.3361 Y132.5666
G01 X62.1505 Y132.3793
G01 X61.9780 Y132.1800
G01 X61.8193 Y131.9694
G01 X61.6751 Y131.7487
G01 X61.5461 Y131.5187
G01 X61.4328 Y131.2806
G01 X61.3359 Y131.0355
G01 X61.2556 Y130.7843
G01 X61.1925 Y130.5283
G01 X61.1467 Y130.2687
G01 X61.0661 Y129.7095
G01 X61.0154 Y129.1469
G01 X60.9947 Y128.5823
G01 X61.0040 Y128.0175
G01 X61.0158 Y123.3768
G01 X61.0253 Y118.7360
G01 X61.0326 Y114.0953
G01 X61.0376 Y109.4546
G01 X61.0404 Y104.8139
G01 X61.0409 Y100.1731
G01 X61.0392 Y95.5324
G01 X61.0352 Y90.8917
G01 X61.0347 Y88.5273
G01 X61.0393 Y86.1629
G01 X61.0490 Y83.7985
G01 X61.0638 Y81.4342
G01 X61.0929 Y80.8180
G01 X61.1487 Y80.2036
G01 X61.2311 Y79.5922
G01 X61.3400 Y78.9849
G01 X61.4751 Y78.3829
G01 X61.6362 Y77.7874
G01 X61.8229 Y77.1994
G01 X62.0350 Y76.6201
G01 X62.2720 Y76.0505
G01 X62.5335 Y75.4918
G01 X62.8191 Y74.9449
G01 X63.1280 Y74.4109
G01 X63.4599 Y73.8908
G01 X63.8139 Y73.3856
G01 X64.1896 Y72.8962
G01 X64.5862 Y72.4236
G01 X64.9874 Y72.0007
G01 X65.4072 Y71.5961
G01 X65.8446 Y71.2106
G01 X66.2987 Y70.8450
G01 X66.7687 Y70.5000
G01 X67.2536 Y70.1764
G01 X67.7525 Y69.8747
G01 X68.2643 Y69.5955
G01 X68.7881 Y69.3395
G01 X69.3228 Y69.1071
G01 X69.8673 Y68.8988
G01 X70.4206 Y68.7150
G01 X70.9815 Y68.5560
G01 X71.5490 Y68.4223
G01 X72.1219 Y68.3139
G01 X72.6990 Y68.2313
G01 X73.2792 Y68.1745
G01 X73.8614 Y68.1436
G01 X74.4444 Y68.1387
G01 X75.0270 Y68.1599
G01 X75.6144 Y68.1941
G01 X76.1996 Y68.2551
G01 X76.7814 Y68.3425
G01 X77.3586 Y68.4563
G01 X77.9301 Y68.5962
G01 X78.4946 Y68.7619
G01 X79.0510 Y68.9531
G01 X79.5982 Y69.1694
G01 X80.1350 Y69.4103
G01 X80.6602 Y69.6753
G01 X81.1729 Y69.9639
G01 X81.6720 Y70.2755
G01 X82.1564 Y70.6095
G01 X82.6251 Y70.9652
G01 X83.0771 Y71.3417
G01 X83.5116 Y71.7384
G01 X83.6872 Y71.6297
M107
G00 Z2.0000


;No. 5: Hole 35
G00 X71.1378 Y84.5507 Z2.0000
G00 Z0.5000
G01 Z0.0000 F400
G01 Z-1.2000
M106 S240
G01 X70.5717 F1000
G01 X70.9262 Y86.0507
G01 X71.7723
G01 X71.2848 Y87.5507
G01 X72.4006
G01 X73.0238 Y89.0507
G01 X71.6452
G01 X72.0057 Y90.5507
G01 X73.6429
G01 X74.2590 Y92.0507
G01 X72.3644
G01 X72.7194 Y93.5507
G01 X74.8731
G01 X75.4861 Y95.0507
G01 X73.0689
G01 X73.4112 Y96.5507
G01 X76.0990
G01 X76.7128 Y98.0507
G01 X73.7445
G01 X74.0669 Y99.5507
G01 X77.3285
G01 X77.9469 Y101.0507
G01 X74.1739
G01 X78.5690 Y102.5507
G01 X69.4353
G01 X70.1550 Y104.0507
G01 X79.1957
G01 X79.8279 Y105.5507
G01 X70.8676
G01 X71.5742 Y107.0507
G01 X80.4666
G01 X81.1125 Y108.5507
G01 X78.8007
M107
G00 Z2.0000
G00 X77.5268 Y107.0507
G00 Z0.5000
G01 Z-1.2000 F400
M106 S240
G01 Y108.5507 F1000
G01 X72.2759
G01 X72.9740 Y110.0507
G01 X76.9723
G01 X77.2315 Y111.5507
G01 X73.6696
G01 X74.3640 Y113.0507
G01 X77.5111
G01 X77.8071 Y114.5507
G01 X75.0586
G01 X75.7545 Y116.0507
G01 X78.1154
G01 X78.4318 Y117.5507
G01 X76.4530
G01 X77.1557 Y119.0507
G01 X78.7521
G01 X79.0717 Y120.5507
G01 X77.8638
G01 X78.5786 Y122.0507
G01 X79.3858
G01 X79.5743 Y121.9746
G01 X79.2512 Y120.4444
G01 X78.9276 Y118.9144
G01 X78.6034 Y117.3844
G01 X78.2788 Y115.8545
G01 X77.9548 Y114.2944
G01 X77.6526 Y112.7299
G01 X77.3723 Y111.1613
G01 X77.1139 Y109.5890
G01 X77.1153 Y109.5425
G01 X77.1188 Y109.4962
G01 X77.1245 Y109.4501
G01 X77.1324 Y109.4043
G01 X77.1424 Y109.3589
G01 X77.1544 Y109.3140
G01 X77.1686 Y109.2697
G01 X77.1847 Y109.2262
G01 X77.2029 Y109.1834
G01 X77.2231 Y109.1415
G01 X77.2452 Y109.1006
G01 X77.2691 Y109.0608
G01 X77.2949 Y109.0222
G01 X77.3224 Y108.9847
G01 X77.3517 Y108.9486
G01 X77.3826 Y108.9139
G01 X77.4151 Y108.8807
G01 X77.4491 Y108.8490
G01 X77.4845 Y108.8189
G01 X77.5213 Y108.7905
G01 X77.5593 Y108.7639
G01 X77.5986 Y108.7390
G01 X77.6390 Y108.7160
G01 X77.6803 Y108.6949
G01 X77.7227 Y108.6757
G01 X77.7659 Y108.6585
G01 X77.8098 Y108.6434
G01 X77.8544 Y108.6303
G01 X77.8995 Y108.6193
G01 X77.9451 Y108.6104
G01 X77.9911 Y108.6036
G01 X78.0373 Y108.5990
G01 X78.0837 Y108.5965
G01 X78.1302 Y108.5962
G01 X78.1767 Y108.5980
G01 X78.2229 Y108.6020
G01 X78.2690 Y108.6082
G01 X78.3147 Y108.6164
G01 X78.3600 Y108.6268
G01 X78.4048 Y108.6393
G01 X81.8135 Y109.6760
G01 X80.7515 Y107.1832
G01 X79.6958 Y104.6878
G01 X78.6462 Y102.1898
G01 X77.6030 Y99.6891
G01 X76.5659 Y97.1859
G01 X75.5352 Y94.6801
G01 X74.5107 Y92.1717
G01 X73.4924 Y89.6607
G01 X72.4843 Y87.2257
G01 X71.4602 Y84.7972
G01 X70.4203 Y82.3755
G01 X69.3646 Y79.9607
G01 X69.3382
G01 X70.0597 Y83.1743
G01 X70.7996 Y86.3837
G01 X71.5578 Y89.5888
G01 X72.3343 Y92.7896
G01 X72.7912 Y94.7199
G01 X73.2309 Y96.6542
G01 X73.6533 Y98.5924
G01 X74.0584 Y100.5343
G01 X74.0605 Y100.6262
G01 X74.0542 Y100.7179
G01 X74.0395 Y100.8087
G01 X74.0165 Y100.8977
G01 X73.9855 Y100.9842
G01 X73.9466 Y101.0675
G01 X73.9003 Y101.1469
G01 X73.8468 Y101.2218
G01 X73.7867 Y101.2913
G01 X73.7205 Y101.3551
G01 X73.6487 Y101.4125
G01 X73.5719 Y101.4631
G01 X73.4908 Y101.5064
G01 X73.4060 Y101.5421
G01 X73.3184 Y101.5698
G01 X73.2286 Y101.5894
G01 X73.1373 Y101.6006
G01 X73.0454 Y101.6035
G01 X72.9536 Y101.5978
G01 X72.8628 Y101.5838
G01 X68.3012 Y100.6624
G01 X70.4509 Y105.1687
G01 X72.5821 Y109.6838
G01 X74.6947 Y114.2076
G01 X76.7888 Y118.7400
G01 X77.6310 Y120.5295
G01 X78.4830 Y122.3143
G01 X79.3448 Y124.0944
G01 X80.2164 Y125.8697
G01 X80.3227
G01 X80.1485 Y124.8935
G01 X79.9657 Y123.9189
G01 X79.7743 Y122.9459
G01 X79.5743 Y121.9746
G01 X79.3858 Y122.0507
M107
G00 Z2.0000


;No. 6: Helical drill 8
G00 X27.8999 Y167.1761 Z2.0000
G00 Z0.5000
M106 S240
G01 X27.8988 Y167.1332 Z0.4877 F400
G01 X27.8958 Y167.0905 Z0.4754
G01 X27.8907 Y167.0480 Z0.4631
G01 X27.8836 Y167.0057 Z0.4508
G01 X27.8745 Y166.9639 Z0.4384
G01 X27.8634 Y166.9225 Z0.4261
G01 X27.8504 Y166.8817 Z0.4138
G01 X27.8354 Y166.8416 Z0.4015
G01 X27.8185 Y166.8022 Z0.3892
G01 X27.7998 Y166.7636 Z0.3769
G01 X27.7793 Y166.7261 Z0.3646
G01 X27.7570 Y166.6895 Z0.3523
G01 X27.7330 Y166.6540 Z0.3400
G01 X27.7073 Y166.6197 Z0.3277
G01 X27.6800 Y166.5867 Z0.3153
G01 X27.6512 Y166.5550 Z0.3030
G01 X27.6209 Y166.5247 Z0.2907
G01 X27.5892 Y166.4959 Z0.2784
G01 X27.5562 Y166.4686 Z0.2661
G01 X27.5219 Y166.4429 Z0.2538
G01 X27.4864 Y166.4189 Z0.2415
G01 X27.4499 Y166.3966 Z0.2292
G01 X27.4123 Y166.3761 Z0.2169
G01 X27.3737 Y166.3574 Z0.2045
G01 X27.3344 Y166.3405 Z0.1922
G01 X27.2942 Y166.3256 Z0.1799
G01 X27.2534 Y166.3125 Z0.1676
G01 X27.2121 Y166.3014 Z0.1553
G01 X27.1702 Y166.2923 Z0.1430
G01 X27.1280 Y166.2852 Z0.1307
G01 X27.0854 Y166.2801 Z0.1184
G01 X27.0427 Y166.2771 Z0.1061
G01 X26.9999 Y166.2761 Z0.0938
G01 X26.9570 Y166.2771 Z0.0814
G01 X26.9143 Y166.2801 Z0.0691
G01 X26.8718 Y166.2852 Z0.0568
G01 X26.8295 Y166.2923 Z0.0445
G01 X26.7877 Y166.3014 Z0.0322
G01 X26.7463 Y166.3125 Z0.0199
G01 X26.7055 Y166.3256 Z0.0076
G01 X26.6654 Y166.3405 Z-0.0047
G01 X26.6260 Y166.3574 Z-0.0170
G01 X26.5875 Y166.3761 Z-0.0294
G01 X26.5499 Y166.3966 Z-0.0417
G01 X26.5133 Y166.4189 Z-0.0540
G01 X26.4778 Y166.4429 Z-0.0663
G01 X26.4435 Y166.4686 Z-0.0786
G01 X26.4105 Y166.4959 Z-0.0909
G01 X26.3788 Y166.5247 Z-0.1032
G01 X26.3485 Y166.5550 Z-0.1155
G01 X26.3197 Y166.5867 Z-0.1278
G01 X26.2924 Y166.6197 Z-0.1402
G01 X26.2667 Y166.6540 Z-0.1525
G01 X26.2427 Y166.6895 Z-0.1648
G01 X26.2204 Y166.7261 Z-0.1771
G01 X26.1999 Y166.7636 Z-0.1894
G01 X26.1812 Y166.8022 Z-0.2017
G01 X26.1643 Y166.8416 Z-0.2140
G01 X26.1494 Y166.8817 Z-0.2263
G01 X26.1363 Y166.9225 Z-0.2386
G01 X26.1252 Y166.9639 Z-0.2509
G01 X26.1161 Y167.0057 Z-0.2633
G01 X26.1090 Y167.0480 Z-0.2756
G01 X26.1039 Y167.0905 Z-0.2879
G01 X26.1009 Y167.1332 Z-0.3002
G01 X26.0999 Y167.1761 Z-0.3125
G01 X26.1009 Y167.2189 Z-0.3248
G01 X26.1039 Y167.2616 Z-0.3371
G01 X26.1090 Y167.3041 Z-0.3494
G01 X26.1161 Y167.3464 Z-0.3617
G01 X26.1252 Y167.3882 Z-0.3741
G01 X26.1363 Y167.4296 Z-0.3864
G01 X26.1494 Y167.4704 Z-0.3987
G01 X26.1643 Y167.5105 Z-0.4110
G01 X26.1812 Y167.5499 Z-0.4233
G01 X26.1999 Y167.5885 Z-0.4356
G01 X26.2204 Y167.6261 Z-0.4479
G01 X26.2427 Y167.6626 Z-0.4602
G01 X26.2667 Y167.6981 Z-0.4725
G01 X26.2924 Y167.7324 Z-0.4848
G01 X26.3197 Y167.7654 Z-0.4972
G01 X26.3485 Y167.7971 Z-0.5095
G01 X26.3788 Y167.8274 Z-0.5218
G01 X26.4105 Y167.8562 Z-0.5341
G01 X26.4435 Y167.8835 Z-0.5464
G01 X26.4778 Y167.9092 Z-0.5587
G01 X26.5133 Y167.9332 Z-0.5710
G01 X26.5499 Y167.9555 Z-0.5833
G01 X26.5875 Y167.9760 Z-0.5956
G01 X26.6260 Y167.9947 Z-0.6080
G01 X26.6654 Y168.0116 Z-0.6203
G01 X26.7055 Y168.0266 Z-0.6326
G01 X26.7463 Y168.0396 Z-0.6449
