;Project SchildNeu3a
;Created by Estlcam version 11 build 11,236
;Machining time about 00:27:14 hours

G90
M03 S18000
G00 X0.0000 Y0.0000 Z0.0000
G00 Z2.0000


;No. 1: Helical drill 7
G00 X27.9000 Y27.7590
G00 Z0.5000
M106 S240
G01 X27.8990 Y27.7162 Z0.4877 F400 S18000
G01 X27.8959 Y27.6735 Z0.4754
G01 X27.8908 Y27.6309 Z0.4631
G01 X27.8837 Y27.5887 Z0.4508
G01 X27.8746 Y27.5468 Z0.4384
G01 X27.8636 Y27.5055 Z0.4261
G01 X27.8505 Y27.4646 Z0.4138
G01 X27.8355 Y27.4245 Z0.4015
G01 X27.8187 Y27.3851 Z0.3892
G01 X27.8000 Y27.3466 Z0.3769
G01 X27.7794 Y27.3090 Z0.3646
G01 X27.7571 Y27.2724 Z0.3523
G01 X27.7331 Y27.2370 Z0.3400
G01 X27.7075 Y27.2027 Z0.3277
G01 X27.6802 Y27.1696 Z0.3153
G01 X27.6514 Y27.1379 Z0.3030
G01 X27.6211 Y27.1077 Z0.2907
G01 X27.5894 Y27.0788 Z0.2784
G01 X27.5564 Y27.0516 Z0.2661
G01 X27.5221 Y27.0259 Z0.2538
G01 X27.4866 Y27.0019 Z0.2415
G01 X27.4500 Y26.9796 Z0.2292
G01 X27.4124 Y26.9591 Z0.2169
G01 X27.3739 Y26.9403 Z0.2045
G01 X27.3345 Y26.9235 Z0.1922
G01 X27.2944 Y26.9085 Z0.1799
G01 X27.2536 Y26.8955 Z0.1676
G01 X27.2122 Y26.8844 Z0.1553
G01 X27.1703 Y26.8753 Z0.1430
G01 X27.1281 Y26.8682 Z0.1307
G01 X27.0856 Y26.8631 Z0.1184
G01 X27.0428 Y26.8600 Z0.1061
G01 X27.0000 Y26.8590 Z0.0938
G01 X26.9572 Y26.8600 Z0.0814
G01 X26.9145 Y26.8631 Z0.0691
G01 X26.8719 Y26.8682 Z0.0568
G01 X26.8297 Y26.8753 Z0.0445
G01 X26.7878 Y26.8844 Z0.0322
G01 X26.7465 Y26.8955 Z0.0199
G01 X26.7056 Y26.9085 Z0.0076
G01 X26.6655 Y26.9235 Z-0.0047
G01 X26.6261 Y26.9403 Z-0.0170
G01 X26.5876 Y26.9591 Z-0.0294
G01 X26.5500 Y26.9796 Z-0.0417
G01 X26.5134 Y27.0019 Z-0.0540
G01 X26.4780 Y27.0259 Z-0.0663
G01 X26.4437 Y27.0516 Z-0.0786
G01 X26.4106 Y27.0788 Z-0.0909
G01 X26.3789 Y27.1077 Z-0.1032
G01 X26.3486 Y27.1379 Z-0.1155
G01 X26.3198 Y27.1696 Z-0.1278
G01 X26.2926 Y27.2027 Z-0.1402
G01 X26.2669 Y27.2370 Z-0.1525
G01 X26.2429 Y27.2724 Z-0.1648
G01 X26.2206 Y27.3090 Z-0.1771
G01 X26.2001 Y27.3466 Z-0.1894
G01 X26.1813 Y27.3851 Z-0.2017
G01 X26.1645 Y27.4245 Z-0.2140
G01 X26.1495 Y27.4646 Z-0.2263
G01 X26.1365 Y27.5055 Z-0.2386
G01 X26.1254 Y27.5468 Z-0.2509
G01 X26.1163 Y27.5887 Z-0.2633
G01 X26.1092 Y27.6309 Z-0.2756
G01 X26.1041 Y27.6735 Z-0.2879
G01 X26.1010 Y27.7162 Z-0.3002
G01 X26.1000 Y27.7590 Z-0.3125
G01 X26.1010 Y27.8018 Z-0.3248
G01 X26.1041 Y27.8446 Z-0.3371
G01 X26.1092 Y27.8871 Z-0.3494
G01 X26.1163 Y27.9293 Z-0.3617
G01 X26.1254 Y27.9712 Z-0.3741
G01 X26.1365 Y28.0126 Z-0.3864
G01 X26.1495 Y28.0534 Z-0.3987
G01 X26.1645 Y28.0935 Z-0.4110
G01 X26.1813 Y28.1329 Z-0.4233
G01 X26.2001 Y28.1714 Z-0.4356
G01 X26.2206 Y28.2090 Z-0.4479
G01 X26.2429 Y28.2456 Z-0.4602
G01 X26.2669 Y28.2811 Z-0.4725
G01 X26.2926 Y28.3154 Z-0.4848
G01 X26.3198 Y28.3484 Z-0.4972
G01 X26.3486 Y28.3801 Z-0.5095
G01 X26.3789 Y28.4104 Z-0.5218
G01 X26.4106 Y28.4392 Z-0.5341
G01 X26.4437 Y28.4665 Z-0.5464
G01 X26.4780 Y28.4921 Z-0.5587
G01 X26.5134 Y28.5161 Z-0.5710
G01 X26.5500 Y28.5384 Z-0.5833
G01 X26.5876 Y28.5590 Z-0.5956
G01 X26.6261 Y28.5777 Z-0.6080
G01 X26.6655 Y28.5945 Z-0.6203
G01 X26.7056 Y28.6095 Z-0.6326
G01 X26.7465 Y28.6226 Z-0.6449
G01 X26.7878 Y28.6336 Z-0.6572
G01 X26.8297 Y28.6427 Z-0.6695
G01 X26.8719 Y28.6499 Z-0.6818
G01 X26.9145 Y28.6549 Z-0.6941
G01 X26.9572 Y28.6580 Z-0.7064
G01 X27.0000 Y28.6590 Z-0.7188
G01 X27.0428 Y28.6580 Z-0.7311
G01 X27.0856 Y28.6549 Z-0.7434
G01 X27.1281 Y28.6499 Z-0.7557
G01 X27.1703 Y28.6427 Z-0.7680
G01 X27.2122 Y28.6336 Z-0.7803
G01 X27.2536 Y28.6226 Z-0.7926
G01 X27.2944 Y28.6095 Z-0.8049
G01 X27.3345 Y28.5945 Z-0.8172
G01 X27.3739 Y28.5777 Z-0.8295
G01 X27.4124 Y28.5590 Z-0.8419
G01 X27.4500 Y28.5384 Z-0.8542
G01 X27.4866 Y28.5161 Z-0.8665
G01 X27.5221 Y28.4921 Z-0.8788
G01 X27.5564 Y28.4665 Z-0.8911
G01 X27.5894 Y28.4392 Z-0.9034
G01 X27.6211 Y28.4104 Z-0.9157
G01 X27.6514 Y28.3801 Z-0.9280
G01 X27.6802 Y28.3484 Z-0.9403
G01 X27.7075 Y28.3154 Z-0.9527
G01 X27.7331 Y28.2811 Z-0.9650
G01 X27.7571 Y28.2456 Z-0.9773
G01 X27.7794 Y28.2090 Z-0.9896
G01 X27.8000 Y28.1714 Z-1.0019
G01 X27.8187 Y28.1329 Z-1.0142
G01 X27.8355 Y28.0935 Z-1.0265
G01 X27.8505 Y28.0534 Z-1.0388
G01 X27.8636 Y28.0126 Z-1.0511
G01 X27.8746 Y27.9712 Z-1.0634
G01 X27.8837 Y27.9293 Z-1.0758
G01 X27.8908 Y27.8871 Z-1.0881
G01 X27.8959 Y27.8446 Z-1.1004
G01 X27.8990 Y27.8018 Z-1.1127
G01 X27.9000 Y27.7590 Z-1.1250
G01 X27.8990 Y27.7162
G01 X27.8959 Y27.6735
G01 X27.8908 Y27.6309
G01 X27.8837 Y27.5887
G01 X27.8746 Y27.5468
G01 X27.8636 Y27.5055
G01 X27.8505 Y27.4646
G01 X27.8355 Y27.4245
G01 X27.8187 Y27.3851
G01 X27.8000 Y27.3466
G01 X27.7794 Y27.3090
G01 X27.7571 Y27.2724
G01 X27.7331 Y27.2370
G01 X27.7075 Y27.2027
G01 X27.6802 Y27.1696
G01 X27.6514 Y27.1379
G01 X27.6211 Y27.1077
G01 X27.5894 Y27.0788
G01 X27.5564 Y27.0516
G01 X27.5221 Y27.0259
G01 X27.4866 Y27.0019
G01 X27.4500 Y26.9796
G01 X27.4124 Y26.9591
G01 X27.3739 Y26.9403
G01 X27.3345 Y26.9235
G01 X27.2944 Y26.9085
G01 X27.2536 Y26.8955
G01 X27.2122 Y26.8844
G01 X27.1703 Y26.8753
G01 X27.1281 Y26.8682
G01 X27.0856 Y26.8631
G01 X27.0428 Y26.8600
G01 X27.0000 Y26.8590
G01 X26.9572 Y26.8600
G01 X26.9145 Y26.8631
G01 X26.8719 Y26.8682
G01 X26.8297 Y26.8753
G01 X26.7878 Y26.8844
G01 X26.7465 Y26.8955
G01 X26.7056 Y26.9085
G01 X26.6655 Y26.9235
G01 X26.6261 Y26.9403
G01 X26.5876 Y26.9591
G01 X26.5500 Y26.9796
G01 X26.5134 Y27.0019
G01 X26.4780 Y27.0259
G01 X26.4437 Y27.0516
G01 X26.4106 Y27.0788
G01 X26.3789 Y27.1077
G01 X26.3486 Y27.1379
G01 X26.3198 Y27.1696
G01 X26.2926 Y27.2027
G01 X26.2669 Y27.2370
G01 X26.2429 Y27.2724
G01 X26.2206 Y27.3090
G01 X26.2001 Y27.3466
G01 X26.1813 Y27.3851
G01 X26.1645 Y27.4245
G01 X26.1495 Y27.4646
G01 X26.1365 Y27.5055
G01 X26.1254 Y27.5468
G01 X26.1163 Y27.5887
G01 X26.1092 Y27.6309
G01 X26.1041 Y27.6735
G01 X26.1010 Y27.7162
G01 X26.1000 Y27.7590
G01 X26.1010 Y27.8018
G01 X26.1041 Y27.8446
G01 X26.1092 Y27.8871
G01 X26.1163 Y27.9293
G01 X26.1254 Y27.9712
G01 X26.1365 Y28.0126
G01 X26.1495 Y28.0534
G01 X26.1645 Y28.0935
G01 X26.1813 Y28.1329
G01 X26.2001 Y28.1714
G01 X26.2206 Y28.2090
G01 X26.2429 Y28.2456
G01 X26.2669 Y28.2811
G01 X26.2926 Y28.3154
G01 X26.3198 Y28.3484
G01 X26.3486 Y28.3801
G01 X26.3789 Y28.4104
G01 X26.4106 Y28.4392
G01 X26.4437 Y28.4665
G01 X26.4780 Y28.4921
G01 X26.5134 Y28.5161
G01 X26.5500 Y28.5384
G01 X26.5876 Y28.5590
G01 X26.6261 Y28.5777
G01 X26.6655 Y28.5945
G01 X26.7056 Y28.6095
G01 X26.7465 Y28.6226
G01 X26.7878 Y28.6336
G01 X26.8297 Y28.6427
G01 X26.8719 Y28.6499
G01 X26.9145 Y28.6549
G01 X26.9572 Y28.6580
G01 X27.0000 Y28.6590
G01 X27.0428 Y28.6580
G01 X27.0856 Y28.6549
G01 X27.1281 Y28.6499
G01 X27.1703 Y28.6427
G01 X27.2122 Y28.6336
G01 X27.2536 Y28.6226
G01 X27.2944 Y28.6095
G01 X27.3345 Y28.5945
G01 X27.3739 Y28.5777
G01 X27.4124 Y28.5590
G01 X27.4500 Y28.5384
G01 X27.4866 Y28.5161
G01 X27.5221 Y28.4921
G01 X27.5564 Y28.4665
G01 X27.5894 Y28.4392
G01 X27.6211 Y28.4104
G01 X27.6514 Y28.3801
G01 X27.6802 Y28.3484
G01 X27.7075 Y28.3154
G01 X27.7331 Y28.2811
G01 X27.7571 Y28.2456
G01 X27.7794 Y28.2090
G01 X27.8000 Y28.1714
G01 X27.8187 Y28.1329
G01 X27.8355 Y28.0935
G01 X27.8505 Y28.0534
G01 X27.8636 Y28.0126
G01 X27.8746 Y27.9712
G01 X27.8837 Y27.9293
G01 X27.8908 Y27.8871
G01 X27.8959 Y27.8446
G01 X27.8990 Y27.8018
G01 X27.9000 Y27.7590
G01 X27.9076 Y27.7280 F1000
G01 X27.9140 Y27.6967
G01 X27.9194 Y27.6652
G01 X27.9237 Y27.6335
G01 X27.9268 Y27.6017
G01 X27.9289 Y27.5698
G01 X27.9299 Y27.5379
G01 X27.9297 Y27.5059
G01 X27.9285 Y27.4740
G01 X27.9261 Y27.4421
G01 X27.9227 Y27.4103
G01 X27.9181 Y27.3787
G01 X27.9084 Y27.3272
G01 X27.8961 Y27.2763
G01 X27.8812 Y27.2261
G01 X27.8637 Y27.1767
G01 X27.8436 Y27.1282
G01 X27.8211 Y27.0809
G01 X27.7962 Y27.0348
G01 X27.7690 Y26.9900
G01 X27.7370 Y26.9430
G01 X27.7026 Y26.8977
G01 X27.6659 Y26.8542
G01 X27.6271 Y26.8126
G01 X27.5862 Y26.7730
G01 X27.5433 Y26.7356
G01 X27.4985 Y26.7005
G01 X27.4521 Y26.6677
G01 X27.4002 Y26.6349
G01 X27.3467 Y26.6047
G01 X27.2917 Y26.5773
G01 X27.2354 Y26.5528
G01 X27.1779 Y26.5311
G01 X27.1195 Y26.5124
G01 X27.0601 Y26.4967
G01 X27.0000 Y26.4840
G01 X26.9349 Y26.4737
G01 X26.8693 Y26.4667
G01 X26.8035 Y26.4630
G01 X26.7376 Y26.4626
G01 X26.6717 Y26.4656
G01 X26.6061 Y26.4719
G01 X26.5409 Y26.4815
G01 X26.4762 Y26.4945
G01 X26.4079 Y26.5117
G01 X26.3405 Y26.5324
G01 X26.2743 Y26.5565
G01 X26.2094 Y26.5838
G01 X26.1459 Y26.6144
G01 X26.0841 Y26.6482
G01 X26.0240 Y26.6850
G01 X25.9659 Y26.7249
G01 X25.9123 Y26.7743
G01 X25.8613 Y26.8263
G01 X25.8129 Y26.8808
G01 X25.7673 Y26.9375
G01 X25.7245 Y26.9965
G01 X25.6847 Y27.0575
G01 X25.6479 Y27.1204
G01 X25.6142 Y27.1850
G01 X25.5877 Y27.2537
G01 X25.5646 Y27.3236
G01 X25.5450 Y27.3945
G01 X25.5289 Y27.4664
G01 X25.5163 Y27.5389
G01 X25.5073 Y27.6120
G01 X25.5018 Y27.6854
G01 X25.5000 Y27.7590
G01 X25.5018 Y27.8326
G01 X25.5073 Y27.9060
G01 X25.5163 Y27.9791
G01 X25.5289 Y28.0516
G01 X25.5450 Y28.1235
G01 X25.5646 Y28.1944
G01 X25.5877 Y28.2643
G01 X25.6142 Y28.3330
G01 X25.6441 Y28.4003
G01 X25.6772 Y28.4661
G01 X25.7134 Y28.5301
G01 X25.7528 Y28.5923
G01 X25.7952 Y28.6525
G01 X25.8405 Y28.7106
G01 X25.8886 Y28.7663
G01 X25.9394 Y28.8196
G01 X25.9927 Y28.8704
G01 X26.0484 Y28.9185
G01 X26.1065 Y28.9638
G01 X26.1667 Y29.0062
G01 X26.2289 Y29.0456
G01 X26.2929 Y29.0819
G01 X26.3587 Y29.1150
G01 X26.4260 Y29.1448
G01 X26.4947 Y29.1713
G01 X26.5646 Y29.1944
G01 X26.6355 Y29.2140
G01 X26.7074 Y29.2302
G01 X26.7799 Y29.2427
G01 X26.8530 Y29.2518
G01 X26.9264 Y29.2572
G01 X27.0000 Y29.2590
G01 X27.0736 Y29.2572
G01 X27.1470 Y29.2518
G01 X27.2201 Y29.2427
G01 X27.2926 Y29.2302
G01 X27.3645 Y29.2140
G01 X27.4354 Y29.1944
G01 X27.5053 Y29.1713
G01 X27.5740 Y29.1448
G01 X27.6413 Y29.1150
G01 X27.7071 Y29.0819
G01 X27.7711 Y29.0456
G01 X27.8333 Y29.0062
G01 X27.8935 Y28.9638
G01 X27.9516 Y28.9185
G01 X28.0073 Y28.8704
G01 X28.0606 Y28.8196
G01 X28.1114 Y28.7663
G01 X28.1595 Y28.7106
G01 X28.2048 Y28.6525
G01 X28.2472 Y28.5923
G01 X28.2866 Y28.5301
G01 X28.3229 Y28.4661
G01 X28.3560 Y28.4003
G01 X28.3858 Y28.3330
G01 X28.4123 Y28.2643
G01 X28.4354 Y28.1944
G01 X28.4550 Y28.1235
G01 X28.4712 Y28.0516
G01 X28.4837 Y27.9791
G01 X28.4928 Y27.9060
G01 X28.4982 Y27.8326
G01 X28.5000 Y27.7590
G01 X28.4958 Y27.6469
G01 X28.4832 Y27.5355
G01 X28.4624 Y27.4252
G01 X28.4333 Y27.3169
G01 X28.3963 Y27.2110
G01 X28.3514 Y27.1082
G01 X28.2990 Y27.0090
G01 X28.2393 Y26.9140
G01 X28.1727 Y26.8238
G01 X28.0996 Y26.7388
G01 X28.0202 Y26.6595
G01 X27.9352 Y26.5863
G01 X27.8450 Y26.5197
G01 X27.7500 Y26.4600
G01 X27.6508 Y26.4076
G01 X27.5480 Y26.3627
G01 X27.4421 Y26.3257
G01 X27.3338 Y26.2967
G01 X27.2236 Y26.2758
G01 X27.1121 Y26.2632
G01 X27.0000 Y26.2590
G01 X26.8879 Y26.2632
G01 X26.7765 Y26.2758
G01 X26.6662 Y26.2967
G01 X26.5579 Y26.3257
G01 X26.4520 Y26.3627
G01 X26.3492 Y26.4076
G01 X26.2500 Y26.4600
G01 X26.1550 Y26.5197
G01 X26.0648 Y26.5863
G01 X25.9798 Y26.6595
G01 X25.9005 Y26.7388
G01 X25.8273 Y26.8238
G01 X25.7607 Y26.9140
G01 X25.7010 Y27.0090
G01 X25.6486 Y27.1082
G01 X25.6037 Y27.2110
G01 X25.5667 Y27.3169
G01 X25.5376 Y27.4252
G01 X25.5168 Y27.5355
G01 X25.5042 Y27.6469
G01 X25.5000 Y27.7590
G01 X25.5042 Y27.8711
G01 X25.5168 Y27.9826
G01 X25.5376 Y28.0928
G01 X25.5667 Y28.2011
G01 X25.6037 Y28.3070
G01 X25.6486 Y28.4098
G01 X25.7010 Y28.5090
G01 X25.7607 Y28.6040
G01 X25.8273 Y28.6942
G01 X25.9005 Y28.7792
G01 X25.9798 Y28.8586
G01 X26.0648 Y28.9317
G01 X26.1550 Y28.9983
G01 X26.2500 Y29.0580
G01 X26.3492 Y29.1104
G01 X26.4520 Y29.1553
G01 X26.5579 Y29.1923
G01 X26.6662 Y29.2214
G01 X26.7765 Y29.2422
G01 X26.8879 Y29.2548
G01 X27.0000 Y29.2590
G01 X27.1121 Y29.2548
G01 X27.2236 Y29.2422
G01 X27.3338 Y29.2214
G01 X27.4421 Y29.1923
G01 X27.5480 Y29.1553
G01 X27.6508 Y29.1104
G01 X27.7500 Y29.0580
G01 X27.8450 Y28.9983
G01 X27.9352 Y28.9317
G01 X28.0202 Y28.8586
G01 X28.0996 Y28.7792
G01 X28.1727 Y28.6942
G01 X28.2393 Y28.6040
G01 X28.2990 Y28.5090
G01 X28.3514 Y28.4098
G01 X28.3963 Y28.3070
G01 X28.4333 Y28.2011
G01 X28.4624 Y28.0928
G01 X28.4832 Y27.9826
G01 X28.4958 Y27.8711
G01 X28.5000 Y27.7590
G01 X28.4954 Y27.6544
G01 X28.4817 Y27.5506
G01 X28.4591 Y27.4484
G01 X28.4276 Y27.3486
G01 X28.3875 Y27.2519
G01 X28.3392 Y27.1590
G01 X28.2830 Y27.0707
G01 X28.2192 Y26.9877
G01 X28.1485 Y26.9105
G01 X28.0713 Y26.8398
G01 X27.9883 Y26.7760
G01 X27.9000 Y26.7198
G01 X27.8071 Y26.6715
G01 X27.7104 Y26.6314
G01 X27.6106 Y26.5999
G01 X27.5084 Y26.5773
G01 X27.4046 Y26.5636
G01 X27.3000 Y26.5590
G01 X27.1954 Y26.5636
G01 X27.0916 Y26.5773
G01 X26.9894 Y26.5999
G01 X26.8896 Y26.6314
G01 X26.7929 Y26.6715
G01 X26.7000 Y26.7198
G01 X26.6117 Y26.7760
G01 X26.5287 Y26.8398
G01 X26.4515 Y26.9105
G01 X26.3808 Y26.9877
G01 X26.3170 Y27.0707
G01 X26.2608 Y27.1590
G01 X26.2124 Y27.2519
G01 X26.1724 Y27.3486
G01 X26.1409 Y27.4484
G01 X26.1182 Y27.5506
G01 X26.1046 Y27.6544
G01 X26.1000 Y27.7590
G01 X26.1011 Y27.8032
G01 X26.1043 Y27.8472
G01 X26.1098 Y27.8911
G01 X26.1173 Y27.9346
G01 X26.1270 Y27.9777
G01 X26.1388 Y28.0203
G01 X26.1526 Y28.0622
G01 X26.1685 Y28.1034
G01 X26.1864 Y28.1438
G01 X26.2063 Y28.1833
G01 X26.2281 Y28.2217
G01 X26.2517 Y28.2590
G01 X26.2771 Y28.2951
G01 X26.3043 Y28.3300
G01 X26.3332 Y28.3634
G01 X26.3636 Y28.3954
G01 X26.3956 Y28.4259
G01 X26.4291 Y28.4547
G01 X26.4639 Y28.4819
G01 X26.5000 Y28.5073
G01 X26.5373 Y28.5310
G01 X26.5758 Y28.5527
G01 X26.6152 Y28.5726
G01 X26.6556 Y28.5905
G01 X26.6968 Y28.6064
G01 X26.7388 Y28.6203
G01 X26.7813 Y28.6320
G01 X26.8244 Y28.6417
G01 X26.8680 Y28.6493
G01 X26.9118 Y28.6547
G01 X26.9558 Y28.6579
G01 X27.0000 Y28.6590
G01 X27.0442 Y28.6579
G01 X27.0882 Y28.6547
G01 X27.1321 Y28.6493
G01 X27.1756 Y28.6417
G01 X27.2187 Y28.6320
G01 X27.2613 Y28.6203
G01 X27.3032 Y28.6064
G01 X27.3444 Y28.5905
G01 X27.3848 Y28.5726
G01 X27.4243 Y28.5527
G01 X27.4627 Y28.5310
G01 X27.5000 Y28.5073
G01 X27.5361 Y28.4819
G01 X27.5710 Y28.4547
G01 X27.6044 Y28.4259
G01 X27.6364 Y28.3954
G01 X27.6669 Y28.3634
G01 X27.6957 Y28.3300
G01 X27.7229 Y28.2951
G01 X27.7483 Y28.2590
G01 X27.7720 Y28.2217
G01 X27.7937 Y28.1833
G01 X27.8136 Y28.1438
G01 X27.8315 Y28.1034
G01 X27.8474 Y28.0622
G01 X27.8613 Y28.0203
G01 X27.8730 Y27.9777
G01 X27.8827 Y27.9346
G01 X27.8903 Y27.8911
G01 X27.8957 Y27.8472
G01 X27.8989 Y27.8032
G01 X27.9000 Y27.7590
M107
M106 S240
G01 X27.8990 Y27.7162 Z-1.1373 F400
G01 X27.8959 Y27.6735 Z-1.1496
G01 X27.8908 Y27.6309 Z-1.1619
G01 X27.8837 Y27.5887 Z-1.1742
G01 X27.8746 Y27.5468 Z-1.1866
G01 X27.8636 Y27.5055 Z-1.1989
G01 X27.8505 Y27.4646 Z-1.2112
G01 X27.8355 Y27.4245 Z-1.2235
G01 X27.8187 Y27.3851 Z-1.2358
G01 X27.8000 Y27.3466 Z-1.2481
G01 X27.7794 Y27.3090 Z-1.2604
G01 X27.7571 Y27.2724 Z-1.2727
G01 X27.7331 Y27.2370 Z-1.2850
G01 X27.7075 Y27.2027 Z-1.2973
G01 X27.6802 Y27.1696 Z-1.3097
G01 X27.6514 Y27.1379 Z-1.3220
G01 X27.6211 Y27.1077 Z-1.3343
G01 X27.5894 Y27.0788 Z-1.3466
G01 X27.5564 Y27.0516 Z-1.3589
G01 X27.5221 Y27.0259 Z-1.3712
G01 X27.4866 Y27.0019 Z-1.3835
G01 X27.4500 Y26.9796 Z-1.3958
G01 X27.4124 Y26.9591 Z-1.4081
G01 X27.3739 Y26.9403 Z-1.4205
G01 X27.3345 Y26.9235 Z-1.4328
G01 X27.2944 Y26.9085 Z-1.4451
G01 X27.2536 Y26.8955 Z-1.4574
G01 X27.2122 Y26.8844 Z-1.4697
G01 X27.1703 Y26.8753 Z-1.4820
G01 X27.1281 Y26.8682 Z-1.4943
G01 X27.0856 Y26.8631 Z-1.5066
G01 X27.0428 Y26.8600 Z-1.5189
G01 X27.0000 Y26.8590 Z-1.5313
G01 X26.9572 Y26.8600 Z-1.5436
G01 X26.9145 Y26.8631 Z-1.5559
G01 X26.8719 Y26.8682 Z-1.5682
G01 X26.8297 Y26.8753 Z-1.5805
G01 X26.7878 Y26.8844 Z-1.5928
G01 X26.7465 Y26.8955 Z-1.6051
G01 X26.7056 Y26.9085 Z-1.6174
G01 X26.6655 Y26.9235 Z-1.6297
G01 X26.6261 Y26.9403 Z-1.6420
G01 X26.5876 Y26.9591 Z-1.6544
G01 X26.5500 Y26.9796 Z-1.6667
G01 X26.5134 Y27.0019 Z-1.6790
G01 X26.4780 Y27.0259 Z-1.6913
G01 X26.4437 Y27.0516 Z-1.7036
G01 X26.4106 Y27.0788 Z-1.7159
G01 X26.3789 Y27.1077 Z-1.7282
G01 X26.3486 Y27.1379 Z-1.7405
G01 X26.3198 Y27.1696 Z-1.7528
G01 X26.2926 Y27.2027 Z-1.7652
G01 X26.2669 Y27.2370 Z-1.7775
G01 X26.2429 Y27.2724 Z-1.7898
G01 X26.2206 Y27.3090 Z-1.8021
G01 X26.2001 Y27.3466 Z-1.8144
G01 X26.1813 Y27.3851 Z-1.8267
G01 X26.1645 Y27.4245 Z-1.8390
G01 X26.1495 Y27.4646 Z-1.8513
G01 X26.1365 Y27.5055 Z-1.8636
G01 X26.1254 Y27.5468 Z-1.8759
G01 X26.1163 Y27.5887 Z-1.8883
G01 X26.1092 Y27.6309 Z-1.9006
G01 X26.1041 Y27.6735 Z-1.9129
G01 X26.1010 Y27.7162 Z-1.9252
G01 X26.1000 Y27.7590 Z-1.9375
G01 X26.1010 Y27.8018 Z-1.9498
G01 X26.1041 Y27.8446 Z-1.9621
G01 X26.1092 Y27.8871 Z-1.9744
G01 X26.1163 Y27.9293 Z-1.9867
G01 X26.1254 Y27.9712 Z-1.9991
G01 X26.1365 Y28.0126 Z-2.0114
G01 X26.1495 Y28.0534 Z-2.0237
G01 X26.1645 Y28.0935 Z-2.0360
G01 X26.1813 Y28.1329 Z-2.0483
G01 X26.2001 Y28.1714 Z-2.0606
G01 X26.2206 Y28.2090 Z-2.0729
G01 X26.2429 Y28.2456 Z-2.0852
G01 X26.2669 Y28.2811 Z-2.0975
G01 X26.2926 Y28.3154 Z-2.1098
G01 X26.3198 Y28.3484 Z-2.1222
G01 X26.3486 Y28.3801 Z-2.1345
G01 X26.3789 Y28.4104 Z-2.1468
G01 X26.4106 Y28.4392 Z-2.1591
G01 X26.4437 Y28.4665 Z-2.1714
G01 X26.4780 Y28.4921 Z-2.1837
G01 X26.5134 Y28.5161 Z-2.1960
G01 X26.5500 Y28.5384 Z-2.2083
G01 X26.5876 Y28.5590 Z-2.2206
G01 X26.6261 Y28.5777 Z-2.2330
G01 X26.6655 Y28.5945 Z-2.2453
G01 X26.7056 Y28.6095 Z-2.2576
G01 X26.7465 Y28.6226 Z-2.2699
G01 X26.7878 Y28.6336 Z-2.2822
G01 X26.8297 Y28.6427 Z-2.2945
G01 X26.8719 Y28.6499 Z-2.3068
G01 X26.9145 Y28.6549 Z-2.3191
G01 X26.9572 Y28.6580 Z-2.3314
G01 X27.0000 Y28.6590 Z-2.3438
G01 X27.0428 Y28.6580 Z-2.3561
G01 X27.0856 Y28.6549 Z-2.3684
G01 X27.1281 Y28.6499 Z-2.3807
G01 X27.1703 Y28.6427 Z-2.3930
G01 X27.2122 Y28.6336 Z-2.4053
G01 X27.2536 Y28.6226 Z-2.4176
G01 X27.2944 Y28.6095 Z-2.4299
G01 X27.3345 Y28.5945 Z-2.4422
G01 X27.3739 Y28.5777 Z-2.4545
G01 X27.4124 Y28.5590 Z-2.4669
G01 X27.4500 Y28.5384 Z-2.4792
G01 X27.4866 Y28.5161 Z-2.4915
G01 X27.5221 Y28.4921 Z-2.5038
G01 X27.5564 Y28.4665 Z-2.5161
G01 X27.5894 Y28.4392 Z-2.5284
G01 X27.6211 Y28.4104 Z-2.5407
G01 X27.6514 Y28.3801 Z-2.5530
G01 X27.6802 Y28.3484 Z-2.5653
G01 X27.7075 Y28.3154 Z-2.5777
G01 X27.7331 Y28.2811 Z-2.5900
G01 X27.7571 Y28.2456 Z-2.6023
G01 X27.7794 Y28.2090 Z-2.6146
G01 X27.8000 Y28.1714 Z-2.6269
G01 X27.8187 Y28.1329 Z-2.6392
G01 X27.8355 Y28.0935 Z-2.6515
G01 X27.8505 Y28.0534 Z-2.6638
G01 X27.8636 Y28.0126 Z-2.6761
G01 X27.8746 Y27.9712 Z-2.6884
G01 X27.8837 Y27.9293 Z-2.7008
G01 X27.8908 Y27.8871 Z-2.7131
G01 X27.8959 Y27.8446 Z-2.7254
G01 X27.8990 Y27.8018 Z-2.7377
G01 X27.9000 Y27.7590 Z-2.7500
G01 X27.8990 Y27.7162
G01 X27.8959 Y27.6735
G01 X27.8908 Y27.6309
G01 X27.8837 Y27.5887
G01 X27.8746 Y27.5468
G01 X27.8636 Y27.5055
G01 X27.8505 Y27.4646
G01 X27.8355 Y27.4245
G01 X27.8187 Y27.3851
G01 X27.8000 Y27.3466
G01 X27.7794 Y27.3090
G01 X27.7571 Y27.2724
G01 X27.7331 Y27.2370
G01 X27.7075 Y27.2027
G01 X27.6802 Y27.1696
G01 X27.6514 Y27.1379
G01 X27.6211 Y27.1077
G01 X27.5894 Y27.0788
G01 X27.5564 Y27.0516
G01 X27.5221 Y27.0259
G01 X27.4866 Y27.0019
G01 X27.4500 Y26.9796
G01 X27.4124 Y26.9591
G01 X27.3739 Y26.9403
G01 X27.3345 Y26.9235
G01 X27.2944 Y26.9085
G01 X27.2536 Y26.8955
G01 X27.2122 Y26.8844
G01 X27.1703 Y26.8753
G01 X27.1281 Y26.8682
G01 X27.0856 Y26.8631
G01 X27.0428 Y26.8600
G01 X27.0000 Y26.8590
G01 X26.9572 Y26.8600
G01 X26.9145 Y26.8631
G01 X26.8719 Y26.8682
G01 X26.8297 Y26.8753
G01 X26.7878 Y26.8844
G01 X26.7465 Y26.8955
G01 X26.7056 Y26.9085
G01 X26.6655 Y26.9235
G01 X26.6261 Y26.9403
G01 X26.5876 Y26.9591
G01 X26.5500 Y26.9796
G01 X26.5134 Y27.0019
G01 X26.4780 Y27.0259
G01 X26.4437 Y27.0516
G01 X26.4106 Y27.0788
G01 X26.3789 Y27.1077
G01 X26.3486 Y27.1379
G01 X26.3198 Y27.1696
G01 X26.2926 Y27.2027
G01 X26.2669 Y27.2370
G01 X26.2429 Y27.2724
G01 X26.2206 Y27.3090
G01 X26.2001 Y27.3466
G01 X26.1813 Y27.3851
G01 X26.1645 Y27.4245
G01 X26.1495 Y27.4646
G01 X26.1365 Y27.5055
G01 X26.1254 Y27.5468
G01 X26.1163 Y27.5887
G01 X26.1092 Y27.6309
G01 X26.1041 Y27.6735
G01 X26.1010 Y27.7162
G01 X26.1000 Y27.7590
G01 X26.1010 Y27.8018
G01 X26.1041 Y27.8446
G01 X26.1092 Y27.8871
G01 X26.1163 Y27.9293
G01 X26.1254 Y27.9712
G01 X26.1365 Y28.0126
G01 X26.1495 Y28.0534
G01 X26.1645 Y28.0935
G01 X26.1813 Y28.1329
G01 X26.2001 Y28.1714
G01 X26.2206 Y28.2090
G01 X26.2429 Y28.2456
G01 X26.2669 Y28.2811
G01 X26.2926 Y28.3154
G01 X26.3198 Y28.3484
G01 X26.3486 Y28.3801
G01 X26.3789 Y28.4104
G01 X26.4106 Y28.4392
G01 X26.4437 Y28.4665
G01 X26.4780 Y28.4921
G01 X26.5134 Y28.5161
G01 X26.5500 Y28.5384
G01 X26.5876 Y28.5590
G01 X26.6261 Y28.5777
G01 X26.6655 Y28.5945
G01 X26.7056 Y28.6095
G01 X26.7465 Y28.6226
G01 X26.7878 Y28.6336
G01 X26.8297 Y28.6427
G01 X26.8719 Y28.6499
G01 X26.9145 Y28.6549
G01 X26.9572 Y28.6580
G01 X27.0000 Y28.6590
G01 X27.0428 Y28.6580
G01 X27.0856 Y28.6549
G01 X27.1281 Y28.6499
G01 X27.1703 Y28.6427
G01 X27.2122 Y28.6336
G01 X27.2536 Y28.6226
G01 X27.2944 Y28.6095
G01 X27.3345 Y28.5945
G01 X27.3739 Y28.5777
G01 X27.4124 Y28.5590
G01 X27.4500 Y28.5384
G01 X27.4866 Y28.5161
G01 X27.5221 Y28.4921
G01 X27.5564 Y28.4665
G01 X27.5894 Y28.4392
G01 X27.6211 Y28.4104
G01 X27.6514 Y28.3801
G01 X27.6802 Y28.3484
G01 X27.7075 Y28.3154
G01 X27.7331 Y28.2811
G01 X27.7571 Y28.2456
G01 X27.7794 Y28.2090
G01 X27.8000 Y28.1714
G01 X27.8187 Y28.1329
G01 X27.8355 Y28.0935
G01 X27.8505 Y28.0534
G01 X27.8636 Y28.0126
G01 X27.8746 Y27.9712
G01 X27.8837 Y27.9293
G01 X27.8908 Y27.8871
G01 X27.8959 Y27.8446
G01 X27.8990 Y27.8018
G01 X27.9000 Y27.7590
G01 X27.9076 Y27.7280 F1000
G01 X27.9140 Y27.6967
G01 X27.9194 Y27.6652
G01 X27.9237 Y27.6335
G01 X27.9268 Y27.6017
G01 X27.9289 Y27.5698
G01 X27.9299 Y27.5379
G01 X27.9297 Y27.5059
G01 X27.9285 Y27.4740
G01 X27.9261 Y27.4421
G01 X27.9227 Y27.4103
G01 X27.9181 Y27.3787
G01 X27.9084 Y27.3272
G01 X27.8961 Y27.2763
G01 X27.8812 Y27.2261
G01 X27.8637 Y27.1767
G01 X27.8436 Y27.1282
G01 X27.8211 Y27.0809
G01 X27.7962 Y27.0348
G01 X27.7690 Y26.9900
G01 X27.7370 Y26.9430
G01 X27.7026 Y26.8977
G01 X27.6659 Y26.8542
G01 X27.6271 Y26.8126
G01 X27.5862 Y26.7730
G01 X27.5433 Y26.7356
G01 X27.4985 Y26.7005
G01 X27.4521 Y26.6677
G01 X27.4002 Y26.6349
G01 X27.3467 Y26.6047
G01 X27.2917 Y26.5773
G01 X27.2354 Y26.5528
G01 X27.1779 Y26.5311
G01 X27.1195 Y26.5124
G01 X27.0601 Y26.4967
G01 X27.0000 Y26.4840
G01 X26.9349 Y26.4737
G01 X26.8693 Y26.4667
G01 X26.8035 Y26.4630
G01 X26.7376 Y26.4626
G01 X26.6717 Y26.4656
G01 X26.6061 Y26.4719
G01 X26.5409 Y26.4815
G01 X26.4762 Y26.4945
G01 X26.4079 Y26.5117
G01 X26.3405 Y26.5324
G01 X26.2743 Y26.5565
G01 X26.2094 Y26.5838
G01 X26.1459 Y26.6144
G01 X26.0841 Y26.6482
G01 X26.0240 Y26.6850
G01 X25.9659 Y26.7249
G01 X25.9123 Y26.7743
G01 X25.8613 Y26.8263
G01 X25.8129 Y26.8808
G01 X25.7673 Y26.9375
G01 X25.7245 Y26.9965
G01 X25.6847 Y27.0575
G01 X25.6479 Y27.1204
G01 X25.6142 Y27.1850
G01 X25.5877 Y27.2537
G01 X25.5646 Y27.3236
G01 X25.5450 Y27.3945
G01 X25.5289 Y27.4664
G01 X25.5163 Y27.5389
G01 X25.5073 Y27.6120
G01 X25.5018 Y27.6854
G01 X25.5000 Y27.7590
G01 X25.5018 Y27.8326
G01 X25.5073 Y27.9060
G01 X25.5163 Y27.9791
G01 X25.5289 Y28.0516
G01 X25.5450 Y28.1235
G01 X25.5646 Y28.1944
G01 X25.5877 Y28.2643
G01 X25.6142 Y28.3330
G01 X25.6441 Y28.4003
G01 X25.6772 Y28.4661
G01 X25.7134 Y28.5301
G01 X25.7528 Y28.5923
G01 X25.7952 Y28.6525
G01 X25.8405 Y28.7106
G01 X25.8886 Y28.7663
G01 X25.9394 Y28.8196
G01 X25.9927 Y28.8704
G01 X26.0484 Y28.9185
G01 X26.1065 Y28.9638
G01 X26.1667 Y29.0062
G01 X26.2289 Y29.0456
G01 X26.2929 Y29.0819
G01 X26.3587 Y29.1150
G01 X26.4260 Y29.1448
G01 X26.4947 Y29.1713
G01 X26.5646 Y29.1944
G01 X26.6355 Y29.2140
G01 X26.7074 Y29.2302
G01 X26.7799 Y29.2427
G01 X26.8530 Y29.2518
G01 X26.9264 Y29.2572
G01 X27.0000 Y29.2590
G01 X27.0736 Y29.2572
G01 X27.1470 Y29.2518
G01 X27.2201 Y29.2427
G01 X27.2926 Y29.2302
G01 X27.3645 Y29.2140
G01 X27.4354 Y29.1944
G01 X27.5053 Y29.1713
G01 X27.5740 Y29.1448
G01 X27.6413 Y29.1150
G01 X27.7071 Y29.0819
G01 X27.7711 Y29.0456
G01 X27.8333 Y29.0062
G01 X27.8935 Y28.9638
G01 X27.9516 Y28.9185
G01 X28.0073 Y28.8704
G01 X28.0606 Y28.8196
G01 X28.1114 Y28.7663
G01 X28.1595 Y28.7106
G01 X28.2048 Y28.6525
G01 X28.2472 Y28.5923
G01 X28.2866 Y28.5301
G01 X28.3229 Y28.4661
G01 X28.3560 Y28.4003
G01 X28.3858 Y28.3330
G01 X28.4123 Y28.2643
G01 X28.4354 Y28.1944
G01 X28.4550 Y28.1235
G01 X28.4712 Y28.0516
G01 X28.4837 Y27.9791
G01 X28.4928 Y27.9060
G01 X28.4982 Y27.8326
G01 X28.5000 Y27.7590
G01 X28.4958 Y27.6469
G01 X28.4832 Y27.5355
G01 X28.4624 Y27.4252
G01 X28.4333 Y27.3169
G01 X28.3963 Y27.2110
G01 X28.3514 Y27.1082
G01 X28.2990 Y27.0090
G01 X28.2393 Y26.9140
G01 X28.1727 Y26.8238
G01 X28.0996 Y26.7388
G01 X28.0202 Y26.6595
G01 X27.9352 Y26.5863
G01 X27.8450 Y26.5197
G01 X27.7500 Y26.4600
G01 X27.6508 Y26.4076
G01 X27.5480 Y26.3627
G01 X27.4421 Y26.3257
G01 X27.3338 Y26.2967
G01 X27.2236 Y26.2758
G01 X27.1121 Y26.2632
G01 X27.0000 Y26.2590
G01 X26.8879 Y26.2632
G01 X26.7765 Y26.2758
G01 X26.6662 Y26.2967
G01 X26.5579 Y26.3257
G01 X26.4520 Y26.3627
G01 X26.3492 Y26.4076
G01 X26.2500 Y26.4600
G01 X26.1550 Y26.5197
G01 X26.0648 Y26.5863
G01 X25.9798 Y26.6595
G01 X25.9005 Y26.7388
G01 X25.8273 Y26.8238
G01 X25.7607 Y26.9140
G01 X25.7010 Y27.0090
G01 X25.6486 Y27.1082
G01 X25.6037 Y27.2110
G01 X25.5667 Y27.3169
G01 X25.5376 Y27.4252
G01 X25.5168 Y27.5355
G01 X25.5042 Y27.6469
G01 X25.5000 Y27.7590
G01 X25.5042 Y27.8711
G01 X25.5168 Y27.9826
G01 X25.5376 Y28.0928
G01 X25.5667 Y28.2011
G01 X25.6037 Y28.3070
G01 X25.6486 Y28.4098
G01 X25.7010 Y28.5090
G01 X25.7607 Y28.6040
G01 X25.8273 Y28.6942
G01 X25.9005 Y28.7792
G01 X25.9798 Y28.8586
G01 X26.0648 Y28.9317
G01 X26.1550 Y28.9983
G01 X26.2500 Y29.0580
G01 X26.3492 Y29.1104
G01 X26.4520 Y29.1553
G01 X26.5579 Y29.1923
G01 X26.6662 Y29.2214
G01 X26.7765 Y29.2422
G01 X26.8879 Y29.2548
G01 X27.0000 Y29.2590
G01 X27.1121 Y29.2548
G01 X27.2236 Y29.2422
G01 X27.3338 Y29.2214
G01 X27.4421 Y29.1923
G01 X27.5480 Y29.1553
G01 X27.6508 Y29.1104
G01 X27.7500 Y29.0580
G01 X27.8450 Y28.9983
G01 X27.9352 Y28.9317
G01 X28.0202 Y28.8586
G01 X28.0996 Y28.7792
G01 X28.1727 Y28.6942
G01 X28.2393 Y28.6040
G01 X28.2990 Y28.5090
G01 X28.3514 Y28.4098
G01 X28.3963 Y28.3070
G01 X28.4333 Y28.2011
G01 X28.4624 Y28.0928
G01 X28.4832 Y27.9826
G01 X28.4958 Y27.8711
G01 X28.5000 Y27.7590
G01 X28.4954 Y27.6544
G01 X28.4817 Y27.5506
G01 X28.4591 Y27.4484
G01 X28.4276 Y27.3486
G01 X28.3875 Y27.2519
G01 X28.3392 Y27.1590
G01 X28.2830 Y27.0707
G01 X28.2192 Y26.9877
G01 X28.1485 Y26.9105
G01 X28.0713 Y26.8398
G01 X27.9883 Y26.7760
G01 X27.9000 Y26.7198
G01 X27.8071 Y26.6715
G01 X27.7104 Y26.6314
G01 X27.6106 Y26.5999
G01 X27.5084 Y26.5773
G01 X27.4046 Y26.5636
G01 X27.3000 Y26.5590
G01 X27.1954 Y26.5636
G01 X27.0916 Y26.5773
G01 X26.9894 Y26.5999
G01 X26.8896 Y26.6314
G01 X26.7929 Y26.6715
G01 X26.7000 Y26.7198
G01 X26.6117 Y26.7760
G01 X26.5287 Y26.8398
G01 X26.4515 Y26.9105
G01 X26.3808 Y26.9877
G01 X26.3170 Y27.0707
G01 X26.2608 Y27.1590
G01 X26.2124 Y27.2519
G01 X26.1724 Y27.3486
G01 X26.1409 Y27.4484
G01 X26.1182 Y27.5506
G01 X26.1046 Y27.6544
G01 X26.1000 Y27.7590
G01 X26.1011 Y27.8032
G01 X26.1043 Y27.8472
G01 X26.1098 Y27.8911
G01 X26.1173 Y27.9346
G01 X26.1270 Y27.9777
G01 X26.1388 Y28.0203
G01 X26.1526 Y28.0622
G01 X26.1685 Y28.1034
G01 X26.1864 Y28.1438
G01 X26.2063 Y28.1833
G01 X26.2281 Y28.2217
G01 X26.2517 Y28.2590
G01 X26.2771 Y28.2951
G01 X26.3043 Y28.3300
G01 X26.3332 Y28.3634
G01 X26.3636 Y28.3954
G01 X26.3956 Y28.4259
G01 X26.4291 Y28.4547
G01 X26.4639 Y28.4819
G01 X26.5000 Y28.5073
G01 X26.5373 Y28.5310
G01 X26.5758 Y28.5527
G01 X26.6152 Y28.5726
G01 X26.6556 Y28.5905
G01 X26.6968 Y28.6064
G01 X26.7388 Y28.6203
G01 X26.7813 Y28.6320
G01 X26.8244 Y28.6417
G01 X26.8680 Y28.6493
G01 X26.9118 Y28.6547
G01 X26.9558 Y28.6579
G01 X27.0000 Y28.6590
G01 X27.0442 Y28.6579
G01 X27.0882 Y28.6547
G01 X27.1321 Y28.6493
G01 X27.1756 Y28.6417
G01 X27.2187 Y28.6320
G01 X27.2613 Y28.6203
G01 X27.3032 Y28.6064
G01 X27.3444 Y28.5905
G01 X27.3848 Y28.5726
G01 X27.4243 Y28.5527
G01 X27.4627 Y28.5310
G01 X27.5000 Y28.5073
G01 X27.5361 Y28.4819
G01 X27.5710 Y28.4547
G01 X27.6044 Y28.4259
G01 X27.6364 Y28.3954
G01 X27.6669 Y28.3634
G01 X27.6957 Y28.3300
G01 X27.7229 Y28.2951
G01 X27.7483 Y28.2590
G01 X27.7720 Y28.2217
G01 X27.7937 Y28.1833
G01 X27.8136 Y28.1438
G01 X27.8315 Y28.1034
G01 X27.8474 Y28.0622
G01 X27.8613 Y28.0203
G01 X27.8730 Y27.9777
G01 X27.8827 Y27.9346
G01 X27.8903 Y27.8911
G01 X27.8957 Y27.8472
G01 X27.8989 Y27.8032
G01 X27.9000 Y27.7590
M107
M106 S240
G01 X27.8990 Y27.7162 Z-2.7623 F400
G01 X27.8959 Y27.6735 Z-2.7746
G01 X27.8908 Y27.6309 Z-2.7869
G01 X27.8837 Y27.5887 Z-2.7992
G01 X27.8746 Y27.5468 Z-2.8116
G01 X27.8636 Y27.5055 Z-2.8239
G01 X27.8505 Y27.4646 Z-2.8362
G01 X27.8355 Y27.4245 Z-2.8485
G01 X27.8187 Y27.3851 Z-2.8608
G01 X27.8000 Y27.3466 Z-2.8731
G01 X27.7794 Y27.3090 Z-2.8854
G01 X27.7571 Y27.2724 Z-2.8977
G01 X27.7331 Y27.2370 Z-2.9100
G01 X27.7075 Y27.2027 Z-2.9223
G01 X27.6802 Y27.1696 Z-2.9347
G01 X27.6514 Y27.1379 Z-2.9470
G01 X27.6211 Y27.1077 Z-2.9593
G01 X27.5894 Y27.0788 Z-2.9716
G01 X27.5564 Y27.0516 Z-2.9839
G01 X27.5221 Y27.0259 Z-2.9962
G01 X27.4866 Y27.0019 Z-3.0085
G01 X27.4500 Y26.9796 Z-3.0208
G01 X27.4124 Y26.9591 Z-3.0331
G01 X27.3739 Y26.9403 Z-3.0455
G01 X27.3345 Y26.9235 Z-3.0578
G01 X27.2944 Y26.9085 Z-3.0701
G01 X27.2536 Y26.8955 Z-3.0824
G01 X27.2122 Y26.8844 Z-3.0947
G01 X27.1703 Y26.8753 Z-3.1070
G01 X27.1281 Y26.8682 Z-3.1193
G01 X27.0856 Y26.8631 Z-3.1316
G01 X27.0428 Y26.8600 Z-3.1439
G01 X27.0000 Y26.8590 Z-3.1563
G01 X26.9572 Y26.8600 Z-3.1686
G01 X26.9145 Y26.8631 Z-3.1809
G01 X26.8719 Y26.8682 Z-3.1932
G01 X26.8297 Y26.8753 Z-3.2055
G01 X26.7878 Y26.8844 Z-3.2178
G01 X26.7465 Y26.8955 Z-3.2301
G01 X26.7056 Y26.9085 Z-3.2424
G01 X26.6655 Y26.9235 Z-3.2547
G01 X26.6261 Y26.9403 Z-3.2670
G01 X26.5876 Y26.9591 Z-3.2794
G01 X26.5500 Y26.9796 Z-3.2917
G01 X26.5134 Y27.0019 Z-3.3040
G01 X26.4780 Y27.0259 Z-3.3163
G01 X26.4437 Y27.0516 Z-3.3286
G01 X26.4106 Y27.0788 Z-3.3409
G01 X26.3789 Y27.1077 Z-3.3532
G01 X26.3486 Y27.1379 Z-3.3655
G01 X26.3198 Y27.1696 Z-3.3778
G01 X26.2926 Y27.2027 Z-3.3902
G01 X26.2669 Y27.2370 Z-3.4025
G01 X26.2429 Y27.2724 Z-3.4148
G01 X26.2206 Y27.3090 Z-3.4271
G01 X26.2001 Y27.3466 Z-3.4394
G01 X26.1813 Y27.3851 Z-3.4517
G01 X26.1645 Y27.4245 Z-3.4640
G01 X26.1495 Y27.4646 Z-3.4763
G01 X26.1365 Y27.5055 Z-3.4886
G01 X26.1254 Y27.5468 Z-3.5009
G01 X26.1163 Y27.5887 Z-3.5133
G01 X26.1092 Y27.6309 Z-3.5256
G01 X26.1041 Y27.6735 Z-3.5379
G01 X26.1010 Y27.7162 Z-3.5502
G01 X26.1000 Y27.7590 Z-3.5625
G01 X26.1010 Y27.8018 Z-3.5748
G01 X26.1041 Y27.8446 Z-3.5871
G01 X26.1092 Y27.8871 Z-3.5994
G01 X26.1163 Y27.9293 Z-3.6117
G01 X26.1254 Y27.9712 Z-3.6241
G01 X26.1365 Y28.0126 Z-3.6364
G01 X26.1495 Y28.0534 Z-3.6487
G01 X26.1645 Y28.0935 Z-3.6610
G01 X26.1813 Y28.1329 Z-3.6733
G01 X26.2001 Y28.1714 Z-3.6856
G01 X26.2206 Y28.2090 Z-3.6979
G01 X26.2429 Y28.2456 Z-3.7102
G01 X26.2669 Y28.2811 Z-3.7225
G01 X26.2926 Y28.3154 Z-3.7348
G01 X26.3198 Y28.3484 Z-3.7472
G01 X26.3486 Y28.3801 Z-3.7595
G01 X26.3789 Y28.4104 Z-3.7718
G01 X26.4106 Y28.4392 Z-3.7841
G01 X26.4437 Y28.4665 Z-3.7964
G01 X26.4780 Y28.4921 Z-3.8087
G01 X26.5134 Y28.5161 Z-3.8210
G01 X26.5500 Y28.5384 Z-3.8333
G01 X26.5876 Y28.5590 Z-3.8456
G01 X26.6261 Y28.5777 Z-3.8580
G01 X26.6655 Y28.5945 Z-3.8703
G01 X26.7056 Y28.6095 Z-3.8826
G01 X26.7465 Y28.6226 Z-3.8949
G01 X26.7878 Y28.6336 Z-3.9072
G01 X26.8297 Y28.6427 Z-3.9195
G01 X26.8719 Y28.6499 Z-3.9318
G01 X26.9145 Y28.6549 Z-3.9441
G01 X26.9572 Y28.6580 Z-3.9564
G01 X27.0000 Y28.6590 Z-3.9688
G01 X27.0428 Y28.6580 Z-3.9811
G01 X27.0856 Y28.6549 Z-3.9934
G01 X27.1281 Y28.6499 Z-4.0057
G01 X27.1703 Y28.6427 Z-4.0180
G01 X27.2122 Y28.6336 Z-4.0303
G01 X27.2536 Y28.6226 Z-4.0426
G01 X27.2944 Y28.6095 Z-4.0549
G01 X27.3345 Y28.5945 Z-4.0672
G01 X27.3739 Y28.5777 Z-4.0795
G01 X27.4124 Y28.5590 Z-4.0919
G01 X27.4500 Y28.5384 Z-4.1042
G01 X27.4866 Y28.5161 Z-4.1165
G01 X27.5221 Y28.4921 Z-4.1288
G01 X27.5564 Y28.4665 Z-4.1411
G01 X27.5894 Y28.4392 Z-4.1534
G01 X27.6211 Y28.4104 Z-4.1657
G01 X27.6514 Y28.3801 Z-4.1780
G01 X27.6802 Y28.3484 Z-4.1903
G01 X27.7075 Y28.3154 Z-4.2027
G01 X27.7331 Y28.2811 Z-4.2150
G01 X27.7571 Y28.2456 Z-4.2273
G01 X27.7794 Y28.2090 Z-4.2396
G01 X27.8000 Y28.1714 Z-4.2519
G01 X27.8187 Y28.1329 Z-4.2642
G01 X27.8355 Y28.0935 Z-4.2765
G01 X27.8505 Y28.0534 Z-4.2888
G01 X27.8636 Y28.0126 Z-4.3011
G01 X27.8746 Y27.9712 Z-4.3134
G01 X27.8837 Y27.9293 Z-4.3258
G01 X27.8908 Y27.8871 Z-4.3381
G01 X27.8959 Y27.8446 Z-4.3504
G01 X27.8990 Y27.8018 Z-4.3627
G01 X27.9000 Y27.7590 Z-4.3750
G01 X27.8990 Y27.7162
G01 X27.8959 Y27.6735
G01 X27.8908 Y27.6309
G01 X27.8837 Y27.5887
G01 X27.8746 Y27.5468
G01 X27.8636 Y27.5055
G01 X27.8505 Y27.4646
G01 X27.8355 Y27.4245
G01 X27.8187 Y27.3851
G01 X27.8000 Y27.3466
G01 X27.7794 Y27.3090
G01 X27.7571 Y27.2724
G01 X27.7331 Y27.2370
G01 X27.7075 Y27.2027
G01 X27.6802 Y27.1696
G01 X27.6514 Y27.1379
G01 X27.6211 Y27.1077
G01 X27.5894 Y27.0788
G01 X27.5564 Y27.0516
G01 X27.5221 Y27.0259
G01 X27.4866 Y27.0019
G01 X27.4500 Y26.9796
G01 X27.4124 Y26.9591
G01 X27.3739 Y26.9403
G01 X27.3345 Y26.9235
G01 X27.2944 Y26.9085
G01 X27.2536 Y26.8955
G01 X27.2122 Y26.8844
G01 X27.1703 Y26.8753
G01 X27.1281 Y26.8682
G01 X27.0856 Y26.8631
G01 X27.0428 Y26.8600
G01 X27.0000 Y26.8590
G01 X26.9572 Y26.8600
G01 X26.9145 Y26.8631
G01 X26.8719 Y26.8682
G01 X26.8297 Y26.8753
G01 X26.7878 Y26.8844
G01 X26.7465 Y26.8955
G01 X26.7056 Y26.9085
G01 X26.6655 Y26.9235
G01 X26.6261 Y26.9403
G01 X26.5876 Y26.9591
G01 X26.5500 Y26.9796
G01 X26.5134 Y27.0019
G01 X26.4780 Y27.0259
G01 X26.4437 Y27.0516
G01 X26.4106 Y27.0788
G01 X26.3789 Y27.1077
G01 X26.3486 Y27.1379
G01 X26.3198 Y27.1696
G01 X26.2926 Y27.2027
G01 X26.2669 Y27.2370
G01 X26.2429 Y27.2724
G01 X26.2206 Y27.3090
G01 X26.2001 Y27.3466
G01 X26.1813 Y27.3851
G01 X26.1645 Y27.4245
G01 X26.1495 Y27.4646
G01 X26.1365 Y27.5055
G01 X26.1254 Y27.5468
G01 X26.1163 Y27.5887
G01 X26.1092 Y27.6309
G01 X26.1041 Y27.6735
G01 X26.1010 Y27.7162
G01 X26.1000 Y27.7590
G01 X26.1010 Y27.8018
G01 X26.1041 Y27.8446
G01 X26.1092 Y27.8871
G01 X26.1163 Y27.9293
G01 X26.1254 Y27.9712
G01 X26.1365 Y28.0126
G01 X26.1495 Y28.0534
G01 X26.1645 Y28.0935
G01 X26.1813 Y28.1329
G01 X26.2001 Y28.1714
G01 X26.2206 Y28.2090
G01 X26.2429 Y28.2456
G01 X26.2669 Y28.2811
G01 X26.2926 Y28.3154
G01 X26.3198 Y28.3484
G01 X26.3486 Y28.3801
G01 X26.3789 Y28.4104
G01 X26.4106 Y28.4392
G01 X26.4437 Y28.4665
G01 X26.4780 Y28.4921
G01 X26.5134 Y28.5161
G01 X26.5500 Y28.5384
G01 X26.5876 Y28.5590
G01 X26.6261 Y28.5777
G01 X26.6655 Y28.5945
G01 X26.7056 Y28.6095
G01 X26.7465 Y28.6226
G01 X26.7878 Y28.6336
G01 X26.8297 Y28.6427
G01 X26.8719 Y28.6499
G01 X26.9145 Y28.6549
G01 X26.9572 Y28.6580
G01 X27.0000 Y28.6590
G01 X27.0428 Y28.6580
G01 X27.0856 Y28.6549
G01 X27.1281 Y28.6499
G01 X27.1703 Y28.6427
G01 X27.2122 Y28.6336
G01 X27.2536 Y28.6226
G01 X27.2944 Y28.6095
G01 X27.3345 Y28.5945
G01 X27.3739 Y28.5777
G01 X27.4124 Y28.5590
G01 X27.4500 Y28.5384
G01 X27.4866 Y28.5161
G01 X27.5221 Y28.4921
G01 X27.5564 Y28.4665
G01 X27.5894 Y28.4392
G01 X27.6211 Y28.4104
G01 X27.6514 Y28.3801
G01 X27.6802 Y28.3484
G01 X27.7075 Y28.3154
G01 X27.7331 Y28.2811
G01 X27.7571 Y28.2456
G01 X27.7794 Y28.2090
G01 X27.8000 Y28.1714
G01 X27.8187 Y28.1329
G01 X27.8355 Y28.0935
G01 X27.8505 Y28.0534
G01 X27.8636 Y28.0126
G01 X27.8746 Y27.9712
G01 X27.8837 Y27.9293
G01 X27.8908 Y27.8871
G01 X27.8959 Y27.8446
G01 X27.8990 Y27.8018
G01 X27.9000 Y27.7590
G01 X27.9076 Y27.7280 F1000
G01 X27.9140 Y27.6967
G01 X27.9194 Y27.6652
G01 X27.9237 Y27.6335
G01 X27.9268 Y27.6017
G01 X27.9289 Y27.5698
G01 X27.9299 Y27.5379
G01 X27.9297 Y27.5059
G01 X27.9285 Y27.4740
G01 X27.9261 Y27.4421
G01 X27.9227 Y27.4103
G01 X27.9181 Y27.3787
G01 X27.9084 Y27.3272
G01 X27.8961 Y27.2763
G01 X27.8812 Y27.2261
G01 X27.8637 Y27.1767
G01 X27.8436 Y27.1282
G01 X27.8211 Y27.0809
G01 X27.7962 Y27.0348
G01 X27.7690 Y26.9900
G01 X27.7370 Y26.9430
G01 X27.7026 Y26.8977
G01 X27.6659 Y26.8542
G01 X27.6271 Y26.8126
G01 X27.5862 Y26.7730
G01 X27.5433 Y26.7356
G01 X27.4985 Y26.7005
G01 X27.4521 Y26.6677
G01 X27.4002 Y26.6349
G01 X27.3467 Y26.6047
G01 X27.2917 Y26.5773
G01 X27.2354 Y26.5528
G01 X27.1779 Y26.5311
G01 X27.1195 Y26.5124
G01 X27.0601 Y26.4967
G01 X27.0000 Y26.4840
G01 X26.9349 Y26.4737
G01 X26.8693 Y26.4667
G01 X26.8035 Y26.4630
G01 X26.7376 Y26.4626
G01 X26.6717 Y26.4656
G01 X26.6061 Y26.4719
G01 X26.5409 Y26.4815
G01 X26.4762 Y26.4945
G01 X26.4079 Y26.5117
G01 X26.3405 Y26.5324
G01 X26.2743 Y26.5565
G01 X26.2094 Y26.5838
G01 X26.1459 Y26.6144
G01 X26.0841 Y26.6482
G01 X26.0240 Y26.6850
G01 X25.9659 Y26.7249
G01 X25.9123 Y26.7743
G01 X25.8613 Y26.8263
G01 X25.8129 Y26.8808
G01 X25.7673 Y26.9375
G01 X25.7245 Y26.9965
G01 X25.6847 Y27.0575
G01 X25.6479 Y27.1204
G01 X25.6142 Y27.1850
G01 X25.5877 Y27.2537
G01 X25.5646 Y27.3236
G01 X25.5450 Y27.3945
G01 X25.5289 Y27.4664
G01 X25.5163 Y27.5389
G01 X25.5073 Y27.6120
G01 X25.5018 Y27.6854
G01 X25.5000 Y27.7590
G01 X25.5018 Y27.8326
G01 X25.5073 Y27.9060
G01 X25.5163 Y27.9791
G01 X25.5289 Y28.0516
G01 X25.5450 Y28.1235
G01 X25.5646 Y28.1944
G01 X25.5877 Y28.2643
G01 X25.6142 Y28.3330
G01 X25.6441 Y28.4003
G01 X25.6772 Y28.4661
G01 X25.7134 Y28.5301
G01 X25.7528 Y28.5923
G01 X25.7952 Y28.6525
G01 X25.8405 Y28.7106
G01 X25.8886 Y28.7663
G01 X25.9394 Y28.8196
G01 X25.9927 Y28.8704
G01 X26.0484 Y28.9185
G01 X26.1065 Y28.9638
G01 X26.1667 Y29.0062
G01 X26.2289 Y29.0456
G01 X26.2929 Y29.0819
G01 X26.3587 Y29.1150
G01 X26.4260 Y29.1448
G01 X26.4947 Y29.1713
G01 X26.5646 Y29.1944
G01 X26.6355 Y29.2140
G01 X26.7074 Y29.2302
G01 X26.7799 Y29.2427
G01 X26.8530 Y29.2518
G01 X26.9264 Y29.2572
G01 X27.0000 Y29.2590
G01 X27.0736 Y29.2572
G01 X27.1470 Y29.2518
G01 X27.2201 Y29.2427
G01 X27.2926 Y29.2302
G01 X27.3645 Y29.2140
G01 X27.4354 Y29.1944
G01 X27.5053 Y29.1713
G01 X27.5740 Y29.1448
G01 X27.6413 Y29.1150
G01 X27.7071 Y29.0819
G01 X27.7711 Y29.0456
G01 X27.8333 Y29.0062
G01 X27.8935 Y28.9638
G01 X27.9516 Y28.9185
G01 X28.0073 Y28.8704
G01 X28.0606 Y28.8196
G01 X28.1114 Y28.7663
G01 X28.1595 Y28.7106
G01 X28.2048 Y28.6525
G01 X28.2472 Y28.5923
G01 X28.2866 Y28.5301
G01 X28.3229 Y28.4661
G01 X28.3560 Y28.4003
G01 X28.3858 Y28.3330
G01 X28.4123 Y28.2643
G01 X28.4354 Y28.1944
G01 X28.4550 Y28.1235
G01 X28.4712 Y28.0516
G01 X28.4837 Y27.9791
G01 X28.4928 Y27.9060
G01 X28.4982 Y27.8326
G01 X28.5000 Y27.7590
G01 X28.4958 Y27.6469
G01 X28.4832 Y27.5355
G01 X28.4624 Y27.4252
G01 X28.4333 Y27.3169
G01 X28.3963 Y27.2110
G01 X28.3514 Y27.1082
G01 X28.2990 Y27.0090
G01 X28.2393 Y26.9140
G01 X28.1727 Y26.8238
G01 X28.0996 Y26.7388
G01 X28.0202 Y26.6595
G01 X27.9352 Y26.5863
G01 X27.8450 Y26.5197
G01 X27.7500 Y26.4600
G01 X27.6508 Y26.4076
G01 X27.5480 Y26.3627
G01 X27.4421 Y26.3257
G01 X27.3338 Y26.2967
G01 X27.2236 Y26.2758
G01 X27.1121 Y26.2632
G01 X27.0000 Y26.2590
G01 X26.8879 Y26.2632
G01 X26.7765 Y26.2758
G01 X26.6662 Y26.2967
G01 X26.5579 Y26.3257
G01 X26.4520 Y26.3627
G01 X26.3492 Y26.4076
G01 X26.2500 Y26.4600
G01 X26.1550 Y26.5197
G01 X26.0648 Y26.5863
G01 X25.9798 Y26.6595
G01 X25.9005 Y26.7388
G01 X25.8273 Y26.8238
G01 X25.7607 Y26.9140
G01 X25.7010 Y27.0090
G01 X25.6486 Y27.1082
G01 X25.6037 Y27.2110
G01 X25.5667 Y27.3169
G01 X25.5376 Y27.4252
G01 X25.5168 Y27.5355
G01 X25.5042 Y27.6469
G01 X25.5000 Y27.7590
G01 X25.5042 Y27.8711
G01 X25.5168 Y27.9826
G01 X25.5376 Y28.0928
G01 X25.5667 Y28.2011
G01 X25.6037 Y28.3070
G01 X25.6486 Y28.4098
G01 X25.7010 Y28.5090
G01 X25.7607 Y28.6040
G01 X25.8273 Y28.6942
G01 X25.9005 Y28.7792
G01 X25.9798 Y28.8586
G01 X26.0648 Y28.9317
G01 X26.1550 Y28.9983
G01 X26.2500 Y29.0580
G01 X26.3492 Y29.1104
G01 X26.4520 Y29.1553
G01 X26.5579 Y29.1923
G01 X26.6662 Y29.2214
G01 X26.7765 Y29.2422
G01 X26.8879 Y29.2548
G01 X27.0000 Y29.2590
G01 X27.1121 Y29.2548
G01 X27.2236 Y29.2422
G01 X27.3338 Y29.2214
G01 X27.4421 Y29.1923
G01 X27.5480 Y29.1553
G01 X27.6508 Y29.1104
G01 X27.7500 Y29.0580
G01 X27.8450 Y28.9983
G01 X27.9352 Y28.9317
G01 X28.0202 Y28.8586
G01 X28.0996 Y28.7792
G01 X28.1727 Y28.6942
G01 X28.2393 Y28.6040
G01 X28.2990 Y28.5090
G01 X28.3514 Y28.4098
G01 X28.3963 Y28.3070
G01 X28.4333 Y28.2011
G01 X28.4624 Y28.0928
G01 X28.4832 Y27.9826
G01 X28.4958 Y27.8711
G01 X28.5000 Y27.7590
G01 X28.4954 Y27.6544
G01 X28.4817 Y27.5506
G01 X28.4591 Y27.4484
G01 X28.4276 Y27.3486
G01 X28.3875 Y27.2519
G01 X28.3392 Y27.1590
G01 X28.2830 Y27.0707
G01 X28.2192 Y26.9877
G01 X28.1485 Y26.9105
G01 X28.0713 Y26.8398
G01 X27.9883 Y26.7760
G01 X27.9000 Y26.7198
G01 X27.8071 Y26.6715
G01 X27.7104 Y26.6314
G01 X27.6106 Y26.5999
G01 X27.5084 Y26.5773
G01 X27.4046 Y26.5636
G01 X27.3000 Y26.5590
G01 X27.1954 Y26.5636
G01 X27.0916 Y26.5773
G01 X26.9894 Y26.5999
G01 X26.8896 Y26.6314
G01 X26.7929 Y26.6715
G01 X26.7000 Y26.7198
G01 X26.6117 Y26.7760
G01 X26.5287 Y26.8398
G01 X26.4515 Y26.9105
G01 X26.3808 Y26.9877
G01 X26.3170 Y27.0707
G01 X26.2608 Y27.1590
G01 X26.2124 Y27.2519
G01 X26.1724 Y27.3486
G01 X26.1409 Y27.4484
G01 X26.1182 Y27.5506
G01 X26.1046 Y27.6544
G01 X26.1000 Y27.7590
G01 X26.1011 Y27.8032
G01 X26.1043 Y27.8472
G01 X26.1098 Y27.8911
G01 X26.1173 Y27.9346
G01 X26.1270 Y27.9777
G01 X26.1388 Y28.0203
G01 X26.1526 Y28.0622
G01 X26.1685 Y28.1034
G01 X26.1864 Y28.1438
G01 X26.2063 Y28.1833
G01 X26.2281 Y28.2217
G01 X26.2517 Y28.2590
G01 X26.2771 Y28.2951
G01 X26.3043 Y28.3300
G01 X26.3332 Y28.3634
G01 X26.3636 Y28.3954
G01 X26.3956 Y28.4259
G01 X26.4291 Y28.4547
G01 X26.4639 Y28.4819
G01 X26.5000 Y28.5073
G01 X26.5373 Y28.5310
G01 X26.5758 Y28.5527
G01 X26.6152 Y28.5726
G01 X26.6556 Y28.5905
G01 X26.6968 Y28.6064
G01 X26.7388 Y28.6203
G01 X26.7813 Y28.6320
G01 X26.8244 Y28.6417
G01 X26.8680 Y28.6493
G01 X26.9118 Y28.6547
G01 X26.9558 Y28.6579
G01 X27.0000 Y28.6590
G01 X27.0442 Y28.6579
G01 X27.0882 Y28.6547
G01 X27.1321 Y28.6493
G01 X27.1756 Y28.6417
G01 X27.2187 Y28.6320
G01 X27.2613 Y28.6203
G01 X27.3032 Y28.6064
G01 X27.3444 Y28.5905
G01 X27.3848 Y28.5726
G01 X27.4243 Y28.5527
G01 X27.4627 Y28.5310
G01 X27.5000 Y28.5073
G01 X27.5361 Y28.4819
G01 X27.5710 Y28.4547
G01 X27.6044 Y28.4259
G01 X27.6364 Y28.3954
G01 X27.6669 Y28.3634
G01 X27.6957 Y28.3300
G01 X27.7229 Y28.2951
G01 X27.7483 Y28.2590
G01 X27.7720 Y28.2217
G01 X27.7937 Y28.1833
G01 X27.8136 Y28.1438
G01 X27.8315 Y28.1034
G01 X27.8474 Y28.0622
G01 X27.8613 Y28.0203
G01 X27.8730 Y27.9777
G01 X27.8827 Y27.9346
G01 X27.8903 Y27.8911
G01 X27.8957 Y27.8472
G01 X27.8989 Y27.8032
G01 X27.9000 Y27.7590
M107
M106 S240
G01 X27.8990 Y27.7162 Z-4.3873 F400
G01 X27.8959 Y27.6735 Z-4.3996
G01 X27.8908 Y27.6309 Z-4.4119
G01 X27.8837 Y27.5887 Z-4.4242
G01 X27.8746 Y27.5468 Z-4.4366
G01 X27.8636 Y27.5055 Z-4.4489
G01 X27.8505 Y27.4646 Z-4.4612
G01 X27.8355 Y27.4245 Z-4.4735
G01 X27.8187 Y27.3851 Z-4.4858
G01 X27.8000 Y27.3466 Z-4.4981
G01 X27.7794 Y27.3090 Z-4.5104
G01 X27.7571 Y27.2724 Z-4.5227
G01 X27.7331 Y27.2370 Z-4.5350
G01 X27.7075 Y27.2027 Z-4.5473
G01 X27.6802 Y27.1696 Z-4.5597
G01 X27.6514 Y27.1379 Z-4.5720
G01 X27.6211 Y27.1077 Z-4.5843
G01 X27.5894 Y27.0788 Z-4.5966
G01 X27.5564 Y27.0516 Z-4.6089
G01 X27.5221 Y27.0259 Z-4.6212
G01 X27.4866 Y27.0019 Z-4.6335
G01 X27.4500 Y26.9796 Z-4.6458
G01 X27.4124 Y26.9591 Z-4.6581
G01 X27.3739 Y26.9403 Z-4.6705
G01 X27.3345 Y26.9235 Z-4.6828
G01 X27.2944 Y26.9085 Z-4.6951
G01 X27.2536 Y26.8955 Z-4.7074
G01 X27.2122 Y26.8844 Z-4.7197
G01 X27.1703 Y26.8753 Z-4.7320
G01 X27.1281 Y26.8682 Z-4.7443
G01 X27.0856 Y26.8631 Z-4.7566
G01 X27.0428 Y26.8600 Z-4.7689
G01 X27.0000 Y26.8590 Z-4.7813
G01 X26.9572 Y26.8600 Z-4.7936
G01 X26.9145 Y26.8631 Z-4.8059
G01 X26.8719 Y26.8682 Z-4.8182
G01 X26.8297 Y26.8753 Z-4.8305
G01 X26.7878 Y26.8844 Z-4.8428
G01 X26.7465 Y26.8955 Z-4.8551
G01 X26.7056 Y26.9085 Z-4.8674
G01 X26.6655 Y26.9235 Z-4.8797
G01 X26.6261 Y26.9403 Z-4.8920
G01 X26.5876 Y26.9591 Z-4.9044
G01 X26.5500 Y26.9796 Z-4.9167
G01 X26.5134 Y27.0019 Z-4.9290
G01 X26.4780 Y27.0259 Z-4.9413
G01 X26.4437 Y27.0516 Z-4.9536
G01 X26.4106 Y27.0788 Z-4.9659
G01 X26.3789 Y27.1077 Z-4.9782
G01 X26.3486 Y27.1379 Z-4.9905
G01 X26.3198 Y27.1696 Z-5.0028
G01 X26.2926 Y27.2027 Z-5.0152
G01 X26.2669 Y27.2370 Z-5.0275
G01 X26.2429 Y27.2724 Z-5.0398
G01 X26.2206 Y27.3090 Z-5.0521
G01 X26.2001 Y27.3466 Z-5.0644
G01 X26.1813 Y27.3851 Z-5.0767
G01 X26.1645 Y27.4245 Z-5.0890
G01 X26.1495 Y27.4646 Z-5.1013
G01 X26.1365 Y27.5055 Z-5.1136
G01 X26.1254 Y27.5468 Z-5.1259
G01 X26.1163 Y27.5887 Z-5.1383
G01 X26.1092 Y27.6309 Z-5.1506
G01 X26.1041 Y27.6735 Z-5.1629
G01 X26.1010 Y27.7162 Z-5.1752
G01 X26.1000 Y27.7590 Z-5.1875
G01 X26.1010 Y27.8018 Z-5.1998
G01 X26.1041 Y27.8446 Z-5.2121
G01 X26.1092 Y27.8871 Z-5.2244
G01 X26.1163 Y27.9293 Z-5.2367
G01 X26.1254 Y27.9712 Z-5.2491
G01 X26.1365 Y28.0126 Z-5.2614
G01 X26.1495 Y28.0534 Z-5.2737
G01 X26.1645 Y28.0935 Z-5.2860
G01 X26.1813 Y28.1329 Z-5.2983
G01 X26.2001 Y28.1714 Z-5.3106
G01 X26.2206 Y28.2090 Z-5.3229
G01 X26.2429 Y28.2456 Z-5.3352
G01 X26.2669 Y28.2811 Z-5.3475
G01 X26.2926 Y28.3154 Z-5.3598
G01 X26.3198 Y28.3484 Z-5.3722
G01 X26.3486 Y28.3801 Z-5.3845
G01 X26.3789 Y28.4104 Z-5.3968
G01 X26.4106 Y28.4392 Z-5.4091
G01 X26.4437 Y28.4665 Z-5.4214
G01 X26.4780 Y28.4921 Z-5.4337
G01 X26.5134 Y28.5161 Z-5.4460
G01 X26.5500 Y28.5384 Z-5.4583
G01 X26.5876 Y28.5590 Z-5.4706
G01 X26.6261 Y28.5777 Z-5.4830
G01 X26.6655 Y28.5945 Z-5.4953
G01 X26.7056 Y28.6095 Z-5.5076
G01 X26.7465 Y28.6226 Z-5.5199
G01 X26.7878 Y28.6336 Z-5.5322
G01 X26.8297 Y28.6427 Z-5.5445
G01 X26.8719 Y28.6499 Z-5.5568
G01 X26.9145 Y28.6549 Z-5.5691
G01 X26.9572 Y28.6580 Z-5.5814
G01 X27.0000 Y28.6590 Z-5.5938
G01 X27.0428 Y28.6580 Z-5.6061
G01 X27.0856 Y28.6549 Z-5.6184
G01 X27.1281 Y28.6499 Z-5.6307
G01 X27.1703 Y28.6427 Z-5.6430
G01 X27.2122 Y28.6336 Z-5.6553
G01 X27.2536 Y28.6226 Z-5.6676
G01 X27.2944 Y28.6095 Z-5.6799
G01 X27.3345 Y28.5945 Z-5.6922
G01 X27.3739 Y28.5777 Z-5.7045
G01 X27.4124 Y28.5590 Z-5.7169
G01 X27.4500 Y28.5384 Z-5.7292
G01 X27.4866 Y28.5161 Z-5.7415
G01 X27.5221 Y28.4921 Z-5.7538
G01 X27.5564 Y28.4665 Z-5.7661
G01 X27.5894 Y28.4392 Z-5.7784
G01 X27.6211 Y28.4104 Z-5.7907
G01 X27.6514 Y28.3801 Z-5.8030
G01 X27.6802 Y28.3484 Z-5.8153
G01 X27.7075 Y28.3154 Z-5.8277
G01 X27.7331 Y28.2811 Z-5.8400
G01 X27.7571 Y28.2456 Z-5.8523
G01 X27.7794 Y28.2090 Z-5.8646
G01 X27.8000 Y28.1714 Z-5.8769
G01 X27.8187 Y28.1329 Z-5.8892
G01 X27.8355 Y28.0935 Z-5.9015
G01 X27.8505 Y28.0534 Z-5.9138
G01 X27.8636 Y28.0126 Z-5.9261
G01 X27.8746 Y27.9712 Z-5.9384
G01 X27.8837 Y27.9293 Z-5.9508
G01 X27.8908 Y27.8871 Z-5.9631
G01 X27.8959 Y27.8446 Z-5.9754
G01 X27.8990 Y27.8018 Z-5.9877
G01 X27.9000 Y27.7590 Z-6.0000
G01 X27.8990 Y27.7162
G01 X27.8959 Y27.6735
G01 X27.8908 Y27.6309
G01 X27.8837 Y27.5887
G01 X27.8746 Y27.5468
G01 X27.8636 Y27.5055
G01 X27.8505 Y27.4646
G01 X27.8355 Y27.4245
G01 X27.8187 Y27.3851
G01 X27.8000 Y27.3466
G01 X27.7794 Y27.3090
G01 X27.7571 Y27.2724
G01 X27.7331 Y27.2370
G01 X27.7075 Y27.2027
G01 X27.6802 Y27.1696
G01 X27.6514 Y27.1379
G01 X27.6211 Y27.1077
G01 X27.5894 Y27.0788
G01 X27.5564 Y27.0516
G01 X27.5221 Y27.0259
G01 X27.4866 Y27.0019
G01 X27.4500 Y26.9796
G01 X27.4124 Y26.9591
G01 X27.3739 Y26.9403
G01 X27.3345 Y26.9235
G01 X27.2944 Y26.9085
G01 X27.2536 Y26.8955
G01 X27.2122 Y26.8844
G01 X27.1703 Y26.8753
G01 X27.1281 Y26.8682
G01 X27.0856 Y26.8631
G01 X27.0428 Y26.8600
G01 X27.0000 Y26.8590
G01 X26.9572 Y26.8600
G01 X26.9145 Y26.8631
G01 X26.8719 Y26.8682
G01 X26.8297 Y26.8753
G01 X26.7878 Y26.8844
G01 X26.7465 Y26.8955
G01 X26.7056 Y26.9085
G01 X26.6655 Y26.9235
G01 X26.6261 Y26.9403
G01 X26.5876 Y26.9591
G01 X26.5500 Y26.9796
G01 X26.5134 Y27.0019
G01 X26.4780 Y27.0259
G01 X26.4437 Y27.0516
G01 X26.4106 Y27.0788
G01 X26.3789 Y27.1077
G01 X26.3486 Y27.1379
G01 X26.3198 Y27.1696
G01 X26.2926 Y27.2027
G01 X26.2669 Y27.2370
G01 X26.2429 Y27.2724
G01 X26.2206 Y27.3090
G01 X26.2001 Y27.3466
G01 X26.1813 Y27.3851
G01 X26.1645 Y27.4245
G01 X26.1495 Y27.4646
G01 X26.1365 Y27.5055
G01 X26.1254 Y27.5468
G01 X26.1163 Y27.5887
G01 X26.1092 Y27.6309
G01 X26.1041 Y27.6735
G01 X26.1010 Y27.7162
G01 X26.1000 Y27.7590
G01 X26.1010 Y27.8018
G01 X26.1041 Y27.8446
G01 X26.1092 Y27.8871
G01 X26.1163 Y27.9293
G01 X26.1254 Y27.9712
G01 X26.1365 Y28.0126
G01 X26.1495 Y28.0534
G01 X26.1645 Y28.0935
G01 X26.1813 Y28.1329
G01 X26.2001 Y28.1714
G01 X26.2206 Y28.2090
G01 X26.2429 Y28.2456
G01 X26.2669 Y28.2811
G01 X26.2926 Y28.3154
G01 X26.3198 Y28.3484
G01 X26.3486 Y28.3801
G01 X26.3789 Y28.4104
G01 X26.4106 Y28.4392
G01 X26.4437 Y28.4665
G01 X26.4780 Y28.4921
G01 X26.5134 Y28.5161
G01 X26.5500 Y28.5384
G01 X26.5876 Y28.5590
G01 X26.6261 Y28.5777
G01 X26.6655 Y28.5945
G01 X26.7056 Y28.6095
G01 X26.7465 Y28.6226
G01 X26.7878 Y28.6336
G01 X26.8297 Y28.6427
G01 X26.8719 Y28.6499
G01 X26.9145 Y28.6549
G01 X26.9572 Y28.6580
G01 X27.0000 Y28.6590
G01 X27.0428 Y28.6580
G01 X27.0856 Y28.6549
G01 X27.1281 Y28.6499
G01 X27.1703 Y28.6427
G01 X27.2122 Y28.6336
G01 X27.2536 Y28.6226
G01 X27.2944 Y28.6095
G01 X27.3345 Y28.5945
G01 X27.3739 Y28.5777
G01 X27.4124 Y28.5590
G01 X27.4500 Y28.5384
G01 X27.4866 Y28.5161
G01 X27.5221 Y28.4921
G01 X27.5564 Y28.4665
G01 X27.5894 Y28.4392
G01 X27.6211 Y28.4104
G01 X27.6514 Y28.3801
G01 X27.6802 Y28.3484
G01 X27.7075 Y28.3154
G01 X27.7331 Y28.2811
G01 X27.7571 Y28.2456
G01 X27.7794 Y28.2090
G01 X27.8000 Y28.1714
G01 X27.8187 Y28.1329
G01 X27.8355 Y28.0935
G01 X27.8505 Y28.0534
G01 X27.8636 Y28.0126
G01 X27.8746 Y27.9712
G01 X27.8837 Y27.9293
G01 X27.8908 Y27.8871
G01 X27.8959 Y27.8446
G01 X27.8990 Y27.8018
G01 X27.9000 Y27.7590
G01 X27.9076 Y27.7280 F1000
G01 X27.9140 Y27.6967
G01 X27.9194 Y27.6652
G01 X27.9237 Y27.6335
G01 X27.9268 Y27.6017
G01 X27.9289 Y27.5698
G01 X27.9299 Y27.5379
G01 X27.9297 Y27.5059
G01 X27.9285 Y27.4740
G01 X27.9261 Y27.4421
G01 X27.9227 Y27.4103
G01 X27.9181 Y27.3787
G01 X27.9084 Y27.3272
G01 X27.8961 Y27.2763
G01 X27.8812 Y27.2261
G01 X27.8637 Y27.1767
G01 X27.8436 Y27.1282
G01 X27.8211 Y27.0809
G01 X27.7962 Y27.0348
G01 X27.7690 Y26.9900
G01 X27.7370 Y26.9430
G01 X27.7026 Y26.8977
G01 X27.6659 Y26.8542
G01 X27.6271 Y26.8126
G01 X27.5862 Y26.7730
G01 X27.5433 Y26.7356
G01 X27.4985 Y26.7005
G01 X27.4521 Y26.6677
G01 X27.4002 Y26.6349
G01 X27.3467 Y26.6047
G01 X27.2917 Y26.5773
G01 X27.2354 Y26.5528
G01 X27.1779 Y26.5311
G01 X27.1195 Y26.5124
G01 X27.0601 Y26.4967
G01 X27.0000 Y26.4840
G01 X26.9349 Y26.4737
G01 X26.8693 Y26.4667
G01 X26.8035 Y26.4630
G01 X26.7376 Y26.4626
G01 X26.6717 Y26.4656
G01 X26.6061 Y26.4719
G01 X26.5409 Y26.4815
G01 X26.4762 Y26.4945
G01 X26.4079 Y26.5117
G01 X26.3405 Y26.5324
G01 X26.2743 Y26.5565
G01 X26.2094 Y26.5838
G01 X26.1459 Y26.6144
G01 X26.0841 Y26.6482
G01 X26.0240 Y26.6850
G01 X25.9659 Y26.7249
G01 X25.9123 Y26.7743
G01 X25.8613 Y26.8263
G01 X25.8129 Y26.8808
G01 X25.7673 Y26.9375
G01 X25.7245 Y26.9965
G01 X25.6847 Y27.0575
G01 X25.6479 Y27.1204
G01 X25.6142 Y27.1850
G01 X25.5877 Y27.2537
G01 X25.5646 Y27.3236
G01 X25.5450 Y27.3945
G01 X25.5289 Y27.4664
G01 X25.5163 Y27.5389
G01 X25.5073 Y27.6120
G01 X25.5018 Y27.6854
G01 X25.5000 Y27.7590
G01 X25.5018 Y27.8326
G01 X25.5073 Y27.9060
G01 X25.5163 Y27.9791
G01 X25.5289 Y28.0516
G01 X25.5450 Y28.1235
G01 X25.5646 Y28.1944
G01 X25.5877 Y28.2643
G01 X25.6142 Y28.3330
G01 X25.6441 Y28.4003
G01 X25.6772 Y28.4661
G01 X25.7134 Y28.5301
G01 X25.7528 Y28.5923
G01 X25.7952 Y28.6525
G01 X25.8405 Y28.7106
G01 X25.8886 Y28.7663
G01 X25.9394 Y28.8196
G01 X25.9927 Y28.8704
G01 X26.0484 Y28.9185
G01 X26.1065 Y28.9638
G01 X26.1667 Y29.0062
G01 X26.2289 Y29.0456
G01 X26.2929 Y29.0819
G01 X26.3587 Y29.1150
G01 X26.4260 Y29.1448
G01 X26.4947 Y29.1713
G01 X26.5646 Y29.1944
G01 X26.6355 Y29.2140
G01 X26.7074 Y29.2302
G01 X26.7799 Y29.2427
G01 X26.8530 Y29.2518
G01 X26.9264 Y29.2572
G01 X27.0000 Y29.2590
G01 X27.0736 Y29.2572
G01 X27.1470 Y29.2518
G01 X27.2201 Y29.2427
G01 X27.2926 Y29.2302
G01 X27.3645 Y29.2140
G01 X27.4354 Y29.1944
G01 X27.5053 Y29.1713
G01 X27.5740 Y29.1448
G01 X27.6413 Y29.1150
G01 X27.7071 Y29.0819
G01 X27.7711 Y29.0456
G01 X27.8333 Y29.0062
G01 X27.8935 Y28.9638
G01 X27.9516 Y28.9185
G01 X28.0073 Y28.8704
G01 X28.0606 Y28.8196
G01 X28.1114 Y28.7663
G01 X28.1595 Y28.7106
G01 X28.2048 Y28.6525
G01 X28.2472 Y28.5923
G01 X28.2866 Y28.5301
G01 X28.3229 Y28.4661
G01 X28.3560 Y28.4003
G01 X28.3858 Y28.3330
G01 X28.4123 Y28.2643
G01 X28.4354 Y28.1944
G01 X28.4550 Y28.1235
G01 X28.4712 Y28.0516
G01 X28.4837 Y27.9791
G01 X28.4928 Y27.9060
G01 X28.4982 Y27.8326
G01 X28.5000 Y27.7590
G01 X28.4958 Y27.6469
G01 X28.4832 Y27.5355
G01 X28.4624 Y27.4252
G01 X28.4333 Y27.3169
G01 X28.3963 Y27.2110
G01 X28.3514 Y27.1082
G01 X28.2990 Y27.0090
G01 X28.2393 Y26.9140
G01 X28.1727 Y26.8238
G01 X28.0996 Y26.7388
G01 X28.0202 Y26.6595
G01 X27.9352 Y26.5863
G01 X27.8450 Y26.5197
G01 X27.7500 Y26.4600
G01 X27.6508 Y26.4076
G01 X27.5480 Y26.3627
G01 X27.4421 Y26.3257
G01 X27.3338 Y26.2967
G01 X27.2236 Y26.2758
G01 X27.1121 Y26.2632
G01 X27.0000 Y26.2590
G01 X26.8879 Y26.2632
G01 X26.7765 Y26.2758
G01 X26.6662 Y26.2967
G01 X26.5579 Y26.3257
G01 X26.4520 Y26.3627
G01 X26.3492 Y26.4076
G01 X26.2500 Y26.4600
G01 X26.1550 Y26.5197
G01 X26.0648 Y26.5863
G01 X25.9798 Y26.6595
G01 X25.9005 Y26.7388
G01 X25.8273 Y26.8238
G01 X25.7607 Y26.9140
G01 X25.7010 Y27.0090
G01 X25.6486 Y27.1082
G01 X25.6037 Y27.2110
G01 X25.5667 Y27.3169
G01 X25.5376 Y27.4252
G01 X25.5168 Y27.5355
G01 X25.5042 Y27.6469
G01 X25.5000 Y27.7590
G01 X25.5042 Y27.8711
G01 X25.5168 Y27.9826
G01 X25.5376 Y28.0928
G01 X25.5667 Y28.2011
G01 X25.6037 Y28.3070
G01 X25.6486 Y28.4098
G01 X25.7010 Y28.5090
G01 X25.7607 Y28.6040
G01 X25.8273 Y28.6942
G01 X25.9005 Y28.7792
G01 X25.9798 Y28.8586
G01 X26.0648 Y28.9317
G01 X26.1550 Y28.9983
G01 X26.2500 Y29.0580
G01 X26.3492 Y29.1104
G01 X26.4520 Y29.1553
G01 X26.5579 Y29.1923
G01 X26.6662 Y29.2214
G01 X26.7765 Y29.2422
G01 X26.8879 Y29.2548
G01 X27.0000 Y29.2590
G01 X27.1121 Y29.2548
G01 X27.2236 Y29.2422
G01 X27.3338 Y29.2214
G01 X27.4421 Y29.1923
G01 X27.5480 Y29.1553
G01 X27.6508 Y29.1104
G01 X27.7500 Y29.0580
G01 X27.8450 Y28.9983
G01 X27.9352 Y28.9317
G01 X28.0202 Y28.8586
G01 X28.0996 Y28.7792
G01 X28.1727 Y28.6942
G01 X28.2393 Y28.6040
G01 X28.2990 Y28.5090
G01 X28.3514 Y28.4098
G01 X28.3963 Y28.3070
G01 X28.4333 Y28.2011
G01 X28.4624 Y28.0928
G01 X28.4832 Y27.9826
G01 X28.4958 Y27.8711
G01 X28.5000 Y27.7590
M107
M106 S240
G01 X28.4969 Y27.6806 Z-5.9750 F400
M107
M106 S240
G01 X28.4877 Y27.6026 Z-5.9500
M107
M106 S240
G01 X28.4723 Y27.5256 Z-5.9250
M107
M106 S240
G01 X28.4510 Y27.4500 Z-5.9000
M107
M106 S240
G01 X28.4239 Y27.3763 Z-5.8750
M107
M106 S240
G01 X28.3910 Y27.3050 Z-5.8500
M107
M106 S240
G01 X28.3526 Y27.2365 Z-5.8250
M107
M106 S240
G01 X28.3090 Y27.1712 Z-5.8000
M107
M106 S240
G01 X28.2604 Y27.1096 Z-5.7750
M107
M106 S240
G01 X28.2071 Y27.0519 Z-5.7500
M107
M106 S240
G01 X28.1494 Y26.9986 Z-5.7250
M107
M106 S240
G01 X28.0878 Y26.9500 Z-5.7000
M107
M106 S240
G01 X28.0225 Y26.9064 Z-5.6750
M107
M106 S240
G01 X27.9540 Y26.8680 Z-5.6500
M107
M106 S240
G01 X27.8827 Y26.8351 Z-5.6250
M107
M106 S240
G01 X27.8090 Y26.8080 Z-5.6000
M107
M106 S240
G01 X27.7334 Y26.7866 Z-5.5750
M107
M106 S240
G01 X27.6564 Y26.7713 Z-5.5500
M107
M106 S240
G01 X27.5784 Y26.7621 Z-5.5250
M107
M106 S240
G01 X27.5000 Y26.7590 Z-5.5000
M107
G00 Z2.0000


;No. 2: Hole 50
G00 X37.9268 Y37.2577 Z2.0000
G00 Z0.5000
G01 Z0.0000 F400
G01 Z-1.2000
M106 S240
G01 X109.9216 F1000
G01 X110.1204 Y37.2956
G01 X110.1233 Y36.8977
G01 X110.1173 Y36.4998
G01 X110.1024 Y36.1021
G01 X110.0788 Y35.7049
G01 X37.7426 Y35.7046
G01 X37.7098 Y36.2700
G01 X37.7108 Y36.8364
G01 X37.7457 Y37.4017
G01 X37.8144 Y37.9638
G01 X37.8190 Y38.0034
G01 X37.8259 Y38.0426
G01 X37.8349 Y38.0814
G01 X37.8461 Y38.1196
G01 X37.8594 Y38.1571
G01 X37.8748 Y38.1938
G01 X37.8922 Y38.2296
G01 X37.9117 Y38.2644
G01 X37.9330 Y38.2980
G01 X37.9562 Y38.3304
G01 X37.9811 Y38.3614
G01 X38.0078 Y38.3909
G01 X38.0360 Y38.4190
G01 X38.0658 Y38.4454
G01 X38.0970 Y38.4701
G01 X38.1296 Y38.4930
G01 X38.1634 Y38.5140
G01 X38.1983 Y38.5331
G01 X38.2343 Y38.5503
G01 X38.2711 Y38.5654
G01 X38.3087 Y38.5784
G01 X38.3470 Y38.5892
G01 X38.3859 Y38.5979
G01 X38.4252 Y38.6045
G01 X38.9977 Y38.7023
G01 X39.5748 Y38.7687
G01 X40.1546 Y38.8034
G01 X40.7355 Y38.8064
G01 X40.9390 Y38.8083
G01 X41.1426 Y38.8097
G01 X41.3461 Y38.8104
G01 X41.5497 Y38.8107
G01 X106.3956 Y38.8104
G01 X107.1202 Y38.8186
G01 X107.8444 Y38.7972
G01 X108.5672 Y38.7463
G01 X109.2873 Y38.6660
G01 X109.3685 Y38.6560
G01 X109.4488 Y38.6397
G01 X109.5274 Y38.6170
G01 X109.6040 Y38.5882
G01 X109.6782 Y38.5534
G01 X109.7493 Y38.5129
G01 X109.8170 Y38.4669
G01 X109.8809 Y38.4157
G01 X109.9403 Y38.3017
G01 X109.9914 Y38.1839
G01 X110.0341 Y38.0627
G01 X110.0682 Y37.9388
G01 X110.0934 Y37.8128
G01 X110.1096 Y37.6854
G01 X110.1168 Y37.5571
G01 X110.1149 Y37.4286
G01 X110.1189 Y37.3414
G01 X110.1204 Y37.2956
G01 X109.9216 Y37.2577
M107
G00 Z2.0000


;No. 3: Hole 52
G00 X106.7902 Y44.0965 Z2.0000
G00 Z0.5000
G01 Z0.0000 F400
G01 Z-1.2000
M106 S240
G01 X41.0644 F1000
G01 X40.9489 Y45.5965
G01 X42.4415
G01 X42.3350 Y47.0965
G01 X40.8929
G01 X41.0466 Y48.5965
G01 X42.5443
G01 X41.9562 Y50.0965
G01 X53.2699
G01 X53.7072 Y51.5965
G01 X51.8890
G01 X52.2759
G01 Y53.0965
G01 X53.7090
G01 X53.7108 Y54.5965
G01 X52.2777
G01 X52.2797 Y56.0965
G01 X53.7127
G01 X53.7147 Y57.5965
G01 X52.2816
G01 X52.2836 Y59.0965
G01 X53.7167
G01 X53.7187 Y60.5965
G01 X52.2856
G01 X52.2877 Y62.0965
G01 X53.7208
G01 X53.7228 Y63.5965
G01 X52.2897
G01 X52.2918 Y65.0965
G01 X53.7248
G01 X53.7269 Y66.5965
G01 X52.2938
G01 X52.2958 Y68.0965
G01 X53.7289
G01 X53.7308 Y69.5965
G01 X52.2977
G01 X52.2997 Y71.0965
G01 X53.7327
G01 X53.7346 Y72.5965
G01 X52.3015
G01 X52.3033 Y74.0965
G01 X53.7364
G01 X53.7381 Y75.5965
G01 X52.3050
G01 X52.3067 Y77.0965
G01 X53.7398
G01 X53.7413 Y78.5965
G01 X52.3082
G01 X52.3096 Y80.0965
G01 X53.7427
G01 X53.7441 Y81.5965
G01 X52.3110
G01 X52.3121 Y83.0965
G01 X53.7453
G01 X53.7463 Y84.5965
G01 X52.3132
G01 X52.3141 Y86.0965
G01 X53.7472
G01 X53.7480 Y87.5965
G01 X52.3149
G01 X52.3155 Y89.0965
G01 X53.7486
G01 X53.7490 Y90.5965
G01 X52.3159
G01 X52.3161 Y92.0965
G01 X53.7493
G01 Y93.5965
G01 X52.3162
G01 X52.3160 Y95.0965
G01 X53.7492
G01 X53.7488 Y96.5965
G01 X52.3156
G01 X52.3150 Y98.0965
G01 X53.7482
G01 X53.7474 Y99.5965
G01 X52.3142
G01 X52.3131 Y101.0965
G01 X53.7463
G01 X53.7450 Y102.5965
G01 X52.3118
G01 X52.3102 Y104.0965
G01 X53.7434
G01 X53.7415 Y105.5965
G01 X52.3083
G01 X52.3062 Y107.0965
G01 X53.7393
G01 X53.7369 Y108.5965
G01 X52.3037
G01 X52.3010 Y110.0965
G01 X53.7342
G01 X53.7311 Y111.5965
G01 X52.2979
G01 X52.2945 Y113.0965
G01 X53.7277
G01 X53.7240 Y114.5965
G01 X52.2908
G01 X52.2868 Y116.0965
G01 X53.7199
G01 X53.7155 Y117.5965
G01 X52.2823
G01 X52.2776 Y119.0965
G01 X53.7108
G01 X53.7056 Y120.5965
G01 X52.2724
G01 X52.2669 Y122.0965
G01 X53.7001
G01 X53.6942 Y123.5965
G01 X52.2609
G01 X52.2546 Y125.0965
G01 X53.6878
G01 X53.6811 Y126.5965
G01 X52.2479
G01 X52.1429 Y128.0965
G01 X53.5871
G01 X53.1587 Y129.5965
G01 X51.4175
G01 X51.7687 Y131.0965
G01 X47.5321
G01 X47.5094 Y132.5965
G01 X48.9432
G01 X48.8939 Y134.0965
G01 X47.4800
G01 X47.4444 Y135.5965
G01 X48.8593
G01 X48.8197 Y137.0965
G01 X47.4032
G01 X47.3570 Y138.5965
G01 X48.7754
G01 X48.7269 Y140.0965
G01 X47.3062
G01 X47.2515 Y141.5965
G01 X48.6746
G01 X48.6188 Y143.0965
G01 X47.1933
G01 X47.1323 Y144.5965
G01 X48.5601
G01 X48.4987 Y146.0965
G01 X47.0688
G01 X47.0036 Y147.5965
G01 X48.4353
G01 X48.3700 Y149.0965
G01 X46.9370
G01 X46.8697 Y150.5965
G01 X48.3035
G01 X48.2583 Y152.0965
G01 X46.8247
G01 X47.0558 Y153.5965
G01 X48.5972
G01 X47.9214 Y155.0965
G01 X51.5837
G01 X51.7837 Y156.5965
G01 X59.5949
G01 X59.9235 Y158.0965
G01 X89.8558
G01 X90.2197 Y156.5965
G01 X97.6032
G01 X97.6538 Y155.0965
G01 X100.7623
G01 X101.5288 Y153.5965
G01 X99.9808
G01 X100.1922 Y152.0965
G01 X101.6955
G01 X101.6929 Y150.5965
G01 X100.2481
G01 X100.2451 Y149.0965
G01 X101.6778
G01 X101.6668 Y147.5965
G01 X100.2340
G01 X100.2228 Y146.0965
G01 X101.6557
G01 X101.6446 Y144.5965
G01 X100.2117
G01 X100.2006 Y143.0965
G01 X101.6335
G01 X101.6224 Y141.5965
G01 X100.1894
G01 X100.1783 Y140.0965
G01 X101.6114
G01 X101.6003 Y138.5965
G01 X100.1672
G01 X100.1560 Y137.0965
G01 X101.5892
G01 X101.5781 Y135.5965
G01 X100.1449
G01 X100.1338 Y134.0965
G01 X101.5670
G01 X101.5560 Y132.5965
G01 X100.0992
G01 X101.5449 Y131.0965
G01 X97.1902
G01 X97.5150 Y129.5965
G01 X95.6949
G01 X95.1502 Y128.0965
G01 X96.6409
G01 X96.3694 Y126.5965
G01 X94.9268
G01 X94.8747 Y125.0965
G01 X96.3073
G01 X96.3093 Y123.5965
G01 X94.8767
G01 X94.8786 Y122.0965
G01 X96.3112
G01 X96.3130 Y120.5965
G01 X94.8804
G01 X94.8821 Y119.0965
G01 X96.3147
G01 X96.3162 Y117.5965
G01 X94.8836
G01 X94.8851 Y116.0965
G01 X96.3177
G01 X96.3190 Y114.5965
G01 X94.8864
G01 X94.8876 Y113.0965
G01 X96.3203
G01 X96.3214 Y111.5965
G01 X94.8888
G01 X94.8899 Y110.0965
G01 X96.3225
G01 X96.3235 Y108.5965
G01 X94.8908
G01 X94.8917 Y107.0965
G01 X96.3244
G01 X96.3252 Y105.5965
G01 X94.8925
G01 X94.8933 Y104.0965
G01 X96.3260
G01 X96.3266 Y102.5965
G01 X94.8939
G01 X94.8945 Y101.0965
G01 X96.3272
G01 X96.3278 Y99.5965
G01 X94.8951
G01 X94.8955 Y98.0965
G01 X96.3283
G01 X96.3287 Y96.5965
G01 X94.8960
G01 X94.8963 Y95.0965
G01 X96.3291
G01 X96.3294 Y93.5965
G01 X94.8967
G01 X94.8969 Y92.0965
G01 X96.3297
G01 X96.3299 Y90.5965
G01 X94.8972
G01 X94.8974 Y89.0965
G01 X96.3301
G01 X96.3303 Y87.5965
G01 X94.8976
G01 X94.8977 Y86.0965
G01 X96.3305
G01 X96.3306 Y84.5965
G01 X94.8978
G01 X94.8979 Y83.0965
G01 X96.3307
G01 X96.3308 Y81.5965
G01 X94.8980
G01 X94.8981 Y80.0965
G01 X96.3309
G01 X96.3310 Y78.5965
G01 X94.8982
G01 Y77.0965
G01 X96.3310
G01 X96.3311 Y75.5965
G01 X94.8983
G01 X94.8984 Y74.0965
G01 X96.3312
G01 X96.3313 Y72.5965
G01 X94.8985
G01 X94.8986 Y71.0965
G01 X96.3314
G01 X96.3315 Y69.5965
G01 X94.8987
G01 X94.8988 Y68.0965
G01 X96.3316
G01 X96.3318 Y66.5965
G01 X94.8990
G01 X94.8992 Y65.0965
G01 X96.3320
G01 X96.3322 Y63.5965
G01 X94.8994
G01 X94.8997 Y62.0965
G01 X96.3324
G01 X96.3327 Y60.5965
G01 X94.9000
G01 X94.9003 Y59.0965
G01 X96.3330
G01 X96.3334 Y57.5965
G01 X94.9007
G01 X94.9011 Y56.0965
G01 X96.3339
G01 X96.3344 Y54.5965
G01 X94.9016
G01 X94.9077 Y53.0965
G01 X96.3567
G01 Y51.5965
G01 X96.7805
G01 X94.9936
G01 X95.0969 Y50.0965
G01 X105.6425
G01 X105.1329 Y48.5965
G01 X106.7167
G01 X106.9461 Y47.0965
G01 X105.3554
G01 X105.3471 Y45.5965
G01 X105.1562 Y45.6618
G01 X105.1680 Y46.2978
G01 X105.1601 Y46.9339
G01 X105.1324 Y47.5694
G01 X105.0849 Y48.2038
G01 X105.0481 Y48.3006
G01 X105.0035 Y48.3942
G01 X104.9516 Y48.4839
G01 X104.8927 Y48.5691
G01 X104.8271 Y48.6493
G01 X104.7552 Y48.7240
G01 X104.6776 Y48.7926
G01 X104.5947 Y48.8548
G01 X104.5071 Y48.9101
G01 X104.4153 Y48.9582
G01 X104.3199 Y48.9987
G01 X104.2216 Y49.0315
G01 X103.5696 Y49.2217
G01 X102.9097 Y49.3828
G01 X102.2433 Y49.5145
G01 X101.5717 Y49.6164
G01 X101.3055 Y49.6445
G01 X94.9318
G01 X94.8523 Y50.6090
G01 X94.7875 Y51.5745
G01 X94.7374 Y52.5409
G01 X94.7020 Y53.5079
G01 X94.7018 Y54.2288
G01 X94.7015 Y54.9514
G01 X94.7013 Y55.6739
G01 X94.7010 Y56.3965
G01 X94.7008 Y57.1190
G01 X94.7006 Y57.8415
G01 X94.7004 Y58.5641
G01 X94.7003 Y59.2866
G01 X94.7001 Y60.0092
G01 X94.6999 Y60.7317
G01 X94.6998 Y61.4543
G01 X94.6996 Y62.1769
G01 X94.6995 Y62.8994
G01 X94.6994 Y63.6220
G01 X94.6993 Y64.3445
G01 X94.6992 Y65.0671
G01 X94.6991 Y65.7896
G01 X94.6990 Y66.5122
G01 X94.6989 Y67.2347
G01 X94.6988 Y67.9573
G01 Y68.6799
G01 X94.6987 Y69.4024
G01 X94.6986 Y70.1250
G01 Y70.8475
G01 X94.6985 Y71.5701
G01 Y72.2927
G01 Y73.0152
G01 X94.6984 Y73.7378
G01 Y74.4603
G01 X94.6983 Y75.1829
G01 Y75.9055
G01 Y76.6280
G01 X94.6982 Y77.3506
G01 Y78.0732
G01 Y78.7957
G01 X94.6981 Y79.5183
G01 Y80.2409
G01 Y80.9634
G01 X94.6980 Y81.6860
G01 Y82.4086
G01 X94.6979 Y83.1311
G01 Y83.8537
G01 X94.6978 Y84.5763
G01 Y85.2989
G01 X94.6977 Y86.0214
G01 X94.6976 Y86.7440
G01 Y87.4666
G01 X94.6975 Y88.1892
G01 X94.6974 Y88.9117
G01 X94.6973 Y89.6343
G01 X94.6972 Y90.3569
G01 X94.6971 Y91.0795
G01 X94.6970 Y91.8020
G01 X94.6969 Y92.5246
G01 X94.6967 Y93.2472
G01 X94.6966 Y93.9698
G01 X94.6964 Y94.6924
G01 X94.6963 Y95.4149
G01 X94.6961 Y96.1375
G01 X94.6959 Y96.8601
G01 X94.6957 Y97.5827
G01 X94.6955 Y98.3053
G01 X94.6953 Y99.0278
G01 X94.6950 Y99.7504
G01 X94.6948 Y100.4730
G01 X94.6945 Y101.1956
G01 X94.6942 Y101.9182
G01 X94.6939 Y102.6408
G01 X94.6936 Y103.3634
G01 X94.6933 Y104.0860
G01 X94.6929 Y104.8085
G01 X94.6926 Y105.5311
G01 X94.6922 Y106.2537
G01 X94.6918 Y106.9763
G01 X94.6914 Y107.6989
G01 X94.6909 Y108.4215
G01 X94.6905 Y109.1441
G01 X94.6900 Y109.8667
G01 X94.6895 Y110.5893
G01 X94.6890 Y111.3119
G01 X94.6885 Y112.0345
G01 X94.6879 Y112.7571
G01 X94.6873 Y113.4797
G01 X94.6867 Y114.2023
G01 X94.6861 Y114.9248
G01 X94.6855 Y115.6474
G01 X94.6848 Y116.3700
G01 X94.6841 Y117.0926
G01 X94.6834 Y117.8152
G01 X94.6827 Y118.5378
G01 X94.6819 Y119.2604
G01 X94.6811 Y119.9830
G01 X94.6803 Y120.7056
G01 X94.6794 Y121.4283
G01 X94.6785 Y122.1509
G01 X94.6776 Y122.8735
G01 X94.6767 Y123.5961
G01 X94.6758 Y124.3187
G01 X94.6692 Y124.6904
G01 X94.6668 Y125.0621
G01 X94.6686 Y125.4338
G01 X94.6747 Y125.8055
G01 X94.6876 Y126.2331
G01 X94.7182 Y126.6597
G01 X94.7664 Y127.0847
G01 X94.8321 Y127.5074
G01 X94.9153 Y127.9270
G01 X95.0157 Y128.3428
G01 X95.1333 Y128.7541
G01 X95.2677 Y129.1601
G01 X95.4042 Y129.4823
G01 X95.5681 Y129.7915
G01 X95.7582 Y130.0854
G01 X95.9730 Y130.3616
G01 X96.2109 Y130.6182
G01 X96.4702 Y130.8533
G01 X96.7488 Y131.0650
G01 X97.0448 Y131.2518
G01 X97.3558 Y131.4122
G01 X97.6795 Y131.5451
G01 X98.0135 Y131.6495
G01 X98.3553 Y131.7245
G01 X98.5748 Y131.7655
G01 X98.7944 Y131.8063
G01 X99.0140 Y131.8469
G01 X99.2337 Y131.8873
G01 X99.3069 Y131.9143
G01 X99.3778 Y131.9470
G01 X99.4459 Y131.9850
G01 X99.5108 Y132.0283
G01 X99.5722 Y132.0765
G01 X99.6297 Y132.1293
G01 X99.6828 Y132.1865
G01 X99.7313 Y132.2476
G01 X99.7749 Y132.3123
G01 X99.8133 Y132.3803
G01 X99.8464 Y132.4510
G01 X99.8738 Y132.5240
G01 X99.8954 Y132.5990
G01 X99.9111 Y132.6755
G01 X99.9208 Y132.7529
G01 X99.9244 Y132.8309
G01 X99.9710 Y137.1621
G01 X100.0077 Y141.4934
G01 X100.0344 Y145.8248
G01 X100.0512 Y150.1563
G01 X100.0488 Y150.9590
G01 X100.0127 Y151.7610
G01 X99.9429 Y152.5608
G01 X99.8397 Y153.3569
G01 X99.8239 Y153.4424
G01 X99.8026 Y153.5267
G01 X99.7759 Y153.6095
G01 X99.7439 Y153.6903
G01 X99.7067 Y153.7689
G01 X99.6645 Y153.8449
G01 X99.6175 Y153.9180
G01 X99.5658 Y153.9879
G01 X99.5097 Y154.0544
G01 X99.4494 Y154.1170
G01 X99.3852 Y154.1756
G01 X99.3174 Y154.2300
G01 X99.2461 Y154.2798
G01 X99.1718 Y154.3249
G01 X99.0947 Y154.3651
G01 X99.0151 Y154.4002
G01 X98.4382 Y154.6295
G01 X97.8508 Y154.8307
G01 X97.2544 Y155.0034
G01 X96.6504 Y155.1471
G01 X95.2711 Y155.4590
G01 X93.8865 Y155.7467
G01 X92.4972 Y156.0103
G01 X91.1034 Y156.2496
G01 X89.7057 Y156.4646
G01 X88.3045 Y156.6552
G01 X86.9001 Y156.8214
G01 X85.4931 Y156.9631
G01 X84.0838 Y157.0802
G01 X82.6727 Y157.1728
G01 X81.2602 Y157.2408
G01 X79.8467 Y157.2841
G01 X77.8579 Y157.3158
G01 X75.8689 Y157.3235
G01 X73.8799 Y157.3073
G01 X71.8913 Y157.2673
G01 X69.9033 Y157.2034
G01 X67.9162 Y157.1156
G01 X65.9303 Y157.0039
G01 X63.9458 Y156.8683
G01 X62.8460 Y156.7764
G01 X61.7478 Y156.6657
G01 X60.6517 Y156.5364
G01 X59.5579 Y156.3885
G01 X58.4668 Y156.2220
G01 X57.3787 Y156.0370
G01 X56.2939 Y155.8336
G01 X55.2127 Y155.6117
G01 X54.4566 Y155.4618
G01 X53.7006 Y155.3118
G01 X52.9446 Y155.1615
G01 X52.1887 Y155.0112
G01 X51.6599 Y154.9114
G01 X51.1325 Y154.8046
G01 X50.6065 Y154.6908
G01 X50.0821 Y154.5701
G01 X49.9628 Y154.5328
G01 X49.8458 Y154.4887
G01 X49.7316 Y154.4378
G01 X49.6206 Y154.3803
G01 X49.5131 Y154.3165
G01 X49.4095 Y154.2466
G01 X49.3102 Y154.1707
G01 X49.2154 Y154.0892
G01 X49.1256 Y154.0023
G01 X49.0409 Y153.9103
G01 X48.9618 Y153.8135
G01 X48.8884 Y153.7123
G01 X48.8210 Y153.6070
G01 X48.7599 Y153.4980
G01 X48.7053 Y153.3855
G01 X48.6572 Y153.2701
G01 X48.6160 Y153.1521
G01 X48.5817 Y153.0319
G01 X48.5545 Y152.9099
G01 X48.5344 Y152.7865
G01 X48.4796 Y152.2922
G01 X48.4546 Y151.7955
G01 X48.4596 Y151.2981
G01 X48.4945 Y150.8020
G01 X48.6960 Y146.2631
G01 X48.8704 Y141.7231
G01 X49.0176 Y137.1821
G01 X49.1377 Y132.6403
G01 X49.1588 Y132.5561
G01 X49.1870 Y132.4740
G01 X49.2220 Y132.3946
G01 X49.2636 Y132.3184
G01 X49.3114 Y132.2460
G01 X49.3652 Y132.1779
G01 X49.4246 Y132.1146
G01 X49.4891 Y132.0565
G01 X49.5583 Y132.0041
G01 X49.6316 Y131.9576
G01 X49.7086 Y131.9176
G01 X49.7887 Y131.8842
G01 X49.8714 Y131.8576
G01 X49.9559 Y131.8382
G01 X50.0419 Y131.8259
G01 X50.1285 Y131.8209
G01 X50.4577 Y131.7748
G01 X50.7825 Y131.7039
G01 X51.1009 Y131.6086
G01 X51.4112 Y131.4895
G01 X51.7117 Y131.3472
G01 X52.0005 Y131.1826
G01 X52.2760 Y130.9967
G01 X52.5366 Y130.7904
G01 X52.7774 Y130.5302
G01 X52.9957 Y130.2508
G01 X53.1899 Y129.9542
G01 X53.3586 Y129.6424
G01 X53.5008 Y129.3176
G01 X53.6154 Y128.9821
G01 X53.7016 Y128.6382
G01 X53.7588 Y128.2884
G01 X53.8261 Y127.8014
G01 X53.8692 Y127.3117
G01 X53.8879 Y126.8204
G01 X53.8823 Y126.3289
G01 X53.8993 Y121.4541
G01 X53.9139 Y116.5793
G01 X53.9262 Y111.7045
G01 X53.9360 Y106.8297
G01 X53.9434 Y101.9549
G01 X53.9485 Y97.0801
G01 X53.9511 Y92.2053
G01 X53.9514 Y87.3305
G01 X53.9492 Y82.4556
G01 X53.9447 Y77.5808
G01 X53.9378 Y72.7060
G01 X53.9285 Y67.8312
G01 X53.9275 Y67.0715
G01 X53.9265 Y66.3117
G01 X53.9255 Y65.5519
G01 X53.9244 Y64.7921
G01 X53.9234 Y64.0323
G01 X53.9224 Y63.2725
G01 X53.9213 Y62.5128
G01 X53.9203 Y61.7530
G01 X53.9193 Y60.9932
G01 X53.9182 Y60.2334
G01 X53.9172 Y59.4736
G01 X53.9162 Y58.7138
G01 X53.9152 Y57.9540
G01 X53.9142 Y57.1942
G01 X53.9132 Y56.4344
G01 X53.9122 Y55.6746
G01 X53.9112 Y54.9148
G01 X53.9103 Y54.1550
G01 X53.9093 Y53.3952
G01 X53.9084 Y52.6354
G01 X53.9198 Y52.2220
G01 X53.9222 Y51.8085
G01 X53.9155 Y51.3951
G01 X53.8998 Y50.9818
G01 X53.8954 Y50.9364
G01 X53.8889 Y50.8913
G01 X53.8802 Y50.8465
G01 X53.8695 Y50.8022
G01 X53.8566 Y50.7584
G01 X53.8417 Y50.7153
G01 X53.8247 Y50.6729
G01 X53.8058 Y50.6314
G01 X53.7849 Y50.5909
G01 X53.7621 Y50.5514
G01 X53.7375 Y50.5130
G01 X53.7111 Y50.4758
G01 X53.4981 Y50.1005
G01 X53.2331 Y49.5977
G01 X51.9315 Y49.5797
G01 X50.6297 Y49.5774
G01 X49.3281 Y49.5907
G01 X48.0267 Y49.6197
G01 X47.0442 Y49.5678
G01 X46.0637 Y49.4878
G01 X45.0858 Y49.3799
G01 X44.1115 Y49.2441
G01 X43.9568 Y49.2171
G01 X43.8039 Y49.1816
G01 X43.6532 Y49.1378
G01 X43.5051 Y49.0857
G01 X43.3602 Y49.0255
G01 X43.2187 Y48.9574
G01 X43.0813 Y48.8816
G01 X42.9482 Y48.7983
G01 X42.8862 Y48.7270
G01 X42.8288 Y48.6519
G01 X42.7764 Y48.5732
G01 X42.7292 Y48.4913
G01 X42.6873 Y48.4066
G01 X42.6509 Y48.3193
G01 X42.6202 Y48.2299
G01 X42.5953 Y48.1387
G01 X42.5764 Y48.0461
G01 X42.5633 Y47.9525
G01 X42.5564 Y47.8582
G01 X42.5555 Y47.7637
G01 X42.5463 Y47.2479
G01 X42.5547 Y46.7321
G01 X42.5809 Y46.2169
G01 X42.6247 Y45.7029
G01 X42.6420 Y45.6159
G01 X42.6669 Y45.5308
G01 X42.6992 Y45.4483
G01 X42.7387 Y45.3689
G01 X42.7851 Y45.2933
G01 X42.8380 Y45.2222
G01 X42.8971 Y45.1560
G01 X42.9617 Y45.0953
G01 X43.0315 Y45.0406
G01 X43.1058 Y44.9922
G01 X43.1841 Y44.9507
G01 X43.2658 Y44.9162
G01 X43.3503 Y44.8891
G01 X43.4368 Y44.8696
G01 X43.5246 Y44.8579
G01 X43.6132 Y44.8539
G01 X104.1757
G01 X104.2187 Y44.8548
G01 X104.2616 Y44.8576
G01 X104.3044 Y44.8622
G01 X104.3470 Y44.8686
G01 X104.3892 Y44.8769
G01 X104.4310 Y44.8869
G01 X104.4724 Y44.8988
G01 X104.5132 Y44.9124
G01 X104.5534 Y44.9278
G01 X104.5929 Y44.9449
G01 X104.6316 Y44.9637
G01 X104.6695 Y44.9842
G01 X104.7064 Y45.0062
G01 X104.7424 Y45.0299
G01 X104.7773 Y45.0550
G01 X104.8111 Y45.0817
G01 X104.8437 Y45.1097
G01 X104.8751 Y45.1392
G01 X104.9052 Y45.1700
G01 X104.9339 Y45.2020
G01 X104.9612 Y45.2353
G01 X104.9871 Y45.2697
G01 X105.0114 Y45.3052
G01 X105.0342 Y45.3417
G01 X105.0554 Y45.3791
G01 X105.0750 Y45.4174
G01 X105.0929 Y45.4566
G01 X105.1091 Y45.4964
G01 X105.1235 Y45.5370
G01 X105.1362 Y45.5781
G01 X105.1471 Y45.6197
G01 X105.1562 Y45.6618
G01 X105.3471 Y45.5965
G01 X106.8937
G01 X107.0904 Y45.5409
G01 X107.0721 Y45.2788
G01 X107.0537 Y45.0167
G01 X107.0352 Y44.7546
G01 X107.0167 Y44.4925
G01 X106.9924 Y44.1249
G01 X106.9693 Y43.7572
G01 X106.9474 Y43.3894
G01 X106.9266 Y43.0216
G01 X40.9504
G01 X40.9198 Y43.4017
G01 X40.8891 Y43.7819
G01 X40.8584 Y44.1620
G01 X40.8276 Y44.5421
G01 X40.7810 Y44.9856
G01 X40.7450 Y45.4300
G01 X40.7196 Y45.8752
G01 X40.7048 Y46.3208
G01 X40.7007 Y46.7667
G01 X40.7071 Y47.2125
G01 X40.7242 Y47.6580
G01 X40.7519 Y48.1031
G01 X40.7859 Y48.3970
G01 X40.8476 Y48.6863
G01 X40.9365 Y48.9685
G01 X41.0518 Y49.2410
G01 X41.1923 Y49.5013
G01 X41.3569 Y49.7472
G01 X41.5441 Y49.9763
G01 X41.7522 Y50.1866
G01 X41.9816 Y50.3544
G01 X42.2217 Y50.5066
G01 X42.4715 Y50.6423
G01 X42.7297 Y50.7611
G01 X42.9953 Y50.8623
G01 X43.2671 Y50.9456
G01 X43.5438 Y51.0105
G01 X43.8243 Y51.0568
G01 X44.7244 Y51.1853
G01 X45.6273 Y51.2922
G01 X46.5326 Y51.3774
G01 X47.4396 Y51.4409
G01 X48.3479 Y51.4826
G01 X49.2569 Y51.5025
G01 X50.1662 Y51.5007
G01 X51.0751 Y51.4770
G01 X51.1187 Y51.4780
G01 X51.1622 Y51.4808
G01 X51.2055 Y51.4856
G01 X51.2486 Y51.4922
G01 X51.2914 Y51.5007
G01 X51.3337 Y51.5111
G01 X51.3756 Y51.5233
G01 X51.4169 Y51.5373
G01 X51.4575 Y51.5530
G01 X51.4974 Y51.5706
G01 X51.5365 Y51.5899
G01 X51.5748 Y51.6108
G01 X51.6120 Y51.6334
G01 X51.6483 Y51.6576
G01 X51.6835 Y51.6834
G01 X51.7175 Y51.7106
G01 X51.7503 Y51.7394
G01 X51.7818 Y51.7695
G01 X51.8120 Y51.8010
G01 X51.8407 Y51.8337
G01 X51.8680 Y51.8677
G01 X51.8938 Y51.9029
G01 X51.9181 Y51.9391
G01 X51.9407 Y51.9763
G01 X51.9617 Y52.0145
G01 X51.9810 Y52.0536
G01 X51.9986 Y52.0935
G01 X52.0145 Y52.1341
G01 X52.0285 Y52.1754
G01 X52.0408 Y52.2172
G01 X52.0512 Y52.2596
G01 X52.0597 Y52.3023
G01 X52.0664 Y52.3454
G01 X52.0712 Y52.3887
G01 X52.0741 Y52.4322
G01 X52.0751 Y52.4758
G01 X52.0760 Y53.2212
G01 X52.0769 Y53.9666
G01 X52.0779 Y54.7119
G01 X52.0788 Y55.4573
G01 X52.0798 Y56.2027
G01 X52.0808 Y56.9481
G01 X52.0817 Y57.6934
G01 X52.0827 Y58.4388
G01 X52.0837 Y59.1842
G01 X52.0847 Y59.9296
G01 X52.0858 Y60.6750
G01 X52.0868 Y61.4203
G01 X52.0878 Y62.1657
G01 X52.0888 Y62.9111
G01 X52.0898 Y63.6565
G01 X52.0908 Y64.4019
G01 X52.0918 Y65.1473
G01 X52.0928 Y65.8927
G01 X52.0938 Y66.6381
G01 X52.0948 Y67.3835
G01 X52.0958 Y68.1289
G01 X52.0968 Y68.8743
G01 X52.0978 Y69.6197
G01 X52.0987 Y70.3651
G01 X52.0997 Y71.1105
G01 X52.1006 Y71.8559
G01 X52.1015 Y72.6013
G01 X52.1024 Y73.3467
G01 X52.1033 Y74.0921
G01 X52.1042 Y74.8376
G01 X52.1050 Y75.5830
G01 X52.1058 Y76.3284
G01 X52.1066 Y77.0738
G01 X52.1074 Y77.8192
G01 X52.1082 Y78.5646
G01 X52.1089 Y79.3101
G01 X52.1096 Y80.0555
G01 X52.1103 Y80.8009
G01 X52.1109 Y81.5464
G01 X52.1115 Y82.2918
G01 X52.1121 Y83.0372
G01 X52.1127 Y83.7827
G01 X52.1132 Y84.5281
G01 X52.1136 Y85.2735
G01 X52.1141 Y86.0190
G01 X52.1145 Y86.7644
G01 X52.1148 Y87.5098
G01 X52.1152 Y88.2553
G01 X52.1154 Y89.0007
G01 X52.1157 Y89.7462
G01 X52.1159 Y90.4916
G01 X52.1160 Y91.2371
G01 X52.1161 Y91.9825
G01 X52.1162 Y92.7280
G01 Y93.4734
G01 X52.1161 Y94.2189
G01 X52.1160 Y94.9644
G01 X52.1159 Y95.7098
G01 X52.1155 Y99.6401
G01 X52.1124 Y103.5704
G01 X52.1068 Y107.5006
G01 X52.0985 Y111.4309
G01 X52.0876 Y115.3611
G01 X52.0742 Y119.2914
G01 X52.0581 Y123.2216
G01 X52.0394 Y127.1518
G01 X52.0352 Y127.3965
G01 X52.0169 Y127.6405
G01 X51.9844 Y127.8831
G01 X51.9380 Y128.1233
G01 X51.8777 Y128.3605
G01 X51.8038 Y128.5938
G01 X51.7165 Y128.8224
G01 X51.6161 Y129.0456
G01 X51.5461 Y129.1501
G01 X51.4693 Y129.2497
G01 X51.3859 Y129.3439
G01 X51.2964 Y129.4323
G01 X51.2011 Y129.5144
G01 X51.1005 Y129.5900
G01 X50.9951 Y129.6586
G01 X50.8853 Y129.7200
G01 X50.7716 Y129.7738
G01 X50.6546 Y129.8199
G01 X50.5347 Y129.8580
G01 X50.4125 Y129.8880
G01 X49.8797 Y130.0016
G01 X49.3407 Y130.0803
G01 X48.7976 Y130.1237
G01 X48.2529 Y130.1315
G01 X47.3442
G01 X47.2931 Y132.8411
G01 X47.2307 Y135.5505
G01 X47.1571 Y138.2595
G01 X47.0724 Y140.9683
G01 X46.9764 Y143.6766
G01 X46.8693 Y146.3846
G01 X46.7509 Y149.0921
G01 X46.6214 Y151.7990
G01 X46.6158 Y152.1861
G01 X46.6398 Y152.5724
G01 X46.6931 Y152.9559
G01 X46.7755 Y153.3341
G01 X46.8865 Y153.7049
G01 X47.0254 Y154.0663
G01 X47.1914 Y154.4160
G01 X47.3835 Y154.7520
G01 X47.5621 Y154.9775
G01 X47.7548 Y155.1911
G01 X47.9608 Y155.3918
G01 X48.1793 Y155.5789
G01 X48.4094 Y155.7516
G01 X48.6501 Y155.9091
G01 X48.9005 Y156.0508
G01 X49.1594 Y156.1762
G01 X49.4258 Y156.2846
G01 X49.6987 Y156.3757
G01 X49.9769 Y156.4490
G01 X50.2592 Y156.5043
G01 X51.6830 Y156.7842
G01 X53.1067 Y157.0647
G01 X54.5303 Y157.3457
G01 X55.9537 Y157.6273
G01 X57.1715 Y157.8625
G01 X58.3937 Y158.0734
G01 X59.6198 Y158.2598
G01 X60.8494 Y158.4217
G01 X62.0820 Y158.5590
G01 X63.3171 Y158.6716
G01 X64.5542 Y158.7596
G01 X65.7929 Y158.8229
G01 X67.7664 Y158.9418
G01 X69.7413 Y159.0348
G01 X71.7172 Y159.1020
G01 X73.6938 Y159.1434
G01 X75.6709 Y159.1589
G01 X77.6479 Y159.1486
G01 X79.6246 Y159.1124
G01 X81.6008 Y159.0503
G01 X82.9869 Y158.9852
G01 X84.3717 Y158.8959
G01 X85.7547 Y158.7825
G01 X87.1355 Y158.6450
G01 X88.5137 Y158.4834
G01 X89.8889 Y158.2979
G01 X91.2607 Y158.0884
G01 X92.6286 Y157.8550
G01 X93.9922 Y157.5978
G01 X95.3511 Y157.3169
G01 X96.7049 Y157.0124
G01 X98.0532 Y156.6843
G01 X98.3729 Y156.6051
G01 X98.6885 Y156.5110
G01 X98.9994 Y156.4021
G01 X99.3047 Y156.2788
G01 X99.6039 Y156.1412
G01 X99.8964 Y155.9897
G01 X100.1813 Y155.8246
G01 X100.4582 Y155.6462
G01 X100.6509 Y155.4809
G01 X100.8317 Y155.3027
G01 X100.9998 Y155.1125
G01 X101.1545 Y154.9111
G01 X101.2949 Y154.6996
G01 X101.4204 Y154.4789
G01 X101.5304 Y154.2501
G01 X101.6245 Y154.0143
G01 X101.7020 Y153.7726
G01 X101.7628 Y153.5261
G01 X101.8064 Y153.2760
G01 X101.8327 Y153.0235
G01 X101.8785 Y152.2325
G01 X101.9023 Y151.4406
G01 X101.9040 Y150.6483
G01 X101.8836 Y149.8563
G01 X101.8827 Y149.7551
G01 X101.7445 Y131.0415
G01 X101.7376 Y130.1288
G01 X101.1019 Y130.1456
G01 X100.4660 Y130.1350
G01 X99.8312 Y130.0970
G01 X99.1986 Y130.0315
G01 X99.0552 Y130.0163
G01 X98.9128 Y129.9943
G01 X98.7716 Y129.9654
G01 X98.6319 Y129.9297
G01 X98.4941 Y129.8874
G01 X98.3585 Y129.8385
G01 X98.2255 Y129.7831
G01 X98.0952 Y129.7214
G01 X97.9681 Y129.6535
G01 X97.8443 Y129.5795
G01 X97.7243 Y129.4997
G01 X97.6083 Y129.4142
G01 X97.5103 Y129.3113
G01 X97.4173 Y129.2039
G01 X97.3296 Y129.0922
G01 X97.2473 Y128.9764
G01 X97.1706 Y128.8568
G01 X97.0997 Y128.7337
G01 X97.0347 Y128.6074
G01 X96.9759 Y128.4781
G01 X96.9233 Y128.3461
G01 X96.8770 Y128.2118
G01 X96.8373 Y128.0755
G01 X96.8040 Y127.9373
G01 X96.7234 Y127.5730
G01 X96.6550 Y127.2061
G01 X96.5991 Y126.8372
G01 X96.5557 Y126.4666
G01 X96.5248 Y126.0947
G01 X96.5064 Y125.7220
G01 X96.5006 Y125.3488
G01 X96.5075 Y124.9757
G01 X96.5084 Y124.2539
G01 X96.5094 Y123.5320
G01 X96.5103 Y122.8101
G01 X96.5112 Y122.0882
G01 X96.5121 Y121.3663
G01 X96.5129 Y120.6445
G01 X96.5138 Y119.9226
G01 X96.5146 Y119.2007
G01 X96.5153 Y118.4788
G01 X96.5161 Y117.7569
G01 X96.5168 Y117.0351
G01 X96.5175 Y116.3132
G01 X96.5181 Y115.5913
G01 X96.5188 Y114.8694
G01 X96.5194 Y114.1475
G01 X96.5200 Y113.4256
G01 X96.5206 Y112.7038
G01 X96.5212 Y111.9819
G01 X96.5217 Y111.2600
G01 X96.5222 Y110.5381
G01 X96.5227 Y109.8162
G01 X96.5232 Y109.0943
G01 X96.5236 Y108.3724
G01 X96.5241 Y107.6505
G01 X96.5245 Y106.9286
G01 X96.5249 Y106.2068
G01 X96.5253 Y105.4849
G01 X96.5256 Y104.7630
G01 X96.5260 Y104.0411
G01 X96.5263 Y103.3192
G01 X96.5266 Y102.5973
G01 X96.5269 Y101.8754
G01 X96.5272 Y101.1535
G01 X96.5275 Y100.4316
G01 X96.5277 Y99.7097
G01 X96.5280 Y98.9878
G01 X96.5282 Y98.2659
G01 X96.5284 Y97.5440
G01 X96.5286 Y96.8221
G01 X96.5288 Y96.1002
G01 X96.5290 Y95.3783
G01 X96.5292 Y94.6564
G01 X96.5293 Y93.9345
G01 X96.5295 Y93.2126
G01 X96.5296 Y92.4907
G01 X96.5297 Y91.7688
G01 X96.5299 Y91.0469
G01 X96.5300 Y90.3250
G01 X96.5301 Y89.6031
G01 X96.5302 Y88.8812
G01 X96.5303 Y88.1593
G01 Y87.4374
G01 X96.5304 Y86.7155
G01 X96.5305 Y85.9935
G01 X96.5306 Y85.2716
G01 Y84.5497
G01 X96.5307 Y83.8278
G01 Y83.1059
G01 X96.5308 Y82.3840
G01 Y81.6621
G01 X96.5309 Y80.9402
G01 Y80.2183
G01 Y79.4963
G01 X96.5310 Y78.7744
G01 Y78.0525
G01 Y77.3306
G01 X96.5311 Y76.6087
G01 Y75.8868
G01 Y75.1648
G01 X96.5312 Y74.4429
G01 Y73.7210
G01 X96.5313 Y72.9991
G01 Y72.2772
G01 Y71.5552
G01 X96.5314 Y70.8333
G01 Y70.1114
G01 X96.5315 Y69.3895
G01 X96.5316 Y68.6676
G01 Y67.9456
G01 X96.5317 Y67.2237
G01 X96.5318 Y66.5018
G01 X96.5319 Y65.7799
G01 X96.5320 Y65.0579
G01 X96.5321 Y64.3360
G01 X96.5322 Y63.6141
G01 X96.5323 Y62.8921
G01 X96.5324 Y62.1702
G01 X96.5325 Y61.4483
G01 X96.5327 Y60.7264
G01 X96.5328 Y60.0044
G01 X96.5330 Y59.2825
G01 X96.5332 Y58.5606
G01 X96.5334 Y57.8386
G01 X96.5336 Y57.1167
G01 X96.5338 Y56.3948
G01 X96.5340 Y55.6728
G01 X96.5342 Y54.9509
G01 X96.5218 Y54.2938
G01 X96.5298 Y53.6367
G01 X96.5581 Y52.9801
G01 X96.6067 Y52.3248
G01 X96.6241 Y52.2379
G01 X96.6491 Y52.1529
G01 X96.6815 Y52.0705
G01 X96.7210 Y51.9912
G01 X96.7675 Y51.9158
G01 X96.8204 Y51.8447
G01 X96.8794 Y51.7787
G01 X96.9440 Y51.7181
G01 X97.0138 Y51.6634
G01 X97.0881 Y51.6152
G01 X97.1663 Y51.5737
G01 X97.2480 Y51.5393
G01 X97.3323 Y51.5123
G01 X97.4187 Y51.4928
G01 X97.5065 Y51.4811
G01 X97.5950 Y51.4772
G01 X101.5702
G01 X101.9870 Y51.4241
G01 X102.4022 Y51.3603
G01 X102.8157 Y51.2856
G01 X103.2270 Y51.2002
G01 X103.6361 Y51.1041
G01 X104.0424 Y50.9974
G01 X104.4459 Y50.8802
G01 X104.8461 Y50.7525
G01 X105.0709 Y50.6672
G01 X105.2887 Y50.5656
G01 X105.4984 Y50.4482
G01 X105.6989 Y50.3156
G01 X105.8890 Y50.1685
G01 X106.0677 Y50.0078
G01 X106.2340 Y49.8343
G01 X106.3871 Y49.6490
G01 X106.5260 Y49.4529
G01 X106.6501 Y49.2470
G01 X106.7586 Y49.0325
G01 X106.8509 Y48.8106
G01 X106.9418 Y48.5136
G01 X107.0172 Y48.2122
G01 X107.0769 Y47.9074
G01 X107.1208 Y47.5998
G01 X107.1488 Y47.2904
G01 X107.1607 Y46.9800
G01 X107.1565 Y46.6694
G01 X107.1363 Y46.3594
G01 X107.1269 Y46.1547
G01 X107.1161 Y45.9500
G01 X107.1039 Y45.7454
G01 X107.0904 Y45.5409
G01 X106.8937 Y45.5965
M107
G00 Z2.0000


;No. 4: Hole 53
G00 X84.7826 Y70.7127 Z2.0000
G00 Z0.5000
G01 Z0.0000 F400
G01 Z-2.0000
M106 S240
G01 X81.8210 F1000
G01 X82.7079 Y69.2127
G01 X78.7229
G01 X79.3783 Y67.7127
G01 X69.4856
G01 X70.0441 Y69.2127
G01 X66.1868
G01 X66.9422 Y70.7127
G01 X64.1246
G01 X65.0740 Y72.2127
G01 X62.6233
G01 X63.7435 Y73.7127
G01 X61.4838
G01 X60.6159 Y75.2127
G01 X62.7548
G01 X62.0179 Y76.7127
G01 X59.9694
G01 X59.5141 Y78.2127
G01 X61.4841
G01 X61.1234 Y79.7127
G01 X59.2311
G01 X59.1100 Y81.2127
G01 X60.9164
G01 X60.8497 Y82.7127
G01 X59.1020
G01 X59.1019 Y84.2127
G01 X60.8458
G01 X60.8425 Y85.7127
G01 X59.1019
G01 Y87.2127
G01 X60.8399
G01 X60.8378 Y88.7127
G01 X59.1018
G01 Y90.2127
G01 X60.8362
G01 X60.8350 Y91.7127
G01 X59.1018
G01 X59.1017 Y93.2127
G01 X60.8343
G01 X60.8339 Y94.7127
G01 X59.1017
G01 Y96.2127
G01 X60.8338
G01 X60.8339 Y97.7127
G01 X59.1016
G01 Y99.2127
G01 X60.8343
G01 X60.8347 Y100.7127
G01 X59.1016
G01 X59.1015 Y102.2127
G01 X60.8353
G01 X60.8359 Y103.7127
G01 X59.1015
G01 Y105.2127
G01 X60.8365
G01 X60.8370 Y106.7127
G01 X59.1011
G01 X59.1002 Y108.2127
G01 X60.8374
G01 X60.8376 Y109.7127
G01 X59.0989
G01 X59.0974 Y111.2127
G01 X60.8376
G01 X60.8373 Y112.7127
G01 X59.0958
G01 X59.0942 Y114.2127
G01 X60.8367
G01 X60.8357 Y115.7127
G01 X59.0927
G01 X59.0915 Y117.2127
G01 X60.8342
G01 X60.8323 Y118.7127
G01 X59.0906
G01 X59.0902 Y120.2127
G01 X60.8299
G01 X60.8269 Y121.7127
G01 X59.0905
G01 X59.0914 Y123.2127
G01 X60.8232
G01 X60.8188 Y124.7127
G01 X59.0931
G01 X59.0959 Y126.2127
G01 X60.8137
G01 X60.8078 Y127.7127
G01 X59.0996
G01 X59.1046 Y129.2127
G01 X60.8022
G01 X60.9188 Y130.7127
G01 X59.1147
G01 X59.2616 Y132.2127
G01 X61.3834
G01 Y133.7127
G01 X62.7273
G01 X59.7462
G01 X61.2431 Y135.2127
G01 X87.6215
G01 X89.1081 Y133.7127
G01 X86.0453
G01 X87.3976
G01 Y132.2127
G01 X89.5809
G01 X89.6912 Y130.7127
G01 X87.8627
G01 X87.9723 Y129.2127
G01 X89.6950
G01 X89.6989 Y127.7127
G01 X87.9563
G01 X87.9425 Y126.2127
G01 X89.7027
G01 X89.7066 Y124.7127
G01 X87.9321
G01 X87.9247 Y123.2127
G01 X89.7103
G01 X89.7141 Y121.7127
G01 X87.9199
G01 X87.9174 Y120.2127
G01 X89.7176
G01 X89.7211 Y118.7127
G01 X87.9168
G01 X87.9177 Y117.2127
G01 X89.7243
G01 X89.7274 Y115.7127
G01 X87.9198
G01 X87.9227 Y114.2127
G01 X89.7302
G01 X89.7327 Y112.7127
G01 X87.9262
G01 X87.9297 Y111.2127
G01 X89.7349
G01 X89.7367 Y109.7127
G01 X87.9329
G01 X87.9356 Y108.2127
G01 X89.7382
G01 X89.7392 Y106.7127
G01 X87.9373
G01 X87.9377 Y105.2127
G01 X89.7398
G01 X89.7399 Y103.7127
G01 X87.9382
G01 X87.9396 Y102.2127
G01 X89.7395
G01 X89.7385 Y100.7127
G01 X87.9415
G01 X87.9437 Y99.2127
G01 X89.7370
G01 X89.7348 Y97.7127
G01 X87.9460
G01 X87.9482 Y96.2127
G01 X89.7320
G01 X89.7285 Y94.7127
G01 X87.9501
G01 X87.9514 Y93.2127
G01 X89.7242
G01 X89.7192 Y91.7127
G01 X87.9519
G01 X87.9514 Y90.2127
G01 X89.7135
G01 X89.7069 Y88.7127
G01 X87.9497
G01 X87.9465 Y87.2127
G01 X89.6994
G01 X89.6911 Y85.7127
G01 X87.9417
G01 X87.9350 Y84.2127
G01 X89.6818
G01 X89.6716 Y82.7127
G01 X87.9262
G01 X87.8545 Y81.2127
G01 X89.6604
G01 X89.5759 Y79.7127
G01 X87.6435
G01 X87.2798 Y78.2127
G01 X89.3263
G01 X88.8982 Y76.7127
G01 X86.7438
G01 X86.0058 Y75.2127
G01 X88.2725
G01 X87.4185 Y73.7127
G01 X85.0167
G01 X86.2857 Y72.2127
G01 X86.4264 Y72.0696
G01 X85.9754 Y71.5825
G01 X85.5043 Y71.1147
G01 X85.0140 Y70.6671
G01 X84.5054 Y70.2405
G01 X83.9793 Y69.8356
G01 X83.4367 Y69.4532
G01 X82.8785 Y69.0938
G01 X82.3057 Y68.7582
G01 X81.7193 Y68.4470
G01 X81.1204 Y68.1606
G01 X80.5099 Y67.8997
G01 X79.8891 Y67.6645
G01 X79.2589 Y67.4557
G01 X78.6206 Y67.2735
G01 X77.9751 Y67.1182
G01 X77.3237 Y66.9902
G01 X76.6675 Y66.8897
G01 X76.0077 Y66.8167
G01 X75.3453 Y66.7716
G01 X74.6817 Y66.7542
G01 X73.9428 Y66.7514
G01 X73.2047 Y66.7835
G01 X72.4689 Y66.8504
G01 X71.7370 Y66.9519
G01 X71.0108 Y67.0878
G01 X70.2917 Y67.2578
G01 X69.5815 Y67.4616
G01 X68.8817 Y67.6986
G01 X68.1939 Y67.9684
G01 X67.5195 Y68.2703
G01 X66.8602 Y68.6037
G01 X66.2173 Y68.9678
G01 X65.5923 Y69.3619
G01 X64.9865 Y69.7850
G01 X64.4014 Y70.2362
G01 X63.8383 Y70.7145
G01 X63.2983 Y71.2188
G01 X62.7828 Y71.7481
G01 X62.2927 Y72.3011
G01 X61.8294 Y72.8765
G01 X61.4803 Y73.3598
G01 X61.1513 Y73.8570
G01 X60.8430 Y74.3673
G01 X60.5559 Y74.8898
G01 X60.2905 Y75.4236
G01 X60.0472 Y75.9678
G01 X59.8264 Y76.5216
G01 X59.6286 Y77.0840
G01 X59.4540 Y77.6540
G01 X59.3029 Y78.2307
G01 X59.1756 Y78.8131
G01 X59.0723 Y79.4003
G01 X58.9932 Y79.9912
G01 X58.9383 Y80.5848
G01 X58.9079 Y81.1802
G01 X58.9020 Y81.7763
G01 X58.9015 Y105.7328
G01 X58.9004 Y107.7057
G01 X58.8989 Y109.6785
G01 X58.8971 Y111.6514
G01 X58.8948 Y113.6243
G01 X58.8946 Y113.8709
G01 X58.8943 Y114.1174
G01 X58.8940 Y114.3640
G01 X58.8938 Y114.6106
G01 X58.8935 Y114.8571
G01 X58.8933 Y115.1037
G01 X58.8872 Y119.0829
G01 X58.8907 Y123.0620
G01 X58.9039 Y127.0412
G01 X58.9268 Y131.0203
G01 X58.9426 Y131.4133
G01 X58.9820 Y131.8046
G01 X59.0448 Y132.1928
G01 X59.1308 Y132.5765
G01 X59.2397 Y132.9544
G01 X59.3712 Y133.3251
G01 X59.5246 Y133.6872
G01 X59.6995 Y134.0394
G01 X59.8457 Y134.2538
G01 X60.0054 Y134.4582
G01 X60.1781 Y134.6518
G01 X60.3629 Y134.8339
G01 X60.5592 Y135.0036
G01 X60.7660 Y135.1602
G01 X60.9826 Y135.3030
G01 X61.2080 Y135.4316
G01 X61.4412 Y135.5452
G01 X61.6813 Y135.6435
G01 X61.9272 Y135.7260
G01 X62.1780 Y135.7924
G01 X62.5320 Y135.8774
G01 X62.8886 Y135.9506
G01 X63.2474 Y136.0120
G01 X63.6081 Y136.0615
G01 X63.9702 Y136.0991
G01 X64.3334 Y136.1246
G01 X64.6971 Y136.1382
G01 X65.0612 Y136.1397
G01 X69.9874 Y136.1761
G01 X74.9138 Y136.1833
G01 X79.8401 Y136.1615
G01 X84.7663 Y136.1105
G01 X85.1731 Y136.0899
G01 X85.5780 Y136.0454
G01 X85.9796 Y135.9771
G01 X86.3765 Y135.8853
G01 X86.7673 Y135.7703
G01 X87.1506 Y135.6326
G01 X87.5252 Y135.4725
G01 X87.8897 Y135.2906
G01 X88.1166 Y135.1408
G01 X88.3325 Y134.9756
G01 X88.5363 Y134.7957
G01 X88.7272 Y134.6021
G01 X88.9042 Y134.3957
G01 X89.0663 Y134.1775
G01 X89.2129 Y133.9486
G01 X89.3433 Y133.7100
G01 X89.4567 Y133.4629
G01 X89.5527 Y133.2086
G01 X89.6308 Y132.9482
G01 X89.6905 Y132.6830
G01 X89.7491 Y132.3883
G01 X89.7982 Y132.0920
G01 X89.8379 Y131.7942
G01 X89.8679 Y131.4953
G01 X89.8884 Y131.1956
G01 X89.8993 Y130.8953
G01 X89.9006 Y130.5949
G01 X89.8923 Y130.2946
G01 X89.8935 Y129.7980
G01 X89.8948 Y129.3013
G01 X89.8961 Y128.8047
G01 X89.8973 Y128.3080
G01 X89.8986 Y127.8114
G01 X89.8999 Y127.3148
G01 X89.9012 Y126.8181
G01 X89.9024 Y126.3215
G01 X89.9037 Y125.8249
G01 X89.9050 Y125.3282
G01 X89.9063 Y124.8316
G01 X89.9075 Y124.3350
G01 X89.9088 Y123.8384
G01 X89.9100 Y123.3418
G01 X89.9113 Y122.8451
G01 X89.9125 Y122.3485
G01 X89.9137 Y121.8519
G01 X89.9149 Y121.3553
G01 X89.9161 Y120.8587
G01 X89.9173 Y120.3621
G01 X89.9185 Y119.8655
G01 X89.9196 Y119.3689
G01 X89.9207 Y118.8723
G01 X89.9218 Y118.3757
G01 X89.9229 Y117.8791
G01 X89.9240 Y117.3825
G01 X89.9368 Y112.7936
G01 X89.9433 Y108.2047
G01 X89.9434 Y103.6158
G01 X89.9371 Y99.0268
G01 X89.9245 Y94.4379
G01 X89.9056 Y89.8490
G01 X89.8803 Y85.2601
G01 X89.8486 Y80.6713
G01 X89.8130 Y80.0826
G01 X89.7524 Y79.4959
G01 X89.6670 Y78.9123
G01 X89.5570 Y78.3328
G01 X89.4224 Y77.7586
G01 X89.2636 Y77.1906
G01 X89.0809 Y76.6298
G01 X88.8745 Y76.0772
G01 X88.6449 Y75.5340
G01 X88.3925 Y75.0009
G01 X88.1176 Y74.4790
G01 X87.8209 Y73.9693
G01 X87.5028 Y73.4726
G01 X87.1640 Y72.9899
G01 X86.8049 Y72.5219
G01 X86.4264 Y72.0696
G01 X86.2857 Y72.2127
G01 X83.6872
G01 X83.5116 Y72.3214
G01 X83.9460 Y72.7685
G01 X84.3600 Y73.2345
G01 X84.7530 Y73.7184
G01 X85.1241 Y74.2192
G01 X85.4725 Y74.7361
G01 X85.7976 Y75.2680
G01 X86.0988 Y75.8137
G01 X86.3754 Y76.3723
G01 X86.6269 Y76.9427
G01 X86.8528 Y77.5237
G01 X87.0527 Y78.1141
G01 X87.2262 Y78.7128
G01 X87.3728 Y79.3187
G01 X87.4924 Y79.9305
G01 X87.5847 Y80.5470
G01 X87.6495 Y81.1669
G01 X87.6979 Y82.0522
G01 X87.7287 Y82.9383
G01 X87.7419 Y83.8248
G01 X87.7374 Y84.7115
G01 X87.7409 Y88.7850
G01 X87.7427 Y92.8585
G01 Y96.9321
G01 X87.7411 Y101.0056
G01 X87.7378 Y105.0791
G01 X87.7327 Y109.1527
G01 X87.7260 Y113.2262
G01 X87.7176 Y117.2997
G01 X87.7183 Y120.3976
G01 X87.7262 Y123.4955
G01 X87.7411 Y126.5933
G01 X87.7631 Y129.6911
G01 X87.7506 Y130.0573
G01 X87.7142 Y130.4219
G01 X87.6540 Y130.7834
G01 X87.5704 Y131.1401
G01 X87.4637 Y131.4907
G01 X87.3343 Y131.8335
G01 X87.1827 Y132.1671
G01 X87.0097 Y132.4901
G01 X86.8450 Y132.7123
G01 X86.6648 Y132.9221
G01 X86.4701 Y133.1185
G01 X86.2619 Y133.3006
G01 X86.0412 Y133.4673
G01 X85.8092 Y133.6178
G01 X85.5670 Y133.7514
G01 X85.3159 Y133.8673
G01 X85.0572 Y133.9650
G01 X84.7921 Y134.0440
G01 X84.5221 Y134.1039
G01 X84.2485 Y134.1443
G01 X83.6717 Y134.2042
G01 X83.0927 Y134.2365
G01 X82.5128 Y134.2412
G01 X81.9334 Y134.2183
G01 X79.8747 Y134.1865
G01 X77.8160 Y134.1643
G01 X75.7572 Y134.1517
G01 X73.6983 Y134.1487
G01 X71.6395 Y134.1553
G01 X69.5807 Y134.1714
G01 X67.5220 Y134.1972
G01 X65.4634 Y134.2326
G01 X65.1063 Y134.2238
G01 X64.7507 Y134.1902
G01 X64.3982 Y134.1319
G01 X64.0507 Y134.0493
G01 X63.7098 Y133.9426
G01 X63.3771 Y133.8126
G01 X63.0543 Y133.6597
G01 X62.7428 Y133.4847
G01 X62.5338 Y133.3240
G01 X62.3361 Y133.1496
G01 X62.1505 Y132.9623
G01 X61.9780 Y132.7630
G01 X61.8193 Y132.5524
G01 X61.6751 Y132.3317
G01 X61.5461 Y132.1017
G01 X61.4328 Y131.8636
G01 X61.3359 Y131.6185
G01 X61.2556 Y131.3673
G01 X61.1925 Y131.1113
G01 X61.1467 Y130.8517
G01 X61.0661 Y130.2925
G01 X61.0154 Y129.7299
G01 X60.9947 Y129.1653
G01 X61.0040 Y128.6005
G01 X61.0158 Y123.9598
G01 X61.0253 Y119.3190
G01 X61.0326 Y114.6783
G01 X61.0376 Y110.0376
G01 X61.0404 Y105.3969
G01 X61.0409 Y100.7561
G01 X61.0392 Y96.1154
G01 X61.0352 Y91.4747
G01 X61.0347 Y89.1103
G01 X61.0393 Y86.7459
G01 X61.0490 Y84.3815
G01 X61.0638 Y82.0172
G01 X61.0929 Y81.4010
G01 X61.1487 Y80.7866
G01 X61.2311 Y80.1752
G01 X61.3400 Y79.5679
G01 X61.4751 Y78.9659
G01 X61.6362 Y78.3704
G01 X61.8229 Y77.7824
G01 X62.0350 Y77.2031
G01 X62.2720 Y76.6335
G01 X62.5335 Y76.0748
G01 X62.8191 Y75.5279
G01 X63.1280 Y74.9939
G01 X63.4599 Y74.4738
G01 X63.8139 Y73.9686
G01 X64.1896 Y73.4792
G01 X64.5862 Y73.0066
G01 X64.9874 Y72.5837
G01 X65.4072 Y72.1791
G01 X65.8446 Y71.7936
G01 X66.2987 Y71.4280
G01 X66.7687 Y71.0830
G01 X67.2536 Y70.7594
G01 X67.7525 Y70.4577
G01 X68.2643 Y70.1785
G01 X68.7881 Y69.9225
G01 X69.3228 Y69.6901
G01 X69.8673 Y69.4818
G01 X70.4206 Y69.2980
G01 X70.9815 Y69.1390
G01 X71.5490 Y69.0053
G01 X72.1219 Y68.8969
G01 X72.6990 Y68.8143
G01 X73.2792 Y68.7575
G01 X73.8614 Y68.7266
G01 X74.4444 Y68.7217
G01 X75.0270 Y68.7429
G01 X75.6144 Y68.7771
G01 X76.1996 Y68.8381
G01 X76.7814 Y68.9255
G01 X77.3586 Y69.0393
G01 X77.9301 Y69.1792
G01 X78.4946 Y69.3449
G01 X79.0510 Y69.5361
G01 X79.5982 Y69.7524
G01 X80.1350 Y69.9933
G01 X80.6602 Y70.2583
G01 X81.1729 Y70.5469
G01 X81.6720 Y70.8585
G01 X82.1564 Y71.1925
G01 X82.6251 Y71.5482
G01 X83.0771 Y71.9247
G01 X83.5116 Y72.3214
G01 X83.6872 Y72.2127
M107
G00 Z2.0000


;No. 5: Hole 54
G00 X71.1378 Y85.1337 Z2.0000
G00 Z0.5000
G01 Z0.0000 F400
G01 Z-1.2000
M106 S240
G01 X70.5717 F1000
G01 X70.9262 Y86.6337
G01 X71.7723
G01 X71.2848 Y88.1337
G01 X72.4006
G01 X73.0238 Y89.6337
G01 X71.6452
G01 X72.0057 Y91.1337
G01 X73.6429
G01 X74.2590 Y92.6337
G01 X72.3644
G01 X72.7194 Y94.1337
G01 X74.8731
G01 X75.4861 Y95.6337
G01 X73.0689
G01 X73.4112 Y97.1337
G01 X76.0990
G01 X76.7128 Y98.6337
G01 X73.7445
G01 X74.0669 Y100.1337
G01 X77.3285
G01 X77.9469 Y101.6337
G01 X74.1739
G01 X78.5690 Y103.1337
G01 X69.4353
G01 X70.1550 Y104.6337
G01 X79.1957
G01 X79.8279 Y106.1337
G01 X70.8676
G01 X71.5742 Y107.6337
G01 X80.4666
G01 X81.1125 Y109.1337
G01 X78.8007
M107
G00 Z2.0000
G00 X77.5268 Y107.6337
G00 Z0.5000
G01 Z-1.2000 F400
M106 S240
G01 Y109.1337 F1000
G01 X72.2759
G01 X72.9740 Y110.6337
G01 X76.9723
G01 X77.2315 Y112.1337
G01 X73.6696
G01 X74.3640 Y113.6337
G01 X77.5111
G01 X77.8071 Y115.1337
G01 X75.0586
G01 X75.7545 Y116.6337
G01 X78.1154
G01 X78.4318 Y118.1337
G01 X76.4530
G01 X77.1557 Y119.6337
G01 X78.7521
G01 X79.0717 Y121.1337
G01 X77.8638
G01 X78.5786 Y122.6337
G01 X79.3858
G01 X79.5743 Y122.5576
G01 X79.2512 Y121.0274
G01 X78.9276 Y119.4974
G01 X78.6034 Y117.9674
G01 X78.2788 Y116.4375
G01 X77.9565 Y114.8848
G01 X77.6549 Y113.3279
G01 X77.3741 Y111.7671
G01 X77.1141 Y110.2027
G01 Y110.1554
G01 X77.1163 Y110.1083
G01 X77.1208 Y110.0612
G01 X77.1275 Y110.0145
G01 X77.1363 Y109.9681
G01 X77.1474 Y109.9221
G01 X77.1606 Y109.8768
G01 X77.1759 Y109.8321
G01 X77.1934 Y109.7882
G01 X77.2128 Y109.7452
G01 X77.2343 Y109.7031
G01 X77.2578 Y109.6621
G01 X77.2832 Y109.6223
G01 X77.3104 Y109.5837
G01 X77.3394 Y109.5464
G01 X77.3701 Y109.5105
G01 X77.4025 Y109.4761
G01 X77.4365 Y109.4433
G01 X77.4720 Y109.4122
G01 X77.5090 Y109.3827
G01 X77.5472 Y109.3550
G01 X77.5868 Y109.3292
G01 X77.6275 Y109.3053
G01 X77.6693 Y109.2833
G01 X77.7121 Y109.2633
G01 X77.7558 Y109.2453
G01 X77.8003 Y109.2295
G01 X77.8455 Y109.2157
G01 X77.8913 Y109.2041
G01 X77.9376 Y109.1947
G01 X77.9842 Y109.1875
G01 X78.0312 Y109.1825
G01 X78.0784 Y109.1797
G01 X78.1256 Y109.1791
G01 X78.1728 Y109.1808
G01 X78.2199 Y109.1847
G01 X78.2667 Y109.1908
G01 X78.3132 Y109.1991
G01 X78.3593 Y109.2096
G01 X78.4048 Y109.2223
G01 X81.8135 Y110.2590
G01 X80.7515 Y107.7662
G01 X79.6958 Y105.2708
G01 X78.6462 Y102.7728
G01 X77.6030 Y100.2721
G01 X76.5659 Y97.7689
G01 X75.5352 Y95.2631
G01 X74.5107 Y92.7547
G01 X73.4924 Y90.2437
G01 X72.4843 Y87.8087
G01 X71.4602 Y85.3802
G01 X70.4203 Y82.9585
G01 X69.3646 Y80.5437
G01 X69.3382
G01 X70.0597 Y83.7573
G01 X70.7996 Y86.9667
G01 X71.5578 Y90.1718
G01 X72.3343 Y93.3726
G01 X72.7931 Y95.3101
G01 X73.2336 Y97.2517
G01 X73.6559 Y99.1975
G01 X74.0600 Y101.1471
G01 X74.0595 Y101.2376
G01 X74.0508 Y101.3276
G01 X74.0340 Y101.4165
G01 X74.0092 Y101.5035
G01 X73.9767 Y101.5879
G01 X73.9367 Y101.6690
G01 X73.8895 Y101.7462
G01 X73.8356 Y101.8188
G01 X73.7753 Y101.8862
G01 X73.7092 Y101.9479
G01 X73.6377 Y102.0034
G01 X73.5616 Y102.0521
G01 X73.4813 Y102.0939
G01 X73.3976 Y102.1281
G01 X73.3112 Y102.1547
G01 X73.2227 Y102.1734
G01 X73.1328 Y102.1840
G01 X73.0424 Y102.1864
G01 X72.9522 Y102.1807
G01 X72.8628 Y102.1668
G01 X68.3012 Y101.2454
G01 X70.4509 Y105.7517
G01 X72.5821 Y110.2668
G01 X74.6947 Y114.7906
G01 X76.7888 Y119.3230
G01 X77.6310 Y121.1125
G01 X78.4830 Y122.8973
G01 X79.3448 Y124.6774
G01 X80.2164 Y126.4527
G01 X80.3227
G01 X80.1485 Y125.4765
G01 X79.9657 Y124.5019
G01 X79.7743 Y123.5289
G01 X79.5743 Y122.5576
G01 X79.3858 Y122.6337
M107
G00 Z2.0000


;No. 6: Hole 55
G00 X87.0197 Y145.1794 Z2.0000
G00 Z0.5000
G01 Z0.0000 F400
G01 Z-1.2000
M106 S240
G01 X60.6743 F1000
G01 X60.4743 Y145.1795
G01 X60.4605 Y145.2808
G01 X60.4528 Y145.3828
G01 X60.4513 Y145.4850
G01 X60.4558 Y145.5872
G01 X60.4665 Y145.6889
G01 X60.4832 Y145.7898
G01 X60.5060 Y145.8895
G01 X60.5347 Y145.9876
G01 X60.5498 Y146.0246
G01 X60.5665 Y146.0609
G01 X60.5847 Y146.0965
G01 X60.6045 Y146.1312
G01 X60.6258 Y146.1650
G01 X60.6485 Y146.1979
G01 X60.6727 Y146.2297
G01 X60.6982 Y146.2604
G01 X60.7251 Y146.2900
G01 X60.7532 Y146.3184
G01 X60.7825 Y146.3456
G01 X60.8130 Y146.3714
G01 X60.8446 Y146.3959
G01 X60.8772 Y146.4189
G01 X60.9108 Y146.4405
G01 X60.9454 Y146.4607
G01 X60.9807 Y146.4792
G01 X61.0169 Y146.4963
G01 X61.0538 Y146.5117
G01 X61.0913 Y146.5255
G01 X61.1293 Y146.5377
G01 X61.1679 Y146.5481
G01 X61.2069 Y146.5569
G01 X61.2462 Y146.5640
G01 X61.2858 Y146.5693
G01 X61.3256 Y146.5729
G01 X61.3655 Y146.5747
G01 X61.4055 Y146.5749
G01 X86.2900
G01 X86.3308 Y146.5747
G01 X86.3715 Y146.5727
G01 X86.4122 Y146.5688
G01 X86.4526 Y146.5632
G01 X86.4927 Y146.5558
G01 X86.5324 Y146.5465
G01 X86.5717 Y146.5356
G01 X86.6105 Y146.5228
G01 X86.6487 Y146.5084
G01 X86.6861 Y146.4923
G01 X86.7229 Y146.4745
G01 X86.7588 Y146.4550
G01 X86.7937 Y146.4340
G01 X86.8278 Y146.4115
G01 X86.8607 Y146.3875
G01 X86.8926 Y146.3620
G01 X86.9233 Y146.3351
G01 X86.9528 Y146.3069
G01 X86.9809 Y146.2774
G01 X87.0078 Y146.2466
G01 X87.0332 Y146.2147
G01 X87.0572 Y146.1817
G01 X87.0797 Y146.1477
G01 X87.1006 Y146.1126
G01 X87.1200 Y146.0767
G01 X87.1377 Y146.0400
G01 X87.1538 Y146.0025
G01 X87.1682 Y145.9643
G01 X87.1808 Y145.9255
G01 X87.1918 Y145.8862
G01 X87.2009 Y145.8464
G01 X87.2083 Y145.8063
G01 X87.2139 Y145.7659
G01 X87.2176 Y145.7252
G01 X87.2196 Y145.6845
G01 X87.2197 Y145.6437
G01 X87.2375 Y145.3718
G01 X87.2414 Y145.0993
G01 X87.2316 Y144.8270
G01 X87.2080 Y144.5556
G01 X87.2008 Y144.5153
G01 X87.1918 Y144.4753
G01 X87.1810 Y144.4358
G01 X87.1685 Y144.3969
G01 X87.1542 Y144.3585
G01 X87.1382 Y144.3208
G01 X87.1205 Y144.2839
G01 X87.1012 Y144.2478
G01 X87.0803 Y144.2126
G01 X87.0578 Y144.1784
G01 X87.0338 Y144.1452
G01 X87.0084 Y144.1132
G01 X86.9815 Y144.0823
G01 X86.9533 Y144.0526
G01 X86.9238 Y144.0242
G01 X86.8930 Y143.9972
G01 X86.8611 Y143.9716
G01 X86.8280 Y143.9475
G01 X86.7939 Y143.9249
G01 X86.7588 Y143.9038
G01 X86.7228 Y143.8843
G01 X86.6860 Y143.8664
G01 X86.6484 Y143.8502
G01 X86.6101 Y143.8358
G01 X86.5712 Y143.8230
G01 X86.5318 Y143.8120
G01 X86.4919 Y143.8028
G01 X86.4516 Y143.7954
G01 X86.4111 Y143.7898
G01 X86.3703 Y143.7860
G01 X86.3294 Y143.7841
G01 X86.2885 Y143.7840
G01 X61.4040
G01 X61.3632 Y143.7841
G01 X61.3225 Y143.7862
G01 X61.2818 Y143.7900
G01 X61.2414 Y143.7956
G01 X61.2013 Y143.8030
G01 X61.1616 Y143.8123
G01 X61.1223 Y143.8232
G01 X61.0835 Y143.8360
G01 X61.0453 Y143.8504
G01 X61.0078 Y143.8666
G01 X60.9711 Y143.8843
G01 X60.9352 Y143.9038
G01 X60.9003 Y143.9248
G01 X60.8662 Y143.9473
G01 X60.8333 Y143.9713
G01 X60.8014 Y143.9968
G01 X60.7707 Y144.0237
G01 X60.7412 Y144.0519
G01 X60.7131 Y144.0814
G01 X60.6862 Y144.1122
G01 X60.6608 Y144.1441
G01 X60.6368 Y144.1771
G01 X60.6143 Y144.2111
G01 X60.5934 Y144.2462
G01 X60.5740 Y144.2821
G01 X60.5563 Y144.3188
G01 X60.5402 Y144.3563
G01 X60.5258 Y144.3945
G01 X60.5132 Y144.4333
G01 X60.5022 Y144.4726
G01 X60.4931 Y144.5124
G01 X60.4857 Y144.5525
G01 X60.4801 Y144.5929
G01 X60.4764 Y144.6336
G01 X60.4744 Y144.6743
G01 X60.4743 Y144.7151
G01 Y145.1795
G01 X60.6743 Y145.1794
M107
G00 Z2.0000


;No. 7: Helical drill 6
G00 X27.9000 Y167.7590 Z2.0000
G00 Z0.5000
M106 S240
G01 X27.8990 Y167.7162 Z0.4877 F400
G01 X27.8959 Y167.6735 Z0.4754
G01 X27.8908 Y167.6309 Z0.4631
G01 X27.8837 Y167.5887 Z0.4508
G01 X27.8746 Y167.5468 Z0.4384
G01 X27.8635 Y167.5054 Z0.4261
G01 X27.8505 Y167.4646 Z0.4138
G01 X27.8355 Y167.4245 Z0.4015
G01 X27.8187 Y167.3851 Z0.3892
G01 X27.8000 Y167.3466 Z0.3769
G01 X27.7794 Y167.3090 Z0.3646
G01 X27.7571 Y167.2724 Z0.3523
G01 X27.7331 Y167.2370 Z0.3400
G01 X27.7075 Y167.2027 Z0.3277
G01 X27.6802 Y167.1696 Z0.3153
G01 X27.6514 Y167.1379 Z0.3030
G01 X27.6211 Y167.1076 Z0.2907
G01 X27.5894 Y167.0788 Z0.2784
