;Project SchildNeu1
;Created by Estlcam version 11 build 11,236
;Machining time about 00:25:40 hours

G90
M03 S18000
G00 X0.0000 Y0.0000 Z0.0000
G00 Z2.0000


;No. 1: Helical drill 8
G00 X27.9000 Y27.9995
G00 Z0.5000
M106 S240
G01 X27.8990 Y27.9567 Z0.4877 F400 S18000
G01 X27.8959 Y27.9140 Z0.4754
G01 X27.8908 Y27.8714 Z0.4631
G01 X27.8837 Y27.8292 Z0.4508
G01 X27.8746 Y27.7873 Z0.4384
G01 X27.8636 Y27.7460 Z0.4261
G01 X27.8505 Y27.7052 Z0.4138
G01 X27.8355 Y27.6650 Z0.4015
G01 X27.8187 Y27.6257 Z0.3892
G01 X27.8000 Y27.5871 Z0.3769
G01 X27.7794 Y27.5495 Z0.3646
G01 X27.7571 Y27.5130 Z0.3523
G01 X27.7331 Y27.4775 Z0.3400
G01 X27.7075 Y27.4432 Z0.3277
G01 X27.6802 Y27.4102 Z0.3153
G01 X27.6514 Y27.3785 Z0.3030
G01 X27.6211 Y27.3482 Z0.2907
G01 X27.5894 Y27.3194 Z0.2784
G01 X27.5564 Y27.2921 Z0.2661
G01 X27.5221 Y27.2664 Z0.2538
G01 X27.4866 Y27.2424 Z0.2415
G01 X27.4500 Y27.2201 Z0.2292
G01 X27.4124 Y27.1996 Z0.2169
G01 X27.3739 Y27.1809 Z0.2045
G01 X27.3345 Y27.1640 Z0.1922
G01 X27.2944 Y27.1490 Z0.1799
G01 X27.2536 Y27.1360 Z0.1676
G01 X27.2122 Y27.1249 Z0.1553
G01 X27.1703 Y27.1158 Z0.1430
G01 X27.1281 Y27.1087 Z0.1307
G01 X27.0856 Y27.1036 Z0.1184
G01 X27.0428 Y27.1005 Z0.1061
G01 X27.0000 Y27.0995 Z0.0938
G01 X26.9572 Y27.1005 Z0.0814
G01 X26.9145 Y27.1036 Z0.0691
G01 X26.8719 Y27.1087 Z0.0568
G01 X26.8297 Y27.1158 Z0.0445
G01 X26.7878 Y27.1249 Z0.0322
G01 X26.7465 Y27.1360 Z0.0199
G01 X26.7056 Y27.1490 Z0.0076
G01 X26.6655 Y27.1640 Z-0.0047
G01 X26.6261 Y27.1809 Z-0.0170
G01 X26.5876 Y27.1996 Z-0.0294
G01 X26.5500 Y27.2201 Z-0.0417
G01 X26.5134 Y27.2424 Z-0.0540
G01 X26.4780 Y27.2664 Z-0.0663
G01 X26.4437 Y27.2921 Z-0.0786
G01 X26.4106 Y27.3194 Z-0.0909
G01 X26.3789 Y27.3482 Z-0.1032
G01 X26.3486 Y27.3785 Z-0.1155
G01 X26.3198 Y27.4102 Z-0.1278
G01 X26.2926 Y27.4432 Z-0.1402
G01 X26.2669 Y27.4775 Z-0.1525
G01 X26.2429 Y27.5130 Z-0.1648
G01 X26.2206 Y27.5495 Z-0.1771
G01 X26.2001 Y27.5871 Z-0.1894
G01 X26.1813 Y27.6257 Z-0.2017
G01 X26.1645 Y27.6650 Z-0.2140
G01 X26.1495 Y27.7052 Z-0.2263
G01 X26.1365 Y27.7460 Z-0.2386
G01 X26.1254 Y27.7873 Z-0.2509
G01 X26.1163 Y27.8292 Z-0.2633
G01 X26.1092 Y27.8714 Z-0.2756
G01 X26.1041 Y27.9140 Z-0.2879
G01 X26.1010 Y27.9567 Z-0.3002
G01 X26.1000 Y27.9995 Z-0.3125
G01 X26.1010 Y28.0424 Z-0.3248
G01 X26.1041 Y28.0851 Z-0.3371
G01 X26.1092 Y28.1276 Z-0.3494
G01 X26.1163 Y28.1699 Z-0.3617
G01 X26.1254 Y28.2117 Z-0.3741
G01 X26.1365 Y28.2531 Z-0.3864
G01 X26.1495 Y28.2939 Z-0.3987
G01 X26.1645 Y28.3340 Z-0.4110
G01 X26.1813 Y28.3734 Z-0.4233
G01 X26.2001 Y28.4119 Z-0.4356
G01 X26.2206 Y28.4495 Z-0.4479
G01 X26.2429 Y28.4861 Z-0.4602
G01 X26.2669 Y28.5216 Z-0.4725
G01 X26.2926 Y28.5559 Z-0.4848
G01 X26.3198 Y28.5889 Z-0.4972
G01 X26.3486 Y28.6206 Z-0.5095
G01 X26.3789 Y28.6509 Z-0.5218
G01 X26.4106 Y28.6797 Z-0.5341
G01 X26.4437 Y28.7070 Z-0.5464
G01 X26.4780 Y28.7326 Z-0.5587
G01 X26.5134 Y28.7567 Z-0.5710
G01 X26.5500 Y28.7790 Z-0.5833
G01 X26.5876 Y28.7995 Z-0.5956
G01 X26.6261 Y28.8182 Z-0.6080
G01 X26.6655 Y28.8351 Z-0.6203
G01 X26.7056 Y28.8500 Z-0.6326
G01 X26.7465 Y28.8631 Z-0.6449
G01 X26.7878 Y28.8742 Z-0.6572
G01 X26.8297 Y28.8833 Z-0.6695
G01 X26.8719 Y28.8904 Z-0.6818
G01 X26.9145 Y28.8955 Z-0.6941
G01 X26.9572 Y28.8985 Z-0.7064
G01 X27.0000 Y28.8995 Z-0.7188
G01 X27.0428 Y28.8985 Z-0.7311
G01 X27.0856 Y28.8955 Z-0.7434
G01 X27.1281 Y28.8904 Z-0.7557
G01 X27.1703 Y28.8833 Z-0.7680
G01 X27.2122 Y28.8742 Z-0.7803
G01 X27.2536 Y28.8631 Z-0.7926
G01 X27.2944 Y28.8500 Z-0.8049
G01 X27.3345 Y28.8351 Z-0.8172
G01 X27.3739 Y28.8182 Z-0.8295
G01 X27.4124 Y28.7995 Z-0.8419
G01 X27.4500 Y28.7790 Z-0.8542
G01 X27.4866 Y28.7567 Z-0.8665
G01 X27.5221 Y28.7326 Z-0.8788
G01 X27.5564 Y28.7070 Z-0.8911
G01 X27.5894 Y28.6797 Z-0.9034
G01 X27.6211 Y28.6509 Z-0.9157
G01 X27.6514 Y28.6206 Z-0.9280
G01 X27.6802 Y28.5889 Z-0.9403
G01 X27.7075 Y28.5559 Z-0.9527
G01 X27.7331 Y28.5216 Z-0.9650
G01 X27.7571 Y28.4861 Z-0.9773
G01 X27.7794 Y28.4495 Z-0.9896
G01 X27.8000 Y28.4119 Z-1.0019
G01 X27.8187 Y28.3734 Z-1.0142
G01 X27.8355 Y28.3340 Z-1.0265
G01 X27.8505 Y28.2939 Z-1.0388
G01 X27.8636 Y28.2531 Z-1.0511
G01 X27.8746 Y28.2117 Z-1.0634
G01 X27.8837 Y28.1699 Z-1.0758
G01 X27.8908 Y28.1276 Z-1.0881
G01 X27.8959 Y28.0851 Z-1.1004
G01 X27.8990 Y28.0424 Z-1.1127
G01 X27.9000 Y27.9995 Z-1.1250
G01 X27.8990 Y27.9567
G01 X27.8959 Y27.9140
G01 X27.8908 Y27.8714
G01 X27.8837 Y27.8292
G01 X27.8746 Y27.7873
G01 X27.8636 Y27.7460
G01 X27.8505 Y27.7052
G01 X27.8355 Y27.6650
G01 X27.8187 Y27.6257
G01 X27.8000 Y27.5871
G01 X27.7794 Y27.5495
G01 X27.7571 Y27.5130
G01 X27.7331 Y27.4775
G01 X27.7075 Y27.4432
G01 X27.6802 Y27.4102
G01 X27.6514 Y27.3785
G01 X27.6211 Y27.3482
G01 X27.5894 Y27.3194
G01 X27.5564 Y27.2921
G01 X27.5221 Y27.2664
G01 X27.4866 Y27.2424
G01 X27.4500 Y27.2201
G01 X27.4124 Y27.1996
G01 X27.3739 Y27.1809
G01 X27.3345 Y27.1640
G01 X27.2944 Y27.1490
G01 X27.2536 Y27.1360
G01 X27.2122 Y27.1249
G01 X27.1703 Y27.1158
G01 X27.1281 Y27.1087
G01 X27.0856 Y27.1036
G01 X27.0428 Y27.1005
G01 X27.0000 Y27.0995
G01 X26.9572 Y27.1005
G01 X26.9145 Y27.1036
G01 X26.8719 Y27.1087
G01 X26.8297 Y27.1158
G01 X26.7878 Y27.1249
G01 X26.7465 Y27.1360
G01 X26.7056 Y27.1490
G01 X26.6655 Y27.1640
G01 X26.6261 Y27.1809
G01 X26.5876 Y27.1996
G01 X26.5500 Y27.2201
G01 X26.5134 Y27.2424
G01 X26.4780 Y27.2664
G01 X26.4437 Y27.2921
G01 X26.4106 Y27.3194
G01 X26.3789 Y27.3482
G01 X26.3486 Y27.3785
G01 X26.3198 Y27.4102
G01 X26.2926 Y27.4432
G01 X26.2669 Y27.4775
G01 X26.2429 Y27.5130
G01 X26.2206 Y27.5495
G01 X26.2001 Y27.5871
G01 X26.1813 Y27.6257
G01 X26.1645 Y27.6650
G01 X26.1495 Y27.7052
G01 X26.1365 Y27.7460
G01 X26.1254 Y27.7873
G01 X26.1163 Y27.8292
G01 X26.1092 Y27.8714
G01 X26.1041 Y27.9140
G01 X26.1010 Y27.9567
G01 X26.1000 Y27.9995
G01 X26.1010 Y28.0424
G01 X26.1041 Y28.0851
G01 X26.1092 Y28.1276
G01 X26.1163 Y28.1699
G01 X26.1254 Y28.2117
G01 X26.1365 Y28.2531
G01 X26.1495 Y28.2939
G01 X26.1645 Y28.3340
G01 X26.1813 Y28.3734
G01 X26.2001 Y28.4119
G01 X26.2206 Y28.4495
G01 X26.2429 Y28.4861
G01 X26.2669 Y28.5216
G01 X26.2926 Y28.5559
G01 X26.3198 Y28.5889
G01 X26.3486 Y28.6206
G01 X26.3789 Y28.6509
G01 X26.4106 Y28.6797
G01 X26.4437 Y28.7070
G01 X26.4780 Y28.7326
G01 X26.5134 Y28.7567
G01 X26.5500 Y28.7790
G01 X26.5876 Y28.7995
G01 X26.6261 Y28.8182
G01 X26.6655 Y28.8351
G01 X26.7056 Y28.8500
G01 X26.7465 Y28.8631
G01 X26.7878 Y28.8742
G01 X26.8297 Y28.8833
G01 X26.8719 Y28.8904
G01 X26.9145 Y28.8955
G01 X26.9572 Y28.8985
G01 X27.0000 Y28.8995
G01 X27.0428 Y28.8985
G01 X27.0856 Y28.8955
G01 X27.1281 Y28.8904
G01 X27.1703 Y28.8833
G01 X27.2122 Y28.8742
G01 X27.2536 Y28.8631
G01 X27.2944 Y28.8500
G01 X27.3345 Y28.8351
G01 X27.3739 Y28.8182
G01 X27.4124 Y28.7995
G01 X27.4500 Y28.7790
G01 X27.4866 Y28.7567
G01 X27.5221 Y28.7326
G01 X27.5564 Y28.7070
G01 X27.5894 Y28.6797
G01 X27.6211 Y28.6509
G01 X27.6514 Y28.6206
G01 X27.6802 Y28.5889
G01 X27.7075 Y28.5559
G01 X27.7331 Y28.5216
G01 X27.7571 Y28.4861
G01 X27.7794 Y28.4495
G01 X27.8000 Y28.4119
G01 X27.8187 Y28.3734
G01 X27.8355 Y28.3340
G01 X27.8505 Y28.2939
G01 X27.8636 Y28.2531
G01 X27.8746 Y28.2117
G01 X27.8837 Y28.1699
G01 X27.8908 Y28.1276
G01 X27.8959 Y28.0851
G01 X27.8990 Y28.0424
G01 X27.9000 Y27.9995
G01 X27.9076 Y27.9685 F1000
G01 X27.9140 Y27.9372
G01 X27.9194 Y27.9057
G01 X27.9237 Y27.8740
G01 X27.9268 Y27.8422
G01 X27.9289 Y27.8103
G01 X27.9299 Y27.7784
G01 X27.9297 Y27.7464
G01 X27.9285 Y27.7145
G01 X27.9261 Y27.6826
G01 X27.9227 Y27.6509
G01 X27.9181 Y27.6192
G01 X27.9084 Y27.5677
G01 X27.8961 Y27.5168
G01 X27.8812 Y27.4666
G01 X27.8637 Y27.4172
G01 X27.8436 Y27.3688
G01 X27.8211 Y27.3214
G01 X27.7962 Y27.2753
G01 X27.7690 Y27.2306
G01 X27.7370 Y27.1835
G01 X27.7026 Y27.1382
G01 X27.6659 Y27.0947
G01 X27.6271 Y27.0531
G01 X27.5862 Y27.0136
G01 X27.5433 Y26.9762
G01 X27.4985 Y26.9410
G01 X27.4521 Y26.9082
G01 X27.4002 Y26.8754
G01 X27.3467 Y26.8452
G01 X27.2917 Y26.8178
G01 X27.2354 Y26.7933
G01 X27.1779 Y26.7716
G01 X27.1195 Y26.7529
G01 X27.0601 Y26.7372
G01 X27.0000 Y26.7245
G01 X26.9349 Y26.7142
G01 X26.8693 Y26.7072
G01 X26.8035 Y26.7035
G01 X26.7376 Y26.7031
G01 X26.6717 Y26.7061
G01 X26.6061 Y26.7124
G01 X26.5409 Y26.7221
G01 X26.4762 Y26.7350
G01 X26.4079 Y26.7522
G01 X26.3405 Y26.7729
G01 X26.2743 Y26.7970
G01 X26.2094 Y26.8243
G01 X26.1459 Y26.8550
G01 X26.0841 Y26.8887
G01 X26.0240 Y26.9256
G01 X25.9659 Y26.9654
G01 X25.9123 Y27.0148
G01 X25.8613 Y27.0668
G01 X25.8129 Y27.1213
G01 X25.7673 Y27.1781
G01 X25.7245 Y27.2370
G01 X25.6847 Y27.2980
G01 X25.6479 Y27.3609
G01 X25.6142 Y27.4255
G01 X25.5877 Y27.4942
G01 X25.5646 Y27.5641
G01 X25.5450 Y27.6351
G01 X25.5289 Y27.7069
G01 X25.5163 Y27.7794
G01 X25.5073 Y27.8525
G01 X25.5018 Y27.9259
G01 X25.5000 Y27.9995
G01 X25.5018 Y28.0731
G01 X25.5073 Y28.1466
G01 X25.5163 Y28.2196
G01 X25.5289 Y28.2922
G01 X25.5450 Y28.3640
G01 X25.5646 Y28.4349
G01 X25.5877 Y28.5049
G01 X25.6142 Y28.5735
G01 X25.6441 Y28.6408
G01 X25.6772 Y28.7066
G01 X25.7134 Y28.7707
G01 X25.7528 Y28.8329
G01 X25.7952 Y28.8931
G01 X25.8405 Y28.9511
G01 X25.8886 Y29.0068
G01 X25.9394 Y29.0602
G01 X25.9927 Y29.1109
G01 X26.0484 Y29.1590
G01 X26.1065 Y29.2043
G01 X26.1667 Y29.2467
G01 X26.2289 Y29.2861
G01 X26.2929 Y29.3224
G01 X26.3587 Y29.3555
G01 X26.4260 Y29.3853
G01 X26.4947 Y29.4118
G01 X26.5646 Y29.4349
G01 X26.6355 Y29.4545
G01 X26.7074 Y29.4707
G01 X26.7799 Y29.4833
G01 X26.8530 Y29.4923
G01 X26.9264 Y29.4977
G01 X27.0000 Y29.4995
G01 X27.0736 Y29.4977
G01 X27.1470 Y29.4923
G01 X27.2201 Y29.4833
G01 X27.2926 Y29.4707
G01 X27.3645 Y29.4545
G01 X27.4354 Y29.4349
G01 X27.5053 Y29.4118
G01 X27.5740 Y29.3853
G01 X27.6413 Y29.3555
G01 X27.7071 Y29.3224
G01 X27.7711 Y29.2861
G01 X27.8333 Y29.2467
G01 X27.8935 Y29.2043
G01 X27.9516 Y29.1590
G01 X28.0073 Y29.1109
G01 X28.0606 Y29.0602
G01 X28.1114 Y29.0068
G01 X28.1595 Y28.9511
G01 X28.2048 Y28.8931
G01 X28.2472 Y28.8329
G01 X28.2866 Y28.7707
G01 X28.3229 Y28.7066
G01 X28.3560 Y28.6408
G01 X28.3858 Y28.5735
G01 X28.4123 Y28.5049
G01 X28.4354 Y28.4349
G01 X28.4550 Y28.3640
G01 X28.4712 Y28.2922
G01 X28.4837 Y28.2196
G01 X28.4928 Y28.1466
G01 X28.4982 Y28.0731
G01 X28.5000 Y27.9995
G01 X28.4958 Y27.8874
G01 X28.4832 Y27.7760
G01 X28.4624 Y27.6658
G01 X28.4333 Y27.5574
G01 X28.3963 Y27.4515
G01 X28.3514 Y27.3487
G01 X28.2990 Y27.2495
G01 X28.2393 Y27.1546
G01 X28.1727 Y27.0643
G01 X28.0996 Y26.9793
G01 X28.0202 Y26.9000
G01 X27.9352 Y26.8268
G01 X27.8450 Y26.7602
G01 X27.7500 Y26.7005
G01 X27.6508 Y26.6481
G01 X27.5480 Y26.6032
G01 X27.4421 Y26.5662
G01 X27.3338 Y26.5372
G01 X27.2236 Y26.5163
G01 X27.1121 Y26.5038
G01 X27.0000 Y26.4996
G01 X26.8879 Y26.5038
G01 X26.7765 Y26.5163
G01 X26.6662 Y26.5372
G01 X26.5579 Y26.5662
G01 X26.4520 Y26.6032
G01 X26.3492 Y26.6481
G01 X26.2500 Y26.7005
G01 X26.1550 Y26.7602
G01 X26.0648 Y26.8268
G01 X25.9798 Y26.9000
G01 X25.9005 Y26.9793
G01 X25.8273 Y27.0643
G01 X25.7607 Y27.1546
G01 X25.7010 Y27.2495
G01 X25.6486 Y27.3487
G01 X25.6037 Y27.4515
G01 X25.5667 Y27.5574
G01 X25.5376 Y27.6658
G01 X25.5168 Y27.7760
G01 X25.5042 Y27.8874
G01 X25.5000 Y27.9995
G01 X25.5042 Y28.1116
G01 X25.5168 Y28.2231
G01 X25.5376 Y28.3333
G01 X25.5667 Y28.4417
G01 X25.6037 Y28.5475
G01 X25.6486 Y28.6503
G01 X25.7010 Y28.7495
G01 X25.7607 Y28.8445
G01 X25.8273 Y28.9347
G01 X25.9005 Y29.0198
G01 X25.9798 Y29.0991
G01 X26.0648 Y29.1723
G01 X26.1550 Y29.2389
G01 X26.2500 Y29.2985
G01 X26.3492 Y29.3510
G01 X26.4520 Y29.3958
G01 X26.5579 Y29.4329
G01 X26.6662 Y29.4619
G01 X26.7765 Y29.4827
G01 X26.8879 Y29.4953
G01 X27.0000 Y29.4995
G01 X27.1121 Y29.4953
G01 X27.2236 Y29.4827
G01 X27.3338 Y29.4619
G01 X27.4421 Y29.4329
G01 X27.5480 Y29.3958
G01 X27.6508 Y29.3510
G01 X27.7500 Y29.2985
G01 X27.8450 Y29.2389
G01 X27.9352 Y29.1723
G01 X28.0202 Y29.0991
G01 X28.0996 Y29.0198
G01 X28.1727 Y28.9347
G01 X28.2393 Y28.8445
G01 X28.2990 Y28.7495
G01 X28.3514 Y28.6503
G01 X28.3963 Y28.5475
G01 X28.4333 Y28.4417
G01 X28.4624 Y28.3333
G01 X28.4832 Y28.2231
G01 X28.4958 Y28.1116
G01 X28.5000 Y27.9995
G01 X28.4954 Y27.8949
G01 X28.4817 Y27.7912
G01 X28.4591 Y27.6890
G01 X28.4276 Y27.5891
G01 X28.3875 Y27.4924
G01 X28.3392 Y27.3995
G01 X28.2830 Y27.3112
G01 X28.2192 Y27.2282
G01 X28.1485 Y27.1510
G01 X28.0713 Y27.0803
G01 X27.9883 Y27.0166
G01 X27.9000 Y26.9603
G01 X27.8071 Y26.9120
G01 X27.7104 Y26.8719
G01 X27.6106 Y26.8404
G01 X27.5084 Y26.8178
G01 X27.4046 Y26.8041
G01 X27.3000 Y26.7995
G01 X27.1954 Y26.8041
G01 X27.0916 Y26.8178
G01 X26.9894 Y26.8404
G01 X26.8896 Y26.8719
G01 X26.7929 Y26.9120
G01 X26.7000 Y26.9603
G01 X26.6117 Y27.0166
G01 X26.5287 Y27.0803
G01 X26.4515 Y27.1510
G01 X26.3808 Y27.2282
G01 X26.3170 Y27.3112
G01 X26.2608 Y27.3995
G01 X26.2124 Y27.4924
G01 X26.1724 Y27.5891
G01 X26.1409 Y27.6890
G01 X26.1182 Y27.7912
G01 X26.1046 Y27.8949
G01 X26.1000 Y27.9995
G01 X26.1011 Y28.0437
G01 X26.1043 Y28.0877
G01 X26.1098 Y28.1316
G01 X26.1173 Y28.1751
G01 X26.1270 Y28.2182
G01 X26.1388 Y28.2608
G01 X26.1526 Y28.3027
G01 X26.1685 Y28.3439
G01 X26.1864 Y28.3843
G01 X26.2063 Y28.4238
G01 X26.2281 Y28.4622
G01 X26.2517 Y28.4995
G01 X26.2771 Y28.5357
G01 X26.3043 Y28.5705
G01 X26.3332 Y28.6039
G01 X26.3636 Y28.6359
G01 X26.3956 Y28.6664
G01 X26.4291 Y28.6952
G01 X26.4639 Y28.7224
G01 X26.5000 Y28.7479
G01 X26.5373 Y28.7715
G01 X26.5758 Y28.7933
G01 X26.6152 Y28.8131
G01 X26.6556 Y28.8310
G01 X26.6968 Y28.8469
G01 X26.7388 Y28.8608
G01 X26.7813 Y28.8726
G01 X26.8244 Y28.8822
G01 X26.8680 Y28.8898
G01 X26.9118 Y28.8952
G01 X26.9558 Y28.8984
G01 X27.0000 Y28.8995
G01 X27.0442 Y28.8984
G01 X27.0882 Y28.8952
G01 X27.1321 Y28.8898
G01 X27.1756 Y28.8822
G01 X27.2187 Y28.8726
G01 X27.2613 Y28.8608
G01 X27.3032 Y28.8469
G01 X27.3444 Y28.8310
G01 X27.3848 Y28.8131
G01 X27.4243 Y28.7933
G01 X27.4627 Y28.7715
G01 X27.5000 Y28.7479
G01 X27.5361 Y28.7224
G01 X27.5710 Y28.6952
G01 X27.6044 Y28.6664
G01 X27.6364 Y28.6359
G01 X27.6669 Y28.6039
G01 X27.6957 Y28.5705
G01 X27.7229 Y28.5357
G01 X27.7483 Y28.4995
G01 X27.7720 Y28.4622
G01 X27.7937 Y28.4238
G01 X27.8136 Y28.3843
G01 X27.8315 Y28.3439
G01 X27.8474 Y28.3027
G01 X27.8613 Y28.2608
G01 X27.8730 Y28.2182
G01 X27.8827 Y28.1751
G01 X27.8903 Y28.1316
G01 X27.8957 Y28.0877
G01 X27.8989 Y28.0437
G01 X27.9000 Y27.9995
M107
M106 S240
G01 X27.8990 Y27.9567 Z-1.1373 F400
G01 X27.8959 Y27.9140 Z-1.1496
G01 X27.8908 Y27.8714 Z-1.1619
G01 X27.8837 Y27.8292 Z-1.1742
G01 X27.8746 Y27.7873 Z-1.1866
G01 X27.8636 Y27.7460 Z-1.1989
G01 X27.8505 Y27.7052 Z-1.2112
G01 X27.8355 Y27.6650 Z-1.2235
G01 X27.8187 Y27.6257 Z-1.2358
G01 X27.8000 Y27.5871 Z-1.2481
G01 X27.7794 Y27.5495 Z-1.2604
G01 X27.7571 Y27.5130 Z-1.2727
G01 X27.7331 Y27.4775 Z-1.2850
G01 X27.7075 Y27.4432 Z-1.2973
G01 X27.6802 Y27.4102 Z-1.3097
G01 X27.6514 Y27.3785 Z-1.3220
G01 X27.6211 Y27.3482 Z-1.3343
G01 X27.5894 Y27.3194 Z-1.3466
G01 X27.5564 Y27.2921 Z-1.3589
G01 X27.5221 Y27.2664 Z-1.3712
G01 X27.4866 Y27.2424 Z-1.3835
G01 X27.4500 Y27.2201 Z-1.3958
G01 X27.4124 Y27.1996 Z-1.4081
G01 X27.3739 Y27.1809 Z-1.4205
G01 X27.3345 Y27.1640 Z-1.4328
G01 X27.2944 Y27.1490 Z-1.4451
G01 X27.2536 Y27.1360 Z-1.4574
G01 X27.2122 Y27.1249 Z-1.4697
G01 X27.1703 Y27.1158 Z-1.4820
G01 X27.1281 Y27.1087 Z-1.4943
G01 X27.0856 Y27.1036 Z-1.5066
G01 X27.0428 Y27.1005 Z-1.5189
G01 X27.0000 Y27.0995 Z-1.5313
G01 X26.9572 Y27.1005 Z-1.5436
G01 X26.9145 Y27.1036 Z-1.5559
G01 X26.8719 Y27.1087 Z-1.5682
G01 X26.8297 Y27.1158 Z-1.5805
G01 X26.7878 Y27.1249 Z-1.5928
G01 X26.7465 Y27.1360 Z-1.6051
G01 X26.7056 Y27.1490 Z-1.6174
G01 X26.6655 Y27.1640 Z-1.6297
G01 X26.6261 Y27.1809 Z-1.6420
G01 X26.5876 Y27.1996 Z-1.6544
G01 X26.5500 Y27.2201 Z-1.6667
G01 X26.5134 Y27.2424 Z-1.6790
G01 X26.4780 Y27.2664 Z-1.6913
G01 X26.4437 Y27.2921 Z-1.7036
G01 X26.4106 Y27.3194 Z-1.7159
G01 X26.3789 Y27.3482 Z-1.7282
G01 X26.3486 Y27.3785 Z-1.7405
G01 X26.3198 Y27.4102 Z-1.7528
G01 X26.2926 Y27.4432 Z-1.7652
G01 X26.2669 Y27.4775 Z-1.7775
G01 X26.2429 Y27.5130 Z-1.7898
G01 X26.2206 Y27.5495 Z-1.8021
G01 X26.2001 Y27.5871 Z-1.8144
G01 X26.1813 Y27.6257 Z-1.8267
G01 X26.1645 Y27.6650 Z-1.8390
G01 X26.1495 Y27.7052 Z-1.8513
G01 X26.1365 Y27.7460 Z-1.8636
G01 X26.1254 Y27.7873 Z-1.8759
G01 X26.1163 Y27.8292 Z-1.8883
G01 X26.1092 Y27.8714 Z-1.9006
G01 X26.1041 Y27.9140 Z-1.9129
G01 X26.1010 Y27.9567 Z-1.9252
G01 X26.1000 Y27.9995 Z-1.9375
G01 X26.1010 Y28.0424 Z-1.9498
G01 X26.1041 Y28.0851 Z-1.9621
G01 X26.1092 Y28.1276 Z-1.9744
G01 X26.1163 Y28.1699 Z-1.9867
G01 X26.1254 Y28.2117 Z-1.9991
G01 X26.1365 Y28.2531 Z-2.0114
G01 X26.1495 Y28.2939 Z-2.0237
G01 X26.1645 Y28.3340 Z-2.0360
G01 X26.1813 Y28.3734 Z-2.0483
G01 X26.2001 Y28.4119 Z-2.0606
G01 X26.2206 Y28.4495 Z-2.0729
G01 X26.2429 Y28.4861 Z-2.0852
G01 X26.2669 Y28.5216 Z-2.0975
G01 X26.2926 Y28.5559 Z-2.1098
G01 X26.3198 Y28.5889 Z-2.1222
G01 X26.3486 Y28.6206 Z-2.1345
G01 X26.3789 Y28.6509 Z-2.1468
G01 X26.4106 Y28.6797 Z-2.1591
G01 X26.4437 Y28.7070 Z-2.1714
G01 X26.4780 Y28.7326 Z-2.1837
G01 X26.5134 Y28.7567 Z-2.1960
G01 X26.5500 Y28.7790 Z-2.2083
G01 X26.5876 Y28.7995 Z-2.2206
G01 X26.6261 Y28.8182 Z-2.2330
G01 X26.6655 Y28.8351 Z-2.2453
G01 X26.7056 Y28.8500 Z-2.2576
G01 X26.7465 Y28.8631 Z-2.2699
G01 X26.7878 Y28.8742 Z-2.2822
G01 X26.8297 Y28.8833 Z-2.2945
G01 X26.8719 Y28.8904 Z-2.3068
G01 X26.9145 Y28.8955 Z-2.3191
G01 X26.9572 Y28.8985 Z-2.3314
G01 X27.0000 Y28.8995 Z-2.3438
G01 X27.0428 Y28.8985 Z-2.3561
G01 X27.0856 Y28.8955 Z-2.3684
G01 X27.1281 Y28.8904 Z-2.3807
G01 X27.1703 Y28.8833 Z-2.3930
G01 X27.2122 Y28.8742 Z-2.4053
G01 X27.2536 Y28.8631 Z-2.4176
G01 X27.2944 Y28.8500 Z-2.4299
G01 X27.3345 Y28.8351 Z-2.4422
G01 X27.3739 Y28.8182 Z-2.4545
G01 X27.4124 Y28.7995 Z-2.4669
G01 X27.4500 Y28.7790 Z-2.4792
G01 X27.4866 Y28.7567 Z-2.4915
G01 X27.5221 Y28.7326 Z-2.5038
G01 X27.5564 Y28.7070 Z-2.5161
G01 X27.5894 Y28.6797 Z-2.5284
G01 X27.6211 Y28.6509 Z-2.5407
G01 X27.6514 Y28.6206 Z-2.5530
G01 X27.6802 Y28.5889 Z-2.5653
G01 X27.7075 Y28.5559 Z-2.5777
G01 X27.7331 Y28.5216 Z-2.5900
G01 X27.7571 Y28.4861 Z-2.6023
G01 X27.7794 Y28.4495 Z-2.6146
G01 X27.8000 Y28.4119 Z-2.6269
G01 X27.8187 Y28.3734 Z-2.6392
G01 X27.8355 Y28.3340 Z-2.6515
G01 X27.8505 Y28.2939 Z-2.6638
G01 X27.8636 Y28.2531 Z-2.6761
G01 X27.8746 Y28.2117 Z-2.6884
G01 X27.8837 Y28.1699 Z-2.7008
G01 X27.8908 Y28.1276 Z-2.7131
G01 X27.8959 Y28.0851 Z-2.7254
G01 X27.8990 Y28.0424 Z-2.7377
G01 X27.9000 Y27.9995 Z-2.7500
G01 X27.8990 Y27.9567
G01 X27.8959 Y27.9140
G01 X27.8908 Y27.8714
G01 X27.8837 Y27.8292
G01 X27.8746 Y27.7873
G01 X27.8636 Y27.7460
G01 X27.8505 Y27.7052
G01 X27.8355 Y27.6650
G01 X27.8187 Y27.6257
G01 X27.8000 Y27.5871
G01 X27.7794 Y27.5495
G01 X27.7571 Y27.5130
G01 X27.7331 Y27.4775
G01 X27.7075 Y27.4432
G01 X27.6802 Y27.4102
G01 X27.6514 Y27.3785
G01 X27.6211 Y27.3482
G01 X27.5894 Y27.3194
G01 X27.5564 Y27.2921
G01 X27.5221 Y27.2664
G01 X27.4866 Y27.2424
G01 X27.4500 Y27.2201
G01 X27.4124 Y27.1996
G01 X27.3739 Y27.1809
G01 X27.3345 Y27.1640
G01 X27.2944 Y27.1490
G01 X27.2536 Y27.1360
G01 X27.2122 Y27.1249
G01 X27.1703 Y27.1158
G01 X27.1281 Y27.1087
G01 X27.0856 Y27.1036
G01 X27.0428 Y27.1005
G01 X27.0000 Y27.0995
G01 X26.9572 Y27.1005
G01 X26.9145 Y27.1036
G01 X26.8719 Y27.1087
G01 X26.8297 Y27.1158
G01 X26.7878 Y27.1249
G01 X26.7465 Y27.1360
G01 X26.7056 Y27.1490
G01 X26.6655 Y27.1640
G01 X26.6261 Y27.1809
G01 X26.5876 Y27.1996
G01 X26.5500 Y27.2201
G01 X26.5134 Y27.2424
G01 X26.4780 Y27.2664
G01 X26.4437 Y27.2921
G01 X26.4106 Y27.3194
G01 X26.3789 Y27.3482
G01 X26.3486 Y27.3785
G01 X26.3198 Y27.4102
G01 X26.2926 Y27.4432
G01 X26.2669 Y27.4775
G01 X26.2429 Y27.5130
G01 X26.2206 Y27.5495
G01 X26.2001 Y27.5871
G01 X26.1813 Y27.6257
G01 X26.1645 Y27.6650
G01 X26.1495 Y27.7052
G01 X26.1365 Y27.7460
G01 X26.1254 Y27.7873
G01 X26.1163 Y27.8292
G01 X26.1092 Y27.8714
G01 X26.1041 Y27.9140
G01 X26.1010 Y27.9567
G01 X26.1000 Y27.9995
G01 X26.1010 Y28.0424
G01 X26.1041 Y28.0851
G01 X26.1092 Y28.1276
G01 X26.1163 Y28.1699
G01 X26.1254 Y28.2117
G01 X26.1365 Y28.2531
G01 X26.1495 Y28.2939
G01 X26.1645 Y28.3340
G01 X26.1813 Y28.3734
G01 X26.2001 Y28.4119
G01 X26.2206 Y28.4495
G01 X26.2429 Y28.4861
G01 X26.2669 Y28.5216
G01 X26.2926 Y28.5559
G01 X26.3198 Y28.5889
G01 X26.3486 Y28.6206
G01 X26.3789 Y28.6509
G01 X26.4106 Y28.6797
G01 X26.4437 Y28.7070
G01 X26.4780 Y28.7326
G01 X26.5134 Y28.7567
G01 X26.5500 Y28.7790
G01 X26.5876 Y28.7995
G01 X26.6261 Y28.8182
G01 X26.6655 Y28.8351
G01 X26.7056 Y28.8500
G01 X26.7465 Y28.8631
G01 X26.7878 Y28.8742
G01 X26.8297 Y28.8833
G01 X26.8719 Y28.8904
G01 X26.9145 Y28.8955
G01 X26.9572 Y28.8985
G01 X27.0000 Y28.8995
G01 X27.0428 Y28.8985
G01 X27.0856 Y28.8955
G01 X27.1281 Y28.8904
G01 X27.1703 Y28.8833
G01 X27.2122 Y28.8742
G01 X27.2536 Y28.8631
G01 X27.2944 Y28.8500
G01 X27.3345 Y28.8351
G01 X27.3739 Y28.8182
G01 X27.4124 Y28.7995
G01 X27.4500 Y28.7790
G01 X27.4866 Y28.7567
G01 X27.5221 Y28.7326
G01 X27.5564 Y28.7070
G01 X27.5894 Y28.6797
G01 X27.6211 Y28.6509
G01 X27.6514 Y28.6206
G01 X27.6802 Y28.5889
G01 X27.7075 Y28.5559
G01 X27.7331 Y28.5216
G01 X27.7571 Y28.4861
G01 X27.7794 Y28.4495
G01 X27.8000 Y28.4119
G01 X27.8187 Y28.3734
G01 X27.8355 Y28.3340
G01 X27.8505 Y28.2939
G01 X27.8636 Y28.2531
G01 X27.8746 Y28.2117
G01 X27.8837 Y28.1699
G01 X27.8908 Y28.1276
G01 X27.8959 Y28.0851
G01 X27.8990 Y28.0424
G01 X27.9000 Y27.9995
G01 X27.9076 Y27.9685 F1000
G01 X27.9140 Y27.9372
G01 X27.9194 Y27.9057
G01 X27.9237 Y27.8740
G01 X27.9268 Y27.8422
G01 X27.9289 Y27.8103
G01 X27.9299 Y27.7784
G01 X27.9297 Y27.7464
G01 X27.9285 Y27.7145
G01 X27.9261 Y27.6826
G01 X27.9227 Y27.6509
G01 X27.9181 Y27.6192
G01 X27.9084 Y27.5677
G01 X27.8961 Y27.5168
G01 X27.8812 Y27.4666
G01 X27.8637 Y27.4172
G01 X27.8436 Y27.3688
G01 X27.8211 Y27.3214
G01 X27.7962 Y27.2753
G01 X27.7690 Y27.2306
G01 X27.7370 Y27.1835
G01 X27.7026 Y27.1382
G01 X27.6659 Y27.0947
G01 X27.6271 Y27.0531
G01 X27.5862 Y27.0136
G01 X27.5433 Y26.9762
G01 X27.4985 Y26.9410
G01 X27.4521 Y26.9082
G01 X27.4002 Y26.8754
G01 X27.3467 Y26.8452
G01 X27.2917 Y26.8178
G01 X27.2354 Y26.7933
G01 X27.1779 Y26.7716
G01 X27.1195 Y26.7529
G01 X27.0601 Y26.7372
G01 X27.0000 Y26.7245
G01 X26.9349 Y26.7142
G01 X26.8693 Y26.7072
G01 X26.8035 Y26.7035
G01 X26.7376 Y26.7031
G01 X26.6717 Y26.7061
G01 X26.6061 Y26.7124
G01 X26.5409 Y26.7221
G01 X26.4762 Y26.7350
G01 X26.4079 Y26.7522
G01 X26.3405 Y26.7729
G01 X26.2743 Y26.7970
G01 X26.2094 Y26.8243
G01 X26.1459 Y26.8550
G01 X26.0841 Y26.8887
G01 X26.0240 Y26.9256
G01 X25.9659 Y26.9654
G01 X25.9123 Y27.0148
G01 X25.8613 Y27.0668
G01 X25.8129 Y27.1213
G01 X25.7673 Y27.1781
G01 X25.7245 Y27.2370
G01 X25.6847 Y27.2980
G01 X25.6479 Y27.3609
G01 X25.6142 Y27.4255
G01 X25.5877 Y27.4942
G01 X25.5646 Y27.5641
G01 X25.5450 Y27.6351
G01 X25.5289 Y27.7069
G01 X25.5163 Y27.7794
G01 X25.5073 Y27.8525
G01 X25.5018 Y27.9259
G01 X25.5000 Y27.9995
G01 X25.5018 Y28.0731
G01 X25.5073 Y28.1466
G01 X25.5163 Y28.2196
G01 X25.5289 Y28.2922
G01 X25.5450 Y28.3640
G01 X25.5646 Y28.4349
G01 X25.5877 Y28.5049
G01 X25.6142 Y28.5735
G01 X25.6441 Y28.6408
G01 X25.6772 Y28.7066
G01 X25.7134 Y28.7707
G01 X25.7528 Y28.8329
G01 X25.7952 Y28.8931
G01 X25.8405 Y28.9511
G01 X25.8886 Y29.0068
G01 X25.9394 Y29.0602
G01 X25.9927 Y29.1109
G01 X26.0484 Y29.1590
G01 X26.1065 Y29.2043
G01 X26.1667 Y29.2467
G01 X26.2289 Y29.2861
G01 X26.2929 Y29.3224
G01 X26.3587 Y29.3555
G01 X26.4260 Y29.3853
G01 X26.4947 Y29.4118
G01 X26.5646 Y29.4349
G01 X26.6355 Y29.4545
G01 X26.7074 Y29.4707
G01 X26.7799 Y29.4833
G01 X26.8530 Y29.4923
G01 X26.9264 Y29.4977
G01 X27.0000 Y29.4995
G01 X27.0736 Y29.4977
G01 X27.1470 Y29.4923
G01 X27.2201 Y29.4833
G01 X27.2926 Y29.4707
G01 X27.3645 Y29.4545
G01 X27.4354 Y29.4349
G01 X27.5053 Y29.4118
G01 X27.5740 Y29.3853
G01 X27.6413 Y29.3555
G01 X27.7071 Y29.3224
G01 X27.7711 Y29.2861
G01 X27.8333 Y29.2467
G01 X27.8935 Y29.2043
G01 X27.9516 Y29.1590
G01 X28.0073 Y29.1109
G01 X28.0606 Y29.0602
G01 X28.1114 Y29.0068
G01 X28.1595 Y28.9511
G01 X28.2048 Y28.8931
G01 X28.2472 Y28.8329
G01 X28.2866 Y28.7707
G01 X28.3229 Y28.7066
G01 X28.3560 Y28.6408
G01 X28.3858 Y28.5735
G01 X28.4123 Y28.5049
G01 X28.4354 Y28.4349
G01 X28.4550 Y28.3640
G01 X28.4712 Y28.2922
G01 X28.4837 Y28.2196
G01 X28.4928 Y28.1466
G01 X28.4982 Y28.0731
G01 X28.5000 Y27.9995
G01 X28.4958 Y27.8874
G01 X28.4832 Y27.7760
G01 X28.4624 Y27.6658
G01 X28.4333 Y27.5574
G01 X28.3963 Y27.4515
G01 X28.3514 Y27.3487
G01 X28.2990 Y27.2495
G01 X28.2393 Y27.1546
G01 X28.1727 Y27.0643
G01 X28.0996 Y26.9793
G01 X28.0202 Y26.9000
G01 X27.9352 Y26.8268
G01 X27.8450 Y26.7602
G01 X27.7500 Y26.7005
G01 X27.6508 Y26.6481
G01 X27.5480 Y26.6032
G01 X27.4421 Y26.5662
G01 X27.3338 Y26.5372
G01 X27.2236 Y26.5163
G01 X27.1121 Y26.5038
G01 X27.0000 Y26.4996
G01 X26.8879 Y26.5038
G01 X26.7765 Y26.5163
G01 X26.6662 Y26.5372
G01 X26.5579 Y26.5662
G01 X26.4520 Y26.6032
G01 X26.3492 Y26.6481
G01 X26.2500 Y26.7005
G01 X26.1550 Y26.7602
G01 X26.0648 Y26.8268
G01 X25.9798 Y26.9000
G01 X25.9005 Y26.9793
G01 X25.8273 Y27.0643
G01 X25.7607 Y27.1546
G01 X25.7010 Y27.2495
G01 X25.6486 Y27.3487
G01 X25.6037 Y27.4515
G01 X25.5667 Y27.5574
G01 X25.5376 Y27.6658
G01 X25.5168 Y27.7760
G01 X25.5042 Y27.8874
G01 X25.5000 Y27.9995
G01 X25.5042 Y28.1116
G01 X25.5168 Y28.2231
G01 X25.5376 Y28.3333
G01 X25.5667 Y28.4417
G01 X25.6037 Y28.5475
G01 X25.6486 Y28.6503
G01 X25.7010 Y28.7495
G01 X25.7607 Y28.8445
G01 X25.8273 Y28.9347
G01 X25.9005 Y29.0198
G01 X25.9798 Y29.0991
G01 X26.0648 Y29.1723
G01 X26.1550 Y29.2389
G01 X26.2500 Y29.2985
G01 X26.3492 Y29.3510
G01 X26.4520 Y29.3958
G01 X26.5579 Y29.4329
G01 X26.6662 Y29.4619
G01 X26.7765 Y29.4827
G01 X26.8879 Y29.4953
G01 X27.0000 Y29.4995
G01 X27.1121 Y29.4953
G01 X27.2236 Y29.4827
G01 X27.3338 Y29.4619
G01 X27.4421 Y29.4329
G01 X27.5480 Y29.3958
G01 X27.6508 Y29.3510
G01 X27.7500 Y29.2985
G01 X27.8450 Y29.2389
G01 X27.9352 Y29.1723
G01 X28.0202 Y29.0991
G01 X28.0996 Y29.0198
G01 X28.1727 Y28.9347
G01 X28.2393 Y28.8445
G01 X28.2990 Y28.7495
G01 X28.3514 Y28.6503
G01 X28.3963 Y28.5475
G01 X28.4333 Y28.4417
G01 X28.4624 Y28.3333
G01 X28.4832 Y28.2231
G01 X28.4958 Y28.1116
G01 X28.5000 Y27.9995
G01 X28.4954 Y27.8949
G01 X28.4817 Y27.7912
G01 X28.4591 Y27.6890
G01 X28.4276 Y27.5891
G01 X28.3875 Y27.4924
G01 X28.3392 Y27.3995
G01 X28.2830 Y27.3112
G01 X28.2192 Y27.2282
G01 X28.1485 Y27.1510
G01 X28.0713 Y27.0803
G01 X27.9883 Y27.0166
G01 X27.9000 Y26.9603
G01 X27.8071 Y26.9120
G01 X27.7104 Y26.8719
G01 X27.6106 Y26.8404
G01 X27.5084 Y26.8178
G01 X27.4046 Y26.8041
G01 X27.3000 Y26.7995
G01 X27.1954 Y26.8041
G01 X27.0916 Y26.8178
G01 X26.9894 Y26.8404
G01 X26.8896 Y26.8719
G01 X26.7929 Y26.9120
G01 X26.7000 Y26.9603
G01 X26.6117 Y27.0166
G01 X26.5287 Y27.0803
G01 X26.4515 Y27.1510
G01 X26.3808 Y27.2282
G01 X26.3170 Y27.3112
G01 X26.2608 Y27.3995
G01 X26.2124 Y27.4924
G01 X26.1724 Y27.5891
G01 X26.1409 Y27.6890
G01 X26.1182 Y27.7912
G01 X26.1046 Y27.8949
G01 X26.1000 Y27.9995
G01 X26.1011 Y28.0437
G01 X26.1043 Y28.0877
G01 X26.1098 Y28.1316
G01 X26.1173 Y28.1751
G01 X26.1270 Y28.2182
G01 X26.1388 Y28.2608
G01 X26.1526 Y28.3027
G01 X26.1685 Y28.3439
G01 X26.1864 Y28.3843
G01 X26.2063 Y28.4238
G01 X26.2281 Y28.4622
G01 X26.2517 Y28.4995
G01 X26.2771 Y28.5357
G01 X26.3043 Y28.5705
G01 X26.3332 Y28.6039
G01 X26.3636 Y28.6359
G01 X26.3956 Y28.6664
G01 X26.4291 Y28.6952
G01 X26.4639 Y28.7224
G01 X26.5000 Y28.7479
G01 X26.5373 Y28.7715
G01 X26.5758 Y28.7933
G01 X26.6152 Y28.8131
G01 X26.6556 Y28.8310
G01 X26.6968 Y28.8469
G01 X26.7388 Y28.8608
G01 X26.7813 Y28.8726
G01 X26.8244 Y28.8822
G01 X26.8680 Y28.8898
G01 X26.9118 Y28.8952
G01 X26.9558 Y28.8984
G01 X27.0000 Y28.8995
G01 X27.0442 Y28.8984
G01 X27.0882 Y28.8952
G01 X27.1321 Y28.8898
G01 X27.1756 Y28.8822
G01 X27.2187 Y28.8726
G01 X27.2613 Y28.8608
G01 X27.3032 Y28.8469
G01 X27.3444 Y28.8310
G01 X27.3848 Y28.8131
G01 X27.4243 Y28.7933
G01 X27.4627 Y28.7715
G01 X27.5000 Y28.7479
G01 X27.5361 Y28.7224
G01 X27.5710 Y28.6952
G01 X27.6044 Y28.6664
G01 X27.6364 Y28.6359
G01 X27.6669 Y28.6039
G01 X27.6957 Y28.5705
G01 X27.7229 Y28.5357
G01 X27.7483 Y28.4995
G01 X27.7720 Y28.4622
G01 X27.7937 Y28.4238
G01 X27.8136 Y28.3843
G01 X27.8315 Y28.3439
G01 X27.8474 Y28.3027
G01 X27.8613 Y28.2608
G01 X27.8730 Y28.2182
G01 X27.8827 Y28.1751
G01 X27.8903 Y28.1316
G01 X27.8957 Y28.0877
G01 X27.8989 Y28.0437
G01 X27.9000 Y27.9995
M107
M106 S240
G01 X27.8990 Y27.9567 Z-2.7623 F400
G01 X27.8959 Y27.9140 Z-2.7746
G01 X27.8908 Y27.8714 Z-2.7869
G01 X27.8837 Y27.8292 Z-2.7992
G01 X27.8746 Y27.7873 Z-2.8116
G01 X27.8636 Y27.7460 Z-2.8239
G01 X27.8505 Y27.7052 Z-2.8362
G01 X27.8355 Y27.6650 Z-2.8485
G01 X27.8187 Y27.6257 Z-2.8608
G01 X27.8000 Y27.5871 Z-2.8731
G01 X27.7794 Y27.5495 Z-2.8854
G01 X27.7571 Y27.5130 Z-2.8977
G01 X27.7331 Y27.4775 Z-2.9100
G01 X27.7075 Y27.4432 Z-2.9223
G01 X27.6802 Y27.4102 Z-2.9347
G01 X27.6514 Y27.3785 Z-2.9470
G01 X27.6211 Y27.3482 Z-2.9593
G01 X27.5894 Y27.3194 Z-2.9716
G01 X27.5564 Y27.2921 Z-2.9839
G01 X27.5221 Y27.2664 Z-2.9962
G01 X27.4866 Y27.2424 Z-3.0085
G01 X27.4500 Y27.2201 Z-3.0208
G01 X27.4124 Y27.1996 Z-3.0331
G01 X27.3739 Y27.1809 Z-3.0455
G01 X27.3345 Y27.1640 Z-3.0578
G01 X27.2944 Y27.1490 Z-3.0701
G01 X27.2536 Y27.1360 Z-3.0824
G01 X27.2122 Y27.1249 Z-3.0947
G01 X27.1703 Y27.1158 Z-3.1070
G01 X27.1281 Y27.1087 Z-3.1193
G01 X27.0856 Y27.1036 Z-3.1316
G01 X27.0428 Y27.1005 Z-3.1439
G01 X27.0000 Y27.0995 Z-3.1563
G01 X26.9572 Y27.1005 Z-3.1686
G01 X26.9145 Y27.1036 Z-3.1809
G01 X26.8719 Y27.1087 Z-3.1932
G01 X26.8297 Y27.1158 Z-3.2055
G01 X26.7878 Y27.1249 Z-3.2178
G01 X26.7465 Y27.1360 Z-3.2301
G01 X26.7056 Y27.1490 Z-3.2424
G01 X26.6655 Y27.1640 Z-3.2547
G01 X26.6261 Y27.1809 Z-3.2670
G01 X26.5876 Y27.1996 Z-3.2794
G01 X26.5500 Y27.2201 Z-3.2917
G01 X26.5134 Y27.2424 Z-3.3040
G01 X26.4780 Y27.2664 Z-3.3163
G01 X26.4437 Y27.2921 Z-3.3286
G01 X26.4106 Y27.3194 Z-3.3409
G01 X26.3789 Y27.3482 Z-3.3532
G01 X26.3486 Y27.3785 Z-3.3655
G01 X26.3198 Y27.4102 Z-3.3778
G01 X26.2926 Y27.4432 Z-3.3902
G01 X26.2669 Y27.4775 Z-3.4025
G01 X26.2429 Y27.5130 Z-3.4148
G01 X26.2206 Y27.5495 Z-3.4271
G01 X26.2001 Y27.5871 Z-3.4394
G01 X26.1813 Y27.6257 Z-3.4517
G01 X26.1645 Y27.6650 Z-3.4640
G01 X26.1495 Y27.7052 Z-3.4763
G01 X26.1365 Y27.7460 Z-3.4886
G01 X26.1254 Y27.7873 Z-3.5009
G01 X26.1163 Y27.8292 Z-3.5133
G01 X26.1092 Y27.8714 Z-3.5256
G01 X26.1041 Y27.9140 Z-3.5379
G01 X26.1010 Y27.9567 Z-3.5502
G01 X26.1000 Y27.9995 Z-3.5625
G01 X26.1010 Y28.0424 Z-3.5748
G01 X26.1041 Y28.0851 Z-3.5871
G01 X26.1092 Y28.1276 Z-3.5994
G01 X26.1163 Y28.1699 Z-3.6117
G01 X26.1254 Y28.2117 Z-3.6241
G01 X26.1365 Y28.2531 Z-3.6364
G01 X26.1495 Y28.2939 Z-3.6487
G01 X26.1645 Y28.3340 Z-3.6610
G01 X26.1813 Y28.3734 Z-3.6733
G01 X26.2001 Y28.4119 Z-3.6856
G01 X26.2206 Y28.4495 Z-3.6979
G01 X26.2429 Y28.4861 Z-3.7102
G01 X26.2669 Y28.5216 Z-3.7225
G01 X26.2926 Y28.5559 Z-3.7348
G01 X26.3198 Y28.5889 Z-3.7472
G01 X26.3486 Y28.6206 Z-3.7595
G01 X26.3789 Y28.6509 Z-3.7718
G01 X26.4106 Y28.6797 Z-3.7841
G01 X26.4437 Y28.7070 Z-3.7964
G01 X26.4780 Y28.7326 Z-3.8087
G01 X26.5134 Y28.7567 Z-3.8210
G01 X26.5500 Y28.7790 Z-3.8333
G01 X26.5876 Y28.7995 Z-3.8456
G01 X26.6261 Y28.8182 Z-3.8580
G01 X26.6655 Y28.8351 Z-3.8703
G01 X26.7056 Y28.8500 Z-3.8826
G01 X26.7465 Y28.8631 Z-3.8949
G01 X26.7878 Y28.8742 Z-3.9072
G01 X26.8297 Y28.8833 Z-3.9195
G01 X26.8719 Y28.8904 Z-3.9318
G01 X26.9145 Y28.8955 Z-3.9441
G01 X26.9572 Y28.8985 Z-3.9564
G01 X27.0000 Y28.8995 Z-3.9688
G01 X27.0428 Y28.8985 Z-3.9811
G01 X27.0856 Y28.8955 Z-3.9934
G01 X27.1281 Y28.8904 Z-4.0057
G01 X27.1703 Y28.8833 Z-4.0180
G01 X27.2122 Y28.8742 Z-4.0303
G01 X27.2536 Y28.8631 Z-4.0426
G01 X27.2944 Y28.8500 Z-4.0549
G01 X27.3345 Y28.8351 Z-4.0672
G01 X27.3739 Y28.8182 Z-4.0795
G01 X27.4124 Y28.7995 Z-4.0919
G01 X27.4500 Y28.7790 Z-4.1042
G01 X27.4866 Y28.7567 Z-4.1165
G01 X27.5221 Y28.7326 Z-4.1288
G01 X27.5564 Y28.7070 Z-4.1411
G01 X27.5894 Y28.6797 Z-4.1534
G01 X27.6211 Y28.6509 Z-4.1657
G01 X27.6514 Y28.6206 Z-4.1780
G01 X27.6802 Y28.5889 Z-4.1903
G01 X27.7075 Y28.5559 Z-4.2027
G01 X27.7331 Y28.5216 Z-4.2150
G01 X27.7571 Y28.4861 Z-4.2273
G01 X27.7794 Y28.4495 Z-4.2396
G01 X27.8000 Y28.4119 Z-4.2519
G01 X27.8187 Y28.3734 Z-4.2642
G01 X27.8355 Y28.3340 Z-4.2765
G01 X27.8505 Y28.2939 Z-4.2888
G01 X27.8636 Y28.2531 Z-4.3011
G01 X27.8746 Y28.2117 Z-4.3134
G01 X27.8837 Y28.1699 Z-4.3258
G01 X27.8908 Y28.1276 Z-4.3381
G01 X27.8959 Y28.0851 Z-4.3504
G01 X27.8990 Y28.0424 Z-4.3627
G01 X27.9000 Y27.9995 Z-4.3750
G01 X27.8990 Y27.9567
G01 X27.8959 Y27.9140
G01 X27.8908 Y27.8714
G01 X27.8837 Y27.8292
G01 X27.8746 Y27.7873
G01 X27.8636 Y27.7460
G01 X27.8505 Y27.7052
G01 X27.8355 Y27.6650
G01 X27.8187 Y27.6257
G01 X27.8000 Y27.5871
G01 X27.7794 Y27.5495
G01 X27.7571 Y27.5130
G01 X27.7331 Y27.4775
G01 X27.7075 Y27.4432
G01 X27.6802 Y27.4102
G01 X27.6514 Y27.3785
G01 X27.6211 Y27.3482
G01 X27.5894 Y27.3194
G01 X27.5564 Y27.2921
G01 X27.5221 Y27.2664
G01 X27.4866 Y27.2424
G01 X27.4500 Y27.2201
G01 X27.4124 Y27.1996
G01 X27.3739 Y27.1809
G01 X27.3345 Y27.1640
G01 X27.2944 Y27.1490
G01 X27.2536 Y27.1360
G01 X27.2122 Y27.1249
G01 X27.1703 Y27.1158
G01 X27.1281 Y27.1087
G01 X27.0856 Y27.1036
G01 X27.0428 Y27.1005
G01 X27.0000 Y27.0995
G01 X26.9572 Y27.1005
G01 X26.9145 Y27.1036
G01 X26.8719 Y27.1087
G01 X26.8297 Y27.1158
G01 X26.7878 Y27.1249
G01 X26.7465 Y27.1360
G01 X26.7056 Y27.1490
G01 X26.6655 Y27.1640
G01 X26.6261 Y27.1809
G01 X26.5876 Y27.1996
G01 X26.5500 Y27.2201
G01 X26.5134 Y27.2424
G01 X26.4780 Y27.2664
G01 X26.4437 Y27.2921
G01 X26.4106 Y27.3194
G01 X26.3789 Y27.3482
G01 X26.3486 Y27.3785
G01 X26.3198 Y27.4102
G01 X26.2926 Y27.4432
G01 X26.2669 Y27.4775
G01 X26.2429 Y27.5130
G01 X26.2206 Y27.5495
G01 X26.2001 Y27.5871
G01 X26.1813 Y27.6257
G01 X26.1645 Y27.6650
G01 X26.1495 Y27.7052
G01 X26.1365 Y27.7460
G01 X26.1254 Y27.7873
G01 X26.1163 Y27.8292
G01 X26.1092 Y27.8714
G01 X26.1041 Y27.9140
G01 X26.1010 Y27.9567
G01 X26.1000 Y27.9995
G01 X26.1010 Y28.0424
G01 X26.1041 Y28.0851
G01 X26.1092 Y28.1276
G01 X26.1163 Y28.1699
G01 X26.1254 Y28.2117
G01 X26.1365 Y28.2531
G01 X26.1495 Y28.2939
G01 X26.1645 Y28.3340
G01 X26.1813 Y28.3734
G01 X26.2001 Y28.4119
G01 X26.2206 Y28.4495
G01 X26.2429 Y28.4861
G01 X26.2669 Y28.5216
G01 X26.2926 Y28.5559
G01 X26.3198 Y28.5889
G01 X26.3486 Y28.6206
G01 X26.3789 Y28.6509
G01 X26.4106 Y28.6797
G01 X26.4437 Y28.7070
G01 X26.4780 Y28.7326
G01 X26.5134 Y28.7567
G01 X26.5500 Y28.7790
G01 X26.5876 Y28.7995
G01 X26.6261 Y28.8182
G01 X26.6655 Y28.8351
G01 X26.7056 Y28.8500
G01 X26.7465 Y28.8631
G01 X26.7878 Y28.8742
G01 X26.8297 Y28.8833
G01 X26.8719 Y28.8904
G01 X26.9145 Y28.8955
G01 X26.9572 Y28.8985
G01 X27.0000 Y28.8995
G01 X27.0428 Y28.8985
G01 X27.0856 Y28.8955
G01 X27.1281 Y28.8904
G01 X27.1703 Y28.8833
G01 X27.2122 Y28.8742
G01 X27.2536 Y28.8631
G01 X27.2944 Y28.8500
G01 X27.3345 Y28.8351
G01 X27.3739 Y28.8182
G01 X27.4124 Y28.7995
G01 X27.4500 Y28.7790
G01 X27.4866 Y28.7567
G01 X27.5221 Y28.7326
G01 X27.5564 Y28.7070
G01 X27.5894 Y28.6797
G01 X27.6211 Y28.6509
G01 X27.6514 Y28.6206
G01 X27.6802 Y28.5889
G01 X27.7075 Y28.5559
G01 X27.7331 Y28.5216
G01 X27.7571 Y28.4861
G01 X27.7794 Y28.4495
G01 X27.8000 Y28.4119
G01 X27.8187 Y28.3734
G01 X27.8355 Y28.3340
G01 X27.8505 Y28.2939
G01 X27.8636 Y28.2531
G01 X27.8746 Y28.2117
G01 X27.8837 Y28.1699
G01 X27.8908 Y28.1276
G01 X27.8959 Y28.0851
G01 X27.8990 Y28.0424
G01 X27.9000 Y27.9995
G01 X27.9076 Y27.9685 F1000
G01 X27.9140 Y27.9372
G01 X27.9194 Y27.9057
G01 X27.9237 Y27.8740
G01 X27.9268 Y27.8422
G01 X27.9289 Y27.8103
G01 X27.9299 Y27.7784
G01 X27.9297 Y27.7464
G01 X27.9285 Y27.7145
G01 X27.9261 Y27.6826
G01 X27.9227 Y27.6509
G01 X27.9181 Y27.6192
G01 X27.9084 Y27.5677
G01 X27.8961 Y27.5168
G01 X27.8812 Y27.4666
G01 X27.8637 Y27.4172
G01 X27.8436 Y27.3688
G01 X27.8211 Y27.3214
G01 X27.7962 Y27.2753
G01 X27.7690 Y27.2306
G01 X27.7370 Y27.1835
G01 X27.7026 Y27.1382
G01 X27.6659 Y27.0947
G01 X27.6271 Y27.0531
G01 X27.5862 Y27.0136
G01 X27.5433 Y26.9762
G01 X27.4985 Y26.9410
G01 X27.4521 Y26.9082
G01 X27.4002 Y26.8754
G01 X27.3467 Y26.8452
G01 X27.2917 Y26.8178
G01 X27.2354 Y26.7933
G01 X27.1779 Y26.7716
G01 X27.1195 Y26.7529
G01 X27.0601 Y26.7372
G01 X27.0000 Y26.7245
G01 X26.9349 Y26.7142
G01 X26.8693 Y26.7072
G01 X26.8035 Y26.7035
G01 X26.7376 Y26.7031
G01 X26.6717 Y26.7061
G01 X26.6061 Y26.7124
G01 X26.5409 Y26.7221
G01 X26.4762 Y26.7350
G01 X26.4079 Y26.7522
G01 X26.3405 Y26.7729
G01 X26.2743 Y26.7970
G01 X26.2094 Y26.8243
G01 X26.1459 Y26.8550
G01 X26.0841 Y26.8887
G01 X26.0240 Y26.9256
G01 X25.9659 Y26.9654
G01 X25.9123 Y27.0148
G01 X25.8613 Y27.0668
G01 X25.8129 Y27.1213
G01 X25.7673 Y27.1781
G01 X25.7245 Y27.2370
G01 X25.6847 Y27.2980
G01 X25.6479 Y27.3609
G01 X25.6142 Y27.4255
G01 X25.5877 Y27.4942
G01 X25.5646 Y27.5641
G01 X25.5450 Y27.6351
G01 X25.5289 Y27.7069
G01 X25.5163 Y27.7794
G01 X25.5073 Y27.8525
G01 X25.5018 Y27.9259
G01 X25.5000 Y27.9995
G01 X25.5018 Y28.0731
G01 X25.5073 Y28.1466
G01 X25.5163 Y28.2196
G01 X25.5289 Y28.2922
G01 X25.5450 Y28.3640
G01 X25.5646 Y28.4349
G01 X25.5877 Y28.5049
G01 X25.6142 Y28.5735
G01 X25.6441 Y28.6408
G01 X25.6772 Y28.7066
G01 X25.7134 Y28.7707
G01 X25.7528 Y28.8329
G01 X25.7952 Y28.8931
G01 X25.8405 Y28.9511
G01 X25.8886 Y29.0068
G01 X25.9394 Y29.0602
G01 X25.9927 Y29.1109
G01 X26.0484 Y29.1590
G01 X26.1065 Y29.2043
G01 X26.1667 Y29.2467
G01 X26.2289 Y29.2861
G01 X26.2929 Y29.3224
G01 X26.3587 Y29.3555
G01 X26.4260 Y29.3853
G01 X26.4947 Y29.4118
G01 X26.5646 Y29.4349
G01 X26.6355 Y29.4545
G01 X26.7074 Y29.4707
G01 X26.7799 Y29.4833
G01 X26.8530 Y29.4923
G01 X26.9264 Y29.4977
G01 X27.0000 Y29.4995
G01 X27.0736 Y29.4977
G01 X27.1470 Y29.4923
G01 X27.2201 Y29.4833
G01 X27.2926 Y29.4707
G01 X27.3645 Y29.4545
G01 X27.4354 Y29.4349
G01 X27.5053 Y29.4118
G01 X27.5740 Y29.3853
G01 X27.6413 Y29.3555
G01 X27.7071 Y29.3224
G01 X27.7711 Y29.2861
G01 X27.8333 Y29.2467
G01 X27.8935 Y29.2043
G01 X27.9516 Y29.1590
G01 X28.0073 Y29.1109
G01 X28.0606 Y29.0602
G01 X28.1114 Y29.0068
G01 X28.1595 Y28.9511
G01 X28.2048 Y28.8931
G01 X28.2472 Y28.8329
G01 X28.2866 Y28.7707
G01 X28.3229 Y28.7066
G01 X28.3560 Y28.6408
G01 X28.3858 Y28.5735
G01 X28.4123 Y28.5049
G01 X28.4354 Y28.4349
G01 X28.4550 Y28.3640
G01 X28.4712 Y28.2922
G01 X28.4837 Y28.2196
G01 X28.4928 Y28.1466
G01 X28.4982 Y28.0731
G01 X28.5000 Y27.9995
G01 X28.4958 Y27.8874
G01 X28.4832 Y27.7760
G01 X28.4624 Y27.6658
G01 X28.4333 Y27.5574
G01 X28.3963 Y27.4515
G01 X28.3514 Y27.3487
G01 X28.2990 Y27.2495
G01 X28.2393 Y27.1546
G01 X28.1727 Y27.0643
G01 X28.0996 Y26.9793
G01 X28.0202 Y26.9000
G01 X27.9352 Y26.8268
G01 X27.8450 Y26.7602
G01 X27.7500 Y26.7005
G01 X27.6508 Y26.6481
G01 X27.5480 Y26.6032
G01 X27.4421 Y26.5662
G01 X27.3338 Y26.5372
G01 X27.2236 Y26.5163
G01 X27.1121 Y26.5038
G01 X27.0000 Y26.4996
G01 X26.8879 Y26.5038
G01 X26.7765 Y26.5163
G01 X26.6662 Y26.5372
G01 X26.5579 Y26.5662
G01 X26.4520 Y26.6032
G01 X26.3492 Y26.6481
G01 X26.2500 Y26.7005
G01 X26.1550 Y26.7602
G01 X26.0648 Y26.8268
G01 X25.9798 Y26.9000
G01 X25.9005 Y26.9793
G01 X25.8273 Y27.0643
G01 X25.7607 Y27.1546
G01 X25.7010 Y27.2495
G01 X25.6486 Y27.3487
G01 X25.6037 Y27.4515
G01 X25.5667 Y27.5574
G01 X25.5376 Y27.6658
G01 X25.5168 Y27.7760
G01 X25.5042 Y27.8874
G01 X25.5000 Y27.9995
G01 X25.5042 Y28.1116
G01 X25.5168 Y28.2231
G01 X25.5376 Y28.3333
G01 X25.5667 Y28.4417
G01 X25.6037 Y28.5475
G01 X25.6486 Y28.6503
G01 X25.7010 Y28.7495
G01 X25.7607 Y28.8445
G01 X25.8273 Y28.9347
G01 X25.9005 Y29.0198
G01 X25.9798 Y29.0991
G01 X26.0648 Y29.1723
G01 X26.1550 Y29.2389
G01 X26.2500 Y29.2985
G01 X26.3492 Y29.3510
G01 X26.4520 Y29.3958
G01 X26.5579 Y29.4329
G01 X26.6662 Y29.4619
G01 X26.7765 Y29.4827
G01 X26.8879 Y29.4953
G01 X27.0000 Y29.4995
G01 X27.1121 Y29.4953
G01 X27.2236 Y29.4827
G01 X27.3338 Y29.4619
G01 X27.4421 Y29.4329
G01 X27.5480 Y29.3958
G01 X27.6508 Y29.3510
G01 X27.7500 Y29.2985
G01 X27.8450 Y29.2389
G01 X27.9352 Y29.1723
G01 X28.0202 Y29.0991
G01 X28.0996 Y29.0198
G01 X28.1727 Y28.9347
G01 X28.2393 Y28.8445
G01 X28.2990 Y28.7495
G01 X28.3514 Y28.6503
G01 X28.3963 Y28.5475
G01 X28.4333 Y28.4417
G01 X28.4624 Y28.3333
G01 X28.4832 Y28.2231
G01 X28.4958 Y28.1116
G01 X28.5000 Y27.9995
G01 X28.4954 Y27.8949
G01 X28.4817 Y27.7912
G01 X28.4591 Y27.6890
G01 X28.4276 Y27.5891
G01 X28.3875 Y27.4924
G01 X28.3392 Y27.3995
G01 X28.2830 Y27.3112
G01 X28.2192 Y27.2282
G01 X28.1485 Y27.1510
G01 X28.0713 Y27.0803
G01 X27.9883 Y27.0166
G01 X27.9000 Y26.9603
G01 X27.8071 Y26.9120
G01 X27.7104 Y26.8719
G01 X27.6106 Y26.8404
G01 X27.5084 Y26.8178
G01 X27.4046 Y26.8041
G01 X27.3000 Y26.7995
G01 X27.1954 Y26.8041
G01 X27.0916 Y26.8178
G01 X26.9894 Y26.8404
G01 X26.8896 Y26.8719
G01 X26.7929 Y26.9120
G01 X26.7000 Y26.9603
G01 X26.6117 Y27.0166
G01 X26.5287 Y27.0803
G01 X26.4515 Y27.1510
G01 X26.3808 Y27.2282
G01 X26.3170 Y27.3112
G01 X26.2608 Y27.3995
G01 X26.2124 Y27.4924
G01 X26.1724 Y27.5891
G01 X26.1409 Y27.6890
G01 X26.1182 Y27.7912
G01 X26.1046 Y27.8949
G01 X26.1000 Y27.9995
G01 X26.1011 Y28.0437
G01 X26.1043 Y28.0877
G01 X26.1098 Y28.1316
G01 X26.1173 Y28.1751
G01 X26.1270 Y28.2182
G01 X26.1388 Y28.2608
G01 X26.1526 Y28.3027
G01 X26.1685 Y28.3439
G01 X26.1864 Y28.3843
G01 X26.2063 Y28.4238
G01 X26.2281 Y28.4622
G01 X26.2517 Y28.4995
G01 X26.2771 Y28.5357
G01 X26.3043 Y28.5705
G01 X26.3332 Y28.6039
G01 X26.3636 Y28.6359
G01 X26.3956 Y28.6664
G01 X26.4291 Y28.6952
G01 X26.4639 Y28.7224
G01 X26.5000 Y28.7479
G01 X26.5373 Y28.7715
G01 X26.5758 Y28.7933
G01 X26.6152 Y28.8131
G01 X26.6556 Y28.8310
G01 X26.6968 Y28.8469
G01 X26.7388 Y28.8608
G01 X26.7813 Y28.8726
G01 X26.8244 Y28.8822
G01 X26.8680 Y28.8898
G01 X26.9118 Y28.8952
G01 X26.9558 Y28.8984
G01 X27.0000 Y28.8995
G01 X27.0442 Y28.8984
G01 X27.0882 Y28.8952
G01 X27.1321 Y28.8898
G01 X27.1756 Y28.8822
G01 X27.2187 Y28.8726
G01 X27.2613 Y28.8608
G01 X27.3032 Y28.8469
G01 X27.3444 Y28.8310
G01 X27.3848 Y28.8131
G01 X27.4243 Y28.7933
G01 X27.4627 Y28.7715
G01 X27.5000 Y28.7479
G01 X27.5361 Y28.7224
G01 X27.5710 Y28.6952
G01 X27.6044 Y28.6664
G01 X27.6364 Y28.6359
G01 X27.6669 Y28.6039
G01 X27.6957 Y28.5705
G01 X27.7229 Y28.5357
G01 X27.7483 Y28.4995
G01 X27.7720 Y28.4622
G01 X27.7937 Y28.4238
G01 X27.8136 Y28.3843
G01 X27.8315 Y28.3439
G01 X27.8474 Y28.3027
G01 X27.8613 Y28.2608
G01 X27.8730 Y28.2182
G01 X27.8827 Y28.1751
G01 X27.8903 Y28.1316
G01 X27.8957 Y28.0877
G01 X27.8989 Y28.0437
G01 X27.9000 Y27.9995
M107
M106 S240
G01 X27.8990 Y27.9567 Z-4.3873 F400
G01 X27.8959 Y27.9140 Z-4.3996
G01 X27.8908 Y27.8714 Z-4.4119
G01 X27.8837 Y27.8292 Z-4.4242
G01 X27.8746 Y27.7873 Z-4.4366
G01 X27.8636 Y27.7460 Z-4.4489
G01 X27.8505 Y27.7052 Z-4.4612
G01 X27.8355 Y27.6650 Z-4.4735
G01 X27.8187 Y27.6257 Z-4.4858
G01 X27.8000 Y27.5871 Z-4.4981
G01 X27.7794 Y27.5495 Z-4.5104
G01 X27.7571 Y27.5130 Z-4.5227
G01 X27.7331 Y27.4775 Z-4.5350
G01 X27.7075 Y27.4432 Z-4.5473
G01 X27.6802 Y27.4102 Z-4.5597
G01 X27.6514 Y27.3785 Z-4.5720
G01 X27.6211 Y27.3482 Z-4.5843
G01 X27.5894 Y27.3194 Z-4.5966
G01 X27.5564 Y27.2921 Z-4.6089
G01 X27.5221 Y27.2664 Z-4.6212
G01 X27.4866 Y27.2424 Z-4.6335
G01 X27.4500 Y27.2201 Z-4.6458
G01 X27.4124 Y27.1996 Z-4.6581
G01 X27.3739 Y27.1809 Z-4.6705
G01 X27.3345 Y27.1640 Z-4.6828
G01 X27.2944 Y27.1490 Z-4.6951
G01 X27.2536 Y27.1360 Z-4.7074
G01 X27.2122 Y27.1249 Z-4.7197
G01 X27.1703 Y27.1158 Z-4.7320
G01 X27.1281 Y27.1087 Z-4.7443
G01 X27.0856 Y27.1036 Z-4.7566
G01 X27.0428 Y27.1005 Z-4.7689
G01 X27.0000 Y27.0995 Z-4.7813
G01 X26.9572 Y27.1005 Z-4.7936
G01 X26.9145 Y27.1036 Z-4.8059
G01 X26.8719 Y27.1087 Z-4.8182
G01 X26.8297 Y27.1158 Z-4.8305
G01 X26.7878 Y27.1249 Z-4.8428
G01 X26.7465 Y27.1360 Z-4.8551
G01 X26.7056 Y27.1490 Z-4.8674
G01 X26.6655 Y27.1640 Z-4.8797
G01 X26.6261 Y27.1809 Z-4.8920
G01 X26.5876 Y27.1996 Z-4.9044
G01 X26.5500 Y27.2201 Z-4.9167
G01 X26.5134 Y27.2424 Z-4.9290
G01 X26.4780 Y27.2664 Z-4.9413
G01 X26.4437 Y27.2921 Z-4.9536
G01 X26.4106 Y27.3194 Z-4.9659
G01 X26.3789 Y27.3482 Z-4.9782
G01 X26.3486 Y27.3785 Z-4.9905
G01 X26.3198 Y27.4102 Z-5.0028
G01 X26.2926 Y27.4432 Z-5.0152
G01 X26.2669 Y27.4775 Z-5.0275
G01 X26.2429 Y27.5130 Z-5.0398
G01 X26.2206 Y27.5495 Z-5.0521
G01 X26.2001 Y27.5871 Z-5.0644
G01 X26.1813 Y27.6257 Z-5.0767
G01 X26.1645 Y27.6650 Z-5.0890
G01 X26.1495 Y27.7052 Z-5.1013
G01 X26.1365 Y27.7460 Z-5.1136
G01 X26.1254 Y27.7873 Z-5.1259
G01 X26.1163 Y27.8292 Z-5.1383
G01 X26.1092 Y27.8714 Z-5.1506
G01 X26.1041 Y27.9140 Z-5.1629
G01 X26.1010 Y27.9567 Z-5.1752
G01 X26.1000 Y27.9995 Z-5.1875
G01 X26.1010 Y28.0424 Z-5.1998
G01 X26.1041 Y28.0851 Z-5.2121
G01 X26.1092 Y28.1276 Z-5.2244
G01 X26.1163 Y28.1699 Z-5.2367
G01 X26.1254 Y28.2117 Z-5.2491
G01 X26.1365 Y28.2531 Z-5.2614
G01 X26.1495 Y28.2939 Z-5.2737
G01 X26.1645 Y28.3340 Z-5.2860
G01 X26.1813 Y28.3734 Z-5.2983
G01 X26.2001 Y28.4119 Z-5.3106
G01 X26.2206 Y28.4495 Z-5.3229
G01 X26.2429 Y28.4861 Z-5.3352
G01 X26.2669 Y28.5216 Z-5.3475
G01 X26.2926 Y28.5559 Z-5.3598
G01 X26.3198 Y28.5889 Z-5.3722
G01 X26.3486 Y28.6206 Z-5.3845
G01 X26.3789 Y28.6509 Z-5.3968
G01 X26.4106 Y28.6797 Z-5.4091
G01 X26.4437 Y28.7070 Z-5.4214
G01 X26.4780 Y28.7326 Z-5.4337
G01 X26.5134 Y28.7567 Z-5.4460
G01 X26.5500 Y28.7790 Z-5.4583
G01 X26.5876 Y28.7995 Z-5.4706
G01 X26.6261 Y28.8182 Z-5.4830
G01 X26.6655 Y28.8351 Z-5.4953
G01 X26.7056 Y28.8500 Z-5.5076
G01 X26.7465 Y28.8631 Z-5.5199
G01 X26.7878 Y28.8742 Z-5.5322
G01 X26.8297 Y28.8833 Z-5.5445
G01 X26.8719 Y28.8904 Z-5.5568
G01 X26.9145 Y28.8955 Z-5.5691
G01 X26.9572 Y28.8985 Z-5.5814
G01 X27.0000 Y28.8995 Z-5.5938
G01 X27.0428 Y28.8985 Z-5.6061
G01 X27.0856 Y28.8955 Z-5.6184
G01 X27.1281 Y28.8904 Z-5.6307
G01 X27.1703 Y28.8833 Z-5.6430
G01 X27.2122 Y28.8742 Z-5.6553
G01 X27.2536 Y28.8631 Z-5.6676
G01 X27.2944 Y28.8500 Z-5.6799
G01 X27.3345 Y28.8351 Z-5.6922
G01 X27.3739 Y28.8182 Z-5.7045
G01 X27.4124 Y28.7995 Z-5.7169
G01 X27.4500 Y28.7790 Z-5.7292
G01 X27.4866 Y28.7567 Z-5.7415
G01 X27.5221 Y28.7326 Z-5.7538
G01 X27.5564 Y28.7070 Z-5.7661
G01 X27.5894 Y28.6797 Z-5.7784
G01 X27.6211 Y28.6509 Z-5.7907
G01 X27.6514 Y28.6206 Z-5.8030
G01 X27.6802 Y28.5889 Z-5.8153
G01 X27.7075 Y28.5559 Z-5.8277
G01 X27.7331 Y28.5216 Z-5.8400
G01 X27.7571 Y28.4861 Z-5.8523
G01 X27.7794 Y28.4495 Z-5.8646
G01 X27.8000 Y28.4119 Z-5.8769
G01 X27.8187 Y28.3734 Z-5.8892
G01 X27.8355 Y28.3340 Z-5.9015
G01 X27.8505 Y28.2939 Z-5.9138
G01 X27.8636 Y28.2531 Z-5.9261
G01 X27.8746 Y28.2117 Z-5.9384
G01 X27.8837 Y28.1699 Z-5.9508
G01 X27.8908 Y28.1276 Z-5.9631
G01 X27.8959 Y28.0851 Z-5.9754
G01 X27.8990 Y28.0424 Z-5.9877
G01 X27.9000 Y27.9995 Z-6.0000
G01 X27.8990 Y27.9567
G01 X27.8959 Y27.9140
G01 X27.8908 Y27.8714
G01 X27.8837 Y27.8292
G01 X27.8746 Y27.7873
G01 X27.8636 Y27.7460
G01 X27.8505 Y27.7052
G01 X27.8355 Y27.6650
G01 X27.8187 Y27.6257
G01 X27.8000 Y27.5871
G01 X27.7794 Y27.5495
G01 X27.7571 Y27.5130
G01 X27.7331 Y27.4775
G01 X27.7075 Y27.4432
G01 X27.6802 Y27.4102
G01 X27.6514 Y27.3785
G01 X27.6211 Y27.3482
G01 X27.5894 Y27.3194
G01 X27.5564 Y27.2921
G01 X27.5221 Y27.2664
G01 X27.4866 Y27.2424
G01 X27.4500 Y27.2201
G01 X27.4124 Y27.1996
G01 X27.3739 Y27.1809
G01 X27.3345 Y27.1640
G01 X27.2944 Y27.1490
G01 X27.2536 Y27.1360
G01 X27.2122 Y27.1249
G01 X27.1703 Y27.1158
G01 X27.1281 Y27.1087
G01 X27.0856 Y27.1036
G01 X27.0428 Y27.1005
G01 X27.0000 Y27.0995
G01 X26.9572 Y27.1005
G01 X26.9145 Y27.1036
G01 X26.8719 Y27.1087
G01 X26.8297 Y27.1158
G01 X26.7878 Y27.1249
G01 X26.7465 Y27.1360
G01 X26.7056 Y27.1490
G01 X26.6655 Y27.1640
G01 X26.6261 Y27.1809
G01 X26.5876 Y27.1996
G01 X26.5500 Y27.2201
G01 X26.5134 Y27.2424
G01 X26.4780 Y27.2664
G01 X26.4437 Y27.2921
G01 X26.4106 Y27.3194
G01 X26.3789 Y27.3482
G01 X26.3486 Y27.3785
G01 X26.3198 Y27.4102
G01 X26.2926 Y27.4432
G01 X26.2669 Y27.4775
G01 X26.2429 Y27.5130
G01 X26.2206 Y27.5495
G01 X26.2001 Y27.5871
G01 X26.1813 Y27.6257
G01 X26.1645 Y27.6650
G01 X26.1495 Y27.7052
G01 X26.1365 Y27.7460
G01 X26.1254 Y27.7873
G01 X26.1163 Y27.8292
G01 X26.1092 Y27.8714
G01 X26.1041 Y27.9140
G01 X26.1010 Y27.9567
G01 X26.1000 Y27.9995
G01 X26.1010 Y28.0424
G01 X26.1041 Y28.0851
G01 X26.1092 Y28.1276
G01 X26.1163 Y28.1699
G01 X26.1254 Y28.2117
G01 X26.1365 Y28.2531
G01 X26.1495 Y28.2939
G01 X26.1645 Y28.3340
G01 X26.1813 Y28.3734
G01 X26.2001 Y28.4119
G01 X26.2206 Y28.4495
G01 X26.2429 Y28.4861
G01 X26.2669 Y28.5216
G01 X26.2926 Y28.5559
G01 X26.3198 Y28.5889
G01 X26.3486 Y28.6206
G01 X26.3789 Y28.6509
G01 X26.4106 Y28.6797
G01 X26.4437 Y28.7070
G01 X26.4780 Y28.7326
G01 X26.5134 Y28.7567
G01 X26.5500 Y28.7790
G01 X26.5876 Y28.7995
G01 X26.6261 Y28.8182
G01 X26.6655 Y28.8351
G01 X26.7056 Y28.8500
G01 X26.7465 Y28.8631
G01 X26.7878 Y28.8742
G01 X26.8297 Y28.8833
G01 X26.8719 Y28.8904
G01 X26.9145 Y28.8955
G01 X26.9572 Y28.8985
G01 X27.0000 Y28.8995
G01 X27.0428 Y28.8985
G01 X27.0856 Y28.8955
G01 X27.1281 Y28.8904
G01 X27.1703 Y28.8833
G01 X27.2122 Y28.8742
G01 X27.2536 Y28.8631
G01 X27.2944 Y28.8500
G01 X27.3345 Y28.8351
G01 X27.3739 Y28.8182
G01 X27.4124 Y28.7995
G01 X27.4500 Y28.7790
G01 X27.4866 Y28.7567
G01 X27.5221 Y28.7326
G01 X27.5564 Y28.7070
G01 X27.5894 Y28.6797
G01 X27.6211 Y28.6509
G01 X27.6514 Y28.6206
G01 X27.6802 Y28.5889
G01 X27.7075 Y28.5559
G01 X27.7331 Y28.5216
G01 X27.7571 Y28.4861
G01 X27.7794 Y28.4495
G01 X27.8000 Y28.4119
G01 X27.8187 Y28.3734
G01 X27.8355 Y28.3340
G01 X27.8505 Y28.2939
G01 X27.8636 Y28.2531
G01 X27.8746 Y28.2117
G01 X27.8837 Y28.1699
G01 X27.8908 Y28.1276
G01 X27.8959 Y28.0851
G01 X27.8990 Y28.0424
G01 X27.9000 Y27.9995
G01 X27.9076 Y27.9685 F1000
G01 X27.9140 Y27.9372
G01 X27.9194 Y27.9057
G01 X27.9237 Y27.8740
G01 X27.9268 Y27.8422
G01 X27.9289 Y27.8103
G01 X27.9299 Y27.7784
G01 X27.9297 Y27.7464
G01 X27.9285 Y27.7145
G01 X27.9261 Y27.6826
G01 X27.9227 Y27.6509
G01 X27.9181 Y27.6192
G01 X27.9084 Y27.5677
G01 X27.8961 Y27.5168
G01 X27.8812 Y27.4666
G01 X27.8637 Y27.4172
G01 X27.8436 Y27.3688
G01 X27.8211 Y27.3214
G01 X27.7962 Y27.2753
G01 X27.7690 Y27.2306
G01 X27.7370 Y27.1835
G01 X27.7026 Y27.1382
G01 X27.6659 Y27.0947
G01 X27.6271 Y27.0531
G01 X27.5862 Y27.0136
G01 X27.5433 Y26.9762
G01 X27.4985 Y26.9410
G01 X27.4521 Y26.9082
G01 X27.4002 Y26.8754
G01 X27.3467 Y26.8452
G01 X27.2917 Y26.8178
G01 X27.2354 Y26.7933
G01 X27.1779 Y26.7716
G01 X27.1195 Y26.7529
G01 X27.0601 Y26.7372
G01 X27.0000 Y26.7245
G01 X26.9349 Y26.7142
G01 X26.8693 Y26.7072
G01 X26.8035 Y26.7035
G01 X26.7376 Y26.7031
G01 X26.6717 Y26.7061
G01 X26.6061 Y26.7124
G01 X26.5409 Y26.7221
G01 X26.4762 Y26.7350
G01 X26.4079 Y26.7522
G01 X26.3405 Y26.7729
G01 X26.2743 Y26.7970
G01 X26.2094 Y26.8243
G01 X26.1459 Y26.8550
G01 X26.0841 Y26.8887
G01 X26.0240 Y26.9256
G01 X25.9659 Y26.9654
G01 X25.9123 Y27.0148
G01 X25.8613 Y27.0668
G01 X25.8129 Y27.1213
G01 X25.7673 Y27.1781
G01 X25.7245 Y27.2370
G01 X25.6847 Y27.2980
G01 X25.6479 Y27.3609
G01 X25.6142 Y27.4255
G01 X25.5877 Y27.4942
G01 X25.5646 Y27.5641
G01 X25.5450 Y27.6351
G01 X25.5289 Y27.7069
G01 X25.5163 Y27.7794
G01 X25.5073 Y27.8525
G01 X25.5018 Y27.9259
G01 X25.5000 Y27.9995
G01 X25.5018 Y28.0731
G01 X25.5073 Y28.1466
G01 X25.5163 Y28.2196
G01 X25.5289 Y28.2922
G01 X25.5450 Y28.3640
G01 X25.5646 Y28.4349
G01 X25.5877 Y28.5049
G01 X25.6142 Y28.5735
G01 X25.6441 Y28.6408
G01 X25.6772 Y28.7066
G01 X25.7134 Y28.7707
G01 X25.7528 Y28.8329
G01 X25.7952 Y28.8931
G01 X25.8405 Y28.9511
G01 X25.8886 Y29.0068
G01 X25.9394 Y29.0602
G01 X25.9927 Y29.1109
G01 X26.0484 Y29.1590
G01 X26.1065 Y29.2043
G01 X26.1667 Y29.2467
G01 X26.2289 Y29.2861
G01 X26.2929 Y29.3224
G01 X26.3587 Y29.3555
G01 X26.4260 Y29.3853
G01 X26.4947 Y29.4118
G01 X26.5646 Y29.4349
G01 X26.6355 Y29.4545
G01 X26.7074 Y29.4707
G01 X26.7799 Y29.4833
G01 X26.8530 Y29.4923
G01 X26.9264 Y29.4977
G01 X27.0000 Y29.4995
G01 X27.0736 Y29.4977
G01 X27.1470 Y29.4923
G01 X27.2201 Y29.4833
G01 X27.2926 Y29.4707
G01 X27.3645 Y29.4545
G01 X27.4354 Y29.4349
G01 X27.5053 Y29.4118
G01 X27.5740 Y29.3853
G01 X27.6413 Y29.3555
G01 X27.7071 Y29.3224
G01 X27.7711 Y29.2861
G01 X27.8333 Y29.2467
G01 X27.8935 Y29.2043
G01 X27.9516 Y29.1590
G01 X28.0073 Y29.1109
G01 X28.0606 Y29.0602
G01 X28.1114 Y29.0068
G01 X28.1595 Y28.9511
G01 X28.2048 Y28.8931
G01 X28.2472 Y28.8329
G01 X28.2866 Y28.7707
G01 X28.3229 Y28.7066
G01 X28.3560 Y28.6408
G01 X28.3858 Y28.5735
G01 X28.4123 Y28.5049
G01 X28.4354 Y28.4349
G01 X28.4550 Y28.3640
G01 X28.4712 Y28.2922
G01 X28.4837 Y28.2196
G01 X28.4928 Y28.1466
G01 X28.4982 Y28.0731
G01 X28.5000 Y27.9995
G01 X28.4958 Y27.8874
G01 X28.4832 Y27.7760
G01 X28.4624 Y27.6658
G01 X28.4333 Y27.5574
G01 X28.3963 Y27.4515
G01 X28.3514 Y27.3487
G01 X28.2990 Y27.2495
G01 X28.2393 Y27.1546
G01 X28.1727 Y27.0643
G01 X28.0996 Y26.9793
G01 X28.0202 Y26.9000
G01 X27.9352 Y26.8268
G01 X27.8450 Y26.7602
G01 X27.7500 Y26.7005
G01 X27.6508 Y26.6481
G01 X27.5480 Y26.6032
G01 X27.4421 Y26.5662
G01 X27.3338 Y26.5372
G01 X27.2236 Y26.5163
G01 X27.1121 Y26.5038
G01 X27.0000 Y26.4996
G01 X26.8879 Y26.5038
G01 X26.7765 Y26.5163
G01 X26.6662 Y26.5372
G01 X26.5579 Y26.5662
G01 X26.4520 Y26.6032
G01 X26.3492 Y26.6481
G01 X26.2500 Y26.7005
G01 X26.1550 Y26.7602
G01 X26.0648 Y26.8268
G01 X25.9798 Y26.9000
G01 X25.9005 Y26.9793
G01 X25.8273 Y27.0643
G01 X25.7607 Y27.1546
G01 X25.7010 Y27.2495
G01 X25.6486 Y27.3487
G01 X25.6037 Y27.4515
G01 X25.5667 Y27.5574
G01 X25.5376 Y27.6658
G01 X25.5168 Y27.7760
G01 X25.5042 Y27.8874
G01 X25.5000 Y27.9995
G01 X25.5042 Y28.1116
G01 X25.5168 Y28.2231
G01 X25.5376 Y28.3333
G01 X25.5667 Y28.4417
G01 X25.6037 Y28.5475
G01 X25.6486 Y28.6503
G01 X25.7010 Y28.7495
G01 X25.7607 Y28.8445
G01 X25.8273 Y28.9347
G01 X25.9005 Y29.0198
G01 X25.9798 Y29.0991
G01 X26.0648 Y29.1723
G01 X26.1550 Y29.2389
G01 X26.2500 Y29.2985
G01 X26.3492 Y29.3510
G01 X26.4520 Y29.3958
G01 X26.5579 Y29.4329
G01 X26.6662 Y29.4619
G01 X26.7765 Y29.4827
G01 X26.8879 Y29.4953
G01 X27.0000 Y29.4995
G01 X27.1121 Y29.4953
G01 X27.2236 Y29.4827
G01 X27.3338 Y29.4619
G01 X27.4421 Y29.4329
G01 X27.5480 Y29.3958
G01 X27.6508 Y29.3510
G01 X27.7500 Y29.2985
G01 X27.8450 Y29.2389
G01 X27.9352 Y29.1723
G01 X28.0202 Y29.0991
G01 X28.0996 Y29.0198
G01 X28.1727 Y28.9347
G01 X28.2393 Y28.8445
G01 X28.2990 Y28.7495
G01 X28.3514 Y28.6503
G01 X28.3963 Y28.5475
G01 X28.4333 Y28.4417
G01 X28.4624 Y28.3333
G01 X28.4832 Y28.2231
G01 X28.4958 Y28.1116
G01 X28.5000 Y27.9995
M107
M106 S240
G01 X28.4969 Y27.9211 Z-5.9750 F400
M107
M106 S240
G01 X28.4877 Y27.8431 Z-5.9500
M107
M106 S240
G01 X28.4723 Y27.7661 Z-5.9250
M107
M106 S240
G01 X28.4510 Y27.6905 Z-5.9000
M107
M106 S240
G01 X28.4239 Y27.6168 Z-5.8750
M107
M106 S240
G01 X28.3910 Y27.5455 Z-5.8500
M107
M106 S240
G01 X28.3526 Y27.4770 Z-5.8250
M107
M106 S240
G01 X28.3090 Y27.4117 Z-5.8000
M107
M106 S240
G01 X28.2604 Y27.3501 Z-5.7750
M107
M106 S240
G01 X28.2071 Y27.2924 Z-5.7500
M107
M106 S240
G01 X28.1494 Y27.2391 Z-5.7250
M107
M106 S240
G01 X28.0878 Y27.1905 Z-5.7000
M107
M106 S240
G01 X28.0225 Y27.1469 Z-5.6750
M107
M106 S240
G01 X27.9540 Y27.1085 Z-5.6500
M107
M106 S240
G01 X27.8827 Y27.0757 Z-5.6250
M107
M106 S240
G01 X27.8090 Y27.0485 Z-5.6000
M107
M106 S240
G01 X27.7334 Y27.0272 Z-5.5750
M107
M106 S240
G01 X27.6564 Y27.0118 Z-5.5500
M107
M106 S240
G01 X27.5784 Y27.0026 Z-5.5250
M107
M106 S240
G01 X27.5000 Y26.9995 Z-5.5000
M107
G00 Z2.0000


;No. 2: Hole 2
G00 X51.0655 Y76.8964 Z2.0000
G00 Z0.5000
G01 Z0.0000 F400
G01 Z-2.0000
M106 S240
G01 X80.0213 F1000
G01 X82.4431 Y78.3964
G01 X75.0975
G01 X78.4589
G01 Y79.8964
G01 X84.4130
G01 X86.0874 Y81.3964
G01 X79.8723
G01 X80.6857 Y82.8964
G01 X87.5515
G01 X88.8341 Y84.3964
G01 X81.1098
G01 X81.2146 Y85.8964
G01 X89.9598
G01 X90.9489 Y87.3964
G01 X81.0141
G01 X80.4804 Y88.8964
G01 X91.8168
G01 X92.5750 Y90.3964
G01 X79.5259
G01 X77.8302 Y91.8964
G01 X93.2326
G01 X93.7967 Y93.3964
G01 X85.1354
G01 X87.2723
G01 Y94.8964
G01 X94.2717
G01 X94.6639 Y96.3964
G01 X88.4145
G01 X89.0634 Y97.8964
G01 X94.9759
G01 X95.2099 Y99.3964
G01 X89.3610
G01 X89.3546 Y100.8964
G01 X95.3688
G01 X95.4524 Y102.3964
G01 X89.0476
G01 X88.3965 Y103.8964
G01 X95.4629
G01 X95.3987 Y105.3964
G01 X87.2841
G01 X85.3333 Y106.8964
G01 X95.2607
G01 X95.0464 Y108.3964
G01 X35.5447
G01 X35.3735 Y106.8964
G01 X45.2480
G01 X43.3086 Y105.3964
G01 X35.2577
G01 X35.1928 Y103.8964
G01 X42.1558
G01 X41.4500 Y102.3964
G01 X35.1789
G01 X35.2197 Y100.8964
G01 X41.1080
G01 X41.1205 Y99.3964
G01 X35.3251
G01 X35.5163 Y97.8964
G01 X41.5083
G01 X42.2164 Y96.3964
G01 X35.8232
G01 X36.2081 Y94.8964
G01 X43.3645
G01 Y93.3964
G01 X45.4328
G01 X36.6731
G01 X37.2299 Y91.8964
G01 X52.5230
G01 X51.8328 Y93.3964
G01 X62.1095
G01 X61.1827 Y91.8964
G01 X69.5108
G01 X68.5537 Y93.3964
G01 X78.6992
G01 X76.5831
G01 Y94.8964
G01 X70.5582
G01 X71.6938 Y96.3964
G01 X75.4303
G01 X74.7657 Y97.8964
G01 X72.4205
G01 X72.7830 Y99.3964
G01 X74.4548
G01 X74.4325 Y100.8964
G01 X72.7872
G01 X72.4517 Y102.3964
G01 X74.6548
G01 X75.2448 Y103.8964
G01 X71.7441
G01 X70.5582 Y105.3964
G01 X76.4029
G01 Y106.8964
G01 X78.4801
G01 X78.5473 Y106.7063
G01 X78.2181 Y106.5311
G01 X77.8978 Y106.3400
G01 X77.5874 Y106.1333
G01 X77.2875 Y105.9116
G01 X76.9989 Y105.6754
G01 X76.7222 Y105.4254
G01 X76.4582 Y105.1620
G01 X76.2074 Y104.8859
G01 X75.9706 Y104.5978
G01 X75.7482 Y104.2985
G01 X75.5408 Y103.9885
G01 X75.3488 Y103.6687
G01 X75.1589 Y103.2431
G01 X74.9959 Y102.8064
G01 X74.8607 Y102.3603
G01 X74.7536 Y101.9066
G01 X74.6752 Y101.4471
G01 X74.6258 Y100.9836
G01 X74.6055 Y100.5179
G01 X74.6144 Y100.0519
G01 X74.6402 Y99.5473
G01 X74.7008 Y99.0457
G01 X74.7959 Y98.5495
G01 X74.9251 Y98.0611
G01 X75.0877 Y97.5828
G01 X75.2830 Y97.1168
G01 X75.5101 Y96.6655
G01 X75.7678 Y96.2309
G01 X76.0550 Y95.8153
G01 X76.3702 Y95.4204
G01 X76.7119 Y95.0483
G01 X77.0786 Y94.7007
G01 X77.4684 Y94.3793
G01 X77.8795 Y94.0856
G01 X78.3099 Y93.8210
G01 X78.7575 Y93.5868
G01 X79.2203 Y93.3841
G01 X79.6960 Y93.2139
G01 X80.1824 Y93.0770
G01 X80.6770 Y92.9741
G01 X81.1775 Y92.9055
G01 X81.6816 Y92.8718
G01 X82.1869 Y92.8730
G01 X82.6908 Y92.9091
G01 X83.1910 Y92.9799
G01 X83.6852 Y93.0852
G01 X84.1709 Y93.2244
G01 X84.6458 Y93.3968
G01 X85.1076 Y93.6016
G01 X85.5542 Y93.8379
G01 X85.9833 Y94.1045
G01 X86.3931 Y94.4001
G01 X86.7814 Y94.7233
G01 X87.1464 Y95.0726
G01 X87.4864 Y95.4463
G01 X87.7997 Y95.8426
G01 X88.0849 Y96.2597
G01 X88.3406 Y96.6954
G01 X88.5656 Y97.1478
G01 X88.7588 Y97.6147
G01 X88.9110 Y98.0914
G01 X89.0309 Y98.5773
G01 X89.1179 Y99.0701
G01 X89.1717 Y99.5677
G01 X89.1920 Y100.0678
G01 X89.1788 Y100.5680
G01 X89.1320 Y101.0663
G01 X89.0520 Y101.5603
G01 X88.9390 Y102.0479
G01 X88.7935 Y102.5267
G01 X88.6163 Y102.9948
G01 X88.4081 Y103.4499
G01 X88.1698 Y103.8900
G01 X87.9026 Y104.3131
G01 X87.6076 Y104.7174
G01 X87.2862 Y105.1010
G01 X86.9397 Y105.4622
G01 X86.5699 Y105.7993
G01 X86.1782 Y106.1109
G01 X85.7666 Y106.3955
G01 X85.3368 Y106.6519
G01 X84.8907 Y106.8789
G01 X84.4305 Y107.0754
G01 X83.9581 Y107.2407
G01 X83.5081 Y107.3530
G01 X83.0520 Y107.4370
G01 X82.5916 Y107.4925
G01 X82.1286 Y107.5191
G01 X81.6648 Y107.5168
G01 X81.2021 Y107.4856
G01 X80.7422 Y107.4257
G01 X80.2870 Y107.3372
G01 X79.8382 Y107.2205
G01 X79.3975 Y107.0761
G01 X78.9666 Y106.9044
G01 X78.5473 Y106.7063
G01 X78.4801 Y106.8964
G01 X68.5503
G01 X69.8717 Y109.8964
G01 X60.4909
G01 X61.8881 Y111.3964
G01 X68.5470
G01 X67.9102 Y112.8964
G01 X62.5036
G01 X62.6895 Y114.3964
G01 X67.7028
G01 X67.9048 Y115.8964
G01 X62.6034
G01 X61.9223 Y117.3964
G01 X68.5634
G01 X69.8833 Y118.8964
G01 X60.5139
G01 Y120.3964
G01 X40.3032
G01 X90.2241
G01 X91.1812 Y118.8964
G01 X77.1290
G01 X78.4663 Y117.3964
G01 X92.0212
G01 X92.7542 Y115.8964
G01 X79.1520
G01 X79.3692 Y114.3964
G01 X93.3887
G01 X93.9297 Y112.8964
G01 X79.1614
G01 X78.4906 Y111.3964
G01 X94.3838
G01 X94.7558 Y109.8964
G01 X77.1815
G01 X77.0214 Y110.0242
G01 X77.2968 Y110.2562
G01 X77.5568 Y110.5053
G01 X77.8002 Y110.7706
G01 X78.0262 Y111.0509
G01 X78.2337 Y111.3452
G01 X78.4220 Y111.6521
G01 X78.5901 Y111.9705
G01 X78.7375 Y112.2990
G01 X78.8636 Y112.6363
G01 X78.9677 Y112.9810
G01 X79.0496 Y113.3317
G01 X79.1088 Y113.6868
G01 X79.1451 Y114.0451
G01 X79.1583 Y114.4049
G01 X79.1485 Y114.7649
G01 X79.1156 Y115.1234
G01 X79.0247 Y115.5576
G01 X78.9020 Y115.9838
G01 X78.7480 Y116.3997
G01 X78.5637 Y116.8031
G01 X78.3500 Y117.1918
G01 X78.1081 Y117.5636
G01 X77.8394 Y117.9165
G01 X77.5453 Y118.2485
G01 X77.2274 Y118.5578
G01 X76.8875 Y118.8427
G01 X76.5275 Y119.1017
G01 X76.1492 Y119.3334
G01 X75.7732 Y119.5257
G01 X75.3832 Y119.6880
G01 X74.9818 Y119.8194
G01 X74.5713 Y119.9191
G01 X74.1543 Y119.9864
G01 X73.7334 Y120.0210
G01 X73.3110 Y120.0226
G01 X72.8897 Y119.9912
G01 X72.4723 Y119.9270
G01 X72.0611 Y119.8304
G01 X71.6587 Y119.7020
G01 X71.2675 Y119.5427
G01 X70.8900 Y119.3532
G01 X70.5284 Y119.1349
G01 X70.1850 Y118.8890
G01 X69.8618 Y118.6170
G01 X69.5492 Y118.3287
G01 X69.2595 Y118.0172
G01 X68.9946 Y117.6846
G01 X68.7558 Y117.3326
G01 X68.5447 Y116.9634
G01 X68.3625 Y116.5792
G01 X68.2102 Y116.1821
G01 X68.0887 Y115.7745
G01 X67.9987 Y115.3588
G01 X67.9408 Y114.9375
G01 X67.9153 Y114.5130
G01 X67.9224 Y114.0878
G01 X67.9620 Y113.6643
G01 X68.0339 Y113.2451
G01 X68.1376 Y112.8327
G01 X68.2726 Y112.4294
G01 X68.4380 Y112.0376
G01 X68.6329 Y111.6596
G01 X68.8562 Y111.2976
G01 X69.1065 Y110.9538
G01 X69.3824 Y110.6301
G01 X69.6822 Y110.3285
G01 X70.0042 Y110.0507
G01 X70.3465 Y109.7984
G01 X70.7072 Y109.5730
G01 X71.0840 Y109.3758
G01 X71.4748 Y109.2080
G01 X71.8773 Y109.0707
G01 X72.2891 Y108.9645
G01 X72.7079 Y108.8902
G01 X73.1311 Y108.8481
G01 X73.5563 Y108.8385
G01 X73.8674 Y108.8436
G01 X74.1777 Y108.8665
G01 X74.4863 Y108.9070
G01 X74.7920 Y108.9650
G01 X75.0939 Y109.0402
G01 X75.3911 Y109.1326
G01 X75.6825 Y109.2416
G01 X75.9672 Y109.3671
G01 X76.2444 Y109.5086
G01 X76.5130 Y109.6656
G01 X76.7723 Y109.8377
G01 X77.0214 Y110.0242
G01 X77.1815 Y109.8964
M107
G00 Z2.0000
G00 X61.9082 Y108.3964
G00 Z0.5000
G01 Z-2.0000 F400
M106 S240
G01 Y106.8964 F1000
G01 X51.9352
G01 X53.9186 Y105.3964
G01 X59.8006
G01 X58.6608 Y103.8964
G01 X55.1101
G01 X55.8300 Y102.3964
G01 X58.0393
G01 X57.7746 Y100.8964
G01 X56.1619
G01 X56.1543 Y99.3964
G01 X57.7947
G01 X58.1139 Y97.8964
G01 X55.8276
G01 X55.1506 Y96.3964
G01 X58.7907
G01 X59.9612 Y94.8964
G01 X60.0806 Y95.0598
G01 X60.4424 Y94.7184
G01 X60.8265 Y94.4022
G01 X61.2310 Y94.1127
G01 X61.6541 Y93.8512
G01 X62.0940 Y93.6188
G01 X62.5485 Y93.4167
G01 X63.0157 Y93.2457
G01 X63.4933 Y93.1067
G01 X63.9793 Y93.0003
G01 X64.4713 Y92.9270
G01 X64.9671 Y92.8870
G01 X65.4645 Y92.8806
G01 X65.9612 Y92.9079
G01 X66.4550 Y92.9686
G01 X66.9435 Y93.0625
G01 X67.4245 Y93.1892
G01 X67.8959 Y93.3482
G01 X68.3555 Y93.5386
G01 X68.8011 Y93.7596
G01 X69.2308 Y94.0102
G01 X69.6405 Y94.3246
G01 X70.0301 Y94.6636
G01 X70.3980 Y95.0260
G01 X70.7429 Y95.4103
G01 X71.0634 Y95.8152
G01 X71.3585 Y96.2390
G01 X71.6268 Y96.6802
G01 X71.8675 Y97.1371
G01 X72.0796 Y97.6079
G01 X72.2623 Y98.0910
G01 X72.4149 Y98.5843
G01 X72.5368 Y99.0861
G01 X72.5856 Y99.4924
G01 X72.6108 Y99.9008
G01 X72.6122 Y100.3099
G01 X72.5899 Y100.7185
G01 X72.5440 Y101.1251
G01 X72.4745 Y101.5283
G01 X72.3819 Y101.9269
G01 X72.2663 Y102.3194
G01 X72.1281 Y102.7045
G01 X71.9678 Y103.0810
G01 X71.7860 Y103.4475
G01 X71.5832 Y103.8029
G01 X71.3602 Y104.1460
G01 X71.1177 Y104.4755
G01 X70.8564 Y104.7905
G01 X70.5774 Y105.0897
G01 X70.2932 Y105.3782
G01 X69.9952 Y105.6523
G01 X69.6842 Y105.9115
G01 X69.3608 Y106.1551
G01 X69.0258 Y106.3826
G01 X68.6801 Y106.5934
G01 X68.3245 Y106.7870
G01 X67.9598 Y106.9630
G01 X67.5869 Y107.1208
G01 X67.2068 Y107.2602
G01 X66.8202 Y107.3808
G01 X66.4282 Y107.4823
G01 X66.0803 Y107.5326
G01 X65.7302 Y107.5645
G01 X65.3789 Y107.5778
G01 X65.0274 Y107.5726
G01 X64.6767 Y107.5488
G01 X64.3277 Y107.5064
G01 X63.9814 Y107.4457
G01 X63.6389 Y107.3668
G01 X63.3009 Y107.2698
G01 X62.9686 Y107.1552
G01 X62.6428 Y107.0231
G01 X62.3245 Y106.8740
G01 X61.9210 Y106.6899
G01 X61.5296 Y106.4816
G01 X61.1516 Y106.2496
G01 X60.7886 Y105.9950
G01 X60.4418 Y105.7187
G01 X60.1125 Y105.4216
G01 X59.8021 Y105.1050
G01 X59.5115 Y104.7699
G01 X59.2421 Y104.4177
G01 X58.9947 Y104.0497
G01 X58.7702 Y103.6673
G01 X58.5696 Y103.2718
G01 X58.4035 Y102.8609
G01 X58.2621 Y102.4409
G01 X58.1460 Y102.0131
G01 X58.0556 Y101.5792
G01 X57.9912 Y101.1407
G01 X57.9530 Y100.6992
G01 X57.9412 Y100.2561
G01 X57.9559 Y99.8132
G01 X57.9968 Y99.3719
G01 X58.0640 Y98.9338
G01 X58.1572 Y98.5005
G01 X58.2760 Y98.0735
G01 X58.4200 Y97.6543
G01 X58.5887 Y97.2445
G01 X58.7816 Y96.8454
G01 X58.9978 Y96.4586
G01 X59.2368 Y96.0853
G01 X59.4975 Y95.7269
G01 X59.7791 Y95.3847
G01 X60.0806 Y95.0598
G01 X59.9612 Y94.8964
G01 X53.9980
G01 X53.8210 Y95.0024
G01 X54.1470 Y95.3445
G01 X54.4500 Y95.7071
G01 X54.7286 Y96.0887
G01 X54.9818 Y96.4876
G01 X55.2084 Y96.9023
G01 X55.4074 Y97.3308
G01 X55.5780 Y97.7715
G01 X55.7194 Y98.2223
G01 X55.8312 Y98.6814
G01 X55.9127 Y99.1469
G01 X55.9636 Y99.6166
G01 X55.9838 Y100.0887
G01 X55.9731 Y100.5611
G01 X55.9315 Y101.0318
G01 X55.8594 Y101.4988
G01 X55.7568 Y101.9600
G01 X55.5957 Y102.4282
G01 X55.4064 Y102.8857
G01 X55.1896 Y103.3309
G01 X54.9463 Y103.7621
G01 X54.6772 Y104.1777
G01 X54.3833 Y104.5762
G01 X54.0658 Y104.9561
G01 X53.7258 Y105.3160
G01 X53.3646 Y105.6546
G01 X52.9834 Y105.9707
G01 X52.5838 Y106.2630
G01 X52.1672 Y106.5306
G01 X51.8152 Y106.7448
G01 X51.4505 Y106.9364
G01 X51.0744 Y107.1047
G01 X50.6885 Y107.2489
G01 X50.2942 Y107.3686
G01 X49.8932 Y107.4632
G01 X49.4871 Y107.5324
G01 X49.0773 Y107.5759
G01 X48.6657 Y107.5936
G01 X48.2538 Y107.5852
G01 X47.8432 Y107.5510
G01 X47.4356 Y107.4909
G01 X46.9279 Y107.3622
G01 X46.4299 Y107.2000
G01 X45.9438 Y107.0050
G01 X45.4717 Y106.7782
G01 X45.0157 Y106.5205
G01 X44.5779 Y106.2332
G01 X44.1601 Y105.9173
G01 X43.7642 Y105.5744
G01 X43.3919 Y105.2060
G01 X43.0450 Y104.8137
G01 X42.7249 Y104.3991
G01 X42.4330 Y103.9643
G01 X42.2060 Y103.6033
G01 X42.0023 Y103.2286
G01 X41.8227 Y102.8419
G01 X41.6679 Y102.4446
G01 X41.5385 Y102.0382
G01 X41.4350 Y101.6246
G01 X41.3579 Y101.2052
G01 X41.3074 Y100.7817
G01 X41.2838 Y100.3560
G01 X41.2872 Y99.9295
G01 X41.3175 Y99.5042
G01 X41.3746 Y99.0816
G01 X41.4694 Y98.6630
G01 X41.5867 Y98.2500
G01 X41.7261 Y97.8441
G01 X41.8873 Y97.4462
G01 X42.0697 Y97.0577
G01 X42.2729 Y96.6795
G01 X42.4961 Y96.3129
G01 X42.7389 Y95.9589
G01 X43.0004 Y95.6185
G01 X43.2800 Y95.2928
G01 X43.5767 Y94.9826
G01 X43.8897 Y94.6889
G01 X44.2182 Y94.4125
G01 X44.5611 Y94.1543
G01 X44.9175 Y93.9150
G01 X45.2862 Y93.6953
G01 X45.6972 Y93.4982
G01 X46.1197 Y93.3271
G01 X46.5520 Y93.1827
G01 X46.9925 Y93.0656
G01 X47.4395 Y92.9762
G01 X47.8911 Y92.9148
G01 X48.3457 Y92.8817
G01 X48.8015 Y92.8771
G01 X49.2567 Y92.9009
G01 X49.7095 Y92.9531
G01 X50.1582 Y93.0334
G01 X50.6010 Y93.1416
G01 X51.0362 Y93.2772
G01 X51.4620 Y93.4396
G01 X51.8769 Y93.6284
G01 X52.2792 Y93.8426
G01 X52.6941 Y94.0915
G01 X53.0906 Y94.3686
G01 X53.4669 Y94.6728
G01 X53.8210 Y95.0024
G01 X53.9980 Y94.8964
G01 X50.8549 Y90.3964
G01 X37.8899
G01 X38.6652 Y88.8964
G01 X49.9699
G01 X49.5272 Y87.3964
G01 X39.5657
G01 X40.5993 Y85.8964
G01 X49.3713
G01 X49.4539 Y84.3964
G01 X41.7704
G01 X43.0795 Y82.8964
G01 X49.8635
G01 X50.6798 Y81.3964
G01 X44.6498
G01 X46.4891 Y79.8964
G01 X52.1076
G01 Y78.3964
G01 X55.3535
G01 X48.5888
M107
G00 Z2.0000
G00 X54.1651 Y76.8964
G00 Z0.5000
G01 Z-2.0000 F400
M106 S240
G01 Y75.3964 F1000
G01 X76.8707
G01 X72.2669 Y73.8964
G01 X58.7118
G01 X58.2934 Y78.3964
G01 X72.3444
G01 X68.8635
G01 Y79.8964
G01 X61.5361
G01 X62.9732 Y81.3964
G01 X67.5173
G01 X66.7494 Y82.8964
G01 X63.8044
G01 X64.2438 Y84.3964
G01 X66.2877
G01 X66.1352 Y85.8964
G01 X64.3675
G01 X64.1931 Y87.3964
G01 X66.3087
G01 X66.8448 Y88.8964
G01 X63.6952
G01 X62.7815 Y90.3964
G01 X62.6293 Y90.2664
G01 X62.3629 Y90.5770
G01 X62.0805 Y90.8730
G01 X61.7828 Y91.1536
G01 X61.4707 Y91.4181
G01 X61.1450 Y91.6657
G01 X60.8067 Y91.8958
G01 X60.4567 Y92.1076
G01 X60.0960 Y92.3007
G01 X59.7256 Y92.4744
G01 X59.3465 Y92.6282
G01 X58.9598 Y92.7618
G01 X58.5666 Y92.8748
G01 X58.1680 Y92.9668
G01 X57.7651 Y93.0376
G01 X57.3589 Y93.0870
G01 X56.9508 Y93.1148
G01 X56.4242 Y93.0878
G01 X55.9006 Y93.0253
G01 X55.3824 Y92.9275
G01 X54.8721 Y92.7948
G01 X54.3719 Y92.6279
G01 X53.8842 Y92.4275
G01 X53.4111 Y92.1946
G01 X52.9549 Y91.9301
G01 X52.6161 Y91.7275
G01 X52.2903 Y91.5047
G01 X51.9785 Y91.2625
G01 X51.6820 Y91.0019
G01 X51.4018 Y90.7238
G01 X51.1390 Y90.4293
G01 X50.8945 Y90.1193
G01 X50.6693 Y89.7951
G01 X50.4641 Y89.4579
G01 X50.2797 Y89.1088
G01 X50.1169 Y88.7492
G01 X49.9761 Y88.3804
G01 X49.8579 Y88.0038
G01 X49.7628 Y87.6206
G01 X49.6911 Y87.2325
G01 X49.6430 Y86.8406
G01 X49.5965 Y86.4861
G01 X49.5667 Y86.1298
G01 X49.5538 Y85.7725
G01 X49.5578 Y85.4150
G01 X49.5787 Y85.0581
G01 X49.6164 Y84.7025
G01 X49.6709 Y84.3492
G01 X49.7419 Y83.9987
G01 X49.8295 Y83.6521
G01 X49.9333 Y83.3099
G01 X50.0531 Y82.9731
G01 X50.1887 Y82.6423
G01 X50.4050 Y82.2229
G01 X50.6478 Y81.8182
G01 X50.9161 Y81.4300
G01 X51.2088 Y81.0598
G01 X51.5246 Y80.7092
G01 X51.8622 Y80.3795
G01 X52.2203 Y80.0722
G01 X52.5974 Y79.7885
G01 X52.9920 Y79.5296
G01 X53.4023 Y79.2966
G01 X53.8267 Y79.0904
G01 X54.2635 Y78.9118
G01 X54.7109 Y78.7616
G01 X55.1670 Y78.6405
G01 X55.6299 Y78.5489
G01 X56.0977 Y78.4871
G01 X56.5686 Y78.4556
G01 X57.0405 Y78.4543
G01 X57.5115 Y78.4833
G01 X57.9796 Y78.5425
G01 X58.4430 Y78.6316
G01 X58.8998 Y78.7502
G01 X59.3479 Y78.8980
G01 X59.7857 Y79.0742
G01 X60.2113 Y79.2781
G01 X60.6229 Y79.5089
G01 X61.0188 Y79.7656
G01 X61.3974 Y80.0473
G01 X61.7572 Y80.3526
G01 X62.0966 Y80.6804
G01 X62.4143 Y81.0294
G01 X62.7090 Y81.3980
G01 X62.9794 Y81.7847
G01 X63.2244 Y82.1880
G01 X63.4430 Y82.6062
G01 X63.6343 Y83.0376
G01 X63.7976 Y83.4803
G01 X63.9321 Y83.9327
G01 X64.0373 Y84.3927
G01 X64.1127 Y84.8585
G01 X64.1575 Y85.3359
G01 X64.1708 Y85.8153
G01 X64.1527 Y86.2945
G01 X64.1031 Y86.7715
G01 X64.0224 Y87.2442
G01 X63.9108 Y87.7105
G01 X63.7688 Y88.1686
G01 X63.5971 Y88.6163
G01 X63.3964 Y89.0518
G01 X63.1675 Y89.4732
G01 X62.9114 Y89.8787
G01 X62.6293 Y90.2664
G01 X62.7815 Y90.3964
G01 X67.8160
G01 X67.9552 Y90.2508
G01 X67.6686 Y89.8883
G01 X67.4069 Y89.5074
G01 X67.1716 Y89.1097
G01 X66.9635 Y88.6971
G01 X66.7837 Y88.2714
G01 X66.6329 Y87.8346
G01 X66.5120 Y87.3886
G01 X66.4213 Y86.9354
G01 X66.3613 Y86.4772
G01 X66.3323 Y86.0160
G01 X66.3344 Y85.5539
G01 X66.3676 Y85.0930
G01 X66.4318 Y84.6354
G01 X66.5267 Y84.1831
G01 X66.6517 Y83.7383
G01 X66.8065 Y83.3028
G01 X66.9420 Y82.9457
G01 X67.0936 Y82.5951
G01 X67.2610 Y82.2518
G01 X67.4439 Y81.9165
G01 X67.6419 Y81.5899
G01 X67.8546 Y81.2726
G01 X68.0815 Y80.9654
G01 X68.3222 Y80.6688
G01 X68.6299 Y80.3738
G01 X68.9544 Y80.0975
G01 X69.2946 Y79.8406
G01 X69.6492 Y79.6041
G01 X70.0171 Y79.3888
G01 X70.3970 Y79.1955
G01 X70.7876 Y79.0248
G01 X71.1875 Y78.8773
G01 X71.5953 Y78.7535
G01 X72.0098 Y78.6539
G01 X72.4294 Y78.5787
G01 X72.8526 Y78.5283
G01 X73.3034 Y78.4845
G01 X73.7559 Y78.4688
G01 X74.2086 Y78.4811
G01 X74.6597 Y78.5215
G01 X75.1074 Y78.5897
G01 X75.5500 Y78.6856
G01 X75.9858 Y78.8087
G01 X76.4131 Y78.9585
G01 X76.8303 Y79.1346
G01 X77.2358 Y79.3362
G01 X77.6281 Y79.5625
G01 X78.0056 Y79.8127
G01 X78.3668 Y80.0858
G01 X78.7104 Y80.3807
G01 X79.0351 Y80.6964
G01 X79.3396 Y81.0316
G01 X79.6244 Y81.3968
G01 X79.8852 Y81.7793
G01 X80.1211 Y82.1778
G01 X80.3310 Y82.5905
G01 X80.5142 Y83.0158
G01 X80.6699 Y83.4519
G01 X80.7974 Y83.8970
G01 X80.8962 Y84.3494
G01 X80.9659 Y84.8071
G01 X81.0062 Y85.2684
G01 X81.0171 Y85.7313
G01 X80.9983 Y86.1940
G01 X80.9500 Y86.6545
G01 X80.8725 Y87.1110
G01 X80.7659 Y87.5616
G01 X80.6308 Y88.0045
G01 X80.4677 Y88.4379
G01 X80.2772 Y88.8599
G01 X80.0602 Y89.2690
G01 X79.8175 Y89.6633
G01 X79.5501 Y90.0414
G01 X79.2592 Y90.4016
G01 X78.9458 Y90.7425
G01 X78.6113 Y91.0627
G01 X78.2571 Y91.3608
G01 X77.8845 Y91.6358
G01 X77.4951 Y91.8864
G01 X77.0905 Y92.1116
G01 X76.7097 Y92.3204
G01 X76.3177 Y92.5072
G01 X75.9157 Y92.6715
G01 X75.5050 Y92.8128
G01 X75.0870 Y92.9305
G01 X74.6629 Y93.0243
G01 X74.2343 Y93.0939
G01 X73.8023 Y93.1391
G01 X73.3969 Y93.1194
G01 X72.9932 Y93.0763
G01 X72.5927 Y93.0099
G01 X72.1968 Y92.9204
G01 X71.8067 Y92.8081
G01 X71.4237 Y92.6734
G01 X71.0492 Y92.5167
G01 X70.6844 Y92.3386
G01 X70.2980 Y92.1438
G01 X69.9225 Y91.9288
G01 X69.5589 Y91.6941
G01 X69.2084 Y91.4404
G01 X68.8718 Y91.1684
G01 X68.5501 Y90.8789
G01 X68.2443 Y90.5728
G01 X67.9552 Y90.2508
G01 X67.8160 Y90.3964
M107
G00 Z2.0000
G00 X53.3477 Y108.3964
G00 Z0.5000
G01 Z-2.0000 F400
M106 S240
G01 Y109.8964 F1000
G01 X35.7820
G01 X36.1088 Y111.3964
G01 X52.0143
G01 X51.3459 Y112.8964
G01 X36.5686
G01 X37.1088 Y114.3964
G01 X51.1380
G01 X51.3538 Y115.8964
G01 X37.7290
G01 X38.4555 Y117.3964
G01 X52.0358
G01 X53.3025 Y118.8964
G01 X53.4216 Y118.7350
G01 X53.1683 Y118.5005
G01 X52.9284 Y118.2524
G01 X52.7026 Y117.9913
G01 X52.4915 Y117.7182
G01 X52.2959 Y117.4338
G01 X52.1164 Y117.1390
G01 X51.9534 Y116.8347
G01 X51.8075 Y116.5219
G01 X51.6791 Y116.2015
G01 X51.5687 Y115.8745
G01 X51.4765 Y115.5418
G01 X51.4028 Y115.2046
G01 X51.3614 Y114.7981
G01 X51.3497 Y114.3897
G01 X51.3679 Y113.9814
G01 X51.4157 Y113.5756
G01 X51.4930 Y113.1744
G01 X51.5993 Y112.7799
G01 X51.7341 Y112.3941
G01 X51.8967 Y112.0193
G01 X52.0861 Y111.6572
G01 X52.3015 Y111.3100
G01 X52.5415 Y110.9793
G01 X52.8051 Y110.6670
G01 X53.0907 Y110.3748
G01 X53.3968 Y110.1042
G01 X53.7219 Y109.8566
G01 X54.0641 Y109.6334
G01 X54.4231 Y109.4262
G01 X54.7969 Y109.2474
G01 X55.1834 Y109.0980
G01 X55.5803 Y108.9789
G01 X55.9853 Y108.8908
G01 X56.3958 Y108.8341
G01 X56.8095 Y108.8094
G01 X57.2238 Y108.8166
G01 X57.6363 Y108.8558
G01 X58.0446 Y108.9268
G01 X58.4462 Y109.0290
G01 X58.8387 Y109.1619
G01 X59.2198 Y109.3247
G01 X59.5872 Y109.5165
G01 X59.9387 Y109.7360
G01 X60.2721 Y109.9820
G01 X60.5904 Y110.2196
G01 X60.8890 Y110.4813
G01 X61.1663 Y110.7656
G01 X61.4205 Y111.0707
G01 X61.6501 Y111.3948
G01 X61.8536 Y111.7358
G01 X62.0299 Y112.0917
G01 X62.1777 Y112.4603
G01 X62.2963 Y112.8393
G01 X62.3849 Y113.2264
G01 X62.4429 Y113.6193
G01 X62.4700 Y114.0155
G01 X62.4913 Y114.2922
G01 X62.5010 Y114.5695
G01 X62.4991 Y114.8470
G01 X62.4856 Y115.1242
G01 X62.4606 Y115.4006
G01 X62.4240 Y115.6757
G01 X62.3759 Y115.9490
G01 X62.3165 Y116.2201
G01 X62.2148 Y116.4701
G01 X62.0990 Y116.7139
G01 X61.9695 Y116.9508
G01 X61.8268 Y117.1798
G01 X61.6712 Y117.4004
G01 X61.5033 Y117.6117
G01 X61.3237 Y117.8132
G01 X61.1329 Y118.0041
G01 X60.7496 Y118.4020
G01 X60.3443 Y118.7777
G01 X59.9185 Y119.1298
G01 X59.4735 Y119.4573
G01 X59.2254 Y119.5857
G01 X58.9688 Y119.6964
G01 X58.7050 Y119.7887
G01 X58.4354 Y119.8622
G01 X58.1613 Y119.9166
G01 X57.8841 Y119.9515
G01 X57.6051 Y119.9667
G01 X57.3257 Y119.9623
G01 X56.9048 Y119.9690
G01 X56.4844 Y119.9466
G01 X56.0666 Y119.8952
G01 X55.6534 Y119.8152
G01 X55.2466 Y119.7067
G01 X54.8483 Y119.5705
G01 X54.4604 Y119.4071
G01 X54.0846 Y119.2173
G01 X53.9111 Y119.1077
G01 X53.7426 Y118.9907
G01 X53.5793 Y118.8664
G01 X53.4216 Y118.7350
G01 X53.3025 Y118.8964
G01 X39.3110
G01 X41.3991 Y121.8964
G01 X89.1541
G01 X89.3140 Y122.0166
G01 X89.9134 Y121.2124
G01 X90.4862 Y120.3889
G01 X91.0316 Y119.5471
G01 X91.5491 Y118.6879
G01 X92.0381 Y117.8121
G01 X92.4981 Y116.9208
G01 X92.9287 Y116.0149
G01 X93.3292 Y115.0953
G01 X93.6994 Y114.1631
G01 X94.0389 Y113.2192
G01 X94.3471 Y112.2647
G01 X94.6239 Y111.3006
G01 X94.8689 Y110.3280
G01 X95.0819 Y109.3478
G01 X95.2626 Y108.3612
G01 X95.4108 Y107.3692
G01 X95.5264 Y106.3728
G01 X95.6093 Y105.3732
G01 X95.6593 Y104.3714
G01 X95.6764 Y103.3685
G01 X95.6606 Y102.3656
G01 X95.6120 Y101.3638
G01 X95.5304 Y100.3640
G01 X95.4162 Y99.3675
G01 X95.2692 Y98.3753
G01 X95.0899 Y97.3885
G01 X94.8782 Y96.4080
G01 X94.6345 Y95.4350
G01 X94.3590 Y94.4706
G01 X94.0520 Y93.5157
G01 X93.7138 Y92.5714
G01 X93.3448 Y91.6386
G01 X92.9455 Y90.7185
G01 X92.5161 Y89.8120
G01 X92.0573 Y88.9201
G01 X91.5694 Y88.0437
G01 X91.0531 Y87.1838
G01 X90.5088 Y86.3413
G01 X89.9371 Y85.5171
G01 X89.3388 Y84.7121
G01 X88.7143 Y83.9271
G01 X88.0644 Y83.1631
G01 X87.3899 Y82.4208
G01 X86.6913 Y81.7010
G01 X85.9695 Y81.0045
G01 X85.2252 Y80.3321
G01 X84.4592 Y79.6845
G01 X83.6725 Y79.0623
G01 X82.8657 Y78.4663
G01 X82.0398 Y77.8971
G01 X81.1957 Y77.3553
G01 X80.3343 Y76.8415
G01 X79.6283 Y76.4608
G01 X78.9130 Y76.0978
G01 X78.1889 Y75.7528
G01 X77.4564 Y75.4260
G01 X76.7159 Y75.1177
G01 X75.9680 Y74.8279
G01 X75.2130 Y74.5569
G01 X74.4516 Y74.3049
G01 X73.6840 Y74.0719
G01 X72.9109 Y73.8582
G01 X72.1327 Y73.6639
G01 X71.3499 Y73.4891
G01 X70.4003 Y73.3099
G01 X69.4454 Y73.1623
G01 X68.4861 Y73.0464
G01 X67.5235 Y72.9622
G01 X66.5586 Y72.9101
G01 X65.5925 Y72.8899
G01 X64.6263 Y72.9017
G01 X63.6611 Y72.9455
G01 X62.6977 Y73.0213
G01 X61.7375 Y73.1289
G01 X60.7813 Y73.2682
G01 X59.8302 Y73.4392
G01 X58.8854 Y73.6415
G01 X57.9478 Y73.8751
G01 X57.0184 Y74.1395
G01 X56.0982 Y74.4346
G01 X55.1884 Y74.7600
G01 X54.2898 Y75.1154
G01 X53.4035 Y75.5003
G01 X52.5305 Y75.9144
G01 X51.6995 Y76.3359
G01 X50.8794 Y76.7782
G01 X50.0707 Y77.2409
G01 X49.2739 Y77.7238
G01 X48.4894 Y78.2266
G01 X47.7179 Y78.7490
G01 X46.9597 Y79.2906
G01 X46.2154 Y79.8510
G01 X45.4854 Y80.4300
G01 X44.7702 Y81.0272
G01 X44.0702 Y81.6422
G01 X43.3859 Y82.2746
G01 X42.8176 Y82.8717
G01 X42.2653 Y83.4836
G01 X41.7294 Y84.1100
G01 X41.2104 Y84.7504
G01 X40.7085 Y85.4044
G01 X40.2242 Y86.0714
G01 X39.7577 Y86.7510
G01 X39.3093 Y87.4428
G01 X38.8795 Y88.1462
G01 X38.4685 Y88.8607
G01 X38.0766 Y89.5859
G01 X37.7041 Y90.3213
G01 X37.3961 Y90.9979
G01 X37.1053 Y91.6821
G01 X36.8320 Y92.3734
G01 X36.5763 Y93.0715
G01 X36.3384 Y93.7758
G01 X36.1184 Y94.4859
G01 X35.9165 Y95.2014
G01 X35.7329 Y95.9218
G01 X35.5675 Y96.6466
G01 X35.4206 Y97.3753
G01 X35.2922 Y98.1076
G01 X35.1825 Y98.8429
G01 X35.0954 Y99.8344
G01 X35.0327 Y100.8279
G01 X34.9944 Y101.8225
G01 X34.9805 Y102.8178
G01 X34.9910 Y103.8131
G01 X35.0259 Y104.8079
G01 X35.0852 Y105.8016
G01 X35.1688 Y106.7934
G01 X35.2767 Y107.7830
G01 X35.4089 Y108.7695
G01 X35.5652 Y109.7526
G01 X35.7456 Y110.7315
G01 X36.0056 Y111.7297
G01 X36.3009 Y112.7180
G01 X36.6313 Y113.6952
G01 X36.9964 Y114.6600
G01 X37.3432 Y115.5170
G01 X37.7197 Y116.3615
G01 X38.1252 Y117.1925
G01 X38.5592 Y118.0088
G01 X39.0214 Y118.8096
G01 X39.5111 Y119.5939
G01 X40.0277 Y120.3607
G01 X40.5706 Y121.1091
G01 X41.8951 Y122.9066
G01 X54.0089 Y122.9012
G01 X65.2909 Y122.8965
G01 X88.6830 Y122.8864
G01 X89.3140 Y122.0166
G01 X89.1541 Y121.8964
M107
G00 Z2.0000


;No. 3: Helical drill 5
G00 X27.8999 Y167.9997 Z2.0000
G00 Z0.5000
M106 S240
G01 X27.8989 Y167.9569 Z0.4877 F400
G01 X27.8958 Y167.9141 Z0.4754
G01 X27.8908 Y167.8716 Z0.4631
G01 X27.8837 Y167.8294 Z0.4508
G01 X27.8746 Y167.7875 Z0.4384
G01 X27.8635 Y167.7461 Z0.4261
G01 X27.8504 Y167.7053 Z0.4138
G01 X27.8355 Y167.6652 Z0.4015
G01 X27.8186 Y167.6258 Z0.3892
G01 X27.7999 Y167.5873 Z0.3769
G01 X27.7793 Y167.5497 Z0.3646
G01 X27.7571 Y167.5131 Z0.3523
G01 X27.7330 Y167.4776 Z0.3400
G01 X27.7074 Y167.4433 Z0.3277
G01 X27.6801 Y167.4103 Z0.3153
G01 X27.6513 Y167.3786 Z0.3030
G01 X27.6210 Y167.3483 Z0.2907
G01 X27.5893 Y167.3195 Z0.2784
G01 X27.5563 Y167.2922 Z0.2661
G01 X27.5220 Y167.2666 Z0.2538
G01 X27.4865 Y167.2426 Z0.2415
G01 X27.4499 Y167.2203 Z0.2292
G01 X27.4123 Y167.1997 Z0.2169
G01 X27.3738 Y167.1810 Z0.2045
G01 X27.3344 Y167.1642 Z0.1922
G01 X27.2943 Y167.1492 Z0.1799
G01 X27.2535 Y167.1361 Z0.1676
G01 X27.2121 Y167.1251 Z0.1553
G01 X27.1703 Y167.1160 Z0.1430
G01 X27.1280 Y167.1088 Z0.1307
G01 X27.0855 Y167.1038 Z0.1184
G01 X27.0427 Y167.1007 Z0.1061
G01 X26.9999 Y167.0997 Z0.0938
G01 X26.9571 Y167.1007 Z0.0814
G01 X26.9144 Y167.1038 Z0.0691
G01 X26.8718 Y167.1088 Z0.0568
G01 X26.8296 Y167.1160 Z0.0445
G01 X26.7877 Y167.1251 Z0.0322
G01 X26.7464 Y167.1361 Z0.0199
G01 X26.7056 Y167.1492 Z0.0076
G01 X26.6654 Y167.1642 Z-0.0047
G01 X26.6261 Y167.1810 Z-0.0170
G01 X26.5875 Y167.1997 Z-0.0294
G01 X26.5499 Y167.2203 Z-0.0417
G01 X26.5133 Y167.2426 Z-0.0540
G01 X26.4779 Y167.2666 Z-0.0663
G01 X26.4436 Y167.2922 Z-0.0786
G01 X26.4105 Y167.3195 Z-0.0909
G01 X26.3789 Y167.3483 Z-0.1032
G01 X26.3486 Y167.3786 Z-0.1155
G01 X26.3198 Y167.4103 Z-0.1278
G01 X26.2925 Y167.4433 Z-0.1402
G01 X26.2668 Y167.4776 Z-0.1525
G01 X26.2428 Y167.5131 Z-0.1648
G01 X26.2205 Y167.5497 Z-0.1771
G01 X26.2000 Y167.5873 Z-0.1894
G01 X26.1813 Y167.6258 Z-0.2017
G01 X26.1644 Y167.6652 Z-0.2140
G01 X26.1494 Y167.7053 Z-0.2263
G01 X26.1364 Y167.7461 Z-0.2386
G01 X26.1253 Y167.7875 Z-0.2509
G01 X26.1162 Y167.8294 Z-0.2633
G01 X26.1091 Y167.8716 Z-0.2756
G01 X26.1040 Y167.9141 Z-0.2879
G01 X26.1009 Y167.9569 Z-0.3002
G01 X26.0999 Y167.9997 Z-0.3125
G01 X26.1009 Y168.0425 Z-0.3248
G01 X26.1040 Y168.0852 Z-0.3371
G01 X26.1091 Y168.1278 Z-0.3494
G01 X26.1162 Y168.1700 Z-0.3617
G01 X26.1253 Y168.2119 Z-0.3741
G01 X26.1364 Y168.2532 Z-0.3864
G01 X26.1494 Y168.2940 Z-0.3987
G01 X26.1644 Y168.3342 Z-0.4110
G01 X26.1813 Y168.3736 Z-0.4233
G01 X26.2000 Y168.4121 Z-0.4356
G01 X26.2205 Y168.4497 Z-0.4479
G01 X26.2428 Y168.4863 Z-0.4602
G01 X26.2668 Y168.5217 Z-0.4725
G01 X26.2925 Y168.5560 Z-0.4848
G01 X26.3198 Y168.5891 Z-0.4972
G01 X26.3486 Y168.6208 Z-0.5095
G01 X26.3789 Y168.6510 Z-0.5218
G01 X26.4105 Y168.6799 Z-0.5341
G01 X26.4436 Y168.7071 Z-0.5464
G01 X26.4779 Y168.7328 Z-0.5587
G01 X26.5133 Y168.7568 Z-0.5710
G01 X26.5499 Y168.7791 Z-0.5833
G01 X26.5875 Y168.7996 Z-0.5956
G01 X26.6261 Y168.8184 Z-0.6080
G01 X26.6654 Y168.8352 Z-0.6203
G01 X26.7056 Y168.8502 Z-0.6326
G01 X26.7464 Y168.8632 Z-0.6449
G01 X26.7877 Y168.8743 Z-0.6572
G01 X26.8296 Y168.8834 Z-0.6695
G01 X26.8718 Y168.8905 Z-0.6818
G01 X26.9144 Y168.8956 Z-0.6941
G01 X26.9571 Y168.8987 Z-0.7064
G01 X26.9999 Y168.8997 Z-0.7188
G01 X27.0427 Y168.8987 Z-0.7311
G01 X27.0855 Y168.8956 Z-0.7434
G01 X27.1280 Y168.8905 Z-0.7557
G01 X27.1703 Y168.8834 Z-0.7680
G01 X27.2121 Y168.8743 Z-0.7803
G01 X27.2535 Y168.8632 Z-0.7926
G01 X27.2943 Y168.8502 Z-0.8049
G01 X27.3344 Y168.8352 Z-0.8172
G01 X27.3738 Y168.8184 Z-0.8295
G01 X27.4123 Y168.7996 Z-0.8419
G01 X27.4499 Y168.7791 Z-0.8542
G01 X27.4865 Y168.7568 Z-0.8665
G01 X27.5220 Y168.7328 Z-0.8788
G01 X27.5563 Y168.7071 Z-0.8911
G01 X27.5893 Y168.6799 Z-0.9034
G01 X27.6210 Y168.6510 Z-0.9157
G01 X27.6513 Y168.6208 Z-0.9280
G01 X27.6801 Y168.5891 Z-0.9403
G01 X27.7074 Y168.5560 Z-0.9527
G01 X27.7330 Y168.5217 Z-0.9650
G01 X27.7571 Y168.4863 Z-0.9773
G01 X27.7793 Y168.4497 Z-0.9896
G01 X27.7999 Y168.4121 Z-1.0019
G01 X27.8186 Y168.3736 Z-1.0142
G01 X27.8355 Y168.3342 Z-1.0265
G01 X27.8504 Y168.2940 Z-1.0388
G01 X27.8635 Y168.2532 Z-1.0511
G01 X27.8746 Y168.2119 Z-1.0634
G01 X27.8837 Y168.1700 Z-1.0758
G01 X27.8908 Y168.1278 Z-1.0881
G01 X27.8958 Y168.0852 Z-1.1004
G01 X27.8989 Y168.0425 Z-1.1127
G01 X27.8999 Y167.9997 Z-1.1250
G01 X27.8989 Y167.9569
G01 X27.8958 Y167.9141
G01 X27.8908 Y167.8716
G01 X27.8837 Y167.8294
G01 X27.8746 Y167.7875
G01 X27.8635 Y167.7461
G01 X27.8504 Y167.7053
G01 X27.8355 Y167.6652
G01 X27.8186 Y167.6258
G01 X27.7999 Y167.5873
G01 X27.7793 Y167.5497
G01 X27.7571 Y167.5131
G01 X27.7330 Y167.4776
G01 X27.7074 Y167.4433
G01 X27.6801 Y167.4103
G01 X27.6513 Y167.3786
G01 X27.6210 Y167.3483
G01 X27.5893 Y167.3195
G01 X27.5563 Y167.2922
G01 X27.5220 Y167.2666
G01 X27.4865 Y167.2426
G01 X27.4499 Y167.2203
G01 X27.4123 Y167.1997
G01 X27.3738 Y167.1810
G01 X27.3344 Y167.1642
G01 X27.2943 Y167.1492
G01 X27.2535 Y167.1361
G01 X27.2121 Y167.1251
G01 X27.1703 Y167.1160
G01 X27.1280 Y167.1088
G01 X27.0855 Y167.1038
G01 X27.0427 Y167.1007
G01 X26.9999 Y167.0997
G01 X26.9571 Y167.1007
G01 X26.9144 Y167.1038
G01 X26.8718 Y167.1088
G01 X26.8296 Y167.1160
G01 X26.7877 Y167.1251
G01 X26.7464 Y167.1361
G01 X26.7056 Y167.1492
G01 X26.6654 Y167.1642
G01 X26.6261 Y167.1810
G01 X26.5875 Y167.1997
G01 X26.5499 Y167.2203
G01 X26.5133 Y167.2426
G01 X26.4779 Y167.2666
G01 X26.4436 Y167.2922
G01 X26.4105 Y167.3195
G01 X26.3789 Y167.3483
G01 X26.3486 Y167.3786
G01 X26.3198 Y167.4103
G01 X26.2925 Y167.4433
G01 X26.2668 Y167.4776
G01 X26.2428 Y167.5131
G01 X26.2205 Y167.5497
G01 X26.2000 Y167.5873
G01 X26.1813 Y167.6258
G01 X26.1644 Y167.6652
G01 X26.1494 Y167.7053
G01 X26.1364 Y167.7461
G01 X26.1253 Y167.7875
G01 X26.1162 Y167.8294
G01 X26.1091 Y167.8716
G01 X26.1040 Y167.9141
G01 X26.1009 Y167.9569
G01 X26.0999 Y167.9997
G01 X26.1009 Y168.0425
G01 X26.1040 Y168.0852
G01 X26.1091 Y168.1278
G01 X26.1162 Y168.1700
G01 X26.1253 Y168.2119
G01 X26.1364 Y168.2532
G01 X26.1494 Y168.2940
G01 X26.1644 Y168.3342
G01 X26.1813 Y168.3736
G01 X26.2000 Y168.4121
G01 X26.2205 Y168.4497
G01 X26.2428 Y168.4863
G01 X26.2668 Y168.5217
G01 X26.2925 Y168.5560
G01 X26.3198 Y168.5891
G01 X26.3486 Y168.6208
G01 X26.3789 Y168.6510
G01 X26.4105 Y168.6799
G01 X26.4436 Y168.7071
G01 X26.4779 Y168.7328
G01 X26.5133 Y168.7568
G01 X26.5499 Y168.7791
G01 X26.5875 Y168.7996
G01 X26.6261 Y168.8184
G01 X26.6654 Y168.8352
G01 X26.7056 Y168.8502
G01 X26.7464 Y168.8632
G01 X26.7877 Y168.8743
G01 X26.8296 Y168.8834
G01 X26.8718 Y168.8905
G01 X26.9144 Y168.8956
G01 X26.9571 Y168.8987
G01 X26.9999 Y168.8997
G01 X27.0427 Y168.8987
G01 X27.0855 Y168.8956
G01 X27.1280 Y168.8905
G01 X27.1703 Y168.8834
G01 X27.2121 Y168.8743
G01 X27.2535 Y168.8632
G01 X27.2943 Y168.8502
G01 X27.3344 Y168.8352
G01 X27.3738 Y168.8184
G01 X27.4123 Y168.7996
G01 X27.4499 Y168.7791
G01 X27.4865 Y168.7568
G01 X27.5220 Y168.7328
G01 X27.5563 Y168.7071
G01 X27.5893 Y168.6799
G01 X27.6210 Y168.6510
G01 X27.6513 Y168.6208
G01 X27.6801 Y168.5891
G01 X27.7074 Y168.5560
G01 X27.7330 Y168.5217
G01 X27.7571 Y168.4863
G01 X27.7793 Y168.4497
G01 X27.7999 Y168.4121
G01 X27.8186 Y168.3736
G01 X27.8355 Y168.3342
G01 X27.8504 Y168.2940
G01 X27.8635 Y168.2532
G01 X27.8746 Y168.2119
G01 X27.8837 Y168.1700
G01 X27.8908 Y168.1278
G01 X27.8958 Y168.0852
G01 X27.8989 Y168.0425
G01 X27.8999 Y167.9997
G01 X27.9075 Y167.9686 F1000
G01 X27.9139 Y167.9373
G01 X27.9193 Y167.9058
G01 X27.9236 Y167.8742
G01 X27.9268 Y167.8424
G01 X27.9288 Y167.8105
G01 X27.9298 Y167.7785
G01 X27.9297 Y167.7466
G01 X27.9284 Y167.7147
G01 X27.9260 Y167.6828
G01 X27.9226 Y167.6510
G01 X27.9180 Y167.6194
G01 X27.9083 Y167.5679
G01 X27.8960 Y167.5170
G01 X27.8811 Y167.4667
G01 X27.8636 Y167.4173
G01 X27.8435 Y167.3689
G01 X27.8210 Y167.3216
G01 X27.7961 Y167.2755
G01 X27.7689 Y167.2307
G01 X27.7369 Y167.1837
G01 X27.7025 Y167.1384
G01 X27.6658 Y167.0948
G01 X27.6270 Y167.0533
G01 X27.5861 Y167.0137
G01 X27.5432 Y166.9763
G01 X27.4984 Y166.9412
G01 X27.4520 Y166.9084
G01 X27.4001 Y166.8755
G01 X27.3466 Y166.8454
G01 X27.2916 Y166.8180
G01 X27.2353 Y166.7934
G01 X27.1779 Y166.7718
G01 X27.1194 Y166.7531
G01 X27.0600 Y166.7374
G01 X26.9999 Y166.7247
G01 X26.9348 Y166.7144
G01 X26.8693 Y166.7073
G01 X26.8034 Y166.7036
G01 X26.7375 Y166.7033
G01 X26.6716 Y166.7063
G01 X26.6060 Y166.7126
G01 X26.5408 Y166.7222
G01 X26.4761 Y166.7351
G01 X26.4078 Y166.7524
G01 X26.3405 Y166.7731
G01 X26.2742 Y166.7971
G01 X26.2093 Y166.8245
G01 X26.1458 Y166.8551
G01 X26.0840 Y166.8889
G01 X26.0239 Y166.9257
G01 X25.9658 Y166.9655
G01 X25.9123 Y167.0150
G01 X25.8612 Y167.0670
G01 X25.8128 Y167.1214
G01 X25.7672 Y167.1782
G01 X25.7243 Y167.2371
G01 X25.6845 Y167.2981
G01 X25.6477 Y167.3610
G01 X25.6140 Y167.4256
G01 X25.5875 Y167.4943
G01 X25.5644 Y167.5642
G01 X25.5448 Y167.6352
G01 X25.5287 Y167.7070
G01 X25.5161 Y167.7796
G01 X25.5071 Y167.8527
G01 X25.5017 Y167.9261
G01 X25.4999 Y167.9997
G01 X25.5017 Y168.0733
G01 X25.5071 Y168.1467
G01 X25.5161 Y168.2198
G01 X25.5287 Y168.2923
G01 X25.5448 Y168.3642
G01 X25.5644 Y168.4351
G01 X25.5875 Y168.5050
G01 X25.6140 Y168.5737
G01 X25.6439 Y168.6411
G01 X25.6770 Y168.7068
G01 X25.7133 Y168.7709
G01 X25.7527 Y168.8331
G01 X25.7951 Y168.8933
G01 X25.8404 Y168.9513
G01 X25.8884 Y169.0071
G01 X25.9392 Y169.0604
G01 X25.9925 Y169.1112
G01 X26.0483 Y169.1593
G01 X26.1063 Y169.2046
G01 X26.1665 Y169.2470
G01 X26.2287 Y169.2863
G01 X26.2928 Y169.3226
G01 X26.3586 Y169.3557
G01 X26.4259 Y169.3856
G01 X26.4946 Y169.4121
G01 X26.5645 Y169.4352
G01 X26.6354 Y169.4548
G01 X26.7073 Y169.4709
G01 X26.7798 Y169.4835
G01 X26.8529 Y169.4925
G01 X26.9263 Y169.4980
G01 X26.9999 Y169.4998
G01 X27.0735 Y169.4980
G01 X27.1470 Y169.4925
G01 X27.2200 Y169.4835
G01 X27.2926 Y169.4709
G01 X27.3644 Y169.4548
G01 X27.4354 Y169.4352
G01 X27.5053 Y169.4121
G01 X27.5740 Y169.3856
G01 X27.6413 Y169.3557
G01 X27.7071 Y169.3226
G01 X27.7711 Y169.2863
G01 X27.8333 Y169.2470
G01 X27.8935 Y169.2046
G01 X27.9516 Y169.1593
G01 X28.0073 Y169.1112
G01 X28.0606 Y169.0604
G01 X28.1114 Y169.0071
G01 X28.1595 Y168.9513
G01 X28.2048 Y168.8933
G01 X28.2472 Y168.8331
G01 X28.2866 Y168.7709
G01 X28.3229 Y168.7068
G01 X28.3560 Y168.6411
G01 X28.3858 Y168.5737
G01 X28.4123 Y168.5050
G01 X28.4354 Y168.4351
G01 X28.4550 Y168.3642
G01 X28.4712 Y168.2923
G01 X28.4838 Y168.2198
G01 X28.4928 Y168.1467
G01 X28.4982 Y168.0733
G01 X28.5000 Y167.9997
G01 X28.4958 Y167.8876
G01 X28.4832 Y167.7761
G01 X28.4624 Y167.6659
G01 X28.4334 Y167.5575
G01 X28.3963 Y167.4517
G01 X28.3514 Y167.3488
G01 X28.2990 Y167.2497
G01 X28.2393 Y167.1547
G01 X28.1727 Y167.0644
G01 X28.0996 Y166.9794
G01 X28.0202 Y166.9001
G01 X27.9352 Y166.8269
G01 X27.8449 Y166.7603
G01 X27.7500 Y166.7006
G01 X27.6508 Y166.6482
G01 X27.5480 Y166.6033
G01 X27.4421 Y166.5663
G01 X27.3337 Y166.5372
G01 X27.2235 Y166.5164
G01 X27.1120 Y166.5038
G01 X26.9999 Y166.4996
G01 X26.8878 Y166.5038
G01 X26.7764 Y166.5164
G01 X26.6661 Y166.5372
G01 X26.5578 Y166.5663
G01 X26.4519 Y166.6033
G01 X26.3491 Y166.6482
G01 X26.2499 Y166.7006
G01 X26.1549 Y166.7603
G01 X26.0646 Y166.8269
G01 X25.9796 Y166.9001
G01 X25.9003 Y166.9794
G01 X25.8271 Y167.0644
G01 X25.7605 Y167.1547
G01 X25.7008 Y167.2497
G01 X25.6484 Y167.3488
G01 X25.6035 Y167.4517
G01 X25.5665 Y167.5575
G01 X25.5375 Y167.6659
G01 X25.5166 Y167.7761
G01 X25.5040 Y167.8876
G01 X25.4999 Y167.9997
G01 X25.5040 Y168.1118
G01 X25.5166 Y168.2233
G01 X25.5375 Y168.3335
G01 X25.5665 Y168.4418
G01 X25.6035 Y168.5477
G01 X25.6484 Y168.6505
G01 X25.7008 Y168.7497
G01 X25.7605 Y168.8447
G01 X25.8271 Y168.9350
G01 X25.9003 Y169.0200
G01 X25.9796 Y169.0993
G01 X26.0646 Y169.1725
G01 X26.1549 Y169.2391
G01 X26.2499 Y169.2988
G01 X26.3491 Y169.3512
G01 X26.4519 Y169.3961
G01 X26.5578 Y169.4331
G01 X26.6661 Y169.4621
G01 X26.7764 Y169.4830
G01 X26.8878 Y169.4956
G01 X26.9999 Y169.4998
G01 X27.1120 Y169.4956
G01 X27.2235 Y169.4830
G01 X27.3337 Y169.4621
G01 X27.4421 Y169.4331
G01 X27.5480 Y169.3961
G01 X27.6508 Y169.3512
G01 X27.7500 Y169.2988
G01 X27.8449 Y169.2391
G01 X27.9352 Y169.1725
G01 X28.0202 Y169.0993
G01 X28.0996 Y169.0200
G01 X28.1727 Y168.9350
G01 X28.2393 Y168.8447
G01 X28.2990 Y168.7497
G01 X28.3514 Y168.6505
G01 X28.3963 Y168.5477
G01 X28.4334 Y168.4418
G01 X28.4624 Y168.3335
G01 X28.4832 Y168.2233
G01 X28.4958 Y168.1118
G01 X28.5000 Y167.9997
G01 X28.4954 Y167.8951
G01 X28.4818 Y167.7913
G01 X28.4591 Y167.6891
G01 X28.4276 Y167.5893
G01 X28.3876 Y167.4925
G01 X28.3392 Y167.3997
G01 X28.2830 Y167.3114
G01 X28.2192 Y167.2283
G01 X28.1485 Y167.1511
G01 X28.0713 Y167.0804
G01 X27.9883 Y167.0167
G01 X27.9000 Y166.9604
G01 X27.8071 Y166.9121
G01 X27.7104 Y166.8720
G01 X27.6106 Y166.8405
G01 X27.5083 Y166.8179
G01 X27.4046 Y166.8042
G01 X27.3000 Y166.7997
G01 X27.1954 Y166.8042
G01 X27.0916 Y166.8179
G01 X26.9894 Y166.8405
G01 X26.8895 Y166.8720
G01 X26.7928 Y166.9121
G01 X26.6999 Y166.9604
G01 X26.6116 Y167.0167
G01 X26.5286 Y167.0804
G01 X26.4514 Y167.1511
G01 X26.3807 Y167.2283
G01 X26.3169 Y167.3114
G01 X26.2607 Y167.3997
G01 X26.2124 Y167.4925
G01 X26.1723 Y167.5893
G01 X26.1408 Y167.6891
G01 X26.1182 Y167.7913
G01 X26.1045 Y167.8951
G01 X26.0999 Y167.9997
G01 X26.1010 Y168.0438
G01 X26.1043 Y168.0879
G01 X26.1097 Y168.1317
G01 X26.1172 Y168.1753
G01 X26.1269 Y168.2184
G01 X26.1387 Y168.2609
G01 X26.1525 Y168.3029
G01 X26.1684 Y168.3441
G01 X26.1863 Y168.3845
G01 X26.2062 Y168.4239
G01 X26.2280 Y168.4624
G01 X26.2516 Y168.4997
G01 X26.2770 Y168.5358
G01 X26.3042 Y168.5706
G01 X26.3331 Y168.6041
G01 X26.3635 Y168.6361
G01 X26.3955 Y168.6665
G01 X26.4290 Y168.6954
G01 X26.4638 Y168.7226
G01 X26.4999 Y168.7480
G01 X26.5372 Y168.7716
G01 X26.5757 Y168.7934
G01 X26.6151 Y168.8133
G01 X26.6555 Y168.8312
G01 X26.6967 Y168.8471
G01 X26.7387 Y168.8609
G01 X26.7812 Y168.8727
G01 X26.8243 Y168.8824
G01 X26.8679 Y168.8899
G01 X26.9117 Y168.8954
G01 X26.9558 Y168.8986
G01 X26.9999 Y168.8997
G01 X27.0441 Y168.8986
G01 X27.0881 Y168.8954
G01 X27.1320 Y168.8899
G01 X27.1755 Y168.8824
G01 X27.2186 Y168.8727
G01 X27.2612 Y168.8609
G01 X27.3031 Y168.8471
G01 X27.3443 Y168.8312
G01 X27.3847 Y168.8133
G01 X27.4242 Y168.7934
G01 X27.4626 Y168.7716
G01 X27.4999 Y168.7480
G01 X27.5361 Y168.7226
G01 X27.5709 Y168.6954
G01 X27.6043 Y168.6665
G01 X27.6363 Y168.6361
G01 X27.6668 Y168.6041
G01 X27.6956 Y168.5706
G01 X27.7228 Y168.5358
G01 X27.7482 Y168.4997
G01 X27.7719 Y168.4624
G01 X27.7937 Y168.4239
G01 X27.8135 Y168.3845
G01 X27.8314 Y168.3441
G01 X27.8473 Y168.3029
G01 X27.8612 Y168.2609
G01 X27.8730 Y168.2184
G01 X27.8826 Y168.1753
G01 X27.8902 Y168.1317
G01 X27.8956 Y168.0879
G01 X27.8988 Y168.0438
G01 X27.8999 Y167.9997
M107
M106 S240
G01 X27.8989 Y167.9569 Z-1.1373 F400
G01 X27.8958 Y167.9141 Z-1.1496
G01 X27.8908 Y167.8716 Z-1.1619
G01 X27.8837 Y167.8294 Z-1.1742
G01 X27.8746 Y167.7875 Z-1.1866
G01 X27.8635 Y167.7461 Z-1.1989
G01 X27.8504 Y167.7053 Z-1.2112
G01 X27.8355 Y167.6652 Z-1.2235
G01 X27.8186 Y167.6258 Z-1.2358
G01 X27.7999 Y167.5873 Z-1.2481
G01 X27.7793 Y167.5497 Z-1.2604
G01 X27.7571 Y167.5131 Z-1.2727
G01 X27.7330 Y167.4776 Z-1.2850
G01 X27.7074 Y167.4433 Z-1.2973
G01 X27.6801 Y167.4103 Z-1.3097
G01 X27.6513 Y167.3786 Z-1.3220
G01 X27.6210 Y167.3483 Z-1.3343
G01 X27.5893 Y167.3195 Z-1.3466
G01 X27.5563 Y167.2922 Z-1.3589
G01 X27.5220 Y167.2666 Z-1.3712
G01 X27.4865 Y167.2426 Z-1.3835
G01 X27.4499 Y167.2203 Z-1.3958
G01 X27.4123 Y167.1997 Z-1.4081
G01 X27.3738 Y167.1810 Z-1.4205
G01 X27.3344 Y167.1642 Z-1.4328
G01 X27.2943 Y167.1492 Z-1.4451
G01 X27.2535 Y167.1361 Z-1.4574
G01 X27.2121 Y167.1251 Z-1.4697
G01 X27.1703 Y167.1160 Z-1.4820
G01 X27.1280 Y167.1088 Z-1.4943
G01 X27.0855 Y167.1038 Z-1.5066
G01 X27.0427 Y167.1007 Z-1.5189
G01 X26.9999 Y167.0997 Z-1.5313
G01 X26.9571 Y167.1007 Z-1.5436
G01 X26.9144 Y167.1038 Z-1.5559
G01 X26.8718 Y167.1088 Z-1.5682
G01 X26.8296 Y167.1160 Z-1.5805
G01 X26.7877 Y167.1251 Z-1.5928
G01 X26.7464 Y167.1361 Z-1.6051
G01 X26.7056 Y167.1492 Z-1.6174
G01 X26.6654 Y167.1642 Z-1.6297
G01 X26.6261 Y167.1810 Z-1.6420
G01 X26.5875 Y167.1997 Z-1.6544
G01 X26.5499 Y167.2203 Z-1.6667
G01 X26.5133 Y167.2426 Z-1.6790
G01 X26.4779 Y167.2666 Z-1.6913
G01 X26.4436 Y167.2922 Z-1.7036
G01 X26.4105 Y167.3195 Z-1.7159
G01 X26.3789 Y167.3483 Z-1.7282
G01 X26.3486 Y167.3786 Z-1.7405
G01 X26.3198 Y167.4103 Z-1.7528
G01 X26.2925 Y167.4433 Z-1.7652
G01 X26.2668 Y167.4776 Z-1.7775
G01 X26.2428 Y167.5131 Z-1.7898
G01 X26.2205 Y167.5497 Z-1.8021
G01 X26.2000 Y167.5873 Z-1.8144
G01 X26.1813 Y167.6258 Z-1.8267
G01 X26.1644 Y167.6652 Z-1.8390
G01 X26.1494 Y167.7053 Z-1.8513
G01 X26.1364 Y167.7461 Z-1.8636
G01 X26.1253 Y167.7875 Z-1.8759
G01 X26.1162 Y167.8294 Z-1.8883
G01 X26.1091 Y167.8716 Z-1.9006
G01 X26.1040 Y167.9141 Z-1.9129
G01 X26.1009 Y167.9569 Z-1.9252
G01 X26.0999 Y167.9997 Z-1.9375
G01 X26.1009 Y168.0425 Z-1.9498
G01 X26.1040 Y168.0852 Z-1.9621
G01 X26.1091 Y168.1278 Z-1.9744
G01 X26.1162 Y168.1700 Z-1.9867
G01 X26.1253 Y168.2119 Z-1.9991
G01 X26.1364 Y168.2532 Z-2.0114
G01 X26.1494 Y168.2940 Z-2.0237
G01 X26.1644 Y168.3342 Z-2.0360
G01 X26.1813 Y168.3736 Z-2.0483
G01 X26.2000 Y168.4121 Z-2.0606
G01 X26.2205 Y168.4497 Z-2.0729
G01 X26.2428 Y168.4863 Z-2.0852
G01 X26.2668 Y168.5217 Z-2.0975
G01 X26.2925 Y168.5560 Z-2.1098
G01 X26.3198 Y168.5891 Z-2.1222
G01 X26.3486 Y168.6208 Z-2.1345
G01 X26.3789 Y168.6510 Z-2.1468
G01 X26.4105 Y168.6799 Z-2.1591
G01 X26.4436 Y168.7071 Z-2.1714
G01 X26.4779 Y168.7328 Z-2.1837
G01 X26.5133 Y168.7568 Z-2.1960
G01 X26.5499 Y168.7791 Z-2.2083
G01 X26.5875 Y168.7996 Z-2.2206
G01 X26.6261 Y168.8184 Z-2.2330
G01 X26.6654 Y168.8352 Z-2.2453
G01 X26.7056 Y168.8502 Z-2.2576
G01 X26.7464 Y168.8632 Z-2.2699
G01 X26.7877 Y168.8743 Z-2.2822
G01 X26.8296 Y168.8834 Z-2.2945
G01 X26.8718 Y168.8905 Z-2.3068
G01 X26.9144 Y168.8956 Z-2.3191
G01 X26.9571 Y168.8987 Z-2.3314
G01 X26.9999 Y168.8997 Z-2.3438
G01 X27.0427 Y168.8987 Z-2.3561
G01 X27.0855 Y168.8956 Z-2.3684
G01 X27.1280 Y168.8905 Z-2.3807
G01 X27.1703 Y168.8834 Z-2.3930
G01 X27.2121 Y168.8743 Z-2.4053
G01 X27.2535 Y168.8632 Z-2.4176
G01 X27.2943 Y168.8502 Z-2.4299
G01 X27.3344 Y168.8352 Z-2.4422
G01 X27.3738 Y168.8184 Z-2.4545
G01 X27.4123 Y168.7996 Z-2.4669
G01 X27.4499 Y168.7791 Z-2.4792
G01 X27.4865 Y168.7568 Z-2.4915
G01 X27.5220 Y168.7328 Z-2.5038
G01 X27.5563 Y168.7071 Z-2.5161
G01 X27.5893 Y168.6799 Z-2.5284
G01 X27.6210 Y168.6510 Z-2.5407
G01 X27.6513 Y168.6208 Z-2.5530
G01 X27.6801 Y168.5891 Z-2.5653
G01 X27.7074 Y168.5560 Z-2.5777
G01 X27.7330 Y168.5217 Z-2.5900
G01 X27.7571 Y168.4863 Z-2.6023
G01 X27.7793 Y168.4497 Z-2.6146
G01 X27.7999 Y168.4121 Z-2.6269
G01 X27.8186 Y168.3736 Z-2.6392
G01 X27.8355 Y168.3342 Z-2.6515
G01 X27.8504 Y168.2940 Z-2.6638
G01 X27.8635 Y168.2532 Z-2.6761
G01 X27.8746 Y168.2119 Z-2.6884
G01 X27.8837 Y168.1700 Z-2.7008
G01 X27.8908 Y168.1278 Z-2.7131
G01 X27.8958 Y168.0852 Z-2.7254
G01 X27.8989 Y168.0425 Z-2.7377
G01 X27.8999 Y167.9997 Z-2.7500
G01 X27.8989 Y167.9569
G01 X27.8958 Y167.9141
G01 X27.8908 Y167.8716
G01 X27.8837 Y167.8294
G01 X27.8746 Y167.7875
G01 X27.8635 Y167.7461
G01 X27.8504 Y167.7053
G01 X27.8355 Y167.6652
G01 X27.8186 Y167.6258
G01 X27.7999 Y167.5873
G01 X27.7793 Y167.5497
G01 X27.7571 Y167.5131
G01 X27.7330 Y167.4776
G01 X27.7074 Y167.4433
G01 X27.6801 Y167.4103
G01 X27.6513 Y167.3786
G01 X27.6210 Y167.3483
G01 X27.5893 Y167.3195
G01 X27.5563 Y167.2922
G01 X27.5220 Y167.2666
G01 X27.4865 Y167.2426
G01 X27.4499 Y167.2203
G01 X27.4123 Y167.1997
G01 X27.3738 Y167.1810
G01 X27.3344 Y167.1642
G01 X27.2943 Y167.1492
G01 X27.2535 Y167.1361
G01 X27.2121 Y167.1251
G01 X27.1703 Y167.1160
G01 X27.1280 Y167.1088
G01 X27.0855 Y167.1038
G01 X27.0427 Y167.1007
G01 X26.9999 Y167.0997
G01 X26.9571 Y167.1007
G01 X26.9144 Y167.1038
G01 X26.8718 Y167.1088
G01 X26.8296 Y167.1160
G01 X26.7877 Y167.1251
G01 X26.7464 Y167.1361
G01 X26.7056 Y167.1492
G01 X26.6654 Y167.1642
G01 X26.6261 Y167.1810
G01 X26.5875 Y167.1997
G01 X26.5499 Y167.2203
G01 X26.5133 Y167.2426
G01 X26.4779 Y167.2666
G01 X26.4436 Y167.2922
G01 X26.4105 Y167.3195
G01 X26.3789 Y167.3483
G01 X26.3486 Y167.3786
G01 X26.3198 Y167.4103
G01 X26.2925 Y167.4433
G01 X26.2668 Y167.4776
G01 X26.2428 Y167.5131
G01 X26.2205 Y167.5497
G01 X26.2000 Y167.5873
G01 X26.1813 Y167.6258
G01 X26.1644 Y167.6652
G01 X26.1494 Y167.7053
G01 X26.1364 Y167.7461
G01 X26.1253 Y167.7875
G01 X26.1162 Y167.8294
G01 X26.1091 Y167.8716
G01 X26.1040 Y167.9141
G01 X26.1009 Y167.9569
G01 X26.0999 Y167.9997
G01 X26.1009 Y168.0425
G01 X26.1040 Y168.0852
G01 X26.1091 Y168.1278
G01 X26.1162 Y168.1700
G01 X26.1253 Y168.2119
G01 X26.1364 Y168.2532
G01 X26.1494 Y168.2940
G01 X26.1644 Y168.3342
G01 X26.1813 Y168.3736
G01 X26.2000 Y168.4121
G01 X26.2205 Y168.4497
G01 X26.2428 Y168.4863
G01 X26.2668 Y168.5217
G01 X26.2925 Y168.5560
G01 X26.3198 Y168.5891
G01 X26.3486 Y168.6208
G01 X26.3789 Y168.6510
G01 X26.4105 Y168.6799
G01 X26.4436 Y168.7071
G01 X26.4779 Y168.7328
G01 X26.5133 Y168.7568
G01 X26.5499 Y168.7791
G01 X26.5875 Y168.7996
G01 X26.6261 Y168.8184
G01 X26.6654 Y168.8352
G01 X26.7056 Y168.8502
G01 X26.7464 Y168.8632
G01 X26.7877 Y168.8743
G01 X26.8296 Y168.8834
G01 X26.8718 Y168.8905
G01 X26.9144 Y168.8956
G01 X26.9571 Y168.8987
G01 X26.9999 Y168.8997
G01 X27.0427 Y168.8987
G01 X27.0855 Y168.8956
G01 X27.1280 Y168.8905
G01 X27.1703 Y168.8834
G01 X27.2121 Y168.8743
G01 X27.2535 Y168.8632
G01 X27.2943 Y168.8502
G01 X27.3344 Y168.8352
G01 X27.3738 Y168.8184
G01 X27.4123 Y168.7996
G01 X27.4499 Y168.7791
G01 X27.4865 Y168.7568
G01 X27.5220 Y168.7328
G01 X27.5563 Y168.7071
G01 X27.5893 Y168.6799
G01 X27.6210 Y168.6510
G01 X27.6513 Y168.6208
G01 X27.6801 Y168.5891
G01 X27.7074 Y168.5560
G01 X27.7330 Y168.5217
G01 X27.7571 Y168.4863
G01 X27.7793 Y168.4497
G01 X27.7999 Y168.4121
G01 X27.8186 Y168.3736
G01 X27.8355 Y168.3342
G01 X27.8504 Y168.2940
G01 X27.8635 Y168.2532
G01 X27.8746 Y168.2119
G01 X27.8837 Y168.1700
G01 X27.8908 Y168.1278
G01 X27.8958 Y168.0852
G01 X27.8989 Y168.0425
G01 X27.8999 Y167.9997
G01 X27.9075 Y167.9686 F1000
G01 X27.9139 Y167.9373
G01 X27.9193 Y167.9058
G01 X27.9236 Y167.8742
G01 X27.9268 Y167.8424
G01 X27.9288 Y167.8105
G01 X27.9298 Y167.7785
G01 X27.9297 Y167.7466
G01 X27.9284 Y167.7147
G01 X27.9260 Y167.6828
G01 X27.9226 Y167.6510
