;Project SchildNeu3b
;Created by Estlcam version 11 build 11,236
;Machining time about 00:28:11 hours

G90
M03 S18000
G00 X0.0000 Y0.0000 Z0.0000
G00 Z2.0000


;No. 1: Helical drill 8
G00 X27.9000 Y27.7590
G00 Z0.5000
M106 S240
G01 X27.8990 Y27.7162 Z0.4877 F400 S18000
G01 X27.8959 Y27.6735 Z0.4754
G01 X27.8908 Y27.6309 Z0.4631
G01 X27.8837 Y27.5887 Z0.4508
G01 X27.8746 Y27.5468 Z0.4384
G01 X27.8635 Y27.5055 Z0.4261
G01 X27.8505 Y27.4647 Z0.4138
G01 X27.8355 Y27.4245 Z0.4015
G01 X27.8187 Y27.3851 Z0.3892
G01 X27.7999 Y27.3466 Z0.3769
G01 X27.7794 Y27.3090 Z0.3646
G01 X27.7571 Y27.2724 Z0.3523
G01 X27.7331 Y27.2370 Z0.3400
G01 X27.7074 Y27.2027 Z0.3277
G01 X27.6802 Y27.1696 Z0.3153
G01 X27.6514 Y27.1379 Z0.3030
G01 X27.6211 Y27.1077 Z0.2907
G01 X27.5894 Y27.0788 Z0.2784
G01 X27.5563 Y27.0516 Z0.2661
G01 X27.5220 Y27.0259 Z0.2538
G01 X27.4866 Y27.0019 Z0.2415
G01 X27.4500 Y26.9796 Z0.2292
G01 X27.4124 Y26.9591 Z0.2169
G01 X27.3739 Y26.9403 Z0.2045
G01 X27.3345 Y26.9235 Z0.1922
G01 X27.2944 Y26.9085 Z0.1799
G01 X27.2536 Y26.8955 Z0.1676
G01 X27.2122 Y26.8844 Z0.1553
G01 X27.1703 Y26.8753 Z0.1430
G01 X27.1281 Y26.8682 Z0.1307
G01 X27.0855 Y26.8631 Z0.1184
G01 X27.0428 Y26.8600 Z0.1061
G01 X27.0000 Y26.8590 Z0.0938
G01 X26.9572 Y26.8600 Z0.0814
G01 X26.9144 Y26.8631 Z0.0691
G01 X26.8719 Y26.8682 Z0.0568
G01 X26.8297 Y26.8753 Z0.0445
G01 X26.7878 Y26.8844 Z0.0322
G01 X26.7464 Y26.8955 Z0.0199
G01 X26.7056 Y26.9085 Z0.0076
G01 X26.6655 Y26.9235 Z-0.0047
G01 X26.6261 Y26.9403 Z-0.0170
G01 X26.5876 Y26.9591 Z-0.0294
G01 X26.5500 Y26.9796 Z-0.0417
G01 X26.5134 Y27.0019 Z-0.0540
G01 X26.4779 Y27.0259 Z-0.0663
G01 X26.4437 Y27.0516 Z-0.0786
G01 X26.4106 Y27.0788 Z-0.0909
G01 X26.3789 Y27.1077 Z-0.1032
G01 X26.3486 Y27.1379 Z-0.1155
G01 X26.3198 Y27.1696 Z-0.1278
G01 X26.2926 Y27.2027 Z-0.1402
G01 X26.2669 Y27.2370 Z-0.1525
G01 X26.2429 Y27.2724 Z-0.1648
G01 X26.2206 Y27.3090 Z-0.1771
G01 X26.2000 Y27.3466 Z-0.1894
G01 X26.1813 Y27.3851 Z-0.2017
G01 X26.1645 Y27.4245 Z-0.2140
G01 X26.1495 Y27.4647 Z-0.2263
G01 X26.1365 Y27.5055 Z-0.2386
G01 X26.1254 Y27.5468 Z-0.2509
G01 X26.1163 Y27.5887 Z-0.2633
G01 X26.1092 Y27.6309 Z-0.2756
G01 X26.1041 Y27.6735 Z-0.2879
G01 X26.1010 Y27.7162 Z-0.3002
G01 X26.1000 Y27.7590 Z-0.3125
G01 X26.1010 Y27.8018 Z-0.3248
G01 X26.1041 Y27.8446 Z-0.3371
G01 X26.1092 Y27.8871 Z-0.3494
G01 X26.1163 Y27.9293 Z-0.3617
G01 X26.1254 Y27.9712 Z-0.3741
G01 X26.1365 Y28.0126 Z-0.3864
G01 X26.1495 Y28.0534 Z-0.3987
G01 X26.1645 Y28.0935 Z-0.4110
G01 X26.1813 Y28.1329 Z-0.4233
G01 X26.2000 Y28.1714 Z-0.4356
G01 X26.2206 Y28.2090 Z-0.4479
G01 X26.2429 Y28.2456 Z-0.4602
G01 X26.2669 Y28.2811 Z-0.4725
G01 X26.2926 Y28.3154 Z-0.4848
G01 X26.3198 Y28.3484 Z-0.4972
G01 X26.3486 Y28.3801 Z-0.5095
G01 X26.3789 Y28.4104 Z-0.5218
G01 X26.4106 Y28.4392 Z-0.5341
G01 X26.4437 Y28.4665 Z-0.5464
G01 X26.4779 Y28.4921 Z-0.5587
G01 X26.5134 Y28.5161 Z-0.5710
G01 X26.5500 Y28.5384 Z-0.5833
G01 X26.5876 Y28.5590 Z-0.5956
G01 X26.6261 Y28.5777 Z-0.6080
G01 X26.6655 Y28.5945 Z-0.6203
G01 X26.7056 Y28.6095 Z-0.6326
G01 X26.7464 Y28.6226 Z-0.6449
G01 X26.7878 Y28.6336 Z-0.6572
G01 X26.8297 Y28.6428 Z-0.6695
G01 X26.8719 Y28.6499 Z-0.6818
G01 X26.9144 Y28.6549 Z-0.6941
G01 X26.9572 Y28.6580 Z-0.7064
G01 X27.0000 Y28.6590 Z-0.7188
G01 X27.0428 Y28.6580 Z-0.7311
G01 X27.0855 Y28.6549 Z-0.7434
G01 X27.1281 Y28.6499 Z-0.7557
G01 X27.1703 Y28.6428 Z-0.7680
G01 X27.2122 Y28.6336 Z-0.7803
G01 X27.2536 Y28.6226 Z-0.7926
G01 X27.2944 Y28.6095 Z-0.8049
G01 X27.3345 Y28.5945 Z-0.8172
G01 X27.3739 Y28.5777 Z-0.8295
G01 X27.4124 Y28.5590 Z-0.8419
G01 X27.4500 Y28.5384 Z-0.8542
G01 X27.4866 Y28.5161 Z-0.8665
G01 X27.5220 Y28.4921 Z-0.8788
G01 X27.5563 Y28.4665 Z-0.8911
G01 X27.5894 Y28.4392 Z-0.9034
G01 X27.6211 Y28.4104 Z-0.9157
G01 X27.6514 Y28.3801 Z-0.9280
G01 X27.6802 Y28.3484 Z-0.9403
G01 X27.7074 Y28.3154 Z-0.9527
G01 X27.7331 Y28.2811 Z-0.9650
G01 X27.7571 Y28.2456 Z-0.9773
G01 X27.7794 Y28.2090 Z-0.9896
G01 X27.7999 Y28.1714 Z-1.0019
G01 X27.8187 Y28.1329 Z-1.0142
G01 X27.8355 Y28.0935 Z-1.0265
G01 X27.8505 Y28.0534 Z-1.0388
G01 X27.8635 Y28.0126 Z-1.0511
G01 X27.8746 Y27.9712 Z-1.0634
G01 X27.8837 Y27.9293 Z-1.0758
G01 X27.8908 Y27.8871 Z-1.0881
G01 X27.8959 Y27.8446 Z-1.1004
G01 X27.8990 Y27.8018 Z-1.1127
G01 X27.9000 Y27.7590 Z-1.1250
G01 X27.8990 Y27.7162
G01 X27.8959 Y27.6735
G01 X27.8908 Y27.6309
G01 X27.8837 Y27.5887
G01 X27.8746 Y27.5468
G01 X27.8635 Y27.5055
G01 X27.8505 Y27.4647
G01 X27.8355 Y27.4245
G01 X27.8187 Y27.3851
G01 X27.7999 Y27.3466
G01 X27.7794 Y27.3090
G01 X27.7571 Y27.2724
G01 X27.7331 Y27.2370
G01 X27.7074 Y27.2027
G01 X27.6802 Y27.1696
G01 X27.6514 Y27.1379
G01 X27.6211 Y27.1077
G01 X27.5894 Y27.0788
G01 X27.5563 Y27.0516
G01 X27.5220 Y27.0259
G01 X27.4866 Y27.0019
G01 X27.4500 Y26.9796
G01 X27.4124 Y26.9591
G01 X27.3739 Y26.9403
G01 X27.3345 Y26.9235
G01 X27.2944 Y26.9085
G01 X27.2536 Y26.8955
G01 X27.2122 Y26.8844
G01 X27.1703 Y26.8753
G01 X27.1281 Y26.8682
G01 X27.0855 Y26.8631
G01 X27.0428 Y26.8600
G01 X27.0000 Y26.8590
G01 X26.9572 Y26.8600
G01 X26.9144 Y26.8631
G01 X26.8719 Y26.8682
G01 X26.8297 Y26.8753
G01 X26.7878 Y26.8844
G01 X26.7464 Y26.8955
G01 X26.7056 Y26.9085
G01 X26.6655 Y26.9235
G01 X26.6261 Y26.9403
G01 X26.5876 Y26.9591
G01 X26.5500 Y26.9796
G01 X26.5134 Y27.0019
G01 X26.4779 Y27.0259
G01 X26.4437 Y27.0516
G01 X26.4106 Y27.0788
G01 X26.3789 Y27.1077
G01 X26.3486 Y27.1379
G01 X26.3198 Y27.1696
G01 X26.2926 Y27.2027
G01 X26.2669 Y27.2370
G01 X26.2429 Y27.2724
G01 X26.2206 Y27.3090
G01 X26.2000 Y27.3466
G01 X26.1813 Y27.3851
G01 X26.1645 Y27.4245
G01 X26.1495 Y27.4647
G01 X26.1365 Y27.5055
G01 X26.1254 Y27.5468
G01 X26.1163 Y27.5887
G01 X26.1092 Y27.6309
G01 X26.1041 Y27.6735
G01 X26.1010 Y27.7162
G01 X26.1000 Y27.7590
G01 X26.1010 Y27.8018
G01 X26.1041 Y27.8446
G01 X26.1092 Y27.8871
G01 X26.1163 Y27.9293
G01 X26.1254 Y27.9712
G01 X26.1365 Y28.0126
G01 X26.1495 Y28.0534
G01 X26.1645 Y28.0935
G01 X26.1813 Y28.1329
G01 X26.2000 Y28.1714
G01 X26.2206 Y28.2090
G01 X26.2429 Y28.2456
G01 X26.2669 Y28.2811
G01 X26.2926 Y28.3154
G01 X26.3198 Y28.3484
G01 X26.3486 Y28.3801
G01 X26.3789 Y28.4104
G01 X26.4106 Y28.4392
G01 X26.4437 Y28.4665
G01 X26.4779 Y28.4921
G01 X26.5134 Y28.5161
G01 X26.5500 Y28.5384
G01 X26.5876 Y28.5590
G01 X26.6261 Y28.5777
G01 X26.6655 Y28.5945
G01 X26.7056 Y28.6095
G01 X26.7464 Y28.6226
G01 X26.7878 Y28.6336
G01 X26.8297 Y28.6428
G01 X26.8719 Y28.6499
G01 X26.9144 Y28.6549
G01 X26.9572 Y28.6580
G01 X27.0000 Y28.6590
G01 X27.0428 Y28.6580
G01 X27.0855 Y28.6549
G01 X27.1281 Y28.6499
G01 X27.1703 Y28.6428
G01 X27.2122 Y28.6336
G01 X27.2536 Y28.6226
G01 X27.2944 Y28.6095
G01 X27.3345 Y28.5945
G01 X27.3739 Y28.5777
G01 X27.4124 Y28.5590
G01 X27.4500 Y28.5384
G01 X27.4866 Y28.5161
G01 X27.5220 Y28.4921
G01 X27.5563 Y28.4665
G01 X27.5894 Y28.4392
G01 X27.6211 Y28.4104
G01 X27.6514 Y28.3801
G01 X27.6802 Y28.3484
G01 X27.7074 Y28.3154
G01 X27.7331 Y28.2811
G01 X27.7571 Y28.2456
G01 X27.7794 Y28.2090
G01 X27.7999 Y28.1714
G01 X27.8187 Y28.1329
G01 X27.8355 Y28.0935
G01 X27.8505 Y28.0534
G01 X27.8635 Y28.0126
G01 X27.8746 Y27.9712
G01 X27.8837 Y27.9293
G01 X27.8908 Y27.8871
G01 X27.8959 Y27.8446
G01 X27.8990 Y27.8018
G01 X27.9000 Y27.7590
G01 X27.9075 Y27.7280 F1000
G01 X27.9140 Y27.6967
G01 X27.9194 Y27.6652
G01 X27.9237 Y27.6335
G01 X27.9268 Y27.6017
G01 X27.9289 Y27.5698
G01 X27.9299 Y27.5379
G01 X27.9297 Y27.5059
G01 X27.9285 Y27.4740
G01 X27.9261 Y27.4421
G01 X27.9227 Y27.4104
G01 X27.9181 Y27.3787
G01 X27.9084 Y27.3272
G01 X27.8961 Y27.2763
G01 X27.8811 Y27.2261
G01 X27.8636 Y27.1767
G01 X27.8436 Y27.1282
G01 X27.8211 Y27.0809
G01 X27.7962 Y27.0348
G01 X27.7690 Y26.9900
G01 X27.7370 Y26.9430
G01 X27.7026 Y26.8977
G01 X27.6659 Y26.8542
G01 X27.6271 Y26.8126
G01 X27.5861 Y26.7730
G01 X27.5433 Y26.7357
G01 X27.4985 Y26.7005
G01 X27.4520 Y26.6677
G01 X27.4001 Y26.6349
G01 X27.3466 Y26.6047
G01 X27.2917 Y26.5773
G01 X27.2354 Y26.5528
G01 X27.1779 Y26.5311
G01 X27.1194 Y26.5124
G01 X27.0601 Y26.4967
G01 X27.0000 Y26.4840
G01 X26.9349 Y26.4737
G01 X26.8693 Y26.4667
G01 X26.8035 Y26.4630
G01 X26.7376 Y26.4626
G01 X26.6717 Y26.4656
G01 X26.6061 Y26.4719
G01 X26.5409 Y26.4815
G01 X26.4762 Y26.4945
G01 X26.4079 Y26.5117
G01 X26.3405 Y26.5324
G01 X26.2743 Y26.5565
G01 X26.2094 Y26.5838
G01 X26.1459 Y26.6144
G01 X26.0840 Y26.6482
G01 X26.0240 Y26.6850
G01 X25.9659 Y26.7249
G01 X25.9123 Y26.7743
G01 X25.8613 Y26.8263
G01 X25.8129 Y26.8808
G01 X25.7673 Y26.9375
G01 X25.7245 Y26.9965
G01 X25.6846 Y27.0575
G01 X25.6478 Y27.1204
G01 X25.6142 Y27.1850
G01 X25.5877 Y27.2537
G01 X25.5646 Y27.3236
G01 X25.5450 Y27.3946
G01 X25.5288 Y27.4664
G01 X25.5163 Y27.5389
G01 X25.5072 Y27.6120
G01 X25.5018 Y27.6854
G01 X25.5000 Y27.7590
G01 X25.5018 Y27.8326
G01 X25.5072 Y27.9060
G01 X25.5163 Y27.9791
G01 X25.5288 Y28.0516
G01 X25.5450 Y28.1235
G01 X25.5646 Y28.1944
G01 X25.5877 Y28.2643
G01 X25.6142 Y28.3330
G01 X25.6440 Y28.4003
G01 X25.6771 Y28.4661
G01 X25.7134 Y28.5302
G01 X25.7528 Y28.5924
G01 X25.7952 Y28.6526
G01 X25.8405 Y28.7106
G01 X25.8886 Y28.7663
G01 X25.9394 Y28.8197
G01 X25.9927 Y28.8704
G01 X26.0484 Y28.9185
G01 X26.1065 Y28.9638
G01 X26.1667 Y29.0062
G01 X26.2289 Y29.0456
G01 X26.2929 Y29.0819
G01 X26.3587 Y29.1150
G01 X26.4260 Y29.1448
G01 X26.4947 Y29.1713
G01 X26.5646 Y29.1944
G01 X26.6355 Y29.2140
G01 X26.7074 Y29.2302
G01 X26.7799 Y29.2428
G01 X26.8530 Y29.2518
G01 X26.9264 Y29.2572
G01 X27.0000 Y29.2590
G01 X27.0736 Y29.2572
G01 X27.1470 Y29.2518
G01 X27.2201 Y29.2428
G01 X27.2926 Y29.2302
G01 X27.3645 Y29.2140
G01 X27.4354 Y29.1944
G01 X27.5053 Y29.1713
G01 X27.5740 Y29.1448
G01 X27.6413 Y29.1150
G01 X27.7071 Y29.0819
G01 X27.7711 Y29.0456
G01 X27.8333 Y29.0062
G01 X27.8935 Y28.9638
G01 X27.9516 Y28.9185
G01 X28.0073 Y28.8704
G01 X28.0606 Y28.8197
G01 X28.1114 Y28.7663
G01 X28.1595 Y28.7106
G01 X28.2048 Y28.6526
G01 X28.2472 Y28.5924
G01 X28.2866 Y28.5302
G01 X28.3229 Y28.4661
G01 X28.3560 Y28.4003
G01 X28.3858 Y28.3330
G01 X28.4123 Y28.2643
G01 X28.4354 Y28.1944
G01 X28.4550 Y28.1235
G01 X28.4712 Y28.0516
G01 X28.4837 Y27.9791
G01 X28.4928 Y27.9060
G01 X28.4982 Y27.8326
G01 X28.5000 Y27.7590
G01 X28.4958 Y27.6469
G01 X28.4832 Y27.5355
G01 X28.4624 Y27.4252
G01 X28.4333 Y27.3169
G01 X28.3963 Y27.2110
G01 X28.3514 Y27.1082
G01 X28.2990 Y27.0090
G01 X28.2393 Y26.9140
G01 X28.1727 Y26.8238
G01 X28.0996 Y26.7388
G01 X28.0202 Y26.6595
G01 X27.9352 Y26.5863
G01 X27.8450 Y26.5197
G01 X27.7500 Y26.4600
G01 X27.6508 Y26.4076
G01 X27.5480 Y26.3627
G01 X27.4421 Y26.3257
G01 X27.3338 Y26.2966
G01 X27.2236 Y26.2758
G01 X27.1121 Y26.2632
G01 X27.0000 Y26.2590
G01 X26.8879 Y26.2632
G01 X26.7764 Y26.2758
G01 X26.6662 Y26.2966
G01 X26.5579 Y26.3257
G01 X26.4520 Y26.3627
G01 X26.3492 Y26.4076
G01 X26.2500 Y26.4600
G01 X26.1550 Y26.5197
G01 X26.0648 Y26.5863
G01 X25.9798 Y26.6595
G01 X25.9004 Y26.7388
G01 X25.8273 Y26.8238
G01 X25.7607 Y26.9140
G01 X25.7010 Y27.0090
G01 X25.6486 Y27.1082
G01 X25.6037 Y27.2110
G01 X25.5667 Y27.3169
G01 X25.5376 Y27.4252
G01 X25.5168 Y27.5355
G01 X25.5042 Y27.6469
G01 X25.5000 Y27.7590
G01 X25.5042 Y27.8711
G01 X25.5168 Y27.9826
G01 X25.5376 Y28.0928
G01 X25.5667 Y28.2011
G01 X25.6037 Y28.3070
G01 X25.6486 Y28.4098
G01 X25.7010 Y28.5090
G01 X25.7607 Y28.6040
G01 X25.8273 Y28.6942
G01 X25.9004 Y28.7793
G01 X25.9798 Y28.8586
G01 X26.0648 Y28.9317
G01 X26.1550 Y28.9984
G01 X26.2500 Y29.0580
G01 X26.3492 Y29.1105
G01 X26.4520 Y29.1553
G01 X26.5579 Y29.1924
G01 X26.6662 Y29.2214
G01 X26.7764 Y29.2422
G01 X26.8879 Y29.2548
G01 X27.0000 Y29.2590
G01 X27.1121 Y29.2548
G01 X27.2236 Y29.2422
G01 X27.3338 Y29.2214
G01 X27.4421 Y29.1924
G01 X27.5480 Y29.1553
G01 X27.6508 Y29.1105
G01 X27.7500 Y29.0580
G01 X27.8450 Y28.9984
G01 X27.9352 Y28.9317
G01 X28.0202 Y28.8586
G01 X28.0996 Y28.7793
G01 X28.1727 Y28.6942
G01 X28.2393 Y28.6040
G01 X28.2990 Y28.5090
G01 X28.3514 Y28.4098
G01 X28.3963 Y28.3070
G01 X28.4333 Y28.2011
G01 X28.4624 Y28.0928
G01 X28.4832 Y27.9826
G01 X28.4958 Y27.8711
G01 X28.5000 Y27.7590
G01 X28.4954 Y27.6544
G01 X28.4817 Y27.5506
G01 X28.4591 Y27.4484
G01 X28.4276 Y27.3486
G01 X28.3875 Y27.2519
G01 X28.3392 Y27.1590
G01 X28.2830 Y27.0707
G01 X28.2192 Y26.9877
G01 X28.1485 Y26.9105
G01 X28.0713 Y26.8398
G01 X27.9883 Y26.7760
G01 X27.9000 Y26.7198
G01 X27.8071 Y26.6715
G01 X27.7104 Y26.6314
G01 X27.6106 Y26.5999
G01 X27.5084 Y26.5773
G01 X27.4046 Y26.5636
G01 X27.3000 Y26.5590
G01 X27.1954 Y26.5636
G01 X27.0916 Y26.5773
G01 X26.9894 Y26.5999
G01 X26.8896 Y26.6314
G01 X26.7929 Y26.6715
G01 X26.7000 Y26.7198
G01 X26.6117 Y26.7760
G01 X26.5286 Y26.8398
G01 X26.4515 Y26.9105
G01 X26.3807 Y26.9877
G01 X26.3170 Y27.0707
G01 X26.2608 Y27.1590
G01 X26.2124 Y27.2519
G01 X26.1724 Y27.3486
G01 X26.1409 Y27.4484
G01 X26.1182 Y27.5506
G01 X26.1046 Y27.6544
G01 X26.1000 Y27.7590
G01 X26.1011 Y27.8032
G01 X26.1043 Y27.8472
G01 X26.1097 Y27.8911
G01 X26.1173 Y27.9346
G01 X26.1270 Y27.9777
G01 X26.1388 Y28.0203
G01 X26.1526 Y28.0622
G01 X26.1685 Y28.1034
G01 X26.1864 Y28.1438
G01 X26.2063 Y28.1833
G01 X26.2280 Y28.2217
G01 X26.2517 Y28.2590
G01 X26.2771 Y28.2951
G01 X26.3043 Y28.3300
G01 X26.3331 Y28.3634
G01 X26.3636 Y28.3954
G01 X26.3956 Y28.4259
G01 X26.4290 Y28.4547
G01 X26.4639 Y28.4819
G01 X26.5000 Y28.5073
G01 X26.5373 Y28.5310
G01 X26.5757 Y28.5527
G01 X26.6152 Y28.5726
G01 X26.6556 Y28.5905
G01 X26.6968 Y28.6064
G01 X26.7387 Y28.6203
G01 X26.7813 Y28.6320
G01 X26.8244 Y28.6417
G01 X26.8679 Y28.6493
G01 X26.9118 Y28.6547
G01 X26.9558 Y28.6579
G01 X27.0000 Y28.6590
G01 X27.0442 Y28.6579
G01 X27.0882 Y28.6547
G01 X27.1321 Y28.6493
G01 X27.1756 Y28.6417
G01 X27.2187 Y28.6320
G01 X27.2613 Y28.6203
G01 X27.3032 Y28.6064
G01 X27.3444 Y28.5905
G01 X27.3848 Y28.5726
G01 X27.4243 Y28.5527
G01 X27.4627 Y28.5310
G01 X27.5000 Y28.5073
G01 X27.5361 Y28.4819
G01 X27.5710 Y28.4547
G01 X27.6044 Y28.4259
G01 X27.6364 Y28.3954
G01 X27.6669 Y28.3634
G01 X27.6957 Y28.3300
G01 X27.7229 Y28.2951
G01 X27.7483 Y28.2590
G01 X27.7720 Y28.2217
G01 X27.7937 Y28.1833
G01 X27.8136 Y28.1438
G01 X27.8315 Y28.1034
G01 X27.8474 Y28.0622
G01 X27.8612 Y28.0203
G01 X27.8730 Y27.9777
G01 X27.8827 Y27.9346
G01 X27.8903 Y27.8911
G01 X27.8957 Y27.8472
G01 X27.8989 Y27.8032
G01 X27.9000 Y27.7590
M107
M106 S240
G01 X27.8990 Y27.7162 Z-1.1373 F400
G01 X27.8959 Y27.6735 Z-1.1496
G01 X27.8908 Y27.6309 Z-1.1619
G01 X27.8837 Y27.5887 Z-1.1742
G01 X27.8746 Y27.5468 Z-1.1866
G01 X27.8635 Y27.5055 Z-1.1989
G01 X27.8505 Y27.4647 Z-1.2112
G01 X27.8355 Y27.4245 Z-1.2235
G01 X27.8187 Y27.3851 Z-1.2358
G01 X27.7999 Y27.3466 Z-1.2481
G01 X27.7794 Y27.3090 Z-1.2604
G01 X27.7571 Y27.2724 Z-1.2727
G01 X27.7331 Y27.2370 Z-1.2850
G01 X27.7074 Y27.2027 Z-1.2973
G01 X27.6802 Y27.1696 Z-1.3097
G01 X27.6514 Y27.1379 Z-1.3220
G01 X27.6211 Y27.1077 Z-1.3343
G01 X27.5894 Y27.0788 Z-1.3466
G01 X27.5563 Y27.0516 Z-1.3589
G01 X27.5220 Y27.0259 Z-1.3712
G01 X27.4866 Y27.0019 Z-1.3835
G01 X27.4500 Y26.9796 Z-1.3958
G01 X27.4124 Y26.9591 Z-1.4081
G01 X27.3739 Y26.9403 Z-1.4205
G01 X27.3345 Y26.9235 Z-1.4328
G01 X27.2944 Y26.9085 Z-1.4451
G01 X27.2536 Y26.8955 Z-1.4574
G01 X27.2122 Y26.8844 Z-1.4697
G01 X27.1703 Y26.8753 Z-1.4820
G01 X27.1281 Y26.8682 Z-1.4943
G01 X27.0855 Y26.8631 Z-1.5066
G01 X27.0428 Y26.8600 Z-1.5189
G01 X27.0000 Y26.8590 Z-1.5313
G01 X26.9572 Y26.8600 Z-1.5436
G01 X26.9144 Y26.8631 Z-1.5559
G01 X26.8719 Y26.8682 Z-1.5682
G01 X26.8297 Y26.8753 Z-1.5805
G01 X26.7878 Y26.8844 Z-1.5928
G01 X26.7464 Y26.8955 Z-1.6051
G01 X26.7056 Y26.9085 Z-1.6174
G01 X26.6655 Y26.9235 Z-1.6297
G01 X26.6261 Y26.9403 Z-1.6420
G01 X26.5876 Y26.9591 Z-1.6544
G01 X26.5500 Y26.9796 Z-1.6667
G01 X26.5134 Y27.0019 Z-1.6790
G01 X26.4779 Y27.0259 Z-1.6913
G01 X26.4437 Y27.0516 Z-1.7036
G01 X26.4106 Y27.0788 Z-1.7159
G01 X26.3789 Y27.1077 Z-1.7282
G01 X26.3486 Y27.1379 Z-1.7405
G01 X26.3198 Y27.1696 Z-1.7528
G01 X26.2926 Y27.2027 Z-1.7652
G01 X26.2669 Y27.2370 Z-1.7775
G01 X26.2429 Y27.2724 Z-1.7898
G01 X26.2206 Y27.3090 Z-1.8021
G01 X26.2000 Y27.3466 Z-1.8144
G01 X26.1813 Y27.3851 Z-1.8267
G01 X26.1645 Y27.4245 Z-1.8390
G01 X26.1495 Y27.4647 Z-1.8513
G01 X26.1365 Y27.5055 Z-1.8636
G01 X26.1254 Y27.5468 Z-1.8759
G01 X26.1163 Y27.5887 Z-1.8883
G01 X26.1092 Y27.6309 Z-1.9006
G01 X26.1041 Y27.6735 Z-1.9129
G01 X26.1010 Y27.7162 Z-1.9252
G01 X26.1000 Y27.7590 Z-1.9375
G01 X26.1010 Y27.8018 Z-1.9498
G01 X26.1041 Y27.8446 Z-1.9621
G01 X26.1092 Y27.8871 Z-1.9744
G01 X26.1163 Y27.9293 Z-1.9867
G01 X26.1254 Y27.9712 Z-1.9991
G01 X26.1365 Y28.0126 Z-2.0114
G01 X26.1495 Y28.0534 Z-2.0237
G01 X26.1645 Y28.0935 Z-2.0360
G01 X26.1813 Y28.1329 Z-2.0483
G01 X26.2000 Y28.1714 Z-2.0606
G01 X26.2206 Y28.2090 Z-2.0729
G01 X26.2429 Y28.2456 Z-2.0852
G01 X26.2669 Y28.2811 Z-2.0975
G01 X26.2926 Y28.3154 Z-2.1098
G01 X26.3198 Y28.3484 Z-2.1222
G01 X26.3486 Y28.3801 Z-2.1345
G01 X26.3789 Y28.4104 Z-2.1468
G01 X26.4106 Y28.4392 Z-2.1591
G01 X26.4437 Y28.4665 Z-2.1714
G01 X26.4779 Y28.4921 Z-2.1837
G01 X26.5134 Y28.5161 Z-2.1960
G01 X26.5500 Y28.5384 Z-2.2083
G01 X26.5876 Y28.5590 Z-2.2206
G01 X26.6261 Y28.5777 Z-2.2330
G01 X26.6655 Y28.5945 Z-2.2453
G01 X26.7056 Y28.6095 Z-2.2576
G01 X26.7464 Y28.6226 Z-2.2699
G01 X26.7878 Y28.6336 Z-2.2822
G01 X26.8297 Y28.6428 Z-2.2945
G01 X26.8719 Y28.6499 Z-2.3068
G01 X26.9144 Y28.6549 Z-2.3191
G01 X26.9572 Y28.6580 Z-2.3314
G01 X27.0000 Y28.6590 Z-2.3438
G01 X27.0428 Y28.6580 Z-2.3561
G01 X27.0855 Y28.6549 Z-2.3684
G01 X27.1281 Y28.6499 Z-2.3807
G01 X27.1703 Y28.6428 Z-2.3930
G01 X27.2122 Y28.6336 Z-2.4053
G01 X27.2536 Y28.6226 Z-2.4176
G01 X27.2944 Y28.6095 Z-2.4299
G01 X27.3345 Y28.5945 Z-2.4422
G01 X27.3739 Y28.5777 Z-2.4545
G01 X27.4124 Y28.5590 Z-2.4669
G01 X27.4500 Y28.5384 Z-2.4792
G01 X27.4866 Y28.5161 Z-2.4915
G01 X27.5220 Y28.4921 Z-2.5038
G01 X27.5563 Y28.4665 Z-2.5161
G01 X27.5894 Y28.4392 Z-2.5284
G01 X27.6211 Y28.4104 Z-2.5407
G01 X27.6514 Y28.3801 Z-2.5530
G01 X27.6802 Y28.3484 Z-2.5653
G01 X27.7074 Y28.3154 Z-2.5777
G01 X27.7331 Y28.2811 Z-2.5900
G01 X27.7571 Y28.2456 Z-2.6023
G01 X27.7794 Y28.2090 Z-2.6146
G01 X27.7999 Y28.1714 Z-2.6269
G01 X27.8187 Y28.1329 Z-2.6392
G01 X27.8355 Y28.0935 Z-2.6515
G01 X27.8505 Y28.0534 Z-2.6638
G01 X27.8635 Y28.0126 Z-2.6761
G01 X27.8746 Y27.9712 Z-2.6884
G01 X27.8837 Y27.9293 Z-2.7008
G01 X27.8908 Y27.8871 Z-2.7131
G01 X27.8959 Y27.8446 Z-2.7254
G01 X27.8990 Y27.8018 Z-2.7377
G01 X27.9000 Y27.7590 Z-2.7500
G01 X27.8990 Y27.7162
G01 X27.8959 Y27.6735
G01 X27.8908 Y27.6309
G01 X27.8837 Y27.5887
G01 X27.8746 Y27.5468
G01 X27.8635 Y27.5055
G01 X27.8505 Y27.4647
G01 X27.8355 Y27.4245
G01 X27.8187 Y27.3851
G01 X27.7999 Y27.3466
G01 X27.7794 Y27.3090
G01 X27.7571 Y27.2724
G01 X27.7331 Y27.2370
G01 X27.7074 Y27.2027
G01 X27.6802 Y27.1696
G01 X27.6514 Y27.1379
G01 X27.6211 Y27.1077
G01 X27.5894 Y27.0788
G01 X27.5563 Y27.0516
G01 X27.5220 Y27.0259
G01 X27.4866 Y27.0019
G01 X27.4500 Y26.9796
G01 X27.4124 Y26.9591
G01 X27.3739 Y26.9403
G01 X27.3345 Y26.9235
G01 X27.2944 Y26.9085
G01 X27.2536 Y26.8955
G01 X27.2122 Y26.8844
G01 X27.1703 Y26.8753
G01 X27.1281 Y26.8682
G01 X27.0855 Y26.8631
G01 X27.0428 Y26.8600
G01 X27.0000 Y26.8590
G01 X26.9572 Y26.8600
G01 X26.9144 Y26.8631
G01 X26.8719 Y26.8682
G01 X26.8297 Y26.8753
G01 X26.7878 Y26.8844
G01 X26.7464 Y26.8955
G01 X26.7056 Y26.9085
G01 X26.6655 Y26.9235
G01 X26.6261 Y26.9403
G01 X26.5876 Y26.9591
G01 X26.5500 Y26.9796
G01 X26.5134 Y27.0019
G01 X26.4779 Y27.0259
G01 X26.4437 Y27.0516
G01 X26.4106 Y27.0788
G01 X26.3789 Y27.1077
G01 X26.3486 Y27.1379
G01 X26.3198 Y27.1696
G01 X26.2926 Y27.2027
G01 X26.2669 Y27.2370
G01 X26.2429 Y27.2724
G01 X26.2206 Y27.3090
G01 X26.2000 Y27.3466
G01 X26.1813 Y27.3851
G01 X26.1645 Y27.4245
G01 X26.1495 Y27.4647
G01 X26.1365 Y27.5055
G01 X26.1254 Y27.5468
G01 X26.1163 Y27.5887
G01 X26.1092 Y27.6309
G01 X26.1041 Y27.6735
G01 X26.1010 Y27.7162
G01 X26.1000 Y27.7590
G01 X26.1010 Y27.8018
G01 X26.1041 Y27.8446
G01 X26.1092 Y27.8871
G01 X26.1163 Y27.9293
G01 X26.1254 Y27.9712
G01 X26.1365 Y28.0126
G01 X26.1495 Y28.0534
G01 X26.1645 Y28.0935
G01 X26.1813 Y28.1329
G01 X26.2000 Y28.1714
G01 X26.2206 Y28.2090
G01 X26.2429 Y28.2456
G01 X26.2669 Y28.2811
G01 X26.2926 Y28.3154
G01 X26.3198 Y28.3484
G01 X26.3486 Y28.3801
G01 X26.3789 Y28.4104
G01 X26.4106 Y28.4392
G01 X26.4437 Y28.4665
G01 X26.4779 Y28.4921
G01 X26.5134 Y28.5161
G01 X26.5500 Y28.5384
G01 X26.5876 Y28.5590
G01 X26.6261 Y28.5777
G01 X26.6655 Y28.5945
G01 X26.7056 Y28.6095
G01 X26.7464 Y28.6226
G01 X26.7878 Y28.6336
G01 X26.8297 Y28.6428
G01 X26.8719 Y28.6499
G01 X26.9144 Y28.6549
G01 X26.9572 Y28.6580
G01 X27.0000 Y28.6590
G01 X27.0428 Y28.6580
G01 X27.0855 Y28.6549
G01 X27.1281 Y28.6499
G01 X27.1703 Y28.6428
G01 X27.2122 Y28.6336
G01 X27.2536 Y28.6226
G01 X27.2944 Y28.6095
G01 X27.3345 Y28.5945
G01 X27.3739 Y28.5777
G01 X27.4124 Y28.5590
G01 X27.4500 Y28.5384
G01 X27.4866 Y28.5161
G01 X27.5220 Y28.4921
G01 X27.5563 Y28.4665
G01 X27.5894 Y28.4392
G01 X27.6211 Y28.4104
G01 X27.6514 Y28.3801
G01 X27.6802 Y28.3484
G01 X27.7074 Y28.3154
G01 X27.7331 Y28.2811
G01 X27.7571 Y28.2456
G01 X27.7794 Y28.2090
G01 X27.7999 Y28.1714
G01 X27.8187 Y28.1329
G01 X27.8355 Y28.0935
G01 X27.8505 Y28.0534
G01 X27.8635 Y28.0126
G01 X27.8746 Y27.9712
G01 X27.8837 Y27.9293
G01 X27.8908 Y27.8871
G01 X27.8959 Y27.8446
G01 X27.8990 Y27.8018
G01 X27.9000 Y27.7590
G01 X27.9075 Y27.7280 F1000
G01 X27.9140 Y27.6967
G01 X27.9194 Y27.6652
G01 X27.9237 Y27.6335
G01 X27.9268 Y27.6017
G01 X27.9289 Y27.5698
G01 X27.9299 Y27.5379
G01 X27.9297 Y27.5059
G01 X27.9285 Y27.4740
G01 X27.9261 Y27.4421
G01 X27.9227 Y27.4104
G01 X27.9181 Y27.3787
G01 X27.9084 Y27.3272
G01 X27.8961 Y27.2763
G01 X27.8811 Y27.2261
G01 X27.8636 Y27.1767
G01 X27.8436 Y27.1282
G01 X27.8211 Y27.0809
G01 X27.7962 Y27.0348
G01 X27.7690 Y26.9900
G01 X27.7370 Y26.9430
G01 X27.7026 Y26.8977
G01 X27.6659 Y26.8542
G01 X27.6271 Y26.8126
G01 X27.5861 Y26.7730
G01 X27.5433 Y26.7357
G01 X27.4985 Y26.7005
G01 X27.4520 Y26.6677
G01 X27.4001 Y26.6349
G01 X27.3466 Y26.6047
G01 X27.2917 Y26.5773
G01 X27.2354 Y26.5528
G01 X27.1779 Y26.5311
G01 X27.1194 Y26.5124
G01 X27.0601 Y26.4967
G01 X27.0000 Y26.4840
G01 X26.9349 Y26.4737
G01 X26.8693 Y26.4667
G01 X26.8035 Y26.4630
G01 X26.7376 Y26.4626
G01 X26.6717 Y26.4656
G01 X26.6061 Y26.4719
G01 X26.5409 Y26.4815
G01 X26.4762 Y26.4945
G01 X26.4079 Y26.5117
G01 X26.3405 Y26.5324
G01 X26.2743 Y26.5565
G01 X26.2094 Y26.5838
G01 X26.1459 Y26.6144
G01 X26.0840 Y26.6482
G01 X26.0240 Y26.6850
G01 X25.9659 Y26.7249
G01 X25.9123 Y26.7743
G01 X25.8613 Y26.8263
G01 X25.8129 Y26.8808
G01 X25.7673 Y26.9375
G01 X25.7245 Y26.9965
G01 X25.6846 Y27.0575
G01 X25.6478 Y27.1204
G01 X25.6142 Y27.1850
G01 X25.5877 Y27.2537
G01 X25.5646 Y27.3236
G01 X25.5450 Y27.3946
G01 X25.5288 Y27.4664
G01 X25.5163 Y27.5389
G01 X25.5072 Y27.6120
G01 X25.5018 Y27.6854
G01 X25.5000 Y27.7590
G01 X25.5018 Y27.8326
G01 X25.5072 Y27.9060
G01 X25.5163 Y27.9791
G01 X25.5288 Y28.0516
G01 X25.5450 Y28.1235
G01 X25.5646 Y28.1944
G01 X25.5877 Y28.2643
G01 X25.6142 Y28.3330
G01 X25.6440 Y28.4003
G01 X25.6771 Y28.4661
G01 X25.7134 Y28.5302
G01 X25.7528 Y28.5924
G01 X25.7952 Y28.6526
G01 X25.8405 Y28.7106
G01 X25.8886 Y28.7663
G01 X25.9394 Y28.8197
G01 X25.9927 Y28.8704
G01 X26.0484 Y28.9185
G01 X26.1065 Y28.9638
G01 X26.1667 Y29.0062
G01 X26.2289 Y29.0456
G01 X26.2929 Y29.0819
G01 X26.3587 Y29.1150
G01 X26.4260 Y29.1448
G01 X26.4947 Y29.1713
G01 X26.5646 Y29.1944
G01 X26.6355 Y29.2140
G01 X26.7074 Y29.2302
G01 X26.7799 Y29.2428
G01 X26.8530 Y29.2518
G01 X26.9264 Y29.2572
G01 X27.0000 Y29.2590
G01 X27.0736 Y29.2572
G01 X27.1470 Y29.2518
G01 X27.2201 Y29.2428
G01 X27.2926 Y29.2302
G01 X27.3645 Y29.2140
G01 X27.4354 Y29.1944
G01 X27.5053 Y29.1713
G01 X27.5740 Y29.1448
G01 X27.6413 Y29.1150
G01 X27.7071 Y29.0819
G01 X27.7711 Y29.0456
G01 X27.8333 Y29.0062
G01 X27.8935 Y28.9638
G01 X27.9516 Y28.9185
G01 X28.0073 Y28.8704
G01 X28.0606 Y28.8197
G01 X28.1114 Y28.7663
G01 X28.1595 Y28.7106
G01 X28.2048 Y28.6526
G01 X28.2472 Y28.5924
G01 X28.2866 Y28.5302
G01 X28.3229 Y28.4661
G01 X28.3560 Y28.4003
G01 X28.3858 Y28.3330
G01 X28.4123 Y28.2643
G01 X28.4354 Y28.1944
G01 X28.4550 Y28.1235
G01 X28.4712 Y28.0516
G01 X28.4837 Y27.9791
G01 X28.4928 Y27.9060
G01 X28.4982 Y27.8326
G01 X28.5000 Y27.7590
G01 X28.4958 Y27.6469
G01 X28.4832 Y27.5355
G01 X28.4624 Y27.4252
G01 X28.4333 Y27.3169
G01 X28.3963 Y27.2110
G01 X28.3514 Y27.1082
G01 X28.2990 Y27.0090
G01 X28.2393 Y26.9140
G01 X28.1727 Y26.8238
G01 X28.0996 Y26.7388
G01 X28.0202 Y26.6595
G01 X27.9352 Y26.5863
G01 X27.8450 Y26.5197
G01 X27.7500 Y26.4600
G01 X27.6508 Y26.4076
G01 X27.5480 Y26.3627
G01 X27.4421 Y26.3257
G01 X27.3338 Y26.2966
G01 X27.2236 Y26.2758
G01 X27.1121 Y26.2632
G01 X27.0000 Y26.2590
G01 X26.8879 Y26.2632
G01 X26.7764 Y26.2758
G01 X26.6662 Y26.2966
G01 X26.5579 Y26.3257
G01 X26.4520 Y26.3627
G01 X26.3492 Y26.4076
G01 X26.2500 Y26.4600
G01 X26.1550 Y26.5197
G01 X26.0648 Y26.5863
G01 X25.9798 Y26.6595
G01 X25.9004 Y26.7388
G01 X25.8273 Y26.8238
G01 X25.7607 Y26.9140
G01 X25.7010 Y27.0090
G01 X25.6486 Y27.1082
G01 X25.6037 Y27.2110
G01 X25.5667 Y27.3169
G01 X25.5376 Y27.4252
G01 X25.5168 Y27.5355
G01 X25.5042 Y27.6469
G01 X25.5000 Y27.7590
G01 X25.5042 Y27.8711
G01 X25.5168 Y27.9826
G01 X25.5376 Y28.0928
G01 X25.5667 Y28.2011
G01 X25.6037 Y28.3070
G01 X25.6486 Y28.4098
G01 X25.7010 Y28.5090
G01 X25.7607 Y28.6040
G01 X25.8273 Y28.6942
G01 X25.9004 Y28.7793
G01 X25.9798 Y28.8586
G01 X26.0648 Y28.9317
G01 X26.1550 Y28.9984
G01 X26.2500 Y29.0580
G01 X26.3492 Y29.1105
G01 X26.4520 Y29.1553
G01 X26.5579 Y29.1924
G01 X26.6662 Y29.2214
G01 X26.7764 Y29.2422
G01 X26.8879 Y29.2548
G01 X27.0000 Y29.2590
G01 X27.1121 Y29.2548
G01 X27.2236 Y29.2422
G01 X27.3338 Y29.2214
G01 X27.4421 Y29.1924
G01 X27.5480 Y29.1553
G01 X27.6508 Y29.1105
G01 X27.7500 Y29.0580
G01 X27.8450 Y28.9984
G01 X27.9352 Y28.9317
G01 X28.0202 Y28.8586
G01 X28.0996 Y28.7793
G01 X28.1727 Y28.6942
G01 X28.2393 Y28.6040
G01 X28.2990 Y28.5090
G01 X28.3514 Y28.4098
G01 X28.3963 Y28.3070
G01 X28.4333 Y28.2011
G01 X28.4624 Y28.0928
G01 X28.4832 Y27.9826
G01 X28.4958 Y27.8711
G01 X28.5000 Y27.7590
G01 X28.4954 Y27.6544
G01 X28.4817 Y27.5506
G01 X28.4591 Y27.4484
G01 X28.4276 Y27.3486
G01 X28.3875 Y27.2519
G01 X28.3392 Y27.1590
G01 X28.2830 Y27.0707
G01 X28.2192 Y26.9877
G01 X28.1485 Y26.9105
G01 X28.0713 Y26.8398
G01 X27.9883 Y26.7760
G01 X27.9000 Y26.7198
G01 X27.8071 Y26.6715
G01 X27.7104 Y26.6314
G01 X27.6106 Y26.5999
G01 X27.5084 Y26.5773
G01 X27.4046 Y26.5636
G01 X27.3000 Y26.5590
G01 X27.1954 Y26.5636
G01 X27.0916 Y26.5773
G01 X26.9894 Y26.5999
G01 X26.8896 Y26.6314
G01 X26.7929 Y26.6715
G01 X26.7000 Y26.7198
G01 X26.6117 Y26.7760
G01 X26.5286 Y26.8398
G01 X26.4515 Y26.9105
G01 X26.3807 Y26.9877
G01 X26.3170 Y27.0707
G01 X26.2608 Y27.1590
G01 X26.2124 Y27.2519
G01 X26.1724 Y27.3486
G01 X26.1409 Y27.4484
G01 X26.1182 Y27.5506
G01 X26.1046 Y27.6544
G01 X26.1000 Y27.7590
G01 X26.1011 Y27.8032
G01 X26.1043 Y27.8472
G01 X26.1097 Y27.8911
G01 X26.1173 Y27.9346
G01 X26.1270 Y27.9777
G01 X26.1388 Y28.0203
G01 X26.1526 Y28.0622
G01 X26.1685 Y28.1034
G01 X26.1864 Y28.1438
G01 X26.2063 Y28.1833
G01 X26.2280 Y28.2217
G01 X26.2517 Y28.2590
G01 X26.2771 Y28.2951
G01 X26.3043 Y28.3300
G01 X26.3331 Y28.3634
G01 X26.3636 Y28.3954
G01 X26.3956 Y28.4259
G01 X26.4290 Y28.4547
G01 X26.4639 Y28.4819
G01 X26.5000 Y28.5073
G01 X26.5373 Y28.5310
G01 X26.5757 Y28.5527
G01 X26.6152 Y28.5726
G01 X26.6556 Y28.5905
G01 X26.6968 Y28.6064
G01 X26.7387 Y28.6203
G01 X26.7813 Y28.6320
G01 X26.8244 Y28.6417
G01 X26.8679 Y28.6493
G01 X26.9118 Y28.6547
G01 X26.9558 Y28.6579
G01 X27.0000 Y28.6590
G01 X27.0442 Y28.6579
G01 X27.0882 Y28.6547
G01 X27.1321 Y28.6493
G01 X27.1756 Y28.6417
G01 X27.2187 Y28.6320
G01 X27.2613 Y28.6203
G01 X27.3032 Y28.6064
G01 X27.3444 Y28.5905
G01 X27.3848 Y28.5726
G01 X27.4243 Y28.5527
G01 X27.4627 Y28.5310
G01 X27.5000 Y28.5073
G01 X27.5361 Y28.4819
G01 X27.5710 Y28.4547
G01 X27.6044 Y28.4259
G01 X27.6364 Y28.3954
G01 X27.6669 Y28.3634
G01 X27.6957 Y28.3300
G01 X27.7229 Y28.2951
G01 X27.7483 Y28.2590
G01 X27.7720 Y28.2217
G01 X27.7937 Y28.1833
G01 X27.8136 Y28.1438
G01 X27.8315 Y28.1034
G01 X27.8474 Y28.0622
G01 X27.8612 Y28.0203
G01 X27.8730 Y27.9777
G01 X27.8827 Y27.9346
G01 X27.8903 Y27.8911
G01 X27.8957 Y27.8472
G01 X27.8989 Y27.8032
G01 X27.9000 Y27.7590
M107
M106 S240
G01 X27.8990 Y27.7162 Z-2.7623 F400
G01 X27.8959 Y27.6735 Z-2.7746
G01 X27.8908 Y27.6309 Z-2.7869
G01 X27.8837 Y27.5887 Z-2.7992
G01 X27.8746 Y27.5468 Z-2.8116
G01 X27.8635 Y27.5055 Z-2.8239
G01 X27.8505 Y27.4647 Z-2.8362
G01 X27.8355 Y27.4245 Z-2.8485
G01 X27.8187 Y27.3851 Z-2.8608
G01 X27.7999 Y27.3466 Z-2.8731
G01 X27.7794 Y27.3090 Z-2.8854
G01 X27.7571 Y27.2724 Z-2.8977
G01 X27.7331 Y27.2370 Z-2.9100
G01 X27.7074 Y27.2027 Z-2.9223
G01 X27.6802 Y27.1696 Z-2.9347
G01 X27.6514 Y27.1379 Z-2.9470
G01 X27.6211 Y27.1077 Z-2.9593
G01 X27.5894 Y27.0788 Z-2.9716
G01 X27.5563 Y27.0516 Z-2.9839
G01 X27.5220 Y27.0259 Z-2.9962
G01 X27.4866 Y27.0019 Z-3.0085
G01 X27.4500 Y26.9796 Z-3.0208
G01 X27.4124 Y26.9591 Z-3.0331
G01 X27.3739 Y26.9403 Z-3.0455
G01 X27.3345 Y26.9235 Z-3.0578
G01 X27.2944 Y26.9085 Z-3.0701
G01 X27.2536 Y26.8955 Z-3.0824
G01 X27.2122 Y26.8844 Z-3.0947
G01 X27.1703 Y26.8753 Z-3.1070
G01 X27.1281 Y26.8682 Z-3.1193
G01 X27.0855 Y26.8631 Z-3.1316
G01 X27.0428 Y26.8600 Z-3.1439
G01 X27.0000 Y26.8590 Z-3.1563
G01 X26.9572 Y26.8600 Z-3.1686
G01 X26.9144 Y26.8631 Z-3.1809
G01 X26.8719 Y26.8682 Z-3.1932
G01 X26.8297 Y26.8753 Z-3.2055
G01 X26.7878 Y26.8844 Z-3.2178
G01 X26.7464 Y26.8955 Z-3.2301
G01 X26.7056 Y26.9085 Z-3.2424
G01 X26.6655 Y26.9235 Z-3.2547
G01 X26.6261 Y26.9403 Z-3.2670
G01 X26.5876 Y26.9591 Z-3.2794
G01 X26.5500 Y26.9796 Z-3.2917
G01 X26.5134 Y27.0019 Z-3.3040
G01 X26.4779 Y27.0259 Z-3.3163
G01 X26.4437 Y27.0516 Z-3.3286
G01 X26.4106 Y27.0788 Z-3.3409
G01 X26.3789 Y27.1077 Z-3.3532
G01 X26.3486 Y27.1379 Z-3.3655
G01 X26.3198 Y27.1696 Z-3.3778
G01 X26.2926 Y27.2027 Z-3.3902
G01 X26.2669 Y27.2370 Z-3.4025
G01 X26.2429 Y27.2724 Z-3.4148
G01 X26.2206 Y27.3090 Z-3.4271
G01 X26.2000 Y27.3466 Z-3.4394
G01 X26.1813 Y27.3851 Z-3.4517
G01 X26.1645 Y27.4245 Z-3.4640
G01 X26.1495 Y27.4647 Z-3.4763
G01 X26.1365 Y27.5055 Z-3.4886
G01 X26.1254 Y27.5468 Z-3.5009
G01 X26.1163 Y27.5887 Z-3.5133
G01 X26.1092 Y27.6309 Z-3.5256
G01 X26.1041 Y27.6735 Z-3.5379
G01 X26.1010 Y27.7162 Z-3.5502
G01 X26.1000 Y27.7590 Z-3.5625
G01 X26.1010 Y27.8018 Z-3.5748
G01 X26.1041 Y27.8446 Z-3.5871
G01 X26.1092 Y27.8871 Z-3.5994
G01 X26.1163 Y27.9293 Z-3.6117
G01 X26.1254 Y27.9712 Z-3.6241
G01 X26.1365 Y28.0126 Z-3.6364
G01 X26.1495 Y28.0534 Z-3.6487
G01 X26.1645 Y28.0935 Z-3.6610
G01 X26.1813 Y28.1329 Z-3.6733
G01 X26.2000 Y28.1714 Z-3.6856
G01 X26.2206 Y28.2090 Z-3.6979
G01 X26.2429 Y28.2456 Z-3.7102
G01 X26.2669 Y28.2811 Z-3.7225
G01 X26.2926 Y28.3154 Z-3.7348
G01 X26.3198 Y28.3484 Z-3.7472
G01 X26.3486 Y28.3801 Z-3.7595
G01 X26.3789 Y28.4104 Z-3.7718
G01 X26.4106 Y28.4392 Z-3.7841
G01 X26.4437 Y28.4665 Z-3.7964
G01 X26.4779 Y28.4921 Z-3.8087
G01 X26.5134 Y28.5161 Z-3.8210
G01 X26.5500 Y28.5384 Z-3.8333
G01 X26.5876 Y28.5590 Z-3.8456
G01 X26.6261 Y28.5777 Z-3.8580
G01 X26.6655 Y28.5945 Z-3.8703
G01 X26.7056 Y28.6095 Z-3.8826
G01 X26.7464 Y28.6226 Z-3.8949
G01 X26.7878 Y28.6336 Z-3.9072
G01 X26.8297 Y28.6428 Z-3.9195
G01 X26.8719 Y28.6499 Z-3.9318
G01 X26.9144 Y28.6549 Z-3.9441
G01 X26.9572 Y28.6580 Z-3.9564
G01 X27.0000 Y28.6590 Z-3.9688
G01 X27.0428 Y28.6580 Z-3.9811
G01 X27.0855 Y28.6549 Z-3.9934
G01 X27.1281 Y28.6499 Z-4.0057
G01 X27.1703 Y28.6428 Z-4.0180
G01 X27.2122 Y28.6336 Z-4.0303
G01 X27.2536 Y28.6226 Z-4.0426
G01 X27.2944 Y28.6095 Z-4.0549
G01 X27.3345 Y28.5945 Z-4.0672
G01 X27.3739 Y28.5777 Z-4.0795
G01 X27.4124 Y28.5590 Z-4.0919
G01 X27.4500 Y28.5384 Z-4.1042
G01 X27.4866 Y28.5161 Z-4.1165
G01 X27.5220 Y28.4921 Z-4.1288
G01 X27.5563 Y28.4665 Z-4.1411
G01 X27.5894 Y28.4392 Z-4.1534
G01 X27.6211 Y28.4104 Z-4.1657
G01 X27.6514 Y28.3801 Z-4.1780
G01 X27.6802 Y28.3484 Z-4.1903
G01 X27.7074 Y28.3154 Z-4.2027
G01 X27.7331 Y28.2811 Z-4.2150
G01 X27.7571 Y28.2456 Z-4.2273
G01 X27.7794 Y28.2090 Z-4.2396
G01 X27.7999 Y28.1714 Z-4.2519
G01 X27.8187 Y28.1329 Z-4.2642
G01 X27.8355 Y28.0935 Z-4.2765
G01 X27.8505 Y28.0534 Z-4.2888
G01 X27.8635 Y28.0126 Z-4.3011
G01 X27.8746 Y27.9712 Z-4.3134
G01 X27.8837 Y27.9293 Z-4.3258
G01 X27.8908 Y27.8871 Z-4.3381
G01 X27.8959 Y27.8446 Z-4.3504
G01 X27.8990 Y27.8018 Z-4.3627
G01 X27.9000 Y27.7590 Z-4.3750
G01 X27.8990 Y27.7162
G01 X27.8959 Y27.6735
G01 X27.8908 Y27.6309
G01 X27.8837 Y27.5887
G01 X27.8746 Y27.5468
G01 X27.8635 Y27.5055
G01 X27.8505 Y27.4647
G01 X27.8355 Y27.4245
G01 X27.8187 Y27.3851
G01 X27.7999 Y27.3466
G01 X27.7794 Y27.3090
G01 X27.7571 Y27.2724
G01 X27.7331 Y27.2370
G01 X27.7074 Y27.2027
G01 X27.6802 Y27.1696
G01 X27.6514 Y27.1379
G01 X27.6211 Y27.1077
G01 X27.5894 Y27.0788
G01 X27.5563 Y27.0516
G01 X27.5220 Y27.0259
G01 X27.4866 Y27.0019
G01 X27.4500 Y26.9796
G01 X27.4124 Y26.9591
G01 X27.3739 Y26.9403
G01 X27.3345 Y26.9235
G01 X27.2944 Y26.9085
G01 X27.2536 Y26.8955
G01 X27.2122 Y26.8844
G01 X27.1703 Y26.8753
G01 X27.1281 Y26.8682
G01 X27.0855 Y26.8631
G01 X27.0428 Y26.8600
G01 X27.0000 Y26.8590
G01 X26.9572 Y26.8600
G01 X26.9144 Y26.8631
G01 X26.8719 Y26.8682
G01 X26.8297 Y26.8753
G01 X26.7878 Y26.8844
G01 X26.7464 Y26.8955
G01 X26.7056 Y26.9085
G01 X26.6655 Y26.9235
G01 X26.6261 Y26.9403
G01 X26.5876 Y26.9591
G01 X26.5500 Y26.9796
G01 X26.5134 Y27.0019
G01 X26.4779 Y27.0259
G01 X26.4437 Y27.0516
G01 X26.4106 Y27.0788
G01 X26.3789 Y27.1077
G01 X26.3486 Y27.1379
G01 X26.3198 Y27.1696
G01 X26.2926 Y27.2027
G01 X26.2669 Y27.2370
G01 X26.2429 Y27.2724
G01 X26.2206 Y27.3090
G01 X26.2000 Y27.3466
G01 X26.1813 Y27.3851
G01 X26.1645 Y27.4245
G01 X26.1495 Y27.4647
G01 X26.1365 Y27.5055
G01 X26.1254 Y27.5468
G01 X26.1163 Y27.5887
G01 X26.1092 Y27.6309
G01 X26.1041 Y27.6735
G01 X26.1010 Y27.7162
G01 X26.1000 Y27.7590
G01 X26.1010 Y27.8018
G01 X26.1041 Y27.8446
G01 X26.1092 Y27.8871
G01 X26.1163 Y27.9293
G01 X26.1254 Y27.9712
G01 X26.1365 Y28.0126
G01 X26.1495 Y28.0534
G01 X26.1645 Y28.0935
G01 X26.1813 Y28.1329
G01 X26.2000 Y28.1714
G01 X26.2206 Y28.2090
G01 X26.2429 Y28.2456
G01 X26.2669 Y28.2811
G01 X26.2926 Y28.3154
G01 X26.3198 Y28.3484
G01 X26.3486 Y28.3801
G01 X26.3789 Y28.4104
G01 X26.4106 Y28.4392
G01 X26.4437 Y28.4665
G01 X26.4779 Y28.4921
G01 X26.5134 Y28.5161
G01 X26.5500 Y28.5384
G01 X26.5876 Y28.5590
G01 X26.6261 Y28.5777
G01 X26.6655 Y28.5945
G01 X26.7056 Y28.6095
G01 X26.7464 Y28.6226
G01 X26.7878 Y28.6336
G01 X26.8297 Y28.6428
G01 X26.8719 Y28.6499
G01 X26.9144 Y28.6549
G01 X26.9572 Y28.6580
G01 X27.0000 Y28.6590
G01 X27.0428 Y28.6580
G01 X27.0855 Y28.6549
G01 X27.1281 Y28.6499
G01 X27.1703 Y28.6428
G01 X27.2122 Y28.6336
G01 X27.2536 Y28.6226
G01 X27.2944 Y28.6095
G01 X27.3345 Y28.5945
G01 X27.3739 Y28.5777
G01 X27.4124 Y28.5590
G01 X27.4500 Y28.5384
G01 X27.4866 Y28.5161
G01 X27.5220 Y28.4921
G01 X27.5563 Y28.4665
G01 X27.5894 Y28.4392
G01 X27.6211 Y28.4104
G01 X27.6514 Y28.3801
G01 X27.6802 Y28.3484
G01 X27.7074 Y28.3154
G01 X27.7331 Y28.2811
G01 X27.7571 Y28.2456
G01 X27.7794 Y28.2090
G01 X27.7999 Y28.1714
G01 X27.8187 Y28.1329
G01 X27.8355 Y28.0935
G01 X27.8505 Y28.0534
G01 X27.8635 Y28.0126
G01 X27.8746 Y27.9712
G01 X27.8837 Y27.9293
G01 X27.8908 Y27.8871
G01 X27.8959 Y27.8446
G01 X27.8990 Y27.8018
G01 X27.9000 Y27.7590
G01 X27.9075 Y27.7280 F1000
G01 X27.9140 Y27.6967
G01 X27.9194 Y27.6652
G01 X27.9237 Y27.6335
G01 X27.9268 Y27.6017
G01 X27.9289 Y27.5698
G01 X27.9299 Y27.5379
G01 X27.9297 Y27.5059
G01 X27.9285 Y27.4740
G01 X27.9261 Y27.4421
G01 X27.9227 Y27.4104
G01 X27.9181 Y27.3787
G01 X27.9084 Y27.3272
G01 X27.8961 Y27.2763
G01 X27.8811 Y27.2261
G01 X27.8636 Y27.1767
G01 X27.8436 Y27.1282
G01 X27.8211 Y27.0809
G01 X27.7962 Y27.0348
G01 X27.7690 Y26.9900
G01 X27.7370 Y26.9430
G01 X27.7026 Y26.8977
G01 X27.6659 Y26.8542
G01 X27.6271 Y26.8126
G01 X27.5861 Y26.7730
G01 X27.5433 Y26.7357
G01 X27.4985 Y26.7005
G01 X27.4520 Y26.6677
G01 X27.4001 Y26.6349
G01 X27.3466 Y26.6047
G01 X27.2917 Y26.5773
G01 X27.2354 Y26.5528
G01 X27.1779 Y26.5311
G01 X27.1194 Y26.5124
G01 X27.0601 Y26.4967
G01 X27.0000 Y26.4840
G01 X26.9349 Y26.4737
G01 X26.8693 Y26.4667
G01 X26.8035 Y26.4630
G01 X26.7376 Y26.4626
G01 X26.6717 Y26.4656
G01 X26.6061 Y26.4719
G01 X26.5409 Y26.4815
G01 X26.4762 Y26.4945
G01 X26.4079 Y26.5117
G01 X26.3405 Y26.5324
G01 X26.2743 Y26.5565
G01 X26.2094 Y26.5838
G01 X26.1459 Y26.6144
G01 X26.0840 Y26.6482
G01 X26.0240 Y26.6850
G01 X25.9659 Y26.7249
G01 X25.9123 Y26.7743
G01 X25.8613 Y26.8263
G01 X25.8129 Y26.8808
G01 X25.7673 Y26.9375
G01 X25.7245 Y26.9965
G01 X25.6846 Y27.0575
G01 X25.6478 Y27.1204
G01 X25.6142 Y27.1850
G01 X25.5877 Y27.2537
G01 X25.5646 Y27.3236
G01 X25.5450 Y27.3946
G01 X25.5288 Y27.4664
G01 X25.5163 Y27.5389
G01 X25.5072 Y27.6120
G01 X25.5018 Y27.6854
G01 X25.5000 Y27.7590
G01 X25.5018 Y27.8326
G01 X25.5072 Y27.9060
G01 X25.5163 Y27.9791
G01 X25.5288 Y28.0516
G01 X25.5450 Y28.1235
G01 X25.5646 Y28.1944
G01 X25.5877 Y28.2643
G01 X25.6142 Y28.3330
G01 X25.6440 Y28.4003
G01 X25.6771 Y28.4661
G01 X25.7134 Y28.5302
G01 X25.7528 Y28.5924
G01 X25.7952 Y28.6526
G01 X25.8405 Y28.7106
G01 X25.8886 Y28.7663
G01 X25.9394 Y28.8197
G01 X25.9927 Y28.8704
G01 X26.0484 Y28.9185
G01 X26.1065 Y28.9638
G01 X26.1667 Y29.0062
G01 X26.2289 Y29.0456
G01 X26.2929 Y29.0819
G01 X26.3587 Y29.1150
G01 X26.4260 Y29.1448
G01 X26.4947 Y29.1713
G01 X26.5646 Y29.1944
G01 X26.6355 Y29.2140
G01 X26.7074 Y29.2302
G01 X26.7799 Y29.2428
G01 X26.8530 Y29.2518
G01 X26.9264 Y29.2572
G01 X27.0000 Y29.2590
G01 X27.0736 Y29.2572
G01 X27.1470 Y29.2518
G01 X27.2201 Y29.2428
G01 X27.2926 Y29.2302
G01 X27.3645 Y29.2140
G01 X27.4354 Y29.1944
G01 X27.5053 Y29.1713
G01 X27.5740 Y29.1448
G01 X27.6413 Y29.1150
G01 X27.7071 Y29.0819
G01 X27.7711 Y29.0456
G01 X27.8333 Y29.0062
G01 X27.8935 Y28.9638
G01 X27.9516 Y28.9185
G01 X28.0073 Y28.8704
G01 X28.0606 Y28.8197
G01 X28.1114 Y28.7663
G01 X28.1595 Y28.7106
G01 X28.2048 Y28.6526
G01 X28.2472 Y28.5924
G01 X28.2866 Y28.5302
G01 X28.3229 Y28.4661
G01 X28.3560 Y28.4003
G01 X28.3858 Y28.3330
G01 X28.4123 Y28.2643
G01 X28.4354 Y28.1944
G01 X28.4550 Y28.1235
G01 X28.4712 Y28.0516
G01 X28.4837 Y27.9791
G01 X28.4928 Y27.9060
G01 X28.4982 Y27.8326
G01 X28.5000 Y27.7590
G01 X28.4958 Y27.6469
G01 X28.4832 Y27.5355
G01 X28.4624 Y27.4252
G01 X28.4333 Y27.3169
G01 X28.3963 Y27.2110
G01 X28.3514 Y27.1082
G01 X28.2990 Y27.0090
G01 X28.2393 Y26.9140
G01 X28.1727 Y26.8238
G01 X28.0996 Y26.7388
G01 X28.0202 Y26.6595
G01 X27.9352 Y26.5863
G01 X27.8450 Y26.5197
G01 X27.7500 Y26.4600
G01 X27.6508 Y26.4076
G01 X27.5480 Y26.3627
G01 X27.4421 Y26.3257
G01 X27.3338 Y26.2966
G01 X27.2236 Y26.2758
G01 X27.1121 Y26.2632
G01 X27.0000 Y26.2590
G01 X26.8879 Y26.2632
G01 X26.7764 Y26.2758
G01 X26.6662 Y26.2966
G01 X26.5579 Y26.3257
G01 X26.4520 Y26.3627
G01 X26.3492 Y26.4076
G01 X26.2500 Y26.4600
G01 X26.1550 Y26.5197
G01 X26.0648 Y26.5863
G01 X25.9798 Y26.6595
G01 X25.9004 Y26.7388
G01 X25.8273 Y26.8238
G01 X25.7607 Y26.9140
G01 X25.7010 Y27.0090
G01 X25.6486 Y27.1082
G01 X25.6037 Y27.2110
G01 X25.5667 Y27.3169
G01 X25.5376 Y27.4252
G01 X25.5168 Y27.5355
G01 X25.5042 Y27.6469
G01 X25.5000 Y27.7590
G01 X25.5042 Y27.8711
G01 X25.5168 Y27.9826
G01 X25.5376 Y28.0928
G01 X25.5667 Y28.2011
G01 X25.6037 Y28.3070
G01 X25.6486 Y28.4098
G01 X25.7010 Y28.5090
G01 X25.7607 Y28.6040
G01 X25.8273 Y28.6942
G01 X25.9004 Y28.7793
G01 X25.9798 Y28.8586
G01 X26.0648 Y28.9317
G01 X26.1550 Y28.9984
G01 X26.2500 Y29.0580
G01 X26.3492 Y29.1105
G01 X26.4520 Y29.1553
G01 X26.5579 Y29.1924
G01 X26.6662 Y29.2214
G01 X26.7764 Y29.2422
G01 X26.8879 Y29.2548
G01 X27.0000 Y29.2590
G01 X27.1121 Y29.2548
G01 X27.2236 Y29.2422
G01 X27.3338 Y29.2214
G01 X27.4421 Y29.1924
G01 X27.5480 Y29.1553
G01 X27.6508 Y29.1105
G01 X27.7500 Y29.0580
G01 X27.8450 Y28.9984
G01 X27.9352 Y28.9317
G01 X28.0202 Y28.8586
G01 X28.0996 Y28.7793
G01 X28.1727 Y28.6942
G01 X28.2393 Y28.6040
G01 X28.2990 Y28.5090
G01 X28.3514 Y28.4098
G01 X28.3963 Y28.3070
G01 X28.4333 Y28.2011
G01 X28.4624 Y28.0928
G01 X28.4832 Y27.9826
G01 X28.4958 Y27.8711
G01 X28.5000 Y27.7590
G01 X28.4954 Y27.6544
G01 X28.4817 Y27.5506
G01 X28.4591 Y27.4484
G01 X28.4276 Y27.3486
G01 X28.3875 Y27.2519
G01 X28.3392 Y27.1590
G01 X28.2830 Y27.0707
G01 X28.2192 Y26.9877
G01 X28.1485 Y26.9105
G01 X28.0713 Y26.8398
G01 X27.9883 Y26.7760
G01 X27.9000 Y26.7198
G01 X27.8071 Y26.6715
G01 X27.7104 Y26.6314
G01 X27.6106 Y26.5999
G01 X27.5084 Y26.5773
G01 X27.4046 Y26.5636
G01 X27.3000 Y26.5590
G01 X27.1954 Y26.5636
G01 X27.0916 Y26.5773
G01 X26.9894 Y26.5999
G01 X26.8896 Y26.6314
G01 X26.7929 Y26.6715
G01 X26.7000 Y26.7198
G01 X26.6117 Y26.7760
G01 X26.5286 Y26.8398
G01 X26.4515 Y26.9105
G01 X26.3807 Y26.9877
G01 X26.3170 Y27.0707
G01 X26.2608 Y27.1590
G01 X26.2124 Y27.2519
G01 X26.1724 Y27.3486
G01 X26.1409 Y27.4484
G01 X26.1182 Y27.5506
G01 X26.1046 Y27.6544
G01 X26.1000 Y27.7590
G01 X26.1011 Y27.8032
G01 X26.1043 Y27.8472
G01 X26.1097 Y27.8911
G01 X26.1173 Y27.9346
G01 X26.1270 Y27.9777
G01 X26.1388 Y28.0203
G01 X26.1526 Y28.0622
G01 X26.1685 Y28.1034
G01 X26.1864 Y28.1438
G01 X26.2063 Y28.1833
G01 X26.2280 Y28.2217
G01 X26.2517 Y28.2590
G01 X26.2771 Y28.2951
G01 X26.3043 Y28.3300
G01 X26.3331 Y28.3634
G01 X26.3636 Y28.3954
G01 X26.3956 Y28.4259
G01 X26.4290 Y28.4547
G01 X26.4639 Y28.4819
G01 X26.5000 Y28.5073
G01 X26.5373 Y28.5310
G01 X26.5757 Y28.5527
G01 X26.6152 Y28.5726
G01 X26.6556 Y28.5905
G01 X26.6968 Y28.6064
G01 X26.7387 Y28.6203
G01 X26.7813 Y28.6320
G01 X26.8244 Y28.6417
G01 X26.8679 Y28.6493
G01 X26.9118 Y28.6547
G01 X26.9558 Y28.6579
G01 X27.0000 Y28.6590
G01 X27.0442 Y28.6579
G01 X27.0882 Y28.6547
G01 X27.1321 Y28.6493
G01 X27.1756 Y28.6417
G01 X27.2187 Y28.6320
G01 X27.2613 Y28.6203
G01 X27.3032 Y28.6064
G01 X27.3444 Y28.5905
G01 X27.3848 Y28.5726
G01 X27.4243 Y28.5527
G01 X27.4627 Y28.5310
G01 X27.5000 Y28.5073
G01 X27.5361 Y28.4819
G01 X27.5710 Y28.4547
G01 X27.6044 Y28.4259
G01 X27.6364 Y28.3954
G01 X27.6669 Y28.3634
G01 X27.6957 Y28.3300
G01 X27.7229 Y28.2951
G01 X27.7483 Y28.2590
G01 X27.7720 Y28.2217
G01 X27.7937 Y28.1833
G01 X27.8136 Y28.1438
G01 X27.8315 Y28.1034
G01 X27.8474 Y28.0622
G01 X27.8612 Y28.0203
G01 X27.8730 Y27.9777
G01 X27.8827 Y27.9346
G01 X27.8903 Y27.8911
G01 X27.8957 Y27.8472
G01 X27.8989 Y27.8032
G01 X27.9000 Y27.7590
M107
M106 S240
G01 X27.8990 Y27.7162 Z-4.3873 F400
G01 X27.8959 Y27.6735 Z-4.3996
G01 X27.8908 Y27.6309 Z-4.4119
G01 X27.8837 Y27.5887 Z-4.4242
G01 X27.8746 Y27.5468 Z-4.4366
G01 X27.8635 Y27.5055 Z-4.4489
G01 X27.8505 Y27.4647 Z-4.4612
G01 X27.8355 Y27.4245 Z-4.4735
G01 X27.8187 Y27.3851 Z-4.4858
G01 X27.7999 Y27.3466 Z-4.4981
G01 X27.7794 Y27.3090 Z-4.5104
G01 X27.7571 Y27.2724 Z-4.5227
G01 X27.7331 Y27.2370 Z-4.5350
G01 X27.7074 Y27.2027 Z-4.5473
G01 X27.6802 Y27.1696 Z-4.5597
G01 X27.6514 Y27.1379 Z-4.5720
G01 X27.6211 Y27.1077 Z-4.5843
G01 X27.5894 Y27.0788 Z-4.5966
G01 X27.5563 Y27.0516 Z-4.6089
G01 X27.5220 Y27.0259 Z-4.6212
G01 X27.4866 Y27.0019 Z-4.6335
G01 X27.4500 Y26.9796 Z-4.6458
G01 X27.4124 Y26.9591 Z-4.6581
G01 X27.3739 Y26.9403 Z-4.6705
G01 X27.3345 Y26.9235 Z-4.6828
G01 X27.2944 Y26.9085 Z-4.6951
G01 X27.2536 Y26.8955 Z-4.7074
G01 X27.2122 Y26.8844 Z-4.7197
G01 X27.1703 Y26.8753 Z-4.7320
G01 X27.1281 Y26.8682 Z-4.7443
G01 X27.0855 Y26.8631 Z-4.7566
G01 X27.0428 Y26.8600 Z-4.7689
G01 X27.0000 Y26.8590 Z-4.7813
G01 X26.9572 Y26.8600 Z-4.7936
G01 X26.9144 Y26.8631 Z-4.8059
G01 X26.8719 Y26.8682 Z-4.8182
G01 X26.8297 Y26.8753 Z-4.8305
G01 X26.7878 Y26.8844 Z-4.8428
G01 X26.7464 Y26.8955 Z-4.8551
G01 X26.7056 Y26.9085 Z-4.8674
G01 X26.6655 Y26.9235 Z-4.8797
G01 X26.6261 Y26.9403 Z-4.8920
G01 X26.5876 Y26.9591 Z-4.9044
G01 X26.5500 Y26.9796 Z-4.9167
G01 X26.5134 Y27.0019 Z-4.9290
G01 X26.4779 Y27.0259 Z-4.9413
G01 X26.4437 Y27.0516 Z-4.9536
G01 X26.4106 Y27.0788 Z-4.9659
G01 X26.3789 Y27.1077 Z-4.9782
G01 X26.3486 Y27.1379 Z-4.9905
G01 X26.3198 Y27.1696 Z-5.0028
G01 X26.2926 Y27.2027 Z-5.0152
G01 X26.2669 Y27.2370 Z-5.0275
G01 X26.2429 Y27.2724 Z-5.0398
G01 X26.2206 Y27.3090 Z-5.0521
G01 X26.2000 Y27.3466 Z-5.0644
G01 X26.1813 Y27.3851 Z-5.0767
G01 X26.1645 Y27.4245 Z-5.0890
G01 X26.1495 Y27.4647 Z-5.1013
G01 X26.1365 Y27.5055 Z-5.1136
G01 X26.1254 Y27.5468 Z-5.1259
G01 X26.1163 Y27.5887 Z-5.1383
G01 X26.1092 Y27.6309 Z-5.1506
G01 X26.1041 Y27.6735 Z-5.1629
G01 X26.1010 Y27.7162 Z-5.1752
G01 X26.1000 Y27.7590 Z-5.1875
G01 X26.1010 Y27.8018 Z-5.1998
G01 X26.1041 Y27.8446 Z-5.2121
G01 X26.1092 Y27.8871 Z-5.2244
G01 X26.1163 Y27.9293 Z-5.2367
G01 X26.1254 Y27.9712 Z-5.2491
G01 X26.1365 Y28.0126 Z-5.2614
G01 X26.1495 Y28.0534 Z-5.2737
G01 X26.1645 Y28.0935 Z-5.2860
G01 X26.1813 Y28.1329 Z-5.2983
G01 X26.2000 Y28.1714 Z-5.3106
G01 X26.2206 Y28.2090 Z-5.3229
G01 X26.2429 Y28.2456 Z-5.3352
G01 X26.2669 Y28.2811 Z-5.3475
G01 X26.2926 Y28.3154 Z-5.3598
G01 X26.3198 Y28.3484 Z-5.3722
G01 X26.3486 Y28.3801 Z-5.3845
G01 X26.3789 Y28.4104 Z-5.3968
G01 X26.4106 Y28.4392 Z-5.4091
G01 X26.4437 Y28.4665 Z-5.4214
G01 X26.4779 Y28.4921 Z-5.4337
G01 X26.5134 Y28.5161 Z-5.4460
G01 X26.5500 Y28.5384 Z-5.4583
G01 X26.5876 Y28.5590 Z-5.4706
G01 X26.6261 Y28.5777 Z-5.4830
G01 X26.6655 Y28.5945 Z-5.4953
G01 X26.7056 Y28.6095 Z-5.5076
G01 X26.7464 Y28.6226 Z-5.5199
G01 X26.7878 Y28.6336 Z-5.5322
G01 X26.8297 Y28.6428 Z-5.5445
G01 X26.8719 Y28.6499 Z-5.5568
G01 X26.9144 Y28.6549 Z-5.5691
G01 X26.9572 Y28.6580 Z-5.5814
G01 X27.0000 Y28.6590 Z-5.5938
G01 X27.0428 Y28.6580 Z-5.6061
G01 X27.0855 Y28.6549 Z-5.6184
G01 X27.1281 Y28.6499 Z-5.6307
G01 X27.1703 Y28.6428 Z-5.6430
G01 X27.2122 Y28.6336 Z-5.6553
G01 X27.2536 Y28.6226 Z-5.6676
G01 X27.2944 Y28.6095 Z-5.6799
G01 X27.3345 Y28.5945 Z-5.6922
G01 X27.3739 Y28.5777 Z-5.7045
G01 X27.4124 Y28.5590 Z-5.7169
G01 X27.4500 Y28.5384 Z-5.7292
G01 X27.4866 Y28.5161 Z-5.7415
G01 X27.5220 Y28.4921 Z-5.7538
G01 X27.5563 Y28.4665 Z-5.7661
G01 X27.5894 Y28.4392 Z-5.7784
G01 X27.6211 Y28.4104 Z-5.7907
G01 X27.6514 Y28.3801 Z-5.8030
G01 X27.6802 Y28.3484 Z-5.8153
G01 X27.7074 Y28.3154 Z-5.8277
G01 X27.7331 Y28.2811 Z-5.8400
G01 X27.7571 Y28.2456 Z-5.8523
G01 X27.7794 Y28.2090 Z-5.8646
G01 X27.7999 Y28.1714 Z-5.8769
G01 X27.8187 Y28.1329 Z-5.8892
G01 X27.8355 Y28.0935 Z-5.9015
G01 X27.8505 Y28.0534 Z-5.9138
G01 X27.8635 Y28.0126 Z-5.9261
G01 X27.8746 Y27.9712 Z-5.9384
G01 X27.8837 Y27.9293 Z-5.9508
G01 X27.8908 Y27.8871 Z-5.9631
G01 X27.8959 Y27.8446 Z-5.9754
G01 X27.8990 Y27.8018 Z-5.9877
G01 X27.9000 Y27.7590 Z-6.0000
G01 X27.8990 Y27.7162
G01 X27.8959 Y27.6735
G01 X27.8908 Y27.6309
G01 X27.8837 Y27.5887
G01 X27.8746 Y27.5468
G01 X27.8635 Y27.5055
G01 X27.8505 Y27.4647
G01 X27.8355 Y27.4245
G01 X27.8187 Y27.3851
G01 X27.7999 Y27.3466
G01 X27.7794 Y27.3090
G01 X27.7571 Y27.2724
G01 X27.7331 Y27.2370
G01 X27.7074 Y27.2027
G01 X27.6802 Y27.1696
G01 X27.6514 Y27.1379
G01 X27.6211 Y27.1077
G01 X27.5894 Y27.0788
G01 X27.5563 Y27.0516
G01 X27.5220 Y27.0259
G01 X27.4866 Y27.0019
G01 X27.4500 Y26.9796
G01 X27.4124 Y26.9591
G01 X27.3739 Y26.9403
G01 X27.3345 Y26.9235
G01 X27.2944 Y26.9085
G01 X27.2536 Y26.8955
G01 X27.2122 Y26.8844
G01 X27.1703 Y26.8753
G01 X27.1281 Y26.8682
G01 X27.0855 Y26.8631
G01 X27.0428 Y26.8600
G01 X27.0000 Y26.8590
G01 X26.9572 Y26.8600
G01 X26.9144 Y26.8631
G01 X26.8719 Y26.8682
G01 X26.8297 Y26.8753
G01 X26.7878 Y26.8844
G01 X26.7464 Y26.8955
G01 X26.7056 Y26.9085
G01 X26.6655 Y26.9235
G01 X26.6261 Y26.9403
G01 X26.5876 Y26.9591
G01 X26.5500 Y26.9796
G01 X26.5134 Y27.0019
G01 X26.4779 Y27.0259
G01 X26.4437 Y27.0516
G01 X26.4106 Y27.0788
G01 X26.3789 Y27.1077
G01 X26.3486 Y27.1379
G01 X26.3198 Y27.1696
G01 X26.2926 Y27.2027
G01 X26.2669 Y27.2370
G01 X26.2429 Y27.2724
G01 X26.2206 Y27.3090
G01 X26.2000 Y27.3466
G01 X26.1813 Y27.3851
G01 X26.1645 Y27.4245
G01 X26.1495 Y27.4647
G01 X26.1365 Y27.5055
G01 X26.1254 Y27.5468
G01 X26.1163 Y27.5887
G01 X26.1092 Y27.6309
G01 X26.1041 Y27.6735
G01 X26.1010 Y27.7162
G01 X26.1000 Y27.7590
G01 X26.1010 Y27.8018
G01 X26.1041 Y27.8446
G01 X26.1092 Y27.8871
G01 X26.1163 Y27.9293
G01 X26.1254 Y27.9712
G01 X26.1365 Y28.0126
G01 X26.1495 Y28.0534
G01 X26.1645 Y28.0935
G01 X26.1813 Y28.1329
G01 X26.2000 Y28.1714
G01 X26.2206 Y28.2090
G01 X26.2429 Y28.2456
G01 X26.2669 Y28.2811
G01 X26.2926 Y28.3154
G01 X26.3198 Y28.3484
G01 X26.3486 Y28.3801
G01 X26.3789 Y28.4104
G01 X26.4106 Y28.4392
G01 X26.4437 Y28.4665
G01 X26.4779 Y28.4921
G01 X26.5134 Y28.5161
G01 X26.5500 Y28.5384
G01 X26.5876 Y28.5590
G01 X26.6261 Y28.5777
G01 X26.6655 Y28.5945
G01 X26.7056 Y28.6095
G01 X26.7464 Y28.6226
G01 X26.7878 Y28.6336
G01 X26.8297 Y28.6428
G01 X26.8719 Y28.6499
G01 X26.9144 Y28.6549
G01 X26.9572 Y28.6580
G01 X27.0000 Y28.6590
G01 X27.0428 Y28.6580
G01 X27.0855 Y28.6549
G01 X27.1281 Y28.6499
G01 X27.1703 Y28.6428
G01 X27.2122 Y28.6336
G01 X27.2536 Y28.6226
G01 X27.2944 Y28.6095
G01 X27.3345 Y28.5945
G01 X27.3739 Y28.5777
G01 X27.4124 Y28.5590
G01 X27.4500 Y28.5384
G01 X27.4866 Y28.5161
G01 X27.5220 Y28.4921
G01 X27.5563 Y28.4665
G01 X27.5894 Y28.4392
G01 X27.6211 Y28.4104
G01 X27.6514 Y28.3801
G01 X27.6802 Y28.3484
G01 X27.7074 Y28.3154
G01 X27.7331 Y28.2811
G01 X27.7571 Y28.2456
G01 X27.7794 Y28.2090
G01 X27.7999 Y28.1714
G01 X27.8187 Y28.1329
G01 X27.8355 Y28.0935
G01 X27.8505 Y28.0534
G01 X27.8635 Y28.0126
G01 X27.8746 Y27.9712
G01 X27.8837 Y27.9293
G01 X27.8908 Y27.8871
G01 X27.8959 Y27.8446
G01 X27.8990 Y27.8018
G01 X27.9000 Y27.7590
G01 X27.9075 Y27.7280 F1000
G01 X27.9140 Y27.6967
G01 X27.9194 Y27.6652
G01 X27.9237 Y27.6335
G01 X27.9268 Y27.6017
G01 X27.9289 Y27.5698
G01 X27.9299 Y27.5379
G01 X27.9297 Y27.5059
G01 X27.9285 Y27.4740
G01 X27.9261 Y27.4421
G01 X27.9227 Y27.4104
G01 X27.9181 Y27.3787
G01 X27.9084 Y27.3272
G01 X27.8961 Y27.2763
G01 X27.8811 Y27.2261
G01 X27.8636 Y27.1767
G01 X27.8436 Y27.1282
G01 X27.8211 Y27.0809
G01 X27.7962 Y27.0348
G01 X27.7690 Y26.9900
G01 X27.7370 Y26.9430
G01 X27.7026 Y26.8977
G01 X27.6659 Y26.8542
G01 X27.6271 Y26.8126
G01 X27.5861 Y26.7730
G01 X27.5433 Y26.7357
G01 X27.4985 Y26.7005
G01 X27.4520 Y26.6677
G01 X27.4001 Y26.6349
G01 X27.3466 Y26.6047
G01 X27.2917 Y26.5773
G01 X27.2354 Y26.5528
G01 X27.1779 Y26.5311
G01 X27.1194 Y26.5124
G01 X27.0601 Y26.4967
G01 X27.0000 Y26.4840
G01 X26.9349 Y26.4737
G01 X26.8693 Y26.4667
G01 X26.8035 Y26.4630
G01 X26.7376 Y26.4626
G01 X26.6717 Y26.4656
G01 X26.6061 Y26.4719
G01 X26.5409 Y26.4815
G01 X26.4762 Y26.4945
G01 X26.4079 Y26.5117
G01 X26.3405 Y26.5324
G01 X26.2743 Y26.5565
G01 X26.2094 Y26.5838
G01 X26.1459 Y26.6144
G01 X26.0840 Y26.6482
G01 X26.0240 Y26.6850
G01 X25.9659 Y26.7249
G01 X25.9123 Y26.7743
G01 X25.8613 Y26.8263
G01 X25.8129 Y26.8808
G01 X25.7673 Y26.9375
G01 X25.7245 Y26.9965
G01 X25.6846 Y27.0575
G01 X25.6478 Y27.1204
G01 X25.6142 Y27.1850
G01 X25.5877 Y27.2537
G01 X25.5646 Y27.3236
G01 X25.5450 Y27.3946
G01 X25.5288 Y27.4664
G01 X25.5163 Y27.5389
G01 X25.5072 Y27.6120
G01 X25.5018 Y27.6854
G01 X25.5000 Y27.7590
G01 X25.5018 Y27.8326
G01 X25.5072 Y27.9060
G01 X25.5163 Y27.9791
G01 X25.5288 Y28.0516
G01 X25.5450 Y28.1235
G01 X25.5646 Y28.1944
G01 X25.5877 Y28.2643
G01 X25.6142 Y28.3330
G01 X25.6440 Y28.4003
G01 X25.6771 Y28.4661
G01 X25.7134 Y28.5302
G01 X25.7528 Y28.5924
G01 X25.7952 Y28.6526
G01 X25.8405 Y28.7106
G01 X25.8886 Y28.7663
G01 X25.9394 Y28.8197
G01 X25.9927 Y28.8704
G01 X26.0484 Y28.9185
G01 X26.1065 Y28.9638
G01 X26.1667 Y29.0062
G01 X26.2289 Y29.0456
G01 X26.2929 Y29.0819
G01 X26.3587 Y29.1150
G01 X26.4260 Y29.1448
G01 X26.4947 Y29.1713
G01 X26.5646 Y29.1944
G01 X26.6355 Y29.2140
G01 X26.7074 Y29.2302
G01 X26.7799 Y29.2428
G01 X26.8530 Y29.2518
G01 X26.9264 Y29.2572
G01 X27.0000 Y29.2590
G01 X27.0736 Y29.2572
G01 X27.1470 Y29.2518
G01 X27.2201 Y29.2428
G01 X27.2926 Y29.2302
G01 X27.3645 Y29.2140
G01 X27.4354 Y29.1944
G01 X27.5053 Y29.1713
G01 X27.5740 Y29.1448
G01 X27.6413 Y29.1150
G01 X27.7071 Y29.0819
G01 X27.7711 Y29.0456
G01 X27.8333 Y29.0062
G01 X27.8935 Y28.9638
G01 X27.9516 Y28.9185
G01 X28.0073 Y28.8704
G01 X28.0606 Y28.8197
G01 X28.1114 Y28.7663
G01 X28.1595 Y28.7106
G01 X28.2048 Y28.6526
G01 X28.2472 Y28.5924
G01 X28.2866 Y28.5302
G01 X28.3229 Y28.4661
G01 X28.3560 Y28.4003
G01 X28.3858 Y28.3330
G01 X28.4123 Y28.2643
G01 X28.4354 Y28.1944
G01 X28.4550 Y28.1235
G01 X28.4712 Y28.0516
G01 X28.4837 Y27.9791
G01 X28.4928 Y27.9060
G01 X28.4982 Y27.8326
G01 X28.5000 Y27.7590
G01 X28.4958 Y27.6469
G01 X28.4832 Y27.5355
G01 X28.4624 Y27.4252
G01 X28.4333 Y27.3169
G01 X28.3963 Y27.2110
G01 X28.3514 Y27.1082
G01 X28.2990 Y27.0090
G01 X28.2393 Y26.9140
G01 X28.1727 Y26.8238
G01 X28.0996 Y26.7388
G01 X28.0202 Y26.6595
G01 X27.9352 Y26.5863
G01 X27.8450 Y26.5197
G01 X27.7500 Y26.4600
G01 X27.6508 Y26.4076
G01 X27.5480 Y26.3627
G01 X27.4421 Y26.3257
G01 X27.3338 Y26.2966
G01 X27.2236 Y26.2758
G01 X27.1121 Y26.2632
G01 X27.0000 Y26.2590
G01 X26.8879 Y26.2632
G01 X26.7764 Y26.2758
G01 X26.6662 Y26.2966
G01 X26.5579 Y26.3257
G01 X26.4520 Y26.3627
G01 X26.3492 Y26.4076
G01 X26.2500 Y26.4600
G01 X26.1550 Y26.5197
G01 X26.0648 Y26.5863
G01 X25.9798 Y26.6595
G01 X25.9004 Y26.7388
G01 X25.8273 Y26.8238
G01 X25.7607 Y26.9140
G01 X25.7010 Y27.0090
G01 X25.6486 Y27.1082
G01 X25.6037 Y27.2110
G01 X25.5667 Y27.3169
G01 X25.5376 Y27.4252
G01 X25.5168 Y27.5355
G01 X25.5042 Y27.6469
G01 X25.5000 Y27.7590
G01 X25.5042 Y27.8711
G01 X25.5168 Y27.9826
G01 X25.5376 Y28.0928
G01 X25.5667 Y28.2011
G01 X25.6037 Y28.3070
G01 X25.6486 Y28.4098
G01 X25.7010 Y28.5090
G01 X25.7607 Y28.6040
G01 X25.8273 Y28.6942
G01 X25.9004 Y28.7793
G01 X25.9798 Y28.8586
G01 X26.0648 Y28.9317
G01 X26.1550 Y28.9984
G01 X26.2500 Y29.0580
G01 X26.3492 Y29.1105
G01 X26.4520 Y29.1553
G01 X26.5579 Y29.1924
G01 X26.6662 Y29.2214
G01 X26.7764 Y29.2422
G01 X26.8879 Y29.2548
G01 X27.0000 Y29.2590
G01 X27.1121 Y29.2548
G01 X27.2236 Y29.2422
G01 X27.3338 Y29.2214
G01 X27.4421 Y29.1924
G01 X27.5480 Y29.1553
G01 X27.6508 Y29.1105
G01 X27.7500 Y29.0580
G01 X27.8450 Y28.9984
G01 X27.9352 Y28.9317
G01 X28.0202 Y28.8586
G01 X28.0996 Y28.7793
G01 X28.1727 Y28.6942
G01 X28.2393 Y28.6040
G01 X28.2990 Y28.5090
G01 X28.3514 Y28.4098
G01 X28.3963 Y28.3070
G01 X28.4333 Y28.2011
G01 X28.4624 Y28.0928
G01 X28.4832 Y27.9826
G01 X28.4958 Y27.8711
G01 X28.5000 Y27.7590
M107
M106 S240
G01 X28.4969 Y27.6806 Z-5.9750 F400
M107
M106 S240
G01 X28.4877 Y27.6026 Z-5.9500
M107
M106 S240
G01 X28.4723 Y27.5256 Z-5.9250
M107
M106 S240
G01 X28.4510 Y27.4500 Z-5.9000
M107
M106 S240
G01 X28.4239 Y27.3763 Z-5.8750
M107
M106 S240
G01 X28.3910 Y27.3050 Z-5.8500
M107
M106 S240
G01 X28.3526 Y27.2365 Z-5.8250
M107
M106 S240
G01 X28.3090 Y27.1712 Z-5.8000
M107
M106 S240
G01 X28.2604 Y27.1096 Z-5.7750
M107
M106 S240
G01 X28.2071 Y27.0519 Z-5.7500
M107
M106 S240
G01 X28.1494 Y26.9986 Z-5.7250
M107
M106 S240
G01 X28.0878 Y26.9500 Z-5.7000
M107
M106 S240
G01 X28.0225 Y26.9064 Z-5.6750
M107
M106 S240
G01 X27.9540 Y26.8680 Z-5.6500
M107
M106 S240
G01 X27.8827 Y26.8351 Z-5.6250
M107
M106 S240
G01 X27.8090 Y26.8080 Z-5.6000
M107
M106 S240
G01 X27.7334 Y26.7866 Z-5.5750
M107
M106 S240
G01 X27.6564 Y26.7713 Z-5.5500
M107
M106 S240
G01 X27.5784 Y26.7621 Z-5.5250
M107
M106 S240
G01 X27.5000 Y26.7590 Z-5.5000
M107
G00 Z2.0000


;No. 2: Hole 22
G00 X30.6100 Y34.8993 Z2.0000
G00 Z0.5000
G01 Z0.0000 F400
G01 Z-1.2000
M106 S240
G01 X105.8519 F1000
G01 X106.0514 Y34.9172
G01 X106.0536 Y34.4964
G01 X106.0465 Y34.0757
G01 X106.0301 Y33.6552
G01 X106.0045 Y33.2351
G01 X30.4287 Y33.2349
G01 X30.3949 Y33.8294
G01 X30.3947 Y34.4248
G01 X30.4280 Y35.0194
G01 X30.4947 Y35.6111
G01 X30.4981 Y35.6485
G01 X30.5032 Y35.6857
G01 X30.5102 Y35.7226
G01 X30.5189 Y35.7592
G01 X30.5294 Y35.7953
G01 X30.5416 Y35.8308
G01 X30.5555 Y35.8657
G01 X30.5710 Y35.8999
G01 X30.5882 Y35.9333
G01 X30.6070 Y35.9659
G01 X30.6274 Y35.9975
G01 X30.6492 Y36.0281
G01 X30.6725 Y36.0575
G01 X30.6972 Y36.0859
G01 X30.7232 Y36.1130
G01 X30.7505 Y36.1388
G01 X30.7790 Y36.1633
G01 X30.8086 Y36.1864
G01 X30.8393 Y36.2080
G01 X30.8711 Y36.2281
G01 X31.0651 Y36.2980
G01 X31.2621 Y36.3587
G01 X31.4618 Y36.4103
G01 X31.6636 Y36.4524
G01 X31.8672 Y36.4852
G01 X32.0721 Y36.5085
G01 X32.2778 Y36.5222
G01 X32.4840 Y36.5263
G01 X32.9736 Y36.5449
G01 X33.4634 Y36.5573
G01 X33.9533 Y36.5636
G01 X34.4433 Y36.5637
G01 X102.1197 Y36.5635
G01 X102.8709 Y36.5707
G01 X103.6218 Y36.5488
G01 X104.3713 Y36.4977
G01 X105.1183 Y36.4175
G01 X105.2107 Y36.4077
G01 X105.3020 Y36.3902
G01 X105.3915 Y36.3652
G01 X105.4786 Y36.3329
G01 X105.5627 Y36.2934
G01 X105.6433 Y36.2470
G01 X105.7197 Y36.1941
G01 X105.7914 Y36.1350
G01 X105.8335 Y36.0590
G01 X105.8719 Y35.9811
G01 X105.9066 Y35.9015
G01 X105.9375 Y35.8203
G01 X105.9645 Y35.7377
G01 X105.9876 Y35.6540
G01 X106.0068 Y35.5693
G01 X106.0219 Y35.4837
G01 X106.0329 Y35.3976
G01 X106.0399 Y35.3110
G01 X106.0428 Y35.2242
G01 X106.0416 Y35.1373
G01 X106.0448 Y35.0823
G01 X106.0475 Y35.0273
G01 X106.0497 Y34.9723
G01 X106.0514 Y34.9172
G01 X105.8519 Y34.8993
M107
G00 Z2.0000


;No. 3: Hole 50
G00 X102.5989 Y42.2753 Z2.0000
G00 Z0.5000
G01 Z0.0000 F400
G01 Z-1.2000
M106 S240
G01 X33.8646 F1000
G01 X33.7523 Y43.7753
G01 X35.4013
G01 X35.3122 Y45.2753
G01 X33.7062
G01 X33.8742 Y46.7753
G01 X35.5640
G01 X34.7572 Y48.2753
G01 X46.7215
G01 X47.1834 Y49.7753
G01 X45.0336
G01 X45.5848
G01 Y51.2753
G01 X47.1852
G01 X47.1871 Y52.7753
G01 X45.5866
G01 X45.5886 Y54.2753
G01 X47.1890
G01 X47.1909 Y55.7753
G01 X45.5905
G01 X45.5925 Y57.2753
G01 X47.1929
G01 X47.1949 Y58.7753
G01 X45.5945
G01 X45.5966 Y60.2753
G01 X47.1970
G01 X47.1990 Y61.7753
G01 X45.5986
G01 X45.6006 Y63.2753
G01 X47.2011
G01 X47.2031 Y64.7753
G01 X45.6027
G01 X45.6047 Y66.2753
G01 X47.2051
G01 X47.2071 Y67.7753
G01 X45.6067
G01 X45.6086 Y69.2753
G01 X47.2090
G01 X47.2109 Y70.7753
G01 X45.6105
G01 X45.6123 Y72.2753
G01 X47.2128
G01 X47.2146 Y73.7753
G01 X45.6141
G01 X45.6158 Y75.2753
G01 X47.2163
G01 X47.2179 Y76.7753
G01 X45.6174
G01 X45.6189 Y78.2753
G01 X47.2194
G01 X47.2208 Y79.7753
G01 X45.6204
G01 X45.6217 Y81.2753
G01 X47.2221
G01 X47.2233 Y82.7753
G01 X45.6229
G01 X45.6239 Y84.2753
G01 X47.2244
G01 X47.2253 Y85.7753
G01 X45.6248
G01 X45.6256 Y87.2753
G01 X47.2261
G01 X47.2267 Y88.7753
G01 X45.6262
G01 X45.6267 Y90.2753
G01 X47.2272
G01 X47.2274 Y91.7753
G01 X45.6269
G01 X45.6270 Y93.2753
G01 X47.2275
G01 X47.2274 Y94.7753
G01 X45.6269
G01 X45.6266 Y96.2753
G01 X47.2271
G01 X47.2266 Y97.7753
G01 X45.6261
G01 X45.6254 Y99.2753
G01 X47.2259
G01 X47.2249 Y100.7753
G01 X45.6244
G01 X45.6232 Y102.2753
G01 X47.2237
G01 X47.2223 Y103.7753
G01 X45.6218
G01 X45.6201 Y105.2753
G01 X47.2206
G01 X47.2186 Y106.7753
G01 X45.6181
G01 X45.6158 Y108.2753
G01 X47.2163
G01 X47.2138 Y109.7753
G01 X45.6133
G01 X45.6105 Y111.2753
G01 X47.2110
G01 X47.2079 Y112.7753
G01 X45.6073
G01 X45.6039 Y114.2753
G01 X47.2044
G01 X47.2007 Y115.7753
G01 X45.6001
G01 X45.5960 Y117.2753
G01 X47.1966
G01 X47.1921 Y118.7753
G01 X45.5916
G01 X45.5868 Y120.2753
G01 X47.1874
G01 X47.1822 Y121.7753
G01 X45.5817
G01 X45.5762 Y123.2753
G01 X47.1767
G01 X47.1709 Y124.7753
G01 X45.5703
G01 X45.5641 Y126.2753
G01 X47.1646
G01 X47.1580 Y127.7753
G01 X45.5574
G01 X45.5048 Y129.2753
G01 X47.1115
G01 X46.8107 Y130.7753
G01 X45.0820
G01 X45.9325 Y132.2753
G01 X40.6412
G01 X40.6208 Y133.7753
G01 X42.5674
G01 X42.1743
G01 Y135.2753
G01 X40.5941
G01 X40.5613 Y136.7753
G01 X42.1422
G01 X42.1051 Y138.2753
G01 X40.5229
G01 X40.4793 Y139.7753
G01 X42.0634
G01 X42.0173 Y141.2753
G01 X40.4311
G01 X40.3788 Y142.7753
G01 X41.9673
G01 X41.9138 Y144.2753
G01 X40.3229
G01 X40.2639 Y145.7753
G01 X41.8571
G01 X41.7977 Y147.2753
G01 X40.2022
G01 X40.1383 Y148.7753
G01 X41.7359
G01 X41.6721 Y150.2753
G01 X40.0728
G01 X40.0061 Y151.7753
G01 X41.6067
G01 X41.5401 Y153.2753
G01 X39.9387
G01 X39.8966 Y154.7753
G01 X41.4976
G01 X41.8348 Y156.2753
G01 X40.1225
G01 X40.9232 Y157.7753
G01 X44.6406
G01 X43.9672 Y159.2753
G01 X52.5193
G01 X51.7522 Y160.7753
G01 X86.7695
G01 X86.0172 Y159.2753
G01 X93.7664
G01 X93.1817 Y157.7753
G01 X96.3979
G01 X97.1036 Y156.2753
G01 X95.3816
G01 X95.5908 Y154.7753
G01 X97.2656
G01 X97.2649 Y153.2753
G01 X95.6498
G01 X95.6490 Y151.7753
G01 X97.2490
G01 X97.2379 Y150.2753
G01 X95.6379
G01 X95.6268 Y148.7753
G01 X97.2268
G01 X97.2158 Y147.2753
G01 X95.6157
G01 X95.6045 Y145.7753
G01 X97.2047
G01 X97.1936 Y144.2753
G01 X95.5934
G01 X95.5823 Y142.7753
G01 X97.1825
G01 X97.1714 Y141.2753
G01 X95.5711
G01 X95.5600 Y139.7753
G01 X97.1604
G01 X97.1493 Y138.2753
G01 X95.5489
G01 X95.5377 Y136.7753
G01 X97.1382
G01 X97.1271 Y135.2753
G01 X95.5266
G01 Y133.7753
G01 X95.1400
G01 X97.1160
G01 X97.1049 Y132.2753
G01 X91.6537
G01 X92.4719 Y130.7753
G01 X90.6590
G01 X90.2434 Y129.2753
G01 X91.8844
G01 X91.6755 Y127.7753
G01 X90.0693
G01 X90.0436 Y126.2753
G01 X91.6433
G01 X91.6453 Y124.7753
G01 X90.0456
G01 X90.0475 Y123.2753
G01 X91.6472
G01 X91.6490 Y121.7753
G01 X90.0492
G01 X90.0509 Y120.2753
G01 X91.6507
G01 X91.6522 Y118.7753
G01 X90.0525
G01 X90.0539 Y117.2753
G01 X91.6537
G01 X91.6550 Y115.7753
G01 X90.0553
G01 X90.0565 Y114.2753
G01 X91.6563
G01 X91.6575 Y112.7753
G01 X90.0577
G01 X90.0588 Y111.2753
G01 X91.6585
G01 X91.6595 Y109.7753
G01 X90.0598
G01 X90.0607 Y108.2753
G01 X91.6605
G01 X91.6613 Y106.7753
G01 X90.0615
G01 X90.0623 Y105.2753
G01 X91.6621
G01 X91.6628 Y103.7753
G01 X90.0630
G01 X90.0636 Y102.2753
G01 X91.6634
G01 X91.6640 Y100.7753
G01 X90.0642
G01 X90.0647 Y99.2753
G01 X91.6645
G01 X91.6649 Y97.7753
G01 X90.0651
G01 X90.0655 Y96.2753
G01 X91.6653
G01 X91.6657 Y94.7753
G01 X90.0659
G01 X90.0662 Y93.2753
G01 X91.6660
G01 X91.6663 Y91.7753
G01 X90.0665
G01 X90.0667 Y90.2753
G01 X91.6665
G01 X91.6667 Y88.7753
G01 X90.0669
G01 X90.0671 Y87.2753
G01 X91.6669
G01 X91.6670 Y85.7753
G01 X90.0672
G01 X90.0673 Y84.2753
G01 X91.6671
G01 X91.6672 Y82.7753
G01 X90.0674
G01 X90.0675 Y81.2753
G01 X91.6673
G01 X91.6674 Y79.7753
G01 X90.0676
G01 X90.0677 Y78.2753
G01 X91.6675
G01 X91.6676 Y76.7753
G01 X90.0677
G01 X90.0678 Y75.2753
G01 X91.6676
G01 X91.6677 Y73.7753
G01 X90.0679
G01 X90.0680 Y72.2753
G01 X91.6678
G01 X91.6679 Y70.7753
G01 X90.0681
G01 X90.0682 Y69.2753
G01 X91.6680
G01 X91.6681 Y67.7753
G01 X90.0683
G01 X90.0684 Y66.2753
G01 X91.6683
G01 X91.6684 Y64.7753
G01 X90.0686
G01 X90.0688 Y63.2753
G01 X91.6687
G01 X91.6689 Y61.7753
G01 X90.0691
G01 X90.0693 Y60.2753
G01 X91.6692
G01 X91.6695 Y58.7753
G01 X90.0696
G01 X90.0700 Y57.2753
G01 X91.6698
G01 X91.6702 Y55.7753
G01 X90.0704
G01 X90.0709 Y54.2753
G01 X91.6707
G01 X91.6712 Y52.7753
G01 X90.0714
G01 X90.0821 Y51.2753
G01 X91.7037
G01 Y49.7753
G01 X92.2857
G01 X90.1740
G01 X90.2764 Y48.2753
G01 X101.4524
G01 X100.7104 Y46.7753
G01 X102.4951
G01 X102.7432 Y45.2753
G01 X100.9778
G01 X100.9979 Y43.7753
G01 X100.7954 Y43.7629
G01 X100.7987 Y44.4011
G01 X100.7855 Y45.0392
G01 X100.7555 Y45.6767
G01 X100.7090 Y46.3132
G01 X100.6780 Y46.4082
G01 X100.6390 Y46.5002
G01 X100.5922 Y46.5885
G01 X100.5381 Y46.6725
G01 X100.4769 Y46.7516
G01 X100.4092 Y46.8251
G01 X100.3355 Y46.8925
G01 X100.2562 Y46.9534
G01 X100.1721 Y47.0073
G01 X100.0836 Y47.0537
G01 X99.9915 Y47.0924
G01 X99.8964 Y47.1231
G01 X99.2524 Y47.3201
G01 X98.5997 Y47.4860
G01 X97.9398 Y47.6205
G01 X97.2742 Y47.7232
G01 X97.1582 Y47.7430
G01 X97.0416 Y47.7597
G01 X96.9247 Y47.7732
G01 X96.8074 Y47.7836
G01 X90.1136
G01 X90.0329 Y48.7771
G01 X89.9658 Y49.7717
G01 X89.9121 Y50.7671
G01 X89.8721 Y51.7631
G01 X89.8716 Y52.5408
G01 X89.8712 Y53.3185
G01 X89.8709 Y54.0961
G01 X89.8707 Y54.8738
G01 X89.8704 Y55.6279
G01 X89.8702 Y56.3820
G01 X89.8700 Y57.1361
G01 X89.8698 Y57.8902
G01 X89.8697 Y58.6443
G01 X89.8695 Y59.3984
G01 X89.8694 Y60.1525
G01 X89.8692 Y60.9065
G01 X89.8691 Y61.6606
G01 X89.8690 Y62.4147
G01 X89.8688 Y63.1688
G01 X89.8687 Y63.9229
G01 X89.8686 Y64.6770
G01 X89.8685 Y65.4311
G01 Y66.1852
G01 X89.8684 Y66.9393
G01 X89.8683 Y67.6934
G01 X89.8682 Y68.4475
G01 Y69.2016
G01 X89.8681 Y69.9557
G01 Y70.7098
G01 X89.8680 Y71.4639
G01 Y72.2180
G01 X89.8679 Y72.9721
G01 Y73.7262
G01 Y74.4803
G01 X89.8678 Y75.2344
G01 Y75.9885
G01 Y76.7426
G01 X89.8677 Y77.4967
G01 Y78.2508
G01 X89.8676 Y79.0049
G01 Y79.7590
G01 Y80.5131
G01 X89.8675 Y81.2672
G01 Y82.0213
G01 X89.8674 Y82.7754
G01 Y83.5295
G01 X89.8673 Y84.2836
G01 Y85.0378
G01 X89.8672 Y85.7919
G01 X89.8671 Y86.5460
G01 Y87.3001
G01 X89.8670 Y88.0542
G01 X89.8669 Y88.8083
G01 X89.8668 Y89.5624
G01 X89.8667 Y90.3165
G01 X89.8666 Y91.0707
G01 X89.8664 Y91.8248
G01 X89.8663 Y92.5789
G01 X89.8662 Y93.3330
G01 X89.8660 Y94.0871
G01 X89.8659 Y94.8412
G01 X89.8657 Y95.5954
G01 X89.8655 Y96.3495
G01 X89.8653 Y97.1036
G01 X89.8651 Y97.8577
G01 X89.8649 Y98.6118
G01 X89.8646 Y99.3660
G01 X89.8644 Y100.1201
G01 X89.8641 Y100.8742
G01 X89.8638 Y101.6283
G01 X89.8636 Y102.3825
G01 X89.8632 Y103.1366
G01 X89.8629 Y103.8907
G01 X89.8626 Y104.6448
G01 X89.8622 Y105.3990
G01 X89.8618 Y106.1531
G01 X89.8614 Y106.9072
G01 X89.8610 Y107.6613
G01 X89.8606 Y108.4155
G01 X89.8601 Y109.1696
G01 X89.8597 Y109.9237
G01 X89.8592 Y110.6779
G01 X89.8587 Y111.4320
G01 X89.8581 Y112.1861
G01 X89.8576 Y112.9403
G01 X89.8570 Y113.6944
G01 X89.8564 Y114.4485
G01 X89.8558 Y115.2027
G01 X89.8551 Y115.9568
G01 X89.8544 Y116.7109
G01 X89.8537 Y117.4651
G01 X89.8530 Y118.2192
G01 X89.8523 Y118.9733
G01 X89.8515 Y119.7275
G01 X89.8507 Y120.4816
G01 X89.8498 Y121.2358
G01 X89.8490 Y121.9899
G01 X89.8481 Y122.7440
G01 X89.8472 Y123.4982
G01 X89.8463 Y124.2523
G01 X89.8453 Y125.0065
G01 X89.8443 Y125.7606
G01 X89.8377 Y126.1494
G01 X89.8353 Y126.5383
G01 X89.8371 Y126.9272
G01 X89.8432 Y127.3160
G01 X89.8570 Y127.7639
G01 X89.8892 Y128.2108
G01 X89.9399 Y128.6560
G01 X90.0089 Y129.0988
G01 X90.0961 Y129.5383
G01 X90.2013 Y129.9739
G01 X90.3244 Y130.4047
G01 X90.4652 Y130.8301
G01 X90.6104 Y131.1718
G01 X90.7848 Y131.4996
G01 X90.9870 Y131.8109
G01 X91.2156 Y132.1035
G01 X91.4687 Y132.3751
G01 X91.7445 Y132.6236
G01 X92.0409 Y132.8472
G01 X92.3556 Y133.0442
G01 X92.6862 Y133.2130
G01 X93.0303 Y133.3524
G01 X93.3853 Y133.4614
G01 X93.7483 Y133.5391
G01 X93.9690 Y133.5795
G01 X94.1897 Y133.6201
G01 X94.4103 Y133.6606
G01 X94.6310 Y133.7012
G01 X94.7042 Y133.7282
G01 X94.7752 Y133.7608
G01 X94.8433 Y133.7989
G01 X94.9083 Y133.8421
G01 X94.9697 Y133.8903
G01 X95.0271 Y133.9432
G01 X95.0802 Y134.0003
G01 X95.1288 Y134.0615
G01 X95.1724 Y134.1262
G01 X95.2108 Y134.1941
G01 X95.2439 Y134.2648
G01 X95.2713 Y134.3379
G01 X95.2929 Y134.4129
G01 X95.3086 Y134.4894
G01 X95.3183 Y134.5668
G01 X95.3219 Y134.6448
G01 X95.3705 Y139.1497
G01 X95.4087 Y143.6547
G01 X95.4367 Y148.1598
G01 X95.4543 Y152.6650
G01 X95.4519 Y153.5187
G01 X95.4140 Y154.3716
G01 X95.3407 Y155.2221
G01 X95.2320 Y156.0689
G01 X95.2154 Y156.1548
G01 X95.1933 Y156.2395
G01 X95.1659 Y156.3227
G01 X95.1331 Y156.4038
G01 X95.0952 Y156.4827
G01 X95.0523 Y156.5590
G01 X95.0045 Y156.6324
G01 X94.9522 Y156.7026
G01 X94.8954 Y156.7693
G01 X94.8345 Y156.8321
G01 X94.7697 Y156.8909
G01 X94.7012 Y156.9455
G01 X94.6293 Y156.9955
G01 X94.5544 Y157.0408
G01 X94.4767 Y157.0811
G01 X94.3966 Y157.1164
G01 X93.8110 Y157.3516
G01 X93.2144 Y157.5573
G01 X92.6083 Y157.7332
G01 X91.9942 Y157.8788
G01 X90.5853 Y158.1994
G01 X89.1711 Y158.4957
G01 X87.7521 Y158.7677
G01 X86.3285 Y159.0152
G01 X84.9010 Y159.2382
G01 X83.4698 Y159.4365
G01 X82.0353 Y159.6103
G01 X80.5982 Y159.7593
G01 X79.1586 Y159.8836
G01 X77.7172 Y159.9831
G01 X76.2742 Y160.0578
G01 X74.8302 Y160.1076
G01 X72.7978 Y160.1479
G01 X70.7651 Y160.1635
G01 X68.7324 Y160.1543
G01 X66.6999 Y160.1204
G01 X64.6680 Y160.0618
G01 X62.6370 Y159.9785
G01 X60.6071 Y159.8704
G01 X58.5787 Y159.7377
G01 X57.4025 Y159.6561
G01 X56.2280 Y159.5528
G01 X55.0557 Y159.4278
G01 X53.8858 Y159.2812
G01 X52.7188 Y159.1131
G01 X51.5552 Y158.9234
G01 X50.3952 Y158.7123
G01 X49.2393 Y158.4799
G01 X48.1871 Y158.2722
G01 X47.1349 Y158.0642
G01 X46.0828 Y157.8559
G01 X45.0307 Y157.6473
G01 X44.5623 Y157.5692
G01 X44.0972 Y157.4730
G01 X43.6362 Y157.3589
G01 X43.1799 Y157.2270
G01 X43.0681 Y157.1803
G01 X42.9590 Y157.1275
G01 X42.8528 Y157.0689
G01 X42.7500 Y157.0047
G01 X42.6509 Y156.9350
G01 X42.5556 Y156.8600
G01 X42.4646 Y156.7800
G01 X42.3780 Y156.6952
G01 X42.2961 Y156.6058
G01 X42.2192 Y156.5121
G01 X42.1475 Y156.4144
G01 X42.0811 Y156.3129
G01 X42.0204 Y156.2080
G01 X41.9654 Y156.1000
G01 X41.9164 Y155.9892
G01 X41.8734 Y155.8758
G01 X41.8367 Y155.7603
G01 X41.8062 Y155.6430
G01 X41.7822 Y155.5242
G01 X41.7646 Y155.4042
G01 X41.7145 Y154.9051
G01 X41.6927 Y154.4039
G01 X41.6994 Y153.9023
G01 X41.7346 Y153.4019
G01 X41.9445 Y148.6808
G01 X42.1257 Y143.9585
G01 X42.2780 Y139.2352
G01 X42.4016 Y134.5110
G01 X42.4194 Y134.4203
G01 X42.4453 Y134.3316
G01 X42.4790 Y134.2455
G01 X42.5202 Y134.1628
G01 X42.5686 Y134.0841
G01 X42.6238 Y134.0099
G01 X42.6854 Y133.9410
G01 X42.7529 Y133.8779
G01 X42.8257 Y133.8210
G01 X42.9033 Y133.7708
G01 X42.9851 Y133.7277
G01 X43.0704 Y133.6921
G01 X43.1585 Y133.6643
G01 X43.2488 Y133.6443
G01 X43.3404 Y133.6325
G01 X43.4328 Y133.6289
G01 X43.7671 Y133.5801
G01 X44.0970 Y133.5072
G01 X44.4207 Y133.4104
G01 X44.7365 Y133.2904
G01 X45.0428 Y133.1477
G01 X45.3379 Y132.9831
G01 X45.6202 Y132.7976
G01 X45.8883 Y132.5919
G01 X46.1437 Y132.3294
G01 X46.3761 Y132.0462
G01 X46.5837 Y131.7444
G01 X46.7652 Y131.4262
G01 X46.9191 Y131.0938
G01 X47.0443 Y130.7495
G01 X47.1401 Y130.3960
G01 X47.2057 Y130.0356
G01 X47.2871 Y129.4952
G01 X47.3396 Y128.9512
G01 X47.3632 Y128.4053
G01 X47.3576 Y127.8588
G01 X47.3748 Y123.0356
G01 X47.3897 Y118.2123
G01 X47.4023 Y113.3890
G01 X47.4125 Y108.5658
G01 X47.4204 Y103.7425
G01 X47.4259 Y98.9192
G01 X47.4291 Y94.0959
G01 X47.4300 Y89.2726
G01 X47.4285 Y84.4493
G01 X47.4246 Y79.6260
G01 X47.4185 Y74.8027
G01 X47.4099 Y69.9794
G01 X47.4089 Y69.1865
G01 X47.4079 Y68.3936
G01 X47.4069 Y67.6006
G01 X47.4058 Y66.8077
G01 X47.4048 Y66.0148
G01 X47.4037 Y65.2218
G01 X47.4026 Y64.4289
G01 X47.4016 Y63.6359
G01 X47.4005 Y62.8430
G01 X47.3994 Y62.0501
G01 X47.3983 Y61.2571
G01 X47.3972 Y60.4642
G01 X47.3962 Y59.6712
G01 X47.3951 Y58.8782
G01 X47.3940 Y58.0853
G01 X47.3930 Y57.2923
G01 X47.3919 Y56.4994
G01 X47.3908 Y55.7064
G01 X47.3898 Y54.9134
G01 X47.3888 Y54.1205
G01 X47.3878 Y53.3275
G01 X47.3868 Y52.5346
G01 X47.3858 Y51.7416
G01 X47.3848 Y50.9486
G01 X47.3839 Y50.1556
G01 X47.4062 Y49.8891
G01 X47.4092 Y49.6216
G01 X47.3928 Y49.3545
G01 X47.3573 Y49.0894
G01 X47.3447 Y49.0333
G01 X47.3291 Y48.9781
G01 X47.3104 Y48.9237
G01 X47.2886 Y48.8706
G01 X47.2639 Y48.8187
G01 X47.2363 Y48.7683
G01 X47.2059 Y48.7196
G01 X47.1728 Y48.6726
G01 X46.9512 Y48.2822
G01 X46.6627 Y47.7347
G01 X45.3170 Y47.7233
G01 X43.9712 Y47.7215
G01 X42.6254 Y47.7293
G01 X41.2798 Y47.7468
G01 X40.9929 Y47.7463
G01 X40.7060 Y47.7377
G01 X40.4196 Y47.7209
G01 X40.1338 Y47.6958
G01 X39.3496 Y47.6433
G01 X38.5674 Y47.5666
G01 X37.7879 Y47.4660
G01 X37.0118 Y47.3415
G01 X36.8678 Y47.3148
G01 X36.7254 Y47.2800
G01 X36.5852 Y47.2373
G01 X36.4476 Y47.1869
G01 X36.3130 Y47.1289
G01 X36.1819 Y47.0636
G01 X36.0546 Y46.9910
G01 X35.9315 Y46.9114
G01 X35.8761 Y46.8531
G01 X35.8246 Y46.7914
G01 X35.7771 Y46.7266
G01 X35.7338 Y46.6588
G01 X35.6949 Y46.5884
G01 X35.6606 Y46.5157
G01 X35.6310 Y46.4410
G01 X35.6062 Y46.3645
G01 X35.5864 Y46.2866
G01 X35.5715 Y46.2076
G01 X35.5618 Y46.1278
G01 X35.5571 Y46.0475
G01 X35.5265 Y45.5376
G01 X35.5213 Y45.0267
G01 X35.5414 Y44.5162
G01 X35.5869 Y44.0074
G01 X35.5812 Y43.9220
G01 X35.5827 Y43.8364
G01 X35.5914 Y43.7513
G01 X35.6071 Y43.6672
G01 X35.6297 Y43.5847
G01 X35.6591 Y43.5043
G01 X35.6952 Y43.4267
G01 X35.7376 Y43.3524
G01 X35.7860 Y43.2818
G01 X35.8401 Y43.2156
G01 X35.8996 Y43.1540
G01 X35.9640 Y43.0977
G01 X36.0328 Y43.0469
G01 X36.1057 Y43.0020
G01 X36.1820 Y42.9633
G01 X36.2613 Y42.9311
G01 X36.3430 Y42.9057
G01 X36.4265 Y42.8871
G01 X36.5113 Y42.8756
G01 X36.5968 Y42.8712
G01 X99.8025 Y42.8752
G01 X99.8481 Y42.8762
G01 X99.8935 Y42.8793
G01 X99.9388 Y42.8844
G01 X99.9838 Y42.8917
G01 X100.0284 Y42.9009
G01 X100.0725 Y42.9122
G01 X100.1161 Y42.9255
G01 X100.1590 Y42.9408
G01 X100.2012 Y42.9580
G01 X100.2425 Y42.9771
G01 X100.2830 Y42.9981
G01 X100.3224 Y43.0209
G01 X100.3608 Y43.0454
G01 X100.3980 Y43.0718
G01 X100.4339 Y43.0997
G01 X100.4686 Y43.1293
G01 X100.5019 Y43.1604
G01 X100.5337 Y43.1931
G01 X100.5639 Y43.2271
G01 X100.5926 Y43.2625
G01 X100.6197 Y43.2991
G01 X100.6451 Y43.3370
G01 X100.6687 Y43.3760
G01 X100.6905 Y43.4160
G01 X100.7104 Y43.4569
G01 X100.7285 Y43.4987
G01 X100.7446 Y43.5413
G01 X100.7588 Y43.5846
G01 X100.7710 Y43.6285
G01 X100.7811 Y43.6729
G01 X100.7893 Y43.7178
G01 X100.7954 Y43.7629
G01 X101.3218 Y43.7908
G01 X101.8488 Y43.8000
G01 X102.3759 Y43.7905
G01 X102.9023 Y43.7625
G01 X102.8516 Y43.0401
G01 X102.8035 Y42.3175
G01 X102.7577 Y41.5948
G01 X102.7145 Y40.8719
G01 X33.7772
G01 X33.6749 Y41.9611
G01 X33.5955 Y43.0522
G01 X33.5391 Y44.1448
G01 X33.5056 Y45.2383
G01 X33.5010 Y45.5534
G01 X33.5163 Y45.8683
G01 X33.5513 Y46.1815
G01 X33.6060 Y46.4919
G01 X33.6801 Y46.7983
G01 X33.7734 Y47.0994
G01 X33.8854 Y47.3940
G01 X34.0157 Y47.6810
G01 X34.1953 Y47.9477
G01 X34.4003 Y48.1953
G01 X34.6289 Y48.4214
G01 X34.8787 Y48.6237
G01 X35.1473 Y48.8004
G01 X35.4321 Y48.9496
G01 X35.7302 Y49.0698
G01 X36.0388 Y49.1600
G01 X36.4634 Y49.2584
G01 X36.8903 Y49.3468
G01 X37.3191 Y49.4249
G01 X37.7496 Y49.4929
G01 X38.1817 Y49.5507
G01 X38.6150 Y49.5982
G01 X39.0492 Y49.6355
G01 X39.4843 Y49.6624
G01 X40.1064 Y49.7108
G01 X40.7291 Y49.7498
G01 X41.3523 Y49.7795
G01 X41.9759 Y49.7998
G01 X42.5997 Y49.8107
G01 X43.2237 Y49.8123
G01 X43.8476 Y49.8045
G01 X44.4713 Y49.7872
G01 X44.5173 Y49.7924
G01 X44.5631 Y49.7996
G01 X44.6084 Y49.8089
G01 X44.6533 Y49.8203
G01 X44.6976 Y49.8338
G01 X44.7413 Y49.8494
G01 X44.7841 Y49.8669
G01 X44.8261 Y49.8864
G01 X44.8672 Y49.9078
G01 X44.9072 Y49.9312
G01 X44.9461 Y49.9563
G01 X44.9838 Y49.9832
G01 X45.0203 Y50.0118
G01 X45.0553 Y50.0421
G01 X45.0889 Y50.0740
G01 X45.1210 Y50.1074
G01 X45.1515 Y50.1422
G01 X45.1804 Y50.1785
G01 X45.2076 Y50.2160
G01 X45.2330 Y50.2547
G01 X45.2565 Y50.2946
G01 X45.2782 Y50.3355
G01 X45.2980 Y50.3774
G01 X45.3158 Y50.4201
G01 X45.3317 Y50.4637
G01 X45.3455 Y50.5079
G01 X45.3572 Y50.5527
G01 X45.3668 Y50.5980
G01 X45.3744 Y50.6437
G01 X45.3798 Y50.6897
G01 X45.3830 Y50.7359
G01 X45.3842 Y50.7822
G01 X45.3851 Y51.5601
G01 X45.3861 Y52.3380
G01 X45.3871 Y53.1160
G01 X45.3881 Y53.8939
G01 X45.3891 Y54.6718
G01 X45.3901 Y55.4497
G01 X45.3911 Y56.2276
G01 X45.3921 Y57.0055
G01 X45.3932 Y57.7834
G01 X45.3942 Y58.5613
G01 X45.3953 Y59.3392
G01 X45.3963 Y60.1172
G01 X45.3974 Y60.8951
G01 X45.3985 Y61.6730
G01 X45.3995 Y62.4509
G01 X45.4006 Y63.2289
G01 X45.4016 Y64.0068
G01 X45.4027 Y64.7847
G01 X45.4037 Y65.5626
G01 X45.4048 Y66.3406
G01 X45.4058 Y67.1185
G01 X45.4068 Y67.8964
G01 X45.4078 Y68.6744
G01 X45.4088 Y69.4523
G01 X45.4098 Y70.2303
G01 X45.4108 Y71.0082
G01 X45.4117 Y71.7861
G01 X45.4127 Y72.5641
G01 X45.4136 Y73.3420
G01 X45.4145 Y74.1200
G01 X45.4154 Y74.8979
G01 X45.4162 Y75.6759
G01 X45.4171 Y76.4538
G01 X45.4179 Y77.2318
G01 X45.4187 Y78.0097
G01 X45.4194 Y78.7877
G01 X45.4202 Y79.5657
G01 X45.4209 Y80.3436
G01 X45.4215 Y81.1216
G01 X45.4222 Y81.8995
G01 X45.4228 Y82.6775
G01 X45.4234 Y83.4555
G01 X45.4239 Y84.2335
G01 X45.4244 Y85.0114
G01 X45.4248 Y85.7894
G01 X45.4253 Y86.5674
G01 X45.4256 Y87.3453
G01 X45.4260 Y88.1233
G01 X45.4263 Y88.9013
G01 X45.4265 Y89.6793
G01 X45.4267 Y90.4573
G01 X45.4269 Y91.2353
G01 X45.4270 Y92.0132
G01 Y92.7912
G01 Y93.5692
G01 Y94.3472
G01 X45.4269 Y95.1252
G01 X45.4267 Y95.9032
G01 X45.4265 Y96.6812
G01 X45.4262 Y97.4592
G01 X45.4258 Y101.3756
G01 X45.4224 Y105.2920
G01 X45.4162 Y109.2084
G01 X45.4072 Y113.1248
G01 X45.3954 Y117.0412
G01 X45.3807 Y120.9576
G01 X45.3632 Y124.8739
G01 X45.3428 Y128.7903
G01 X45.3371 Y129.0361
G01 X45.3171 Y129.2812
G01 X45.2826 Y129.5247
G01 X45.2340 Y129.7657
G01 X45.1712 Y130.0035
G01 X45.0946 Y130.2371
G01 X45.0044 Y130.4659
G01 X44.9009 Y130.6890
G01 X44.8314 Y130.7930
G01 X44.7550 Y130.8921
G01 X44.6721 Y130.9858
G01 X44.5830 Y131.0737
G01 X44.4882 Y131.1553
G01 X44.3881 Y131.2303
G01 X44.2831 Y131.2984
G01 X44.1737 Y131.3592
G01 X44.0605 Y131.4125
G01 X43.9440 Y131.4580
G01 X43.8246 Y131.4954
G01 X43.7029 Y131.5247
G01 X43.4248 Y131.5903
G01 X43.1446 Y131.6465
G01 X42.8627 Y131.6933
G01 X42.5794 Y131.7305
G01 X42.2950 Y131.7582
G01 X42.0098 Y131.7763
G01 X41.7242 Y131.7848
G01 X41.4385 Y131.7837
G01 X40.4474
G01 X40.3946 Y134.6131
G01 X40.3300 Y137.4423
G01 X40.2535 Y140.2712
G01 X40.1651 Y143.0998
G01 X40.0648 Y145.9279
G01 X39.9526 Y148.7556
G01 X39.8286 Y151.5828
G01 X39.6927 Y154.4095
G01 X39.6855 Y154.8110
G01 X39.7081 Y155.2119
G01 X39.7605 Y155.6101
G01 X39.8424 Y156.0032
G01 X39.9532 Y156.3892
G01 X40.0925 Y156.7658
G01 X40.2594 Y157.1311
G01 X40.4529 Y157.4829
G01 X40.6308 Y157.7187
G01 X40.8233 Y157.9426
G01 X41.0298 Y158.1538
G01 X41.2493 Y158.3514
G01 X41.4810 Y158.5345
G01 X41.7239 Y158.7025
G01 X41.9770 Y158.8546
G01 X42.2394 Y158.9903
G01 X42.5098 Y159.1089
G01 X42.7873 Y159.2100
G01 X43.0707 Y159.2931
G01 X43.3588 Y159.3580
G01 X43.8330 Y159.4513
G01 X44.3073 Y159.5445
G01 X44.7815 Y159.6377
G01 X45.2558 Y159.7308
G01 X45.9022 Y159.8601
G01 X46.5486 Y159.9895
G01 X47.1950 Y160.1189
G01 X47.8413 Y160.2484
G01 X48.9809 Y160.4851
G01 X50.1240 Y160.7039
G01 X51.2703 Y160.9047
G01 X52.4197 Y161.0877
G01 X53.5718 Y161.2526
G01 X54.7264 Y161.3994
G01 X55.8831 Y161.5282
G01 X57.0416 Y161.6389
G01 X59.1155 Y161.7853
G01 X61.1908 Y161.9079
G01 X63.2675 Y162.0067
G01 X65.3451 Y162.0817
G01 X67.4234 Y162.1328
G01 X69.5022 Y162.1601
G01 X71.5812 Y162.1636
G01 X73.6601 Y162.1432
G01 X75.1477 Y162.1078
G01 X76.6345 Y162.0474
G01 X78.1200 Y161.9622
G01 X79.6039 Y161.8520
G01 X81.0858 Y161.7170
G01 X82.5652 Y161.5573
G01 X84.0417 Y161.3727
G01 X85.5149 Y161.1634
G01 X86.9844 Y160.9295
G01 X88.4498 Y160.6710
G01 X89.9106 Y160.3880
G01 X91.3665 Y160.0806
G01 X91.8169 Y159.9885
G01 X92.2652 Y159.8871
G01 X92.7114 Y159.7763
G01 X93.1551 Y159.6564
G01 X93.5963 Y159.5272
G01 X94.0346 Y159.3889
G01 X94.4700 Y159.2415
G01 X94.9023 Y159.0851
G01 X95.2361 Y158.9441
G01 X95.5548 Y158.7718
G01 X95.8555 Y158.5697
G01 X96.1356 Y158.3398
G01 X96.3923 Y158.0841
G01 X96.6234 Y157.8050
G01 X96.8266 Y157.5051
G01 X97.0003 Y157.1871
G01 X97.1200 Y156.8759
G01 X97.2227 Y156.5588
G01 X97.3082 Y156.2366
G01 X97.3762 Y155.9102
G01 X97.4265 Y155.5806
G01 X97.4590 Y155.2488
G01 X97.4735 Y154.9158
G01 X97.4701 Y154.5824
G01 X97.4589 Y151.7322
G01 X97.4449 Y148.8819
G01 X97.4280 Y146.0317
G01 X97.4083 Y143.1815
G01 X97.3858 Y140.3313
G01 X97.3604 Y137.4812
G01 X97.3322 Y134.6311
G01 X97.3012 Y131.7810
G01 X96.6425 Y131.7987
G01 X95.9837 Y131.7892
G01 X95.3258 Y131.7523
G01 X94.6701 Y131.6882
G01 X94.4416 Y131.6623
G01 X94.2156 Y131.6200
G01 X93.9932 Y131.5618
G01 X93.7755 Y131.4878
G01 X93.5637 Y131.3985
G01 X93.3587 Y131.2942
G01 X93.1618 Y131.1756
G01 X92.9738 Y131.0433
G01 X92.8266 Y130.8842
G01 X92.6911 Y130.7151
G01 X92.5679 Y130.5368
G01 X92.4576 Y130.3503
G01 X92.3607 Y130.1565
G01 X92.2777 Y129.9563
G01 X92.2091 Y129.7508
G01 X92.1551 Y129.5409
G01 X92.0704 Y129.1603
G01 X91.9986 Y128.7771
G01 X91.9398 Y128.3916
G01 X91.8941 Y128.0044
G01 X91.8616 Y127.6159
G01 X91.8422 Y127.2264
G01 X91.8361 Y126.8366
G01 X91.8431 Y126.4467
G01 X91.8441 Y125.6934
G01 X91.8451 Y124.9400
G01 X91.8461 Y124.1866
G01 X91.8470 Y123.4332
G01 X91.8479 Y122.6798
G01 X91.8488 Y121.9264
G01 X91.8497 Y121.1730
G01 X91.8505 Y120.4196
G01 X91.8513 Y119.6663
G01 X91.8521 Y118.9129
G01 X91.8528 Y118.1595
G01 X91.8535 Y117.4061
G01 X91.8542 Y116.6527
G01 X91.8549 Y115.8993
G01 X91.8556 Y115.1459
G01 X91.8562 Y114.3925
G01 X91.8568 Y113.6391
G01 X91.8574 Y112.8857
G01 X91.8579 Y112.1323
G01 X91.8585 Y111.3789
G01 X91.8590 Y110.6255
G01 X91.8595 Y109.8721
G01 X91.8599 Y109.1187
G01 X91.8604 Y108.3653
G01 X91.8608 Y107.6119
G01 X91.8612 Y106.8585
G01 X91.8616 Y106.1051
G01 X91.8620 Y105.3517
G01 X91.8624 Y104.5983
G01 X91.8627 Y103.8449
G01 X91.8630 Y103.0915
G01 X91.8634 Y102.3381
G01 X91.8637 Y101.5847
G01 X91.8639 Y100.8313
G01 X91.8642 Y100.0779
G01 X91.8644 Y99.3245
G01 X91.8647 Y98.5711
G01 X91.8649 Y97.8177
G01 X91.8651 Y97.0643
G01 X91.8653 Y96.3109
G01 X91.8655 Y95.5574
G01 X91.8657 Y94.8040
G01 X91.8658 Y94.0506
G01 X91.8660 Y93.2972
G01 X91.8661 Y92.5438
G01 X91.8663 Y91.7904
G01 X91.8664 Y91.0370
G01 X91.8665 Y90.2836
G01 X91.8666 Y89.5301
G01 X91.8667 Y88.7767
G01 X91.8668 Y88.0233
G01 X91.8669 Y87.2699
G01 Y86.5165
G01 X91.8670 Y85.7631
G01 X91.8671 Y85.0096
G01 Y84.2562
G01 X91.8672 Y83.5028
G01 Y82.7494
G01 X91.8673 Y81.9960
G01 Y81.2425
G01 X91.8674 Y80.4891
G01 Y79.7357
G01 X91.8675 Y78.9823
G01 Y78.2288
G01 Y77.4754
G01 X91.8676 Y76.7220
G01 Y75.9686
G01 Y75.2151
G01 X91.8677 Y74.4617
G01 Y73.7083
G01 X91.8678 Y72.9549
G01 Y72.2014
G01 Y71.4480
G01 X91.8679 Y70.6946
G01 Y69.9411
G01 X91.8680 Y69.1877
G01 X91.8681 Y68.4343
G01 Y67.6808
G01 X91.8682 Y66.9274
G01 X91.8683 Y66.1740
G01 X91.8684 Y65.4205
G01 X91.8685 Y64.6671
G01 X91.8686 Y63.9137
G01 X91.8687 Y63.1602
G01 X91.8688 Y62.4068
G01 X91.8689 Y61.6534
G01 X91.8690 Y60.8999
G01 X91.8692 Y60.1465
G01 X91.8693 Y59.3930
G01 X91.8695 Y58.6396
G01 X91.8697 Y57.8862
G01 X91.8699 Y57.1327
G01 X91.8701 Y56.3793
G01 X91.8703 Y55.6258
G01 X91.8705 Y54.8724
G01 X91.8708 Y54.1189
G01 X91.8710 Y53.3655
G01 X91.8581 Y52.6814
G01 X91.8663 Y51.9973
G01 X91.8957 Y51.3137
G01 X91.9462 Y50.6314
G01 X91.9539 Y50.5878
G01 X91.9635 Y50.5445
G01 X91.9751 Y50.5017
G01 X91.9885 Y50.4595
G01 X92.0038 Y50.4179
G01 X92.0209 Y50.3771
G01 X92.0398 Y50.3370
G01 X92.0605 Y50.2978
G01 X92.0829 Y50.2596
G01 X92.1069 Y50.2224
G01 X92.1326 Y50.1863
G01 X92.1599 Y50.1514
G01 X92.1886 Y50.1177
G01 X92.2189 Y50.0853
G01 X92.2505 Y50.0543
G01 X92.2835 Y50.0247
G01 X92.3178 Y49.9966
G01 X92.3532 Y49.9701
G01 X92.3898 Y49.9451
G01 X92.4275 Y49.9218
G01 X92.4662 Y49.9002
G01 X92.5058 Y49.8803
G01 X92.5462 Y49.8622
G01 X92.5874 Y49.8459
G01 X92.6293 Y49.8315
G01 X92.6718 Y49.8189
G01 X92.7148 Y49.8082
G01 X92.7582 Y49.7994
G01 X92.8020 Y49.7926
G01 X92.8460 Y49.7877
G01 X92.8902 Y49.7848
G01 X92.9345 Y49.7838
G01 X97.0863
G01 X97.5143 Y49.7286
G01 X97.9409 Y49.6630
G01 X98.3656 Y49.5867
G01 X98.7883 Y49.5000
G01 X99.2088 Y49.4029
G01 X99.6267 Y49.2953
G01 X100.0418 Y49.1775
G01 X100.4539 Y49.0495
G01 X100.7834 Y48.9236
G01 X101.0985 Y48.7650
G01 X101.3958 Y48.5754
G01 X101.6725 Y48.3566
G01 X101.9256 Y48.1110
G01 X102.1525 Y47.8410
G01 X102.3510 Y47.5494
G01 X102.5189 Y47.2392
G01 X102.6394 Y46.9337
G01 X102.7413 Y46.6214
G01 X102.8242 Y46.3035
G01 X102.8876 Y45.9812
G01 X102.9315 Y45.6557
G01 X102.9557 Y45.3281
G01 X102.9600 Y44.9997
G01 X102.9445 Y44.6716
G01 X102.9371 Y44.4441
G01 X102.9277 Y44.2168
G01 X102.9160 Y43.9896
G01 X102.9023 Y43.7625
G01 X102.7027 Y43.7753
M107
G00 Z2.0000


;No. 4: Hole 43
G00 X79.4581 Y69.6576 Z2.0000
G00 Z0.5000
G01 Z0.0000 F400
G01 Z-2.0000
M106 S240
G01 X76.1283 F1000
G01 X77.3453 Y68.1576
G01 X72.7648
G01 X74.0109 Y66.6576
G01 X63.5097
G01 X64.6547 Y68.1576
G01 X60.2063
G01 X61.2874 Y69.6576
G01 X58.1068
G01 X59.3076 Y71.1576
G01 X56.5631
G01 X55.3794 Y72.6576
G01 X57.8982
G01 X56.8428 Y74.1576
G01 X54.4650
G01 X53.7702 Y75.6576
G01 X56.0458
G01 X55.4545 Y77.1576
G01 X53.2641
G01 X52.9273 Y78.6576
G01 X55.0377
G01 X54.7744 Y80.1576
G01 X52.7463
G01 X52.7087 Y81.6576
G01 X54.6507
G01 X54.6353 Y83.1576
G01 X52.7087
G01 Y84.6576
G01 X54.6317
G01 X54.6287 Y86.1576
G01 X52.7086
G01 Y87.6576
G01 X54.6263
G01 X54.6244 Y89.1576
G01 X52.7086
G01 X52.7085 Y90.6576
G01 X54.6230
G01 X54.6219 Y92.1576
G01 X52.7085
G01 Y93.6576
G01 X54.6213
G01 X54.6210 Y95.1576
G01 X52.7084
G01 Y96.6576
G01 X54.6209
G01 X54.6211 Y98.1576
G01 X52.7084
G01 X52.7083 Y99.6576
G01 X54.6214
G01 X54.6219 Y101.1576
G01 X52.7083
G01 Y102.6576
G01 X54.6224
G01 X54.6230 Y104.1576
G01 X52.7083
G01 X52.7082 Y105.6576
G01 X54.6236
G01 X54.6241 Y107.1576
G01 X52.7079
G01 X52.7071 Y108.6576
G01 X54.6245
G01 X54.6248 Y110.1576
G01 X52.7059
G01 X52.7044 Y111.6576
G01 X54.6249
G01 X54.6247 Y113.1576
G01 X52.7028
G01 X52.7012 Y114.6576
G01 X54.6242
G01 X54.6233 Y116.1576
G01 X52.6997
G01 X52.6983 Y117.6576
G01 X54.6221
G01 X54.6204 Y119.1576
G01 X52.6973
G01 X52.6966 Y120.6576
G01 X54.6182
G01 X54.6155 Y122.1576
G01 X52.6965
G01 X52.6970 Y123.6576
G01 X54.6122
G01 X54.6083 Y125.1576
G01 X52.6982
G01 X52.7003 Y126.6576
G01 X54.6037
G01 X54.5984 Y128.1576
G01 X52.7033
G01 X52.7073 Y129.6576
G01 X54.5923
G01 X54.5928 Y131.1576
G01 X52.7126
G01 X52.7302 Y132.6576
G01 X54.7513
G01 X55.2847 Y134.1576
G01 X52.9049
G01 X53.4230 Y135.6576
G01 X56.8059
G01 X54.9341 Y137.1576
G01 X82.5858
G01 X84.0875 Y135.6576
G01 X80.6162
G01 X82.1488
G01 Y134.1576
G01 X84.5956
G01 X84.7363 Y132.6576
G01 X82.6834
G01 X82.8364 Y131.1576
G01 X84.7411
G01 X84.7449 Y129.6576
G01 X82.8262
G01 X82.8116 Y128.1576
G01 X84.7488
G01 X84.7526 Y126.6576
G01 X82.8002
G01 X82.7919 Y125.1576
G01 X84.7564
G01 X84.7602 Y123.6576
G01 X82.7861
G01 X82.7827 Y122.1576
G01 X84.7638
G01 X84.7673 Y120.6576
G01 X82.7813
G01 X82.7815 Y119.1576
G01 X84.7707
G01 X84.7738 Y117.6576
G01 X82.7830
G01 X82.7855 Y116.1576
G01 X84.7768
G01 X84.7795 Y114.6576
G01 X82.7887
G01 X82.7921 Y113.1576
G01 X84.7819
G01 X84.7840 Y111.6576
G01 X82.7956
G01 X82.7988 Y110.1576
G01 X84.7857
G01 X84.7871 Y108.6576
G01 X82.8012
G01 X82.8027 Y107.1576
G01 X84.7881
G01 X84.7886 Y105.6576
G01 X82.8030
G01 X82.8037 Y104.1576
G01 X84.7886
G01 X84.7882 Y102.6576
G01 X82.8050
G01 X82.8069 Y101.1576
G01 X84.7872
G01 X84.7857 Y99.6576
G01 X82.8091
G01 X82.8114 Y98.1576
G01 X84.7836
G01 X84.7808 Y96.6576
G01 X82.8137
G01 X82.8156 Y95.1576
G01 X84.7775
G01 X84.7734 Y93.6576
G01 X82.8170
G01 X82.8178 Y92.1576
G01 X84.7686
G01 X84.7630 Y90.6576
G01 X82.8176
G01 X82.8163 Y89.1576
G01 X84.7567
G01 X84.7496 Y87.6576
G01 X82.8137
G01 X82.8096 Y86.1576
G01 X84.7416
G01 X84.7328 Y84.6576
G01 X82.8038
G01 X82.7961 Y83.1576
G01 X84.7231
G01 X84.7124 Y81.6576
G01 X82.7754
G01 X82.6471 Y80.1576
G01 X84.6907
G01 X84.5465 Y78.6576
G01 X82.3801
G01 X81.9606 Y77.1576
G01 X84.2411
G01 X83.7601 Y75.6576
G01 X81.3674
G01 X80.5695 Y74.1576
G01 X83.0845
G01 X82.1828 Y72.6576
G01 X79.5142
G01 X78.1059 Y71.1576
G01 X78.0183 Y71.3491
G01 X78.4808 Y71.8071
G01 X78.9223 Y72.2854
G01 X79.3419 Y72.7830
G01 X79.7387 Y73.2989
G01 X80.1121 Y73.8321
G01 X80.4612 Y74.3815
G01 X80.7853 Y74.9460
G01 X81.0838 Y75.5244
G01 X81.3560 Y76.1156
G01 X81.6015 Y76.7185
G01 X81.8197 Y77.3317
G01 X82.0102 Y77.9541
G01 X82.1727 Y78.5844
G01 X82.3067 Y79.2213
G01 X82.4120 Y79.8637
G01 X82.4884 Y80.5101
G01 X82.5526 Y81.4278
G01 X82.5929 Y82.3468
G01 X82.6092 Y83.2666
G01 X82.6016 Y84.1865
G01 X82.6057 Y88.4677
G01 X82.6078 Y92.7489
G01 X82.6082 Y97.0300
G01 X82.6067 Y101.3112
G01 X82.6033 Y105.5923
G01 X82.5981 Y109.8735
G01 X82.5910 Y114.1547
G01 X82.5821 Y118.4358
G01 X82.5822 Y121.6469
G01 X82.5907 Y124.8580
G01 X82.6076 Y128.0690
G01 X82.6329 Y131.2800
G01 X82.6237 Y131.6561
G01 X82.5908 Y132.0308
G01 X82.5344 Y132.4027
G01 X82.4547 Y132.7703
G01 X82.3520 Y133.1321
G01 X82.2268 Y133.4868
G01 X82.0796 Y133.8330
G01 X81.9108 Y134.1691
G01 X81.7518 Y134.4007
G01 X81.5765 Y134.6203
G01 X81.3860 Y134.8267
G01 X81.1811 Y135.0189
G01 X80.9629 Y135.1959
G01 X80.7326 Y135.3567
G01 X80.4914 Y135.5006
G01 X80.2404 Y135.6268
G01 X79.9810 Y135.7347
G01 X79.7145 Y135.8237
G01 X79.4424 Y135.8933
G01 X79.1659 Y135.9432
G01 X78.5689 Y136.0214
G01 X77.9685 Y136.0657
G01 X77.3665 Y136.0761
G01 X76.7649 Y136.0525
G01 X74.5909 Y136.0183
G01 X72.4167 Y135.9943
G01 X70.2425 Y135.9804
G01 X68.0682 Y135.9767
G01 X65.8939 Y135.9831
G01 X63.7196 Y135.9996
G01 X61.5455 Y136.0262
G01 X59.3715 Y136.0630
G01 X59.0012 Y136.0522
G01 X58.6326 Y136.0155
G01 X58.2675 Y135.9531
G01 X57.9076 Y135.8653
G01 X57.5547 Y135.7525
G01 X57.2106 Y135.6154
G01 X56.8769 Y135.4545
G01 X56.5553 Y135.2707
G01 X56.3458 Y135.1063
G01 X56.1475 Y134.9285
G01 X55.9613 Y134.7381
G01 X55.7881 Y134.5358
G01 X55.6286 Y134.3226
G01 X55.4834 Y134.0994
G01 X55.3533 Y133.8670
G01 X55.2387 Y133.6266
G01 X55.1401 Y133.3792
G01 X55.0581 Y133.1259
G01 X54.9929 Y132.8677
G01 X54.9448 Y132.6057
G01 X54.8579 Y132.0158
G01 X54.8030 Y131.4221
G01 X54.7803 Y130.8262
G01 X54.7898 Y130.2300
G01 X54.8021 Y125.3867
G01 X54.8120 Y120.5434
G01 X54.8196 Y115.7001
G01 X54.8249 Y110.8568
G01 X54.8278 Y106.0135
G01 X54.8283 Y101.1702
G01 X54.8265 Y96.3269
G01 X54.8224 Y91.4836
G01 X54.8218 Y89.0165
G01 X54.8266 Y86.5495
G01 X54.8368 Y84.0824
G01 X54.8522 Y81.6154
G01 X54.8820 Y80.9882
G01 X54.9383 Y80.3628
G01 X55.0210 Y79.7404
G01 X55.1299 Y79.1220
G01 X55.2649 Y78.5088
G01 X55.4257 Y77.9018
G01 X55.6120 Y77.3022
G01 X55.8235 Y76.7110
G01 X56.0599 Y76.1293
G01 X56.3206 Y75.5581
G01 X56.6052 Y74.9984
G01 X56.9133 Y74.4513
G01 X57.2443 Y73.9177
G01 X57.5975 Y73.3985
G01 X57.9723 Y72.8948
G01 X58.3682 Y72.4074
G01 X58.7780 Y71.9601
G01 X59.2074 Y71.5316
G01 X59.6555 Y71.1227
G01 X60.1215 Y70.7343
G01 X60.6044 Y70.3672
G01 X61.1032 Y70.0219
G01 X61.6170 Y69.6994
G01 X62.1446 Y69.4001
G01 X62.6852 Y69.1248
G01 X63.2375 Y68.8739
G01 X63.8005 Y68.6479
G01 X64.3730 Y68.4474
G01 X64.9539 Y68.2727
G01 X65.5421 Y68.1241
G01 X66.1363 Y68.0020
G01 X66.7354 Y67.9066
G01 X67.3381 Y67.8381
G01 X67.9433 Y67.7966
G01 X68.5498 Y67.7822
G01 X69.1563 Y67.7950
G01 X69.7656 Y67.8209
G01 X70.3732 Y67.8744
G01 X70.9777 Y67.9552
G01 X71.5779 Y68.0633
G01 X72.1727 Y68.1983
G01 X72.7608 Y68.3601
G01 X73.3409 Y68.5483
G01 X73.9120 Y68.7625
G01 X74.4728 Y69.0022
G01 X75.0222 Y69.2671
G01 X75.5590 Y69.5564
G01 X76.0823 Y69.8698
G01 X76.5909 Y70.2064
G01 X77.0837 Y70.5657
G01 X77.5599 Y70.9468
G01 X78.0183 Y71.3491
G01 X78.1059 Y71.1576
G01 X81.0046
G01 X81.1478 Y71.0177
G01 X80.6768 Y70.5240
G01 X80.1858 Y70.0502
G01 X79.6757 Y69.5970
G01 X79.1473 Y69.1652
G01 X78.6016 Y68.7555
G01 X78.0396 Y68.3687
G01 X77.4620 Y68.0053
G01 X76.8700 Y67.6661
G01 X76.2645 Y67.3515
G01 X75.6466 Y67.0621
G01 X75.0172 Y66.7984
G01 X74.3776 Y66.5608
G01 X73.7287 Y66.3499
G01 X73.0716 Y66.1658
G01 X72.4076 Y66.0089
G01 X71.7376 Y65.8795
G01 X71.0629 Y65.7779
G01 X70.3845 Y65.7041
G01 X69.7037 Y65.6583
G01 X69.0216 Y65.6406
G01 X68.2729 Y65.6376
G01 X67.5248 Y65.6688
G01 X66.7790 Y65.7341
G01 X66.0369 Y65.8333
G01 X65.3001 Y65.9663
G01 X64.5701 Y66.1327
G01 X63.8484 Y66.3322
G01 X63.1367 Y66.5644
G01 X62.4362 Y66.8289
G01 X61.7485 Y67.1250
G01 X61.0751 Y67.4521
G01 X60.4172 Y67.8096
G01 X59.7764 Y68.1968
G01 X59.1539 Y68.6127
G01 X58.5509 Y69.0567
G01 X57.9689 Y69.5276
G01 X57.4089 Y70.0246
G01 X56.8722 Y70.5466
G01 X56.3598 Y71.0925
G01 X55.8729 Y71.6613
G01 X55.4734 Y72.1797
G01 X55.0965 Y72.7148
G01 X54.7430 Y73.2657
G01 X54.4136 Y73.8312
G01 X54.1088 Y74.4104
G01 X53.8292 Y75.0022
G01 X53.5753 Y75.6054
G01 X53.3475 Y76.2190
G01 X53.1464 Y76.8419
G01 X52.9723 Y77.4728
G01 X52.8255 Y78.1106
G01 X52.7063 Y78.7542
G01 X52.6148 Y79.4022
G01 X52.5514 Y80.0537
G01 X52.5160 Y80.7072
G01 X52.5087 Y81.3617
G01 X52.5082 Y106.3640
G01 X52.5072 Y108.2943
G01 X52.5058 Y110.2246
G01 X52.5040 Y112.1549
G01 X52.5018 Y114.0853
G01 X52.5015 Y114.3426
G01 X52.5013 Y114.5999
G01 X52.5010 Y114.8573
G01 X52.5007 Y115.1146
G01 X52.5005 Y115.3719
G01 X52.5002 Y115.6293
G01 X52.4999 Y115.8866
G01 X52.4997 Y116.1439
G01 X52.4994 Y116.4012
G01 X52.4931 Y120.4903
G01 X52.4969 Y124.5794
G01 X52.5108 Y128.6685
G01 X52.5348 Y132.7575
G01 X52.5511 Y133.1584
G01 X52.5906 Y133.5576
G01 X52.6529 Y133.9539
G01 X52.7380 Y134.3460
G01 X52.8455 Y134.7326
G01 X52.9751 Y135.1123
G01 X53.1263 Y135.4839
G01 X53.2987 Y135.8461
G01 X53.4460 Y136.0759
G01 X53.6080 Y136.2955
G01 X53.7842 Y136.5040
G01 X53.9737 Y136.7004
G01 X54.1756 Y136.8839
G01 X54.3893 Y137.0538
G01 X54.6136 Y137.2092
G01 X54.8477 Y137.3495
G01 X55.0905 Y137.4742
G01 X55.3409 Y137.5825
G01 X55.5980 Y137.6742
G01 X55.8605 Y137.7488
G01 X56.2429 Y137.8450
G01 X56.6283 Y137.9279
G01 X57.0164 Y137.9974
G01 X57.4067 Y138.0534
G01 X57.7986 Y138.0959
G01 X58.1918 Y138.1248
G01 X58.5858 Y138.1401
G01 X58.9800 Y138.1417
G01 X61.5380 Y138.1631
G01 X64.0960 Y138.1774
G01 X66.6541 Y138.1848
G01 X69.2122 Y138.1853
G01 X71.7702 Y138.1787
G01 X74.3282 Y138.1652
G01 X76.8862 Y138.1446
G01 X79.4441 Y138.1171
G01 X79.8731 Y138.0986
G01 X80.3004 Y138.0555
G01 X80.7245 Y137.9880
G01 X81.1440 Y137.8964
G01 X81.5576 Y137.7809
G01 X81.9639 Y137.6419
G01 X82.3615 Y137.4799
G01 X82.7493 Y137.2953
G01 X82.9986 Y137.1389
G01 X83.2360 Y136.9651
G01 X83.4604 Y136.7746
G01 X83.6705 Y136.5686
G01 X83.8653 Y136.3481
G01 X84.0438 Y136.1141
G01 X84.2051 Y135.8679
G01 X84.3483 Y135.6108
G01 X84.4727 Y135.3442
G01 X84.5777 Y135.0692
G01 X84.6627 Y134.7875
G01 X84.7273 Y134.5004
G01 X84.7887 Y134.1917
G01 X84.8402 Y133.8812
G01 X84.8817 Y133.5692
G01 X84.9133 Y133.2560
G01 X84.9348 Y132.9420
G01 X84.9463 Y132.6274
G01 X84.9476 Y132.3127
G01 X84.9390 Y131.9980
G01 X84.9403 Y131.4797
G01 X84.9416 Y130.9614
G01 X84.9429 Y130.4431
G01 X84.9442 Y129.9247
G01 X84.9456 Y129.4064
G01 X84.9469 Y128.8881
G01 X84.9482 Y128.3698
G01 X84.9495 Y127.8515
G01 X84.9509 Y127.3332
G01 X84.9522 Y126.8149
G01 X84.9535 Y126.2966
G01 X84.9548 Y125.7783
G01 X84.9562 Y125.2600
G01 X84.9575 Y124.7417
G01 X84.9588 Y124.2234
G01 X84.9600 Y123.7051
G01 X84.9613 Y123.1868
G01 X84.9626 Y122.6685
G01 X84.9638 Y122.1503
G01 X84.9651 Y121.6320
G01 X84.9663 Y121.1137
G01 X84.9675 Y120.5954
G01 X84.9686 Y120.0772
G01 X84.9698 Y119.5589
G01 X84.9709 Y119.0406
G01 X84.9720 Y118.5223
G01 X84.9731 Y118.0041
G01 X84.9861 Y113.2794
G01 X84.9925 Y108.5547
G01 X84.9923 Y103.8301
G01 X84.9856 Y99.1054
G01 X84.9724 Y94.3807
G01 X84.9525 Y89.6561
G01 X84.9262 Y84.9315
G01 X84.8933 Y80.2069
G01 X84.8546 Y79.5753
G01 X84.7885 Y78.9459
G01 X84.6952 Y78.3200
G01 X84.5748 Y77.6988
G01 X84.4275 Y77.0833
G01 X84.2535 Y76.4749
G01 X84.0534 Y75.8745
G01 X83.8273 Y75.2835
G01 X83.5758 Y74.7028
G01 X83.2993 Y74.1336
G01 X82.9983 Y73.5769
G01 X82.6734 Y73.0338
G01 X82.3252 Y72.5054
G01 X81.9544 Y71.9926
G01 X81.5617 Y71.4964
G01 X81.1478 Y71.0177
G01 X81.0046 Y71.1576
M107
G00 Z2.0000


;No. 5: Hole 21
G00 X65.0512 Y84.0968 Z2.0000
G00 Z0.5000
G01 Z0.0000 F400
G01 Z-1.2000
M106 S240
G01 X64.4981 F1000
G01 X64.8497 Y85.5968
G01 X65.6892
G01 X65.2063 Y87.0968
G01 X66.3207
G01 X66.9468 Y88.5968
G01 X65.5658
G01 X65.9265 Y90.0968
G01 X67.5683
G01 X68.1863 Y91.5968
G01 X66.2867
G01 X66.6445 Y93.0968
G01 X68.8017
G01 X69.4154 Y94.5968
G01 X66.9984
G01 X67.3467 Y96.0968
G01 X70.0283
G01 X70.6413 Y97.5968
G01 X67.6879
G01 X68.0201 Y99.0968
G01 X71.2553
G01 X71.8712 Y100.5968
G01 X68.3418
G01 X68.4290
G01 Y102.0968
G01 X72.4897
G01 X73.1118 Y103.5968
G01 X63.4609
G01 X63.6320 Y102.0968
G01 X62.7326
G01 X64.1812 Y105.0968
G01 X73.7383
G01 X74.3700 Y106.5968
G01 X64.8945
G01 X65.6019 Y108.0968
G01 X75.0078
G01 X75.6524 Y109.5968
G01 X66.3045
G01 X67.0033 Y111.0968
G01 X71.4063
G01 X71.6555 Y112.5968
G01 X67.6995
G01 X68.3942 Y114.0968
G01 X71.9294
G01 X72.2202 Y115.5968
G01 X69.0885
G01 X69.7837 Y117.0968
G01 X72.5242
G01 X72.8377 Y118.5968
G01 X70.4809
G01 X71.1814 Y120.0968
G01 X73.1568
G01 X73.4773 Y121.5968
G01 X71.8864
G01 X72.5972 Y123.0968
G01 X73.7951
G01 X74.1056 Y124.5968
G01 X73.3151
G01 X73.1497 Y124.7143
G01 X73.5509 Y125.5456
G01 X73.9547 Y126.3756
G01 X74.3611 Y127.2044
G01 X74.7700 Y128.0319
G01 X74.9600
G01 X74.4749 Y125.4896
G01 X73.9687 Y122.9514
G01 X73.4414 Y120.4175
G01 X72.8930 Y117.8880
G01 X72.5342 Y116.1723
G01 X72.1996 Y114.4517
G01 X71.8891 Y112.7266
G01 X71.6028 Y110.9973
G01 X71.6042 Y110.9508
G01 X71.6078 Y110.9045
G01 X71.6135 Y110.8584
G01 X71.6213 Y110.8126
G01 X71.6313 Y110.7672
G01 X71.6434 Y110.7223
G01 X71.6575 Y110.6780
G01 X71.6737 Y110.6345
G01 X71.6919 Y110.5917
G01 X71.7120 Y110.5498
G01 X71.7341 Y110.5090
G01 X71.7580 Y110.4691
G01 X71.7838 Y110.4305
G01 X71.8114 Y110.3930
G01 X71.8406 Y110.3569
G01 X71.8715 Y110.3222
G01 X71.9040 Y110.2890
G01 X71.9380 Y110.2573
G01 X71.9734 Y110.2272
G01 X72.0102 Y110.1988
G01 X72.0483 Y110.1722
G01 X72.0875 Y110.1473
G01 X72.1279 Y110.1243
G01 X72.1693 Y110.1032
G01 X72.2116 Y110.0840
G01 X72.2548 Y110.0668
G01 X72.2987 Y110.0517
G01 X72.3433 Y110.0386
G01 X72.3885 Y110.0276
G01 X72.4341 Y110.0187
G01 X72.4800 Y110.0119
G01 X72.5263 Y110.0073
G01 X72.5727 Y110.0048
G01 X72.6192 Y110.0045
G01 X72.6656 Y110.0063
G01 X72.7119 Y110.0103
G01 X72.7579 Y110.0165
G01 X72.8037 Y110.0247
G01 X72.8490 Y110.0351
G01 X72.8937 Y110.0476
G01 X76.5427 Y111.1574
G01 X76.5441 Y111.1450
G01 X75.4810 Y108.6618
G01 X74.4250 Y106.1756
G01 X73.3760 Y103.6864
G01 X72.3342 Y101.1942
G01 X71.2994 Y98.6990
G01 X70.2717 Y96.2009
G01 X69.2512 Y93.6999
G01 X68.2378 Y91.1960
G01 X67.0823 Y88.3928
G01 X65.9074 Y85.5976
G01 X64.7133 Y82.8106
G01 X63.5000 Y80.0319
G01 X63.3900
G01 X64.1325 Y83.3427
G01 X64.8942 Y86.6492
G01 X65.6750 Y89.9511
G01 X66.4750 Y93.2485
G01 X66.9654 Y95.3177
G01 X67.4376 Y97.3911
G01 X67.8914 Y99.4686
G01 X68.3268 Y101.5501
G01 X68.3289 Y101.5960
G01 Y101.6420
G01 X68.3268 Y101.6879
G01 X68.3226 Y101.7337
G01 X68.3163 Y101.7793
G01 X68.3079 Y101.8245
G01 X68.2974 Y101.8693
G01 X68.2849 Y101.9135
G01 X68.2704 Y101.9571
G01 X68.2539 Y102.0000
G01 X68.2354 Y102.0422
G01 X68.2150 Y102.0834
G01 X68.1927 Y102.1236
G01 X68.1687 Y102.1628
G01 X68.1428 Y102.2008
G01 X68.1152 Y102.2376
G01 X68.0860 Y102.2731
G01 X68.0551 Y102.3072
G01 X68.0227 Y102.3398
G01 X67.9889 Y102.3709
G01 X67.9536 Y102.4005
G01 X67.9171 Y102.4283
G01 X67.8792 Y102.4545
G01 X67.8403 Y102.4789
G01 X67.8002 Y102.5015
G01 X67.7592 Y102.5222
G01 X67.7172 Y102.5410
G01 X67.6744 Y102.5579
G01 X67.6309 Y102.5728
G01 X67.5868 Y102.5857
G01 X67.5421 Y102.5965
G01 X67.4969 Y102.6052
G01 X67.4515 Y102.6119
G01 X67.4057 Y102.6165
G01 X67.3598 Y102.6189
G01 X67.3138 Y102.6193
G01 X67.2678 Y102.6175
G01 X67.2220 Y102.6136
G01 X67.1764 Y102.6077
G01 X67.1312 Y102.5996
G01 X62.2830 Y101.6203
G01 X62.5469 Y102.1676
G01 X62.8111 Y102.7147
G01 X63.0758 Y103.2616
G01 X63.3409 Y103.8083
G01 X65.4505 Y108.2790
G01 X67.5506 Y112.7542
G01 X69.6412 Y117.2338
G01 X71.7223 Y121.7178
G01 X72.0770 Y122.4680
G01 X72.4331 Y123.2174
G01 X72.7907 Y123.9662
G01 X73.1497 Y124.7143
G01 X73.3151 Y124.5968
M107
G00 Z2.0000


;No. 6: Hole 20
G00 X81.9500 Y147.5320 Z2.0000
G00 Z0.5000
G01 Z0.0000 F400
G01 Z-1.2000
M106 S240
G01 X54.3500 F1000
G01 X54.1500 Y147.5324
G01 X54.1362 Y147.6382
G01 X54.1285 Y147.7447
G01 X54.1270 Y147.8514
G01 X54.1315 Y147.9581
G01 X54.1422 Y148.0643
G01 X54.1590 Y148.1697
G01 X54.1818 Y148.2740
G01 X54.2105 Y148.3768
G01 X54.2266 Y148.4180
G01 X54.2445 Y148.4584
G01 X54.2641 Y148.4980
G01 X54.2855 Y148.5368
G01 X54.3086 Y148.5745
G01 X54.3333 Y148.6111
G01 X54.3597 Y148.6467
G01 X54.3876 Y148.6810
G01 X54.4170 Y148.7141
G01 X54.4478 Y148.7458
G01 X54.4800 Y148.7761
G01 X54.5135 Y148.8050
G01 X54.5483 Y148.8323
G01 X54.5842 Y148.8581
G01 X54.6212 Y148.8823
G01 X54.6593 Y148.9047
G01 X54.6984 Y148.9255
G01 X54.7383 Y148.9446
G01 X54.7790 Y148.9618
G01 X54.8205 Y148.9772
G01 X54.8626 Y148.9908
G01 X54.9052 Y149.0024
G01 X54.9484 Y149.0122
G01 X54.9919 Y149.0201
G01 X55.0357 Y149.0260
G01 X55.0798 Y149.0300
G01 X55.1240 Y149.0320
G01 X55.1682
G01 X81.1372
G01 X81.1818 Y149.0317
G01 X81.2262 Y149.0295
G01 X81.2706 Y149.0252
G01 X81.3147 Y149.0190
G01 X81.3584 Y149.0108
G01 X81.4018 Y149.0006
G01 X81.4447 Y148.9886
G01 X81.4870 Y148.9746
G01 X81.5286 Y148.9588
G01 X81.5695 Y148.9411
G01 X81.6095 Y148.9216
G01 X81.6486 Y148.9003
G01 X81.6868 Y148.8773
G01 X81.7239 Y148.8527
G01 X81.7598 Y148.8264
G01 X81.7945 Y148.7985
G01 X81.8280 Y148.7691
G01 X81.8601 Y148.7382
G01 X81.8908 Y148.7060
G01 X81.9200 Y148.6723
G01 X81.9477 Y148.6375
G01 X81.9738 Y148.6014
G01 X81.9983 Y148.5642
G01 X82.0211 Y148.5259
G01 X82.0421 Y148.4867
G01 X82.0614 Y148.4465
G01 X82.0789 Y148.4056
G01 X82.0945 Y148.3638
G01 X82.1082 Y148.3215
G01 X82.1201 Y148.2785
G01 X82.1300 Y148.2351
G01 X82.1379 Y148.1913
G01 X82.1439 Y148.1472
G01 X82.1479 Y148.1028
G01 X82.1500 Y148.0583
G01 Y148.0138
G01 X82.1677 Y147.7306
G01 X82.1717 Y147.4470
G01 X82.1619 Y147.1634
G01 X82.1384 Y146.8807
G01 X82.1307 Y146.8364
G01 X82.1211 Y146.7925
G01 X82.1095 Y146.7491
G01 X82.0960 Y146.7062
G01 X82.0805 Y146.6640
G01 X82.0632 Y146.6225
G01 X82.0439 Y146.5819
G01 X82.0229 Y146.5422
G01 X82.0001 Y146.5034
G01 X81.9756 Y146.4658
G01 X81.9494 Y146.4292
G01 X81.9216 Y146.3939
G01 X81.8922 Y146.3599
G01 X81.8614 Y146.3273
G01 X81.8290 Y146.2960
G01 X81.7953 Y146.2663
G01 X81.7603 Y146.2381
G01 X81.7241 Y146.2115
G01 X81.6867 Y146.1866
G01 X81.6482 Y146.1634
G01 X81.6087 Y146.1419
G01 X81.5683 Y146.1223
G01 X81.5270 Y146.1045
G01 X81.4849 Y146.0886
