;Project BinImGartenV3
;Created by Estlcam version 11 build 11,245
;Machining time about 00:17:46 hours

G90
M03 S10000
G00 Z5.0000


;No. 1: Helical drill 1
G00 X20.7511 Y84.8847
G00 Z0.5000
G01 X20.7501 Y84.8418 Z0.4861 F400 S10000
G01 X20.7470 Y84.7991 Z0.4722
G01 X20.7419 Y84.7566 Z0.4583
G01 X20.7348 Y84.7143 Z0.4444
G01 X20.7257 Y84.6725 Z0.4306
G01 X20.7146 Y84.6311 Z0.4167
G01 X20.7016 Y84.5903 Z0.4028
G01 X20.6866 Y84.5502 Z0.3889
G01 X20.6698 Y84.5108 Z0.3750
G01 X20.6510 Y84.4723 Z0.3611
G01 X20.6305 Y84.4347 Z0.3472
G01 X20.6082 Y84.3981 Z0.3333
G01 X20.5842 Y84.3626 Z0.3194
G01 X20.5585 Y84.3283 Z0.3056
G01 X20.5313 Y84.2953 Z0.2917
G01 X20.5024 Y84.2636 Z0.2778
G01 X20.4722 Y84.2333 Z0.2639
G01 X20.4405 Y84.2045 Z0.2500
G01 X20.4074 Y84.1772 Z0.2361
G01 X20.3731 Y84.1515 Z0.2222
G01 X20.3377 Y84.1275 Z0.2083
G01 X20.3011 Y84.1052 Z0.1944
G01 X20.2635 Y84.0847 Z0.1806
G01 X20.2250 Y84.0660 Z0.1667
G01 X20.1856 Y84.0491 Z0.1528
G01 X20.1454 Y84.0342 Z0.1389
G01 X20.1046 Y84.0211 Z0.1250
G01 X20.0633 Y84.0100 Z0.1111
G01 X20.0214 Y84.0009 Z0.0972
G01 X19.9792 Y83.9938 Z0.0833
G01 X19.9366 Y83.9887 Z0.0694
G01 X19.8939 Y83.9857 Z0.0556
G01 X19.8511 Y83.9847 Z0.0417
G01 X19.8083 Y83.9857 Z0.0278
G01 X19.7655 Y83.9887 Z0.0139
G01 X19.7230 Y83.9938 Z0.0000
G01 X19.6808 Y84.0009 Z-0.0139
G01 X19.6389 Y84.0100 Z-0.0278
G01 X19.5975 Y84.0211 Z-0.0417
G01 X19.5567 Y84.0342 Z-0.0556
G01 X19.5166 Y84.0491 Z-0.0694
G01 X19.4772 Y84.0660 Z-0.0833
G01 X19.4387 Y84.0847 Z-0.0972
G01 X19.4011 Y84.1052 Z-0.1111
G01 X19.3645 Y84.1275 Z-0.1250
G01 X19.3290 Y84.1515 Z-0.1389
G01 X19.2947 Y84.1772 Z-0.1528
G01 X19.2617 Y84.2045 Z-0.1667
G01 X19.2300 Y84.2333 Z-0.1806
G01 X19.1997 Y84.2636 Z-0.1944
G01 X19.1709 Y84.2953 Z-0.2083
G01 X19.1436 Y84.3283 Z-0.2222
G01 X19.1180 Y84.3626 Z-0.2361
G01 X19.0940 Y84.3981 Z-0.2500
G01 X19.0717 Y84.4347 Z-0.2639
G01 X19.0511 Y84.4723 Z-0.2778
G01 X19.0324 Y84.5108 Z-0.2917
G01 X19.0156 Y84.5502 Z-0.3056
G01 X19.0006 Y84.5903 Z-0.3194
G01 X18.9875 Y84.6311 Z-0.3333
G01 X18.9765 Y84.6725 Z-0.3472
G01 X18.9674 Y84.7143 Z-0.3611
G01 X18.9602 Y84.7566 Z-0.3750
G01 X18.9552 Y84.7991 Z-0.3889
G01 X18.9521 Y84.8418 Z-0.4028
G01 X18.9511 Y84.8847 Z-0.4167
G01 X18.9521 Y84.9275 Z-0.4306
G01 X18.9552 Y84.9702 Z-0.4444
G01 X18.9602 Y85.0127 Z-0.4583
G01 X18.9674 Y85.0550 Z-0.4722
G01 X18.9765 Y85.0968 Z-0.4861
G01 X18.9875 Y85.1382 Z-0.5000
G01 X19.0006 Y85.1790 Z-0.5139
G01 X19.0156 Y85.2192 Z-0.5278
G01 X19.0324 Y85.2585 Z-0.5417
G01 X19.0511 Y85.2971 Z-0.5556
G01 X19.0717 Y85.3347 Z-0.5694
G01 X19.0940 Y85.3712 Z-0.5833
G01 X19.1180 Y85.4067 Z-0.5972
G01 X19.1436 Y85.4410 Z-0.6111
G01 X19.1709 Y85.4740 Z-0.6250
G01 X19.1997 Y85.5057 Z-0.6389
G01 X19.2300 Y85.5360 Z-0.6528
G01 X19.2617 Y85.5648 Z-0.6667
G01 X19.2947 Y85.5921 Z-0.6806
G01 X19.3290 Y85.6178 Z-0.6944
G01 X19.3645 Y85.6418 Z-0.7083
G01 X19.4011 Y85.6641 Z-0.7222
G01 X19.4387 Y85.6846 Z-0.7361
G01 X19.4772 Y85.7033 Z-0.7500
G01 X19.5166 Y85.7202 Z-0.7639
G01 X19.5567 Y85.7352 Z-0.7778
G01 X19.5975 Y85.7482 Z-0.7917
G01 X19.6389 Y85.7593 Z-0.8056
G01 X19.6808 Y85.7684 Z-0.8194
G01 X19.7230 Y85.7755 Z-0.8333
G01 X19.7655 Y85.7806 Z-0.8472
G01 X19.8083 Y85.7836 Z-0.8611
G01 X19.8511 Y85.7847 Z-0.8750
G01 X19.8939 Y85.7836 Z-0.8889
G01 X19.9366 Y85.7806 Z-0.9028
G01 X19.9792 Y85.7755 Z-0.9167
G01 X20.0214 Y85.7684 Z-0.9306
G01 X20.0633 Y85.7593 Z-0.9444
G01 X20.1046 Y85.7482 Z-0.9583
G01 X20.1454 Y85.7352 Z-0.9722
G01 X20.1856 Y85.7202 Z-0.9861
G01 X20.2250 Y85.7033 Z-1.0000
G01 X20.2635 Y85.6846 Z-1.0139
G01 X20.3011 Y85.6641 Z-1.0278
G01 X20.3377 Y85.6418 Z-1.0417
G01 X20.3731 Y85.6178 Z-1.0556
G01 X20.4074 Y85.5921 Z-1.0694
G01 X20.4405 Y85.5648 Z-1.0833
G01 X20.4722 Y85.5360 Z-1.0972
G01 X20.5024 Y85.5057 Z-1.1111
G01 X20.5313 Y85.4740 Z-1.1250
G01 X20.5585 Y85.4410 Z-1.1389
G01 X20.5842 Y85.4067 Z-1.1528
G01 X20.6082 Y85.3712 Z-1.1667
G01 X20.6305 Y85.3347 Z-1.1806
G01 X20.6510 Y85.2971 Z-1.1944
G01 X20.6698 Y85.2585 Z-1.2083
G01 X20.6866 Y85.2192 Z-1.2222
G01 X20.7016 Y85.1790 Z-1.2361
G01 X20.7146 Y85.1382 Z-1.2500
G01 X20.7257 Y85.0968 Z-1.2639
G01 X20.7348 Y85.0550 Z-1.2778
G01 X20.7419 Y85.0127 Z-1.2917
G01 X20.7470 Y84.9702 Z-1.3056
G01 X20.7501 Y84.9275 Z-1.3194
G01 X20.7511 Y84.8847 Z-1.3333
G01 X20.7501 Y84.8418
G01 X20.7470 Y84.7991
G01 X20.7419 Y84.7566
G01 X20.7348 Y84.7143
G01 X20.7257 Y84.6725
G01 X20.7146 Y84.6311
G01 X20.7016 Y84.5903
G01 X20.6866 Y84.5502
G01 X20.6698 Y84.5108
G01 X20.6510 Y84.4723
G01 X20.6305 Y84.4347
G01 X20.6082 Y84.3981
G01 X20.5842 Y84.3626
G01 X20.5585 Y84.3283
G01 X20.5313 Y84.2953
G01 X20.5024 Y84.2636
G01 X20.4722 Y84.2333
G01 X20.4405 Y84.2045
G01 X20.4074 Y84.1772
G01 X20.3731 Y84.1515
G01 X20.3377 Y84.1275
G01 X20.3011 Y84.1052
G01 X20.2635 Y84.0847
G01 X20.2250 Y84.0660
G01 X20.1856 Y84.0491
G01 X20.1454 Y84.0342
G01 X20.1046 Y84.0211
G01 X20.0633 Y84.0100
G01 X20.0214 Y84.0009
G01 X19.9792 Y83.9938
G01 X19.9366 Y83.9887
G01 X19.8939 Y83.9857
G01 X19.8511 Y83.9847
G01 X19.8083 Y83.9857
G01 X19.7655 Y83.9887
G01 X19.7230 Y83.9938
G01 X19.6808 Y84.0009
G01 X19.6389 Y84.0100
G01 X19.5975 Y84.0211
G01 X19.5567 Y84.0342
G01 X19.5166 Y84.0491
G01 X19.4772 Y84.0660
G01 X19.4387 Y84.0847
G01 X19.4011 Y84.1052
G01 X19.3645 Y84.1275
G01 X19.3290 Y84.1515
G01 X19.2947 Y84.1772
G01 X19.2617 Y84.2045
G01 X19.2300 Y84.2333
G01 X19.1997 Y84.2636
G01 X19.1709 Y84.2953
G01 X19.1436 Y84.3283
G01 X19.1180 Y84.3626
G01 X19.0940 Y84.3981
G01 X19.0717 Y84.4347
G01 X19.0511 Y84.4723
G01 X19.0324 Y84.5108
G01 X19.0156 Y84.5502
G01 X19.0006 Y84.5903
G01 X18.9875 Y84.6311
G01 X18.9765 Y84.6725
G01 X18.9674 Y84.7143
G01 X18.9602 Y84.7566
G01 X18.9552 Y84.7991
G01 X18.9521 Y84.8418
G01 X18.9511 Y84.8847
G01 X18.9521 Y84.9275
G01 X18.9552 Y84.9702
G01 X18.9602 Y85.0127
G01 X18.9674 Y85.0550
G01 X18.9765 Y85.0968
G01 X18.9875 Y85.1382
G01 X19.0006 Y85.1790
G01 X19.0156 Y85.2192
G01 X19.0324 Y85.2585
G01 X19.0511 Y85.2971
G01 X19.0717 Y85.3347
G01 X19.0940 Y85.3712
G01 X19.1180 Y85.4067
G01 X19.1436 Y85.4410
G01 X19.1709 Y85.4740
G01 X19.1997 Y85.5057
G01 X19.2300 Y85.5360
G01 X19.2617 Y85.5648
G01 X19.2947 Y85.5921
G01 X19.3290 Y85.6178
G01 X19.3645 Y85.6418
G01 X19.4011 Y85.6641
G01 X19.4387 Y85.6846
G01 X19.4772 Y85.7033
G01 X19.5166 Y85.7202
G01 X19.5567 Y85.7352
G01 X19.5975 Y85.7482
G01 X19.6389 Y85.7593
G01 X19.6808 Y85.7684
G01 X19.7230 Y85.7755
G01 X19.7655 Y85.7806
G01 X19.8083 Y85.7836
G01 X19.8511 Y85.7847
G01 X19.8939 Y85.7836
G01 X19.9366 Y85.7806
G01 X19.9792 Y85.7755
G01 X20.0214 Y85.7684
G01 X20.0633 Y85.7593
G01 X20.1046 Y85.7482
G01 X20.1454 Y85.7352
G01 X20.1856 Y85.7202
G01 X20.2250 Y85.7033
G01 X20.2635 Y85.6846
G01 X20.3011 Y85.6641
G01 X20.3377 Y85.6418
G01 X20.3731 Y85.6178
G01 X20.4074 Y85.5921
G01 X20.4405 Y85.5648
G01 X20.4722 Y85.5360
G01 X20.5024 Y85.5057
G01 X20.5313 Y85.4740
G01 X20.5585 Y85.4410
G01 X20.5842 Y85.4067
G01 X20.6082 Y85.3712
G01 X20.6305 Y85.3347
G01 X20.6510 Y85.2971
G01 X20.6698 Y85.2585
G01 X20.6866 Y85.2192
G01 X20.7016 Y85.1790
G01 X20.7146 Y85.1382
G01 X20.7257 Y85.0968
G01 X20.7348 Y85.0550
G01 X20.7419 Y85.0127
G01 X20.7470 Y84.9702
G01 X20.7501 Y84.9275
G01 X20.7511 Y84.8847
G01 X20.7586 Y84.8536 F1000
G01 X20.7651 Y84.8223
G01 X20.7705 Y84.7908
G01 X20.7747 Y84.7592
G01 X20.7779 Y84.7274
G01 X20.7800 Y84.6955
G01 X20.7810 Y84.6635
G01 X20.7808 Y84.6316
G01 X20.7796 Y84.5996
G01 X20.7772 Y84.5678
G01 X20.7738 Y84.5360
G01 X20.7692 Y84.5044
G01 X20.7595 Y84.4529
G01 X20.7472 Y84.4019
G01 X20.7322 Y84.3517
G01 X20.7147 Y84.3023
G01 X20.6947 Y84.2539
G01 X20.6722 Y84.2066
G01 X20.6473 Y84.1605
G01 X20.6201 Y84.1157
G01 X20.5880 Y84.0687
G01 X20.5537 Y84.0233
G01 X20.5170 Y83.9798
G01 X20.4781 Y83.9382
G01 X20.4372 Y83.8987
G01 X20.3944 Y83.8613
G01 X20.3496 Y83.8262
G01 X20.3031 Y83.7933
G01 X20.2512 Y83.7605
G01 X20.1977 Y83.7304
G01 X20.1428 Y83.7030
G01 X20.0865 Y83.6784
G01 X20.0290 Y83.6568
G01 X19.9705 Y83.6381
G01 X19.9112 Y83.6223
G01 X19.8511 Y83.6097
G01 X19.7860 Y83.5993
G01 X19.7204 Y83.5923
G01 X19.6546 Y83.5886
G01 X19.5887 Y83.5883
G01 X19.5228 Y83.5913
G01 X19.4572 Y83.5976
G01 X19.3919 Y83.6072
G01 X19.3273 Y83.6201
G01 X19.2590 Y83.6374
G01 X19.1916 Y83.6581
G01 X19.1254 Y83.6821
G01 X19.0605 Y83.7095
G01 X18.9970 Y83.7401
G01 X18.9351 Y83.7739
G01 X18.8751 Y83.8107
G01 X18.8169 Y83.8505
G01 X18.7634 Y83.9000
G01 X18.7124 Y83.9520
G01 X18.6640 Y84.0064
G01 X18.6184 Y84.0632
G01 X18.5756 Y84.1222
G01 X18.5357 Y84.1831
G01 X18.4989 Y84.2460
G01 X18.4653 Y84.3106
G01 X18.4388 Y84.3793
G01 X18.4157 Y84.4492
G01 X18.3961 Y84.5202
G01 X18.3799 Y84.5920
G01 X18.3673 Y84.6646
G01 X18.3583 Y84.7376
G01 X18.3529 Y84.8111
G01 X18.3511 Y84.8847
G01 X18.3529 Y84.9583
G01 X18.3583 Y85.0317
G01 X18.3673 Y85.1048
G01 X18.3799 Y85.1773
G01 X18.3961 Y85.2491
G01 X18.4157 Y85.3201
G01 X18.4388 Y85.3900
G01 X18.4653 Y85.4587
G01 X18.4951 Y85.5260
G01 X18.5282 Y85.5918
G01 X18.5645 Y85.6558
G01 X18.6039 Y85.7180
G01 X18.6463 Y85.7782
G01 X18.6916 Y85.8362
G01 X18.7397 Y85.8920
G01 X18.7904 Y85.9453
G01 X18.8438 Y85.9961
G01 X18.8995 Y86.0442
G01 X18.9575 Y86.0895
G01 X19.0177 Y86.1319
G01 X19.0799 Y86.1712
G01 X19.1440 Y86.2075
G01 X19.2098 Y86.2406
G01 X19.2771 Y86.2705
G01 X19.3458 Y86.2970
G01 X19.4157 Y86.3201
G01 X19.4866 Y86.3397
G01 X19.5585 Y86.3558
G01 X19.6310 Y86.3684
G01 X19.7041 Y86.3774
G01 X19.7775 Y86.3828
G01 X19.8511 Y86.3846
G01 X19.9247 Y86.3828
G01 X19.9981 Y86.3774
G01 X20.0712 Y86.3684
G01 X20.1437 Y86.3558
G01 X20.2156 Y86.3397
G01 X20.2865 Y86.3201
G01 X20.3564 Y86.2970
G01 X20.4251 Y86.2705
G01 X20.4924 Y86.2406
G01 X20.5582 Y86.2075
G01 X20.6222 Y86.1712
G01 X20.6844 Y86.1319
G01 X20.7446 Y86.0895
G01 X20.8027 Y86.0442
G01 X20.8584 Y85.9961
G01 X20.9117 Y85.9453
G01 X20.9625 Y85.8920
G01 X21.0106 Y85.8362
G01 X21.0559 Y85.7782
G01 X21.0983 Y85.7180
G01 X21.1377 Y85.6558
G01 X21.1740 Y85.5918
G01 X21.2071 Y85.5260
G01 X21.2369 Y85.4587
G01 X21.2634 Y85.3900
G01 X21.2865 Y85.3201
G01 X21.3061 Y85.2491
G01 X21.3222 Y85.1773
G01 X21.3348 Y85.1048
G01 X21.3438 Y85.0317
G01 X21.3493 Y84.9583
G01 X21.3511 Y84.8847
G01 X21.3469 Y84.7726
G01 X21.3343 Y84.6611
G01 X21.3135 Y84.5509
G01 X21.2844 Y84.4425
G01 X21.2474 Y84.3367
G01 X21.2025 Y84.2338
G01 X21.1501 Y84.1347
G01 X21.0904 Y84.0397
G01 X21.0238 Y83.9494
G01 X20.9507 Y83.8644
G01 X20.8713 Y83.7851
G01 X20.7863 Y83.7119
G01 X20.6961 Y83.6453
G01 X20.6011 Y83.5856
G01 X20.5019 Y83.5332
G01 X20.3991 Y83.4884
G01 X20.2932 Y83.4513
G01 X20.1849 Y83.4223
G01 X20.0746 Y83.4014
G01 X19.9632 Y83.3889
G01 X19.8511 Y83.3847
G01 X19.7390 Y83.3889
G01 X19.6275 Y83.4014
G01 X19.5173 Y83.4223
G01 X19.4090 Y83.4513
G01 X19.3031 Y83.4884
G01 X19.2003 Y83.5332
G01 X19.1011 Y83.5856
G01 X19.0061 Y83.6453
G01 X18.9159 Y83.7119
G01 X18.8308 Y83.7851
G01 X18.7515 Y83.8644
G01 X18.6784 Y83.9494
G01 X18.6117 Y84.0397
G01 X18.5521 Y84.1347
G01 X18.4996 Y84.2338
G01 X18.4548 Y84.3367
G01 X18.4177 Y84.4425
G01 X18.3887 Y84.5509
G01 X18.3679 Y84.6611
G01 X18.3553 Y84.7726
G01 X18.3511 Y84.8847
G01 X18.3553 Y84.9968
G01 X18.3679 Y85.1082
G01 X18.3887 Y85.2184
G01 X18.4177 Y85.3268
G01 X18.4548 Y85.4327
G01 X18.4996 Y85.5355
G01 X18.5521 Y85.6347
G01 X18.6117 Y85.7296
G01 X18.6784 Y85.8199
G01 X18.7515 Y85.9049
G01 X18.8308 Y85.9842
G01 X18.9159 Y86.0574
G01 X19.0061 Y86.1240
G01 X19.1011 Y86.1837
G01 X19.2003 Y86.2361
G01 X19.3031 Y86.2810
G01 X19.4090 Y86.3180
G01 X19.5173 Y86.3470
G01 X19.6275 Y86.3679
G01 X19.7390 Y86.3805
G01 X19.8511 Y86.3846
G01 X19.9632 Y86.3805
G01 X20.0746 Y86.3679
G01 X20.1849 Y86.3470
G01 X20.2932 Y86.3180
G01 X20.3991 Y86.2810
G01 X20.5019 Y86.2361
G01 X20.6011 Y86.1837
G01 X20.6961 Y86.1240
G01 X20.7863 Y86.0574
G01 X20.8713 Y85.9842
G01 X20.9507 Y85.9049
G01 X21.0238 Y85.8199
G01 X21.0904 Y85.7296
G01 X21.1501 Y85.6347
G01 X21.2025 Y85.5355
G01 X21.2474 Y85.4327
G01 X21.2844 Y85.3268
G01 X21.3135 Y85.2184
G01 X21.3343 Y85.1082
G01 X21.3469 Y84.9968
G01 X21.3511 Y84.8847
G01 X21.3465 Y84.7801
G01 X21.3328 Y84.6763
G01 X21.3102 Y84.5741
G01 X21.2787 Y84.4742
G01 X21.2386 Y84.3775
G01 X21.1903 Y84.2847
G01 X21.1341 Y84.1964
G01 X21.0703 Y84.1133
G01 X20.9996 Y84.0361
G01 X20.9224 Y83.9654
G01 X20.8394 Y83.9017
G01 X20.7511 Y83.8454
G01 X20.6582 Y83.7971
G01 X20.5615 Y83.7570
G01 X20.4617 Y83.7256
G01 X20.3595 Y83.7029
G01 X20.2557 Y83.6892
G01 X20.1511 Y83.6847
G01 X20.0465 Y83.6892
G01 X19.9427 Y83.7029
G01 X19.8405 Y83.7256
G01 X19.7407 Y83.7570
G01 X19.6439 Y83.7971
G01 X19.5511 Y83.8454
G01 X19.4628 Y83.9017
G01 X19.3797 Y83.9654
G01 X19.3026 Y84.0361
G01 X19.2318 Y84.1133
G01 X19.1681 Y84.1964
G01 X19.1119 Y84.2847
G01 X19.0635 Y84.3775
G01 X19.0235 Y84.4742
G01 X18.9920 Y84.5741
G01 X18.9693 Y84.6763
G01 X18.9557 Y84.7801
G01 X18.9511 Y84.8847
G01 X18.9522 Y84.9288
G01 X18.9554 Y84.9729
G01 X18.9608 Y85.0167
G01 X18.9684 Y85.0602
G01 X18.9781 Y85.1033
G01 X18.9898 Y85.1459
G01 X19.0037 Y85.1879
G01 X19.0196 Y85.2291
G01 X19.0375 Y85.2695
G01 X19.0574 Y85.3089
G01 X19.0791 Y85.3474
G01 X19.1028 Y85.3847
G01 X19.1282 Y85.4208
G01 X19.1554 Y85.4556
G01 X19.1842 Y85.4891
G01 X19.2147 Y85.5211
G01 X19.2467 Y85.5515
G01 X19.2801 Y85.5804
G01 X19.3150 Y85.6076
G01 X19.3511 Y85.6330
G01 X19.3884 Y85.6566
G01 X19.4268 Y85.6784
G01 X19.4663 Y85.6983
G01 X19.5067 Y85.7162
G01 X19.5479 Y85.7321
G01 X19.5898 Y85.7459
G01 X19.6324 Y85.7577
G01 X19.6755 Y85.7674
G01 X19.7190 Y85.7749
G01 X19.7629 Y85.7803
G01 X19.8069 Y85.7836
G01 X19.8511 Y85.7847
G01 X19.8952 Y85.7836
G01 X19.9393 Y85.7803
G01 X19.9831 Y85.7749
G01 X20.0267 Y85.7674
G01 X20.0698 Y85.7577
G01 X20.1123 Y85.7459
G01 X20.1543 Y85.7321
G01 X20.1955 Y85.7162
G01 X20.2359 Y85.6983
G01 X20.2753 Y85.6784
G01 X20.3138 Y85.6566
G01 X20.3511 Y85.6330
G01 X20.3872 Y85.6076
G01 X20.4220 Y85.5804
G01 X20.4555 Y85.5515
G01 X20.4875 Y85.5211
G01 X20.5179 Y85.4891
G01 X20.5468 Y85.4556
G01 X20.5740 Y85.4208
G01 X20.5994 Y85.3847
G01 X20.6230 Y85.3474
G01 X20.6448 Y85.3089
G01 X20.6647 Y85.2695
G01 X20.6826 Y85.2291
G01 X20.6985 Y85.1879
G01 X20.7123 Y85.1459
G01 X20.7241 Y85.1033
G01 X20.7338 Y85.0602
G01 X20.7413 Y85.0167
G01 X20.7468 Y84.9729
G01 X20.7500 Y84.9288
G01 X20.7511 Y84.8847
G01 X20.7501 Y84.8418 Z-1.3472 F400
G01 X20.7470 Y84.7991 Z-1.3611
G01 X20.7419 Y84.7566 Z-1.3750
G01 X20.7348 Y84.7143 Z-1.3889
G01 X20.7257 Y84.6725 Z-1.4028
G01 X20.7146 Y84.6311 Z-1.4167
G01 X20.7016 Y84.5903 Z-1.4306
G01 X20.6866 Y84.5502 Z-1.4444
G01 X20.6698 Y84.5108 Z-1.4583
G01 X20.6510 Y84.4723 Z-1.4722
G01 X20.6305 Y84.4347 Z-1.4861
G01 X20.6082 Y84.3981 Z-1.5000
G01 X20.5842 Y84.3626 Z-1.5139
G01 X20.5585 Y84.3283 Z-1.5278
G01 X20.5313 Y84.2953 Z-1.5417
G01 X20.5024 Y84.2636 Z-1.5556
G01 X20.4722 Y84.2333 Z-1.5694
G01 X20.4405 Y84.2045 Z-1.5833
G01 X20.4074 Y84.1772 Z-1.5972
G01 X20.3731 Y84.1515 Z-1.6111
G01 X20.3377 Y84.1275 Z-1.6250
G01 X20.3011 Y84.1052 Z-1.6389
G01 X20.2635 Y84.0847 Z-1.6528
G01 X20.2250 Y84.0660 Z-1.6667
G01 X20.1856 Y84.0491 Z-1.6806
G01 X20.1454 Y84.0342 Z-1.6944
G01 X20.1046 Y84.0211 Z-1.7083
G01 X20.0633 Y84.0100 Z-1.7222
G01 X20.0214 Y84.0009 Z-1.7361
G01 X19.9792 Y83.9938 Z-1.7500
G01 X19.9366 Y83.9887 Z-1.7639
G01 X19.8939 Y83.9857 Z-1.7778
G01 X19.8511 Y83.9847 Z-1.7917
G01 X19.8083 Y83.9857 Z-1.8056
G01 X19.7655 Y83.9887 Z-1.8194
G01 X19.7230 Y83.9938 Z-1.8333
G01 X19.6808 Y84.0009 Z-1.8472
G01 X19.6389 Y84.0100 Z-1.8611
G01 X19.5975 Y84.0211 Z-1.8750
G01 X19.5567 Y84.0342 Z-1.8889
G01 X19.5166 Y84.0491 Z-1.9028
G01 X19.4772 Y84.0660 Z-1.9167
G01 X19.4387 Y84.0847 Z-1.9306
G01 X19.4011 Y84.1052 Z-1.9444
G01 X19.3645 Y84.1275 Z-1.9583
G01 X19.3290 Y84.1515 Z-1.9722
G01 X19.2947 Y84.1772 Z-1.9861
G01 X19.2617 Y84.2045 Z-2.0000
G01 X19.2300 Y84.2333 Z-2.0139
G01 X19.1997 Y84.2636 Z-2.0278
G01 X19.1709 Y84.2953 Z-2.0417
G01 X19.1436 Y84.3283 Z-2.0556
G01 X19.1180 Y84.3626 Z-2.0694
G01 X19.0940 Y84.3981 Z-2.0833
G01 X19.0717 Y84.4347 Z-2.0972
G01 X19.0511 Y84.4723 Z-2.1111
G01 X19.0324 Y84.5108 Z-2.1250
G01 X19.0156 Y84.5502 Z-2.1389
G01 X19.0006 Y84.5903 Z-2.1528
G01 X18.9875 Y84.6311 Z-2.1667
G01 X18.9765 Y84.6725 Z-2.1806
G01 X18.9674 Y84.7143 Z-2.1944
G01 X18.9602 Y84.7566 Z-2.2083
G01 X18.9552 Y84.7991 Z-2.2222
G01 X18.9521 Y84.8418 Z-2.2361
G01 X18.9511 Y84.8847 Z-2.2500
G01 X18.9521 Y84.9275 Z-2.2639
G01 X18.9552 Y84.9702 Z-2.2778
G01 X18.9602 Y85.0127 Z-2.2917
G01 X18.9674 Y85.0550 Z-2.3056
G01 X18.9765 Y85.0968 Z-2.3194
G01 X18.9875 Y85.1382 Z-2.3333
G01 X19.0006 Y85.1790 Z-2.3472
G01 X19.0156 Y85.2192 Z-2.3611
G01 X19.0324 Y85.2585 Z-2.3750
G01 X19.0511 Y85.2971 Z-2.3889
G01 X19.0717 Y85.3347 Z-2.4028
G01 X19.0940 Y85.3712 Z-2.4167
G01 X19.1180 Y85.4067 Z-2.4306
G01 X19.1436 Y85.4410 Z-2.4444
G01 X19.1709 Y85.4740 Z-2.4583
G01 X19.1997 Y85.5057 Z-2.4722
G01 X19.2300 Y85.5360 Z-2.4861
G01 X19.2617 Y85.5648 Z-2.5000
G01 X19.2947 Y85.5921 Z-2.5139
G01 X19.3290 Y85.6178 Z-2.5278
G01 X19.3645 Y85.6418 Z-2.5417
G01 X19.4011 Y85.6641 Z-2.5556
G01 X19.4387 Y85.6846 Z-2.5694
G01 X19.4772 Y85.7033 Z-2.5833
G01 X19.5166 Y85.7202 Z-2.5972
G01 X19.5567 Y85.7352 Z-2.6111
G01 X19.5975 Y85.7482 Z-2.6250
G01 X19.6389 Y85.7593 Z-2.6389
G01 X19.6808 Y85.7684 Z-2.6528
G01 X19.7230 Y85.7755 Z-2.6667
G01 X19.7655 Y85.7806 Z-2.6806
G01 X19.8083 Y85.7836 Z-2.6944
G01 X19.8511 Y85.7847 Z-2.7083
G01 X19.8939 Y85.7836 Z-2.7222
G01 X19.9366 Y85.7806 Z-2.7361
G01 X19.9792 Y85.7755 Z-2.7500
G01 X20.0214 Y85.7684 Z-2.7639
G01 X20.0633 Y85.7593 Z-2.7778
G01 X20.1046 Y85.7482 Z-2.7917
G01 X20.1454 Y85.7352 Z-2.8056
G01 X20.1856 Y85.7202 Z-2.8194
G01 X20.2250 Y85.7033 Z-2.8333
G01 X20.2635 Y85.6846 Z-2.8472
G01 X20.3011 Y85.6641 Z-2.8611
G01 X20.3377 Y85.6418 Z-2.8750
G01 X20.3731 Y85.6178 Z-2.8889
G01 X20.4074 Y85.5921 Z-2.9028
G01 X20.4405 Y85.5648 Z-2.9167
G01 X20.4722 Y85.5360 Z-2.9306
G01 X20.5024 Y85.5057 Z-2.9444
G01 X20.5313 Y85.4740 Z-2.9583
G01 X20.5585 Y85.4410 Z-2.9722
G01 X20.5842 Y85.4067 Z-2.9861
G01 X20.6082 Y85.3712 Z-3.0000
G01 X20.6305 Y85.3347 Z-3.0139
G01 X20.6510 Y85.2971 Z-3.0278
G01 X20.6698 Y85.2585 Z-3.0417
G01 X20.6866 Y85.2192 Z-3.0556
G01 X20.7016 Y85.1790 Z-3.0694
G01 X20.7146 Y85.1382 Z-3.0833
G01 X20.7257 Y85.0968 Z-3.0972
G01 X20.7348 Y85.0550 Z-3.1111
G01 X20.7419 Y85.0127 Z-3.1250
G01 X20.7470 Y84.9702 Z-3.1389
G01 X20.7501 Y84.9275 Z-3.1528
G01 X20.7511 Y84.8847 Z-3.1667
G01 X20.7501 Y84.8418
G01 X20.7470 Y84.7991
G01 X20.7419 Y84.7566
G01 X20.7348 Y84.7143
G01 X20.7257 Y84.6725
G01 X20.7146 Y84.6311
G01 X20.7016 Y84.5903
G01 X20.6866 Y84.5502
G01 X20.6698 Y84.5108
G01 X20.6510 Y84.4723
G01 X20.6305 Y84.4347
G01 X20.6082 Y84.3981
G01 X20.5842 Y84.3626
G01 X20.5585 Y84.3283
G01 X20.5313 Y84.2953
G01 X20.5024 Y84.2636
G01 X20.4722 Y84.2333
G01 X20.4405 Y84.2045
G01 X20.4074 Y84.1772
G01 X20.3731 Y84.1515
G01 X20.3377 Y84.1275
G01 X20.3011 Y84.1052
G01 X20.2635 Y84.0847
G01 X20.2250 Y84.0660
G01 X20.1856 Y84.0491
G01 X20.1454 Y84.0342
G01 X20.1046 Y84.0211
G01 X20.0633 Y84.0100
G01 X20.0214 Y84.0009
G01 X19.9792 Y83.9938
G01 X19.9366 Y83.9887
G01 X19.8939 Y83.9857
G01 X19.8511 Y83.9847
G01 X19.8083 Y83.9857
G01 X19.7655 Y83.9887
G01 X19.7230 Y83.9938
G01 X19.6808 Y84.0009
G01 X19.6389 Y84.0100
G01 X19.5975 Y84.0211
G01 X19.5567 Y84.0342
G01 X19.5166 Y84.0491
G01 X19.4772 Y84.0660
G01 X19.4387 Y84.0847
G01 X19.4011 Y84.1052
G01 X19.3645 Y84.1275
G01 X19.3290 Y84.1515
G01 X19.2947 Y84.1772
G01 X19.2617 Y84.2045
G01 X19.2300 Y84.2333
G01 X19.1997 Y84.2636
G01 X19.1709 Y84.2953
G01 X19.1436 Y84.3283
G01 X19.1180 Y84.3626
G01 X19.0940 Y84.3981
G01 X19.0717 Y84.4347
G01 X19.0511 Y84.4723
G01 X19.0324 Y84.5108
G01 X19.0156 Y84.5502
G01 X19.0006 Y84.5903
G01 X18.9875 Y84.6311
G01 X18.9765 Y84.6725
G01 X18.9674 Y84.7143
G01 X18.9602 Y84.7566
G01 X18.9552 Y84.7991
G01 X18.9521 Y84.8418
G01 X18.9511 Y84.8847
G01 X18.9521 Y84.9275
G01 X18.9552 Y84.9702
G01 X18.9602 Y85.0127
G01 X18.9674 Y85.0550
G01 X18.9765 Y85.0968
G01 X18.9875 Y85.1382
G01 X19.0006 Y85.1790
G01 X19.0156 Y85.2192
G01 X19.0324 Y85.2585
G01 X19.0511 Y85.2971
G01 X19.0717 Y85.3347
G01 X19.0940 Y85.3712
G01 X19.1180 Y85.4067
G01 X19.1436 Y85.4410
G01 X19.1709 Y85.4740
G01 X19.1997 Y85.5057
G01 X19.2300 Y85.5360
G01 X19.2617 Y85.5648
G01 X19.2947 Y85.5921
G01 X19.3290 Y85.6178
G01 X19.3645 Y85.6418
G01 X19.4011 Y85.6641
G01 X19.4387 Y85.6846
G01 X19.4772 Y85.7033
G01 X19.5166 Y85.7202
G01 X19.5567 Y85.7352
G01 X19.5975 Y85.7482
G01 X19.6389 Y85.7593
G01 X19.6808 Y85.7684
G01 X19.7230 Y85.7755
G01 X19.7655 Y85.7806
G01 X19.8083 Y85.7836
G01 X19.8511 Y85.7847
G01 X19.8939 Y85.7836
G01 X19.9366 Y85.7806
G01 X19.9792 Y85.7755
G01 X20.0214 Y85.7684
G01 X20.0633 Y85.7593
G01 X20.1046 Y85.7482
G01 X20.1454 Y85.7352
G01 X20.1856 Y85.7202
G01 X20.2250 Y85.7033
G01 X20.2635 Y85.6846
G01 X20.3011 Y85.6641
G01 X20.3377 Y85.6418
G01 X20.3731 Y85.6178
G01 X20.4074 Y85.5921
G01 X20.4405 Y85.5648
G01 X20.4722 Y85.5360
G01 X20.5024 Y85.5057
G01 X20.5313 Y85.4740
G01 X20.5585 Y85.4410
G01 X20.5842 Y85.4067
G01 X20.6082 Y85.3712
G01 X20.6305 Y85.3347
G01 X20.6510 Y85.2971
G01 X20.6698 Y85.2585
G01 X20.6866 Y85.2192
G01 X20.7016 Y85.1790
G01 X20.7146 Y85.1382
G01 X20.7257 Y85.0968
G01 X20.7348 Y85.0550
G01 X20.7419 Y85.0127
G01 X20.7470 Y84.9702
G01 X20.7501 Y84.9275
G01 X20.7511 Y84.8847
G01 X20.7586 Y84.8536 F1000
G01 X20.7651 Y84.8223
G01 X20.7705 Y84.7908
G01 X20.7747 Y84.7592
G01 X20.7779 Y84.7274
G01 X20.7800 Y84.6955
G01 X20.7810 Y84.6635
G01 X20.7808 Y84.6316
G01 X20.7796 Y84.5996
G01 X20.7772 Y84.5678
G01 X20.7738 Y84.5360
G01 X20.7692 Y84.5044
G01 X20.7595 Y84.4529
G01 X20.7472 Y84.4019
G01 X20.7322 Y84.3517
G01 X20.7147 Y84.3023
G01 X20.6947 Y84.2539
G01 X20.6722 Y84.2066
G01 X20.6473 Y84.1605
G01 X20.6201 Y84.1157
G01 X20.5880 Y84.0687
G01 X20.5537 Y84.0233
G01 X20.5170 Y83.9798
G01 X20.4781 Y83.9382
G01 X20.4372 Y83.8987
G01 X20.3944 Y83.8613
G01 X20.3496 Y83.8262
G01 X20.3031 Y83.7933
G01 X20.2512 Y83.7605
G01 X20.1977 Y83.7304
G01 X20.1428 Y83.7030
G01 X20.0865 Y83.6784
G01 X20.0290 Y83.6568
G01 X19.9705 Y83.6381
G01 X19.9112 Y83.6223
G01 X19.8511 Y83.6097
G01 X19.7860 Y83.5993
G01 X19.7204 Y83.5923
G01 X19.6546 Y83.5886
G01 X19.5887 Y83.5883
G01 X19.5228 Y83.5913
G01 X19.4572 Y83.5976
G01 X19.3919 Y83.6072
G01 X19.3273 Y83.6201
G01 X19.2590 Y83.6374
G01 X19.1916 Y83.6581
G01 X19.1254 Y83.6821
G01 X19.0605 Y83.7095
G01 X18.9970 Y83.7401
G01 X18.9351 Y83.7739
G01 X18.8751 Y83.8107
G01 X18.8169 Y83.8505
G01 X18.7634 Y83.9000
G01 X18.7124 Y83.9520
G01 X18.6640 Y84.0064
G01 X18.6184 Y84.0632
G01 X18.5756 Y84.1222
G01 X18.5357 Y84.1831
G01 X18.4989 Y84.2460
G01 X18.4653 Y84.3106
G01 X18.4388 Y84.3793
G01 X18.4157 Y84.4492
G01 X18.3961 Y84.5202
G01 X18.3799 Y84.5920
G01 X18.3673 Y84.6646
G01 X18.3583 Y84.7376
G01 X18.3529 Y84.8111
G01 X18.3511 Y84.8847
G01 X18.3529 Y84.9583
G01 X18.3583 Y85.0317
G01 X18.3673 Y85.1048
G01 X18.3799 Y85.1773
G01 X18.3961 Y85.2491
G01 X18.4157 Y85.3201
G01 X18.4388 Y85.3900
G01 X18.4653 Y85.4587
G01 X18.4951 Y85.5260
G01 X18.5282 Y85.5918
G01 X18.5645 Y85.6558
G01 X18.6039 Y85.7180
G01 X18.6463 Y85.7782
G01 X18.6916 Y85.8362
G01 X18.7397 Y85.8920
G01 X18.7904 Y85.9453
G01 X18.8438 Y85.9961
G01 X18.8995 Y86.0442
G01 X18.9575 Y86.0895
G01 X19.0177 Y86.1319
G01 X19.0799 Y86.1712
G01 X19.1440 Y86.2075
G01 X19.2098 Y86.2406
G01 X19.2771 Y86.2705
G01 X19.3458 Y86.2970
G01 X19.4157 Y86.3201
G01 X19.4866 Y86.3397
G01 X19.5585 Y86.3558
G01 X19.6310 Y86.3684
G01 X19.7041 Y86.3774
G01 X19.7775 Y86.3828
G01 X19.8511 Y86.3846
G01 X19.9247 Y86.3828
G01 X19.9981 Y86.3774
G01 X20.0712 Y86.3684
G01 X20.1437 Y86.3558
G01 X20.2156 Y86.3397
G01 X20.2865 Y86.3201
G01 X20.3564 Y86.2970
G01 X20.4251 Y86.2705
G01 X20.4924 Y86.2406
G01 X20.5582 Y86.2075
G01 X20.6222 Y86.1712
G01 X20.6844 Y86.1319
G01 X20.7446 Y86.0895
G01 X20.8027 Y86.0442
G01 X20.8584 Y85.9961
G01 X20.9117 Y85.9453
G01 X20.9625 Y85.8920
G01 X21.0106 Y85.8362
G01 X21.0559 Y85.7782
G01 X21.0983 Y85.7180
G01 X21.1377 Y85.6558
G01 X21.1740 Y85.5918
G01 X21.2071 Y85.5260
G01 X21.2369 Y85.4587
G01 X21.2634 Y85.3900
G01 X21.2865 Y85.3201
G01 X21.3061 Y85.2491
G01 X21.3222 Y85.1773
G01 X21.3348 Y85.1048
G01 X21.3438 Y85.0317
G01 X21.3493 Y84.9583
G01 X21.3511 Y84.8847
G01 X21.3469 Y84.7726
G01 X21.3343 Y84.6611
G01 X21.3135 Y84.5509
G01 X21.2844 Y84.4425
G01 X21.2474 Y84.3367
G01 X21.2025 Y84.2338
G01 X21.1501 Y84.1347
G01 X21.0904 Y84.0397
G01 X21.0238 Y83.9494
G01 X20.9507 Y83.8644
G01 X20.8713 Y83.7851
G01 X20.7863 Y83.7119
G01 X20.6961 Y83.6453
G01 X20.6011 Y83.5856
G01 X20.5019 Y83.5332
G01 X20.3991 Y83.4884
G01 X20.2932 Y83.4513
G01 X20.1849 Y83.4223
G01 X20.0746 Y83.4014
G01 X19.9632 Y83.3889
G01 X19.8511 Y83.3847
G01 X19.7390 Y83.3889
G01 X19.6275 Y83.4014
G01 X19.5173 Y83.4223
G01 X19.4090 Y83.4513
G01 X19.3031 Y83.4884
G01 X19.2003 Y83.5332
G01 X19.1011 Y83.5856
G01 X19.0061 Y83.6453
G01 X18.9159 Y83.7119
G01 X18.8308 Y83.7851
G01 X18.7515 Y83.8644
G01 X18.6784 Y83.9494
G01 X18.6117 Y84.0397
G01 X18.5521 Y84.1347
G01 X18.4996 Y84.2338
G01 X18.4548 Y84.3367
G01 X18.4177 Y84.4425
G01 X18.3887 Y84.5509
G01 X18.3679 Y84.6611
G01 X18.3553 Y84.7726
G01 X18.3511 Y84.8847
G01 X18.3553 Y84.9968
G01 X18.3679 Y85.1082
G01 X18.3887 Y85.2184
G01 X18.4177 Y85.3268
G01 X18.4548 Y85.4327
G01 X18.4996 Y85.5355
G01 X18.5521 Y85.6347
G01 X18.6117 Y85.7296
G01 X18.6784 Y85.8199
G01 X18.7515 Y85.9049
G01 X18.8308 Y85.9842
G01 X18.9159 Y86.0574
G01 X19.0061 Y86.1240
G01 X19.1011 Y86.1837
G01 X19.2003 Y86.2361
G01 X19.3031 Y86.2810
G01 X19.4090 Y86.3180
G01 X19.5173 Y86.3470
G01 X19.6275 Y86.3679
G01 X19.7390 Y86.3805
G01 X19.8511 Y86.3846
G01 X19.9632 Y86.3805
G01 X20.0746 Y86.3679
G01 X20.1849 Y86.3470
G01 X20.2932 Y86.3180
G01 X20.3991 Y86.2810
G01 X20.5019 Y86.2361
G01 X20.6011 Y86.1837
G01 X20.6961 Y86.1240
G01 X20.7863 Y86.0574
G01 X20.8713 Y85.9842
G01 X20.9507 Y85.9049
G01 X21.0238 Y85.8199
G01 X21.0904 Y85.7296
G01 X21.1501 Y85.6347
G01 X21.2025 Y85.5355
G01 X21.2474 Y85.4327
G01 X21.2844 Y85.3268
G01 X21.3135 Y85.2184
G01 X21.3343 Y85.1082
G01 X21.3469 Y84.9968
G01 X21.3511 Y84.8847
G01 X21.3465 Y84.7801
G01 X21.3328 Y84.6763
G01 X21.3102 Y84.5741
G01 X21.2787 Y84.4742
G01 X21.2386 Y84.3775
G01 X21.1903 Y84.2847
G01 X21.1341 Y84.1964
G01 X21.0703 Y84.1133
G01 X20.9996 Y84.0361
G01 X20.9224 Y83.9654
G01 X20.8394 Y83.9017
G01 X20.7511 Y83.8454
G01 X20.6582 Y83.7971
G01 X20.5615 Y83.7570
G01 X20.4617 Y83.7256
G01 X20.3595 Y83.7029
G01 X20.2557 Y83.6892
G01 X20.1511 Y83.6847
G01 X20.0465 Y83.6892
G01 X19.9427 Y83.7029
G01 X19.8405 Y83.7256
G01 X19.7407 Y83.7570
G01 X19.6439 Y83.7971
G01 X19.5511 Y83.8454
G01 X19.4628 Y83.9017
G01 X19.3797 Y83.9654
G01 X19.3026 Y84.0361
G01 X19.2318 Y84.1133
G01 X19.1681 Y84.1964
G01 X19.1119 Y84.2847
G01 X19.0635 Y84.3775
G01 X19.0235 Y84.4742
G01 X18.9920 Y84.5741
G01 X18.9693 Y84.6763
G01 X18.9557 Y84.7801
G01 X18.9511 Y84.8847
G01 X18.9522 Y84.9288
G01 X18.9554 Y84.9729
G01 X18.9608 Y85.0167
G01 X18.9684 Y85.0602
G01 X18.9781 Y85.1033
G01 X18.9898 Y85.1459
G01 X19.0037 Y85.1879
G01 X19.0196 Y85.2291
G01 X19.0375 Y85.2695
G01 X19.0574 Y85.3089
G01 X19.0791 Y85.3474
G01 X19.1028 Y85.3847
G01 X19.1282 Y85.4208
G01 X19.1554 Y85.4556
G01 X19.1842 Y85.4891
G01 X19.2147 Y85.5211
G01 X19.2467 Y85.5515
G01 X19.2801 Y85.5804
G01 X19.3150 Y85.6076
G01 X19.3511 Y85.6330
G01 X19.3884 Y85.6566
G01 X19.4268 Y85.6784
G01 X19.4663 Y85.6983
G01 X19.5067 Y85.7162
G01 X19.5479 Y85.7321
G01 X19.5898 Y85.7459
G01 X19.6324 Y85.7577
G01 X19.6755 Y85.7674
G01 X19.7190 Y85.7749
G01 X19.7629 Y85.7803
G01 X19.8069 Y85.7836
G01 X19.8511 Y85.7847
G01 X19.8952 Y85.7836
G01 X19.9393 Y85.7803
G01 X19.9831 Y85.7749
G01 X20.0267 Y85.7674
G01 X20.0698 Y85.7577
G01 X20.1123 Y85.7459
G01 X20.1543 Y85.7321
G01 X20.1955 Y85.7162
G01 X20.2359 Y85.6983
G01 X20.2753 Y85.6784
G01 X20.3138 Y85.6566
G01 X20.3511 Y85.6330
G01 X20.3872 Y85.6076
G01 X20.4220 Y85.5804
G01 X20.4555 Y85.5515
G01 X20.4875 Y85.5211
G01 X20.5179 Y85.4891
G01 X20.5468 Y85.4556
G01 X20.5740 Y85.4208
G01 X20.5994 Y85.3847
G01 X20.6230 Y85.3474
G01 X20.6448 Y85.3089
G01 X20.6647 Y85.2695
G01 X20.6826 Y85.2291
G01 X20.6985 Y85.1879
G01 X20.7123 Y85.1459
G01 X20.7241 Y85.1033
G01 X20.7338 Y85.0602
G01 X20.7413 Y85.0167
G01 X20.7468 Y84.9729
G01 X20.7500 Y84.9288
G01 X20.7511 Y84.8847
G01 X20.7501 Y84.8418 Z-3.1806 F400
G01 X20.7470 Y84.7991 Z-3.1944
G01 X20.7419 Y84.7566 Z-3.2083
G01 X20.7348 Y84.7143 Z-3.2222
G01 X20.7257 Y84.6725 Z-3.2361
G01 X20.7146 Y84.6311 Z-3.2500
G01 X20.7016 Y84.5903 Z-3.2639
G01 X20.6866 Y84.5502 Z-3.2778
G01 X20.6698 Y84.5108 Z-3.2917
G01 X20.6510 Y84.4723 Z-3.3056
G01 X20.6305 Y84.4347 Z-3.3194
G01 X20.6082 Y84.3981 Z-3.3333
G01 X20.5842 Y84.3626 Z-3.3472
G01 X20.5585 Y84.3283 Z-3.3611
G01 X20.5313 Y84.2953 Z-3.3750
G01 X20.5024 Y84.2636 Z-3.3889
G01 X20.4722 Y84.2333 Z-3.4028
G01 X20.4405 Y84.2045 Z-3.4167
G01 X20.4074 Y84.1772 Z-3.4306
G01 X20.3731 Y84.1515 Z-3.4444
G01 X20.3377 Y84.1275 Z-3.4583
G01 X20.3011 Y84.1052 Z-3.4722
G01 X20.2635 Y84.0847 Z-3.4861
G01 X20.2250 Y84.0660 Z-3.5000
G01 X20.1856 Y84.0491 Z-3.5139
G01 X20.1454 Y84.0342 Z-3.5278
G01 X20.1046 Y84.0211 Z-3.5417
G01 X20.0633 Y84.0100 Z-3.5556
G01 X20.0214 Y84.0009 Z-3.5694
G01 X19.9792 Y83.9938 Z-3.5833
G01 X19.9366 Y83.9887 Z-3.5972
G01 X19.8939 Y83.9857 Z-3.6111
G01 X19.8511 Y83.9847 Z-3.6250
G01 X19.8083 Y83.9857 Z-3.6389
G01 X19.7655 Y83.9887 Z-3.6528
G01 X19.7230 Y83.9938 Z-3.6667
G01 X19.6808 Y84.0009 Z-3.6806
G01 X19.6389 Y84.0100 Z-3.6944
G01 X19.5975 Y84.0211 Z-3.7083
G01 X19.5567 Y84.0342 Z-3.7222
G01 X19.5166 Y84.0491 Z-3.7361
G01 X19.4772 Y84.0660 Z-3.7500
G01 X19.4387 Y84.0847 Z-3.7639
G01 X19.4011 Y84.1052 Z-3.7778
G01 X19.3645 Y84.1275 Z-3.7917
G01 X19.3290 Y84.1515 Z-3.8056
G01 X19.2947 Y84.1772 Z-3.8194
G01 X19.2617 Y84.2045 Z-3.8333
G01 X19.2300 Y84.2333 Z-3.8472
G01 X19.1997 Y84.2636 Z-3.8611
G01 X19.1709 Y84.2953 Z-3.8750
G01 X19.1436 Y84.3283 Z-3.8889
G01 X19.1180 Y84.3626 Z-3.9028
G01 X19.0940 Y84.3981 Z-3.9167
G01 X19.0717 Y84.4347 Z-3.9306
G01 X19.0511 Y84.4723 Z-3.9444
G01 X19.0324 Y84.5108 Z-3.9583
G01 X19.0156 Y84.5502 Z-3.9722
G01 X19.0006 Y84.5903 Z-3.9861
G01 X18.9875 Y84.6311 Z-4.0000
G01 X18.9765 Y84.6725 Z-4.0139
G01 X18.9674 Y84.7143 Z-4.0278
G01 X18.9602 Y84.7566 Z-4.0417
G01 X18.9552 Y84.7991 Z-4.0556
G01 X18.9521 Y84.8418 Z-4.0694
G01 X18.9511 Y84.8847 Z-4.0833
G01 X18.9521 Y84.9275 Z-4.0972
G01 X18.9552 Y84.9702 Z-4.1111
G01 X18.9602 Y85.0127 Z-4.1250
G01 X18.9674 Y85.0550 Z-4.1389
G01 X18.9765 Y85.0968 Z-4.1528
G01 X18.9875 Y85.1382 Z-4.1667
G01 X19.0006 Y85.1790 Z-4.1806
G01 X19.0156 Y85.2192 Z-4.1944
G01 X19.0324 Y85.2585 Z-4.2083
G01 X19.0511 Y85.2971 Z-4.2222
G01 X19.0717 Y85.3347 Z-4.2361
G01 X19.0940 Y85.3712 Z-4.2500
G01 X19.1180 Y85.4067 Z-4.2639
G01 X19.1436 Y85.4410 Z-4.2778
G01 X19.1709 Y85.4740 Z-4.2917
G01 X19.1997 Y85.5057 Z-4.3056
G01 X19.2300 Y85.5360 Z-4.3194
G01 X19.2617 Y85.5648 Z-4.3333
G01 X19.2947 Y85.5921 Z-4.3472
G01 X19.3290 Y85.6178 Z-4.3611
G01 X19.3645 Y85.6418 Z-4.3750
G01 X19.4011 Y85.6641 Z-4.3889
G01 X19.4387 Y85.6846 Z-4.4028
G01 X19.4772 Y85.7033 Z-4.4167
G01 X19.5166 Y85.7202 Z-4.4306
G01 X19.5567 Y85.7352 Z-4.4444
G01 X19.5975 Y85.7482 Z-4.4583
G01 X19.6389 Y85.7593 Z-4.4722
G01 X19.6808 Y85.7684 Z-4.4861
G01 X19.7230 Y85.7755 Z-4.5000
G01 X19.7655 Y85.7806 Z-4.5139
G01 X19.8083 Y85.7836 Z-4.5278
G01 X19.8511 Y85.7847 Z-4.5417
G01 X19.8939 Y85.7836 Z-4.5556
G01 X19.9366 Y85.7806 Z-4.5694
G01 X19.9792 Y85.7755 Z-4.5833
G01 X20.0214 Y85.7684 Z-4.5972
G01 X20.0633 Y85.7593 Z-4.6111
G01 X20.1046 Y85.7482 Z-4.6250
G01 X20.1454 Y85.7352 Z-4.6389
G01 X20.1856 Y85.7202 Z-4.6528
G01 X20.2250 Y85.7033 Z-4.6667
G01 X20.2635 Y85.6846 Z-4.6806
G01 X20.3011 Y85.6641 Z-4.6944
G01 X20.3377 Y85.6418 Z-4.7083
G01 X20.3731 Y85.6178 Z-4.7222
G01 X20.4074 Y85.5921 Z-4.7361
G01 X20.4405 Y85.5648 Z-4.7500
G01 X20.4722 Y85.5360 Z-4.7639
G01 X20.5024 Y85.5057 Z-4.7778
G01 X20.5313 Y85.4740 Z-4.7917
G01 X20.5585 Y85.4410 Z-4.8056
G01 X20.5842 Y85.4067 Z-4.8194
G01 X20.6082 Y85.3712 Z-4.8333
G01 X20.6305 Y85.3347 Z-4.8472
G01 X20.6510 Y85.2971 Z-4.8611
G01 X20.6698 Y85.2585 Z-4.8750
G01 X20.6866 Y85.2192 Z-4.8889
G01 X20.7016 Y85.1790 Z-4.9028
G01 X20.7146 Y85.1382 Z-4.9167
G01 X20.7257 Y85.0968 Z-4.9306
G01 X20.7348 Y85.0550 Z-4.9444
G01 X20.7419 Y85.0127 Z-4.9583
G01 X20.7470 Y84.9702 Z-4.9722
G01 X20.7501 Y84.9275 Z-4.9861
G01 X20.7511 Y84.8847 Z-5.0000
G01 X20.7501 Y84.8418
G01 X20.7470 Y84.7991
G01 X20.7419 Y84.7566
G01 X20.7348 Y84.7143
G01 X20.7257 Y84.6725
G01 X20.7146 Y84.6311
G01 X20.7016 Y84.5903
G01 X20.6866 Y84.5502
G01 X20.6698 Y84.5108
G01 X20.6510 Y84.4723
G01 X20.6305 Y84.4347
G01 X20.6082 Y84.3981
G01 X20.5842 Y84.3626
G01 X20.5585 Y84.3283
G01 X20.5313 Y84.2953
G01 X20.5024 Y84.2636
G01 X20.4722 Y84.2333
G01 X20.4405 Y84.2045
G01 X20.4074 Y84.1772
G01 X20.3731 Y84.1515
G01 X20.3377 Y84.1275
G01 X20.3011 Y84.1052
G01 X20.2635 Y84.0847
G01 X20.2250 Y84.0660
G01 X20.1856 Y84.0491
G01 X20.1454 Y84.0342
G01 X20.1046 Y84.0211
G01 X20.0633 Y84.0100
G01 X20.0214 Y84.0009
G01 X19.9792 Y83.9938
G01 X19.9366 Y83.9887
G01 X19.8939 Y83.9857
G01 X19.8511 Y83.9847
G01 X19.8083 Y83.9857
G01 X19.7655 Y83.9887
G01 X19.7230 Y83.9938
G01 X19.6808 Y84.0009
G01 X19.6389 Y84.0100
G01 X19.5975 Y84.0211
G01 X19.5567 Y84.0342
G01 X19.5166 Y84.0491
G01 X19.4772 Y84.0660
G01 X19.4387 Y84.0847
G01 X19.4011 Y84.1052
G01 X19.3645 Y84.1275
G01 X19.3290 Y84.1515
G01 X19.2947 Y84.1772
G01 X19.2617 Y84.2045
G01 X19.2300 Y84.2333
G01 X19.1997 Y84.2636
G01 X19.1709 Y84.2953
G01 X19.1436 Y84.3283
G01 X19.1180 Y84.3626
G01 X19.0940 Y84.3981
G01 X19.0717 Y84.4347
G01 X19.0511 Y84.4723
G01 X19.0324 Y84.5108
G01 X19.0156 Y84.5502
G01 X19.0006 Y84.5903
G01 X18.9875 Y84.6311
G01 X18.9765 Y84.6725
G01 X18.9674 Y84.7143
G01 X18.9602 Y84.7566
G01 X18.9552 Y84.7991
G01 X18.9521 Y84.8418
G01 X18.9511 Y84.8847
G01 X18.9521 Y84.9275
G01 X18.9552 Y84.9702
G01 X18.9602 Y85.0127
G01 X18.9674 Y85.0550
G01 X18.9765 Y85.0968
G01 X18.9875 Y85.1382
G01 X19.0006 Y85.1790
G01 X19.0156 Y85.2192
G01 X19.0324 Y85.2585
G01 X19.0511 Y85.2971
G01 X19.0717 Y85.3347
G01 X19.0940 Y85.3712
G01 X19.1180 Y85.4067
G01 X19.1436 Y85.4410
G01 X19.1709 Y85.4740
G01 X19.1997 Y85.5057
G01 X19.2300 Y85.5360
G01 X19.2617 Y85.5648
G01 X19.2947 Y85.5921
G01 X19.3290 Y85.6178
G01 X19.3645 Y85.6418
G01 X19.4011 Y85.6641
G01 X19.4387 Y85.6846
G01 X19.4772 Y85.7033
G01 X19.5166 Y85.7202
G01 X19.5567 Y85.7352
G01 X19.5975 Y85.7482
G01 X19.6389 Y85.7593
G01 X19.6808 Y85.7684
G01 X19.7230 Y85.7755
G01 X19.7655 Y85.7806
G01 X19.8083 Y85.7836
G01 X19.8511 Y85.7847
G01 X19.8939 Y85.7836
G01 X19.9366 Y85.7806
G01 X19.9792 Y85.7755
G01 X20.0214 Y85.7684
G01 X20.0633 Y85.7593
G01 X20.1046 Y85.7482
G01 X20.1454 Y85.7352
G01 X20.1856 Y85.7202
G01 X20.2250 Y85.7033
G01 X20.2635 Y85.6846
G01 X20.3011 Y85.6641
G01 X20.3377 Y85.6418
G01 X20.3731 Y85.6178
G01 X20.4074 Y85.5921
G01 X20.4405 Y85.5648
G01 X20.4722 Y85.5360
G01 X20.5024 Y85.5057
G01 X20.5313 Y85.4740
G01 X20.5585 Y85.4410
G01 X20.5842 Y85.4067
G01 X20.6082 Y85.3712
G01 X20.6305 Y85.3347
G01 X20.6510 Y85.2971
G01 X20.6698 Y85.2585
G01 X20.6866 Y85.2192
G01 X20.7016 Y85.1790
G01 X20.7146 Y85.1382
G01 X20.7257 Y85.0968
G01 X20.7348 Y85.0550
G01 X20.7419 Y85.0127
G01 X20.7470 Y84.9702
G01 X20.7501 Y84.9275
G01 X20.7511 Y84.8847
G01 X20.7586 Y84.8536 F1000
G01 X20.7651 Y84.8223
G01 X20.7705 Y84.7908
G01 X20.7747 Y84.7592
G01 X20.7779 Y84.7274
G01 X20.7800 Y84.6955
G01 X20.7810 Y84.6635
G01 X20.7808 Y84.6316
G01 X20.7796 Y84.5996
G01 X20.7772 Y84.5678
G01 X20.7738 Y84.5360
G01 X20.7692 Y84.5044
G01 X20.7595 Y84.4529
G01 X20.7472 Y84.4019
G01 X20.7322 Y84.3517
G01 X20.7147 Y84.3023
G01 X20.6947 Y84.2539
G01 X20.6722 Y84.2066
G01 X20.6473 Y84.1605
G01 X20.6201 Y84.1157
G01 X20.5880 Y84.0687
G01 X20.5537 Y84.0233
G01 X20.5170 Y83.9798
G01 X20.4781 Y83.9382
G01 X20.4372 Y83.8987
G01 X20.3944 Y83.8613
G01 X20.3496 Y83.8262
G01 X20.3031 Y83.7933
G01 X20.2512 Y83.7605
G01 X20.1977 Y83.7304
G01 X20.1428 Y83.7030
G01 X20.0865 Y83.6784
G01 X20.0290 Y83.6568
G01 X19.9705 Y83.6381
G01 X19.9112 Y83.6223
G01 X19.8511 Y83.6097
G01 X19.7860 Y83.5993
G01 X19.7204 Y83.5923
G01 X19.6546 Y83.5886
G01 X19.5887 Y83.5883
G01 X19.5228 Y83.5913
G01 X19.4572 Y83.5976
G01 X19.3919 Y83.6072
G01 X19.3273 Y83.6201
G01 X19.2590 Y83.6374
G01 X19.1916 Y83.6581
G01 X19.1254 Y83.6821
G01 X19.0605 Y83.7095
G01 X18.9970 Y83.7401
G01 X18.9351 Y83.7739
G01 X18.8751 Y83.8107
G01 X18.8169 Y83.8505
G01 X18.7634 Y83.9000
G01 X18.7124 Y83.9520
G01 X18.6640 Y84.0064
G01 X18.6184 Y84.0632
G01 X18.5756 Y84.1222
G01 X18.5357 Y84.1831
G01 X18.4989 Y84.2460
G01 X18.4653 Y84.3106
G01 X18.4388 Y84.3793
G01 X18.4157 Y84.4492
G01 X18.3961 Y84.5202
G01 X18.3799 Y84.5920
G01 X18.3673 Y84.6646
G01 X18.3583 Y84.7376
G01 X18.3529 Y84.8111
G01 X18.3511 Y84.8847
G01 X18.3529 Y84.9583
G01 X18.3583 Y85.0317
G01 X18.3673 Y85.1048
G01 X18.3799 Y85.1773
G01 X18.3961 Y85.2491
G01 X18.4157 Y85.3201
G01 X18.4388 Y85.3900
G01 X18.4653 Y85.4587
G01 X18.4951 Y85.5260
G01 X18.5282 Y85.5918
G01 X18.5645 Y85.6558
G01 X18.6039 Y85.7180
G01 X18.6463 Y85.7782
G01 X18.6916 Y85.8362
G01 X18.7397 Y85.8920
G01 X18.7904 Y85.9453
G01 X18.8438 Y85.9961
G01 X18.8995 Y86.0442
G01 X18.9575 Y86.0895
G01 X19.0177 Y86.1319
G01 X19.0799 Y86.1712
G01 X19.1440 Y86.2075
G01 X19.2098 Y86.2406
G01 X19.2771 Y86.2705
G01 X19.3458 Y86.2970
G01 X19.4157 Y86.3201
G01 X19.4866 Y86.3397
G01 X19.5585 Y86.3558
G01 X19.6310 Y86.3684
G01 X19.7041 Y86.3774
G01 X19.7775 Y86.3828
G01 X19.8511 Y86.3846
G01 X19.9247 Y86.3828
G01 X19.9981 Y86.3774
G01 X20.0712 Y86.3684
G01 X20.1437 Y86.3558
G01 X20.2156 Y86.3397
G01 X20.2865 Y86.3201
G01 X20.3564 Y86.2970
G01 X20.4251 Y86.2705
G01 X20.4924 Y86.2406
G01 X20.5582 Y86.2075
G01 X20.6222 Y86.1712
G01 X20.6844 Y86.1319
G01 X20.7446 Y86.0895
G01 X20.8027 Y86.0442
G01 X20.8584 Y85.9961
G01 X20.9117 Y85.9453
G01 X20.9625 Y85.8920
G01 X21.0106 Y85.8362
G01 X21.0559 Y85.7782
G01 X21.0983 Y85.7180
G01 X21.1377 Y85.6558
G01 X21.1740 Y85.5918
G01 X21.2071 Y85.5260
G01 X21.2369 Y85.4587
G01 X21.2634 Y85.3900
G01 X21.2865 Y85.3201
G01 X21.3061 Y85.2491
G01 X21.3222 Y85.1773
G01 X21.3348 Y85.1048
G01 X21.3438 Y85.0317
G01 X21.3493 Y84.9583
G01 X21.3511 Y84.8847
G01 X21.3469 Y84.7726
G01 X21.3343 Y84.6611
G01 X21.3135 Y84.5509
G01 X21.2844 Y84.4425
G01 X21.2474 Y84.3367
G01 X21.2025 Y84.2338
G01 X21.1501 Y84.1347
G01 X21.0904 Y84.0397
G01 X21.0238 Y83.9494
G01 X20.9507 Y83.8644
G01 X20.8713 Y83.7851
G01 X20.7863 Y83.7119
G01 X20.6961 Y83.6453
G01 X20.6011 Y83.5856
G01 X20.5019 Y83.5332
G01 X20.3991 Y83.4884
G01 X20.2932 Y83.4513
G01 X20.1849 Y83.4223
G01 X20.0746 Y83.4014
G01 X19.9632 Y83.3889
G01 X19.8511 Y83.3847
G01 X19.7390 Y83.3889
G01 X19.6275 Y83.4014
G01 X19.5173 Y83.4223
G01 X19.4090 Y83.4513
G01 X19.3031 Y83.4884
G01 X19.2003 Y83.5332
G01 X19.1011 Y83.5856
G01 X19.0061 Y83.6453
G01 X18.9159 Y83.7119
G01 X18.8308 Y83.7851
G01 X18.7515 Y83.8644
G01 X18.6784 Y83.9494
G01 X18.6117 Y84.0397
G01 X18.5521 Y84.1347
G01 X18.4996 Y84.2338
G01 X18.4548 Y84.3367
G01 X18.4177 Y84.4425
G01 X18.3887 Y84.5509
G01 X18.3679 Y84.6611
G01 X18.3553 Y84.7726
G01 X18.3511 Y84.8847
G01 X18.3553 Y84.9968
G01 X18.3679 Y85.1082
G01 X18.3887 Y85.2184
G01 X18.4177 Y85.3268
G01 X18.4548 Y85.4327
G01 X18.4996 Y85.5355
G01 X18.5521 Y85.6347
G01 X18.6117 Y85.7296
G01 X18.6784 Y85.8199
G01 X18.7515 Y85.9049
G01 X18.8308 Y85.9842
G01 X18.9159 Y86.0574
G01 X19.0061 Y86.1240
G01 X19.1011 Y86.1837
G01 X19.2003 Y86.2361
G01 X19.3031 Y86.2810
G01 X19.4090 Y86.3180
G01 X19.5173 Y86.3470
G01 X19.6275 Y86.3679
G01 X19.7390 Y86.3805
G01 X19.8511 Y86.3846
G01 X19.9632 Y86.3805
G01 X20.0746 Y86.3679
G01 X20.1849 Y86.3470
G01 X20.2932 Y86.3180
G01 X20.3991 Y86.2810
G01 X20.5019 Y86.2361
G01 X20.6011 Y86.1837
G01 X20.6961 Y86.1240
G01 X20.7863 Y86.0574
G01 X20.8713 Y85.9842
G01 X20.9507 Y85.9049
G01 X21.0238 Y85.8199
G01 X21.0904 Y85.7296
G01 X21.1501 Y85.6347
G01 X21.2025 Y85.5355
G01 X21.2474 Y85.4327
G01 X21.2844 Y85.3268
G01 X21.3135 Y85.2184
G01 X21.3343 Y85.1082
G01 X21.3469 Y84.9968
G01 X21.3511 Y84.8847
G01 X21.3480 Y84.8062 Z-4.9750 F400
G01 X21.3388 Y84.7282 Z-4.9500
G01 X21.3234 Y84.6512 Z-4.9250
G01 X21.3021 Y84.5756 Z-4.9000
G01 X21.2749 Y84.5020 Z-4.8750
G01 X21.2421 Y84.4307 Z-4.8500
G01 X21.2037 Y84.3622 Z-4.8250
G01 X21.1601 Y84.2969 Z-4.8000
G01 X21.1115 Y84.2352 Z-4.7750
G01 X21.0582 Y84.1776 Z-4.7500
G01 X21.0005 Y84.1243 Z-4.7250
G01 X20.9389 Y84.0756 Z-4.7000
G01 X20.8736 Y84.0320 Z-4.6750
G01 X20.8051 Y83.9937 Z-4.6500
G01 X20.7338 Y83.9608 Z-4.6250
G01 X20.6601 Y83.9336 Z-4.6000
G01 X20.5845 Y83.9123 Z-4.5750
G01 X20.5075 Y83.8970 Z-4.5500
G01 X20.4295 Y83.8877 Z-4.5250
G01 X20.3511 Y83.8847 Z-4.5000
G00 Z5.0000


;No. 2: Hole 15
G00 X26.0315 Y86.2721 Z5.0000
G00 Z0.5000
G01 Z0.0000 F400
G01 Z-1.3000
G01 X26.8846 F1000
G01 X26.9067 Y87.7721
G01 X25.2383
G01 X24.6032 Y89.2721
G01 X26.8410
G01 X26.6717 Y90.7721
G01 X24.1026
G01 X23.7398 Y92.2721
G01 X26.3768
G01 X25.9513 Y93.7721
G01 X23.5195
G01 X23.4432 Y95.2721
G01 X25.3773
G01 X24.5934 Y96.7721
G01 X23.5288
G01 X23.3320 Y96.8134
G01 X23.3789 Y97.2329
G01 X23.4359 Y97.6512
G01 X23.5030 Y98.0679
G01 X23.5802 Y98.4829
G01 X23.8916 Y98.1031
G01 X24.1889 Y97.7120
G01 X24.4717 Y97.3104
G01 X24.7395 Y96.8986
G01 X24.9921 Y96.4773
G01 X25.2290 Y96.0470
G01 X25.4500 Y95.6083
G01 X25.6548 Y95.1618
G01 X25.8431 Y94.7081
G01 X26.0146 Y94.2478
G01 X26.1691 Y93.7815
G01 X26.3064 Y93.3098
G01 X26.4814 Y92.6470
G01 X26.6355 Y91.9790
G01 X26.7688 Y91.3065
G01 X26.8809 Y90.6302
G01 X26.9719 Y89.9507
G01 X27.0416 Y89.2688
G01 X27.0900 Y88.5849
G01 X27.1170 Y87.8999
G01 X27.1227 Y87.2144
G01 X27.1068 Y86.5290
G01 X27.0696 Y85.8445
G01 X27.0111 Y85.1614
G01 X26.9949 Y84.9752
G01 X26.9782 Y84.7890
G01 X26.9609 Y84.6029
G01 X26.9431 Y84.4168
G01 X26.5012 Y85.0798
G01 X26.0831 Y85.7580
G01 X25.6893 Y86.4506
G01 X25.3202 Y87.1567
G01 X24.9764 Y87.8754
G01 X24.6583 Y88.6058
G01 X24.3662 Y89.3471
G01 X24.1005 Y90.0982
G01 X23.9277 Y90.6388
G01 X23.7741 Y91.1851
G01 X23.6401 Y91.7366
G01 X23.5258 Y92.2925
G01 X23.4313 Y92.8521
G01 X23.3568 Y93.4147
G01 X23.3023 Y93.9796
G01 X23.2679 Y94.5460
G01 X23.2537 Y95.1134
G01 X23.2596 Y95.6809
G01 X23.2858 Y96.2478
G01 X23.3320 Y96.8134
G01 X23.5288 Y96.7721
G00 Z5.0000


;No. 3: Hole 4
G00 X24.1778 Y78.6838 Z5.0000
G00 Z0.5000
G01 Z0.0000 F400
G01 Z-1.3000
G01 X21.8577 F1000
G01 Y77.1838
G01 X20.2392
G01 X23.9958
G01 X23.4601 Y75.6838
G01 X27.1296
G01 X27.5310 Y74.1838
G01 X23.9393
G01 Y72.6838
G01 X23.4864
G01 X24.7210
G01 X24.5561
G01 Y71.1838
G01 X22.3228
G01 X23.4436
G01 Y69.6838
G01 X25.2575
G00 Z5.0000
G00 X21.4159 Y71.1838
G00 Z0.5000
G01 Z0.0000 F400
G01 Z-1.3000
G01 X18.0854 F1000
G01 X18.0001 Y69.6838
G01 X19.6383
G01 X18.7611 Y72.6838
G01 X19.7330
G01 X19.1430
G01 Y74.1838
G01 X18.5123
G01 X19.5922 Y75.6838
G01 X19.7338 Y75.5337
G01 X19.6679 Y75.4337
G01 X19.6076 Y75.3303
G01 X19.5529 Y75.2239
G01 X19.5041 Y75.1146
G01 X19.4612 Y75.0028
G01 X19.4245 Y74.8889
G01 X19.3940 Y74.7731
G01 X19.3698 Y74.6559
G01 X19.3519 Y74.5375
G01 X19.3405 Y74.4184
G01 X19.3356 Y74.2988
G01 X19.3371 Y74.1791
G01 X19.3452 Y74.0596
G01 X19.3596 Y73.9408
G01 X19.3805 Y73.8230
G01 X19.4077 Y73.7064
G01 X19.4412 Y73.5915
G01 X19.4809 Y73.4785
G01 X19.5266 Y73.3679
G01 X19.5783 Y73.2599
G01 X19.6357 Y73.1549
G01 X19.6987 Y73.0531
G01 X19.7671 Y72.9549
G01 X19.8407 Y72.8605
G01 X19.9435 Y72.7582
G01 X20.0521 Y72.6622
G01 X20.1661 Y72.5726
G01 X20.2852 Y72.4899
G01 X20.4089 Y72.4143
G01 X20.5368 Y72.3461
G01 X20.6686 Y72.2855
G01 X20.8036 Y72.2327
G01 X20.9415 Y72.1879
G01 X21.0818 Y72.1513
G01 X21.2240 Y72.1230
G01 X21.3676 Y72.1030
G01 X21.5121 Y72.0915
G01 X21.6570 Y72.0885
G01 X21.8019 Y72.0939
G01 X21.9462 Y72.1079
G01 X22.0895 Y72.1302
G01 X22.2312 Y72.1609
G01 X22.3708 Y72.1999
G01 X22.5080 Y72.2470
G01 X22.6421 Y72.3020
G01 X22.7728 Y72.3648
G01 X22.8996 Y72.4352
G01 X23.0220 Y72.5128
G01 X23.1230 Y72.5990
G01 X23.2180 Y72.6919
G01 X23.3063 Y72.7910
G01 X23.3877 Y72.8959
G01 X23.4618 Y73.0061
G01 X23.5282 Y73.1211
G01 X23.5866 Y73.2403
G01 X23.6368 Y73.3633
G01 X23.6784 Y73.4894
G01 X23.7114 Y73.6180
G01 X23.7355 Y73.7486
G01 X23.7507 Y73.8805
G01 X23.7568 Y74.0132
G01 X23.7539 Y74.1459
G01 X23.7420 Y74.2782
G01 X23.7210 Y74.4093
G01 X23.7021 Y74.5478
G01 X23.6757 Y74.6852
G01 X23.6419 Y74.8208
G01 X23.6009 Y74.9545
G01 X23.5527 Y75.0858
G01 X23.4975 Y75.2142
G01 X23.4354 Y75.3395
G01 X23.3667 Y75.4613
G01 X23.2914 Y75.5792
G01 X23.2100 Y75.6928
G01 X23.1225 Y75.8019
G01 X23.0293 Y75.9061
G01 X22.9305 Y76.0051
G01 X22.8266 Y76.0987
G01 X22.7178 Y76.1865
G01 X22.6044 Y76.2682
G01 X22.4867 Y76.3438
G01 X22.3651 Y76.4129
G01 X22.2400 Y76.4753
G01 X22.1117 Y76.5309
G01 X22.0123 Y76.5593
G01 X21.9114 Y76.5823
G01 X21.8095 Y76.5996
G01 X21.7068 Y76.6114
G01 X21.6035 Y76.6175
G01 X21.5001 Y76.6179
G01 X21.3968 Y76.6126
G01 X21.2940 Y76.6017
G01 X21.1919 Y76.5852
G01 X21.0909 Y76.5631
G01 X20.9912 Y76.5355
G01 X20.8932 Y76.5025
G01 X20.7972 Y76.4641
G01 X20.7034 Y76.4205
G01 X20.6121 Y76.3719
G01 X20.5237 Y76.3183
G01 X20.4066 Y76.2409
G01 X20.2941 Y76.1570
G01 X20.1865 Y76.0669
G01 X20.0842 Y75.9709
G01 X19.9874 Y75.8692
G01 X19.8966 Y75.7622
G01 X19.8120 Y75.6502
G01 X19.7338 Y75.5337
G01 X19.5922 Y75.6838
G01 X16.5984
G01 X16.8618 Y77.1838
G01 X20.1916
G01 X20.1991 Y77.3836
G01 X20.3123 Y77.3876
G01 X20.4248 Y77.4003
G01 X20.5360 Y77.4216
G01 X20.6453 Y77.4514
G01 X20.7519 Y77.4895
G01 X20.8553 Y77.5358
G01 X20.9548 Y77.5898
G01 X21.0498 Y77.6514
G01 X21.1398 Y77.7201
G01 X21.2243 Y77.7956
G01 X21.3027 Y77.8773
G01 X21.3745 Y77.9648
G01 X21.4394 Y78.0576
G01 X21.4970 Y78.1551
G01 X21.5469 Y78.2568
G01 X21.5888 Y78.3620
G01 X21.6224 Y78.4701
G01 X21.6477 Y78.5805
G01 X21.6644 Y78.6925
G01 X21.6723 Y78.8054
G01 X21.6727 Y78.9056
G01 X21.6794 Y79.0055
G01 X21.6924 Y79.1047
G01 X21.7116 Y79.2030
G01 X21.7369 Y79.2998
G01 X21.7682 Y79.3949
G01 X21.8055 Y79.4878
G01 X21.8485 Y79.5782
G01 X21.8972 Y79.6657
G01 X21.9512 Y79.7500
G01 X22.0104 Y79.8307
G01 X22.0746 Y79.9076
G01 X22.1435 Y79.9802
G01 X22.2168 Y80.0484
G01 X22.2942 Y80.1118
G01 X22.3755 Y80.1703
G01 X22.4603 Y80.2235
G01 X22.5483 Y80.2713
G01 X22.6391 Y80.3135
G01 X22.7324 Y80.3498
G01 X22.7218 Y80.3468
G01 X22.8286 Y80.3519
G01 X22.9355 Y80.3502
G01 X23.0421 Y80.3417
G01 X23.1479 Y80.3263
G01 X23.2525 Y80.3041
G01 X23.3555 Y80.2753
G01 X23.4564 Y80.2399
G01 X23.5548 Y80.1981
G01 X23.6503 Y80.1501
G01 X23.7426 Y80.0960
G01 X23.8311 Y80.0361
G01 X23.9157 Y79.9707
G01 X23.9959 Y79.8999
G01 X24.0713 Y79.8242
G01 X24.1418 Y79.7437
G01 X24.2069 Y79.6589
G01 X24.2529 Y79.5782
G01 X24.2932 Y79.4945
G01 X24.3278 Y79.4083
G01 X24.3564 Y79.3199
G01 X24.3789 Y79.2298
G01 X24.3953 Y79.1383
G01 X24.4054 Y79.0460
G01 X24.4092 Y78.9531
G01 X24.4067 Y78.8603
G01 X24.3979 Y78.7678
G01 X24.3828 Y78.6761
G01 X24.3615 Y78.5857
G01 X24.1851 Y77.8673
G01 X24.1659 Y77.7563
G01 X24.1550 Y77.6441
G01 X24.1527 Y77.5314
G01 X24.1589 Y77.4189
G01 X24.1736 Y77.3072
G01 X24.1968 Y77.1969
G01 X24.2282 Y77.0887
G01 X24.2677 Y76.9832
G01 X24.3151 Y76.8809
G01 X24.3701 Y76.7826
G01 X24.4323 Y76.6886
G01 X24.5015 Y76.5997
G01 X24.5773 Y76.5163
G01 X24.6591 Y76.4388
G01 X24.7466 Y76.3677
G01 X24.8391 Y76.3035
G01 X24.9363 Y76.2464
G01 X25.0376 Y76.1969
G01 X25.1422 Y76.1552
G01 X25.2498 Y76.1215
G01 X25.6521 Y76.1100
G01 X26.0537 Y76.0845
G01 X26.4543 Y76.0450
G01 X26.8532 Y75.9915
G01 X26.9506 Y75.9653
G01 X27.0458 Y75.9317
G01 X27.1380 Y75.8908
G01 X27.2269 Y75.8430
G01 X27.3119 Y75.7886
G01 X27.3924 Y75.7277
G01 X27.4680 Y75.6609
G01 X27.5383 Y75.5885
G01 X27.6028 Y75.5109
G01 X27.6611 Y75.4286
G01 X27.7130 Y75.3420
G01 X27.7581 Y75.2518
G01 X27.7961 Y75.1583
G01 X27.8269 Y75.0622
G01 X27.8502 Y74.9640
G01 X27.8659 Y74.8643
G01 X27.8739 Y74.7637
G01 X27.8741 Y74.6628
G01 X27.8666 Y74.5622
G01 X27.8515 Y74.4624
G01 X27.8287 Y74.3641
G01 X27.7984 Y74.2679
G01 X27.7609 Y74.1742
G01 X27.7162 Y74.0837
G01 X27.6648 Y73.9969
G01 X27.6068 Y73.9143
G01 X27.5427 Y73.8364
G01 X27.4728 Y73.7636
G01 X27.3862 Y73.6817
G01 X27.2941 Y73.6059
G01 X27.1971 Y73.5366
G01 X27.0955 Y73.4742
G01 X26.9898 Y73.4190
G01 X26.8806 Y73.3711
G01 X26.7684 Y73.3309
G01 X26.6536 Y73.2984
G01 X26.5369 Y73.2740
G01 X26.4188 Y73.2576
G01 X26.2998 Y73.2495
G01 X26.1806
G01 X26.0701 Y73.2451
G01 X25.9601 Y73.2329
G01 X25.8513 Y73.2131
G01 X25.7441 Y73.1857
G01 X25.6391 Y73.1508
G01 X25.5368 Y73.1087
G01 X25.4378 Y73.0595
G01 X25.3424 Y73.0035
G01 X25.2511 Y72.9409
G01 X25.1645 Y72.8721
G01 X25.0829 Y72.7974
G01 X25.0068 Y72.7172
G01 X24.9364 Y72.6318
G01 X24.8722 Y72.5417
G01 X24.8145 Y72.4473
G01 X24.7636 Y72.3491
G01 X24.7320 Y72.2575
G01 X24.7059 Y72.1641
G01 X24.6853 Y72.0693
G01 X24.6703 Y71.9735
G01 X24.6610 Y71.8770
G01 X24.6574 Y71.7801
G01 X24.6595 Y71.6832
G01 X24.6673 Y71.5866
G01 X24.6807 Y71.4905
G01 X24.6998 Y71.3955
G01 X24.7244 Y71.3017
G01 X24.7546 Y71.2095
G01 X24.7901 Y71.1193
G01 X24.8308 Y71.0313
G01 X24.8766 Y70.9459
G01 X24.9274 Y70.8633
G01 X25.1104 Y70.5134
G01 X25.2762 Y70.1551
G01 X25.4244 Y69.7891
G01 X25.5547 Y69.4164
G01 X25.5644 Y69.3322
G01 X25.5677 Y69.2475
G01 X25.5647 Y69.1627
G01 X25.5554 Y69.0784
G01 X25.5398 Y68.9951
G01 X25.5180 Y68.9131
G01 X25.4902 Y68.8330
G01 X25.4564 Y68.7553
G01 X25.4169 Y68.6802
G01 X25.3720 Y68.6083
G01 X25.3217 Y68.5400
G01 X25.2666 Y68.4756
G01 X25.2067 Y68.4155
G01 X25.1426 Y68.3601
G01 X25.0744 Y68.3096
G01 X25.0027 Y68.2643
G01 X24.9404 Y68.2177
G01 X24.8747 Y68.1756
G01 X24.8062 Y68.1385
G01 X24.7352 Y68.1065
G01 X24.6620 Y68.0797
G01 X24.5871 Y68.0584
G01 X24.5108 Y68.0426
G01 X24.4336 Y68.0323
G01 X24.3558 Y68.0277
G01 X24.2779 Y68.0289
G01 X24.2003 Y68.0356
G01 X24.1234 Y68.0481
G01 X24.0299 Y68.1188
G01 X23.9405 Y68.1947
G01 X23.8555 Y68.2754
G01 X23.7752 Y68.3608
G01 X23.6997 Y68.4505
G01 X23.6294 Y68.5443
G01 X23.5645 Y68.6419
G01 X23.5051 Y68.7430
G01 X23.4514 Y68.8472
G01 X23.4037 Y68.9543
G01 X23.3620 Y69.0639
G01 X23.3265 Y69.1756
G01 X23.2974 Y69.2892
G01 X23.2746 Y69.4042
G01 X23.2583 Y69.5203
G01 X23.2485 Y69.6371
G01 X23.2392 Y69.7465
G01 X23.2226 Y69.8550
G01 X23.1987 Y69.9622
G01 X23.1677 Y70.0675
G01 X23.1296 Y70.1705
G01 X23.0846 Y70.2706
G01 X23.0330 Y70.3675
G01 X22.9750 Y70.4607
G01 X22.9108 Y70.5498
G01 X22.8408 Y70.6343
G01 X22.7652 Y70.7140
G01 X22.6844 Y70.7883
G01 X22.5920 Y70.8493
G01 X22.4951 Y70.9028
G01 X22.3942 Y70.9484
G01 X22.2901 Y70.9859
G01 X22.1833 Y71.0150
G01 X22.0745 Y71.0355
G01 X21.9644 Y71.0474
G01 X21.8538 Y71.0505
G01 X21.7432 Y71.0448
G01 X21.6335 Y71.0304
G01 X21.5252 Y71.0073
G01 X21.4191 Y70.9758
G01 X21.3159 Y70.9359
G01 X21.2161 Y70.8879
G01 X21.1204 Y70.8322
G01 X21.0295 Y70.7691
G01 X20.6613 Y70.3727
G01 X20.2765 Y69.9926
G01 X19.8756 Y69.6293
G01 X19.4595 Y69.2836
G01 X19.3746 Y69.2377
G01 X19.2864 Y69.1984
G01 X19.1954 Y69.1661
G01 X19.1022 Y69.1409
G01 X19.0073 Y69.1230
G01 X18.9114 Y69.1123
G01 X18.8149 Y69.1092
G01 X18.7184 Y69.1134
G01 X18.6226 Y69.1251
G01 X18.5279 Y69.1441
G01 X18.4350 Y69.1704
G01 X18.3444 Y69.2038
G01 X18.2566 Y69.2440
G01 X18.1722 Y69.2908
G01 X18.0917 Y69.3441
G01 X18.0155 Y69.4033
G01 X17.9441 Y69.4683
G01 X17.8779 Y69.5386
G01 X17.8173 Y69.6137
G01 X17.7626 Y69.6934
G01 X17.7301 Y69.8095
G01 X17.7046 Y69.9274
G01 X17.6862 Y70.0467
G01 X17.6750 Y70.1668
G01 X17.6710 Y70.2874
G01 X17.6743 Y70.4080
G01 X17.6849 Y70.5282
G01 X17.7026 Y70.6475
G01 X17.7275 Y70.7656
G01 X17.7595 Y70.8819
G01 X17.7984 Y70.9962
G01 X17.8441 Y71.1078
G01 X17.9846 Y71.4510
G01 X18.1354 Y71.7898
G01 X18.2962 Y72.1239
G01 X18.4671 Y72.4531
G01 X18.5135 Y72.5557
G01 X18.5525 Y72.6612
G01 X18.5841 Y72.7693
G01 X18.6080 Y72.8793
G01 X18.6241 Y72.9907
G01 X18.6324 Y73.1030
G01 X18.6328 Y73.2156
G01 X18.6253 Y73.3279
G01 X18.6099 Y73.4394
G01 X18.5868 Y73.5496
G01 X18.5560 Y73.6579
G01 X18.5177 Y73.7638
G01 X18.4721 Y73.8667
G01 X18.4193 Y73.9661
G01 X18.3597 Y74.0617
G01 X18.2936 Y74.1528
G01 X18.2212 Y74.2390
G01 X18.1430 Y74.3200
G01 X18.0593 Y74.3953
G01 X17.9705 Y74.4645
G01 X17.8771 Y74.5273
G01 X17.7795 Y74.5835
G01 X17.6783 Y74.6326
G01 X17.5738 Y74.6745
G01 X17.4618 Y74.7205
G01 X17.3523 Y74.7718
G01 X17.2454 Y74.8285
G01 X17.1415 Y74.8904
G01 X17.0407 Y74.9574
G01 X16.9433 Y75.0292
G01 X16.8496 Y75.1057
G01 X16.7597 Y75.1867
G01 X16.6739 Y75.2720
G01 X16.5925 Y75.3614
G01 X16.5155 Y75.4548
G01 X16.4432 Y75.5518
G01 X16.4025 Y75.6438
G01 X16.3679 Y75.7383
G01 X16.3395 Y75.8348
G01 X16.3175 Y75.9330
G01 X16.3019 Y76.0324
G01 X16.2929 Y76.1327
G01 X16.2904 Y76.2333
G01 X16.2946 Y76.3338
G01 X16.3052 Y76.4339
G01 X16.3224 Y76.5330
G01 X16.3461 Y76.6308
G01 X16.3761 Y76.7269
G01 X16.4123 Y76.8208
G01 X16.4545 Y76.9121
G01 X16.5026 Y77.0005
G01 X16.5564 Y77.0855
G01 X16.6118 Y77.1781
G01 X16.6722 Y77.2675
G01 X16.7375 Y77.3534
G01 X16.8073 Y77.4357
G01 X16.8815 Y77.5140
G01 X16.9600 Y77.5881
G01 X17.0424 Y77.6577
G01 X17.1284 Y77.7228
G01 X17.2180 Y77.7830
G01 X17.3106 Y77.8382
G01 X17.4062 Y77.8883
G01 X17.5044 Y77.9330
G01 X17.6049 Y77.9723
G01 X17.7074 Y78.0060
G01 X17.8116 Y78.0340
G01 X17.9172 Y78.0563
G01 X18.0238 Y78.0727
G01 X18.1312 Y78.0833
G01 X18.2390 Y78.0879
G01 X18.3469 Y78.0866
G01 X18.6083 Y78.0100
G01 X18.8620 Y77.9112
G01 X19.1063 Y77.7907
G01 X19.3393 Y77.6496
G01 X19.4380 Y77.5933
G01 X19.5401 Y77.5432
G01 X19.6450 Y77.4996
G01 X19.7525 Y77.4626
G01 X19.8621 Y77.4324
G01 X19.9733 Y77.4092
G01 X20.0858 Y77.3929
G01 X20.1991 Y77.3836
G01 X20.1916 Y77.1838
G00 Z5.0000


;No. 4: Hole 2
G00 X32.4593 Y75.7953 Z5.0000
G00 Z0.5000
G01 Z0.0000 F400
G01 Z-1.3000
G01 X33.0614 F1000
G01 X33.3395 Y74.2953
G01 X32.5842
G01 X32.7275 Y72.7953
G01 X33.6438
G01 X33.9748 Y71.2953
G01 X32.8918
G01 X33.0594 Y69.7953
G01 X34.3329
G01 X34.7190 Y68.2953
G01 X33.2269
G01 X33.3944 Y66.7953
G01 X35.1338
G01 X35.5778 Y65.2953
G01 X33.5607
G01 X33.7438 Y63.7953
G01 X36.0518
G01 X36.5575 Y62.2953
G01 X33.0294
G01 X33.6657 Y60.7953
G01 X37.0890
G01 X37.6419 Y59.2953
G01 X34.5528
G01 X35.3748 Y57.7953
G01 X38.2275
G01 X38.8660 Y56.2953
G01 X36.1907
G01 X37.0067 Y54.7953
G01 X39.5632
G01 X40.3123 Y53.2953
G01 X37.8226
G01 X38.6386 Y51.7953
G01 X41.1068
G01 X41.9250 Y50.2953
G01 X39.4802
G01 X40.3699 Y48.7953
G01 X42.7529
G01 Y47.2953
G01 X43.8569
G01 X41.3147
G01 X42.3365 Y45.7953
G01 X46.3256
G01 X45.9966 Y47.2953
G01 X45.3553
G01 X43.4592 Y44.2953
G01 X46.9951
G01 X48.0734 Y42.7953
G01 X44.7186
G01 X46.1440 Y41.2953
G01 X49.6577
G01 X47.8043 Y39.7953
G01 X52.0138
G01 X49.8541 Y38.2953
G01 X56.2951
G01 X52.6379 Y36.7953
G01 X67.4463
G01 X70.6847 Y38.2953
G01 X63.0448
G01 X67.7573
G01 Y39.7953
G01 X73.1966
G01 X75.3784 Y41.2953
G01 X70.6865
G01 X73.0337 Y42.7953
G01 X77.4452
G01 X75.1014 Y44.2953
G01 X82.8566
G01 X81.9613
G01 Y45.7953
G01 X75.7176
G01 Y47.2953
G01 X75.1199
G01 X82.8829
G01 X81.3337 Y48.7953
G01 X85.1285
G01 X83.7604 Y50.2953
G01 X87.6679
G01 X86.5979 Y51.7953
G01 X91.0152
G01 X90.3480 Y53.2953
G01 X104.0346
G01 X102.9879 Y51.7953
G01 X110.2802
G01 X110.2363 Y50.2953
G01 X111.2014
G00 Z5.0000
G00 X107.9008 Y51.7953
G00 Z0.5000
G01 Z-1.3000 F400
G01 Y50.2953 F1000
G01 X102.2902
G01 X100.4391 Y48.7953
G01 X105.9847
G01 X104.1053 Y47.2953
G01 X98.4631
G01 X96.1472 Y45.7953
G01 X102.2212
G01 X100.2930 Y44.2953
G01 X93.1160
G01 X93.0219 Y44.4733
G01 X93.8456 Y44.8357
G01 X94.6571 Y45.2250
G01 X95.4553 Y45.6406
G01 X96.2395 Y46.0821
G01 X97.0088 Y46.5491
G01 X97.7624 Y47.0410
G01 X98.4995 Y47.5574
G01 X99.2193 Y48.0976
G01 X100.0404 Y48.7347
G01 X100.8535 Y49.3820
G01 X101.6584 Y50.0394
G01 X102.4550 Y50.7069
G01 X102.5179 Y50.7801
G01 X102.5754 Y50.8576
G01 X102.6271 Y50.9391
G01 X102.6729 Y51.0241
G01 X102.7124 Y51.1121
G01 X102.7456 Y51.2028
G01 X102.7721 Y51.2956
G01 X102.7920 Y51.3901
G01 X102.8049 Y51.4857
G01 X102.8110 Y51.5820
G01 X102.8102 Y51.6786
G01 X102.8024 Y51.7748
G01 X102.7878 Y51.8702
G01 X102.7663 Y51.9643
G01 X102.7382 Y52.0566
G01 X102.7035 Y52.1467
G01 X102.6624 Y52.2340
G01 X102.6152 Y52.3182
G01 X102.5620 Y52.3987
G01 X102.5032 Y52.4753
G01 X102.4390 Y52.5474
G01 X102.3699 Y52.6147
G01 X102.2961 Y52.6769
G01 X102.2180 Y52.7337
G01 X102.1360 Y52.7847
G01 X102.0506 Y52.8296
G01 X101.9622 Y52.8684
G01 X101.8713 Y52.9007
G01 X101.8147 Y52.9153
G01 X101.7574 Y52.9265
G01 X101.6995 Y52.9345
G01 X101.6413 Y52.9390
G01 X100.7466 Y53.0032
G01 X99.8502 Y53.0352
G01 X98.9532 Y53.0349
G01 X98.0569 Y53.0023
G01 X97.1622 Y52.9375
G01 X96.2705 Y52.8405
G01 X95.3829 Y52.7115
G01 X94.5004 Y52.5507
G01 X93.6244 Y52.3582
G01 X92.7558 Y52.1343
G01 X91.8958 Y51.8793
G01 X91.0456 Y51.5935
G01 X90.1944 Y51.2551
G01 X89.3537 Y50.8913
G01 X88.5242 Y50.5026
G01 X87.7068 Y50.0892
G01 X86.9021 Y49.6515
G01 X86.1109 Y49.1900
G01 X85.3338 Y48.7049
G01 X84.5716 Y48.1968
G01 X84.0977 Y47.8887
G01 X83.6304 Y47.5705
G01 X83.1700 Y47.2425
G01 X82.7167 Y46.9048
G01 X82.6316 Y46.8324
G01 X82.5522 Y46.7537
G01 X82.4792 Y46.6692
G01 X82.4128 Y46.5793
G01 X82.3536 Y46.4846
G01 X82.3018 Y46.3856
G01 X82.2577 Y46.2829
G01 X82.2217 Y46.1771
G01 X82.1938 Y46.0689
G01 X82.1744 Y45.9588
G01 X82.1635 Y45.8476
G01 X82.1611 Y45.7359
G01 X82.1674 Y45.6244
G01 X82.1822 Y45.5136
G01 X82.2054 Y45.4043
G01 X82.2370 Y45.2971
G01 X82.2766 Y45.1927
G01 X82.3242 Y45.0916
G01 X82.3795 Y44.9944
G01 X82.4420 Y44.9018
G01 X82.5114 Y44.8143
G01 X82.5874 Y44.7323
G01 X82.6694 Y44.6565
G01 X82.7570 Y44.5871
G01 X82.8497 Y44.5247
G01 X82.9468 Y44.4695
G01 X83.0480 Y44.4220
G01 X83.1525 Y44.3824
G01 X83.1422 Y44.3860
G01 X83.6232 Y44.2033
G01 X84.1112 Y44.0402
G01 X84.6053 Y43.8970
G01 X85.1049 Y43.7739
G01 X85.6091 Y43.6711
G01 X86.1170 Y43.5889
G01 X86.6278 Y43.5272
G01 X87.1407 Y43.4863
G01 X87.6548 Y43.4662
G01 X88.1694 Y43.4670
G01 X88.6834 Y43.4885
G01 X89.1962 Y43.5309
G01 X89.7069 Y43.5940
G01 X90.2145 Y43.6777
G01 X90.7184 Y43.7819
G01 X91.2176 Y43.9064
G01 X91.6758 Y44.0244
G01 X92.1296 Y44.1584
G01 X92.5785 Y44.3080
G01 X93.0219 Y44.4733
G01 X93.1160 Y44.2953
G01 Y42.7953
G01 X98.1713
G01 X79.4694
G01 X82.0677 Y41.2953
G01 X95.5945
G01 X91.4612 Y39.7953
G01 X85.8510
G00 Z5.0000
G00 X77.0359 Y47.2953
G00 Z0.5000
G01 Z-1.3000 F400
G01 Y48.7953 F1000
G01 X74.3017
G01 X73.5024 Y50.2953
G01 X75.9605
G01 X75.0173 Y51.7953
G01 X72.8474
G01 X72.3517 Y53.2953
G01 X74.2424
G01 X73.6111 Y54.7953
G01 X71.9926
G01 X71.7633 Y56.2953
G01 X73.1323
G01 X72.8198 Y57.7953
G01 X71.6529
G01 X71.6277 Y59.2953
G01 X72.6471
G01 X72.5748 Y60.7953
G01 X71.6988
G01 X71.8787 Y62.2953
G01 X72.6230
G01 X72.7820 Y63.7953
G01 X72.1572
G00 Z5.0000
G00 X61.2087 Y36.7953
G00 Z0.5000
G01 Z-1.3000 F400
G01 Y35.2953 F1000
G01 X58.0797
G00 Z5.0000
G00 X105.5960 Y51.7953
G00 Z0.5000
G01 Z-1.3000 F400
G01 Y53.2953 F1000
G01 X111.2930
G01 X113.7480 Y54.7953
G01 X107.9643
G01 X110.4183 Y56.2953
G01 X116.3958
G01 X113.3658 Y57.7953
G01 X119.8834
G01 X117.1727 Y59.2953
G01 X124.8928
G01 X122.9930 Y60.7953
G01 X136.4073
G01 X141.6849 Y59.2953
G01 X140.3220
G01 X140.4509
G01 Y57.7953
G01 X145.0984
G01 X147.6723 Y56.2953
G01 X138.4330
G01 X137.2640 Y54.7953
G01 X149.7528
G01 X150.2658 Y53.2953
G01 X137.0239
G01 X137.2736 Y51.7953
G01 X150.2365
G01 X150.2455 Y50.2953
G01 X137.8792
G01 X138.7892 Y48.7953
G01 X150.3781
G01 X150.6378 Y47.2953
G01 X140.0048
G01 X141.5046 Y45.7953
G01 X151.0672
G01 X151.7045 Y44.2953
G01 X143.0762
G01 X143.8601
G01 Y42.7953
G01 X152.5670
G01 X153.6948 Y41.2953
G01 X143.1645
G01 X141.9097 Y39.7953
G01 X155.1479
G01 X157.1509 Y38.2953
G01 X140.7631
G01 X139.8769 Y36.7953
G01 X160.4149
G01 Y35.2953
G01 X179.9974
G01 X139.3124
G01 X139.1100 Y33.7953
G01 X182.5480
G01 X183.9063 Y32.2953
G01 X139.3012
G01 X139.9973 Y30.7953
G01 X148.8979
G01 X146.4825 Y29.2953
G01 X141.6347
G00 Z5.0000
G00 X152.1057 Y32.2953
G00 Z0.5000
G01 Z-1.3000 F400
G01 Y30.7953 F1000
G01 X184.6608
G01 X184.9389 Y29.2953
G01 X152.0950
G01 X151.9296 Y27.7953
G01 X184.9715
G01 X184.7805 Y26.2953
G01 X151.8007
G01 X151.7954 Y24.7953
G01 X184.2619
G01 X183.4018 Y23.2953
G01 X151.9880
G01 X152.3950 Y21.7953
G01 X182.1098
G01 X179.9614 Y20.2953
G01 X171.0807
G00 Z5.0000
G00 X165.5825 Y21.7953
G00 Z0.5000
G01 Z-1.3000 F400
G01 Y20.2953 F1000
G01 X153.0848
G01 X154.1877 Y18.7953
G01 X164.9271
G01 X163.4657 Y17.2953
G01 X156.0725
G01 X155.9530 Y17.1334
G01 X155.5791 Y17.3679
G01 X155.2176 Y17.6211
G01 X154.8694 Y17.8925
G01 X154.5356 Y18.1813
G01 X154.2170 Y18.4867
G01 X153.9143 Y18.8080
G01 X153.6285 Y19.1443
G01 X153.3601 Y19.4948
G01 X153.1101 Y19.8585
G01 X152.8789 Y20.2345
G01 X152.6672 Y20.6218
G01 X152.4755 Y21.0194
G01 X152.3044 Y21.4263
G01 X152.1542 Y21.8414
G01 X152.0254 Y22.2636
G01 X151.9184 Y22.6918
G01 X151.7958 Y23.2553
G01 X151.6993 Y23.8238
G01 X151.6292 Y24.3962
G01 X151.5856 Y24.9712
G01 X151.5685 Y25.5477
G01 X151.5781 Y26.1243
G01 X151.6142 Y26.6998
G01 X151.6769 Y27.2730
G01 X151.7506 Y28.0048
G01 X151.8297 Y28.7360
G01 X151.9143 Y29.4666
G01 X152.0044 Y30.1965
G01 X152.0068 Y30.2915
G01 X152.0024 Y30.3864
G01 X151.9912 Y30.4807
G01 X151.9732 Y30.5740
G01 X151.9486 Y30.6658
G01 X151.9174 Y30.7555
G01 X151.8798 Y30.8428
G01 X151.8361 Y30.9271
G01 X151.7863 Y31.0080
G01 X151.7309 Y31.0852
G01 X151.6701 Y31.1582
G01 X151.6042 Y31.2266
G01 X151.5335 Y31.2901
G01 X151.4584 Y31.3483
G01 X151.3793 Y31.4010
G01 X151.2967 Y31.4478
G01 X151.2109 Y31.4885
G01 X151.1224 Y31.5230
G01 X151.0316 Y31.5510
G01 X150.9390 Y31.5724
G01 X150.8452 Y31.5871
G01 X150.7505 Y31.5950
G01 X150.6555 Y31.5961
G01 X150.5607 Y31.5903
G01 X150.4665 Y31.5777
G01 X150.3735 Y31.5583
G01 X150.2821 Y31.5323
G01 X150.1929 Y31.4998
G01 X150.0977 Y31.4555
G01 X150.0048 Y31.4067
G01 X149.9144 Y31.3535
G01 X149.8267 Y31.2958
G01 X149.7419 Y31.2340
G01 X149.6602 Y31.1681
G01 X149.5818 Y31.0984
G01 X149.5069 Y31.0249
G01 X149.1571 Y30.7286
G01 X148.7963 Y30.4459
G01 X148.4250 Y30.1771
G01 X148.0437 Y29.9228
G01 X147.6529 Y29.6831
G01 X147.2533 Y29.4586
G01 X146.8454 Y29.2495
G01 X146.4298 Y29.0561
G01 X146.0087 Y28.8861
G01 X145.5760 Y28.7480
G01 X145.1343 Y28.6425
G01 X144.6859 Y28.5702
G01 X144.2334 Y28.5314
G01 X143.7793 Y28.5265
G01 X143.3261 Y28.5553
G01 X142.8763 Y28.6179
G01 X142.5348 Y28.7102
G01 X142.2004 Y28.8259
G01 X141.8748 Y28.9642
G01 X141.5595 Y29.1247
G01 X141.2560 Y29.3064
G01 X140.9657 Y29.5086
G01 X140.6900 Y29.7303
G01 X140.4302 Y29.9704
G01 X140.1875 Y30.2278
G01 X139.9631 Y30.5013
G01 X139.7581 Y30.7896
G01 X139.5734 Y31.0913
G01 X139.4098 Y31.4050
G01 X139.2682 Y31.7292
G01 X139.1493 Y32.0624
G01 X139.0536 Y32.4029
G01 X138.9815 Y32.7493
G01 X138.9334 Y33.0998
G01 X138.9095 Y33.4527
G01 X138.9100 Y33.8065
G01 X138.9482 Y34.3163
G01 X139.0196 Y34.8226
G01 X139.1239 Y35.3231
G01 X139.2607 Y35.8157
G01 X139.4294 Y36.2984
G01 X139.6293 Y36.7690
G01 X139.8595 Y37.2255
G01 X140.1191 Y37.6660
G01 X140.4151 Y38.1147
G01 X140.7197 Y38.5577
G01 X141.0329 Y38.9946
G01 X141.3544 Y39.4254
G01 X141.6843 Y39.8499
G01 X142.0223 Y40.2680
G01 X142.3683 Y40.6794
G01 X142.7223 Y41.0840
G01 X142.9707 Y41.3548
G01 X143.1964 Y41.6448
G01 X143.3978 Y41.9521
G01 X143.5737 Y42.2748
G01 X143.6049 Y42.3764
G01 X143.6291 Y42.4798
G01 X143.6464 Y42.5847
G01 X143.6566 Y42.6904
G01 X143.6598 Y42.7966
G01 X143.6557 Y42.9028
G01 X143.6446 Y43.0085
G01 X143.6265 Y43.1132
G01 X143.6013 Y43.2164
G01 X143.5693 Y43.3177
G01 X143.5306 Y43.4167
G01 X143.4854 Y43.5128
G01 X143.4338 Y43.6057
G01 X143.3761 Y43.6950
G01 X143.3125 Y43.7801
G01 X143.2434 Y43.8608
G01 X142.3630 Y44.6748
G01 X141.4974 Y45.5046
G01 X140.6468 Y46.3497
G01 X139.8115 Y47.2099
G01 X139.3798 Y47.6876
G01 X138.9738 Y48.1873
G01 X138.5945 Y48.7075
G01 X138.2431 Y49.2470
G01 X137.9205 Y49.8042
G01 X137.6276 Y50.3776
G01 X137.3652 Y50.9655
G01 X137.1340 Y51.5664
G01 X137.0242 Y51.9166
G01 X136.9383 Y52.2734
G01 X136.8767 Y52.6352
G01 X136.8397 Y53.0004
G01 X136.8274 Y53.3672
G01 X136.8400 Y53.7340
G01 X136.8773 Y54.0991
G01 X136.9392 Y54.4609
G01 X137.0700 Y54.8172
G01 X137.2327 Y55.1601
G01 X137.4259 Y55.4868
G01 X137.6479 Y55.7946
G01 X137.8970 Y56.0810
G01 X138.1711 Y56.3436
G01 X138.4678 Y56.5802
G01 X138.7849 Y56.7889
G01 X139.0003 Y56.9241
G01 X139.2219 Y57.0489
G01 X139.4492 Y57.1630
G01 X139.6818 Y57.2660
G01 X139.7687 Y57.3150
G01 X139.8517 Y57.3704
G01 X139.9303 Y57.4318
G01 X140.0040 Y57.4990
G01 X140.0725 Y57.5716
G01 X140.1353 Y57.6491
G01 X140.1921 Y57.7311
G01 X140.2426 Y57.8171
G01 X140.2864 Y57.9067
G01 X140.3234 Y57.9994
G01 X140.3532 Y58.0946
G01 X140.3759 Y58.1917
G01 X140.3911 Y58.2903
G01 X140.3989 Y58.3898
G01 X140.3992 Y58.4895
G01 X140.3920 Y58.5890
G01 X140.3773 Y58.6877
G01 X140.3552 Y58.7850
G01 X140.3258 Y58.8803
G01 X140.2894 Y58.9732
G01 X140.2460 Y59.0631
G01 X140.1960 Y59.1494
G01 X140.1397 Y59.2317
G01 X140.0773 Y59.3096
G01 X140.0092 Y59.3825
G01 X139.9359 Y59.4501
G01 X139.8576 Y59.5120
G01 X139.7750 Y59.5678
G01 X139.6883 Y59.6173
G01 X139.5982 Y59.6600
G01 X139.5051 Y59.6959
G01 X139.4096 Y59.7246
G01 X139.3462 Y59.7417
G01 X139.2821 Y59.7559
G01 X139.2174 Y59.7670
G01 X139.1523 Y59.7752
G01 X139.0869 Y59.7804
G01 X139.0213 Y59.7826
G01 X138.9557 Y59.7817
G01 X138.8902 Y59.7779
G01 X137.8504 Y59.8874
G01 X136.8083 Y59.9718
G01 X135.7645 Y60.0310
G01 X134.7196 Y60.0650
G01 X133.6742 Y60.0737
G01 X132.6288 Y60.0572
G01 X131.5841 Y60.0155
G01 X130.5408 Y59.9486
G01 X129.6056 Y59.8650
G01 X128.6728 Y59.7587
G01 X127.7428 Y59.6298
G01 X126.8162 Y59.4783
G01 X125.8936 Y59.3044
G01 X124.9754 Y59.1081
G01 X124.0623 Y58.8896
G01 X123.1548 Y58.6490
G01 X122.2533 Y58.3864
G01 X121.3586 Y58.1020
G01 X120.4710 Y57.7959
G01 X119.5910 Y57.4684
G01 X118.7193 Y57.1196
G01 X117.8564 Y56.7498
G01 X117.0026 Y56.3591
G01 X116.1586 Y55.9478
G01 X114.8886 Y55.2279
G01 X113.6293 Y54.4893
G01 X112.3811 Y53.7321
G01 X111.1443 Y52.9566
G01 X111.0588 Y52.8989
G01 X110.9778 Y52.8351
G01 X110.9017 Y52.7655
G01 X110.8309 Y52.6906
G01 X110.7658 Y52.6107
G01 X110.7066 Y52.5262
G01 X110.6538 Y52.4376
G01 X110.6077 Y52.3454
G01 X110.5683 Y52.2501
G01 X110.5361 Y52.1522
G01 X110.5111 Y52.0522
G01 X110.4935 Y51.9506
G01 X110.4834 Y51.8480
G01 X110.4808 Y51.7449
G01 X110.4857 Y51.6419
G01 X110.4982 Y51.5396
G01 X110.5181 Y51.4384
G01 X110.5453 Y51.3390
G01 X110.5798 Y51.2418
G01 X110.6213 Y51.1474
G01 X110.6695 Y51.0563
G01 X110.7243 Y50.9689
G01 X110.7854 Y50.8858
G01 X110.8523 Y50.8074
G01 X110.9248 Y50.7341
G01 X111.0025 Y50.6663
G01 X111.0849 Y50.6044
G01 X111.1716 Y50.5486
G01 X112.1225 Y49.9635
G01 X113.0724 Y49.3770
G01 X114.0214 Y48.7888
G01 X114.9694 Y48.1992
G01 X113.6988 Y48.7348
G01 X112.4196 Y49.2496
G01 X111.1323 Y49.7436
G01 X109.8370 Y50.2166
G01 X109.7171 Y50.2553
G01 X109.5954 Y50.2877
G01 X109.4721 Y50.3137
G01 X109.3476 Y50.3333
G01 X109.2223 Y50.3463
G01 X109.0964 Y50.3527
G01 X108.9704 Y50.3525
G01 X108.8446 Y50.3458
G01 X108.7193 Y50.3325
G01 X108.5949 Y50.3126
G01 X108.4717 Y50.2863
G01 X108.3500 Y50.2536
G01 X108.2302 Y50.2146
G01 X108.1126 Y50.1693
G01 X107.9975 Y50.1180
G01 X107.8853 Y50.0607
G01 X105.9855 Y48.5141
G01 X104.0717 Y46.9848
G01 X102.1442 Y45.4728
G01 X100.2032 Y43.9782
G01 X99.4897 Y43.4445
G01 X98.7594 Y42.9339
G01 X98.0132 Y42.4470
G01 X97.2517 Y41.9842
G01 X96.4757 Y41.5462
G01 X95.6862 Y41.1332
G01 X94.8837 Y40.7457
G01 X94.0693 Y40.3842
G01 X93.4963 Y40.1597
G01 X92.9141 Y39.9603
G01 X92.3238 Y39.7864
G01 X91.7264 Y39.6384
G01 X91.1232 Y39.5166
G01 X90.5153 Y39.4210
G01 X89.9037 Y39.3521
G01 X89.2898 Y39.3098
G01 X88.6746 Y39.2942
G01 X88.0593 Y39.3055
G01 X87.4450 Y39.3435
G01 X86.8330 Y39.4082
G01 X86.1517 Y39.5344
G01 X85.4770 Y39.6927
G01 X84.8107 Y39.8829
G01 X84.1541 Y40.1045
G01 X83.5088 Y40.3569
G01 X82.8761 Y40.6397
G01 X82.2576 Y40.9522
G01 X81.6546 Y41.2936
G01 X81.0243 Y41.6564
G01 X80.3940 Y42.0193
G01 X79.7637 Y42.3822
G01 X79.1335 Y42.7453
G01 X79.0399 Y42.7819
G01 X78.9444 Y42.8131
G01 X78.8471 Y42.8387
G01 X78.7486 Y42.8586
G01 X78.6491 Y42.8728
G01 X78.5489 Y42.8812
G01 X78.4484 Y42.8838
G01 X78.3480 Y42.8806
G01 X78.2478 Y42.8716
G01 X78.1484 Y42.8568
G01 X78.0500 Y42.8363
G01 X77.9529 Y42.8102
G01 X77.8575 Y42.7784
G01 X77.7641 Y42.7413
G01 X77.6731 Y42.6987
G01 X77.5846 Y42.6510
G01 X76.5134 Y41.8569
G01 X75.4299 Y41.0797
G01 X74.3343 Y40.3196
G01 X73.2270 Y39.5766
G01 X73.1039 Y39.4972
G01 X72.9806 Y39.4183
G01 X72.8569 Y39.3398
G01 X72.7330 Y39.2617
G01 X72.7941 Y39.3005
G01 X72.0908 Y38.8574
G01 X71.3747 Y38.4353
G01 X70.6463 Y38.0348
G01 X69.9064 Y37.6561
G01 X69.1555 Y37.2995
G01 X68.3944 Y36.9653
G01 X67.6237 Y36.6540
G01 X66.8441 Y36.3656
G01 X66.0563 Y36.1006
G01 X65.2609 Y35.8591
G01 X64.4587 Y35.6413
G01 X63.6504 Y35.4474
G01 X63.0561 Y35.3295
G01 X62.4583 Y35.2311
G01 X61.8575 Y35.1523
G01 X61.2545 Y35.0933
G01 X60.6499 Y35.0541
G01 X60.0443 Y35.0346
G01 X59.4384 Y35.0350
G01 X58.8328 Y35.0553
G01 X58.2283 Y35.0954
G01 X57.6253 Y35.1552
G01 X57.0247 Y35.2348
G01 X56.4270 Y35.3340
G01 X55.7746 Y35.4915
G01 X55.1276 Y35.6699
G01 X54.4867 Y35.8691
G01 X53.8526 Y36.0890
G01 X53.2259 Y36.3292
G01 X52.6073 Y36.5895
G01 X51.9974 Y36.8696
G01 X51.3969 Y37.1693
G01 X50.8064 Y37.4883
G01 X50.2265 Y37.8261
G01 X49.6578 Y38.1825
G01 X49.1009 Y38.5571
G01 X48.5302 Y38.9821
G01 X47.9701 Y39.4210
G01 X47.4211 Y39.8737
G01 X46.8834 Y40.3399
G01 X46.3575 Y40.8192
G01 X45.8435 Y41.3113
G01 X45.3420 Y41.8161
G01 X44.8530 Y42.3331
G01 X44.3770 Y42.8621
G01 X43.9143 Y43.4027
G01 X43.4651 Y43.9545
G01 X43.0297 Y44.5174
G01 X42.4097 Y45.3638
G01 X41.8056 Y46.2215
G01 X41.2174 Y47.0903
G01 X40.6454 Y47.9698
G01 X40.0898 Y48.8597
G01 X39.5507 Y49.7598
G01 X39.0284 Y50.6697
G01 X38.5231 Y51.5891
G01 X37.3734 Y53.7540
G01 X36.2051 Y55.9088
G01 X35.0181 Y58.0534
G01 X33.8126 Y60.1877
G01 X33.6154 Y60.5131
G01 X33.3953 Y60.8236
G01 X33.1534 Y61.1174
G01 X32.8911 Y61.3931
G01 X32.6097 Y61.6493
G01 X32.3106 Y61.8846
G01 X31.9953 Y62.0978
G01 X31.6656 Y62.2878
G01 X31.3231 Y62.4537
G01 X30.9695 Y62.5945
G01 X30.6068 Y62.7096
G01 X30.2367 Y62.7983
G01 X29.8612 Y62.8603
G01 X29.4822 Y62.8951
G01 X29.1017 Y62.9026
G01 X28.7217 Y62.8827
G01 X28.3440 Y62.8356
G01 X27.9708 Y62.7616
G01 X27.6037 Y62.6609
G01 X27.2449 Y62.5341
G01 X26.9451 Y62.3933
G01 X26.6590 Y62.2263
G01 X26.3891 Y62.0343
G01 X26.1374 Y61.8190
G01 X25.9060 Y61.5819
G01 X25.6967 Y61.3252
G01 X25.5113 Y61.0507
G01 X25.3512 Y60.7607
G01 X25.2176 Y60.4576
G01 X25.1117 Y60.1438
G01 X25.0343 Y59.8217
G01 X24.9861 Y59.4940
G01 X24.9674 Y59.1632
G01 X24.9784 Y58.8322
G01 X25.0189 Y58.5034
G01 X25.0887 Y58.1796
G01 X25.0241 Y58.3007
G01 X24.9669 Y58.4254
G01 X24.9172 Y58.5533
G01 X24.8754 Y58.6839
G01 X24.8784 Y58.6721
G01 X24.8339 Y58.8943
G01 X24.8057 Y59.1191
G01 X24.7938 Y59.3454
G01 X24.7984 Y59.5720
G01 X24.8194 Y59.7976
G01 X24.8568 Y60.0211
G01 X24.9102 Y60.2413
G01 X24.9795 Y60.4570
G01 X25.0642 Y60.6672
G01 X25.1640 Y60.8706
G01 X25.2782 Y61.0663
G01 X25.4064 Y61.2532
G01 X25.6066 Y61.5190
G01 X25.8258 Y61.7695
G01 X26.0628 Y62.0031
G01 X26.3164 Y62.2187
G01 X26.5852 Y62.4150
G01 X26.8677 Y62.5910
G01 X27.1623 Y62.7457
G01 X27.4676 Y62.8784
G01 X27.7817 Y62.9882
G01 X28.1032 Y63.0747
G01 X28.4301 Y63.1372
G01 X28.7607 Y63.1756
G01 X29.1442 Y63.1627
G01 X29.5262 Y63.1263
G01 X29.9052 Y63.0665
G01 X30.2798 Y62.9835
G01 X30.6486 Y62.8776
G01 X31.0102 Y62.7492
G01 X31.3633 Y62.5988
G01 X31.7064 Y62.4269
G01 X31.7969 Y62.3853
G01 X31.8905 Y62.3508
G01 X31.9864 Y62.3237
G01 X32.0842 Y62.3042
G01 X32.1831 Y62.2924
G01 X32.2827 Y62.2883
G01 X32.3824 Y62.2919
G01 X32.4814 Y62.3034
G01 X32.5792 Y62.3225
G01 X32.6753 Y62.3491
G01 X32.7690 Y62.3832
G01 X32.8597 Y62.4245
G01 X32.9470 Y62.4727
G01 X33.0302 Y62.5275
G01 X33.1089 Y62.5887
G01 X33.1826 Y62.6558
G01 X33.2508 Y62.7285
G01 X33.3132 Y62.8063
G01 X33.3693 Y62.8887
G01 X33.4189 Y62.9752
G01 X33.4615 Y63.0653
G01 X33.4970 Y63.1584
G01 X33.5251 Y63.2540
G01 X33.5457 Y63.3516
G01 X33.5587 Y63.4504
G01 X33.5639 Y63.5500
G01 X33.5613 Y63.6496
G01 X33.5509 Y63.7488
G01 X33.4412 Y64.4546
G01 X33.3489 Y65.1630
G01 X33.2740 Y65.8734
G01 X33.2166 Y66.5855
G01 X32.9046 Y69.1226
G01 X32.6291 Y71.6639
G01 X32.3901 Y74.2089
G01 X32.1877 Y76.7571
G01 X32.1292 Y77.7600
G01 X32.0845 Y78.7636
G01 X32.0537 Y79.7677
G01 X32.0367 Y80.7722
G01 X32.0337 Y81.7768
G01 X32.0445 Y82.7814
G01 X32.0692 Y83.7857
G01 X32.1078 Y84.7895
G01 X32.2315 Y83.3263
G01 X32.3792 Y81.8654
G01 X32.5507 Y80.4070
G01 X32.7460 Y78.9516
G01 X32.9650 Y77.4996
G01 X33.2077 Y76.0514
G01 X33.4741 Y74.6073
G01 X33.7639 Y73.1678
G01 X34.0773 Y71.7332
G01 X34.4140 Y70.3039
G01 X34.7740 Y68.8803
G01 X35.1573 Y67.4627
G01 X35.5636 Y66.0516
G01 X35.9929 Y64.6474
G01 X36.4450 Y63.2503
G01 X36.9200 Y61.8608
G01 X37.4175 Y60.4792
G01 X37.9376 Y59.1060
G01 X38.4800 Y57.7414
G01 X39.0446 Y56.3859
G01 X39.4947 Y55.4302
G01 X39.9551 Y54.4794
G01 X40.4258 Y53.5337
G01 X40.9068 Y52.5932
G01 X41.3979 Y51.6579
G01 X41.8992 Y50.7280
G01 X42.4105 Y49.8037
G01 X42.9319 Y48.8849
G01 X43.0921 Y48.5657
G01 X43.2731 Y48.2577
G01 X43.4741 Y47.9624
G01 X43.6942 Y47.6811
G01 X43.7597 Y47.6115
G01 X43.8302 Y47.5471
G01 X43.9053 Y47.4882
G01 X43.9847 Y47.4351
G01 X44.0679 Y47.3881
G01 X44.1544 Y47.3476
G01 X44.2437 Y47.3136
G01 X44.3353 Y47.2866
G01 X44.4287 Y47.2665
G01 X44.5233 Y47.2535
G01 X44.6187 Y47.2477
G01 X44.7142 Y47.2491
G01 X44.8105 Y47.2638
G01 X44.9051 Y47.2876
G01 X44.9970 Y47.3201
G01 X45.0854 Y47.3612
G01 X45.1695 Y47.4104
G01 X45.2486 Y47.4673
G01 X45.3220 Y47.5315
G01 X45.3891 Y47.6022
G01 X45.4492 Y47.6790
G01 X45.5018 Y47.7611
G01 X45.5464 Y47.8477
G01 X45.5827 Y47.9382
G01 X45.6102 Y48.0317
G01 X45.6289 Y48.1274
G01 X45.6385 Y48.2244
G01 X45.6388 Y48.3218
G01 X45.6477 Y48.3966
G01 X45.6565 Y48.4713
G01 X45.6654 Y48.5461
G01 X45.6742 Y48.6208
G01 X45.7080 Y48.9945
G01 X45.7539 Y49.3669
G01 X45.8118 Y49.7376
G01 X45.8816 Y50.1062
G01 X45.9633 Y50.4724
G01 X46.0567 Y50.8358
G01 X46.1619 Y51.1960
G01 X46.2786 Y51.5526
G01 X46.4245 Y51.9185
G01 X46.5919 Y52.2751
G01 X46.7801 Y52.6212
G01 X46.9887 Y52.9554
G01 X47.2167 Y53.2767
G01 X47.4634 Y53.5838
G01 X47.7279 Y53.8757
G01 X48.0094 Y54.1514
G01 X48.3067 Y54.4099
G01 X48.6188 Y54.6502
G01 X48.9447 Y54.8716
G01 X49.2832 Y55.0732
G01 X49.6330 Y55.2543
G01 X49.9930 Y55.4143
G01 X50.3619 Y55.5527
G01 X50.7383 Y55.6688
G01 X51.1315 Y55.7416
G01 X51.5296 Y55.7793
G01 X51.9295 Y55.7817
G01 X52.3280 Y55.7487
G01 X52.7221 Y55.6806
G01 X53.1086 Y55.5779
G01 X53.4844 Y55.4415
G01 X53.8468 Y55.2724
G01 X54.1928 Y55.0719
G01 X54.5197 Y54.8416
G01 X54.8250 Y54.5833
G01 X55.1062 Y54.2990
G01 X55.0940 Y54.3130
G01 X55.1779 Y54.2166
G01 X55.2567 Y54.1159
G01 X55.3301 Y54.0113
G01 X55.3979 Y53.9029
G01 X55.4599 Y53.7912
G01 X55.5160 Y53.6763
G01 X55.5660 Y53.5587
G01 X55.6097 Y53.4386
G01 X55.6471 Y53.3163
G01 X55.6781 Y53.1923
G01 X55.7025 Y53.0668
G01 X55.7202 Y52.9403
G01 X55.7314 Y52.8129
G01 X55.7358 Y52.6852
G01 X55.7335 Y52.5574
G01 X55.7245 Y52.4299
G01 X55.6349 Y52.7426
G01 X55.5163 Y53.0456
G01 X55.3698 Y53.3361
G01 X55.1968 Y53.6116
G01 X54.9987 Y53.8696
G01 X54.7773 Y54.1080
G01 X54.5345 Y54.3245
G01 X54.2725 Y54.5174
G01 X53.9936 Y54.6848
G01 X53.7002 Y54.8254
G01 X53.3949 Y54.9378
G01 X53.0804 Y55.0212
G01 X52.6686 Y55.1117
G01 X52.2510 Y55.1696
G01 X51.8301 Y55.1946
G01 X51.4085 Y55.1865
G01 X50.9889 Y55.1454
G01 X50.5738 Y55.0716
G01 X50.1657 Y54.9654
G01 X49.7672 Y54.8276
G01 X49.3808 Y54.6589
G01 X49.0087 Y54.4605
G01 X48.6534 Y54.2335
G01 X48.3169 Y53.9794
G01 X48.0014 Y53.6997
G01 X47.7089 Y53.3961
G01 X47.4410 Y53.0705
G01 X47.1994 Y52.7249
G01 X46.9857 Y52.3614
G01 X46.8011 Y51.9823
G01 X46.6469 Y51.5899
G01 X46.5238 Y51.1866
G01 X46.3832 Y50.6865
G01 X46.2720 Y50.1790
G01 X46.1907 Y49.6659
G01 X46.1395 Y49.1489
G01 X46.1185 Y48.6298
G01 X46.1280 Y48.1103
G01 X46.1678 Y47.5923
G01 X46.2378 Y47.0775
G01 X46.3377 Y46.5677
G01 X46.4673 Y46.0646
G01 X46.6261 Y45.5699
G01 X46.8134 Y45.0853
G01 X47.0130 Y44.6977
G01 X47.2288 Y44.3187
G01 X47.4604 Y43.9492
G01 X47.7074 Y43.5899
G01 X47.9693 Y43.2412
G01 X48.2457 Y42.9040
G01 X48.5361 Y42.5786
G01 X48.8400 Y42.2659
G01 X49.1567 Y41.9662
G01 X49.4859 Y41.6802
G01 X49.8268 Y41.4083
G01 X50.1789 Y41.1510
G01 X50.7225 Y40.7847
G01 X51.2802 Y40.4402
G01 X51.8512 Y40.1182
G01 X52.4346 Y39.8192
G01 X53.0294 Y39.5436
G01 X53.6346 Y39.2919
G01 X54.2495 Y39.0645
G01 X54.8729 Y38.8617
G01 X55.5038 Y38.6839
G01 X56.1413 Y38.5313
G01 X56.7844 Y38.4042
G01 X57.4321 Y38.3029
G01 X58.0833 Y38.2273
G01 X58.7369 Y38.1777
G01 X59.3920 Y38.1542
G01 X60.0475 Y38.1568
G01 X60.7025 Y38.1854
G01 X61.3557 Y38.2401
G01 X62.0063 Y38.3207
G01 X62.6531 Y38.4271
G01 X63.3537 Y38.5714
G01 X64.0497 Y38.7364
G01 X64.7405 Y38.9221
G01 X65.4254 Y39.1283
G01 X66.1039 Y39.3548
G01 X66.7754 Y39.6014
G01 X67.4392 Y39.8679
G01 X68.0948 Y40.1541
G01 X68.7415 Y40.4596
G01 X69.3789 Y40.7843
G01 X70.0063 Y41.1278
G01 X70.6232 Y41.4899
G01 X71.7282 Y42.1740
G01 X72.8141 Y42.8880
G01 X73.8803 Y43.6312
G01 X74.9257 Y44.4032
G01 X75.0118 Y44.4811
G01 X75.0923 Y44.5648
G01 X75.1669 Y44.6538
G01 X75.2352 Y44.7476
G01 X75.2970 Y44.8459
G01 X75.3519 Y44.9482
G01 X75.3997 Y45.0541
G01 X75.4401 Y45.1629
G01 X75.4730 Y45.2743
G01 X75.4982 Y45.3876
G01 X75.5155 Y45.5024
G01 X75.5250 Y45.6181
G01 X75.5266 Y45.7342
G01 X75.5202 Y45.8501
G01 X75.5059 Y45.9653
G01 X75.4837 Y46.0793
G01 X75.4538 Y46.1915
G01 X75.4163 Y46.3014
G01 X75.3714 Y46.4085
G01 X75.3193 Y46.5122
G01 X74.7793 Y47.4507
G01 X74.2570 Y48.3991
G01 X73.7524 Y49.3570
G01 X73.2658 Y50.3242
G01 X72.9682 Y50.9822
G01 X72.6958 Y51.6510
G01 X72.4490 Y52.3297
G01 X72.2283 Y53.0173
G01 X72.0338 Y53.7128
G01 X71.8660 Y54.4151
G01 X71.7250 Y55.1234
G01 X71.6109 Y55.8365
G01 X71.5241 Y56.5534
G01 X71.4647 Y57.2731
G01 X71.4326 Y57.9945
G01 X71.4280 Y58.7167
G01 X71.4283 Y59.4040
G01 X71.4508 Y60.0910
G01 X71.4954 Y60.7769
G01 X71.5620 Y61.4610
G01 X71.6506 Y62.1426
G01 X71.7610 Y62.8210
G01 X71.8932 Y63.4955
G01 X72.0470 Y64.1654
G01 X72.2223 Y64.8300
G01 X72.4189 Y65.4887
G01 X72.6366 Y66.1406
G01 X72.8751 Y66.7853
G01 X73.0889 Y67.2747
G01 X73.3164 Y67.7579
G01 X73.5572 Y68.2347
G01 X73.8113 Y68.7044
G01 X74.0784 Y69.1670
G01 X74.3583 Y69.6218
G01 X74.6508 Y70.0687
G01 X74.9557 Y70.5072
G01 X74.6302 Y69.7779
G01 X74.3298 Y69.0380
G01 X74.0550 Y68.2881
G01 X73.8061 Y67.5293
G01 X73.5833 Y66.7624
G01 X73.3870 Y65.9883
G01 X73.2173 Y65.2079
G01 X73.0744 Y64.4222
G01 X72.9586 Y63.6320
G01 X72.8699 Y62.8384
G01 X72.8084 Y62.0421
G01 X72.7743 Y61.2442
G01 X72.7725 Y60.4846
G01 X72.8029 Y59.7256
G01 X72.8656 Y58.9686
G01 X72.9604 Y58.2149
G01 X73.0872 Y57.4659
G01 X73.2457 Y56.7230
G01 X73.4356 Y55.9875
G01 X73.6567 Y55.2608
G01 X73.9607 Y54.4570
G01 X74.2965 Y53.6660
G01 X74.6636 Y52.8889
G01 X75.0613 Y52.1272
G01 X75.4891 Y51.3819
G01 X75.9462 Y50.6542
G01 X76.4320 Y49.9453
G01 X76.9457 Y49.2563
G01 X77.1527 Y48.9689
G01 X77.3640 Y48.6845
G01 X77.5796 Y48.4034
G01 X77.7994 Y48.1256
G01 X77.8852 Y48.0485
G01 X77.9765 Y47.9781
G01 X78.0729 Y47.9147
G01 X78.1736 Y47.8586
G01 X78.2783 Y47.8102
G01 X78.3863 Y47.7697
G01 X78.4970 Y47.7374
G01 X78.6098 Y47.7134
G01 X78.7240 Y47.6978
G01 X78.8391 Y47.6909
G01 X78.9544 Y47.6925
G01 X79.0693 Y47.7027
G01 X79.1831 Y47.7214
G01 X79.2952 Y47.7486
G01 X79.4049 Y47.7840
G01 X79.5117 Y47.8275
G01 X79.6150 Y47.8788
G01 X79.7141 Y47.9377
G01 X79.8086 Y48.0038
G01 X79.8980 Y48.0767
G01 X80.7625 Y48.6703
G01 X81.6400 Y49.2445
G01 X82.5299 Y49.7992
G01 X83.4320 Y50.3341
G01 X84.3456 Y50.8488
G01 X85.2704 Y51.3432
G01 X86.2060 Y51.8170
G01 X87.1518 Y52.2699
G01 X87.8466 Y52.5836
G01 X88.5512 Y52.8748
G01 X89.2648 Y53.1432
G01 X89.9866 Y53.3884
G01 X90.7160 Y53.6103
G01 X91.4521 Y53.8086
G01 X92.1942 Y53.9832
G01 X92.9415 Y54.1337
G01 X93.6645 Y54.2410
G01 X94.3904 Y54.3260
G01 X95.1186 Y54.3886
G01 X95.8483 Y54.4286
G01 X96.5790 Y54.4461
G01 X97.3098 Y54.4411
G01 X98.0401 Y54.4135
G01 X98.7693 Y54.3634
G01 X99.4965 Y54.2909
G01 X100.2212 Y54.1959
G01 X100.9426 Y54.0787
G01 X101.6600 Y53.9392
G01 X102.4346 Y53.7955
G01 X103.2094 Y53.6534
G01 X103.9846 Y53.5128
G01 X104.7601 Y53.3738
G01 X104.8571 Y53.3697
G01 X104.9542 Y53.3707
G01 X105.0511 Y53.3767
G01 X105.1476 Y53.3878
G01 X105.2434 Y53.4039
G01 X105.3383 Y53.4249
G01 X105.4319 Y53.4508
G01 X105.5240 Y53.4815
G01 X105.6144 Y53.5170
G01 X105.7028 Y53.5571
G01 X105.7891 Y53.6018
G01 X105.8729 Y53.6509
G01 X106.5912 Y54.1522
G01 X107.3185 Y54.6406
G01 X108.0543 Y55.1159
G01 X108.7985 Y55.5779
G01 X109.5509 Y56.0266
G01 X110.3111 Y56.4617
G01 X111.0791 Y56.8832
G01 X111.8544 Y57.2908
G01 X112.8871 Y57.7900
G01 X113.9332 Y58.2603
G01 X114.9921 Y58.7012
G01 X116.0628 Y59.1124
G01 X117.1446 Y59.4936
G01 X118.2365 Y59.8446
G01 X119.3379 Y60.1650
G01 X120.4477 Y60.4546
G01 X121.5651 Y60.7132
G01 X122.6894 Y60.9406
G01 X123.8195 Y61.1366
G01 X124.9546 Y61.3010
G01 X126.0939 Y61.4337
G01 X127.2364 Y61.5346
G01 X128.3813 Y61.6037
G01 X129.5277 Y61.6408
G01 X130.4449 Y61.6372
G01 X131.3617 Y61.6086
G01 X132.2774 Y61.5552
G01 X133.1912 Y61.4769
G01 X134.1026 Y61.3739
G01 X135.0109 Y61.2461
G01 X135.9154 Y61.0937
G01 X136.8154 Y60.9169
G01 X137.7103 Y60.7156
G01 X138.5993 Y60.4902
G01 X139.4820 Y60.2407
G01 X140.3575 Y59.9673
G01 X141.2253 Y59.6702
G01 X142.0847 Y59.3497
G01 X142.9350 Y59.0060
G01 X143.7758 Y58.6393
G01 X144.6062 Y58.2499
G01 X145.4258 Y57.8381
G01 X146.2339 Y57.4043
G01 X147.0300 Y56.9486
G01 X147.9194 Y56.3686
G01 X148.7896 Y55.7601
G01 X149.6395 Y55.1236
G01 X150.4684 Y54.4599
G01 X150.4730 Y54.4524
G01 X150.4772 Y54.4447
G01 X150.4810 Y54.4368
G01 X150.4843 Y54.4286
G01 X150.4871 Y54.4203
G01 X150.4894 Y54.4118
G01 X150.4912 Y54.4032
G01 X150.4925 Y54.3945
G01 X150.4532 Y53.2862
G01 X150.4350 Y52.1773
G01 X150.4382 Y51.0683
G01 X150.4626 Y49.9595
G01 X150.5139 Y49.2486
G01 X150.6006 Y48.5411
G01 X150.7223 Y47.8388
G01 X150.8788 Y47.1434
G01 X151.0697 Y46.4567
G01 X151.2946 Y45.7803
G01 X151.5528 Y45.1160
G01 X151.8437 Y44.4653
G01 X152.1168 Y43.9330
G01 X152.4115 Y43.4124
G01 X152.7275 Y42.9043
G01 X153.0640 Y42.4096
G01 X153.4205 Y41.9292
G01 X153.7966 Y41.4639
G01 X154.1914 Y41.0144
G01 X154.6043 Y40.5815
G01 X155.0347 Y40.1659
G01 X155.4818 Y39.7684
G01 X155.9449 Y39.3896
G01 X156.4232 Y39.0301
G01 X156.9158 Y38.6906
G01 X157.4219 Y38.3717
G01 X157.9408 Y38.0738
G01 X158.4714 Y37.7974
G01 X159.0129 Y37.5432
G01 X159.5645 Y37.3113
G01 X160.1251 Y37.1024
G01 X160.6938 Y36.9167
G01 X161.1209 Y36.7846
G01 X161.5526 Y36.6690
G01 X161.9885 Y36.5699
G01 X162.4279 Y36.4875
G01 X162.8700 Y36.4220
G01 X163.3144 Y36.3734
G01 X163.7602 Y36.3417
G01 X164.2070 Y36.3271
G01 X164.8669 Y36.2983
G01 X165.5271 Y36.2760
G01 X166.1874 Y36.2600
G01 X166.8479 Y36.2503
G01 X169.2554 Y36.2551
G01 X171.6628 Y36.2408
G01 X174.0701 Y36.2073
G01 X176.4770 Y36.1547
G01 X176.9269 Y36.1469
G01 X177.3760 Y36.1180
G01 X177.8232 Y36.0681
G01 X178.2676 Y35.9974
G01 X178.7082 Y35.9060
G01 X179.1440 Y35.7941
G01 X179.5742 Y35.6619
G01 X179.9977 Y35.5098
G01 X180.4136 Y35.3380
G01 X180.8210 Y35.1470
G01 X181.2190 Y34.9371
G01 X181.6068 Y34.7088
G01 X181.9835 Y34.4626
G01 X182.3483 Y34.1991
G01 X182.7003 Y33.9188
G01 X183.0388 Y33.6224
G01 X183.3805 Y33.2877
G01 X183.6970 Y32.9291
G01 X183.9865 Y32.5484
G01 X184.2476 Y32.1476
G01 X184.4788 Y31.7289
G01 X184.6790 Y31.2945
G01 X184.8470 Y30.8467
G01 X184.9821 Y30.3879
G01 X185.0786 Y29.8249
G01 X185.1439 Y29.2574
G01 X185.1777 Y28.6872
G01 X185.1800 Y28.1160
G01 X185.1507 Y27.5455
G01 X185.0899 Y26.9775
G01 X184.9978 Y26.4137
G01 X184.8748 Y25.8559
G01 X184.6948 Y25.3222
G01 X184.4837 Y24.8001
G01 X184.2421 Y24.2913
G01 X183.9710 Y23.7977
G01 X183.6712 Y23.3209
G01 X183.3438 Y22.8627
G01 X182.9899 Y22.4246
G01 X182.6107 Y22.0081
G01 X182.2077 Y21.6147
G01 X181.7822 Y21.2458
G01 X181.3356 Y20.9026
G01 X180.8696 Y20.5864
G01 X180.3998 Y20.3001
G01 X179.9136 Y20.0427
G01 X179.4126 Y19.8154
G01 X178.8988 Y19.6188
G01 X178.3741 Y19.4537
G01 X177.8402 Y19.3208
G01 X177.2994 Y19.2204
G01 X176.7534 Y19.1530
G01 X176.2043 Y19.1188
G01 X175.6542 Y19.1180
G01 X175.1050 Y19.1506
G01 X174.5588 Y19.2163
G01 X173.8655 Y19.3326
G01 X173.1769 Y19.4746
G01 X172.4941 Y19.6421
G01 X171.8179 Y19.8348
G01 X171.1494 Y20.0525
G01 X170.4895 Y20.2949
G01 X169.8390 Y20.5617
G01 X169.1988 Y20.8524
G01 X168.8318 Y21.0198
G01 X168.4615 Y21.1799
G01 X168.0881 Y21.3327
G01 X167.7118 Y21.4781
G01 X167.5990 Y21.5081
G01 X167.4843 Y21.5291
G01 X167.3683 Y21.5410
G01 X167.2517 Y21.5437
G01 X167.1352 Y21.5373
G01 X167.0196 Y21.5218
G01 X166.9056 Y21.4972
G01 X166.7939 Y21.4637
G01 X166.6851 Y21.4216
G01 X166.5800 Y21.3710
G01 X166.4792 Y21.3123
G01 X166.3833 Y21.2459
G01 X166.2929 Y21.1722
G01 X166.2086 Y21.0916
G01 X166.1309 Y21.0046
G01 X166.0603 Y20.9117
G01 X165.9972 Y20.8137
G01 X165.9420 Y20.7109
G01 X165.8950 Y20.6041
G01 X165.8566 Y20.4940
G01 X165.7818 Y20.2383
G01 X165.6977 Y19.9855
G01 X165.6044 Y19.7359
G01 X165.5020 Y19.4899
G01 X165.3907 Y19.2478
G01 X165.2706 Y19.0100
G01 X165.1419 Y18.7767
G01 X165.0047 Y18.5483
G01 X164.7909 Y18.2644
G01 X164.5601 Y17.9942
G01 X164.3133 Y17.7386
G01 X164.0512 Y17.4985
G01 X163.7750 Y17.2750
G01 X163.4856 Y17.0687
G01 X163.1841 Y16.8805
G01 X162.8717 Y16.7112
G01 X162.5495 Y16.5612
G01 X162.2188 Y16.4312
G01 X161.8807 Y16.3217
G01 X161.5366 Y16.2330
G01 X161.0626 Y16.1388
G01 X160.5835 Y16.0755
G01 X160.1012 Y16.0433
G01 X159.6180 Y16.0424
G01 X159.1356 Y16.0727
G01 X158.6563 Y16.1341
G01 X158.1819 Y16.2265
G01 X157.7145 Y16.3493
G01 X157.2560 Y16.5021
G01 X156.8083 Y16.6843
G01 X156.3734 Y16.8950
G01 X155.9530 Y17.1334
G01 X156.0725 Y17.2953
G00 Z5.0000


;No. 5: Hole 21
G00 X76.6426 Y35.8367 Z5.0000
G00 Z0.5000
G01 Z0.0000 F400
G01 Z-1.3000
G01 X74.7815 F1000
G01 X75.9320 Y34.3367
G01 X73.0104
G01 X71.6581 Y32.8367
G01 X74.9688
G01 X73.7498 Y31.3367
G01 X70.6166
G01 X69.7607 Y29.8367
G01 X72.2772
G01 X70.4732 Y28.3367
G01 X69.0282
G01 X68.8541 Y28.4372
G01 X69.1512 Y29.0897
G01 X69.4695 Y29.7322
G01 X69.8088 Y30.3638
G01 X70.1687 Y30.9839
G01 X70.5488 Y31.5918
G01 X70.9487 Y32.1869
G01 X71.3679 Y32.7686
G01 X71.8061 Y33.3361
G01 X72.1895 Y33.7788
G01 X72.5893 Y34.2066
G01 X73.0050 Y34.6191
G01 X73.4361 Y35.0155
G01 X73.8818 Y35.3953
G01 X74.3416 Y35.7580
G01 X74.8147 Y36.1031
G01 X75.3006 Y36.4300
G01 X75.7985 Y36.7383
G01 X76.3076 Y37.0275
G01 X76.8274 Y37.2973
G01 X77.3570 Y37.5472
G01 X77.2376 Y37.0612
G01 X77.0993 Y36.5803
G01 X76.9424 Y36.1051
G01 X76.7671 Y35.6364
G01 X76.5736 Y35.1748
G01 X76.3622 Y34.7212
G01 X76.1333 Y34.2762
G01 X75.8872 Y33.8404
G01 X75.6243 Y33.4146
G01 X75.3450 Y32.9994
G01 X75.0497 Y32.5953
G01 X74.7388 Y32.2032
G01 X74.2718 Y31.6341
G01 X73.7865 Y31.0805
G01 X73.2836 Y30.5428
G01 X72.7636 Y30.0217
G01 X72.2271 Y29.5176
G01 X71.6745 Y29.0312
G01 X71.1064 Y28.5629
G01 X70.5235 Y28.1132
G01 X69.9264 Y27.6826
G01 X69.3157 Y27.2715
G01 X68.6920 Y26.8804
G01 X68.0560 Y26.5097
G01 X68.2450 Y26.9958
G01 X68.4410 Y27.4792
G01 X68.6441 Y27.9597
G01 X68.8541 Y28.4372
G01 X69.0282 Y28.3367
G00 Z5.0000


;No. 6: Hole 22
G00 X81.6170 Y36.2288 Z5.0000
G00 Z0.5000
G01 Z0.0000 F400
G01 Z-1.3000
G01 X83.2987 F1000
G01 X83.4982 Y36.2421
G01 X83.5008 Y36.1957
G01 X83.5012 Y36.1493
G01 X83.4995 Y36.1030
G01 X83.4956 Y36.0567
G01 X83.4896 Y36.0107
G01 X83.4815 Y35.9651
G01 X83.4712 Y35.9198
G01 X83.4589 Y35.8751
G01 X83.4445 Y35.8310
G01 X83.4280 Y35.7876
G01 X83.4096 Y35.7450
G01 X83.3892 Y35.7033
G01 X83.3669 Y35.6626
G01 X83.3428 Y35.6230
G01 X83.3168 Y35.5846
G01 X83.2890 Y35.5474
G01 X83.2596 Y35.5115
G01 X83.2286 Y35.4770
G01 X83.1959 Y35.4440
G01 X83.1618 Y35.4126
G01 X83.1263 Y35.3828
G01 X83.0894 Y35.3546
G01 X83.0512 Y35.3282
G01 X83.0119 Y35.3036
G01 X82.9714 Y35.2809
G01 X82.9300 Y35.2600
G01 X82.8876 Y35.2411
G01 X82.8444 Y35.2242
G01 X82.8004 Y35.2093
G01 X82.7559 Y35.1965
G01 X82.7107 Y35.1858
G01 X82.6651 Y35.1771
G01 X82.6192 Y35.1706
G01 X82.5730 Y35.1662
G01 X82.5267 Y35.1640
G01 X82.4803 Y35.1639
G01 X82.4339 Y35.1660
G01 X82.3877 Y35.1702
G01 X82.3417 Y35.1765
G01 X82.2961 Y35.1850
G01 X82.2509 Y35.1956
G01 X82.2063 Y35.2083
G01 X82.1623 Y35.2230
G01 X82.1190 Y35.2398
G01 X82.0766 Y35.2586
G01 X82.0351 Y35.2793
G01 X81.9946 Y35.3019
G01 X81.9551 Y35.3263
G01 X81.9148 Y35.3464
G01 X81.8754 Y35.3684
G01 X81.8372 Y35.3924
G01 X81.8002 Y35.4181
G01 X81.7645 Y35.4456
G01 X81.7302 Y35.4748
G01 X81.6973 Y35.5057
G01 X81.6659 Y35.5381
G01 X81.6362 Y35.5720
G01 X81.6082 Y35.6073
G01 X81.5819 Y35.6439
G01 X81.5574 Y35.6818
G01 X81.5348 Y35.7208
G01 X81.5141 Y35.7608
G01 X81.4954 Y35.8018
G01 X81.4787 Y35.8437
G01 X81.4640 Y35.8864
G01 X81.4514 Y35.9297
G01 X81.4410 Y35.9735
G01 X81.4327 Y36.0178
G01 X81.4266 Y36.0625
G01 X81.4226 Y36.1074
G01 X81.4208 Y36.1525
G01 X81.4213 Y36.1975
G01 X81.4239 Y36.2426
G01 X81.4287 Y36.2874
G01 X81.4356 Y36.3319
G01 X81.4448 Y36.3761
G01 X81.4560 Y36.4197
G01 X81.4694 Y36.4628
G01 X81.4849 Y36.5051
G01 X81.5023 Y36.5467
G01 X81.5438 Y36.6347
G01 X81.5918 Y36.7193
G01 X81.6463 Y36.7999
G01 X81.7067 Y36.8761
G01 X81.7728 Y36.9474
G01 X81.8442 Y37.0135
G01 X81.9205 Y37.0739
G01 X82.0012 Y37.1282
G01 X82.0858 Y37.1762
G01 X82.1738 Y37.2176
G01 X82.2648 Y37.2520
G01 X82.3581 Y37.2794
G01 X82.3457 Y37.2767
G01 X82.4397 Y37.2749
G01 X82.5333 Y37.2651
G01 X82.6256 Y37.2473
G01 X82.7161 Y37.2216
G01 X82.8041 Y37.1882
G01 X82.8889 Y37.1474
G01 X82.9698 Y37.0995
G01 X83.0463 Y37.0448
G01 X83.1179 Y36.9837
G01 X83.1839 Y36.9167
G01 X83.2440 Y36.8443
G01 X83.2976 Y36.7670
G01 X83.3195 Y36.7388
G01 X83.3403 Y36.7098
G01 X83.3599 Y36.6800
G01 X83.3784 Y36.6494
G01 X83.3956 Y36.6181
G01 X83.4116 Y36.5862
G01 X83.4263 Y36.5536
G01 X83.4397 Y36.5205
G01 X83.4518 Y36.4869
G01 X83.4625 Y36.4529
G01 X83.4719 Y36.4184
G01 X83.4800 Y36.3836
G01 X83.4866 Y36.3485
G01 X83.4919 Y36.3132
G01 X83.4958 Y36.2777
G01 X83.4982 Y36.2421
G01 X83.2987 Y36.2288
G00 Z5.0000


;No. 7: Hole 20
G00 X129.5258 Y34.4424 Z5.0000
G00 Z0.5000
G01 Z0.0000 F400
G01 Z-1.3000
G01 X132.4533 F1000
G01 X132.4177 Y32.9424
G01 X129.5436
G01 X129.3608 Y32.8603
G01 X129.3145 Y32.9445
G01 X129.2731 Y33.0313
G01 X129.2367 Y33.1204
G01 X129.2055 Y33.2113
G01 X129.1795 Y33.3039
G01 X129.1589 Y33.3979
G01 X129.1438 Y33.4929
G01 X129.1341 Y33.5885
G01 X129.1299 Y33.6846
G01 X129.1312 Y33.7808
G01 X129.1380 Y33.8767
G01 X129.1504 Y33.9721
G01 X129.1682 Y34.0666
G01 X129.1913 Y34.1599
G01 X129.2198 Y34.2518
G01 X129.2535 Y34.3419
G01 X129.2470 Y34.3278
G01 X129.3018 Y34.4451
G01 X129.3637 Y34.5589
G01 X129.4324 Y34.6688
G01 X129.5076 Y34.7742
G01 X129.5890 Y34.8750
G01 X129.6764 Y34.9706
G01 X129.7694 Y35.0607
G01 X129.8678 Y35.1450
G01 X129.9710 Y35.2232
G01 X130.0789 Y35.2950
G01 X130.1908 Y35.3601
G01 X130.3065 Y35.4184
G01 X130.4256 Y35.4695
G01 X130.5475 Y35.5133
G01 X130.6718 Y35.5496
G01 X130.7981 Y35.5783
G01 X130.9135 Y35.5765
G01 X131.0285 Y35.5683
G01 X131.1430 Y35.5536
G01 X131.2564 Y35.5326
G01 X131.3685 Y35.5052
G01 X131.4788 Y35.4716
G01 X131.5871 Y35.4319
G01 X131.6930 Y35.3861
G01 X131.7962 Y35.3346
G01 X131.8963 Y35.2773
G01 X131.9931 Y35.2145
G01 X132.0862 Y35.1463
G01 X132.1753 Y35.0731
G01 X132.2602 Y34.9950
G01 X132.3406 Y34.9122
G01 X132.4162 Y34.8251
G01 X132.4868 Y34.7339
G01 X132.5522 Y34.6388
G01 X132.6122 Y34.5403
G01 X132.6666 Y34.4386
G01 X132.7151 Y34.3339
G01 X132.7578 Y34.2267
G01 X132.7944 Y34.1173
G01 X132.8247 Y34.0060
G01 X132.8380 Y33.9068
G01 X132.8450 Y33.8069
G01 X132.8456 Y33.7067
G01 X132.8399 Y33.6067
G01 X132.8279 Y33.5073
G01 X132.8097 Y33.4088
G01 X132.7853 Y33.3117
G01 X132.7548 Y33.2163
G01 X132.7604 Y33.2358
G01 X132.7241 Y33.1195
G01 X132.6806 Y33.0057
G01 X132.6302 Y32.8949
G01 X132.5730 Y32.7873
G01 X132.5091 Y32.6836
G01 X132.4390 Y32.5840
G01 X132.3628 Y32.4890
G01 X132.2808 Y32.3989
G01 X132.1933 Y32.3140
G01 X132.1008 Y32.2348
G01 X132.0035 Y32.1615
G01 X131.9018 Y32.0944
G01 X131.7962 Y32.0338
G01 X131.6870 Y31.9798
G01 X131.5746 Y31.9327
G01 X131.4596 Y31.8928
G01 X131.3422 Y31.8600
G01 X131.2231 Y31.8347
G01 X131.1026 Y31.8167
G01 X130.9812 Y31.8064
G01 X130.8552 Y31.8172
G01 X130.7301 Y31.8362
G01 X130.6066 Y31.8634
G01 X130.4851 Y31.8986
G01 X130.3661 Y31.9416
G01 X130.2503 Y31.9924
G01 X130.1380 Y32.0507
G01 X130.0297 Y32.1161
G01 X129.9260 Y32.1885
G01 X129.8273 Y32.2675
G01 X129.7339 Y32.3529
G01 X129.6463 Y32.4441
G01 X129.5648 Y32.5409
G01 X129.4899 Y32.6428
G01 X129.4218 Y32.7494
G01 X129.3608 Y32.8603
G01 X129.5436 Y32.9424
G00 Z5.0000


;No. 8: Hole 19
G00 X131.0725 Y43.2735 Z5.0000
G00 Z0.5000
G01 Z0.0000 F400
G01 Z-1.3000
G01 X127.8872 F1000
G01 X127.9191 Y44.7735
G01 X131.0925
G01 X131.2674 Y44.8708
G01 X131.3168 Y44.7472
G01 X131.3583 Y44.6207
G01 X131.3916 Y44.4919
G01 X131.4166 Y44.3612
G01 X131.4331 Y44.2291
G01 X131.4412 Y44.0963
G01 X131.4408 Y43.9632
G01 X131.4319 Y43.8304
G01 X131.4146 Y43.6985
G01 X131.3888 Y43.5679
G01 X131.3547 Y43.4392
G01 X131.3125 Y43.3130
G01 X131.2623 Y43.1898
G01 X131.2043 Y43.0700
G01 X131.1388 Y42.9542
G01 X131.0660 Y42.8427
G01 X130.9862 Y42.7362
G01 X130.8998 Y42.6350
G01 X130.8071 Y42.5395
G01 X130.7085 Y42.4501
G01 X130.6076 Y42.3657
G01 X130.5014 Y42.2881
G01 X130.3904 Y42.2176
G01 X130.2750 Y42.1545
G01 X130.2894 Y42.1610
G01 X130.1674 Y42.1124
G01 X130.0424 Y42.0721
G01 X129.9149 Y42.0404
G01 X129.7855 Y42.0174
G01 X129.6549 Y42.0033
G01 X129.5236 Y41.9980
G01 X129.3923 Y42.0017
G01 X129.2616 Y42.0142
G01 X129.1319 Y42.0356
G01 X129.0041 Y42.0658
G01 X128.8785 Y42.1045
G01 X128.7559 Y42.1517
G01 X128.6368 Y42.2070
G01 X128.5217 Y42.2704
G01 X128.4112 Y42.3414
G01 X128.3057 Y42.4197
G01 X128.2058 Y42.5050
G01 X128.1119 Y42.5969
G01 X128.0244 Y42.6949
G01 X127.9438 Y42.7986
G01 X127.8896 Y42.8713
G01 X127.8388 Y42.9464
G01 X127.7915 Y43.0237
G01 X127.7478 Y43.1032
G01 X127.7079 Y43.1846
G01 X127.6718 Y43.2677
G01 X127.6395 Y43.3524
G01 X127.6112 Y43.4386
G01 X127.6141 Y43.4276
G01 X127.5838 Y43.5654
G01 X127.5626 Y43.7049
G01 X127.5504 Y43.8455
G01 X127.5475 Y43.9866
G01 X127.5536 Y44.1276
G01 X127.5690 Y44.2679
G01 X127.5934 Y44.4069
G01 X127.6268 Y44.5440
G01 X127.6691 Y44.6786
G01 X127.7200 Y44.8102
G01 X127.7794 Y44.9382
G01 X127.8469 Y45.0621
G01 X127.9224 Y45.1814
G01 X128.0054 Y45.2955
G01 X128.0957 Y45.4039
G01 X128.1929 Y45.5062
G01 X128.2965 Y45.6020
G01 X128.4061 Y45.6909
G01 X128.5213 Y45.7725
G01 X128.6415 Y45.8464
G01 X128.7663 Y45.9123
G01 X128.8950 Y45.9700
G01 X129.0273 Y46.0192
G01 X129.1625 Y46.0597
G01 X129.2897 Y46.0610
G01 X129.4168 Y46.0553
G01 X129.5434 Y46.0425
G01 X129.6691 Y46.0229
G01 X129.7935 Y45.9963
G01 X129.9162 Y45.9628
G01 X130.0369 Y45.9227
G01 X130.1553 Y45.8760
G01 X130.2708 Y45.8228
G01 X130.3833 Y45.7633
G01 X130.4923 Y45.6977
G01 X130.5975 Y45.6262
G01 X130.6986 Y45.5490
G01 X130.7953 Y45.4663
G01 X130.8873 Y45.3784
G01 X130.9743 Y45.2856
G01 X131.0561 Y45.1881
G01 X131.1323 Y45.0863
G01 X131.2028 Y44.9804
G01 X131.2674 Y44.8708
G01 X131.0925 Y44.7735
G00 Z5.0000


;No. 9: Hole 3
G00 X155.7135 Y49.2018 Z5.0000
G00 Z0.5000
G01 Z0.0000 F400
G01 Z-1.3000
G01 X163.9555 F1000
G01 X165.4353 Y47.7018
G01 X155.9557
G01 X156.6245 Y46.2018
G01 X166.5408
G01 X167.2737 Y44.7018
G01 X157.6251
G01 X159.0449 Y43.2018
G01 X167.5192
G01 X166.8443 Y41.7018
G01 X161.1249
G00 Z5.0000
G00 X161.7834 Y49.2018
G00 Z0.5000
G01 Z-1.3000 F400
G01 Y50.7018 F1000
G01 X156.1966
G01 X156.0387 Y50.8245
G01 X156.2293 Y51.0386
G01 X156.4390 Y51.2343
G01 X156.6657 Y51.4098
G01 X156.9077 Y51.5636
G01 X157.1628 Y51.6945
G01 X157.4289 Y51.8013
G01 X157.7038 Y51.8831
G01 X157.9850 Y51.9392
G01 X158.4025 Y51.9326
G01 X158.8190 Y51.9013
G01 X159.2328 Y51.8453
G01 X159.6427 Y51.7650
G01 X160.0470 Y51.6606
G01 X160.4445 Y51.5325
G01 X160.8337 Y51.3810
G01 X161.2132 Y51.2068
G01 X161.6887 Y50.9697
G01 X162.1540 Y50.7132
G01 X162.6084 Y50.4380
G01 X163.0512 Y50.1444
G01 X163.4816 Y49.8329
G01 X163.8989 Y49.5040
G01 X164.3024 Y49.1583
G01 X164.6914 Y48.7964
G01 X165.0653 Y48.4189
G01 X165.4234 Y48.0264
G01 X165.7651 Y47.6195
G01 X166.0899 Y47.1991
G01 X166.3971 Y46.7656
G01 X166.6864 Y46.3200
G01 X166.9572 Y45.8629
G01 X167.2091 Y45.3951
G01 X167.3359 Y45.1248
G01 X167.4451 Y44.8470
G01 X167.5361 Y44.5627
G01 X167.6086 Y44.2731
G01 X167.6624 Y43.9795
G01 X167.6972 Y43.6830
G01 X167.7128 Y43.3849
G01 X167.7092 Y43.0864
G01 X167.6521 Y42.8155
G01 X167.5708 Y42.5508
G01 X167.4659 Y42.2946
G01 X167.3383 Y42.0489
G01 X167.1891 Y41.8158
G01 X167.0194 Y41.5971
G01 X166.8306 Y41.3946
G01 X166.6243 Y41.2099
G01 X166.4021 Y41.0447
G01 X166.1660 Y40.9002
G01 X165.9178 Y40.7777
G01 X165.6595 Y40.6780
G01 X165.2624 Y40.5747
G01 X164.8578 Y40.5061
G01 X164.4489 Y40.4728
G01 X164.0386 Y40.4751
G01 X163.6300 Y40.5129
G01 X163.2262 Y40.5859
G01 X162.8303 Y40.6935
G01 X162.4452 Y40.8351
G01 X161.9233 Y41.0622
G01 X161.4126 Y41.3136
G01 X160.9143 Y41.5887
G01 X160.4294 Y41.8869
G01 X159.9591 Y42.2075
G01 X159.5044 Y42.5499
G01 X159.0662 Y42.9132
G01 X158.6456 Y43.2968
G01 X158.2434 Y43.6996
G01 X157.8607 Y44.1209
G01 X157.4981 Y44.5597
G01 X157.1565 Y45.0150
G01 X156.8367 Y45.4858
G01 X156.5393 Y45.9712
G01 X156.2651 Y46.4700
G01 X156.0146 Y46.9811
G01 X155.8771 Y47.2891
G01 X155.7614 Y47.6059
G01 X155.6681 Y47.9300
G01 X155.5977 Y48.2599
G01 X155.5504 Y48.5938
G01 X155.5265 Y48.9302
G01 X155.5261 Y49.2675
G01 X155.5492 Y49.6040
G01 X155.5650 Y49.7137
G01 X155.5855 Y49.8226
G01 X155.6107 Y49.9305
G01 X155.6406 Y50.0372
G01 X155.6750 Y50.1426
G01 X155.7140 Y50.2463
G01 X155.7575 Y50.3482
G01 X155.8054 Y50.4482
G01 X155.8575 Y50.5460
G01 X155.9138 Y50.6414
G01 X155.9743 Y50.7343
G01 X156.0387 Y50.8245
G01 X156.1966 Y50.7018
G00 Z5.0000


;No. 10: Hole 18
G00 X95.6152 Y73.4005 Z5.0000
G00 Z0.5000
G01 Z0.0000 F400
G01 Z-1.3000
G01 X93.9913 F1000
G01 X93.7997 Y73.4599
G01 X93.8242 Y73.5460
G01 X93.8540 Y73.6304
G01 X93.8891 Y73.7128
G01 X93.9292 Y73.7929
G01 X93.9742 Y73.8703
G01 X94.0240 Y73.9447
G01 X94.0783 Y74.0159
G01 X94.1369 Y74.0836
G01 X94.1996 Y74.1475
G01 X94.2662 Y74.2074
G01 X94.3364 Y74.2630
G01 X94.4099 Y74.3141
G01 X94.4865 Y74.3605
G01 X94.5658 Y74.4021
G01 X94.6476 Y74.4387
G01 X94.7314 Y74.4701
G01 X94.7144 Y74.4659
G01 X94.7316 Y74.4707
G01 X94.8193 Y74.4703
G01 X94.9067 Y74.4625
G01 X94.9931 Y74.4474
G01 X95.0779 Y74.4251
G01 X95.1606 Y74.3958
G01 X95.2405 Y74.3596
G01 X95.3171 Y74.3169
G01 X95.3898 Y74.2679
G01 X95.4582 Y74.2130
G01 X95.5218 Y74.1526
G01 X95.5800 Y74.0870
G01 X95.6326 Y74.0168
G01 X95.6790 Y73.9424
G01 X95.7191 Y73.8644
G01 X95.7525 Y73.7833
G01 X95.7790 Y73.6997
G01 X95.7984 Y73.6142
G01 X95.8105 Y73.5273
G01 X95.8154 Y73.4398
G01 X95.8128 Y73.3521
G01 X95.8068 Y73.2613
G01 X95.7928 Y73.1714
G01 X95.7710 Y73.0831
G01 X95.7416 Y72.9970
G01 X95.7047 Y72.9139
G01 X95.6608 Y72.8342
G01 X95.6100 Y72.7587
G01 X95.5529 Y72.6880
G01 X95.4897 Y72.6225
G01 X95.4211 Y72.5627
G01 X95.3475 Y72.5092
G01 X95.2696 Y72.4624
G01 X95.1878 Y72.4225
G01 X95.1029 Y72.3900
G01 X95.0154 Y72.3650
G01 X94.9261 Y72.3477
G01 X94.8356 Y72.3383
G01 X94.7447 Y72.3368
G01 X94.6539 Y72.3433
G01 X94.5641 Y72.3578
G01 X94.5228 Y72.3646
G01 X94.4819 Y72.3732
G01 X94.4414 Y72.3838
G01 X94.4015 Y72.3962
G01 X94.3621 Y72.4104
G01 X94.3235 Y72.4263
G01 X94.2856 Y72.4441
G01 X94.2486 Y72.4635
G01 X94.2125 Y72.4847
G01 X94.1774 Y72.5074
G01 X94.1433 Y72.5318
G01 X94.1105 Y72.5576
G01 X94.0788 Y72.5850
G01 X94.0485 Y72.6137
G01 X94.0194 Y72.6439
G01 X93.9918 Y72.6753
G01 X93.9657 Y72.7079
G01 X93.9411 Y72.7418
G01 X93.9180 Y72.7767
G01 X93.8966 Y72.8126
G01 X93.8768 Y72.8495
G01 X93.8588 Y72.8872
G01 X93.8425 Y72.9257
G01 X93.8279 Y72.9649
G01 X93.8152 Y73.0048
G01 X93.8043 Y73.0452
G01 X93.7953 Y73.0860
G01 X93.7882 Y73.1272
G01 X93.7829 Y73.1687
G01 X93.7796 Y73.2104
G01 X93.7782 Y73.2523
G01 X93.7787 Y73.2941
G01 X93.7810 Y73.3358
G01 X93.7854 Y73.3774
G01 X93.7916 Y73.4188
G01 X93.7997 Y73.4599
G01 X93.9913 Y73.4005
G00 Z5.0000


;No. 11: Hole 16
G00 X87.4954 Y73.8045 Z5.0000
G00 Z0.5000
G01 Z0.0000 F400
G01 Z-1.3000
G01 X82.1530 F1000
G01 X82.6567 Y72.3045
G01 X87.0807
G01 X82.6582 Y75.3045
G01 X86.9476
G01 X87.1172 Y75.4117
G01 X87.2110 Y75.2854
G01 X87.2975 Y75.1539
G01 X87.3763 Y75.0177
G01 X87.4471 Y74.8772
G01 X87.5098 Y74.7329
G01 X87.5641 Y74.5852
G01 X87.6099 Y74.4346
G01 X87.6469 Y74.2817
G01 X87.6751 Y74.1269
G01 X87.6944 Y73.9707
G01 X87.7048 Y73.8137
G01 X87.7061 Y73.6564
G01 X87.6983 Y73.4992
G01 X87.6816 Y73.3427
G01 X87.6560 Y73.1875
G01 X87.6215 Y73.0340
G01 X87.5782 Y72.8827
G01 X87.5264 Y72.7341
G01 X87.4661 Y72.5887
G01 X87.3976 Y72.4471
G01 X87.3211 Y72.3096
G01 X87.2368 Y72.1767
G01 X87.1451 Y72.0489
G01 X87.0461 Y71.9265
G01 X86.9404 Y71.8100
G01 X86.8281 Y71.6998
G01 X86.7097 Y71.5961
G01 X86.5855 Y71.4994
G01 X86.4625 Y71.4107
G01 X86.3350 Y71.3286
G01 X86.2032 Y71.2534
G01 X86.0676 Y71.1853
G01 X85.9286 Y71.1246
G01 X85.7866 Y71.0713
G01 X85.6419 Y71.0257
G01 X85.4950 Y70.9879
