;Project Chickeria3
;Created by Estlcam version 11 build 11,245
;Machining time about 00:17:02 hours

G90
M03 S10000
G00 Z5.0000


;No. 1: Helical drill 4
G00 X20.7807 Y85.2747
G00 Z0.5000
G01 X20.7797 Y85.2319 Z0.4861 F400 S10000
G01 X20.7767 Y85.1892 Z0.4722
G01 X20.7716 Y85.1467 Z0.4583
G01 X20.7645 Y85.1044 Z0.4444
G01 X20.7554 Y85.0626 Z0.4306
G01 X20.7443 Y85.0212 Z0.4167
G01 X20.7312 Y84.9804 Z0.4028
G01 X20.7163 Y84.9402 Z0.3889
G01 X20.6994 Y84.9009 Z0.3750
G01 X20.6807 Y84.8623 Z0.3611
G01 X20.6602 Y84.8247 Z0.3472
G01 X20.6379 Y84.7882 Z0.3333
G01 X20.6138 Y84.7527 Z0.3194
G01 X20.5882 Y84.7184 Z0.3056
G01 X20.5609 Y84.6854 Z0.2917
G01 X20.5321 Y84.6537 Z0.2778
G01 X20.5018 Y84.6234 Z0.2639
G01 X20.4701 Y84.5946 Z0.2500
G01 X20.4371 Y84.5673 Z0.2361
G01 X20.4028 Y84.5416 Z0.2222
G01 X20.3673 Y84.5176 Z0.2083
G01 X20.3307 Y84.4953 Z0.1944
G01 X20.2931 Y84.4748 Z0.1806
G01 X20.2546 Y84.4561 Z0.1667
G01 X20.2152 Y84.4392 Z0.1528
G01 X20.1751 Y84.4242 Z0.1389
G01 X20.1343 Y84.4112 Z0.1250
G01 X20.0929 Y84.4001 Z0.1111
G01 X20.0511 Y84.3910 Z0.0972
G01 X20.0088 Y84.3839 Z0.0833
G01 X19.9663 Y84.3788 Z0.0694
G01 X19.9236 Y84.3758 Z0.0556
G01 X19.8807 Y84.3747 Z0.0417
G01 X19.8379 Y84.3758 Z0.0278
G01 X19.7952 Y84.3788 Z0.0139
G01 X19.7526 Y84.3839 Z0.0000
G01 X19.7104 Y84.3910 Z-0.0139
G01 X19.6685 Y84.4001 Z-0.0278
G01 X19.6272 Y84.4112 Z-0.0417
G01 X19.5864 Y84.4242 Z-0.0556
G01 X19.5462 Y84.4392 Z-0.0694
G01 X19.5069 Y84.4561 Z-0.0833
G01 X19.4683 Y84.4748 Z-0.0972
G01 X19.4307 Y84.4953 Z-0.1111
G01 X19.3942 Y84.5176 Z-0.1250
G01 X19.3587 Y84.5416 Z-0.1389
G01 X19.3244 Y84.5673 Z-0.1528
G01 X19.2914 Y84.5946 Z-0.1667
G01 X19.2597 Y84.6234 Z-0.1806
G01 X19.2294 Y84.6537 Z-0.1944
G01 X19.2006 Y84.6854 Z-0.2083
G01 X19.1733 Y84.7184 Z-0.2222
G01 X19.1476 Y84.7527 Z-0.2361
G01 X19.1236 Y84.7882 Z-0.2500
G01 X19.1013 Y84.8247 Z-0.2639
G01 X19.0808 Y84.8623 Z-0.2778
G01 X19.0621 Y84.9009 Z-0.2917
G01 X19.0452 Y84.9402 Z-0.3056
G01 X19.0302 Y84.9804 Z-0.3194
G01 X19.0172 Y85.0212 Z-0.3333
G01 X19.0061 Y85.0626 Z-0.3472
G01 X18.9970 Y85.1044 Z-0.3611
G01 X18.9899 Y85.1467 Z-0.3750
G01 X18.9848 Y85.1892 Z-0.3889
G01 X18.9817 Y85.2319 Z-0.4028
G01 X18.9807 Y85.2747 Z-0.4167
G01 X18.9817 Y85.3176 Z-0.4306
G01 X18.9848 Y85.3603 Z-0.4444
G01 X18.9899 Y85.4028 Z-0.4583
G01 X18.9970 Y85.4451 Z-0.4722
G01 X19.0061 Y85.4869 Z-0.4861
G01 X19.0172 Y85.5283 Z-0.5000
G01 X19.0302 Y85.5691 Z-0.5139
G01 X19.0452 Y85.6092 Z-0.5278
G01 X19.0621 Y85.6486 Z-0.5417
G01 X19.0808 Y85.6871 Z-0.5556
G01 X19.1013 Y85.7247 Z-0.5694
G01 X19.1236 Y85.7613 Z-0.5833
G01 X19.1476 Y85.7968 Z-0.5972
G01 X19.1733 Y85.8311 Z-0.6111
G01 X19.2006 Y85.8641 Z-0.6250
G01 X19.2294 Y85.8958 Z-0.6389
G01 X19.2597 Y85.9261 Z-0.6528
G01 X19.2914 Y85.9549 Z-0.6667
G01 X19.3244 Y85.9822 Z-0.6806
G01 X19.3587 Y86.0079 Z-0.6944
G01 X19.3942 Y86.0319 Z-0.7083
G01 X19.4307 Y86.0542 Z-0.7222
G01 X19.4683 Y86.0747 Z-0.7361
G01 X19.5069 Y86.0934 Z-0.7500
G01 X19.5462 Y86.1103 Z-0.7639
G01 X19.5864 Y86.1252 Z-0.7778
G01 X19.6272 Y86.1383 Z-0.7917
G01 X19.6685 Y86.1494 Z-0.8056
G01 X19.7104 Y86.1585 Z-0.8194
G01 X19.7526 Y86.1656 Z-0.8333
G01 X19.7952 Y86.1707 Z-0.8472
G01 X19.8379 Y86.1737 Z-0.8611
G01 X19.8807 Y86.1747 Z-0.8750
G01 X19.9236 Y86.1737 Z-0.8889
G01 X19.9663 Y86.1707 Z-0.9028
G01 X20.0088 Y86.1656 Z-0.9167
G01 X20.0511 Y86.1585 Z-0.9306
G01 X20.0929 Y86.1494 Z-0.9444
G01 X20.1343 Y86.1383 Z-0.9583
G01 X20.1751 Y86.1252 Z-0.9722
G01 X20.2152 Y86.1103 Z-0.9861
G01 X20.2546 Y86.0934 Z-1.0000
G01 X20.2931 Y86.0747 Z-1.0139
G01 X20.3307 Y86.0542 Z-1.0278
G01 X20.3673 Y86.0319 Z-1.0417
G01 X20.4028 Y86.0079 Z-1.0556
G01 X20.4371 Y85.9822 Z-1.0694
G01 X20.4701 Y85.9549 Z-1.0833
G01 X20.5018 Y85.9261 Z-1.0972
G01 X20.5321 Y85.8958 Z-1.1111
G01 X20.5609 Y85.8641 Z-1.1250
G01 X20.5882 Y85.8311 Z-1.1389
G01 X20.6138 Y85.7968 Z-1.1528
G01 X20.6379 Y85.7613 Z-1.1667
G01 X20.6602 Y85.7247 Z-1.1806
G01 X20.6807 Y85.6871 Z-1.1944
G01 X20.6994 Y85.6486 Z-1.2083
G01 X20.7163 Y85.6092 Z-1.2222
G01 X20.7312 Y85.5691 Z-1.2361
G01 X20.7443 Y85.5283 Z-1.2500
G01 X20.7554 Y85.4869 Z-1.2639
G01 X20.7645 Y85.4451 Z-1.2778
G01 X20.7716 Y85.4028 Z-1.2917
G01 X20.7767 Y85.3603 Z-1.3056
G01 X20.7797 Y85.3176 Z-1.3194
G01 X20.7807 Y85.2747 Z-1.3333
G01 X20.7797 Y85.2319
G01 X20.7767 Y85.1892
G01 X20.7716 Y85.1467
G01 X20.7645 Y85.1044
G01 X20.7554 Y85.0626
G01 X20.7443 Y85.0212
G01 X20.7312 Y84.9804
G01 X20.7163 Y84.9402
G01 X20.6994 Y84.9009
G01 X20.6807 Y84.8623
G01 X20.6602 Y84.8247
G01 X20.6379 Y84.7882
G01 X20.6138 Y84.7527
G01 X20.5882 Y84.7184
G01 X20.5609 Y84.6854
G01 X20.5321 Y84.6537
G01 X20.5018 Y84.6234
G01 X20.4701 Y84.5946
G01 X20.4371 Y84.5673
G01 X20.4028 Y84.5416
G01 X20.3673 Y84.5176
G01 X20.3307 Y84.4953
G01 X20.2931 Y84.4748
G01 X20.2546 Y84.4561
G01 X20.2152 Y84.4392
G01 X20.1751 Y84.4242
G01 X20.1343 Y84.4112
G01 X20.0929 Y84.4001
G01 X20.0511 Y84.3910
G01 X20.0088 Y84.3839
G01 X19.9663 Y84.3788
G01 X19.9236 Y84.3758
G01 X19.8807 Y84.3747
G01 X19.8379 Y84.3758
G01 X19.7952 Y84.3788
G01 X19.7526 Y84.3839
G01 X19.7104 Y84.3910
G01 X19.6685 Y84.4001
G01 X19.6272 Y84.4112
G01 X19.5864 Y84.4242
G01 X19.5462 Y84.4392
G01 X19.5069 Y84.4561
G01 X19.4683 Y84.4748
G01 X19.4307 Y84.4953
G01 X19.3942 Y84.5176
G01 X19.3587 Y84.5416
G01 X19.3244 Y84.5673
G01 X19.2914 Y84.5946
G01 X19.2597 Y84.6234
G01 X19.2294 Y84.6537
G01 X19.2006 Y84.6854
G01 X19.1733 Y84.7184
G01 X19.1476 Y84.7527
G01 X19.1236 Y84.7882
G01 X19.1013 Y84.8247
G01 X19.0808 Y84.8623
G01 X19.0621 Y84.9009
G01 X19.0452 Y84.9402
G01 X19.0302 Y84.9804
G01 X19.0172 Y85.0212
G01 X19.0061 Y85.0626
G01 X18.9970 Y85.1044
G01 X18.9899 Y85.1467
G01 X18.9848 Y85.1892
G01 X18.9817 Y85.2319
G01 X18.9807 Y85.2747
G01 X18.9817 Y85.3176
G01 X18.9848 Y85.3603
G01 X18.9899 Y85.4028
G01 X18.9970 Y85.4451
G01 X19.0061 Y85.4869
G01 X19.0172 Y85.5283
G01 X19.0302 Y85.5691
G01 X19.0452 Y85.6092
G01 X19.0621 Y85.6486
G01 X19.0808 Y85.6871
G01 X19.1013 Y85.7247
G01 X19.1236 Y85.7613
G01 X19.1476 Y85.7968
G01 X19.1733 Y85.8311
G01 X19.2006 Y85.8641
G01 X19.2294 Y85.8958
G01 X19.2597 Y85.9261
G01 X19.2914 Y85.9549
G01 X19.3244 Y85.9822
G01 X19.3587 Y86.0079
G01 X19.3942 Y86.0319
G01 X19.4307 Y86.0542
G01 X19.4683 Y86.0747
G01 X19.5069 Y86.0934
G01 X19.5462 Y86.1103
G01 X19.5864 Y86.1252
G01 X19.6272 Y86.1383
G01 X19.6685 Y86.1494
G01 X19.7104 Y86.1585
G01 X19.7526 Y86.1656
G01 X19.7952 Y86.1707
G01 X19.8379 Y86.1737
G01 X19.8807 Y86.1747
G01 X19.9236 Y86.1737
G01 X19.9663 Y86.1707
G01 X20.0088 Y86.1656
G01 X20.0511 Y86.1585
G01 X20.0929 Y86.1494
G01 X20.1343 Y86.1383
G01 X20.1751 Y86.1252
G01 X20.2152 Y86.1103
G01 X20.2546 Y86.0934
G01 X20.2931 Y86.0747
G01 X20.3307 Y86.0542
G01 X20.3673 Y86.0319
G01 X20.4028 Y86.0079
G01 X20.4371 Y85.9822
G01 X20.4701 Y85.9549
G01 X20.5018 Y85.9261
G01 X20.5321 Y85.8958
G01 X20.5609 Y85.8641
G01 X20.5882 Y85.8311
G01 X20.6138 Y85.7968
G01 X20.6379 Y85.7613
G01 X20.6602 Y85.7247
G01 X20.6807 Y85.6871
G01 X20.6994 Y85.6486
G01 X20.7163 Y85.6092
G01 X20.7312 Y85.5691
G01 X20.7443 Y85.5283
G01 X20.7554 Y85.4869
G01 X20.7645 Y85.4451
G01 X20.7716 Y85.4028
G01 X20.7767 Y85.3603
G01 X20.7797 Y85.3176
G01 X20.7807 Y85.2747
G01 X20.7883 Y85.2437 F1000
G01 X20.7947 Y85.2124
G01 X20.8001 Y85.1809
G01 X20.8044 Y85.1492
G01 X20.8076 Y85.1174
G01 X20.8096 Y85.0855
G01 X20.8106 Y85.0536
G01 X20.8105 Y85.0216
G01 X20.8092 Y84.9897
G01 X20.8069 Y84.9578
G01 X20.8034 Y84.9261
G01 X20.7988 Y84.8944
G01 X20.7891 Y84.8429
G01 X20.7768 Y84.7920
G01 X20.7619 Y84.7418
G01 X20.7444 Y84.6924
G01 X20.7243 Y84.6440
G01 X20.7019 Y84.5966
G01 X20.6770 Y84.5505
G01 X20.6497 Y84.5058
G01 X20.6177 Y84.4587
G01 X20.5833 Y84.4134
G01 X20.5466 Y84.3699
G01 X20.5078 Y84.3283
G01 X20.4669 Y84.2888
G01 X20.4240 Y84.2514
G01 X20.3793 Y84.2162
G01 X20.3328 Y84.1834
G01 X20.2809 Y84.1506
G01 X20.2274 Y84.1204
G01 X20.1724 Y84.0931
G01 X20.1161 Y84.0685
G01 X20.0587 Y84.0468
G01 X20.0002 Y84.0281
G01 X19.9408 Y84.0124
G01 X19.8807 Y83.9997
G01 X19.8156 Y83.9894
G01 X19.7501 Y83.9824
G01 X19.6842 Y83.9787
G01 X19.6183 Y83.9783
G01 X19.5524 Y83.9813
G01 X19.4868 Y83.9876
G01 X19.4216 Y83.9973
G01 X19.3569 Y84.0102
G01 X19.2886 Y84.0274
G01 X19.2213 Y84.0481
G01 X19.1550 Y84.0722
G01 X19.0901 Y84.0996
G01 X19.0266 Y84.1302
G01 X18.9648 Y84.1639
G01 X18.9047 Y84.2008
G01 X18.8466 Y84.2406
G01 X18.7931 Y84.2900
G01 X18.7421 Y84.3420
G01 X18.6937 Y84.3965
G01 X18.6480 Y84.4533
G01 X18.6052 Y84.5122
G01 X18.5654 Y84.5732
G01 X18.5286 Y84.6361
G01 X18.4950 Y84.7007
G01 X18.4685 Y84.7694
G01 X18.4454 Y84.8393
G01 X18.4257 Y84.9103
G01 X18.4096 Y84.9821
G01 X18.3970 Y85.0546
G01 X18.3880 Y85.1277
G01 X18.3826 Y85.2011
G01 X18.3808 Y85.2747
G01 X18.3826 Y85.3483
G01 X18.3880 Y85.4218
G01 X18.3970 Y85.4948
G01 X18.4096 Y85.5674
G01 X18.4257 Y85.6392
G01 X18.4454 Y85.7102
G01 X18.4685 Y85.7801
G01 X18.4950 Y85.8487
G01 X18.5248 Y85.9161
G01 X18.5579 Y85.9818
G01 X18.5942 Y86.0459
G01 X18.6336 Y86.1081
G01 X18.6760 Y86.1683
G01 X18.7212 Y86.2263
G01 X18.7693 Y86.2820
G01 X18.8201 Y86.3354
G01 X18.8734 Y86.3861
G01 X18.9292 Y86.4342
G01 X18.9872 Y86.4795
G01 X19.0474 Y86.5219
G01 X19.1096 Y86.5613
G01 X19.1737 Y86.5976
G01 X19.2394 Y86.6307
G01 X19.3067 Y86.6605
G01 X19.3754 Y86.6870
G01 X19.4453 Y86.7101
G01 X19.5163 Y86.7297
G01 X19.5881 Y86.7459
G01 X19.6606 Y86.7585
G01 X19.7337 Y86.7675
G01 X19.8071 Y86.7729
G01 X19.8807 Y86.7747
G01 X19.9543 Y86.7729
G01 X20.0277 Y86.7675
G01 X20.1008 Y86.7585
G01 X20.1734 Y86.7459
G01 X20.2452 Y86.7297
G01 X20.3161 Y86.7101
G01 X20.3860 Y86.6870
G01 X20.4547 Y86.6605
G01 X20.5220 Y86.6307
G01 X20.5878 Y86.5976
G01 X20.6519 Y86.5613
G01 X20.7141 Y86.5219
G01 X20.7743 Y86.4795
G01 X20.8323 Y86.4342
G01 X20.8880 Y86.3861
G01 X20.9414 Y86.3354
G01 X20.9921 Y86.2820
G01 X21.0402 Y86.2263
G01 X21.0855 Y86.1683
G01 X21.1279 Y86.1081
G01 X21.1673 Y86.0459
G01 X21.2036 Y85.9818
G01 X21.2367 Y85.9161
G01 X21.2665 Y85.8487
G01 X21.2930 Y85.7801
G01 X21.3161 Y85.7102
G01 X21.3357 Y85.6392
G01 X21.3519 Y85.5674
G01 X21.3644 Y85.4948
G01 X21.3735 Y85.4218
G01 X21.3789 Y85.3483
G01 X21.3807 Y85.2747
G01 X21.3765 Y85.1626
G01 X21.3639 Y85.0512
G01 X21.3431 Y84.9410
G01 X21.3140 Y84.8326
G01 X21.2770 Y84.7267
G01 X21.2321 Y84.6239
G01 X21.1797 Y84.5248
G01 X21.1201 Y84.4298
G01 X21.0534 Y84.3395
G01 X20.9803 Y84.2545
G01 X20.9010 Y84.1752
G01 X20.8159 Y84.1020
G01 X20.7257 Y84.0354
G01 X20.6307 Y83.9757
G01 X20.5315 Y83.9233
G01 X20.4287 Y83.8785
G01 X20.3228 Y83.8414
G01 X20.2145 Y83.8124
G01 X20.1043 Y83.7915
G01 X19.9928 Y83.7790
G01 X19.8807 Y83.7748
G01 X19.7686 Y83.7790
G01 X19.6572 Y83.7915
G01 X19.5470 Y83.8124
G01 X19.4386 Y83.8414
G01 X19.3327 Y83.8785
G01 X19.2299 Y83.9233
G01 X19.1308 Y83.9757
G01 X19.0358 Y84.0354
G01 X18.9455 Y84.1020
G01 X18.8605 Y84.1752
G01 X18.7812 Y84.2545
G01 X18.7080 Y84.3395
G01 X18.6414 Y84.4298
G01 X18.5817 Y84.5248
G01 X18.5293 Y84.6239
G01 X18.4845 Y84.7267
G01 X18.4474 Y84.8326
G01 X18.4184 Y84.9410
G01 X18.3975 Y85.0512
G01 X18.3850 Y85.1626
G01 X18.3808 Y85.2747
G01 X18.3850 Y85.3868
G01 X18.3975 Y85.4983
G01 X18.4184 Y85.6085
G01 X18.4474 Y85.7169
G01 X18.4845 Y85.8227
G01 X18.5293 Y85.9255
G01 X18.5817 Y86.0247
G01 X18.6414 Y86.1197
G01 X18.7080 Y86.2099
G01 X18.7812 Y86.2950
G01 X18.8605 Y86.3743
G01 X18.9455 Y86.4475
G01 X19.0358 Y86.5141
G01 X19.1308 Y86.5737
G01 X19.2299 Y86.6262
G01 X19.3327 Y86.6710
G01 X19.4386 Y86.7081
G01 X19.5470 Y86.7371
G01 X19.6572 Y86.7579
G01 X19.7686 Y86.7705
G01 X19.8807 Y86.7747
G01 X19.9928 Y86.7705
G01 X20.1043 Y86.7579
G01 X20.2145 Y86.7371
G01 X20.3228 Y86.7081
G01 X20.4287 Y86.6710
G01 X20.5315 Y86.6262
G01 X20.6307 Y86.5737
G01 X20.7257 Y86.5141
G01 X20.8159 Y86.4475
G01 X20.9010 Y86.3743
G01 X20.9803 Y86.2950
G01 X21.0534 Y86.2099
G01 X21.1201 Y86.1197
G01 X21.1797 Y86.0247
G01 X21.2321 Y85.9255
G01 X21.2770 Y85.8227
G01 X21.3140 Y85.7169
G01 X21.3431 Y85.6085
G01 X21.3639 Y85.4983
G01 X21.3765 Y85.3868
G01 X21.3807 Y85.2747
G01 X21.3761 Y85.1702
G01 X21.3625 Y85.0664
G01 X21.3398 Y84.9642
G01 X21.3083 Y84.8643
G01 X21.2683 Y84.7676
G01 X21.2199 Y84.6747
G01 X21.1637 Y84.5865
G01 X21.0999 Y84.5034
G01 X21.0292 Y84.4262
G01 X20.9520 Y84.3555
G01 X20.8690 Y84.2918
G01 X20.7807 Y84.2355
G01 X20.6878 Y84.1872
G01 X20.5911 Y84.1471
G01 X20.4913 Y84.1156
G01 X20.3891 Y84.0930
G01 X20.2853 Y84.0793
G01 X20.1807 Y84.0748
G01 X20.0761 Y84.0793
G01 X19.9723 Y84.0930
G01 X19.8701 Y84.1156
G01 X19.7703 Y84.1471
G01 X19.6736 Y84.1872
G01 X19.5807 Y84.2355
G01 X19.4924 Y84.2918
G01 X19.4094 Y84.3555
G01 X19.3322 Y84.4262
G01 X19.2615 Y84.5034
G01 X19.1977 Y84.5865
G01 X19.1415 Y84.6747
G01 X19.0932 Y84.7676
G01 X19.0531 Y84.8643
G01 X19.0216 Y84.9642
G01 X18.9990 Y85.0664
G01 X18.9853 Y85.1702
G01 X18.9807 Y85.2747
G01 X18.9818 Y85.3189
G01 X18.9851 Y85.3630
G01 X18.9905 Y85.4068
G01 X18.9980 Y85.4503
G01 X19.0077 Y85.4934
G01 X19.0195 Y85.5360
G01 X19.0333 Y85.5779
G01 X19.0492 Y85.6192
G01 X19.0671 Y85.6595
G01 X19.0870 Y85.6990
G01 X19.1088 Y85.7374
G01 X19.1324 Y85.7748
G01 X19.1578 Y85.8109
G01 X19.1850 Y85.8457
G01 X19.2139 Y85.8791
G01 X19.2443 Y85.9111
G01 X19.2763 Y85.9416
G01 X19.3098 Y85.9704
G01 X19.3446 Y85.9976
G01 X19.3807 Y86.0231
G01 X19.4180 Y86.0467
G01 X19.4565 Y86.0685
G01 X19.4959 Y86.0883
G01 X19.5363 Y86.1062
G01 X19.5775 Y86.1221
G01 X19.6195 Y86.1360
G01 X19.6620 Y86.1478
G01 X19.7051 Y86.1574
G01 X19.7487 Y86.1650
G01 X19.7925 Y86.1704
G01 X19.8366 Y86.1737
G01 X19.8807 Y86.1747
G01 X19.9249 Y86.1737
G01 X19.9689 Y86.1704
G01 X20.0128 Y86.1650
G01 X20.0563 Y86.1574
G01 X20.0994 Y86.1478
G01 X20.1420 Y86.1360
G01 X20.1839 Y86.1221
G01 X20.2251 Y86.1062
G01 X20.2655 Y86.0883
G01 X20.3050 Y86.0685
G01 X20.3434 Y86.0467
G01 X20.3807 Y86.0231
G01 X20.4169 Y85.9976
G01 X20.4517 Y85.9704
G01 X20.4851 Y85.9416
G01 X20.5171 Y85.9111
G01 X20.5476 Y85.8791
G01 X20.5764 Y85.8457
G01 X20.6036 Y85.8109
G01 X20.6291 Y85.7748
G01 X20.6527 Y85.7374
G01 X20.6745 Y85.6990
G01 X20.6943 Y85.6595
G01 X20.7122 Y85.6192
G01 X20.7281 Y85.5779
G01 X20.7420 Y85.5360
G01 X20.7538 Y85.4934
G01 X20.7634 Y85.4503
G01 X20.7710 Y85.4068
G01 X20.7764 Y85.3630
G01 X20.7796 Y85.3189
G01 X20.7807 Y85.2747
G01 X20.7797 Y85.2319 Z-1.3472 F400
G01 X20.7767 Y85.1892 Z-1.3611
G01 X20.7716 Y85.1467 Z-1.3750
G01 X20.7645 Y85.1044 Z-1.3889
G01 X20.7554 Y85.0626 Z-1.4028
G01 X20.7443 Y85.0212 Z-1.4167
G01 X20.7312 Y84.9804 Z-1.4306
G01 X20.7163 Y84.9402 Z-1.4444
G01 X20.6994 Y84.9009 Z-1.4583
G01 X20.6807 Y84.8623 Z-1.4722
G01 X20.6602 Y84.8247 Z-1.4861
G01 X20.6379 Y84.7882 Z-1.5000
G01 X20.6138 Y84.7527 Z-1.5139
G01 X20.5882 Y84.7184 Z-1.5278
G01 X20.5609 Y84.6854 Z-1.5417
G01 X20.5321 Y84.6537 Z-1.5556
G01 X20.5018 Y84.6234 Z-1.5694
G01 X20.4701 Y84.5946 Z-1.5833
G01 X20.4371 Y84.5673 Z-1.5972
G01 X20.4028 Y84.5416 Z-1.6111
G01 X20.3673 Y84.5176 Z-1.6250
G01 X20.3307 Y84.4953 Z-1.6389
G01 X20.2931 Y84.4748 Z-1.6528
G01 X20.2546 Y84.4561 Z-1.6667
G01 X20.2152 Y84.4392 Z-1.6806
G01 X20.1751 Y84.4242 Z-1.6944
G01 X20.1343 Y84.4112 Z-1.7083
G01 X20.0929 Y84.4001 Z-1.7222
G01 X20.0511 Y84.3910 Z-1.7361
G01 X20.0088 Y84.3839 Z-1.7500
G01 X19.9663 Y84.3788 Z-1.7639
G01 X19.9236 Y84.3758 Z-1.7778
G01 X19.8807 Y84.3747 Z-1.7917
G01 X19.8379 Y84.3758 Z-1.8056
G01 X19.7952 Y84.3788 Z-1.8194
G01 X19.7526 Y84.3839 Z-1.8333
G01 X19.7104 Y84.3910 Z-1.8472
G01 X19.6685 Y84.4001 Z-1.8611
G01 X19.6272 Y84.4112 Z-1.8750
G01 X19.5864 Y84.4242 Z-1.8889
G01 X19.5462 Y84.4392 Z-1.9028
G01 X19.5069 Y84.4561 Z-1.9167
G01 X19.4683 Y84.4748 Z-1.9306
G01 X19.4307 Y84.4953 Z-1.9444
G01 X19.3942 Y84.5176 Z-1.9583
G01 X19.3587 Y84.5416 Z-1.9722
G01 X19.3244 Y84.5673 Z-1.9861
G01 X19.2914 Y84.5946 Z-2.0000
G01 X19.2597 Y84.6234 Z-2.0139
G01 X19.2294 Y84.6537 Z-2.0278
G01 X19.2006 Y84.6854 Z-2.0417
G01 X19.1733 Y84.7184 Z-2.0556
G01 X19.1476 Y84.7527 Z-2.0694
G01 X19.1236 Y84.7882 Z-2.0833
G01 X19.1013 Y84.8247 Z-2.0972
G01 X19.0808 Y84.8623 Z-2.1111
G01 X19.0621 Y84.9009 Z-2.1250
G01 X19.0452 Y84.9402 Z-2.1389
G01 X19.0302 Y84.9804 Z-2.1528
G01 X19.0172 Y85.0212 Z-2.1667
G01 X19.0061 Y85.0626 Z-2.1806
G01 X18.9970 Y85.1044 Z-2.1944
G01 X18.9899 Y85.1467 Z-2.2083
G01 X18.9848 Y85.1892 Z-2.2222
G01 X18.9817 Y85.2319 Z-2.2361
G01 X18.9807 Y85.2747 Z-2.2500
G01 X18.9817 Y85.3176 Z-2.2639
G01 X18.9848 Y85.3603 Z-2.2778
G01 X18.9899 Y85.4028 Z-2.2917
G01 X18.9970 Y85.4451 Z-2.3056
G01 X19.0061 Y85.4869 Z-2.3194
G01 X19.0172 Y85.5283 Z-2.3333
G01 X19.0302 Y85.5691 Z-2.3472
G01 X19.0452 Y85.6092 Z-2.3611
G01 X19.0621 Y85.6486 Z-2.3750
G01 X19.0808 Y85.6871 Z-2.3889
G01 X19.1013 Y85.7247 Z-2.4028
G01 X19.1236 Y85.7613 Z-2.4167
G01 X19.1476 Y85.7968 Z-2.4306
G01 X19.1733 Y85.8311 Z-2.4444
G01 X19.2006 Y85.8641 Z-2.4583
G01 X19.2294 Y85.8958 Z-2.4722
G01 X19.2597 Y85.9261 Z-2.4861
G01 X19.2914 Y85.9549 Z-2.5000
G01 X19.3244 Y85.9822 Z-2.5139
G01 X19.3587 Y86.0079 Z-2.5278
G01 X19.3942 Y86.0319 Z-2.5417
G01 X19.4307 Y86.0542 Z-2.5556
G01 X19.4683 Y86.0747 Z-2.5694
G01 X19.5069 Y86.0934 Z-2.5833
G01 X19.5462 Y86.1103 Z-2.5972
G01 X19.5864 Y86.1252 Z-2.6111
G01 X19.6272 Y86.1383 Z-2.6250
G01 X19.6685 Y86.1494 Z-2.6389
G01 X19.7104 Y86.1585 Z-2.6528
G01 X19.7526 Y86.1656 Z-2.6667
G01 X19.7952 Y86.1707 Z-2.6806
G01 X19.8379 Y86.1737 Z-2.6944
G01 X19.8807 Y86.1747 Z-2.7083
G01 X19.9236 Y86.1737 Z-2.7222
G01 X19.9663 Y86.1707 Z-2.7361
G01 X20.0088 Y86.1656 Z-2.7500
G01 X20.0511 Y86.1585 Z-2.7639
G01 X20.0929 Y86.1494 Z-2.7778
G01 X20.1343 Y86.1383 Z-2.7917
G01 X20.1751 Y86.1252 Z-2.8056
G01 X20.2152 Y86.1103 Z-2.8194
G01 X20.2546 Y86.0934 Z-2.8333
G01 X20.2931 Y86.0747 Z-2.8472
G01 X20.3307 Y86.0542 Z-2.8611
G01 X20.3673 Y86.0319 Z-2.8750
G01 X20.4028 Y86.0079 Z-2.8889
G01 X20.4371 Y85.9822 Z-2.9028
G01 X20.4701 Y85.9549 Z-2.9167
G01 X20.5018 Y85.9261 Z-2.9306
G01 X20.5321 Y85.8958 Z-2.9444
G01 X20.5609 Y85.8641 Z-2.9583
G01 X20.5882 Y85.8311 Z-2.9722
G01 X20.6138 Y85.7968 Z-2.9861
G01 X20.6379 Y85.7613 Z-3.0000
G01 X20.6602 Y85.7247 Z-3.0139
G01 X20.6807 Y85.6871 Z-3.0278
G01 X20.6994 Y85.6486 Z-3.0417
G01 X20.7163 Y85.6092 Z-3.0556
G01 X20.7312 Y85.5691 Z-3.0694
G01 X20.7443 Y85.5283 Z-3.0833
G01 X20.7554 Y85.4869 Z-3.0972
G01 X20.7645 Y85.4451 Z-3.1111
G01 X20.7716 Y85.4028 Z-3.1250
G01 X20.7767 Y85.3603 Z-3.1389
G01 X20.7797 Y85.3176 Z-3.1528
G01 X20.7807 Y85.2747 Z-3.1667
G01 X20.7797 Y85.2319
G01 X20.7767 Y85.1892
G01 X20.7716 Y85.1467
G01 X20.7645 Y85.1044
G01 X20.7554 Y85.0626
G01 X20.7443 Y85.0212
G01 X20.7312 Y84.9804
G01 X20.7163 Y84.9402
G01 X20.6994 Y84.9009
G01 X20.6807 Y84.8623
G01 X20.6602 Y84.8247
G01 X20.6379 Y84.7882
G01 X20.6138 Y84.7527
G01 X20.5882 Y84.7184
G01 X20.5609 Y84.6854
G01 X20.5321 Y84.6537
G01 X20.5018 Y84.6234
G01 X20.4701 Y84.5946
G01 X20.4371 Y84.5673
G01 X20.4028 Y84.5416
G01 X20.3673 Y84.5176
G01 X20.3307 Y84.4953
G01 X20.2931 Y84.4748
G01 X20.2546 Y84.4561
G01 X20.2152 Y84.4392
G01 X20.1751 Y84.4242
G01 X20.1343 Y84.4112
G01 X20.0929 Y84.4001
G01 X20.0511 Y84.3910
G01 X20.0088 Y84.3839
G01 X19.9663 Y84.3788
G01 X19.9236 Y84.3758
G01 X19.8807 Y84.3747
G01 X19.8379 Y84.3758
G01 X19.7952 Y84.3788
G01 X19.7526 Y84.3839
G01 X19.7104 Y84.3910
G01 X19.6685 Y84.4001
G01 X19.6272 Y84.4112
G01 X19.5864 Y84.4242
G01 X19.5462 Y84.4392
G01 X19.5069 Y84.4561
G01 X19.4683 Y84.4748
G01 X19.4307 Y84.4953
G01 X19.3942 Y84.5176
G01 X19.3587 Y84.5416
G01 X19.3244 Y84.5673
G01 X19.2914 Y84.5946
G01 X19.2597 Y84.6234
G01 X19.2294 Y84.6537
G01 X19.2006 Y84.6854
G01 X19.1733 Y84.7184
G01 X19.1476 Y84.7527
G01 X19.1236 Y84.7882
G01 X19.1013 Y84.8247
G01 X19.0808 Y84.8623
G01 X19.0621 Y84.9009
G01 X19.0452 Y84.9402
G01 X19.0302 Y84.9804
G01 X19.0172 Y85.0212
G01 X19.0061 Y85.0626
G01 X18.9970 Y85.1044
G01 X18.9899 Y85.1467
G01 X18.9848 Y85.1892
G01 X18.9817 Y85.2319
G01 X18.9807 Y85.2747
G01 X18.9817 Y85.3176
G01 X18.9848 Y85.3603
G01 X18.9899 Y85.4028
G01 X18.9970 Y85.4451
G01 X19.0061 Y85.4869
G01 X19.0172 Y85.5283
G01 X19.0302 Y85.5691
G01 X19.0452 Y85.6092
G01 X19.0621 Y85.6486
G01 X19.0808 Y85.6871
G01 X19.1013 Y85.7247
G01 X19.1236 Y85.7613
G01 X19.1476 Y85.7968
G01 X19.1733 Y85.8311
G01 X19.2006 Y85.8641
G01 X19.2294 Y85.8958
G01 X19.2597 Y85.9261
G01 X19.2914 Y85.9549
G01 X19.3244 Y85.9822
G01 X19.3587 Y86.0079
G01 X19.3942 Y86.0319
G01 X19.4307 Y86.0542
G01 X19.4683 Y86.0747
G01 X19.5069 Y86.0934
G01 X19.5462 Y86.1103
G01 X19.5864 Y86.1252
G01 X19.6272 Y86.1383
G01 X19.6685 Y86.1494
G01 X19.7104 Y86.1585
G01 X19.7526 Y86.1656
G01 X19.7952 Y86.1707
G01 X19.8379 Y86.1737
G01 X19.8807 Y86.1747
G01 X19.9236 Y86.1737
G01 X19.9663 Y86.1707
G01 X20.0088 Y86.1656
G01 X20.0511 Y86.1585
G01 X20.0929 Y86.1494
G01 X20.1343 Y86.1383
G01 X20.1751 Y86.1252
G01 X20.2152 Y86.1103
G01 X20.2546 Y86.0934
G01 X20.2931 Y86.0747
G01 X20.3307 Y86.0542
G01 X20.3673 Y86.0319
G01 X20.4028 Y86.0079
G01 X20.4371 Y85.9822
G01 X20.4701 Y85.9549
G01 X20.5018 Y85.9261
G01 X20.5321 Y85.8958
G01 X20.5609 Y85.8641
G01 X20.5882 Y85.8311
G01 X20.6138 Y85.7968
G01 X20.6379 Y85.7613
G01 X20.6602 Y85.7247
G01 X20.6807 Y85.6871
G01 X20.6994 Y85.6486
G01 X20.7163 Y85.6092
G01 X20.7312 Y85.5691
G01 X20.7443 Y85.5283
G01 X20.7554 Y85.4869
G01 X20.7645 Y85.4451
G01 X20.7716 Y85.4028
G01 X20.7767 Y85.3603
G01 X20.7797 Y85.3176
G01 X20.7807 Y85.2747
G01 X20.7883 Y85.2437 F1000
G01 X20.7947 Y85.2124
G01 X20.8001 Y85.1809
G01 X20.8044 Y85.1492
G01 X20.8076 Y85.1174
G01 X20.8096 Y85.0855
G01 X20.8106 Y85.0536
G01 X20.8105 Y85.0216
G01 X20.8092 Y84.9897
G01 X20.8069 Y84.9578
G01 X20.8034 Y84.9261
G01 X20.7988 Y84.8944
G01 X20.7891 Y84.8429
G01 X20.7768 Y84.7920
G01 X20.7619 Y84.7418
G01 X20.7444 Y84.6924
G01 X20.7243 Y84.6440
G01 X20.7019 Y84.5966
G01 X20.6770 Y84.5505
G01 X20.6497 Y84.5058
G01 X20.6177 Y84.4587
G01 X20.5833 Y84.4134
G01 X20.5466 Y84.3699
G01 X20.5078 Y84.3283
G01 X20.4669 Y84.2888
G01 X20.4240 Y84.2514
G01 X20.3793 Y84.2162
G01 X20.3328 Y84.1834
G01 X20.2809 Y84.1506
G01 X20.2274 Y84.1204
G01 X20.1724 Y84.0931
G01 X20.1161 Y84.0685
G01 X20.0587 Y84.0468
G01 X20.0002 Y84.0281
G01 X19.9408 Y84.0124
G01 X19.8807 Y83.9997
G01 X19.8156 Y83.9894
G01 X19.7501 Y83.9824
G01 X19.6842 Y83.9787
G01 X19.6183 Y83.9783
G01 X19.5524 Y83.9813
G01 X19.4868 Y83.9876
G01 X19.4216 Y83.9973
G01 X19.3569 Y84.0102
G01 X19.2886 Y84.0274
G01 X19.2213 Y84.0481
G01 X19.1550 Y84.0722
G01 X19.0901 Y84.0996
G01 X19.0266 Y84.1302
G01 X18.9648 Y84.1639
G01 X18.9047 Y84.2008
G01 X18.8466 Y84.2406
G01 X18.7931 Y84.2900
G01 X18.7421 Y84.3420
G01 X18.6937 Y84.3965
G01 X18.6480 Y84.4533
G01 X18.6052 Y84.5122
G01 X18.5654 Y84.5732
G01 X18.5286 Y84.6361
G01 X18.4950 Y84.7007
G01 X18.4685 Y84.7694
G01 X18.4454 Y84.8393
G01 X18.4257 Y84.9103
G01 X18.4096 Y84.9821
G01 X18.3970 Y85.0546
G01 X18.3880 Y85.1277
G01 X18.3826 Y85.2011
G01 X18.3808 Y85.2747
G01 X18.3826 Y85.3483
G01 X18.3880 Y85.4218
G01 X18.3970 Y85.4948
G01 X18.4096 Y85.5674
G01 X18.4257 Y85.6392
G01 X18.4454 Y85.7102
G01 X18.4685 Y85.7801
G01 X18.4950 Y85.8487
G01 X18.5248 Y85.9161
G01 X18.5579 Y85.9818
G01 X18.5942 Y86.0459
G01 X18.6336 Y86.1081
G01 X18.6760 Y86.1683
G01 X18.7212 Y86.2263
G01 X18.7693 Y86.2820
G01 X18.8201 Y86.3354
G01 X18.8734 Y86.3861
G01 X18.9292 Y86.4342
G01 X18.9872 Y86.4795
G01 X19.0474 Y86.5219
G01 X19.1096 Y86.5613
G01 X19.1737 Y86.5976
G01 X19.2394 Y86.6307
G01 X19.3067 Y86.6605
G01 X19.3754 Y86.6870
G01 X19.4453 Y86.7101
G01 X19.5163 Y86.7297
G01 X19.5881 Y86.7459
G01 X19.6606 Y86.7585
G01 X19.7337 Y86.7675
G01 X19.8071 Y86.7729
G01 X19.8807 Y86.7747
G01 X19.9543 Y86.7729
G01 X20.0277 Y86.7675
G01 X20.1008 Y86.7585
G01 X20.1734 Y86.7459
G01 X20.2452 Y86.7297
G01 X20.3161 Y86.7101
G01 X20.3860 Y86.6870
G01 X20.4547 Y86.6605
G01 X20.5220 Y86.6307
G01 X20.5878 Y86.5976
G01 X20.6519 Y86.5613
G01 X20.7141 Y86.5219
G01 X20.7743 Y86.4795
G01 X20.8323 Y86.4342
G01 X20.8880 Y86.3861
G01 X20.9414 Y86.3354
G01 X20.9921 Y86.2820
G01 X21.0402 Y86.2263
G01 X21.0855 Y86.1683
G01 X21.1279 Y86.1081
G01 X21.1673 Y86.0459
G01 X21.2036 Y85.9818
G01 X21.2367 Y85.9161
G01 X21.2665 Y85.8487
G01 X21.2930 Y85.7801
G01 X21.3161 Y85.7102
G01 X21.3357 Y85.6392
G01 X21.3519 Y85.5674
G01 X21.3644 Y85.4948
G01 X21.3735 Y85.4218
G01 X21.3789 Y85.3483
G01 X21.3807 Y85.2747
G01 X21.3765 Y85.1626
G01 X21.3639 Y85.0512
G01 X21.3431 Y84.9410
G01 X21.3140 Y84.8326
G01 X21.2770 Y84.7267
G01 X21.2321 Y84.6239
G01 X21.1797 Y84.5248
G01 X21.1201 Y84.4298
G01 X21.0534 Y84.3395
G01 X20.9803 Y84.2545
G01 X20.9010 Y84.1752
G01 X20.8159 Y84.1020
G01 X20.7257 Y84.0354
G01 X20.6307 Y83.9757
G01 X20.5315 Y83.9233
G01 X20.4287 Y83.8785
G01 X20.3228 Y83.8414
G01 X20.2145 Y83.8124
G01 X20.1043 Y83.7915
G01 X19.9928 Y83.7790
G01 X19.8807 Y83.7748
G01 X19.7686 Y83.7790
G01 X19.6572 Y83.7915
G01 X19.5470 Y83.8124
G01 X19.4386 Y83.8414
G01 X19.3327 Y83.8785
G01 X19.2299 Y83.9233
G01 X19.1308 Y83.9757
G01 X19.0358 Y84.0354
G01 X18.9455 Y84.1020
G01 X18.8605 Y84.1752
G01 X18.7812 Y84.2545
G01 X18.7080 Y84.3395
G01 X18.6414 Y84.4298
G01 X18.5817 Y84.5248
G01 X18.5293 Y84.6239
G01 X18.4845 Y84.7267
G01 X18.4474 Y84.8326
G01 X18.4184 Y84.9410
G01 X18.3975 Y85.0512
G01 X18.3850 Y85.1626
G01 X18.3808 Y85.2747
G01 X18.3850 Y85.3868
G01 X18.3975 Y85.4983
G01 X18.4184 Y85.6085
G01 X18.4474 Y85.7169
G01 X18.4845 Y85.8227
G01 X18.5293 Y85.9255
G01 X18.5817 Y86.0247
G01 X18.6414 Y86.1197
G01 X18.7080 Y86.2099
G01 X18.7812 Y86.2950
G01 X18.8605 Y86.3743
G01 X18.9455 Y86.4475
G01 X19.0358 Y86.5141
G01 X19.1308 Y86.5737
G01 X19.2299 Y86.6262
G01 X19.3327 Y86.6710
G01 X19.4386 Y86.7081
G01 X19.5470 Y86.7371
G01 X19.6572 Y86.7579
G01 X19.7686 Y86.7705
G01 X19.8807 Y86.7747
G01 X19.9928 Y86.7705
G01 X20.1043 Y86.7579
G01 X20.2145 Y86.7371
G01 X20.3228 Y86.7081
G01 X20.4287 Y86.6710
G01 X20.5315 Y86.6262
G01 X20.6307 Y86.5737
G01 X20.7257 Y86.5141
G01 X20.8159 Y86.4475
G01 X20.9010 Y86.3743
G01 X20.9803 Y86.2950
G01 X21.0534 Y86.2099
G01 X21.1201 Y86.1197
G01 X21.1797 Y86.0247
G01 X21.2321 Y85.9255
G01 X21.2770 Y85.8227
G01 X21.3140 Y85.7169
G01 X21.3431 Y85.6085
G01 X21.3639 Y85.4983
G01 X21.3765 Y85.3868
G01 X21.3807 Y85.2747
G01 X21.3761 Y85.1702
G01 X21.3625 Y85.0664
G01 X21.3398 Y84.9642
G01 X21.3083 Y84.8643
G01 X21.2683 Y84.7676
G01 X21.2199 Y84.6747
G01 X21.1637 Y84.5865
G01 X21.0999 Y84.5034
G01 X21.0292 Y84.4262
G01 X20.9520 Y84.3555
G01 X20.8690 Y84.2918
G01 X20.7807 Y84.2355
G01 X20.6878 Y84.1872
G01 X20.5911 Y84.1471
G01 X20.4913 Y84.1156
G01 X20.3891 Y84.0930
G01 X20.2853 Y84.0793
G01 X20.1807 Y84.0748
G01 X20.0761 Y84.0793
G01 X19.9723 Y84.0930
G01 X19.8701 Y84.1156
G01 X19.7703 Y84.1471
G01 X19.6736 Y84.1872
G01 X19.5807 Y84.2355
G01 X19.4924 Y84.2918
G01 X19.4094 Y84.3555
G01 X19.3322 Y84.4262
G01 X19.2615 Y84.5034
G01 X19.1977 Y84.5865
G01 X19.1415 Y84.6747
G01 X19.0932 Y84.7676
G01 X19.0531 Y84.8643
G01 X19.0216 Y84.9642
G01 X18.9990 Y85.0664
G01 X18.9853 Y85.1702
G01 X18.9807 Y85.2747
G01 X18.9818 Y85.3189
G01 X18.9851 Y85.3630
G01 X18.9905 Y85.4068
G01 X18.9980 Y85.4503
G01 X19.0077 Y85.4934
G01 X19.0195 Y85.5360
G01 X19.0333 Y85.5779
G01 X19.0492 Y85.6192
G01 X19.0671 Y85.6595
G01 X19.0870 Y85.6990
G01 X19.1088 Y85.7374
G01 X19.1324 Y85.7748
G01 X19.1578 Y85.8109
G01 X19.1850 Y85.8457
G01 X19.2139 Y85.8791
G01 X19.2443 Y85.9111
G01 X19.2763 Y85.9416
G01 X19.3098 Y85.9704
G01 X19.3446 Y85.9976
G01 X19.3807 Y86.0231
G01 X19.4180 Y86.0467
G01 X19.4565 Y86.0685
G01 X19.4959 Y86.0883
G01 X19.5363 Y86.1062
G01 X19.5775 Y86.1221
G01 X19.6195 Y86.1360
G01 X19.6620 Y86.1478
G01 X19.7051 Y86.1574
G01 X19.7487 Y86.1650
G01 X19.7925 Y86.1704
G01 X19.8366 Y86.1737
G01 X19.8807 Y86.1747
G01 X19.9249 Y86.1737
G01 X19.9689 Y86.1704
G01 X20.0128 Y86.1650
G01 X20.0563 Y86.1574
G01 X20.0994 Y86.1478
G01 X20.1420 Y86.1360
G01 X20.1839 Y86.1221
G01 X20.2251 Y86.1062
G01 X20.2655 Y86.0883
G01 X20.3050 Y86.0685
G01 X20.3434 Y86.0467
G01 X20.3807 Y86.0231
G01 X20.4169 Y85.9976
G01 X20.4517 Y85.9704
G01 X20.4851 Y85.9416
G01 X20.5171 Y85.9111
G01 X20.5476 Y85.8791
G01 X20.5764 Y85.8457
G01 X20.6036 Y85.8109
G01 X20.6291 Y85.7748
G01 X20.6527 Y85.7374
G01 X20.6745 Y85.6990
G01 X20.6943 Y85.6595
G01 X20.7122 Y85.6192
G01 X20.7281 Y85.5779
G01 X20.7420 Y85.5360
G01 X20.7538 Y85.4934
G01 X20.7634 Y85.4503
G01 X20.7710 Y85.4068
G01 X20.7764 Y85.3630
G01 X20.7796 Y85.3189
G01 X20.7807 Y85.2747
G01 X20.7797 Y85.2319 Z-3.1806 F400
G01 X20.7767 Y85.1892 Z-3.1944
G01 X20.7716 Y85.1467 Z-3.2083
G01 X20.7645 Y85.1044 Z-3.2222
G01 X20.7554 Y85.0626 Z-3.2361
G01 X20.7443 Y85.0212 Z-3.2500
G01 X20.7312 Y84.9804 Z-3.2639
G01 X20.7163 Y84.9402 Z-3.2778
G01 X20.6994 Y84.9009 Z-3.2917
G01 X20.6807 Y84.8623 Z-3.3056
G01 X20.6602 Y84.8247 Z-3.3194
G01 X20.6379 Y84.7882 Z-3.3333
G01 X20.6138 Y84.7527 Z-3.3472
G01 X20.5882 Y84.7184 Z-3.3611
G01 X20.5609 Y84.6854 Z-3.3750
G01 X20.5321 Y84.6537 Z-3.3889
G01 X20.5018 Y84.6234 Z-3.4028
G01 X20.4701 Y84.5946 Z-3.4167
G01 X20.4371 Y84.5673 Z-3.4306
G01 X20.4028 Y84.5416 Z-3.4444
G01 X20.3673 Y84.5176 Z-3.4583
G01 X20.3307 Y84.4953 Z-3.4722
G01 X20.2931 Y84.4748 Z-3.4861
G01 X20.2546 Y84.4561 Z-3.5000
G01 X20.2152 Y84.4392 Z-3.5139
G01 X20.1751 Y84.4242 Z-3.5278
G01 X20.1343 Y84.4112 Z-3.5417
G01 X20.0929 Y84.4001 Z-3.5556
G01 X20.0511 Y84.3910 Z-3.5694
G01 X20.0088 Y84.3839 Z-3.5833
G01 X19.9663 Y84.3788 Z-3.5972
G01 X19.9236 Y84.3758 Z-3.6111
G01 X19.8807 Y84.3747 Z-3.6250
G01 X19.8379 Y84.3758 Z-3.6389
G01 X19.7952 Y84.3788 Z-3.6528
G01 X19.7526 Y84.3839 Z-3.6667
G01 X19.7104 Y84.3910 Z-3.6806
G01 X19.6685 Y84.4001 Z-3.6944
G01 X19.6272 Y84.4112 Z-3.7083
G01 X19.5864 Y84.4242 Z-3.7222
G01 X19.5462 Y84.4392 Z-3.7361
G01 X19.5069 Y84.4561 Z-3.7500
G01 X19.4683 Y84.4748 Z-3.7639
G01 X19.4307 Y84.4953 Z-3.7778
G01 X19.3942 Y84.5176 Z-3.7917
G01 X19.3587 Y84.5416 Z-3.8056
G01 X19.3244 Y84.5673 Z-3.8194
G01 X19.2914 Y84.5946 Z-3.8333
G01 X19.2597 Y84.6234 Z-3.8472
G01 X19.2294 Y84.6537 Z-3.8611
G01 X19.2006 Y84.6854 Z-3.8750
G01 X19.1733 Y84.7184 Z-3.8889
G01 X19.1476 Y84.7527 Z-3.9028
G01 X19.1236 Y84.7882 Z-3.9167
G01 X19.1013 Y84.8247 Z-3.9306
G01 X19.0808 Y84.8623 Z-3.9444
G01 X19.0621 Y84.9009 Z-3.9583
G01 X19.0452 Y84.9402 Z-3.9722
G01 X19.0302 Y84.9804 Z-3.9861
G01 X19.0172 Y85.0212 Z-4.0000
G01 X19.0061 Y85.0626 Z-4.0139
G01 X18.9970 Y85.1044 Z-4.0278
G01 X18.9899 Y85.1467 Z-4.0417
G01 X18.9848 Y85.1892 Z-4.0556
G01 X18.9817 Y85.2319 Z-4.0694
G01 X18.9807 Y85.2747 Z-4.0833
G01 X18.9817 Y85.3176 Z-4.0972
G01 X18.9848 Y85.3603 Z-4.1111
G01 X18.9899 Y85.4028 Z-4.1250
G01 X18.9970 Y85.4451 Z-4.1389
G01 X19.0061 Y85.4869 Z-4.1528
G01 X19.0172 Y85.5283 Z-4.1667
G01 X19.0302 Y85.5691 Z-4.1806
G01 X19.0452 Y85.6092 Z-4.1944
G01 X19.0621 Y85.6486 Z-4.2083
G01 X19.0808 Y85.6871 Z-4.2222
G01 X19.1013 Y85.7247 Z-4.2361
G01 X19.1236 Y85.7613 Z-4.2500
G01 X19.1476 Y85.7968 Z-4.2639
G01 X19.1733 Y85.8311 Z-4.2778
G01 X19.2006 Y85.8641 Z-4.2917
G01 X19.2294 Y85.8958 Z-4.3056
G01 X19.2597 Y85.9261 Z-4.3194
G01 X19.2914 Y85.9549 Z-4.3333
G01 X19.3244 Y85.9822 Z-4.3472
G01 X19.3587 Y86.0079 Z-4.3611
G01 X19.3942 Y86.0319 Z-4.3750
G01 X19.4307 Y86.0542 Z-4.3889
G01 X19.4683 Y86.0747 Z-4.4028
G01 X19.5069 Y86.0934 Z-4.4167
G01 X19.5462 Y86.1103 Z-4.4306
G01 X19.5864 Y86.1252 Z-4.4444
G01 X19.6272 Y86.1383 Z-4.4583
G01 X19.6685 Y86.1494 Z-4.4722
G01 X19.7104 Y86.1585 Z-4.4861
G01 X19.7526 Y86.1656 Z-4.5000
G01 X19.7952 Y86.1707 Z-4.5139
G01 X19.8379 Y86.1737 Z-4.5278
G01 X19.8807 Y86.1747 Z-4.5417
G01 X19.9236 Y86.1737 Z-4.5556
G01 X19.9663 Y86.1707 Z-4.5694
G01 X20.0088 Y86.1656 Z-4.5833
G01 X20.0511 Y86.1585 Z-4.5972
G01 X20.0929 Y86.1494 Z-4.6111
G01 X20.1343 Y86.1383 Z-4.6250
G01 X20.1751 Y86.1252 Z-4.6389
G01 X20.2152 Y86.1103 Z-4.6528
G01 X20.2546 Y86.0934 Z-4.6667
G01 X20.2931 Y86.0747 Z-4.6806
G01 X20.3307 Y86.0542 Z-4.6944
G01 X20.3673 Y86.0319 Z-4.7083
G01 X20.4028 Y86.0079 Z-4.7222
G01 X20.4371 Y85.9822 Z-4.7361
G01 X20.4701 Y85.9549 Z-4.7500
G01 X20.5018 Y85.9261 Z-4.7639
G01 X20.5321 Y85.8958 Z-4.7778
G01 X20.5609 Y85.8641 Z-4.7917
G01 X20.5882 Y85.8311 Z-4.8056
G01 X20.6138 Y85.7968 Z-4.8194
G01 X20.6379 Y85.7613 Z-4.8333
G01 X20.6602 Y85.7247 Z-4.8472
G01 X20.6807 Y85.6871 Z-4.8611
G01 X20.6994 Y85.6486 Z-4.8750
G01 X20.7163 Y85.6092 Z-4.8889
G01 X20.7312 Y85.5691 Z-4.9028
G01 X20.7443 Y85.5283 Z-4.9167
G01 X20.7554 Y85.4869 Z-4.9306
G01 X20.7645 Y85.4451 Z-4.9444
G01 X20.7716 Y85.4028 Z-4.9583
G01 X20.7767 Y85.3603 Z-4.9722
G01 X20.7797 Y85.3176 Z-4.9861
G01 X20.7807 Y85.2747 Z-5.0000
G01 X20.7797 Y85.2319
G01 X20.7767 Y85.1892
G01 X20.7716 Y85.1467
G01 X20.7645 Y85.1044
G01 X20.7554 Y85.0626
G01 X20.7443 Y85.0212
G01 X20.7312 Y84.9804
G01 X20.7163 Y84.9402
G01 X20.6994 Y84.9009
G01 X20.6807 Y84.8623
G01 X20.6602 Y84.8247
G01 X20.6379 Y84.7882
G01 X20.6138 Y84.7527
G01 X20.5882 Y84.7184
G01 X20.5609 Y84.6854
G01 X20.5321 Y84.6537
G01 X20.5018 Y84.6234
G01 X20.4701 Y84.5946
G01 X20.4371 Y84.5673
G01 X20.4028 Y84.5416
G01 X20.3673 Y84.5176
G01 X20.3307 Y84.4953
G01 X20.2931 Y84.4748
G01 X20.2546 Y84.4561
G01 X20.2152 Y84.4392
G01 X20.1751 Y84.4242
G01 X20.1343 Y84.4112
G01 X20.0929 Y84.4001
G01 X20.0511 Y84.3910
G01 X20.0088 Y84.3839
G01 X19.9663 Y84.3788
G01 X19.9236 Y84.3758
G01 X19.8807 Y84.3747
G01 X19.8379 Y84.3758
G01 X19.7952 Y84.3788
G01 X19.7526 Y84.3839
G01 X19.7104 Y84.3910
G01 X19.6685 Y84.4001
G01 X19.6272 Y84.4112
G01 X19.5864 Y84.4242
G01 X19.5462 Y84.4392
G01 X19.5069 Y84.4561
G01 X19.4683 Y84.4748
G01 X19.4307 Y84.4953
G01 X19.3942 Y84.5176
G01 X19.3587 Y84.5416
G01 X19.3244 Y84.5673
G01 X19.2914 Y84.5946
G01 X19.2597 Y84.6234
G01 X19.2294 Y84.6537
G01 X19.2006 Y84.6854
G01 X19.1733 Y84.7184
G01 X19.1476 Y84.7527
G01 X19.1236 Y84.7882
G01 X19.1013 Y84.8247
G01 X19.0808 Y84.8623
G01 X19.0621 Y84.9009
G01 X19.0452 Y84.9402
G01 X19.0302 Y84.9804
G01 X19.0172 Y85.0212
G01 X19.0061 Y85.0626
G01 X18.9970 Y85.1044
G01 X18.9899 Y85.1467
G01 X18.9848 Y85.1892
G01 X18.9817 Y85.2319
G01 X18.9807 Y85.2747
G01 X18.9817 Y85.3176
G01 X18.9848 Y85.3603
G01 X18.9899 Y85.4028
G01 X18.9970 Y85.4451
G01 X19.0061 Y85.4869
G01 X19.0172 Y85.5283
G01 X19.0302 Y85.5691
G01 X19.0452 Y85.6092
G01 X19.0621 Y85.6486
G01 X19.0808 Y85.6871
G01 X19.1013 Y85.7247
G01 X19.1236 Y85.7613
G01 X19.1476 Y85.7968
G01 X19.1733 Y85.8311
G01 X19.2006 Y85.8641
G01 X19.2294 Y85.8958
G01 X19.2597 Y85.9261
G01 X19.2914 Y85.9549
G01 X19.3244 Y85.9822
G01 X19.3587 Y86.0079
G01 X19.3942 Y86.0319
G01 X19.4307 Y86.0542
G01 X19.4683 Y86.0747
G01 X19.5069 Y86.0934
G01 X19.5462 Y86.1103
G01 X19.5864 Y86.1252
G01 X19.6272 Y86.1383
G01 X19.6685 Y86.1494
G01 X19.7104 Y86.1585
G01 X19.7526 Y86.1656
G01 X19.7952 Y86.1707
G01 X19.8379 Y86.1737
G01 X19.8807 Y86.1747
G01 X19.9236 Y86.1737
G01 X19.9663 Y86.1707
G01 X20.0088 Y86.1656
G01 X20.0511 Y86.1585
G01 X20.0929 Y86.1494
G01 X20.1343 Y86.1383
G01 X20.1751 Y86.1252
G01 X20.2152 Y86.1103
G01 X20.2546 Y86.0934
G01 X20.2931 Y86.0747
G01 X20.3307 Y86.0542
G01 X20.3673 Y86.0319
G01 X20.4028 Y86.0079
G01 X20.4371 Y85.9822
G01 X20.4701 Y85.9549
G01 X20.5018 Y85.9261
G01 X20.5321 Y85.8958
G01 X20.5609 Y85.8641
G01 X20.5882 Y85.8311
G01 X20.6138 Y85.7968
G01 X20.6379 Y85.7613
G01 X20.6602 Y85.7247
G01 X20.6807 Y85.6871
G01 X20.6994 Y85.6486
G01 X20.7163 Y85.6092
G01 X20.7312 Y85.5691
G01 X20.7443 Y85.5283
G01 X20.7554 Y85.4869
G01 X20.7645 Y85.4451
G01 X20.7716 Y85.4028
G01 X20.7767 Y85.3603
G01 X20.7797 Y85.3176
G01 X20.7807 Y85.2747
G01 X20.7883 Y85.2437 F1000
G01 X20.7947 Y85.2124
G01 X20.8001 Y85.1809
G01 X20.8044 Y85.1492
G01 X20.8076 Y85.1174
G01 X20.8096 Y85.0855
G01 X20.8106 Y85.0536
G01 X20.8105 Y85.0216
G01 X20.8092 Y84.9897
G01 X20.8069 Y84.9578
G01 X20.8034 Y84.9261
G01 X20.7988 Y84.8944
G01 X20.7891 Y84.8429
G01 X20.7768 Y84.7920
G01 X20.7619 Y84.7418
G01 X20.7444 Y84.6924
G01 X20.7243 Y84.6440
G01 X20.7019 Y84.5966
G01 X20.6770 Y84.5505
G01 X20.6497 Y84.5058
G01 X20.6177 Y84.4587
G01 X20.5833 Y84.4134
G01 X20.5466 Y84.3699
G01 X20.5078 Y84.3283
G01 X20.4669 Y84.2888
G01 X20.4240 Y84.2514
G01 X20.3793 Y84.2162
G01 X20.3328 Y84.1834
G01 X20.2809 Y84.1506
G01 X20.2274 Y84.1204
G01 X20.1724 Y84.0931
G01 X20.1161 Y84.0685
G01 X20.0587 Y84.0468
G01 X20.0002 Y84.0281
G01 X19.9408 Y84.0124
G01 X19.8807 Y83.9997
G01 X19.8156 Y83.9894
G01 X19.7501 Y83.9824
G01 X19.6842 Y83.9787
G01 X19.6183 Y83.9783
G01 X19.5524 Y83.9813
G01 X19.4868 Y83.9876
G01 X19.4216 Y83.9973
G01 X19.3569 Y84.0102
G01 X19.2886 Y84.0274
G01 X19.2213 Y84.0481
G01 X19.1550 Y84.0722
G01 X19.0901 Y84.0996
G01 X19.0266 Y84.1302
G01 X18.9648 Y84.1639
G01 X18.9047 Y84.2008
G01 X18.8466 Y84.2406
G01 X18.7931 Y84.2900
G01 X18.7421 Y84.3420
G01 X18.6937 Y84.3965
G01 X18.6480 Y84.4533
G01 X18.6052 Y84.5122
G01 X18.5654 Y84.5732
G01 X18.5286 Y84.6361
G01 X18.4950 Y84.7007
G01 X18.4685 Y84.7694
G01 X18.4454 Y84.8393
G01 X18.4257 Y84.9103
G01 X18.4096 Y84.9821
G01 X18.3970 Y85.0546
G01 X18.3880 Y85.1277
G01 X18.3826 Y85.2011
G01 X18.3808 Y85.2747
G01 X18.3826 Y85.3483
G01 X18.3880 Y85.4218
G01 X18.3970 Y85.4948
G01 X18.4096 Y85.5674
G01 X18.4257 Y85.6392
G01 X18.4454 Y85.7102
G01 X18.4685 Y85.7801
G01 X18.4950 Y85.8487
G01 X18.5248 Y85.9161
G01 X18.5579 Y85.9818
G01 X18.5942 Y86.0459
G01 X18.6336 Y86.1081
G01 X18.6760 Y86.1683
G01 X18.7212 Y86.2263
G01 X18.7693 Y86.2820
G01 X18.8201 Y86.3354
G01 X18.8734 Y86.3861
G01 X18.9292 Y86.4342
G01 X18.9872 Y86.4795
G01 X19.0474 Y86.5219
G01 X19.1096 Y86.5613
G01 X19.1737 Y86.5976
G01 X19.2394 Y86.6307
G01 X19.3067 Y86.6605
G01 X19.3754 Y86.6870
G01 X19.4453 Y86.7101
G01 X19.5163 Y86.7297
G01 X19.5881 Y86.7459
G01 X19.6606 Y86.7585
G01 X19.7337 Y86.7675
G01 X19.8071 Y86.7729
G01 X19.8807 Y86.7747
G01 X19.9543 Y86.7729
G01 X20.0277 Y86.7675
G01 X20.1008 Y86.7585
G01 X20.1734 Y86.7459
G01 X20.2452 Y86.7297
G01 X20.3161 Y86.7101
G01 X20.3860 Y86.6870
G01 X20.4547 Y86.6605
G01 X20.5220 Y86.6307
G01 X20.5878 Y86.5976
G01 X20.6519 Y86.5613
G01 X20.7141 Y86.5219
G01 X20.7743 Y86.4795
G01 X20.8323 Y86.4342
G01 X20.8880 Y86.3861
G01 X20.9414 Y86.3354
G01 X20.9921 Y86.2820
G01 X21.0402 Y86.2263
G01 X21.0855 Y86.1683
G01 X21.1279 Y86.1081
G01 X21.1673 Y86.0459
G01 X21.2036 Y85.9818
G01 X21.2367 Y85.9161
G01 X21.2665 Y85.8487
G01 X21.2930 Y85.7801
G01 X21.3161 Y85.7102
G01 X21.3357 Y85.6392
G01 X21.3519 Y85.5674
G01 X21.3644 Y85.4948
G01 X21.3735 Y85.4218
G01 X21.3789 Y85.3483
G01 X21.3807 Y85.2747
G01 X21.3765 Y85.1626
G01 X21.3639 Y85.0512
G01 X21.3431 Y84.9410
G01 X21.3140 Y84.8326
G01 X21.2770 Y84.7267
G01 X21.2321 Y84.6239
G01 X21.1797 Y84.5248
G01 X21.1201 Y84.4298
G01 X21.0534 Y84.3395
G01 X20.9803 Y84.2545
G01 X20.9010 Y84.1752
G01 X20.8159 Y84.1020
G01 X20.7257 Y84.0354
G01 X20.6307 Y83.9757
G01 X20.5315 Y83.9233
G01 X20.4287 Y83.8785
G01 X20.3228 Y83.8414
G01 X20.2145 Y83.8124
G01 X20.1043 Y83.7915
G01 X19.9928 Y83.7790
G01 X19.8807 Y83.7748
G01 X19.7686 Y83.7790
G01 X19.6572 Y83.7915
G01 X19.5470 Y83.8124
G01 X19.4386 Y83.8414
G01 X19.3327 Y83.8785
G01 X19.2299 Y83.9233
G01 X19.1308 Y83.9757
G01 X19.0358 Y84.0354
G01 X18.9455 Y84.1020
G01 X18.8605 Y84.1752
G01 X18.7812 Y84.2545
G01 X18.7080 Y84.3395
G01 X18.6414 Y84.4298
G01 X18.5817 Y84.5248
G01 X18.5293 Y84.6239
G01 X18.4845 Y84.7267
G01 X18.4474 Y84.8326
G01 X18.4184 Y84.9410
G01 X18.3975 Y85.0512
G01 X18.3850 Y85.1626
G01 X18.3808 Y85.2747
G01 X18.3850 Y85.3868
G01 X18.3975 Y85.4983
G01 X18.4184 Y85.6085
G01 X18.4474 Y85.7169
G01 X18.4845 Y85.8227
G01 X18.5293 Y85.9255
G01 X18.5817 Y86.0247
G01 X18.6414 Y86.1197
G01 X18.7080 Y86.2099
G01 X18.7812 Y86.2950
G01 X18.8605 Y86.3743
G01 X18.9455 Y86.4475
G01 X19.0358 Y86.5141
G01 X19.1308 Y86.5737
G01 X19.2299 Y86.6262
G01 X19.3327 Y86.6710
G01 X19.4386 Y86.7081
G01 X19.5470 Y86.7371
G01 X19.6572 Y86.7579
G01 X19.7686 Y86.7705
G01 X19.8807 Y86.7747
G01 X19.9928 Y86.7705
G01 X20.1043 Y86.7579
G01 X20.2145 Y86.7371
G01 X20.3228 Y86.7081
G01 X20.4287 Y86.6710
G01 X20.5315 Y86.6262
G01 X20.6307 Y86.5737
G01 X20.7257 Y86.5141
G01 X20.8159 Y86.4475
G01 X20.9010 Y86.3743
G01 X20.9803 Y86.2950
G01 X21.0534 Y86.2099
G01 X21.1201 Y86.1197
G01 X21.1797 Y86.0247
G01 X21.2321 Y85.9255
G01 X21.2770 Y85.8227
G01 X21.3140 Y85.7169
G01 X21.3431 Y85.6085
G01 X21.3639 Y85.4983
G01 X21.3765 Y85.3868
G01 X21.3807 Y85.2747
G01 X21.3776 Y85.1963 Z-4.9750 F400
G01 X21.3684 Y85.1183 Z-4.9500
G01 X21.3531 Y85.0413 Z-4.9250
G01 X21.3317 Y84.9657 Z-4.9000
G01 X21.3046 Y84.8921 Z-4.8750
G01 X21.2717 Y84.8207 Z-4.8500
G01 X21.2333 Y84.7522 Z-4.8250
G01 X21.1897 Y84.6870 Z-4.8000
G01 X21.1411 Y84.6253 Z-4.7750
G01 X21.0878 Y84.5676 Z-4.7500
G01 X21.0301 Y84.5143 Z-4.7250
G01 X20.9685 Y84.4657 Z-4.7000
G01 X20.9032 Y84.4221 Z-4.6750
G01 X20.8347 Y84.3837 Z-4.6500
G01 X20.7634 Y84.3509 Z-4.6250
G01 X20.6897 Y84.3237 Z-4.6000
G01 X20.6141 Y84.3024 Z-4.5750
G01 X20.5371 Y84.2871 Z-4.5500
G01 X20.4591 Y84.2778 Z-4.5250
G01 X20.3807 Y84.2747 Z-4.5000
G00 Z5.0000


;No. 2: Hole 41
G00 X39.5284 Y63.4486 Z5.0000
G00 Z0.5000
G01 Z0.0000 F400
G01 Z-1.3000
G01 X75.6068 F1000
G01 X75.8218 Y61.9486
G01 X38.0944
G01 X36.8990 Y60.4486
G01 X49.5797
G01 X47.3496 Y58.9486
G01 X35.9017
G01 X35.0497 Y57.4486
G01 X45.7992
G01 X44.6246 Y55.9486
G01 X34.3189
G01 X33.7020 Y54.4486
G01 X43.7015
G01 X42.9621 Y52.9486
G01 X33.1840
G01 X32.7527 Y51.4486
G01 X42.3674
G01 X41.8992 Y49.9486
G01 X32.4082
G01 X32.1487 Y48.4486
G01 X41.5428
G01 X41.2863 Y46.9486
G01 X31.9642
G01 X31.8468 Y45.4486
G01 X41.1197
G01 X41.0346 Y43.9486
G01 X31.7897
G01 X31.7890 Y42.4486
G01 X41.0245
G01 X41.0941 Y40.9486
G01 X31.8540
G01 X31.9895 Y39.4486
G01 X41.2529
G01 X41.5104 Y37.9486
G01 X32.1991
G01 X32.4864 Y36.4486
G01 X41.8782
G01 X42.3703 Y34.9486
G01 X32.8555
G01 X33.3105 Y33.4486
G01 X43.0059
G01 X43.7825 Y31.9486
G01 X33.8525
G01 X34.4836 Y30.4486
G01 X44.7261
G01 X45.8716 Y28.9486
G01 X35.2277
G01 X36.1026 Y27.4486
G01 X47.2943
G01 X49.1488 Y25.9486
G01 X37.1316
G01 X38.3455 Y24.4486
G01 X51.7456
G01 Y22.9486
G01 X56.5654
G01 X39.7682
G01 X41.4740 Y21.4486
G01 X72.0402
G01 X73.4647 Y22.9486
G01 X62.6496
G01 X67.3598
G01 Y24.4486
G01 X74.5966
G01 X75.4692 Y25.9486
G01 X69.8214
G01 X71.5778 Y27.4486
G01 X76.1359
G01 X76.6162 Y28.9486
G01 X72.9112
G01 X74.0129 Y30.4486
G01 X76.9272
G01 X77.0840 Y31.9486
G01 X74.9392
G01 X75.7734 Y33.4486
G01 X77.0768
G00 Z5.0000
G00 X70.2089 Y21.4486
G00 Z0.5000
G01 Z-1.3000 F400
G01 Y19.9486 F1000
G01 X43.6104
G01 X46.4244 Y18.4486
G01 X67.7575
G01 X63.9650 Y16.9486
G01 X50.6777
G00 Z5.0000
G00 X61.4473 Y61.9486
G00 Z0.5000
G01 Z-1.3000 F400
G01 Y60.4486 F1000
G01 X75.9208
G01 X75.9196 Y58.9486
G01 X63.4063
G01 X64.6013 Y57.4486
G01 X75.8123
G01 X75.5868 Y55.9486
G01 X65.3230
G01 X65.6774 Y54.4486
G01 X75.2305
G01 X74.7284 Y52.9486
G01 X65.7312
G01 X65.4899 Y51.4486
G01 X74.0628
G01 X73.2202 Y49.9486
G01 X64.8803
G01 X63.7971 Y48.4486
G01 X72.1587
G01 X70.7897 Y46.9486
G01 X61.8926
G01 Y45.4486
G01 X68.9505
G01 X52.4828
G01 X51.2524 Y46.9486
G01 X54.6244
G01 X53.1110
G01 Y48.4486
G01 X50.5706
G01 X50.3481 Y49.9486
G01 X52.6268
G01 Y51.4486
G01 X52.8685
G01 X50.5462
G01 X51.2835 Y52.9486
G01 X54.2183
G01 X52.8876 Y54.4486
G01 X56.1230
G00 Z5.0000
G00 X54.7589 Y45.4486
G00 Z0.5000
G01 Z-1.3000 F400
G01 Y43.9486 F1000
G01 X66.2452
G00 Z5.0000
G00 X75.2512 Y63.4486
G00 Z0.5000
G01 Z-1.3000 F400
G01 Y64.9486 F1000
G01 X41.2300
G01 X43.2591 Y66.4486
G01 X74.7214
G01 X73.9219 Y67.9486
G01 X45.8450
G01 X49.7239 Y69.4486
G01 X62.6953
G01 X62.7274 Y69.6466
G01 X63.7388 Y69.3850
G01 X64.7517 Y69.1290
G01 X65.7659 Y68.8787
G01 X66.7816 Y68.6341
G01 X67.0945 Y68.5626
G01 X67.4103 Y68.5047
G01 X67.7282 Y68.4604
G01 X68.0478 Y68.4298
G01 X68.3683 Y68.4131
G01 X68.6893 Y68.4102
G01 X69.0101 Y68.4211
G01 X69.3302 Y68.4458
G01 X69.6126 Y68.5035
G01 X69.8928 Y68.5711
G01 X70.1704 Y68.6487
G01 X70.4451 Y68.7360
G01 X70.7165 Y68.8331
G01 X70.9843 Y68.9397
G01 X71.2481 Y69.0557
G01 X71.5077 Y69.1811
G01 X71.6057 Y69.2263
G01 X71.7058 Y69.2669
G01 X71.8077 Y69.3027
G01 X71.9111 Y69.3336
G01 X72.0159 Y69.3596
G01 X72.1218 Y69.3806
G01 X72.2286 Y69.3966
G01 X72.3361 Y69.4075
G01 X72.4604 Y69.3880
G01 X72.5832 Y69.3603
G01 X72.7038 Y69.3246
G01 X72.8219 Y69.2809
G01 X72.9367 Y69.2295
G01 X73.0479 Y69.1706
G01 X73.1550 Y69.1045
G01 X73.2574 Y69.0314
G01 X73.3548 Y68.9516
G01 X73.4466 Y68.8656
G01 X73.5326 Y68.7736
G01 X73.6122 Y68.6762
G01 X73.8819 Y68.3271
G01 X74.1346 Y67.9655
G01 X74.3696 Y67.5922
G01 X74.5864 Y67.2081
G01 X74.7846 Y66.8140
G01 X74.9637 Y66.4108
G01 X75.1232 Y65.9995
G01 X75.2628 Y65.5811
G01 X75.4324 Y65.0062
G01 X75.5842 Y64.4264
G01 X75.7181 Y63.8422
G01 X75.8338 Y63.2542
G01 X75.9313 Y62.6628
G01 X76.0105 Y62.0687
G01 X76.0714 Y61.4725
G01 X76.1137 Y60.8746
G01 X76.1376 Y60.2758
G01 X76.1431 Y59.6764
G01 X76.1299 Y59.0772
G01 X76.0984 Y58.4787
G01 X76.0451 Y57.6809
G01 X75.9554 Y56.8864
G01 X75.8297 Y56.0968
G01 X75.6681 Y55.3137
G01 X75.4710 Y54.5388
G01 X75.2388 Y53.7737
G01 X74.9719 Y53.0200
G01 X74.6709 Y52.2792
G01 X74.3365 Y51.5529
G01 X73.9694 Y50.8426
G01 X73.5702 Y50.1498
G01 X73.1399 Y49.4759
G01 X72.6793 Y48.8223
G01 X72.1894 Y48.1904
G01 X71.6712 Y47.5815
G01 X71.1257 Y46.9969
G01 X70.6563 Y46.5485
G01 X70.1683 Y46.1206
G01 X69.6624 Y45.7139
G01 X69.1397 Y45.3291
G01 X68.6010 Y44.9669
G01 X68.0475 Y44.6279
G01 X67.4799 Y44.3129
G01 X66.8995 Y44.0223
G01 X66.3073 Y43.7567
G01 X65.7042 Y43.5166
G01 X65.0915 Y43.3024
G01 X64.4702 Y43.1144
G01 X63.8415 Y42.9531
G01 X63.2064 Y42.8188
G01 X62.5662 Y42.7116
G01 X61.9221 Y42.6317
G01 X61.2751 Y42.5794
G01 X60.6265 Y42.5547
G01 X59.9774 Y42.5577
G01 X59.3290 Y42.5882
G01 X58.6825 Y42.6464
G01 X58.0391 Y42.7321
G01 X57.3999 Y42.8450
G01 X56.7661 Y42.9852
G01 X56.1705 Y43.1572
G01 X55.5856 Y43.3626
G01 X55.0132 Y43.6007
G01 X54.4552 Y43.8707
G01 X53.9133 Y44.1719
G01 X53.3893 Y44.5031
G01 X52.8848 Y44.8634
G01 X52.4015 Y45.2517
G01 X52.1084 Y45.5250
G01 X51.8322 Y45.8154
G01 X51.5737 Y46.1217
G01 X51.3340 Y46.4429
G01 X51.1140 Y46.7778
G01 X50.9143 Y47.1253
G01 X50.7357 Y47.4841
G01 X50.5788 Y47.8529
G01 X50.4442 Y48.2304
G01 X50.3324 Y48.6152
G01 X50.2437 Y49.0061
G01 X50.1786 Y49.4015
G01 X50.1453 Y49.8410
G01 X50.1488 Y50.2817
G01 X50.1889 Y50.7206
G01 X50.2654 Y51.1546
G01 X50.3777 Y51.5808
G01 X50.5252 Y51.9961
G01 X50.7066 Y52.3977
G01 X50.9209 Y52.7829
G01 X51.1665 Y53.1488
G01 X51.4417 Y53.4931
G01 X51.7445 Y53.8132
G01 X52.0730 Y54.1071
G01 X52.3112 Y54.3075
G01 X52.5636 Y54.4898
G01 X52.8288 Y54.6528
G01 X53.1053 Y54.7957
G01 X53.3917 Y54.9177
G01 X53.6864 Y55.0181
G01 X53.9877 Y55.0964
G01 X54.2939 Y55.1521
G01 X54.6035 Y55.1850
G01 X54.9146 Y55.1949
G01 X55.2256 Y55.1816
G01 X55.5348 Y55.1453
G01 X55.5800 Y55.1373
G01 X55.6248 Y55.1271
G01 X55.6690 Y55.1148
G01 X55.7126 Y55.1005
G01 X55.7556 Y55.0842
G01 X55.7977 Y55.0659
G01 X55.8389 Y55.0457
G01 X55.8791 Y55.0235
G01 X55.9182 Y54.9995
G01 X55.9562 Y54.9737
G01 X55.9929 Y54.9462
G01 X56.0283 Y54.9169
G01 X56.0623 Y54.8861
G01 X56.0949 Y54.8537
G01 X56.1258 Y54.8198
G01 X56.1552 Y54.7845
G01 X56.1829 Y54.7479
G01 X56.2089 Y54.7100
G01 X56.2330 Y54.6710
G01 X56.2553 Y54.6309
G01 X56.2757 Y54.5897
G01 X56.2942 Y54.5477
G01 X56.3107 Y54.5049
G01 X56.3252 Y54.4613
G01 X56.3332 Y54.4286
G01 X56.3395 Y54.3955
G01 X56.3440 Y54.3621
G01 X56.3468 Y54.3286
G01 X56.3478 Y54.2949
G01 X56.3470 Y54.2612
G01 X56.3444 Y54.2277
G01 X56.3400 Y54.1943
G01 X56.3339 Y54.1611
G01 X56.3260 Y54.1284
G01 X56.3164 Y54.0961
G01 X56.3051 Y54.0644
G01 X56.2921 Y54.0333
G01 X56.2775 Y54.0030
G01 X56.2614 Y53.9734
G01 X56.2436 Y53.9448
G01 X56.2244 Y53.9171
G01 X56.2038 Y53.8905
G01 X56.1817 Y53.8651
G01 X56.1584 Y53.8408
G01 X56.1337 Y53.8178
G01 X56.1080 Y53.7962
G01 X56.0810 Y53.7759
G01 X56.0531 Y53.7571
G01 X55.7957 Y53.5825
G01 X55.5281 Y53.4241
G01 X55.2512 Y53.2824
G01 X54.9661 Y53.1581
G01 X54.6875 Y53.0169
G01 X54.4201 Y52.8556
G01 X54.1654 Y52.6749
G01 X53.9246 Y52.4759
G01 X53.6992 Y52.2598
G01 X53.4904 Y52.0275
G01 X53.2993 Y51.7805
G01 X53.1269 Y51.5201
G01 X53.0331 Y51.3098
G01 X52.9556 Y51.0929
G01 X52.8948 Y50.8708
G01 X52.8510 Y50.6448
G01 X52.8245 Y50.4160
G01 X52.8155 Y50.1859
G01 X52.8240 Y49.9558
G01 X52.8499 Y49.7270
G01 X52.8931 Y49.5008
G01 X52.9535 Y49.2786
G01 X53.0305 Y49.0616
G01 X53.1238 Y48.8511
G01 X53.2892 Y48.5580
G01 X53.4762 Y48.2782
G01 X53.6838 Y48.0134
G01 X53.9108 Y47.7649
G01 X54.1559 Y47.5343
G01 X54.4177 Y47.3228
G01 X54.6947 Y47.1316
G01 X54.9853 Y46.9619
G01 X55.3621 Y46.7703
G01 X55.7503 Y46.6032
G01 X56.1485 Y46.4613
G01 X56.5549 Y46.3451
G01 X56.9679 Y46.2552
G01 X57.3858 Y46.1918
G01 X57.8069 Y46.1553
G01 X58.2295 Y46.1457
G01 X58.6519 Y46.1632
G01 X59.0722 Y46.2077
G01 X59.4889 Y46.2789
G01 X59.9001 Y46.3766
G01 X60.3811 Y46.5087
G01 X60.8521 Y46.6728
G01 X61.3110 Y46.8682
G01 X61.7557 Y47.0940
G01 X62.1843 Y47.3492
G01 X62.5947 Y47.6326
G01 X62.9851 Y47.9430
G01 X63.3538 Y48.2789
G01 X63.6991 Y48.6389
G01 X64.0194 Y49.0212
G01 X64.3132 Y49.4243
G01 X64.5793 Y49.8461
G01 X64.8164 Y50.2849
G01 X65.0235 Y50.7387
G01 X65.1996 Y51.2053
G01 X65.3440 Y51.6828
G01 X65.4441 Y52.1753
G01 X65.5111 Y52.6734
G01 X65.5445 Y53.1748
G01 X65.5444 Y53.6774
G01 X65.5106 Y54.1788
G01 X65.4433 Y54.6769
G01 X65.3429 Y55.1693
G01 X65.2097 Y55.6540
G01 X65.0444 Y56.1286
G01 X64.8476 Y56.5911
G01 X64.6204 Y57.0393
G01 X64.3637 Y57.4714
G01 X64.0787 Y57.8853
G01 X63.7666 Y58.2793
G01 X63.4288 Y58.6514
G01 X63.0669 Y59.0001
G01 X62.6904 Y59.3299
G01 X62.2980 Y59.6405
G01 X61.8905 Y59.9311
G01 X61.4689 Y60.2009
G01 X61.0344 Y60.4493
G01 X60.5881 Y60.6757
G01 X60.1309 Y60.8795
G01 X59.6642 Y61.0602
G01 X59.1890 Y61.2173
G01 X58.7065 Y61.3504
G01 X58.2180 Y61.4593
G01 X57.7247 Y61.5436
G01 X57.0967 Y61.6344
G01 X56.4650 Y61.6938
G01 X55.8311 Y61.7216
G01 X55.1966 Y61.7177
G01 X54.5631 Y61.6821
G01 X53.9322 Y61.6150
G01 X53.3054 Y61.5165
G01 X52.6843 Y61.3869
G01 X52.0704 Y61.2264
G01 X51.4653 Y61.0355
G01 X50.8705 Y60.8146
G01 X50.2875 Y60.5643
G01 X49.7176 Y60.2853
G01 X49.1624 Y59.9782
G01 X48.6232 Y59.6437
G01 X48.1014 Y59.2828
G01 X47.5799 Y58.8688
G01 X47.0766 Y58.4328
G01 X46.5925 Y57.9757
G01 X46.1284 Y57.4983
G01 X45.6852 Y57.0014
G01 X45.2637 Y56.4860
G01 X44.8647 Y55.9530
G01 X44.4889 Y55.4033
G01 X44.1370 Y54.8381
G01 X43.8096 Y54.2583
G01 X43.5074 Y53.6650
G01 X43.2308 Y53.0593
G01 X42.9148 Y52.3023
G01 X42.6248 Y51.5349
G01 X42.3614 Y50.7579
G01 X42.1248 Y49.9724
G01 X41.9153 Y49.1793
G01 X41.7331 Y48.3794
G01 X41.5785 Y47.5737
G01 X41.4516 Y46.7632
G01 X41.3525 Y45.9488
G01 X41.2815 Y45.1316
G01 X41.2386 Y44.3123
G01 X41.2238 Y43.4921
G01 X41.2112 Y42.7352
G01 X41.2239 Y41.9784
G01 X41.2619 Y41.2225
G01 X41.3251 Y40.4682
G01 X41.4135 Y39.7164
G01 X41.5269 Y38.9680
G01 X41.6652 Y38.2239
G01 X41.8283 Y37.4847
G01 X42.0159 Y36.7514
G01 X42.2280 Y36.0248
G01 X42.4642 Y35.3057
G01 X42.7242 Y34.5948
G01 X43.0184 Y33.8895
G01 X43.3400 Y33.1962
G01 X43.6884 Y32.5160
G01 X44.0631 Y31.8499
G01 X44.4635 Y31.1990
G01 X44.8890 Y30.5642
G01 X45.3390 Y29.9465
G01 X45.8128 Y29.3469
G01 X46.3097 Y28.7662
G01 X46.8288 Y28.2054
G01 X47.3695 Y27.6653
G01 X47.9309 Y27.1467
G01 X48.5336 Y26.6617
G01 X49.1564 Y26.2029
G01 X49.7983 Y25.7711
G01 X50.4580 Y25.3670
G01 X51.1343 Y24.9914
G01 X51.8260 Y24.6450
G01 X52.5318 Y24.3284
G01 X53.2505 Y24.0422
G01 X53.9808 Y23.7869
G01 X54.7212 Y23.5630
G01 X55.4706 Y23.3708
G01 X56.2274 Y23.2108
G01 X56.9904 Y23.0831
G01 X57.7582 Y22.9882
G01 X58.5293 Y22.9260
G01 X59.3023 Y22.8968
G01 X60.0759 Y22.9005
G01 X60.8486 Y22.9373
G01 X61.6191 Y23.0069
G01 X62.3858 Y23.1094
G01 X63.1476 Y23.2444
G01 X63.9028 Y23.4118
G01 X64.6503 Y23.6112
G01 X65.3885 Y23.8424
G01 X65.9840 Y24.0609
G01 X66.5703 Y24.3027
G01 X67.1468 Y24.5674
G01 X67.7123 Y24.8545
G01 X68.2662 Y25.1636
G01 X68.8075 Y25.4943
G01 X69.3353 Y25.8460
G01 X69.8489 Y26.2182
G01 X70.3475 Y26.6102
G01 X70.8303 Y27.0216
G01 X71.2965 Y27.4516
G01 X71.7455 Y27.8996
G01 X72.1765 Y28.3650
G01 X72.5889 Y28.8469
G01 X72.9821 Y29.3446
G01 X73.3553 Y29.8575
G01 X73.9398 Y30.7104
G01 X74.4937 Y31.5836
G01 X75.0163 Y32.4758
G01 X75.5070 Y33.3859
G01 X75.6696 Y33.6748
G01 X75.8406 Y33.9588
G01 X76.0197 Y34.2377
G01 X76.2070 Y34.5113
G01 X76.2003 Y34.5037
G01 X76.2307 Y34.5371
G01 X76.2658 Y34.5449
G01 X76.3011 Y34.5512
G01 X76.3367 Y34.5558
G01 X76.3725 Y34.5588
G01 X76.4084 Y34.5602
G01 X76.4443 Y34.5599
G01 X76.4801 Y34.5580
G01 X76.5159 Y34.5545
G01 X76.5514 Y34.5493
G01 X76.5867 Y34.5425
G01 X76.6216 Y34.5341
G01 X76.6561 Y34.5242
G01 X76.6901 Y34.5127
G01 X76.7235 Y34.4996
G01 X76.7563 Y34.4851
G01 X76.7885 Y34.4690
G01 X76.8198 Y34.4515
G01 X76.8504 Y34.4326
G01 X76.8800 Y34.4123
G01 X76.9087 Y34.3907
G01 X76.9363 Y34.3678
G01 X76.9629 Y34.3437
G01 X76.9884 Y34.3184
G01 X77.0127 Y34.2920
G01 X77.0673 Y34.1819
G01 X77.1167 Y34.0694
G01 X77.1609 Y33.9548
G01 X77.1997 Y33.8383
G01 X77.2330 Y33.7200
G01 X77.2609 Y33.6004
G01 X77.2832 Y33.4796
G01 X77.2998 Y33.3578
G01 X77.3108 Y33.2355
G01 X77.3162 Y33.1128
G01 X77.3158 Y32.9899
G01 X77.3098 Y32.8672
G01 X77.3000 Y32.2593
G01 X77.2663 Y31.6523
G01 X77.2087 Y31.0471
G01 X77.1273 Y30.4447
G01 X77.0221 Y29.8459
G01 X76.8935 Y29.2517
G01 X76.7415 Y28.6630
G01 X76.5665 Y28.0808
G01 X76.3686 Y27.5060
G01 X76.1482 Y26.9394
G01 X75.9056 Y26.3820
G01 X75.6413 Y25.8345
G01 X75.3555 Y25.2979
G01 X75.0489 Y24.7729
G01 X74.7218 Y24.2605
G01 X74.3747 Y23.7614
G01 X74.0082 Y23.2763
G01 X73.6229 Y22.8061
G01 X73.2193 Y22.3514
G01 X72.7981 Y21.9130
G01 X72.2385 Y21.3726
G01 X71.6585 Y20.8541
G01 X71.0589 Y20.3584
G01 X70.4407 Y19.8861
G01 X69.8047 Y19.4380
G01 X69.1520 Y19.0147
G01 X68.4834 Y18.6168
G01 X67.8001 Y18.2450
G01 X67.1029 Y17.8998
G01 X66.3929 Y17.5816
G01 X65.6713 Y17.2911
G01 X64.9389 Y17.0285
G01 X64.1970 Y16.7944
G01 X63.4467 Y16.5890
G01 X62.6890 Y16.4126
G01 X61.9250 Y16.2655
G01 X61.1588 Y16.1487
G01 X60.3896 Y16.0537
G01 X59.6180 Y15.9807
G01 X58.8447 Y15.9298
G01 X58.0702 Y15.9009
G01 X57.2952 Y15.8941
G01 X56.5203 Y15.9094
G01 X55.7461 Y15.9467
G01 X54.9734 Y16.0062
G01 X54.2026 Y16.0876
G01 X53.4345 Y16.1910
G01 X52.6697 Y16.3163
G01 X51.8416 Y16.4700
G01 X51.0191 Y16.6514
G01 X50.2031 Y16.8601
G01 X49.3946 Y17.0960
G01 X48.5944 Y17.3589
G01 X47.8035 Y17.6483
G01 X47.0227 Y17.9640
G01 X46.2528 Y18.3057
G01 X45.4949 Y18.6729
G01 X44.7496 Y19.0653
G01 X44.0179 Y19.4824
G01 X43.3005 Y19.9237
G01 X42.5983 Y20.3887
G01 X41.9120 Y20.8770
G01 X41.2425 Y21.3880
G01 X40.5904 Y21.9210
G01 X39.9709 Y22.4806
G01 X39.3703 Y23.0604
G01 X38.7893 Y23.6599
G01 X38.2286 Y24.2784
G01 X37.6888 Y24.9152
G01 X37.1705 Y25.5696
G01 X36.6742 Y26.2409
G01 X36.2005 Y26.9283
G01 X35.7500 Y27.6311
G01 X35.3231 Y28.3485
G01 X34.9202 Y29.0797
G01 X34.5419 Y29.8239
G01 X34.1886 Y30.5802
G01 X33.8606 Y31.3479
G01 X33.5584 Y32.1261
G01 X33.2822 Y32.9139
G01 X32.9615 Y33.8970
G01 X32.6733 Y34.8901
G01 X32.4179 Y35.8921
G01 X32.1956 Y36.9020
G01 X32.0067 Y37.9187
G01 X31.8512 Y38.9410
G01 X31.7295 Y39.9679
G01 X31.6416 Y40.9983
G01 X31.5876 Y42.0309
G01 X31.5676 Y43.0648
G01 X31.5816 Y44.0988
G01 X31.6296 Y45.1318
G01 X31.6711 Y45.9806
G01 X31.7373 Y46.8279
G01 X31.8282 Y47.6728
G01 X31.9437 Y48.5148
G01 X32.0837 Y49.3530
G01 X32.2481 Y50.1868
G01 X32.4368 Y51.0154
G01 X32.6495 Y51.8382
G01 X32.8862 Y52.6544
G01 X33.1465 Y53.4634
G01 X33.4303 Y54.2644
G01 X33.7374 Y55.0569
G01 X34.0675 Y55.8400
G01 X34.4203 Y56.6132
G01 X34.7954 Y57.3757
G01 X35.1927 Y58.1270
G01 X35.5692 Y58.7863
G01 X35.9673 Y59.4328
G01 X36.3867 Y60.0658
G01 X36.8267 Y60.6845
G01 X37.2870 Y61.2884
G01 X37.7671 Y61.8766
G01 X38.2663 Y62.4487
G01 X38.7843 Y63.0039
G01 X39.3203 Y63.5416
G01 X39.8738 Y64.0613
G01 X40.4443 Y64.5624
G01 X41.0310 Y65.0444
G01 X41.6505 Y65.5490
G01 X42.2871 Y66.0321
G01 X42.9400 Y66.4929
G01 X43.6083 Y66.9310
G01 X44.2914 Y67.3457
G01 X44.9883 Y67.7367
G01 X45.6983 Y68.1035
G01 X46.4204 Y68.4455
G01 X47.1540 Y68.7625
G01 X47.8980 Y69.0540
G01 X48.6517 Y69.3197
G01 X49.4140 Y69.5593
G01 X50.1842 Y69.7725
G01 X50.9612 Y69.9590
G01 X51.7442 Y70.1186
G01 X52.5322 Y70.2512
G01 X53.3618 Y70.3578
G01 X54.1944 Y70.4368
G01 X55.0292 Y70.4881
G01 X55.8652 Y70.5116
G01 X56.7015 Y70.5074
G01 X57.5373 Y70.4753
G01 X58.3715 Y70.4155
G01 X59.2032 Y70.3280
G01 X60.0316 Y70.2129
G01 X60.8558 Y70.0703
G01 X61.6747 Y69.9005
G01 X62.4875 Y69.7035
G01 X62.5475 Y69.6894
G01 X62.6075 Y69.6752
G01 X62.6674 Y69.6609
G01 X62.7274 Y69.6466
G01 X62.6953 Y69.4486
G00 Z5.0000


;No. 3: Hole 42
G00 X83.8480 Y64.4615 Z5.0000
G00 Z0.5000
G01 Z0.0000 F400
G01 Z-1.3000
G01 X94.2271 F1000
G01 Y62.9615
G01 X85.3724
G01 X85.8429 Y61.4615
G01 X94.2271
G01 Y59.9615
G01 X85.9665
G01 X85.9854 Y58.4615
G01 X94.2271
G01 Y56.9615
G01 X85.9854
G01 Y55.4615
G01 X94.2271
G01 Y53.9615
G01 X85.9854
G01 Y52.4615
G01 X94.2271
G01 Y50.9615
G01 X85.9854
G01 Y49.4615
G01 X94.2271
G01 X94.2745 Y47.9615
G01 X85.9854
G01 Y46.4615
G01 X99.6072
G01 X96.8282 Y47.9615
G01 X113.7632
G01 X114.5826 Y46.4615
G01 X102.7264
G01 X105.4908
G01 Y44.9615
G01 X115.0223
G01 X115.2451 Y43.4615
G01 X106.4465
G01 X106.9270 Y41.9615
G01 X115.3256
G01 X115.3286 Y40.4615
G01 X107.1563
G01 X107.2231 Y38.9615
G01 X115.3286
G01 Y37.4615
G01 X107.2233
G01 Y35.9615
G01 X115.3286
G01 Y34.4615
G01 X107.2233
G01 Y32.9615
G01 X115.3286
G01 Y31.4615
G01 X107.2233
G01 Y29.9615
G01 X115.3286
G01 Y28.4615
G01 X107.2233
G01 Y26.9615
G01 X115.3286
G01 Y25.4615
G01 X107.2230
G01 X107.1956 Y23.9615
G01 X115.3346
G01 X115.4253 Y22.4615
G01 X107.1023
G01 X106.8688 Y20.9615
G01 X115.6939
G01 X116.3515 Y19.4615
G01 X106.2195
G01 Y17.9615
G01 X104.6763
G01 X117.8772
G00 Z5.0000
G00 X112.2702 Y47.9615
G00 Z0.5000
G01 Z-1.3000 F400
G01 Y49.4615 F1000
G01 X98.7487
G01 X101.7747 Y50.9615
G01 X109.3075
G00 Z5.0000
G00 X96.6340 Y46.4615
G00 Z0.5000
G01 Z-1.3000 F400
G01 Y44.9615 F1000
G01 X85.9854
G01 Y43.4615
G01 X95.4400
G01 X94.7666 Y41.9615
G01 X85.9854
G01 Y40.4615
G01 X94.4018
G01 X94.2455 Y38.9615
G01 X85.9854
G01 Y37.4615
G01 X94.2271
G01 Y35.9615
G01 X85.9854
G01 Y34.4615
G01 X94.2271
G01 Y32.9615
G01 X85.9854
G01 Y31.4615
G01 X94.2271
G01 Y29.9615
G01 X85.9854
G01 Y28.4615
G01 X94.2271
G01 Y26.9615
G01 X85.9854
G01 Y25.4615
G01 X94.2271
G01 X94.2282 Y23.9615
G01 X85.9748
G01 X85.8911 Y22.4615
G01 X94.2857
G01 X94.5323 Y20.9615
G01 X85.6562
G01 X84.9785 Y19.4615
G01 X95.2053
G01 Y17.9615
G01 X96.7481
G01 X83.4344
G00 Z5.0000
G00 X85.4623 Y64.4615
G00 Z0.5000
G01 Z-1.3000 F400
G01 Y65.9615 F1000
G01 X94.2271
G01 Y67.4615
G01 X89.9388
G01 X92.5848 Y68.9615
G01 X94.2271
G01 X94.4271 Y68.8860
G01 Y48.2921
G01 X94.4312 Y48.2046
G01 X94.4429 Y48.1178
G01 X94.4621 Y48.0324
G01 X94.4887 Y47.9489
G01 X94.5225 Y47.8681
G01 X94.5632 Y47.7905
G01 X94.6105 Y47.7168
G01 X94.6640 Y47.6475
G01 X94.7233 Y47.5831
G01 X94.7881 Y47.5241
G01 X94.8577 Y47.4710
G01 X94.9317 Y47.4241
G01 X95.0095 Y47.3839
G01 X95.0905 Y47.3505
G01 X95.1740 Y47.3244
G01 X95.2596 Y47.3056
G01 X95.3465 Y47.2944
G01 X95.4340 Y47.2908
G01 X95.5214 Y47.2948
G01 X95.6083 Y47.3064
G01 X95.6937 Y47.3255
G01 X95.7772 Y47.3520
G01 X95.8580 Y47.3857
G01 X95.9357 Y47.4263
G01 X96.0094 Y47.4735
G01 X96.0788 Y47.5269
G01 X96.1433 Y47.5862
G01 X96.2024 Y47.6508
G01 X96.6054 Y48.0423
G01 X97.0231 Y48.4180
G01 X97.4549 Y48.7775
G01 X97.9001 Y49.1202
G01 X98.3582 Y49.4455
G01 X98.8283 Y49.7531
G01 X99.3100 Y50.0424
G01 X99.8023 Y50.3131
G01 X100.3047 Y50.5646
G01 X100.8163 Y50.7968
G01 X101.3364 Y51.0092
G01 X101.8643 Y51.2015
G01 X102.4801 Y51.3762
G01 X103.1042 Y51.5186
G01 X103.7349 Y51.6281
G01 X104.3704 Y51.7046
G01 X105.0090 Y51.7478
G01 X105.6491 Y51.7576
G01 X106.2887 Y51.7340
G01 X106.9263 Y51.6770
G01 X107.5600 Y51.5868
G01 X108.1882 Y51.4636
G01 X108.8091 Y51.3078
G01 X109.4209 Y51.1198
G01 X110.0222 Y50.9002
G01 X110.6111 Y50.6494
G01 X111.1861 Y50.3682
G01 X111.7457 Y50.0574
G01 X112.1791 Y49.7800
G01 X112.5917 Y49.4727
G01 X112.9816 Y49.1369
G01 X113.3466 Y48.7744
G01 X113.6851 Y48.3868
G01 X113.9953 Y47.9763
G01 X114.2756 Y47.5449
G01 X114.5247 Y47.0947
G01 X114.7412 Y46.6280
G01 X114.9241 Y46.1471
G01 X115.0725 Y45.6544
G01 X115.1857 Y45.1525
G01 X115.2703 Y44.7129
G01 X115.3430 Y44.2712
G01 X115.4039 Y43.8277
G01 X115.4528 Y43.3828
G01 X115.4898 Y42.9366
G01 X115.5147 Y42.4897
G01 X115.5277 Y42.0422
G01 X115.5286 Y41.5946
G01 X115.5100 Y37.2574
G01 X115.5040 Y32.9202
G01 X115.5107 Y28.5830
G01 X115.5300 Y24.2458
G01 X115.5312 Y23.8367
G01 X115.5450 Y23.4277
G01 X115.5713 Y23.0194
G01 X115.6102 Y22.6121
G01 X115.6616 Y22.2061
G01 X115.7255 Y21.8020
G01 X115.8019 Y21.4000
G01 X115.8905 Y21.0005
G01 X116.0073 Y20.6096
G01 X116.1578 Y20.2304
G01 X116.3408 Y19.8657
G01 X116.5549 Y19.5185
G01 X116.7986 Y19.1913
G01 X117.0699 Y18.8865
G01 X117.3667 Y18.6067
G01 X117.6869 Y18.3538
G01 X117.9761 Y18.1514
G01 X118.2663 Y17.9507
G01 X118.5578 Y17.7516
G01 X118.8503 Y17.5542
G01 X118.9052 Y17.5154
G01 X118.9584 Y17.4743
G01 X119.0097 Y17.4309
G01 X119.0590 Y17.3853
G01 X119.1063 Y17.3376
G01 X119.1515 Y17.2879
G01 X119.1945 Y17.2362
G01 X119.2351 Y17.1827
G01 X119.1517 Y17.1404
G01 X119.0663 Y17.1021
G01 X118.9793 Y17.0679
G01 X118.8908 Y17.0377
G01 X118.8009 Y17.0117
G01 X118.7100 Y16.9899
G01 X118.6181 Y16.9724
G01 X118.5255 Y16.9592
G01 X118.4324 Y16.9504
G01 X118.3389 Y16.9459
G01 X118.2454 Y16.9457
G01 X118.1520 Y16.9500
G01 X118.0626 Y16.9482
G01 X114.7008 Y16.9260
G01 X111.3389 Y16.9187
G01 X107.9770 Y16.9262
G01 X104.6152 Y16.9485
G01 X104.3270 Y16.9482
G01 X104.0397 Y16.9708
G01 X103.7551 Y17.0162
G01 X103.4751 Y17.0841
G01 X103.4679 Y17.1021
G01 X103.4617 Y17.1205
G01 X103.4566 Y17.1393
G01 X103.4525 Y17.1582
G01 X103.4494 Y17.1774
G01 X103.4474 Y17.1967
G01 X103.4465 Y17.2162
G01 X103.4466 Y17.2356
G01 X103.4460 Y17.2240
G01 X103.4442 Y17.2427
G01 X103.4437 Y17.2614
G01 X103.4444 Y17.2801
G01 X103.4463 Y17.2988
G01 X103.4494 Y17.3173
G01 X103.4537 Y17.3355
G01 X103.4591 Y17.3534
G01 X103.4657 Y17.3709
G01 X103.4735 Y17.3880
G01 X103.4823 Y17.4045
G01 X103.4922 Y17.4205
G01 X103.5031 Y17.4357
G01 X103.5149 Y17.4502
G01 X103.5277 Y17.4640
G01 X103.5413 Y17.4768
G01 X103.5557 Y17.4888
G01 X103.5709 Y17.4997
G01 X103.5868 Y17.5097
G01 X103.6032 Y17.5187
G01 X103.6203 Y17.5265
G01 X104.0410 Y17.7752
G01 X104.4496 Y18.0432
G01 X104.8454 Y18.3299
G01 X105.2274 Y18.6347
G01 X105.4436 Y18.8351
G01 X105.6466 Y19.0487
G01 X105.8358 Y19.2747
G01 X106.0103 Y19.5122
G01 X106.1695 Y19.7602
G01 X106.3127 Y20.0178
G01 X106.4393 Y20.2839
G01 X106.5489 Y20.5575
G01 X106.6410 Y20.8375
G01 X106.7153 Y21.1227
G01 X106.7714 Y21.4120
G01 X106.8092 Y21.7043
G01 X106.9124 Y22.6864
G01 X106.9825 Y23.6714
G01 X107.0195 Y24.6583
G01 X107.0233 Y25.6458
G01 X107.0443 Y29.0344
G01 X107.0509 Y32.4230
G01 X107.0432 Y35.8116
G01 X107.0212 Y39.2002
G01 X107.0161 Y39.7232
G01 X106.9865 Y40.2453
G01 X106.9324 Y40.7655
G01 X106.8538 Y41.2826
G01 X106.7510 Y41.7954
G01 X106.6242 Y42.3028
G01 X106.4737 Y42.8037
G01 X106.2998 Y43.2969
G01 X106.1315 Y43.6803
G01 X105.9303 Y44.0474
G01 X105.6976 Y44.3955
G01 X105.4354 Y44.7219
G01 X105.1455 Y45.0240
G01 X104.8302 Y45.2995
G01 X104.4920 Y45.5463
G01 X104.1335 Y45.7625
G01 X103.7574 Y45.9464
G01 X103.3666 Y46.0967
G01 X102.9641 Y46.2121
G01 X102.5531 Y46.2918
G01 X102.1853 Y46.3510
G01 X101.8149 Y46.3918
G01 X101.4430 Y46.4138
G01 X101.0705 Y46.4172
G01 X100.6982 Y46.4018
G01 X100.3272 Y46.3677
G01 X99.9584 Y46.3151
G01 X99.5927 Y46.2440
G01 X99.2310 Y46.1546
G01 X98.8742 Y46.0471
G01 X98.5233 Y45.9219
G01 X98.1792 Y45.7792
G01 X97.8303 Y45.5871
G01 X97.4942 Y45.3735
G01 X97.1721 Y45.1393
G01 X96.8653 Y44.8854
G01 X96.5751 Y44.6127
G01 X96.3024 Y44.3224
G01 X96.0485 Y44.0156
G01 X95.8144 Y43.6935
G01 X95.6009 Y43.3573
G01 X95.4088 Y43.0084
G01 X95.2390 Y42.6482
G01 X95.0921 Y42.2781
G01 X94.9287 Y41.7837
G01 X94.7878 Y41.2824
G01 X94.6697 Y40.7754
G01 X94.5746 Y40.2635
G01 X94.5026 Y39.7478
G01 X94.4540 Y39.2294
G01 X94.4288 Y38.7093
G01 X94.4271 Y38.1887
G01 X94.4111 Y34.6188
G01 X94.4060 Y31.0488
G01 X94.4118 Y27.4789
G01 X94.4286 Y23.9090
G01 X94.4241 Y23.5116
G01 X94.4342 Y23.1144
G01 X94.4590 Y22.7178
G01 X94.4984 Y22.3224
G01 X94.5522 Y21.9287
G01 X94.6206 Y21.5373
G01 X94.7033 Y21.1486
G01 X94.8002 Y20.7633
G01 X94.9084 Y20.4670
G01 X95.0351 Y20.1781
G01 X95.1798 Y19.8978
G01 X95.3419 Y19.6272
G01 X95.5208 Y19.3673
G01 X95.7158 Y19.1193
G01 X95.9260 Y18.8842
G01 X96.1507 Y18.6627
G01 X96.3889 Y18.4559
G01 X96.6397 Y18.2646
G01 X96.9021 Y18.0895
G01 X97.1750 Y17.9313
G01 X97.4399 Y17.7804
G01 X97.6892 Y17.6049
G01 X97.9206 Y17.4065
G01 X98.1320 Y17.1869
G01 X98.0449 Y17.1441
G01 X97.9559 Y17.1054
G01 X97.8652 Y17.0707
G01 X97.7731 Y17.0401
G01 X97.6797 Y17.0138
G01 X97.5852 Y16.9916
G01 X97.4898 Y16.9738
G01 X97.3937 Y16.9603
G01 X97.2970 Y16.9511
G01 X97.2001 Y16.9463
G01 X97.1030 Y16.9459
G01 X97.0061 Y16.9499
G01 X96.9162 Y16.9482
G01 X93.5566 Y16.9251
G01 X90.1968 Y16.9175
G01 X86.8371 Y16.9255
G01 X83.4774 Y16.9489
G01 X83.1540 Y16.9432
G01 X82.8313 Y16.9673
G01 X82.5122 Y17.0208
G01 X82.1994 Y17.1033
G01 X82.1901 Y17.1210
G01 X82.1821 Y17.1392
G01 X82.1754 Y17.1580
G01 X82.1701 Y17.1772
G01 X82.1662 Y17.1968
G01 X82.1638 Y17.2165
G01 X82.1628 Y17.2364
G01 X82.1632 Y17.2564
G01 X82.1651 Y17.2762
G01 X82.1684 Y17.2959
G01 X82.1731 Y17.3152
G01 X82.1792 Y17.3342
G01 X82.1867 Y17.3527
G01 X82.1955 Y17.3706
G01 X82.2056 Y17.3878
G01 X82.2169 Y17.4042
G01 X82.2293 Y17.4197
G01 X82.2429 Y17.4344
G01 X82.2575 Y17.4480
G01 X82.2730 Y17.4604
G01 X82.2894 Y17.4718
G01 X82.3066 Y17.4819
G01 X82.3244 Y17.4908
G01 X82.3429 Y17.4983
G01 X82.7811 Y17.7580
G01 X83.2058 Y18.0392
G01 X83.6161 Y18.3412
G01 X84.0107 Y18.6633
G01 X84.2317 Y18.8671
G01 X84.4391 Y19.0847
G01 X84.6321 Y19.3152
G01 X84.8100 Y19.5576
G01 X84.9718 Y19.8109
G01 X85.1171 Y20.0741
G01 X85.2452 Y20.3460
G01 X85.3555 Y20.6257
G01 X85.4477 Y20.9118
G01 X85.5213 Y21.2033
G01 X85.5760 Y21.4989
G01 X85.6116 Y21.7974
G01 X85.6937 Y22.5538
G01 X85.7500 Y23.3126
G01 X85.7806 Y24.0728
G01 X85.7854 Y24.8337
G01 X85.7961 Y29.1015
G01 X85.8037 Y33.3694
G01 X85.8082 Y37.6373
G01 X85.8097 Y41.9051
G01 X85.8081 Y46.1730
G01 X85.8034 Y50.4409
G01 X85.7957 Y54.7087
G01 X85.7849 Y58.9766
G01 X85.7884 Y59.3485
G01 X85.7825 Y59.7204
G01 X85.7669 Y60.0920
G01 X85.7418 Y60.4630
G01 X85.7072 Y60.8333
G01 X85.6630 Y61.2026
G01 X85.6093 Y61.5707
G01 X85.5462 Y61.9372
G01 X85.4597 Y62.2618
G01 X85.3414 Y62.5761
G01 X85.1925 Y62.8772
G01 X85.0146 Y63.1621
G01 X84.8092 Y63.4280
G01 X84.5786 Y63.6721
G01 X84.3248 Y63.8922
G01 X84.0505 Y64.0861
G01 X83.5933 Y64.3736
G01 X83.1236 Y64.6401
G01 X82.6423 Y64.8852
G01 X82.1504 Y65.1083
G01 X82.1308 Y65.1212
G01 X82.1119 Y65.1352
G01 X82.0938 Y65.1503
G01 X82.0766 Y65.1663
G01 X82.0738 Y65.1819
G01 X82.0720 Y65.1977
G01 X82.0713 Y65.2136
G01 X82.0716 Y65.2294
G01 X82.0730 Y65.2452
G01 X82.0755 Y65.2609
G01 X82.0790 Y65.2763
G01 X82.0835 Y65.2916
G01 X82.0890 Y65.3064
G01 X82.0955 Y65.3209
G01 X82.1029 Y65.3349
G01 X82.1113 Y65.3484
G01 X82.1206 Y65.3612
G01 X82.1307 Y65.3735
G01 X82.1415 Y65.3850
G01 X82.1532 Y65.3958
G01 X82.1655 Y65.4058
G01 X82.1784 Y65.4149
G01 X82.1920 Y65.4232
G01 X82.2061 Y65.4305
G01 X82.2206 Y65.4369
G01 X82.2355 Y65.4423
G01 X82.2507 Y65.4467
G01 X82.2662 Y65.4500
G01 X82.5864 Y65.5352
G01 X82.9086 Y65.6121
G01 X83.2327 Y65.6807
G01 X83.5584 Y65.7410
G01 X84.2428 Y65.8777
G01 X84.9241 Y66.0289
G01 X85.6020 Y66.1945
G01 X86.2762 Y66.3746
G01 X86.9465 Y66.5689
G01 X87.6124 Y66.7774
G01 X88.2738 Y67.0000
G01 X88.9304 Y67.2367
G01 X89.4895 Y67.4779
G01 X90.0415 Y67.7351
G01 X90.5858 Y68.0082
G01 X91.1220 Y68.2969
G01 X91.6497 Y68.6009
G01 X92.1684 Y68.9200
G01 X92.6777 Y69.2539
G01 X93.1771 Y69.6024
G01 X93.2666 Y69.6625
G01 X93.3584 Y69.7189
G01 X93.4524 Y69.7716
G01 X93.5485 Y69.8205
G01 X93.6465 Y69.8654
G01 X93.7462 Y69.9064
G01 X93.8474 Y69.9433
G01 X93.9501 Y69.9761
G01 X93.9726 Y69.9800
G01 X93.9953 Y69.9826
G01 X94.0181 Y69.9839
G01 X94.0409
G01 X94.0637 Y69.9825
G01 X94.0864 Y69.9797
G01 X94.1088 Y69.9757
G01 X94.1310 Y69.9703
G01 X94.1529 Y69.9637
G01 X94.1743 Y69.9557
G01 X94.1952 Y69.9466
G01 X94.2156 Y69.9362
G01 X94.2353 Y69.9247
G01 X94.2543 Y69.9120
G01 X94.2725 Y69.8983
G01 X94.2899 Y69.8835
G01 X94.3277 Y69.8016
G01 X94.3598 Y69.7173
G01 X94.3862 Y69.6311
G01 X94.4065 Y69.5432
G01 X94.4209 Y69.4542
G01 X94.4291 Y69.3644
G01 X94.4312 Y69.2742
G01 X94.4271 Y69.1841
G01 Y68.8860
G01 X94.2271 Y68.9615
G00 Z5.0000


;No. 4: Hole 43
G00 X125.5392 Y46.9185 Z5.0000
G00 Z0.5000
G01 Z0.0000 F400
G01 Z-1.3000
G01 X136.5661 F1000
G01 Y45.4185
G01 X127.0136
G01 X127.9120
G01 Y43.9185
G01 X136.5661
G01 Y42.4185
G01 X128.2317
G01 X128.3157 Y40.9185
G01 X136.5661
G01 Y39.4185
G01 X128.3249
G01 Y37.9185
G01 X136.5661
G01 Y36.4185
G01 X128.3249
G01 Y34.9185
G01 X136.5661
G01 Y33.4185
G01 X128.3249
G01 Y31.9185
G01 X136.5661
G01 Y30.4185
G01 X128.3249
G01 Y28.9185
G01 X136.5661
G01 Y27.4185
G01 X128.3249
G01 Y25.9185
G01 X136.5661
G01 Y24.4185
G01 X128.3227
G01 X128.2704 Y22.9185
G01 X136.5994
G01 X136.7740 Y21.4185
G01 X128.1051
G01 X127.6354 Y19.9185
G01 X137.2971
G01 X138.4871 Y18.4185
G01 X126.4029
G00 Z5.0000
G00 X131.0962 Y46.9185
G00 Z0.5000
G01 Z-1.3000 F400
G01 Y48.4185 F1000
G01 X136.5661
G01 Y49.9185
G01 X134.0062
G01 X133.8726 Y50.0720
G01 X134.3493 Y50.3634
G01 X134.8284 Y50.6509
G01 X135.3098 Y50.9346
G01 X135.7934 Y51.2145
G01 X135.8702 Y51.2611
G01 X135.9509 Y51.3007
G01 X136.0348 Y51.3330
G01 X136.1212 Y51.3577
G01 X136.2094 Y51.3747
G01 X136.2989 Y51.3837
G01 X136.3887 Y51.3848
G01 X136.4783 Y51.3779
G01 X136.4969 Y51.3758
G01 X136.5152 Y51.3724
G01 X136.5332 Y51.3676
G01 X136.5508 Y51.3614
G01 X136.5679 Y51.3540
G01 X136.5844 Y51.3452
G01 X136.6001 Y51.3353
G01 X136.6151 Y51.3242
G01 X136.6292 Y51.3120
G01 X136.6424 Y51.2988
G01 X136.6545 Y51.2847
G01 X136.6656 Y51.2696
G01 X136.6754 Y51.2538
G01 X136.6841 Y51.2373
G01 X136.6915 Y51.2202
G01 X136.6976 Y51.2026
G01 X136.7023 Y51.1846
G01 X136.7057 Y51.1662
G01 X136.7077 Y51.1477
G01 X136.7083 Y51.1291
G01 X136.7359 Y50.9978
G01 X136.7547 Y50.8651
G01 X136.7648 Y50.7313
G01 X136.7661 Y50.5973
G01 X136.7540 Y47.2791
G01 X136.7454 Y43.9609
G01 X136.7403 Y40.6428
G01 X136.7387 Y37.3246
G01 X136.7406 Y34.0064
G01 X136.7459 Y30.6883
G01 X136.7548 Y27.3701
G01 X136.7671 Y24.0520
G01 X136.7619 Y23.6573
G01 X136.7702 Y23.2626
G01 X136.7921 Y22.8685
G01 X136.8274 Y22.4754
G01 X136.8762 Y22.0837
G01 X136.9385 Y21.6939
G01 X137.0140 Y21.3064
G01 X137.1028 Y20.9218
G01 X137.2181 Y20.5903
G01 X137.3553 Y20.2671
G01 X137.5136 Y19.9539
G01 X137.6925 Y19.6518
G01 X137.8911 Y19.3624
G01 X138.1085 Y19.0868
G01 X138.3438 Y18.8263
G01 X138.5959 Y18.5820
G01 X138.8637 Y18.3551
G01 X139.1461 Y18.1465
G01 X139.4417 Y17.9572
G01 X139.7492 Y17.7879
G01 X139.8519 Y17.7285
G01 X139.9516 Y17.6641
G01 X140.0480 Y17.5949
G01 X140.1408 Y17.5210
G01 X140.2299 Y17.4426
G01 X140.3150 Y17.3599
G01 X140.3960 Y17.2731
G01 X140.4725 Y17.1825
G01 X140.3891 Y17.1403
G01 X140.3038 Y17.1020
G01 X140.2168 Y17.0678
G01 X140.1284 Y17.0376
G01 X140.0386 Y17.0116
G01 X139.9476 Y16.9899
G01 X139.8558 Y16.9724
G01 X139.7633 Y16.9592
G01 X139.6702 Y16.9504
G01 X139.5768 Y16.9459
G01 X139.4833 Y16.9457
G01 X139.3899 Y16.9500
G01 X139.3006 Y16.9482
G01 X135.9175 Y16.9249
G01 X132.5343 Y16.9173
G01 X129.1511 Y16.9255
G01 X125.7680 Y16.9494
G01 X125.4724 Y16.9483
G01 X125.1779 Y16.9721
G01 X124.8863 Y17.0205
G01 X124.5999 Y17.0932
G01 X124.5891 Y17.1094
G01 X124.5794 Y17.1262
G01 X124.5708 Y17.1436
G01 X124.5633 Y17.1615
G01 X124.5569 Y17.1798
G01 X124.5518 Y17.1985
G01 X124.5478 Y17.2175
G01 X124.5450 Y17.2367
G01 X124.5434 Y17.2560
G01 X124.5431 Y17.2754
G01 X124.5440 Y17.2948
G01 X124.5461 Y17.3141
G01 X124.5494 Y17.3332
G01 X124.5540 Y17.3521
G01 X124.5597 Y17.3706
G01 X124.5666 Y17.3888
G01 X124.5780 Y17.4095
G01 X124.5908 Y17.4293
G01 X124.6050 Y17.4482
G01 X124.6205 Y17.4660
G01 X124.6373 Y17.4826
G01 X124.6551 Y17.4981
G01 X124.6741 Y17.5122
G01 X124.6939 Y17.5250
G01 X124.7147 Y17.5363
G01 X124.7361 Y17.5461
G01 X124.7583 Y17.5544
G01 X124.7809 Y17.5611
G01 X125.1210 Y17.7657
G01 X125.4553 Y17.9796
G01 X125.7835 Y18.2027
G01 X126.1054 Y18.4349
G01 X126.3583 Y18.6337
G01 X126.5965 Y18.8501
G01 X126.8187 Y19.0827
G01 X127.0238 Y19.3306
G01 X127.2109 Y19.5923
G01 X127.3789 Y19.8667
G01 X127.5270 Y20.1523
G01 X127.6545 Y20.4477
G01 X127.7607 Y20.7514
G01 X127.8450 Y21.0619
G01 X127.9072 Y21.3775
G01 X127.9468 Y21.6968
G01 X128.0309 Y22.4784
G01 X128.0886 Y23.2623
G01 X128.1200 Y24.0477
G01 X128.1249 Y24.8337
G01 X128.1423 Y28.7388
G01 X128.1477 Y32.6439
G01 X128.1413 Y36.5491
G01 X128.1231 Y40.4541
G01 X128.1176 Y41.1610
G01 X128.0773 Y41.8667
G01 X128.0023 Y42.5696
G01 X127.8927 Y43.2679
G01 X127.8310 Y43.5404
G01 X127.7508 Y43.8079
G01 X127.6525 Y44.0694
G01 X127.5366 Y44.3236
G01 X127.4035 Y44.5692
G01 X127.2540 Y44.8052
G01 X127.0887 Y45.0304
G01 X126.9084 Y45.2437
G01 X126.6485 Y45.4509
G01 X126.3813 Y45.6486
G01 X126.1073 Y45.8368
G01 X125.8269 Y46.0151
G01 X125.5402 Y46.1834
G01 X125.2478 Y46.3414
G01 X124.9499 Y46.4889
G01 X124.6470 Y46.6258
G01 X124.6208 Y46.6386
G01 X124.5953 Y46.6526
G01 X124.5704 Y46.6678
G01 X124.5463 Y46.6841
G01 X124.5229 Y46.7015
G01 X124.5004 Y46.7201
G01 X124.4788 Y46.7396
G01 X124.4581 Y46.7601
G01 X124.4578 Y46.7691
G01 X124.4580 Y46.7781
G01 X124.4587 Y46.7871
G01 X124.4601 Y46.7960
G01 X124.4619 Y46.8048
G01 X124.4643 Y46.8135
G01 X124.4672 Y46.8220
G01 X124.4707 Y46.8303
G01 X124.5594 Y46.8817
G01 X124.6513 Y46.9272
G01 X124.7460 Y46.9667
G01 X124.8430 Y46.9999
G01 X124.9420 Y47.0269
G01 X125.0425 Y47.0473
G01 X125.1441 Y47.0613
G01 X125.2464 Y47.0686
G01 X125.9476 Y47.1900
G01 X126.6457 Y47.3278
G01 X127.3405 Y47.4818
G01 X128.0315 Y47.6520
G01 X128.7183 Y47.8383
G01 X129.4005 Y48.0405
G01 X130.0779 Y48.2586
G01 X130.7500 Y48.4925
G01 X131.5514 Y48.8451
G01 X132.3396 Y49.2262
G01 X133.1137 Y49.6353
G01 X133.8726 Y50.0720
G01 X134.0062 Y49.9185
G00 Z5.0000


;No. 5: Hole 44
G00 X135.5111 Y56.5738 Z5.0000
G00 Z0.5000
G01 Z0.0000 F400
G01 Z-1.3000
G01 X130.1760 F1000
G01 X128.7669 Y58.0738
G01 X136.8618
G01 X137.2001 Y59.5738
G01 X128.4156
G01 X128.7667 Y61.0738
G01 X136.8620
G01 X135.5110 Y62.5738
G01 X130.1760
G01 X130.0430 Y62.7254
G01 X130.3511 Y62.9129
G01 X130.6717 Y63.0782
G01 X131.0032 Y63.2204
G01 X131.3439 Y63.3389
G01 X131.6921 Y63.4329
G01 X132.0461 Y63.5021
G01 X132.4041 Y63.5462
G01 X132.7644 Y63.5648
G01 X133.1250 Y63.5579
G01 X133.4842 Y63.5256
G01 X133.8403 Y63.4680
G01 X134.1914 Y63.3853
G01 X134.5358 Y63.2781
G01 X134.8717 Y63.1467
G01 X135.1976 Y62.9920
G01 X135.5117 Y62.8146
G01 X135.7302 Y62.6726
G01 X135.9390 Y62.5166
G01 X136.1372 Y62.3472
G01 X136.3240 Y62.1653
G01 X136.4984 Y61.9716
G01 X136.6598 Y61.7670
G01 X136.8076 Y61.5522
G01 X136.9409 Y61.3282
G01 X137.0594 Y61.0960
G01 X137.1625 Y60.8566
G01 X137.2497 Y60.6110
G01 X137.3207 Y60.3601
G01 X137.3796 Y60.0202
G01 X137.4060 Y59.6763
G01 X137.3996 Y59.3314
G01 X137.3607 Y58.9886
G01 X137.2895 Y58.6511
G01 X137.1866 Y58.3218
G01 X137.0530 Y58.0038
G01 X136.8899 Y57.6998
G01 X136.6987 Y57.4127
G01 X136.4812 Y57.1449
G01 X136.2393 Y56.8990
G01 X135.9752 Y56.6770
G01 X135.6586 Y56.4416
G01 X135.3244 Y56.2320
G01 X134.9747 Y56.0493
G01 X134.6117 Y55.8948
G01 X134.2376 Y55.7695
G01 X133.8548 Y55.6740
G01 X133.4657 Y55.6091
G01 X133.0727 Y55.5751
G01 X132.6782 Y55.5722
G01 X132.2847 Y55.6004
G01 X131.8946 Y55.6596
G01 X131.5104 Y55.7494
G01 X131.2074 Y55.8400
G01 X130.9110 Y55.9505
G01 X130.6226 Y56.0804
G01 X130.3435 Y56.2291
G01 X130.0747 Y56.3960
G01 X129.8177 Y56.5803
G01 X129.5734 Y56.7812
G01 X129.3429 Y56.9978
G01 X129.1273 Y57.2293
G01 X128.9276 Y57.4745
G01 X128.7445 Y57.7324
G01 X128.5788 Y58.0019
G01 X128.4569 Y58.2765
G01 X128.3586 Y58.5604
G01 X128.2848 Y58.8516
G01 X128.2358 Y59.1480
G01 X128.2122 Y59.4475
G01 X128.2140 Y59.7480
G01 X128.2412 Y60.0472
G01 X128.2937 Y60.3430
G01 X128.3711 Y60.6333
G01 X128.4727 Y60.9160
G01 X128.5980 Y61.1891
G01 X128.7459 Y61.4506
G01 X128.9154 Y61.6986
G01 X129.1054 Y61.9314
G01 X129.3143 Y62.1472
G01 X129.5408 Y62.3446
G01 X129.6623 Y62.4451
G01 X129.7865 Y62.5421
G01 X129.9134 Y62.6356
G01 X130.0430 Y62.7254
G01 X130.1760 Y62.5738
G00 Z5.0000


;No. 6: Hole 45
G00 X150.1645 Y46.0674 Z5.0000
G00 Z0.5000
G01 Z0.0000 F400
G01 Z-1.3000
G01 X155.8018 F1000
G01 X154.7175 Y44.5674
G01 X149.1006
G01 X148.2601 Y43.0674
G01 X153.9449
G01 X153.3843 Y41.5674
G01 X147.6011
G01 X147.0769 Y40.0674
G01 X153.0123
G01 X152.8021 Y38.5674
G01 X146.6696
G01 X146.3832 Y37.0674
G01 X152.7327
G01 X152.7849 Y35.5674
G01 X146.2059
G01 X146.1272 Y34.0674
G01 X152.9601
G01 X153.2761 Y32.5674
G01 X146.1416
G01 X146.2611 Y31.0674
G01 X153.7564
G01 X154.4316 Y29.5674
G01 X146.4984
G01 X146.8681 Y28.0674
G01 X155.3441
G01 X156.5478 Y26.5674
G01 X147.3871
G01 X148.0620 Y25.0674
G01 X158.1697
G01 Y23.5674
G01 X160.8302
G01 X148.9200
G01 X150.0176 Y22.0674
G01 X172.9728
G01 X173.9033 Y23.5674
G01 X168.8760
G01 X171.5491 Y25.0674
G01 X174.6334
G01 X175.1601 Y26.5674
G01 X173.2187
G01 X174.4179 Y28.0674
G01 X175.4481
G00 Z5.0000
G00 X171.7769 Y22.0674
G00 Z0.5000
G01 Z-1.3000 F400
G01 Y20.5674 F1000
G01 X151.4312
G01 X153.3041 Y19.0674
G01 X170.1387
G01 X167.5832 Y17.5674
G01 X156.1391
G00 Z5.0000
G00 X151.5125 Y46.0674
G00 Z0.5000
G01 Z-1.3000 F400
G01 Y47.5674 F1000
G01 X157.4330
G01 Y49.0674
G01 X161.4953
G01 X153.3367
G01 X156.0723 Y50.5674
G01 X167.3903
G01 Y49.0674
G01 X162.5433
G01 X173.0343
G01 X173.6113 Y47.5674
G01 X165.8512
G01 X166.6285
G01 Y46.0674
G01 X173.8973
G01 X173.8614 Y44.5674
G01 X166.6584
G01 X165.9281 Y43.0674
G01 X173.4727
G01 X172.6811 Y41.5674
G01 X163.3473
G01 X161.2662 Y40.0674
G01 X171.3300
G01 X168.7712 Y38.5674
G01 X163.4575
G01 X160.4581 Y41.5674
G01 X162.2561
G00 Z5.0000
G00 X170.6827 Y49.0674
G00 Z0.5000
G01 Z-1.3000 F400
G01 Y50.5674 F1000
G01 X171.9706
G01 X172.0806 Y50.7372
G01 X172.3265 Y50.4762
G01 X172.5570 Y50.2015
G01 X172.7713 Y49.9140
G01 X172.9688 Y49.6147
G01 X173.1488 Y49.3045
G01 X173.3107 Y48.9846
G01 X173.4540 Y48.6558
G01 X173.5782 Y48.3194
G01 X173.7024 Y47.9848
G01 X173.8107 Y47.6448
G01 X173.9029 Y47.3000
G01 X173.9789 Y46.9512
G01 X174.0383 Y46.5993
G01 X174.0811 Y46.2449
G01 X174.1072 Y45.8889
G01 X174.1166 Y45.5321
G01 X174.1091 Y45.1753
G01 X174.0849 Y44.8192
G01 X174.0440 Y44.4646
G01 X173.9864 Y44.1124
G01 X173.9145 Y43.8030
G01 X173.8295 Y43.4969
G01 X173.7315 Y43.1948
G01 X173.6207 Y42.8970
G01 X173.4973 Y42.6043
G01 X173.3616 Y42.3171
G01 X173.2138 Y42.0360
G01 X173.0541 Y41.7613
G01 X173.0610 Y41.7718
G01 X172.7758 Y41.3472
G01 X172.4648 Y40.9409
G01 X172.1293 Y40.5547
G01 X171.7706 Y40.1900
G01 X171.3899 Y39.8482
G01 X170.9889 Y39.5307
G01 X170.5689 Y39.2385
G01 X170.1317 Y38.9729
G01 X169.6789 Y38.7348
G01 X169.2122 Y38.5253
G01 X168.7334 Y38.3450
G01 X168.2444 Y38.1947
G01 X167.7471 Y38.0749
G01 X167.2433 Y37.9862
G01 X166.7349 Y37.9288
G01 X166.2240 Y37.9029
G01 X165.7124 Y37.9088
G01 X165.2022 Y37.9462
G01 X164.6953 Y38.0152
G01 X164.1937 Y38.1154
G01 X163.7864 Y38.2270
G01 X163.3878 Y38.3666
G01 X162.9999 Y38.5334
G01 X162.6245 Y38.7269
G01 X162.2634 Y38.9459
G01 X161.9184 Y39.1895
G01 X161.5912 Y39.4564
G01 X161.2833 Y39.7454
G01 X161.0204 Y40.0324
G01 X160.7846 Y40.3420
G01 X160.5780 Y40.6718
G01 X160.4022 Y41.0189
G01 X160.3656 Y41.1069
G01 X160.3335 Y41.1966
G01 X160.3059 Y41.2878
G01 X160.2829 Y41.3803
G01 X160.2646 Y41.4738
G01 X160.2510 Y41.5682
G01 X160.2421 Y41.6630
G01 X160.2380 Y41.7582
G01 X160.2387 Y41.8535
G01 X160.2442 Y41.9486
G01 X160.2544 Y42.0434
G01 X160.2693 Y42.1375
G01 X160.2832 Y42.1694
G01 X160.2990 Y42.2004
G01 X160.3168 Y42.2303
G01 X160.3365 Y42.2590
G01 X160.3622 Y42.2700
G01 X160.3884 Y42.2794
G01 X160.4152 Y42.2870
G01 X160.4425 Y42.2929
G01 X160.4701 Y42.2970
G01 X160.4978 Y42.2993
G01 X160.5257 Y42.2999
G01 X160.5536 Y42.2987
G01 X160.5813 Y42.2956
G01 X160.6087 Y42.2908
G01 X160.6358 Y42.2843
G01 X160.6625 Y42.2760
G01 X160.6885 Y42.2660
G01 X160.7138 Y42.2544
G01 X160.7384 Y42.2411
G01 X160.7620 Y42.2263
G01 X161.0482 Y42.1218
G01 X161.3360 Y42.0218
G01 X161.6254 Y41.9264
G01 X161.9162 Y41.8355
G01 X162.2131 Y41.7767
G01 X162.5138 Y41.7420
G01 X162.8163 Y41.7316
G01 X163.1187 Y41.7454
G01 X163.4190 Y41.7835
G01 X163.7152 Y41.8455
G01 X164.0056 Y41.9311
G01 X164.2881 Y42.0398
G01 X164.5610 Y42.1707
G01 X164.8225 Y42.3232
G01 X165.0709 Y42.4961
G01 X165.3046 Y42.6884
G01 X165.5222 Y42.8989
G01 X165.7222 Y43.1261
G01 X165.9032 Y43.3687
G01 X166.0643 Y43.6250
G01 X166.2042 Y43.8934
G01 X166.3222 Y44.1721
G01 X166.4174 Y44.4594
G01 X166.4892 Y44.7535
G01 X166.5219 Y45.0947
G01 X166.5197 Y45.4375
G01 X166.4825 Y45.7782
G01 X166.4108 Y46.1134
G01 X166.3053 Y46.4396
G01 X166.1670 Y46.7532
G01 X165.9975 Y47.0512
G01 X165.7986 Y47.3303
G01 X165.5721 Y47.5877
G01 X165.3207 Y47.8206
G01 X165.0468 Y48.0267
G01 X164.7533 Y48.2038
G01 X164.3595 Y48.3994
G01 X163.9517 Y48.5639
G01 X163.5325 Y48.6962
G01 X163.1042 Y48.7957
G01 X162.6695 Y48.8617
G01 X162.2310 Y48.8938
G01 X161.7913 Y48.8918
G01 X161.3531 Y48.8558
G01 X160.8481 Y48.7853
G01 X160.3486 Y48.6831
G01 X159.8564 Y48.5496
G01 X159.3737 Y48.3854
G01 X158.9022 Y48.1911
G01 X158.4440 Y47.9675
G01 X158.0007 Y47.7155
G01 X157.5742 Y47.4361
G01 X157.1661 Y47.1303
G01 X156.7782 Y46.7994
G01 X156.4118 Y46.4448
G01 X156.0685 Y46.0678
G01 X155.7429 Y45.6704
G01 X155.4336 Y45.2602
G01 X155.1411 Y44.8379
G01 X154.8659 Y44.4041
G01 X154.6083 Y43.9596
G01 X154.3688 Y43.5051
G01 X154.1479 Y43.0414
G01 X153.9458 Y42.5691
G01 X153.7629 Y42.0890
G01 X153.5995 Y41.6020
G01 X153.4559 Y41.1087
G01 X153.3322 Y40.6101
G01 X153.2136 Y40.0228
G01 X153.1156 Y39.4317
G01 X153.0384 Y38.8375
G01 X152.9820 Y38.2410
G01 X152.9466 Y37.6429
G01 X152.9322 Y37.0439
G01 X152.9387 Y36.4447
G01 X152.9662 Y35.8462
G01 X153.0147 Y35.2490
G01 X153.0841 Y34.6538
G01 X153.1743 Y34.0615
G01 X153.2851 Y33.4727
G01 X153.4166 Y32.8881
G01 X153.5684 Y32.3085
G01 X153.7404 Y31.7345
G01 X153.9325 Y31.1670
G01 X154.1886 Y30.5389
G01 X154.4755 Y29.9242
G01 X154.7925 Y29.3245
G01 X155.1387 Y28.7412
G01 X155.5134 Y28.1757
G01 X155.9156 Y27.6295
G01 X156.3443 Y27.1038
G01 X156.7985 Y26.6000
G01 X157.2770 Y26.1193
G01 X157.7788 Y25.6628
G01 X158.3025 Y25.2317
G01 X158.8468 Y24.8270
G01 X159.2879 Y24.5523
G01 X159.7414 Y24.2987
G01 X160.2064 Y24.0668
G01 X160.6818 Y23.8572
G01 X161.1666 Y23.6704
G01 X161.6598 Y23.5066
G01 X162.1601 Y23.3664
G01 X162.6665 Y23.2500
G01 X163.1778 Y23.1577
G01 X163.6929 Y23.0896
G01 X164.2107 Y23.0461
G01 X164.7299 Y23.0270
G01 X165.2495 Y23.0325
G01 X165.7682 Y23.0627
G01 X166.2850 Y23.1173
G01 X166.7985 Y23.1963
G01 X167.3078 Y23.2994
G01 X167.8116 Y23.4266
G01 X168.3088 Y23.5775
G01 X168.7983 Y23.7517
G01 X169.3574 Y23.9966
G01 X169.9035 Y24.2693
G01 X170.4353 Y24.5691
G01 X170.9514 Y24.8951
G01 X171.4505 Y25.2466
G01 X171.9313 Y25.6226
G01 X172.3927 Y26.0223
G01 X172.8335 Y26.4446
G01 X173.2525 Y26.8885
G01 X173.6488 Y27.3528
G01 X174.0213 Y27.8364
G01 X174.3690 Y28.3380
G01 X174.4303 Y28.4320
G01 X174.4978 Y28.5217
G01 X174.5713 Y28.6065
G01 X174.6503 Y28.6862
G01 X174.7345 Y28.7603
G01 X174.8235 Y28.8286
G01 X174.9170 Y28.8907
G01 X175.0145 Y28.9464
G01 X175.0375 Y28.9557
G01 X175.0610 Y28.9639
G01 X175.0848 Y28.9709
G01 X175.1090 Y28.9767
G01 X175.1334 Y28.9814
G01 X175.1580 Y28.9848
G01 X175.1828 Y28.9870
G01 X175.2076 Y28.9880
G01 X175.1959 Y28.9885
G01 X175.2221 Y28.9933
G01 X175.2485 Y28.9964
G01 X175.2751 Y28.9977
G01 X175.3018 Y28.9973
G01 X175.3283 Y28.9951
G01 X175.3546 Y28.9912
G01 X175.3806 Y28.9856
G01 X175.4062 Y28.9782
G01 X175.4313 Y28.9692
G01 X175.4557 Y28.9586
G01 X175.4793 Y28.9463
G01 X175.5021 Y28.9326
G01 X175.5240 Y28.9173
G01 X175.5448 Y28.9007
G01 X175.5644 Y28.8828
G01 X175.5828 Y28.8635
G01 X175.6164 Y28.7516
G01 X175.6424 Y28.6377
G01 X175.6609 Y28.5224
G01 X175.6717 Y28.4060
G01 X175.6748 Y28.2893
G01 X175.6701 Y28.1725
G01 X175.6577 Y28.0563
G01 X175.6376 Y27.9412
G01 X175.5415 Y27.3758
G01 X175.4194 Y26.8154
G01 X175.2717 Y26.2612
G01 X175.0987 Y25.7143
G01 X174.9007 Y25.1760
G01 X174.6782 Y24.6474
G01 X174.4316 Y24.1295
G01 X174.1615 Y23.6235
G01 X173.8801 Y23.1018
G01 X173.5769 Y22.5924
G01 X173.2526 Y22.0962
G01 X172.9077 Y21.6141
G01 X172.5428 Y21.1469
G01 X172.1586 Y20.6956
G01 X171.7557 Y20.2607
G01 X171.3348 Y19.8433
G01 X170.8968 Y19.4439
G01 X170.4423 Y19.0633
G01 X169.9722 Y18.7021
G01 X169.4874 Y18.3611
G01 X168.9584 Y18.0431
G01 X168.4151 Y17.7500
G01 X167.8589 Y17.4825
G01 X167.2907 Y17.2412
G01 X166.7120 Y17.0266
G01 X166.1239 Y16.8392
G01 X165.5277 Y16.6794
G01 X164.9247 Y16.5476
G01 X164.3162 Y16.4439
G01 X163.7035 Y16.3687
G01 X163.0880 Y16.3221
G01 X162.4710 Y16.3042
G01 X161.8576 Y16.2899
G01 X161.2440 Y16.2999
G01 X160.6313 Y16.3342
G01 X160.0204 Y16.3927
G01 X159.4124 Y16.4754
G01 X158.8081 Y16.5820
G01 X158.2084 Y16.7125
G01 X157.6145 Y16.8666
G01 X157.0270 Y17.0441
G01 X156.4471 Y17.2447
G01 X155.8756 Y17.4681
G01 X155.3133 Y17.7140
G01 X154.7612 Y17.9819
G01 X154.2202 Y18.2714
G01 X153.6910 Y18.5821
G01 X153.1745 Y18.9136
G01 X152.6314 Y19.3048
G01 X152.1047 Y19.7179
G01 X151.5952 Y20.1521
G01 X151.1039 Y20.6067
G01 X150.6315 Y21.0810
G01 X150.1789 Y21.5741
G01 X149.7467 Y22.0853
G01 X149.3357 Y22.6137
G01 X148.9467 Y23.1584
G01 X148.5801 Y23.7185
G01 X148.2367 Y24.2931
G01 X147.9170 Y24.8812
G01 X147.6216 Y25.4819
G01 X147.3509 Y26.0941
G01 X147.1054 Y26.7168
G01 X146.8855 Y27.3491
G01 X146.6788 Y28.0345
G01 X146.4961 Y28.7267
G01 X146.3378 Y29.4249
G01 X146.2040 Y30.1282
G01 X146.0948 Y30.8357
G01 X146.0105 Y31.5466
G01 X145.9510 Y32.2600
G01 X145.9166 Y32.9751
G01 X145.9071 Y33.6910
G01 X145.9228 Y34.4067
G01 X145.9634 Y35.1214
G01 X146.0290 Y35.8343
G01 X146.1124 Y36.5863
G01 X146.2230 Y37.3349
G01 X146.3605 Y38.0789
G01 X146.5249 Y38.8174
G01 X146.7159 Y39.5496
G01 X146.9332 Y40.2743
G01 X147.1765 Y40.9908
G01 X147.4456 Y41.6979
G01 X147.7401 Y42.3949
G01 X148.0596 Y43.0808
G01 X148.4037 Y43.7546
G01 X148.7719 Y44.4156
G01 X149.1493 Y45.0260
G01 X149.5550 Y45.6180
G01 X149.9880 Y46.1903
G01 X150.4474 Y46.7417
G01 X150.9322 Y47.2708
G01 X151.4413 Y47.7766
G01 X151.9737 Y48.2580
G01 X152.5280 Y48.7137
G01 X153.1031 Y49.1430
G01 X153.6978 Y49.5448
G01 X154.3107 Y49.9182
G01 X154.9404 Y50.2623
G01 X155.5836 Y50.5652
G01 X156.2404 Y50.8371
G01 X156.9094 Y51.0775
G01 X157.5890 Y51.2859
G01 X158.2778 Y51.4618
G01 X158.9741 Y51.6047
G01 X159.6765 Y51.7144
G01 X160.3833 Y51.7906
G01 X161.0929 Y51.8332
G01 X161.8037 Y51.8420
G01 X162.5142 Y51.8170
G01 X163.2226 Y51.7583
G01 X163.9275 Y51.6660
G01 X164.6272 Y51.5403
G01 X165.3201 Y51.3816
G01 X166.0047 Y51.1901
G01 X166.5616 Y51.0039
G01 X167.1240 Y50.8347
G01 X167.6912 Y50.6826
G01 X168.2627 Y50.5478
G01 X168.5779 Y50.4909
G01 X168.8967 Y50.4601
G01 X169.2170 Y50.4555
G01 X169.5365 Y50.4774
G01 X169.8532 Y50.5254
G01 X170.1648 Y50.5992
G01 X170.4694 Y50.6984
G01 X170.7647 Y50.8224
G01 X170.8333 Y50.8587
G01 X170.9030 Y50.8929
G01 X170.9737 Y50.9249
G01 X171.0454 Y50.9545
G01 X171.1180 Y50.9819
G01 X171.1915 Y51.0070
G01 X171.2657 Y51.0298
G01 X171.3406 Y51.0502
G01 X171.3773 Y51.0568
G01 X171.4143 Y51.0613
G01 X171.4515 Y51.0634
G01 X171.4888 Y51.0632
G01 X171.5260 Y51.0608
G01 X171.5630 Y51.0560
G01 X171.5996 Y51.0490
G01 X171.6357 Y51.0398
G01 X171.6712 Y51.0283
G01 X171.7059 Y51.0147
G01 X171.7397 Y50.9990
G01 X171.7725 Y50.9812
G01 X171.8041 Y50.9615
G01 X171.8345 Y50.9398
G01 X171.8634 Y50.9163
G01 X171.8909 Y50.8911
G01 X171.9399 Y50.8546
G01 X171.9879 Y50.8167
G01 X172.0348 Y50.7776
G01 X172.0806 Y50.7372
G01 X171.9706 Y50.5674
G00 Z5.0000


;No. 7: Hole 46
G00 X184.3396 Y50.9823 Z5.0000
G00 Z0.5000
G01 Z0.0000 F400
G01 Z-1.3000
G01 X192.5813 F1000
G01 Y49.4823
G01 X184.3396
G01 Y47.9823
G01 X192.5813
G01 Y46.4823
G01 X184.3396
G01 Y44.9823
G01 X192.5813
G01 Y43.4823
G01 X195.3290
G01 X184.3396
G01 Y41.9823
G01 X194.3070
G01 X193.6128 Y40.4823
G01 X184.3396
G01 Y38.9823
G01 X193.1365
G01 X192.8269 Y37.4823
G01 X184.3396
G01 Y35.9823
G01 X192.6505
G01 X192.5833 Y34.4823
G01 X184.3396
G01 Y32.9823
G01 X192.5813
G01 Y31.4823
G01 X184.3396
G01 Y29.9823
G01 X192.5813
G01 Y28.4823
G01 X184.3396
G01 Y26.9823
G01 X192.5813
G01 Y25.4823
G01 X184.3396
G01 X184.3234 Y23.9823
G01 X192.5829
G01 X192.6437 Y22.4823
G01 X184.2457
G01 X184.0456 Y20.9823
G01 X192.8919
G01 X193.5728 Y19.4823
G01 X183.4802
G01 Y17.9823
G01 X182.0208
G01 X195.0685
G00 Z5.0000
G00 X195.2264 Y43.4823
G00 Z0.5000
G01 Z-1.3000 F400
G01 Y44.9823 F1000
G01 X197.0284
G01 X196.3678 Y46.4823
G01 X213.7814
G01 X213.8482 Y44.9823
G01 X203.7210
G01 X205.0988
G01 Y43.4823
G01 X213.5865
G01 X213.0075 Y41.9823
G01 X205.6584
G01 X205.7410 Y40.4823
G01 X212.0492
G01 X210.6713 Y38.9823
G01 X205.3934
G01 X204.5406 Y37.4823
G01 X208.7665
G01 X206.0270 Y35.9823
G01 X203.0814
G01 X203.9617 Y34.4823
G01 X200.9249
G01 X198.0068 Y32.9823
G01 X205.4213
G01 X208.6983 Y31.4823
G01 X198.4514
G01 X201.3362
G01 Y29.9823
G01 X210.1520
G01 X211.0182 Y28.4823
G01 X202.5427
G01 X203.2903 Y26.9823
G01 X211.6989
G01 X212.2930 Y25.4823
G01 X203.8462
G01 X204.3438 Y23.9823
G01 X212.8332
G01 X213.4405 Y22.4823
G01 X204.8059
G01 X205.2382 Y20.9823
G01 X214.1936
G01 X215.3279 Y19.4823
G01 X205.6451
G01 X206.1040 Y17.9823
G01 X217.4515
G00 Z5.0000
G00 X213.3021 Y46.4823
G00 Z0.5000
G01 Z-1.3000 F400
G01 Y47.9823 F1000
G01 X197.8158
G01 X199.7622 Y49.4823
G01 X212.2286
G01 X209.9935 Y50.9823
G01 X202.8196
G00 Z5.0000
G00 X192.5813
G00 Z0.5000
G01 Z-1.3000 F400
G01 Y52.4823 F1000
G01 X184.3396
G01 Y53.9823
G01 X192.5813
G01 Y55.4823
G01 X184.3396
G01 Y56.9823
G01 X192.5813
G01 Y58.4823
G01 X184.3396
G01 X184.3086 Y59.9823
G01 X192.5813
G01 Y61.4823
G01 X184.1616
G01 X183.7107 Y62.9823
G01 X192.5813
G01 Y64.4823
G01 X182.2766
G01 X184.1220 Y65.9823
G01 X192.5813
G01 Y67.4823
G01 X188.2652
G01 X190.9099 Y68.9823
G01 X192.5813
G01 X192.7813 Y68.9010
G01 Y44.9641
G01 X192.7857 Y44.8778
G01 X192.7974 Y44.7922
G01 X192.8164 Y44.7079
G01 X192.8425 Y44.6256
G01 X192.8756 Y44.5458
G01 X192.9154 Y44.4691
G01 X192.9616 Y44.3960
G01 X193.0138 Y44.3272
G01 X193.0718 Y44.2631
G01 X193.1350 Y44.2042
G01 X193.2030 Y44.1510
G01 X193.2753 Y44.1037
G01 X193.3514 Y44.0628
G01 X193.4308 Y44.0285
G01 X193.5127 Y44.0012
G01 X193.5967 Y43.9809
G01 X193.6821 Y43.9679
G01 X193.7683 Y43.9622
G01 X193.8547 Y43.9640
G01 X193.9406 Y43.9731
G01 X194.0255 Y43.9895
G01 X194.1086 Y44.0131
G01 X194.1894 Y44.0438
G01 X194.2673 Y44.0812
G01 X194.3416 Y44.1251
G01 X194.4120 Y44.1753
G01 X194.4778 Y44.2312
G01 X194.5386 Y44.2926
G01 X194.5940 Y44.3590
G01 X194.6434 Y44.4299
G01 X194.6866 Y44.5047
G01 X194.7233 Y44.5829
G01 X195.0402 Y45.0795
G01 X195.3753 Y45.5640
G01 X195.7280 Y46.0359
G01 X196.0979 Y46.4944
G01 X196.4845 Y46.9389
G01 X196.8873 Y47.3688
G01 X197.3056 Y47.7836
G01 X197.7390 Y48.1826
G01 X198.1868 Y48.5654
G01 X198.6484 Y48.9314
G01 X199.1233 Y49.2801
G01 X199.6107 Y49.6110
G01 X200.1100 Y49.9236
G01 X200.6204 Y50.2177
G01 X201.1414 Y50.4926
G01 X201.6722 Y50.7482
G01 X202.1219 Y50.9431
G01 X202.5795 Y51.1186
G01 X203.0442 Y51.2744
G01 X203.5152 Y51.4102
G01 X203.9915 Y51.5256
G01 X204.4723 Y51.6206
G01 X204.9568 Y51.6949
G01 X205.4440 Y51.7484
G01 X205.9330 Y51.7811
G01 X206.4230 Y51.7927
G01 X206.9130 Y51.7834
G01 X207.4022 Y51.7531
G01 X207.8896 Y51.7019
G01 X208.3744 Y51.6300
G01 X208.8557 Y51.5373
G01 X209.3325 Y51.4241
G01 X209.6947 Y51.3153
G01 X210.0500 Y51.1857
G01 X210.3972 Y51.0359
G01 X210.7352 Y50.8663
G01 X211.0628 Y50.6775
G01 X211.3791 Y50.4702
G01 X211.6828 Y50.2449
G01 X211.9730 Y50.0025
G01 X212.2488 Y49.7438
G01 X212.5092 Y49.4696
G01 X212.7534 Y49.1808
G01 X212.9805 Y48.8785
G01 X213.1898 Y48.5635
G01 X213.3806 Y48.2370
G01 X213.5522 Y47.9000
G01 X213.7041 Y47.5538
G01 X213.8195 Y47.1722
G01 X213.9128 Y46.7846
G01 X213.9836 Y46.3922
G01 X214.0319 Y45.9965
G01 X214.0573 Y45.5987
G01 X214.0598 Y45.2000
G01 X214.0394 Y44.8019
G01 X213.9961 Y44.4056
G01 X213.9302 Y44.0124
G01 X213.8418 Y43.6236
G01 X213.7313 Y43.2406
G01 X213.5989 Y42.8646
G01 X213.3972 Y42.3654
G01 X213.1683 Y41.8781
G01 X212.9129 Y41.4042
G01 X212.6318 Y40.9450
G01 X212.3257 Y40.5021
G01 X211.9957 Y40.0767
G01 X211.6428 Y39.6701
G01 X211.2680 Y39.2837
G01 X210.8084 Y38.8486
G01 X210.3333 Y38.4307
G01 X209.8434 Y38.0303
G01 X209.3391 Y37.6480
G01 X208.8213 Y37.2843
G01 X208.2905 Y36.9397
G01 X207.7476 Y36.6147
G01 X207.1932 Y36.3096
G01 X206.6280 Y36.0250
G01 X206.0529 Y35.7611
G01 X205.4685 Y35.5184
G01 X204.8757 Y35.2971
G01 X204.7858 Y35.2661
G01 X204.6992 Y35.2267
G01 X204.6166 Y35.1793
G01 X204.5390 Y35.1243
G01 X204.4668 Y35.0623
G01 X204.4009 Y34.9937
G01 X204.3417 Y34.9193
G01 X204.2898 Y34.8395
G01 X204.2456 Y34.7552
G01 X204.2096 Y34.6672
G01 X204.1821 Y34.5761
G01 X204.1633 Y34.4828
G01 X204.1534 Y34.3882
G01 X204.1524 Y34.2930
G01 X204.1604 Y34.1982
G01 X204.1774 Y34.1046
G01 X204.2031 Y34.0130
G01 X204.2373 Y33.9242
G01 X204.2798 Y33.8391
G01 X204.3301 Y33.7583
G01 X204.3878 Y33.6827
G01 X204.4524 Y33.6128
G01 X204.5232 Y33.5493
G01 X204.5998 Y33.4928
G01 X204.6813 Y33.4438
G01 X204.7672 Y33.4027
G01 X204.8565 Y33.3699
G01 X204.9485 Y33.3456
G01 X205.4576 Y33.1921
G01 X205.9611 Y33.0208
G01 X206.4583 Y32.8321
G01 X206.9487 Y32.6261
G01 X207.4315 Y32.4031
G01 X207.9062 Y32.1635
G01 X208.3723 Y31.9073
G01 X208.8292 Y31.6351
G01 X209.1716 Y31.3553
G01 X209.4968 Y31.0557
G01 X209.8037 Y30.7374
G01 X210.0911 Y30.4014
G01 X210.3582 Y30.0490
G01 X210.6039 Y29.6813
G01 X210.8274 Y29.2998
G01 X211.0279 Y28.9057
G01 X211.3264 Y28.2827
G01 X211.6144 Y27.6548
G01 X211.8918 Y27.0222
G01 X212.1586 Y26.3850
G01 X212.4148 Y25.7435
G01 X212.6601 Y25.0977
G01 X212.8946 Y24.4480
G01 X213.1182 Y23.7943
G01 X213.2822 Y23.3547
G01 X213.4590 Y22.9200
G01 X213.6486 Y22.4907
G01 X213.8507 Y22.0672
G01 X214.0651 Y21.6498
G01 X214.2917 Y21.2389
G01 X214.5302 Y20.8348
G01 X214.7806 Y20.4378
G01 X215.1006 Y20.0414
G01 X215.4458 Y19.6666
G01 X215.8146 Y19.3150
G01 X216.2054 Y18.9882
G01 X216.6168 Y18.6875
G01 X217.0467 Y18.4142
G01 X217.4936 Y18.1694
G01 X217.9554 Y17.9542
G01 X218.1242 Y17.8678
G01 X218.2914 Y17.7785
G01 X218.4570 Y17.6863
G01 X218.6210 Y17.5913
G01 X218.6286 Y17.5807
G01 X218.6323 Y17.5485
G01 X218.6350 Y17.5161
G01 X218.6366 Y17.4837
G01 X218.6372 Y17.4512
G01 X218.6376 Y17.4625
G01 X218.6429 Y17.4396
G01 X218.6465 Y17.4164
G01 X218.6483 Y17.3930
G01 X218.6484 Y17.3696
G01 X218.6467 Y17.3462
G01 X218.6433 Y17.3230
G01 X218.6382 Y17.3001
G01 X218.6314 Y17.2776
G01 X218.6229 Y17.2557
G01 X218.6128 Y17.2346
G01 X218.6012 Y17.2142
G01 X218.5881 Y17.1947
G01 X218.5735 Y17.1763
G01 X218.5577 Y17.1591
G01 X218.5405 Y17.1430
G01 X218.5223 Y17.1283
G01 X218.4075 Y17.0781
G01 X218.2898 Y17.0355
G01 X218.1695 Y17.0007
G01 X218.0472 Y16.9738
G01 X217.9233 Y16.9549
G01 X217.7986 Y16.9442
G01 X217.6734 Y16.9417
G01 X217.5483 Y16.9473
G01 X208.2307
G01 X208.0087 Y16.9397
G01 X207.7866 Y16.9440
G01 X207.5650 Y16.9600
G01 X207.3446 Y16.9877
G01 X207.1260 Y17.0271
G01 X206.9098 Y17.0780
G01 X206.6966 Y17.1403
G01 X206.4870 Y17.2138
G01 X206.4122 Y17.2642
G01 X206.3407 Y17.3191
G01 X206.2726 Y17.3782
G01 X206.2082 Y17.4414
G01 X206.1478 Y17.5083
G01 X206.0916 Y17.5789
G01 X206.0398 Y17.6527
G01 X205.9926 Y17.7295
G01 X205.9501 Y17.8090
G01 X205.9125 Y17.8910
G01 X205.8800 Y17.9751
G01 X205.8527 Y18.0611
G01 X205.6853 Y18.5957
G01 X205.5277 Y19.1333
G01 X205.3798 Y19.6736
G01 X205.2417 Y20.2166
G01 X205.0149 Y21.0521
G01 X204.7779 Y21.8848
G01 X204.5308 Y22.7145
G01 X204.2735 Y23.5412
G01 X204.0061 Y24.3646
G01 X203.7286 Y25.1847
G01 X203.4411 Y26.0014
G01 X203.1436 Y26.8144
G01 X202.9897 Y27.1949
G01 X202.8183 Y27.5678
G01 X202.6300 Y27.9324
G01 X202.4250 Y28.2880
G01 X202.2039 Y28.6337
G01 X201.9670 Y28.9689
G01 X201.7149 Y29.2928
G01 X201.4482 Y29.6047
G01 X201.1706 Y29.8447
G01 X200.8812 Y30.0705
G01 X200.5808 Y30.2813
G01 X200.2702 Y30.4768
G01 X199.9501 Y30.6564
G01 X199.6214 Y30.8196
G01 X199.2849 Y30.9661
G01 X198.9414 Y31.0954
G01 X198.4717 Y31.2632
G01 X197.9972 Y31.4173
G01 X197.5185 Y31.5575
G01 X197.0359 Y31.6837
G01 X197.0469 Y31.6804
G01 X196.9617 Y31.6957
G01 X196.8779 Y31.7176
G01 X196.7960 Y31.7458
G01 X196.7165 Y31.7802
G01 X196.6399 Y31.8206
G01 X196.5666 Y31.8667
G01 X196.4971 Y31.9183
G01 X196.4317 Y31.9751
G01 X196.4244 Y32.0062
G01 X196.4192 Y32.0378
G01 X196.4159 Y32.0696
G01 X196.4146 Y32.1016
G01 X196.4153 Y32.1336
G01 X196.4181 Y32.1655
G01 X196.4228 Y32.1971
G01 X196.4295 Y32.2284
G01 X196.4382 Y32.2592
G01 X196.4488 Y32.2894
G01 X196.4613 Y32.3188
G01 X196.4756 Y32.3475
G01 X196.4917 Y32.3751
G01 X196.5095 Y32.4017
G01 X196.5289 Y32.4271
G01 X196.5499 Y32.4513
G01 X196.5724 Y32.4741
G01 X196.5962 Y32.4954
G01 X196.6214 Y32.5152
G01 X196.6477 Y32.5334
G01 X197.0100 Y32.7390
G01 X197.3803 Y32.9295
G01 X197.7582 Y33.1048
G01 X198.1429 Y33.2644
G01 X198.7628 Y33.5472
G01 X199.3739 Y33.8485
G01 X199.9757 Y34.1682
G01 X200.5675 Y34.5058
G01 X201.1490 Y34.8611
G01 X201.7194 Y35.2338
G01 X202.2783 Y35.6235
G01 X202.8253 Y36.0298
G01 X203.1820 Y36.3191
G01 X203.5212 Y36.6289
G01 X203.8414 Y36.9582
G01 X204.1418 Y37.3057
G01 X204.4211 Y37.6703
G01 X204.6785 Y38.0507
G01 X204.9131 Y38.4456
G01 X205.1240 Y38.8537
G01 X205.2726 Y39.2292
G01 X205.3910 Y39.6154
G01 X205.4784 Y40.0097
G01 X205.5343 Y40.4097
G01 X205.5583 Y40.8129
G01 X205.5503 Y41.2167
G01 X205.5103 Y41.6186
G01 X205.4386 Y42.0161
G01 X205.3356 Y42.4066
G01 X205.2020 Y42.7878
G01 X205.0386 Y43.1572
G01 X204.8465 Y43.5124
G01 X204.6616 Y43.7762
G01 X204.4601 Y44.0275
G01 X204.2427 Y44.2653
G01 X204.0104 Y44.4884
G01 X203.7642 Y44.6961
G01 X203.5050 Y44.8873
G01 X203.2339 Y45.0614
G01 X202.9522 Y45.2176
G01 X202.6609 Y45.3552
G01 X202.3614 Y45.4736
G01 X202.0548 Y45.5724
G01 X201.7425 Y45.6512
G01 X201.4257 Y45.7096
G01 X201.1058 Y45.7473
G01 X200.7841 Y45.7642
G01 X200.4620 Y45.7603
G01 X200.0953 Y45.7489
G01 X199.7298 Y45.7165
G01 X199.3668 Y45.6632
G01 X199.0074 Y45.5892
G01 X198.6529 Y45.4947
G01 X198.3044 Y45.3801
G01 X197.9630 Y45.2456
G01 X197.6299 Y45.0918
G01 X197.3062 Y44.9192
G01 X196.9928 Y44.7283
G01 X196.6910 Y44.5197
G01 X196.4016 Y44.2942
G01 X196.1255 Y44.0525
G01 X195.8638 Y43.7954
G01 X195.6173 Y43.5236
G01 X195.3868 Y43.2382
G01 X195.0146 Y42.7237
G01 X194.6711 Y42.1895
G01 X194.3574 Y41.6374
G01 X194.0743 Y41.0690
G01 X193.8228 Y40.4859
G01 X193.6035 Y39.8899
G01 X193.4171 Y39.2829
G01 X193.2642 Y38.6665
G01 X193.1470 Y38.1122
G01 X193.0459 Y37.5548
G01 X192.9610 Y36.9947
G01 X192.8924 Y36.4323
G01 X192.8400 Y35.8682
G01 X192.8040 Y35.3028
G01 X192.7845 Y34.7366
G01 X192.7813 Y34.1701
G01 X192.7585 Y31.5629
G01 X192.7517 Y28.9557
G01 X192.7609 Y26.3484
G01 X192.7861 Y23.7412
G01 X192.7858 Y23.3699
G01 X192.7989 Y22.9989
G01 X192.8252 Y22.6286
G01 X192.8648 Y22.2594
G01 X192.9176 Y21.8919
G01 X192.9835 Y21.5266
G01 X193.0625 Y21.1638
G01 X193.1544 Y20.8041
G01 X193.2745 Y20.4834
G01 X193.4151 Y20.1713
G01 X193.5757 Y19.8689
G01 X193.7557 Y19.5776
G01 X193.9542 Y19.2986
G01 X194.1705 Y19.0331
G01 X194.4035 Y18.7823
G01 X194.6524 Y18.5471
G01 X194.9161 Y18.3287
G01 X195.1934 Y18.1278
G01 X195.4831 Y17.9454
G01 X195.7841 Y17.7822
G01 X195.8813 Y17.7263
G01 X195.9758 Y17.6662
G01 X196.0675 Y17.6018
G01 X196.1562 Y17.5333
G01 X196.2417 Y17.4609
G01 X196.3238 Y17.3847
G01 X196.4025 Y17.3048
G01 X196.4774 Y17.2215
G01 X196.4710 Y17.2312
G01 X196.4875 Y17.2062
G01 X196.4891 Y17.1937
G01 X196.4872 Y17.1825
G01 X196.4038 Y17.1403
G01 X196.3185 Y17.1020
G01 X196.2315 Y17.0677
G01 X196.1430 Y17.0376
G01 X196.0532 Y17.0116
G01 X195.9623 Y16.9899
G01 X195.8705 Y16.9724
G01 X195.7779 Y16.9592
G01 X195.6849 Y16.9504
G01 X195.5915 Y16.9459
G01 X195.4980 Y16.9457
G01 X195.4046 Y16.9500
G01 X195.3153 Y16.9482
G01 X191.9541 Y16.9255
G01 X188.5928 Y16.9180
G01 X185.2315 Y16.9257
G01 X181.8703 Y16.9486
G01 X181.5711 Y16.9466
G01 X181.2730 Y16.9719
G01 X180.9784 Y17.0244
G01 X180.6899 Y17.1035
G01 X180.6830 Y17.1131
G01 X180.6767 Y17.1232
G01 X180.6712 Y17.1337
G01 X180.6665 Y17.1446
G01 X180.6625 Y17.1558
G01 X180.6593 Y17.1672
G01 X180.6570 Y17.1789
G01 X180.6554 Y17.1906
G01 X180.6547 Y17.2025
G01 X180.6548 Y17.2143
G01 X180.6558 Y17.2262
G01 X180.6575 Y17.2379
G01 X180.6601 Y17.2495
G01 X180.6635 Y17.2608
G01 X180.6677 Y17.2720
G01 X180.6726 Y17.2827
G01 X180.6783 Y17.2932
G01 X180.6847 Y17.3031
G01 X180.6918 Y17.3127
G01 X180.6996 Y17.3216
G01 X180.7079 Y17.3301
G01 X180.7168 Y17.3379
G01 X180.7263 Y17.3451
G01 X180.7362 Y17.3516
G01 X180.9546 Y17.5341
G01 X181.1845 Y17.7021
G01 X181.4247 Y17.8548
G01 X181.6744 Y17.9915
G01 X181.9245 Y18.1464
G01 X182.1639 Y18.3172
G01 X182.3917 Y18.5033
G01 X182.6070 Y18.7037
G01 X182.8087 Y18.9178
G01 X182.9961 Y19.1445
G01 X183.1683 Y19.3829
G01 X183.3247 Y19.6321
G01 X183.4645 Y19.8908
G01 X183.5871 Y20.1582
G01 X183.6921 Y20.4329
G01 X183.7790 Y20.7139
G01 X183.8609 Y21.1474
G01 X183.9320 Y21.5827
G01 X183.9921 Y22.0197
