;Project Chickeria2
;Created by Estlcam version 11 build 11,245
;Machining time about 00:19:01 hours

G90
M03 S10000
G00 Z5.0000


;No. 1: Helical drill 4
G00 X21.0624 Y85.4245
G00 Z0.5000
G01 X21.0614 Y85.3817 Z0.4861 F400 S10000
G01 X21.0583 Y85.3390 Z0.4722
G01 X21.0532 Y85.2965 Z0.4583
G01 X21.0461 Y85.2542 Z0.4444
G01 X21.0370 Y85.2124 Z0.4306
G01 X21.0260 Y85.1710 Z0.4167
G01 X21.0129 Y85.1302 Z0.4028
G01 X20.9979 Y85.0901 Z0.3889
G01 X20.9811 Y85.0507 Z0.3750
G01 X20.9624 Y85.0121 Z0.3611
G01 X20.9418 Y84.9745 Z0.3472
G01 X20.9195 Y84.9380 Z0.3333
G01 X20.8955 Y84.9025 Z0.3194
G01 X20.8699 Y84.8682 Z0.3056
G01 X20.8426 Y84.8352 Z0.2917
G01 X20.8138 Y84.8035 Z0.2778
G01 X20.7835 Y84.7732 Z0.2639
G01 X20.7518 Y84.7444 Z0.2500
G01 X20.7188 Y84.7171 Z0.2361
G01 X20.6845 Y84.6914 Z0.2222
G01 X20.6490 Y84.6674 Z0.2083
G01 X20.6124 Y84.6451 Z0.1944
G01 X20.5748 Y84.6246 Z0.1806
G01 X20.5363 Y84.6059 Z0.1667
G01 X20.4969 Y84.5890 Z0.1528
G01 X20.4568 Y84.5740 Z0.1389
G01 X20.4160 Y84.5610 Z0.1250
G01 X20.3746 Y84.5499 Z0.1111
G01 X20.3327 Y84.5408 Z0.0972
G01 X20.2905 Y84.5337 Z0.0833
G01 X20.2480 Y84.5286 Z0.0694
G01 X20.2052 Y84.5256 Z0.0556
G01 X20.1624 Y84.5245 Z0.0417
G01 X20.1196 Y84.5256 Z0.0278
G01 X20.0769 Y84.5286 Z0.0139
G01 X20.0343 Y84.5337 Z0.0000
G01 X19.9921 Y84.5408 Z-0.0139
G01 X19.9502 Y84.5499 Z-0.0278
G01 X19.9088 Y84.5610 Z-0.0417
G01 X19.8680 Y84.5740 Z-0.0556
G01 X19.8279 Y84.5890 Z-0.0694
G01 X19.7885 Y84.6059 Z-0.0833
G01 X19.7500 Y84.6246 Z-0.0972
G01 X19.7124 Y84.6451 Z-0.1111
G01 X19.6758 Y84.6674 Z-0.1250
G01 X19.6404 Y84.6914 Z-0.1389
G01 X19.6061 Y84.7171 Z-0.1528
G01 X19.5730 Y84.7444 Z-0.1667
G01 X19.5413 Y84.7732 Z-0.1806
G01 X19.5110 Y84.8035 Z-0.1944
G01 X19.4822 Y84.8352 Z-0.2083
G01 X19.4550 Y84.8682 Z-0.2222
G01 X19.4293 Y84.9025 Z-0.2361
G01 X19.4053 Y84.9380 Z-0.2500
G01 X19.3830 Y84.9745 Z-0.2639
G01 X19.3625 Y85.0121 Z-0.2778
G01 X19.3437 Y85.0507 Z-0.2917
G01 X19.3269 Y85.0901 Z-0.3056
G01 X19.3119 Y85.1302 Z-0.3194
G01 X19.2989 Y85.1710 Z-0.3333
G01 X19.2878 Y85.2124 Z-0.3472
G01 X19.2787 Y85.2542 Z-0.3611
G01 X19.2716 Y85.2965 Z-0.3750
G01 X19.2665 Y85.3390 Z-0.3889
G01 X19.2634 Y85.3817 Z-0.4028
G01 X19.2624 Y85.4245 Z-0.4167
G01 X19.2634 Y85.4674 Z-0.4306
G01 X19.2665 Y85.5101 Z-0.4444
G01 X19.2716 Y85.5526 Z-0.4583
G01 X19.2787 Y85.5949 Z-0.4722
G01 X19.2878 Y85.6367 Z-0.4861
G01 X19.2989 Y85.6781 Z-0.5000
G01 X19.3119 Y85.7189 Z-0.5139
G01 X19.3269 Y85.7590 Z-0.5278
G01 X19.3437 Y85.7984 Z-0.5417
G01 X19.3625 Y85.8370 Z-0.5556
G01 X19.3830 Y85.8745 Z-0.5694
G01 X19.4053 Y85.9111 Z-0.5833
G01 X19.4293 Y85.9466 Z-0.5972
G01 X19.4550 Y85.9809 Z-0.6111
G01 X19.4822 Y86.0139 Z-0.6250
G01 X19.5110 Y86.0456 Z-0.6389
G01 X19.5413 Y86.0759 Z-0.6528
G01 X19.5730 Y86.1047 Z-0.6667
G01 X19.6061 Y86.1320 Z-0.6806
G01 X19.6404 Y86.1577 Z-0.6944
G01 X19.6758 Y86.1817 Z-0.7083
G01 X19.7124 Y86.2040 Z-0.7222
G01 X19.7500 Y86.2245 Z-0.7361
G01 X19.7885 Y86.2432 Z-0.7500
G01 X19.8279 Y86.2601 Z-0.7639
G01 X19.8680 Y86.2750 Z-0.7778
G01 X19.9088 Y86.2881 Z-0.7917
G01 X19.9502 Y86.2992 Z-0.8056
G01 X19.9921 Y86.3083 Z-0.8194
G01 X20.0343 Y86.3154 Z-0.8333
G01 X20.0769 Y86.3205 Z-0.8472
G01 X20.1196 Y86.3235 Z-0.8611
G01 X20.1624 Y86.3245 Z-0.8750
G01 X20.2052 Y86.3235 Z-0.8889
G01 X20.2480 Y86.3205 Z-0.9028
G01 X20.2905 Y86.3154 Z-0.9167
G01 X20.3327 Y86.3083 Z-0.9306
G01 X20.3746 Y86.2992 Z-0.9444
G01 X20.4160 Y86.2881 Z-0.9583
G01 X20.4568 Y86.2750 Z-0.9722
G01 X20.4969 Y86.2601 Z-0.9861
G01 X20.5363 Y86.2432 Z-1.0000
G01 X20.5748 Y86.2245 Z-1.0139
G01 X20.6124 Y86.2040 Z-1.0278
G01 X20.6490 Y86.1817 Z-1.0417
G01 X20.6845 Y86.1577 Z-1.0556
G01 X20.7188 Y86.1320 Z-1.0694
G01 X20.7518 Y86.1047 Z-1.0833
G01 X20.7835 Y86.0759 Z-1.0972
G01 X20.8138 Y86.0456 Z-1.1111
G01 X20.8426 Y86.0139 Z-1.1250
G01 X20.8699 Y85.9809 Z-1.1389
G01 X20.8955 Y85.9466 Z-1.1528
G01 X20.9195 Y85.9111 Z-1.1667
G01 X20.9418 Y85.8745 Z-1.1806
G01 X20.9624 Y85.8370 Z-1.1944
G01 X20.9811 Y85.7984 Z-1.2083
G01 X20.9979 Y85.7590 Z-1.2222
G01 X21.0129 Y85.7189 Z-1.2361
G01 X21.0260 Y85.6781 Z-1.2500
G01 X21.0370 Y85.6367 Z-1.2639
G01 X21.0461 Y85.5949 Z-1.2778
G01 X21.0532 Y85.5526 Z-1.2917
G01 X21.0583 Y85.5101 Z-1.3056
G01 X21.0614 Y85.4674 Z-1.3194
G01 X21.0624 Y85.4245 Z-1.3333
G01 X21.0614 Y85.3817
G01 X21.0583 Y85.3390
G01 X21.0532 Y85.2965
G01 X21.0461 Y85.2542
G01 X21.0370 Y85.2124
G01 X21.0260 Y85.1710
G01 X21.0129 Y85.1302
G01 X20.9979 Y85.0901
G01 X20.9811 Y85.0507
G01 X20.9624 Y85.0121
G01 X20.9418 Y84.9745
G01 X20.9195 Y84.9380
G01 X20.8955 Y84.9025
G01 X20.8699 Y84.8682
G01 X20.8426 Y84.8352
G01 X20.8138 Y84.8035
G01 X20.7835 Y84.7732
G01 X20.7518 Y84.7444
G01 X20.7188 Y84.7171
G01 X20.6845 Y84.6914
G01 X20.6490 Y84.6674
G01 X20.6124 Y84.6451
G01 X20.5748 Y84.6246
G01 X20.5363 Y84.6059
G01 X20.4969 Y84.5890
G01 X20.4568 Y84.5740
G01 X20.4160 Y84.5610
G01 X20.3746 Y84.5499
G01 X20.3327 Y84.5408
G01 X20.2905 Y84.5337
G01 X20.2480 Y84.5286
G01 X20.2052 Y84.5256
G01 X20.1624 Y84.5245
G01 X20.1196 Y84.5256
G01 X20.0769 Y84.5286
G01 X20.0343 Y84.5337
G01 X19.9921 Y84.5408
G01 X19.9502 Y84.5499
G01 X19.9088 Y84.5610
G01 X19.8680 Y84.5740
G01 X19.8279 Y84.5890
G01 X19.7885 Y84.6059
G01 X19.7500 Y84.6246
G01 X19.7124 Y84.6451
G01 X19.6758 Y84.6674
G01 X19.6404 Y84.6914
G01 X19.6061 Y84.7171
G01 X19.5730 Y84.7444
G01 X19.5413 Y84.7732
G01 X19.5110 Y84.8035
G01 X19.4822 Y84.8352
G01 X19.4550 Y84.8682
G01 X19.4293 Y84.9025
G01 X19.4053 Y84.9380
G01 X19.3830 Y84.9745
G01 X19.3625 Y85.0121
G01 X19.3437 Y85.0507
G01 X19.3269 Y85.0901
G01 X19.3119 Y85.1302
G01 X19.2989 Y85.1710
G01 X19.2878 Y85.2124
G01 X19.2787 Y85.2542
G01 X19.2716 Y85.2965
G01 X19.2665 Y85.3390
G01 X19.2634 Y85.3817
G01 X19.2624 Y85.4245
G01 X19.2634 Y85.4674
G01 X19.2665 Y85.5101
G01 X19.2716 Y85.5526
G01 X19.2787 Y85.5949
G01 X19.2878 Y85.6367
G01 X19.2989 Y85.6781
G01 X19.3119 Y85.7189
G01 X19.3269 Y85.7590
G01 X19.3437 Y85.7984
G01 X19.3625 Y85.8370
G01 X19.3830 Y85.8745
G01 X19.4053 Y85.9111
G01 X19.4293 Y85.9466
G01 X19.4550 Y85.9809
G01 X19.4822 Y86.0139
G01 X19.5110 Y86.0456
G01 X19.5413 Y86.0759
G01 X19.5730 Y86.1047
G01 X19.6061 Y86.1320
G01 X19.6404 Y86.1577
G01 X19.6758 Y86.1817
G01 X19.7124 Y86.2040
G01 X19.7500 Y86.2245
G01 X19.7885 Y86.2432
G01 X19.8279 Y86.2601
G01 X19.8680 Y86.2750
G01 X19.9088 Y86.2881
G01 X19.9502 Y86.2992
G01 X19.9921 Y86.3083
G01 X20.0343 Y86.3154
G01 X20.0769 Y86.3205
G01 X20.1196 Y86.3235
G01 X20.1624 Y86.3245
G01 X20.2052 Y86.3235
G01 X20.2480 Y86.3205
G01 X20.2905 Y86.3154
G01 X20.3327 Y86.3083
G01 X20.3746 Y86.2992
G01 X20.4160 Y86.2881
G01 X20.4568 Y86.2750
G01 X20.4969 Y86.2601
G01 X20.5363 Y86.2432
G01 X20.5748 Y86.2245
G01 X20.6124 Y86.2040
G01 X20.6490 Y86.1817
G01 X20.6845 Y86.1577
G01 X20.7188 Y86.1320
G01 X20.7518 Y86.1047
G01 X20.7835 Y86.0759
G01 X20.8138 Y86.0456
G01 X20.8426 Y86.0139
G01 X20.8699 Y85.9809
G01 X20.8955 Y85.9466
G01 X20.9195 Y85.9111
G01 X20.9418 Y85.8745
G01 X20.9624 Y85.8370
G01 X20.9811 Y85.7984
G01 X20.9979 Y85.7590
G01 X21.0129 Y85.7189
G01 X21.0260 Y85.6781
G01 X21.0370 Y85.6367
G01 X21.0461 Y85.5949
G01 X21.0532 Y85.5526
G01 X21.0583 Y85.5101
G01 X21.0614 Y85.4674
G01 X21.0624 Y85.4245
G01 X21.0700 Y85.3935 F1000
G01 X21.0764 Y85.3622
G01 X21.0818 Y85.3307
G01 X21.0861 Y85.2990
G01 X21.0892 Y85.2672
G01 X21.0913 Y85.2353
G01 X21.0923 Y85.2034
G01 X21.0921 Y85.1715
G01 X21.0909 Y85.1395
G01 X21.0885 Y85.1077
G01 X21.0851 Y85.0759
G01 X21.0805 Y85.0443
G01 X21.0708 Y84.9928
G01 X21.0585 Y84.9418
G01 X21.0436 Y84.8916
G01 X21.0261 Y84.8422
G01 X21.0060 Y84.7938
G01 X20.9835 Y84.7464
G01 X20.9586 Y84.7003
G01 X20.9314 Y84.6556
G01 X20.8994 Y84.6085
G01 X20.8650 Y84.5632
G01 X20.8283 Y84.5197
G01 X20.7895 Y84.4781
G01 X20.7486 Y84.4386
G01 X20.7057 Y84.4012
G01 X20.6609 Y84.3660
G01 X20.6145 Y84.3332
G01 X20.5626 Y84.3004
G01 X20.5091 Y84.2702
G01 X20.4541 Y84.2429
G01 X20.3978 Y84.2183
G01 X20.3403 Y84.1966
G01 X20.2819 Y84.1779
G01 X20.2225 Y84.1622
G01 X20.1624 Y84.1495
G01 X20.0973 Y84.1392
G01 X20.0317 Y84.1322
G01 X19.9659 Y84.1285
G01 X19.9000 Y84.1282
G01 X19.8341 Y84.1311
G01 X19.7685 Y84.1374
G01 X19.7033 Y84.1471
G01 X19.6386 Y84.1600
G01 X19.5703 Y84.1773
G01 X19.5029 Y84.1979
G01 X19.4367 Y84.2220
G01 X19.3718 Y84.2494
G01 X19.3083 Y84.2800
G01 X19.2465 Y84.3137
G01 X19.1864 Y84.3506
G01 X19.1283 Y84.3904
G01 X19.0747 Y84.4398
G01 X19.0237 Y84.4918
G01 X18.9753 Y84.5463
G01 X18.9297 Y84.6031
G01 X18.8869 Y84.6620
G01 X18.8471 Y84.7230
G01 X18.8103 Y84.7859
G01 X18.7766 Y84.8505
G01 X18.7501 Y84.9192
G01 X18.7270 Y84.9891
G01 X18.7074 Y85.0601
G01 X18.6913 Y85.1319
G01 X18.6787 Y85.2045
G01 X18.6697 Y85.2775
G01 X18.6643 Y85.3509
G01 X18.6625 Y85.4245
G01 X18.6643 Y85.4981
G01 X18.6697 Y85.5716
G01 X18.6787 Y85.6446
G01 X18.6913 Y85.7172
G01 X18.7074 Y85.7890
G01 X18.7270 Y85.8600
G01 X18.7501 Y85.9299
G01 X18.7766 Y85.9986
G01 X18.8065 Y86.0659
G01 X18.8396 Y86.1316
G01 X18.8759 Y86.1957
G01 X18.9152 Y86.2579
G01 X18.9576 Y86.3181
G01 X19.0029 Y86.3761
G01 X19.0510 Y86.4319
G01 X19.1018 Y86.4852
G01 X19.1551 Y86.5359
G01 X19.2108 Y86.5840
G01 X19.2689 Y86.6293
G01 X19.3291 Y86.6717
G01 X19.3913 Y86.7111
G01 X19.4553 Y86.7474
G01 X19.5211 Y86.7805
G01 X19.5884 Y86.8103
G01 X19.6571 Y86.8368
G01 X19.7270 Y86.8599
G01 X19.7979 Y86.8796
G01 X19.8698 Y86.8957
G01 X19.9423 Y86.9083
G01 X20.0154 Y86.9173
G01 X20.0888 Y86.9227
G01 X20.1624 Y86.9245
G01 X20.2360 Y86.9227
G01 X20.3094 Y86.9173
G01 X20.3825 Y86.9083
G01 X20.4550 Y86.8957
G01 X20.5269 Y86.8796
G01 X20.5978 Y86.8599
G01 X20.6677 Y86.8368
G01 X20.7364 Y86.8103
G01 X20.8037 Y86.7805
G01 X20.8695 Y86.7474
G01 X20.9335 Y86.7111
G01 X20.9957 Y86.6717
G01 X21.0559 Y86.6293
G01 X21.1140 Y86.5840
G01 X21.1697 Y86.5359
G01 X21.2230 Y86.4852
G01 X21.2738 Y86.4319
G01 X21.3219 Y86.3761
G01 X21.3672 Y86.3181
G01 X21.4096 Y86.2579
G01 X21.4490 Y86.1957
G01 X21.4853 Y86.1316
G01 X21.5184 Y86.0659
G01 X21.5482 Y85.9986
G01 X21.5747 Y85.9299
G01 X21.5978 Y85.8600
G01 X21.6174 Y85.7890
G01 X21.6335 Y85.7172
G01 X21.6461 Y85.6446
G01 X21.6551 Y85.5716
G01 X21.6606 Y85.4981
G01 X21.6624 Y85.4245
G01 X21.6582 Y85.3125
G01 X21.6456 Y85.2010
G01 X21.6248 Y85.0908
G01 X21.5957 Y84.9824
G01 X21.5587 Y84.8766
G01 X21.5138 Y84.7737
G01 X21.4614 Y84.6746
G01 X21.4017 Y84.5796
G01 X21.3351 Y84.4893
G01 X21.2620 Y84.4043
G01 X21.1826 Y84.3250
G01 X21.0976 Y84.2518
G01 X21.0074 Y84.1852
G01 X20.9124 Y84.1255
G01 X20.8132 Y84.0731
G01 X20.7104 Y84.0283
G01 X20.6045 Y83.9912
G01 X20.4962 Y83.9622
G01 X20.3860 Y83.9413
G01 X20.2745 Y83.9288
G01 X20.1624 Y83.9246
G01 X20.0503 Y83.9288
G01 X19.9389 Y83.9413
G01 X19.8286 Y83.9622
G01 X19.7203 Y83.9912
G01 X19.6144 Y84.0283
G01 X19.5116 Y84.0731
G01 X19.4124 Y84.1255
G01 X19.3175 Y84.1852
G01 X19.2272 Y84.2518
G01 X19.1422 Y84.3250
G01 X19.0629 Y84.4043
G01 X18.9897 Y84.4893
G01 X18.9231 Y84.5796
G01 X18.8634 Y84.6746
G01 X18.8110 Y84.7737
G01 X18.7661 Y84.8766
G01 X18.7291 Y84.9824
G01 X18.7001 Y85.0908
G01 X18.6792 Y85.2010
G01 X18.6666 Y85.3125
G01 X18.6625 Y85.4245
G01 X18.6666 Y85.5366
G01 X18.6792 Y85.6481
G01 X18.7001 Y85.7583
G01 X18.7291 Y85.8667
G01 X18.7661 Y85.9725
G01 X18.8110 Y86.0754
G01 X18.8634 Y86.1745
G01 X18.9231 Y86.2695
G01 X18.9897 Y86.3598
G01 X19.0629 Y86.4448
G01 X19.1422 Y86.5241
G01 X19.2272 Y86.5973
G01 X19.3175 Y86.6639
G01 X19.4124 Y86.7235
G01 X19.5116 Y86.7760
G01 X19.6144 Y86.8208
G01 X19.7203 Y86.8579
G01 X19.8286 Y86.8869
G01 X19.9389 Y86.9078
G01 X20.0503 Y86.9203
G01 X20.1624 Y86.9245
G01 X20.2745 Y86.9203
G01 X20.3860 Y86.9078
G01 X20.4962 Y86.8869
G01 X20.6045 Y86.8579
G01 X20.7104 Y86.8208
G01 X20.8132 Y86.7760
G01 X20.9124 Y86.7235
G01 X21.0074 Y86.6639
G01 X21.0976 Y86.5973
G01 X21.1826 Y86.5241
G01 X21.2620 Y86.4448
G01 X21.3351 Y86.3598
G01 X21.4017 Y86.2695
G01 X21.4614 Y86.1745
G01 X21.5138 Y86.0754
G01 X21.5587 Y85.9725
G01 X21.5957 Y85.8667
G01 X21.6248 Y85.7583
G01 X21.6456 Y85.6481
G01 X21.6582 Y85.5366
G01 X21.6624 Y85.4245
G01 X21.6578 Y85.3200
G01 X21.6441 Y85.2162
G01 X21.6215 Y85.1140
G01 X21.5900 Y85.0141
G01 X21.5499 Y84.9174
G01 X21.5016 Y84.8246
G01 X21.4454 Y84.7363
G01 X21.3816 Y84.6532
G01 X21.3109 Y84.5760
G01 X21.2337 Y84.5053
G01 X21.1507 Y84.4416
G01 X21.0624 Y84.3853
G01 X20.9695 Y84.3370
G01 X20.8728 Y84.2969
G01 X20.7730 Y84.2655
G01 X20.6708 Y84.2428
G01 X20.5670 Y84.2291
G01 X20.4624 Y84.2246
G01 X20.3578 Y84.2291
G01 X20.2540 Y84.2428
G01 X20.1518 Y84.2655
G01 X20.0520 Y84.2969
G01 X19.9553 Y84.3370
G01 X19.8624 Y84.3853
G01 X19.7741 Y84.4416
G01 X19.6911 Y84.5053
G01 X19.6139 Y84.5760
G01 X19.5432 Y84.6532
G01 X19.4794 Y84.7363
G01 X19.4232 Y84.8246
G01 X19.3748 Y84.9174
G01 X19.3348 Y85.0141
G01 X19.3033 Y85.1140
G01 X19.2806 Y85.2162
G01 X19.2670 Y85.3200
G01 X19.2624 Y85.4245
G01 X19.2635 Y85.4687
G01 X19.2667 Y85.5128
G01 X19.2721 Y85.5566
G01 X19.2797 Y85.6001
G01 X19.2894 Y85.6432
G01 X19.3012 Y85.6858
G01 X19.3150 Y85.7277
G01 X19.3309 Y85.7690
G01 X19.3488 Y85.8093
G01 X19.3687 Y85.8488
G01 X19.3905 Y85.8872
G01 X19.4141 Y85.9246
G01 X19.4395 Y85.9607
G01 X19.4667 Y85.9955
G01 X19.4956 Y86.0290
G01 X19.5260 Y86.0609
G01 X19.5580 Y86.0914
G01 X19.5915 Y86.1203
G01 X19.6263 Y86.1474
G01 X19.6624 Y86.1729
G01 X19.6997 Y86.1965
G01 X19.7382 Y86.2183
G01 X19.7776 Y86.2381
G01 X19.8180 Y86.2560
G01 X19.8592 Y86.2719
G01 X19.9012 Y86.2858
G01 X19.9437 Y86.2976
G01 X19.9868 Y86.3073
G01 X20.0304 Y86.3148
G01 X20.0742 Y86.3202
G01 X20.1182 Y86.3235
G01 X20.1624 Y86.3245
G01 X20.2066 Y86.3235
G01 X20.2506 Y86.3202
G01 X20.2945 Y86.3148
G01 X20.3380 Y86.3073
G01 X20.3811 Y86.2976
G01 X20.4237 Y86.2858
G01 X20.4656 Y86.2719
G01 X20.5068 Y86.2560
G01 X20.5472 Y86.2381
G01 X20.5867 Y86.2183
G01 X20.6251 Y86.1965
G01 X20.6624 Y86.1729
G01 X20.6985 Y86.1474
G01 X20.7334 Y86.1203
G01 X20.7668 Y86.0914
G01 X20.7988 Y86.0609
G01 X20.8293 Y86.0290
G01 X20.8581 Y85.9955
G01 X20.8853 Y85.9607
G01 X20.9107 Y85.9246
G01 X20.9344 Y85.8872
G01 X20.9561 Y85.8488
G01 X20.9760 Y85.8093
G01 X20.9939 Y85.7690
G01 X21.0098 Y85.7277
G01 X21.0237 Y85.6858
G01 X21.0354 Y85.6432
G01 X21.0451 Y85.6001
G01 X21.0527 Y85.5566
G01 X21.0581 Y85.5128
G01 X21.0613 Y85.4687
G01 X21.0624 Y85.4245
G01 X21.0614 Y85.3817 Z-1.3472 F400
G01 X21.0583 Y85.3390 Z-1.3611
G01 X21.0532 Y85.2965 Z-1.3750
G01 X21.0461 Y85.2542 Z-1.3889
G01 X21.0370 Y85.2124 Z-1.4028
G01 X21.0260 Y85.1710 Z-1.4167
G01 X21.0129 Y85.1302 Z-1.4306
G01 X20.9979 Y85.0901 Z-1.4444
G01 X20.9811 Y85.0507 Z-1.4583
G01 X20.9624 Y85.0121 Z-1.4722
G01 X20.9418 Y84.9745 Z-1.4861
G01 X20.9195 Y84.9380 Z-1.5000
G01 X20.8955 Y84.9025 Z-1.5139
G01 X20.8699 Y84.8682 Z-1.5278
G01 X20.8426 Y84.8352 Z-1.5417
G01 X20.8138 Y84.8035 Z-1.5556
G01 X20.7835 Y84.7732 Z-1.5694
G01 X20.7518 Y84.7444 Z-1.5833
G01 X20.7188 Y84.7171 Z-1.5972
G01 X20.6845 Y84.6914 Z-1.6111
G01 X20.6490 Y84.6674 Z-1.6250
G01 X20.6124 Y84.6451 Z-1.6389
G01 X20.5748 Y84.6246 Z-1.6528
G01 X20.5363 Y84.6059 Z-1.6667
G01 X20.4969 Y84.5890 Z-1.6806
G01 X20.4568 Y84.5740 Z-1.6944
G01 X20.4160 Y84.5610 Z-1.7083
G01 X20.3746 Y84.5499 Z-1.7222
G01 X20.3327 Y84.5408 Z-1.7361
G01 X20.2905 Y84.5337 Z-1.7500
G01 X20.2480 Y84.5286 Z-1.7639
G01 X20.2052 Y84.5256 Z-1.7778
G01 X20.1624 Y84.5245 Z-1.7917
G01 X20.1196 Y84.5256 Z-1.8056
G01 X20.0769 Y84.5286 Z-1.8194
G01 X20.0343 Y84.5337 Z-1.8333
G01 X19.9921 Y84.5408 Z-1.8472
G01 X19.9502 Y84.5499 Z-1.8611
G01 X19.9088 Y84.5610 Z-1.8750
G01 X19.8680 Y84.5740 Z-1.8889
G01 X19.8279 Y84.5890 Z-1.9028
G01 X19.7885 Y84.6059 Z-1.9167
G01 X19.7500 Y84.6246 Z-1.9306
G01 X19.7124 Y84.6451 Z-1.9444
G01 X19.6758 Y84.6674 Z-1.9583
G01 X19.6404 Y84.6914 Z-1.9722
G01 X19.6061 Y84.7171 Z-1.9861
G01 X19.5730 Y84.7444 Z-2.0000
G01 X19.5413 Y84.7732 Z-2.0139
G01 X19.5110 Y84.8035 Z-2.0278
G01 X19.4822 Y84.8352 Z-2.0417
G01 X19.4550 Y84.8682 Z-2.0556
G01 X19.4293 Y84.9025 Z-2.0694
G01 X19.4053 Y84.9380 Z-2.0833
G01 X19.3830 Y84.9745 Z-2.0972
G01 X19.3625 Y85.0121 Z-2.1111
G01 X19.3437 Y85.0507 Z-2.1250
G01 X19.3269 Y85.0901 Z-2.1389
G01 X19.3119 Y85.1302 Z-2.1528
G01 X19.2989 Y85.1710 Z-2.1667
G01 X19.2878 Y85.2124 Z-2.1806
G01 X19.2787 Y85.2542 Z-2.1944
G01 X19.2716 Y85.2965 Z-2.2083
G01 X19.2665 Y85.3390 Z-2.2222
G01 X19.2634 Y85.3817 Z-2.2361
G01 X19.2624 Y85.4245 Z-2.2500
G01 X19.2634 Y85.4674 Z-2.2639
G01 X19.2665 Y85.5101 Z-2.2778
G01 X19.2716 Y85.5526 Z-2.2917
G01 X19.2787 Y85.5949 Z-2.3056
G01 X19.2878 Y85.6367 Z-2.3194
G01 X19.2989 Y85.6781 Z-2.3333
G01 X19.3119 Y85.7189 Z-2.3472
G01 X19.3269 Y85.7590 Z-2.3611
G01 X19.3437 Y85.7984 Z-2.3750
G01 X19.3625 Y85.8370 Z-2.3889
G01 X19.3830 Y85.8745 Z-2.4028
G01 X19.4053 Y85.9111 Z-2.4167
G01 X19.4293 Y85.9466 Z-2.4306
G01 X19.4550 Y85.9809 Z-2.4444
G01 X19.4822 Y86.0139 Z-2.4583
G01 X19.5110 Y86.0456 Z-2.4722
G01 X19.5413 Y86.0759 Z-2.4861
G01 X19.5730 Y86.1047 Z-2.5000
G01 X19.6061 Y86.1320 Z-2.5139
G01 X19.6404 Y86.1577 Z-2.5278
G01 X19.6758 Y86.1817 Z-2.5417
G01 X19.7124 Y86.2040 Z-2.5556
G01 X19.7500 Y86.2245 Z-2.5694
G01 X19.7885 Y86.2432 Z-2.5833
G01 X19.8279 Y86.2601 Z-2.5972
G01 X19.8680 Y86.2750 Z-2.6111
G01 X19.9088 Y86.2881 Z-2.6250
G01 X19.9502 Y86.2992 Z-2.6389
G01 X19.9921 Y86.3083 Z-2.6528
G01 X20.0343 Y86.3154 Z-2.6667
G01 X20.0769 Y86.3205 Z-2.6806
G01 X20.1196 Y86.3235 Z-2.6944
G01 X20.1624 Y86.3245 Z-2.7083
G01 X20.2052 Y86.3235 Z-2.7222
G01 X20.2480 Y86.3205 Z-2.7361
G01 X20.2905 Y86.3154 Z-2.7500
G01 X20.3327 Y86.3083 Z-2.7639
G01 X20.3746 Y86.2992 Z-2.7778
G01 X20.4160 Y86.2881 Z-2.7917
G01 X20.4568 Y86.2750 Z-2.8056
G01 X20.4969 Y86.2601 Z-2.8194
G01 X20.5363 Y86.2432 Z-2.8333
G01 X20.5748 Y86.2245 Z-2.8472
G01 X20.6124 Y86.2040 Z-2.8611
G01 X20.6490 Y86.1817 Z-2.8750
G01 X20.6845 Y86.1577 Z-2.8889
G01 X20.7188 Y86.1320 Z-2.9028
G01 X20.7518 Y86.1047 Z-2.9167
G01 X20.7835 Y86.0759 Z-2.9306
G01 X20.8138 Y86.0456 Z-2.9444
G01 X20.8426 Y86.0139 Z-2.9583
G01 X20.8699 Y85.9809 Z-2.9722
G01 X20.8955 Y85.9466 Z-2.9861
G01 X20.9195 Y85.9111 Z-3.0000
G01 X20.9418 Y85.8745 Z-3.0139
G01 X20.9624 Y85.8370 Z-3.0278
G01 X20.9811 Y85.7984 Z-3.0417
G01 X20.9979 Y85.7590 Z-3.0556
G01 X21.0129 Y85.7189 Z-3.0694
G01 X21.0260 Y85.6781 Z-3.0833
G01 X21.0370 Y85.6367 Z-3.0972
G01 X21.0461 Y85.5949 Z-3.1111
G01 X21.0532 Y85.5526 Z-3.1250
G01 X21.0583 Y85.5101 Z-3.1389
G01 X21.0614 Y85.4674 Z-3.1528
G01 X21.0624 Y85.4245 Z-3.1667
G01 X21.0614 Y85.3817
G01 X21.0583 Y85.3390
G01 X21.0532 Y85.2965
G01 X21.0461 Y85.2542
G01 X21.0370 Y85.2124
G01 X21.0260 Y85.1710
G01 X21.0129 Y85.1302
G01 X20.9979 Y85.0901
G01 X20.9811 Y85.0507
G01 X20.9624 Y85.0121
G01 X20.9418 Y84.9745
G01 X20.9195 Y84.9380
G01 X20.8955 Y84.9025
G01 X20.8699 Y84.8682
G01 X20.8426 Y84.8352
G01 X20.8138 Y84.8035
G01 X20.7835 Y84.7732
G01 X20.7518 Y84.7444
G01 X20.7188 Y84.7171
G01 X20.6845 Y84.6914
G01 X20.6490 Y84.6674
G01 X20.6124 Y84.6451
G01 X20.5748 Y84.6246
G01 X20.5363 Y84.6059
G01 X20.4969 Y84.5890
G01 X20.4568 Y84.5740
G01 X20.4160 Y84.5610
G01 X20.3746 Y84.5499
G01 X20.3327 Y84.5408
G01 X20.2905 Y84.5337
G01 X20.2480 Y84.5286
G01 X20.2052 Y84.5256
G01 X20.1624 Y84.5245
G01 X20.1196 Y84.5256
G01 X20.0769 Y84.5286
G01 X20.0343 Y84.5337
G01 X19.9921 Y84.5408
G01 X19.9502 Y84.5499
G01 X19.9088 Y84.5610
G01 X19.8680 Y84.5740
G01 X19.8279 Y84.5890
G01 X19.7885 Y84.6059
G01 X19.7500 Y84.6246
G01 X19.7124 Y84.6451
G01 X19.6758 Y84.6674
G01 X19.6404 Y84.6914
G01 X19.6061 Y84.7171
G01 X19.5730 Y84.7444
G01 X19.5413 Y84.7732
G01 X19.5110 Y84.8035
G01 X19.4822 Y84.8352
G01 X19.4550 Y84.8682
G01 X19.4293 Y84.9025
G01 X19.4053 Y84.9380
G01 X19.3830 Y84.9745
G01 X19.3625 Y85.0121
G01 X19.3437 Y85.0507
G01 X19.3269 Y85.0901
G01 X19.3119 Y85.1302
G01 X19.2989 Y85.1710
G01 X19.2878 Y85.2124
G01 X19.2787 Y85.2542
G01 X19.2716 Y85.2965
G01 X19.2665 Y85.3390
G01 X19.2634 Y85.3817
G01 X19.2624 Y85.4245
G01 X19.2634 Y85.4674
G01 X19.2665 Y85.5101
G01 X19.2716 Y85.5526
G01 X19.2787 Y85.5949
G01 X19.2878 Y85.6367
G01 X19.2989 Y85.6781
G01 X19.3119 Y85.7189
G01 X19.3269 Y85.7590
G01 X19.3437 Y85.7984
G01 X19.3625 Y85.8370
G01 X19.3830 Y85.8745
G01 X19.4053 Y85.9111
G01 X19.4293 Y85.9466
G01 X19.4550 Y85.9809
G01 X19.4822 Y86.0139
G01 X19.5110 Y86.0456
G01 X19.5413 Y86.0759
G01 X19.5730 Y86.1047
G01 X19.6061 Y86.1320
G01 X19.6404 Y86.1577
G01 X19.6758 Y86.1817
G01 X19.7124 Y86.2040
G01 X19.7500 Y86.2245
G01 X19.7885 Y86.2432
G01 X19.8279 Y86.2601
G01 X19.8680 Y86.2750
G01 X19.9088 Y86.2881
G01 X19.9502 Y86.2992
G01 X19.9921 Y86.3083
G01 X20.0343 Y86.3154
G01 X20.0769 Y86.3205
G01 X20.1196 Y86.3235
G01 X20.1624 Y86.3245
G01 X20.2052 Y86.3235
G01 X20.2480 Y86.3205
G01 X20.2905 Y86.3154
G01 X20.3327 Y86.3083
G01 X20.3746 Y86.2992
G01 X20.4160 Y86.2881
G01 X20.4568 Y86.2750
G01 X20.4969 Y86.2601
G01 X20.5363 Y86.2432
G01 X20.5748 Y86.2245
G01 X20.6124 Y86.2040
G01 X20.6490 Y86.1817
G01 X20.6845 Y86.1577
G01 X20.7188 Y86.1320
G01 X20.7518 Y86.1047
G01 X20.7835 Y86.0759
G01 X20.8138 Y86.0456
G01 X20.8426 Y86.0139
G01 X20.8699 Y85.9809
G01 X20.8955 Y85.9466
G01 X20.9195 Y85.9111
G01 X20.9418 Y85.8745
G01 X20.9624 Y85.8370
G01 X20.9811 Y85.7984
G01 X20.9979 Y85.7590
G01 X21.0129 Y85.7189
G01 X21.0260 Y85.6781
G01 X21.0370 Y85.6367
G01 X21.0461 Y85.5949
G01 X21.0532 Y85.5526
G01 X21.0583 Y85.5101
G01 X21.0614 Y85.4674
G01 X21.0624 Y85.4245
G01 X21.0700 Y85.3935 F1000
G01 X21.0764 Y85.3622
G01 X21.0818 Y85.3307
G01 X21.0861 Y85.2990
G01 X21.0892 Y85.2672
G01 X21.0913 Y85.2353
G01 X21.0923 Y85.2034
G01 X21.0921 Y85.1715
G01 X21.0909 Y85.1395
G01 X21.0885 Y85.1077
G01 X21.0851 Y85.0759
G01 X21.0805 Y85.0443
G01 X21.0708 Y84.9928
G01 X21.0585 Y84.9418
G01 X21.0436 Y84.8916
G01 X21.0261 Y84.8422
G01 X21.0060 Y84.7938
G01 X20.9835 Y84.7464
G01 X20.9586 Y84.7003
G01 X20.9314 Y84.6556
G01 X20.8994 Y84.6085
G01 X20.8650 Y84.5632
G01 X20.8283 Y84.5197
G01 X20.7895 Y84.4781
G01 X20.7486 Y84.4386
G01 X20.7057 Y84.4012
G01 X20.6609 Y84.3660
G01 X20.6145 Y84.3332
G01 X20.5626 Y84.3004
G01 X20.5091 Y84.2702
G01 X20.4541 Y84.2429
G01 X20.3978 Y84.2183
G01 X20.3403 Y84.1966
G01 X20.2819 Y84.1779
G01 X20.2225 Y84.1622
G01 X20.1624 Y84.1495
G01 X20.0973 Y84.1392
G01 X20.0317 Y84.1322
G01 X19.9659 Y84.1285
G01 X19.9000 Y84.1282
G01 X19.8341 Y84.1311
G01 X19.7685 Y84.1374
G01 X19.7033 Y84.1471
G01 X19.6386 Y84.1600
G01 X19.5703 Y84.1773
G01 X19.5029 Y84.1979
G01 X19.4367 Y84.2220
G01 X19.3718 Y84.2494
G01 X19.3083 Y84.2800
G01 X19.2465 Y84.3137
G01 X19.1864 Y84.3506
G01 X19.1283 Y84.3904
G01 X19.0747 Y84.4398
G01 X19.0237 Y84.4918
G01 X18.9753 Y84.5463
G01 X18.9297 Y84.6031
G01 X18.8869 Y84.6620
G01 X18.8471 Y84.7230
G01 X18.8103 Y84.7859
G01 X18.7766 Y84.8505
G01 X18.7501 Y84.9192
G01 X18.7270 Y84.9891
G01 X18.7074 Y85.0601
G01 X18.6913 Y85.1319
G01 X18.6787 Y85.2045
G01 X18.6697 Y85.2775
G01 X18.6643 Y85.3509
G01 X18.6625 Y85.4245
G01 X18.6643 Y85.4981
G01 X18.6697 Y85.5716
G01 X18.6787 Y85.6446
G01 X18.6913 Y85.7172
G01 X18.7074 Y85.7890
G01 X18.7270 Y85.8600
G01 X18.7501 Y85.9299
G01 X18.7766 Y85.9986
G01 X18.8065 Y86.0659
G01 X18.8396 Y86.1316
G01 X18.8759 Y86.1957
G01 X18.9152 Y86.2579
G01 X18.9576 Y86.3181
G01 X19.0029 Y86.3761
G01 X19.0510 Y86.4319
G01 X19.1018 Y86.4852
G01 X19.1551 Y86.5359
G01 X19.2108 Y86.5840
G01 X19.2689 Y86.6293
G01 X19.3291 Y86.6717
G01 X19.3913 Y86.7111
G01 X19.4553 Y86.7474
G01 X19.5211 Y86.7805
G01 X19.5884 Y86.8103
G01 X19.6571 Y86.8368
G01 X19.7270 Y86.8599
G01 X19.7979 Y86.8796
G01 X19.8698 Y86.8957
G01 X19.9423 Y86.9083
G01 X20.0154 Y86.9173
G01 X20.0888 Y86.9227
G01 X20.1624 Y86.9245
G01 X20.2360 Y86.9227
G01 X20.3094 Y86.9173
G01 X20.3825 Y86.9083
G01 X20.4550 Y86.8957
G01 X20.5269 Y86.8796
G01 X20.5978 Y86.8599
G01 X20.6677 Y86.8368
G01 X20.7364 Y86.8103
G01 X20.8037 Y86.7805
G01 X20.8695 Y86.7474
G01 X20.9335 Y86.7111
G01 X20.9957 Y86.6717
G01 X21.0559 Y86.6293
G01 X21.1140 Y86.5840
G01 X21.1697 Y86.5359
G01 X21.2230 Y86.4852
G01 X21.2738 Y86.4319
G01 X21.3219 Y86.3761
G01 X21.3672 Y86.3181
G01 X21.4096 Y86.2579
G01 X21.4490 Y86.1957
G01 X21.4853 Y86.1316
G01 X21.5184 Y86.0659
G01 X21.5482 Y85.9986
G01 X21.5747 Y85.9299
G01 X21.5978 Y85.8600
G01 X21.6174 Y85.7890
G01 X21.6335 Y85.7172
G01 X21.6461 Y85.6446
G01 X21.6551 Y85.5716
G01 X21.6606 Y85.4981
G01 X21.6624 Y85.4245
G01 X21.6582 Y85.3125
G01 X21.6456 Y85.2010
G01 X21.6248 Y85.0908
G01 X21.5957 Y84.9824
G01 X21.5587 Y84.8766
G01 X21.5138 Y84.7737
G01 X21.4614 Y84.6746
G01 X21.4017 Y84.5796
G01 X21.3351 Y84.4893
G01 X21.2620 Y84.4043
G01 X21.1826 Y84.3250
G01 X21.0976 Y84.2518
G01 X21.0074 Y84.1852
G01 X20.9124 Y84.1255
G01 X20.8132 Y84.0731
G01 X20.7104 Y84.0283
G01 X20.6045 Y83.9912
G01 X20.4962 Y83.9622
G01 X20.3860 Y83.9413
G01 X20.2745 Y83.9288
G01 X20.1624 Y83.9246
G01 X20.0503 Y83.9288
G01 X19.9389 Y83.9413
G01 X19.8286 Y83.9622
G01 X19.7203 Y83.9912
G01 X19.6144 Y84.0283
G01 X19.5116 Y84.0731
G01 X19.4124 Y84.1255
G01 X19.3175 Y84.1852
G01 X19.2272 Y84.2518
G01 X19.1422 Y84.3250
G01 X19.0629 Y84.4043
G01 X18.9897 Y84.4893
G01 X18.9231 Y84.5796
G01 X18.8634 Y84.6746
G01 X18.8110 Y84.7737
G01 X18.7661 Y84.8766
G01 X18.7291 Y84.9824
G01 X18.7001 Y85.0908
G01 X18.6792 Y85.2010
G01 X18.6666 Y85.3125
G01 X18.6625 Y85.4245
G01 X18.6666 Y85.5366
G01 X18.6792 Y85.6481
G01 X18.7001 Y85.7583
G01 X18.7291 Y85.8667
G01 X18.7661 Y85.9725
G01 X18.8110 Y86.0754
G01 X18.8634 Y86.1745
G01 X18.9231 Y86.2695
G01 X18.9897 Y86.3598
G01 X19.0629 Y86.4448
G01 X19.1422 Y86.5241
G01 X19.2272 Y86.5973
G01 X19.3175 Y86.6639
G01 X19.4124 Y86.7235
G01 X19.5116 Y86.7760
G01 X19.6144 Y86.8208
G01 X19.7203 Y86.8579
G01 X19.8286 Y86.8869
G01 X19.9389 Y86.9078
G01 X20.0503 Y86.9203
G01 X20.1624 Y86.9245
G01 X20.2745 Y86.9203
G01 X20.3860 Y86.9078
G01 X20.4962 Y86.8869
G01 X20.6045 Y86.8579
G01 X20.7104 Y86.8208
G01 X20.8132 Y86.7760
G01 X20.9124 Y86.7235
G01 X21.0074 Y86.6639
G01 X21.0976 Y86.5973
G01 X21.1826 Y86.5241
G01 X21.2620 Y86.4448
G01 X21.3351 Y86.3598
G01 X21.4017 Y86.2695
G01 X21.4614 Y86.1745
G01 X21.5138 Y86.0754
G01 X21.5587 Y85.9725
G01 X21.5957 Y85.8667
G01 X21.6248 Y85.7583
G01 X21.6456 Y85.6481
G01 X21.6582 Y85.5366
G01 X21.6624 Y85.4245
G01 X21.6578 Y85.3200
G01 X21.6441 Y85.2162
G01 X21.6215 Y85.1140
G01 X21.5900 Y85.0141
G01 X21.5499 Y84.9174
G01 X21.5016 Y84.8246
G01 X21.4454 Y84.7363
G01 X21.3816 Y84.6532
G01 X21.3109 Y84.5760
G01 X21.2337 Y84.5053
G01 X21.1507 Y84.4416
G01 X21.0624 Y84.3853
G01 X20.9695 Y84.3370
G01 X20.8728 Y84.2969
G01 X20.7730 Y84.2655
G01 X20.6708 Y84.2428
G01 X20.5670 Y84.2291
G01 X20.4624 Y84.2246
G01 X20.3578 Y84.2291
G01 X20.2540 Y84.2428
G01 X20.1518 Y84.2655
G01 X20.0520 Y84.2969
G01 X19.9553 Y84.3370
G01 X19.8624 Y84.3853
G01 X19.7741 Y84.4416
G01 X19.6911 Y84.5053
G01 X19.6139 Y84.5760
G01 X19.5432 Y84.6532
G01 X19.4794 Y84.7363
G01 X19.4232 Y84.8246
G01 X19.3748 Y84.9174
G01 X19.3348 Y85.0141
G01 X19.3033 Y85.1140
G01 X19.2806 Y85.2162
G01 X19.2670 Y85.3200
G01 X19.2624 Y85.4245
G01 X19.2635 Y85.4687
G01 X19.2667 Y85.5128
G01 X19.2721 Y85.5566
G01 X19.2797 Y85.6001
G01 X19.2894 Y85.6432
G01 X19.3012 Y85.6858
G01 X19.3150 Y85.7277
G01 X19.3309 Y85.7690
G01 X19.3488 Y85.8093
G01 X19.3687 Y85.8488
G01 X19.3905 Y85.8872
G01 X19.4141 Y85.9246
G01 X19.4395 Y85.9607
G01 X19.4667 Y85.9955
G01 X19.4956 Y86.0290
G01 X19.5260 Y86.0609
G01 X19.5580 Y86.0914
G01 X19.5915 Y86.1203
G01 X19.6263 Y86.1474
G01 X19.6624 Y86.1729
G01 X19.6997 Y86.1965
G01 X19.7382 Y86.2183
G01 X19.7776 Y86.2381
G01 X19.8180 Y86.2560
G01 X19.8592 Y86.2719
G01 X19.9012 Y86.2858
G01 X19.9437 Y86.2976
G01 X19.9868 Y86.3073
G01 X20.0304 Y86.3148
G01 X20.0742 Y86.3202
G01 X20.1182 Y86.3235
G01 X20.1624 Y86.3245
G01 X20.2066 Y86.3235
G01 X20.2506 Y86.3202
G01 X20.2945 Y86.3148
G01 X20.3380 Y86.3073
G01 X20.3811 Y86.2976
G01 X20.4237 Y86.2858
G01 X20.4656 Y86.2719
G01 X20.5068 Y86.2560
G01 X20.5472 Y86.2381
G01 X20.5867 Y86.2183
G01 X20.6251 Y86.1965
G01 X20.6624 Y86.1729
G01 X20.6985 Y86.1474
G01 X20.7334 Y86.1203
G01 X20.7668 Y86.0914
G01 X20.7988 Y86.0609
G01 X20.8293 Y86.0290
G01 X20.8581 Y85.9955
G01 X20.8853 Y85.9607
G01 X20.9107 Y85.9246
G01 X20.9344 Y85.8872
G01 X20.9561 Y85.8488
G01 X20.9760 Y85.8093
G01 X20.9939 Y85.7690
G01 X21.0098 Y85.7277
G01 X21.0237 Y85.6858
G01 X21.0354 Y85.6432
G01 X21.0451 Y85.6001
G01 X21.0527 Y85.5566
G01 X21.0581 Y85.5128
G01 X21.0613 Y85.4687
G01 X21.0624 Y85.4245
G01 X21.0614 Y85.3817 Z-3.1806 F400
G01 X21.0583 Y85.3390 Z-3.1944
G01 X21.0532 Y85.2965 Z-3.2083
G01 X21.0461 Y85.2542 Z-3.2222
G01 X21.0370 Y85.2124 Z-3.2361
G01 X21.0260 Y85.1710 Z-3.2500
G01 X21.0129 Y85.1302 Z-3.2639
G01 X20.9979 Y85.0901 Z-3.2778
G01 X20.9811 Y85.0507 Z-3.2917
G01 X20.9624 Y85.0121 Z-3.3056
G01 X20.9418 Y84.9745 Z-3.3194
G01 X20.9195 Y84.9380 Z-3.3333
G01 X20.8955 Y84.9025 Z-3.3472
G01 X20.8699 Y84.8682 Z-3.3611
G01 X20.8426 Y84.8352 Z-3.3750
G01 X20.8138 Y84.8035 Z-3.3889
G01 X20.7835 Y84.7732 Z-3.4028
G01 X20.7518 Y84.7444 Z-3.4167
G01 X20.7188 Y84.7171 Z-3.4306
G01 X20.6845 Y84.6914 Z-3.4444
G01 X20.6490 Y84.6674 Z-3.4583
G01 X20.6124 Y84.6451 Z-3.4722
G01 X20.5748 Y84.6246 Z-3.4861
G01 X20.5363 Y84.6059 Z-3.5000
G01 X20.4969 Y84.5890 Z-3.5139
G01 X20.4568 Y84.5740 Z-3.5278
G01 X20.4160 Y84.5610 Z-3.5417
G01 X20.3746 Y84.5499 Z-3.5556
G01 X20.3327 Y84.5408 Z-3.5694
G01 X20.2905 Y84.5337 Z-3.5833
G01 X20.2480 Y84.5286 Z-3.5972
G01 X20.2052 Y84.5256 Z-3.6111
G01 X20.1624 Y84.5245 Z-3.6250
G01 X20.1196 Y84.5256 Z-3.6389
G01 X20.0769 Y84.5286 Z-3.6528
G01 X20.0343 Y84.5337 Z-3.6667
G01 X19.9921 Y84.5408 Z-3.6806
G01 X19.9502 Y84.5499 Z-3.6944
G01 X19.9088 Y84.5610 Z-3.7083
G01 X19.8680 Y84.5740 Z-3.7222
G01 X19.8279 Y84.5890 Z-3.7361
G01 X19.7885 Y84.6059 Z-3.7500
G01 X19.7500 Y84.6246 Z-3.7639
G01 X19.7124 Y84.6451 Z-3.7778
G01 X19.6758 Y84.6674 Z-3.7917
G01 X19.6404 Y84.6914 Z-3.8056
G01 X19.6061 Y84.7171 Z-3.8194
G01 X19.5730 Y84.7444 Z-3.8333
G01 X19.5413 Y84.7732 Z-3.8472
G01 X19.5110 Y84.8035 Z-3.8611
G01 X19.4822 Y84.8352 Z-3.8750
G01 X19.4550 Y84.8682 Z-3.8889
G01 X19.4293 Y84.9025 Z-3.9028
G01 X19.4053 Y84.9380 Z-3.9167
G01 X19.3830 Y84.9745 Z-3.9306
G01 X19.3625 Y85.0121 Z-3.9444
G01 X19.3437 Y85.0507 Z-3.9583
G01 X19.3269 Y85.0901 Z-3.9722
G01 X19.3119 Y85.1302 Z-3.9861
G01 X19.2989 Y85.1710 Z-4.0000
G01 X19.2878 Y85.2124 Z-4.0139
G01 X19.2787 Y85.2542 Z-4.0278
G01 X19.2716 Y85.2965 Z-4.0417
G01 X19.2665 Y85.3390 Z-4.0556
G01 X19.2634 Y85.3817 Z-4.0694
G01 X19.2624 Y85.4245 Z-4.0833
G01 X19.2634 Y85.4674 Z-4.0972
G01 X19.2665 Y85.5101 Z-4.1111
G01 X19.2716 Y85.5526 Z-4.1250
G01 X19.2787 Y85.5949 Z-4.1389
G01 X19.2878 Y85.6367 Z-4.1528
G01 X19.2989 Y85.6781 Z-4.1667
G01 X19.3119 Y85.7189 Z-4.1806
G01 X19.3269 Y85.7590 Z-4.1944
G01 X19.3437 Y85.7984 Z-4.2083
G01 X19.3625 Y85.8370 Z-4.2222
G01 X19.3830 Y85.8745 Z-4.2361
G01 X19.4053 Y85.9111 Z-4.2500
G01 X19.4293 Y85.9466 Z-4.2639
G01 X19.4550 Y85.9809 Z-4.2778
G01 X19.4822 Y86.0139 Z-4.2917
G01 X19.5110 Y86.0456 Z-4.3056
G01 X19.5413 Y86.0759 Z-4.3194
G01 X19.5730 Y86.1047 Z-4.3333
G01 X19.6061 Y86.1320 Z-4.3472
G01 X19.6404 Y86.1577 Z-4.3611
G01 X19.6758 Y86.1817 Z-4.3750
G01 X19.7124 Y86.2040 Z-4.3889
G01 X19.7500 Y86.2245 Z-4.4028
G01 X19.7885 Y86.2432 Z-4.4167
G01 X19.8279 Y86.2601 Z-4.4306
G01 X19.8680 Y86.2750 Z-4.4444
G01 X19.9088 Y86.2881 Z-4.4583
G01 X19.9502 Y86.2992 Z-4.4722
G01 X19.9921 Y86.3083 Z-4.4861
G01 X20.0343 Y86.3154 Z-4.5000
G01 X20.0769 Y86.3205 Z-4.5139
G01 X20.1196 Y86.3235 Z-4.5278
G01 X20.1624 Y86.3245 Z-4.5417
G01 X20.2052 Y86.3235 Z-4.5556
G01 X20.2480 Y86.3205 Z-4.5694
G01 X20.2905 Y86.3154 Z-4.5833
G01 X20.3327 Y86.3083 Z-4.5972
G01 X20.3746 Y86.2992 Z-4.6111
G01 X20.4160 Y86.2881 Z-4.6250
G01 X20.4568 Y86.2750 Z-4.6389
G01 X20.4969 Y86.2601 Z-4.6528
G01 X20.5363 Y86.2432 Z-4.6667
G01 X20.5748 Y86.2245 Z-4.6806
G01 X20.6124 Y86.2040 Z-4.6944
G01 X20.6490 Y86.1817 Z-4.7083
G01 X20.6845 Y86.1577 Z-4.7222
G01 X20.7188 Y86.1320 Z-4.7361
G01 X20.7518 Y86.1047 Z-4.7500
G01 X20.7835 Y86.0759 Z-4.7639
G01 X20.8138 Y86.0456 Z-4.7778
G01 X20.8426 Y86.0139 Z-4.7917
G01 X20.8699 Y85.9809 Z-4.8056
G01 X20.8955 Y85.9466 Z-4.8194
G01 X20.9195 Y85.9111 Z-4.8333
G01 X20.9418 Y85.8745 Z-4.8472
G01 X20.9624 Y85.8370 Z-4.8611
G01 X20.9811 Y85.7984 Z-4.8750
G01 X20.9979 Y85.7590 Z-4.8889
G01 X21.0129 Y85.7189 Z-4.9028
G01 X21.0260 Y85.6781 Z-4.9167
G01 X21.0370 Y85.6367 Z-4.9306
G01 X21.0461 Y85.5949 Z-4.9444
G01 X21.0532 Y85.5526 Z-4.9583
G01 X21.0583 Y85.5101 Z-4.9722
G01 X21.0614 Y85.4674 Z-4.9861
G01 X21.0624 Y85.4245 Z-5.0000
G01 X21.0614 Y85.3817
G01 X21.0583 Y85.3390
G01 X21.0532 Y85.2965
G01 X21.0461 Y85.2542
G01 X21.0370 Y85.2124
G01 X21.0260 Y85.1710
G01 X21.0129 Y85.1302
G01 X20.9979 Y85.0901
G01 X20.9811 Y85.0507
G01 X20.9624 Y85.0121
G01 X20.9418 Y84.9745
G01 X20.9195 Y84.9380
G01 X20.8955 Y84.9025
G01 X20.8699 Y84.8682
G01 X20.8426 Y84.8352
G01 X20.8138 Y84.8035
G01 X20.7835 Y84.7732
G01 X20.7518 Y84.7444
G01 X20.7188 Y84.7171
G01 X20.6845 Y84.6914
G01 X20.6490 Y84.6674
G01 X20.6124 Y84.6451
G01 X20.5748 Y84.6246
G01 X20.5363 Y84.6059
G01 X20.4969 Y84.5890
G01 X20.4568 Y84.5740
G01 X20.4160 Y84.5610
G01 X20.3746 Y84.5499
G01 X20.3327 Y84.5408
G01 X20.2905 Y84.5337
G01 X20.2480 Y84.5286
G01 X20.2052 Y84.5256
G01 X20.1624 Y84.5245
G01 X20.1196 Y84.5256
G01 X20.0769 Y84.5286
G01 X20.0343 Y84.5337
G01 X19.9921 Y84.5408
G01 X19.9502 Y84.5499
G01 X19.9088 Y84.5610
G01 X19.8680 Y84.5740
G01 X19.8279 Y84.5890
G01 X19.7885 Y84.6059
G01 X19.7500 Y84.6246
G01 X19.7124 Y84.6451
G01 X19.6758 Y84.6674
G01 X19.6404 Y84.6914
G01 X19.6061 Y84.7171
G01 X19.5730 Y84.7444
G01 X19.5413 Y84.7732
G01 X19.5110 Y84.8035
G01 X19.4822 Y84.8352
G01 X19.4550 Y84.8682
G01 X19.4293 Y84.9025
G01 X19.4053 Y84.9380
G01 X19.3830 Y84.9745
G01 X19.3625 Y85.0121
G01 X19.3437 Y85.0507
G01 X19.3269 Y85.0901
G01 X19.3119 Y85.1302
G01 X19.2989 Y85.1710
G01 X19.2878 Y85.2124
G01 X19.2787 Y85.2542
G01 X19.2716 Y85.2965
G01 X19.2665 Y85.3390
G01 X19.2634 Y85.3817
G01 X19.2624 Y85.4245
G01 X19.2634 Y85.4674
G01 X19.2665 Y85.5101
G01 X19.2716 Y85.5526
G01 X19.2787 Y85.5949
G01 X19.2878 Y85.6367
G01 X19.2989 Y85.6781
G01 X19.3119 Y85.7189
G01 X19.3269 Y85.7590
G01 X19.3437 Y85.7984
G01 X19.3625 Y85.8370
G01 X19.3830 Y85.8745
G01 X19.4053 Y85.9111
G01 X19.4293 Y85.9466
G01 X19.4550 Y85.9809
G01 X19.4822 Y86.0139
G01 X19.5110 Y86.0456
G01 X19.5413 Y86.0759
G01 X19.5730 Y86.1047
G01 X19.6061 Y86.1320
G01 X19.6404 Y86.1577
G01 X19.6758 Y86.1817
G01 X19.7124 Y86.2040
G01 X19.7500 Y86.2245
G01 X19.7885 Y86.2432
G01 X19.8279 Y86.2601
G01 X19.8680 Y86.2750
G01 X19.9088 Y86.2881
G01 X19.9502 Y86.2992
G01 X19.9921 Y86.3083
G01 X20.0343 Y86.3154
G01 X20.0769 Y86.3205
G01 X20.1196 Y86.3235
G01 X20.1624 Y86.3245
G01 X20.2052 Y86.3235
G01 X20.2480 Y86.3205
G01 X20.2905 Y86.3154
G01 X20.3327 Y86.3083
G01 X20.3746 Y86.2992
G01 X20.4160 Y86.2881
G01 X20.4568 Y86.2750
G01 X20.4969 Y86.2601
G01 X20.5363 Y86.2432
G01 X20.5748 Y86.2245
G01 X20.6124 Y86.2040
G01 X20.6490 Y86.1817
G01 X20.6845 Y86.1577
G01 X20.7188 Y86.1320
G01 X20.7518 Y86.1047
G01 X20.7835 Y86.0759
G01 X20.8138 Y86.0456
G01 X20.8426 Y86.0139
G01 X20.8699 Y85.9809
G01 X20.8955 Y85.9466
G01 X20.9195 Y85.9111
G01 X20.9418 Y85.8745
G01 X20.9624 Y85.8370
G01 X20.9811 Y85.7984
G01 X20.9979 Y85.7590
G01 X21.0129 Y85.7189
G01 X21.0260 Y85.6781
G01 X21.0370 Y85.6367
G01 X21.0461 Y85.5949
G01 X21.0532 Y85.5526
G01 X21.0583 Y85.5101
G01 X21.0614 Y85.4674
G01 X21.0624 Y85.4245
G01 X21.0700 Y85.3935 F1000
G01 X21.0764 Y85.3622
G01 X21.0818 Y85.3307
G01 X21.0861 Y85.2990
G01 X21.0892 Y85.2672
G01 X21.0913 Y85.2353
G01 X21.0923 Y85.2034
G01 X21.0921 Y85.1715
G01 X21.0909 Y85.1395
G01 X21.0885 Y85.1077
G01 X21.0851 Y85.0759
G01 X21.0805 Y85.0443
G01 X21.0708 Y84.9928
G01 X21.0585 Y84.9418
G01 X21.0436 Y84.8916
G01 X21.0261 Y84.8422
G01 X21.0060 Y84.7938
G01 X20.9835 Y84.7464
G01 X20.9586 Y84.7003
G01 X20.9314 Y84.6556
G01 X20.8994 Y84.6085
G01 X20.8650 Y84.5632
G01 X20.8283 Y84.5197
G01 X20.7895 Y84.4781
G01 X20.7486 Y84.4386
G01 X20.7057 Y84.4012
G01 X20.6609 Y84.3660
G01 X20.6145 Y84.3332
G01 X20.5626 Y84.3004
G01 X20.5091 Y84.2702
G01 X20.4541 Y84.2429
G01 X20.3978 Y84.2183
G01 X20.3403 Y84.1966
G01 X20.2819 Y84.1779
G01 X20.2225 Y84.1622
G01 X20.1624 Y84.1495
G01 X20.0973 Y84.1392
G01 X20.0317 Y84.1322
G01 X19.9659 Y84.1285
G01 X19.9000 Y84.1282
G01 X19.8341 Y84.1311
G01 X19.7685 Y84.1374
G01 X19.7033 Y84.1471
G01 X19.6386 Y84.1600
G01 X19.5703 Y84.1773
G01 X19.5029 Y84.1979
G01 X19.4367 Y84.2220
G01 X19.3718 Y84.2494
G01 X19.3083 Y84.2800
G01 X19.2465 Y84.3137
G01 X19.1864 Y84.3506
G01 X19.1283 Y84.3904
G01 X19.0747 Y84.4398
G01 X19.0237 Y84.4918
G01 X18.9753 Y84.5463
G01 X18.9297 Y84.6031
G01 X18.8869 Y84.6620
G01 X18.8471 Y84.7230
G01 X18.8103 Y84.7859
G01 X18.7766 Y84.8505
G01 X18.7501 Y84.9192
G01 X18.7270 Y84.9891
G01 X18.7074 Y85.0601
G01 X18.6913 Y85.1319
G01 X18.6787 Y85.2045
G01 X18.6697 Y85.2775
G01 X18.6643 Y85.3509
G01 X18.6625 Y85.4245
G01 X18.6643 Y85.4981
G01 X18.6697 Y85.5716
G01 X18.6787 Y85.6446
G01 X18.6913 Y85.7172
G01 X18.7074 Y85.7890
G01 X18.7270 Y85.8600
G01 X18.7501 Y85.9299
G01 X18.7766 Y85.9986
G01 X18.8065 Y86.0659
G01 X18.8396 Y86.1316
G01 X18.8759 Y86.1957
G01 X18.9152 Y86.2579
G01 X18.9576 Y86.3181
G01 X19.0029 Y86.3761
G01 X19.0510 Y86.4319
G01 X19.1018 Y86.4852
G01 X19.1551 Y86.5359
G01 X19.2108 Y86.5840
G01 X19.2689 Y86.6293
G01 X19.3291 Y86.6717
G01 X19.3913 Y86.7111
G01 X19.4553 Y86.7474
G01 X19.5211 Y86.7805
G01 X19.5884 Y86.8103
G01 X19.6571 Y86.8368
G01 X19.7270 Y86.8599
G01 X19.7979 Y86.8796
G01 X19.8698 Y86.8957
G01 X19.9423 Y86.9083
G01 X20.0154 Y86.9173
G01 X20.0888 Y86.9227
G01 X20.1624 Y86.9245
G01 X20.2360 Y86.9227
G01 X20.3094 Y86.9173
G01 X20.3825 Y86.9083
G01 X20.4550 Y86.8957
G01 X20.5269 Y86.8796
G01 X20.5978 Y86.8599
G01 X20.6677 Y86.8368
G01 X20.7364 Y86.8103
G01 X20.8037 Y86.7805
G01 X20.8695 Y86.7474
G01 X20.9335 Y86.7111
G01 X20.9957 Y86.6717
G01 X21.0559 Y86.6293
G01 X21.1140 Y86.5840
G01 X21.1697 Y86.5359
G01 X21.2230 Y86.4852
G01 X21.2738 Y86.4319
G01 X21.3219 Y86.3761
G01 X21.3672 Y86.3181
G01 X21.4096 Y86.2579
G01 X21.4490 Y86.1957
G01 X21.4853 Y86.1316
G01 X21.5184 Y86.0659
G01 X21.5482 Y85.9986
G01 X21.5747 Y85.9299
G01 X21.5978 Y85.8600
G01 X21.6174 Y85.7890
G01 X21.6335 Y85.7172
G01 X21.6461 Y85.6446
G01 X21.6551 Y85.5716
G01 X21.6606 Y85.4981
G01 X21.6624 Y85.4245
G01 X21.6582 Y85.3125
G01 X21.6456 Y85.2010
G01 X21.6248 Y85.0908
G01 X21.5957 Y84.9824
G01 X21.5587 Y84.8766
G01 X21.5138 Y84.7737
G01 X21.4614 Y84.6746
G01 X21.4017 Y84.5796
G01 X21.3351 Y84.4893
G01 X21.2620 Y84.4043
G01 X21.1826 Y84.3250
G01 X21.0976 Y84.2518
G01 X21.0074 Y84.1852
G01 X20.9124 Y84.1255
G01 X20.8132 Y84.0731
G01 X20.7104 Y84.0283
G01 X20.6045 Y83.9912
G01 X20.4962 Y83.9622
G01 X20.3860 Y83.9413
G01 X20.2745 Y83.9288
G01 X20.1624 Y83.9246
G01 X20.0503 Y83.9288
G01 X19.9389 Y83.9413
G01 X19.8286 Y83.9622
G01 X19.7203 Y83.9912
G01 X19.6144 Y84.0283
G01 X19.5116 Y84.0731
G01 X19.4124 Y84.1255
G01 X19.3175 Y84.1852
G01 X19.2272 Y84.2518
G01 X19.1422 Y84.3250
G01 X19.0629 Y84.4043
G01 X18.9897 Y84.4893
G01 X18.9231 Y84.5796
G01 X18.8634 Y84.6746
G01 X18.8110 Y84.7737
G01 X18.7661 Y84.8766
G01 X18.7291 Y84.9824
G01 X18.7001 Y85.0908
G01 X18.6792 Y85.2010
G01 X18.6666 Y85.3125
G01 X18.6625 Y85.4245
G01 X18.6666 Y85.5366
G01 X18.6792 Y85.6481
G01 X18.7001 Y85.7583
G01 X18.7291 Y85.8667
G01 X18.7661 Y85.9725
G01 X18.8110 Y86.0754
G01 X18.8634 Y86.1745
G01 X18.9231 Y86.2695
G01 X18.9897 Y86.3598
G01 X19.0629 Y86.4448
G01 X19.1422 Y86.5241
G01 X19.2272 Y86.5973
G01 X19.3175 Y86.6639
G01 X19.4124 Y86.7235
G01 X19.5116 Y86.7760
G01 X19.6144 Y86.8208
G01 X19.7203 Y86.8579
G01 X19.8286 Y86.8869
G01 X19.9389 Y86.9078
G01 X20.0503 Y86.9203
G01 X20.1624 Y86.9245
G01 X20.2745 Y86.9203
G01 X20.3860 Y86.9078
G01 X20.4962 Y86.8869
G01 X20.6045 Y86.8579
G01 X20.7104 Y86.8208
G01 X20.8132 Y86.7760
G01 X20.9124 Y86.7235
G01 X21.0074 Y86.6639
G01 X21.0976 Y86.5973
G01 X21.1826 Y86.5241
G01 X21.2620 Y86.4448
G01 X21.3351 Y86.3598
G01 X21.4017 Y86.2695
G01 X21.4614 Y86.1745
G01 X21.5138 Y86.0754
G01 X21.5587 Y85.9725
G01 X21.5957 Y85.8667
G01 X21.6248 Y85.7583
G01 X21.6456 Y85.6481
G01 X21.6582 Y85.5366
G01 X21.6624 Y85.4245
G01 X21.6593 Y85.3461 Z-4.9750 F400
G01 X21.6501 Y85.2681 Z-4.9500
G01 X21.6347 Y85.1911 Z-4.9250
G01 X21.6134 Y85.1155 Z-4.9000
G01 X21.5862 Y85.0419 Z-4.8750
G01 X21.5534 Y84.9706 Z-4.8500
G01 X21.5150 Y84.9020 Z-4.8250
G01 X21.4714 Y84.8368 Z-4.8000
G01 X21.4228 Y84.7751 Z-4.7750
G01 X21.3695 Y84.7174 Z-4.7500
G01 X21.3118 Y84.6641 Z-4.7250
G01 X21.2501 Y84.6155 Z-4.7000
G01 X21.1849 Y84.5719 Z-4.6750
G01 X21.1164 Y84.5335 Z-4.6500
G01 X21.0450 Y84.5007 Z-4.6250
G01 X20.9714 Y84.4735 Z-4.6000
G01 X20.8958 Y84.4522 Z-4.5750
G01 X20.8188 Y84.4369 Z-4.5500
G01 X20.7408 Y84.4276 Z-4.5250
G01 X20.6624 Y84.4245 Z-4.5000
G00 Z5.0000


;No. 2: Hole 19
G00 X34.5847 Y83.6422 Z5.0000
G00 Z0.5000
G01 Z0.0000 F400
G01 Z-1.3000
G01 X39.9733 F1000
G01 X39.2707
G01 Y82.1422
G01 X34.6769
G01 X35.0259 Y80.6422
G01 X38.8222
G01 X38.5393 Y79.1422
G01 X35.6150
G01 X36.4831 Y77.6422
G01 X38.4406
G01 X38.5035 Y76.1422
G01 X37.7374
G00 Z5.0000
G00 X34.7247 Y83.6422
G00 Z0.5000
G01 Z-1.3000 F400
G01 Y85.1422 F1000
G01 X52.2959
G01 X52.2297
G01 Y86.6422
G01 X35.1127
G01 X35.7445 Y88.1422
G01 X52.7892
G01 X53.4785 Y89.6422
G01 X36.6573
G01 X38.0248 Y91.1422
G01 X54.6084
G01 X56.3158 Y92.6422
G01 X39.7330
G01 X40.0067
G01 Y94.1422
G01 X54.7850
G01 X53.7264 Y95.6422
G01 X31.8118
G01 X32.7818 Y97.1422
G01 X52.6635
G01 X50.7639 Y98.6422
G01 X34.2768
G01 X37.0460 Y100.1422
G01 X46.2908
G00 Z5.0000
G00 X41.5840 Y85.1422
G00 Z0.5000
G01 Z-1.3000 F400
G01 Y83.6422 F1000
G01 X97.8875
G01 Y85.1422
G01 X98.2494
G01 X54.8262
G01 X55.8385 Y86.6422
G01 X99.0572
G01 X99.8133 Y88.1422
G01 X57.1770
G01 X58.9661 Y89.6422
G01 X100.4632
G01 X101.0061 Y91.1422
G01 X60.6296
G01 X61.0118
G01 Y92.6422
G01 X101.5159
G01 X102.0090 Y94.1422
G01 X60.5839
G01 X59.1078 Y95.6422
G01 X102.4687
G01 X102.8614 Y97.1422
G01 X60.1796
G01 X60.1873 Y98.6422
G01 X103.1531
G01 X103.3216 Y100.1422
G01 X60.1912
G01 X60.3405 Y101.6422
G01 X103.3318
G01 X103.1785 Y103.1422
G01 X60.4987
G01 X60.6606 Y104.6422
G01 X102.8759
G01 X102.4279 Y106.1422
G01 X60.8224
G01 X60.9843 Y107.6422
G01 X76.6773
G01 X76.1628
G01 Y109.1422
G01 X74.3557
G01 X74.4804 Y110.6422
G01 X76.6365
G01 X77.1173 Y112.1422
G01 X74.5756
G01 X74.6408 Y113.6422
G01 X77.5980
G01 X78.0818 Y115.1422
G01 X74.6125
G01 X74.4782 Y116.6422
G01 X80.8515
G01 X79.5346
G01 Y118.1422
G01 X74.2283
G01 X73.8655 Y119.6422
G01 X79.4402
G01 X79.4977 Y121.1422
G01 X73.3886
G01 X72.8119 Y122.6422
G01 X79.5408
G01 X79.5391 Y124.1422
G01 X72.0873
G01 X71.0962 Y125.6422
G01 X75.0355
G01 X73.8200
G01 Y127.1422
G01 X69.6420
G01 X67.6496 Y128.6422
G01 X74.1371
G01 X74.3555 Y130.1422
G01 X71.1914
G01 X73.1047
G01 Y131.6422
G01 X74.4030
G01 Y133.1422
G01 X74.6627
G01 X74.0081
G01 X74.4158 Y134.6422
G01 X76.5619
G01 X75.7057 Y136.1422
G01 X74.3994
G01 X74.7228 Y137.6422
G01 X74.0117
G01 X76.6768 Y133.1422
G01 X77.3223
G01 X77.4284 Y131.6422
G01 X77.9815
G01 X77.7173 Y130.1422
G01 X78.5280
G01 X78.9514 Y128.6422
G01 X77.5380
G01 X77.0266 Y127.1422
G01 X79.2622
G01 X79.4583 Y125.6422
G01 X75.6464
G01 X75.6718 Y125.8571
G01 X75.7642 Y125.8892
G01 X75.8544 Y125.9268
G01 X75.9421 Y125.9700
G01 X76.0269 Y126.0186
G01 X76.1086 Y126.0723
G01 X76.1867 Y126.1310
G01 X76.2611 Y126.1944
G01 X76.3315 Y126.2622
G01 X76.3975 Y126.3344
G01 X76.4589 Y126.4104
G01 X76.5154 Y126.4901
G01 X76.5670 Y126.5732
G01 X76.6132 Y126.6593
G01 X76.6541 Y126.7481
G01 X76.6894 Y126.8393
G01 X76.7189 Y126.9324
G01 X76.8888 Y127.3003
G01 X77.0393 Y127.6766
G01 X77.1701 Y128.0601
G01 X77.2809 Y128.4499
G01 X77.3712 Y128.8449
G01 X77.4410 Y129.2441
G01 X77.4899 Y129.6464
G01 X77.5180 Y130.0506
G01 X77.4991 Y130.3732
G01 X77.4599 Y130.6940
G01 X77.4007 Y131.0117
G01 X77.3216 Y131.3250
G01 X77.2230 Y131.6327
G01 X77.1053 Y131.9337
G01 X76.9688 Y132.2266
G01 X76.8142 Y132.5104
G01 X76.7234 Y132.6787
G01 X76.6261 Y132.8435
G01 X76.5225 Y133.0043
G01 X76.4128 Y133.1610
G01 X76.3464 Y133.2228
G01 X76.2750 Y133.2787
G01 X76.1990 Y133.3283
G01 X76.1190 Y133.3711
G01 X76.0356 Y133.4068
G01 X75.9495 Y133.4353
G01 X75.8612 Y133.4563
G01 X75.7715 Y133.4696
G01 X75.6809 Y133.4751
G01 X75.5902 Y133.4728
G01 X75.5001 Y133.4627
G01 X75.4111 Y133.4449
G01 X75.3240 Y133.4196
G01 X75.2394 Y133.3868
G01 X75.1580 Y133.3469
G01 X75.0802 Y133.3001
G01 X75.0068 Y133.2468
G01 X74.9383 Y133.1874
G01 X74.8751 Y133.1223
G01 X74.8177 Y133.0520
G01 X74.7666 Y132.9771
G01 X74.7221 Y132.8980
G01 X74.6846 Y132.8154
G01 X74.6543 Y132.7299
G01 X74.6315 Y132.6421
G01 X74.6163 Y132.5527
G01 X74.6089 Y132.4623
G01 X74.6093 Y132.3715
G01 X74.6240 Y131.9443
G01 X74.6271 Y131.5168
G01 X74.6188 Y131.0894
G01 X74.5990 Y130.6624
G01 X74.5676 Y130.2361
G01 X74.5248 Y129.8108
G01 X74.4706 Y129.3867
G01 X74.4050 Y128.9643
G01 X74.3187 Y128.5640
G01 X74.2278 Y128.1646
G01 X74.1325 Y127.7663
G01 X74.0327 Y127.3691
G01 X74.0187 Y127.2752
G01 X74.0115 Y127.1805
G01 X74.0111 Y127.0856
G01 X74.0176 Y126.9908
G01 X74.0309 Y126.8968
G01 X74.0509 Y126.8040
G01 X74.0776 Y126.7128
G01 X74.1107 Y126.6238
G01 X74.1502 Y126.5375
G01 X74.1959 Y126.4542
G01 X74.2474 Y126.3744
G01 X74.3045 Y126.2985
G01 X74.3669 Y126.2270
G01 X74.4344 Y126.1601
G01 X74.5064 Y126.0983
G01 X74.5828 Y126.0418
G01 X74.6630 Y125.9910
G01 X74.7467 Y125.9461
G01 X74.8334 Y125.9073
G01 X74.9226 Y125.8749
G01 X75.0140 Y125.8490
G01 X75.1070 Y125.8297
G01 X75.2012 Y125.8172
G01 X75.2959 Y125.8116
G01 X75.3909 Y125.8128
G01 X75.4855 Y125.8208
G01 X75.5793 Y125.8356
G01 X75.6718 Y125.8571
G01 X75.6464 Y125.6422
G00 Z5.0000
G00 X71.9818 Y107.6422
G00 Z0.5000
G01 Z-1.3000 F400
G01 Y109.1422 F1000
G01 X60.7129
G01 Y110.6422
G01 X59.0462
G01 X70.9712
G01 X69.9146 Y112.1422
G01 X57.0584
G01 X55.3098 Y113.6422
G01 X68.5720
G01 X66.7238 Y115.1422
G01 X53.8544
G01 X52.6337 Y116.6422
G01 X63.9577
G01 X57.8850
G01 Y118.1422
G01 X51.6169
G01 X50.7542 Y119.6422
G01 X56.5763
G01 Y121.1422
G01 X57.5879
G01 X50.0120
G01 X49.3728 Y122.6422
G01 X60.0653
G01 X59.0496 Y124.1422
G01 X61.3029
G01 X60.8496 Y125.6422
G01 X62.0743
G01 X61.7757 Y127.1422
G01 X62.5265
G01 X62.4539 Y130.1422
G01 X63.0824
G01 X63.2269 Y130.0017
G01 X63.1744 Y129.9160
G01 X63.1284 Y129.8266
G01 X63.0895 Y129.7339
G01 X63.0576 Y129.6386
G01 X63.0331 Y129.5411
G01 X63.0160 Y129.4420
G01 X63.0065 Y129.3419
G01 X63.0046 Y129.2414
G01 X62.9782 Y128.8552
G01 X62.9408 Y128.4700
G01 X62.8923 Y128.0859
G01 X62.8327 Y127.7035
G01 X62.7622 Y127.3229
G01 X62.6808 Y126.9444
G01 X62.5886 Y126.5685
G01 X62.4856 Y126.1954
G01 X62.3577 Y125.8125
G01 X62.2120 Y125.4361
G01 X62.0486 Y125.0670
G01 X61.8680 Y124.7060
G01 X61.6706 Y124.3539
G01 X61.4567 Y124.0115
G01 X61.2269 Y123.6796
G01 X60.9817 Y123.3590
G01 X60.7217 Y123.0503
G01 X60.4474 Y122.7541
G01 X60.1593 Y122.4713
G01 X59.8583 Y122.2024
G01 X59.5840 Y122.0087
G01 X59.3043 Y121.8230
G01 X59.0193 Y121.6454
G01 X58.7294 Y121.4760
G01 X58.4347 Y121.3151
G01 X58.1356 Y121.1626
G01 X57.8322 Y121.0188
G01 X57.5248 Y120.8837
G01 X57.4314 Y120.8322
G01 X57.3424 Y120.7735
G01 X57.2583 Y120.7079
G01 X57.1797 Y120.6359
G01 X57.1071 Y120.5579
G01 X57.0408 Y120.4743
G01 X56.9814 Y120.3858
G01 X56.9292 Y120.2928
G01 X56.8844 Y120.1961
G01 X56.8475 Y120.0960
G01 X56.8187 Y119.9934
G01 X56.7980 Y119.8888
G01 X56.7857 Y119.7829
G01 X56.7818 Y119.6763
G01 X56.7864 Y119.5698
G01 X56.7994 Y119.4640
G01 X56.8207 Y119.3595
G01 X56.8502 Y119.2570
G01 X56.8877 Y119.1572
G01 X56.9331 Y119.0607
G01 X56.9889 Y118.9709
G01 X57.0510 Y118.8852
G01 X57.1189 Y118.8041
G01 X57.1923 Y118.7279
G01 X57.2709 Y118.6571
G01 X57.3542 Y118.5920
G01 X57.4420 Y118.5329
G01 X57.5336 Y118.4801
G01 X57.6288 Y118.4338
G01 X57.7269 Y118.3944
G01 X57.8276 Y118.3619
G01 X57.9303 Y118.3366
G01 X59.1675 Y118.1080
G01 X60.3987 Y117.8490
G01 X61.6231 Y117.5597
G01 X62.8401 Y117.2404
G01 X63.5371 Y117.0064
G01 X64.2215 Y116.7379
G01 X64.8917 Y116.4354
G01 X65.5459 Y116.0998
G01 X66.1824 Y115.7319
G01 X66.7998 Y115.3326
G01 X67.3964 Y114.9029
G01 X67.9708 Y114.4438
G01 X68.5215 Y113.9567
G01 X69.0471 Y113.4426
G01 X69.5463 Y112.9028
G01 X70.0179 Y112.3387
G01 X70.6391 Y111.4614
G01 X71.2541 Y110.5797
G01 X71.8628 Y109.6937
G01 X72.4652 Y108.8034
G01 X72.5240 Y108.7441
G01 X72.5875 Y108.6899
G01 X72.6554 Y108.6412
G01 X72.7270 Y108.5984
G01 X72.8020 Y108.5617
G01 X72.8798 Y108.5313
G01 X72.9599 Y108.5076
G01 X73.0416 Y108.4906
G01 X73.1245 Y108.4805
G01 X73.2080 Y108.4773
G01 X73.2914 Y108.4811
G01 X73.3742 Y108.4919
G01 X73.4558 Y108.5095
G01 X73.5357 Y108.5339
G01 X73.6132 Y108.5649
G01 X73.6879 Y108.6022
G01 X73.7592 Y108.6456
G01 X73.8267 Y108.6948
G01 X73.8898 Y108.7495
G01 X73.9481 Y108.8093
G01 X74.0012 Y108.8737
G01 X74.0488 Y108.9423
G01 X74.0905 Y109.0146
G01 X74.1260 Y109.0902
G01 X74.1551 Y109.1685
G01 X74.1776 Y109.2489
G01 X74.1932 Y109.3309
G01 X74.2020 Y109.4140
G01 X74.3009 Y110.5630
G01 X74.3741 Y111.7140
G01 X74.4215 Y112.8664
G01 X74.4431 Y114.0195
G01 X74.4269 Y114.7497
G01 X74.3859 Y115.4788
G01 X74.3203 Y116.2062
G01 X74.2301 Y116.9309
G01 X74.1153 Y117.6521
G01 X73.9762 Y118.3690
G01 X73.8129 Y119.0808
G01 X73.6255 Y119.7867
G01 X73.4143 Y120.4858
G01 X73.1795 Y121.1773
G01 X72.9214 Y121.8605
G01 X72.6403 Y122.5345
G01 X72.4747 Y122.9411
G01 X72.2933 Y123.3409
G01 X72.0964 Y123.7333
G01 X71.8843 Y124.1177
G01 X71.6573 Y124.4935
G01 X71.4157 Y124.8601
G01 X71.1600 Y125.2169
G01 X70.8905 Y125.5635
G01 X70.6076 Y125.8992
G01 X70.3118 Y126.2236
G01 X70.0035 Y126.5362
G01 X69.6832 Y126.8364
G01 X69.2858 Y127.1821
G01 X68.8785 Y127.5161
G01 X68.4618 Y127.8382
G01 X68.0360 Y128.1482
G01 X67.6014 Y128.4457
G01 X67.1584 Y128.7306
G01 X66.7074 Y129.0026
G01 X66.2487 Y129.2615
G01 X65.7830 Y129.5372
G01 X65.3151 Y129.8090
G01 X64.8449 Y130.0770
G01 X64.3725 Y130.3411
G01 X64.3292 Y130.3559
G01 X64.2853 Y130.3688
G01 X64.2409 Y130.3796
G01 X64.1960 Y130.3884
G01 X64.1507 Y130.3951
G01 X64.1052 Y130.3998
G01 X64.0596 Y130.4023
G01 X64.0138 Y130.4028
G01 X63.9681 Y130.4012
G01 X63.9225 Y130.3974
G01 X63.8771 Y130.3916
G01 X63.8321 Y130.3837
G01 X63.7874 Y130.3738
G01 X63.7433 Y130.3618
G01 X63.6997 Y130.3478
G01 X63.6569 Y130.3318
G01 X63.6148 Y130.3139
G01 X63.5736 Y130.2941
G01 X63.5333 Y130.2724
G01 X63.4941 Y130.2489
G01 X63.4560 Y130.2236
G01 X63.4191 Y130.1965
G01 X63.3834 Y130.1679
G01 X63.3491 Y130.1376
G01 X63.3163 Y130.1058
G01 X63.2849 Y130.0725
G01 X63.2551 Y130.0378
G01 X63.2269 Y130.0017
G01 X63.0824 Y130.1422
G01 X63.3276 Y131.6422
G01 X62.3544
G01 X61.7645 Y134.6422
G01 X61.2470
G01 X61.3420 Y136.1422
G01 X59.9727
G01 X58.4508 Y137.6422
G01 X49.5417
G01 X48.9011 Y136.1422
G01 X51.3082
G01 X49.8823 Y134.6422
G01 X48.4517
G01 X48.1399 Y133.1422
G01 X49.0257
G01 X48.5834 Y131.6422
G01 X47.9564
G01 X47.8962 Y130.1422
G01 X48.4813
G01 X48.7056 Y128.6422
G01 X47.9552
G01 X48.1302 Y127.1422
G01 X49.2949
G01 X48.4240 Y125.6422
G01 X50.3847
G01 X48.8380 Y124.1422
G01 X52.3816
G01 X52.4612 Y124.3262
G01 X52.8738 Y124.1214
G01 X53.2992 Y123.9449
G01 X53.7355 Y123.7974
G01 X54.1808 Y123.6797
G01 X54.6330 Y123.5923
G01 X55.0900 Y123.5355
G01 X55.5498 Y123.5096
G01 X56.0104 Y123.5148
G01 X56.4695 Y123.5510
G01 X56.9252 Y123.6181
G01 X57.3753 Y123.7157
G01 X57.8178 Y123.8434
G01 X58.2507 Y124.0006
G01 X58.6720 Y124.1867
G01 X59.0798 Y124.4007
G01 X59.4723 Y124.6417
G01 X59.8184 Y124.9108
G01 X60.1460 Y125.2020
G01 X60.4538 Y125.5142
G01 X60.7404 Y125.8459
G01 X61.0045 Y126.1957
G01 X61.2451 Y126.5622
G01 X61.4610 Y126.9437
G01 X61.6514 Y127.3385
G01 X61.8154 Y127.7451
G01 X61.9524 Y128.1615
G01 X62.0616 Y128.5860
G01 X62.1427 Y129.0168
G01 X62.2060 Y129.4461
G01 X62.2455 Y129.8783
G01 X62.2609 Y130.3119
G01 X62.2523 Y130.7458
G01 X62.2196 Y131.1785
G01 X62.1630 Y131.6087
G01 X62.0826 Y132.0351
G01 X61.9787 Y132.4565
G01 X61.8516 Y132.8714
G01 X61.7017 Y133.2786
G01 X61.5295 Y133.6769
G01 X61.3354 Y134.0650
G01 X61.1202 Y134.4418
G01 X60.8843 Y134.8061
G01 X60.6287 Y135.1567
G01 X60.3540 Y135.4926
G01 X60.0856 Y135.7655
G01 X59.8012 Y136.0216
G01 X59.5017 Y136.2600
G01 X59.1883 Y136.4796
G01 X58.8621 Y136.6799
G01 X58.5243 Y136.8599
G01 X58.1763 Y137.0190
G01 X57.8191 Y137.1567
G01 X57.4543 Y137.2724
G01 X57.0831 Y137.3657
G01 X56.7069 Y137.4362
G01 X56.3271 Y137.4837
G01 X55.8975 Y137.4895
G01 X55.4680 Y137.4735
G01 X55.0400 Y137.4359
G01 X54.6143 Y137.3768
G01 X54.1922 Y137.2962
G01 X53.7747 Y137.1945
G01 X53.3629 Y137.0719
G01 X52.9577 Y136.9287
G01 X52.5644 Y136.7323
G01 X52.1834 Y136.5131
G01 X51.8159 Y136.2718
G01 X51.4633 Y136.0092
G01 X51.1269 Y135.7262
G01 X50.8078 Y135.4239
G01 X50.5070 Y135.1032
G01 X50.2258 Y134.7653
G01 X49.9649 Y134.4115
G01 X49.7254 Y134.0428
G01 X49.5081 Y133.6606
G01 X49.3138 Y133.2663
G01 X49.1431 Y132.8612
G01 X48.9965 Y132.4467
G01 X48.8748 Y132.0243
G01 X48.7781 Y131.5955
G01 X48.7182 Y131.1775
G01 X48.6844 Y130.7567
G01 X48.6769 Y130.3346
G01 X48.6955 Y129.9128
G01 X48.7403 Y129.4930
G01 X48.8111 Y129.0768
G01 X48.9077 Y128.6657
G01 X49.0295 Y128.2615
G01 X49.1763 Y127.8656
G01 X49.3473 Y127.4797
G01 X49.5420 Y127.1050
G01 X49.7596 Y126.7432
G01 X49.9993 Y126.3956
G01 X50.2601 Y126.0636
G01 X50.5410 Y125.7484
G01 X50.8409 Y125.4513
G01 X51.1587 Y125.1734
G01 X51.4932 Y124.9157
G01 X51.8430 Y124.6794
G01 X52.2068 Y124.4652
G01 X52.2698 Y124.4293
G01 X52.3332 Y124.3942
G01 X52.3970 Y124.3598
G01 X52.4612 Y124.3262
G01 X52.3816 Y124.1422
G00 Z5.0000
G00 X53.7690 Y137.6422
G00 Z0.5000
G01 Z-1.3000 F400
G01 Y139.1422 F1000
G01 X50.3392
G00 Z5.0000
G00 X78.4478 Y106.1422
G00 Z0.5000
G01 Z-1.3000 F400
G01 Y107.6422 F1000
G01 X101.8216
G01 X100.8830 Y109.1422
G01 X86.6459
G01 X86.9254
G01 Y110.6422
G01 X92.7093
G01 X92.6332
G01 Y112.1422
G01 X91.3051
G01 Y113.6422
G01 X91.2040
G01 X95.4285
G01 X90.8089 Y115.1422
G01 X108.5684
G01 Y113.6422
G01 X109.3134
G01 X101.1689
G01 X103.8742
G01 Y112.1422
G01 X111.7652
G01 X113.4344 Y110.6422
G01 X105.3437
G01 X106.2779 Y109.1422
G01 X114.6305
G01 X115.4636 Y107.6422
G01 X106.8670
G01 X107.2276 Y106.1422
G01 X109.3016
G01 X109.0607
G01 Y104.6422
G01 X107.4486
G01 X107.5469 Y103.1422
G01 X109.6666
G01 X110.2041 Y101.6422
G01 X107.5416
G01 X107.4512 Y100.1422
G01 X110.5566
G01 X110.7065 Y98.6422
G01 X107.2880
G01 X107.0516 Y97.1422
G01 X110.6460
G01 X110.3687 Y95.6422
G01 X106.7370
G01 X106.3367 Y94.1422
G01 X109.8257
G00 Z5.0000
G00 X110.9767 Y107.6422
G00 Z0.5000
G01 Z-1.3000 F400
G01 Y106.1422 F1000
G01 X116.0283
G01 X116.3687 Y104.6422
G01 X112.5936
G01 X113.8665 Y103.1422
G01 X116.5057
G01 X116.4426 Y101.6422
G01 X114.8649
G01 X115.5852 Y100.1422
G01 X116.1555
G00 Z5.0000
G00 X87.3993 Y110.6422
G00 Z0.5000
G01 Z-1.3000 F400
G01 Y112.1422 F1000
G01 X85.3705
G01 X83.2824 Y113.6422
G01 X85.2968
G01 X81.1800 Y115.1422
G01 X83.0742
G00 Z5.0000
G00 X83.9685 Y107.6422
G00 Z0.5000
G01 Z-1.3000 F400
G01 Y109.1422 F1000
G01 X79.2902
G01 X80.0099 Y110.6422
G01 X81.2113
G01 X81.3144 Y110.8137
G01 X82.2011 Y110.3100
G01 X83.0961 Y109.8213
G01 X83.9993 Y109.3479
G01 X84.9104 Y108.8897
G01 X85.0056 Y108.8563
G01 X85.1029 Y108.8297
G01 X85.2019 Y108.8102
G01 X85.3021 Y108.7978
G01 X85.4029 Y108.7927
G01 X85.5038 Y108.7948
G01 X85.6043 Y108.8041
G01 X85.7038 Y108.8206
G01 X85.8019 Y108.8443
G01 X85.8981 Y108.8749
G01 X85.9918 Y108.9123
G01 X86.0826 Y108.9564
G01 X86.1700 Y109.0068
G01 X86.2536 Y109.0634
G01 X86.3329 Y109.1258
G01 X86.4075 Y109.1938
G01 X86.4770 Y109.2670
G01 X86.5411 Y109.3449
G01 X86.5995 Y109.4273
G01 X86.6517 Y109.5136
G01 X86.6977 Y109.6034
G01 X86.7371 Y109.6963
G01 X86.7697 Y109.7919
G01 X86.7954 Y109.8894
G01 X86.8066 Y110.0034
G01 X86.8092 Y110.1179
G01 X86.8032 Y110.2323
G01 X86.7887 Y110.3459
G01 X86.7656 Y110.4581
G01 X86.7341 Y110.5682
G01 X86.6945 Y110.6756
G01 X86.6469 Y110.7798
G01 X86.5916 Y110.8801
G01 X86.5289 Y110.9759
G01 X86.4592 Y111.0668
G01 X86.3828 Y111.1521
G01 X86.3003 Y111.2315
G01 X86.2120 Y111.3044
G01 X86.1184 Y111.3705
G01 X86.0202 Y111.4294
G01 X84.7126 Y112.3883
G01 X83.3964 Y113.3355
G01 X82.0719 Y114.2710
G01 X80.7392 Y115.1946
G01 X80.4682 Y115.3824
G01 X80.1858 Y115.5527
G01 X79.8933 Y115.7047
G01 X79.5916 Y115.8378
G01 X79.5039 Y115.8566
G01 X79.4150 Y115.8681
G01 X79.3254 Y115.8724
G01 X79.2357 Y115.8693
G01 X79.1466 Y115.8590
G01 X79.0587 Y115.8414
G01 X78.9724 Y115.8167
G01 X78.8885 Y115.7851
G01 X78.8074 Y115.7468
G01 X78.7297 Y115.7020
G01 X78.6559 Y115.6510
G01 X78.5865 Y115.5942
G01 X78.5219 Y115.5320
G01 X78.4627 Y115.4646
G01 X78.4091 Y115.3927
G01 X78.3615 Y115.3167
G01 X78.3203 Y115.2370
G01 X78.2857 Y115.1542
G01 X78.2580 Y115.0689
G01 X78.2373 Y114.9817
G01 X76.5488 Y109.7132
G01 X76.4977 Y109.5857
G01 X76.4533 Y109.4556
G01 X76.4158 Y109.3234
G01 X76.3853 Y109.1895
G01 X76.3618 Y109.0541
G01 X76.3454 Y108.9177
G01 X76.3361 Y108.7806
G01 X76.3341 Y108.6432
G01 X76.3453 Y108.5456
G01 X76.3644 Y108.4492
G01 X76.3912 Y108.3546
G01 X76.4255 Y108.2625
G01 X76.4671 Y108.1735
G01 X76.5157 Y108.0881
G01 X76.5709 Y108.0069
G01 X76.6326 Y107.9304
G01 X76.7002 Y107.8591
G01 X76.7733 Y107.7934
G01 X76.8514 Y107.7338
G01 X76.9341 Y107.6807
G01 X77.0208 Y107.6345
G01 X77.1109 Y107.5953
G01 X77.2039 Y107.5635
G01 X77.2991 Y107.5393
G01 X77.3960 Y107.5228
G01 X77.4938 Y107.5141
G01 X77.5921 Y107.5133
G01 X77.6901 Y107.5205
G01 X77.7872 Y107.5354
G01 X77.8828 Y107.5582
G01 X77.9763 Y107.5885
G01 X78.0670 Y107.6263
G01 X78.1544 Y107.6712
G01 X78.2379 Y107.7230
G01 X78.3169 Y107.7813
G01 X78.3910 Y107.8459
G01 X78.4471 Y107.8997
G01 X78.5000 Y107.9565
G01 X78.5498 Y108.0161
G01 X78.5961 Y108.0784
G01 X78.6390 Y108.1432
G01 X78.6782 Y108.2102
G01 X78.7137 Y108.2793
G01 X78.7454 Y108.3503
G01 X78.7730 Y108.4228
G01 X78.7967 Y108.4968
G01 X78.8162 Y108.5720
G01 X78.8315 Y108.6481
G01 X80.1217 Y111.3579
G01 X80.1624 Y111.4320
G01 X80.1741 Y111.4428
G01 X81.3144 Y110.8137
G01 X81.2113 Y110.6422
G00 Z5.0000
G00 X42.2681 Y83.6422
G00 Z0.5000
G01 Z-1.3000 F400
G01 Y82.1422 F1000
G01 X102.1371
G01 X101.5782 Y80.6422
G01 X42.3943
G01 X42.6161 Y79.1422
G01 X101.5437
G01 X101.6512 Y77.6422
G01 X43.0287
G01 X43.6681 Y76.1422
G01 X49.2296
G01 Y74.6422
G01 X49.5696
G01 X44.5452
G01 X45.7959 Y73.1422
G01 X50.0903
G01 X50.8493 Y71.6422
G01 X47.8051
G00 Z5.0000
G00 X52.0765 Y77.6422
G00 Z0.5000
G01 Z-1.3000 F400
G01 Y76.1422 F1000
G01 X101.7034
G01 X101.3927 Y74.6422
G01 X54.1533
G01 X62.0705
G01 Y73.1422
G01 X94.0138
G01 X91.0892 Y71.6422
G01 X66.0255
G01 X71.0869
G01 Y70.1422
G01 X87.7857
G01 X85.2516
G01 Y68.6422
G01 X76.8426
G01 X78.7389 Y67.1422
G01 X84.6144
G01 X83.9618 Y65.6422
G01 X80.7820
G00 Z5.0000
G00 X98.5488 Y74.6422
G00 Z0.5000
G01 Z-1.3000 F400
G01 Y73.1422 F1000
G01 X100.9024
G00 Z5.0000
G00 X100.5266 Y82.1422
G00 Z0.5000
G01 Z-1.3000 F400
G01 Y83.6422 F1000
G01 X102.8561
G01 X103.5717 Y85.1422
G01 X101.6482
G01 X102.7153 Y86.6422
G01 X104.2414
G01 X103.6846 Y88.1422
G01 X104.8289
G01 X104.5316 Y89.6422
G01 X105.3403
G01 X105.2494 Y91.1422
G01 X105.0753 Y91.2432
G01 X105.3848 Y92.0088
G01 X105.6723 Y92.7829
G01 X105.9375 Y93.5649
G01 X106.1804 Y94.3542
G01 X106.4007 Y95.1500
G01 X106.5981 Y95.9519
G01 X106.7726 Y96.7590
G01 X106.9240 Y97.5708
G01 X107.0522 Y98.3866
G01 X107.1570 Y99.2057
G01 X107.2385 Y100.0274
G01 X107.2964 Y100.8512
G01 X107.3308 Y101.6762
G01 X107.3417 Y102.5019
G01 X107.3290 Y103.3276
G01 X107.2927 Y104.1526
G01 X107.2443 Y104.7294
G01 X107.1734 Y105.3039
G01 X107.0802 Y105.8752
G01 X106.9648 Y106.4424
G01 X106.8273 Y107.0046
G01 X106.6680 Y107.5611
G01 X106.4871 Y108.1109
G01 X106.2848 Y108.6533
G01 X106.0414 Y109.1636
G01 X105.7660 Y109.6575
G01 X105.4599 Y110.1329
G01 X105.1241 Y110.5879
G01 X104.7602 Y111.0206
G01 X104.3694 Y111.4294
G01 X103.9536 Y111.8125
G01 X103.5142 Y112.1684
G01 X103.0531 Y112.4957
G01 X102.5721 Y112.7930
G01 X102.0733 Y113.0592
G01 X101.5585 Y113.2932
G01 X101.0299 Y113.4940
G01 X100.4896 Y113.6608
G01 X99.9399 Y113.7930
G01 X99.3828 Y113.8900
G01 X98.8925 Y113.9523
G01 X98.3991 Y113.9811
G01 X97.9048 Y113.9763
G01 X97.4121 Y113.9381
G01 X96.9230 Y113.8665
G01 X96.4400 Y113.7619
G01 X95.9652 Y113.6247
G01 X95.5007 Y113.4557
G01 X95.1625 Y113.3327
G01 X94.8285 Y113.1989
G01 X94.4989 Y113.0544
G01 X94.1741 Y112.8994
G01 X93.8545 Y112.7340
G01 X93.5404 Y112.5585
G01 X93.2320 Y112.3729
G01 X92.9299 Y112.1775
G01 X92.8970 Y112.1461
G01 X92.8657 Y112.1132
G01 X92.8358 Y112.0789
G01 X92.8075 Y112.0433
G01 X92.7809 Y112.0065
G01 X92.7560 Y111.9685
G01 X92.7329 Y111.9293
G01 X92.7115 Y111.8892
G01 X92.6920 Y111.8482
G01 X92.6744 Y111.8063
G01 X92.6587 Y111.7636
G01 X92.6449 Y111.7203
G01 X92.6332 Y111.6764
G01 X92.6234 Y111.6320
G01 X92.6157 Y111.5872
G01 X92.6100 Y111.5422
G01 X92.6064 Y111.4968
G01 X92.6048 Y111.4514
G01 X92.6053 Y111.4060
G01 X92.6078 Y111.3606
G01 X92.6124 Y111.3154
G01 X92.6191 Y111.2704
G01 X92.6278 Y111.2258
G01 X92.6385 Y111.1817
G01 X92.6513 Y111.1380
G01 X92.6659 Y111.0950
G01 X92.6826 Y111.0527
G01 X92.7011 Y111.0112
G01 X92.7215 Y110.9706
G01 X92.7437 Y110.9310
G01 X92.7677 Y110.8924
G01 X92.7934 Y110.8549
G01 X92.8208 Y110.8186
G01 X92.8499 Y110.7837
G01 X92.8804 Y110.7500
G01 X92.9125 Y110.7178
G01 X92.9460 Y110.6871
G01 X92.9809 Y110.6580
G01 X93.0170 Y110.6304
G01 X93.0544 Y110.6046
G01 X93.0929 Y110.5804
G01 X93.1325 Y110.5581
G01 X93.1730 Y110.5375
G01 X93.2145 Y110.5188
G01 X93.2567 Y110.5021
G01 X93.2996 Y110.4872
G01 X93.3432 Y110.4743
G01 X93.3874 Y110.4635
G01 X93.4319 Y110.4546
G01 X93.4769 Y110.4478
G01 X93.5221 Y110.4430
G01 X93.5674 Y110.4402
G01 X93.6129 Y110.4396
G01 X93.6583 Y110.4410
G01 X93.7036 Y110.4444
G01 X93.7487 Y110.4500
G01 X94.1194 Y110.5205
G01 X94.4920 Y110.5807
G01 X94.8660 Y110.6304
G01 X95.2413 Y110.6697
G01 X95.6176 Y110.6985
G01 X95.9945 Y110.7168
G01 X96.3718 Y110.7245
G01 X96.7491 Y110.7217
G01 X97.1231 Y110.7100
G01 X97.4959 Y110.6788
G01 X97.8667 Y110.6285
G01 X98.2343 Y110.5589
G01 X98.5978 Y110.4705
G01 X98.9563 Y110.3633
G01 X99.3087 Y110.2377
G01 X99.6542 Y110.0940
G01 X99.9917 Y109.9326
G01 X100.3204 Y109.7540
G01 X100.6395 Y109.5586
G01 X100.9480 Y109.3469
G01 X101.0357 Y109.2743
G01 X101.1201 Y109.1978
G01 X101.2010 Y109.1177
G01 X101.2783 Y109.0341
G01 X101.3518 Y108.9471
G01 X101.4214 Y108.8569
G01 X101.4869 Y108.7637
G01 X101.5482 Y108.6678
G01 X101.6051 Y108.5691
G01 X101.6576 Y108.4681
G01 X101.7056 Y108.3648
G01 X101.7489 Y108.2595
G01 X102.0502 Y107.6370
G01 X102.3248 Y107.0023
G01 X102.5725 Y106.3566
G01 X102.7927 Y105.7010
G01 X102.9850 Y105.0368
G01 X103.1490 Y104.3649
G01 X103.2846 Y103.6868
G01 X103.3914 Y103.0035
G01 X103.4693 Y102.3164
G01 X103.5181 Y101.6265
G01 X103.5378 Y100.9353
G01 X103.5282 Y100.2438
G01 X103.4551 Y99.4976
G01 X103.3586 Y98.7542
G01 X103.2390 Y98.0141
G01 X103.0963 Y97.2781
G01 X102.9306 Y96.5470
G01 X102.7421 Y95.8214
G01 X102.5310 Y95.1020
G01 X102.2975 Y94.3896
G01 X101.8592 Y93.0225
G01 X101.3976 Y91.6630
G01 X100.9129 Y90.3116
G01 X100.4053 Y88.9686
G01 X99.8965 Y87.8765
G01 X99.3636 Y86.7959
G01 X98.8069 Y85.7275
G01 X98.2265 Y84.6716
G01 X98.1799 Y84.5747
G01 X98.1402 Y84.4746
G01 X98.1079 Y84.3719
G01 X98.0831 Y84.2671
G01 X98.0659 Y84.1609
G01 X98.0563 Y84.0537
G01 X98.0545 Y83.9461
G01 X98.0604 Y83.8386
G01 X98.0740 Y83.7318
G01 X98.0953 Y83.6263
G01 X98.1241 Y83.5226
G01 X98.1602 Y83.4212
G01 X98.2036 Y83.3227
G01 X98.2539 Y83.2275
G01 X98.3110 Y83.1362
G01 X98.3745 Y83.0493
G01 X98.4370 Y82.9890
G01 X98.5046 Y82.9345
G01 X98.5767 Y82.8860
G01 X98.6527 Y82.8439
G01 X98.7320 Y82.8086
G01 X98.8142 Y82.7803
G01 X98.8984 Y82.7592
G01 X98.9842 Y82.7455
G01 X99.0708 Y82.7394
G01 X99.1577 Y82.7407
G01 X99.2441 Y82.7496
G01 X99.3294 Y82.7660
G01 X99.4130 Y82.7897
G01 X99.4942 Y82.8205
G01 X99.5724 Y82.8583
G01 X99.6470 Y82.9028
G01 X99.7175 Y82.9535
G01 X99.7833 Y83.0102
G01 X99.8440 Y83.0724
G01 X99.8990 Y83.1396
G01 X99.8857 Y83.1218
G01 X100.3687 Y83.7439
G01 X100.8437 Y84.3720
G01 X101.3108 Y85.0061
G01 X101.7698 Y85.6461
G01 X102.2206 Y86.2918
G01 X102.6633 Y86.9431
G01 X103.0977 Y87.6001
G01 X103.5237 Y88.2624
G01 X103.9493 Y88.9874
G01 X104.3500 Y89.7265
G01 X104.7255 Y90.4787
G01 X105.0753 Y91.2432
G01 X105.2494 Y91.1422
G01 X105.8295
G00 Z5.0000
G00 X104.3324 Y67.1422
G00 Z0.5000
G01 Z0.0000 F400
G01 Z-1.3000
G01 X99.0804 F1000
G01 X94.9314 Y65.6422
G01 X109.5346
G01 Y64.1422
G01 X117.1349
G01 X92.1151
G01 X89.7241 Y62.6422
G01 X117.7060
G01 X118.0756 Y61.1422
G01 X87.8368
G01 X87.7168 Y61.3038
G01 X88.1651 Y61.6900
G01 X88.6233 Y62.0644
G01 X89.0911 Y62.4268
G01 X89.5681 Y62.7769
G01 X90.0541 Y63.1146
G01 X90.5486 Y63.4394
G01 X91.0515 Y63.7514
G01 X91.5622 Y64.0502
G01 X92.2401 Y64.4544
G01 X92.9274 Y64.8424
G01 X93.6236 Y65.2142
G01 X94.3284 Y65.5694
G01 X95.0414 Y65.9079
G01 X95.7622 Y66.2295
G01 X96.4904 Y66.5340
G01 X97.2255 Y66.8212
G01 X97.7207 Y66.9872
G01 X98.2216 Y67.1354
G01 X98.7274 Y67.2654
G01 X99.2376 Y67.3773
G01 X99.7514 Y67.4707
G01 X100.2683 Y67.5457
G01 X100.7875 Y67.6020
G01 X101.3085 Y67.6397
G01 X101.3542 Y67.6480
G01 X101.3995 Y67.6583
G01 X101.4443 Y67.6708
G01 X101.4885 Y67.6853
G01 X101.5319 Y67.7018
G01 X101.5746 Y67.7204
G01 X101.6163 Y67.7409
G01 X101.6570 Y67.7633
G01 X101.6966 Y67.7876
G01 X101.7351 Y67.8137
G01 X101.7723 Y67.8416
G01 X101.8082 Y67.8712
G01 X101.8426 Y67.9024
G01 X101.8756 Y67.9351
G01 X101.9070 Y67.9694
G01 X101.9368 Y68.0051
G01 X101.9649 Y68.0421
G01 X101.9912 Y68.0804
G01 X102.0158 Y68.1199
G01 X102.0385 Y68.1605
G01 X102.0592 Y68.2021
G01 X102.0780 Y68.2446
G01 X102.0948 Y68.2880
G01 X102.1096 Y68.3320
G01 X102.1223 Y68.3768
G01 X102.1329 Y68.4220
G01 X102.1414 Y68.4677
G01 X102.1478 Y68.5138
G01 X102.1520 Y68.5601
G01 X102.1541 Y68.6065
G01 X102.1540 Y68.6530
G01 X102.1518 Y68.6994
G01 X102.1474 Y68.7457
G01 X102.1408 Y68.7917
G01 X102.1321 Y68.8374
G01 X102.1213 Y68.8826
G01 X102.1084 Y68.9273
G01 X102.0935 Y68.9713
G01 X102.0765 Y69.0146
G01 X102.0575 Y69.0570
G01 X101.7441 Y69.7622
G01 X101.4178 Y70.4615
G01 X101.0788 Y71.1547
G01 X100.7271 Y71.8415
G01 X100.6668 Y71.9412
G01 X100.6004 Y72.0369
G01 X100.5282 Y72.1284
G01 X100.4505 Y72.2152
G01 X100.3676 Y72.2970
G01 X100.2798 Y72.3736
G01 X100.1874 Y72.4446
G01 X100.0908 Y72.5097
G01 X99.9904 Y72.5687
G01 X99.8865 Y72.6214
G01 X99.7795 Y72.6676
G01 X99.6699 Y72.7071
G01 X99.5581 Y72.7397
G01 X99.4444 Y72.7653
G01 X99.3294 Y72.7839
G01 X99.2135 Y72.7953
G01 X98.6024 Y72.9271
G01 X97.9968 Y73.0822
G01 X97.3976 Y73.2605
G01 X96.8057 Y73.4617
G01 X96.6989 Y73.5020
G01 X96.5902 Y73.5370
G01 X96.4799 Y73.5666
G01 X96.3682 Y73.5906
G01 X96.2555 Y73.6091
G01 X96.1421 Y73.6220
G01 X96.0281 Y73.6292
G01 X95.9139 Y73.6308
G01 X95.7998 Y73.6267
G01 X95.6860 Y73.6170
G01 X95.5728 Y73.6016
G01 X95.4605 Y73.5806
G01 X95.3242 Y73.5444
G01 X95.1900 Y73.5009
G01 X95.0583 Y73.4502
G01 X94.9296 Y73.3924
G01 X94.0880 Y72.9427
G01 X93.2416 Y72.5020
G01 X92.3906 Y72.0703
G01 X91.5350 Y71.6477
G01 X90.6749 Y71.2343
G01 X89.8106 Y70.8301
G01 X88.9419 Y70.4351
G01 X88.0691 Y70.0494
G01 X87.9549 Y69.9986
G01 X87.8407 Y69.9477
G01 X87.7266 Y69.8969
G01 X87.6124 Y69.8461
G01 X87.2557 Y69.6871
G01 X86.8989 Y69.5282
G01 X86.5421 Y69.3693
G01 X86.1853 Y69.2105
G01 X86.0878 Y69.1561
G01 X85.9931 Y69.0967
G01 X85.9018 Y69.0324
G01 X85.8139 Y68.9634
G01 X85.7297 Y68.8899
G01 X85.6495 Y68.8121
G01 X85.5735 Y68.7303
G01 X85.5019 Y68.6445
G01 X85.4349 Y68.5552
G01 X85.3726 Y68.4624
G01 X85.3153 Y68.3665
G01 X85.2630 Y68.2678
G01 X85.2160 Y68.1664
G01 X85.1744 Y68.0627
G01 X85.1382 Y67.9570
G01 X85.1077 Y67.8496
G01 X84.8600 Y67.2139
G01 X84.6007 Y66.5829
G01 X84.3299 Y65.9567
G01 X84.0475 Y65.3357
G01 X84.0128 Y65.2401
G01 X83.9844 Y65.1425
G01 X83.9623 Y65.0433
G01 X83.9468 Y64.9428
G01 X83.9378 Y64.8415
G01 X83.9355 Y64.7398
G01 X83.9398 Y64.6383
G01 X83.9506 Y64.5372
G01 X83.9680 Y64.4370
G01 X83.9919 Y64.3382
G01 X84.0222 Y64.2411
G01 X84.0587 Y64.1462
G01 X85.3057 Y61.5248
G01 X85.3520 Y61.4116
G01 X85.4014 Y61.2998
G01 X85.4537 Y61.1893
G01 X85.5090 Y61.0802
G01 X85.5583 Y61.0047
G01 X85.6134 Y60.9333
G01 X85.6741 Y60.8666
G01 X85.7399 Y60.8050
G01 X85.8105 Y60.7488
G01 X85.8853 Y60.6985
G01 X85.9639 Y60.6543
G01 X86.0458 Y60.6165
G01 X86.1305 Y60.5855
G01 X86.2174 Y60.5613
G01 X86.3059 Y60.5441
G01 X86.3955 Y60.5341
G01 X86.4857 Y60.5313
G01 X86.5757 Y60.5357
G01 X86.6652 Y60.5473
G01 X86.7534 Y60.5661
G01 X86.8398 Y60.5918
G01 X86.9239 Y60.6244
G01 X87.0051 Y60.6636
G01 X87.0829 Y60.7092
G01 X87.1569 Y60.7608
G01 X87.2264 Y60.8182
G01 X87.2911 Y60.8810
G01 X87.3506 Y60.9488
G01 X87.4409 Y61.0389
G01 X87.5320 Y61.1281
G01 X87.6240 Y61.2164
G01 X87.7168 Y61.3038
G01 X87.8368 Y61.1422
G01 Y59.6422
G01 X85.6625
G01 X118.2987
G01 X118.4160 Y58.1422
G01 X106.1043
G01 X108.0439 Y56.6422
G01 X118.4339
G01 X118.3466 Y55.1422
G01 X109.1678
G01 X109.8294 Y53.6422
G01 X118.1450
G01 X117.8114 Y52.1422
G01 X110.1389
G01 X110.1632 Y50.6422
G01 X117.3345
G01 X116.7003 Y49.1422
G01 X109.8780
G01 X109.2208 Y47.6422
G01 X115.8903
G01 X114.8475 Y46.1422
G01 X108.0443
G01 Y44.6422
G01 X105.6449
G01 X113.4510
G01 X111.4495 Y43.1422
G01 X99.8550
G01 X98.3553 Y44.6422
G01 X101.6033
G01 X99.5333
G01 Y46.1422
G01 X97.5619
G01 X97.2253 Y47.6422
G01 X98.8222
G01 X98.8651 Y49.1422
G01 X97.3005
G01 X97.8614 Y50.6422
G01 X99.8533
G01 X99.2024 Y52.1422
G01 X101.6951
G00 Z5.0000
G00 X96.6726 Y59.6422
G00 Z0.5000
G01 Z-1.3000 F400
G01 Y58.1422 F1000
G01 X85.4771
G01 X84.7549 Y56.6422
G01 X94.4886
G01 X93.0531 Y55.1422
G01 X84.1409
G01 X83.5819 Y53.6422
G01 X91.9851
G01 X91.1585 Y52.1422
G01 X83.0664
G01 X82.6141 Y50.6422
G01 X90.5033
G01 X89.9831 Y49.1422
G01 X82.2383
G01 X81.9514 Y47.6422
G01 X89.5873
G01 X89.2985 Y46.1422
G01 X81.7402
G01 X81.5938 Y44.6422
G01 X89.1032
G01 X88.9899 Y43.1422
G01 X81.5104
G01 X81.4867 Y41.6422
G01 X88.9486
G01 X88.9807 Y40.1422
G01 X81.5238
G01 X81.6269 Y38.6422
G01 X89.0937
G01 X89.3019 Y37.1422
G01 X81.8014
G01 X82.0498 Y35.6422
G01 X89.6175
G01 X90.0529 Y34.1422
G01 X82.3759
G01 X82.7829 Y32.6422
G01 X90.6196
G01 X91.3332 Y31.1422
G01 X83.2753
G01 X83.8593 Y29.6422
G01 X92.2139
G01 X93.2928 Y28.1422
G01 X84.5540
G01 X85.3824 Y26.6422
G01 X94.6586
G01 X96.4998 Y25.1422
G01 X86.3696
G01 X87.5316 Y23.6422
G01 X99.2696
G01 Y22.1422
G01 X88.9278
G01 X115.7957
G01 X116.9372 Y23.6422
G01 X110.3448
G01 X112.9947 Y25.1422
G01 X117.8166
G01 X118.4735 Y26.6422
G01 X114.7328
G01 X116.0318 Y28.1422
G01 X118.9433
G01 X119.2529 Y29.6422
G01 X117.0577
G01 X117.9215 Y31.1422
G01 X119.4135
G01 X119.4058 Y32.6422
G01 X118.7262
G00 Z5.0000
G00 X114.3184 Y22.1422
G00 Z0.5000
G01 Z-1.3000 F400
G01 Y20.6422 F1000
G01 X90.6755
G01 X92.9660 Y19.1422
G01 X112.3343
G01 X109.3765 Y17.6422
G01 X96.3006
G00 Z5.0000
G00 X103.3571 Y43.1422
G00 Z0.5000
G01 Z-1.3000 F400
G01 Y41.6422 F1000
G01 X107.5470
G00 Z5.0000
G00 X114.7232 Y64.1422
G00 Z0.5000
G01 Z-1.3000 F400
G01 Y65.6422 F1000
G01 X116.1537
G00 Z5.0000
G00 X115.9240 Y115.1422
G00 Z0.5000
G01 Z0.0000 F400
G01 Z-1.3000
G01 X118.7626 F1000
G01 X118.1623 Y116.6422
G01 X90.5782
G01 X90.5667 Y118.1422
G01 X117.2746
G01 X115.9793 Y119.6422
G01 X90.6863
G01 X90.8898 Y121.1422
G01 X113.9707
G01 X109.8560 Y122.6422
G01 X91.1296
G01 X91.4133 Y124.1422
G01 X107.7531
G01 Y125.6422
G01 X109.5236
G01 X91.8014
G01 X92.3577 Y127.1422
G01 X114.0707
G01 X116.6870 Y128.6422
G01 X93.1086
G01 X94.0720 Y130.1422
G01 X101.8454
G01 Y131.6422
G01 X102.0503
G01 X95.3086
G01 X96.9773 Y133.1422
G01 X103.4016
G01 X104.8810 Y134.6422
G01 X99.2595
G01 X102.8236 Y136.1422
G01 X106.6909
G00 Z5.0000
G00 X108.2687 Y128.6422
G00 Z0.5000
G01 Z-1.3000 F400
G01 Y130.1422 F1000
G01 X112.0680
G00 Z5.0000
G00 X66.8368 Y143.6422
G00 Z0.5000
G01 Z0.0000 F400
G01 Z-1.3000
G01 X48.8347 F1000
G01 X50.6473 Y145.1422
G01 X63.4427
G01 X62.8825
G01 Y146.6422
G01 X51.5623
G01 X51.9240 Y148.1422
G01 X63.2263
G01 X63.5616 Y149.6422
G01 X51.8690
G01 X51.3176 Y151.1422
G01 X57.5116
G01 X56.6726 Y152.6422
G01 X49.9311
G01 Y154.1422
G01 X44.8148
G01 X55.6571
G01 X53.7484 Y155.6422
G01 X46.7267
G00 Z5.0000
G00 X50.8390 Y143.6422
G00 Z0.5000
G01 Z-1.3000 F400
G01 Y142.1422 F1000
G01 X53.4751
G00 Z5.0000
G00 X56.5496 Y143.6422
G00 Z0.5000
G01 Z-1.3000 F400
G01 Y142.1422 F1000
G01 X64.4440
G01 X62.7174
G01 Y140.6422
G01 X59.6405
G01 X61.1495 Y139.1422
G01 X60.9790 Y139.0380
G01 X60.9642 Y139.0606
G01 X60.9487 Y139.0828
G01 X60.9327 Y139.1045
G01 X60.9161 Y139.1258
G01 X60.8989 Y139.1466
G01 X60.8811 Y139.1670
G01 X60.8628 Y139.1868
G01 X60.8440 Y139.2062
G01 X60.4753 Y139.6056
G01 X60.0873 Y139.9864
G01 X59.6810 Y140.3476
G01 X59.2574 Y140.6882
G01 X58.9449 Y140.9114
G01 X58.6205 Y141.1169
G01 X58.2852 Y141.3041
G01 X57.9400 Y141.4723
G01 X57.5860 Y141.6211
G01 X57.2242 Y141.7500
G01 X56.8559 Y141.8585
G01 X56.4820 Y141.9464
G01 X56.1039 Y142.0134
G01 X55.7227 Y142.0593
G01 X55.3394 Y142.0839
G01 X54.9554 Y142.0872
G01 X54.4166 Y142.0446
G01 X53.8787 Y141.9907
G01 X53.3421 Y141.9256
G01 X52.8070 Y141.8492
G01 X52.6995 Y141.8488
G01 X52.5925 Y141.8397
G01 X52.4865 Y141.8220
G01 X52.3824 Y141.7958
G01 X52.2806 Y141.7613
G01 X52.1821 Y141.7186
G01 X52.0872 Y141.6681
G01 X51.9968 Y141.6101
G01 X51.9114 Y141.5450
G01 X51.8315 Y141.4732
G01 X51.7577 Y141.3951
G01 X51.6904 Y141.3114
G01 X51.6302 Y141.2224
G01 X51.5773 Y141.1289
G01 X51.5322 Y141.0314
G01 X51.4951 Y140.9306
G01 X51.4765 Y140.8426
G01 X51.4645 Y140.7534
G01 X51.4592 Y140.6636
G01 X51.4606 Y140.5736
G01 X51.4687 Y140.4840
G01 X51.4835 Y140.3953
G01 X51.5049 Y140.3079
G01 X51.5328 Y140.2223
G01 X51.5669 Y140.1391
G01 X51.6072 Y140.0587
G01 X51.6534 Y139.9815
G01 X51.7053 Y139.9079
G01 X51.7624 Y139.8384
G01 X51.8246 Y139.7734
G01 X51.8915 Y139.7133
G01 X51.9627 Y139.6582
G01 X52.0378 Y139.6087
G01 X52.1164 Y139.5649
G01 X52.1981 Y139.5271
G01 X52.2823 Y139.4955
G01 X52.3859 Y139.4683
G01 X52.4905 Y139.4453
G01 X52.5960 Y139.4265
G01 X52.7021 Y139.4120
G01 X52.8088 Y139.4018
G01 X52.9157 Y139.3959
G01 X53.0228 Y139.3943
G01 X53.1299 Y139.3970
G01 X53.6299 Y139.3687
G01 X54.1281 Y139.3186
G01 X54.6237 Y139.2467
G01 X55.1157 Y139.1533
G01 X55.6031 Y139.0384
G01 X56.0851 Y138.9023
G01 X56.5606 Y138.7452
G01 X57.0288 Y138.5675
G01 X57.5373 Y138.3456
G01 X58.0334 Y138.0973
G01 X58.5159 Y137.8233
G01 X58.9834 Y137.5245
G01 X59.0542 Y137.4569
G01 X59.1301 Y137.3951
G01 X59.2105 Y137.3393
G01 X59.2950 Y137.2899
G01 X59.3830 Y137.2472
G01 X59.4742 Y137.2114
G01 X59.5678 Y137.1828
G01 X59.6633 Y137.1615
G01 X59.7602 Y137.1477
G01 X59.8579 Y137.1414
G01 X59.9557 Y137.1427
G01 X60.0532 Y137.1515
G01 X60.1497 Y137.1679
G01 X60.2447 Y137.1917
G01 X60.3375 Y137.2228
G01 X60.4276 Y137.2610
G01 X60.5145 Y137.3060
G01 X60.5977 Y137.3576
G01 X60.6766 Y137.4155
G01 X60.7508 Y137.4794
G01 X60.8198 Y137.5487
G01 X60.8833 Y137.6233
G01 X60.9408 Y137.7025
G01 X60.9920 Y137.7859
G01 X61.0366 Y137.8730
G01 X61.0743 Y137.9634
G01 X61.1049 Y138.0563
G01 X61.1282 Y138.1514
G01 X61.1441 Y138.2480
G01 X61.1525 Y138.3455
G01 X61.1533 Y138.4434
G01 X61.1465 Y138.5410
G01 X61.1322 Y138.6378
G01 X61.1104 Y138.7333
G01 X61.0813 Y138.8267
G01 X61.0451 Y138.9176
G01 X61.0302 Y138.9486
G01 X61.0142 Y138.9790
G01 X60.9971 Y139.0088
G01 X60.9790 Y139.0380
G01 X61.1495 Y139.1422
G01 X61.8252
G01 X61.9984 Y139.0392
G01 X61.8552 Y138.7161
G01 X61.7350 Y138.3837
G01 X61.6385 Y138.0437
G01 X61.5661 Y137.6978
G01 X61.5181 Y137.3477
G01 X61.4949 Y136.9950
G01 X61.4964 Y136.6416
G01 X61.5228 Y136.2892
G01 X61.5738 Y135.9394
G01 X61.6493 Y135.5942
G01 X61.7488 Y135.2551
G01 X61.8719 Y134.9238
G01 X62.0438 Y134.4965
G01 X62.2273 Y134.0740
G01 X62.4222 Y133.6567
G01 X62.6284 Y133.2448
G01 X62.8458 Y132.8388
G01 X63.0741 Y132.4388
G01 X63.3133 Y132.0452
G01 X63.5631 Y131.6582
G01 X63.7327 Y131.4384
G01 X63.9198 Y131.2333
G01 X64.1231 Y131.0443
G01 X64.3413 Y130.8726
G01 X64.5730 Y130.7196
G01 X64.8164 Y130.5861
G01 X65.0700 Y130.4731
G01 X65.3320 Y130.3814
G01 X65.6748 Y130.2351
G01 X66.0241 Y130.1053
G01 X66.3793 Y129.9923
G01 X66.7394 Y129.8964
G01 X67.1037 Y129.8177
G01 X67.4713 Y129.7565
G01 X67.8414 Y129.7129
G01 X68.2132 Y129.6869
G01 X68.6603 Y129.6849
G01 X69.1063 Y129.7172
G01 X69.5485 Y129.7835
G01 X69.9843 Y129.8836
G01 X70.4111 Y130.0168
G01 X70.8265 Y130.1823
G01 X71.2280 Y130.3792
G01 X71.6132 Y130.6062
G01 X71.9798 Y130.8621
G01 X72.3258 Y131.1454
G01 X72.6490 Y131.4544
G01 X72.9476 Y131.7872
G01 X73.2198 Y132.1420
G01 X73.4641 Y132.5165
G01 X73.6788 Y132.9087
G01 X73.8629 Y133.3162
G01 X73.9821 Y133.6457
G01 X74.0804 Y133.9819
G01 X74.1575 Y134.3237
G01 X74.2132 Y134.6696
G01 X74.2472 Y135.0183
G01 X74.2593 Y135.3684
G01 X74.2496 Y135.7186
G01 X74.2180 Y136.0676
G01 X74.1648 Y136.4138
G01 X74.0900 Y136.7561
G01 X73.9939 Y137.0930
G01 X73.8771 Y137.4233
G01 X73.7220 Y137.8580
G01 X73.5464 Y138.2848
G01 X73.3508 Y138.7028
G01 X73.1356 Y139.1110
G01 X72.9012 Y139.5086
G01 X72.6482 Y139.8945
G01 X72.3772 Y140.2681
G01 X72.0887 Y140.6283
G01 X71.7532 Y140.9569
G01 X71.3949 Y141.2606
G01 X71.0158 Y141.5377
G01 X70.6177 Y141.7870
G01 X70.2028 Y142.0069
G01 X69.7731 Y142.1966
G01 X69.3309 Y142.3549
G01 X68.8786 Y142.4810
G01 X68.4183 Y142.5743
G01 X67.9525 Y142.6343
G01 X67.4836 Y142.6608
G01 X67.0140 Y142.6534
G01 X66.5461 Y142.6124
G01 X66.0824 Y142.5379
G01 X65.6253 Y142.4303
G01 X65.1770 Y142.2902
G01 X64.8272 Y142.1221
G01 X64.4887 Y141.9322
G01 X64.1629 Y141.7212
G01 X63.8511 Y141.4900
G01 X63.5547 Y141.2395
G01 X63.2747 Y140.9708
G01 X63.0123 Y140.6848
G01 X62.7685 Y140.3827
G01 X62.5444 Y140.0659
G01 X62.3408 Y139.7354
G01 X62.1585 Y139.3927
G01 X61.9984 Y139.0392
G01 X61.8252 Y139.1422
G00 Z5.0000
G00 X59.6531 Y149.6422
G00 Z0.5000
G01 Z-1.3000 F400
G01 Y151.1422 F1000
G01 X63.6678
G01 X63.4573 Y152.6422
G01 X60.1544
G01 X60.3709 Y154.1422
G01 X62.9736
G01 X62.2389 Y155.6422
G01 X60.4360
G01 X60.3030 Y157.1422
G01 X61.2198
G00 Z5.0000
G00 X48.5991 Y142.1422
G00 Z0.5000
G01 Z0.0000 F400
G01 Z-1.3000
G01 X46.4039 F1000
G00 Z5.0000
G00 X56.9497 Y94.1422
G00 Z0.5000
G01 Z0.0000 F400
G01 Z-1.3000
G01 X56.8020 Y94.2809 F1000
G01 X57.3534 Y94.6858
G01 X57.9119 Y95.0810
G01 X58.4771 Y95.4665
G01 X59.0489 Y95.8420
G01 X59.1511 Y95.9131
G01 X59.2490 Y95.9898
G01 X59.3424 Y96.0721
G01 X59.4310 Y96.1594
G01 X59.5145 Y96.2517
G01 X59.5926 Y96.3486
G01 X59.6650 Y96.4498
G01 X59.7316 Y96.5549
G01 X59.7920 Y96.6637
G01 X59.8462 Y96.7757
G01 X59.8940 Y96.8906
G01 X59.9351 Y97.0080
G01 X59.9695 Y97.1276
G01 X59.9970 Y97.2490
G01 X60.0176 Y97.3717
G01 X60.0311 Y97.4954
G01 X60.0376 Y97.6197
G01 X60.0370 Y97.7441
G01 X60.0294 Y97.8683
G01 X60.0146 Y97.9918
G01 X59.9871 Y98.5056
G01 X59.9734 Y99.0198
G01 X59.9738 Y99.5343
G01 X59.9881 Y100.0485
G01 X60.0163 Y100.5622
G01 X60.0585 Y101.0749
G01 X60.1146 Y101.5863
G01 X60.1846 Y102.0960
G01 X60.7886 Y107.6926
G01 X60.8029 Y107.8280
G01 X60.8088 Y107.9640
G01 X60.8062 Y108.1002
G01 X60.7950 Y108.2359
G01 X60.7754 Y108.3707
G01 X60.7474 Y108.5039
G01 X60.7112 Y108.6352
G01 X60.6668 Y108.7639
G01 X60.6145 Y108.8896
G01 X60.5544 Y109.0118
G01 X60.4868 Y109.1301
G01 X60.4120 Y109.2438
G01 X60.3302 Y109.3527
G01 X60.2417 Y109.4562
G01 X60.1470 Y109.5540
G01 X60.0463 Y109.6457
G01 X59.0751 Y110.3425
G01 X58.1175 Y111.0579
G01 X57.1737 Y111.7915
G01 X56.2443 Y112.5431
G01 X55.5703 Y113.1263
G01 X54.9191 Y113.7350
G01 X54.2917 Y114.3681
G01 X53.6890 Y115.0248
G01 X53.1119 Y115.7042
G01 X52.5613 Y116.4051
G01 X52.0379 Y117.1265
G01 X51.5425 Y117.8675
G01 X51.0758 Y118.6270
G01 X50.6385 Y119.4037
G01 X50.2314 Y120.1966
G01 X49.8549 Y121.0045
G01 X49.5731 Y121.6094
G01 X49.3100 Y122.2226
G01 X49.0658 Y122.8435
G01 X48.8408 Y123.4717
G01 X48.6351 Y124.1065
G01 X48.4490 Y124.7473
G01 X48.2827 Y125.3934
G01 X48.1362 Y126.0444
G01 X48.0097 Y126.6996
G01 X47.9033 Y127.3583
G01 X47.8172 Y128.0200
G01 X47.7514 Y128.6840
G01 X47.7075 Y129.3971
G01 X47.6915 Y130.1113
G01 X47.7036 Y130.8256
G01 X47.7438 Y131.5390
G01 X47.8120 Y132.2501
G01 X47.9080 Y132.9581
G01 X48.0317 Y133.6617
G01 X48.1830 Y134.3600
G01 X48.3616 Y135.0517
G01 X48.5673 Y135.7359
G01 X48.7996 Y136.4115
G01 X49.0583 Y137.0775
G01 X49.5202 Y138.0189
G01 X50.0031 Y138.9498
G01 X50.5068 Y139.8695
G01 X51.0310 Y140.7777
G01 X51.0651 Y140.8664
G01 X51.0907 Y140.9579
G01 X51.1075 Y141.0514
G01 X51.1155 Y141.1461
G01 X51.1144 Y141.2411
G01 X51.1045 Y141.3356
G01 X51.0856 Y141.4287
G01 X51.0581 Y141.5196
G01 X51.0221 Y141.6076
G01 X50.9780 Y141.6917
G01 X50.9262 Y141.7713
G01 X50.8670 Y141.8457
G01 X50.8012 Y141.9142
G01 X50.7291 Y141.9761
G01 X50.6516 Y142.0310
G01 X50.5692 Y142.0783
G01 X50.4827 Y142.1176
G01 X50.3929 Y142.1486
G01 X50.3006 Y142.1710
G01 X50.2065 Y142.1846
G01 X50.1116 Y142.1893
G01 X50.0167 Y142.1850
G01 X49.9226 Y142.1717
G01 X49.8302 Y142.1497
G01 X49.7318 Y142.1331
G01 X49.0888 Y142.0358
G01 X48.4481 Y141.9239
G01 X47.8102 Y141.7977
G01 X47.1752 Y141.6570
G01 X46.5436 Y141.5021
G01 X45.9156 Y141.3329
G01 X45.2916 Y141.1496
G01 X44.6719 Y140.9523
G01 X44.8051 Y141.1298
G01 X44.9483 Y141.2992
G01 X45.1011 Y141.4600
G01 X45.2630 Y141.6117
G01 X45.4335 Y141.7537
G01 X45.6119 Y141.8855
G01 X45.7977 Y142.0067
G01 X45.9902 Y142.1170
G01 X46.6057 Y142.4976
G01 X47.2215 Y142.8777
G01 X47.8377 Y143.2571
G01 X48.4543 Y143.6359
G01 X48.7352 Y143.8024
G01 X49.0093 Y143.9799
G01 X49.2760 Y144.1683
G01 X49.5350 Y144.3671
G01 X49.7859 Y144.5761
G01 X50.0282 Y144.7949
G01 X50.2616 Y145.0232
G01 X50.4857 Y145.2607
G01 X50.7141 Y145.5446
G01 X50.9220 Y145.8438
G01 X51.1085 Y146.1568
G01 X51.2725 Y146.4822
G01 X51.4133 Y146.8182
G01 X51.5302 Y147.1633
G01 X51.6227 Y147.5158
G01 X51.6902 Y147.8738
G01 X51.7324 Y148.2358
G01 X51.7491 Y148.5997
G01 X51.7403 Y148.9640
G01 X51.7060 Y149.3267
G01 X51.6463 Y149.6862
G01 X51.5616 Y150.0406
G01 X51.4523 Y150.3881
G01 X51.3188 Y150.7272
G01 X51.1491 Y151.0207
G01 X50.9615 Y151.3031
G01 X50.7566 Y151.5732
G01 X50.5353 Y151.8300
G01 X50.2985 Y152.0726
G01 X50.0469 Y152.2999
G01 X49.7817 Y152.5111
G01 X49.5038 Y152.7053
G01 X49.2144 Y152.8818
G01 X48.9145 Y153.0400
G01 X48.6053 Y153.1792
G01 X48.2881 Y153.2988
G01 X47.9640 Y153.3984
G01 X47.6344 Y153.4776
G01 X47.3004 Y153.5361
G01 X46.9635 Y153.5737
G01 X46.5921 Y153.6029
G01 X46.2200 Y153.6217
G01 X45.8475 Y153.6300
G01 X45.4749 Y153.6279
G01 X45.1026 Y153.6154
G01 X44.7307 Y153.5923
G01 X44.3597 Y153.5589
G01 X43.9897 Y153.5150
G01 X44.2562 Y153.8379
G01 X44.5361 Y154.1493
G01 X44.8287 Y154.4487
G01 X45.1336 Y154.7356
G01 X45.4503 Y155.0095
G01 X45.7781 Y155.2698
G01 X46.1166 Y155.5162
G01 X46.4651 Y155.7483
G01 X46.7985 Y155.9034
G01 X47.1366 Y156.0479
G01 X47.4791 Y156.1819
G01 X47.8256 Y156.3050
G01 X48.1758 Y156.4172
G01 X48.5293 Y156.5184
G01 X48.8859 Y156.6085
G01 X49.2450 Y156.6874
G01 X49.6653 Y156.7336
G01 X50.0876 Y156.7555
G01 X50.5104 Y156.7532
G01 X50.9324 Y156.7265
G01 X51.3521 Y156.6756
G01 X51.7683 Y156.6006
G01 X52.1794 Y156.5019
G01 X52.5842 Y156.3796
G01 X52.9812 Y156.2343
G01 X53.3693 Y156.0664
G01 X53.7470 Y155.8764
G01 X54.1132 Y155.6651
G01 X54.4667 Y155.4330
G01 X54.8062 Y155.1810
G01 X55.1307 Y154.9099
G01 X55.4390 Y154.6206
G01 X55.6292 Y154.4604
G01 X55.8098 Y154.2895
G01 X55.9802 Y154.1084
G01 X56.1398 Y153.9178
G01 X56.2882 Y153.7182
G01 X56.4248 Y153.5105
G01 X56.5491 Y153.2951
G01 X56.6608 Y153.0730
G01 X56.9099 Y152.6198
G01 X57.1608 Y152.1677
G01 X57.4136 Y151.7166
G01 X57.6683 Y151.2665
G01 X57.7465 Y151.1920
G01 X57.8307 Y151.1243
G01 X57.9204 Y151.0639
G01 X58.0148 Y151.0113
G01 X58.1133 Y150.9668
G01 X58.2152 Y150.9308
G01 X58.3197 Y150.9035
G01 X58.4262 Y150.8851
G01 X58.5339 Y150.8758
G01 X58.6420 Y150.8755
G01 X58.7497 Y150.8844
G01 X58.8562 Y150.9023
G01 X58.9609 Y150.9291
G01 X59.0630 Y150.9646
G01 X59.1617 Y151.0086
G01 X59.2563 Y151.0608
G01 X59.3462 Y151.1208
G01 X59.4308 Y151.1881
G01 X59.5094 Y151.2623
G01 X59.5814 Y151.3429
G01 X59.6464 Y151.4292
G01 X59.7039 Y151.5207
G01 X59.7534 Y151.6168
G01 X59.7947 Y151.7166
G01 X59.8275 Y151.8196
G01 X59.8514 Y151.9250
G01 X59.8664 Y152.0320
G01 X59.8723 Y152.1399
G01 X60.0004 Y152.8405
G01 X60.1029 Y153.5453
G01 X60.1797 Y154.2533
G01 X60.2307 Y154.9636
G01 X60.2336 Y155.4470
G01 X60.2186 Y155.9301
G01 X60.1857 Y156.4124
G01 X60.1348 Y156.8931
G01 X60.0661 Y157.3716
G01 X59.9797 Y157.8471
G01 X59.8757 Y158.3192
G01 X59.7542 Y158.7870
G01 X60.2094 Y158.4280
G01 X60.6421 Y158.0420
G01 X61.0506 Y157.6305
G01 X61.4334 Y157.1950
G01 X61.7891 Y156.7371
G01 X62.1165 Y156.2585
G01 X62.4142 Y155.7610
G01 X62.6813 Y155.2463
G01 X62.9513 Y154.7213
G01 X63.1881 Y154.1805
G01 X63.3908 Y153.6260
G01 X63.5585 Y153.0599
G01 X63.6906 Y152.4845
G01 X63.7867 Y151.9019
G01 X63.8462 Y151.3145
G01 X63.8690 Y150.7246
G01 X63.8363 Y150.3216
G01 X63.7917 Y149.9197
G01 X63.7354 Y149.5193
G01 X63.6673 Y149.1208
G01 X63.5876 Y148.7244
G01 X63.4962 Y148.3305
G01 X63.3933 Y147.9395
G01 X63.2790 Y147.5517
G01 X63.2345 Y147.3731
G01 X63.1929 Y147.1938
G01 X63.1541 Y147.0140
G01 X63.1181 Y146.8335
G01 X63.1205 Y146.8440
G01 X63.0997 Y146.7426
G01 X63.0852 Y146.6401
G01 X63.0772 Y146.5369
G01 X63.0757 Y146.4334
G01 X63.0807 Y146.3300
G01 X63.0921 Y146.2271
G01 X63.1100 Y146.1251
G01 X63.1343 Y146.0245
G01 X63.1649 Y145.9256
G01 X63.2016 Y145.8288
G01 X63.2443 Y145.7345
G01 X63.2928 Y145.6431
G01 X63.3470 Y145.5549
G01 X63.4066 Y145.4703
G01 X63.4715 Y145.3895
G01 X63.5412 Y145.3131
G01 X63.6156 Y145.2411
G01 X63.6944 Y145.1740
G01 X63.7773 Y145.1119
G01 X63.8639 Y145.0552
G01 X63.9539 Y145.0040
G01 X64.0469 Y144.9586
G01 X64.1426 Y144.9191
G01 X64.2406 Y144.8857
G01 X65.1008 Y144.5695
G01 X65.9538 Y144.2341
G01 X66.7991 Y143.8797
G01 X67.6362 Y143.5064
G01 X68.4648 Y143.1146
G01 X69.2844 Y142.7042
G01 X70.0946 Y142.2757
G01 X70.8950 Y141.8291
G01 X71.3266 Y141.5291
G01 X71.7458 Y141.2118
G01 X72.1517 Y140.8778
G01 X72.5438 Y140.5276
G01 X72.9214 Y140.1618
G01 X73.2838 Y139.7810
G01 X73.6305 Y139.3858
G01 X73.9608 Y138.9769
G01 X74.4083 Y138.3918
G01 X74.8413 Y137.7958
G01 X75.2596 Y137.1894
G01 X75.6628 Y136.5729
G01 X76.0509 Y135.9468
G01 X76.4234 Y135.3113
G01 X76.7802 Y134.6668
G01 X77.1211 Y134.0138
G01 X77.4459 Y133.3526
G01 X77.7543 Y132.6836
G01 X78.0463 Y132.0073
G01 X78.3216 Y131.3240
G01 X78.5743 Y130.6333
G01 X78.8032 Y129.9343
G01 X79.0082 Y129.2279
G01 X79.1888 Y128.5149
G01 X79.3450 Y127.7961
G01 X79.4766 Y127.0724
G01 X79.5833 Y126.3447
G01 X79.6651 Y125.6137
G01 X79.7218 Y124.8804
G01 X79.7535 Y124.1455
G01 X79.7600 Y123.4100
G01 X79.7414 Y122.6747
G01 X79.7119 Y121.7020
G01 X79.6820 Y120.7292
G01 X79.6517 Y119.7565
G01 X79.6211 Y118.7838
G01 X79.6318 Y118.6494
G01 X79.6497 Y118.5159
G01 X79.6749 Y118.3835
G01 X79.7073 Y118.2527
G01 X79.7467 Y118.1238
G01 X79.7932 Y117.9973
G01 X79.8464 Y117.8735
G01 X79.9063 Y117.7527
G01 X79.9727 Y117.6355
G01 X80.0454 Y117.5220
G01 X80.1241 Y117.4126
G01 X80.2087 Y117.3077
G01 X85.4206 Y113.7999
G01 X86.2516 Y113.2286
G01 X87.0700 Y112.6396
G01 X87.8755 Y112.0330
G01 X88.6677 Y111.4091
G01 X88.7590 Y111.3442
G01 X88.8547 Y111.2861
G01 X88.9543 Y111.2349
G01 X89.0574 Y111.1909
G01 X89.1633 Y111.1544
G01 X89.2715 Y111.1256
G01 X89.3815 Y111.1046
G01 X89.4927 Y111.0915
G01 X89.6046 Y111.0864
G01 X89.7166 Y111.0892
G01 X89.8281 Y111.1001
G01 X89.9385 Y111.1189
G01 X90.0473 Y111.1456
G01 X90.1539 Y111.1800
G01 X90.2578 Y111.2218
G01 X90.3584 Y111.2710
G01 X90.4552 Y111.3273
G01 X90.5478 Y111.3904
G01 X90.6357 Y111.4599
G01 X90.7183 Y111.5355
G01 X90.7953 Y111.6168
G01 X90.8664 Y111.7034
G01 X90.9310 Y111.7948
G01 X90.9890 Y111.8907
G01 X91.0400 Y111.9904
G01 X91.0837 Y112.0935
G01 X91.1199 Y112.1995
G01 X91.1485 Y112.3078
G01 X91.1653 Y112.3739
G01 X91.1795 Y112.4406
G01 X91.1912 Y112.5077
G01 X91.2002 Y112.5753
G01 X91.2066 Y112.6432
G01 X91.2103 Y112.7113
G01 X91.2114 Y112.7795
G01 X91.2098 Y112.8476
G01 X91.0411 Y113.4365
G01 X90.8811 Y114.0278
G01 X90.7297 Y114.6214
G01 X90.5870 Y115.2172
G01 X90.4963 Y115.7364
G01 X90.4268 Y116.2589
G01 X90.3787 Y116.7838
G01 X90.3521 Y117.3102
G01 X90.3469 Y117.8373
G01 X90.3633 Y118.3641
G01 X90.4012 Y118.8899
G01 X90.4605 Y119.4136
G01 X90.5462 Y120.1347
G01 X90.6427 Y120.8544
G01 X90.7498 Y121.5725
G01 X90.8676 Y122.2890
G01 X90.9961 Y123.0037
G01 X91.1351 Y123.7163
G01 X91.2848 Y124.4269
G01 X91.4450 Y125.1351
G01 X91.6143 Y125.7116
G01 X91.8056 Y126.2812
G01 X92.0187 Y126.8430
G01 X92.2531 Y127.3963
G01 X92.5086 Y127.9401
G01 X92.7847 Y128.4738
G01 X93.0812 Y128.9964
G01 X93.3974 Y129.5073
G01 X93.7331 Y130.0057
G01 X94.0876 Y130.4909
G01 X94.4604 Y130.9620
G01 X94.8511 Y131.4186
G01 X95.2590 Y131.8598
G01 X95.6835 Y132.2850
G01 X96.1241 Y132.6936
G01 X96.5800 Y133.0850
G01 X97.0961 Y133.4883
G01 X97.6268 Y133.8722
G01 X98.1715 Y134.2359
G01 X98.7293 Y134.5792
G01 X99.2995 Y134.9015
G01 X99.8813 Y135.2023
G01 X100.4740 Y135.4812
G01 X101.0766 Y135.7379
G01 X101.6883 Y135.9720
G01 X102.3083 Y136.1831
G01 X102.9358 Y136.3710
G01 X103.5698 Y136.5354
G01 X104.1153 Y136.6398
G01 X104.6642 Y136.7244
G01 X105.2159 Y136.7890
G01 X105.7695 Y136.8336
G01 X106.3244 Y136.8581
G01 X106.8798 Y136.8625
G01 X107.4350 Y136.8468
G01 X107.9893 Y136.8110
G01 X107.5512 Y136.5220
G01 X107.1205 Y136.2219
G01 X106.6977 Y135.9109
G01 X106.2829 Y135.5892
G01 X105.8765 Y135.2571
G01 X105.4786 Y134.9148
G01 X105.0896 Y134.5624
G01 X104.7098 Y134.2002
G01 X104.0912 Y133.5717
G01 X103.4816 Y132.9347
G01 X102.8809 Y132.2891
G01 X102.2893 Y131.6352
G01 X102.2176 Y131.5488
G01 X102.1532 Y131.4568
G01 X102.0966 Y131.3599
G01 X102.0481 Y131.2587
G01 X102.0080 Y131.1538
G01 X101.9766 Y131.0460
G01 X101.9541 Y130.9360
G01 X101.9407 Y130.8245
G01 X101.9365 Y130.7123
G01 X101.9415 Y130.6002
G01 X101.9556 Y130.4888
G01 X101.9788 Y130.3789
G01 X102.0108 Y130.2713
G01 X102.0516 Y130.1667
G01 X102.1008 Y130.0658
G01 X102.1581 Y129.9692
G01 X102.2138 Y129.8920
G01 X102.2747 Y129.8187
G01 X102.3404 Y129.7497
G01 X102.4107 Y129.6853
G01 X102.4852 Y129.6259
G01 X102.5635 Y129.5717
G01 X102.6454 Y129.5229
G01 X102.7303 Y129.4798
G01 X102.8180 Y129.4426
G01 X102.9081 Y129.4114
G01 X103.0000 Y129.3864
G01 X103.0935 Y129.3677
G01 X103.1879 Y129.3554
G01 X103.2830 Y129.3496
G01 X103.3783 Y129.3502
G01 X103.4733 Y129.3573
G01 X103.5677 Y129.3709
G01 X103.6608 Y129.3908
G01 X103.7524 Y129.4170
G01 X103.8420 Y129.4494
G01 X104.7060 Y129.6952
G01 X105.5790 Y129.9066
G01 X106.4597 Y130.0833
G01 X107.3467 Y130.2250
G01 X108.2386 Y130.3316
G01 X109.1341 Y130.4027
G01 X110.0316 Y130.4384
G01 X110.9298 Y130.4385
G01 X111.4734 Y130.4065
G01 X112.0151 Y130.3519
G01 X112.5541 Y130.2750
G01 X113.0895 Y130.1758
G01 X113.6203 Y130.0544
G01 X114.1456 Y129.9111
G01 X114.6645 Y129.7462
G01 X115.1761 Y129.5599
G01 X115.6795 Y129.3525
G01 X116.1740 Y129.1245
G01 X116.6585 Y128.8761
G01 X117.1323 Y128.6079
G01 X117.5941 Y128.2951
G01 X118.0455 Y127.9674
G01 X118.4861 Y127.6253
G01 X118.9153 Y127.2690
G01 X118.2261 Y127.3013
G01 X117.5363 Y127.3074
G01 X116.8467 Y127.2873
G01 X116.1583 Y127.2409
G01 X115.4722 Y127.1685
G01 X114.7894 Y127.0700
G01 X114.1108 Y126.9456
G01 X113.4375 Y126.7955
G01 X112.7703 Y126.6199
G01 X112.1103 Y126.4191
G01 X111.4584 Y126.1933
G01 X110.8155 Y125.9429
G01 X110.2063 Y125.7054
G01 X109.6010 Y125.4582
G01 X108.9997 Y125.2013
G01 X108.4026 Y124.9349
G01 X108.3314 Y124.8829
G01 X108.2650 Y124.8249
G01 X108.2039 Y124.7613
G01 X108.1486 Y124.6926
G01 X108.0995 Y124.6194
G01 X108.0570 Y124.5421
G01 X108.0214 Y124.4615
G01 X107.9930 Y124.3780
G01 X107.9720 Y124.2924
G01 X107.9586 Y124.2052
G01 X107.9528 Y124.1172
G01 X107.9548 Y124.0291
G01 X107.9644 Y123.9415
G01 X107.9817 Y123.8550
G01 X108.0064 Y123.7704
G01 X108.0384 Y123.6882
G01 X108.0775 Y123.6092
G01 X108.1234 Y123.5339
G01 X108.1756 Y123.4629
G01 X108.2339 Y123.3967
G01 X108.2977 Y123.3359
G01 X108.3666 Y123.2808
G01 X108.4400 Y123.2320
G01 X108.5175 Y123.1899
G01 X108.5983 Y123.1546
G01 X108.6818 Y123.1265
G01 X108.7676 Y123.1058
G01 X108.8547 Y123.0928
G01 X109.3418 Y122.9862
G01 X109.8268 Y122.8706
G01 X110.3096 Y122.7460
G01 X110.7900 Y122.6124
G01 X111.2678 Y122.4699
G01 X111.7429 Y122.3186
G01 X112.2151 Y122.1584
G01 X112.6842 Y121.9895
G01 X113.1568 Y121.7888
G01 X113.6193 Y121.5655
G01 X114.0704 Y121.3201
G01 X114.5091 Y121.0532
G01 X114.9345 Y120.7655
G01 X115.3454 Y120.4576
G01 X115.7411 Y120.1302
G01 X116.1205 Y119.7841
G01 X116.4827 Y119.4201
G01 X116.8269 Y119.0391
G01 X117.1524 Y118.6418
G01 X117.4583 Y118.2294
G01 X117.7440 Y117.8026
G01 X118.0087 Y117.3626
G01 X118.2519 Y116.9103
G01 X118.4729 Y116.4468
G01 X118.6714 Y115.9732
G01 X118.8467 Y115.4905
G01 X118.9986 Y115.0000
G01 X119.1266 Y114.5027
G01 X119.1984 Y114.0811
G01 X119.2609 Y113.6581
G01 X119.3141 Y113.2337
G01 X119.3579 Y112.8084
G01 X118.8864 Y113.1954
G01 X118.3971 Y113.5596
G01 X117.8910 Y113.9002
G01 X117.3693 Y114.2163
G01 X116.8331 Y114.5073
G01 X116.2838 Y114.7725
G01 X115.7224 Y115.0113
G01 X115.1504 Y115.2232
G01 X114.5689 Y115.4076
G01 X113.9794 Y115.5642
G01 X113.3830 Y115.6927
G01 X112.7813 Y115.7926
G01 X112.1407 Y115.8918
G01 X111.5004 Y115.9926
G01 X110.8603 Y116.0950
G01 X110.2205 Y116.1991
G01 X110.1215 Y116.2085
G01 X110.0220 Y116.2104
G01 X109.9227 Y116.2048
G01 X109.8240 Y116.1916
G01 X109.7267 Y116.1710
G01 X109.6312 Y116.1431
G01 X109.5381 Y116.1079
G01 X109.4479 Y116.0658
G01 X109.3612 Y116.0170
G01 X109.2785 Y115.9618
G01 X109.2002 Y115.9004
G01 X109.1268 Y115.8332
G01 X109.0587 Y115.7607
G01 X108.9963 Y115.6832
G01 X108.9399 Y115.6012
G01 X108.8900 Y115.5151
G01 X108.8498 Y115.4228
G01 X108.8168 Y115.3277
G01 X108.7913 Y115.2304
G01 X108.7732 Y115.1314
G01 X108.7629 Y115.0313
G01 X108.7602 Y114.9307
G01 X108.7653 Y114.8302
G01 X108.7780 Y114.7304
G01 X108.7984 Y114.6318
G01 X108.8263 Y114.5351
G01 X108.8615 Y114.4409
G01 X108.9039 Y114.3496
G01 X108.9531 Y114.2618
G01 X109.0090 Y114.1781
G01 X109.0711 Y114.0989
G01 X109.1391 Y114.0247
G01 X109.2125 Y113.9559
G01 X109.2911 Y113.8930
G01 X109.3742 Y113.8363
G01 X109.4615 Y113.7861
G01 X110.0505 Y113.4921
G01 X110.6241 Y113.1691
G01 X111.1810 Y112.8179
G01 X111.7197 Y112.4395
G01 X112.2389 Y112.0347
G01 X112.7372 Y111.6045
G01 X113.2136 Y111.1501
G01 X113.6667 Y110.6725
G01 X114.0955 Y110.1730
G01 X114.4989 Y109.6527
G01 X114.8759 Y109.1130
G01 X115.2255 Y108.5552
G01 X115.5121 Y108.0115
G01 X115.7694 Y107.4534
G01 X115.9967 Y106.8824
G01 X116.1933 Y106.3001
G01 X116.3586 Y105.7082
G01 X116.4923 Y105.1083
G01 X116.5939 Y104.5022
G01 X116.6632 Y103.8916
G01 X116.6999 Y103.2781
G01 X116.7039 Y102.6635
G01 X116.6752 Y102.0496
G01 X116.6140 Y101.4381
G01 X116.5204 Y100.8307
G01 X116.3946 Y100.2291
G01 X116.2370 Y99.6351
G01 X116.0480 Y99.0503
G01 X116.0224 Y98.9691
G01 X115.9965 Y98.8880
G01 X115.9705 Y98.8069
G01 X115.9443 Y98.7259
G01 X115.7829 Y99.1561
G01 X115.6119 Y99.5825
G01 X115.4314 Y100.0051
G01 X115.2416 Y100.4234
G01 X115.0424 Y100.8374
G01 X114.8340 Y101.2469
G01 X114.6165 Y101.6516
G01 X114.3900 Y102.0514
G01 X114.0858 Y102.4859
G01 X113.7717 Y102.9133
G01 X113.4478 Y103.3334
G01 X113.1143 Y103.7459
G01 X112.7714 Y104.1506
G01 X112.4193 Y104.5474
G01 X112.0581 Y104.9359
G01 X111.6881 Y105.3160
G01 X111.5428 Y105.4645
G01 X111.3890 Y105.6041
G01 X111.2271 Y105.7344
G01 X111.0579 Y105.8550
G01 X110.8818 Y105.9653
G01 X110.6995 Y106.0649
G01 X110.5116 Y106.1537
G01 X110.3188 Y106.2311
G01 X110.2298 Y106.2462
G01 X110.1398 Y106.2531
G01 X110.0495 Y106.2519
G01 X109.9598 Y106.2426
G01 X109.8712 Y106.2252
G01 X109.7845 Y106.1999
G01 X109.7005 Y106.1669
G01 X109.6198 Y106.1264
G01 X109.5431 Y106.0789
G01 X109.4710 Y106.0246
G01 X109.4040 Y105.9640
G01 X109.3429 Y105.8976
G01 X109.2879 Y105.8260
G01 X109.2396 Y105.7498
G01 X109.1984 Y105.6694
G01 X109.1646 Y105.5857
G01 X109.1385 Y105.4993
G01 X109.1203 Y105.4109
G01 X109.1102 Y105.3212
G01 X109.1081 Y105.2310
G01 X109.1143 Y105.1409
G01 X109.1285 Y105.0517
G01 X109.1507 Y104.9642
G01 X109.1807 Y104.8791
G01 X109.5414 Y104.0583
G01 X109.8729 Y103.2253
G01 X110.1747 Y102.3810
G01 X110.4465 Y101.5267
G01 X110.6113 Y100.9238
G01 X110.7410 Y100.3124
G01 X110.8350 Y99.6945
G01 X110.8931 Y99.0723
G01 X110.9150 Y98.4477
G01 X110.9007 Y97.8228
G01 X110.8502 Y97.1999
G01 X110.7638 Y96.5809
G01 X110.6416 Y95.9680
G01 X110.4841 Y95.3632
G01 X110.2918 Y94.7685
G01 X110.0654 Y94.1859
G01 X109.9292 Y93.8946
G01 X109.7837 Y93.6077
G01 X109.6291 Y93.3256
G01 X109.4656 Y93.0486
G01 X109.2934 Y92.7770
G01 X109.1126 Y92.5109
G01 X108.9233 Y92.2508
G01 X108.7259 Y91.9969
G01 X108.7280 Y92.1031
G01 X108.7216 Y92.2091
G01 X108.7068 Y92.3142
G01 X108.6838 Y92.4179
G01 X108.6525 Y92.5194
G01 X108.6133 Y92.6181
G01 X108.5664 Y92.7133
G01 X108.5121 Y92.8046
G01 X108.4507 Y92.8912
G01 X108.3826 Y92.9727
G01 X108.3083 Y93.0485
G01 X108.2281 Y93.1182
G01 X108.1530 Y93.1680
G01 X108.0742 Y93.2117
G01 X107.9922 Y93.2490
G01 X107.9076 Y93.2798
G01 X107.8207 Y93.3038
G01 X107.7323 Y93.3209
G01 X107.6427 Y93.3310
G01 X107.5527 Y93.3340
G01 X107.4627 Y93.3298
G01 X107.3733 Y93.3186
G01 X107.2850 Y93.3004
G01 X107.1985 Y93.2753
G01 X107.1142 Y93.2435
G01 X107.0327 Y93.2051
G01 X106.9545 Y93.1604
G01 X106.8800 Y93.1097
G01 X106.8098 Y93.0533
G01 X106.7442 Y92.9915
G01 X106.6837 Y92.9248
G01 X106.6286 Y92.8534
G01 X106.5794 Y92.7780
G01 X106.5362 Y92.6989
G01 X106.4994 Y92.6167
G01 X106.4692 Y92.5318
G01 X106.0394 Y91.1320
G01 X105.5844 Y89.7403
G01 X105.1042 Y88.3570
G01 X104.5991 Y86.9826
G01 X104.0155 Y85.6622
G01 X103.4167 Y84.3485
G01 X102.8029 Y83.0419
G01 X102.1740 Y81.7424
G01 X102.0348 Y81.4510
G01 X101.9187 Y81.1496
G01 X101.8265 Y80.8400
G01 X101.7588 Y80.5242
G01 X101.7159 Y80.2041
G01 X101.6981 Y79.8816
G01 X101.7055 Y79.5587
G01 X101.7381 Y79.2373
G01 X101.8098 Y78.3982
G01 X101.8593 Y77.5575
G01 X101.8867 Y76.7158
G01 X101.8918 Y75.8737
G01 X101.8442 Y75.5891
G01 X101.7863 Y75.3064
G01 X101.7181 Y75.0260
G01 X101.6399 Y74.7482
G01 X101.5516 Y74.4735
G01 X101.4534 Y74.2021
G01 X101.3454 Y73.9345
G01 X101.2278 Y73.6710
G01 X101.1889 Y73.5625
G01 X101.1563 Y73.4519
G01 X101.1302 Y73.3397
G01 X101.1107 Y73.2261
G01 X101.0977 Y73.1116
G01 X101.0914 Y72.9965
G01 X101.0918 Y72.8812
G01 X101.0989 Y72.7662
G01 X101.1126 Y72.6517
G01 X101.1329 Y72.5383
G01 X101.1598 Y72.4262
G01 X101.1931 Y72.3159
G01 X101.2327 Y72.2076
G01 X101.2785 Y72.1019
G01 X101.3304 Y71.9990
G01 X101.3882 Y71.8992
G01 X101.4205 Y71.8315
G01 X101.4529 Y71.7638
G01 X101.4852 Y71.6961
G01 X101.5176 Y71.6285
G01 X101.9375 Y70.7505
G01 X102.3480 Y69.8681
G01 X102.7489 Y68.9813
G01 X103.1402 Y68.0902
G01 X103.1944 Y68.0109
G01 X103.2531 Y67.9349
G01 X103.3161 Y67.8624
G01 X103.3832 Y67.7936
G01 X103.4541 Y67.7289
G01 X103.5286 Y67.6683
G01 X103.6065 Y67.6121
G01 X103.6875 Y67.5605
G01 X103.7714 Y67.5137
G01 X103.8578 Y67.4718
G01 X103.9465 Y67.4350
G01 X104.0371 Y67.4033
G01 X104.1295 Y67.3769
G01 X104.2232 Y67.3559
G01 X104.3179 Y67.3403
G01 X104.4134 Y67.3302
G01 X105.6097 Y67.0053
G01 X106.8023 Y66.6673
G01 X107.9911 Y66.3163
G01 X109.1760 Y65.9522
G01 X109.9026 Y65.7385
G01 X110.6379 Y65.5571
G01 X111.3806 Y65.4085
G01 X112.1291 Y65.2929
G01 X112.4492 Y65.2852
G01 X112.7693 Y65.2985
G01 X113.0877 Y65.3328
G01 X113.4032 Y65.3879
G01 X113.7144 Y65.4637
G01 X114.0200 Y65.5597
G01 X114.3185 Y65.6756
G01 X114.6089 Y65.8109
G01 X114.8541 Y65.9259
G01 X115.1071 Y66.0226
G01 X115.3665 Y66.1007
G01 X115.6309 Y66.1596
G01 X115.6626 Y66.1554
G01 X115.6941 Y66.1499
G01 X115.7254 Y66.1432
G01 X115.7564 Y66.1352
G01 X115.7871 Y66.1261
G01 X115.8174 Y66.1157
G01 X115.8472 Y66.1041
G01 X115.8766 Y66.0914
G01 X115.9054 Y66.0775
G01 X115.9337 Y66.0625
G01 X115.9614 Y66.0463
G01 X115.9884 Y66.0291
G01 X115.9793 Y66.0354
G01 X116.1580 Y65.8903
G01 X116.3276 Y65.7347
G01 X116.4874 Y65.5691
G01 X116.6370 Y65.3942
G01 X116.7757 Y65.2106
G01 X116.9032 Y65.0190
G01 X117.0188 Y64.8200
G01 X117.1222 Y64.6144
G01 X117.3835 Y64.0510
G01 X117.6194 Y63.4766
G01 X117.8292 Y62.8921
G01 X118.0125 Y62.2987
G01 X118.1690 Y61.6978
G01 X118.2985 Y61.0904
G01 X118.4005 Y60.4778
G01 X118.4749 Y59.8613
G01 X118.5620 Y59.1014
G01 X118.6200 Y58.3387
G01 X118.6490 Y57.5743
G01 X118.6487 Y56.8094
G01 X118.6193 Y56.0450
G01 X118.5608 Y55.2823
G01 X118.4733 Y54.5224
G01 X118.3568 Y53.7664
G01 X118.2116 Y53.0154
G01 X118.0379 Y52.2705
G01 X117.8359 Y51.5327
G01 X117.6059 Y50.8032
G01 X117.3968 Y50.2225
G01 X117.1650 Y49.6505
G01 X116.9109 Y49.0881
G01 X116.6348 Y48.5361
G01 X116.3372 Y47.9954
G01 X116.0186 Y47.4669
G01 X115.6793 Y46.9513
G01 X115.3201 Y46.4494
G01 X114.9413 Y45.9621
G01 X114.5437 Y45.4901
G01 X114.1278 Y45.0341
G01 X113.6942 Y44.5949
G01 X113.3051 Y44.2367
G01 X112.9005 Y43.8960
G01 X112.4812 Y43.5736
G01 X112.0482 Y43.2699
G01 X111.6021 Y42.9856
G01 X111.1440 Y42.7213
G01 X110.6746 Y42.4775
G01 X110.1950 Y42.2546
G01 X109.7059 Y42.0531
G01 X109.2085 Y41.8733
G01 X108.7036 Y41.7157
G01 X108.1923 Y41.5805
G01 X107.6755 Y41.4680
