;Project Chickeria1
;Created by Estlcam version 11 build 11,245
;Machining time about 00:14:59 hours

G90
M03 S10000
G00 Z5.0000


;No. 1: Helical drill 1
G00 X20.6627 Y85.0253
G00 Z0.5000
G01 X20.6616 Y84.9825 Z0.4861 F400 S10000
G01 X20.6586 Y84.9398 Z0.4722
G01 X20.6535 Y84.8973 Z0.4583
G01 X20.6464 Y84.8550 Z0.4444
G01 X20.6373 Y84.8132 Z0.4306
G01 X20.6262 Y84.7718 Z0.4167
G01 X20.6132 Y84.7310 Z0.4028
G01 X20.5982 Y84.6909 Z0.3889
G01 X20.5813 Y84.6515 Z0.3750
G01 X20.5626 Y84.6129 Z0.3611
G01 X20.5421 Y84.5753 Z0.3472
G01 X20.5198 Y84.5388 Z0.3333
G01 X20.4958 Y84.5033 Z0.3194
G01 X20.4701 Y84.4690 Z0.3056
G01 X20.4428 Y84.4360 Z0.2917
G01 X20.4140 Y84.4043 Z0.2778
G01 X20.3837 Y84.3740 Z0.2639
G01 X20.3520 Y84.3452 Z0.2500
G01 X20.3190 Y84.3179 Z0.2361
G01 X20.2847 Y84.2922 Z0.2222
G01 X20.2492 Y84.2682 Z0.2083
G01 X20.2127 Y84.2459 Z0.1944
G01 X20.1751 Y84.2254 Z0.1806
G01 X20.1365 Y84.2067 Z0.1667
G01 X20.0972 Y84.1898 Z0.1528
G01 X20.0570 Y84.1748 Z0.1389
G01 X20.0162 Y84.1618 Z0.1250
G01 X19.9748 Y84.1507 Z0.1111
G01 X19.9330 Y84.1416 Z0.0972
G01 X19.8907 Y84.1345 Z0.0833
G01 X19.8482 Y84.1294 Z0.0694
G01 X19.8055 Y84.1264 Z0.0556
G01 X19.7627 Y84.1253 Z0.0417
G01 X19.7198 Y84.1264 Z0.0278
G01 X19.6771 Y84.1294 Z0.0139
G01 X19.6346 Y84.1345 Z0.0000
G01 X19.5923 Y84.1416 Z-0.0139
G01 X19.5505 Y84.1507 Z-0.0278
G01 X19.5091 Y84.1618 Z-0.0417
G01 X19.4683 Y84.1748 Z-0.0556
G01 X19.4282 Y84.1898 Z-0.0694
G01 X19.3888 Y84.2067 Z-0.0833
G01 X19.3503 Y84.2254 Z-0.0972
G01 X19.3127 Y84.2459 Z-0.1111
G01 X19.2761 Y84.2682 Z-0.1250
G01 X19.2406 Y84.2922 Z-0.1389
G01 X19.2063 Y84.3179 Z-0.1528
G01 X19.1733 Y84.3452 Z-0.1667
G01 X19.1416 Y84.3740 Z-0.1806
G01 X19.1113 Y84.4043 Z-0.1944
G01 X19.0825 Y84.4360 Z-0.2083
G01 X19.0552 Y84.4690 Z-0.2222
G01 X19.0295 Y84.5033 Z-0.2361
G01 X19.0055 Y84.5388 Z-0.2500
G01 X18.9832 Y84.5753 Z-0.2639
G01 X18.9627 Y84.6129 Z-0.2778
G01 X18.9440 Y84.6515 Z-0.2917
G01 X18.9271 Y84.6909 Z-0.3056
G01 X18.9122 Y84.7310 Z-0.3194
G01 X18.8991 Y84.7718 Z-0.3333
G01 X18.8880 Y84.8132 Z-0.3472
G01 X18.8789 Y84.8550 Z-0.3611
G01 X18.8718 Y84.8973 Z-0.3750
G01 X18.8667 Y84.9398 Z-0.3889
G01 X18.8637 Y84.9825 Z-0.4028
G01 X18.8627 Y85.0253 Z-0.4167
G01 X18.8637 Y85.0682 Z-0.4306
G01 X18.8667 Y85.1109 Z-0.4444
G01 X18.8718 Y85.1534 Z-0.4583
G01 X18.8789 Y85.1957 Z-0.4722
G01 X18.8880 Y85.2375 Z-0.4861
G01 X18.8991 Y85.2789 Z-0.5000
G01 X18.9122 Y85.3197 Z-0.5139
G01 X18.9271 Y85.3598 Z-0.5278
G01 X18.9440 Y85.3992 Z-0.5417
G01 X18.9627 Y85.4378 Z-0.5556
G01 X18.9832 Y85.4753 Z-0.5694
G01 X19.0055 Y85.5119 Z-0.5833
G01 X19.0295 Y85.5474 Z-0.5972
G01 X19.0552 Y85.5817 Z-0.6111
G01 X19.0825 Y85.6147 Z-0.6250
G01 X19.1113 Y85.6464 Z-0.6389
G01 X19.1416 Y85.6767 Z-0.6528
G01 X19.1733 Y85.7055 Z-0.6667
G01 X19.2063 Y85.7328 Z-0.6806
G01 X19.2406 Y85.7585 Z-0.6944
G01 X19.2761 Y85.7825 Z-0.7083
G01 X19.3127 Y85.8048 Z-0.7222
G01 X19.3503 Y85.8253 Z-0.7361
G01 X19.3888 Y85.8440 Z-0.7500
G01 X19.4282 Y85.8609 Z-0.7639
G01 X19.4683 Y85.8758 Z-0.7778
G01 X19.5091 Y85.8889 Z-0.7917
G01 X19.5505 Y85.9000 Z-0.8056
G01 X19.5923 Y85.9091 Z-0.8194
G01 X19.6346 Y85.9162 Z-0.8333
G01 X19.6771 Y85.9213 Z-0.8472
G01 X19.7198 Y85.9243 Z-0.8611
G01 X19.7627 Y85.9253 Z-0.8750
G01 X19.8055 Y85.9243 Z-0.8889
G01 X19.8482 Y85.9213 Z-0.9028
G01 X19.8907 Y85.9162 Z-0.9167
G01 X19.9330 Y85.9091 Z-0.9306
G01 X19.9748 Y85.9000 Z-0.9444
G01 X20.0162 Y85.8889 Z-0.9583
G01 X20.0570 Y85.8758 Z-0.9722
G01 X20.0972 Y85.8609 Z-0.9861
G01 X20.1365 Y85.8440 Z-1.0000
G01 X20.1751 Y85.8253 Z-1.0139
G01 X20.2127 Y85.8048 Z-1.0278
G01 X20.2492 Y85.7825 Z-1.0417
G01 X20.2847 Y85.7585 Z-1.0556
G01 X20.3190 Y85.7328 Z-1.0694
G01 X20.3520 Y85.7055 Z-1.0833
G01 X20.3837 Y85.6767 Z-1.0972
G01 X20.4140 Y85.6464 Z-1.1111
G01 X20.4428 Y85.6147 Z-1.1250
G01 X20.4701 Y85.5817 Z-1.1389
G01 X20.4958 Y85.5474 Z-1.1528
G01 X20.5198 Y85.5119 Z-1.1667
G01 X20.5421 Y85.4753 Z-1.1806
G01 X20.5626 Y85.4378 Z-1.1944
G01 X20.5813 Y85.3992 Z-1.2083
G01 X20.5982 Y85.3598 Z-1.2222
G01 X20.6132 Y85.3197 Z-1.2361
G01 X20.6262 Y85.2789 Z-1.2500
G01 X20.6373 Y85.2375 Z-1.2639
G01 X20.6464 Y85.1957 Z-1.2778
G01 X20.6535 Y85.1534 Z-1.2917
G01 X20.6586 Y85.1109 Z-1.3056
G01 X20.6616 Y85.0682 Z-1.3194
G01 X20.6627 Y85.0253 Z-1.3333
G01 X20.6616 Y84.9825
G01 X20.6586 Y84.9398
G01 X20.6535 Y84.8973
G01 X20.6464 Y84.8550
G01 X20.6373 Y84.8132
G01 X20.6262 Y84.7718
G01 X20.6132 Y84.7310
G01 X20.5982 Y84.6909
G01 X20.5813 Y84.6515
G01 X20.5626 Y84.6129
G01 X20.5421 Y84.5753
G01 X20.5198 Y84.5388
G01 X20.4958 Y84.5033
G01 X20.4701 Y84.4690
G01 X20.4428 Y84.4360
G01 X20.4140 Y84.4043
G01 X20.3837 Y84.3740
G01 X20.3520 Y84.3452
G01 X20.3190 Y84.3179
G01 X20.2847 Y84.2922
G01 X20.2492 Y84.2682
G01 X20.2127 Y84.2459
G01 X20.1751 Y84.2254
G01 X20.1365 Y84.2067
G01 X20.0972 Y84.1898
G01 X20.0570 Y84.1748
G01 X20.0162 Y84.1618
G01 X19.9748 Y84.1507
G01 X19.9330 Y84.1416
G01 X19.8907 Y84.1345
G01 X19.8482 Y84.1294
G01 X19.8055 Y84.1264
G01 X19.7627 Y84.1253
G01 X19.7198 Y84.1264
G01 X19.6771 Y84.1294
G01 X19.6346 Y84.1345
G01 X19.5923 Y84.1416
G01 X19.5505 Y84.1507
G01 X19.5091 Y84.1618
G01 X19.4683 Y84.1748
G01 X19.4282 Y84.1898
G01 X19.3888 Y84.2067
G01 X19.3503 Y84.2254
G01 X19.3127 Y84.2459
G01 X19.2761 Y84.2682
G01 X19.2406 Y84.2922
G01 X19.2063 Y84.3179
G01 X19.1733 Y84.3452
G01 X19.1416 Y84.3740
G01 X19.1113 Y84.4043
G01 X19.0825 Y84.4360
G01 X19.0552 Y84.4690
G01 X19.0295 Y84.5033
G01 X19.0055 Y84.5388
G01 X18.9832 Y84.5753
G01 X18.9627 Y84.6129
G01 X18.9440 Y84.6515
G01 X18.9271 Y84.6909
G01 X18.9122 Y84.7310
G01 X18.8991 Y84.7718
G01 X18.8880 Y84.8132
G01 X18.8789 Y84.8550
G01 X18.8718 Y84.8973
G01 X18.8667 Y84.9398
G01 X18.8637 Y84.9825
G01 X18.8627 Y85.0253
G01 X18.8637 Y85.0682
G01 X18.8667 Y85.1109
G01 X18.8718 Y85.1534
G01 X18.8789 Y85.1957
G01 X18.8880 Y85.2375
G01 X18.8991 Y85.2789
G01 X18.9122 Y85.3197
G01 X18.9271 Y85.3598
G01 X18.9440 Y85.3992
G01 X18.9627 Y85.4378
G01 X18.9832 Y85.4753
G01 X19.0055 Y85.5119
G01 X19.0295 Y85.5474
G01 X19.0552 Y85.5817
G01 X19.0825 Y85.6147
G01 X19.1113 Y85.6464
G01 X19.1416 Y85.6767
G01 X19.1733 Y85.7055
G01 X19.2063 Y85.7328
G01 X19.2406 Y85.7585
G01 X19.2761 Y85.7825
G01 X19.3127 Y85.8048
G01 X19.3503 Y85.8253
G01 X19.3888 Y85.8440
G01 X19.4282 Y85.8609
G01 X19.4683 Y85.8758
G01 X19.5091 Y85.8889
G01 X19.5505 Y85.9000
G01 X19.5923 Y85.9091
G01 X19.6346 Y85.9162
G01 X19.6771 Y85.9213
G01 X19.7198 Y85.9243
G01 X19.7627 Y85.9253
G01 X19.8055 Y85.9243
G01 X19.8482 Y85.9213
G01 X19.8907 Y85.9162
G01 X19.9330 Y85.9091
G01 X19.9748 Y85.9000
G01 X20.0162 Y85.8889
G01 X20.0570 Y85.8758
G01 X20.0972 Y85.8609
G01 X20.1365 Y85.8440
G01 X20.1751 Y85.8253
G01 X20.2127 Y85.8048
G01 X20.2492 Y85.7825
G01 X20.2847 Y85.7585
G01 X20.3190 Y85.7328
G01 X20.3520 Y85.7055
G01 X20.3837 Y85.6767
G01 X20.4140 Y85.6464
G01 X20.4428 Y85.6147
G01 X20.4701 Y85.5817
G01 X20.4958 Y85.5474
G01 X20.5198 Y85.5119
G01 X20.5421 Y85.4753
G01 X20.5626 Y85.4378
G01 X20.5813 Y85.3992
G01 X20.5982 Y85.3598
G01 X20.6132 Y85.3197
G01 X20.6262 Y85.2789
G01 X20.6373 Y85.2375
G01 X20.6464 Y85.1957
G01 X20.6535 Y85.1534
G01 X20.6586 Y85.1109
G01 X20.6616 Y85.0682
G01 X20.6627 Y85.0253
G01 X20.6702 Y84.9943 F1000
G01 X20.6767 Y84.9630
G01 X20.6820 Y84.9315
G01 X20.6863 Y84.8998
G01 X20.6895 Y84.8680
G01 X20.6916 Y84.8361
G01 X20.6925 Y84.8042
G01 X20.6924 Y84.7723
G01 X20.6911 Y84.7403
G01 X20.6888 Y84.7085
G01 X20.6853 Y84.6767
G01 X20.6808 Y84.6451
G01 X20.6711 Y84.5936
G01 X20.6587 Y84.5426
G01 X20.6438 Y84.4924
G01 X20.6263 Y84.4430
G01 X20.6063 Y84.3946
G01 X20.5838 Y84.3472
G01 X20.5589 Y84.3011
G01 X20.5316 Y84.2564
G01 X20.4996 Y84.2093
G01 X20.4652 Y84.1640
G01 X20.4286 Y84.1205
G01 X20.3897 Y84.0789
G01 X20.3488 Y84.0394
G01 X20.3059 Y84.0020
G01 X20.2612 Y83.9668
G01 X20.2147 Y83.9340
G01 X20.1628 Y83.9012
G01 X20.1093 Y83.8710
G01 X20.0543 Y83.8437
G01 X19.9981 Y83.8191
G01 X19.9406 Y83.7974
G01 X19.8821 Y83.7787
G01 X19.8227 Y83.7630
G01 X19.7627 Y83.7503
G01 X19.6975 Y83.7400
G01 X19.6320 Y83.7330
G01 X19.5662 Y83.7293
G01 X19.5002 Y83.7290
G01 X19.4344 Y83.7319
G01 X19.3687 Y83.7382
G01 X19.3035 Y83.7479
G01 X19.2389 Y83.7608
G01 X19.1705 Y83.7781
G01 X19.1032 Y83.7987
G01 X19.0370 Y83.8228
G01 X18.9720 Y83.8502
G01 X18.9086 Y83.8808
G01 X18.8467 Y83.9145
G01 X18.7867 Y83.9514
G01 X18.7285 Y83.9912
G01 X18.6750 Y84.0406
G01 X18.6240 Y84.0926
G01 X18.5756 Y84.1471
G01 X18.5299 Y84.2039
G01 X18.4871 Y84.2628
G01 X18.4473 Y84.3238
G01 X18.4105 Y84.3867
G01 X18.3769 Y84.4513
G01 X18.3504 Y84.5200
G01 X18.3273 Y84.5899
G01 X18.3076 Y84.6609
G01 X18.2915 Y84.7327
G01 X18.2789 Y84.8053
G01 X18.2699 Y84.8783
G01 X18.2645 Y84.9517
G01 X18.2627 Y85.0253
G01 X18.2645 Y85.0989
G01 X18.2699 Y85.1724
G01 X18.2789 Y85.2454
G01 X18.2915 Y85.3180
G01 X18.3076 Y85.3898
G01 X18.3273 Y85.4608
G01 X18.3504 Y85.5307
G01 X18.3769 Y85.5994
G01 X18.4067 Y85.6667
G01 X18.4398 Y85.7324
G01 X18.4761 Y85.7965
G01 X18.5155 Y85.8587
G01 X18.5579 Y85.9189
G01 X18.6032 Y85.9769
G01 X18.6513 Y86.0327
G01 X18.7020 Y86.0860
G01 X18.7553 Y86.1368
G01 X18.8111 Y86.1848
G01 X18.8691 Y86.2301
G01 X18.9293 Y86.2725
G01 X18.9915 Y86.3119
G01 X19.0556 Y86.3482
G01 X19.1213 Y86.3813
G01 X19.1886 Y86.4111
G01 X19.2573 Y86.4376
G01 X19.3272 Y86.4607
G01 X19.3982 Y86.4804
G01 X19.4700 Y86.4965
G01 X19.5426 Y86.5091
G01 X19.6156 Y86.5181
G01 X19.6891 Y86.5235
G01 X19.7627 Y86.5253
G01 X19.8363 Y86.5235
G01 X19.9097 Y86.5181
G01 X19.9828 Y86.5091
G01 X20.0553 Y86.4965
G01 X20.1271 Y86.4804
G01 X20.1981 Y86.4607
G01 X20.2680 Y86.4376
G01 X20.3367 Y86.4111
G01 X20.4040 Y86.3813
G01 X20.4697 Y86.3482
G01 X20.5338 Y86.3119
G01 X20.5960 Y86.2725
G01 X20.6562 Y86.2301
G01 X20.7142 Y86.1848
G01 X20.7700 Y86.1368
G01 X20.8233 Y86.0860
G01 X20.8741 Y86.0327
G01 X20.9222 Y85.9769
G01 X20.9674 Y85.9189
G01 X21.0098 Y85.8587
G01 X21.0492 Y85.7965
G01 X21.0855 Y85.7324
G01 X21.1186 Y85.6667
G01 X21.1485 Y85.5994
G01 X21.1750 Y85.5307
G01 X21.1980 Y85.4608
G01 X21.2177 Y85.3898
G01 X21.2338 Y85.3180
G01 X21.2464 Y85.2454
G01 X21.2554 Y85.1724
G01 X21.2608 Y85.0989
G01 X21.2626 Y85.0253
G01 X21.2584 Y84.9133
G01 X21.2459 Y84.8018
G01 X21.2250 Y84.6916
G01 X21.1960 Y84.5832
G01 X21.1589 Y84.4773
G01 X21.1141 Y84.3745
G01 X21.0617 Y84.2754
G01 X21.0020 Y84.1804
G01 X20.9354 Y84.0901
G01 X20.8622 Y84.0051
G01 X20.7829 Y83.9258
G01 X20.6979 Y83.8526
G01 X20.6076 Y83.7860
G01 X20.5126 Y83.7263
G01 X20.4135 Y83.6739
G01 X20.3107 Y83.6291
G01 X20.2048 Y83.5920
G01 X20.0964 Y83.5630
G01 X19.9862 Y83.5421
G01 X19.8748 Y83.5296
G01 X19.7627 Y83.5254
G01 X19.6506 Y83.5296
G01 X19.5391 Y83.5421
G01 X19.4289 Y83.5630
G01 X19.3205 Y83.5920
G01 X19.2147 Y83.6291
G01 X19.1119 Y83.6739
G01 X19.0127 Y83.7263
G01 X18.9177 Y83.7860
G01 X18.8274 Y83.8526
G01 X18.7424 Y83.9258
G01 X18.6631 Y84.0051
G01 X18.5899 Y84.0901
G01 X18.5233 Y84.1804
G01 X18.4637 Y84.2754
G01 X18.4112 Y84.3745
G01 X18.3664 Y84.4773
G01 X18.3293 Y84.5832
G01 X18.3003 Y84.6916
G01 X18.2794 Y84.8018
G01 X18.2669 Y84.9133
G01 X18.2627 Y85.0253
G01 X18.2669 Y85.1374
G01 X18.2794 Y85.2489
G01 X18.3003 Y85.3591
G01 X18.3293 Y85.4675
G01 X18.3664 Y85.5733
G01 X18.4112 Y85.6762
G01 X18.4637 Y85.7753
G01 X18.5233 Y85.8703
G01 X18.5899 Y85.9606
G01 X18.6631 Y86.0456
G01 X18.7424 Y86.1249
G01 X18.8274 Y86.1981
G01 X18.9177 Y86.2647
G01 X19.0127 Y86.3244
G01 X19.1119 Y86.3768
G01 X19.2147 Y86.4216
G01 X19.3205 Y86.4587
G01 X19.4289 Y86.4877
G01 X19.5391 Y86.5086
G01 X19.6506 Y86.5211
G01 X19.7627 Y86.5253
G01 X19.8748 Y86.5211
G01 X19.9862 Y86.5086
G01 X20.0964 Y86.4877
G01 X20.2048 Y86.4587
G01 X20.3107 Y86.4216
G01 X20.4135 Y86.3768
G01 X20.5126 Y86.3244
G01 X20.6076 Y86.2647
G01 X20.6979 Y86.1981
G01 X20.7829 Y86.1249
G01 X20.8622 Y86.0456
G01 X20.9354 Y85.9606
G01 X21.0020 Y85.8703
G01 X21.0617 Y85.7753
G01 X21.1141 Y85.6762
G01 X21.1589 Y85.5733
G01 X21.1960 Y85.4675
G01 X21.2250 Y85.3591
G01 X21.2459 Y85.2489
G01 X21.2584 Y85.1374
G01 X21.2626 Y85.0253
G01 X21.2581 Y84.9208
G01 X21.2444 Y84.8170
G01 X21.2217 Y84.7148
G01 X21.1903 Y84.6149
G01 X21.1502 Y84.5182
G01 X21.1019 Y84.4254
G01 X21.0456 Y84.3371
G01 X20.9819 Y84.2540
G01 X20.9112 Y84.1768
G01 X20.8340 Y84.1061
G01 X20.7509 Y84.0424
G01 X20.6626 Y83.9861
G01 X20.5698 Y83.9378
G01 X20.4731 Y83.8977
G01 X20.3732 Y83.8663
G01 X20.2710 Y83.8436
G01 X20.1672 Y83.8299
G01 X20.0626 Y83.8254
G01 X19.9581 Y83.8299
G01 X19.8543 Y83.8436
G01 X19.7521 Y83.8663
G01 X19.6522 Y83.8977
G01 X19.5555 Y83.9378
G01 X19.4627 Y83.9861
G01 X19.3744 Y84.0424
G01 X19.2913 Y84.1061
G01 X19.2141 Y84.1768
G01 X19.1434 Y84.2540
G01 X19.0797 Y84.3371
G01 X19.0234 Y84.4254
G01 X18.9751 Y84.5182
G01 X18.9350 Y84.6149
G01 X18.9036 Y84.7148
G01 X18.8809 Y84.8170
G01 X18.8672 Y84.9208
G01 X18.8627 Y85.0253
G01 X18.8637 Y85.0695
G01 X18.8670 Y85.1136
G01 X18.8724 Y85.1574
G01 X18.8800 Y85.2009
G01 X18.8896 Y85.2440
G01 X18.9014 Y85.2866
G01 X18.9153 Y85.3285
G01 X18.9312 Y85.3698
G01 X18.9491 Y85.4101
G01 X18.9689 Y85.4496
G01 X18.9907 Y85.4880
G01 X19.0143 Y85.5254
G01 X19.0398 Y85.5615
G01 X19.0670 Y85.5963
G01 X19.0958 Y85.6297
G01 X19.1263 Y85.6617
G01 X19.1583 Y85.6922
G01 X19.1917 Y85.7211
G01 X19.2265 Y85.7482
G01 X19.2626 Y85.7737
G01 X19.3000 Y85.7973
G01 X19.3384 Y85.8191
G01 X19.3779 Y85.8389
G01 X19.4182 Y85.8568
G01 X19.4595 Y85.8727
G01 X19.5014 Y85.8866
G01 X19.5440 Y85.8984
G01 X19.5871 Y85.9081
G01 X19.6306 Y85.9156
G01 X19.6744 Y85.9210
G01 X19.7185 Y85.9243
G01 X19.7627 Y85.9253
G01 X19.8068 Y85.9243
G01 X19.8509 Y85.9210
G01 X19.8947 Y85.9156
G01 X19.9382 Y85.9081
G01 X19.9813 Y85.8984
G01 X20.0239 Y85.8866
G01 X20.0659 Y85.8727
G01 X20.1071 Y85.8568
G01 X20.1475 Y85.8389
G01 X20.1869 Y85.8191
G01 X20.2254 Y85.7973
G01 X20.2627 Y85.7737
G01 X20.2988 Y85.7482
G01 X20.3336 Y85.7211
G01 X20.3671 Y85.6922
G01 X20.3991 Y85.6617
G01 X20.4295 Y85.6297
G01 X20.4584 Y85.5963
G01 X20.4855 Y85.5615
G01 X20.5110 Y85.5254
G01 X20.5346 Y85.4880
G01 X20.5564 Y85.4496
G01 X20.5763 Y85.4101
G01 X20.5942 Y85.3698
G01 X20.6101 Y85.3285
G01 X20.6239 Y85.2866
G01 X20.6357 Y85.2440
G01 X20.6454 Y85.2009
G01 X20.6529 Y85.1574
G01 X20.6583 Y85.1136
G01 X20.6616 Y85.0695
G01 X20.6627 Y85.0253
G01 X20.6616 Y84.9825 Z-1.3472 F400
G01 X20.6586 Y84.9398 Z-1.3611
G01 X20.6535 Y84.8973 Z-1.3750
G01 X20.6464 Y84.8550 Z-1.3889
G01 X20.6373 Y84.8132 Z-1.4028
G01 X20.6262 Y84.7718 Z-1.4167
G01 X20.6132 Y84.7310 Z-1.4306
G01 X20.5982 Y84.6909 Z-1.4444
G01 X20.5813 Y84.6515 Z-1.4583
G01 X20.5626 Y84.6129 Z-1.4722
G01 X20.5421 Y84.5753 Z-1.4861
G01 X20.5198 Y84.5388 Z-1.5000
G01 X20.4958 Y84.5033 Z-1.5139
G01 X20.4701 Y84.4690 Z-1.5278
G01 X20.4428 Y84.4360 Z-1.5417
G01 X20.4140 Y84.4043 Z-1.5556
G01 X20.3837 Y84.3740 Z-1.5694
G01 X20.3520 Y84.3452 Z-1.5833
G01 X20.3190 Y84.3179 Z-1.5972
G01 X20.2847 Y84.2922 Z-1.6111
G01 X20.2492 Y84.2682 Z-1.6250
G01 X20.2127 Y84.2459 Z-1.6389
G01 X20.1751 Y84.2254 Z-1.6528
G01 X20.1365 Y84.2067 Z-1.6667
G01 X20.0972 Y84.1898 Z-1.6806
G01 X20.0570 Y84.1748 Z-1.6944
G01 X20.0162 Y84.1618 Z-1.7083
G01 X19.9748 Y84.1507 Z-1.7222
G01 X19.9330 Y84.1416 Z-1.7361
G01 X19.8907 Y84.1345 Z-1.7500
G01 X19.8482 Y84.1294 Z-1.7639
G01 X19.8055 Y84.1264 Z-1.7778
G01 X19.7627 Y84.1253 Z-1.7917
G01 X19.7198 Y84.1264 Z-1.8056
G01 X19.6771 Y84.1294 Z-1.8194
G01 X19.6346 Y84.1345 Z-1.8333
G01 X19.5923 Y84.1416 Z-1.8472
G01 X19.5505 Y84.1507 Z-1.8611
G01 X19.5091 Y84.1618 Z-1.8750
G01 X19.4683 Y84.1748 Z-1.8889
G01 X19.4282 Y84.1898 Z-1.9028
G01 X19.3888 Y84.2067 Z-1.9167
G01 X19.3503 Y84.2254 Z-1.9306
G01 X19.3127 Y84.2459 Z-1.9444
G01 X19.2761 Y84.2682 Z-1.9583
G01 X19.2406 Y84.2922 Z-1.9722
G01 X19.2063 Y84.3179 Z-1.9861
G01 X19.1733 Y84.3452 Z-2.0000
G01 X19.1416 Y84.3740 Z-2.0139
G01 X19.1113 Y84.4043 Z-2.0278
G01 X19.0825 Y84.4360 Z-2.0417
G01 X19.0552 Y84.4690 Z-2.0556
G01 X19.0295 Y84.5033 Z-2.0694
G01 X19.0055 Y84.5388 Z-2.0833
G01 X18.9832 Y84.5753 Z-2.0972
G01 X18.9627 Y84.6129 Z-2.1111
G01 X18.9440 Y84.6515 Z-2.1250
G01 X18.9271 Y84.6909 Z-2.1389
G01 X18.9122 Y84.7310 Z-2.1528
G01 X18.8991 Y84.7718 Z-2.1667
G01 X18.8880 Y84.8132 Z-2.1806
G01 X18.8789 Y84.8550 Z-2.1944
G01 X18.8718 Y84.8973 Z-2.2083
G01 X18.8667 Y84.9398 Z-2.2222
G01 X18.8637 Y84.9825 Z-2.2361
G01 X18.8627 Y85.0253 Z-2.2500
G01 X18.8637 Y85.0682 Z-2.2639
G01 X18.8667 Y85.1109 Z-2.2778
G01 X18.8718 Y85.1534 Z-2.2917
G01 X18.8789 Y85.1957 Z-2.3056
G01 X18.8880 Y85.2375 Z-2.3194
G01 X18.8991 Y85.2789 Z-2.3333
G01 X18.9122 Y85.3197 Z-2.3472
G01 X18.9271 Y85.3598 Z-2.3611
G01 X18.9440 Y85.3992 Z-2.3750
G01 X18.9627 Y85.4378 Z-2.3889
G01 X18.9832 Y85.4753 Z-2.4028
G01 X19.0055 Y85.5119 Z-2.4167
G01 X19.0295 Y85.5474 Z-2.4306
G01 X19.0552 Y85.5817 Z-2.4444
G01 X19.0825 Y85.6147 Z-2.4583
G01 X19.1113 Y85.6464 Z-2.4722
G01 X19.1416 Y85.6767 Z-2.4861
G01 X19.1733 Y85.7055 Z-2.5000
G01 X19.2063 Y85.7328 Z-2.5139
G01 X19.2406 Y85.7585 Z-2.5278
G01 X19.2761 Y85.7825 Z-2.5417
G01 X19.3127 Y85.8048 Z-2.5556
G01 X19.3503 Y85.8253 Z-2.5694
G01 X19.3888 Y85.8440 Z-2.5833
G01 X19.4282 Y85.8609 Z-2.5972
G01 X19.4683 Y85.8758 Z-2.6111
G01 X19.5091 Y85.8889 Z-2.6250
G01 X19.5505 Y85.9000 Z-2.6389
G01 X19.5923 Y85.9091 Z-2.6528
G01 X19.6346 Y85.9162 Z-2.6667
G01 X19.6771 Y85.9213 Z-2.6806
G01 X19.7198 Y85.9243 Z-2.6944
G01 X19.7627 Y85.9253 Z-2.7083
G01 X19.8055 Y85.9243 Z-2.7222
G01 X19.8482 Y85.9213 Z-2.7361
G01 X19.8907 Y85.9162 Z-2.7500
G01 X19.9330 Y85.9091 Z-2.7639
G01 X19.9748 Y85.9000 Z-2.7778
G01 X20.0162 Y85.8889 Z-2.7917
G01 X20.0570 Y85.8758 Z-2.8056
G01 X20.0972 Y85.8609 Z-2.8194
G01 X20.1365 Y85.8440 Z-2.8333
G01 X20.1751 Y85.8253 Z-2.8472
G01 X20.2127 Y85.8048 Z-2.8611
G01 X20.2492 Y85.7825 Z-2.8750
G01 X20.2847 Y85.7585 Z-2.8889
G01 X20.3190 Y85.7328 Z-2.9028
G01 X20.3520 Y85.7055 Z-2.9167
G01 X20.3837 Y85.6767 Z-2.9306
G01 X20.4140 Y85.6464 Z-2.9444
G01 X20.4428 Y85.6147 Z-2.9583
G01 X20.4701 Y85.5817 Z-2.9722
G01 X20.4958 Y85.5474 Z-2.9861
G01 X20.5198 Y85.5119 Z-3.0000
G01 X20.5421 Y85.4753 Z-3.0139
G01 X20.5626 Y85.4378 Z-3.0278
G01 X20.5813 Y85.3992 Z-3.0417
G01 X20.5982 Y85.3598 Z-3.0556
G01 X20.6132 Y85.3197 Z-3.0694
G01 X20.6262 Y85.2789 Z-3.0833
G01 X20.6373 Y85.2375 Z-3.0972
G01 X20.6464 Y85.1957 Z-3.1111
G01 X20.6535 Y85.1534 Z-3.1250
G01 X20.6586 Y85.1109 Z-3.1389
G01 X20.6616 Y85.0682 Z-3.1528
G01 X20.6627 Y85.0253 Z-3.1667
G01 X20.6616 Y84.9825
G01 X20.6586 Y84.9398
G01 X20.6535 Y84.8973
G01 X20.6464 Y84.8550
G01 X20.6373 Y84.8132
G01 X20.6262 Y84.7718
G01 X20.6132 Y84.7310
G01 X20.5982 Y84.6909
G01 X20.5813 Y84.6515
G01 X20.5626 Y84.6129
G01 X20.5421 Y84.5753
G01 X20.5198 Y84.5388
G01 X20.4958 Y84.5033
G01 X20.4701 Y84.4690
G01 X20.4428 Y84.4360
G01 X20.4140 Y84.4043
G01 X20.3837 Y84.3740
G01 X20.3520 Y84.3452
G01 X20.3190 Y84.3179
G01 X20.2847 Y84.2922
G01 X20.2492 Y84.2682
G01 X20.2127 Y84.2459
G01 X20.1751 Y84.2254
G01 X20.1365 Y84.2067
G01 X20.0972 Y84.1898
G01 X20.0570 Y84.1748
G01 X20.0162 Y84.1618
G01 X19.9748 Y84.1507
G01 X19.9330 Y84.1416
G01 X19.8907 Y84.1345
G01 X19.8482 Y84.1294
G01 X19.8055 Y84.1264
G01 X19.7627 Y84.1253
G01 X19.7198 Y84.1264
G01 X19.6771 Y84.1294
G01 X19.6346 Y84.1345
G01 X19.5923 Y84.1416
G01 X19.5505 Y84.1507
G01 X19.5091 Y84.1618
G01 X19.4683 Y84.1748
G01 X19.4282 Y84.1898
G01 X19.3888 Y84.2067
G01 X19.3503 Y84.2254
G01 X19.3127 Y84.2459
G01 X19.2761 Y84.2682
G01 X19.2406 Y84.2922
G01 X19.2063 Y84.3179
G01 X19.1733 Y84.3452
G01 X19.1416 Y84.3740
G01 X19.1113 Y84.4043
G01 X19.0825 Y84.4360
G01 X19.0552 Y84.4690
G01 X19.0295 Y84.5033
G01 X19.0055 Y84.5388
G01 X18.9832 Y84.5753
G01 X18.9627 Y84.6129
G01 X18.9440 Y84.6515
G01 X18.9271 Y84.6909
G01 X18.9122 Y84.7310
G01 X18.8991 Y84.7718
G01 X18.8880 Y84.8132
G01 X18.8789 Y84.8550
G01 X18.8718 Y84.8973
G01 X18.8667 Y84.9398
G01 X18.8637 Y84.9825
G01 X18.8627 Y85.0253
G01 X18.8637 Y85.0682
G01 X18.8667 Y85.1109
G01 X18.8718 Y85.1534
G01 X18.8789 Y85.1957
G01 X18.8880 Y85.2375
G01 X18.8991 Y85.2789
G01 X18.9122 Y85.3197
G01 X18.9271 Y85.3598
G01 X18.9440 Y85.3992
G01 X18.9627 Y85.4378
G01 X18.9832 Y85.4753
G01 X19.0055 Y85.5119
G01 X19.0295 Y85.5474
G01 X19.0552 Y85.5817
G01 X19.0825 Y85.6147
G01 X19.1113 Y85.6464
G01 X19.1416 Y85.6767
G01 X19.1733 Y85.7055
G01 X19.2063 Y85.7328
G01 X19.2406 Y85.7585
G01 X19.2761 Y85.7825
G01 X19.3127 Y85.8048
G01 X19.3503 Y85.8253
G01 X19.3888 Y85.8440
G01 X19.4282 Y85.8609
G01 X19.4683 Y85.8758
G01 X19.5091 Y85.8889
G01 X19.5505 Y85.9000
G01 X19.5923 Y85.9091
G01 X19.6346 Y85.9162
G01 X19.6771 Y85.9213
G01 X19.7198 Y85.9243
G01 X19.7627 Y85.9253
G01 X19.8055 Y85.9243
G01 X19.8482 Y85.9213
G01 X19.8907 Y85.9162
G01 X19.9330 Y85.9091
G01 X19.9748 Y85.9000
G01 X20.0162 Y85.8889
G01 X20.0570 Y85.8758
G01 X20.0972 Y85.8609
G01 X20.1365 Y85.8440
G01 X20.1751 Y85.8253
G01 X20.2127 Y85.8048
G01 X20.2492 Y85.7825
G01 X20.2847 Y85.7585
G01 X20.3190 Y85.7328
G01 X20.3520 Y85.7055
G01 X20.3837 Y85.6767
G01 X20.4140 Y85.6464
G01 X20.4428 Y85.6147
G01 X20.4701 Y85.5817
G01 X20.4958 Y85.5474
G01 X20.5198 Y85.5119
G01 X20.5421 Y85.4753
G01 X20.5626 Y85.4378
G01 X20.5813 Y85.3992
G01 X20.5982 Y85.3598
G01 X20.6132 Y85.3197
G01 X20.6262 Y85.2789
G01 X20.6373 Y85.2375
G01 X20.6464 Y85.1957
G01 X20.6535 Y85.1534
G01 X20.6586 Y85.1109
G01 X20.6616 Y85.0682
G01 X20.6627 Y85.0253
G01 X20.6702 Y84.9943 F1000
G01 X20.6767 Y84.9630
G01 X20.6820 Y84.9315
G01 X20.6863 Y84.8998
G01 X20.6895 Y84.8680
G01 X20.6916 Y84.8361
G01 X20.6925 Y84.8042
G01 X20.6924 Y84.7723
G01 X20.6911 Y84.7403
G01 X20.6888 Y84.7085
G01 X20.6853 Y84.6767
G01 X20.6808 Y84.6451
G01 X20.6711 Y84.5936
G01 X20.6587 Y84.5426
G01 X20.6438 Y84.4924
G01 X20.6263 Y84.4430
G01 X20.6063 Y84.3946
G01 X20.5838 Y84.3472
G01 X20.5589 Y84.3011
G01 X20.5316 Y84.2564
G01 X20.4996 Y84.2093
G01 X20.4652 Y84.1640
G01 X20.4286 Y84.1205
G01 X20.3897 Y84.0789
G01 X20.3488 Y84.0394
G01 X20.3059 Y84.0020
G01 X20.2612 Y83.9668
G01 X20.2147 Y83.9340
G01 X20.1628 Y83.9012
G01 X20.1093 Y83.8710
G01 X20.0543 Y83.8437
G01 X19.9981 Y83.8191
G01 X19.9406 Y83.7974
G01 X19.8821 Y83.7787
G01 X19.8227 Y83.7630
G01 X19.7627 Y83.7503
G01 X19.6975 Y83.7400
G01 X19.6320 Y83.7330
G01 X19.5662 Y83.7293
G01 X19.5002 Y83.7290
G01 X19.4344 Y83.7319
G01 X19.3687 Y83.7382
G01 X19.3035 Y83.7479
G01 X19.2389 Y83.7608
G01 X19.1705 Y83.7781
G01 X19.1032 Y83.7987
G01 X19.0370 Y83.8228
G01 X18.9720 Y83.8502
G01 X18.9086 Y83.8808
G01 X18.8467 Y83.9145
G01 X18.7867 Y83.9514
G01 X18.7285 Y83.9912
G01 X18.6750 Y84.0406
G01 X18.6240 Y84.0926
G01 X18.5756 Y84.1471
G01 X18.5299 Y84.2039
G01 X18.4871 Y84.2628
G01 X18.4473 Y84.3238
G01 X18.4105 Y84.3867
G01 X18.3769 Y84.4513
G01 X18.3504 Y84.5200
G01 X18.3273 Y84.5899
G01 X18.3076 Y84.6609
G01 X18.2915 Y84.7327
G01 X18.2789 Y84.8053
G01 X18.2699 Y84.8783
G01 X18.2645 Y84.9517
G01 X18.2627 Y85.0253
G01 X18.2645 Y85.0989
G01 X18.2699 Y85.1724
G01 X18.2789 Y85.2454
G01 X18.2915 Y85.3180
G01 X18.3076 Y85.3898
G01 X18.3273 Y85.4608
G01 X18.3504 Y85.5307
G01 X18.3769 Y85.5994
G01 X18.4067 Y85.6667
G01 X18.4398 Y85.7324
G01 X18.4761 Y85.7965
G01 X18.5155 Y85.8587
G01 X18.5579 Y85.9189
G01 X18.6032 Y85.9769
G01 X18.6513 Y86.0327
G01 X18.7020 Y86.0860
G01 X18.7553 Y86.1368
G01 X18.8111 Y86.1848
G01 X18.8691 Y86.2301
G01 X18.9293 Y86.2725
G01 X18.9915 Y86.3119
G01 X19.0556 Y86.3482
G01 X19.1213 Y86.3813
G01 X19.1886 Y86.4111
G01 X19.2573 Y86.4376
G01 X19.3272 Y86.4607
G01 X19.3982 Y86.4804
G01 X19.4700 Y86.4965
G01 X19.5426 Y86.5091
G01 X19.6156 Y86.5181
G01 X19.6891 Y86.5235
G01 X19.7627 Y86.5253
G01 X19.8363 Y86.5235
G01 X19.9097 Y86.5181
G01 X19.9828 Y86.5091
G01 X20.0553 Y86.4965
G01 X20.1271 Y86.4804
G01 X20.1981 Y86.4607
G01 X20.2680 Y86.4376
G01 X20.3367 Y86.4111
G01 X20.4040 Y86.3813
G01 X20.4697 Y86.3482
G01 X20.5338 Y86.3119
G01 X20.5960 Y86.2725
G01 X20.6562 Y86.2301
G01 X20.7142 Y86.1848
G01 X20.7700 Y86.1368
G01 X20.8233 Y86.0860
G01 X20.8741 Y86.0327
G01 X20.9222 Y85.9769
G01 X20.9674 Y85.9189
G01 X21.0098 Y85.8587
G01 X21.0492 Y85.7965
G01 X21.0855 Y85.7324
G01 X21.1186 Y85.6667
G01 X21.1485 Y85.5994
G01 X21.1750 Y85.5307
G01 X21.1980 Y85.4608
G01 X21.2177 Y85.3898
G01 X21.2338 Y85.3180
G01 X21.2464 Y85.2454
G01 X21.2554 Y85.1724
G01 X21.2608 Y85.0989
G01 X21.2626 Y85.0253
G01 X21.2584 Y84.9133
G01 X21.2459 Y84.8018
G01 X21.2250 Y84.6916
G01 X21.1960 Y84.5832
G01 X21.1589 Y84.4773
G01 X21.1141 Y84.3745
G01 X21.0617 Y84.2754
G01 X21.0020 Y84.1804
G01 X20.9354 Y84.0901
G01 X20.8622 Y84.0051
G01 X20.7829 Y83.9258
G01 X20.6979 Y83.8526
G01 X20.6076 Y83.7860
G01 X20.5126 Y83.7263
G01 X20.4135 Y83.6739
G01 X20.3107 Y83.6291
G01 X20.2048 Y83.5920
G01 X20.0964 Y83.5630
G01 X19.9862 Y83.5421
G01 X19.8748 Y83.5296
G01 X19.7627 Y83.5254
G01 X19.6506 Y83.5296
G01 X19.5391 Y83.5421
G01 X19.4289 Y83.5630
G01 X19.3205 Y83.5920
G01 X19.2147 Y83.6291
G01 X19.1119 Y83.6739
G01 X19.0127 Y83.7263
G01 X18.9177 Y83.7860
G01 X18.8274 Y83.8526
G01 X18.7424 Y83.9258
G01 X18.6631 Y84.0051
G01 X18.5899 Y84.0901
G01 X18.5233 Y84.1804
G01 X18.4637 Y84.2754
G01 X18.4112 Y84.3745
G01 X18.3664 Y84.4773
G01 X18.3293 Y84.5832
G01 X18.3003 Y84.6916
G01 X18.2794 Y84.8018
G01 X18.2669 Y84.9133
G01 X18.2627 Y85.0253
G01 X18.2669 Y85.1374
G01 X18.2794 Y85.2489
G01 X18.3003 Y85.3591
G01 X18.3293 Y85.4675
G01 X18.3664 Y85.5733
G01 X18.4112 Y85.6762
G01 X18.4637 Y85.7753
G01 X18.5233 Y85.8703
G01 X18.5899 Y85.9606
G01 X18.6631 Y86.0456
G01 X18.7424 Y86.1249
G01 X18.8274 Y86.1981
G01 X18.9177 Y86.2647
G01 X19.0127 Y86.3244
G01 X19.1119 Y86.3768
G01 X19.2147 Y86.4216
G01 X19.3205 Y86.4587
G01 X19.4289 Y86.4877
G01 X19.5391 Y86.5086
G01 X19.6506 Y86.5211
G01 X19.7627 Y86.5253
G01 X19.8748 Y86.5211
G01 X19.9862 Y86.5086
G01 X20.0964 Y86.4877
G01 X20.2048 Y86.4587
G01 X20.3107 Y86.4216
G01 X20.4135 Y86.3768
G01 X20.5126 Y86.3244
G01 X20.6076 Y86.2647
G01 X20.6979 Y86.1981
G01 X20.7829 Y86.1249
G01 X20.8622 Y86.0456
G01 X20.9354 Y85.9606
G01 X21.0020 Y85.8703
G01 X21.0617 Y85.7753
G01 X21.1141 Y85.6762
G01 X21.1589 Y85.5733
G01 X21.1960 Y85.4675
G01 X21.2250 Y85.3591
G01 X21.2459 Y85.2489
G01 X21.2584 Y85.1374
G01 X21.2626 Y85.0253
G01 X21.2581 Y84.9208
G01 X21.2444 Y84.8170
G01 X21.2217 Y84.7148
G01 X21.1903 Y84.6149
G01 X21.1502 Y84.5182
G01 X21.1019 Y84.4254
G01 X21.0456 Y84.3371
G01 X20.9819 Y84.2540
G01 X20.9112 Y84.1768
G01 X20.8340 Y84.1061
G01 X20.7509 Y84.0424
G01 X20.6626 Y83.9861
G01 X20.5698 Y83.9378
G01 X20.4731 Y83.8977
G01 X20.3732 Y83.8663
G01 X20.2710 Y83.8436
G01 X20.1672 Y83.8299
G01 X20.0626 Y83.8254
G01 X19.9581 Y83.8299
G01 X19.8543 Y83.8436
G01 X19.7521 Y83.8663
G01 X19.6522 Y83.8977
G01 X19.5555 Y83.9378
G01 X19.4627 Y83.9861
G01 X19.3744 Y84.0424
G01 X19.2913 Y84.1061
G01 X19.2141 Y84.1768
G01 X19.1434 Y84.2540
G01 X19.0797 Y84.3371
G01 X19.0234 Y84.4254
G01 X18.9751 Y84.5182
G01 X18.9350 Y84.6149
G01 X18.9036 Y84.7148
G01 X18.8809 Y84.8170
G01 X18.8672 Y84.9208
G01 X18.8627 Y85.0253
G01 X18.8637 Y85.0695
G01 X18.8670 Y85.1136
G01 X18.8724 Y85.1574
G01 X18.8800 Y85.2009
G01 X18.8896 Y85.2440
G01 X18.9014 Y85.2866
G01 X18.9153 Y85.3285
G01 X18.9312 Y85.3698
G01 X18.9491 Y85.4101
G01 X18.9689 Y85.4496
G01 X18.9907 Y85.4880
G01 X19.0143 Y85.5254
G01 X19.0398 Y85.5615
G01 X19.0670 Y85.5963
G01 X19.0958 Y85.6297
G01 X19.1263 Y85.6617
G01 X19.1583 Y85.6922
G01 X19.1917 Y85.7211
G01 X19.2265 Y85.7482
G01 X19.2626 Y85.7737
G01 X19.3000 Y85.7973
G01 X19.3384 Y85.8191
G01 X19.3779 Y85.8389
G01 X19.4182 Y85.8568
G01 X19.4595 Y85.8727
G01 X19.5014 Y85.8866
G01 X19.5440 Y85.8984
G01 X19.5871 Y85.9081
G01 X19.6306 Y85.9156
G01 X19.6744 Y85.9210
G01 X19.7185 Y85.9243
G01 X19.7627 Y85.9253
G01 X19.8068 Y85.9243
G01 X19.8509 Y85.9210
G01 X19.8947 Y85.9156
G01 X19.9382 Y85.9081
G01 X19.9813 Y85.8984
G01 X20.0239 Y85.8866
G01 X20.0659 Y85.8727
G01 X20.1071 Y85.8568
G01 X20.1475 Y85.8389
G01 X20.1869 Y85.8191
G01 X20.2254 Y85.7973
G01 X20.2627 Y85.7737
G01 X20.2988 Y85.7482
G01 X20.3336 Y85.7211
G01 X20.3671 Y85.6922
G01 X20.3991 Y85.6617
G01 X20.4295 Y85.6297
G01 X20.4584 Y85.5963
G01 X20.4855 Y85.5615
G01 X20.5110 Y85.5254
G01 X20.5346 Y85.4880
G01 X20.5564 Y85.4496
G01 X20.5763 Y85.4101
G01 X20.5942 Y85.3698
G01 X20.6101 Y85.3285
G01 X20.6239 Y85.2866
G01 X20.6357 Y85.2440
G01 X20.6454 Y85.2009
G01 X20.6529 Y85.1574
G01 X20.6583 Y85.1136
G01 X20.6616 Y85.0695
G01 X20.6627 Y85.0253
G01 X20.6616 Y84.9825 Z-3.1806 F400
G01 X20.6586 Y84.9398 Z-3.1944
G01 X20.6535 Y84.8973 Z-3.2083
G01 X20.6464 Y84.8550 Z-3.2222
G01 X20.6373 Y84.8132 Z-3.2361
G01 X20.6262 Y84.7718 Z-3.2500
G01 X20.6132 Y84.7310 Z-3.2639
G01 X20.5982 Y84.6909 Z-3.2778
G01 X20.5813 Y84.6515 Z-3.2917
G01 X20.5626 Y84.6129 Z-3.3056
G01 X20.5421 Y84.5753 Z-3.3194
G01 X20.5198 Y84.5388 Z-3.3333
G01 X20.4958 Y84.5033 Z-3.3472
G01 X20.4701 Y84.4690 Z-3.3611
G01 X20.4428 Y84.4360 Z-3.3750
G01 X20.4140 Y84.4043 Z-3.3889
G01 X20.3837 Y84.3740 Z-3.4028
G01 X20.3520 Y84.3452 Z-3.4167
G01 X20.3190 Y84.3179 Z-3.4306
G01 X20.2847 Y84.2922 Z-3.4444
G01 X20.2492 Y84.2682 Z-3.4583
G01 X20.2127 Y84.2459 Z-3.4722
G01 X20.1751 Y84.2254 Z-3.4861
G01 X20.1365 Y84.2067 Z-3.5000
G01 X20.0972 Y84.1898 Z-3.5139
G01 X20.0570 Y84.1748 Z-3.5278
G01 X20.0162 Y84.1618 Z-3.5417
G01 X19.9748 Y84.1507 Z-3.5556
G01 X19.9330 Y84.1416 Z-3.5694
G01 X19.8907 Y84.1345 Z-3.5833
G01 X19.8482 Y84.1294 Z-3.5972
G01 X19.8055 Y84.1264 Z-3.6111
G01 X19.7627 Y84.1253 Z-3.6250
G01 X19.7198 Y84.1264 Z-3.6389
G01 X19.6771 Y84.1294 Z-3.6528
G01 X19.6346 Y84.1345 Z-3.6667
G01 X19.5923 Y84.1416 Z-3.6806
G01 X19.5505 Y84.1507 Z-3.6944
G01 X19.5091 Y84.1618 Z-3.7083
G01 X19.4683 Y84.1748 Z-3.7222
G01 X19.4282 Y84.1898 Z-3.7361
G01 X19.3888 Y84.2067 Z-3.7500
G01 X19.3503 Y84.2254 Z-3.7639
G01 X19.3127 Y84.2459 Z-3.7778
G01 X19.2761 Y84.2682 Z-3.7917
G01 X19.2406 Y84.2922 Z-3.8056
G01 X19.2063 Y84.3179 Z-3.8194
G01 X19.1733 Y84.3452 Z-3.8333
G01 X19.1416 Y84.3740 Z-3.8472
G01 X19.1113 Y84.4043 Z-3.8611
G01 X19.0825 Y84.4360 Z-3.8750
G01 X19.0552 Y84.4690 Z-3.8889
G01 X19.0295 Y84.5033 Z-3.9028
G01 X19.0055 Y84.5388 Z-3.9167
G01 X18.9832 Y84.5753 Z-3.9306
G01 X18.9627 Y84.6129 Z-3.9444
G01 X18.9440 Y84.6515 Z-3.9583
G01 X18.9271 Y84.6909 Z-3.9722
G01 X18.9122 Y84.7310 Z-3.9861
G01 X18.8991 Y84.7718 Z-4.0000
G01 X18.8880 Y84.8132 Z-4.0139
G01 X18.8789 Y84.8550 Z-4.0278
G01 X18.8718 Y84.8973 Z-4.0417
G01 X18.8667 Y84.9398 Z-4.0556
G01 X18.8637 Y84.9825 Z-4.0694
G01 X18.8627 Y85.0253 Z-4.0833
G01 X18.8637 Y85.0682 Z-4.0972
G01 X18.8667 Y85.1109 Z-4.1111
G01 X18.8718 Y85.1534 Z-4.1250
G01 X18.8789 Y85.1957 Z-4.1389
G01 X18.8880 Y85.2375 Z-4.1528
G01 X18.8991 Y85.2789 Z-4.1667
G01 X18.9122 Y85.3197 Z-4.1806
G01 X18.9271 Y85.3598 Z-4.1944
G01 X18.9440 Y85.3992 Z-4.2083
G01 X18.9627 Y85.4378 Z-4.2222
G01 X18.9832 Y85.4753 Z-4.2361
G01 X19.0055 Y85.5119 Z-4.2500
G01 X19.0295 Y85.5474 Z-4.2639
G01 X19.0552 Y85.5817 Z-4.2778
G01 X19.0825 Y85.6147 Z-4.2917
G01 X19.1113 Y85.6464 Z-4.3056
G01 X19.1416 Y85.6767 Z-4.3194
G01 X19.1733 Y85.7055 Z-4.3333
G01 X19.2063 Y85.7328 Z-4.3472
G01 X19.2406 Y85.7585 Z-4.3611
G01 X19.2761 Y85.7825 Z-4.3750
G01 X19.3127 Y85.8048 Z-4.3889
G01 X19.3503 Y85.8253 Z-4.4028
G01 X19.3888 Y85.8440 Z-4.4167
G01 X19.4282 Y85.8609 Z-4.4306
G01 X19.4683 Y85.8758 Z-4.4444
G01 X19.5091 Y85.8889 Z-4.4583
G01 X19.5505 Y85.9000 Z-4.4722
G01 X19.5923 Y85.9091 Z-4.4861
G01 X19.6346 Y85.9162 Z-4.5000
G01 X19.6771 Y85.9213 Z-4.5139
G01 X19.7198 Y85.9243 Z-4.5278
G01 X19.7627 Y85.9253 Z-4.5417
G01 X19.8055 Y85.9243 Z-4.5556
G01 X19.8482 Y85.9213 Z-4.5694
G01 X19.8907 Y85.9162 Z-4.5833
G01 X19.9330 Y85.9091 Z-4.5972
G01 X19.9748 Y85.9000 Z-4.6111
G01 X20.0162 Y85.8889 Z-4.6250
G01 X20.0570 Y85.8758 Z-4.6389
G01 X20.0972 Y85.8609 Z-4.6528
G01 X20.1365 Y85.8440 Z-4.6667
G01 X20.1751 Y85.8253 Z-4.6806
G01 X20.2127 Y85.8048 Z-4.6944
G01 X20.2492 Y85.7825 Z-4.7083
G01 X20.2847 Y85.7585 Z-4.7222
G01 X20.3190 Y85.7328 Z-4.7361
G01 X20.3520 Y85.7055 Z-4.7500
G01 X20.3837 Y85.6767 Z-4.7639
G01 X20.4140 Y85.6464 Z-4.7778
G01 X20.4428 Y85.6147 Z-4.7917
G01 X20.4701 Y85.5817 Z-4.8056
G01 X20.4958 Y85.5474 Z-4.8194
G01 X20.5198 Y85.5119 Z-4.8333
G01 X20.5421 Y85.4753 Z-4.8472
G01 X20.5626 Y85.4378 Z-4.8611
G01 X20.5813 Y85.3992 Z-4.8750
G01 X20.5982 Y85.3598 Z-4.8889
G01 X20.6132 Y85.3197 Z-4.9028
G01 X20.6262 Y85.2789 Z-4.9167
G01 X20.6373 Y85.2375 Z-4.9306
G01 X20.6464 Y85.1957 Z-4.9444
G01 X20.6535 Y85.1534 Z-4.9583
G01 X20.6586 Y85.1109 Z-4.9722
G01 X20.6616 Y85.0682 Z-4.9861
G01 X20.6627 Y85.0253 Z-5.0000
G01 X20.6616 Y84.9825
G01 X20.6586 Y84.9398
G01 X20.6535 Y84.8973
G01 X20.6464 Y84.8550
G01 X20.6373 Y84.8132
G01 X20.6262 Y84.7718
G01 X20.6132 Y84.7310
G01 X20.5982 Y84.6909
G01 X20.5813 Y84.6515
G01 X20.5626 Y84.6129
G01 X20.5421 Y84.5753
G01 X20.5198 Y84.5388
G01 X20.4958 Y84.5033
G01 X20.4701 Y84.4690
G01 X20.4428 Y84.4360
G01 X20.4140 Y84.4043
G01 X20.3837 Y84.3740
G01 X20.3520 Y84.3452
G01 X20.3190 Y84.3179
G01 X20.2847 Y84.2922
G01 X20.2492 Y84.2682
G01 X20.2127 Y84.2459
G01 X20.1751 Y84.2254
G01 X20.1365 Y84.2067
G01 X20.0972 Y84.1898
G01 X20.0570 Y84.1748
G01 X20.0162 Y84.1618
G01 X19.9748 Y84.1507
G01 X19.9330 Y84.1416
G01 X19.8907 Y84.1345
G01 X19.8482 Y84.1294
G01 X19.8055 Y84.1264
G01 X19.7627 Y84.1253
G01 X19.7198 Y84.1264
G01 X19.6771 Y84.1294
G01 X19.6346 Y84.1345
G01 X19.5923 Y84.1416
G01 X19.5505 Y84.1507
G01 X19.5091 Y84.1618
G01 X19.4683 Y84.1748
G01 X19.4282 Y84.1898
G01 X19.3888 Y84.2067
G01 X19.3503 Y84.2254
G01 X19.3127 Y84.2459
G01 X19.2761 Y84.2682
G01 X19.2406 Y84.2922
G01 X19.2063 Y84.3179
G01 X19.1733 Y84.3452
G01 X19.1416 Y84.3740
G01 X19.1113 Y84.4043
G01 X19.0825 Y84.4360
G01 X19.0552 Y84.4690
G01 X19.0295 Y84.5033
G01 X19.0055 Y84.5388
G01 X18.9832 Y84.5753
G01 X18.9627 Y84.6129
G01 X18.9440 Y84.6515
G01 X18.9271 Y84.6909
G01 X18.9122 Y84.7310
G01 X18.8991 Y84.7718
G01 X18.8880 Y84.8132
G01 X18.8789 Y84.8550
G01 X18.8718 Y84.8973
G01 X18.8667 Y84.9398
G01 X18.8637 Y84.9825
G01 X18.8627 Y85.0253
G01 X18.8637 Y85.0682
G01 X18.8667 Y85.1109
G01 X18.8718 Y85.1534
G01 X18.8789 Y85.1957
G01 X18.8880 Y85.2375
G01 X18.8991 Y85.2789
G01 X18.9122 Y85.3197
G01 X18.9271 Y85.3598
G01 X18.9440 Y85.3992
G01 X18.9627 Y85.4378
G01 X18.9832 Y85.4753
G01 X19.0055 Y85.5119
G01 X19.0295 Y85.5474
G01 X19.0552 Y85.5817
G01 X19.0825 Y85.6147
G01 X19.1113 Y85.6464
G01 X19.1416 Y85.6767
G01 X19.1733 Y85.7055
G01 X19.2063 Y85.7328
G01 X19.2406 Y85.7585
G01 X19.2761 Y85.7825
G01 X19.3127 Y85.8048
G01 X19.3503 Y85.8253
G01 X19.3888 Y85.8440
G01 X19.4282 Y85.8609
G01 X19.4683 Y85.8758
G01 X19.5091 Y85.8889
G01 X19.5505 Y85.9000
G01 X19.5923 Y85.9091
G01 X19.6346 Y85.9162
G01 X19.6771 Y85.9213
G01 X19.7198 Y85.9243
G01 X19.7627 Y85.9253
G01 X19.8055 Y85.9243
G01 X19.8482 Y85.9213
G01 X19.8907 Y85.9162
G01 X19.9330 Y85.9091
G01 X19.9748 Y85.9000
G01 X20.0162 Y85.8889
G01 X20.0570 Y85.8758
G01 X20.0972 Y85.8609
G01 X20.1365 Y85.8440
G01 X20.1751 Y85.8253
G01 X20.2127 Y85.8048
G01 X20.2492 Y85.7825
G01 X20.2847 Y85.7585
G01 X20.3190 Y85.7328
G01 X20.3520 Y85.7055
G01 X20.3837 Y85.6767
G01 X20.4140 Y85.6464
G01 X20.4428 Y85.6147
G01 X20.4701 Y85.5817
G01 X20.4958 Y85.5474
G01 X20.5198 Y85.5119
G01 X20.5421 Y85.4753
G01 X20.5626 Y85.4378
G01 X20.5813 Y85.3992
G01 X20.5982 Y85.3598
G01 X20.6132 Y85.3197
G01 X20.6262 Y85.2789
G01 X20.6373 Y85.2375
G01 X20.6464 Y85.1957
G01 X20.6535 Y85.1534
G01 X20.6586 Y85.1109
G01 X20.6616 Y85.0682
G01 X20.6627 Y85.0253
G01 X20.6702 Y84.9943 F1000
G01 X20.6767 Y84.9630
G01 X20.6820 Y84.9315
G01 X20.6863 Y84.8998
G01 X20.6895 Y84.8680
G01 X20.6916 Y84.8361
G01 X20.6925 Y84.8042
G01 X20.6924 Y84.7723
G01 X20.6911 Y84.7403
G01 X20.6888 Y84.7085
G01 X20.6853 Y84.6767
G01 X20.6808 Y84.6451
G01 X20.6711 Y84.5936
G01 X20.6587 Y84.5426
G01 X20.6438 Y84.4924
G01 X20.6263 Y84.4430
G01 X20.6063 Y84.3946
G01 X20.5838 Y84.3472
G01 X20.5589 Y84.3011
G01 X20.5316 Y84.2564
G01 X20.4996 Y84.2093
G01 X20.4652 Y84.1640
G01 X20.4286 Y84.1205
G01 X20.3897 Y84.0789
G01 X20.3488 Y84.0394
G01 X20.3059 Y84.0020
G01 X20.2612 Y83.9668
G01 X20.2147 Y83.9340
G01 X20.1628 Y83.9012
G01 X20.1093 Y83.8710
G01 X20.0543 Y83.8437
G01 X19.9981 Y83.8191
G01 X19.9406 Y83.7974
G01 X19.8821 Y83.7787
G01 X19.8227 Y83.7630
G01 X19.7627 Y83.7503
G01 X19.6975 Y83.7400
G01 X19.6320 Y83.7330
G01 X19.5662 Y83.7293
G01 X19.5002 Y83.7290
G01 X19.4344 Y83.7319
G01 X19.3687 Y83.7382
G01 X19.3035 Y83.7479
G01 X19.2389 Y83.7608
G01 X19.1705 Y83.7781
G01 X19.1032 Y83.7987
G01 X19.0370 Y83.8228
G01 X18.9720 Y83.8502
G01 X18.9086 Y83.8808
G01 X18.8467 Y83.9145
G01 X18.7867 Y83.9514
G01 X18.7285 Y83.9912
G01 X18.6750 Y84.0406
G01 X18.6240 Y84.0926
G01 X18.5756 Y84.1471
G01 X18.5299 Y84.2039
G01 X18.4871 Y84.2628
G01 X18.4473 Y84.3238
G01 X18.4105 Y84.3867
G01 X18.3769 Y84.4513
G01 X18.3504 Y84.5200
G01 X18.3273 Y84.5899
G01 X18.3076 Y84.6609
G01 X18.2915 Y84.7327
G01 X18.2789 Y84.8053
G01 X18.2699 Y84.8783
G01 X18.2645 Y84.9517
G01 X18.2627 Y85.0253
G01 X18.2645 Y85.0989
G01 X18.2699 Y85.1724
G01 X18.2789 Y85.2454
G01 X18.2915 Y85.3180
G01 X18.3076 Y85.3898
G01 X18.3273 Y85.4608
G01 X18.3504 Y85.5307
G01 X18.3769 Y85.5994
G01 X18.4067 Y85.6667
G01 X18.4398 Y85.7324
G01 X18.4761 Y85.7965
G01 X18.5155 Y85.8587
G01 X18.5579 Y85.9189
G01 X18.6032 Y85.9769
G01 X18.6513 Y86.0327
G01 X18.7020 Y86.0860
G01 X18.7553 Y86.1368
G01 X18.8111 Y86.1848
G01 X18.8691 Y86.2301
G01 X18.9293 Y86.2725
G01 X18.9915 Y86.3119
G01 X19.0556 Y86.3482
G01 X19.1213 Y86.3813
G01 X19.1886 Y86.4111
G01 X19.2573 Y86.4376
G01 X19.3272 Y86.4607
G01 X19.3982 Y86.4804
G01 X19.4700 Y86.4965
G01 X19.5426 Y86.5091
G01 X19.6156 Y86.5181
G01 X19.6891 Y86.5235
G01 X19.7627 Y86.5253
G01 X19.8363 Y86.5235
G01 X19.9097 Y86.5181
G01 X19.9828 Y86.5091
G01 X20.0553 Y86.4965
G01 X20.1271 Y86.4804
G01 X20.1981 Y86.4607
G01 X20.2680 Y86.4376
G01 X20.3367 Y86.4111
G01 X20.4040 Y86.3813
G01 X20.4697 Y86.3482
G01 X20.5338 Y86.3119
G01 X20.5960 Y86.2725
G01 X20.6562 Y86.2301
G01 X20.7142 Y86.1848
G01 X20.7700 Y86.1368
G01 X20.8233 Y86.0860
G01 X20.8741 Y86.0327
G01 X20.9222 Y85.9769
G01 X20.9674 Y85.9189
G01 X21.0098 Y85.8587
G01 X21.0492 Y85.7965
G01 X21.0855 Y85.7324
G01 X21.1186 Y85.6667
G01 X21.1485 Y85.5994
G01 X21.1750 Y85.5307
G01 X21.1980 Y85.4608
G01 X21.2177 Y85.3898
G01 X21.2338 Y85.3180
G01 X21.2464 Y85.2454
G01 X21.2554 Y85.1724
G01 X21.2608 Y85.0989
G01 X21.2626 Y85.0253
G01 X21.2584 Y84.9133
G01 X21.2459 Y84.8018
G01 X21.2250 Y84.6916
G01 X21.1960 Y84.5832
G01 X21.1589 Y84.4773
G01 X21.1141 Y84.3745
G01 X21.0617 Y84.2754
G01 X21.0020 Y84.1804
G01 X20.9354 Y84.0901
G01 X20.8622 Y84.0051
G01 X20.7829 Y83.9258
G01 X20.6979 Y83.8526
G01 X20.6076 Y83.7860
G01 X20.5126 Y83.7263
G01 X20.4135 Y83.6739
G01 X20.3107 Y83.6291
G01 X20.2048 Y83.5920
G01 X20.0964 Y83.5630
G01 X19.9862 Y83.5421
G01 X19.8748 Y83.5296
G01 X19.7627 Y83.5254
G01 X19.6506 Y83.5296
G01 X19.5391 Y83.5421
G01 X19.4289 Y83.5630
G01 X19.3205 Y83.5920
G01 X19.2147 Y83.6291
G01 X19.1119 Y83.6739
G01 X19.0127 Y83.7263
G01 X18.9177 Y83.7860
G01 X18.8274 Y83.8526
G01 X18.7424 Y83.9258
G01 X18.6631 Y84.0051
G01 X18.5899 Y84.0901
G01 X18.5233 Y84.1804
G01 X18.4637 Y84.2754
G01 X18.4112 Y84.3745
G01 X18.3664 Y84.4773
G01 X18.3293 Y84.5832
G01 X18.3003 Y84.6916
G01 X18.2794 Y84.8018
G01 X18.2669 Y84.9133
G01 X18.2627 Y85.0253
G01 X18.2669 Y85.1374
G01 X18.2794 Y85.2489
G01 X18.3003 Y85.3591
G01 X18.3293 Y85.4675
G01 X18.3664 Y85.5733
G01 X18.4112 Y85.6762
G01 X18.4637 Y85.7753
G01 X18.5233 Y85.8703
G01 X18.5899 Y85.9606
G01 X18.6631 Y86.0456
G01 X18.7424 Y86.1249
G01 X18.8274 Y86.1981
G01 X18.9177 Y86.2647
G01 X19.0127 Y86.3244
G01 X19.1119 Y86.3768
G01 X19.2147 Y86.4216
G01 X19.3205 Y86.4587
G01 X19.4289 Y86.4877
G01 X19.5391 Y86.5086
G01 X19.6506 Y86.5211
G01 X19.7627 Y86.5253
G01 X19.8748 Y86.5211
G01 X19.9862 Y86.5086
G01 X20.0964 Y86.4877
G01 X20.2048 Y86.4587
G01 X20.3107 Y86.4216
G01 X20.4135 Y86.3768
G01 X20.5126 Y86.3244
G01 X20.6076 Y86.2647
G01 X20.6979 Y86.1981
G01 X20.7829 Y86.1249
G01 X20.8622 Y86.0456
G01 X20.9354 Y85.9606
G01 X21.0020 Y85.8703
G01 X21.0617 Y85.7753
G01 X21.1141 Y85.6762
G01 X21.1589 Y85.5733
G01 X21.1960 Y85.4675
G01 X21.2250 Y85.3591
G01 X21.2459 Y85.2489
G01 X21.2584 Y85.1374
G01 X21.2626 Y85.0253
G01 X21.2595 Y84.9469 Z-4.9750 F400
G01 X21.2503 Y84.8689 Z-4.9500
G01 X21.2350 Y84.7919 Z-4.9250
G01 X21.2137 Y84.7163 Z-4.9000
G01 X21.1865 Y84.6427 Z-4.8750
G01 X21.1536 Y84.5714 Z-4.8500
G01 X21.1153 Y84.5028 Z-4.8250
G01 X21.0716 Y84.4376 Z-4.8000
G01 X21.0230 Y84.3759 Z-4.7750
G01 X20.9697 Y84.3182 Z-4.7500
G01 X20.9121 Y84.2649 Z-4.7250
G01 X20.8504 Y84.2163 Z-4.7000
G01 X20.7851 Y84.1727 Z-4.6750
G01 X20.7166 Y84.1343 Z-4.6500
G01 X20.6453 Y84.1015 Z-4.6250
G01 X20.5716 Y84.0743 Z-4.6000
G01 X20.4961 Y84.0530 Z-4.5750
G01 X20.4191 Y84.0377 Z-4.5500
G01 X20.3411 Y84.0284 Z-4.5250
G01 X20.2626 Y84.0253 Z-4.5000
G00 Z5.0000


;No. 2: Hole 3
G00 X31.1023 Y83.8953 Z5.0000
G00 Z0.5000
G01 Z0.0000 F400
G01 Z-1.3000
G01 X36.9904 F1000
G01 X36.9976 Y85.3953
G01 X31.1028
G01 X31.1422 Y86.8953
G01 X37.0577
G01 X37.1752 Y88.3953
G01 X31.2229
G01 X31.3497 Y89.8953
G01 X37.3562
G01 X37.6078 Y91.3953
G01 X31.5276
G01 X31.7632 Y92.8953
G01 X37.9384
G01 X38.3585 Y94.3953
G01 X32.0593
G01 X32.4143 Y95.8953
G01 X38.8806
G01 X39.5324 Y97.3953
G01 X32.8359
G01 X33.3339 Y98.8953
G01 X40.3610
G01 X41.4504 Y100.3953
G01 X33.9171
G01 X34.5902 Y101.8953
G01 X42.9951
G01 Y103.3953
G01 X46.1666
G01 X35.3947
G01 X36.3573 Y104.8953
G01 X61.6567
G01 X61.7924 Y103.3953
G01 X49.2942
G01 X52.3081
G01 Y101.8953
G01 X61.8508
G01 X61.8413 Y100.3953
G01 X53.6657
G01 X54.5051 Y98.8953
G01 X61.7580
G01 X61.5935 Y97.3953
G01 X55.0098
G01 X55.2502 Y95.8953
G01 X61.3391
G01 X60.9848 Y94.3953
G01 X55.2733
G01 X55.0777 Y92.8953
G01 X60.5185
G01 X59.9309 Y91.3953
G01 X54.6038
G01 X53.7794 Y89.8953
G01 X59.1947
G01 X58.2506 Y88.3953
G01 X52.3108
G01 X56.9889 Y86.8953
G01 X45.7700
G01 X44.9448 Y88.3953
G01 X46.8818
G01 X45.6709
G01 Y89.8953
G01 X44.4826
G01 X44.3229 Y91.3953
G01 X45.2620
G01 X45.4216 Y92.8953
G01 X44.4362
G01 X44.8867 Y94.3953
G01 X46.4092
G01 X45.8512 Y95.8953
G01 X47.7579
G00 Z5.0000
G00 X47.2874 Y86.8953
G00 Z0.5000
G01 Z-1.3000 F400
G01 Y85.3953 F1000
G01 X55.1453
G00 Z5.0000
G00 X61.4291 Y104.8953
G00 Z0.5000
G01 Z-1.3000 F400
G01 Y106.3953 F1000
G01 X37.5049
G01 X38.8595 Y107.8953
G01 X61.0886
G01 X60.5903 Y109.3953
G01 X40.5487
G01 X42.9370 Y110.8953
G01 X53.5611
G00 Z5.0000
G00 X31.1470 Y83.8953
G00 Z0.5000
G01 Z-1.3000 F400
G01 Y82.3953 F1000
G01 X37.0394
G01 X37.1513 Y80.8953
G01 X31.2402
G01 X31.3843 Y79.3953
G01 X37.3330
G01 X37.5928 Y77.8953
G01 X31.5816
G01 X31.8348 Y76.3953
G01 X37.9408
G01 X38.3899 Y74.8953
G01 X32.1469
G01 X32.5199 Y73.3953
G01 X38.9385
G01 X39.6045 Y71.8953
G01 X32.9514
G01 X33.4587 Y70.3953
G01 X40.4123
G01 X41.4130 Y68.8953
G01 X34.0537
G01 X34.7511 Y67.3953
G01 X42.7094
G01 X44.4972 Y65.8953
G01 X35.5710
G01 X36.5344 Y64.3953
G01 X47.5176
G01 Y62.8953
G01 X37.6709
G01 X59.3570
G01 X60.2976 Y64.3953
G01 X53.6131
G01 X56.5607
G01 Y65.8953
G01 X61.0448
G01 X61.6234 Y67.3953
G01 X58.2579
G01 X59.4862 Y68.8953
G01 X62.0640
G01 X62.3798 Y70.3953
G01 X60.4244
G01 X61.2011 Y71.8953
G01 X62.5821
G01 X62.6806 Y73.3953
G01 X61.8548
G00 Z5.0000
G00 X58.1584 Y62.8953
G00 Z0.5000
G01 Z-1.3000 F400
G01 Y61.3953 F1000
G01 X39.0809
G01 X40.9099 Y59.8953
G01 X56.5743
G01 X54.2543 Y58.3953
G01 X43.5336
G01 X43.4531 Y58.2123
G01 X42.9073 Y58.4765
G01 X42.3713 Y58.7597
G01 X41.8455 Y59.0617
G01 X41.3307 Y59.3821
G01 X40.8276 Y59.7204
G01 X40.3367 Y60.0762
G01 X39.8587 Y60.4492
G01 X39.3941 Y60.8388
G01 X38.9436 Y61.2445
G01 X38.5076 Y61.6659
G01 X38.0868 Y62.1024
G01 X37.6816 Y62.5534
G01 X37.2927 Y63.0185
G01 X36.9203 Y63.4970
G01 X36.5651 Y63.9884
G01 X36.2274 Y64.4920
G01 X35.7822 Y65.1854
G01 X35.3570 Y65.8914
G01 X34.9524 Y66.6093
G01 X34.5687 Y67.3386
G01 X34.2061 Y68.0786
G01 X33.8650 Y68.8288
G01 X33.5456 Y69.5885
G01 X33.2483 Y70.3571
G01 X32.9732 Y71.1339
G01 X32.7206 Y71.9183
G01 X32.4907 Y72.7097
G01 X32.2837 Y73.5073
G01 X32.0168 Y74.6048
G01 X31.7777 Y75.7087
G01 X31.5667 Y76.8183
G01 X31.3837 Y77.9329
G01 X31.2291 Y79.0517
G01 X31.1028 Y80.1741
G01 X31.0050 Y81.2994
G01 X30.9356 Y82.4267
G01 X30.8948 Y83.5555
G01 X30.8826 Y84.6849
G01 X30.8990 Y85.8143
G01 X30.9439 Y86.9429
G01 X30.9878 Y88.0070
G01 X31.0600 Y89.0695
G01 X31.1607 Y90.1298
G01 X31.2896 Y91.1870
G01 X31.4467 Y92.2403
G01 X31.6318 Y93.2891
G01 X31.8450 Y94.3326
G01 X32.0859 Y95.3700
G01 X32.3544 Y96.4006
G01 X32.6503 Y97.4237
G01 X32.9735 Y98.4385
G01 X33.3236 Y99.4443
G01 X33.5688 Y100.1030
G01 X33.8337 Y100.7540
G01 X34.1183 Y101.3967
G01 X34.4221 Y102.0304
G01 X34.7449 Y102.6547
G01 X35.0865 Y103.2690
G01 X35.4465 Y103.8726
G01 X35.8246 Y104.4651
G01 X36.2204 Y105.0459
G01 X36.6336 Y105.6144
G01 X37.0639 Y106.1702
G01 X37.5107 Y106.7127
G01 X37.9737 Y107.2414
G01 X38.4525 Y107.7559
G01 X38.9467 Y108.2557
G01 X39.4557 Y108.7404
G01 X39.8822 Y109.1257
G01 X40.3248 Y109.4922
G01 X40.7829 Y109.8394
G01 X41.2555 Y110.1664
G01 X41.7418 Y110.4727
G01 X42.2409 Y110.7578
G01 X42.7518 Y111.0210
G01 X43.2736 Y111.2620
G01 X43.8053 Y111.4802
G01 X44.3459 Y111.6753
G01 X44.8944 Y111.8468
G01 X45.4499 Y111.9946
G01 X46.0253 Y112.1077
G01 X46.6055 Y112.1933
G01 X47.1891 Y112.2512
G01 X47.7748 Y112.2813
G01 X48.3613 Y112.2835
G01 X48.9472 Y112.2578
G01 X49.5312 Y112.2042
G01 X50.1120 Y112.1229
G01 X50.6883 Y112.0141
G01 X51.2587 Y111.8780
G01 X51.8221 Y111.7149
G01 X52.3770 Y111.5251
G01 X53.1017 Y111.2675
G01 X53.8262 Y111.0090
G01 X54.5503 Y110.7497
G01 X55.2741 Y110.4894
G01 X55.5056 Y110.4129
G01 X55.7400 Y110.3460
G01 X55.9771 Y110.2888
G01 X56.2162 Y110.2413
G01 X56.4571 Y110.2038
G01 X56.6994 Y110.1762
G01 X56.9426 Y110.1587
G01 X57.1863 Y110.1511
G01 X57.4497 Y110.1903
G01 X57.7100 Y110.2465
G01 X57.9661 Y110.3194
G01 X58.2170 Y110.4087
G01 X58.4616 Y110.5140
G01 X58.6989 Y110.6349
G01 X58.9278 Y110.7709
G01 X59.1475 Y110.9214
G01 X59.2619 Y110.9920
G01 X59.3799 Y111.0567
G01 X59.5011 Y111.1150
G01 X59.6251 Y111.1670
G01 X59.7061 Y111.1277
G01 X59.7835 Y111.0818
G01 X59.8569 Y111.0296
G01 X59.9257 Y110.9716
G01 X59.9895 Y110.9081
G01 X60.0477 Y110.8395
G01 X60.1001 Y110.7663
G01 X60.1462 Y110.6890
G01 X60.3283 Y110.3770
G01 X60.4985 Y110.0583
G01 X60.6566 Y109.7335
G01 X60.8024 Y109.4029
G01 X60.9357 Y109.0671
G01 X61.0562 Y108.7265
G01 X61.1638 Y108.3817
G01 X61.2583 Y108.0330
G01 X61.4705 Y107.1270
G01 X61.6506 Y106.2141
G01 X61.7984 Y105.2955
G01 X61.9137 Y104.3722
G01 X61.9964 Y103.4454
G01 X62.0464 Y102.5162
G01 X62.0636 Y101.5859
G01 X62.0481 Y100.6555
G01 X62.0284 Y99.8150
G01 X61.9795 Y98.9757
G01 X61.9015 Y98.1385
G01 X61.7943 Y97.3046
G01 X61.6582 Y96.4750
G01 X61.4933 Y95.6505
G01 X61.2998 Y94.8323
G01 X61.0780 Y94.0214
G01 X60.8281 Y93.2186
G01 X60.5504 Y92.4250
G01 X60.2452 Y91.6416
G01 X59.9130 Y90.8693
G01 X59.6887 Y90.3842
G01 X59.4455 Y89.9084
G01 X59.1838 Y89.4424
G01 X58.9041 Y88.9871
G01 X58.6067 Y88.5431
G01 X58.2921 Y88.1112
G01 X57.9608 Y87.6919
G01 X57.6133 Y87.2859
G01 X57.2501 Y86.8939
G01 X56.8718 Y86.5164
G01 X56.4790 Y86.1541
G01 X56.0723 Y85.8074
G01 X55.7438 Y85.5480
G01 X55.4019 Y85.3065
G01 X55.0475 Y85.0836
G01 X54.6818 Y84.8799
G01 X54.3058 Y84.6960
G01 X53.9204 Y84.5325
G01 X53.5269 Y84.3897
G01 X53.1264 Y84.2682
G01 X52.7199 Y84.1682
G01 X52.3086 Y84.0900
G01 X51.8938 Y84.0339
G01 X51.4766 Y84.0000
G01 X51.0581 Y83.9884
G01 X50.6397 Y83.9992
G01 X50.2224 Y84.0322
G01 X49.8074 Y84.0875
G01 X49.4394 Y84.1727
G01 X49.0766 Y84.2778
G01 X48.7200 Y84.4025
G01 X48.3708 Y84.5466
G01 X48.0300 Y84.7095
G01 X47.6985 Y84.8907
G01 X47.3775 Y85.0897
G01 X47.0678 Y85.3060
G01 X46.7703 Y85.5389
G01 X46.4861 Y85.7877
G01 X46.2158 Y86.0515
G01 X45.9603 Y86.3298
G01 X45.6434 Y86.7441
G01 X45.3536 Y87.1777
G01 X45.0922 Y87.6291
G01 X44.8603 Y88.0962
G01 X44.6587 Y88.5772
G01 X44.4883 Y89.0702
G01 X44.3498 Y89.5730
G01 X44.2437 Y90.0837
G01 X44.1706 Y90.6001
G01 X44.1307 Y91.1202
G01 X44.1241 Y91.6417
G01 X44.1509 Y92.1626
G01 X44.2110 Y92.6806
G01 X44.3042 Y93.1938
G01 X44.4300 Y93.7000
G01 X44.5879 Y94.1971
G01 X44.7134 Y94.5119
G01 X44.8589 Y94.8179
G01 X45.0240 Y95.1139
G01 X45.2079 Y95.3986
G01 X45.4099 Y95.6707
G01 X45.6291 Y95.9292
G01 X45.8645 Y96.1730
G01 X46.1152 Y96.4010
G01 X46.2146 Y96.4764
G01 X46.3190 Y96.5445
G01 X46.4281 Y96.6050
G01 X46.5413 Y96.6574
G01 X46.6579 Y96.7016
G01 X46.7775 Y96.7373
G01 X46.8992 Y96.7643
G01 X47.0226 Y96.7825
G01 X47.1470 Y96.7918
G01 X47.2717 Y96.7921
G01 X47.3961 Y96.7835
G01 X47.5196 Y96.7659
G01 X47.5414 Y96.7566
G01 X47.5627 Y96.7462
G01 X47.5834 Y96.7348
G01 X47.6037 Y96.7225
G01 X47.6233 Y96.7092
G01 X47.6422 Y96.6950
G01 X47.6605 Y96.6800
G01 X47.6780 Y96.6641
G01 X47.6948 Y96.6474
G01 X47.7108 Y96.6299
G01 X47.7259 Y96.6116
G01 X47.7401 Y96.5927
G01 X47.7288 Y96.6049
G01 X47.7820 Y96.5265
G01 X47.8288 Y96.4441
G01 X47.8689 Y96.3583
G01 X47.9021 Y96.2695
G01 X47.9281 Y96.1784
G01 X47.9467 Y96.0855
G01 X47.9579 Y95.9915
G01 X47.9616 Y95.8968
G01 X47.9578 Y95.8021
G01 X47.9464 Y95.7081
G01 X47.9276 Y95.6152
G01 X47.9014 Y95.5241
G01 X47.8681 Y95.4354
G01 X47.8278 Y95.3497
G01 X47.7809 Y95.2674
G01 X47.7275 Y95.1891
G01 X47.6537 Y95.1141
G01 X47.5772 Y95.0420
G01 X47.4980 Y94.9728
G01 X47.4162 Y94.9067
G01 X47.3319 Y94.8437
G01 X47.2454 Y94.7839
G01 X47.1566 Y94.7275
G01 X47.0658 Y94.6745
G01 X46.8478 Y94.5237
G01 X46.6417 Y94.3569
G01 X46.4488 Y94.1752
G01 X46.2700 Y93.9794
G01 X46.1064 Y93.7708
G01 X45.9590 Y93.5505
G01 X45.8286 Y93.3198
G01 X45.7158 Y93.0799
G01 X45.6214 Y92.8322
G01 X45.5459 Y92.5781
G01 X45.4897 Y92.3190
G01 X45.4531 Y92.0565
G01 X45.4474 Y91.6649
G01 X45.4785 Y91.2744
G01 X45.5461 Y90.8887
G01 X45.6496 Y90.5109
G01 X45.7881 Y90.1446
G01 X45.9605 Y89.7929
G01 X46.1651 Y89.4589
G01 X46.4002 Y89.1457
G01 X46.6636 Y88.8559
G01 X46.9531 Y88.5921
G01 X47.2662 Y88.3567
G01 X47.5999 Y88.1517
G01 X47.9514 Y87.9789
G01 X48.3176 Y87.8400
G01 X48.6952 Y87.7360
G01 X49.0809 Y87.6679
G01 X49.4404 Y87.6569
G01 X49.7998 Y87.6727
G01 X50.1569 Y87.7152
G01 X50.5100 Y87.7842
G01 X50.8569 Y87.8793
G01 X51.1957 Y88.0000
G01 X51.5246 Y88.1456
G01 X51.8418 Y88.3154
G01 X52.1454 Y88.5082
G01 X52.4338 Y88.7232
G01 X52.7054 Y88.9591
G01 X52.9586 Y89.2145
G01 X53.2851 Y89.5955
G01 X53.5875 Y89.9959
G01 X53.8647 Y90.4141
G01 X54.1157 Y90.8486
G01 X54.3394 Y91.2977
G01 X54.5350 Y91.7598
G01 X54.7018 Y92.2330
G01 X54.8391 Y92.7156
G01 X54.9465 Y93.2057
G01 X55.0234 Y93.7015
G01 X55.0697 Y94.2012
G01 X55.0852 Y94.7027
G01 X55.0948 Y95.2592
G01 X55.0703 Y95.8153
G01 X55.0115 Y96.3688
G01 X54.9189 Y96.9176
G01 X54.7926 Y97.4597
G01 X54.6333 Y97.9931
G01 X54.4415 Y98.5156
G01 X54.2179 Y99.0253
G01 X53.9633 Y99.5203
G01 X53.6789 Y99.9988
G01 X53.3655 Y100.4588
G01 X53.0244 Y100.8987
G01 X52.7519 Y101.2046
G01 X52.4618 Y101.4938
G01 X52.1551 Y101.7654
G01 X51.8328 Y102.0184
G01 X51.4962 Y102.2520
G01 X51.1464 Y102.4652
G01 X50.7846 Y102.6574
G01 X50.4121 Y102.8279
G01 X50.0301 Y102.9761
G01 X49.6401 Y103.1014
G01 X49.2433 Y103.2035
G01 X48.8412 Y103.2820
G01 X48.4352 Y103.3365
G01 X48.0266 Y103.3670
G01 X47.6170 Y103.3733
G01 X47.2077 Y103.3554
G01 X46.8002 Y103.3133
G01 X46.3959 Y103.2473
G01 X45.9961 Y103.1574
G01 X45.6024 Y103.0441
G01 X45.2020 Y102.9006
G01 X44.8091 Y102.7374
G01 X44.4247 Y102.5551
G01 X44.0498 Y102.3540
G01 X43.6853 Y102.1346
G01 X43.3321 Y101.8975
G01 X42.9910 Y101.6432
G01 X42.6629 Y101.3724
G01 X42.3486 Y101.0857
G01 X42.0489 Y100.7838
G01 X41.7644 Y100.4675
G01 X41.4959 Y100.1375
G01 X41.0431 Y99.5297
G01 X40.6181 Y98.9020
G01 X40.2219 Y98.2559
G01 X39.8551 Y97.5926
G01 X39.5187 Y96.9134
G01 X39.2131 Y96.2198
G01 X38.9392 Y95.5130
G01 X38.6973 Y94.7947
G01 X38.6565 Y94.6710
G01 X38.6163 Y94.5471
G01 X38.5767 Y94.4230
G01 X38.5378 Y94.2987
G01 X38.5474 Y94.3319
G01 X38.3259 Y93.5454
G01 X38.1237 Y92.7538
G01 X37.9410 Y91.9574
G01 X37.7779 Y91.1568
G01 X37.6345 Y90.3524
G01 X37.5109 Y89.5448
G01 X37.4071 Y88.7343
G01 X37.3232 Y87.9216
G01 X37.2593 Y87.1070
G01 X37.2154 Y86.2912
G01 X37.1915 Y85.4745
G01 X37.1876 Y84.6574
G01 X37.1821 Y83.8835
G01 X37.1962 Y83.1097
G01 X37.2300 Y82.3365
G01 X37.2835 Y81.5644
G01 X37.3565 Y80.7939
G01 X37.4491 Y80.0255
G01 X37.5611 Y79.2597
G01 X37.6926 Y78.4971
G01 X37.8434 Y77.7380
G01 X38.0135 Y76.9829
G01 X38.2027 Y76.2325
G01 X38.4108 Y75.4871
G01 X38.5895 Y74.9089
G01 X38.7844 Y74.3360
G01 X38.9955 Y73.7688
G01 X39.2225 Y73.2078
G01 X39.4652 Y72.6535
G01 X39.7236 Y72.1062
G01 X39.9972 Y71.5665
G01 X40.2860 Y71.0347
G01 X40.5898 Y70.5113
G01 X40.9082 Y69.9967
G01 X41.2410 Y69.4912
G01 X41.5880 Y68.9954
G01 X41.9689 Y68.4986
G01 X42.3747 Y68.0219
G01 X42.8042 Y67.5664
G01 X43.2564 Y67.1334
G01 X43.7300 Y66.7240
G01 X44.2238 Y66.3392
G01 X44.7366 Y65.9801
G01 X45.2670 Y65.6475
G01 X45.8136 Y65.3423
G01 X46.3751 Y65.0654
G01 X46.9499 Y64.8174
G01 X47.5366 Y64.5990
G01 X48.0521 Y64.4494
G01 X48.5749 Y64.3278
G01 X49.1035 Y64.2345
G01 X49.6363 Y64.1698
G01 X50.1718 Y64.1339
G01 X50.7085 Y64.1268
G01 X51.2448 Y64.1487
G01 X51.7792 Y64.1994
G01 X52.3100 Y64.2787
G01 X52.8358 Y64.3865
G01 X53.3551 Y64.5225
G01 X53.8662 Y64.6862
G01 X54.3679 Y64.8772
G01 X54.8585 Y65.0949
G01 X55.3367 Y65.3387
G01 X55.8010 Y65.6079
G01 X56.2502 Y65.9017
G01 X56.6830 Y66.2192
G01 X57.0980 Y66.5596
G01 X57.4941 Y66.9218
G01 X57.9419 Y67.3605
G01 X58.3701 Y67.8184
G01 X58.7779 Y68.2946
G01 X59.1644 Y68.7882
G01 X59.5289 Y69.2983
G01 X59.8708 Y69.8238
G01 X60.1893 Y70.3637
G01 X60.4839 Y70.9171
G01 X60.7345 Y71.4087
G01 X60.9767 Y71.9044
G01 X61.2105 Y72.4041
G01 X61.4359 Y72.9077
G01 X61.6527 Y73.4150
G01 X61.8610 Y73.9259
G01 X62.0605 Y74.4403
G01 X62.2514 Y74.9579
G01 X62.3397 Y75.1766
G01 X62.4311 Y75.3940
G01 X62.5256 Y75.6101
G01 X62.6231 Y75.8249
G01 X62.6907 Y75.6636
G01 X62.7488 Y75.4986
G01 X62.7973 Y75.3305
G01 X62.8359 Y75.1599
G01 X62.8645 Y74.9874
G01 X62.8831 Y74.8134
G01 X62.8915 Y74.6387
G01 X62.8898 Y74.4638
G01 X62.8926 Y74.2754
G01 X62.8906 Y73.4214
G01 X62.8525 Y72.5682
G01 X62.7784 Y71.7174
G01 X62.6686 Y70.8705
G01 X62.5230 Y70.0290
G01 X62.3422 Y69.1944
G01 X62.1262 Y68.3682
G01 X61.8756 Y67.5518
G01 X61.5908 Y66.7467
G01 X61.2722 Y65.9543
G01 X60.9205 Y65.1761
G01 X60.5363 Y64.4134
G01 X60.2039 Y63.8168
G01 X59.8447 Y63.2361
G01 X59.4592 Y62.6723
G01 X59.0483 Y62.1268
G01 X58.6129 Y61.6007
G01 X58.1539 Y61.0950
G01 X57.6723 Y60.6108
G01 X57.1690 Y60.1492
G01 X56.6451 Y59.7111
G01 X56.1018 Y59.2974
G01 X55.5400 Y58.9090
G01 X54.9611 Y58.5467
G01 X54.4100 Y58.2492
G01 X53.8437 Y57.9817
G01 X53.2639 Y57.7451
G01 X52.6722 Y57.5399
G01 X52.0703 Y57.3669
G01 X51.4600 Y57.2264
G01 X50.8430 Y57.1189
G01 X50.2211 Y57.0448
G01 X49.5962 Y57.0041
G01 X48.9699 Y56.9971
G01 X48.3442 Y57.0238
G01 X47.7208 Y57.0840
G01 X47.1706 Y57.1497
G01 X46.6235 Y57.2373
G01 X46.0803 Y57.3466
G01 X45.5418 Y57.4775
G01 X45.0091 Y57.6298
G01 X44.4828 Y57.8032
G01 X43.9638 Y57.9975
G01 X43.4531 Y58.2123
G01 X43.5336 Y58.3953
G00 Z5.0000


;No. 3: Hole 4
G00 X67.9249 Y59.2819 Z5.0000
G00 Z0.5000
G01 Z0.0000 F400
G01 Z-1.3000
G01 X76.6460 F1000
G01 X75.5594 Y60.7819
G01 X69.0123
G01 X69.4869 Y62.2819
G01 X75.0880
G01 X74.9226 Y63.7819
G01 X69.6455
G01 X69.7004 Y65.2819
G01 X74.8866
G01 X74.8862 Y66.7819
G01 X69.7064
G01 Y68.2819
G01 X74.8862
G01 Y69.7819
G01 X69.7064
G01 Y71.2819
G01 X74.8862
G01 Y72.7819
G01 X69.7064
G01 Y74.2819
G01 X74.8862
G01 Y75.7819
G01 X69.7064
G01 Y77.2819
G01 X74.8862
G01 Y78.7819
G01 X69.7064
G01 Y80.2819
G01 X74.8972
G01 X75.0032 Y81.7819
G01 X69.7064
G01 Y83.2819
G01 X75.2580
G01 X75.7349 Y84.7819
G01 X69.7064
G01 Y86.2819
G01 X76.5856
G01 Y87.7819
G01 X78.5256
G01 X69.7064
G01 Y89.2819
G01 X75.0036
G01 X74.8862 Y90.7819
G01 X69.7064
G01 Y92.2819
G01 X74.8862
G01 Y93.7819
G01 X69.7064
G01 Y95.2819
G01 X74.8862
G01 Y96.7819
G01 X69.7064
G01 Y98.2819
G01 X74.8862
G01 Y99.7819
G01 X69.7064
G01 X69.6996 Y101.2819
G01 X74.8862
G01 Y102.7819
G01 X69.6344
G01 X69.3669 Y104.2819
G01 X74.8862
G01 Y105.7819
G01 X68.4357
G01 X67.8016 Y107.2819
G01 X74.8862
G01 Y108.7819
G01 X71.6533
G01 X73.7863 Y110.2819
G01 X74.8862
G00 Z5.0000
G00 X77.1958 Y87.7819
G00 Z0.5000
G01 Z-1.3000 F400
G01 Y89.2819 F1000
G01 X88.9324
G01 X89.4454 Y87.7819
G01 X81.8161
G01 X83.6177
G01 Y86.2819
G01 X89.7244
G01 X89.8667 Y84.7819
G01 X84.2980
G01 X84.6343 Y83.2819
G01 X89.9158
G01 X89.9169 Y81.7819
G01 X84.7911
G01 X84.8338 Y80.2819
G01 X89.9169
G01 Y78.7819
G01 X84.8338
G01 Y77.2819
G01 X89.9169
G01 Y75.7819
G01 X84.8338
G01 Y74.2819
G01 X89.9169
G01 Y72.7819
G01 X84.8338
G01 Y71.2819
G01 X89.9169
G01 Y69.7819
G01 X84.8338
G01 Y68.2819
G01 X89.9169
G01 Y66.7819
G01 X84.8337
G01 X84.8163 Y65.2819
G01 X89.9199
G01 X89.9788 Y63.7819
G01 X84.7540
G01 X84.5964 Y62.2819
G01 X90.1610
G01 X90.6223 Y60.7819
G01 X84.1420
G01 X83.0551 Y59.2819
G01 X91.6983
G00 Z5.0000
G00 X88.0285 Y89.2819
G00 Z0.5000
G01 Z-1.3000 F400
G01 Y90.7819 F1000
G01 X78.4605
G01 X80.3206 Y92.2819
G01 X86.2681
G01 X86.3746 Y92.4513
G01 X86.7199 Y92.2358
G01 X87.0514 Y91.9997
G01 X87.3679 Y91.7439
G01 X87.6683 Y91.4693
G01 X87.9514 Y91.1770
G01 X88.2162 Y90.8680
G01 X88.4618 Y90.5434
G01 X88.6872 Y90.2046
G01 X88.8915 Y89.8527
G01 X89.0741 Y89.4889
G01 X89.2342 Y89.1148
G01 X89.3713 Y88.7316
G01 X89.5303 Y88.1921
G01 X89.6699 Y87.6473
G01 X89.7898 Y87.0978
G01 X89.8900 Y86.5443
G01 X89.9704 Y85.9877
G01 X90.0307 Y85.4285
G01 X90.0710 Y84.8675
G01 X90.0912 Y84.3054
G01 X90.1026 Y83.9848
G01 X90.1107 Y83.6641
G01 X90.1155 Y83.3434
G01 X90.1169 Y83.0226
G01 X90.0984 Y78.6247
G01 X90.0925 Y74.2268
G01 X90.0991 Y69.8290
G01 X90.1183 Y65.4311
G01 X90.1172 Y64.9785
G01 X90.1288 Y64.5260
G01 X90.1531 Y64.0741
G01 X90.1902 Y63.6230
G01 X90.2399 Y63.1731
G01 X90.3023 Y62.7248
G01 X90.3773 Y62.2784
G01 X90.4647 Y61.8343
G01 X90.5916 Y61.4176
G01 X90.7516 Y61.0123
G01 X90.9437 Y60.6213
G01 X91.1666 Y60.2470
G01 X91.4189 Y59.8918
G01 X91.6990 Y59.5581
G01 X92.0050 Y59.2480
G01 X92.3349 Y58.9636
G01 X92.4060 Y58.9058
G01 X92.4727 Y58.8429
G01 X92.5346 Y58.7753
G01 X92.5913 Y58.7034
G01 X92.6426 Y58.6275
G01 X92.6881 Y58.5480
G01 X92.7277 Y58.4654
G01 X92.7612 Y58.3800
G01 X92.7650 Y58.3662
G01 X92.7679 Y58.3522
G01 X92.7697 Y58.3380
G01 X92.7706 Y58.3237
G01 X92.7705 Y58.3093
G01 X92.7694 Y58.2950
G01 X92.7673 Y58.2809
G01 X92.7642 Y58.2668
G01 X92.7602 Y58.2531
G01 X92.7552 Y58.2397
G01 X92.7493 Y58.2266
G01 X92.7425 Y58.2140
G01 X92.7349 Y58.2018
G01 X92.7264 Y58.1903
G01 X92.7171 Y58.1794
G01 X92.7071 Y58.1691
G01 X92.6384 Y58.1438
G01 X92.5683 Y58.1223
G01 X92.4972 Y58.1047
G01 X92.4252 Y58.0912
G01 X92.3526 Y58.0816
G01 X92.2796 Y58.0760
G01 X92.2063 Y58.0746
G01 X92.1331 Y58.0771
G01 X82.7363
G01 X82.5889 Y58.0777
G01 X82.4416 Y58.0857
G01 X82.2950 Y58.1012
G01 X82.1493 Y58.1242
G01 X82.1624 Y58.1210
G01 X82.1128 Y58.1392
G01 X82.1077 Y58.1617
G01 X82.1030 Y58.1842
G01 X82.0990 Y58.2069
G01 X82.0956 Y58.2297
G01 X82.0928 Y58.2525
G01 X82.0906 Y58.2755
G01 X82.0890 Y58.2984
G01 X82.0880 Y58.3214
G01 X82.0883 Y58.3109
G01 X82.0826 Y58.3406
G01 X82.0786 Y58.3705
G01 X82.0763 Y58.4007
G01 X82.0756 Y58.4309
G01 X82.0765 Y58.4611
G01 X82.0791 Y58.4913
G01 X82.0833 Y58.5212
G01 X82.0892 Y58.5509
G01 X82.0966 Y58.5802
G01 X82.1057 Y58.6090
G01 X82.1163 Y58.6373
G01 X82.1284 Y58.6650
G01 X82.1421 Y58.6920
G01 X82.1572 Y58.7182
G01 X82.1737 Y58.7436
G01 X82.1915 Y58.7680
G01 X82.5379 Y59.0603
G01 X82.8669 Y59.3720
G01 X83.1776 Y59.7020
G01 X83.4689 Y60.0493
G01 X83.6868 Y60.3811
G01 X83.8806 Y60.7276
G01 X84.0493 Y61.0870
G01 X84.1920 Y61.4574
G01 X84.3080 Y61.8371
G01 X84.3967 Y62.2240
G01 X84.4577 Y62.6163
G01 X84.4906 Y63.0119
G01 X84.5595 Y63.9796
G01 X84.6064 Y64.9486
G01 X84.6312 Y65.9183
G01 X84.6338 Y66.8884
G01 X84.6530 Y70.3226
G01 X84.6591 Y73.7569
G01 X84.6521 Y77.1911
G01 X84.6320 Y80.6253
G01 X84.6289 Y81.1638
G01 X84.6061 Y81.7018
G01 X84.5634 Y82.2387
G01 X84.5011 Y82.7735
G01 X84.4192 Y83.3058
G01 X84.3178 Y83.8347
G01 X84.1970 Y84.3594
G01 X84.0570 Y84.8794
G01 X83.9767 Y85.1398
G01 X83.8800 Y85.3946
G01 X83.7671 Y85.6426
G01 X83.6385 Y85.8829
G01 X83.4949 Y86.1144
G01 X83.3366 Y86.3363
G01 X83.1645 Y86.5475
G01 X82.9793 Y86.7473
G01 X82.7816 Y86.9348
G01 X82.5722 Y87.1093
G01 X82.3522 Y87.2700
G01 X82.1223 Y87.4163
G01 X81.8264 Y87.5547
G01 X81.5209 Y87.6702
G01 X81.2075 Y87.7620
G01 X80.8879 Y87.8296
G01 X80.5641 Y87.8726
G01 X80.2380 Y87.8907
G01 X79.9115 Y87.8839
G01 X79.5864 Y87.8522
G01 X79.2647 Y87.7958
G01 X78.9483 Y87.7149
G01 X78.6389 Y87.6102
G01 X78.3384 Y87.4821
G01 X78.0486 Y87.3315
G01 X77.7712 Y87.1592
G01 X77.5077 Y86.9661
G01 X77.2597 Y86.7536
G01 X77.0287 Y86.5227
G01 X76.8159 Y86.2749
G01 X76.6227 Y86.0115
G01 X76.4502 Y85.7342
G01 X76.2037 Y85.2807
G01 X75.9822 Y84.8145
G01 X75.7863 Y84.3369
G01 X75.6168 Y83.8493
G01 X75.4740 Y83.3533
G01 X75.3583 Y82.8502
G01 X75.2703 Y82.3416
G01 X75.2100 Y81.8289
G01 X75.1545 Y81.2675
G01 X75.1153 Y80.7048
G01 X75.0926 Y80.1411
G01 X75.0862 Y79.5770
G01 X75.0700 Y75.9437
G01 X75.0648 Y72.3103
G01 X75.0708 Y68.6769
G01 X75.0879 Y65.0436
G01 X75.0834 Y64.6323
G01 X75.0916 Y64.2211
G01 X75.1126 Y63.8103
G01 X75.1463 Y63.4004
G01 X75.1928 Y62.9918
G01 X75.2520 Y62.5848
G01 X75.3238 Y62.1798
G01 X75.4082 Y61.7772
G01 X75.5308 Y61.3732
G01 X75.6868 Y60.9808
G01 X75.8750 Y60.6029
G01 X76.0942 Y60.2420
G01 X76.3428 Y59.9007
G01 X76.6190 Y59.5814
G01 X76.9211 Y59.2863
G01 X77.2467 Y59.0175
G01 X77.3260 Y58.9543
G01 X77.4005 Y58.8857
G01 X77.4700 Y58.8119
G01 X77.5342 Y58.7334
G01 X77.5925 Y58.6506
G01 X77.6449 Y58.5638
G01 X77.6909 Y58.4735
G01 X77.7305 Y58.3802
G01 X77.7321 Y58.3559
G01 Y58.3316
G01 X77.7304 Y58.3073
G01 X77.7271 Y58.2832
G01 X77.7221 Y58.2594
G01 X77.7155 Y58.2360
G01 X77.7073 Y58.2131
G01 X77.6975 Y58.1909
G01 X77.6255 Y58.1585
G01 X77.5514 Y58.1312
G01 X77.4756 Y58.1089
G01 X77.3985 Y58.0919
G01 X77.3204 Y58.0802
G01 X77.2417 Y58.0738
G01 X77.1628 Y58.0729
G01 X77.0839 Y58.0773
G01 X67.7048 Y58.0771
G01 X67.6122 Y58.0753
G01 X67.5195 Y58.0763
G01 X67.4270 Y58.0801
G01 X67.3346 Y58.0868
G01 X67.2425 Y58.0964
G01 X67.1507 Y58.1088
G01 X67.0593 Y58.1240
G01 X66.9684 Y58.1421
G01 X66.9853 Y58.1370
G01 X66.9662 Y58.1428
G01 X66.9537 Y58.1575
G01 X66.9486 Y58.1768
G01 X66.9441 Y58.1963
G01 X66.9402 Y58.2159
G01 X66.9368 Y58.2356
G01 X66.9340 Y58.2554
G01 X66.9318 Y58.2753
G01 X66.9302 Y58.2952
G01 X66.9291 Y58.3152
G01 X66.9296 Y58.3015
G01 X66.9243 Y58.3318
G01 X66.9209 Y58.3624
G01 X66.9192 Y58.3931
G01 X66.9193 Y58.4239
G01 X66.9212 Y58.4547
G01 X66.9249 Y58.4852
G01 X66.9304 Y58.5155
G01 X66.9376 Y58.5454
G01 X66.9466 Y58.5749
G01 X66.9572 Y58.6038
G01 X66.9695 Y58.6320
G01 X66.9835 Y58.6595
G01 X66.9990 Y58.6860
G01 X67.0160 Y58.7117
G01 X67.0345 Y58.7363
G01 X67.0544 Y58.7598
G01 X67.0756 Y58.7821
G01 X67.0981 Y58.8031
G01 X67.1217 Y58.8228
G01 X67.1465 Y58.8411
G01 X67.4726 Y59.1160
G01 X67.7808 Y59.4109
G01 X68.0698 Y59.7246
G01 X68.3386 Y60.0558
G01 X68.5557 Y60.3748
G01 X68.7493 Y60.7087
G01 X68.9185 Y61.0555
G01 X69.0624 Y61.4136
G01 X69.1803 Y61.7810
G01 X69.2715 Y62.1560
G01 X69.3356 Y62.5366
G01 X69.3723 Y62.9207
G01 X69.4359 Y63.7058
G01 X69.4794 Y64.4923
G01 X69.5029 Y65.2796
G01 X69.5064 Y66.0672
G01 X69.5193 Y70.4008
G01 X69.5286 Y74.7344
G01 X69.5341 Y79.0680
G01 X69.5358 Y83.4016
G01 X69.5339 Y87.7353
G01 X69.5282 Y92.0689
G01 X69.5187 Y96.4025
G01 X69.5055 Y100.7361
G01 X69.5042 Y101.5149
G01 X69.4663 Y102.2927
G01 X69.3919 Y103.0680
G01 X69.2811 Y103.8389
G01 X69.1795 Y104.1948
G01 X69.0449 Y104.5397
G01 X68.8786 Y104.8704
G01 X68.6819 Y105.1840
G01 X68.4566 Y105.4778
G01 X68.2048 Y105.7491
G01 X67.9286 Y105.9955
G01 X67.6304 Y106.2150
G01 X67.4432 Y106.3345
G01 X67.2588 Y106.4582
G01 X67.0772 Y106.5862
G01 X66.8987 Y106.7184
G01 X66.8917 Y106.7294
G01 X66.8855 Y106.7409
G01 X66.8801 Y106.7528
G01 X66.8756 Y106.7650
G01 X66.8718 Y106.7775
G01 X66.8689 Y106.7903
G01 X66.8669 Y106.8032
G01 X66.8658 Y106.8162
G01 X66.8663 Y106.8060
G01 X66.8607 Y106.8330
G01 X66.8565 Y106.8602
G01 X66.8538 Y106.8877
G01 X66.8525 Y106.9152
G01 X66.8527 Y106.9428
G01 X66.8543 Y106.9703
G01 X66.8573 Y106.9977
G01 X66.8618 Y107.0249
G01 X66.8677 Y107.0519
G01 X66.8750 Y107.0785
G01 X66.8837 Y107.1047
G01 X66.8937 Y107.1303
G01 X66.9050 Y107.1555
G01 X66.9177 Y107.1800
G01 X66.9316 Y107.2038
G01 X66.9467 Y107.2268
G01 X67.2441 Y107.3267
G01 X67.5432 Y107.4211
G01 X67.8439 Y107.5101
G01 X68.1463 Y107.5935
G01 X68.6314 Y107.7378
G01 X69.1119 Y107.8965
G01 X69.5875 Y108.0695
G01 X70.0577 Y108.2567
G01 X70.5221 Y108.4579
G01 X70.9802 Y108.6729
G01 X71.4317 Y108.9015
G01 X71.8761 Y109.1436
G01 X72.2718 Y109.3977
G01 X72.6595 Y109.6637
G01 X73.0391 Y109.9413
G01 X73.4101 Y110.2302
G01 X73.7722 Y110.5302
G01 X74.1250 Y110.8410
G01 X74.4683 Y111.1623
G01 X74.8017 Y111.4939
G01 X74.8513 Y111.5362
G01 X74.9017 Y111.5775
G01 X74.9530 Y111.6179
G01 X75.0049 Y111.6573
G01 X75.0263 Y111.5681
G01 X75.0445 Y111.4782
G01 X75.0595 Y111.3877
G01 X75.0713 Y111.2968
G01 X75.0799 Y111.2055
G01 X75.0852 Y111.1139
G01 X75.0873 Y111.0222
G01 X75.0862 Y110.9305
G01 Y89.7977
G01 X75.0908 Y89.7045
G01 X75.1040 Y89.6122
G01 X75.1257 Y89.5215
G01 X75.1558 Y89.4331
G01 X75.1939 Y89.3480
G01 X75.2398 Y89.2668
G01 X75.2930 Y89.1902
G01 X75.3531 Y89.1188
G01 X75.4195 Y89.0534
G01 X75.4918 Y88.9944
G01 X75.5692 Y88.9423
G01 X75.6512 Y88.8977
G01 X75.7369 Y88.8609
G01 X75.8256 Y88.8322
G01 X75.9167 Y88.8119
G01 X76.0092 Y88.8001
G01 X76.1025 Y88.7970
G01 X76.1956 Y88.8026
G01 X76.2878 Y88.8167
G01 X76.3783 Y88.8394
G01 X76.4663 Y88.8704
G01 X76.5510 Y88.9094
G01 X76.6317 Y88.9561
G01 X76.7078 Y89.0102
G01 X76.7785 Y89.0710
G01 X76.8433 Y89.1382
G01 X76.9015 Y89.2111
G01 X76.9527 Y89.2890
G01 X77.2889 Y89.7543
G01 X77.6481 Y90.2021
G01 X78.0293 Y90.6313
G01 X78.4317 Y91.0408
G01 X78.8541 Y91.4294
G01 X79.2956 Y91.7964
G01 X79.7550 Y92.1407
G01 X80.2311 Y92.4614
G01 X80.5835 Y92.6578
G01 X80.9486 Y92.8298
G01 X81.3244 Y92.9766
G01 X81.7094 Y93.0975
G01 X82.1017 Y93.1920
G01 X82.4995 Y93.2596
G01 X82.9010 Y93.3001
G01 X83.3043 Y93.3131
G01 X83.7075 Y93.2987
G01 X84.1089 Y93.2570
G01 X84.5064 Y93.1881
G01 X84.8984 Y93.0923
G01 X85.2830 Y92.9701
G01 X85.6584 Y92.8221
G01 X86.0228 Y92.6489
G01 X86.3746 Y92.4513
G01 X86.2681 Y92.2819
G00 Z5.0000


;No. 4: Hole 5
G00 X97.3149 Y88.1579 Z5.0000
G00 Z0.5000
G01 Z0.0000 F400
G01 Z-1.3000
G01 X105.0444 F1000
G01 Y86.6579
G01 X99.0056
G01 X99.6076 Y85.1579
G01 X105.0444
G01 Y83.6579
G01 X99.8105
G01 X99.8605 Y82.1579
G01 X105.0444
G01 Y80.6579
G01 X99.8645
G01 Y79.1579
G01 X105.0444
G01 Y77.6579
G01 X99.8645
G01 Y76.1579
G01 X105.0444
G01 Y74.6579
G01 X99.8645
G01 Y73.1579
G01 X105.0444
G01 Y71.6579
G01 X99.8645
G01 Y70.1579
G01 X105.0444
G01 Y68.6579
G01 X99.8645
G01 Y67.1579
G01 X105.0444
G01 Y65.6579
G01 X99.8630
G01 X99.8265 Y64.1579
G01 X105.0673
G01 X105.1910 Y62.6579
G01 X99.7098
G01 X99.3644 Y61.1579
G01 X105.5739
G01 X106.4520 Y59.6579
G01 X98.4538
G00 Z5.0000
G00 X101.1229 Y88.1579
G00 Z0.5000
G01 Z-1.3000 F400
G01 Y89.6579 F1000
G01 X105.0444
G01 Y91.1579
G01 X103.3977
G01 X103.3095 Y91.3434
G01 X103.7420 Y91.7012
G01 X104.1722 Y92.0619
G01 X104.6000 Y92.4253
G01 X105.0254 Y92.7916
G01 X105.0400 Y92.8061
G01 X105.0555 Y92.8196
G01 X105.0719 Y92.8320
G01 X105.0892 Y92.8434
G01 X105.1071 Y92.8535
G01 X105.1256 Y92.8625
G01 X105.1447 Y92.8701
G01 X105.1643 Y92.8765
G01 X105.1849 Y92.7846
G01 X105.2024 Y92.6920
G01 X105.2170 Y92.5990
G01 X105.2285 Y92.5055
G01 X105.2370 Y92.4116
G01 X105.2425 Y92.3176
G01 X105.2450 Y92.2234
G01 X105.2444 Y92.1292
G01 X105.2322 Y88.7666
G01 X105.2236 Y85.4040
G01 X105.2185 Y82.0413
G01 X105.2169 Y78.6787
G01 X105.2188 Y75.3161
G01 X105.2241 Y71.9534
G01 X105.2330 Y68.5908
G01 X105.2454 Y65.2282
G01 X105.2408 Y64.8139
G01 X105.2479 Y64.3995
G01 X105.2668 Y63.9856
G01 X105.2974 Y63.5723
G01 X105.3396 Y63.1601
G01 X105.3936 Y62.7492
G01 X105.4591 Y62.3400
G01 X105.5362 Y61.9329
G01 X105.6138 Y61.6423
G01 X105.7079 Y61.3566
G01 X105.8182 Y61.0768
G01 X105.9442 Y60.8037
G01 X106.0857 Y60.5383
G01 X106.2421 Y60.2814
G01 X106.4129 Y60.0338
G01 X106.5976 Y59.7964
G01 X106.7956 Y59.5700
G01 X107.0062 Y59.3552
G01 X107.2287 Y59.1529
G01 X107.4624 Y58.9636
G01 X107.5335 Y58.9058
G01 X107.6002 Y58.8429
G01 X107.6620 Y58.7753
G01 X107.7187 Y58.7034
G01 X107.7700 Y58.6275
G01 X107.8156 Y58.5480
G01 X107.8552 Y58.4654
G01 X107.8886 Y58.3800
G01 X107.8925 Y58.3662
G01 X107.8953 Y58.3522
G01 X107.8972 Y58.3380
G01 X107.8981 Y58.3237
G01 X107.8980 Y58.3093
G01 X107.8969 Y58.2950
G01 X107.8948 Y58.2809
G01 X107.8917 Y58.2668
G01 X107.8877 Y58.2531
G01 X107.8827 Y58.2397
G01 X107.8768 Y58.2266
G01 X107.8700 Y58.2140
G01 X107.8623 Y58.2018
G01 X107.8538 Y58.1903
G01 X107.8446 Y58.1794
G01 X107.8345 Y58.1691
G01 X107.7658 Y58.1438
G01 X107.6958 Y58.1223
G01 X107.6247 Y58.1047
G01 X107.5527 Y58.0912
G01 X107.4801 Y58.0816
G01 X107.4070 Y58.0760
G01 X107.3338 Y58.0746
G01 X107.2606 Y58.0771
G01 X97.8632
G01 X97.6945 Y58.0773
G01 X97.5260 Y58.0866
G01 X97.3583 Y58.1049
G01 X97.1918 Y58.1323
G01 X97.2057 Y58.1287
G01 X97.1569 Y58.1408
G01 X97.1441 Y58.1575
G01 X97.1390 Y58.1768
G01 X97.1345 Y58.1963
G01 X97.1306 Y58.2159
G01 X97.1272 Y58.2356
G01 X97.1244 Y58.2554
G01 X97.1222 Y58.2753
G01 X97.1206 Y58.2952
G01 X97.1195 Y58.3152
G01 X97.1200 Y58.3015
G01 X97.1149 Y58.3301
G01 X97.1112 Y58.3588
G01 X97.1088 Y58.3877
G01 X97.1077 Y58.4167
G01 X97.1079 Y58.4458
G01 X97.1094 Y58.4747
G01 X97.1122 Y58.5036
G01 X97.1163 Y58.5323
G01 X97.1218 Y58.5608
G01 X97.1285 Y58.5891
G01 X97.1365 Y58.6170
G01 X97.1457 Y58.6445
G01 X97.1562 Y58.6715
G01 X97.1679 Y58.6981
G01 X97.1807 Y58.7241
G01 X97.1948 Y58.7495
G01 X97.5475 Y59.0422
G01 X97.8834 Y59.3540
G01 X98.2016 Y59.6838
G01 X98.5010 Y60.0308
G01 X98.7192 Y60.3413
G01 X98.9136 Y60.6671
G01 X99.0831 Y61.0066
G01 X99.2268 Y61.3578
G01 X99.3438 Y61.7187
G01 X99.4336 Y62.0874
G01 X99.4957 Y62.4617
G01 X99.5296 Y62.8396
G01 X99.5939 Y63.6450
G01 X99.6378 Y64.4518
G01 X99.6614 Y65.2594
G01 X99.6645 Y66.0673
G01 X99.6868 Y70.0690
G01 X99.6936 Y74.0708
G01 X99.6852 Y78.0725
G01 X99.6614 Y82.0741
G01 X99.6655 Y82.4673
G01 X99.6588 Y82.8604
G01 X99.6413 Y83.2532
G01 X99.6130 Y83.6453
G01 X99.5739 Y84.0366
G01 X99.5240 Y84.4265
G01 X99.4634 Y84.8150
G01 X99.3922 Y85.2017
G01 X99.3393 Y85.4417
G01 X99.2693 Y85.6774
G01 X99.1828 Y85.9074
G01 X99.0800 Y86.1307
G01 X98.9615 Y86.3461
G01 X98.8279 Y86.5524
G01 X98.6799 Y86.7487
G01 X98.5183 Y86.9338
G01 X98.1855 Y87.2415
G01 X97.8392 Y87.5339
G01 X97.4802 Y87.8106
G01 X97.1093 Y88.0709
G01 X97.0959 Y88.0947
G01 X97.0842 Y88.1194
G01 X97.0743 Y88.1448
G01 X97.0663 Y88.1709
G01 X97.0602 Y88.1975
G01 X97.0560 Y88.2245
G01 X97.0537 Y88.2517
G01 X97.0534 Y88.2790
G01 X97.0550 Y88.3063
G01 X97.0586 Y88.3334
G01 X97.0641 Y88.3601
G01 X97.0715 Y88.3864
G01 X97.0807 Y88.4121
G01 X97.0918 Y88.4371
G01 X97.1046 Y88.4612
G01 X97.1191 Y88.4843
G01 X97.5808 Y88.6136
G01 X98.0417 Y88.7456
G01 X98.5018 Y88.8805
G01 X98.9611 Y89.0183
G01 X99.5530 Y89.2058
G01 X100.1342 Y89.4241
G01 X100.7031 Y89.6728
G01 X101.2582 Y89.9510
G01 X101.7978 Y90.2581
G01 X102.3205 Y90.5931
G01 X102.8249 Y90.9552
G01 X103.3095 Y91.3434
G01 X103.3977 Y91.1579
G00 Z5.0000


;No. 5: Hole 6
G00 X104.4498 Y98.2109 Z5.0000
G00 Z0.5000
G01 Z0.0000 F400
G01 Z-1.3000
G01 X101.0173 F1000
G01 X100.1466 Y99.7109
G01 X105.2858
G01 X105.4959 Y101.2109
G01 X99.9291
G01 X100.1465 Y102.7109
G01 X105.2857
G01 X104.4498 Y104.2109
G01 X101.0173
G01 X100.8824 Y104.3595
G01 X100.9750 Y104.4663
G01 X101.0736 Y104.5677
G01 X101.1779 Y104.6631
G01 X101.2875 Y104.7524
G01 X101.4020 Y104.8352
G01 X101.5212 Y104.9113
G01 X101.6446 Y104.9803
G01 X101.7717 Y105.0422
G01 X101.9022 Y105.0965
G01 X102.0357 Y105.1432
G01 X102.1716 Y105.1822
G01 X102.3095 Y105.2132
G01 X102.4490 Y105.2362
G01 X102.5896 Y105.2512
G01 X102.7308 Y105.2579
G01 X102.8721 Y105.2565
G01 X103.0118 Y105.2409
G01 X103.1504 Y105.2176
G01 X103.2875 Y105.1866
G01 X103.4227 Y105.1480
G01 X103.5555 Y105.1020
G01 X103.6855 Y105.0487
G01 X103.8124 Y104.9883
G01 X103.9357 Y104.9209
G01 X104.0551 Y104.8467
G01 X104.1702 Y104.7661
G01 X104.2807 Y104.6791
G01 X104.3861 Y104.5862
G01 X104.4863 Y104.4876
G01 X104.5808 Y104.3835
G01 X104.6693 Y104.2744
G01 X104.7517 Y104.1605
G01 X104.9299 Y103.9031
G01 X105.0912 Y103.6348
G01 X105.2349 Y103.3567
G01 X105.3605 Y103.0700
G01 X105.4675 Y102.7758
G01 X105.5553 Y102.4753
G01 X105.6237 Y102.1698
G01 X105.6723 Y101.8606
G01 X105.7010 Y101.5488
G01 X105.7096 Y101.2359
G01 X105.6982 Y100.9231
G01 X105.6666 Y100.6116
G01 X105.6350 Y100.3106
G01 X105.5817 Y100.0127
G01 X105.5070 Y99.7193
G01 X105.4114 Y99.4322
G01 X105.2953 Y99.1526
G01 X105.1594 Y98.8822
G01 X105.0043 Y98.6223
G01 X104.8309 Y98.3742
G01 X104.6400 Y98.1393
G01 X104.4327 Y97.9188
G01 X104.2100 Y97.7138
G01 X103.9731 Y97.5254
G01 X103.8600 Y97.4572
G01 X103.7433 Y97.3957
G01 X103.6232 Y97.3410
G01 X103.5001 Y97.2932
G01 X103.3745 Y97.2527
G01 X103.2468 Y97.2194
G01 X103.1174 Y97.1935
G01 X102.9867 Y97.1751
G01 X102.8551 Y97.1643
G01 X102.7232 Y97.1610
G01 X102.5912 Y97.1654
G01 X102.4598 Y97.1773
G01 X102.3292 Y97.1968
G01 X102.2000 Y97.2237
G01 X102.0726 Y97.2581
G01 X101.9473 Y97.2997
G01 X101.8247 Y97.3485
G01 X101.7050 Y97.4042
G01 X101.5888 Y97.4667
G01 X101.4763 Y97.5358
G01 X101.3680 Y97.6113
G01 X101.2643 Y97.6928
G01 X101.1654 Y97.7802
G01 X101.0717 Y97.8732
G01 X100.8528 Y98.1010
G01 X100.6507 Y98.3437
G01 X100.4664 Y98.6003
G01 X100.3008 Y98.8693
G01 X100.1548 Y99.1494
G01 X100.0292 Y99.4392
G01 X99.9244 Y99.7373
G01 X99.8412 Y100.0420
G01 X99.7798 Y100.3518
G01 X99.7407 Y100.6653
G01 X99.7239 Y100.9807
G01 X99.7297 Y101.2966
G01 X99.7327 Y101.5759
G01 X99.7535 Y101.8545
G01 X99.7919 Y102.1313
G01 X99.8478 Y102.4050
G01 X99.9209 Y102.6746
G01 X100.0109 Y102.9391
G01 X100.1176 Y103.1973
G01 X100.2404 Y103.4482
G01 X100.3789 Y103.6909
G01 X100.5325 Y103.9243
G01 X100.7006 Y104.1474
G01 X100.8824 Y104.3595
G01 X101.0173 Y104.2109
G00 Z5.0000


;No. 6: Hole 7
G00 X117.3806 Y90.4080 Z5.0000
G00 Z0.5000
G01 Z0.0000 F400
G01 Z-1.3000
G01 X122.2680 F1000
G01 X119.8847
G01 Y88.9080
G01 X116.1850
G01 X115.2845 Y87.4080
G01 X118.7315
G01 X117.9615 Y85.9080
G01 X114.5688
G01 X114.0011 Y84.4080
G01 X117.4135
G01 X117.0164 Y82.9080
G01 X113.5543
G01 X113.1945 Y81.4080
G01 X116.7538
G01 X116.6065 Y79.9080
G01 X112.9166
G01 X112.7207 Y78.4080
G01 X116.5594
G01 X116.5983 Y76.9080
G01 X112.5990
G01 X112.5448 Y75.4080
G01 X116.7248
G01 X116.9520 Y73.9080
G01 X112.5544
G01 X112.6357 Y72.4080
G01 X117.2969
G01 X117.7816 Y70.9080
G01 X112.7972
G01 X113.0482 Y69.4080
G01 X118.4361
G01 X119.2969 Y67.9080
G01 X113.4001
G01 X113.8584 Y66.4080
G01 X120.4572
G01 X122.3288 Y64.9080
G01 X114.4377
G01 X115.1735 Y63.4080
G01 X131.0918
G01 X131.7184 Y64.9080
G01 X128.7453
G01 X130.6266 Y66.4080
G01 X132.2098
G01 X132.5605 Y67.9080
G01 X131.8206
G00 Z5.0000
G00 X130.2980 Y63.4080
G00 Z0.5000
G01 Z-1.3000 F400
G01 Y61.9080 F1000
G01 X116.1183
G01 X117.3503 Y60.4080
G01 X129.2255
G01 X127.6231 Y58.9080
G01 X119.1488
G00 Z5.0000
G00 X119.1223 Y90.4080
G00 Z0.5000
G01 Z-1.3000 F400
G01 Y91.9080 F1000
G01 X127.8164
G01 X124.7027 Y90.4080
G01 X131.1032
G01 X131.4695 Y88.9080
G01 X126.6189
G01 X127.1631 Y87.4080
G01 X131.6436
G01 X131.5998 Y85.9080
G01 X127.1407
G01 X126.5157 Y84.4080
G01 X131.3224
G01 X130.7767 Y82.9080
G01 X122.7593
G01 X123.3044 Y81.4080
G01 X129.8527
G01 X128.1129 Y79.9080
G01 X124.7659
G00 Z5.0000
G00 X129.3358 Y90.4080
G00 Z0.5000
G01 Z-1.3000 F400
G01 Y91.9080 F1000
G01 X130.4713
G01 X130.6545 Y91.9914
G01 X130.8518 Y91.5877
G01 X131.0316 Y91.1759
G01 X131.1935 Y90.7568
G01 X131.3373 Y90.3311
G01 X131.4627 Y89.8996
G01 X131.5695 Y89.4632
G01 X131.6575 Y89.0225
G01 X131.7264 Y88.5785
G01 X131.8003 Y88.0472
G01 X131.8452 Y87.5126
G01 X131.8607 Y86.9763
G01 X131.8470 Y86.4400
G01 X131.8039 Y85.9052
G01 X131.7318 Y85.3736
G01 X131.6307 Y84.8467
G01 X131.5010 Y84.3262
G01 X131.3430 Y83.8135
G01 X131.1573 Y83.3101
G01 X130.9444 Y82.8177
G01 X130.7050 Y82.3376
G01 X130.4712 Y81.9212
G01 X130.2064 Y81.5237
G01 X129.9121 Y81.1476
G01 X129.5899 Y80.7950
G01 X129.2419 Y80.4679
G01 X128.8700 Y80.1684
G01 X128.4763 Y79.8980
G01 X128.0631 Y79.6584
G01 X127.7348 Y79.5080
G01 X127.3929 Y79.3916
G01 X127.0410 Y79.3106
G01 X126.6826 Y79.2656
G01 X126.3216 Y79.2573
G01 X125.9616 Y79.2856
G01 X125.6063 Y79.3503
G01 X125.2594 Y79.4508
G01 X124.9245 Y79.5859
G01 X124.6050 Y79.7542
G01 X124.3042 Y79.9542
G01 X124.0253 Y80.1836
G01 X123.7813 Y80.4301
G01 X123.5549 Y80.6928
G01 X123.3471 Y80.9706
G01 X123.1590 Y81.2619
G01 X122.9914 Y81.5656
G01 X122.8451 Y81.8800
G01 X122.7208 Y82.2038
G01 X122.6191 Y82.5354
G01 X122.5676 Y82.8055
G01 X122.5408 Y83.0791
G01 X122.5390 Y83.3540
G01 X122.5622 Y83.6279
G01 X122.5587 Y83.6138
G01 X122.5660 Y83.6429
G01 X122.7659 Y83.5342
G01 X122.9709 Y83.4355
G01 X123.1806 Y83.3469
G01 X123.3943 Y83.2688
G01 X123.5236 Y83.2373
G01 X123.6543 Y83.2126
G01 X123.7861 Y83.1947
G01 X123.9187 Y83.1836
G01 X124.0517 Y83.1793
G01 X124.1847 Y83.1819
G01 X124.3174 Y83.1913
G01 X124.4495 Y83.2076
G01 X124.5805 Y83.2307
G01 X124.7102 Y83.2605
G01 X124.8381 Y83.2969
G01 X124.9640 Y83.3399
G01 X125.0876 Y83.3893
G01 X125.2084 Y83.4450
G01 X125.3261 Y83.5069
G01 X125.4406 Y83.5748
G01 X125.5514 Y83.6485
G01 X125.6582 Y83.7278
G01 X125.7608 Y83.8125
G01 X125.8589 Y83.9023
G01 X125.9522 Y83.9971
G01 X126.0405 Y84.0966
G01 X126.1236 Y84.2006
G01 X126.2012 Y84.3086
G01 X126.3840 Y84.5701
G01 X126.5453 Y84.8452
G01 X126.6842 Y85.1324
G01 X126.7998 Y85.4297
G01 X126.8914 Y85.7352
G01 X126.9584 Y86.0471
G01 X127.0002 Y86.3633
G01 X127.0168 Y86.6819
G01 X127.0080 Y87.0007
G01 X126.9738 Y87.3179
G01 X126.9144 Y87.6313
G01 X126.8303 Y87.9389
G01 X126.7219 Y88.2390
G01 X126.5900 Y88.5294
G01 X126.4354 Y88.8084
G01 X126.2591 Y89.0742
G01 X126.0612 Y89.3059
G01 X125.8436 Y89.5192
G01 X125.6080 Y89.7124
G01 X125.3562 Y89.8840
G01 X125.0902 Y90.0327
G01 X124.8120 Y90.1572
G01 X124.5240 Y90.2565
G01 X124.2283 Y90.3300
G01 X123.9272 Y90.3770
G01 X123.6232 Y90.3972
G01 X123.3185 Y90.3904
G01 X123.0157 Y90.3566
G01 X122.7075 Y90.3000
G01 X122.4033 Y90.2247
G01 X122.1043 Y90.1311
G01 X121.8115 Y90.0195
G01 X121.5260 Y89.8903
G01 X121.2489 Y89.7441
G01 X120.9812 Y89.5812
G01 X120.7238 Y89.4025
G01 X120.4778 Y89.2084
G01 X120.2440 Y88.9997
G01 X120.0234 Y88.7773
G01 X119.8166 Y88.5418
G01 X119.4497 Y88.0792
G01 X119.1076 Y87.5980
G01 X118.7910 Y87.0996
G01 X118.5009 Y86.5853
G01 X118.2380 Y86.0566
G01 X118.0032 Y85.5149
G01 X117.7969 Y84.9617
G01 X117.6198 Y84.3984
G01 X117.4455 Y83.7757
G01 X117.2903 Y83.1480
G01 X117.1542 Y82.5158
G01 X117.0375 Y81.8798
G01 X116.9403 Y81.2405
G01 X116.8626 Y80.5985
G01 X116.8044 Y79.9545
G01 X116.7660 Y79.3090
G01 X116.7472 Y78.6626
G01 X116.7481 Y78.0159
G01 X116.7688 Y77.3696
G01 X116.8092 Y76.7242
G01 X116.8473 Y76.0822
G01 X116.9079 Y75.4419
G01 X116.9908 Y74.8040
G01 X117.0958 Y74.1695
G01 X117.2229 Y73.5390
G01 X117.3720 Y72.9134
G01 X117.5428 Y72.2933
G01 X117.7351 Y71.6795
G01 X117.9487 Y71.0729
G01 X118.1833 Y70.4740
G01 X118.4387 Y69.8837
G01 X118.7145 Y69.3027
G01 X118.9713 Y68.8093
G01 X119.2521 Y68.3293
G01 X119.5564 Y67.8637
G01 X119.8832 Y67.4137
G01 X120.2319 Y66.9804
G01 X120.6016 Y66.5649
G01 X120.9914 Y66.1681
G01 X121.4002 Y65.7910
G01 X121.7358 Y65.5217
G01 X122.0889 Y65.2757
G01 X122.4578 Y65.0542
G01 X122.8409 Y64.8581
G01 X123.2363 Y64.6884
G01 X123.6423 Y64.5459
G01 X124.0570 Y64.4311
G01 X124.4786 Y64.3447
G01 X124.9050 Y64.2870
G01 X125.3344 Y64.2583
G01 X125.7647 Y64.2587
G01 X126.1940 Y64.2882
G01 X126.6203 Y64.3467
G01 X127.0417 Y64.4339
G01 X127.4562 Y64.5494
G01 X127.8619 Y64.6927
G01 X128.2016 Y64.8558
G01 X128.5339 Y65.0336
G01 X128.8580 Y65.2258
G01 X129.1734 Y65.4320
G01 X129.4795 Y65.6519
G01 X129.7756 Y65.8849
G01 X130.0612 Y66.1308
G01 X130.3358 Y66.3889
G01 X130.5988 Y66.6588
G01 X130.8497 Y66.9399
G01 X131.0880 Y67.2318
G01 X131.3133 Y67.5339
G01 X131.6975 Y68.0890
G01 X132.0551 Y68.6617
G01 X132.3852 Y69.2506
G01 X132.6871 Y69.8544
G01 X132.7330 Y69.9351
G01 X132.7814 Y70.0143
G01 X132.8323 Y70.0920
G01 X132.8855 Y70.1681
G01 X132.8782 Y70.1587
G01 X132.8967 Y70.1823
G01 X132.9382 Y69.7996
G01 X132.9491 Y69.4148
G01 X132.9292 Y69.0304
G01 X132.8787 Y68.6488
G01 X132.7721 Y67.9962
G01 X132.6423 Y67.3479
G01 X132.4897 Y66.7046
G01 X132.3144 Y66.0671
G01 X132.1165 Y65.4362
G01 X131.8964 Y64.8127
G01 X131.6542 Y64.1975
G01 X131.3905 Y63.5912
G01 X131.1053 Y62.9946
G01 X130.7992 Y62.4086
G01 X130.4725 Y61.8337
G01 X130.1256 Y61.2709
G01 X129.9096 Y60.9463
G01 X129.6796 Y60.6313
G01 X129.4362 Y60.3267
G01 X129.1797 Y60.0330
G01 X128.9107 Y59.7508
G01 X128.6297 Y59.4805
G01 X128.3371 Y59.2227
G01 X128.0336 Y58.9779
G01 X127.7198 Y58.7466
G01 X127.3961 Y58.5291
G01 X127.0633 Y58.3259
G01 X126.7220 Y58.1375
G01 X126.2616 Y57.9427
G01 X125.7899 Y57.7777
G01 X125.3085 Y57.6430
G01 X124.8196 Y57.5394
G01 X124.3250 Y57.4670
G01 X123.8268 Y57.4264
G01 X123.3271 Y57.4175
G01 X122.8278 Y57.4405
G01 X122.3310 Y57.4953
G01 X121.8387 Y57.5817
G01 X121.3529 Y57.6992
G01 X120.8756 Y57.8474
G01 X120.4496 Y58.0156
G01 X120.0321 Y58.2037
G01 X119.6238 Y58.4111
G01 X119.2258 Y58.6375
G01 X118.8387 Y58.8823
G01 X118.4637 Y59.1450
G01 X118.1013 Y59.4251
G01 X117.7525 Y59.7218
G01 X117.4181 Y60.0346
G01 X117.0986 Y60.3628
G01 X116.7950 Y60.7055
G01 X116.5077 Y61.0622
G01 X116.1397 Y61.5500
G01 X115.7886 Y62.0501
G01 X115.4546 Y62.5618
G01 X115.1382 Y63.0846
G01 X114.8398 Y63.6179
G01 X114.5597 Y64.1610
G01 X114.2983 Y64.7133
G01 X114.0558 Y65.2742
G01 X113.8325 Y65.8430
G01 X113.6287 Y66.4190
G01 X113.4446 Y67.0017
G01 X113.2805 Y67.5903
G01 X113.0911 Y68.3412
G01 X112.9223 Y69.0970
G01 X112.7744 Y69.8571
G01 X112.6473 Y70.6210
G01 X112.5413 Y71.3881
G01 X112.4564 Y72.1578
G01 X112.3927 Y72.9296
G01 X112.3502 Y73.7028
G01 X112.3289 Y74.4769
G01 X112.3288 Y75.2513
G01 X112.3500 Y76.0254
G01 X112.3925 Y76.7986
G01 X112.4394 Y77.5715
G01 X112.5074 Y78.3428
G01 X112.5963 Y79.1119
G01 X112.7062 Y79.8784
G01 X112.8369 Y80.6415
G01 X112.9883 Y81.4008
G01 X113.1604 Y82.1558
G01 X113.3530 Y82.9057
G01 X113.5659 Y83.6501
G01 X113.7991 Y84.3885
G01 X114.0523 Y85.1202
G01 X114.3253 Y85.8447
G01 X114.6057 Y86.5084
G01 X114.9166 Y87.1585
G01 X115.2572 Y87.7934
G01 X115.6268 Y88.4119
G01 X116.0247 Y89.0126
G01 X116.4499 Y89.5943
G01 X116.9016 Y90.1557
G01 X117.3787 Y90.6956
G01 X117.6511 Y90.9782
G01 X117.9359 Y91.2481
G01 X118.2326 Y91.5050
G01 X118.5406 Y91.7482
G01 X118.8592 Y91.9772
G01 X119.1879 Y92.1917
G01 X119.5259 Y92.3911
G01 X119.8725 Y92.5750
G01 X120.2271 Y92.7432
G01 X120.5889 Y92.8951
G01 X120.9572 Y93.0306
G01 X121.3313 Y93.1493
G01 X121.7325 Y93.2441
G01 X122.1383 Y93.3162
G01 X122.5476 Y93.3655
G01 X122.9590 Y93.3918
G01 X123.3712 Y93.3949
G01 X123.7830 Y93.3750
G01 X124.1930 Y93.3320
G01 X124.5999 Y93.2660
G01 X125.0025 Y93.1774
G01 X125.3995 Y93.0663
G01 X125.7897 Y92.9332
G01 X126.1717 Y92.7784
G01 X126.5468 Y92.6034
G01 X126.9271 Y92.4401
G01 X127.3122 Y92.2886
G01 X127.7018 Y92.1490
G01 X127.8436 Y92.1022
G01 X127.9879 Y92.0638
G01 X128.1343 Y92.0339
G01 X128.2821 Y92.0128
G01 X128.4309 Y92.0004
G01 X128.5802 Y91.9967
G01 X128.7295 Y92.0019
G01 X128.8781 Y92.0159
G01 X129.0257 Y92.0386
G01 X129.1718 Y92.0700
G01 X129.3157 Y92.1099
G01 X129.4570 Y92.1582
G01 X129.5952 Y92.2148
G01 X129.7298 Y92.2794
G01 X129.8604 Y92.3519
G01 X129.9865 Y92.4319
G01 X129.9775 Y92.4268
G01 X130.2243 Y92.5664
G01 X130.2866 Y92.5013
G01 X130.3465 Y92.4342
G01 X130.4041 Y92.3650
G01 X130.4593 Y92.2938
G01 X130.5120 Y92.2208
G01 X130.5621 Y92.1460
G01 X130.6096 Y92.0695
G01 X130.6545 Y91.9914
G01 X130.4713 Y91.9080
G00 Z5.0000


;No. 7: Hole 8
G00 X139.7636 Y92.3064 Z5.0000
G00 Z0.5000
G01 Z0.0000 F400
G01 Z-1.3000
G01 X144.9434 F1000
G01 Y90.8064
G01 X139.7636
G01 Y89.3064
G01 X144.9434
G01 Y87.8064
G01 X139.7636
G01 Y86.3064
G01 X144.9507
G01 Y84.8064
G01 X146.8936
G01 X139.7636
G01 Y83.3064
G01 X146.1645
G01 X145.6712 Y81.8064
G01 X139.7636
G01 Y80.3064
G01 X145.3338
G01 X145.1153 Y78.8064
G01 X139.7636
G01 Y77.3064
G01 X144.9914
G01 X144.9447 Y75.8064
G01 X139.7636
G01 Y74.3064
G01 X144.9434
G01 Y72.8064
G01 X139.7636
G01 Y71.3064
G01 X144.9434
G01 Y69.8064
G01 X139.7636
G01 Y68.3064
G01 X144.9434
G01 Y66.8064
G01 X139.7636
G01 X139.7538 Y65.3064
G01 X144.9440
G01 X144.9823 Y63.8064
G01 X139.7025
G01 X139.5681 Y62.3064
G01 X145.1484
G01 X145.6246 Y60.8064
G01 X139.1764
G01 X138.1490 Y59.3064
G01 X146.6763
G00 Z5.0000
G00 X144.9434 Y92.3064
G00 Z0.5000
G01 Z-1.3000 F400
G01 Y93.8064 F1000
G01 X139.7636
G01 Y95.3064
G01 X144.9434
G01 Y96.8064
G01 X139.7636
G01 Y98.3064
G01 X144.9434
G01 Y99.8064
G01 X139.7636
G01 X139.7509 Y101.3064
G01 X144.9434
G01 Y102.8064
G01 X139.6684
G01 X139.4096 Y104.3064
G01 X144.9434
G01 Y105.8064
G01 X138.5465
G01 X138.0861 Y107.3064
G01 X144.9434
G01 Y108.8064
G01 X141.7134
G01 X143.8250 Y110.3064
G01 X144.9434
G00 Z5.0000
G00 X152.3025 Y92.3064
G00 Z0.5000
G01 Z0.0000 F400
G01 Z-1.3000
G01 X157.8566 F1000
G01 X159.1374 Y90.8064
G01 X150.4063
G01 X149.1345 Y89.3064
G01 X159.7838
G01 X160.0637 Y87.8064
G01 X148.1713
G01 X153.5785
G01 Y86.3064
G01 X160.0849
G01 X159.8901 Y84.8064
G01 X154.5638
G01 X154.9587 Y83.3064
G01 X159.4831
G01 X158.8198 Y81.8064
G01 X155.0006
G01 X154.7183 Y80.3064
G01 X157.8678
G01 X156.5522 Y78.8064
G01 X154.0598
G01 X154.6604 Y77.3064
G01 X152.9679
G01 X153.0472 Y75.8064
G01 X151.3909
G01 X149.2928 Y74.3064
G01 X154.3383
G01 X156.5376 Y72.8064
G01 X149.5385
G01 X151.7302
G01 Y71.3064
G01 X157.4932
G01 X158.0870 Y69.8064
G01 X152.6671
G01 X153.2201 Y68.3064
G01 X158.5623
G01 X158.9790 Y66.8064
G01 X153.6244
G01 X153.9768 Y65.3064
G01 X159.3592
G01 X159.7876 Y63.8064
G01 X154.3054
G01 X154.6127 Y62.3064
G01 X160.3197
G01 X161.1249 Y60.8064
G01 X154.9018
G01 X155.1975 Y59.3064
G01 X162.6003
G00 Z5.0000
G00 X148.1002 Y86.3064
G00 Z0.5000
G01 Z0.0000 F400
G01 Z-1.3000
G01 X147.4035 F1000
G01 X147.2354 Y86.4194
G01 X147.4444 Y86.8782
G01 X147.6686 Y87.3298
G01 X147.9077 Y87.7737
G01 X148.1614 Y88.2094
G01 X148.4294 Y88.6364
G01 X148.7115 Y89.0543
G01 X149.0074 Y89.4625
G01 X149.3166 Y89.8607
G01 X149.6389 Y90.2484
G01 X149.9740 Y90.6252
G01 X150.3213 Y90.9906
G01 X150.6807 Y91.3442
G01 X151.0456 Y91.6748
G01 X151.4313 Y91.9809
G01 X151.8362 Y92.2610
G01 X152.2587 Y92.5141
G01 X152.6967 Y92.7389
G01 X153.1485 Y92.9346
G01 X153.6122 Y93.1004
G01 X154.0857 Y93.2354
G01 X154.4117 Y93.3024
G01 X154.7416 Y93.3462
G01 X155.0738 Y93.3669
G01 X155.4066 Y93.3641
G01 X155.7384 Y93.3380
G01 X156.0675 Y93.2886
G01 X156.3924 Y93.2163
G01 X156.7114 Y93.1213
G01 X157.0229 Y93.0042
G01 X157.3254 Y92.8655
G01 X157.6175 Y92.7059
G01 X157.8976 Y92.5262
G01 X158.1498 Y92.3120
G01 X158.3902 Y92.0845
G01 X158.6181 Y91.8445
G01 X158.8328 Y91.5926
G01 X159.0336 Y91.3296
G01 X159.2201 Y91.0562
G01 X159.3916 Y90.7732
G01 X159.5478 Y90.4814
G01 X159.6880 Y90.1816
G01 X159.8120 Y89.8748
G01 X159.9193 Y89.5617
G01 X160.0097 Y89.2434
G01 X160.1112 Y88.7757
G01 X160.1910 Y88.3039
G01 X160.2490 Y87.8289
G01 X160.2850 Y87.3518
G01 X160.2989 Y86.8735
G01 X160.2907 Y86.3950
G01 X160.2605 Y85.9175
G01 X160.2083 Y85.4418
G01 X160.1341 Y84.9691
G01 X160.0383 Y84.5003
G01 X159.9209 Y84.0364
G01 X159.7822 Y83.5784
G01 X159.5714 Y82.9917
G01 X159.3307 Y82.4165
G01 X159.0609 Y81.8545
G01 X158.7626 Y81.3070
G01 X158.4366 Y80.7756
G01 X158.0837 Y80.2616
G01 X157.7050 Y79.7664
G01 X157.3013 Y79.2912
G01 X156.8738 Y78.8374
G01 X156.4236 Y78.4062
G01 X155.9518 Y77.9986
G01 X155.4597 Y77.6157
G01 X155.0335 Y77.3144
G01 X154.5961 Y77.0295
G01 X154.1482 Y76.7615
G01 X153.6904 Y76.5108
G01 X153.6150 Y76.4557
G01 X153.5450 Y76.3939
G01 X153.4810 Y76.3259
G01 X153.4236 Y76.2522
G01 X153.3734 Y76.1734
G01 X153.3306 Y76.0904
G01 X153.2958 Y76.0038
G01 X153.2691 Y75.9142
G01 X153.2509 Y75.8226
G01 X153.2413 Y75.7298
G01 X153.2403 Y75.6364
G01 X153.2481 Y75.5433
G01 X153.2644 Y75.4513
G01 X153.2892 Y75.3613
G01 X153.3223 Y75.2740
G01 X153.3633 Y75.1901
G01 X153.4120 Y75.1104
G01 X153.4679 Y75.0355
G01 X153.5304 Y74.9662
G01 X153.5992 Y74.9029
G01 X153.6735 Y74.8464
G01 X153.7527 Y74.7970
G01 X153.8362 Y74.7551
G01 X153.9232 Y74.7212
G01 X154.2975 Y74.5592
G01 X154.6639 Y74.3801
G01 X155.0217 Y74.1845
G01 X155.3702 Y73.9727
G01 X155.7086 Y73.7451
G01 X156.0362 Y73.5022
G01 X156.3523 Y73.2446
G01 X156.6563 Y72.9728
G01 X156.8865 Y72.6825
G01 X157.1029 Y72.3817
G01 X157.3051 Y72.0712
G01 X157.4927 Y71.7516
G01 X157.6652 Y71.4237
G01 X157.8222 Y71.0881
G01 X157.9635 Y70.7456
G01 X158.0887 Y70.3968
G01 X158.5341 Y69.0509
G01 X158.9450 Y67.6939
G01 X159.3210 Y66.3269
G01 X159.6620 Y64.9508
G01 X159.7764 Y64.5145
G01 X159.9021 Y64.0813
G01 X160.0391 Y63.6515
G01 X160.1872 Y63.2254
G01 X160.3463 Y62.8033
G01 X160.5163 Y62.3856
G01 X160.6972 Y61.9723
G01 X160.8887 Y61.5639
G01 X161.1063 Y61.2004
G01 X161.3462 Y60.8511
G01 X161.6075 Y60.5176
G01 X161.8892 Y60.2010
G01 X162.1900 Y59.9026
G01 X162.5089 Y59.6236
G01 X162.8447 Y59.3652
G01 X163.1959 Y59.1282
G01 X163.2842 Y59.0629
G01 X163.3712 Y58.9958
G01 X163.4567 Y58.9268
G01 X163.5407 Y58.8562
G01 X163.5594 Y58.7676
G01 X163.5702 Y58.6778
G01 X163.5729 Y58.5874
G01 X163.5676 Y58.4971
G01 X163.5543 Y58.4076
G01 X163.5330 Y58.3197
G01 X163.5041 Y58.2340
G01 X163.4676 Y58.1512
G01 X163.4359 Y58.1370
G01 X163.4036 Y58.1241
G01 X163.3709 Y58.1127
G01 X163.3376 Y58.1028
G01 X163.3039 Y58.0943
G01 X163.2699 Y58.0873
G01 X163.2356 Y58.0818
G01 X163.2011 Y58.0779
G01 X163.1665 Y58.0754
G01 X163.1318 Y58.0744
G01 X163.0971 Y58.0750
G01 X163.0624 Y58.0771
G01 X156.4386
G01 X156.3531 Y58.0709
G01 X156.2674 Y58.0689
G01 X156.1818 Y58.0712
G01 X156.0963 Y58.0776
G01 X156.0112 Y58.0883
G01 X155.9268 Y58.1031
G01 X155.8432 Y58.1221
G01 X155.7607 Y58.1451
G01 X155.6794 Y58.1722
G01 X155.5995 Y58.2033
G01 X155.5212 Y58.2383
G01 X155.4448 Y58.2771
G01 X155.3749 Y58.3597
G01 X155.3107 Y58.4470
G01 X155.2527 Y58.5384
G01 X155.2011 Y58.6335
G01 X155.1561 Y58.7320
G01 X155.1179 Y58.8333
G01 X155.0867 Y58.9370
G01 X155.0627 Y59.0426
G01 X154.9181 Y59.6953
G01 X154.7819 Y60.3499
G01 X154.6541 Y61.0062
G01 X154.5348 Y61.6641
G01 X154.2104 Y63.3071
G01 X153.8539 Y64.9435
G01 X153.4655 Y66.5726
G01 X153.0455 Y68.1939
G01 X152.9430 Y68.5450
G01 X152.8266 Y68.8918
G01 X152.6967 Y69.2337
G01 X152.5532 Y69.5702
G01 X152.3965 Y69.9007
G01 X152.2269 Y70.2248
G01 X152.0445 Y70.5418
G01 X151.8498 Y70.8514
G01 X151.5919 Y71.1438
G01 X151.3163 Y71.4194
G01 X151.0240 Y71.6774
G01 X150.7163 Y71.9166
G01 X150.3942 Y72.1362
G01 X150.0591 Y72.3353
G01 X149.7122 Y72.5131
G01 X149.3549 Y72.6690
G01 X149.1283 Y72.7550
G01 X148.9034 Y72.8454
G01 X148.6803 Y72.9403
G01 X148.4592 Y73.0395
G01 X148.4403 Y73.0524
G01 X148.4223 Y73.0665
G01 X148.4053 Y73.0817
G01 X148.3892 Y73.0980
G01 X148.3742 Y73.1152
G01 X148.3603 Y73.1333
G01 X148.3476 Y73.1523
G01 X148.3362 Y73.1721
G01 X148.3260 Y73.1925
G01 X148.3171 Y73.2136
G01 X148.3096 Y73.2352
G01 X148.3035 Y73.2572
G01 X148.2988 Y73.2795
G01 X148.2955 Y73.3021
G01 X148.2936 Y73.3249
G01 X148.2932 Y73.3477
G01 X148.2943 Y73.3705
G01 X148.2968 Y73.3933
G01 X148.3007 Y73.4158
G01 X148.3061 Y73.4380
G01 X148.3067 Y73.4790
G01 X148.3093 Y73.5199
G01 X148.3138 Y73.5607
G01 X148.3202 Y73.6012
G01 X148.3284 Y73.6413
G01 X148.3386 Y73.6811
G01 X148.3506 Y73.7203
G01 X148.3644 Y73.7589
G01 X148.3799 Y73.7969
G01 X148.3973 Y73.8340
G01 X148.4164 Y73.8703
G01 X148.4371 Y73.9057
G01 X148.4595 Y73.9401
G01 X148.4834 Y73.9734
G01 X148.5089 Y74.0055
G01 X148.5359 Y74.0364
G01 X148.5642 Y74.0660
G01 X148.5940 Y74.0943
G01 X148.6250 Y74.1211
G01 X148.6572 Y74.1465
G01 X148.6906 Y74.1703
G01 X148.7251 Y74.1925
G01 X148.7605 Y74.2131
G01 X148.7969 Y74.2320
G01 X149.3572 Y74.5724
G01 X149.9045 Y74.9334
G01 X150.4380 Y75.3144
G01 X150.9569 Y75.7151
G01 X151.4606 Y76.1347
G01 X151.9484 Y76.5728
G01 X152.4195 Y77.0287
G01 X152.8733 Y77.5018
G01 X153.1276 Y77.7913
G01 X153.3663 Y78.0936
G01 X153.5890 Y78.4080
G01 X153.7950 Y78.7336
G01 X153.9837 Y79.0694
G01 X154.1546 Y79.4147
G01 X154.3073 Y79.7684
G01 X154.4414 Y80.1296
G01 X154.5564 Y80.4972
G01 X154.6520 Y80.8704
G01 X154.7281 Y81.2481
G01 X154.7844 Y81.6292
G01 X154.8235 Y82.0916
G01 X154.8278 Y82.5555
G01 X154.7972 Y83.0185
G01 X154.7320 Y83.4779
G01 X154.6325 Y83.9311
G01 X154.4992 Y84.3756
G01 X154.3329 Y84.8087
G01 X154.1346 Y85.2282
G01 X154.0037 Y85.4607
G01 X153.8567 Y85.6833
G01 X153.6943 Y85.8949
G01 X153.5172 Y86.0944
G01 X153.3263 Y86.2808
G01 X153.1227 Y86.4532
G01 X152.9074 Y86.6107
G01 X152.6814 Y86.7525
G01 X152.4459 Y86.8778
G01 X152.2021 Y86.9861
G01 X151.9513 Y87.0768
G01 X151.6946 Y87.1495
G01 X151.3410 Y87.2003
G01 X150.9844 Y87.2198
G01 X150.6275 Y87.2076
G01 X150.2730 Y87.1639
G01 X149.9238 Y87.0891
G01 X149.5826 Y86.9836
G01 X149.2520 Y86.8485
G01 X148.9347 Y86.6846
G01 X148.6331 Y86.4933
G01 X148.3496 Y86.2761
G01 X148.0864 Y86.0347
G01 X147.8455 Y85.7709
G01 X147.5479 Y85.3937
G01 X147.2700 Y85.0018
G01 X147.0126 Y84.5960
G01 X146.7764 Y84.1776
G01 X146.5619 Y83.7476
G01 X146.3699 Y83.3072
G01 X146.2007 Y82.8575
G01 X146.0548 Y82.3996
G01 X145.8407 Y81.6166
G01 X145.6549 Y80.8263
G01 X145.4977 Y80.0298
G01 X145.3694 Y79.2282
G01 X145.2700 Y78.4225
G01 X145.1997 Y77.6137
G01 X145.1586 Y76.8029
G01 X145.1468 Y75.9912
G01 X145.1233 Y73.1723
G01 X145.1162 Y70.3532
G01 X145.1254 Y67.5342
G01 X145.1509 Y64.7153
G01 X145.1504 Y64.3203
G01 X145.1638 Y63.9256
G01 X145.1910 Y63.5316
G01 X145.2320 Y63.1387
G01 X145.2868 Y62.7476
G01 X145.3553 Y62.3586
G01 X145.4373 Y61.9723
G01 X145.5329 Y61.5890
G01 X145.6666 Y61.2031
G01 X145.8305 Y60.8290
G01 X146.0236 Y60.4691
G01 X146.2446 Y60.1257
G01 X146.4923 Y59.8009
G01 X146.7650 Y59.4968
G01 X147.0610 Y59.2154
G01 X147.3784 Y58.9583
G01 X147.4449 Y58.9032
G01 X147.5074 Y58.8436
G01 X147.5657 Y58.7798
G01 X147.6196 Y58.7122
G01 X147.6686 Y58.6411
G01 X147.7127 Y58.5668
G01 X147.7516 Y58.4897
G01 X147.7851 Y58.4101
G01 X147.7880 Y58.3702
G01 X147.7877 Y58.3804
G01 X147.7915 Y58.3665
G01 X147.7944 Y58.3525
G01 X147.7963 Y58.3382
G01 X147.7972 Y58.3239
G01 X147.7971 Y58.3095
G01 X147.7960 Y58.2952
G01 X147.7939 Y58.2810
G01 X147.7908 Y58.2670
G01 X147.7868 Y58.2532
G01 X147.7818 Y58.2398
G01 X147.7759 Y58.2267
G01 X147.7691 Y58.2140
G01 X147.7614 Y58.2019
G01 X147.7529 Y58.1903
G01 X147.7436 Y58.1794
G01 X147.7336 Y58.1691
G01 X147.6649 Y58.1438
G01 X147.5949 Y58.1223
G01 X147.5237 Y58.1047
G01 X147.4518 Y58.0912
G01 X147.3791 Y58.0816
G01 X147.3061 Y58.0760
G01 X147.2329 Y58.0746
G01 X147.1596 Y58.0771
G01 X137.7631
G01 X137.6840 Y58.0758
G01 X137.6050 Y58.0770
G01 X137.5260 Y58.0807
G01 X137.4472 Y58.0871
G01 X137.3687 Y58.0960
G01 X137.2905 Y58.1075
G01 X137.2127 Y58.1215
G01 X137.1353 Y58.1380
G01 X137.1520 Y58.1328
G01 X137.1139 Y58.1447
G01 X137.1037 Y58.1756
G01 X137.0952 Y58.2071
G01 X137.0884 Y58.2390
G01 X137.0834 Y58.2712
G01 X137.0800 Y58.3036
G01 X137.0785 Y58.3361
G01 X137.0786 Y58.3687
G01 X137.0806 Y58.4012
G01 X137.0843 Y58.4336
G01 X137.0897 Y58.4657
G01 X137.0968 Y58.4975
G01 X137.1057 Y58.5289
G01 X137.1162 Y58.5597
G01 X137.1283 Y58.5900
G01 X137.1421 Y58.6195
G01 X137.1575 Y58.6482
G01 X137.1743 Y58.6761
G01 X137.1927 Y58.7030
G01 X137.2124 Y58.7290
G01 X137.2336 Y58.7538
G01 X137.2560 Y58.7774
G01 X137.2797 Y58.7998
G01 X137.3045 Y58.8209
G01 X137.3304 Y58.8406
G01 X137.6857 Y59.1372
G01 X138.0177 Y59.4596
G01 X138.3247 Y59.8058
G01 X138.6049 Y60.1741
G01 X138.7782 Y60.4703
G01 X138.9322 Y60.7769
G01 X139.0663 Y61.0927
G01 X139.1800 Y61.4165
G01 X139.2727 Y61.7468
G01 X139.3441 Y62.0825
G01 X139.3939 Y62.4220
G01 X139.4219 Y62.7639
G01 X139.4899 Y63.6910
G01 X139.5362 Y64.6194
G01 X139.5608 Y65.5486
G01 X139.5636 Y66.4781
G01 X139.5759 Y70.7272
G01 X139.5846 Y74.9763
G01 X139.5899 Y79.2254
G01 X139.5916 Y83.4745
G01 X139.5897 Y87.7236
G01 X139.5844 Y91.9727
G01 X139.5755 Y96.2218
G01 X139.5631 Y100.4709
G01 X139.5662 Y100.9116
G01 X139.5587 Y101.3521
G01 X139.5405 Y101.7924
G01 X139.5116 Y102.2321
G01 X139.4722 Y102.6710
G01 X139.4221 Y103.1088
G01 X139.3614 Y103.5452
G01 X139.2902 Y103.9801
G01 X139.2348 Y104.2102
G01 X139.1634 Y104.4359
G01 X139.0764 Y104.6560
G01 X138.9741 Y104.8695
G01 X138.8571 Y105.0752
G01 X138.7259 Y105.2722
G01 X138.5812 Y105.4595
G01 X138.4237 Y105.6362
G01 X138.2542 Y105.8014
G01 X138.0735 Y105.9543
G01 X137.8825 Y106.0942
G01 X137.6822 Y106.2202
G01 X137.5897 Y106.2611
G01 X137.4990 Y106.3059
G01 X137.4104 Y106.3545
G01 X137.3239 Y106.4070
G01 X137.2398 Y106.4632
G01 X137.1582 Y106.5229
G01 X137.0792 Y106.5861
G01 X137.0031 Y106.6527
G01 X136.9870 Y106.6692
G01 X136.9721 Y106.6868
G01 X136.9586 Y106.7055
G01 X136.9466 Y106.7251
G01 X136.9360 Y106.7456
G01 X136.9270 Y106.7669
G01 X136.9197 Y106.7887
G01 X136.9139 Y106.8111
G01 X136.9099 Y106.8338
G01 X136.9076 Y106.8567
G01 X136.9070 Y106.8797
G01 X136.9081 Y106.9028
G01 X136.9109 Y106.9257
G01 X136.9155 Y106.9483
G01 X136.9217 Y106.9705
G01 X136.9296 Y106.9921
G01 X136.9308 Y107.0156
G01 X136.9337 Y107.0389
G01 X136.9384 Y107.0620
G01 X136.9448 Y107.0846
G01 X136.9528 Y107.1067
G01 X136.9624 Y107.1281
G01 X136.9736 Y107.1488
G01 X136.9864 Y107.1685
G01 X137.0005 Y107.1873
G01 X137.0160 Y107.2050
G01 X137.0328 Y107.2214
G01 X137.0507 Y107.2366
G01 X137.0697 Y107.2504
G01 X137.0897 Y107.2627
G01 X137.1106 Y107.2736
G01 X137.1322 Y107.2828
G01 X137.1544 Y107.2904
G01 X137.1772 Y107.2964
G01 X137.2003 Y107.3006
G01 X137.2237 Y107.3031
G01 X137.7712 Y107.4267
G01 X138.3136 Y107.5712
G01 X138.8501 Y107.7366
G01 X139.3797 Y107.9225
G01 X139.9018 Y108.1287
G01 X140.4156 Y108.3549
G01 X140.9202 Y108.6007
G01 X141.4150 Y108.8658
G01 X141.8992 Y109.1498
G01 X142.3721 Y109.4522
G01 X142.8330 Y109.7727
G01 X143.2812 Y110.1106
G01 X143.7160 Y110.4656
G01 X144.1368 Y110.8371
G01 X144.5430 Y111.2246
G01 X144.9339 Y111.6274
G01 X144.9463 Y111.6420
G01 X144.9595 Y111.6558
G01 X144.9736 Y111.6687
G01 X144.9885 Y111.6806
G01 X145.0042 Y111.6916
G01 X145.0205 Y111.7015
G01 X145.0374 Y111.7104
G01 X145.0548 Y111.7181
G01 X145.0780 Y111.6212
G01 X145.0977 Y111.5235
G01 X145.1140 Y111.4252
G01 X145.1268 Y111.3264
G01 X145.1362 Y111.2272
G01 X145.1421 Y111.1278
G01 X145.1445 Y111.0282
G01 X145.1434 Y110.9286
G01 Y86.4312
G01 X145.1475 Y86.3431
G01 X145.1594 Y86.2556
G01 X145.1788 Y86.1696
G01 X145.2058 Y86.0856
G01 X145.2400 Y86.0042
G01 X145.2813 Y85.9262
G01 X145.3292 Y85.8522
G01 X145.3835 Y85.7826
G01 X145.4437 Y85.7181
G01 X145.5093 Y85.6591
G01 X145.5799 Y85.6061
G01 X145.6548 Y85.5595
G01 X145.7336 Y85.5197
G01 X145.8155 Y85.4869
G01 X145.9000 Y85.4615
G01 X145.9864 Y85.4436
G01 X146.0740 Y85.4334
G01 X146.1623 Y85.4309
G01 X146.2503 Y85.4362
G01 X146.3376 Y85.4492
G01 X146.4234 Y85.4698
G01 X146.5071 Y85.4979
G01 X146.5879 Y85.5333
G01 X146.6653 Y85.5756
G01 X146.7388 Y85.6245
G01 X146.8076 Y85.6797
G01 X146.8713 Y85.7408
G01 X146.9294 Y85.8072
G01 X146.9814 Y85.8785
G01 X147.0270 Y85.9540
G01 X147.0658 Y86.0333
G01 X147.0974 Y86.1157
G01 X147.1315 Y86.1918
G01 X147.1658 Y86.2678
G01 X147.2005 Y86.3437
G01 X147.2354 Y86.4194
G01 X147.4035 Y86.3064
G00 Z5.0000


;No. 8: Hole 2
G00 X167.3914 Y81.3670 Z5.0000
G00 Z0.5000
G01 Z0.0000 F400
G01 Z-1.3000
G01 X171.0146 F1000
G01 X170.8493
G01 Y82.8670
G01 X167.7827
G01 X168.2739 Y84.3670
G01 X171.1690
G01 X171.6481 Y85.8670
G01 X168.8775
G01 X169.6253 Y87.3670
G01 X172.3605
G01 X173.4617 Y88.8670
G01 X170.5729
G01 X171.8260 Y90.3670
G01 X175.7579
G01 X173.6378 Y91.8670
G01 X181.4720
G01 X178.6637 Y90.3670
G01 X186.3661
G01 X186.7933 Y88.8670
G01 X180.8771
G01 X181.8485 Y87.3670
G01 X186.9945
G01 X187.0654 Y85.8670
G01 X182.3711
G01 X182.5992 Y84.3670
G01 X187.0317
G01 X186.8639 Y82.8670
G01 X182.6170
G01 X182.4772 Y81.3670
G01 X186.5492
G01 X186.0748 Y79.8670
G01 X182.1533
G01 X181.5906 Y78.3670
G01 X185.4210
G01 X184.5677 Y76.8670
G01 X180.6964
G01 Y75.3670
G01 X179.1008
G01 X183.4489
G01 X181.8988 Y73.8670
G01 X174.2030
G01 X174.6853 Y75.3670
G01 X172.9716
G01 X173.3797 Y76.8670
G01 X166.7376
G01 X166.6716 Y75.3670
G01 X171.0519
G01 X170.9316
G01 Y73.8670
G01 X166.6733
G01 X166.7446 Y72.3670
G01 X171.2475
G01 X171.6582 Y70.8670
G01 X166.8928
G01 X167.1263 Y69.3670
G01 X172.2127
G01 X173.0272 Y67.8670
G01 X167.4552
G01 X167.8917 Y66.3670
G01 X174.2263
G01 X176.0669 Y64.8670
G01 X168.4446
G01 X169.1415 Y63.3670
G01 X185.6086
G01 X186.2769 Y64.8670
G01 X183.4288
G01 X185.3120 Y66.3670
G01 X186.7984
G01 X186.6347 Y67.8670
G01 X187.1348
G00 Z5.0000
G00 X184.7413 Y63.3670
G00 Z0.5000
G01 Z-1.3000 F400
G01 Y61.8670 F1000
G01 X170.0470
G01 X171.2752 Y60.3670
G01 X183.5424
G01 X181.6879 Y58.8670
G01 X173.1288
G00 Z5.0000
G00 X177.0830 Y73.8670
G00 Z0.5000
G01 Z-1.3000 F400
G01 Y72.3670 F1000
G01 X178.5406
G00 Z5.0000
