;Project TeslaParkingOnly
;Created by Estlcam version 11 build 11,227
;Machining time about 00:33:38 hours

G90
M03 S18000
G00 X0.0000 Y0.0000 Z0.0000
G00 Z2.0000


;No. 1: Hole 1
G00 X41.3613 Y234.4508
G00 Z0.5000
G01 Z0.0000 F400 S18000
G01 Z-2.0000
M106 S240
G01 X45.0472 F1000
G01 Y235.9508
G01 X41.3613
G01 Y237.4508
G01 X45.0472
G01 Y238.9508
G01 X41.3613
G01 Y240.4508
G01 X45.0472
G01 Y241.9508
G01 X41.3613
G01 Y243.4508
G01 X45.0472
G01 Y244.9508
G01 X41.3613
G01 Y246.4508
G01 X45.0472
G01 Y247.9508
G01 X41.3613
G01 X41.2647 Y249.4508
G01 X45.1439
G01 Y250.9508
G01 X54.1287
G01 X32.2386
G01 X31.0213 Y252.4508
G01 X55.3832
G01 X55.5763 Y252.3916
G01 X55.4398 Y252.1278
G01 X55.2850 Y251.8742
G01 X55.1128 Y251.6321
G01 X54.9240 Y251.4028
G01 X54.7195 Y251.1874
G01 X54.5003 Y250.9868
G01 X54.2675 Y250.8023
G01 X54.0223 Y250.6345
G01 X53.7660 Y250.4845
G01 X53.4996 Y250.3529
G01 X53.2247 Y250.2404
G01 X52.9425 Y250.1475
G01 X52.6545 Y250.0747
G01 X52.3621 Y250.0224
G01 X52.0667 Y249.9908
G01 X51.7699 Y249.9801
G01 X46.2472
G01 X46.1688 Y249.9770
G01 X46.0908 Y249.9677
G01 X46.0138 Y249.9524
G01 X45.9382 Y249.9311
G01 X45.8646 Y249.9039
G01 X45.7932 Y249.8711
G01 X45.7247 Y249.8327
G01 X45.6595 Y249.7891
G01 X45.5978 Y249.7405
G01 X45.5401 Y249.6872
G01 X45.4868 Y249.6295
G01 X45.4382 Y249.5678
G01 X45.3946 Y249.5026
G01 X45.3562 Y249.4340
G01 X45.3234 Y249.3627
G01 X45.2962 Y249.2891
G01 X45.2749 Y249.2135
G01 X45.2596 Y249.1365
G01 X45.2503 Y249.0585
G01 X45.2472 Y248.9801
G01 Y232.8375
G01 X41.1613
G01 Y248.9801
G01 X41.1582 Y249.0585
G01 X41.1490 Y249.1365
G01 X41.1337 Y249.2135
G01 X41.1123 Y249.2891
G01 X41.0852 Y249.3628
G01 X41.0523 Y249.4341
G01 X41.0139 Y249.5026
G01 X40.9703 Y249.5679
G01 X40.9217 Y249.6295
G01 X40.8684 Y249.6872
G01 X40.8107 Y249.7405
G01 X40.7491 Y249.7891
G01 X40.6838 Y249.8327
G01 X40.6153 Y249.8711
G01 X40.5440 Y249.9039
G01 X40.4703 Y249.9311
G01 X40.3947 Y249.9524
G01 X40.3177 Y249.9678
G01 X40.2397 Y249.9770
G01 X40.1613 Y249.9801
G01 X38.7406 Y249.9632
G01 X37.3198 Y249.9580
G01 X35.8991 Y249.9646
G01 X34.4784 Y249.9828
G01 X34.1621 Y250.0019
G01 X33.8483 Y250.0453
G01 X33.5387 Y250.1128
G01 X33.2352 Y250.2039
G01 X32.9397 Y250.3182
G01 X32.6538 Y250.4548
G01 X32.3794 Y250.6131
G01 X32.1179 Y250.7920
G01 X31.8710 Y250.9906
G01 X31.6401 Y251.2076
G01 X31.4266 Y251.4417
G01 X31.2318 Y251.6916
G01 X31.0568 Y251.9557
G01 X30.9027 Y252.2326
G01 X30.7703 Y252.5205
G01 X30.6606 Y252.8177
G01 X30.5740 Y253.1225
G01 X30.5112 Y253.4330
G01 X30.4726 Y253.7475
G01 X30.4582 Y254.0640
G01 X55.9501
G01 X55.9438 Y253.8482
G01 X55.9257 Y253.6331
G01 X55.8959 Y253.4193
G01 X55.8546 Y253.2074
G01 X55.8018 Y252.9981
G01 X55.7376 Y252.7919
G01 X55.6624 Y252.5896
G01 X55.5763 Y252.3916
G01 X55.3832 Y252.4508
G01 Z-4.0000 F400
G01 X31.0213 F1000
G01 X32.2386 Y250.9508
G01 X54.1287
G01 X45.1439
G01 Y249.4508
G01 X41.2647
G01 X41.3613 Y247.9508
G01 X45.0472
G01 Y246.4508
G01 X41.3613
G01 Y244.9508
G01 X45.0472
G01 Y243.4508
G01 X41.3613
G01 Y241.9508
G01 X45.0472
G01 Y240.4508
G01 X41.3613
G01 Y238.9508
G01 X45.0472
G01 Y237.4508
G01 X41.3613
G01 Y235.9508
G01 X45.0472
G01 Y234.4508
G01 X41.3613
G01 X41.1613 Y234.4617
G01 Y248.9801
G01 X41.1582 Y249.0585
G01 X41.1490 Y249.1365
G01 X41.1337 Y249.2135
G01 X41.1123 Y249.2891
G01 X41.0852 Y249.3628
G01 X41.0523 Y249.4341
G01 X41.0139 Y249.5026
G01 X40.9703 Y249.5679
G01 X40.9217 Y249.6295
G01 X40.8684 Y249.6872
G01 X40.8107 Y249.7405
G01 X40.7491 Y249.7891
G01 X40.6838 Y249.8327
G01 X40.6153 Y249.8711
G01 X40.5440 Y249.9039
G01 X40.4703 Y249.9311
G01 X40.3947 Y249.9524
G01 X40.3177 Y249.9678
G01 X40.2397 Y249.9770
G01 X40.1613 Y249.9801
G01 X38.7406 Y249.9632
G01 X37.3198 Y249.9580
G01 X35.8991 Y249.9646
G01 X34.4784 Y249.9828
G01 X34.1621 Y250.0019
G01 X33.8483 Y250.0453
G01 X33.5387 Y250.1128
G01 X33.2352 Y250.2039
G01 X32.9397 Y250.3182
G01 X32.6538 Y250.4548
G01 X32.3794 Y250.6131
G01 X32.1179 Y250.7920
G01 X31.8710 Y250.9906
G01 X31.6401 Y251.2076
G01 X31.4266 Y251.4417
G01 X31.2318 Y251.6916
G01 X31.0568 Y251.9557
G01 X30.9027 Y252.2326
G01 X30.7703 Y252.5205
G01 X30.6606 Y252.8177
G01 X30.5740 Y253.1225
G01 X30.5112 Y253.4330
G01 X30.4726 Y253.7475
G01 X30.4582 Y254.0640
G01 X55.9501
G01 X55.9310 Y253.7409
G01 X55.8868 Y253.4202
G01 X55.8179 Y253.1039
G01 X55.7246 Y252.7939
G01 X55.6076 Y252.4921
G01 X55.4675 Y252.2003
G01 X55.3052 Y251.9202
G01 X55.1217 Y251.6536
G01 X54.9180 Y251.4020
G01 X54.6954 Y251.1670
G01 X54.4552 Y250.9499
G01 X54.1990 Y250.7521
G01 X53.9281 Y250.5749
G01 X53.6443 Y250.4191
G01 X53.3493 Y250.2859
G01 X53.0449 Y250.1759
G01 X52.7328 Y250.0899
G01 X52.4150 Y250.0284
G01 X52.0934 Y249.9917
G01 X51.7699 Y249.9801
G01 X46.2472
G01 X46.1688 Y249.9770
G01 X46.0908 Y249.9677
G01 X46.0138 Y249.9524
G01 X45.9382 Y249.9311
G01 X45.8646 Y249.9039
G01 X45.7932 Y249.8711
G01 X45.7247 Y249.8327
G01 X45.6595 Y249.7891
G01 X45.5978 Y249.7405
G01 X45.5401 Y249.6872
G01 X45.4868 Y249.6295
G01 X45.4382 Y249.5678
G01 X45.3946 Y249.5026
G01 X45.3562 Y249.4340
G01 X45.3234 Y249.3627
G01 X45.2962 Y249.2891
G01 X45.2749 Y249.2135
G01 X45.2596 Y249.1365
G01 X45.2503 Y249.0585
G01 X45.2472 Y248.9801
G01 Y232.8375
G01 X41.1613
G01 Y234.4617
G01 X41.3613 Y234.4508
G01 Z-6.0000 F400
G01 X45.0472 F1000
G01 Y235.9508
G01 X41.3613
G01 Y237.4508
G01 X45.0472
G01 Y238.9508
G01 X41.3613
G01 Y240.4508
G01 X45.0472
G01 Y241.9508
G01 X41.3613
G01 Y243.4508
G01 X45.0472
G01 Y244.9508
G01 X41.3613
G01 Y246.4508
G01 X45.0472
G01 Y247.9508
G01 X41.3613
G01 X41.2647 Y249.4508
G01 X45.1439
G01 Y250.9508
G01 X54.1287
G01 X32.2386
G01 X31.0213 Y252.4508
G01 X55.3832
G01 X55.5763 Y252.3916
G01 X55.4398 Y252.1278
G01 X55.2850 Y251.8742
G01 X55.1128 Y251.6321
G01 X54.9240 Y251.4028
G01 X54.7195 Y251.1874
G01 X54.5003 Y250.9868
G01 X54.2675 Y250.8023
G01 X54.0223 Y250.6345
G01 X53.7660 Y250.4845
G01 X53.4996 Y250.3529
G01 X53.2247 Y250.2404
G01 X52.9425 Y250.1475
G01 X52.6545 Y250.0747
G01 X52.3621 Y250.0224
G01 X52.0667 Y249.9908
G01 X51.7699 Y249.9801
G01 X46.2472
G01 X46.1688 Y249.9770
G01 X46.0908 Y249.9677
G01 X46.0138 Y249.9524
G01 X45.9382 Y249.9311
G01 X45.8646 Y249.9039
G01 X45.7932 Y249.8711
G01 X45.7247 Y249.8327
G01 X45.6595 Y249.7891
G01 X45.5978 Y249.7405
G01 X45.5401 Y249.6872
G01 X45.4868 Y249.6295
G01 X45.4382 Y249.5678
G01 X45.3946 Y249.5026
G01 X45.3562 Y249.4340
G01 X45.3234 Y249.3627
G01 X45.2962 Y249.2891
G01 X45.2749 Y249.2135
G01 X45.2596 Y249.1365
G01 X45.2503 Y249.0585
G01 X45.2472 Y248.9801
G01 Y232.8375
G01 X41.1613
G01 Y248.9801
G01 X41.1582 Y249.0585
G01 X41.1490 Y249.1365
G01 X41.1337 Y249.2135
G01 X41.1123 Y249.2891
G01 X41.0852 Y249.3628
G01 X41.0523 Y249.4341
G01 X41.0139 Y249.5026
G01 X40.9703 Y249.5679
G01 X40.9217 Y249.6295
G01 X40.8684 Y249.6872
G01 X40.8107 Y249.7405
G01 X40.7491 Y249.7891
G01 X40.6838 Y249.8327
G01 X40.6153 Y249.8711
G01 X40.5440 Y249.9039
G01 X40.4703 Y249.9311
G01 X40.3947 Y249.9524
G01 X40.3177 Y249.9678
G01 X40.2397 Y249.9770
G01 X40.1613 Y249.9801
G01 X38.7406 Y249.9632
G01 X37.3198 Y249.9580
G01 X35.8991 Y249.9646
G01 X34.4784 Y249.9828
G01 X34.1621 Y250.0019
G01 X33.8483 Y250.0453
G01 X33.5387 Y250.1128
G01 X33.2352 Y250.2039
G01 X32.9397 Y250.3182
G01 X32.6538 Y250.4548
G01 X32.3794 Y250.6131
G01 X32.1179 Y250.7920
G01 X31.8710 Y250.9906
G01 X31.6401 Y251.2076
G01 X31.4266 Y251.4417
G01 X31.2318 Y251.6916
G01 X31.0568 Y251.9557
G01 X30.9027 Y252.2326
G01 X30.7703 Y252.5205
G01 X30.6606 Y252.8177
G01 X30.5740 Y253.1225
G01 X30.5112 Y253.4330
G01 X30.4726 Y253.7475
G01 X30.4582 Y254.0640
G01 X55.9501
G01 X55.9438 Y253.8482
G01 X55.9257 Y253.6331
G01 X55.8959 Y253.4193
G01 X55.8546 Y253.2074
G01 X55.8018 Y252.9981
G01 X55.7376 Y252.7919
G01 X55.6624 Y252.5896
G01 X55.5763 Y252.3916
G01 X55.3832 Y252.4508
M107
G00 Z2.0000


;No. 2: Hole 2
G00 X64.1854 Y252.7721 Z2.0000
G00 Z0.5000
G01 Z0.0000 F400
G01 Z-2.0000
M106 S240
G01 X88.8158 F1000
G01 X87.8136 Y251.2721
G01 X65.1576
G01 X65.0425 Y251.1057
G01 X64.8484 Y251.3022
G01 X64.6679 Y251.5113
G01 X64.5018 Y251.7319
G01 X64.3508 Y251.9633
G01 X64.2157 Y252.2042
G01 X64.0971 Y252.4536
G01 X63.9954 Y252.7104
G01 X63.9112 Y252.9734
G01 X63.8448 Y253.2416
G01 X63.7965 Y253.5135
G01 X63.7666 Y253.7881
G01 X63.7551 Y254.0640
G01 X89.2470 Y254.0641
G01 X89.2281 Y253.7408
G01 X89.1842 Y253.4200
G01 X89.1154 Y253.1036
G01 X89.0223 Y252.7935
G01 X88.9054 Y252.4916
G01 X88.7654 Y252.1997
G01 X88.6031 Y251.9195
G01 X88.4196 Y251.6527
G01 X88.2159 Y251.4011
G01 X87.9933 Y251.1660
G01 X87.7531 Y250.9489
G01 X87.4967 Y250.7511
G01 X87.2258 Y250.5738
G01 X86.9419 Y250.4181
G01 X86.6468 Y250.2850
G01 X86.3422 Y250.1751
G01 X86.0300 Y250.0893
G01 X85.7121 Y250.0279
G01 X85.3904 Y249.9914
G01 X85.0668 Y249.9801
G01 X67.9391
G01 X67.6737 Y249.9845
G01 X67.4091 Y250.0061
G01 X67.1464 Y250.0446
G01 X66.8868 Y250.0999
G01 X66.6312 Y250.1717
G01 X66.3808 Y250.2599
G01 X66.1366 Y250.3639
G01 X65.8996 Y250.4835
G01 X65.6707 Y250.6180
G01 X65.4510 Y250.7670
G01 X65.2413 Y250.9298
G01 X65.0425 Y251.1057
G01 X65.1576 Y251.2721
G01 Z-4.0000 F400
G01 X87.8136 F1000
G01 X88.8158 Y252.7721
G01 X64.1854
G01 X64.0009 Y252.6942
G01 X63.8938 Y253.0270
G01 X63.8167 Y253.3681
G01 X63.7704 Y253.7147
G01 X63.7551 Y254.0640
G01 X89.2470 Y254.0641
G01 X89.2281 Y253.7408
G01 X89.1842 Y253.4200
G01 X89.1154 Y253.1036
G01 X89.0223 Y252.7935
G01 X88.9054 Y252.4916
G01 X88.7654 Y252.1997
G01 X88.6031 Y251.9195
G01 X88.4196 Y251.6527
G01 X88.2159 Y251.4011
G01 X87.9933 Y251.1660
G01 X87.7531 Y250.9489
G01 X87.4967 Y250.7511
G01 X87.2258 Y250.5738
G01 X86.9419 Y250.4181
G01 X86.6468 Y250.2850
G01 X86.3422 Y250.1751
G01 X86.0300 Y250.0893
G01 X85.7121 Y250.0279
G01 X85.3904 Y249.9914
G01 X85.0668 Y249.9801
G01 X67.9391
G01 X67.6203 Y249.9871
G01 X67.3030 Y250.0187
G01 X66.9890 Y250.0749
G01 X66.6804 Y250.1552
G01 X66.3789 Y250.2591
G01 X66.0864 Y250.3861
G01 X65.8045 Y250.5354
G01 X65.5351 Y250.7061
G01 X65.2797 Y250.8971
G01 X65.0399 Y251.1073
G01 X64.8171 Y251.3355
G01 X64.6126 Y251.5802
G01 X64.4277 Y251.8400
G01 X64.2635 Y252.1134
G01 X64.1209 Y252.3987
G01 X64.0009 Y252.6942
G01 X64.1854 Y252.7721
G01 Z-6.0000 F400
G01 X88.8158 F1000
G01 X87.8136 Y251.2721
G01 X65.1576
G01 X65.0425 Y251.1057
G01 X64.8484 Y251.3022
G01 X64.6679 Y251.5113
G01 X64.5018 Y251.7319
G01 X64.3508 Y251.9633
G01 X64.2157 Y252.2042
G01 X64.0971 Y252.4536
G01 X63.9954 Y252.7104
G01 X63.9112 Y252.9734
G01 X63.8448 Y253.2416
G01 X63.7965 Y253.5135
G01 X63.7666 Y253.7881
G01 X63.7551 Y254.0640
G01 X89.2470 Y254.0641
G01 X89.2281 Y253.7408
G01 X89.1842 Y253.4200
G01 X89.1154 Y253.1036
G01 X89.0223 Y252.7935
G01 X88.9054 Y252.4916
G01 X88.7654 Y252.1997
G01 X88.6031 Y251.9195
G01 X88.4196 Y251.6527
G01 X88.2159 Y251.4011
G01 X87.9933 Y251.1660
G01 X87.7531 Y250.9489
G01 X87.4967 Y250.7511
G01 X87.2258 Y250.5738
G01 X86.9419 Y250.4181
G01 X86.6468 Y250.2850
G01 X86.3422 Y250.1751
G01 X86.0300 Y250.0893
G01 X85.7121 Y250.0279
G01 X85.3904 Y249.9914
G01 X85.0668 Y249.9801
G01 X67.9391
G01 X67.6737 Y249.9845
G01 X67.4091 Y250.0061
G01 X67.1464 Y250.0446
G01 X66.8868 Y250.0999
G01 X66.6312 Y250.1717
G01 X66.3808 Y250.2599
G01 X66.1366 Y250.3639
G01 X65.8996 Y250.4835
G01 X65.6707 Y250.6180
G01 X65.4510 Y250.7670
G01 X65.2413 Y250.9298
G01 X65.0425 Y251.1057
G01 X65.1576 Y251.2721
M107
G00 Z2.0000


;No. 3: Hole 4
G00 X64.1857 Y244.2008 Z2.0000
G00 Z0.5000
G01 Z0.0000 F400
G01 Z-2.0000
M106 S240
G01 X88.8154 F1000
G01 X87.8126 Y242.7008
G01 X65.1586
G01 X65.0428 Y242.5351
G01 X64.8486 Y242.7316
G01 X64.6681 Y242.9407
G01 X64.5019 Y243.1614
G01 X64.3510 Y243.3927
G01 X64.2158 Y243.6336
G01 X64.0972 Y243.8831
G01 X63.9955 Y244.1399
G01 X63.9112 Y244.4030
G01 X63.8448 Y244.6711
G01 X63.7965 Y244.9431
G01 X63.7666 Y245.2177
G01 X63.7551 Y245.4937
G01 X89.2470
G01 X89.2280 Y245.1705
G01 X89.1839 Y244.8497
G01 X89.1150 Y244.5334
G01 X89.0218 Y244.2233
G01 X88.9049 Y243.9214
G01 X88.7648 Y243.6294
G01 X88.6025 Y243.3492
G01 X88.4190 Y243.0825
G01 X88.2153 Y242.8308
G01 X87.9927 Y242.5956
G01 X87.7526 Y242.3785
G01 X87.4963 Y242.1806
G01 X87.2254 Y242.0032
G01 X86.9416 Y241.8474
G01 X86.6465 Y241.7140
G01 X86.3420 Y241.6040
G01 X86.0299 Y241.5179
G01 X85.7120 Y241.4563
G01 X85.3903 Y241.4195
G01 X85.0668 Y241.4078
G01 X67.9392
G01 X67.6737 Y241.4124
G01 X67.4091 Y241.4341
G01 X67.1465 Y241.4728
G01 X66.8868 Y241.5282
G01 X66.6313 Y241.6002
G01 X66.3809 Y241.6885
G01 X66.1367 Y241.7927
G01 X65.8997 Y241.9124
G01 X65.6708 Y242.0471
G01 X65.4512 Y242.1962
G01 X65.2415 Y242.3591
G01 X65.0428 Y242.5351
G01 X65.1586 Y242.7008
G01 Z-4.0000 F400
G01 X87.8126 F1000
G01 X88.8154 Y244.2008
G01 X64.1857
G01 X64.0009 Y244.1238
G01 X63.8938 Y244.4567
G01 X63.8167 Y244.7978
G01 X63.7704 Y245.1444
G01 X63.7551 Y245.4937
G01 X89.2470
G01 X89.2280 Y245.1705
G01 X89.1839 Y244.8497
G01 X89.1150 Y244.5334
G01 X89.0218 Y244.2233
G01 X88.9049 Y243.9214
G01 X88.7648 Y243.6294
G01 X88.6025 Y243.3492
G01 X88.4190 Y243.0825
G01 X88.2153 Y242.8308
G01 X87.9927 Y242.5956
G01 X87.7526 Y242.3785
G01 X87.4963 Y242.1806
G01 X87.2254 Y242.0032
G01 X86.9416 Y241.8474
G01 X86.6465 Y241.7140
G01 X86.3420 Y241.6040
G01 X86.0299 Y241.5179
G01 X85.7120 Y241.4563
G01 X85.3903 Y241.4195
G01 X85.0668 Y241.4078
G01 X67.9392
G01 X67.6203 Y241.4151
G01 X67.3030 Y241.4470
G01 X66.9891 Y241.5034
G01 X66.6804 Y241.5839
G01 X66.3790 Y241.6880
G01 X66.0865 Y241.8152
G01 X65.8047 Y241.9646
G01 X65.5353 Y242.1354
G01 X65.2799 Y242.3265
G01 X65.0401 Y242.5368
G01 X64.8173 Y242.7650
G01 X64.6128 Y243.0098
G01 X64.4279 Y243.2696
G01 X64.2636 Y243.5430
G01 X64.1210 Y243.8283
G01 X64.0009 Y244.1238
G01 X64.1857 Y244.2008
G01 Z-6.0000 F400
G01 X88.8154 F1000
G01 X87.8126 Y242.7008
G01 X65.1586
G01 X65.0428 Y242.5351
G01 X64.8486 Y242.7316
G01 X64.6681 Y242.9407
G01 X64.5019 Y243.1614
G01 X64.3510 Y243.3927
G01 X64.2158 Y243.6336
G01 X64.0972 Y243.8831
G01 X63.9955 Y244.1399
G01 X63.9112 Y244.4030
G01 X63.8448 Y244.6711
G01 X63.7965 Y244.9431
G01 X63.7666 Y245.2177
G01 X63.7551 Y245.4937
G01 X89.2470
G01 X89.2280 Y245.1705
G01 X89.1839 Y244.8497
G01 X89.1150 Y244.5334
G01 X89.0218 Y244.2233
G01 X88.9049 Y243.9214
G01 X88.7648 Y243.6294
G01 X88.6025 Y243.3492
G01 X88.4190 Y243.0825
G01 X88.2153 Y242.8308
G01 X87.9927 Y242.5956
G01 X87.7526 Y242.3785
G01 X87.4963 Y242.1806
G01 X87.2254 Y242.0032
G01 X86.9416 Y241.8474
G01 X86.6465 Y241.7140
G01 X86.3420 Y241.6040
G01 X86.0299 Y241.5179
G01 X85.7120 Y241.4563
G01 X85.3903 Y241.4195
G01 X85.0668 Y241.4078
G01 X67.9392
G01 X67.6737 Y241.4124
G01 X67.4091 Y241.4341
G01 X67.1465 Y241.4728
G01 X66.8868 Y241.5282
G01 X66.6313 Y241.6002
G01 X66.3809 Y241.6885
G01 X66.1367 Y241.7927
G01 X65.8997 Y241.9124
G01 X65.6708 Y242.0471
G01 X65.4512 Y242.1962
G01 X65.2415 Y242.3591
G01 X65.0428 Y242.5351
G01 X65.1586 Y242.7008
M107
G00 Z2.0000


;No. 4: Hole 5
G00 X64.1857 Y235.6305 Z2.0000
G00 Z0.5000
G01 Z0.0000 F400
G01 Z-2.0000
M106 S240
G01 X88.8154 F1000
G01 X87.8126 Y234.1305
G01 X65.1586
G01 X65.0428 Y233.9648
G01 X64.8486 Y234.1613
G01 X64.6681 Y234.3704
G01 X64.5019 Y234.5911
G01 X64.3510 Y234.8224
G01 X64.2158 Y235.0633
G01 X64.0972 Y235.3128
G01 X63.9955 Y235.5696
G01 X63.9112 Y235.8327
G01 X63.8448 Y236.1008
G01 X63.7965 Y236.3728
G01 X63.7666 Y236.6474
G01 X63.7551 Y236.9234
G01 X89.2470
G01 X89.2280 Y236.6002
G01 X89.1840 Y236.2794
G01 X89.1152 Y235.9630
G01 X89.0220 Y235.6529
G01 X88.9050 Y235.3509
G01 X88.7650 Y235.0590
G01 X88.6027 Y234.7788
G01 X88.4192 Y234.5120
G01 X88.2155 Y234.2603
G01 X87.9929 Y234.0251
G01 X87.7528 Y233.8079
G01 X87.4965 Y233.6101
G01 X87.2256 Y233.4327
G01 X86.9417 Y233.2768
G01 X86.6467 Y233.1435
G01 X86.3421 Y233.0335
G01 X86.0300 Y232.9474
G01 X85.7121 Y232.8858
G01 X85.3903 Y232.8491
G01 X85.0668 Y232.8375
G01 X67.9392
G01 X67.6737 Y232.8421
G01 X67.4091 Y232.8638
G01 X67.1465 Y232.9024
G01 X66.8868 Y232.9579
G01 X66.6313 Y233.0299
G01 X66.3809 Y233.1182
G01 X66.1367 Y233.2224
G01 X65.8997 Y233.3421
G01 X65.6708 Y233.4768
G01 X65.4512 Y233.6259
G01 X65.2415 Y233.7888
G01 X65.0428 Y233.9648
G01 X65.1586 Y234.1305
G01 Z-4.0000 F400
G01 X87.8126 F1000
G01 X88.8154 Y235.6305
G01 X64.1857
G01 X64.0009 Y235.5535
G01 X63.8938 Y235.8864
G01 X63.8167 Y236.2275
G01 X63.7704 Y236.5741
G01 X63.7551 Y236.9234
G01 X89.2470
G01 X89.2280 Y236.6002
G01 X89.1840 Y236.2794
G01 X89.1152 Y235.9630
G01 X89.0220 Y235.6529
G01 X88.9050 Y235.3509
G01 X88.7650 Y235.0590
G01 X88.6027 Y234.7788
G01 X88.4192 Y234.5120
G01 X88.2155 Y234.2603
G01 X87.9929 Y234.0251
G01 X87.7528 Y233.8079
G01 X87.4965 Y233.6101
G01 X87.2256 Y233.4327
G01 X86.9417 Y233.2768
G01 X86.6467 Y233.1435
G01 X86.3421 Y233.0335
G01 X86.0300 Y232.9474
G01 X85.7121 Y232.8858
G01 X85.3903 Y232.8491
G01 X85.0668 Y232.8375
G01 X67.9392
G01 X67.6203 Y232.8448
G01 X67.3030 Y232.8767
G01 X66.9891 Y232.9331
G01 X66.6804 Y233.0136
G01 X66.3790 Y233.1177
G01 X66.0865 Y233.2449
G01 X65.8047 Y233.3943
G01 X65.5353 Y233.5651
G01 X65.2799 Y233.7562
G01 X65.0401 Y233.9665
G01 X64.8173 Y234.1947
G01 X64.6128 Y234.4395
G01 X64.4279 Y234.6993
G01 X64.2636 Y234.9727
G01 X64.1210 Y235.2580
G01 X64.0009 Y235.5535
G01 X64.1857 Y235.6305
G01 Z-6.0000 F400
G01 X88.8154 F1000
G01 X87.8126 Y234.1305
G01 X65.1586
G01 X65.0428 Y233.9648
G01 X64.8486 Y234.1613
G01 X64.6681 Y234.3704
G01 X64.5019 Y234.5911
G01 X64.3510 Y234.8224
G01 X64.2158 Y235.0633
G01 X64.0972 Y235.3128
G01 X63.9955 Y235.5696
G01 X63.9112 Y235.8327
G01 X63.8448 Y236.1008
G01 X63.7965 Y236.3728
G01 X63.7666 Y236.6474
G01 X63.7551 Y236.9234
G01 X89.2470
G01 X89.2280 Y236.6002
G01 X89.1840 Y236.2794
G01 X89.1152 Y235.9630
G01 X89.0220 Y235.6529
G01 X88.9050 Y235.3509
G01 X88.7650 Y235.0590
G01 X88.6027 Y234.7788
G01 X88.4192 Y234.5120
G01 X88.2155 Y234.2603
G01 X87.9929 Y234.0251
G01 X87.7528 Y233.8079
G01 X87.4965 Y233.6101
G01 X87.2256 Y233.4327
G01 X86.9417 Y233.2768
G01 X86.6467 Y233.1435
G01 X86.3421 Y233.0335
G01 X86.0300 Y232.9474
G01 X85.7121 Y232.8858
G01 X85.3903 Y232.8491
G01 X85.0668 Y232.8375
G01 X67.9392
G01 X67.6737 Y232.8421
G01 X67.4091 Y232.8638
G01 X67.1465 Y232.9024
G01 X66.8868 Y232.9579
G01 X66.6313 Y233.0299
G01 X66.3809 Y233.1182
G01 X66.1367 Y233.2224
G01 X65.8997 Y233.3421
G01 X65.6708 Y233.4768
G01 X65.4512 Y233.6259
G01 X65.2415 Y233.7888
G01 X65.0428 Y233.9648
G01 X65.1586 Y234.1305
M107
G00 Z2.0000


;No. 5: Hole 3
G00 X97.6219 Y234.4508 Z2.0000
G00 Z0.5000
G01 Z0.0000 F400
G01 Z-2.0000
M106 S240
G01 X122.3556 F1000
G01 Y235.9508
G01 X98.8710
G01 X118.5722
G01 Y237.4508
G01 X122.3556
G01 Y238.9508
G01 X118.6697
G01 X118.6680 Y240.4508
G01 X122.3556
G01 Y241.9508
G01 X97.2439
G01 Y243.4508
G01 X122.3556
G01 Y244.9508
G01 X97.2439
G01 Y246.4508
G01 X100.9315
G01 X100.9299 Y247.9508
G01 X97.2439
G01 Y249.4508
G01 X101.0265
G01 X97.2439 Y250.9508
G01 X120.7242
G01 X121.9787 Y252.4508
G01 X97.2439
G01 X97.0439 Y252.4402
G01 Y254.0640
G01 X122.5456
G01 X122.5264 Y253.7409
G01 X122.4822 Y253.4203
G01 X122.4133 Y253.1040
G01 X122.3200 Y252.7940
G01 X122.2029 Y252.4922
G01 X122.0628 Y252.2004
G01 X121.9005 Y251.9204
G01 X121.7170 Y251.6538
G01 X121.5133 Y251.4022
G01 X121.2907 Y251.1672
G01 X121.0506 Y250.9501
G01 X120.7943 Y250.7524
G01 X120.5235 Y250.5751
G01 X120.2397 Y250.4193
G01 X119.9447 Y250.2861
G01 X119.6403 Y250.1761
G01 X119.3282 Y250.0900
G01 X119.0105 Y250.0285
G01 X118.6889 Y249.9917
G01 X118.3654 Y249.9801
G01 X102.1299
G01 X102.0514 Y249.9770
G01 X101.9734 Y249.9677
G01 X101.8964 Y249.9524
G01 X101.8208 Y249.9311
G01 X101.7472 Y249.9039
G01 X101.6759 Y249.8711
G01 X101.6074 Y249.8327
G01 X101.5421 Y249.7891
G01 X101.4804 Y249.7405
G01 X101.4227 Y249.6872
G01 X101.3694 Y249.6295
G01 X101.3208 Y249.5678
G01 X101.2772 Y249.5026
G01 X101.2388 Y249.4340
G01 X101.2060 Y249.3627
G01 X101.1788 Y249.2891
G01 X101.1575 Y249.2135
G01 X101.1422 Y249.1365
G01 X101.1329 Y249.0585
G01 X101.1298 Y248.9801
G01 X101.1299 Y246.4937
G01 X101.1308 Y246.4501
G01 X101.1337 Y246.4066
G01 X101.1384 Y246.3632
G01 X101.1450 Y246.3201
G01 X101.1536 Y246.2773
G01 X101.1639 Y246.2349
G01 X101.1761 Y246.1930
G01 X101.1902 Y246.1517
G01 X101.2060 Y246.1110
G01 X101.2235 Y246.0711
G01 X101.2428 Y246.0320
G01 X101.2638 Y245.9937
G01 X101.2865 Y245.9564
G01 X101.3107 Y245.9202
G01 X101.3365 Y245.8850
G01 X101.3638 Y245.8509
G01 X101.3926 Y245.8181
G01 X101.4227 Y245.7866
G01 X101.4543 Y245.7565
G01 X101.4871 Y245.7277
G01 X101.5211 Y245.7004
G01 X101.5563 Y245.6746
G01 X101.5926 Y245.6503
G01 X101.6299 Y245.6277
G01 X101.6681 Y245.6067
G01 X101.7072 Y245.5874
G01 X101.7472 Y245.5698
G01 X101.7878 Y245.5540
G01 X101.8291 Y245.5400
G01 X101.8710 Y245.5278
G01 X101.9134 Y245.5174
G01 X101.9562 Y245.5089
G01 X101.9993 Y245.5023
G01 X102.0427 Y245.4975
G01 X102.0862 Y245.4947
G01 X102.1299 Y245.4937
G01 X122.5556
G01 Y232.8375
G01 X97.0539
G01 X97.0732 Y233.1606
G01 X97.1174 Y233.4813
G01 X97.1864 Y233.7976
G01 X97.2797 Y234.1077
G01 X97.3967 Y234.4095
G01 X97.5368 Y234.7013
G01 X97.6991 Y234.9815
G01 X97.8827 Y235.2481
G01 X98.0863 Y235.4998
G01 X98.3089 Y235.7349
G01 X98.5490 Y235.9520
G01 X98.8052 Y236.1499
G01 X99.0760 Y236.3273
G01 X99.3598 Y236.4832
G01 X99.6547 Y236.6166
G01 X99.9592 Y236.7267
G01 X100.2712 Y236.8129
G01 X100.5890 Y236.8746
G01 X100.9106 Y236.9116
G01 X101.2342 Y236.9234
G01 X117.4697
G01 X117.5133 Y236.9244
G01 X117.5569 Y236.9272
G01 X117.6002 Y236.9320
G01 X117.6433 Y236.9386
G01 X117.6861 Y236.9471
G01 X117.7285 Y236.9575
G01 X117.7704 Y236.9697
G01 X117.8117 Y236.9837
G01 X117.8524 Y236.9995
G01 X117.8923 Y237.0171
G01 X117.9314 Y237.0364
G01 X117.9697 Y237.0574
G01 X118.0070 Y237.0800
G01 X118.0433 Y237.1043
G01 X118.0785 Y237.1301
G01 X118.1125 Y237.1574
G01 X118.1453 Y237.1861
G01 X118.1768 Y237.2163
G01 X118.2070 Y237.2478
G01 X118.2357 Y237.2806
G01 X118.2631 Y237.3147
G01 X118.2889 Y237.3498
G01 X118.3131 Y237.3861
G01 X118.3357 Y237.4234
G01 X118.3567 Y237.4617
G01 X118.3760 Y237.5008
G01 X118.3936 Y237.5407
G01 X118.4094 Y237.5814
G01 X118.4234 Y237.6227
G01 X118.4356 Y237.6646
G01 X118.4460 Y237.7070
G01 X118.4545 Y237.7498
G01 X118.4611 Y237.7929
G01 X118.4659 Y237.8363
G01 X118.4687 Y237.8798
G01 X118.4697 Y237.9234
G01 Y240.4078
G01 X118.4687 Y240.4514
G01 X118.4659 Y240.4949
G01 X118.4611 Y240.5383
G01 X118.4545 Y240.5814
G01 X118.4460 Y240.6242
G01 X118.4356 Y240.6666
G01 X118.4234 Y240.7085
G01 X118.4094 Y240.7498
G01 X118.3936 Y240.7905
G01 X118.3760 Y240.8304
G01 X118.3567 Y240.8695
G01 X118.3357 Y240.9078
G01 X118.3131 Y240.9451
G01 X118.2889 Y240.9814
G01 X118.2631 Y241.0166
G01 X118.2357 Y241.0506
G01 X118.2070 Y241.0834
G01 X118.1768 Y241.1149
G01 X118.1453 Y241.1451
G01 X118.1125 Y241.1738
G01 X118.0785 Y241.2011
G01 X118.0433 Y241.2269
G01 X118.0070 Y241.2512
G01 X117.9697 Y241.2738
G01 X117.9314 Y241.2948
G01 X117.8923 Y241.3141
G01 X117.8524 Y241.3317
G01 X117.8117 Y241.3475
G01 X117.7704 Y241.3615
G01 X117.7285 Y241.3737
G01 X117.6861 Y241.3841
G01 X117.6433 Y241.3926
G01 X117.6002 Y241.3992
G01 X117.5569 Y241.4040
G01 X117.5133 Y241.4068
G01 X117.4697 Y241.4078
G01 X97.0439
G01 Y252.4402
G01 X97.2439 Y252.4508
G01 Z-4.0000 F400
G01 X121.9787 F1000
G01 X120.7242 Y250.9508
G01 X97.2439
G01 Y249.4508
G01 X101.0265
G01 X100.9299 Y247.9508
G01 X97.2439
G01 Y246.4508
G01 X100.9315
G01 X97.2439 Y244.9508
G01 X122.3556
G01 Y243.4508
G01 X97.2439
G01 Y241.9508
G01 X122.3556
G01 Y240.4508
G01 X118.6680
G01 X118.6697 Y238.9508
G01 X122.3556
G01 Y237.4508
G01 X118.5722
G01 X122.3556 Y235.9508
G01 X98.8710
G01 X97.6219 Y234.4508
G01 X122.3556
G01 X122.5556 Y234.4613
G01 Y232.8375
G01 X97.0539
G01 X97.0732 Y233.1606
G01 X97.1174 Y233.4813
G01 X97.1864 Y233.7976
G01 X97.2797 Y234.1077
G01 X97.3967 Y234.4095
G01 X97.5368 Y234.7013
G01 X97.6991 Y234.9815
G01 X97.8827 Y235.2481
G01 X98.0863 Y235.4998
G01 X98.3089 Y235.7349
G01 X98.5490 Y235.9520
G01 X98.8052 Y236.1499
G01 X99.0760 Y236.3273
G01 X99.3598 Y236.4832
G01 X99.6547 Y236.6166
G01 X99.9592 Y236.7267
G01 X100.2712 Y236.8129
G01 X100.5890 Y236.8746
G01 X100.9106 Y236.9116
G01 X101.2342 Y236.9234
G01 X117.4697
G01 X117.5133 Y236.9244
G01 X117.5569 Y236.9272
G01 X117.6002 Y236.9320
G01 X117.6433 Y236.9386
G01 X117.6861 Y236.9471
G01 X117.7285 Y236.9575
G01 X117.7704 Y236.9697
G01 X117.8117 Y236.9837
G01 X117.8524 Y236.9995
G01 X117.8923 Y237.0171
G01 X117.9314 Y237.0364
G01 X117.9697 Y237.0574
G01 X118.0070 Y237.0800
G01 X118.0433 Y237.1043
G01 X118.0785 Y237.1301
G01 X118.1125 Y237.1574
G01 X118.1453 Y237.1861
G01 X118.1768 Y237.2163
G01 X118.2070 Y237.2478
G01 X118.2357 Y237.2806
G01 X118.2631 Y237.3147
G01 X118.2889 Y237.3498
G01 X118.3131 Y237.3861
G01 X118.3357 Y237.4234
G01 X118.3567 Y237.4617
G01 X118.3760 Y237.5008
G01 X118.3936 Y237.5407
G01 X118.4094 Y237.5814
G01 X118.4234 Y237.6227
G01 X118.4356 Y237.6646
G01 X118.4460 Y237.7070
G01 X118.4545 Y237.7498
G01 X118.4611 Y237.7929
G01 X118.4659 Y237.8363
G01 X118.4687 Y237.8798
G01 X118.4697 Y237.9234
G01 Y240.4078
G01 X118.4687 Y240.4514
G01 X118.4659 Y240.4949
G01 X118.4611 Y240.5383
G01 X118.4545 Y240.5814
G01 X118.4460 Y240.6242
G01 X118.4356 Y240.6666
G01 X118.4234 Y240.7085
G01 X118.4094 Y240.7498
G01 X118.3936 Y240.7905
G01 X118.3760 Y240.8304
G01 X118.3567 Y240.8695
G01 X118.3357 Y240.9078
G01 X118.3131 Y240.9451
G01 X118.2889 Y240.9814
G01 X118.2631 Y241.0166
G01 X118.2357 Y241.0506
G01 X118.2070 Y241.0834
G01 X118.1768 Y241.1149
G01 X118.1453 Y241.1451
G01 X118.1125 Y241.1738
G01 X118.0785 Y241.2011
G01 X118.0433 Y241.2269
G01 X118.0070 Y241.2512
G01 X117.9697 Y241.2738
G01 X117.9314 Y241.2948
G01 X117.8923 Y241.3141
G01 X117.8524 Y241.3317
G01 X117.8117 Y241.3475
G01 X117.7704 Y241.3615
G01 X117.7285 Y241.3737
G01 X117.6861 Y241.3841
G01 X117.6433 Y241.3926
G01 X117.6002 Y241.3992
G01 X117.5569 Y241.4040
G01 X117.5133 Y241.4068
G01 X117.4697 Y241.4078
G01 X97.0439
G01 Y254.0640
G01 X122.5456
G01 X122.5264 Y253.7409
G01 X122.4822 Y253.4203
G01 X122.4133 Y253.1040
G01 X122.3200 Y252.7940
G01 X122.2029 Y252.4922
G01 X122.0628 Y252.2004
G01 X121.9005 Y251.9204
G01 X121.7170 Y251.6538
G01 X121.5133 Y251.4022
G01 X121.2907 Y251.1672
G01 X121.0506 Y250.9501
G01 X120.7943 Y250.7524
G01 X120.5235 Y250.5751
G01 X120.2397 Y250.4193
G01 X119.9447 Y250.2861
G01 X119.6403 Y250.1761
G01 X119.3282 Y250.0900
G01 X119.0105 Y250.0285
G01 X118.6889 Y249.9917
G01 X118.3654 Y249.9801
G01 X102.1299
G01 X102.0514 Y249.9770
G01 X101.9734 Y249.9677
G01 X101.8964 Y249.9524
G01 X101.8208 Y249.9311
G01 X101.7472 Y249.9039
G01 X101.6759 Y249.8711
G01 X101.6074 Y249.8327
G01 X101.5421 Y249.7891
G01 X101.4804 Y249.7405
G01 X101.4227 Y249.6872
G01 X101.3694 Y249.6295
G01 X101.3208 Y249.5678
G01 X101.2772 Y249.5026
G01 X101.2388 Y249.4340
G01 X101.2060 Y249.3627
G01 X101.1788 Y249.2891
G01 X101.1575 Y249.2135
G01 X101.1422 Y249.1365
G01 X101.1329 Y249.0585
G01 X101.1298 Y248.9801
G01 X101.1299 Y246.4937
G01 X101.1308 Y246.4501
G01 X101.1337 Y246.4066
G01 X101.1384 Y246.3632
G01 X101.1450 Y246.3201
G01 X101.1536 Y246.2773
G01 X101.1639 Y246.2349
G01 X101.1761 Y246.1930
G01 X101.1902 Y246.1517
G01 X101.2060 Y246.1110
G01 X101.2235 Y246.0711
G01 X101.2428 Y246.0320
G01 X101.2638 Y245.9937
G01 X101.2865 Y245.9564
G01 X101.3107 Y245.9202
G01 X101.3365 Y245.8850
G01 X101.3638 Y245.8509
G01 X101.3926 Y245.8181
G01 X101.4227 Y245.7866
G01 X101.4543 Y245.7565
G01 X101.4871 Y245.7277
G01 X101.5211 Y245.7004
G01 X101.5563 Y245.6746
G01 X101.5926 Y245.6503
G01 X101.6299 Y245.6277
G01 X101.6681 Y245.6067
G01 X101.7072 Y245.5874
G01 X101.7472 Y245.5698
G01 X101.7878 Y245.5540
G01 X101.8291 Y245.5400
G01 X101.8710 Y245.5278
G01 X101.9134 Y245.5174
G01 X101.9562 Y245.5089
G01 X101.9993 Y245.5023
G01 X102.0427 Y245.4975
G01 X102.0862 Y245.4947
G01 X102.1299 Y245.4937
G01 X122.5556
G01 Y234.4613
G01 X122.3556 Y234.4508
G01 Z-6.0000 F400
G01 X97.6219 F1000
G01 X98.8710 Y235.9508
G01 X122.3556
G01 Y237.4508
G01 X118.5722
G01 X118.6697 Y238.9508
G01 X122.3556
G01 Y240.4508
G01 X118.6680
G01 X122.3556 Y241.9508
G01 X97.2439
G01 Y243.4508
G01 X122.3556
G01 Y244.9508
G01 X97.2439
G01 Y246.4508
G01 X100.9315
G01 X100.9299 Y247.9508
G01 X97.2439
G01 Y249.4508
G01 X101.0265
G01 X97.2439 Y250.9508
G01 X120.7242
G01 X121.9787 Y252.4508
G01 X97.2439
G01 X97.0439 Y252.4402
G01 Y254.0640
G01 X122.5456
G01 X122.5264 Y253.7409
G01 X122.4822 Y253.4203
G01 X122.4133 Y253.1040
G01 X122.3200 Y252.7940
G01 X122.2029 Y252.4922
G01 X122.0628 Y252.2004
G01 X121.9005 Y251.9204
G01 X121.7170 Y251.6538
G01 X121.5133 Y251.4022
G01 X121.2907 Y251.1672
G01 X121.0506 Y250.9501
G01 X120.7943 Y250.7524
G01 X120.5235 Y250.5751
G01 X120.2397 Y250.4193
G01 X119.9447 Y250.2861
G01 X119.6403 Y250.1761
G01 X119.3282 Y250.0900
G01 X119.0105 Y250.0285
G01 X118.6889 Y249.9917
G01 X118.3654 Y249.9801
G01 X102.1299
G01 X102.0514 Y249.9770
G01 X101.9734 Y249.9677
G01 X101.8964 Y249.9524
G01 X101.8208 Y249.9311
G01 X101.7472 Y249.9039
G01 X101.6759 Y249.8711
G01 X101.6074 Y249.8327
G01 X101.5421 Y249.7891
G01 X101.4804 Y249.7405
G01 X101.4227 Y249.6872
G01 X101.3694 Y249.6295
G01 X101.3208 Y249.5678
G01 X101.2772 Y249.5026
G01 X101.2388 Y249.4340
G01 X101.2060 Y249.3627
G01 X101.1788 Y249.2891
G01 X101.1575 Y249.2135
G01 X101.1422 Y249.1365
G01 X101.1329 Y249.0585
G01 X101.1298 Y248.9801
G01 X101.1299 Y246.4937
G01 X101.1308 Y246.4501
G01 X101.1337 Y246.4066
G01 X101.1384 Y246.3632
G01 X101.1450 Y246.3201
G01 X101.1536 Y246.2773
G01 X101.1639 Y246.2349
G01 X101.1761 Y246.1930
G01 X101.1902 Y246.1517
G01 X101.2060 Y246.1110
G01 X101.2235 Y246.0711
G01 X101.2428 Y246.0320
G01 X101.2638 Y245.9937
G01 X101.2865 Y245.9564
G01 X101.3107 Y245.9202
G01 X101.3365 Y245.8850
G01 X101.3638 Y245.8509
G01 X101.3926 Y245.8181
G01 X101.4227 Y245.7866
G01 X101.4543 Y245.7565
G01 X101.4871 Y245.7277
G01 X101.5211 Y245.7004
G01 X101.5563 Y245.6746
G01 X101.5926 Y245.6503
G01 X101.6299 Y245.6277
G01 X101.6681 Y245.6067
G01 X101.7072 Y245.5874
G01 X101.7472 Y245.5698
G01 X101.7878 Y245.5540
G01 X101.8291 Y245.5400
G01 X101.8710 Y245.5278
G01 X101.9134 Y245.5174
G01 X101.9562 Y245.5089
G01 X101.9993 Y245.5023
G01 X102.0427 Y245.4975
G01 X102.0862 Y245.4947
G01 X102.1299 Y245.4937
G01 X122.5556
G01 Y232.8375
G01 X97.0539
G01 X97.0732 Y233.1606
G01 X97.1174 Y233.4813
G01 X97.1864 Y233.7976
G01 X97.2797 Y234.1077
G01 X97.3967 Y234.4095
G01 X97.5368 Y234.7013
G01 X97.6991 Y234.9815
G01 X97.8827 Y235.2481
G01 X98.0863 Y235.4998
G01 X98.3089 Y235.7349
G01 X98.5490 Y235.9520
G01 X98.8052 Y236.1499
G01 X99.0760 Y236.3273
G01 X99.3598 Y236.4832
G01 X99.6547 Y236.6166
G01 X99.9592 Y236.7267
G01 X100.2712 Y236.8129
G01 X100.5890 Y236.8746
G01 X100.9106 Y236.9116
G01 X101.2342 Y236.9234
G01 X117.4697
G01 X117.5133 Y236.9244
G01 X117.5569 Y236.9272
G01 X117.6002 Y236.9320
G01 X117.6433 Y236.9386
G01 X117.6861 Y236.9471
G01 X117.7285 Y236.9575
G01 X117.7704 Y236.9697
G01 X117.8117 Y236.9837
G01 X117.8524 Y236.9995
G01 X117.8923 Y237.0171
G01 X117.9314 Y237.0364
G01 X117.9697 Y237.0574
G01 X118.0070 Y237.0800
G01 X118.0433 Y237.1043
G01 X118.0785 Y237.1301
G01 X118.1125 Y237.1574
G01 X118.1453 Y237.1861
G01 X118.1768 Y237.2163
G01 X118.2070 Y237.2478
G01 X118.2357 Y237.2806
G01 X118.2631 Y237.3147
G01 X118.2889 Y237.3498
G01 X118.3131 Y237.3861
G01 X118.3357 Y237.4234
G01 X118.3567 Y237.4617
G01 X118.3760 Y237.5008
G01 X118.3936 Y237.5407
G01 X118.4094 Y237.5814
G01 X118.4234 Y237.6227
G01 X118.4356 Y237.6646
G01 X118.4460 Y237.7070
G01 X118.4545 Y237.7498
G01 X118.4611 Y237.7929
G01 X118.4659 Y237.8363
G01 X118.4687 Y237.8798
G01 X118.4697 Y237.9234
G01 Y240.4078
G01 X118.4687 Y240.4514
G01 X118.4659 Y240.4949
G01 X118.4611 Y240.5383
G01 X118.4545 Y240.5814
G01 X118.4460 Y240.6242
G01 X118.4356 Y240.6666
G01 X118.4234 Y240.7085
G01 X118.4094 Y240.7498
G01 X118.3936 Y240.7905
G01 X118.3760 Y240.8304
G01 X118.3567 Y240.8695
G01 X118.3357 Y240.9078
G01 X118.3131 Y240.9451
G01 X118.2889 Y240.9814
G01 X118.2631 Y241.0166
G01 X118.2357 Y241.0506
G01 X118.2070 Y241.0834
G01 X118.1768 Y241.1149
G01 X118.1453 Y241.1451
G01 X118.1125 Y241.1738
G01 X118.0785 Y241.2011
G01 X118.0433 Y241.2269
G01 X118.0070 Y241.2512
G01 X117.9697 Y241.2738
G01 X117.9314 Y241.2948
G01 X117.8923 Y241.3141
G01 X117.8524 Y241.3317
G01 X117.8117 Y241.3475
G01 X117.7704 Y241.3615
G01 X117.7285 Y241.3737
G01 X117.6861 Y241.3841
G01 X117.6433 Y241.3926
G01 X117.6002 Y241.3992
G01 X117.5569 Y241.4040
G01 X117.5133 Y241.4068
G01 X117.4697 Y241.4078
G01 X97.0439
G01 Y252.4402
G01 X97.2439 Y252.4508
M107
G00 Z2.0000


;No. 6: Hole 6
G00 X130.5408 Y252.4508 Z2.0000
G00 Z0.5000
G01 Z0.0000 F400
G01 Z-2.0000
M106 S240
G01 X134.2267 F1000
G01 Y250.9508
G01 X130.5408
G01 Y249.4508
G01 X134.2267
G01 Y247.9508
G01 X130.5408
G01 Y246.4508
G01 X134.2267
G01 Y244.9508
G01 X130.5408
G01 Y243.4508
G01 X134.2267
G01 Y241.9508
G01 X130.5408
G01 Y240.4508
G01 X134.2267
G01 Y238.9508
G01 X130.5408
G01 Y237.4508
G01 X134.3243
G01 X130.5408 Y235.9508
G01 X155.5122
G01 X154.7142 Y234.4508
G01 X130.5408
G01 X130.3408 Y234.4621
G01 Y254.0640
G01 X134.4267
G01 Y237.9234
G01 X134.4299 Y237.8445
G01 X134.4392 Y237.7660
G01 X134.4547 Y237.6885
G01 X134.4763 Y237.6125
G01 X134.5038 Y237.5384
G01 X134.5371 Y237.4668
G01 X134.5759 Y237.3979
G01 X134.6201 Y237.3324
G01 X134.6693 Y237.2705
G01 X134.7232 Y237.2128
G01 X134.7815 Y237.1594
G01 X134.8438 Y237.1109
G01 X134.9098 Y237.0674
G01 X134.9790 Y237.0292
G01 X135.0510 Y236.9967
G01 X135.1253 Y236.9699
G01 X135.2016 Y236.9491
G01 X135.2792 Y236.9343
G01 X135.3577 Y236.9258
G01 X135.4367 Y236.9234
G01 X155.8425
G01 X155.8231 Y236.6003
G01 X155.7788 Y236.2796
G01 X155.7097 Y235.9634
G01 X155.6163 Y235.6535
G01 X155.4992 Y235.3517
G01 X155.3591 Y235.0599
G01 X155.1968 Y234.7798
G01 X155.0132 Y234.5132
G01 X154.8096 Y234.2616
G01 X154.5870 Y234.0265
G01 X154.3469 Y233.8094
G01 X154.0907 Y233.6116
G01 X153.8200 Y233.4341
G01 X153.5363 Y233.2782
G01 X153.2414 Y233.1448
G01 X152.9370 Y233.0346
G01 X152.6250 Y232.9483
G01 X152.3073 Y232.8865
G01 X151.9857 Y232.8495
G01 X151.6622 Y232.8375
G01 X130.3408
G01 Y234.4621
G01 X130.5408 Y234.4508
G01 Z-4.0000 F400
G01 X154.7142 F1000
G01 X155.5122 Y235.9508
G01 X130.5408
G01 Y237.4508
G01 X134.3243
G01 X134.2267 Y238.9508
G01 X130.5408
G01 Y240.4508
G01 X134.2267
G01 Y241.9508
G01 X130.5408
G01 Y243.4508
G01 X134.2267
G01 Y244.9508
G01 X130.5408
G01 Y246.4508
G01 X134.2267
G01 Y247.9508
G01 X130.5408
G01 Y249.4508
G01 X134.2267
G01 Y250.9508
G01 X130.5408
G01 Y252.4508
G01 X134.2267
G01 X134.4267 Y252.4398
G01 Y237.9234
G01 X134.4299 Y237.8445
G01 X134.4392 Y237.7660
G01 X134.4547 Y237.6885
G01 X134.4763 Y237.6125
G01 X134.5038 Y237.5384
G01 X134.5371 Y237.4668
G01 X134.5759 Y237.3979
G01 X134.6201 Y237.3324
G01 X134.6693 Y237.2705
G01 X134.7232 Y237.2128
G01 X134.7815 Y237.1594
G01 X134.8438 Y237.1109
G01 X134.9098 Y237.0674
G01 X134.9790 Y237.0292
G01 X135.0510 Y236.9967
G01 X135.1253 Y236.9699
G01 X135.2016 Y236.9491
G01 X135.2792 Y236.9343
G01 X135.3577 Y236.9258
G01 X135.4367 Y236.9234
G01 X155.8425
G01 X155.8231 Y236.6003
G01 X155.7788 Y236.2796
G01 X155.7097 Y235.9634
G01 X155.6163 Y235.6535
G01 X155.4992 Y235.3517
G01 X155.3591 Y235.0599
G01 X155.1968 Y234.7798
G01 X155.0132 Y234.5132
G01 X154.8096 Y234.2616
G01 X154.5870 Y234.0265
G01 X154.3469 Y233.8094
G01 X154.0907 Y233.6116
G01 X153.8200 Y233.4341
G01 X153.5363 Y233.2782
G01 X153.2414 Y233.1448
G01 X152.9370 Y233.0346
G01 X152.6250 Y232.9483
G01 X152.3073 Y232.8865
G01 X151.9857 Y232.8495
G01 X151.6622 Y232.8375
G01 X130.3408
G01 Y254.0640
G01 X134.4267
G01 Y252.4398
G01 X134.2267 Y252.4508
G01 Z-6.0000 F400
G01 X130.5408 F1000
G01 Y250.9508
G01 X134.2267
G01 Y249.4508
G01 X130.5408
G01 Y247.9508
G01 X134.2267
G01 Y246.4508
G01 X130.5408
G01 Y244.9508
G01 X134.2267
G01 Y243.4508
G01 X130.5408
G01 Y241.9508
G01 X134.2267
G01 Y240.4508
G01 X130.5408
G01 Y238.9508
G01 X134.2267
G01 X134.3243 Y237.4508
G01 X130.5408
G01 Y235.9508
G01 X155.5122
G01 X154.7142 Y234.4508
G01 X130.5408
G01 X130.3408 Y234.4621
G01 Y254.0640
G01 X134.4267
G01 Y237.9234
G01 X134.4299 Y237.8445
G01 X134.4392 Y237.7660
G01 X134.4547 Y237.6885
G01 X134.4763 Y237.6125
G01 X134.5038 Y237.5384
G01 X134.5371 Y237.4668
G01 X134.5759 Y237.3979
G01 X134.6201 Y237.3324
G01 X134.6693 Y237.2705
G01 X134.7232 Y237.2128
G01 X134.7815 Y237.1594
G01 X134.8438 Y237.1109
G01 X134.9098 Y237.0674
G01 X134.9790 Y237.0292
G01 X135.0510 Y236.9967
G01 X135.1253 Y236.9699
G01 X135.2016 Y236.9491
G01 X135.2792 Y236.9343
G01 X135.3577 Y236.9258
G01 X135.4367 Y236.9234
G01 X155.8425
G01 X155.8231 Y236.6003
G01 X155.7788 Y236.2796
G01 X155.7097 Y235.9634
G01 X155.6163 Y235.6535
G01 X155.4992 Y235.3517
G01 X155.3591 Y235.0599
G01 X155.1968 Y234.7798
G01 X155.0132 Y234.5132
G01 X154.8096 Y234.2616
G01 X154.5870 Y234.0265
G01 X154.3469 Y233.8094
G01 X154.0907 Y233.6116
G01 X153.8200 Y233.4341
G01 X153.5363 Y233.2782
G01 X153.2414 Y233.1448
G01 X152.9370 Y233.0346
G01 X152.6250 Y232.9483
G01 X152.3073 Y232.8865
G01 X151.9857 Y232.8495
G01 X151.6622 Y232.8375
G01 X130.3408
G01 Y234.4621
G01 X130.5408 Y234.4508
M107
G00 Z2.0000


;No. 7: Hole 7
G00 X164.0799 Y252.7721 Z2.0000
G00 Z0.5000
G01 Z0.0000 F400
G01 Z-2.0000
M106 S240
G01 X188.7095 F1000
G01 X187.7062 Y251.2721
G01 X165.0502
G01 X164.9352 Y251.1056
G01 X164.7414 Y251.3023
G01 X164.5612 Y251.5115
G01 X164.3954 Y251.7323
G01 X164.2447 Y251.9637
G01 X164.1099 Y252.2046
G01 X163.9914 Y252.4540
G01 X163.8899 Y252.7108
G01 X163.8058 Y252.9738
G01 X163.7394 Y253.2418
G01 X163.6912 Y253.5137
G01 X163.6612 Y253.7882
G01 X163.6496 Y254.0640
G01 X189.1415 Y254.0641
G01 X189.1224 Y253.7409
G01 X189.0782 Y253.4202
G01 X189.0093 Y253.1039
G01 X188.9160 Y252.7940
G01 X188.7990 Y252.4921
G01 X188.6589 Y252.2003
G01 X188.4966 Y251.9202
G01 X188.3131 Y251.6536
G01 X188.1094 Y251.4020
G01 X187.8868 Y251.1670
G01 X187.6466 Y250.9499
G01 X187.3904 Y250.7521
G01 X187.1195 Y250.5748
G01 X186.8357 Y250.4191
G01 X186.5407 Y250.2859
G01 X186.2363 Y250.1759
G01 X185.9242 Y250.0899
G01 X185.6064 Y250.0284
G01 X185.2848 Y249.9917
G01 X184.9613 Y249.9801
G01 X167.8337
G01 X167.5681 Y249.9844
G01 X167.3034 Y250.0059
G01 X167.0405 Y250.0443
G01 X166.7807 Y250.0996
G01 X166.5250 Y250.1714
G01 X166.2744 Y250.2595
G01 X166.0300 Y250.3636
G01 X165.7929 Y250.4831
G01 X165.5638 Y250.6177
G01 X165.3440 Y250.7667
G01 X165.1341 Y250.9296
G01 X164.9352 Y251.1056
G01 X165.0502 Y251.2721
G01 Z-4.0000 F400
G01 X187.7062 F1000
G01 X188.7095 Y252.7721
G01 X164.0799
G01 X163.8954 Y252.6942
G01 X163.7883 Y253.0270
G01 X163.7113 Y253.3681
G01 X163.6649 Y253.7147
G01 X163.6496 Y254.0640
G01 X189.1415 Y254.0641
G01 X189.1224 Y253.7409
G01 X189.0782 Y253.4202
G01 X189.0093 Y253.1039
G01 X188.9160 Y252.7940
G01 X188.7990 Y252.4921
G01 X188.6589 Y252.2003
G01 X188.4966 Y251.9202
G01 X188.3131 Y251.6536
G01 X188.1094 Y251.4020
G01 X187.8868 Y251.1670
G01 X187.6466 Y250.9499
G01 X187.3904 Y250.7521
G01 X187.1195 Y250.5748
G01 X186.8357 Y250.4191
G01 X186.5407 Y250.2859
G01 X186.2363 Y250.1759
G01 X185.9242 Y250.0899
G01 X185.6064 Y250.0284
G01 X185.2848 Y249.9917
G01 X184.9613 Y249.9801
G01 X167.8337
G01 X167.5148 Y249.9868
G01 X167.1974 Y250.0183
G01 X166.8834 Y250.0743
G01 X166.5746 Y250.1545
G01 X166.2731 Y250.2583
G01 X165.9805 Y250.3853
G01 X165.6986 Y250.5346
G01 X165.4291 Y250.7052
G01 X165.1737 Y250.8963
G01 X164.9338 Y251.1066
G01 X164.7110 Y251.3348
G01 X164.5066 Y251.5797
G01 X164.3218 Y251.8396
G01 X164.1577 Y252.1131
G01 X164.0153 Y252.3986
G01 X163.8954 Y252.6942
G01 X164.0799 Y252.7721
G01 Z-6.0000 F400
G01 X188.7095 F1000
G01 X187.7062 Y251.2721
G01 X165.0502
G01 X164.9352 Y251.1056
G01 X164.7414 Y251.3023
G01 X164.5612 Y251.5115
G01 X164.3954 Y251.7323
G01 X164.2447 Y251.9637
G01 X164.1099 Y252.2046
G01 X163.9914 Y252.4540
G01 X163.8899 Y252.7108
G01 X163.8058 Y252.9738
G01 X163.7394 Y253.2418
G01 X163.6912 Y253.5137
G01 X163.6612 Y253.7882
G01 X163.6496 Y254.0640
G01 X189.1415 Y254.0641
G01 X189.1224 Y253.7409
G01 X189.0782 Y253.4202
G01 X189.0093 Y253.1039
G01 X188.9160 Y252.7940
G01 X188.7990 Y252.4921
G01 X188.6589 Y252.2003
G01 X188.4966 Y251.9202
G01 X188.3131 Y251.6536
G01 X188.1094 Y251.4020
G01 X187.8868 Y251.1670
G01 X187.6466 Y250.9499
G01 X187.3904 Y250.7521
G01 X187.1195 Y250.5748
G01 X186.8357 Y250.4191
G01 X186.5407 Y250.2859
G01 X186.2363 Y250.1759
G01 X185.9242 Y250.0899
G01 X185.6064 Y250.0284
G01 X185.2848 Y249.9917
G01 X184.9613 Y249.9801
G01 X167.8337
G01 X167.5681 Y249.9844
G01 X167.3034 Y250.0059
G01 X167.0405 Y250.0443
G01 X166.7807 Y250.0996
G01 X166.5250 Y250.1714
G01 X166.2744 Y250.2595
G01 X166.0300 Y250.3636
G01 X165.7929 Y250.4831
G01 X165.5638 Y250.6177
G01 X165.3440 Y250.7667
G01 X165.1341 Y250.9296
G01 X164.9352 Y251.1056
G01 X165.0502 Y251.2721
M107
G00 Z2.0000


;No. 8: Hole 8
G00 X163.8396 Y244.4156 Z2.0000
G00 Z0.5000
G01 Z0.0000 F400
G01 Z-2.0000
M106 S240
G01 X188.9513 F1000
G01 Y242.9156
G01 X163.8396
G01 Y241.4156
G01 X168.0756
G01 X167.5256
G01 Y239.9156
G01 X163.8396
G01 Y238.4156
G01 X167.5256
G01 Y236.9156
G01 X163.8396
G01 Y235.4156
G01 X167.5256
G01 Y233.9156
G01 X163.8396
M107
G00 Z2.0000
G00 X184.7154 Y242.9156
G00 Z0.5000
G01 Z-2.0000 F400
M106 S240
G01 Y241.4156 F1000
G01 X188.9513
G01 Y239.9156
G01 X185.2654
G01 Y238.4156
G01 X188.9513
G01 Y236.9156
G01 X185.2654
G01 Y235.4156
G01 X188.9513
G01 Y233.9156
G01 X185.2654
G01 X185.0654 Y233.9309
G01 Y240.4078
G01 X185.0623 Y240.4863
G01 X185.0531 Y240.5642
G01 X185.0378 Y240.6412
G01 X185.0165 Y240.7168
G01 X184.9893 Y240.7905
G01 X184.9564 Y240.8618
G01 X184.9180 Y240.9303
G01 X184.8744 Y240.9956
G01 X184.8258 Y241.0572
G01 X184.7725 Y241.1149
G01 X184.7148 Y241.1682
G01 X184.6532 Y241.2168
G01 X184.5879 Y241.2604
G01 X184.5194 Y241.2988
G01 X184.4481 Y241.3317
G01 X184.3744 Y241.3588
G01 X184.2988 Y241.3802
G01 X184.2218 Y241.3955
G01 X184.1439 Y241.4047
G01 X184.0654 Y241.4078
G01 X168.7256
G01 X168.6819 Y241.4068
G01 X168.6384 Y241.4040
G01 X168.5950 Y241.3992
G01 X168.5519 Y241.3926
G01 X168.5091 Y241.3841
G01 X168.4667 Y241.3737
G01 X168.4249 Y241.3615
G01 X168.3835 Y241.3475
G01 X168.3429 Y241.3317
G01 X168.3029 Y241.3141
G01 X168.2638 Y241.2948
G01 X168.2256 Y241.2738
G01 X168.1883 Y241.2512
G01 X168.1520 Y241.2269
G01 X168.1168 Y241.2011
G01 X168.0828 Y241.1738
G01 X168.0500 Y241.1451
G01 X168.0185 Y241.1149
G01 X167.9883 Y241.0834
G01 X167.9595 Y241.0506
G01 X167.9322 Y241.0166
G01 X167.9064 Y240.9814
G01 X167.8822 Y240.9451
G01 X167.8595 Y240.9078
G01 X167.8385 Y240.8695
G01 X167.8193 Y240.8304
G01 X167.8017 Y240.7905
G01 X167.7859 Y240.7498
G01 X167.7718 Y240.7085
G01 X167.7596 Y240.6666
G01 X167.7493 Y240.6242
G01 X167.7408 Y240.5814
G01 X167.7341 Y240.5383
G01 X167.7294 Y240.4949
G01 X167.7265 Y240.4514
G01 X167.7256 Y240.4078
G01 Y232.8375
G01 X163.6396
G01 Y245.4937
G01 X189.1513
G01 Y232.8375
G01 X185.0654
G01 Y233.9309
G01 X185.2654 Y233.9156
G01 Z-4.0000 F400
G01 X188.9513 F1000
G01 Y235.4156
G01 X185.2654
G01 Y236.9156
G01 X188.9513
G01 Y238.4156
G01 X185.2654
G01 Y239.9156
G01 X188.9513
G01 Y241.4156
G01 X184.7154
G01 X188.9513 Y242.9156
G01 X163.8396
G01 Y241.4156
G01 X168.0756
G01 X167.5256
G01 Y239.9156
G01 X163.8396
G01 Y238.4156
G01 X167.5256
G01 Y236.9156
G01 X163.8396
G01 Y235.4156
G01 X167.5256
G01 Y233.9156
G01 X163.8396
M107
G00 Z2.0000
G00 Y242.9156
G00 Z-1.5000
G01 Z-4.0000 F400
M106 S240
G01 Y244.4156 F1000
G01 X188.9513
G01 X189.1513 Y244.3990
G01 Y232.8375
G01 X185.0654
G01 Y240.4078
G01 X185.0623 Y240.4863
G01 X185.0531 Y240.5642
G01 X185.0378 Y240.6412
G01 X185.0165 Y240.7168
G01 X184.9893 Y240.7905
G01 X184.9564 Y240.8618
G01 X184.9180 Y240.9303
G01 X184.8744 Y240.9956
G01 X184.8258 Y241.0572
G01 X184.7725 Y241.1149
G01 X184.7148 Y241.1682
G01 X184.6532 Y241.2168
G01 X184.5879 Y241.2604
G01 X184.5194 Y241.2988
G01 X184.4481 Y241.3317
G01 X184.3744 Y241.3588
G01 X184.2988 Y241.3802
G01 X184.2218 Y241.3955
G01 X184.1439 Y241.4047
G01 X184.0654 Y241.4078
G01 X168.7256
G01 X168.6819 Y241.4068
G01 X168.6384 Y241.4040
G01 X168.5950 Y241.3992
G01 X168.5519 Y241.3926
G01 X168.5091 Y241.3841
G01 X168.4667 Y241.3737
G01 X168.4249 Y241.3615
G01 X168.3835 Y241.3475
G01 X168.3429 Y241.3317
G01 X168.3029 Y241.3141
G01 X168.2638 Y241.2948
G01 X168.2256 Y241.2738
G01 X168.1883 Y241.2512
G01 X168.1520 Y241.2269
G01 X168.1168 Y241.2011
G01 X168.0828 Y241.1738
G01 X168.0500 Y241.1451
G01 X168.0185 Y241.1149
G01 X167.9883 Y241.0834
G01 X167.9595 Y241.0506
G01 X167.9322 Y241.0166
G01 X167.9064 Y240.9814
G01 X167.8822 Y240.9451
G01 X167.8595 Y240.9078
G01 X167.8385 Y240.8695
G01 X167.8193 Y240.8304
G01 X167.8017 Y240.7905
G01 X167.7859 Y240.7498
G01 X167.7718 Y240.7085
G01 X167.7596 Y240.6666
G01 X167.7493 Y240.6242
G01 X167.7408 Y240.5814
G01 X167.7341 Y240.5383
G01 X167.7294 Y240.4949
G01 X167.7265 Y240.4514
G01 X167.7256 Y240.4078
G01 Y232.8375
G01 X163.6396
G01 Y245.4937
G01 X189.1513
G01 Y244.3990
G01 X188.9513 Y244.4156
G01 Z-6.0000 F400
G01 X163.8396 F1000
G01 Y242.9156
G01 X188.9513
G01 Y241.4156
G01 X184.7154
G01 X185.2654
G01 Y239.9156
G01 X188.9513
G01 Y238.4156
G01 X185.2654
G01 Y236.9156
G01 X188.9513
G01 Y235.4156
G01 X185.2654
G01 Y233.9156
G01 X188.9513
M107
G00 Z2.0000
G00 X168.0756 Y242.9156
G00 Z-3.5000
G01 Z-6.0000 F400
M106 S240
G01 Y241.4156 F1000
G01 X163.8396
G01 Y239.9156
G01 X167.5256
G01 Y238.4156
G01 X163.8396
G01 Y236.9156
G01 X167.5256
G01 Y235.4156
G01 X163.8396
G01 Y233.9156
G01 X167.5256
G01 X167.7256 Y233.9309
G01 Y232.8375
G01 X163.6396
G01 Y245.4937
G01 X189.1513
G01 Y232.8375
G01 X185.0654
G01 Y240.4078
G01 X185.0623 Y240.4863
G01 X185.0531 Y240.5642
G01 X185.0378 Y240.6412
G01 X185.0165 Y240.7168
G01 X184.9893 Y240.7905
G01 X184.9564 Y240.8618
G01 X184.9180 Y240.9303
G01 X184.8744 Y240.9956
G01 X184.8258 Y241.0572
G01 X184.7725 Y241.1149
G01 X184.7148 Y241.1682
G01 X184.6532 Y241.2168
G01 X184.5879 Y241.2604
G01 X184.5194 Y241.2988
G01 X184.4481 Y241.3317
G01 X184.3744 Y241.3588
G01 X184.2988 Y241.3802
G01 X184.2218 Y241.3955
G01 X184.1439 Y241.4047
G01 X184.0654 Y241.4078
G01 X168.7256
G01 X168.6819 Y241.4068
G01 X168.6384 Y241.4040
G01 X168.5950 Y241.3992
G01 X168.5519 Y241.3926
G01 X168.5091 Y241.3841
G01 X168.4667 Y241.3737
G01 X168.4249 Y241.3615
G01 X168.3835 Y241.3475
G01 X168.3429 Y241.3317
G01 X168.3029 Y241.3141
G01 X168.2638 Y241.2948
G01 X168.2256 Y241.2738
G01 X168.1883 Y241.2512
G01 X168.1520 Y241.2269
G01 X168.1168 Y241.2011
G01 X168.0828 Y241.1738
G01 X168.0500 Y241.1451
G01 X168.0185 Y241.1149
G01 X167.9883 Y241.0834
G01 X167.9595 Y241.0506
G01 X167.9322 Y241.0166
G01 X167.9064 Y240.9814
G01 X167.8822 Y240.9451
G01 X167.8595 Y240.9078
G01 X167.8385 Y240.8695
G01 X167.8193 Y240.8304
G01 X167.8017 Y240.7905
G01 X167.7859 Y240.7498
G01 X167.7718 Y240.7085
G01 X167.7596 Y240.6666
G01 X167.7493 Y240.6242
G01 X167.7408 Y240.5814
G01 X167.7341 Y240.5383
G01 X167.7294 Y240.4949
G01 X167.7265 Y240.4514
G01 X167.7256 Y240.4078
G01 Y233.9309
G01 X167.5256 Y233.9156
M107
G00 Z2.0000


;No. 9: Hole 9
G00 X161.5641 Y211.2567 Z2.0000
G00 Z0.5000
G01 Z0.0000 F400
G01 Z-2.0000
M106 S240
G01 X144.3510 F1000
G01 X150.0999
G01 Y209.7567
G01 X165.8173
G01 X168.2145 Y208.2567
G01 X155.0303
G01 X159.3838 Y206.7567
G01 X167.5129
G01 X166.7836 Y205.2567
G01 X163.2989
M107
G00 Z2.0000
G00 X156.9177 Y211.2567
G00 Z0.5000
G01 Z-2.0000 F400
M106 S240
G01 Y212.7567 F1000
G01 X137.2675
G01 Y214.2567
G01 X127.1971
G01 X151.7402
G01 X145.7919
G01 Y215.7567
G01 X73.8151
G01 Y214.2567
G01 X67.8357
G01 X92.4785
G01 X82.2616
G01 Y212.7567
G01 X62.6333
G01 X57.9812 Y211.2567
G01 X75.1643
G01 X69.4439
G01 Y209.7567
G01 X53.7572
G01 X51.3556 Y208.2567
G01 X64.5447
G01 X60.2060 Y206.7567
G01 X52.0731
G01 X52.8163 Y205.2567
G01 X56.2788
M107
G00 Z2.0000
G00 X81.0334 Y215.7567
G00 Z0.5000
G01 Z-2.0000 F400
M106 S240
G01 Y217.2567 F1000
G01 X138.5894
G01 X128.7858
G01 Y218.7567
G01 X90.8038
G01 X90.6840 Y218.9433
G01 X92.7926 Y219.1925
G01 X94.9044 Y219.4126
G01 X97.0190 Y219.6037
G01 X99.1361 Y219.7656
G01 X101.2552 Y219.8984
G01 X103.3759 Y220.0020
G01 X105.4979 Y220.0764
G01 X107.6207 Y220.1215
G01 X109.7439 Y220.1375
G01 X111.8671 Y220.1242
G01 X113.9899 Y220.0817
G01 X116.1119 Y220.0100
G01 X118.2328 Y219.9091
G01 X120.3521 Y219.7790
G01 X122.4693 Y219.6197
G01 X124.5842 Y219.4313
G01 X126.6963 Y219.2138
G01 X128.8052 Y218.9673
G01 X130.9105 Y218.6917
G01 X133.0118 Y218.3873
G01 X135.2971 Y218.0275
G01 X137.5771 Y217.6360
G01 X139.8515 Y217.2130
G01 X142.1198 Y216.7584
G01 X144.3816 Y216.2724
G01 X146.6364 Y215.7551
G01 X148.8838 Y215.2065
G01 X151.1234 Y214.6268
G01 X153.3548 Y214.0161
G01 X155.5774 Y213.3746
G01 X157.7910 Y212.7022
G01 X159.9950 Y211.9992
G01 X162.1890 Y211.2657
G01 X164.3726 Y210.5018
G01 X166.5455 Y209.7077
G01 X168.7071 Y208.8835
G01 X168.1296 Y207.6038
G01 X167.5318 Y206.3334
G01 X166.9139 Y205.0727
G01 X166.2760 Y203.8220
G01 X165.3564 Y204.1906
G01 X164.4383 Y204.5628
G01 X163.5216 Y204.9386
G01 X162.6064 Y205.3180
G01 X160.7408 Y206.0318
G01 X158.8652 Y206.7190
G01 X156.9799 Y207.3794
G01 X155.0855 Y208.0128
G01 X153.1822 Y208.6191
G01 X151.2705 Y209.1982
G01 X149.3507 Y209.7500
G01 X147.4233 Y210.2744
G01 X145.4885 Y210.7712
G01 X143.5469 Y211.2404
G01 X141.5988 Y211.6819
G01 X139.6445 Y212.0955
G01 X137.6846 Y212.4812
G01 X135.7194 Y212.8390
G01 X133.7493 Y213.1687
G01 X131.7746 Y213.4702
G01 X129.7959 Y213.7436
G01 X127.8135 Y213.9887
G01 X125.8278 Y214.2056
G01 X123.8392 Y214.3941
G01 X122.4750 Y214.5000
G01 X121.1099 Y214.5936
G01 X119.7440 Y214.6747
G01 X118.3775 Y214.7434
G01 X117.0103 Y214.7997
G01 X115.6428 Y214.8435
G01 X114.2748 Y214.8748
G01 X112.9067 Y214.8937
G01 X111.4625 Y214.9175
G01 X110.0181 Y214.9302
G01 X108.5737 Y214.9320
G01 X107.1294 Y214.9227
G01 X105.6851 Y214.9025
G01 X104.2411 Y214.8712
G01 X102.7973 Y214.8290
G01 X101.3539 Y214.7757
G01 X99.5285 Y214.6766
G01 X97.7046 Y214.5538
G01 X95.8824 Y214.4074
G01 X94.0623 Y214.2374
G01 X92.2446 Y214.0439
G01 X90.4294 Y213.8268
G01 X88.6173 Y213.5862
G01 X86.8084 Y213.3222
G01 X85.0031 Y213.0348
G01 X83.2017 Y212.7240
G01 X81.4044 Y212.3899
G01 X79.6117 Y212.0325
G01 X77.8237 Y211.6520
G01 X76.0408 Y211.2483
G01 X74.2632 Y210.8216
G01 X72.4914 Y210.3719
G01 X70.7255 Y209.8992
G01 X68.9659 Y209.4037
G01 X67.2128 Y208.8855
G01 X65.4666 Y208.3446
G01 X63.9507 Y207.8450
G01 X62.4399 Y207.3298
G01 X60.9346 Y206.7991
G01 X59.4348 Y206.2528
G01 X57.9407 Y205.6912
G01 X56.4525 Y205.1141
G01 X54.9703 Y204.5218
G01 X53.4943 Y203.9142
G01 X53.3968 Y203.8775
G01 X53.3312 Y203.8531
G01 X52.6822 Y205.0923
G01 X52.0536 Y206.3419
G01 X51.4454 Y207.6015
G01 X50.8579 Y208.8710
G01 X52.7805 Y209.6089
G01 X54.7122 Y210.3226
G01 X56.6526 Y211.0122
G01 X58.6016 Y211.6775
G01 X60.5587 Y212.3184
G01 X62.5236 Y212.9348
G01 X64.4961 Y213.5265
G01 X66.4758 Y214.0936
G01 X68.4625 Y214.6359
G01 X70.4558 Y215.1533
G01 X72.4554 Y215.6457
G01 X74.4610 Y216.1131
G01 X76.4723 Y216.5554
G01 X78.4889 Y216.9725
G01 X80.5107 Y217.3644
G01 X82.5371 Y217.7310
G01 X84.5680 Y218.0723
G01 X86.6030 Y218.3881
G01 X88.6418 Y218.6785
G01 X90.6840 Y218.9433
G01 X90.8038 Y218.7567
G01 Z-4.0000 F400
G01 X128.7858 F1000
G01 Y217.2567
G01 X138.5894
G01 X81.0334
G01 Y215.7567
G01 X73.8151
G01 X145.7919
G01 Y214.2567
G01 X151.7402
G01 X127.1971
G01 X137.2675
G01 Y212.7567
G01 X156.9177
G01 X161.5641 Y211.2567
G01 X144.3510
G01 X150.0999
G01 Y209.7567
G01 X165.8173
G01 X168.2145 Y208.2567
G01 X155.0303
G01 X159.3838 Y206.7567
G01 X167.5129
G01 X166.7836 Y205.2567
G01 X163.2989
M107
G00 Z2.0000
G00 X92.4785 Y215.7567
G00 Z-1.5000
G01 Z-4.0000 F400
M106 S240
G01 Y214.2567 F1000
G01 X67.8357
G01 Y212.7567
G01 X62.6333
G01 X82.2616
G01 X75.1643
G01 Y211.2567
G01 X57.9812
G01 X53.7572 Y209.7567
G01 X69.4439
G01 X64.5447
G01 Y208.2567
G01 X51.3556
G01 X52.0731 Y206.7567
G01 X60.2060
G01 X56.2788 Y205.2567
G01 X52.8163
G01 X52.6335 Y205.1749
G01 X52.1745 Y206.0916
G01 X51.7256 Y207.0133
G01 X51.2867 Y207.9398
G01 X50.8579 Y208.8710
G01 X53.0327 Y209.7033
G01 X55.2191 Y210.5047
G01 X57.4166 Y211.2752
G01 X59.6248 Y212.0144
G01 X61.8433 Y212.7223
G01 X64.0715 Y213.3987
G01 X66.3091 Y214.0435
G01 X68.5556 Y214.6566
G01 X70.8106 Y215.2378
G01 X73.0735 Y215.7870
G01 X75.3440 Y216.3041
G01 X77.6216 Y216.7890
G01 X79.9059 Y217.2416
G01 X82.1963 Y217.6619
G01 X84.4924 Y218.0497
G01 X86.7938 Y218.4049
G01 X89.1000 Y218.7275
G01 X91.4106 Y219.0175
G01 X93.7250 Y219.2747
G01 X96.0428 Y219.4991
G01 X98.3635 Y219.6906
G01 X100.6868 Y219.8493
G01 X103.0120 Y219.9751
G01 X105.3388 Y220.0680
G01 X107.2818 Y220.1090
G01 X109.2251 Y220.1261
G01 X111.1685 Y220.1193
G01 X113.1116 Y220.0887
G01 X115.0543 Y220.0342
G01 X116.9961 Y219.9558
G01 X118.9368 Y219.8536
G01 X120.8761 Y219.7275
G01 X122.8137 Y219.5777
G01 X124.7493 Y219.4040
G01 X126.6826 Y219.2066
G01 X128.6134 Y218.9854
G01 X130.5413 Y218.7405
G01 X132.4660 Y218.4720
G01 X134.3873 Y218.1798
G01 X136.3049 Y217.8641
G01 X138.3773 Y217.4949
G01 X140.4448 Y217.0998
G01 X142.5073 Y216.6788
G01 X144.5643 Y216.2319
G01 X146.6156 Y215.7592
G01 X148.6607 Y215.2609
G01 X150.6995 Y214.7370
G01 X152.7315 Y214.1875
G01 X154.7565 Y213.6125
G01 X156.7741 Y213.0122
G01 X158.7840 Y212.3867
G01 X160.7858 Y211.7359
G01 X162.7794 Y211.0602
G01 X164.7644 Y210.3594
G01 X166.7403 Y209.6338
G01 X168.7071 Y208.8835
G01 X168.1296 Y207.6038
G01 X167.5318 Y206.3334
G01 X166.9139 Y205.0727
G01 X166.2760 Y203.8220
G01 X165.3564 Y204.1906
G01 X164.4383 Y204.5628
G01 X163.5216 Y204.9386
G01 X162.6064 Y205.3180
G01 X160.7408 Y206.0318
G01 X158.8652 Y206.7190
G01 X156.9799 Y207.3794
G01 X155.0855 Y208.0128
G01 X153.1822 Y208.6191
G01 X151.2705 Y209.1982
G01 X149.3507 Y209.7500
G01 X147.4233 Y210.2744
G01 X145.4885 Y210.7712
G01 X143.5469 Y211.2404
G01 X141.5988 Y211.6819
G01 X139.6445 Y212.0955
G01 X137.6846 Y212.4812
G01 X135.7194 Y212.8390
G01 X133.7493 Y213.1687
G01 X131.7746 Y213.4702
G01 X129.7959 Y213.7436
G01 X127.8135 Y213.9887
G01 X125.8278 Y214.2056
G01 X123.8392 Y214.3941
G01 X122.4750 Y214.5000
G01 X121.1099 Y214.5936
G01 X119.7440 Y214.6747
G01 X118.3775 Y214.7434
G01 X117.0103 Y214.7997
G01 X115.6428 Y214.8435
G01 X114.2748 Y214.8748
G01 X112.9067 Y214.8937
G01 X111.4625 Y214.9175
G01 X110.0181 Y214.9302
G01 X108.5737 Y214.9320
G01 X107.1294 Y214.9227
G01 X105.6851 Y214.9025
G01 X104.2411 Y214.8712
G01 X102.7973 Y214.8290
G01 X101.3539 Y214.7757
G01 X99.5285 Y214.6766
G01 X97.7046 Y214.5538
G01 X95.8824 Y214.4074
G01 X94.0623 Y214.2374
G01 X92.2446 Y214.0439
G01 X90.4294 Y213.8268
G01 X88.6173 Y213.5862
G01 X86.8084 Y213.3222
G01 X85.0031 Y213.0348
G01 X83.2017 Y212.7240
G01 X81.4044 Y212.3899
G01 X79.6117 Y212.0325
G01 X77.8237 Y211.6520
G01 X76.0408 Y211.2483
G01 X74.2632 Y210.8216
G01 X72.4914 Y210.3719
G01 X70.7255 Y209.8992
G01 X68.9659 Y209.4037
G01 X67.2128 Y208.8855
G01 X65.4666 Y208.3446
G01 X63.9507 Y207.8450
G01 X62.4399 Y207.3298
G01 X60.9346 Y206.7991
G01 X59.4348 Y206.2528
G01 X57.9407 Y205.6912
G01 X56.4525 Y205.1141
G01 X54.9703 Y204.5218
G01 X53.4943 Y203.9142
G01 X53.3968 Y203.8775
G01 X53.3312 Y203.8531
G01 X53.1509 Y204.1804
G01 X52.9745 Y204.5099
G01 X52.8020 Y204.8414
G01 X52.6335 Y205.1749
G01 X52.8163 Y205.2567
G01 Z-6.0000 F400
G01 X56.2788 F1000
G01 X60.2060 Y206.7567
G01 X52.0731
G01 X51.3556 Y208.2567
G01 X64.5447
G01 Y209.7567
G01 X69.4439
G01 X53.7572
G01 X57.9812 Y211.2567
G01 X75.1643
G01 Y212.7567
G01 X82.2616
G01 X62.6333
G01 X67.8357
G01 Y214.2567
G01 X92.4785
G01 Y215.7567
G01 X73.8151
G01 X145.7919
G01 Y214.2567
G01 X151.7402
G01 X127.1971
G01 X137.2675
G01 Y212.7567
G01 X156.9177
G01 X161.5641 Y211.2567
G01 X144.3510
G01 X150.0999
G01 Y209.7567
G01 X165.8173
G01 X168.2145 Y208.2567
G01 X155.0303
G01 X159.3838 Y206.7567
G01 X167.5129
G01 X166.7836 Y205.2567
G01 X163.2989
M107
G00 Z2.0000
G00 X138.5894 Y215.7567
G00 Z-3.5000
G01 Z-6.0000 F400
M106 S240
G01 Y217.2567 F1000
G01 X81.0334
G01 X90.8038
G01 Y218.7567
G01 X128.7858
G01 X128.9063 Y218.9433
G01 X130.9469 Y218.6772
G01 X132.9840 Y218.3857
G01 X135.0174 Y218.0690
G01 X137.0467 Y217.7271
G01 X139.0715 Y217.3600
G01 X141.0917 Y216.9679
G01 X143.1069 Y216.5507
G01 X145.1167 Y216.1085
G01 X147.1209 Y215.6415
G01 X149.1191 Y215.1496
G01 X151.1111 Y214.6329
G01 X153.0965 Y214.0916
G01 X155.0750 Y213.5257
G01 X157.0464 Y212.9353
G01 X159.0103 Y212.3204
G01 X160.9664 Y211.6813
G01 X162.9145 Y211.0179
G01 X164.8541 Y210.3304
G01 X166.7851 Y209.6189
G01 X168.7071 Y208.8835
G01 X168.1296 Y207.6038
G01 X167.5318 Y206.3334
G01 X166.9139 Y205.0727
G01 X166.2760 Y203.8220
G01 X165.3564 Y204.1906
G01 X164.4383 Y204.5628
G01 X163.5216 Y204.9386
G01 X162.6064 Y205.3180
G01 X160.7408 Y206.0318
G01 X158.8652 Y206.7190
G01 X156.9799 Y207.3794
G01 X155.0855 Y208.0128
G01 X153.1822 Y208.6191
G01 X151.2705 Y209.1982
G01 X149.3507 Y209.7500
G01 X147.4233 Y210.2744
G01 X145.4885 Y210.7712
G01 X143.5469 Y211.2404
G01 X141.5988 Y211.6819
G01 X139.6445 Y212.0955
G01 X137.6846 Y212.4812
G01 X135.7194 Y212.8390
G01 X133.7493 Y213.1687
G01 X131.7746 Y213.4702
G01 X129.7959 Y213.7436
G01 X127.8135 Y213.9887
G01 X125.8278 Y214.2056
G01 X123.8392 Y214.3941
G01 X122.4750 Y214.5000
G01 X121.1099 Y214.5936
G01 X119.7440 Y214.6747
G01 X118.3775 Y214.7434
G01 X117.0103 Y214.7997
G01 X115.6428 Y214.8435
G01 X114.2748 Y214.8748
G01 X112.9067 Y214.8937
G01 X111.4625 Y214.9175
G01 X110.0181 Y214.9302
G01 X108.5737 Y214.9320
G01 X107.1294 Y214.9227
G01 X105.6851 Y214.9025
G01 X104.2411 Y214.8712
G01 X102.7973 Y214.8290
G01 X101.3539 Y214.7757
G01 X99.5285 Y214.6766
G01 X97.7046 Y214.5538
G01 X95.8824 Y214.4074
G01 X94.0623 Y214.2374
G01 X92.2446 Y214.0439
G01 X90.4294 Y213.8268
G01 X88.6173 Y213.5862
G01 X86.8084 Y213.3222
G01 X85.0031 Y213.0348
G01 X83.2017 Y212.7240
G01 X81.4044 Y212.3899
G01 X79.6117 Y212.0325
G01 X77.8237 Y211.6520
G01 X76.0408 Y211.2483
G01 X74.2632 Y210.8216
G01 X72.4914 Y210.3719
G01 X70.7255 Y209.8992
G01 X68.9659 Y209.4037
G01 X67.2128 Y208.8855
G01 X65.4666 Y208.3446
G01 X63.9507 Y207.8450
G01 X62.4399 Y207.3298
G01 X60.9346 Y206.7991
G01 X59.4348 Y206.2528
G01 X57.9407 Y205.6912
G01 X56.4525 Y205.1141
G01 X54.9703 Y204.5218
G01 X53.4943 Y203.9142
G01 X53.3968 Y203.8775
G01 X53.3312 Y203.8531
G01 X52.6822 Y205.0923
G01 X52.0536 Y206.3419
G01 X51.4454 Y207.6015
G01 X50.8579 Y208.8710
G01 X53.0327 Y209.7033
G01 X55.2191 Y210.5047
G01 X57.4166 Y211.2752
G01 X59.6248 Y212.0144
G01 X61.8433 Y212.7223
G01 X64.0715 Y213.3987
G01 X66.3091 Y214.0435
G01 X68.5556 Y214.6566
G01 X70.8106 Y215.2378
G01 X73.0735 Y215.7870
G01 X75.3440 Y216.3041
G01 X77.6216 Y216.7890
G01 X79.9059 Y217.2416
G01 X82.1963 Y217.6619
G01 X84.4924 Y218.0497
G01 X86.7938 Y218.4049
G01 X89.1000 Y218.7275
G01 X91.4106 Y219.0175
G01 X93.7250 Y219.2747
G01 X96.0428 Y219.4991
G01 X98.3635 Y219.6906
G01 X100.6868 Y219.8493
G01 X103.0120 Y219.9751
G01 X105.3388 Y220.0680
G01 X107.3064 Y220.1133
G01 X109.2745 Y220.1334
G01 X111.2426 Y220.1281
G01 X113.2105 Y220.0975
G01 X115.1778 Y220.0417
G01 X117.1442 Y219.9605
G01 X119.1095 Y219.8540
G01 X121.0732 Y219.7223
G01 X123.0351 Y219.5654
G01 X124.9947 Y219.3832
G01 X126.9519 Y219.1758
G01 X128.9063 Y218.9433
G01 X128.7858 Y218.7567
M107
G00 Z2.0000


;No. 10: Hole 10
G00 X134.3784 Y207.0021 Z2.0000
G00 Z0.5000
G01 Z0.0000 F400
G01 Z-2.0000
M106 S240
G01 X121.7736 F1000
G01 X120.5320 Y205.5021
G01 X142.1727
G01 Y204.0021
G01 X148.1097
G01 X119.2948
G01 X118.0606 Y202.5021
G01 X153.0493
G01 X157.3262 Y201.0021
G01 X116.8284
G01 X115.5935 Y199.5021
G01 X161.1047
G01 X162.2916 Y198.0021
G01 X114.3587
G01 X113.1238 Y196.5021
G01 X125.5646
G01 X125.2541 Y195.0021
G01 X111.8890
G01 X110.6293 Y193.5021
G01 X124.9832
G01 X124.7134 Y192.0021
G01 X94.7800
G01 X95.0487 Y190.5021
G01 X124.4441
G01 X124.1752 Y189.0021
G01 X95.3174
G01 X95.5860 Y187.5021
G01 X123.9064
G01 X123.6378 Y186.0021
G01 X95.8547
G01 X96.1234 Y184.5021
G01 X123.3694
G01 X123.1011 Y183.0021
G01 X96.3920
G01 X96.6607 Y181.5021
G01 X122.8329
G01 X122.5648 Y180.0021
G01 X96.9294
G01 X97.1980 Y178.5021
G01 X122.2967
G01 X122.0287 Y177.0021
G01 X97.4667
G01 X97.7354 Y175.5021
G01 X121.7608
G01 X121.4929 Y174.0021
G01 X98.0040
G01 X98.2727 Y172.5021
G01 X121.2251
G01 X120.9573 Y171.0021
G01 X98.5414
G01 X98.8100 Y169.5021
G01 X120.6896
G01 X120.4219 Y168.0021
G01 X99.0787
G01 X99.3474 Y166.5021
G01 X120.1542
G01 X119.8866 Y165.0021
G01 X99.6160
G01 X99.8847 Y163.5021
G01 X119.6190
G01 X119.3515 Y162.0021
G01 X100.1533
G01 X100.4220 Y160.5021
G01 X119.0839
G01 X118.8165 Y159.0021
G01 X100.6907
G01 X100.9593 Y157.5021
G01 X118.5490
G01 X118.2816 Y156.0021
G01 X101.2280
G01 X101.4967 Y154.5021
G01 X118.0142
G01 X117.7468 Y153.0021
G01 X101.7653
G01 X102.0340 Y151.5021
G01 X117.4795
G01 X117.2122 Y150.0021
G01 X102.3027
G01 X102.5713 Y148.5021
G01 X116.9449
G01 X116.6777 Y147.0021
G01 X102.8400
G01 X103.1087 Y145.5021
G01 X116.4105
G01 X116.1433 Y144.0021
G01 X103.3773
G01 X103.6460 Y142.5021
G01 X115.8761
G01 X115.6090 Y141.0021
G01 X103.9147
G01 X104.1833 Y139.5021
G01 X115.3419
G01 X115.0748 Y138.0021
G01 X104.4520
G01 X104.7207 Y136.5021
G01 X114.8078
G01 X114.5408 Y135.0021
G01 X104.9893
G01 X105.2580 Y133.5021
G01 X114.2739
G01 X114.0069 Y132.0021
G01 X105.5267
G01 X105.7953 Y130.5021
G01 X113.7401
G01 X113.4732 Y129.0021
G01 X106.0640
G01 X106.3327 Y127.5021
G01 X113.2064
G01 X112.9396 Y126.0021
G01 X106.6013
G01 X106.8700 Y124.5021
G01 X112.6729
G01 X112.4063 Y123.0021
G01 X107.1387
G01 X107.4073 Y121.5021
G01 X112.1396
G01 X111.8731 Y120.0021
G01 X107.6760
G01 X107.9447 Y118.5021
G01 X111.6066
G01 X111.3402 Y117.0021
G01 X108.2133
G01 X108.4820 Y115.5021
G01 X111.0738
G01 X110.8075 Y114.0021
G01 X108.7506
G01 X109.0193 Y112.5021
G01 X110.5414
G01 X110.2753 Y111.0021
G01 X109.2880
M107
G00 Z2.0000
G00 X109.0747 Y192.0021
G00 Z0.5000
G01 Z-2.0000 F400
M106 S240
G01 Y193.5021 F1000
G01 X94.5114
G01 X94.2427 Y195.0021
G01 X107.7315
G01 X106.4670 Y196.5021
G01 X93.9500
G01 Y198.0021
G01 X105.2166
G01 X57.2806
G01 X58.4615 Y199.5021
G01 X103.9748
G01 X102.7400 Y201.0021
G01 X62.2044
G01 X66.4837 Y202.5021
G01 X101.5090
G01 X100.2780 Y204.0021
G01 X71.4567
G01 X77.4308
G01 Y205.5021
G01 X99.0470
G01 X97.8160 Y207.0021
G01 X85.2157
M107
G00 Z2.0000
G00 X79.9656 Y198.0021
G00 Z0.5000
G01 Z-2.0000 F400
M106 S240
G01 Y196.5021 F1000
G01 X58.6520
G01 X60.2538 Y195.0021
G01 X74.8767
G01 X72.6235 Y193.5021
G01 X62.1107
G01 X64.2549 Y192.0021
G01 X71.3457
G01 X70.5415 Y190.5021
G01 X66.7314
M107
G00 Z2.0000
G00 X139.5790 Y198.0021
G00 Z0.5000
G01 Z-2.0000 F400
M106 S240
G01 Y196.5021 F1000
G01 X160.9152
G01 X159.3054 Y195.0021
G01 X144.6708
G01 X146.9365 Y193.5021
G01 X157.4470
G01 X155.3125 Y192.0021
G01 X148.2227
G01 X148.9997 Y190.5021
G01 X152.8140
G01 X152.8785 Y190.3098
G01 X152.0103 Y189.8541
G01 X151.1373 Y189.4077
G01 X150.2595 Y188.9706
G01 X149.3772 Y188.5428
G01 X149.2670 Y189.0437
G01 X149.1302 Y189.5379
G01 X148.9672 Y190.0242
G01 X148.7785 Y190.5010
G01 X148.5645 Y190.9671
G01 X148.3259 Y191.4210
G01 X148.0634 Y191.8616
G01 X147.7778 Y192.2875
G01 X147.5157 Y192.6034
G01 X147.2396 Y192.9071
G01 X146.9500 Y193.1980
G01 X146.6476 Y193.4755
G01 X146.3329 Y193.7391
G01 X146.0066 Y193.9881
G01 X145.6693 Y194.2220
G01 X145.3218 Y194.4405
G01 X144.9648 Y194.6430
G01 X144.5989 Y194.8291
G01 X144.2250 Y194.9984
G01 X143.8439 Y195.1507
G01 X143.1737 Y195.3912
G01 X142.4965 Y195.6114
G01 X141.8129 Y195.8108
G01 X141.1236 Y195.9895
G01 X140.4293 Y196.1471
G01 X139.7304 Y196.2837
G01 X139.0277 Y196.3989
G01 X138.3219 Y196.4928
G01 X137.4931 Y196.5912
G01 X136.6629 Y196.6782
G01 X135.8317 Y196.7536
G01 X134.9995 Y196.8175
G01 X134.1665 Y196.8699
G01 X133.3328 Y196.9108
G01 X132.4986 Y196.9402
G01 X131.6642 Y196.9580
G01 X130.4199 Y196.9973
G01 X129.1753 Y197.0221
G01 X127.9305 Y197.0322
G01 X126.6856 Y197.0277
G01 X126.5972 Y197.0241
G01 X126.5095 Y197.0128
G01 X126.4231 Y196.9940
G01 X126.3386 Y196.9679
G01 X126.2566 Y196.9345
G01 X126.1779 Y196.8943
G01 X126.1029 Y196.8473
G01 X126.0323 Y196.7941
G01 X125.9665 Y196.7350
G01 X125.9061 Y196.6704
G01 X125.8515 Y196.6008
G01 X125.8030 Y196.5268
G01 X125.7612 Y196.4489
G01 X125.7262 Y196.3677
G01 X125.6984 Y196.2837
G01 X125.6779 Y196.1977
G01 X125.1471 Y193.2566
G01 X124.6173 Y190.3153
G01 X124.0884 Y187.3739
G01 X123.5603 Y184.4323
G01 X123.0332 Y181.4906
G01 X122.5070 Y178.5487
G01 X121.9816 Y175.6067
G01 X121.4572 Y172.6644
G01 X121.2892 Y171.7232
G01 X121.1212 Y170.7820
G01 X120.9532 Y169.8408
G01 X120.7852 Y168.8995
G01 X120.6172 Y167.9583
G01 X120.4492 Y167.0171
G01 X120.2813 Y166.0758
G01 X120.1134 Y165.1346
G01 X119.9455 Y164.1933
G01 X119.7776 Y163.2521
G01 X119.6097 Y162.3109
G01 X119.4418 Y161.3696
G01 X119.2739 Y160.4284
G01 X119.1061 Y159.4871
G01 X118.9383 Y158.5459
G01 X118.7704 Y157.6046
G01 X118.6026 Y156.6633
G01 X118.4348 Y155.7221
G01 X118.2670 Y154.7808
G01 X118.0992 Y153.8396
G01 X117.9315 Y152.8983
G01 X117.7637 Y151.9570
G01 X117.5960 Y151.0158
G01 X117.4282 Y150.0745
G01 X117.2605 Y149.1332
G01 X117.0928 Y148.1919
G01 X116.9251 Y147.2507
G01 X116.7574 Y146.3094
G01 X116.5897 Y145.3681
G01 X116.4221 Y144.4268
G01 X116.2544 Y143.4855
G01 X116.0868 Y142.5443
G01 X115.9191 Y141.6030
G01 X115.7515 Y140.6617
G01 X115.5839 Y139.7204
G01 X115.4163 Y138.7791
G01 X115.2487 Y137.8378
G01 X115.0812 Y136.8965
G01 X114.9136 Y135.9552
G01 X114.7461 Y135.0139
G01 X114.5785 Y134.0726
G01 X114.4110 Y133.1313
G01 X114.2435 Y132.1899
G01 X114.0760 Y131.2486
G01 X113.9085 Y130.3073
G01 X113.7411 Y129.3660
G01 X113.5736 Y128.4247
G01 X113.4062 Y127.4833
G01 X113.2388 Y126.5420
G01 X113.0714 Y125.6007
G01 X112.9040 Y124.6593
G01 X112.7366 Y123.7180
G01 X112.5693 Y122.7766
G01 X112.4020 Y121.8353
G01 X112.2347 Y120.8939
G01 X112.0674 Y119.9526
G01 X111.9001 Y119.0112
G01 X111.7329 Y118.0698
G01 X111.5657 Y117.1284
G01 X111.3985 Y116.1870
G01 X111.2314 Y115.2456
G01 X111.0643 Y114.3042
G01 X110.8972 Y113.3628
G01 X110.7302 Y112.4214
G01 X110.5632 Y111.4800
G01 X110.3962 Y110.5385
G01 X110.2293 Y109.5970
G01 X110.1454 Y109.1238
G01 X110.0616 Y108.6506
G01 X109.9777 Y108.1774
G01 X109.8939 Y107.7042
G01 X109.7865 Y107.0975
G01 X93.8174 Y196.2421
G01 X93.7995 Y196.3220
G01 X93.7751 Y196.4002
G01 X93.7445 Y196.4761
G01 X93.7078 Y196.5493
G01 X93.6654 Y196.6193
G01 X93.6174 Y196.6856
G01 X93.5641 Y196.7478
G01 X93.5060 Y196.8055
G01 X93.4435 Y196.8583
G01 X93.3768 Y196.9059
G01 X93.3066 Y196.9478
G01 X93.2331 Y196.9840
G01 X93.1570 Y197.0141
G01 X93.0786 Y197.0379
G01 X92.9986 Y197.0553
G01 X92.9175 Y197.0662
G01 X92.1658 Y197.0826
G01 X91.4140 Y197.0864
G01 X90.6621 Y197.0776
G01 X89.9106 Y197.0561
G01 X88.8729 Y197.0336
G01 X87.8355 Y196.9992
G01 X86.7986 Y196.9529
G01 X85.7623 Y196.8947
G01 X84.7268 Y196.8247
G01 X83.6921 Y196.7428
G01 X82.6584 Y196.6490
G01 X81.6258 Y196.5435
G01 X80.8905 Y196.4545
G01 X80.1583 Y196.3433
G01 X79.4297 Y196.2101
G01 X78.7055 Y196.0548
G01 X77.9864 Y195.8777
G01 X77.2729 Y195.6790
G01 X76.5658 Y195.4587
G01 X75.8656 Y195.2171
G01 X75.4945 Y195.0750
G01 X75.1299 Y194.9170
G01 X74.7726 Y194.7432
G01 X74.4230 Y194.5542
G01 X74.0820 Y194.3501
G01 X73.7502 Y194.1315
G01 X73.4282 Y193.8987
G01 X73.1165 Y193.6521
G01 X72.8158 Y193.3923
G01 X72.5267 Y193.1197
G01 X72.2497 Y192.8348
G01 X71.9853 Y192.5381
G01 X71.6551 Y192.1068
G01 X71.3537 Y191.6548
G01 X71.0823 Y191.1842
G01 X70.8423 Y190.6968
G01 X70.6345 Y190.1949
G01 X70.4598 Y189.6805
G01 X70.3191 Y189.1558
G01 X70.2128 Y188.6230
G01 X70.1951 Y188.5381
G01 X69.2918 Y188.9518
G01 X68.3986 Y189.3868
G01 X67.5159 Y189.8428
G01 X66.6442 Y190.3196
G01 X65.7841 Y190.8169
G01 X64.9361 Y191.3345
G01 X64.1005 Y191.8720
G01 X63.2779 Y192.4292
G01 X62.4687 Y193.0057
G01 X61.6734 Y193.6012
G01 X60.8925 Y194.2154
G01 X60.1263 Y194.8479
G01 X59.6131 Y195.3005
G01 X59.1117 Y195.7662
G01 X58.6227 Y196.2447
G01 X58.1462 Y196.7358
G01 X57.6827 Y197.2392
G01 X57.2324 Y197.7544
G01 X56.7956 Y198.2811
G01 X56.3727 Y198.8190
G01 X58.0718 Y199.5529
G01 X59.7829 Y200.2583
G01 X61.5055 Y200.9351
G01 X63.2392 Y201.5832
G01 X64.9834 Y202.2022
G01 X66.7377 Y202.7922
G01 X68.5016 Y203.3528
G01 X70.2746 Y203.8839
G01 X72.0562 Y204.3854
G01 X73.8459 Y204.8572
G01 X75.6432 Y205.2991
G01 X77.4476 Y205.7110
G01 X79.0455 Y206.0623
G01 X80.6481 Y206.3919
G01 X82.2550 Y206.6996
G01 X83.8660 Y206.9855
G01 X85.4806 Y207.2494
G01 X87.0988 Y207.4913
G01 X88.7200 Y207.7111
G01 X90.3442 Y207.9089
G01 X91.9708 Y208.0846
G01 X93.5997 Y208.2382
G01 X95.2305 Y208.3695
G01 X96.8630 Y208.4787
G01 X102.7712 Y201.2793
G01 X104.3033 Y199.4118
G01 X105.8484 Y197.5552
G01 X107.4066 Y195.7095
G01 X108.9777 Y193.8749
G01 X109.0272 Y193.8090
G01 X109.0816 Y193.7472
G01 X109.1406 Y193.6898
G01 X109.2040 Y193.6371
G01 X109.2712 Y193.5895
G01 X109.3419 Y193.5473
G01 X109.4156 Y193.5106
G01 X109.4920 Y193.4798
G01 X109.5705 Y193.4551
G01 X109.6508 Y193.4364
G01 X109.7322 Y193.4241
G01 X109.8143 Y193.4181
G01 X109.8967 Y193.4185
G01 X109.9788 Y193.4253
G01 X110.0601 Y193.4384
G01 X110.1401 Y193.4578
G01 X110.2098 Y193.4817
G01 X110.2776 Y193.5106
G01 X110.3430 Y193.5444
G01 X110.4058 Y193.5829
G01 X110.4656 Y193.6260
G01 X110.5220 Y193.6733
G01 X110.5748 Y193.7246
G01 X110.6237 Y193.7798
G01 X112.5378 Y196.1036
G01 X114.4511 Y198.4280
G01 X116.3638 Y200.7530
G01 X118.2757 Y203.0786
G01 X119.3839 Y204.4267
G01 X120.4954 Y205.7721
G01 X121.6101 Y207.1148
G01 X122.7281 Y208.4548
G01 X124.5860 Y208.3426
G01 X126.4418 Y208.1984
G01 X128.2949 Y208.0225
G01 X130.1446 Y207.8147
G01 X131.9905 Y207.5753
G01 X133.8320 Y207.3041
G01 X135.6686 Y207.0014
G01 X137.4998 Y206.6673
G01 X139.5178 Y206.2831
G01 X141.5287 Y205.8630
G01 X143.5318 Y205.4071
G01 X145.5265 Y204.9155
G01 X147.5120 Y204.3883
G01 X149.4878 Y203.8258
G01 X151.4533 Y203.2282
G01 X153.4077 Y202.5955
G01 X155.3506 Y201.9280
G01 X157.2812 Y201.2260
G01 X159.1990 Y200.4896
G01 X161.1034 Y199.7191
G01 X161.6298 Y199.5012
G01 X162.1543 Y199.2789
G01 X162.6769 Y199.0521
G01 X163.1976 Y198.8210
G01 X162.5559 Y198.0261
G01 X161.8864 Y197.2546
G01 X161.1899 Y196.5074
G01 X160.4672 Y195.7855
G01 X159.7193 Y195.0897
G01 X158.9472 Y194.4209
G01 X158.1517 Y193.7800
G01 X157.3340 Y193.1678
G01 X156.7996 Y192.7768
G01 X156.2584 Y192.3952
G01 X155.7106 Y192.0231
G01 X155.1563 Y191.6607
G01 X154.5958 Y191.3080
G01 X154.0293 Y190.9653
G01 X153.4567 Y190.6325
G01 X152.8785 Y190.3098
G01 X152.8140 Y190.5021
G01 Z-4.0000 F400
G01 X148.9997 F1000
G01 X148.2227 Y192.0021
G01 X155.3125
G01 X157.4470 Y193.5021
G01 X146.9365
G01 X144.6708 Y195.0021
G01 X159.3054
G01 X160.9152 Y196.5021
G01 X139.5790
G01 Y198.0021
G01 X162.2916
G01 X114.3587
G01 X113.1238 Y196.5021
G01 X125.5646
G01 X125.2541 Y195.0021
G01 X111.8890
G01 X110.6293 Y193.5021
G01 X124.9832
G01 X124.7134 Y192.0021
G01 X94.7800
G01 X95.0487 Y190.5021
G01 X124.4441
G01 X124.1752 Y189.0021
G01 X95.3174
G01 X95.5860 Y187.5021
G01 X123.9064
G01 X123.6378 Y186.0021
G01 X95.8547
G01 X96.1234 Y184.5021
G01 X123.3694
G01 X123.1011 Y183.0021
G01 X96.3920
G01 X96.6607 Y181.5021
G01 X122.8329
G01 X122.5648 Y180.0021
G01 X96.9294
G01 X97.1980 Y178.5021
G01 X122.2967
G01 X122.0287 Y177.0021
G01 X97.4667
G01 X97.7354 Y175.5021
G01 X121.7608
G01 X121.4929 Y174.0021
G01 X98.0040
G01 X98.2727 Y172.5021
G01 X121.2251
G01 X120.9573 Y171.0021
G01 X98.5414
G01 X98.8100 Y169.5021
G01 X120.6896
G01 X120.4219 Y168.0021
G01 X99.0787
G01 X99.3474 Y166.5021
G01 X120.1542
G01 X119.8866 Y165.0021
G01 X99.6160
G01 X99.8847 Y163.5021
G01 X119.6190
G01 X119.3515 Y162.0021
G01 X100.1533
G01 X100.4220 Y160.5021
G01 X119.0839
G01 X118.8165 Y159.0021
G01 X100.6907
G01 X100.9593 Y157.5021
G01 X118.5490
G01 X118.2816 Y156.0021
G01 X101.2280
G01 X101.4967 Y154.5021
G01 X118.0142
G01 X117.7468 Y153.0021
G01 X101.7653
G01 X102.0340 Y151.5021
G01 X117.4795
G01 X117.2122 Y150.0021
G01 X102.3027
G01 X102.5713 Y148.5021
G01 X116.9449
G01 X116.6777 Y147.0021
G01 X102.8400
G01 X103.1087 Y145.5021
G01 X116.4105
G01 X116.1433 Y144.0021
G01 X103.3773
G01 X103.6460 Y142.5021
G01 X115.8761
G01 X115.6090 Y141.0021
G01 X103.9147
G01 X104.1833 Y139.5021
G01 X115.3419
G01 X115.0748 Y138.0021
G01 X104.4520
G01 X104.7207 Y136.5021
G01 X114.8078
G01 X114.5408 Y135.0021
G01 X104.9893
G01 X105.2580 Y133.5021
G01 X114.2739
G01 X114.0069 Y132.0021
G01 X105.5267
G01 X105.7953 Y130.5021
G01 X113.7401
G01 X113.4732 Y129.0021
G01 X106.0640
G01 X106.3327 Y127.5021
G01 X113.2064
G01 X112.9396 Y126.0021
G01 X106.6013
G01 X106.8700 Y124.5021
G01 X112.6729
G01 X112.4063 Y123.0021
G01 X107.1387
G01 X107.4073 Y121.5021
G01 X112.1396
G01 X111.8731 Y120.0021
G01 X107.6760
G01 X107.9447 Y118.5021
G01 X111.6066
G01 X111.3402 Y117.0021
G01 X108.2133
G01 X108.4820 Y115.5021
G01 X111.0738
G01 X110.8075 Y114.0021
G01 X108.7506
G01 X109.0193 Y112.5021
G01 X110.5414
G01 X110.2753 Y111.0021
G01 X109.2880
M107
G00 Z2.0000
G00 X109.0747 Y192.0021
G00 Z-1.5000
G01 Z-4.0000 F400
M106 S240
G01 Y193.5021 F1000
G01 X94.5114
G01 X94.2427 Y195.0021
G01 X107.7315
G01 X106.4670 Y196.5021
G01 X93.9500
G01 Y198.0021
G01 X105.2166
G01 X57.2806
G01 X58.4615 Y199.5021
G01 X103.9748
G01 X102.7400 Y201.0021
G01 X62.2044
G01 X66.4837 Y202.5021
G01 X101.5090
G01 X100.2780 Y204.0021
G01 X71.4567
G01 X77.4308
G01 Y205.5021
G01 X99.0470
G01 X97.8160 Y207.0021
G01 X85.2157
M107
G00 Z2.0000
G00 X79.9656 Y198.0021
G00 Z-1.5000
G01 Z-4.0000 F400
M106 S240
G01 Y196.5021 F1000
G01 X58.6520
G01 X60.2538 Y195.0021
G01 X74.8767
G01 X72.6235 Y193.5021
G01 X62.1107
G01 X64.2549 Y192.0021
G01 X71.3457
G01 X70.5415 Y190.5021
G01 X66.7314
M107
G00 Z2.0000
G00 X115.5935 Y198.0021
G00 Z-1.5000
G01 Z-4.0000 F400
M106 S240
G01 Y199.5021 F1000
G01 X161.1047
G01 X157.3262 Y201.0021
G01 X116.8284
G01 X118.0606 Y202.5021
G01 X153.0493
G01 X148.1097
G01 Y204.0021
G01 X119.2948
G01 X120.5320 Y205.5021
G01 X142.1727
G01 X134.3784
G01 Y207.0021
G01 X121.7736
G01 X121.6152 Y207.1244
G01 X121.8918 Y207.4583
G01 X122.1695 Y207.7913
G01 X122.4483 Y208.1235
G01 X122.7281 Y208.4548
G01 X124.5860 Y208.3426
G01 X126.4418 Y208.1984
G01 X128.2949 Y208.0225
G01 X130.1446 Y207.8147
G01 X131.9905 Y207.5753
G01 X133.8320 Y207.3041
G01 X135.6686 Y207.0014
G01 X137.4998 Y206.6673
G01 X139.5178 Y206.2831
G01 X141.5287 Y205.8630
G01 X143.5318 Y205.4071
G01 X145.5265 Y204.9155
G01 X147.5120 Y204.3883
G01 X149.4878 Y203.8258
G01 X151.4533 Y203.2282
G01 X153.4077 Y202.5955
G01 X155.3506 Y201.9280
G01 X157.2812 Y201.2260
G01 X159.1990 Y200.4896
G01 X161.1034 Y199.7191
G01 X161.6298 Y199.5012
G01 X162.1543 Y199.2789
G01 X162.6769 Y199.0521
G01 X163.1976 Y198.8210
G01 X162.5559 Y198.0261
G01 X161.8864 Y197.2546
G01 X161.1899 Y196.5074
G01 X160.4672 Y195.7855
G01 X159.7193 Y195.0897
G01 X158.9472 Y194.4209
G01 X158.1517 Y193.7800
G01 X157.3340 Y193.1678
G01 X156.5844 Y192.6203
G01 X155.8214 Y192.0916
G01 X155.0454 Y191.5821
G01 X154.2571 Y191.0921
G01 X153.4567 Y190.6219
G01 X152.6449 Y190.1718
G01 X151.8221 Y189.7420
G01 X150.9889 Y189.3329
G01 X150.5877 Y189.1318
G01 X150.1854 Y188.9332
G01 X149.7819 Y188.7368
G01 X149.3772 Y188.5428
G01 X149.2670 Y189.0437
G01 X149.1302 Y189.5379
G01 X148.9672 Y190.0242
G01 X148.7785 Y190.5010
G01 X148.5645 Y190.9671
G01 X148.3259 Y191.4210
G01 X148.0634 Y191.8616
G01 X147.7778 Y192.2875
G01 X147.5157 Y192.6034
G01 X147.2396 Y192.9071
G01 X146.9500 Y193.1980
G01 X146.6476 Y193.4755
G01 X146.3329 Y193.7391
G01 X146.0066 Y193.9881
G01 X145.6693 Y194.2220
G01 X145.3218 Y194.4405
G01 X144.9648 Y194.6430
G01 X144.5989 Y194.8291
G01 X144.2250 Y194.9984
G01 X143.8439 Y195.1507
G01 X143.1737 Y195.3912
G01 X142.4965 Y195.6114
G01 X141.8129 Y195.8108
G01 X141.1236 Y195.9895
G01 X140.4293 Y196.1471
G01 X139.7304 Y196.2837
G01 X139.0277 Y196.3989
G01 X138.3219 Y196.4928
G01 X137.4931 Y196.5912
G01 X136.6629 Y196.6782
G01 X135.8317 Y196.7536
G01 X134.9995 Y196.8175
G01 X134.1665 Y196.8699
G01 X133.3328 Y196.9108
G01 X132.4986 Y196.9402
G01 X131.6642 Y196.9580
G01 X130.4199 Y196.9973
G01 X129.1753 Y197.0221
G01 X127.9305 Y197.0322
G01 X126.6856 Y197.0277
G01 X126.5972 Y197.0241
G01 X126.5095 Y197.0128
G01 X126.4231 Y196.9940
G01 X126.3386 Y196.9679
G01 X126.2566 Y196.9345
G01 X126.1779 Y196.8943
G01 X126.1029 Y196.8473
G01 X126.0323 Y196.7941
G01 X125.9665 Y196.7350
G01 X125.9061 Y196.6704
G01 X125.8515 Y196.6008
G01 X125.8030 Y196.5268
G01 X125.7612 Y196.4489
G01 X125.7262 Y196.3677
G01 X125.6984 Y196.2837
G01 X125.6779 Y196.1977
G01 X125.1471 Y193.2566
G01 X124.6173 Y190.3153
G01 X124.0884 Y187.3739
G01 X123.5603 Y184.4323
G01 X123.0332 Y181.4906
G01 X122.5070 Y178.5487
G01 X121.9816 Y175.6067
G01 X121.4572 Y172.6644
G01 X121.2892 Y171.7232
G01 X121.1212 Y170.7820
G01 X120.9532 Y169.8408
G01 X120.7852 Y168.8995
G01 X120.6172 Y167.9583
G01 X120.4492 Y167.0171
G01 X120.2813 Y166.0758
G01 X120.1134 Y165.1346
G01 X119.9455 Y164.1933
G01 X119.7776 Y163.2521
G01 X119.6097 Y162.3109
G01 X119.4418 Y161.3696
G01 X119.2739 Y160.4284
G01 X119.1061 Y159.4871
G01 X118.9383 Y158.5459
G01 X118.7704 Y157.6046
G01 X118.6026 Y156.6633
G01 X118.4348 Y155.7221
G01 X118.2670 Y154.7808
G01 X118.0992 Y153.8396
G01 X117.9315 Y152.8983
G01 X117.7637 Y151.9570
G01 X117.5960 Y151.0158
G01 X117.4282 Y150.0745
G01 X117.2605 Y149.1332
G01 X117.0928 Y148.1919
G01 X116.9251 Y147.2507
G01 X116.7574 Y146.3094
G01 X116.5897 Y145.3681
G01 X116.4221 Y144.4268
G01 X116.2544 Y143.4855
G01 X116.0868 Y142.5443
G01 X115.9191 Y141.6030
G01 X115.7515 Y140.6617
G01 X115.5839 Y139.7204
G01 X115.4163 Y138.7791
G01 X115.2487 Y137.8378
G01 X115.0812 Y136.8965
G01 X114.9136 Y135.9552
G01 X114.7461 Y135.0139
G01 X114.5785 Y134.0726
G01 X114.4110 Y133.1313
G01 X114.2435 Y132.1899
G01 X114.0760 Y131.2486
G01 X113.9085 Y130.3073
G01 X113.7411 Y129.3660
G01 X113.5736 Y128.4247
G01 X113.4062 Y127.4833
G01 X113.2388 Y126.5420
G01 X113.0714 Y125.6007
G01 X112.9040 Y124.6593
G01 X112.7366 Y123.7180
G01 X112.5693 Y122.7766
G01 X112.4020 Y121.8353
G01 X112.2347 Y120.8939
G01 X112.0674 Y119.9526
G01 X111.9001 Y119.0112
G01 X111.7329 Y118.0698
G01 X111.5657 Y117.1284
G01 X111.3985 Y116.1870
G01 X111.2314 Y115.2456
G01 X111.0643 Y114.3042
G01 X110.8972 Y113.3628
G01 X110.7302 Y112.4214
G01 X110.5632 Y111.4800
G01 X110.3962 Y110.5385
G01 X110.2293 Y109.5970
G01 X110.1454 Y109.1238
G01 X110.0616 Y108.6506
G01 X109.9777 Y108.1774
G01 X109.8939 Y107.7042
G01 X109.7865 Y107.0975
G01 X93.8174 Y196.2421
G01 X93.7995 Y196.3220
G01 X93.7751 Y196.4002
G01 X93.7445 Y196.4761
G01 X93.7078 Y196.5493
G01 X93.6654 Y196.6193
G01 X93.6174 Y196.6856
G01 X93.5641 Y196.7478
G01 X93.5060 Y196.8055
G01 X93.4435 Y196.8583
G01 X93.3768 Y196.9059
G01 X93.3066 Y196.9478
G01 X93.2331 Y196.9840
G01 X93.1570 Y197.0141
G01 X93.0786 Y197.0379
G01 X92.9986 Y197.0553
G01 X92.9175 Y197.0662
G01 X92.1658 Y197.0826
G01 X91.4140 Y197.0864
G01 X90.6621 Y197.0776
G01 X89.9106 Y197.0561
G01 X88.8729 Y197.0336
G01 X87.8355 Y196.9992
G01 X86.7986 Y196.9529
G01 X85.7623 Y196.8947
G01 X84.7268 Y196.8247
G01 X83.6921 Y196.7428
G01 X82.6584 Y196.6490
G01 X81.6258 Y196.5435
G01 X80.8905 Y196.4545
G01 X80.1583 Y196.3433
G01 X79.4297 Y196.2101
G01 X78.7055 Y196.0548
G01 X77.9864 Y195.8777
G01 X77.2729 Y195.6790
G01 X76.5658 Y195.4587
G01 X75.8656 Y195.2171
G01 X75.4945 Y195.0750
G01 X75.1299 Y194.9170
G01 X74.7726 Y194.7432
G01 X74.4230 Y194.5542
G01 X74.0820 Y194.3501
G01 X73.7502 Y194.1315
G01 X73.4282 Y193.8987
G01 X73.1165 Y193.6521
G01 X72.8158 Y193.3923
G01 X72.5267 Y193.1197
G01 X72.2497 Y192.8348
G01 X71.9853 Y192.5381
G01 X71.6551 Y192.1068
G01 X71.3537 Y191.6548
G01 X71.0823 Y191.1842
G01 X70.8423 Y190.6968
G01 X70.6345 Y190.1949
G01 X70.4598 Y189.6805
G01 X70.3191 Y189.1558
G01 X70.2128 Y188.6230
G01 X70.1951 Y188.5381
G01 X69.2918 Y188.9518
G01 X68.3986 Y189.3868
G01 X67.5159 Y189.8428
G01 X66.6442 Y190.3196
G01 X65.7841 Y190.8169
G01 X64.9361 Y191.3345
G01 X64.1005 Y191.8720
G01 X63.2779 Y192.4292
G01 X62.4687 Y193.0057
G01 X61.6734 Y193.6012
G01 X60.8925 Y194.2154
G01 X60.1263 Y194.8479
G01 X59.6131 Y195.3005
G01 X59.1117 Y195.7662
G01 X58.6227 Y196.2447
G01 X58.1462 Y196.7358
G01 X57.6827 Y197.2392
G01 X57.2324 Y197.7544
G01 X56.7956 Y198.2811
G01 X56.3727 Y198.8190
G01 X58.0718 Y199.5529
G01 X59.7829 Y200.2583
G01 X61.5055 Y200.9351
G01 X63.2392 Y201.5832
G01 X64.9834 Y202.2022
G01 X66.7377 Y202.7922
G01 X68.5016 Y203.3528
G01 X70.2746 Y203.8839
G01 X72.0562 Y204.3854
G01 X73.8459 Y204.8572
G01 X75.6432 Y205.2991
G01 X77.4476 Y205.7110
G01 X79.0455 Y206.0623
G01 X80.6481 Y206.3919
G01 X82.2550 Y206.6996
G01 X83.8660 Y206.9855
G01 X85.4806 Y207.2494
G01 X87.0988 Y207.4913
G01 X88.7200 Y207.7111
G01 X90.3442 Y207.9089
G01 X91.9708 Y208.0846
G01 X93.5997 Y208.2382
G01 X95.2305 Y208.3695
G01 X96.8630 Y208.4787
G01 X102.7712 Y201.2793
G01 X104.3033 Y199.4118
G01 X105.8484 Y197.5552
G01 X107.4066 Y195.7095
G01 X108.9777 Y193.8749
G01 X109.0272 Y193.8090
G01 X109.0816 Y193.7472
G01 X109.1406 Y193.6898
G01 X109.2040 Y193.6371
G01 X109.2712 Y193.5895
G01 X109.3419 Y193.5473
G01 X109.4156 Y193.5106
G01 X109.4920 Y193.4798
G01 X109.5705 Y193.4551
G01 X109.6508 Y193.4364
G01 X109.7322 Y193.4241
G01 X109.8143 Y193.4181
G01 X109.8967 Y193.4185
G01 X109.9788 Y193.4253
G01 X110.0601 Y193.4384
G01 X110.1401 Y193.4578
G01 X110.2098 Y193.4817
G01 X110.2776 Y193.5106
G01 X110.3430 Y193.5444
G01 X110.4058 Y193.5829
G01 X110.4656 Y193.6260
G01 X110.5220 Y193.6733
G01 X110.5748 Y193.7246
G01 X110.6237 Y193.7798
G01 X112.5378 Y196.1036
G01 X114.4511 Y198.4280
G01 X116.3638 Y200.7530
G01 X118.2757 Y203.0786
G01 X119.1090 Y204.0914
G01 X119.9434 Y205.1032
G01 X120.7787 Y206.1143
G01 X121.6152 Y207.1244
G01 X121.7736 Y207.0021
G01 Z-6.0000 F400
G01 X134.3784 F1000
G01 Y205.5021
G01 X142.1727
G01 X120.5320
G01 X119.2948 Y204.0021
G01 X148.1097
G01 Y202.5021
G01 X153.0493
G01 X118.0606
G01 X116.8284 Y201.0021
G01 X157.3262
G01 X161.1047 Y199.5021
G01 X115.5935
G01 X114.3587 Y198.0021
G01 X162.2916
G01 X160.9152 Y196.5021
G01 X139.5790
G01 X144.6708
G01 Y195.0021
G01 X159.3054
G01 X157.4470 Y193.5021
G01 X146.9365
G01 X148.2227 Y192.0021
G01 X155.3125
G01 X152.8140 Y190.5021
G01 X148.9997
M107
G00 Z2.0000
G00 X125.5646 Y198.0021
G00 Z-3.5000
G01 Z-6.0000 F400
M106 S240
G01 Y196.5021 F1000
G01 X113.1238
G01 X111.8890 Y195.0021
G01 X125.2541
G01 X124.9832 Y193.5021
G01 X110.6293
G01 Y192.0021
G01 X124.7134
G01 X94.7800
G01 X95.0487 Y190.5021
G01 X124.4441
G01 X124.1752 Y189.0021
G01 X95.3174
G01 X95.5860 Y187.5021
G01 X123.9064
G01 X123.6378 Y186.0021
G01 X95.8547
G01 X96.1234 Y184.5021
G01 X123.3694
G01 X123.1011 Y183.0021
G01 X96.3920
G01 X96.6607 Y181.5021
G01 X122.8329
G01 X122.5648 Y180.0021
G01 X96.9294
G01 X97.1980 Y178.5021
G01 X122.2967
G01 X122.0287 Y177.0021
G01 X97.4667
G01 X97.7354 Y175.5021
G01 X121.7608
G01 X121.4929 Y174.0021
G01 X98.0040
G01 X98.2727 Y172.5021
G01 X121.2251
G01 X120.9573 Y171.0021
G01 X98.5414
G01 X98.8100 Y169.5021
G01 X120.6896
G01 X120.4219 Y168.0021
G01 X99.0787
G01 X99.3474 Y166.5021
G01 X120.1542
G01 X119.8866 Y165.0021
G01 X99.6160
G01 X99.8847 Y163.5021
G01 X119.6190
G01 X119.3515 Y162.0021
G01 X100.1533
G01 X100.4220 Y160.5021
G01 X119.0839
G01 X118.8165 Y159.0021
G01 X100.6907
G01 X100.9593 Y157.5021
G01 X118.5490
G01 X118.2816 Y156.0021
G01 X101.2280
G01 X101.4967 Y154.5021
G01 X118.0142
G01 X117.7468 Y153.0021
G01 X101.7653
G01 X102.0340 Y151.5021
G01 X117.4795
G01 X117.2122 Y150.0021
G01 X102.3027
G01 X102.5713 Y148.5021
G01 X116.9449
G01 X116.6777 Y147.0021
G01 X102.8400
G01 X103.1087 Y145.5021
G01 X116.4105
G01 X116.1433 Y144.0021
G01 X103.3773
G01 X103.6460 Y142.5021
G01 X115.8761
G01 X115.6090 Y141.0021
G01 X103.9147
G01 X104.1833 Y139.5021
G01 X115.3419
G01 X115.0748 Y138.0021
G01 X104.4520
G01 X104.7207 Y136.5021
G01 X114.8078
G01 X114.5408 Y135.0021
G01 X104.9893
G01 X105.2580 Y133.5021
G01 X114.2739
G01 X114.0069 Y132.0021
G01 X105.5267
G01 X105.7953 Y130.5021
G01 X113.7401
G01 X113.4732 Y129.0021
G01 X106.0640
G01 X106.3327 Y127.5021
G01 X113.2064
G01 X112.9396 Y126.0021
G01 X106.6013
G01 X106.8700 Y124.5021
G01 X112.6729
G01 X112.4063 Y123.0021
G01 X107.1387
G01 X107.4073 Y121.5021
G01 X112.1396
G01 X111.8731 Y120.0021
G01 X107.6760
G01 X107.9447 Y118.5021
G01 X111.6066
G01 X111.3402 Y117.0021
G01 X108.2133
G01 X108.4820 Y115.5021
G01 X111.0738
G01 X110.8075 Y114.0021
G01 X108.7506
G01 X109.0193 Y112.5021
G01 X110.5414
G01 X110.2753 Y111.0021
G01 X109.2880
M107
G00 Z2.0000
G00 X109.0747 Y192.0021
G00 Z-3.5000
G01 Z-6.0000 F400
M106 S240
G01 Y193.5021 F1000
G01 X94.5114
G01 X94.2427 Y195.0021
G01 X107.7315
G01 X106.4670 Y196.5021
G01 X93.9500
G01 Y198.0021
G01 X105.2166
G01 X57.2806
G01 X58.4615 Y199.5021
G01 X103.9748
G01 X102.7400 Y201.0021
G01 X62.2044
G01 X66.4837 Y202.5021
G01 X101.5090
G01 X100.2780 Y204.0021
G01 X71.4567
G01 X77.4308
G01 Y205.5021
G01 X99.0470
G01 X97.8160 Y207.0021
G01 X85.2157
M107
G00 Z2.0000
G00 X79.9656 Y198.0021
G00 Z-3.5000
G01 Z-6.0000 F400
M106 S240
G01 Y196.5021 F1000
G01 X58.6520
G01 X60.2538 Y195.0021
G01 X74.8767
G01 X72.6235 Y193.5021
G01 X62.1107
G01 X64.2549 Y192.0021
G01 X71.3457
G01 X70.5415 Y190.5021
G01 X66.7314
G01 X66.6412 Y190.3234
G01 X65.8781 Y190.7521
G01 X65.1256 Y191.1990
G01 X64.3840 Y191.6638
G01 X63.6537 Y192.1463
G01 X62.9352 Y192.6462
G01 X62.2290 Y193.1632
G01 X61.5354 Y193.6970
G01 X60.8547 Y194.2473
G01 X60.1875 Y194.8138
G01 X59.5340 Y195.3961
G01 X58.8948 Y195.9939
G01 X58.2700 Y196.6070
G01 X57.7709 Y197.1383
G01 X57.2880 Y197.6844
G01 X56.8218 Y198.2448
G01 X56.3727 Y198.8190
G01 X58.0718 Y199.5529
G01 X59.7829 Y200.2583
G01 X61.5055 Y200.9351
G01 X63.2392 Y201.5832
G01 X64.9834 Y202.2022
G01 X66.7377 Y202.7922
G01 X68.5016 Y203.3528
G01 X70.2746 Y203.8839
G01 X72.0562 Y204.3854
G01 X73.8459 Y204.8572
G01 X75.6432 Y205.2991
G01 X77.4476 Y205.7110
G01 X79.0455 Y206.0623
G01 X80.6481 Y206.3919
G01 X82.2550 Y206.6996
G01 X83.8660 Y206.9855
G01 X85.4806 Y207.2494
G01 X87.0988 Y207.4913
G01 X88.7200 Y207.7111
G01 X90.3442 Y207.9089
G01 X91.9708 Y208.0846
G01 X93.5997 Y208.2382
G01 X95.2305 Y208.3695
G01 X96.8630 Y208.4787
G01 X102.7712 Y201.2793
G01 X104.3033 Y199.4118
G01 X105.8484 Y197.5552
G01 X107.4066 Y195.7095
G01 X108.9777 Y193.8749
G01 X109.0272 Y193.8090
G01 X109.0816 Y193.7472
G01 X109.1406 Y193.6898
G01 X109.2040 Y193.6371
G01 X109.2712 Y193.5895
G01 X109.3419 Y193.5473
G01 X109.4156 Y193.5106
G01 X109.4920 Y193.4798
G01 X109.5705 Y193.4551
G01 X109.6508 Y193.4364
G01 X109.7322 Y193.4241
G01 X109.8143 Y193.4181
G01 X109.8967 Y193.4185
G01 X109.9788 Y193.4253
G01 X110.0601 Y193.4384
G01 X110.1401 Y193.4578
G01 X110.2098 Y193.4817
G01 X110.2776 Y193.5106
G01 X110.3430 Y193.5444
G01 X110.4058 Y193.5829
G01 X110.4656 Y193.6260
G01 X110.5220 Y193.6733
G01 X110.5748 Y193.7246
G01 X110.6237 Y193.7798
G01 X112.5378 Y196.1036
G01 X114.4511 Y198.4280
G01 X116.3638 Y200.7530
G01 X118.2757 Y203.0786
G01 X119.3839 Y204.4267
G01 X120.4954 Y205.7721
G01 X121.6101 Y207.1148
G01 X122.7281 Y208.4548
G01 X124.5860 Y208.3426
G01 X126.4418 Y208.1984
G01 X128.2949 Y208.0225
G01 X130.1446 Y207.8147
G01 X131.9905 Y207.5753
G01 X133.8320 Y207.3041
G01 X135.6686 Y207.0014
G01 X137.4998 Y206.6673
G01 X139.5178 Y206.2831
G01 X141.5287 Y205.8630
G01 X143.5318 Y205.4071
G01 X145.5265 Y204.9155
G01 X147.5120 Y204.3883
G01 X149.4878 Y203.8258
G01 X151.4533 Y203.2282
G01 X153.4077 Y202.5955
G01 X155.3506 Y201.9280
G01 X157.2812 Y201.2260
G01 X159.1990 Y200.4896
G01 X161.1034 Y199.7191
G01 X161.6298 Y199.5012
G01 X162.1543 Y199.2789
G01 X162.6769 Y199.0521
G01 X163.1976 Y198.8210
G01 X162.5559 Y198.0261
G01 X161.8864 Y197.2546
G01 X161.1899 Y196.5074
G01 X160.4672 Y195.7855
G01 X159.7193 Y195.0897
G01 X158.9472 Y194.4209
G01 X158.1517 Y193.7800
G01 X157.3340 Y193.1678
G01 X156.5844 Y192.6203
G01 X155.8214 Y192.0916
G01 X155.0454 Y191.5821
G01 X154.2571 Y191.0921
G01 X153.4567 Y190.6219
G01 X152.6449 Y190.1718
G01 X151.8221 Y189.7420
G01 X150.9889 Y189.3329
G01 X150.5877 Y189.1318
G01 X150.1854 Y188.9332
G01 X149.7819 Y188.7368
G01 X149.3772 Y188.5428
G01 X149.2670 Y189.0437
G01 X149.1302 Y189.5379
G01 X148.9672 Y190.0242
G01 X148.7785 Y190.5010
G01 X148.5645 Y190.9671
G01 X148.3259 Y191.4210
G01 X148.0634 Y191.8616
G01 X147.7778 Y192.2875
G01 X147.5157 Y192.6034
G01 X147.2396 Y192.9071
G01 X146.9500 Y193.1980
G01 X146.6476 Y193.4755
G01 X146.3329 Y193.7391
G01 X146.0066 Y193.9881
G01 X145.6693 Y194.2220
G01 X145.3218 Y194.4405
G01 X144.9648 Y194.6430
G01 X144.5989 Y194.8291
G01 X144.2250 Y194.9984
G01 X143.8439 Y195.1507
G01 X143.1737 Y195.3912
G01 X142.4965 Y195.6114
G01 X141.8129 Y195.8108
G01 X141.1236 Y195.9895
G01 X140.4293 Y196.1471
G01 X139.7304 Y196.2837
G01 X139.0277 Y196.3989
G01 X138.3219 Y196.4928
G01 X137.4931 Y196.5912
G01 X136.6629 Y196.6782
G01 X135.8317 Y196.7536
G01 X134.9995 Y196.8175
G01 X134.1665 Y196.8699
G01 X133.3328 Y196.9108
G01 X132.4986 Y196.9402
G01 X131.6642 Y196.9580
G01 X130.4199 Y196.9973
G01 X129.1753 Y197.0221
G01 X127.9305 Y197.0322
G01 X126.6856 Y197.0277
G01 X126.5972 Y197.0241
G01 X126.5095 Y197.0128
G01 X126.4231 Y196.9940
G01 X126.3386 Y196.9679
G01 X126.2566 Y196.9345
G01 X126.1779 Y196.8943
G01 X126.1029 Y196.8473
G01 X126.0323 Y196.7941
G01 X125.9665 Y196.7350
G01 X125.9061 Y196.6704
G01 X125.8515 Y196.6008
G01 X125.8030 Y196.5268
G01 X125.7612 Y196.4489
G01 X125.7262 Y196.3677
G01 X125.6984 Y196.2837
G01 X125.6779 Y196.1977
G01 X125.1471 Y193.2566
G01 X124.6173 Y190.3153
G01 X124.0884 Y187.3739
G01 X123.5603 Y184.4323
G01 X123.0332 Y181.4906
G01 X122.5070 Y178.5487
G01 X121.9816 Y175.6067
G01 X121.4572 Y172.6644
G01 X121.2892 Y171.7232
G01 X121.1212 Y170.7820
G01 X120.9532 Y169.8408
G01 X120.7852 Y168.8995
G01 X120.6172 Y167.9583
G01 X120.4492 Y167.0171
G01 X120.2813 Y166.0758
G01 X120.1134 Y165.1346
G01 X119.9455 Y164.1933
G01 X119.7776 Y163.2521
G01 X119.6097 Y162.3109
G01 X119.4418 Y161.3696
G01 X119.2739 Y160.4284
G01 X119.1061 Y159.4871
G01 X118.9383 Y158.5459
G01 X118.7704 Y157.6046
G01 X118.6026 Y156.6633
G01 X118.4348 Y155.7221
G01 X118.2670 Y154.7808
G01 X118.0992 Y153.8396
G01 X117.9315 Y152.8983
G01 X117.7637 Y151.9570
G01 X117.5960 Y151.0158
G01 X117.4282 Y150.0745
G01 X117.2605 Y149.1332
G01 X117.0928 Y148.1919
G01 X116.9251 Y147.2507
G01 X116.7574 Y146.3094
G01 X116.5897 Y145.3681
G01 X116.4221 Y144.4268
G01 X116.2544 Y143.4855
G01 X116.0868 Y142.5443
G01 X115.9191 Y141.6030
G01 X115.7515 Y140.6617
G01 X115.5839 Y139.7204
G01 X115.4163 Y138.7791
G01 X115.2487 Y137.8378
G01 X115.0812 Y136.8965
G01 X114.9136 Y135.9552
G01 X114.7461 Y135.0139
G01 X114.5785 Y134.0726
G01 X114.4110 Y133.1313
G01 X114.2435 Y132.1899
G01 X114.0760 Y131.2486
G01 X113.9085 Y130.3073
G01 X113.7411 Y129.3660
G01 X113.5736 Y128.4247
G01 X113.4062 Y127.4833
G01 X113.2388 Y126.5420
G01 X113.0714 Y125.6007
G01 X112.9040 Y124.6593
G01 X112.7366 Y123.7180
G01 X112.5693 Y122.7766
G01 X112.4020 Y121.8353
G01 X112.2347 Y120.8939
G01 X112.0674 Y119.9526
G01 X111.9001 Y119.0112
G01 X111.7329 Y118.0698
G01 X111.5657 Y117.1284
G01 X111.3985 Y116.1870
G01 X111.2314 Y115.2456
G01 X111.0643 Y114.3042
G01 X110.8972 Y113.3628
G01 X110.7302 Y112.4214
G01 X110.5632 Y111.4800
G01 X110.3962 Y110.5385
G01 X110.2293 Y109.5970
G01 X110.1454 Y109.1238
G01 X110.0616 Y108.6506
G01 X109.9777 Y108.1774
G01 X109.8939 Y107.7042
G01 X109.7865 Y107.0975
G01 X93.8174 Y196.2421
G01 X93.7995 Y196.3220
G01 X93.7751 Y196.4002
G01 X93.7445 Y196.4761
G01 X93.7078 Y196.5493
G01 X93.6654 Y196.6193
G01 X93.6174 Y196.6856
G01 X93.5641 Y196.7478
G01 X93.5060 Y196.8055
G01 X93.4435 Y196.8583
G01 X93.3768 Y196.9059
G01 X93.3066 Y196.9478
G01 X93.2331 Y196.9840
G01 X93.1570 Y197.0141
G01 X93.0786 Y197.0379
G01 X92.9986 Y197.0553
G01 X92.9175 Y197.0662
G01 X92.1658 Y197.0826
G01 X91.4140 Y197.0864
G01 X90.6621 Y197.0776
G01 X89.9106 Y197.0561
G01 X88.8729 Y197.0336
G01 X87.8355 Y196.9992
G01 X86.7986 Y196.9529
G01 X85.7623 Y196.8947
G01 X84.7268 Y196.8247
G01 X83.6921 Y196.7428
G01 X82.6584 Y196.6490
G01 X81.6258 Y196.5435
G01 X80.8905 Y196.4545
G01 X80.1583 Y196.3433
G01 X79.4297 Y196.2101
G01 X78.7055 Y196.0548
G01 X77.9864 Y195.8777
G01 X77.2729 Y195.6790
G01 X76.5658 Y195.4587
G01 X75.8656 Y195.2171
G01 X75.4945 Y195.0750
G01 X75.1299 Y194.9170
G01 X74.7726 Y194.7432
G01 X74.4230 Y194.5542
G01 X74.0820 Y194.3501
G01 X73.7502 Y194.1315
G01 X73.4282 Y193.8987
G01 X73.1165 Y193.6521
G01 X72.8158 Y193.3923
G01 X72.5267 Y193.1197
G01 X72.2497 Y192.8348
G01 X71.9853 Y192.5381
G01 X71.6551 Y192.1068
G01 X71.3537 Y191.6548
G01 X71.0823 Y191.1842
G01 X70.8423 Y190.6968
G01 X70.6345 Y190.1949
G01 X70.4598 Y189.6805
G01 X70.3191 Y189.1558
G01 X70.2128 Y188.6230
G01 X70.1951 Y188.5381
G01 X69.2947 Y188.9601
G01 X68.4020 Y189.3985
G01 X67.5174 Y189.8529
G01 X66.6412 Y190.3234
G01 X66.7314 Y190.5021
M107
G00 Z2.0000


;No. 11: Hole 11
G00 X168.8154 Y89.7566 Z2.0000
G00 Z0.5000
G01 Z0.0000 F400
G01 Z-2.0000
M106 S240
G01 X190.4320 F1000
G01 X189.4901 Y88.2566
G01 X168.8154
G01 X168.6154 Y88.2666
G01 Y90.8788
G01 X190.8238
G01 X190.8107 Y90.5757
G01 X190.7735 Y90.2746
G01 X190.7126 Y89.9774
G01 X190.6282 Y89.6860
G01 X190.5210 Y89.4022
G01 X190.3915 Y89.1278
G01 X190.2406 Y88.8646
G01 X190.0693 Y88.6142
G01 X189.8786 Y88.3782
G01 X189.6698 Y88.1581
G01 X189.4442 Y87.9553
G01 X189.2031 Y87.7711
G01 X188.9482 Y87.6066
G01 X188.6810 Y87.4629
G01 X188.4032 Y87.3409
G01 X188.1166 Y87.2413
G01 X187.9101 Y87.1942
G01 X187.7009 Y87.1605
G01 X187.4900 Y87.1405
G01 X187.2783 Y87.1343
G01 X168.6154
G01 Y88.2666
G01 X168.8154 Y88.2566
G01 Z-4.0000 F400
G01 X189.4901 F1000
G01 X190.4320 Y89.7566
G01 X168.8154
G01 X168.6154 Y89.7465
G01 Y90.8788
G01 X190.8238
G01 X190.8107 Y90.5757
G01 X190.7735 Y90.2746
G01 X190.7126 Y89.9774
G01 X190.6282 Y89.6860
G01 X190.5210 Y89.4022
G01 X190.3915 Y89.1278
G01 X190.2406 Y88.8646
G01 X190.0693 Y88.6142
G01 X189.8786 Y88.3782
G01 X189.6698 Y88.1581
G01 X189.4442 Y87.9553
G01 X189.2031 Y87.7711
G01 X188.9482 Y87.6066
G01 X188.6810 Y87.4629
G01 X188.4032 Y87.3409
G01 X188.1166 Y87.2413
G01 X187.9101 Y87.1942
G01 X187.7009 Y87.1605
G01 X187.4900 Y87.1405
G01 X187.2783 Y87.1343
G01 X168.6154
G01 Y89.7465
G01 X168.8154 Y89.7566
G01 Z-6.0000 F400
G01 X190.4320 F1000
G01 X189.4901 Y88.2566
G01 X168.8154
G01 X168.6154 Y88.2666
G01 Y90.8788
G01 X190.8238
G01 X190.8107 Y90.5757
G01 X190.7735 Y90.2746
G01 X190.7126 Y89.9774
G01 X190.6282 Y89.6860
G01 X190.5210 Y89.4022
G01 X190.3915 Y89.1278
G01 X190.2406 Y88.8646
G01 X190.0693 Y88.6142
G01 X189.8786 Y88.3782
G01 X189.6698 Y88.1581
G01 X189.4442 Y87.9553
G01 X189.2031 Y87.7711
G01 X188.9482 Y87.6066
G01 X188.6810 Y87.4629
G01 X188.4032 Y87.3409
G01 X188.1166 Y87.2413
G01 X187.9101 Y87.1942
G01 X187.7009 Y87.1605
G01 X187.4900 Y87.1405
G01 X187.2783 Y87.1343
G01 X168.6154
G01 Y88.2666
G01 X168.8154 Y88.2566
M107
G00 Z2.0000


;No. 12: Hole 12
G00 X168.8154 Y81.2594 Z2.0000
G00 Z0.5000
G01 Z0.0000 F400
G01 Z-2.0000
M106 S240
G01 X171.7358 F1000
G01 Y79.7594
G01 X168.8154
G01 Y78.2594
G01 X171.7358
G01 Y76.7594
G01 X168.8154
G01 Y75.2594
G01 X172.2130
G01 X168.9235 Y73.7594
G01 X190.6338
G01 Y72.2594
G01 X169.6339
M107
G00 Z2.0000
G00 X187.6799 Y73.7594
G00 Z0.5000
G01 Z-2.0000 F400
M106 S240
G01 Y75.2594 F1000
G01 X190.6338
G01 Y76.7594
G01 X187.7155
G01 X187.6792 Y78.2594
G01 X190.6338
G01 Y79.7594
G01 X177.8787
G01 X176.7006 Y81.2594
G01 X190.6338
G01 X190.8338 Y81.2477
G01 Y70.8042
G01 X172.1726
G01 X171.8243 Y70.8240
G01 X171.4798 Y70.8787
G01 X171.1425 Y70.9675
G01 X170.8157 Y71.0897
G01 X170.5029 Y71.2440
G01 X170.2070 Y71.4288
G01 X169.9311 Y71.6423
G01 X169.6780 Y71.8823
G01 X169.4502 Y72.1465
G01 X169.2500 Y72.4321
G01 X169.0793 Y72.7364
G01 X168.9400 Y73.0562
G01 X168.8636 Y73.2557
G01 X168.7971 Y73.4587
G01 X168.7408 Y73.6648
G01 X168.6948 Y73.8734
G01 X168.6592 Y74.0840
G01 X168.6340 Y74.2962
G01 X168.6194 Y74.5093
G01 X168.6154 Y74.7229
G01 Y82.7147
G01 X171.9358 Y82.7146
G01 Y76.7452
G01 X171.9343 Y76.6239
G01 X171.9398 Y76.5027
G01 X171.9523 Y76.3821
G01 X171.9717 Y76.2623
G01 X171.9979 Y76.1438
G01 X172.0309 Y76.0271
G01 X172.0705 Y75.9124
G01 X172.1167 Y75.8003
G01 X172.1692 Y75.6909
G01 X172.2279 Y75.5848
G01 X172.2927 Y75.4821
G01 X172.3632 Y75.3834
G01 X172.4392 Y75.2889
G01 X172.5206 Y75.1990
G01 X172.6070 Y75.1138
G01 X172.6982 Y75.0338
G01 X172.7938 Y74.9591
G01 X172.8935 Y74.8900
G01 X172.9971 Y74.8268
G01 X173.1041 Y74.7696
G01 X173.2142 Y74.7187
G01 X173.3271 Y74.6742
G01 X173.4423 Y74.6363
G01 X173.5595 Y74.6050
G01 X173.6783 Y74.5805
G01 X173.7983 Y74.5629
G01 X173.9192 Y74.5522
G01 X174.0404 Y74.5485
G01 X186.5155
G01 X186.5940 Y74.5516
G01 X186.6720 Y74.5608
G01 X186.7490 Y74.5761
G01 X186.8245 Y74.5974
G01 X186.8982 Y74.6246
G01 X186.9695 Y74.6575
G01 X187.0380 Y74.6958
G01 X187.1033 Y74.7395
G01 X187.1650 Y74.7881
G01 X187.2226 Y74.8414
G01 X187.2759 Y74.8990
G01 X187.3245 Y74.9607
G01 X187.3682 Y75.0260
G01 X187.4065 Y75.0945
G01 X187.4394 Y75.1658
G01 X187.4666 Y75.2395
G01 X187.4879 Y75.3150
G01 X187.5032 Y75.3921
G01 X187.5124 Y75.4700
G01 X187.5155 Y75.5485
G01 Y77.9681
G01 X187.5146 Y78.0117
G01 X187.5117 Y78.0552
G01 X187.5070 Y78.0986
G01 X187.5003 Y78.1417
G01 X187.4918 Y78.1845
G01 X187.4815 Y78.2269
G01 X187.4692 Y78.2688
G01 X187.4552 Y78.3101
G01 X187.4394 Y78.3508
G01 X187.4218 Y78.3907
G01 X187.4025 Y78.4298
G01 X187.3816 Y78.4681
G01 X187.3589 Y78.5054
G01 X187.3347 Y78.5417
G01 X187.3089 Y78.5769
G01 X187.2816 Y78.6109
G01 X187.2528 Y78.6437
G01 X187.2226 Y78.6752
G01 X187.1911 Y78.7054
G01 X187.1583 Y78.7341
G01 X187.1243 Y78.7614
G01 X187.0891 Y78.7872
G01 X187.0528 Y78.8115
G01 X187.0155 Y78.8341
G01 X186.9773 Y78.8551
G01 X186.9381 Y78.8744
G01 X186.8982 Y78.8920
G01 X186.8576 Y78.9078
G01 X186.8162 Y78.9218
G01 X186.7743 Y78.9340
G01 X186.7320 Y78.9444
G01 X186.6892 Y78.9529
G01 X186.6461 Y78.9595
G01 X186.6027 Y78.9643
G01 X186.5591 Y78.9671
G01 X186.5155 Y78.9681
G01 X184.7907 Y78.9490
G01 X183.0658 Y78.9430
G01 X181.3409 Y78.9499
G01 X179.6161 Y78.9699
G01 X179.2719 Y79.0020
G01 X178.9325 Y79.0679
G01 X178.6012 Y79.1669
G01 X178.2814 Y79.2982
G01 X177.9760 Y79.4603
G01 X177.6881 Y79.6518
G01 X177.4205 Y79.8707
G01 X177.1758 Y80.1149
G01 X176.9564 Y80.3821
G01 X176.7644 Y80.6696
G01 X176.6017 Y80.9746
G01 X176.4698 Y81.2942
G01 X176.3527 Y81.6369
G01 X176.2648 Y81.9882
G01 X176.2069 Y82.3456
G01 X176.1793 Y82.7067
G01 X190.8338 Y82.7145
G01 Y81.2477
G01 X190.6338 Y81.2594
G01 Z-4.0000 F400
G01 X176.7006 F1000
G01 X177.8787 Y79.7594
G01 X190.6338
G01 Y78.2594
G01 X187.6792
G01 X187.7155 Y76.7594
G01 X190.6338
G01 Y75.2594
G01 X187.6799
G01 X190.6338 Y73.7594
G01 X168.9235
G01 X168.8154 Y75.2594
G01 X172.2130
G01 X171.7358
G01 Y76.7594
G01 X168.8154
G01 Y78.2594
G01 X171.7358
G01 Y79.7594
G01 X168.8154
G01 Y81.2594
G01 X171.7358
M107
G00 Z2.0000
G00 X169.6339 Y73.7594
G00 Z-1.5000
G01 Z-4.0000 F400
M106 S240
G01 Y72.2594 F1000
G01 X190.6338
G01 X190.8338 Y72.2712
G01 Y70.8042
G01 X172.1726
G01 X171.8243 Y70.8240
G01 X171.4798 Y70.8787
G01 X171.1425 Y70.9675
G01 X170.8157 Y71.0897
G01 X170.5029 Y71.2440
G01 X170.2070 Y71.4288
G01 X169.9311 Y71.6423
G01 X169.6780 Y71.8823
G01 X169.4502 Y72.1465
G01 X169.2500 Y72.4321
G01 X169.0793 Y72.7364
G01 X168.9400 Y73.0562
G01 X168.8636 Y73.2557
G01 X168.7971 Y73.4587
G01 X168.7408 Y73.6648
G01 X168.6948 Y73.8734
G01 X168.6592 Y74.0840
G01 X168.6340 Y74.2962
G01 X168.6194 Y74.5093
G01 X168.6154 Y74.7229
G01 Y82.7147
G01 X171.9358 Y82.7146
G01 Y76.7452
G01 X171.9343 Y76.6239
G01 X171.9398 Y76.5027
G01 X171.9523 Y76.3821
G01 X171.9717 Y76.2623
G01 X171.9979 Y76.1438
G01 X172.0309 Y76.0271
G01 X172.0705 Y75.9124
G01 X172.1167 Y75.8003
G01 X172.1692 Y75.6909
G01 X172.2279 Y75.5848
G01 X172.2927 Y75.4821
G01 X172.3632 Y75.3834
G01 X172.4392 Y75.2889
G01 X172.5206 Y75.1990
G01 X172.6070 Y75.1138
G01 X172.6982 Y75.0338
G01 X172.7938 Y74.9591
G01 X172.8935 Y74.8900
G01 X172.9971 Y74.8268
G01 X173.1041 Y74.7696
G01 X173.2142 Y74.7187
G01 X173.3271 Y74.6742
G01 X173.4423 Y74.6363
G01 X173.5595 Y74.6050
G01 X173.6783 Y74.5805
G01 X173.7983 Y74.5629
G01 X173.9192 Y74.5522
G01 X174.0404 Y74.5485
G01 X186.5155
G01 X186.5940 Y74.5516
G01 X186.6720 Y74.5608
G01 X186.7490 Y74.5761
G01 X186.8245 Y74.5974
G01 X186.8982 Y74.6246
G01 X186.9695 Y74.6575
G01 X187.0380 Y74.6958
G01 X187.1033 Y74.7395
G01 X187.1650 Y74.7881
G01 X187.2226 Y74.8414
G01 X187.2759 Y74.8990
G01 X187.3245 Y74.9607
G01 X187.3682 Y75.0260
G01 X187.4065 Y75.0945
G01 X187.4394 Y75.1658
G01 X187.4666 Y75.2395
G01 X187.4879 Y75.3150
G01 X187.5032 Y75.3921
G01 X187.5124 Y75.4700
G01 X187.5155 Y75.5485
G01 Y77.9681
G01 X187.5146 Y78.0117
G01 X187.5117 Y78.0552
G01 X187.5070 Y78.0986
G01 X187.5003 Y78.1417
G01 X187.4918 Y78.1845
G01 X187.4815 Y78.2269
G01 X187.4692 Y78.2688
