;Project TeslaParkingOnly_BorderSign
;Created by Estlcam version 11 build 11,227
;Machining time about 00:18:31 hours

G90
M03 S18000
G00 X0.0000 Y0.0000 Z0.0000
G00 Z2.0000


;No. 1: Helical drill 1
G00 X42.2562 Y258.3048
G00 Z0.5000
M106 S240
G01 X42.2524 Y258.2176 Z0.4774 F400 S18000
G01 X42.2410 Y258.1311 Z0.4549
G01 X42.2222 Y258.0459 Z0.4323
G01 X42.1959 Y257.9627 Z0.4097
G01 X42.1625 Y257.8821 Z0.3872
G01 X42.1223 Y257.8048 Z0.3646
G01 X42.0754 Y257.7312 Z0.3420
G01 X42.0223 Y257.6620 Z0.3194
G01 X41.9633 Y257.5977 Z0.2969
G01 X41.8990 Y257.5387 Z0.2743
G01 X41.8298 Y257.4856 Z0.2517
G01 X41.7562 Y257.4387 Z0.2292
G01 X41.6789 Y257.3985 Z0.2066
G01 X41.5983 Y257.3651 Z0.1840
G01 X41.5151 Y257.3388 Z0.1615
G01 X41.4299 Y257.3200 Z0.1389
G01 X41.3434 Y257.3086 Z0.1163
G01 X41.2562 Y257.3048 Z0.0938
G01 X41.1691 Y257.3086 Z0.0712
G01 X41.0826 Y257.3200 Z0.0486
G01 X40.9974 Y257.3388 Z0.0260
G01 X40.9142 Y257.3651 Z0.0035
G01 X40.8336 Y257.3985 Z-0.0191
G01 X40.7562 Y257.4387 Z-0.0417
G01 X40.7156 Y257.4635 Z-0.0540
G01 X40.6762 Y257.4902 Z-0.0663
G01 X40.6381 Y257.5187 Z-0.0786
G01 X40.6014 Y257.5490 Z-0.0909
G01 X40.5662 Y257.5810 Z-0.1032
G01 X40.5325 Y257.6147 Z-0.1155
G01 X40.5005 Y257.6499 Z-0.1278
G01 X40.4702 Y257.6866 Z-0.1402
G01 X40.4417 Y257.7247 Z-0.1525
G01 X40.4150 Y257.7641 Z-0.1648
G01 X40.3902 Y257.8048 Z-0.1771
G01 X40.3674 Y257.8465 Z-0.1894
G01 X40.3466 Y257.8893 Z-0.2017
G01 X40.3279 Y257.9331 Z-0.2140
G01 X40.3112 Y257.9777 Z-0.2263
G01 X40.2967 Y258.0230 Z-0.2386
G01 X40.2844 Y258.0690 Z-0.2509
G01 X40.2743 Y258.1155 Z-0.2633
G01 X40.2664 Y258.1624 Z-0.2756
G01 X40.2608 Y258.2097 Z-0.2879
G01 X40.2574 Y258.2572 Z-0.3002
G01 X40.2562 Y258.3048 Z-0.3125
G01 X40.2574 Y258.3523 Z-0.3248
G01 X40.2608 Y258.3998 Z-0.3371
G01 X40.2664 Y258.4471 Z-0.3494
G01 X40.2743 Y258.4940 Z-0.3617
G01 X40.2844 Y258.5405 Z-0.3741
G01 X40.2967 Y258.5865 Z-0.3864
G01 X40.3112 Y258.6318 Z-0.3987
G01 X40.3279 Y258.6764 Z-0.4110
G01 X40.3466 Y258.7202 Z-0.4233
G01 X40.3674 Y258.7630 Z-0.4356
G01 X40.3902 Y258.8048 Z-0.4479
G01 X40.4150 Y258.8454 Z-0.4602
G01 X40.4417 Y258.8848 Z-0.4725
G01 X40.4702 Y258.9229 Z-0.4848
G01 X40.5005 Y258.9596 Z-0.4972
G01 X40.5325 Y258.9948 Z-0.5095
G01 X40.5662 Y259.0285 Z-0.5218
G01 X40.6014 Y259.0605 Z-0.5341
G01 X40.6381 Y259.0908 Z-0.5464
G01 X40.6762 Y259.1193 Z-0.5587
G01 X40.7156 Y259.1460 Z-0.5710
G01 X40.7562 Y259.1708 Z-0.5833
G01 X40.7980 Y259.1936 Z-0.5956
G01 X40.8408 Y259.2144 Z-0.6080
G01 X40.8846 Y259.2331 Z-0.6203
G01 X40.9292 Y259.2498 Z-0.6326
G01 X40.9745 Y259.2643 Z-0.6449
G01 X41.0205 Y259.2766 Z-0.6572
G01 X41.0670 Y259.2867 Z-0.6695
G01 X41.1139 Y259.2946 Z-0.6818
G01 X41.1612 Y259.3002 Z-0.6941
G01 X41.2087 Y259.3036 Z-0.7064
G01 X41.2562 Y259.3048 Z-0.7188
G01 X41.3038 Y259.3036 Z-0.7311
G01 X41.3513 Y259.3002 Z-0.7434
G01 X41.3986 Y259.2946 Z-0.7557
G01 X41.4455 Y259.2867 Z-0.7680
G01 X41.4920 Y259.2766 Z-0.7803
G01 X41.5380 Y259.2643 Z-0.7926
G01 X41.5833 Y259.2498 Z-0.8049
G01 X41.6279 Y259.2331 Z-0.8172
G01 X41.6717 Y259.2144 Z-0.8295
G01 X41.7145 Y259.1936 Z-0.8419
G01 X41.7562 Y259.1708 Z-0.8542
G01 X41.7969 Y259.1460 Z-0.8665
G01 X41.8363 Y259.1193 Z-0.8788
G01 X41.8744 Y259.0908 Z-0.8911
G01 X41.9111 Y259.0605 Z-0.9034
G01 X41.9463 Y259.0285 Z-0.9157
G01 X41.9800 Y258.9948 Z-0.9280
G01 X42.0120 Y258.9596 Z-0.9403
G01 X42.0423 Y258.9229 Z-0.9527
G01 X42.0708 Y258.8848 Z-0.9650
G01 X42.0975 Y258.8454 Z-0.9773
G01 X42.1223 Y258.8048 Z-0.9896
G01 X42.1451 Y258.7630 Z-1.0019
G01 X42.1659 Y258.7202 Z-1.0142
G01 X42.1846 Y258.6764 Z-1.0265
G01 X42.2012 Y258.6318 Z-1.0388
G01 X42.2157 Y258.5865 Z-1.0511
G01 X42.2281 Y258.5405 Z-1.0634
G01 X42.2382 Y258.4940 Z-1.0758
G01 X42.2461 Y258.4471 Z-1.0881
G01 X42.2517 Y258.3998 Z-1.1004
G01 X42.2551 Y258.3523 Z-1.1127
G01 X42.2562 Y258.3048 Z-1.1250
G01 X42.2524 Y258.2176
G01 X42.2410 Y258.1311
G01 X42.2222 Y258.0459
G01 X42.1959 Y257.9627
G01 X42.1625 Y257.8821
G01 X42.1223 Y257.8048
G01 X42.0754 Y257.7312
G01 X42.0223 Y257.6620
G01 X41.9633 Y257.5977
G01 X41.8990 Y257.5387
G01 X41.8298 Y257.4856
G01 X41.7562 Y257.4387
G01 X41.6789 Y257.3985
G01 X41.5983 Y257.3651
G01 X41.5151 Y257.3388
G01 X41.4299 Y257.3200
G01 X41.3434 Y257.3086
G01 X41.2562 Y257.3048
G01 X41.1691 Y257.3086
G01 X41.0826 Y257.3200
G01 X40.9974 Y257.3388
G01 X40.9142 Y257.3651
G01 X40.8336 Y257.3985
G01 X40.7562 Y257.4387
G01 X40.7156 Y257.4635
G01 X40.6762 Y257.4902
G01 X40.6381 Y257.5187
G01 X40.6014 Y257.5490
G01 X40.5662 Y257.5810
G01 X40.5325 Y257.6147
G01 X40.5005 Y257.6499
G01 X40.4702 Y257.6866
G01 X40.4417 Y257.7247
G01 X40.4150 Y257.7641
G01 X40.3902 Y257.8048
G01 X40.3674 Y257.8465
G01 X40.3466 Y257.8893
G01 X40.3279 Y257.9331
G01 X40.3112 Y257.9777
G01 X40.2967 Y258.0230
G01 X40.2844 Y258.0690
G01 X40.2743 Y258.1155
G01 X40.2664 Y258.1624
G01 X40.2608 Y258.2097
G01 X40.2574 Y258.2572
G01 X40.2562 Y258.3048
G01 X40.2574 Y258.3523
G01 X40.2608 Y258.3998
G01 X40.2664 Y258.4471
G01 X40.2743 Y258.4940
G01 X40.2844 Y258.5405
G01 X40.2967 Y258.5865
G01 X40.3112 Y258.6318
G01 X40.3279 Y258.6764
G01 X40.3466 Y258.7202
G01 X40.3674 Y258.7630
G01 X40.3902 Y258.8048
G01 X40.4150 Y258.8454
G01 X40.4417 Y258.8848
G01 X40.4702 Y258.9229
G01 X40.5005 Y258.9596
G01 X40.5325 Y258.9948
G01 X40.5662 Y259.0285
G01 X40.6014 Y259.0605
G01 X40.6381 Y259.0908
G01 X40.6762 Y259.1193
G01 X40.7156 Y259.1460
G01 X40.7562 Y259.1708
G01 X40.7980 Y259.1936
G01 X40.8408 Y259.2144
G01 X40.8846 Y259.2331
G01 X40.9292 Y259.2498
G01 X40.9745 Y259.2643
G01 X41.0205 Y259.2766
G01 X41.0670 Y259.2867
G01 X41.1139 Y259.2946
G01 X41.1612 Y259.3002
G01 X41.2087 Y259.3036
G01 X41.2562 Y259.3048
G01 X41.3038 Y259.3036
G01 X41.3513 Y259.3002
G01 X41.3986 Y259.2946
G01 X41.4455 Y259.2867
G01 X41.4920 Y259.2766
G01 X41.5380 Y259.2643
G01 X41.5833 Y259.2498
G01 X41.6279 Y259.2331
G01 X41.6717 Y259.2144
G01 X41.7145 Y259.1936
G01 X41.7562 Y259.1708
G01 X41.7969 Y259.1460
G01 X41.8363 Y259.1193
G01 X41.8744 Y259.0908
G01 X41.9111 Y259.0605
G01 X41.9463 Y259.0285
G01 X41.9800 Y258.9948
G01 X42.0120 Y258.9596
G01 X42.0423 Y258.9229
G01 X42.0708 Y258.8848
G01 X42.0975 Y258.8454
G01 X42.1223 Y258.8048
G01 X42.1451 Y258.7630
G01 X42.1659 Y258.7202
G01 X42.1846 Y258.6764
G01 X42.2012 Y258.6318
G01 X42.2157 Y258.5865
G01 X42.2281 Y258.5405
G01 X42.2382 Y258.4940
G01 X42.2461 Y258.4471
G01 X42.2517 Y258.3998
G01 X42.2551 Y258.3523
G01 X42.2562 Y258.3048
G01 X42.2670 Y258.2532 F1000
G01 X42.2751 Y258.2011
G01 X42.2804 Y258.1487
G01 X42.2831 Y258.0960
G01 Y258.0433
G01 X42.2803 Y257.9907
G01 X42.2749 Y257.9383
G01 X42.2667 Y257.8862
G01 X42.2550 Y257.8302
G01 X42.2405 Y257.7749
G01 X42.2231 Y257.7204
G01 X42.2029 Y257.6669
G01 X42.1801 Y257.6144
G01 X42.1546 Y257.5632
G01 X42.1265 Y257.5134
G01 X42.0959 Y257.4651
G01 X42.0595 Y257.4159
G01 X42.0206 Y257.3687
G01 X41.9794 Y257.3234
G01 X41.9360 Y257.2803
G01 X41.8904 Y257.2395
G01 X41.8429 Y257.2010
G01 X41.7934 Y257.1649
G01 X41.7423 Y257.1314
G01 X41.6841 Y257.1090
G01 X41.6249 Y257.0894
G01 X41.5648 Y257.0728
G01 X41.5040 Y257.0591
G01 X41.4426 Y257.0485
G01 X41.3807 Y257.0409
G01 X41.3186 Y257.0363
G01 X41.2562 Y257.0347
G01 X41.1939 Y257.0363
G01 X41.1318 Y257.0409
G01 X41.0699 Y257.0485
G01 X41.0085 Y257.0591
G01 X40.9477 Y257.0728
G01 X40.8876 Y257.0894
G01 X40.8284 Y257.1090
G01 X40.7702 Y257.1314
G01 X40.7132 Y257.1567
G01 X40.6576 Y257.1847
G01 X40.6033 Y257.2154
G01 X40.5507 Y257.2488
G01 X40.4997 Y257.2847
G01 X40.4505 Y257.3230
G01 X40.4033 Y257.3637
G01 X40.3582 Y257.4067
G01 X40.3152 Y257.4519
G01 X40.2745 Y257.4991
G01 X40.2362 Y257.5482
G01 X40.2003 Y257.5992
G01 X40.1669 Y257.6518
G01 X40.1362 Y257.7061
G01 X40.1082 Y257.7618
G01 X40.0829 Y257.8187
G01 X40.0605 Y257.8769
G01 X40.0409 Y257.9361
G01 X40.0243 Y257.9962
G01 X40.0106 Y258.0570
G01 X40.0000 Y258.1184
G01 X39.9923 Y258.1803
G01 X39.9878 Y258.2424
G01 X39.9862 Y258.3048
G01 X39.9878 Y258.3671
G01 X39.9923 Y258.4292
G01 X40.0000 Y258.4911
G01 X40.0106 Y258.5525
G01 X40.0243 Y258.6133
G01 X40.0409 Y258.6734
G01 X40.0605 Y258.7326
G01 X40.0829 Y258.7908
G01 X40.1082 Y258.8478
G01 X40.1362 Y258.9034
G01 X40.1669 Y258.9577
G01 X40.2003 Y259.0103
G01 X40.2362 Y259.0613
G01 X40.2745 Y259.1105
G01 X40.3152 Y259.1577
G01 X40.3582 Y259.2028
G01 X40.4033 Y259.2458
G01 X40.4505 Y259.2865
G01 X40.4997 Y259.3248
G01 X40.5507 Y259.3607
G01 X40.6033 Y259.3941
G01 X40.6576 Y259.4248
G01 X40.7132 Y259.4528
G01 X40.7702 Y259.4781
G01 X40.8284 Y259.5005
G01 X40.8876 Y259.5201
G01 X40.9477 Y259.5367
G01 X41.0085 Y259.5504
G01 X41.0699 Y259.5610
G01 X41.1318 Y259.5687
G01 X41.1939 Y259.5732
G01 X41.2562 Y259.5748
G01 X41.3186 Y259.5732
G01 X41.3807 Y259.5687
G01 X41.4426 Y259.5610
G01 X41.5040 Y259.5504
G01 X41.5648 Y259.5367
G01 X41.6249 Y259.5201
G01 X41.6841 Y259.5005
G01 X41.7423 Y259.4781
G01 X41.7992 Y259.4528
G01 X41.8549 Y259.4248
G01 X41.9092 Y259.3941
G01 X41.9618 Y259.3607
G01 X42.0128 Y259.3248
G01 X42.0619 Y259.2865
G01 X42.1091 Y259.2458
G01 X42.1543 Y259.2028
G01 X42.1973 Y259.1577
G01 X42.2380 Y259.1105
G01 X42.2763 Y259.0613
G01 X42.3122 Y259.0103
G01 X42.3456 Y258.9577
G01 X42.3763 Y258.9034
G01 X42.4043 Y258.8478
G01 X42.4296 Y258.7908
G01 X42.4520 Y258.7326
G01 X42.4716 Y258.6734
G01 X42.4882 Y258.6133
G01 X42.5019 Y258.5525
G01 X42.5125 Y258.4911
G01 X42.5201 Y258.4292
G01 X42.5247 Y258.3671
G01 X42.5263 Y258.3048
G01 X42.5227 Y258.2099
G01 X42.5121 Y258.1155
G01 X42.4944 Y258.0222
G01 X42.4698 Y257.9304
G01 X42.4385 Y257.8408
G01 X42.4005 Y257.7537
G01 X42.3561 Y257.6698
G01 X42.3056 Y257.5893
G01 X42.2492 Y257.5129
G01 X42.1872 Y257.4409
G01 X42.1201 Y257.3738
G01 X42.0481 Y257.3118
G01 X41.9717 Y257.2554
G01 X41.8913 Y257.2049
G01 X41.8073 Y257.1605
G01 X41.7202 Y257.1225
G01 X41.6306 Y257.0912
G01 X41.5388 Y257.0666
G01 X41.4455 Y257.0489
G01 X41.3511 Y257.0383
G01 X41.2562 Y257.0347
G01 X41.1613 Y257.0383
G01 X41.0670 Y257.0489
G01 X40.9736 Y257.0666
G01 X40.8819 Y257.0912
G01 X40.7923 Y257.1225
G01 X40.7052 Y257.1605
G01 X40.6212 Y257.2049
G01 X40.5408 Y257.2554
G01 X40.4644 Y257.3118
G01 X40.3924 Y257.3738
G01 X40.3253 Y257.4409
G01 X40.2633 Y257.5129
G01 X40.2069 Y257.5893
G01 X40.1564 Y257.6698
G01 X40.1120 Y257.7537
G01 X40.0740 Y257.8408
G01 X40.0426 Y257.9304
G01 X40.0181 Y258.0222
G01 X40.0004 Y258.1155
G01 X39.9898 Y258.2099
G01 X39.9862 Y258.3048
G01 X39.9898 Y258.3997
G01 X40.0004 Y258.4940
G01 X40.0181 Y258.5874
G01 X40.0426 Y258.6791
G01 X40.0740 Y258.7688
G01 X40.1120 Y258.8558
G01 X40.1564 Y258.9398
G01 X40.2069 Y259.0202
G01 X40.2633 Y259.0966
G01 X40.3253 Y259.1686
G01 X40.3924 Y259.2358
G01 X40.4644 Y259.2977
G01 X40.5408 Y259.3541
G01 X40.6212 Y259.4046
G01 X40.7052 Y259.4490
G01 X40.7923 Y259.4870
G01 X40.8819 Y259.5184
G01 X40.9736 Y259.5429
G01 X41.0670 Y259.5606
G01 X41.1613 Y259.5712
G01 X41.2562 Y259.5748
G01 X41.3511 Y259.5712
G01 X41.4455 Y259.5606
G01 X41.5388 Y259.5429
G01 X41.6306 Y259.5184
G01 X41.7202 Y259.4870
G01 X41.8073 Y259.4490
G01 X41.8913 Y259.4046
G01 X41.9717 Y259.3541
G01 X42.0481 Y259.2977
G01 X42.1201 Y259.2358
G01 X42.1872 Y259.1686
G01 X42.2492 Y259.0966
G01 X42.3056 Y259.0202
G01 X42.3561 Y258.9398
G01 X42.4005 Y258.8558
G01 X42.4385 Y258.7688
G01 X42.4698 Y258.6791
G01 X42.4944 Y258.5874
G01 X42.5121 Y258.4940
G01 X42.5227 Y258.3997
G01 X42.5263 Y258.3048
G01 X42.5219 Y258.2058
G01 X42.5090 Y258.1077
G01 X42.4876 Y258.0110
G01 X42.4578 Y257.9166
G01 X42.4199 Y257.8251
G01 X42.3742 Y257.7373
G01 X42.3210 Y257.6537
G01 X42.2607 Y257.5752
G01 X42.1938 Y257.5022
G01 X42.1208 Y257.4353
G01 X42.0423 Y257.3750
G01 X41.9588 Y257.3218
G01 X41.8709 Y257.2761
G01 X41.7794 Y257.2382
G01 X41.6850 Y257.2084
G01 X41.5883 Y257.1870
G01 X41.4902 Y257.1741
G01 X41.3913 Y257.1698
G01 X41.2923 Y257.1741
G01 X41.1942 Y257.1870
G01 X41.0975 Y257.2084
G01 X41.0031 Y257.2382
G01 X40.9116 Y257.2761
G01 X40.8237 Y257.3218
G01 X40.7402 Y257.3750
G01 X40.6617 Y257.4353
G01 X40.5887 Y257.5022
G01 X40.5218 Y257.5752
G01 X40.4615 Y257.6537
G01 X40.4083 Y257.7373
G01 X40.3626 Y257.8251
G01 X40.3247 Y257.9166
G01 X40.2949 Y258.0110
G01 X40.2735 Y258.1077
G01 X40.2606 Y258.2058
G01 X40.2562 Y258.3048
G01 X40.2573 Y258.3509
G01 X40.2605 Y258.3970
G01 X40.2658 Y258.4429
G01 X40.2733 Y258.4885
G01 X40.2828 Y258.5337
G01 X40.2944 Y258.5784
G01 X40.3081 Y258.6226
G01 X40.3238 Y258.6660
G01 X40.3414 Y258.7087
G01 X40.3611 Y258.7505
G01 X40.3826 Y258.7914
G01 X40.4060 Y258.8312
G01 X40.4312 Y258.8699
G01 X40.4582 Y258.9074
G01 X40.4869 Y258.9436
G01 X40.5172 Y258.9785
G01 X40.5491 Y259.0119
G01 X40.5825 Y259.0438
G01 X40.6174 Y259.0741
G01 X40.6536 Y259.1028
G01 X40.6911 Y259.1298
G01 X40.7298 Y259.1550
G01 X40.7696 Y259.1784
G01 X40.8105 Y259.1999
G01 X40.8523 Y259.2196
G01 X40.8950 Y259.2372
G01 X40.9384 Y259.2529
G01 X40.9826 Y259.2666
G01 X41.0273 Y259.2782
G01 X41.0725 Y259.2877
G01 X41.1181 Y259.2952
G01 X41.1640 Y259.3005
G01 X41.2101 Y259.3037
G01 X41.2562 Y259.3048
G01 X41.3024 Y259.3037
G01 X41.3485 Y259.3005
G01 X41.3944 Y259.2952
G01 X41.4400 Y259.2877
G01 X41.4852 Y259.2782
G01 X41.5299 Y259.2666
G01 X41.5740 Y259.2529
G01 X41.6175 Y259.2372
G01 X41.6602 Y259.2196
G01 X41.7020 Y259.1999
G01 X41.7428 Y259.1784
G01 X41.7827 Y259.1550
G01 X41.8214 Y259.1298
G01 X41.8589 Y259.1028
G01 X41.8951 Y259.0741
G01 X41.9299 Y259.0438
G01 X41.9633 Y259.0119
G01 X41.9953 Y258.9785
G01 X42.0256 Y258.9436
G01 X42.0543 Y258.9074
G01 X42.0812 Y258.8699
G01 X42.1065 Y258.8312
G01 X42.1299 Y258.7914
G01 X42.1514 Y258.7505
G01 X42.1710 Y258.7087
G01 X42.1887 Y258.6660
G01 X42.2044 Y258.6226
G01 X42.2181 Y258.5784
G01 X42.2297 Y258.5337
G01 X42.2392 Y258.4885
G01 X42.2467 Y258.4429
G01 X42.2520 Y258.3970
G01 X42.2552 Y258.3509
G01 X42.2562 Y258.3048
M107
M106 S240
G01 X42.2524 Y258.2176 Z-1.1476 F400
G01 X42.2410 Y258.1311 Z-1.1701
G01 X42.2222 Y258.0459 Z-1.1927
G01 X42.1959 Y257.9627 Z-1.2153
G01 X42.1625 Y257.8821 Z-1.2378
G01 X42.1223 Y257.8048 Z-1.2604
G01 X42.0754 Y257.7312 Z-1.2830
G01 X42.0223 Y257.6620 Z-1.3056
G01 X41.9633 Y257.5977 Z-1.3281
G01 X41.8990 Y257.5387 Z-1.3507
G01 X41.8298 Y257.4856 Z-1.3733
G01 X41.7562 Y257.4387 Z-1.3958
G01 X41.6789 Y257.3985 Z-1.4184
G01 X41.5983 Y257.3651 Z-1.4410
G01 X41.5151 Y257.3388 Z-1.4635
G01 X41.4299 Y257.3200 Z-1.4861
G01 X41.3434 Y257.3086 Z-1.5087
G01 X41.2562 Y257.3048 Z-1.5313
G01 X41.1691 Y257.3086 Z-1.5538
G01 X41.0826 Y257.3200 Z-1.5764
G01 X40.9974 Y257.3388 Z-1.5990
G01 X40.9142 Y257.3651 Z-1.6215
G01 X40.8336 Y257.3985 Z-1.6441
G01 X40.7562 Y257.4387 Z-1.6667
G01 X40.7156 Y257.4635 Z-1.6790
G01 X40.6762 Y257.4902 Z-1.6913
G01 X40.6381 Y257.5187 Z-1.7036
G01 X40.6014 Y257.5490 Z-1.7159
G01 X40.5662 Y257.5810 Z-1.7282
G01 X40.5325 Y257.6147 Z-1.7405
G01 X40.5005 Y257.6499 Z-1.7528
G01 X40.4702 Y257.6866 Z-1.7652
G01 X40.4417 Y257.7247 Z-1.7775
G01 X40.4150 Y257.7641 Z-1.7898
G01 X40.3902 Y257.8048 Z-1.8021
G01 X40.3674 Y257.8465 Z-1.8144
G01 X40.3466 Y257.8893 Z-1.8267
G01 X40.3279 Y257.9331 Z-1.8390
G01 X40.3112 Y257.9777 Z-1.8513
G01 X40.2967 Y258.0230 Z-1.8636
G01 X40.2844 Y258.0690 Z-1.8759
G01 X40.2743 Y258.1155 Z-1.8883
G01 X40.2664 Y258.1624 Z-1.9006
G01 X40.2608 Y258.2097 Z-1.9129
G01 X40.2574 Y258.2572 Z-1.9252
G01 X40.2562 Y258.3048 Z-1.9375
G01 X40.2574 Y258.3523 Z-1.9498
G01 X40.2608 Y258.3998 Z-1.9621
G01 X40.2664 Y258.4471 Z-1.9744
G01 X40.2743 Y258.4940 Z-1.9867
G01 X40.2844 Y258.5405 Z-1.9991
G01 X40.2967 Y258.5865 Z-2.0114
G01 X40.3112 Y258.6318 Z-2.0237
G01 X40.3279 Y258.6764 Z-2.0360
G01 X40.3466 Y258.7202 Z-2.0483
G01 X40.3674 Y258.7630 Z-2.0606
G01 X40.3902 Y258.8048 Z-2.0729
G01 X40.4150 Y258.8454 Z-2.0852
G01 X40.4417 Y258.8848 Z-2.0975
G01 X40.4702 Y258.9229 Z-2.1098
G01 X40.5005 Y258.9596 Z-2.1222
G01 X40.5325 Y258.9948 Z-2.1345
G01 X40.5662 Y259.0285 Z-2.1468
G01 X40.6014 Y259.0605 Z-2.1591
G01 X40.6381 Y259.0908 Z-2.1714
G01 X40.6762 Y259.1193 Z-2.1837
G01 X40.7156 Y259.1460 Z-2.1960
G01 X40.7562 Y259.1708 Z-2.2083
G01 X40.7980 Y259.1936 Z-2.2206
G01 X40.8408 Y259.2144 Z-2.2330
G01 X40.8846 Y259.2331 Z-2.2453
G01 X40.9292 Y259.2498 Z-2.2576
G01 X40.9745 Y259.2643 Z-2.2699
G01 X41.0205 Y259.2766 Z-2.2822
G01 X41.0670 Y259.2867 Z-2.2945
G01 X41.1139 Y259.2946 Z-2.3068
G01 X41.1612 Y259.3002 Z-2.3191
G01 X41.2087 Y259.3036 Z-2.3314
G01 X41.2562 Y259.3048 Z-2.3438
G01 X41.3038 Y259.3036 Z-2.3561
G01 X41.3513 Y259.3002 Z-2.3684
G01 X41.3986 Y259.2946 Z-2.3807
G01 X41.4455 Y259.2867 Z-2.3930
G01 X41.4920 Y259.2766 Z-2.4053
G01 X41.5380 Y259.2643 Z-2.4176
G01 X41.5833 Y259.2498 Z-2.4299
G01 X41.6279 Y259.2331 Z-2.4422
G01 X41.6717 Y259.2144 Z-2.4545
G01 X41.7145 Y259.1936 Z-2.4669
G01 X41.7562 Y259.1708 Z-2.4792
G01 X41.7969 Y259.1460 Z-2.4915
G01 X41.8363 Y259.1193 Z-2.5038
G01 X41.8744 Y259.0908 Z-2.5161
G01 X41.9111 Y259.0605 Z-2.5284
G01 X41.9463 Y259.0285 Z-2.5407
G01 X41.9800 Y258.9948 Z-2.5530
G01 X42.0120 Y258.9596 Z-2.5653
G01 X42.0423 Y258.9229 Z-2.5777
G01 X42.0708 Y258.8848 Z-2.5900
G01 X42.0975 Y258.8454 Z-2.6023
G01 X42.1223 Y258.8048 Z-2.6146
G01 X42.1451 Y258.7630 Z-2.6269
G01 X42.1659 Y258.7202 Z-2.6392
G01 X42.1846 Y258.6764 Z-2.6515
G01 X42.2012 Y258.6318 Z-2.6638
G01 X42.2157 Y258.5865 Z-2.6761
G01 X42.2281 Y258.5405 Z-2.6884
G01 X42.2382 Y258.4940 Z-2.7008
G01 X42.2461 Y258.4471 Z-2.7131
G01 X42.2517 Y258.3998 Z-2.7254
G01 X42.2551 Y258.3523 Z-2.7377
G01 X42.2562 Y258.3048 Z-2.7500
G01 X42.2524 Y258.2176
G01 X42.2410 Y258.1311
G01 X42.2222 Y258.0459
G01 X42.1959 Y257.9627
G01 X42.1625 Y257.8821
G01 X42.1223 Y257.8048
G01 X42.0754 Y257.7312
G01 X42.0223 Y257.6620
G01 X41.9633 Y257.5977
G01 X41.8990 Y257.5387
G01 X41.8298 Y257.4856
G01 X41.7562 Y257.4387
G01 X41.6789 Y257.3985
G01 X41.5983 Y257.3651
G01 X41.5151 Y257.3388
G01 X41.4299 Y257.3200
G01 X41.3434 Y257.3086
G01 X41.2562 Y257.3048
G01 X41.1691 Y257.3086
G01 X41.0826 Y257.3200
G01 X40.9974 Y257.3388
G01 X40.9142 Y257.3651
G01 X40.8336 Y257.3985
G01 X40.7562 Y257.4387
G01 X40.7156 Y257.4635
G01 X40.6762 Y257.4902
G01 X40.6381 Y257.5187
G01 X40.6014 Y257.5490
G01 X40.5662 Y257.5810
G01 X40.5325 Y257.6147
G01 X40.5005 Y257.6499
G01 X40.4702 Y257.6866
G01 X40.4417 Y257.7247
G01 X40.4150 Y257.7641
G01 X40.3902 Y257.8048
G01 X40.3674 Y257.8465
G01 X40.3466 Y257.8893
G01 X40.3279 Y257.9331
G01 X40.3112 Y257.9777
G01 X40.2967 Y258.0230
G01 X40.2844 Y258.0690
G01 X40.2743 Y258.1155
G01 X40.2664 Y258.1624
G01 X40.2608 Y258.2097
G01 X40.2574 Y258.2572
G01 X40.2562 Y258.3048
G01 X40.2574 Y258.3523
G01 X40.2608 Y258.3998
G01 X40.2664 Y258.4471
G01 X40.2743 Y258.4940
G01 X40.2844 Y258.5405
G01 X40.2967 Y258.5865
G01 X40.3112 Y258.6318
G01 X40.3279 Y258.6764
G01 X40.3466 Y258.7202
G01 X40.3674 Y258.7630
G01 X40.3902 Y258.8048
G01 X40.4150 Y258.8454
G01 X40.4417 Y258.8848
G01 X40.4702 Y258.9229
G01 X40.5005 Y258.9596
G01 X40.5325 Y258.9948
G01 X40.5662 Y259.0285
G01 X40.6014 Y259.0605
G01 X40.6381 Y259.0908
G01 X40.6762 Y259.1193
G01 X40.7156 Y259.1460
G01 X40.7562 Y259.1708
G01 X40.7980 Y259.1936
G01 X40.8408 Y259.2144
G01 X40.8846 Y259.2331
G01 X40.9292 Y259.2498
G01 X40.9745 Y259.2643
G01 X41.0205 Y259.2766
G01 X41.0670 Y259.2867
G01 X41.1139 Y259.2946
G01 X41.1612 Y259.3002
G01 X41.2087 Y259.3036
G01 X41.2562 Y259.3048
G01 X41.3038 Y259.3036
G01 X41.3513 Y259.3002
G01 X41.3986 Y259.2946
G01 X41.4455 Y259.2867
G01 X41.4920 Y259.2766
G01 X41.5380 Y259.2643
G01 X41.5833 Y259.2498
G01 X41.6279 Y259.2331
G01 X41.6717 Y259.2144
G01 X41.7145 Y259.1936
G01 X41.7562 Y259.1708
G01 X41.7969 Y259.1460
G01 X41.8363 Y259.1193
G01 X41.8744 Y259.0908
G01 X41.9111 Y259.0605
G01 X41.9463 Y259.0285
G01 X41.9800 Y258.9948
G01 X42.0120 Y258.9596
G01 X42.0423 Y258.9229
G01 X42.0708 Y258.8848
G01 X42.0975 Y258.8454
G01 X42.1223 Y258.8048
G01 X42.1451 Y258.7630
G01 X42.1659 Y258.7202
G01 X42.1846 Y258.6764
G01 X42.2012 Y258.6318
G01 X42.2157 Y258.5865
G01 X42.2281 Y258.5405
G01 X42.2382 Y258.4940
G01 X42.2461 Y258.4471
G01 X42.2517 Y258.3998
G01 X42.2551 Y258.3523
G01 X42.2562 Y258.3048
G01 X42.2670 Y258.2532 F1000
G01 X42.2751 Y258.2011
G01 X42.2804 Y258.1487
G01 X42.2831 Y258.0960
G01 Y258.0433
G01 X42.2803 Y257.9907
G01 X42.2749 Y257.9383
G01 X42.2667 Y257.8862
G01 X42.2550 Y257.8302
G01 X42.2405 Y257.7749
G01 X42.2231 Y257.7204
G01 X42.2029 Y257.6669
G01 X42.1801 Y257.6144
G01 X42.1546 Y257.5632
G01 X42.1265 Y257.5134
G01 X42.0959 Y257.4651
G01 X42.0595 Y257.4159
G01 X42.0206 Y257.3687
G01 X41.9794 Y257.3234
G01 X41.9360 Y257.2803
G01 X41.8904 Y257.2395
G01 X41.8429 Y257.2010
G01 X41.7934 Y257.1649
G01 X41.7423 Y257.1314
G01 X41.6841 Y257.1090
G01 X41.6249 Y257.0894
G01 X41.5648 Y257.0728
G01 X41.5040 Y257.0591
G01 X41.4426 Y257.0485
G01 X41.3807 Y257.0409
G01 X41.3186 Y257.0363
G01 X41.2562 Y257.0347
G01 X41.1939 Y257.0363
G01 X41.1318 Y257.0409
G01 X41.0699 Y257.0485
G01 X41.0085 Y257.0591
G01 X40.9477 Y257.0728
G01 X40.8876 Y257.0894
G01 X40.8284 Y257.1090
G01 X40.7702 Y257.1314
G01 X40.7132 Y257.1567
G01 X40.6576 Y257.1847
G01 X40.6033 Y257.2154
G01 X40.5507 Y257.2488
G01 X40.4997 Y257.2847
G01 X40.4505 Y257.3230
G01 X40.4033 Y257.3637
G01 X40.3582 Y257.4067
G01 X40.3152 Y257.4519
G01 X40.2745 Y257.4991
G01 X40.2362 Y257.5482
G01 X40.2003 Y257.5992
G01 X40.1669 Y257.6518
G01 X40.1362 Y257.7061
G01 X40.1082 Y257.7618
G01 X40.0829 Y257.8187
G01 X40.0605 Y257.8769
G01 X40.0409 Y257.9361
G01 X40.0243 Y257.9962
G01 X40.0106 Y258.0570
G01 X40.0000 Y258.1184
G01 X39.9923 Y258.1803
G01 X39.9878 Y258.2424
G01 X39.9862 Y258.3048
G01 X39.9878 Y258.3671
G01 X39.9923 Y258.4292
G01 X40.0000 Y258.4911
G01 X40.0106 Y258.5525
G01 X40.0243 Y258.6133
G01 X40.0409 Y258.6734
G01 X40.0605 Y258.7326
G01 X40.0829 Y258.7908
G01 X40.1082 Y258.8478
G01 X40.1362 Y258.9034
G01 X40.1669 Y258.9577
G01 X40.2003 Y259.0103
G01 X40.2362 Y259.0613
G01 X40.2745 Y259.1105
G01 X40.3152 Y259.1577
G01 X40.3582 Y259.2028
G01 X40.4033 Y259.2458
G01 X40.4505 Y259.2865
G01 X40.4997 Y259.3248
G01 X40.5507 Y259.3607
G01 X40.6033 Y259.3941
G01 X40.6576 Y259.4248
G01 X40.7132 Y259.4528
G01 X40.7702 Y259.4781
G01 X40.8284 Y259.5005
G01 X40.8876 Y259.5201
G01 X40.9477 Y259.5367
G01 X41.0085 Y259.5504
G01 X41.0699 Y259.5610
G01 X41.1318 Y259.5687
G01 X41.1939 Y259.5732
G01 X41.2562 Y259.5748
G01 X41.3186 Y259.5732
G01 X41.3807 Y259.5687
G01 X41.4426 Y259.5610
G01 X41.5040 Y259.5504
G01 X41.5648 Y259.5367
G01 X41.6249 Y259.5201
G01 X41.6841 Y259.5005
G01 X41.7423 Y259.4781
G01 X41.7992 Y259.4528
G01 X41.8549 Y259.4248
G01 X41.9092 Y259.3941
G01 X41.9618 Y259.3607
G01 X42.0128 Y259.3248
G01 X42.0619 Y259.2865
G01 X42.1091 Y259.2458
G01 X42.1543 Y259.2028
G01 X42.1973 Y259.1577
G01 X42.2380 Y259.1105
G01 X42.2763 Y259.0613
G01 X42.3122 Y259.0103
G01 X42.3456 Y258.9577
G01 X42.3763 Y258.9034
G01 X42.4043 Y258.8478
G01 X42.4296 Y258.7908
G01 X42.4520 Y258.7326
G01 X42.4716 Y258.6734
G01 X42.4882 Y258.6133
G01 X42.5019 Y258.5525
G01 X42.5125 Y258.4911
G01 X42.5201 Y258.4292
G01 X42.5247 Y258.3671
G01 X42.5263 Y258.3048
G01 X42.5227 Y258.2099
G01 X42.5121 Y258.1155
G01 X42.4944 Y258.0222
G01 X42.4698 Y257.9304
G01 X42.4385 Y257.8408
G01 X42.4005 Y257.7537
G01 X42.3561 Y257.6698
G01 X42.3056 Y257.5893
G01 X42.2492 Y257.5129
G01 X42.1872 Y257.4409
G01 X42.1201 Y257.3738
G01 X42.0481 Y257.3118
G01 X41.9717 Y257.2554
G01 X41.8913 Y257.2049
G01 X41.8073 Y257.1605
G01 X41.7202 Y257.1225
G01 X41.6306 Y257.0912
G01 X41.5388 Y257.0666
G01 X41.4455 Y257.0489
G01 X41.3511 Y257.0383
G01 X41.2562 Y257.0347
G01 X41.1613 Y257.0383
G01 X41.0670 Y257.0489
G01 X40.9736 Y257.0666
G01 X40.8819 Y257.0912
G01 X40.7923 Y257.1225
G01 X40.7052 Y257.1605
G01 X40.6212 Y257.2049
G01 X40.5408 Y257.2554
G01 X40.4644 Y257.3118
G01 X40.3924 Y257.3738
G01 X40.3253 Y257.4409
G01 X40.2633 Y257.5129
G01 X40.2069 Y257.5893
G01 X40.1564 Y257.6698
G01 X40.1120 Y257.7537
G01 X40.0740 Y257.8408
G01 X40.0426 Y257.9304
G01 X40.0181 Y258.0222
G01 X40.0004 Y258.1155
G01 X39.9898 Y258.2099
G01 X39.9862 Y258.3048
G01 X39.9898 Y258.3997
G01 X40.0004 Y258.4940
G01 X40.0181 Y258.5874
G01 X40.0426 Y258.6791
G01 X40.0740 Y258.7688
G01 X40.1120 Y258.8558
G01 X40.1564 Y258.9398
G01 X40.2069 Y259.0202
G01 X40.2633 Y259.0966
G01 X40.3253 Y259.1686
G01 X40.3924 Y259.2358
G01 X40.4644 Y259.2977
G01 X40.5408 Y259.3541
G01 X40.6212 Y259.4046
G01 X40.7052 Y259.4490
G01 X40.7923 Y259.4870
G01 X40.8819 Y259.5184
G01 X40.9736 Y259.5429
G01 X41.0670 Y259.5606
G01 X41.1613 Y259.5712
G01 X41.2562 Y259.5748
G01 X41.3511 Y259.5712
G01 X41.4455 Y259.5606
G01 X41.5388 Y259.5429
G01 X41.6306 Y259.5184
G01 X41.7202 Y259.4870
G01 X41.8073 Y259.4490
G01 X41.8913 Y259.4046
G01 X41.9717 Y259.3541
G01 X42.0481 Y259.2977
G01 X42.1201 Y259.2358
G01 X42.1872 Y259.1686
G01 X42.2492 Y259.0966
G01 X42.3056 Y259.0202
G01 X42.3561 Y258.9398
G01 X42.4005 Y258.8558
G01 X42.4385 Y258.7688
G01 X42.4698 Y258.6791
G01 X42.4944 Y258.5874
G01 X42.5121 Y258.4940
G01 X42.5227 Y258.3997
G01 X42.5263 Y258.3048
G01 X42.5219 Y258.2058
G01 X42.5090 Y258.1077
G01 X42.4876 Y258.0110
G01 X42.4578 Y257.9166
G01 X42.4199 Y257.8251
G01 X42.3742 Y257.7373
G01 X42.3210 Y257.6537
G01 X42.2607 Y257.5752
G01 X42.1938 Y257.5022
G01 X42.1208 Y257.4353
G01 X42.0423 Y257.3750
G01 X41.9588 Y257.3218
G01 X41.8709 Y257.2761
G01 X41.7794 Y257.2382
G01 X41.6850 Y257.2084
G01 X41.5883 Y257.1870
G01 X41.4902 Y257.1741
G01 X41.3913 Y257.1698
G01 X41.2923 Y257.1741
G01 X41.1942 Y257.1870
G01 X41.0975 Y257.2084
G01 X41.0031 Y257.2382
G01 X40.9116 Y257.2761
G01 X40.8237 Y257.3218
G01 X40.7402 Y257.3750
G01 X40.6617 Y257.4353
G01 X40.5887 Y257.5022
G01 X40.5218 Y257.5752
G01 X40.4615 Y257.6537
G01 X40.4083 Y257.7373
G01 X40.3626 Y257.8251
G01 X40.3247 Y257.9166
G01 X40.2949 Y258.0110
G01 X40.2735 Y258.1077
G01 X40.2606 Y258.2058
G01 X40.2562 Y258.3048
G01 X40.2573 Y258.3509
G01 X40.2605 Y258.3970
G01 X40.2658 Y258.4429
G01 X40.2733 Y258.4885
G01 X40.2828 Y258.5337
G01 X40.2944 Y258.5784
G01 X40.3081 Y258.6226
G01 X40.3238 Y258.6660
G01 X40.3414 Y258.7087
G01 X40.3611 Y258.7505
G01 X40.3826 Y258.7914
G01 X40.4060 Y258.8312
G01 X40.4312 Y258.8699
G01 X40.4582 Y258.9074
G01 X40.4869 Y258.9436
G01 X40.5172 Y258.9785
G01 X40.5491 Y259.0119
G01 X40.5825 Y259.0438
G01 X40.6174 Y259.0741
G01 X40.6536 Y259.1028
G01 X40.6911 Y259.1298
G01 X40.7298 Y259.1550
G01 X40.7696 Y259.1784
G01 X40.8105 Y259.1999
G01 X40.8523 Y259.2196
G01 X40.8950 Y259.2372
G01 X40.9384 Y259.2529
G01 X40.9826 Y259.2666
G01 X41.0273 Y259.2782
G01 X41.0725 Y259.2877
G01 X41.1181 Y259.2952
G01 X41.1640 Y259.3005
G01 X41.2101 Y259.3037
G01 X41.2562 Y259.3048
G01 X41.3024 Y259.3037
G01 X41.3485 Y259.3005
G01 X41.3944 Y259.2952
G01 X41.4400 Y259.2877
G01 X41.4852 Y259.2782
G01 X41.5299 Y259.2666
G01 X41.5740 Y259.2529
G01 X41.6175 Y259.2372
G01 X41.6602 Y259.2196
G01 X41.7020 Y259.1999
G01 X41.7428 Y259.1784
G01 X41.7827 Y259.1550
G01 X41.8214 Y259.1298
G01 X41.8589 Y259.1028
G01 X41.8951 Y259.0741
G01 X41.9299 Y259.0438
G01 X41.9633 Y259.0119
G01 X41.9953 Y258.9785
G01 X42.0256 Y258.9436
G01 X42.0543 Y258.9074
G01 X42.0812 Y258.8699
G01 X42.1065 Y258.8312
G01 X42.1299 Y258.7914
G01 X42.1514 Y258.7505
G01 X42.1710 Y258.7087
G01 X42.1887 Y258.6660
G01 X42.2044 Y258.6226
G01 X42.2181 Y258.5784
G01 X42.2297 Y258.5337
G01 X42.2392 Y258.4885
G01 X42.2467 Y258.4429
G01 X42.2520 Y258.3970
G01 X42.2552 Y258.3509
G01 X42.2562 Y258.3048
M107
M106 S240
G01 X42.2524 Y258.2176 Z-2.7726 F400
G01 X42.2410 Y258.1311 Z-2.7951
G01 X42.2222 Y258.0459 Z-2.8177
G01 X42.1959 Y257.9627 Z-2.8403
G01 X42.1625 Y257.8821 Z-2.8628
G01 X42.1223 Y257.8048 Z-2.8854
G01 X42.0754 Y257.7312 Z-2.9080
G01 X42.0223 Y257.6620 Z-2.9306
G01 X41.9633 Y257.5977 Z-2.9531
G01 X41.8990 Y257.5387 Z-2.9757
G01 X41.8298 Y257.4856 Z-2.9983
G01 X41.7562 Y257.4387 Z-3.0208
G01 X41.6789 Y257.3985 Z-3.0434
G01 X41.5983 Y257.3651 Z-3.0660
G01 X41.5151 Y257.3388 Z-3.0885
G01 X41.4299 Y257.3200 Z-3.1111
G01 X41.3434 Y257.3086 Z-3.1337
G01 X41.2562 Y257.3048 Z-3.1563
G01 X41.1691 Y257.3086 Z-3.1788
G01 X41.0826 Y257.3200 Z-3.2014
G01 X40.9974 Y257.3388 Z-3.2240
G01 X40.9142 Y257.3651 Z-3.2465
G01 X40.8336 Y257.3985 Z-3.2691
G01 X40.7562 Y257.4387 Z-3.2917
G01 X40.7156 Y257.4635 Z-3.3040
G01 X40.6762 Y257.4902 Z-3.3163
G01 X40.6381 Y257.5187 Z-3.3286
G01 X40.6014 Y257.5490 Z-3.3409
G01 X40.5662 Y257.5810 Z-3.3532
G01 X40.5325 Y257.6147 Z-3.3655
G01 X40.5005 Y257.6499 Z-3.3778
G01 X40.4702 Y257.6866 Z-3.3902
G01 X40.4417 Y257.7247 Z-3.4025
G01 X40.4150 Y257.7641 Z-3.4148
G01 X40.3902 Y257.8048 Z-3.4271
G01 X40.3674 Y257.8465 Z-3.4394
G01 X40.3466 Y257.8893 Z-3.4517
G01 X40.3279 Y257.9331 Z-3.4640
G01 X40.3112 Y257.9777 Z-3.4763
G01 X40.2967 Y258.0230 Z-3.4886
G01 X40.2844 Y258.0690 Z-3.5009
G01 X40.2743 Y258.1155 Z-3.5133
G01 X40.2664 Y258.1624 Z-3.5256
G01 X40.2608 Y258.2097 Z-3.5379
G01 X40.2574 Y258.2572 Z-3.5502
G01 X40.2562 Y258.3048 Z-3.5625
G01 X40.2574 Y258.3523 Z-3.5748
G01 X40.2608 Y258.3998 Z-3.5871
G01 X40.2664 Y258.4471 Z-3.5994
G01 X40.2743 Y258.4940 Z-3.6117
G01 X40.2844 Y258.5405 Z-3.6241
G01 X40.2967 Y258.5865 Z-3.6364
G01 X40.3112 Y258.6318 Z-3.6487
G01 X40.3279 Y258.6764 Z-3.6610
G01 X40.3466 Y258.7202 Z-3.6733
G01 X40.3674 Y258.7630 Z-3.6856
G01 X40.3902 Y258.8048 Z-3.6979
G01 X40.4150 Y258.8454 Z-3.7102
G01 X40.4417 Y258.8848 Z-3.7225
G01 X40.4702 Y258.9229 Z-3.7348
G01 X40.5005 Y258.9596 Z-3.7472
G01 X40.5325 Y258.9948 Z-3.7595
G01 X40.5662 Y259.0285 Z-3.7718
G01 X40.6014 Y259.0605 Z-3.7841
G01 X40.6381 Y259.0908 Z-3.7964
G01 X40.6762 Y259.1193 Z-3.8087
G01 X40.7156 Y259.1460 Z-3.8210
G01 X40.7562 Y259.1708 Z-3.8333
G01 X40.7980 Y259.1936 Z-3.8456
G01 X40.8408 Y259.2144 Z-3.8580
G01 X40.8846 Y259.2331 Z-3.8703
G01 X40.9292 Y259.2498 Z-3.8826
G01 X40.9745 Y259.2643 Z-3.8949
G01 X41.0205 Y259.2766 Z-3.9072
G01 X41.0670 Y259.2867 Z-3.9195
G01 X41.1139 Y259.2946 Z-3.9318
G01 X41.1612 Y259.3002 Z-3.9441
G01 X41.2087 Y259.3036 Z-3.9564
G01 X41.2562 Y259.3048 Z-3.9688
G01 X41.3038 Y259.3036 Z-3.9811
G01 X41.3513 Y259.3002 Z-3.9934
G01 X41.3986 Y259.2946 Z-4.0057
G01 X41.4455 Y259.2867 Z-4.0180
G01 X41.4920 Y259.2766 Z-4.0303
G01 X41.5380 Y259.2643 Z-4.0426
G01 X41.5833 Y259.2498 Z-4.0549
G01 X41.6279 Y259.2331 Z-4.0672
G01 X41.6717 Y259.2144 Z-4.0795
G01 X41.7145 Y259.1936 Z-4.0919
G01 X41.7562 Y259.1708 Z-4.1042
G01 X41.7969 Y259.1460 Z-4.1165
G01 X41.8363 Y259.1193 Z-4.1288
G01 X41.8744 Y259.0908 Z-4.1411
G01 X41.9111 Y259.0605 Z-4.1534
G01 X41.9463 Y259.0285 Z-4.1657
G01 X41.9800 Y258.9948 Z-4.1780
G01 X42.0120 Y258.9596 Z-4.1903
G01 X42.0423 Y258.9229 Z-4.2027
G01 X42.0708 Y258.8848 Z-4.2150
G01 X42.0975 Y258.8454 Z-4.2273
G01 X42.1223 Y258.8048 Z-4.2396
G01 X42.1451 Y258.7630 Z-4.2519
G01 X42.1659 Y258.7202 Z-4.2642
G01 X42.1846 Y258.6764 Z-4.2765
G01 X42.2012 Y258.6318 Z-4.2888
G01 X42.2157 Y258.5865 Z-4.3011
G01 X42.2281 Y258.5405 Z-4.3134
G01 X42.2382 Y258.4940 Z-4.3258
G01 X42.2461 Y258.4471 Z-4.3381
G01 X42.2517 Y258.3998 Z-4.3504
G01 X42.2551 Y258.3523 Z-4.3627
G01 X42.2562 Y258.3048 Z-4.3750
G01 X42.2524 Y258.2176
G01 X42.2410 Y258.1311
G01 X42.2222 Y258.0459
G01 X42.1959 Y257.9627
G01 X42.1625 Y257.8821
G01 X42.1223 Y257.8048
G01 X42.0754 Y257.7312
G01 X42.0223 Y257.6620
G01 X41.9633 Y257.5977
G01 X41.8990 Y257.5387
G01 X41.8298 Y257.4856
G01 X41.7562 Y257.4387
G01 X41.6789 Y257.3985
G01 X41.5983 Y257.3651
G01 X41.5151 Y257.3388
G01 X41.4299 Y257.3200
G01 X41.3434 Y257.3086
G01 X41.2562 Y257.3048
G01 X41.1691 Y257.3086
G01 X41.0826 Y257.3200
G01 X40.9974 Y257.3388
G01 X40.9142 Y257.3651
G01 X40.8336 Y257.3985
G01 X40.7562 Y257.4387
G01 X40.7156 Y257.4635
G01 X40.6762 Y257.4902
G01 X40.6381 Y257.5187
G01 X40.6014 Y257.5490
G01 X40.5662 Y257.5810
G01 X40.5325 Y257.6147
G01 X40.5005 Y257.6499
G01 X40.4702 Y257.6866
G01 X40.4417 Y257.7247
G01 X40.4150 Y257.7641
G01 X40.3902 Y257.8048
G01 X40.3674 Y257.8465
G01 X40.3466 Y257.8893
G01 X40.3279 Y257.9331
G01 X40.3112 Y257.9777
G01 X40.2967 Y258.0230
G01 X40.2844 Y258.0690
G01 X40.2743 Y258.1155
G01 X40.2664 Y258.1624
G01 X40.2608 Y258.2097
G01 X40.2574 Y258.2572
G01 X40.2562 Y258.3048
G01 X40.2574 Y258.3523
G01 X40.2608 Y258.3998
G01 X40.2664 Y258.4471
G01 X40.2743 Y258.4940
G01 X40.2844 Y258.5405
G01 X40.2967 Y258.5865
G01 X40.3112 Y258.6318
G01 X40.3279 Y258.6764
G01 X40.3466 Y258.7202
G01 X40.3674 Y258.7630
G01 X40.3902 Y258.8048
G01 X40.4150 Y258.8454
G01 X40.4417 Y258.8848
G01 X40.4702 Y258.9229
G01 X40.5005 Y258.9596
G01 X40.5325 Y258.9948
G01 X40.5662 Y259.0285
G01 X40.6014 Y259.0605
G01 X40.6381 Y259.0908
G01 X40.6762 Y259.1193
G01 X40.7156 Y259.1460
G01 X40.7562 Y259.1708
G01 X40.7980 Y259.1936
G01 X40.8408 Y259.2144
G01 X40.8846 Y259.2331
G01 X40.9292 Y259.2498
G01 X40.9745 Y259.2643
G01 X41.0205 Y259.2766
G01 X41.0670 Y259.2867
G01 X41.1139 Y259.2946
G01 X41.1612 Y259.3002
G01 X41.2087 Y259.3036
G01 X41.2562 Y259.3048
G01 X41.3038 Y259.3036
G01 X41.3513 Y259.3002
G01 X41.3986 Y259.2946
G01 X41.4455 Y259.2867
G01 X41.4920 Y259.2766
G01 X41.5380 Y259.2643
G01 X41.5833 Y259.2498
G01 X41.6279 Y259.2331
G01 X41.6717 Y259.2144
G01 X41.7145 Y259.1936
G01 X41.7562 Y259.1708
G01 X41.7969 Y259.1460
G01 X41.8363 Y259.1193
G01 X41.8744 Y259.0908
G01 X41.9111 Y259.0605
G01 X41.9463 Y259.0285
G01 X41.9800 Y258.9948
G01 X42.0120 Y258.9596
G01 X42.0423 Y258.9229
G01 X42.0708 Y258.8848
G01 X42.0975 Y258.8454
G01 X42.1223 Y258.8048
G01 X42.1451 Y258.7630
G01 X42.1659 Y258.7202
G01 X42.1846 Y258.6764
G01 X42.2012 Y258.6318
G01 X42.2157 Y258.5865
G01 X42.2281 Y258.5405
G01 X42.2382 Y258.4940
G01 X42.2461 Y258.4471
G01 X42.2517 Y258.3998
G01 X42.2551 Y258.3523
G01 X42.2562 Y258.3048
G01 X42.2670 Y258.2532 F1000
G01 X42.2751 Y258.2011
G01 X42.2804 Y258.1487
G01 X42.2831 Y258.0960
G01 Y258.0433
G01 X42.2803 Y257.9907
G01 X42.2749 Y257.9383
G01 X42.2667 Y257.8862
G01 X42.2550 Y257.8302
G01 X42.2405 Y257.7749
G01 X42.2231 Y257.7204
G01 X42.2029 Y257.6669
G01 X42.1801 Y257.6144
G01 X42.1546 Y257.5632
G01 X42.1265 Y257.5134
G01 X42.0959 Y257.4651
G01 X42.0595 Y257.4159
G01 X42.0206 Y257.3687
G01 X41.9794 Y257.3234
G01 X41.9360 Y257.2803
G01 X41.8904 Y257.2395
G01 X41.8429 Y257.2010
G01 X41.7934 Y257.1649
G01 X41.7423 Y257.1314
G01 X41.6841 Y257.1090
G01 X41.6249 Y257.0894
G01 X41.5648 Y257.0728
G01 X41.5040 Y257.0591
G01 X41.4426 Y257.0485
G01 X41.3807 Y257.0409
G01 X41.3186 Y257.0363
G01 X41.2562 Y257.0347
G01 X41.1939 Y257.0363
G01 X41.1318 Y257.0409
G01 X41.0699 Y257.0485
G01 X41.0085 Y257.0591
G01 X40.9477 Y257.0728
G01 X40.8876 Y257.0894
G01 X40.8284 Y257.1090
G01 X40.7702 Y257.1314
G01 X40.7132 Y257.1567
G01 X40.6576 Y257.1847
G01 X40.6033 Y257.2154
G01 X40.5507 Y257.2488
G01 X40.4997 Y257.2847
G01 X40.4505 Y257.3230
G01 X40.4033 Y257.3637
G01 X40.3582 Y257.4067
G01 X40.3152 Y257.4519
G01 X40.2745 Y257.4991
G01 X40.2362 Y257.5482
G01 X40.2003 Y257.5992
G01 X40.1669 Y257.6518
G01 X40.1362 Y257.7061
G01 X40.1082 Y257.7618
G01 X40.0829 Y257.8187
G01 X40.0605 Y257.8769
G01 X40.0409 Y257.9361
G01 X40.0243 Y257.9962
G01 X40.0106 Y258.0570
G01 X40.0000 Y258.1184
G01 X39.9923 Y258.1803
G01 X39.9878 Y258.2424
G01 X39.9862 Y258.3048
G01 X39.9878 Y258.3671
G01 X39.9923 Y258.4292
G01 X40.0000 Y258.4911
G01 X40.0106 Y258.5525
G01 X40.0243 Y258.6133
G01 X40.0409 Y258.6734
G01 X40.0605 Y258.7326
G01 X40.0829 Y258.7908
G01 X40.1082 Y258.8478
G01 X40.1362 Y258.9034
G01 X40.1669 Y258.9577
G01 X40.2003 Y259.0103
G01 X40.2362 Y259.0613
G01 X40.2745 Y259.1105
G01 X40.3152 Y259.1577
G01 X40.3582 Y259.2028
G01 X40.4033 Y259.2458
G01 X40.4505 Y259.2865
G01 X40.4997 Y259.3248
G01 X40.5507 Y259.3607
G01 X40.6033 Y259.3941
G01 X40.6576 Y259.4248
G01 X40.7132 Y259.4528
G01 X40.7702 Y259.4781
G01 X40.8284 Y259.5005
G01 X40.8876 Y259.5201
G01 X40.9477 Y259.5367
G01 X41.0085 Y259.5504
G01 X41.0699 Y259.5610
G01 X41.1318 Y259.5687
G01 X41.1939 Y259.5732
G01 X41.2562 Y259.5748
G01 X41.3186 Y259.5732
G01 X41.3807 Y259.5687
G01 X41.4426 Y259.5610
G01 X41.5040 Y259.5504
G01 X41.5648 Y259.5367
G01 X41.6249 Y259.5201
G01 X41.6841 Y259.5005
G01 X41.7423 Y259.4781
G01 X41.7992 Y259.4528
G01 X41.8549 Y259.4248
G01 X41.9092 Y259.3941
G01 X41.9618 Y259.3607
G01 X42.0128 Y259.3248
G01 X42.0619 Y259.2865
G01 X42.1091 Y259.2458
G01 X42.1543 Y259.2028
G01 X42.1973 Y259.1577
G01 X42.2380 Y259.1105
G01 X42.2763 Y259.0613
G01 X42.3122 Y259.0103
G01 X42.3456 Y258.9577
G01 X42.3763 Y258.9034
G01 X42.4043 Y258.8478
G01 X42.4296 Y258.7908
G01 X42.4520 Y258.7326
G01 X42.4716 Y258.6734
G01 X42.4882 Y258.6133
G01 X42.5019 Y258.5525
G01 X42.5125 Y258.4911
G01 X42.5201 Y258.4292
G01 X42.5247 Y258.3671
G01 X42.5263 Y258.3048
G01 X42.5227 Y258.2099
G01 X42.5121 Y258.1155
G01 X42.4944 Y258.0222
G01 X42.4698 Y257.9304
G01 X42.4385 Y257.8408
G01 X42.4005 Y257.7537
G01 X42.3561 Y257.6698
G01 X42.3056 Y257.5893
G01 X42.2492 Y257.5129
G01 X42.1872 Y257.4409
G01 X42.1201 Y257.3738
G01 X42.0481 Y257.3118
G01 X41.9717 Y257.2554
G01 X41.8913 Y257.2049
G01 X41.8073 Y257.1605
G01 X41.7202 Y257.1225
G01 X41.6306 Y257.0912
G01 X41.5388 Y257.0666
G01 X41.4455 Y257.0489
G01 X41.3511 Y257.0383
G01 X41.2562 Y257.0347
G01 X41.1613 Y257.0383
G01 X41.0670 Y257.0489
G01 X40.9736 Y257.0666
G01 X40.8819 Y257.0912
G01 X40.7923 Y257.1225
G01 X40.7052 Y257.1605
G01 X40.6212 Y257.2049
G01 X40.5408 Y257.2554
G01 X40.4644 Y257.3118
G01 X40.3924 Y257.3738
G01 X40.3253 Y257.4409
G01 X40.2633 Y257.5129
G01 X40.2069 Y257.5893
G01 X40.1564 Y257.6698
G01 X40.1120 Y257.7537
G01 X40.0740 Y257.8408
G01 X40.0426 Y257.9304
G01 X40.0181 Y258.0222
G01 X40.0004 Y258.1155
G01 X39.9898 Y258.2099
G01 X39.9862 Y258.3048
G01 X39.9898 Y258.3997
G01 X40.0004 Y258.4940
G01 X40.0181 Y258.5874
G01 X40.0426 Y258.6791
G01 X40.0740 Y258.7688
G01 X40.1120 Y258.8558
G01 X40.1564 Y258.9398
G01 X40.2069 Y259.0202
G01 X40.2633 Y259.0966
G01 X40.3253 Y259.1686
G01 X40.3924 Y259.2358
G01 X40.4644 Y259.2977
G01 X40.5408 Y259.3541
G01 X40.6212 Y259.4046
G01 X40.7052 Y259.4490
G01 X40.7923 Y259.4870
G01 X40.8819 Y259.5184
G01 X40.9736 Y259.5429
G01 X41.0670 Y259.5606
G01 X41.1613 Y259.5712
G01 X41.2562 Y259.5748
G01 X41.3511 Y259.5712
G01 X41.4455 Y259.5606
G01 X41.5388 Y259.5429
G01 X41.6306 Y259.5184
G01 X41.7202 Y259.4870
G01 X41.8073 Y259.4490
G01 X41.8913 Y259.4046
G01 X41.9717 Y259.3541
G01 X42.0481 Y259.2977
G01 X42.1201 Y259.2358
G01 X42.1872 Y259.1686
G01 X42.2492 Y259.0966
G01 X42.3056 Y259.0202
G01 X42.3561 Y258.9398
G01 X42.4005 Y258.8558
G01 X42.4385 Y258.7688
G01 X42.4698 Y258.6791
G01 X42.4944 Y258.5874
G01 X42.5121 Y258.4940
G01 X42.5227 Y258.3997
G01 X42.5263 Y258.3048
G01 X42.5219 Y258.2058
G01 X42.5090 Y258.1077
G01 X42.4876 Y258.0110
G01 X42.4578 Y257.9166
G01 X42.4199 Y257.8251
G01 X42.3742 Y257.7373
G01 X42.3210 Y257.6537
G01 X42.2607 Y257.5752
G01 X42.1938 Y257.5022
G01 X42.1208 Y257.4353
G01 X42.0423 Y257.3750
G01 X41.9588 Y257.3218
G01 X41.8709 Y257.2761
G01 X41.7794 Y257.2382
G01 X41.6850 Y257.2084
G01 X41.5883 Y257.1870
G01 X41.4902 Y257.1741
G01 X41.3913 Y257.1698
G01 X41.2923 Y257.1741
G01 X41.1942 Y257.1870
G01 X41.0975 Y257.2084
G01 X41.0031 Y257.2382
G01 X40.9116 Y257.2761
G01 X40.8237 Y257.3218
G01 X40.7402 Y257.3750
G01 X40.6617 Y257.4353
G01 X40.5887 Y257.5022
G01 X40.5218 Y257.5752
G01 X40.4615 Y257.6537
G01 X40.4083 Y257.7373
G01 X40.3626 Y257.8251
G01 X40.3247 Y257.9166
G01 X40.2949 Y258.0110
G01 X40.2735 Y258.1077
G01 X40.2606 Y258.2058
G01 X40.2562 Y258.3048
G01 X40.2573 Y258.3509
G01 X40.2605 Y258.3970
G01 X40.2658 Y258.4429
G01 X40.2733 Y258.4885
G01 X40.2828 Y258.5337
G01 X40.2944 Y258.5784
G01 X40.3081 Y258.6226
G01 X40.3238 Y258.6660
G01 X40.3414 Y258.7087
G01 X40.3611 Y258.7505
G01 X40.3826 Y258.7914
G01 X40.4060 Y258.8312
G01 X40.4312 Y258.8699
G01 X40.4582 Y258.9074
G01 X40.4869 Y258.9436
G01 X40.5172 Y258.9785
G01 X40.5491 Y259.0119
G01 X40.5825 Y259.0438
G01 X40.6174 Y259.0741
G01 X40.6536 Y259.1028
G01 X40.6911 Y259.1298
G01 X40.7298 Y259.1550
G01 X40.7696 Y259.1784
G01 X40.8105 Y259.1999
G01 X40.8523 Y259.2196
G01 X40.8950 Y259.2372
G01 X40.9384 Y259.2529
G01 X40.9826 Y259.2666
G01 X41.0273 Y259.2782
G01 X41.0725 Y259.2877
G01 X41.1181 Y259.2952
G01 X41.1640 Y259.3005
G01 X41.2101 Y259.3037
G01 X41.2562 Y259.3048
G01 X41.3024 Y259.3037
G01 X41.3485 Y259.3005
G01 X41.3944 Y259.2952
G01 X41.4400 Y259.2877
G01 X41.4852 Y259.2782
G01 X41.5299 Y259.2666
G01 X41.5740 Y259.2529
G01 X41.6175 Y259.2372
G01 X41.6602 Y259.2196
G01 X41.7020 Y259.1999
G01 X41.7428 Y259.1784
G01 X41.7827 Y259.1550
G01 X41.8214 Y259.1298
G01 X41.8589 Y259.1028
G01 X41.8951 Y259.0741
G01 X41.9299 Y259.0438
G01 X41.9633 Y259.0119
G01 X41.9953 Y258.9785
G01 X42.0256 Y258.9436
G01 X42.0543 Y258.9074
G01 X42.0812 Y258.8699
G01 X42.1065 Y258.8312
G01 X42.1299 Y258.7914
G01 X42.1514 Y258.7505
G01 X42.1710 Y258.7087
G01 X42.1887 Y258.6660
G01 X42.2044 Y258.6226
G01 X42.2181 Y258.5784
G01 X42.2297 Y258.5337
G01 X42.2392 Y258.4885
G01 X42.2467 Y258.4429
G01 X42.2520 Y258.3970
G01 X42.2552 Y258.3509
G01 X42.2562 Y258.3048
M107
M106 S240
G01 X42.2524 Y258.2176 Z-4.3976 F400
G01 X42.2410 Y258.1311 Z-4.4201
G01 X42.2222 Y258.0459 Z-4.4427
G01 X42.1959 Y257.9627 Z-4.4653
G01 X42.1625 Y257.8821 Z-4.4878
G01 X42.1223 Y257.8048 Z-4.5104
G01 X42.0754 Y257.7312 Z-4.5330
G01 X42.0223 Y257.6620 Z-4.5556
G01 X41.9633 Y257.5977 Z-4.5781
G01 X41.8990 Y257.5387 Z-4.6007
G01 X41.8298 Y257.4856 Z-4.6233
G01 X41.7562 Y257.4387 Z-4.6458
G01 X41.6789 Y257.3985 Z-4.6684
G01 X41.5983 Y257.3651 Z-4.6910
G01 X41.5151 Y257.3388 Z-4.7135
G01 X41.4299 Y257.3200 Z-4.7361
G01 X41.3434 Y257.3086 Z-4.7587
G01 X41.2562 Y257.3048 Z-4.7813
G01 X41.1691 Y257.3086 Z-4.8038
G01 X41.0826 Y257.3200 Z-4.8264
G01 X40.9974 Y257.3388 Z-4.8490
G01 X40.9142 Y257.3651 Z-4.8715
G01 X40.8336 Y257.3985 Z-4.8941
G01 X40.7562 Y257.4387 Z-4.9167
G01 X40.7156 Y257.4635 Z-4.9290
G01 X40.6762 Y257.4902 Z-4.9413
G01 X40.6381 Y257.5187 Z-4.9536
G01 X40.6014 Y257.5490 Z-4.9659
G01 X40.5662 Y257.5810 Z-4.9782
G01 X40.5325 Y257.6147 Z-4.9905
G01 X40.5005 Y257.6499 Z-5.0028
G01 X40.4702 Y257.6866 Z-5.0152
G01 X40.4417 Y257.7247 Z-5.0275
G01 X40.4150 Y257.7641 Z-5.0398
G01 X40.3902 Y257.8048 Z-5.0521
G01 X40.3674 Y257.8465 Z-5.0644
G01 X40.3466 Y257.8893 Z-5.0767
G01 X40.3279 Y257.9331 Z-5.0890
G01 X40.3112 Y257.9777 Z-5.1013
G01 X40.2967 Y258.0230 Z-5.1136
G01 X40.2844 Y258.0690 Z-5.1259
G01 X40.2743 Y258.1155 Z-5.1383
G01 X40.2664 Y258.1624 Z-5.1506
G01 X40.2608 Y258.2097 Z-5.1629
G01 X40.2574 Y258.2572 Z-5.1752
G01 X40.2562 Y258.3048 Z-5.1875
G01 X40.2574 Y258.3523 Z-5.1998
G01 X40.2608 Y258.3998 Z-5.2121
G01 X40.2664 Y258.4471 Z-5.2244
G01 X40.2743 Y258.4940 Z-5.2367
G01 X40.2844 Y258.5405 Z-5.2491
G01 X40.2967 Y258.5865 Z-5.2614
G01 X40.3112 Y258.6318 Z-5.2737
G01 X40.3279 Y258.6764 Z-5.2860
G01 X40.3466 Y258.7202 Z-5.2983
G01 X40.3674 Y258.7630 Z-5.3106
G01 X40.3902 Y258.8048 Z-5.3229
G01 X40.4150 Y258.8454 Z-5.3352
G01 X40.4417 Y258.8848 Z-5.3475
G01 X40.4702 Y258.9229 Z-5.3598
G01 X40.5005 Y258.9596 Z-5.3722
G01 X40.5325 Y258.9948 Z-5.3845
G01 X40.5662 Y259.0285 Z-5.3968
G01 X40.6014 Y259.0605 Z-5.4091
G01 X40.6381 Y259.0908 Z-5.4214
G01 X40.6762 Y259.1193 Z-5.4337
G01 X40.7156 Y259.1460 Z-5.4460
G01 X40.7562 Y259.1708 Z-5.4583
G01 X40.7980 Y259.1936 Z-5.4706
G01 X40.8408 Y259.2144 Z-5.4830
G01 X40.8846 Y259.2331 Z-5.4953
G01 X40.9292 Y259.2498 Z-5.5076
G01 X40.9745 Y259.2643 Z-5.5199
G01 X41.0205 Y259.2766 Z-5.5322
G01 X41.0670 Y259.2867 Z-5.5445
G01 X41.1139 Y259.2946 Z-5.5568
G01 X41.1612 Y259.3002 Z-5.5691
G01 X41.2087 Y259.3036 Z-5.5814
G01 X41.2562 Y259.3048 Z-5.5938
G01 X41.3038 Y259.3036 Z-5.6061
G01 X41.3513 Y259.3002 Z-5.6184
G01 X41.3986 Y259.2946 Z-5.6307
G01 X41.4455 Y259.2867 Z-5.6430
G01 X41.4920 Y259.2766 Z-5.6553
G01 X41.5380 Y259.2643 Z-5.6676
G01 X41.5833 Y259.2498 Z-5.6799
G01 X41.6279 Y259.2331 Z-5.6922
G01 X41.6717 Y259.2144 Z-5.7045
G01 X41.7145 Y259.1936 Z-5.7169
G01 X41.7562 Y259.1708 Z-5.7292
G01 X41.7969 Y259.1460 Z-5.7415
G01 X41.8363 Y259.1193 Z-5.7538
G01 X41.8744 Y259.0908 Z-5.7661
G01 X41.9111 Y259.0605 Z-5.7784
G01 X41.9463 Y259.0285 Z-5.7907
G01 X41.9800 Y258.9948 Z-5.8030
G01 X42.0120 Y258.9596 Z-5.8153
G01 X42.0423 Y258.9229 Z-5.8277
G01 X42.0708 Y258.8848 Z-5.8400
G01 X42.0975 Y258.8454 Z-5.8523
G01 X42.1223 Y258.8048 Z-5.8646
G01 X42.1451 Y258.7630 Z-5.8769
G01 X42.1659 Y258.7202 Z-5.8892
G01 X42.1846 Y258.6764 Z-5.9015
G01 X42.2012 Y258.6318 Z-5.9138
G01 X42.2157 Y258.5865 Z-5.9261
G01 X42.2281 Y258.5405 Z-5.9384
G01 X42.2382 Y258.4940 Z-5.9508
G01 X42.2461 Y258.4471 Z-5.9631
G01 X42.2517 Y258.3998 Z-5.9754
G01 X42.2551 Y258.3523 Z-5.9877
G01 X42.2562 Y258.3048 Z-6.0000
G01 X42.2524 Y258.2176
G01 X42.2410 Y258.1311
G01 X42.2222 Y258.0459
G01 X42.1959 Y257.9627
G01 X42.1625 Y257.8821
G01 X42.1223 Y257.8048
G01 X42.0754 Y257.7312
G01 X42.0223 Y257.6620
G01 X41.9633 Y257.5977
G01 X41.8990 Y257.5387
G01 X41.8298 Y257.4856
G01 X41.7562 Y257.4387
G01 X41.6789 Y257.3985
G01 X41.5983 Y257.3651
G01 X41.5151 Y257.3388
G01 X41.4299 Y257.3200
G01 X41.3434 Y257.3086
G01 X41.2562 Y257.3048
G01 X41.1691 Y257.3086
G01 X41.0826 Y257.3200
G01 X40.9974 Y257.3388
G01 X40.9142 Y257.3651
G01 X40.8336 Y257.3985
G01 X40.7562 Y257.4387
G01 X40.7156 Y257.4635
G01 X40.6762 Y257.4902
G01 X40.6381 Y257.5187
G01 X40.6014 Y257.5490
G01 X40.5662 Y257.5810
G01 X40.5325 Y257.6147
G01 X40.5005 Y257.6499
G01 X40.4702 Y257.6866
G01 X40.4417 Y257.7247
G01 X40.4150 Y257.7641
G01 X40.3902 Y257.8048
G01 X40.3674 Y257.8465
G01 X40.3466 Y257.8893
G01 X40.3279 Y257.9331
G01 X40.3112 Y257.9777
G01 X40.2967 Y258.0230
G01 X40.2844 Y258.0690
G01 X40.2743 Y258.1155
G01 X40.2664 Y258.1624
G01 X40.2608 Y258.2097
G01 X40.2574 Y258.2572
G01 X40.2562 Y258.3048
G01 X40.2574 Y258.3523
G01 X40.2608 Y258.3998
G01 X40.2664 Y258.4471
G01 X40.2743 Y258.4940
G01 X40.2844 Y258.5405
G01 X40.2967 Y258.5865
G01 X40.3112 Y258.6318
G01 X40.3279 Y258.6764
G01 X40.3466 Y258.7202
G01 X40.3674 Y258.7630
G01 X40.3902 Y258.8048
G01 X40.4150 Y258.8454
G01 X40.4417 Y258.8848
G01 X40.4702 Y258.9229
G01 X40.5005 Y258.9596
G01 X40.5325 Y258.9948
G01 X40.5662 Y259.0285
G01 X40.6014 Y259.0605
G01 X40.6381 Y259.0908
G01 X40.6762 Y259.1193
G01 X40.7156 Y259.1460
G01 X40.7562 Y259.1708
G01 X40.7980 Y259.1936
G01 X40.8408 Y259.2144
G01 X40.8846 Y259.2331
G01 X40.9292 Y259.2498
G01 X40.9745 Y259.2643
G01 X41.0205 Y259.2766
G01 X41.0670 Y259.2867
G01 X41.1139 Y259.2946
G01 X41.1612 Y259.3002
G01 X41.2087 Y259.3036
G01 X41.2562 Y259.3048
G01 X41.3038 Y259.3036
G01 X41.3513 Y259.3002
G01 X41.3986 Y259.2946
G01 X41.4455 Y259.2867
G01 X41.4920 Y259.2766
G01 X41.5380 Y259.2643
G01 X41.5833 Y259.2498
G01 X41.6279 Y259.2331
G01 X41.6717 Y259.2144
G01 X41.7145 Y259.1936
G01 X41.7562 Y259.1708
G01 X41.7969 Y259.1460
G01 X41.8363 Y259.1193
G01 X41.8744 Y259.0908
G01 X41.9111 Y259.0605
G01 X41.9463 Y259.0285
G01 X41.9800 Y258.9948
G01 X42.0120 Y258.9596
G01 X42.0423 Y258.9229
G01 X42.0708 Y258.8848
G01 X42.0975 Y258.8454
G01 X42.1223 Y258.8048
G01 X42.1451 Y258.7630
G01 X42.1659 Y258.7202
G01 X42.1846 Y258.6764
G01 X42.2012 Y258.6318
G01 X42.2157 Y258.5865
G01 X42.2281 Y258.5405
G01 X42.2382 Y258.4940
G01 X42.2461 Y258.4471
G01 X42.2517 Y258.3998
G01 X42.2551 Y258.3523
G01 X42.2562 Y258.3048
G01 X42.2670 Y258.2532 F1000
G01 X42.2751 Y258.2011
G01 X42.2804 Y258.1487
G01 X42.2831 Y258.0960
G01 Y258.0433
G01 X42.2803 Y257.9907
G01 X42.2749 Y257.9383
G01 X42.2667 Y257.8862
G01 X42.2550 Y257.8302
G01 X42.2405 Y257.7749
G01 X42.2231 Y257.7204
G01 X42.2029 Y257.6669
G01 X42.1801 Y257.6144
G01 X42.1546 Y257.5632
G01 X42.1265 Y257.5134
G01 X42.0959 Y257.4651
G01 X42.0595 Y257.4159
G01 X42.0206 Y257.3687
G01 X41.9794 Y257.3234
G01 X41.9360 Y257.2803
G01 X41.8904 Y257.2395
G01 X41.8429 Y257.2010
G01 X41.7934 Y257.1649
G01 X41.7423 Y257.1314
G01 X41.6841 Y257.1090
G01 X41.6249 Y257.0894
G01 X41.5648 Y257.0728
G01 X41.5040 Y257.0591
G01 X41.4426 Y257.0485
G01 X41.3807 Y257.0409
G01 X41.3186 Y257.0363
G01 X41.2562 Y257.0347
G01 X41.1939 Y257.0363
G01 X41.1318 Y257.0409
G01 X41.0699 Y257.0485
G01 X41.0085 Y257.0591
G01 X40.9477 Y257.0728
G01 X40.8876 Y257.0894
G01 X40.8284 Y257.1090
G01 X40.7702 Y257.1314
G01 X40.7132 Y257.1567
G01 X40.6576 Y257.1847
G01 X40.6033 Y257.2154
G01 X40.5507 Y257.2488
G01 X40.4997 Y257.2847
G01 X40.4505 Y257.3230
G01 X40.4033 Y257.3637
G01 X40.3582 Y257.4067
G01 X40.3152 Y257.4519
G01 X40.2745 Y257.4991
G01 X40.2362 Y257.5482
G01 X40.2003 Y257.5992
G01 X40.1669 Y257.6518
G01 X40.1362 Y257.7061
G01 X40.1082 Y257.7618
G01 X40.0829 Y257.8187
G01 X40.0605 Y257.8769
G01 X40.0409 Y257.9361
G01 X40.0243 Y257.9962
G01 X40.0106 Y258.0570
G01 X40.0000 Y258.1184
G01 X39.9923 Y258.1803
G01 X39.9878 Y258.2424
G01 X39.9862 Y258.3048
G01 X39.9878 Y258.3671
G01 X39.9923 Y258.4292
G01 X40.0000 Y258.4911
G01 X40.0106 Y258.5525
G01 X40.0243 Y258.6133
G01 X40.0409 Y258.6734
G01 X40.0605 Y258.7326
G01 X40.0829 Y258.7908
G01 X40.1082 Y258.8478
G01 X40.1362 Y258.9034
G01 X40.1669 Y258.9577
G01 X40.2003 Y259.0103
G01 X40.2362 Y259.0613
G01 X40.2745 Y259.1105
G01 X40.3152 Y259.1577
G01 X40.3582 Y259.2028
G01 X40.4033 Y259.2458
G01 X40.4505 Y259.2865
G01 X40.4997 Y259.3248
G01 X40.5507 Y259.3607
G01 X40.6033 Y259.3941
G01 X40.6576 Y259.4248
G01 X40.7132 Y259.4528
G01 X40.7702 Y259.4781
G01 X40.8284 Y259.5005
G01 X40.8876 Y259.5201
G01 X40.9477 Y259.5367
G01 X41.0085 Y259.5504
G01 X41.0699 Y259.5610
G01 X41.1318 Y259.5687
G01 X41.1939 Y259.5732
G01 X41.2562 Y259.5748
G01 X41.3186 Y259.5732
G01 X41.3807 Y259.5687
G01 X41.4426 Y259.5610
G01 X41.5040 Y259.5504
G01 X41.5648 Y259.5367
G01 X41.6249 Y259.5201
G01 X41.6841 Y259.5005
G01 X41.7423 Y259.4781
G01 X41.7992 Y259.4528
G01 X41.8549 Y259.4248
G01 X41.9092 Y259.3941
G01 X41.9618 Y259.3607
G01 X42.0128 Y259.3248
G01 X42.0619 Y259.2865
G01 X42.1091 Y259.2458
G01 X42.1543 Y259.2028
G01 X42.1973 Y259.1577
G01 X42.2380 Y259.1105
G01 X42.2763 Y259.0613
G01 X42.3122 Y259.0103
G01 X42.3456 Y258.9577
G01 X42.3763 Y258.9034
G01 X42.4043 Y258.8478
G01 X42.4296 Y258.7908
G01 X42.4520 Y258.7326
G01 X42.4716 Y258.6734
G01 X42.4882 Y258.6133
G01 X42.5019 Y258.5525
G01 X42.5125 Y258.4911
G01 X42.5201 Y258.4292
G01 X42.5247 Y258.3671
G01 X42.5263 Y258.3048
G01 X42.5227 Y258.2099
G01 X42.5121 Y258.1155
G01 X42.4944 Y258.0222
G01 X42.4698 Y257.9304
G01 X42.4385 Y257.8408
G01 X42.4005 Y257.7537
G01 X42.3561 Y257.6698
G01 X42.3056 Y257.5893
G01 X42.2492 Y257.5129
G01 X42.1872 Y257.4409
G01 X42.1201 Y257.3738
G01 X42.0481 Y257.3118
G01 X41.9717 Y257.2554
G01 X41.8913 Y257.2049
G01 X41.8073 Y257.1605
G01 X41.7202 Y257.1225
G01 X41.6306 Y257.0912
G01 X41.5388 Y257.0666
G01 X41.4455 Y257.0489
G01 X41.3511 Y257.0383
G01 X41.2562 Y257.0347
G01 X41.1613 Y257.0383
G01 X41.0670 Y257.0489
G01 X40.9736 Y257.0666
G01 X40.8819 Y257.0912
G01 X40.7923 Y257.1225
G01 X40.7052 Y257.1605
G01 X40.6212 Y257.2049
G01 X40.5408 Y257.2554
G01 X40.4644 Y257.3118
G01 X40.3924 Y257.3738
G01 X40.3253 Y257.4409
G01 X40.2633 Y257.5129
G01 X40.2069 Y257.5893
G01 X40.1564 Y257.6698
G01 X40.1120 Y257.7537
G01 X40.0740 Y257.8408
G01 X40.0426 Y257.9304
G01 X40.0181 Y258.0222
G01 X40.0004 Y258.1155
G01 X39.9898 Y258.2099
G01 X39.9862 Y258.3048
G01 X39.9898 Y258.3997
G01 X40.0004 Y258.4940
G01 X40.0181 Y258.5874
G01 X40.0426 Y258.6791
G01 X40.0740 Y258.7688
G01 X40.1120 Y258.8558
G01 X40.1564 Y258.9398
G01 X40.2069 Y259.0202
G01 X40.2633 Y259.0966
G01 X40.3253 Y259.1686
G01 X40.3924 Y259.2358
G01 X40.4644 Y259.2977
G01 X40.5408 Y259.3541
G01 X40.6212 Y259.4046
G01 X40.7052 Y259.4490
G01 X40.7923 Y259.4870
G01 X40.8819 Y259.5184
G01 X40.9736 Y259.5429
G01 X41.0670 Y259.5606
G01 X41.1613 Y259.5712
G01 X41.2562 Y259.5748
G01 X41.3511 Y259.5712
G01 X41.4455 Y259.5606
G01 X41.5388 Y259.5429
G01 X41.6306 Y259.5184
G01 X41.7202 Y259.4870
G01 X41.8073 Y259.4490
G01 X41.8913 Y259.4046
G01 X41.9717 Y259.3541
G01 X42.0481 Y259.2977
G01 X42.1201 Y259.2358
G01 X42.1872 Y259.1686
G01 X42.2492 Y259.0966
G01 X42.3056 Y259.0202
G01 X42.3561 Y258.9398
G01 X42.4005 Y258.8558
G01 X42.4385 Y258.7688
G01 X42.4698 Y258.6791
G01 X42.4944 Y258.5874
G01 X42.5121 Y258.4940
G01 X42.5227 Y258.3997
G01 X42.5263 Y258.3048
M107
M106 S240
G01 X42.5232 Y258.2263 Z-5.9750 F400
M107
M106 S240
G01 X42.5139 Y258.1483 Z-5.9500
M107
M106 S240
G01 X42.4986 Y258.0713 Z-5.9250
M107
M106 S240
G01 X42.4773 Y257.9957 Z-5.9000
M107
M106 S240
G01 X42.4501 Y257.9221 Z-5.8750
M107
M106 S240
G01 X42.4173 Y257.8508 Z-5.8500
M107
M106 S240
G01 X42.3789 Y257.7823 Z-5.8250
M107
M106 S240
G01 X42.3353 Y257.7170 Z-5.8000
M107
M106 S240
G01 X42.2867 Y257.6553 Z-5.7750
M107
M106 S240
G01 X42.2334 Y257.5977 Z-5.7500
M107
M106 S240
G01 X42.1757 Y257.5444 Z-5.7250
M107
M106 S240
G01 X42.1140 Y257.4957 Z-5.7000
M107
M106 S240
G01 X42.0488 Y257.4521 Z-5.6750
M107
M106 S240
G01 X41.9803 Y257.4138 Z-5.6500
M107
M106 S240
G01 X41.9089 Y257.3809 Z-5.6250
M107
M106 S240
G01 X41.8353 Y257.3537 Z-5.6000
M107
M106 S240
G01 X41.7597 Y257.3324 Z-5.5750
M107
M106 S240
G01 X41.6827 Y257.3171 Z-5.5500
M107
M106 S240
G01 X41.6047 Y257.3078 Z-5.5250
M107
M106 S240
G01 X41.5263 Y257.3048 Z-5.5000
M107
G00 Z2.0000


;No. 2: Hole 2
G00 X40.1423 Y244.1295 Z2.0000
G00 Z0.5000
G01 Z0.0000 F400
G01 Z-1.8000
M106 S240
G01 X61.4339 F1000
G01 X60.0658 Y242.6295
G01 X41.4763
G01 X49.2800
G01 Y241.1295
G01 X52.3005
G01 X52.2885 Y239.6295
G01 X49.2919
G01 Y238.1295
G01 X52.2885
G01 Y236.6295
G01 X49.2919
G01 Y235.1295
G01 X52.2885
G01 Y233.6295
G01 X49.2919
G01 Y232.1295
G01 X52.2885
G01 Y230.6295
G01 X49.2919
G01 Y229.1295
G01 X52.2885
G01 Y227.6295
G01 X49.2919
G01 X49.0919 Y227.6419
G01 Y240.9654
G01 X49.0889 Y241.0439
G01 X49.0796 Y241.1219
G01 X49.0643 Y241.1989
G01 X49.0430 Y241.2744
G01 X49.0158 Y241.3481
G01 X48.9829 Y241.4194
G01 X48.9446 Y241.4879
G01 X48.9010 Y241.5532
G01 X48.8523 Y241.6149
G01 X48.7990 Y241.6725
G01 X48.7414 Y241.7258
G01 X48.6797 Y241.7744
G01 X48.6144 Y241.8181
G01 X48.5459 Y241.8564
G01 X48.4746 Y241.8893
G01 X48.4010 Y241.9165
G01 X48.3254 Y241.9378
G01 X48.2484 Y241.9531
G01 X48.1704 Y241.9623
G01 X48.0919 Y241.9654
G01 X46.8371 Y241.9515
G01 X45.5822 Y241.9472
G01 X44.3273 Y241.9525
G01 X43.0724 Y241.9674
G01 X42.7485 Y241.9947
G01 X42.4283 Y242.0512
G01 X42.1146 Y242.1362
G01 X41.8097 Y242.2491
G01 X41.5163 Y242.3890
G01 X41.2366 Y242.5547
G01 X40.9730 Y242.7449
G01 X40.7276 Y242.9581
G01 X40.5023 Y243.1925
G01 X40.2991 Y243.4462
G01 X40.1195 Y243.7172
G01 X39.9651 Y244.0033
G01 X39.8370 Y244.3021
G01 X39.7363 Y244.6112
G01 X39.6639 Y244.9281
G01 X39.6203 Y245.2502
G01 X39.6112 Y245.3277
G01 X39.6051 Y245.4055
G01 X39.6022 Y245.4835
G01 X39.6024 Y245.5615
G01 X61.9778
G01 X61.9548 Y245.2166
G01 X61.8994 Y244.8753
G01 X61.8122 Y244.5407
G01 X61.6938 Y244.2159
G01 X61.5455 Y243.9036
G01 X61.3683 Y243.6066
G01 X61.1641 Y243.3277
G01 X60.9345 Y243.0692
G01 X60.6816 Y242.8334
G01 X60.4076 Y242.6225
G01 X60.1150 Y242.4383
G01 X59.8063 Y242.2825
G01 X59.4844 Y242.1564
G01 X59.1520 Y242.0612
G01 X58.8122 Y241.9976
G01 X58.4678 Y241.9663
G01 X58.3842 Y241.9654
G01 X53.4885
G01 X53.4100 Y241.9623
G01 X53.3320 Y241.9531
G01 X53.2550 Y241.9378
G01 X53.1795 Y241.9165
G01 X53.1058 Y241.8893
G01 X53.0345 Y241.8564
G01 X52.9660 Y241.8181
G01 X52.9007 Y241.7744
G01 X52.8390 Y241.7258
G01 X52.7814 Y241.6725
G01 X52.7281 Y241.6149
G01 X52.6795 Y241.5532
G01 X52.6358 Y241.4879
G01 X52.5975 Y241.4194
G01 X52.5646 Y241.3481
G01 X52.5374 Y241.2744
G01 X52.5161 Y241.1989
G01 X52.5008 Y241.1218
G01 X52.4916 Y241.0439
G01 X52.4885 Y240.9654
G01 Y226.1974
G01 X49.0919
G01 Y227.6419
G01 X49.2919 Y227.6295
M107
G00 Z2.0000


;No. 3: Hole 3
G00 X70.4870 Y243.0135 Z2.0000
G00 Z0.5000
G01 Z0.0000 F400
G01 Z-1.8000
M106 S240
G01 X90.1134 F1000
G01 X91.1164 Y244.5135
G01 X69.5133
G01 X69.3286 Y244.4354
G01 X69.2455 Y244.7102
G01 X69.1840 Y244.9906
G01 X69.1446 Y245.2750
G01 X69.1275 Y245.5615
G01 X91.5029 Y245.5616
G01 X91.4797 Y245.2113
G01 X91.4230 Y244.8649
G01 X91.3335 Y244.5255
G01 X91.2119 Y244.1962
G01 X91.0593 Y243.8801
G01 X90.8772 Y243.5800
G01 X90.6672 Y243.2987
G01 X90.4313 Y243.0388
G01 X90.1715 Y242.8027
G01 X89.8904 Y242.5925
G01 X89.5904 Y242.4102
G01 X89.2744 Y242.2574
G01 X88.9452 Y242.1356
G01 X88.6059 Y242.0458
G01 X88.2595 Y241.9889
G01 X87.9093 Y241.9654
G01 X72.7234
G01 X72.4429 Y241.9755
G01 X72.1641 Y242.0077
G01 X71.8887 Y242.0618
G01 X71.6184 Y242.1375
G01 X71.3550 Y242.2344
G01 X71.1000 Y242.3517
G01 X70.8551 Y242.4888
G01 X70.6218 Y242.6449
G01 X70.4015 Y242.8188
G01 X70.1957 Y243.0097
G01 X70.0056 Y243.2162
G01 X69.8324 Y243.4370
G01 X69.6772 Y243.6709
G01 X69.5409 Y243.9163
G01 X69.4245 Y244.1717
G01 X69.3286 Y244.4354
G01 X69.5133 Y244.5135
M107
G00 Z2.0000


;No. 4: Hole 4
G00 X69.5136 Y236.6295 Z2.0000
G00 Z0.5000
G01 Z0.0000 F400
G01 Z-1.8000
M106 S240
G01 X91.1161 F1000
G01 X90.1124 Y235.1295
G01 X70.4880
G01 X70.3694 Y234.9673
G01 X70.1861 Y235.1451
G01 X70.0152 Y235.3349
G01 X69.8575 Y235.5358
G01 X69.7137 Y235.7468
G01 X69.5845 Y235.9670
G01 X69.4703 Y236.1955
G01 X69.3719 Y236.4311
G01 X69.2895 Y236.6728
G01 X69.2236 Y236.9196
G01 X69.1745 Y237.1702
G01 X69.1424 Y237.4235
G01 X69.1275 Y237.6785
G01 X91.5029
G01 X91.4795 Y237.3282
G01 X91.4228 Y236.9818
G01 X91.3332 Y236.6423
G01 X91.2115 Y236.3130
G01 X91.0590 Y235.9969
G01 X90.8769 Y235.6968
G01 X90.6669 Y235.4154
G01 X90.4310 Y235.1555
G01 X90.1713 Y234.9192
G01 X89.8902 Y234.7089
G01 X89.5903 Y234.5265
G01 X89.2743 Y234.3735
G01 X88.9452 Y234.2515
G01 X88.6059 Y234.1615
G01 X88.2595 Y234.1043
G01 X87.9093 Y234.0805
G01 X72.7235
G01 X72.4019 Y234.0915
G01 X72.0828 Y234.1323
G01 X71.7689 Y234.2027
G01 X71.4628 Y234.3020
G01 X71.1673 Y234.4293
G01 X70.8850 Y234.5835
G01 X70.6182 Y234.7634
G01 X70.3694 Y234.9673
G01 X70.4880 Y235.1295
M107
G00 Z2.0000


;No. 5: Hole 5
G00 X69.5136 Y228.7464 Z2.0000
G00 Z0.5000
G01 Z0.0000 F400
G01 Z-1.8000
M106 S240
G01 X91.1161 F1000
G01 X90.1124 Y227.2464
G01 X70.4880
G01 X70.3694 Y227.0842
G01 X70.1861 Y227.2620
G01 X70.0152 Y227.4518
G01 X69.8575 Y227.6527
G01 X69.7137 Y227.8637
G01 X69.5845 Y228.0839
G01 X69.4703 Y228.3124
G01 X69.3719 Y228.5480
G01 X69.2895 Y228.7897
G01 X69.2236 Y229.0365
G01 X69.1745 Y229.2871
G01 X69.1424 Y229.5404
G01 X69.1275 Y229.7954
G01 X91.5029
G01 X91.4795 Y229.4451
G01 X91.4228 Y229.0987
G01 X91.3332 Y228.7592
G01 X91.2115 Y228.4299
G01 X91.0590 Y228.1138
G01 X90.8769 Y227.8137
G01 X90.6669 Y227.5323
G01 X90.4310 Y227.2724
G01 X90.1713 Y227.0361
G01 X89.8902 Y226.8258
G01 X89.5903 Y226.6434
G01 X89.2743 Y226.4904
G01 X88.9452 Y226.3684
G01 X88.6059 Y226.2784
G01 X88.2595 Y226.2212
G01 X87.9093 Y226.1974
G01 X72.7235
G01 X72.4019 Y226.2084
G01 X72.0828 Y226.2492
G01 X71.7689 Y226.3196
G01 X71.4628 Y226.4189
G01 X71.1673 Y226.5462
G01 X70.8850 Y226.7004
G01 X70.6182 Y226.8803
G01 X70.3694 Y227.0842
G01 X70.4880 Y227.2464
M107
G00 Z2.0000


;No. 6: Hole 6
G00 X99.1988 Y227.6295 Z2.0000
G00 Z0.5000
G01 Z0.0000 F400
G01 Z-1.8000
M106 S240
G01 X120.8395 F1000
G01 Y229.1295
G01 X100.5612
G01 X117.8307
G01 Y230.6295
G01 X120.8395
G01 Y232.1295
G01 X117.8429
G01 X117.7098 Y233.6295
G01 X120.8395
G01 Y235.1295
G01 X98.8442
G01 Y236.6295
G01 X120.8395
G01 X101.9739
G01 Y238.1295
G01 X98.8442
G01 Y239.6295
G01 X101.8408
G01 X101.8527 Y241.1295
G01 X98.8442
G01 Y242.6295
G01 X119.1174
G01 X120.4855 Y244.1295
G01 X98.8442
G01 X98.6442 Y244.1176
G01 Y245.5615
G01 X121.0295
G01 X121.0064 Y245.2166
G01 X120.9511 Y244.8753
G01 X120.8638 Y244.5407
G01 X120.7455 Y244.2159
G01 X120.5971 Y243.9036
G01 X120.4200 Y243.6066
G01 X120.2157 Y243.3277
G01 X119.9861 Y243.0692
G01 X119.7332 Y242.8334
G01 X119.4592 Y242.6225
G01 X119.1666 Y242.4383
G01 X118.8580 Y242.2825
G01 X118.5360 Y242.1564
G01 X118.2037 Y242.0612
G01 X117.8638 Y241.9976
G01 X117.5195 Y241.9663
G01 X117.4358 Y241.9654
G01 X103.0408
G01 X102.9971 Y241.9645
G01 X102.9536 Y241.9616
G01 X102.9102 Y241.9569
G01 X102.8671 Y241.9502
G01 X102.8243 Y241.9417
G01 X102.7819 Y241.9313
G01 X102.7401 Y241.9191
G01 X102.6987 Y241.9051
G01 X102.6581 Y241.8893
G01 X102.6181 Y241.8717
G01 X102.5790 Y241.8524
G01 X102.5408 Y241.8314
G01 X102.5035 Y241.8088
G01 X102.4672 Y241.7846
G01 X102.4320 Y241.7588
G01 X102.3980 Y241.7315
G01 X102.3652 Y241.7027
G01 X102.3337 Y241.6725
G01 X102.3035 Y241.6410
G01 X102.2747 Y241.6082
G01 X102.2474 Y241.5742
G01 X102.2216 Y241.5390
G01 X102.1974 Y241.5027
G01 X102.1747 Y241.4654
G01 X102.1538 Y241.4272
G01 X102.1345 Y241.3880
G01 X102.1169 Y241.3481
G01 X102.1011 Y241.3074
G01 X102.0870 Y241.2661
G01 X102.0748 Y241.2242
G01 X102.0645 Y241.1818
G01 X102.0560 Y241.1391
G01 X102.0493 Y241.0959
G01 X102.0446 Y241.0526
G01 X102.0417 Y241.0090
G01 X102.0408 Y240.9654
G01 Y238.6785
G01 X102.0438 Y238.6000
G01 X102.0531 Y238.5220
G01 X102.0684 Y238.4450
G01 X102.0897 Y238.3694
G01 X102.1169 Y238.2958
G01 X102.1498 Y238.2245
G01 X102.1881 Y238.1560
G01 X102.2317 Y238.0907
G01 X102.2804 Y238.0290
G01 X102.3337 Y237.9713
G01 X102.3913 Y237.9180
G01 X102.4530 Y237.8694
G01 X102.5183 Y237.8258
G01 X102.5868 Y237.7874
G01 X102.6581 Y237.7546
G01 X102.7317 Y237.7274
G01 X102.8073 Y237.7061
G01 X102.8843 Y237.6908
G01 X102.9623 Y237.6815
G01 X103.0408 Y237.6784
G01 X121.0395 Y237.6785
G01 Y226.1974
G01 X98.6542
G01 X98.6770 Y226.5425
G01 X98.7322 Y226.8840
G01 X98.8193 Y227.2187
G01 X98.9375 Y227.5438
G01 X99.0858 Y227.8562
G01 X99.2629 Y228.1533
G01 X99.4671 Y228.4325
G01 X99.6967 Y228.6911
G01 X99.9497 Y228.9270
G01 X100.2237 Y229.1380
G01 X100.5164 Y229.3223
G01 X100.8252 Y229.4782
G01 X101.1472 Y229.6044
G01 X101.4797 Y229.6997
G01 X101.8197 Y229.7632
G01 X102.1641 Y229.7944
G01 X102.2478 Y229.7954
G01 X116.6429
G01 X116.6866 Y229.7963
G01 X116.7301 Y229.7992
G01 X116.7735 Y229.8039
G01 X116.8166 Y229.8105
G01 X116.8594 Y229.8191
G01 X116.9018 Y229.8294
G01 X116.9436 Y229.8416
G01 X116.9850 Y229.8557
G01 X117.0256 Y229.8715
G01 X117.0655 Y229.8890
G01 X117.1047 Y229.9083
G01 X117.1429 Y229.9293
G01 X117.1802 Y229.9520
G01 X117.2165 Y229.9762
G01 X117.2517 Y230.0020
G01 X117.2857 Y230.0293
G01 X117.3185 Y230.0581
G01 X117.3500 Y230.0883
G01 X117.3802 Y230.1198
G01 X117.4090 Y230.1526
G01 X117.4363 Y230.1866
G01 X117.4621 Y230.2218
G01 X117.4863 Y230.2581
G01 X117.5090 Y230.2954
G01 X117.5299 Y230.3336
G01 X117.5492 Y230.3727
G01 X117.5668 Y230.4127
G01 X117.5826 Y230.4533
G01 X117.5966 Y230.4947
G01 X117.6089 Y230.5365
G01 X117.6192 Y230.5789
G01 X117.6277 Y230.6217
G01 X117.6344 Y230.6648
G01 X117.6391 Y230.7082
G01 X117.6420 Y230.7517
G01 X117.6429 Y230.7954
G01 Y233.0805
G01 X117.6398 Y233.1590
G01 X117.6306 Y233.2370
G01 X117.6153 Y233.3140
G01 X117.5940 Y233.3895
G01 X117.5668 Y233.4632
G01 X117.5339 Y233.5345
G01 X117.4956 Y233.6030
G01 X117.4519 Y233.6683
G01 X117.4033 Y233.7300
G01 X117.3500 Y233.7876
G01 X117.2924 Y233.8409
G01 X117.2307 Y233.8895
G01 X117.1654 Y233.9332
G01 X117.0969 Y233.9715
G01 X117.0256 Y234.0044
G01 X116.9519 Y234.0316
G01 X116.8764 Y234.0529
G01 X116.7994 Y234.0682
G01 X116.7214 Y234.0774
G01 X116.6429 Y234.0805
G01 X98.6442
G01 Y244.1176
G01 X98.8442 Y244.1295
M107
G00 Z2.0000


;No. 7: Hole 7
G00 X128.3693 Y244.1295 Z2.0000
G00 Z0.5000
G01 Z0.0000 F400
G01 Z-1.8000
M106 S240
G01 X131.3658 F1000
G01 Y242.6295
G01 X128.3693
G01 Y241.1295
G01 X131.3658
G01 Y239.6295
G01 X128.3693
G01 Y238.1295
G01 X131.3658
G01 Y236.6295
G01 X128.3693
G01 Y235.1295
G01 X131.3658
G01 Y233.6295
G01 X128.3693
G01 Y232.1295
G01 X131.3658
G01 X131.3780 Y230.6295
G01 X128.3693
G01 Y229.1295
G01 X150.2742
G01 X149.5365 Y227.6295
G01 X128.3693
G01 X128.1693 Y227.6423
G01 Y245.5615
G01 X131.5658
G01 Y230.7954
G01 X131.5689 Y230.7164
G01 X131.5783 Y230.6379
G01 X131.5938 Y230.5605
G01 X131.6154 Y230.4844
G01 X131.6429 Y230.4104
G01 X131.6762 Y230.3387
G01 X131.7150 Y230.2699
G01 X131.7592 Y230.2043
G01 X131.8083 Y230.1425
G01 X131.8623 Y230.0847
G01 X131.9206 Y230.0314
G01 X131.9829 Y229.9828
G01 X132.0489 Y229.9393
G01 X132.1181 Y229.9012
G01 X132.1901 Y229.8686
G01 X132.2644 Y229.8418
G01 X132.3406 Y229.8210
G01 X132.4183 Y229.8063
G01 X132.4968 Y229.7977
G01 X132.5758 Y229.7954
G01 X150.5545
G01 X150.5314 Y229.4503
G01 X150.4759 Y229.1090
G01 X150.3886 Y228.7745
G01 X150.2702 Y228.4496
G01 X150.1218 Y228.1373
G01 X149.9447 Y227.8403
G01 X149.7404 Y227.5613
G01 X149.5108 Y227.3027
G01 X149.2579 Y227.0668
G01 X148.9840 Y226.8558
G01 X148.6915 Y226.6715
G01 X148.3829 Y226.5155
G01 X148.0610 Y226.3892
G01 X147.7286 Y226.2937
G01 X147.3888 Y226.2299
G01 X147.0444 Y226.1983
G01 X146.9609 Y226.1974
G01 X128.1693
G01 Y227.6423
G01 X128.3693 Y227.6295
M107
G00 Z2.0000


;No. 8: Hole 8
G00 X157.8960 Y227.4379 Z2.0000
G00 Z0.5000
G01 Z0.0000 F400
G01 Z-1.8000
M106 S240
G01 X160.8926 F1000
G01 Y228.9379
G01 X157.8960
G01 Y230.4379
G01 X160.8926
G01 Y231.9379
G01 X157.8960
G01 Y233.4379
G01 X160.9475
G01 X157.8960 Y234.9379
G01 X179.8913
G01 Y233.4379
G01 X176.8398
G01 X176.8947 Y231.9379
G01 X179.8913
G01 Y230.4379
G01 X176.8947
G01 Y228.9379
G01 X179.8913
G01 Y227.4379
G01 X176.8947
M107
G00 Z2.0000
G00 X179.8913 Y234.9379
G00 Z0.5000
G01 Z-1.8000 F400
M106 S240
G01 Y236.4379 F1000
G01 X157.8960
G01 X157.6960 Y236.4239
G01 Y237.6785
G01 X180.0913
G01 Y226.1974
G01 X176.6947
G01 Y233.0805
G01 X176.6938 Y233.1241
G01 X176.6909 Y233.1677
G01 X176.6862 Y233.2110
G01 X176.6795 Y233.2542
G01 X176.6710 Y233.2970
G01 X176.6607 Y233.3393
G01 X176.6485 Y233.3812
G01 X176.6344 Y233.4225
G01 X176.6186 Y233.4632
G01 X176.6010 Y233.5031
G01 X176.5817 Y233.5423
G01 X176.5608 Y233.5805
G01 X176.5381 Y233.6178
G01 X176.5139 Y233.6541
G01 X176.4881 Y233.6893
G01 X176.4608 Y233.7233
G01 X176.4320 Y233.7561
G01 X176.4018 Y233.7876
G01 X176.3703 Y233.8178
G01 X176.3375 Y233.8466
G01 X176.3035 Y233.8739
G01 X176.2683 Y233.8997
G01 X176.2320 Y233.9239
G01 X176.1947 Y233.9465
G01 X176.1565 Y233.9675
G01 X176.1174 Y233.9868
G01 X176.0774 Y234.0044
G01 X176.0368 Y234.0202
G01 X175.9954 Y234.0342
G01 X175.9536 Y234.0464
G01 X175.9112 Y234.0568
G01 X175.8684 Y234.0653
G01 X175.8253 Y234.0720
G01 X175.7819 Y234.0767
G01 X175.7384 Y234.0796
G01 X175.6947 Y234.0805
G01 X162.0926
G01 X162.0141 Y234.0774
G01 X161.9361 Y234.0682
G01 X161.8591 Y234.0529
G01 X161.7836 Y234.0316
G01 X161.7099 Y234.0044
G01 X161.6386 Y233.9715
G01 X161.5701 Y233.9332
G01 X161.5048 Y233.8895
G01 X161.4431 Y233.8409
G01 X161.3855 Y233.7876
G01 X161.3322 Y233.7300
G01 X161.2836 Y233.6683
G01 X161.2399 Y233.6030
G01 X161.2016 Y233.5345
G01 X161.1687 Y233.4632
G01 X161.1415 Y233.3895
G01 X161.1202 Y233.3140
G01 X161.1049 Y233.2370
G01 X161.0957 Y233.1590
G01 X161.0926 Y233.0805
G01 Y226.1974
G01 X157.6960
G01 Y236.4239
G01 X157.8960 Y236.4379
M107
G00 Z2.0000


;No. 9: Helical drill 2
G00 X179.6638 Y258.3264 Z2.0000
G00 Z0.5000
M106 S240
G01 X179.6600 Y258.2393 Z0.4774 F400
G01 X179.6486 Y258.1528 Z0.4549
G01 X179.6297 Y258.0676 Z0.4323
G01 X179.6034 Y257.9844 Z0.4097
G01 X179.5701 Y257.9038 Z0.3872
G01 X179.5298 Y257.8264 Z0.3646
G01 X179.4829 Y257.7528 Z0.3420
G01 X179.4298 Y257.6836 Z0.3194
G01 X179.3709 Y257.6193 Z0.2969
G01 X179.3065 Y257.5604 Z0.2743
G01 X179.2373 Y257.5073 Z0.2517
G01 X179.1638 Y257.4604 Z0.2292
G01 X179.0864 Y257.4201 Z0.2066
G01 X179.0058 Y257.3867 Z0.1840
G01 X178.9226 Y257.3605 Z0.1615
G01 X178.8374 Y257.3416 Z0.1389
G01 X178.7509 Y257.3302 Z0.1163
G01 X178.6638 Y257.3264 Z0.0938
G01 X178.5766 Y257.3302 Z0.0712
G01 X178.4901 Y257.3416 Z0.0486
G01 X178.4049 Y257.3605 Z0.0260
G01 X178.3217 Y257.3867 Z0.0035
G01 X178.2411 Y257.4201 Z-0.0191
G01 X178.1638 Y257.4604 Z-0.0417
G01 X178.1231 Y257.4852 Z-0.0540
G01 X178.0837 Y257.5118 Z-0.0663
G01 X178.0456 Y257.5404 Z-0.0786
G01 X178.0089 Y257.5707 Z-0.0909
G01 X177.9737 Y257.6027 Z-0.1032
G01 X177.9400 Y257.6363 Z-0.1155
G01 X177.9080 Y257.6715 Z-0.1278
G01 X177.8777 Y257.7082 Z-0.1402
G01 X177.8492 Y257.7464 Z-0.1525
G01 X177.8225 Y257.7858 Z-0.1648
G01 X177.7977 Y257.8264 Z-0.1771
G01 X177.7749 Y257.8682 Z-0.1894
G01 X177.7541 Y257.9110 Z-0.2017
G01 X177.7354 Y257.9547 Z-0.2140
G01 X177.7188 Y257.9993 Z-0.2263
G01 X177.7043 Y258.0447 Z-0.2386
G01 X177.6919 Y258.0906 Z-0.2509
G01 X177.6818 Y258.1372 Z-0.2633
G01 X177.6739 Y258.1841 Z-0.2756
G01 X177.6683 Y258.2314 Z-0.2879
G01 X177.6649 Y258.2788 Z-0.3002
G01 X177.6638 Y258.3264 Z-0.3125
G01 X177.6649 Y258.3740 Z-0.3248
G01 X177.6683 Y258.4215 Z-0.3371
G01 X177.6739 Y258.4687 Z-0.3494
G01 X177.6818 Y258.5157 Z-0.3617
G01 X177.6919 Y258.5622 Z-0.3741
G01 X177.7043 Y258.6081 Z-0.3864
G01 X177.7188 Y258.6535 Z-0.3987
G01 X177.7354 Y258.6981 Z-0.4110
G01 X177.7541 Y258.7418 Z-0.4233
G01 X177.7749 Y258.7846 Z-0.4356
G01 X177.7977 Y258.8264 Z-0.4479
G01 X177.8225 Y258.8670 Z-0.4602
G01 X177.8492 Y258.9065 Z-0.4725
G01 X177.8777 Y258.9446 Z-0.4848
G01 X177.9080 Y258.9813 Z-0.4972
G01 X177.9400 Y259.0165 Z-0.5095
G01 X177.9737 Y259.0501 Z-0.5218
G01 X178.0089 Y259.0822 Z-0.5341
G01 X178.0456 Y259.1125 Z-0.5464
G01 X178.0837 Y259.1410 Z-0.5587
G01 X178.1231 Y259.1677 Z-0.5710
G01 X178.1638 Y259.1924 Z-0.5833
G01 X178.2055 Y259.2152 Z-0.5956
G01 X178.2483 Y259.2360 Z-0.6080
G01 X178.2921 Y259.2548 Z-0.6203
G01 X178.3367 Y259.2714 Z-0.6326
G01 X178.3820 Y259.2859 Z-0.6449
G01 X178.4280 Y259.2982 Z-0.6572
G01 X178.4745 Y259.3083 Z-0.6695
G01 X178.5214 Y259.3162 Z-0.6818
G01 X178.5687 Y259.3219 Z-0.6941
G01 X178.6162 Y259.3253 Z-0.7064
G01 X178.6638 Y259.3264 Z-0.7188
G01 X178.7113 Y259.3253 Z-0.7311
G01 X178.7588 Y259.3219 Z-0.7434
G01 X178.8061 Y259.3162 Z-0.7557
G01 X178.8530 Y259.3083 Z-0.7680
G01 X178.8995 Y259.2982 Z-0.7803
G01 X178.9455 Y259.2859 Z-0.7926
G01 X178.9908 Y259.2714 Z-0.8049
G01 X179.0354 Y259.2548 Z-0.8172
G01 X179.0792 Y259.2360 Z-0.8295
G01 X179.1220 Y259.2152 Z-0.8419
G01 X179.1638 Y259.1924 Z-0.8542
G01 X179.2044 Y259.1677 Z-0.8665
G01 X179.2438 Y259.1410 Z-0.8788
G01 X179.2819 Y259.1125 Z-0.8911
G01 X179.3186 Y259.0822 Z-0.9034
G01 X179.3538 Y259.0501 Z-0.9157
G01 X179.3875 Y259.0165 Z-0.9280
G01 X179.4195 Y258.9813 Z-0.9403
G01 X179.4498 Y258.9446 Z-0.9527
G01 X179.4783 Y258.9065 Z-0.9650
G01 X179.5050 Y258.8670 Z-0.9773
G01 X179.5298 Y258.8264 Z-0.9896
G01 X179.5526 Y258.7846 Z-1.0019
G01 X179.5734 Y258.7418 Z-1.0142
G01 X179.5921 Y258.6981 Z-1.0265
G01 X179.6088 Y258.6535 Z-1.0388
G01 X179.6233 Y258.6081 Z-1.0511
G01 X179.6356 Y258.5622 Z-1.0634
G01 X179.6457 Y258.5157 Z-1.0758
G01 X179.6536 Y258.4687 Z-1.0881
G01 X179.6592 Y258.4215 Z-1.1004
G01 X179.6626 Y258.3740 Z-1.1127
G01 X179.6638 Y258.3264 Z-1.1250
G01 X179.6600 Y258.2393
G01 X179.6486 Y258.1528
G01 X179.6297 Y258.0676
G01 X179.6034 Y257.9844
G01 X179.5701 Y257.9038
G01 X179.5298 Y257.8264
G01 X179.4829 Y257.7528
G01 X179.4298 Y257.6836
G01 X179.3709 Y257.6193
G01 X179.3065 Y257.5604
G01 X179.2373 Y257.5073
G01 X179.1638 Y257.4604
G01 X179.0864 Y257.4201
G01 X179.0058 Y257.3867
G01 X178.9226 Y257.3605
G01 X178.8374 Y257.3416
G01 X178.7509 Y257.3302
G01 X178.6638 Y257.3264
G01 X178.5766 Y257.3302
G01 X178.4901 Y257.3416
G01 X178.4049 Y257.3605
G01 X178.3217 Y257.3867
G01 X178.2411 Y257.4201
G01 X178.1638 Y257.4604
G01 X178.1231 Y257.4852
G01 X178.0837 Y257.5118
G01 X178.0456 Y257.5404
G01 X178.0089 Y257.5707
G01 X177.9737 Y257.6027
G01 X177.9400 Y257.6363
G01 X177.9080 Y257.6715
G01 X177.8777 Y257.7082
G01 X177.8492 Y257.7464
G01 X177.8225 Y257.7858
G01 X177.7977 Y257.8264
G01 X177.7749 Y257.8682
G01 X177.7541 Y257.9110
G01 X177.7354 Y257.9547
G01 X177.7188 Y257.9993
G01 X177.7043 Y258.0447
G01 X177.6919 Y258.0906
G01 X177.6818 Y258.1372
G01 X177.6739 Y258.1841
G01 X177.6683 Y258.2314
G01 X177.6649 Y258.2788
G01 X177.6638 Y258.3264
G01 X177.6649 Y258.3740
G01 X177.6683 Y258.4215
G01 X177.6739 Y258.4687
G01 X177.6818 Y258.5157
G01 X177.6919 Y258.5622
G01 X177.7043 Y258.6081
G01 X177.7188 Y258.6535
G01 X177.7354 Y258.6981
G01 X177.7541 Y258.7418
G01 X177.7749 Y258.7846
G01 X177.7977 Y258.8264
G01 X177.8225 Y258.8670
G01 X177.8492 Y258.9065
G01 X177.8777 Y258.9446
G01 X177.9080 Y258.9813
G01 X177.9400 Y259.0165
G01 X177.9737 Y259.0501
G01 X178.0089 Y259.0822
G01 X178.0456 Y259.1125
G01 X178.0837 Y259.1410
G01 X178.1231 Y259.1677
G01 X178.1638 Y259.1924
G01 X178.2055 Y259.2152
G01 X178.2483 Y259.2360
G01 X178.2921 Y259.2548
G01 X178.3367 Y259.2714
G01 X178.3820 Y259.2859
G01 X178.4280 Y259.2982
G01 X178.4745 Y259.3083
G01 X178.5214 Y259.3162
G01 X178.5687 Y259.3219
G01 X178.6162 Y259.3253
G01 X178.6638 Y259.3264
G01 X178.7113 Y259.3253
G01 X178.7588 Y259.3219
G01 X178.8061 Y259.3162
G01 X178.8530 Y259.3083
G01 X178.8995 Y259.2982
G01 X178.9455 Y259.2859
G01 X178.9908 Y259.2714
G01 X179.0354 Y259.2548
G01 X179.0792 Y259.2360
G01 X179.1220 Y259.2152
G01 X179.1638 Y259.1924
G01 X179.2044 Y259.1677
G01 X179.2438 Y259.1410
G01 X179.2819 Y259.1125
G01 X179.3186 Y259.0822
G01 X179.3538 Y259.0501
G01 X179.3875 Y259.0165
G01 X179.4195 Y258.9813
G01 X179.4498 Y258.9446
G01 X179.4783 Y258.9065
G01 X179.5050 Y258.8670
G01 X179.5298 Y258.8264
G01 X179.5526 Y258.7846
G01 X179.5734 Y258.7418
G01 X179.5921 Y258.6981
G01 X179.6088 Y258.6535
G01 X179.6233 Y258.6081
G01 X179.6356 Y258.5622
G01 X179.6457 Y258.5157
G01 X179.6536 Y258.4687
G01 X179.6592 Y258.4215
G01 X179.6626 Y258.3740
G01 X179.6638 Y258.3264
G01 X179.6745 Y258.2748 F1000
G01 X179.6826 Y258.2227
G01 X179.6880 Y258.1703
G01 X179.6906 Y258.1177
G01 Y258.0650
G01 X179.6879 Y258.0123
G01 X179.6824 Y257.9599
G01 X179.6743 Y257.9078
G01 X179.6625 Y257.8519
G01 X179.6480 Y257.7966
G01 X179.6306 Y257.7421
G01 X179.6105 Y257.6885
G01 X179.5876 Y257.6361
G01 X179.5621 Y257.5849
G01 X179.5340 Y257.5350
G01 X179.5034 Y257.4867
G01 X179.4665 Y257.4384
G01 X179.4271 Y257.3920
G01 X179.3854 Y257.3476
G01 X179.3416 Y257.3054
G01 X179.2957 Y257.2655
G01 X179.2479 Y257.2278
G01 X179.1982 Y257.1927
G01 X179.1469 Y257.1601
G01 X179.0891 Y257.1378
G01 X179.0302 Y257.1183
G01 X178.9705 Y257.1018
G01 X178.9100 Y257.0882
G01 X178.8490 Y257.0776
G01 X178.7875 Y257.0701
G01 X178.7257 Y257.0655
G01 X178.6638 Y257.0640
G01 X178.6018 Y257.0655
G01 X178.5400 Y257.0701
G01 X178.4785 Y257.0776
G01 X178.4175 Y257.0882
G01 X178.3570 Y257.1018
G01 X178.2973 Y257.1183
G01 X178.2385 Y257.1378
G01 X178.1806 Y257.1601
G01 X178.1240 Y257.1852
G01 X178.0687 Y257.2130
G01 X178.0147 Y257.2436
G01 X177.9624 Y257.2767
G01 X177.9117 Y257.3124
G01 X177.8629 Y257.3505
G01 X177.8160 Y257.3910
G01 X177.7711 Y257.4337
G01 X177.7284 Y257.4786
G01 X177.6879 Y257.5255
G01 X177.6498 Y257.5744
G01 X177.6141 Y257.6250
G01 X177.5809 Y257.6774
G01 X177.5504 Y257.7313
G01 X177.5225 Y257.7866
G01 X177.4974 Y257.8433
G01 X177.4751 Y257.9011
G01 X177.4557 Y257.9599
G01 X177.4392 Y258.0197
G01 X177.4256 Y258.0801
G01 X177.4150 Y258.1412
G01 X177.4074 Y258.2027
G01 X177.4028 Y258.2645
G01 X177.4013 Y258.3264
G01 X177.4028 Y258.3884
G01 X177.4074 Y258.4501
G01 X177.4150 Y258.5116
G01 X177.4256 Y258.5727
G01 X177.4392 Y258.6332
G01 X177.4557 Y258.6929
G01 X177.4751 Y258.7517
G01 X177.4974 Y258.8095
G01 X177.5225 Y258.8662
G01 X177.5504 Y258.9215
G01 X177.5809 Y258.9754
G01 X177.6141 Y259.0278
G01 X177.6498 Y259.0784
G01 X177.6879 Y259.1273
G01 X177.7284 Y259.1742
G01 X177.7711 Y259.2191
G01 X177.8160 Y259.2618
G01 X177.8629 Y259.3023
G01 X177.9117 Y259.3404
G01 X177.9624 Y259.3761
G01 X178.0147 Y259.4092
G01 X178.0687 Y259.4398
G01 X178.1240 Y259.4676
G01 X178.1806 Y259.4927
G01 X178.2385 Y259.5150
G01 X178.2973 Y259.5345
G01 X178.3570 Y259.5510
G01 X178.4175 Y259.5646
G01 X178.4785 Y259.5752
G01 X178.5400 Y259.5828
G01 X178.6018 Y259.5873
G01 X178.6638 Y259.5888
G01 X178.7257 Y259.5873
G01 X178.7875 Y259.5828
G01 X178.8490 Y259.5752
G01 X178.9100 Y259.5646
G01 X178.9705 Y259.5510
G01 X179.0302 Y259.5345
G01 X179.0891 Y259.5150
G01 X179.1469 Y259.4927
G01 X179.2035 Y259.4676
G01 X179.2589 Y259.4398
G01 X179.3128 Y259.4092
G01 X179.3651 Y259.3761
G01 X179.4158 Y259.3404
G01 X179.4646 Y259.3023
G01 X179.5116 Y259.2618
G01 X179.5564 Y259.2191
G01 X179.5992 Y259.1742
G01 X179.6396 Y259.1273
G01 X179.6778 Y259.0784
G01 X179.7134 Y259.0278
G01 X179.7466 Y258.9754
G01 X179.7771 Y258.9215
G01 X179.8050 Y258.8662
G01 X179.8301 Y258.8095
G01 X179.8524 Y258.7517
G01 X179.8718 Y258.6929
G01 X179.8884 Y258.6332
G01 X179.9019 Y258.5727
G01 X179.9125 Y258.5116
G01 X179.9201 Y258.4501
G01 X179.9247 Y258.3884
G01 X179.9262 Y258.3264
G01 X179.9227 Y258.2321
G01 X179.9121 Y258.1383
G01 X179.8945 Y258.0455
G01 X179.8701 Y257.9543
G01 X179.8389 Y257.8652
G01 X179.8012 Y257.7787
G01 X179.7571 Y257.6952
G01 X179.7068 Y257.6153
G01 X179.6508 Y257.5393
G01 X179.5892 Y257.4677
G01 X179.5224 Y257.4010
G01 X179.4509 Y257.3394
G01 X179.3749 Y257.2833
G01 X179.2950 Y257.2331
G01 X179.2115 Y257.1890
G01 X179.1250 Y257.1512
G01 X179.0359 Y257.1201
G01 X178.9447 Y257.0956
G01 X178.8519 Y257.0781
G01 X178.7581 Y257.0675
G01 X178.6638 Y257.0640
G01 X178.5694 Y257.0675
G01 X178.4756 Y257.0781
G01 X178.3828 Y257.0956
G01 X178.2916 Y257.1201
G01 X178.2025 Y257.1512
G01 X178.1160 Y257.1890
G01 X178.0325 Y257.2331
G01 X177.9526 Y257.2833
G01 X177.8766 Y257.3394
G01 X177.8051 Y257.4010
G01 X177.7383 Y257.4677
G01 X177.6767 Y257.5393
G01 X177.6207 Y257.6153
G01 X177.5705 Y257.6952
G01 X177.5263 Y257.7787
G01 X177.4886 Y257.8652
G01 X177.4574 Y257.9543
G01 X177.4330 Y258.0455
G01 X177.4154 Y258.1383
G01 X177.4049 Y258.2321
G01 X177.4013 Y258.3264
G01 X177.4049 Y258.4207
G01 X177.4154 Y258.5146
G01 X177.4330 Y258.6073
G01 X177.4574 Y258.6985
G01 X177.4886 Y258.7876
G01 X177.5263 Y258.8742
G01 X177.5705 Y258.9576
G01 X177.6207 Y259.0376
G01 X177.6767 Y259.1135
G01 X177.7383 Y259.1851
G01 X177.8051 Y259.2518
G01 X177.8766 Y259.3134
G01 X177.9526 Y259.3695
G01 X178.0325 Y259.4197
G01 X178.1160 Y259.4638
G01 X178.2025 Y259.5016
G01 X178.2916 Y259.5328
G01 X178.3828 Y259.5572
G01 X178.4756 Y259.5747
G01 X178.5694 Y259.5853
G01 X178.6638 Y259.5888
G01 X178.7581 Y259.5853
G01 X178.8519 Y259.5747
G01 X178.9447 Y259.5572
G01 X179.0359 Y259.5328
G01 X179.1250 Y259.5016
G01 X179.2115 Y259.4638
G01 X179.2950 Y259.4197
G01 X179.3749 Y259.3695
G01 X179.4509 Y259.3134
G01 X179.5224 Y259.2518
G01 X179.5892 Y259.1851
G01 X179.6508 Y259.1135
G01 X179.7068 Y259.0376
G01 X179.7571 Y258.9576
G01 X179.8012 Y258.8742
G01 X179.8389 Y258.7876
G01 X179.8701 Y258.6985
G01 X179.8945 Y258.6073
G01 X179.9121 Y258.5146
G01 X179.9227 Y258.4207
G01 X179.9262 Y258.3264
G01 X179.9219 Y258.2278
G01 X179.9090 Y258.1300
G01 X179.8876 Y258.0336
G01 X179.8580 Y257.9395
G01 X179.8202 Y257.8483
G01 X179.7746 Y257.7608
G01 X179.7216 Y257.6776
G01 X179.6615 Y257.5993
G01 X179.5949 Y257.5265
G01 X179.5221 Y257.4598
G01 X179.4438 Y257.3998
G01 X179.3606 Y257.3467
G01 X179.2730 Y257.3012
G01 X179.1819 Y257.2634
G01 X179.0878 Y257.2337
G01 X178.9914 Y257.2124
G01 X178.8936 Y257.1995
G01 X178.7950 Y257.1952
G01 X178.6964 Y257.1995
G01 X178.5985 Y257.2124
G01 X178.5022 Y257.2337
G01 X178.4081 Y257.2634
G01 X178.3169 Y257.3012
G01 X178.2294 Y257.3467
G01 X178.1461 Y257.3998
G01 X178.0678 Y257.4598
G01 X177.9951 Y257.5265
G01 X177.9284 Y257.5993
G01 X177.8683 Y257.6776
G01 X177.8153 Y257.7608
G01 X177.7697 Y257.8483
G01 X177.7320 Y257.9395
G01 X177.7023 Y258.0336
G01 X177.6809 Y258.1300
G01 X177.6681 Y258.2278
G01 X177.6638 Y258.3264
G01 X177.6676 Y258.4136
G01 X177.6789 Y258.5001
G01 X177.6978 Y258.5852
G01 X177.7241 Y258.6684
G01 X177.7574 Y258.7490
G01 X177.7977 Y258.8264
G01 X177.8446 Y258.9000
G01 X177.8977 Y258.9692
G01 X177.9567 Y259.0335
G01 X178.0210 Y259.0925
G01 X178.0902 Y259.1456
G01 X178.1638 Y259.1924
G01 X178.2411 Y259.2327
G01 X178.3217 Y259.2661
G01 X178.4049 Y259.2923
G01 X178.4901 Y259.3112
G01 X178.5766 Y259.3226
G01 X178.6638 Y259.3264
G01 X178.7509 Y259.3226
G01 X178.8374 Y259.3112
G01 X178.9226 Y259.2923
G01 X179.0058 Y259.2661
G01 X179.0864 Y259.2327
G01 X179.1638 Y259.1924
G01 X179.2373 Y259.1456
G01 X179.3065 Y259.0925
G01 X179.3709 Y259.0335
G01 X179.4298 Y258.9692
G01 X179.4829 Y258.9000
G01 X179.5298 Y258.8264
G01 X179.5701 Y258.7490
G01 X179.6034 Y258.6684
G01 X179.6297 Y258.5852
G01 X179.6486 Y258.5001
G01 X179.6600 Y258.4136
G01 X179.6638 Y258.3264
M107
M106 S240
G01 X179.6600 Y258.2393 Z-1.1476 F400
G01 X179.6486 Y258.1528 Z-1.1701
G01 X179.6297 Y258.0676 Z-1.1927
G01 X179.6034 Y257.9844 Z-1.2153
G01 X179.5701 Y257.9038 Z-1.2378
G01 X179.5298 Y257.8264 Z-1.2604
G01 X179.4829 Y257.7528 Z-1.2830
G01 X179.4298 Y257.6836 Z-1.3056
G01 X179.3709 Y257.6193 Z-1.3281
G01 X179.3065 Y257.5604 Z-1.3507
G01 X179.2373 Y257.5073 Z-1.3733
G01 X179.1638 Y257.4604 Z-1.3958
G01 X179.0864 Y257.4201 Z-1.4184
G01 X179.0058 Y257.3867 Z-1.4410
G01 X178.9226 Y257.3605 Z-1.4635
G01 X178.8374 Y257.3416 Z-1.4861
G01 X178.7509 Y257.3302 Z-1.5087
G01 X178.6638 Y257.3264 Z-1.5313
G01 X178.5766 Y257.3302 Z-1.5538
G01 X178.4901 Y257.3416 Z-1.5764
G01 X178.4049 Y257.3605 Z-1.5990
G01 X178.3217 Y257.3867 Z-1.6215
G01 X178.2411 Y257.4201 Z-1.6441
G01 X178.1638 Y257.4604 Z-1.6667
G01 X178.1231 Y257.4852 Z-1.6790
G01 X178.0837 Y257.5118 Z-1.6913
G01 X178.0456 Y257.5404 Z-1.7036
G01 X178.0089 Y257.5707 Z-1.7159
G01 X177.9737 Y257.6027 Z-1.7282
G01 X177.9400 Y257.6363 Z-1.7405
G01 X177.9080 Y257.6715 Z-1.7528
G01 X177.8777 Y257.7082 Z-1.7652
G01 X177.8492 Y257.7464 Z-1.7775
G01 X177.8225 Y257.7858 Z-1.7898
G01 X177.7977 Y257.8264 Z-1.8021
G01 X177.7749 Y257.8682 Z-1.8144
G01 X177.7541 Y257.9110 Z-1.8267
G01 X177.7354 Y257.9547 Z-1.8390
G01 X177.7188 Y257.9993 Z-1.8513
G01 X177.7043 Y258.0447 Z-1.8636
G01 X177.6919 Y258.0906 Z-1.8759
G01 X177.6818 Y258.1372 Z-1.8883
G01 X177.6739 Y258.1841 Z-1.9006
G01 X177.6683 Y258.2314 Z-1.9129
G01 X177.6649 Y258.2788 Z-1.9252
G01 X177.6638 Y258.3264 Z-1.9375
G01 X177.6649 Y258.3740 Z-1.9498
G01 X177.6683 Y258.4215 Z-1.9621
G01 X177.6739 Y258.4687 Z-1.9744
G01 X177.6818 Y258.5157 Z-1.9867
G01 X177.6919 Y258.5622 Z-1.9991
G01 X177.7043 Y258.6081 Z-2.0114
G01 X177.7188 Y258.6535 Z-2.0237
G01 X177.7354 Y258.6981 Z-2.0360
G01 X177.7541 Y258.7418 Z-2.0483
G01 X177.7749 Y258.7846 Z-2.0606
G01 X177.7977 Y258.8264 Z-2.0729
G01 X177.8225 Y258.8670 Z-2.0852
G01 X177.8492 Y258.9065 Z-2.0975
G01 X177.8777 Y258.9446 Z-2.1098
G01 X177.9080 Y258.9813 Z-2.1222
G01 X177.9400 Y259.0165 Z-2.1345
G01 X177.9737 Y259.0501 Z-2.1468
G01 X178.0089 Y259.0822 Z-2.1591
G01 X178.0456 Y259.1125 Z-2.1714
G01 X178.0837 Y259.1410 Z-2.1837
G01 X178.1231 Y259.1677 Z-2.1960
G01 X178.1638 Y259.1924 Z-2.2083
G01 X178.2055 Y259.2152 Z-2.2206
G01 X178.2483 Y259.2360 Z-2.2330
G01 X178.2921 Y259.2548 Z-2.2453
G01 X178.3367 Y259.2714 Z-2.2576
G01 X178.3820 Y259.2859 Z-2.2699
G01 X178.4280 Y259.2982 Z-2.2822
G01 X178.4745 Y259.3083 Z-2.2945
G01 X178.5214 Y259.3162 Z-2.3068
G01 X178.5687 Y259.3219 Z-2.3191
G01 X178.6162 Y259.3253 Z-2.3314
G01 X178.6638 Y259.3264 Z-2.3438
G01 X178.7113 Y259.3253 Z-2.3561
G01 X178.7588 Y259.3219 Z-2.3684
G01 X178.8061 Y259.3162 Z-2.3807
G01 X178.8530 Y259.3083 Z-2.3930
G01 X178.8995 Y259.2982 Z-2.4053
G01 X178.9455 Y259.2859 Z-2.4176
G01 X178.9908 Y259.2714 Z-2.4299
G01 X179.0354 Y259.2548 Z-2.4422
G01 X179.0792 Y259.2360 Z-2.4545
G01 X179.1220 Y259.2152 Z-2.4669
G01 X179.1638 Y259.1924 Z-2.4792
G01 X179.2044 Y259.1677 Z-2.4915
G01 X179.2438 Y259.1410 Z-2.5038
G01 X179.2819 Y259.1125 Z-2.5161
G01 X179.3186 Y259.0822 Z-2.5284
G01 X179.3538 Y259.0501 Z-2.5407
G01 X179.3875 Y259.0165 Z-2.5530
G01 X179.4195 Y258.9813 Z-2.5653
G01 X179.4498 Y258.9446 Z-2.5777
G01 X179.4783 Y258.9065 Z-2.5900
G01 X179.5050 Y258.8670 Z-2.6023
G01 X179.5298 Y258.8264 Z-2.6146
G01 X179.5526 Y258.7846 Z-2.6269
G01 X179.5734 Y258.7418 Z-2.6392
G01 X179.5921 Y258.6981 Z-2.6515
G01 X179.6088 Y258.6535 Z-2.6638
G01 X179.6233 Y258.6081 Z-2.6761
G01 X179.6356 Y258.5622 Z-2.6884
G01 X179.6457 Y258.5157 Z-2.7008
G01 X179.6536 Y258.4687 Z-2.7131
G01 X179.6592 Y258.4215 Z-2.7254
G01 X179.6626 Y258.3740 Z-2.7377
G01 X179.6638 Y258.3264 Z-2.7500
G01 X179.6600 Y258.2393
G01 X179.6486 Y258.1528
G01 X179.6297 Y258.0676
G01 X179.6034 Y257.9844
G01 X179.5701 Y257.9038
G01 X179.5298 Y257.8264
G01 X179.4829 Y257.7528
G01 X179.4298 Y257.6836
G01 X179.3709 Y257.6193
G01 X179.3065 Y257.5604
G01 X179.2373 Y257.5073
G01 X179.1638 Y257.4604
G01 X179.0864 Y257.4201
G01 X179.0058 Y257.3867
G01 X178.9226 Y257.3605
G01 X178.8374 Y257.3416
G01 X178.7509 Y257.3302
G01 X178.6638 Y257.3264
G01 X178.5766 Y257.3302
G01 X178.4901 Y257.3416
G01 X178.4049 Y257.3605
G01 X178.3217 Y257.3867
G01 X178.2411 Y257.4201
G01 X178.1638 Y257.4604
G01 X178.1231 Y257.4852
G01 X178.0837 Y257.5118
G01 X178.0456 Y257.5404
G01 X178.0089 Y257.5707
G01 X177.9737 Y257.6027
G01 X177.9400 Y257.6363
G01 X177.9080 Y257.6715
G01 X177.8777 Y257.7082
G01 X177.8492 Y257.7464
G01 X177.8225 Y257.7858
G01 X177.7977 Y257.8264
G01 X177.7749 Y257.8682
G01 X177.7541 Y257.9110
G01 X177.7354 Y257.9547
G01 X177.7188 Y257.9993
G01 X177.7043 Y258.0447
G01 X177.6919 Y258.0906
G01 X177.6818 Y258.1372
G01 X177.6739 Y258.1841
G01 X177.6683 Y258.2314
G01 X177.6649 Y258.2788
G01 X177.6638 Y258.3264
G01 X177.6649 Y258.3740
G01 X177.6683 Y258.4215
G01 X177.6739 Y258.4687
G01 X177.6818 Y258.5157
G01 X177.6919 Y258.5622
G01 X177.7043 Y258.6081
G01 X177.7188 Y258.6535
G01 X177.7354 Y258.6981
G01 X177.7541 Y258.7418
G01 X177.7749 Y258.7846
G01 X177.7977 Y258.8264
G01 X177.8225 Y258.8670
G01 X177.8492 Y258.9065
G01 X177.8777 Y258.9446
G01 X177.9080 Y258.9813
G01 X177.9400 Y259.0165
G01 X177.9737 Y259.0501
G01 X178.0089 Y259.0822
G01 X178.0456 Y259.1125
G01 X178.0837 Y259.1410
G01 X178.1231 Y259.1677
G01 X178.1638 Y259.1924
G01 X178.2055 Y259.2152
G01 X178.2483 Y259.2360
G01 X178.2921 Y259.2548
G01 X178.3367 Y259.2714
G01 X178.3820 Y259.2859
G01 X178.4280 Y259.2982
G01 X178.4745 Y259.3083
G01 X178.5214 Y259.3162
G01 X178.5687 Y259.3219
G01 X178.6162 Y259.3253
G01 X178.6638 Y259.3264
G01 X178.7113 Y259.3253
G01 X178.7588 Y259.3219
G01 X178.8061 Y259.3162
G01 X178.8530 Y259.3083
G01 X178.8995 Y259.2982
G01 X178.9455 Y259.2859
G01 X178.9908 Y259.2714
G01 X179.0354 Y259.2548
G01 X179.0792 Y259.2360
G01 X179.1220 Y259.2152
G01 X179.1638 Y259.1924
G01 X179.2044 Y259.1677
G01 X179.2438 Y259.1410
G01 X179.2819 Y259.1125
G01 X179.3186 Y259.0822
G01 X179.3538 Y259.0501
G01 X179.3875 Y259.0165
G01 X179.4195 Y258.9813
G01 X179.4498 Y258.9446
G01 X179.4783 Y258.9065
G01 X179.5050 Y258.8670
G01 X179.5298 Y258.8264
G01 X179.5526 Y258.7846
G01 X179.5734 Y258.7418
G01 X179.5921 Y258.6981
G01 X179.6088 Y258.6535
G01 X179.6233 Y258.6081
G01 X179.6356 Y258.5622
G01 X179.6457 Y258.5157
G01 X179.6536 Y258.4687
G01 X179.6592 Y258.4215
G01 X179.6626 Y258.3740
G01 X179.6638 Y258.3264
G01 X179.6745 Y258.2748 F1000
G01 X179.6826 Y258.2227
G01 X179.6880 Y258.1703
G01 X179.6906 Y258.1177
G01 Y258.0650
G01 X179.6879 Y258.0123
G01 X179.6824 Y257.9599
G01 X179.6743 Y257.9078
G01 X179.6625 Y257.8519
G01 X179.6480 Y257.7966
G01 X179.6306 Y257.7421
G01 X179.6105 Y257.6885
G01 X179.5876 Y257.6361
G01 X179.5621 Y257.5849
G01 X179.5340 Y257.5350
G01 X179.5034 Y257.4867
G01 X179.4665 Y257.4384
G01 X179.4271 Y257.3920
G01 X179.3854 Y257.3476
G01 X179.3416 Y257.3054
G01 X179.2957 Y257.2655
G01 X179.2479 Y257.2278
G01 X179.1982 Y257.1927
G01 X179.1469 Y257.1601
G01 X179.0891 Y257.1378
G01 X179.0302 Y257.1183
G01 X178.9705 Y257.1018
G01 X178.9100 Y257.0882
G01 X178.8490 Y257.0776
G01 X178.7875 Y257.0701
G01 X178.7257 Y257.0655
G01 X178.6638 Y257.0640
G01 X178.6018 Y257.0655
G01 X178.5400 Y257.0701
G01 X178.4785 Y257.0776
G01 X178.4175 Y257.0882
G01 X178.3570 Y257.1018
G01 X178.2973 Y257.1183
G01 X178.2385 Y257.1378
G01 X178.1806 Y257.1601
G01 X178.1240 Y257.1852
G01 X178.0687 Y257.2130
G01 X178.0147 Y257.2436
G01 X177.9624 Y257.2767
G01 X177.9117 Y257.3124
G01 X177.8629 Y257.3505
G01 X177.8160 Y257.3910
G01 X177.7711 Y257.4337
G01 X177.7284 Y257.4786
G01 X177.6879 Y257.5255
G01 X177.6498 Y257.5744
G01 X177.6141 Y257.6250
G01 X177.5809 Y257.6774
G01 X177.5504 Y257.7313
G01 X177.5225 Y257.7866
G01 X177.4974 Y257.8433
G01 X177.4751 Y257.9011
G01 X177.4557 Y257.9599
G01 X177.4392 Y258.0197
G01 X177.4256 Y258.0801
G01 X177.4150 Y258.1412
G01 X177.4074 Y258.2027
G01 X177.4028 Y258.2645
G01 X177.4013 Y258.3264
G01 X177.4028 Y258.3884
G01 X177.4074 Y258.4501
G01 X177.4150 Y258.5116
G01 X177.4256 Y258.5727
G01 X177.4392 Y258.6332
G01 X177.4557 Y258.6929
G01 X177.4751 Y258.7517
G01 X177.4974 Y258.8095
G01 X177.5225 Y258.8662
G01 X177.5504 Y258.9215
G01 X177.5809 Y258.9754
G01 X177.6141 Y259.0278
G01 X177.6498 Y259.0784
G01 X177.6879 Y259.1273
G01 X177.7284 Y259.1742
G01 X177.7711 Y259.2191
G01 X177.8160 Y259.2618
G01 X177.8629 Y259.3023
G01 X177.9117 Y259.3404
G01 X177.9624 Y259.3761
G01 X178.0147 Y259.4092
G01 X178.0687 Y259.4398
G01 X178.1240 Y259.4676
G01 X178.1806 Y259.4927
G01 X178.2385 Y259.5150
G01 X178.2973 Y259.5345
G01 X178.3570 Y259.5510
G01 X178.4175 Y259.5646
G01 X178.4785 Y259.5752
G01 X178.5400 Y259.5828
G01 X178.6018 Y259.5873
G01 X178.6638 Y259.5888
G01 X178.7257 Y259.5873
G01 X178.7875 Y259.5828
G01 X178.8490 Y259.5752
G01 X178.9100 Y259.5646
G01 X178.9705 Y259.5510
G01 X179.0302 Y259.5345
G01 X179.0891 Y259.5150
G01 X179.1469 Y259.4927
G01 X179.2035 Y259.4676
G01 X179.2589 Y259.4398
G01 X179.3128 Y259.4092
G01 X179.3651 Y259.3761
G01 X179.4158 Y259.3404
G01 X179.4646 Y259.3023
G01 X179.5116 Y259.2618
G01 X179.5564 Y259.2191
G01 X179.5992 Y259.1742
G01 X179.6396 Y259.1273
G01 X179.6778 Y259.0784
G01 X179.7134 Y259.0278
G01 X179.7466 Y258.9754
G01 X179.7771 Y258.9215
G01 X179.8050 Y258.8662
G01 X179.8301 Y258.8095
G01 X179.8524 Y258.7517
G01 X179.8718 Y258.6929
G01 X179.8884 Y258.6332
G01 X179.9019 Y258.5727
G01 X179.9125 Y258.5116
G01 X179.9201 Y258.4501
G01 X179.9247 Y258.3884
G01 X179.9262 Y258.3264
G01 X179.9227 Y258.2321
G01 X179.9121 Y258.1383
G01 X179.8945 Y258.0455
G01 X179.8701 Y257.9543
G01 X179.8389 Y257.8652
G01 X179.8012 Y257.7787
G01 X179.7571 Y257.6952
G01 X179.7068 Y257.6153
G01 X179.6508 Y257.5393
G01 X179.5892 Y257.4677
G01 X179.5224 Y257.4010
G01 X179.4509 Y257.3394
G01 X179.3749 Y257.2833
G01 X179.2950 Y257.2331
G01 X179.2115 Y257.1890
G01 X179.1250 Y257.1512
G01 X179.0359 Y257.1201
G01 X178.9447 Y257.0956
G01 X178.8519 Y257.0781
G01 X178.7581 Y257.0675
G01 X178.6638 Y257.0640
G01 X178.5694 Y257.0675
G01 X178.4756 Y257.0781
G01 X178.3828 Y257.0956
G01 X178.2916 Y257.1201
G01 X178.2025 Y257.1512
G01 X178.1160 Y257.1890
G01 X178.0325 Y257.2331
G01 X177.9526 Y257.2833
G01 X177.8766 Y257.3394
G01 X177.8051 Y257.4010
G01 X177.7383 Y257.4677
G01 X177.6767 Y257.5393
G01 X177.6207 Y257.6153
G01 X177.5705 Y257.6952
G01 X177.5263 Y257.7787
G01 X177.4886 Y257.8652
G01 X177.4574 Y257.9543
G01 X177.4330 Y258.0455
G01 X177.4154 Y258.1383
G01 X177.4049 Y258.2321
G01 X177.4013 Y258.3264
G01 X177.4049 Y258.4207
G01 X177.4154 Y258.5146
G01 X177.4330 Y258.6073
G01 X177.4574 Y258.6985
G01 X177.4886 Y258.7876
G01 X177.5263 Y258.8742
G01 X177.5705 Y258.9576
G01 X177.6207 Y259.0376
G01 X177.6767 Y259.1135
G01 X177.7383 Y259.1851
G01 X177.8051 Y259.2518
G01 X177.8766 Y259.3134
G01 X177.9526 Y259.3695
G01 X178.0325 Y259.4197
G01 X178.1160 Y259.4638
G01 X178.2025 Y259.5016
G01 X178.2916 Y259.5328
G01 X178.3828 Y259.5572
G01 X178.4756 Y259.5747
G01 X178.5694 Y259.5853
G01 X178.6638 Y259.5888
G01 X178.7581 Y259.5853
G01 X178.8519 Y259.5747
G01 X178.9447 Y259.5572
G01 X179.0359 Y259.5328
G01 X179.1250 Y259.5016
G01 X179.2115 Y259.4638
G01 X179.2950 Y259.4197
G01 X179.3749 Y259.3695
G01 X179.4509 Y259.3134
G01 X179.5224 Y259.2518
G01 X179.5892 Y259.1851
G01 X179.6508 Y259.1135
G01 X179.7068 Y259.0376
G01 X179.7571 Y258.9576
G01 X179.8012 Y258.8742
G01 X179.8389 Y258.7876
G01 X179.8701 Y258.6985
G01 X179.8945 Y258.6073
G01 X179.9121 Y258.5146
G01 X179.9227 Y258.4207
G01 X179.9262 Y258.3264
G01 X179.9219 Y258.2278
G01 X179.9090 Y258.1300
G01 X179.8876 Y258.0336
G01 X179.8580 Y257.9395
G01 X179.8202 Y257.8483
G01 X179.7746 Y257.7608
G01 X179.7216 Y257.6776
G01 X179.6615 Y257.5993
G01 X179.5949 Y257.5265
G01 X179.5221 Y257.4598
G01 X179.4438 Y257.3998
G01 X179.3606 Y257.3467
G01 X179.2730 Y257.3012
G01 X179.1819 Y257.2634
G01 X179.0878 Y257.2337
G01 X178.9914 Y257.2124
G01 X178.8936 Y257.1995
G01 X178.7950 Y257.1952
G01 X178.6964 Y257.1995
G01 X178.5985 Y257.2124
G01 X178.5022 Y257.2337
G01 X178.4081 Y257.2634
G01 X178.3169 Y257.3012
G01 X178.2294 Y257.3467
G01 X178.1461 Y257.3998
G01 X178.0678 Y257.4598
G01 X177.9951 Y257.5265
G01 X177.9284 Y257.5993
G01 X177.8683 Y257.6776
G01 X177.8153 Y257.7608
G01 X177.7697 Y257.8483
G01 X177.7320 Y257.9395
G01 X177.7023 Y258.0336
G01 X177.6809 Y258.1300
G01 X177.6681 Y258.2278
G01 X177.6638 Y258.3264
G01 X177.6676 Y258.4136
G01 X177.6789 Y258.5001
G01 X177.6978 Y258.5852
G01 X177.7241 Y258.6684
G01 X177.7574 Y258.7490
G01 X177.7977 Y258.8264
G01 X177.8446 Y258.9000
G01 X177.8977 Y258.9692
G01 X177.9567 Y259.0335
G01 X178.0210 Y259.0925
G01 X178.0902 Y259.1456
G01 X178.1638 Y259.1924
G01 X178.2411 Y259.2327
G01 X178.3217 Y259.2661
G01 X178.4049 Y259.2923
G01 X178.4901 Y259.3112
G01 X178.5766 Y259.3226
G01 X178.6638 Y259.3264
G01 X178.7509 Y259.3226
G01 X178.8374 Y259.3112
G01 X178.9226 Y259.2923
G01 X179.0058 Y259.2661
G01 X179.0864 Y259.2327
G01 X179.1638 Y259.1924
G01 X179.2373 Y259.1456
G01 X179.3065 Y259.0925
G01 X179.3709 Y259.0335
G01 X179.4298 Y258.9692
G01 X179.4829 Y258.9000
G01 X179.5298 Y258.8264
G01 X179.5701 Y258.7490
G01 X179.6034 Y258.6684
G01 X179.6297 Y258.5852
G01 X179.6486 Y258.5001
G01 X179.6600 Y258.4136
G01 X179.6638 Y258.3264
M107
M106 S240
G01 X179.6600 Y258.2393 Z-2.7726 F400
G01 X179.6486 Y258.1528 Z-2.7951
G01 X179.6297 Y258.0676 Z-2.8177
G01 X179.6034 Y257.9844 Z-2.8403
G01 X179.5701 Y257.9038 Z-2.8628
G01 X179.5298 Y257.8264 Z-2.8854
G01 X179.4829 Y257.7528 Z-2.9080
G01 X179.4298 Y257.6836 Z-2.9306
G01 X179.3709 Y257.6193 Z-2.9531
G01 X179.3065 Y257.5604 Z-2.9757
G01 X179.2373 Y257.5073 Z-2.9983
G01 X179.1638 Y257.4604 Z-3.0208
G01 X179.0864 Y257.4201 Z-3.0434
G01 X179.0058 Y257.3867 Z-3.0660
G01 X178.9226 Y257.3605 Z-3.0885
G01 X178.8374 Y257.3416 Z-3.1111
G01 X178.7509 Y257.3302 Z-3.1337
G01 X178.6638 Y257.3264 Z-3.1563
G01 X178.5766 Y257.3302 Z-3.1788
G01 X178.4901 Y257.3416 Z-3.2014
G01 X178.4049 Y257.3605 Z-3.2240
G01 X178.3217 Y257.3867 Z-3.2465
G01 X178.2411 Y257.4201 Z-3.2691
G01 X178.1638 Y257.4604 Z-3.2917
G01 X178.1231 Y257.4852 Z-3.3040
G01 X178.0837 Y257.5118 Z-3.3163
G01 X178.0456 Y257.5404 Z-3.3286
G01 X178.0089 Y257.5707 Z-3.3409
G01 X177.9737 Y257.6027 Z-3.3532
G01 X177.9400 Y257.6363 Z-3.3655
G01 X177.9080 Y257.6715 Z-3.3778
G01 X177.8777 Y257.7082 Z-3.3902
G01 X177.8492 Y257.7464 Z-3.4025
G01 X177.8225 Y257.7858 Z-3.4148
G01 X177.7977 Y257.8264 Z-3.4271
G01 X177.7749 Y257.8682 Z-3.4394
G01 X177.7541 Y257.9110 Z-3.4517
G01 X177.7354 Y257.9547 Z-3.4640
G01 X177.7188 Y257.9993 Z-3.4763
G01 X177.7043 Y258.0447 Z-3.4886
G01 X177.6919 Y258.0906 Z-3.5009
G01 X177.6818 Y258.1372 Z-3.5133
G01 X177.6739 Y258.1841 Z-3.5256
G01 X177.6683 Y258.2314 Z-3.5379
G01 X177.6649 Y258.2788 Z-3.5502
G01 X177.6638 Y258.3264 Z-3.5625
G01 X177.6649 Y258.3740 Z-3.5748
G01 X177.6683 Y258.4215 Z-3.5871
G01 X177.6739 Y258.4687 Z-3.5994
G01 X177.6818 Y258.5157 Z-3.6117
G01 X177.6919 Y258.5622 Z-3.6241
G01 X177.7043 Y258.6081 Z-3.6364
G01 X177.7188 Y258.6535 Z-3.6487
G01 X177.7354 Y258.6981 Z-3.6610
G01 X177.7541 Y258.7418 Z-3.6733
G01 X177.7749 Y258.7846 Z-3.6856
G01 X177.7977 Y258.8264 Z-3.6979
G01 X177.8225 Y258.8670 Z-3.7102
G01 X177.8492 Y258.9065 Z-3.7225
G01 X177.8777 Y258.9446 Z-3.7348
G01 X177.9080 Y258.9813 Z-3.7472
G01 X177.9400 Y259.0165 Z-3.7595
G01 X177.9737 Y259.0501 Z-3.7718
G01 X178.0089 Y259.0822 Z-3.7841
G01 X178.0456 Y259.1125 Z-3.7964
G01 X178.0837 Y259.1410 Z-3.8087
G01 X178.1231 Y259.1677 Z-3.8210
G01 X178.1638 Y259.1924 Z-3.8333
G01 X178.2055 Y259.2152 Z-3.8456
G01 X178.2483 Y259.2360 Z-3.8580
G01 X178.2921 Y259.2548 Z-3.8703
G01 X178.3367 Y259.2714 Z-3.8826
G01 X178.3820 Y259.2859 Z-3.8949
G01 X178.4280 Y259.2982 Z-3.9072
G01 X178.4745 Y259.3083 Z-3.9195
G01 X178.5214 Y259.3162 Z-3.9318
G01 X178.5687 Y259.3219 Z-3.9441
G01 X178.6162 Y259.3253 Z-3.9564
G01 X178.6638 Y259.3264 Z-3.9688
G01 X178.7113 Y259.3253 Z-3.9811
G01 X178.7588 Y259.3219 Z-3.9934
G01 X178.8061 Y259.3162 Z-4.0057
G01 X178.8530 Y259.3083 Z-4.0180
G01 X178.8995 Y259.2982 Z-4.0303
G01 X178.9455 Y259.2859 Z-4.0426
G01 X178.9908 Y259.2714 Z-4.0549
G01 X179.0354 Y259.2548 Z-4.0672
G01 X179.0792 Y259.2360 Z-4.0795
G01 X179.1220 Y259.2152 Z-4.0919
G01 X179.1638 Y259.1924 Z-4.1042
G01 X179.2044 Y259.1677 Z-4.1165
G01 X179.2438 Y259.1410 Z-4.1288
G01 X179.2819 Y259.1125 Z-4.1411
G01 X179.3186 Y259.0822 Z-4.1534
G01 X179.3538 Y259.0501 Z-4.1657
G01 X179.3875 Y259.0165 Z-4.1780
G01 X179.4195 Y258.9813 Z-4.1903
G01 X179.4498 Y258.9446 Z-4.2027
G01 X179.4783 Y258.9065 Z-4.2150
G01 X179.5050 Y258.8670 Z-4.2273
G01 X179.5298 Y258.8264 Z-4.2396
G01 X179.5526 Y258.7846 Z-4.2519
G01 X179.5734 Y258.7418 Z-4.2642
G01 X179.5921 Y258.6981 Z-4.2765
G01 X179.6088 Y258.6535 Z-4.2888
G01 X179.6233 Y258.6081 Z-4.3011
G01 X179.6356 Y258.5622 Z-4.3134
G01 X179.6457 Y258.5157 Z-4.3258
G01 X179.6536 Y258.4687 Z-4.3381
G01 X179.6592 Y258.4215 Z-4.3504
G01 X179.6626 Y258.3740 Z-4.3627
G01 X179.6638 Y258.3264 Z-4.3750
G01 X179.6600 Y258.2393
G01 X179.6486 Y258.1528
G01 X179.6297 Y258.0676
G01 X179.6034 Y257.9844
G01 X179.5701 Y257.9038
G01 X179.5298 Y257.8264
G01 X179.4829 Y257.7528
G01 X179.4298 Y257.6836
G01 X179.3709 Y257.6193
G01 X179.3065 Y257.5604
G01 X179.2373 Y257.5073
G01 X179.1638 Y257.4604
G01 X179.0864 Y257.4201
G01 X179.0058 Y257.3867
G01 X178.9226 Y257.3605
G01 X178.8374 Y257.3416
G01 X178.7509 Y257.3302
G01 X178.6638 Y257.3264
G01 X178.5766 Y257.3302
G01 X178.4901 Y257.3416
G01 X178.4049 Y257.3605
G01 X178.3217 Y257.3867
G01 X178.2411 Y257.4201
G01 X178.1638 Y257.4604
G01 X178.1231 Y257.4852
G01 X178.0837 Y257.5118
G01 X178.0456 Y257.5404
G01 X178.0089 Y257.5707
G01 X177.9737 Y257.6027
G01 X177.9400 Y257.6363
G01 X177.9080 Y257.6715
G01 X177.8777 Y257.7082
G01 X177.8492 Y257.7464
G01 X177.8225 Y257.7858
G01 X177.7977 Y257.8264
G01 X177.7749 Y257.8682
G01 X177.7541 Y257.9110
G01 X177.7354 Y257.9547
G01 X177.7188 Y257.9993
G01 X177.7043 Y258.0447
G01 X177.6919 Y258.0906
G01 X177.6818 Y258.1372
G01 X177.6739 Y258.1841
G01 X177.6683 Y258.2314
G01 X177.6649 Y258.2788
G01 X177.6638 Y258.3264
G01 X177.6649 Y258.3740
G01 X177.6683 Y258.4215
G01 X177.6739 Y258.4687
G01 X177.6818 Y258.5157
G01 X177.6919 Y258.5622
G01 X177.7043 Y258.6081
G01 X177.7188 Y258.6535
G01 X177.7354 Y258.6981
G01 X177.7541 Y258.7418
G01 X177.7749 Y258.7846
G01 X177.7977 Y258.8264
G01 X177.8225 Y258.8670
G01 X177.8492 Y258.9065
G01 X177.8777 Y258.9446
G01 X177.9080 Y258.9813
G01 X177.9400 Y259.0165
G01 X177.9737 Y259.0501
G01 X178.0089 Y259.0822
G01 X178.0456 Y259.1125
G01 X178.0837 Y259.1410
G01 X178.1231 Y259.1677
G01 X178.1638 Y259.1924
G01 X178.2055 Y259.2152
G01 X178.2483 Y259.2360
G01 X178.2921 Y259.2548
G01 X178.3367 Y259.2714
G01 X178.3820 Y259.2859
G01 X178.4280 Y259.2982
G01 X178.4745 Y259.3083
G01 X178.5214 Y259.3162
G01 X178.5687 Y259.3219
G01 X178.6162 Y259.3253
G01 X178.6638 Y259.3264
G01 X178.7113 Y259.3253
G01 X178.7588 Y259.3219
G01 X178.8061 Y259.3162
G01 X178.8530 Y259.3083
G01 X178.8995 Y259.2982
G01 X178.9455 Y259.2859
G01 X178.9908 Y259.2714
G01 X179.0354 Y259.2548
G01 X179.0792 Y259.2360
G01 X179.1220 Y259.2152
G01 X179.1638 Y259.1924
G01 X179.2044 Y259.1677
G01 X179.2438 Y259.1410
G01 X179.2819 Y259.1125
G01 X179.3186 Y259.0822
G01 X179.3538 Y259.0501
G01 X179.3875 Y259.0165
G01 X179.4195 Y258.9813
G01 X179.4498 Y258.9446
G01 X179.4783 Y258.9065
G01 X179.5050 Y258.8670
G01 X179.5298 Y258.8264
G01 X179.5526 Y258.7846
G01 X179.5734 Y258.7418
G01 X179.5921 Y258.6981
G01 X179.6088 Y258.6535
G01 X179.6233 Y258.6081
G01 X179.6356 Y258.5622
G01 X179.6457 Y258.5157
G01 X179.6536 Y258.4687
G01 X179.6592 Y258.4215
G01 X179.6626 Y258.3740
G01 X179.6638 Y258.3264
G01 X179.6745 Y258.2748 F1000
G01 X179.6826 Y258.2227
G01 X179.6880 Y258.1703
G01 X179.6906 Y258.1177
G01 Y258.0650
G01 X179.6879 Y258.0123
G01 X179.6824 Y257.9599
G01 X179.6743 Y257.9078
G01 X179.6625 Y257.8519
G01 X179.6480 Y257.7966
G01 X179.6306 Y257.7421
G01 X179.6105 Y257.6885
G01 X179.5876 Y257.6361
G01 X179.5621 Y257.5849
G01 X179.5340 Y257.5350
G01 X179.5034 Y257.4867
G01 X179.4665 Y257.4384
G01 X179.4271 Y257.3920
G01 X179.3854 Y257.3476
G01 X179.3416 Y257.3054
G01 X179.2957 Y257.2655
G01 X179.2479 Y257.2278
G01 X179.1982 Y257.1927
G01 X179.1469 Y257.1601
G01 X179.0891 Y257.1378
G01 X179.0302 Y257.1183
G01 X178.9705 Y257.1018
G01 X178.9100 Y257.0882
G01 X178.8490 Y257.0776
G01 X178.7875 Y257.0701
G01 X178.7257 Y257.0655
G01 X178.6638 Y257.0640
G01 X178.6018 Y257.0655
G01 X178.5400 Y257.0701
G01 X178.4785 Y257.0776
G01 X178.4175 Y257.0882
G01 X178.3570 Y257.1018
G01 X178.2973 Y257.1183
G01 X178.2385 Y257.1378
G01 X178.1806 Y257.1601
G01 X178.1240 Y257.1852
G01 X178.0687 Y257.2130
G01 X178.0147 Y257.2436
G01 X177.9624 Y257.2767
G01 X177.9117 Y257.3124
G01 X177.8629 Y257.3505
