;Project ElectricVehiclesOnly_Special
;Created by Estlcam version 11 build 11,116
;Machining time about 00:14:59 hours

G90
M03 S18000
G00 X0.0000 Y0.0000 Z0.0000
G00 Z2.0000


;No. 1: Hole 2
G00 X37.4626 Y159.3596
G00 Z0.5000
G01 Z-1.8000 F400 S18000
M106 S240
G01 X42.0465 F1000
G01 Y160.8596
G01 X46.0319
G01 X36.7231
G01 X36.0083 Y162.3596
G01 X50.4191
G01 Y163.8596
G01 X55.3576
G01 X38.4239
G01 X42.6180
G01 Y165.3596
G01 X61.0814
G01 Y166.8596
G01 X68.0922
G01 X47.2122
G01 X52.3059
G01 Y168.3596
G01 X77.8090
G01 X58.0810
G01 Y169.8596
G01 X137.2727
G01 Y168.3596
G01 X143.0171
G01 X117.6009
G01 X127.1854
G01 Y166.8596
G01 X148.0881
G01 Y165.3596
G01 X152.6809
G01 X134.1865
G01 X139.9414
G01 Y163.8596
G01 X156.9085
G01 Y162.3596
G01 X159.3158
G01 X144.9064
G01 X149.3133
G01 Y160.8596
G01 X158.6160
G01 X157.8907 Y159.3596
G01 X153.2919
M107
G00 Z2.0000
G00 X130.4940 Y169.8596
G00 Z0.5000
G01 Z-1.8000 F400
M106 S240
G01 Y171.3596 F1000
G01 X64.8826
G01 X73.5296
G01 Y172.8596
G01 X121.8310
G01 X107.5325
G01 Y174.3596
G01 X87.9428
M107
G00 Z2.0000
G00 Z0.5000
G01 Z-1.8000 F400
M106 S240
G01 X87.9305 Y174.5592 F1000
G01 X88.1091 Y174.5703
G01 X90.2078 Y174.6820
G01 X92.3077 Y174.7664
G01 X94.4085 Y174.8236
G01 X96.5098 Y174.8536
G01 X98.6114 Y174.8563
G01 X100.7129 Y174.8317
G01 X102.8138 Y174.7799
G01 X104.9139 Y174.7009
G01 X107.0128 Y174.5946
G01 X109.1101 Y174.4610
G01 X111.2056 Y174.3003
G01 X113.2988 Y174.1125
G01 X115.3893 Y173.8974
G01 X117.4769 Y173.6553
G01 X119.5612 Y173.3862
G01 X121.6418 Y173.0900
G01 X124.0861 Y172.7136
G01 X126.5248 Y172.3026
G01 X128.9575 Y171.8570
G01 X131.3835 Y171.3771
G01 X133.8026 Y170.8628
G01 X136.2141 Y170.3143
G01 X138.6176 Y169.7316
G01 X141.0126 Y169.1150
G01 X143.3986 Y168.4644
G01 X145.7752 Y167.7802
G01 X148.1418 Y167.0623
G01 X150.4980 Y166.3109
G01 X152.8433 Y165.5262
G01 X155.1773 Y164.7084
G01 X157.4994 Y163.8576
G01 X159.8093 Y162.9739
G01 X159.1927 Y161.6014
G01 X158.5499 Y160.2410
G01 X157.8811 Y158.8931
G01 X157.1867 Y157.5583
G01 X155.8855 Y158.0959
G01 X154.5812 Y158.6259
G01 X153.2738 Y159.1482
G01 X151.9634 Y159.6629
G01 X149.8387 Y160.4498
G01 X147.7022 Y161.2041
G01 X145.5544 Y161.9255
G01 X143.3958 Y162.6138
G01 X141.2269 Y163.2690
G01 X139.0482 Y163.8909
G01 X136.8602 Y164.4792
G01 X134.6635 Y165.0340
G01 X132.4585 Y165.5549
G01 X130.2458 Y166.0420
G01 X128.0258 Y166.4951
G01 X125.7992 Y166.9141
G01 X123.5664 Y167.2989
G01 X121.3280 Y167.6495
G01 X119.0844 Y167.9656
G01 X116.8363 Y168.2473
G01 X114.5841 Y168.4945
G01 X112.3284 Y168.7071
G01 X110.0697 Y168.8851
G01 X107.8085 Y169.0284
G01 X105.5217 Y169.1201
G01 X103.2341 Y169.1896
G01 X100.9460 Y169.2370
G01 X98.6575 Y169.2623
G01 X96.3688 Y169.2655
G01 X94.0803 Y169.2465
G01 X91.7920 Y169.2054
G01 X89.5042 Y169.1422
G01 X87.3123 Y169.0301
G01 X85.1223 Y168.8859
G01 X82.9346 Y168.7097
G01 X80.7497 Y168.5014
G01 X78.5681 Y168.2612
G01 X76.3903 Y167.9890
G01 X74.2167 Y167.6849
G01 X72.0477 Y167.3491
G01 X69.8840 Y166.9815
G01 X67.7258 Y166.5823
G01 X65.5737 Y166.1515
G01 X63.4282 Y165.6892
G01 X61.2897 Y165.1956
G01 X59.1586 Y164.6707
G01 X57.0354 Y164.1146
G01 X54.9206 Y163.5275
G01 X52.8357 Y162.9069
G01 X50.7601 Y162.2559
G01 X48.6942 Y161.5748
G01 X46.6384 Y160.8637
G01 X44.5932 Y160.1227
G01 X42.5590 Y159.3520
G01 X40.5362 Y158.5518
G01 X38.5253 Y157.7222
G01 X38.1653 Y157.5865
G01 X38.1510 Y157.5987
G01 X37.4550 Y158.9230
G01 X36.7852 Y160.2608
G01 X36.1419 Y161.6115
G01 X35.5253 Y162.9747
G01 X37.6216 Y163.7790
G01 X39.7281 Y164.5561
G01 X41.8444 Y165.3059
G01 X43.9703 Y166.0283
G01 X46.1054 Y166.7231
G01 X48.2492 Y167.3902
G01 X50.4016 Y168.0295
G01 X52.5620 Y168.6409
G01 X54.7301 Y169.2243
G01 X56.9056 Y169.7796
G01 X59.0881 Y170.3067
G01 X61.2773 Y170.8055
G01 X63.4727 Y171.2759
G01 X65.6740 Y171.7179
G01 X67.8809 Y172.1314
G01 X70.0929 Y172.5162
G01 X72.3097 Y172.8725
G01 X74.5310 Y173.2000
G01 X76.7563 Y173.4987
G01 X78.9853 Y173.7686
G01 X81.2175 Y174.0097
G01 X83.4528 Y174.2218
G01 X85.6905 Y174.4050
G01 X87.9305 Y174.5592
G01 X87.9428 Y174.3596
M107
G00 Z2.0000


;No. 2: Hole 3
G00 X97.0162 Y60.1639 Z2.0000
G00 Z0.5000
G01 Z-1.8000 F400
M106 S240
G01 X98.3018 F1000
G01 X98.5679 Y61.6639
G01 X96.7475
G01 X96.4788 Y63.1639
G01 X98.8339
G01 X99.1001 Y64.6639
G01 X96.2101
G01 X95.9415 Y66.1639
G01 X99.3666
G01 X99.6331 Y67.6639
G01 X95.6728
G01 X95.4041 Y69.1639
G01 X99.8996
G01 X100.1661 Y70.6639
G01 X95.1354
G01 X94.8668 Y72.1639
G01 X100.4326
G01 X100.6992 Y73.6639
G01 X94.5981
G01 X94.3294 Y75.1639
G01 X100.9662
G01 X101.2331 Y76.6639
G01 X94.0607
G01 X93.7921 Y78.1639
G01 X101.5001
G01 X101.7670 Y79.6639
G01 X93.5234
G01 X93.2547 Y81.1639
G01 X102.0340
G01 X102.3009 Y82.6639
G01 X92.9860
G01 X92.7174 Y84.1639
G01 X102.5679
G01 X102.8348 Y85.6639
G01 X92.4487
G01 X92.1800 Y87.1639
G01 X103.1018
G01 X103.3688 Y88.6639
G01 X91.9113
G01 X91.6427 Y90.1639
G01 X103.6357
G01 X103.9027 Y91.6639
G01 X91.3740
G01 X91.1053 Y93.1639
G01 X104.1696
G01 X104.4366 Y94.6639
G01 X90.8366
G01 X90.5680 Y96.1639
G01 X104.7036
G01 X104.9710 Y97.6639
G01 X90.2993
G01 X90.0306 Y99.1639
G01 X105.2384
G01 X105.5058 Y100.6639
G01 X89.7619
G01 X89.4933 Y102.1639
G01 X105.7733
G01 X106.0407 Y103.6639
G01 X89.2246
G01 X88.9559 Y105.1639
G01 X106.3081
G01 X106.5755 Y106.6639
G01 X88.6872
G01 X88.4186 Y108.1639
G01 X106.8430
G01 X107.1104 Y109.6639
G01 X88.1499
G01 X87.8812 Y111.1639
G01 X107.3778
G01 X107.6452 Y112.6639
G01 X87.6125
G01 X87.3439 Y114.1639
G01 X107.9127
G01 X108.1801 Y115.6639
G01 X87.0752
G01 X86.8065 Y117.1639
G01 X108.4475
G01 X108.7149 Y118.6639
G01 X86.5378
G01 X86.2692 Y120.1639
G01 X108.9824
G01 X109.2503 Y121.6639
G01 X86.0005
G01 X85.7318 Y123.1639
G01 X109.5181
G01 X109.7859 Y124.6639
G01 X85.4631
G01 X85.1945 Y126.1639
G01 X110.0537
G01 X110.3215 Y127.6639
G01 X84.9258
G01 X84.6571 Y129.1639
G01 X110.5893
G01 X110.8574 Y130.6639
G01 X84.3884
G01 X84.1198 Y132.1639
G01 X111.1256
G01 X111.3938 Y133.6639
G01 X83.8511
G01 X83.5824 Y135.1639
G01 X111.6620
G01 X111.9301 Y136.6639
G01 X83.3137
G01 X83.0451 Y138.1639
G01 X112.1983
G01 X112.4669 Y139.6639
G01 X82.7764
G01 X82.5077 Y141.1639
G01 X112.7358
G01 X113.0046 Y142.6639
G01 X82.2390
G01 X81.9704 Y144.1639
G01 X113.2734
G01 X113.5433 Y145.6639
G01 X81.7017
G01 X81.4330 Y147.1639
G01 X96.5938
G01 X95.2995 Y148.6639
G01 X81.1643
G01 X80.7670 Y150.1639
G01 X94.0384
G01 X92.7891 Y151.6639
G01 X42.1242
G01 X43.4592 Y150.1639
G01 X68.5319
G01 X61.8065
G01 Y148.6639
G01 X45.0093
G01 X46.7952
G01 Y147.1639
G01 X59.1090
G01 X57.6003 Y145.6639
G01 X48.8434
G01 X51.1895
G01 Y144.1639
G01 X56.6517
G01 X56.0784 Y142.6639
G01 X53.9223
M107
G00 Z2.0000
G00 X98.8486 Y145.6639
G00 Z0.5000
G01 Z-1.8000 F400
M106 S240
G01 Y147.1639 F1000
G01 X113.8137
G01 X114.0842 Y148.6639
G01 X100.0810
G01 X101.3134 Y150.1639
G01 X114.5186
G01 X102.5458
G01 Y151.6639
G01 X153.2033
G01 X151.8640 Y150.1639
G01 X126.8001
G01 X133.4905
G01 Y148.6639
G01 X150.3057
G01 X148.5154
G01 Y147.1639
G01 X136.2018
G01 X137.7207 Y145.6639
G01 X146.4735
G01 X144.1450
G01 Y144.1639
G01 X138.6500
G01 X139.2241 Y142.6639
G01 X141.3507
M107
G00 Z2.0000
G00 X91.5475 Y151.6639
G00 Z0.5000
G01 Z-1.8000 F400
M106 S240
G01 Y153.1639 F1000
G01 X43.6547
G01 X47.3959
G01 Y154.6639
G01 X90.3124
G01 X89.0814 Y156.1639
G01 X51.6406
G01 X56.5282
G01 Y157.6639
G01 X87.8504
G01 X86.6194 Y159.1639
G01 X62.3099
G01 X69.5829
G01 Y160.6639
G01 X85.3884
G01 X84.1574 Y162.1639
G01 X80.9841
M107
G00 Z2.0000
G00 X103.7782 Y151.6639
G00 Z0.5000
G01 Z-1.8000 F400
M106 S240
G01 Y153.1639 F1000
G01 X151.6637
G01 X147.8891
G01 Y154.6639
G01 X105.0106
G01 X106.2430 Y156.1639
G01 X143.6442
G01 X138.7846
G01 Y157.6639
G01 X107.4778
G01 X108.7141 Y159.1639
G01 X133.0443
G01 X125.7797
G01 Y160.6639
G01 X109.9545
G01 X111.2031 Y162.1639
G01 X114.2960
M107
G00 Z2.0000
G00 Z0.5000
G01 Z-1.8000 F400
M106 S240
G01 X114.3127 Y162.3629 F1000
G01 X116.5189 Y162.1582
G01 X118.7212 Y161.9150
G01 X120.9189 Y161.6335
G01 X123.1113 Y161.3137
G01 X125.2979 Y160.9558
G01 X127.4779 Y160.5599
G01 X129.6506 Y160.1260
G01 X131.8155 Y159.6543
G01 X133.9718 Y159.1450
G01 X136.1189 Y158.5982
G01 X138.2562 Y158.0140
G01 X140.3830 Y157.3927
G01 X142.4986 Y156.7345
G01 X144.6024 Y156.0395
G01 X146.6938 Y155.3079
G01 X148.7721 Y154.5400
G01 X150.0903 Y154.0217
G01 X151.4027 Y153.4888
G01 X152.7090 Y152.9413
G01 X154.0092 Y152.3793
G01 X154.0046 Y152.3635
G01 X153.3376 Y151.5292
G01 X152.6409 Y150.7195
G01 X151.9155 Y149.9354
G01 X151.1623 Y149.1780
G01 X150.3823 Y148.4482
G01 X149.5765 Y147.7469
G01 X148.7460 Y147.0752
G01 X147.8918 Y146.4339
G01 X147.0963 Y145.8510
G01 X146.2866 Y145.2879
G01 X145.4633 Y144.7449
G01 X144.6269 Y144.2225
G01 X143.7778 Y143.7208
G01 X142.9167 Y143.2401
G01 X142.0439 Y142.7809
G01 X141.1601 Y142.3433
G01 X140.7148 Y142.1193
G01 X140.2681 Y141.8984
G01 X139.8199 Y141.6804
G01 X139.3702 Y141.4654
G01 X139.3271 Y141.4483
G01 X139.2300 Y141.9172
G01 X139.1108 Y142.3810
G01 X138.9698 Y142.8386
G01 X138.8073 Y143.2890
G01 X138.6237 Y143.7313
G01 X138.4194 Y144.1643
G01 X138.1948 Y144.5872
G01 X137.9504 Y144.9990
G01 X137.6895 Y145.3614
G01 X137.4112 Y145.7105
G01 X137.1161 Y146.0455
G01 X136.8048 Y146.3656
G01 X136.4782 Y146.6700
G01 X136.1370 Y146.9580
G01 X135.7821 Y147.2289
G01 X135.4143 Y147.4820
G01 X135.0345 Y147.7167
G01 X134.6436 Y147.9325
G01 X134.2426 Y148.1288
G01 X133.8324 Y148.3052
G01 X133.1323 Y148.5744
G01 X132.4238 Y148.8206
G01 X131.7076 Y149.0436
G01 X130.9845 Y149.2430
G01 X130.2553 Y149.4186
G01 X129.5207 Y149.5703
G01 X128.7816 Y149.6980
G01 X128.0386 Y149.8014
G01 X127.3412 Y149.8977
G01 X126.6424 Y149.9835
G01 X125.9423 Y150.0589
G01 X125.2413 Y150.1237
G01 X124.5393 Y150.1779
G01 X123.8366 Y150.2216
G01 X123.1333 Y150.2547
G01 X122.4295 Y150.2772
G01 X120.7367 Y150.3460
G01 X119.0431 Y150.3925
G01 X117.3490 Y150.4168
G01 X115.6547 Y150.4188
G01 X115.5544 Y150.4258
G01 X115.4539 Y150.4238
G01 X115.3539 Y150.4129
G01 X115.2553 Y150.3931
G01 X115.1589 Y150.3645
G01 X115.0654 Y150.3274
G01 X114.9756 Y150.2821
G01 X114.8903 Y150.2290
G01 X114.8100 Y150.1685
G01 X114.7354 Y150.1010
G01 X114.6672 Y150.0271
G01 X114.6058 Y149.9474
G01 X114.5794 Y149.9050
G01 X114.5550 Y149.8613
G01 X114.5329 Y149.8165
G01 X114.5130 Y149.7706
G01 X114.4955 Y149.7238
G01 X114.4803 Y149.6762
G01 X114.4676 Y149.6278
G01 X114.4572 Y149.5789
G01 X114.1852 Y148.0914
G01 X113.9150 Y146.6035
G01 X113.6466 Y145.1152
G01 X113.3801 Y143.6267
G01 X111.9597 Y135.6949
G01 X110.3651 Y126.7713
G01 X108.4185 Y115.8645
G01 X104.1770 Y92.0668
G01 X100.4719 Y71.2426
G01 X98.8867 Y62.3173
G01 X97.6665 Y55.4340
G01 X97.6627 Y55.4197
G01 X80.7924 Y149.6063
G01 X80.7729 Y149.6956
G01 X80.7456 Y149.7828
G01 X80.7108 Y149.8673
G01 X80.6686 Y149.9484
G01 X80.6194 Y150.0254
G01 X80.5637 Y150.0978
G01 X80.5018 Y150.1650
G01 X80.4342 Y150.2265
G01 X80.3614 Y150.2818
G01 X80.2841 Y150.3304
G01 X80.2027 Y150.3721
G01 X80.1180 Y150.4064
G01 X80.0306 Y150.4331
G01 X79.9412 Y150.4520
G01 X79.8505 Y150.4629
G01 X79.7591 Y150.4658
G01 X79.5961 Y150.4724
G01 X79.4330 Y150.4767
G01 X79.2698 Y150.4789
G01 X79.1067 Y150.4790
G01 X77.8878 Y150.4689
G01 X76.6691 Y150.4465
G01 X75.4506 Y150.4116
G01 X74.2326 Y150.3643
G01 X73.0152 Y150.3046
G01 X71.7984 Y150.2325
G01 X70.5824 Y150.1480
G01 X69.3673 Y150.0511
G01 X68.6184 Y149.9830
G01 X67.8713 Y149.8972
G01 X67.1264 Y149.7937
G01 X66.3842 Y149.6725
G01 X65.6450 Y149.5338
G01 X64.9094 Y149.3776
G01 X64.1777 Y149.2039
G01 X63.4503 Y149.0130
G01 X62.8831 Y148.8517
G01 X62.3243 Y148.6633
G01 X61.7751 Y148.4485
G01 X61.2369 Y148.2075
G01 X60.7108 Y147.9411
G01 X60.1981 Y147.6497
G01 X59.6999 Y147.3342
G01 X59.2174 Y146.9951
G01 X58.8256 Y146.6680
G01 X58.4539 Y146.3182
G01 X58.1036 Y145.9470
G01 X57.7759 Y145.5556
G01 X57.4719 Y145.1456
G01 X57.1928 Y144.7182
G01 X56.9395 Y144.2751
G01 X56.7129 Y143.8177
G01 X56.5139 Y143.3477
G01 X56.3430 Y142.8667
G01 X56.2009 Y142.3765
G01 X56.0882 Y141.8786
G01 X55.9981 Y141.4565
G01 X55.9832 Y141.4497
G01 X55.1009 Y141.8510
G01 X54.2275 Y142.2715
G01 X53.3635 Y142.7109
G01 X52.5094 Y143.1692
G01 X51.6655 Y143.6460
G01 X50.8322 Y144.1411
G01 X50.0099 Y144.6543
G01 X49.1990 Y145.1854
G01 X48.3999 Y145.7340
G01 X47.6130 Y146.3000
G01 X46.8387 Y146.8830
G01 X46.0773 Y147.4829
G01 X45.4188 Y148.0285
G01 X44.7775 Y148.5941
G01 X44.1539 Y149.1793
G01 X43.5486 Y149.7834
G01 X42.9623 Y150.4058
G01 X42.3954 Y151.0461
G01 X41.8486 Y151.7035
G01 X41.3222 Y152.3774
G01 X42.2122 Y152.7672
G01 X43.1048 Y153.1508
G01 X44.0000 Y153.5283
G01 X44.8978 Y153.8997
G01 X46.6767 Y154.5934
G01 X48.4663 Y155.2592
G01 X50.2660 Y155.8970
G01 X52.0755 Y156.5067
G01 X53.8943 Y157.0880
G01 X55.7219 Y157.6409
G01 X57.5579 Y158.1651
G01 X59.4019 Y158.6607
G01 X61.2534 Y159.1274
G01 X63.1120 Y159.5651
G01 X64.9771 Y159.9738
G01 X66.8484 Y160.3534
G01 X68.9826 Y160.7647
G01 X71.1238 Y161.1381
G01 X73.2713 Y161.4733
G01 X75.4244 Y161.7703
G01 X77.5824 Y162.0290
G01 X79.7447 Y162.2492
G01 X81.9106 Y162.4310
G01 X84.0794 Y162.5742
G01 X90.5121 Y154.7358
G01 X92.0386 Y152.8653
G01 X93.5808 Y151.0077
G01 X95.1385 Y149.1631
G01 X96.7116 Y147.3316
G01 X96.7828 Y147.2395
G01 X96.8602 Y147.1525
G01 X96.9433 Y147.0710
G01 X97.0318 Y146.9953
G01 X97.1252 Y146.9258
G01 X97.2231 Y146.8629
G01 X97.3251 Y146.8067
G01 X97.4307 Y146.7576
G01 X97.5271 Y146.7313
G01 X97.6256 Y146.7146
G01 X97.7254 Y146.7080
G01 X97.8253 Y146.7113
G01 X97.9244 Y146.7245
G01 X98.0216 Y146.7476
G01 X98.1161 Y146.7803
G01 X98.2068 Y146.8222
G01 X98.2929 Y146.8730
G01 X98.3735 Y146.9321
G01 X98.4478 Y146.9990
G01 X98.5150 Y147.0730
G01 X106.0697 Y156.2681
G01 X107.3557 Y157.8364
G01 X108.6460 Y159.4010
G01 X109.9409 Y160.9619
G01 X111.2401 Y162.5192
G01 X111.2738 Y162.5549
G01 X112.0343 Y162.5201
G01 X112.7944 Y162.4765
G01 X113.5539 Y162.4241
G01 X114.3127 Y162.3629
G01 X114.2960 Y162.1639
M107
G00 Z2.0000


;No. 3: Hole 4
G00 X162.3135 Y113.6940 Z2.0000
G00 Z0.5000
G01 Z-1.8000 F400
M106 S240
G01 X170.9318 F1000
M107
G00 Z2.0000
G00 X169.8982 Y119.6940
G00 Z0.5000
G01 Z-1.8000 F400
M106 S240
G01 X162.3135 F1000
M107
G00 Z2.0000
G00 Y125.6940
G00 Z0.5000
G01 Z-1.8000 F400
M106 S240
G01 X170.8284 F1000
M107
G00 Z2.0000
G00 Z0.5000
G01 Z-1.8000 F400
M106 S240
G01 X171.0284 F1000
G01 Y125.0972
G01 X164.2963
G01 X164.1970 Y125.0942
G01 X164.0984 Y125.0814
G01 X164.0016 Y125.0588
G01 X163.9075 Y125.0268
G01 X163.8171 Y124.9856
G01 X163.7312 Y124.9356
G01 X163.6507 Y124.8773
G01 X163.5763 Y124.8114
G01 X163.5089 Y124.7383
G01 X163.4491 Y124.6590
G01 X163.3974 Y124.5741
G01 X163.3544 Y124.4845
G01 X163.3205 Y124.3911
G01 X163.2960 Y124.2947
G01 X163.2813 Y124.1965
G01 X163.2763 Y124.0972
G01 Y121.1817
G01 X163.2788 Y121.0910
G01 X163.2898 Y120.9979
G01 X163.3095 Y120.9063
G01 X163.3376 Y120.8169
G01 X163.3740 Y120.7306
G01 X163.4184 Y120.6480
G01 X163.4702 Y120.5699
G01 X163.5292 Y120.4971
G01 X163.5947 Y120.4301
G01 X163.6662 Y120.3695
G01 X163.7430 Y120.3158
G01 X163.8245 Y120.2696
G01 X163.9100 Y120.2312
G01 X163.9988 Y120.2010
G01 X164.0899 Y120.1793
G01 X164.1827 Y120.1661
G01 X164.2763 Y120.1617
G01 X170.0982
G01 Y119.3296
G01 X164.2963
G01 X164.1970 Y119.3267
G01 X164.0984 Y119.3138
G01 X164.0016 Y119.2913
G01 X163.9075 Y119.2592
G01 X163.8171 Y119.2180
G01 X163.7312 Y119.1680
G01 X163.6507 Y119.1098
G01 X163.5763 Y119.0438
G01 X163.5089 Y118.9708
G01 X163.4491 Y118.8914
G01 X163.3974 Y118.8065
G01 X163.3544 Y118.7169
G01 X163.3205 Y118.6235
G01 X163.2960 Y118.5272
G01 X163.2813 Y118.4289
G01 X163.2763 Y118.3296
G01 Y115.3108
G01 X163.2788 Y115.2201
G01 X163.2898 Y115.1270
G01 X163.3095 Y115.0354
G01 X163.3376 Y114.9460
G01 X163.3740 Y114.8597
G01 X163.4184 Y114.7771
G01 X163.4702 Y114.6990
G01 X163.5292 Y114.6262
G01 X163.5947 Y114.5591
G01 X163.6662 Y114.4985
G01 X163.7430 Y114.4449
G01 X163.8245 Y114.3987
G01 X163.9100 Y114.3603
G01 X163.9988 Y114.3301
G01 X164.0899 Y114.3084
G01 X164.1827 Y114.2952
G01 X164.2763 Y114.2908
G01 X171.1318
G01 Y113.4587
G01 X162.1135
G01 Y125.9293
G01 X171.0284
G01 Y125.6940
G01 X170.8284
M107
G00 Z2.0000


;No. 4: Hole 5
G00 X176.1622 Y113.6940 Z2.0000
G00 Z0.5000
G01 Z-1.8000 F400
M106 S240
G01 X184.1604 F1000
M107
G00 Z2.0000
G00 Z0.5000
G01 Z-1.8000 F400
M106 S240
G01 X184.3604 F1000
G01 Y113.4587
G01 X175.9622
G01 Y125.9293
G01 X177.1458
G01 Y115.3728
G01 X177.1483 Y115.2821
G01 X177.1527 Y115.2354
G01 X177.1593 Y115.1890
G01 X177.1680 Y115.1430
G01 X177.1789 Y115.0974
G01 X177.1920 Y115.0524
G01 X177.2071 Y115.0080
G01 X177.2243 Y114.9644
G01 X177.2435 Y114.9217
G01 X177.2647 Y114.8799
G01 X177.2878 Y114.8391
G01 X177.3128 Y114.7995
G01 X177.3397 Y114.7610
G01 X177.3683 Y114.7239
G01 X177.3986 Y114.6882
G01 X177.4306 Y114.6539
G01 X177.4641 Y114.6212
G01 X177.4992 Y114.5900
G01 X177.5356 Y114.5606
G01 X177.5734 Y114.5328
G01 X177.6125 Y114.5069
G01 X177.6527 Y114.4829
G01 X177.6940 Y114.4607
G01 X177.7363 Y114.4405
G01 X177.7795 Y114.4223
G01 X177.8235 Y114.4062
G01 X177.8682 Y114.3921
G01 X177.9135 Y114.3802
G01 X177.9594 Y114.3704
G01 X178.0056 Y114.3627
G01 X178.0521 Y114.3572
G01 X178.0989 Y114.3539
G01 X178.1458 Y114.3528
G01 X184.3604
G01 Y113.6940
G01 X184.1604
M107
G00 Z2.0000


;No. 5: Hole 6
G00 X188.9613 Y113.6940 Z2.0000
G00 Z0.5000
G01 Z-1.8000 F400
M106 S240
G01 X197.5795 F1000
M107
G00 Z2.0000
G00 X196.5459 Y119.6940
G00 Z0.5000
G01 Z-1.8000 F400
M106 S240
G01 X188.9613 F1000
M107
G00 Z2.0000
G00 Y125.6940
G00 Z0.5000
G01 Z-1.8000 F400
M106 S240
G01 X197.4762 F1000
M107
G00 Z2.0000
G00 Z0.5000
G01 Z-1.8000 F400
M106 S240
G01 X197.6762 F1000
G01 Y125.0972
G01 X190.9441
G01 X190.8448 Y125.0942
G01 X190.7462 Y125.0814
G01 X190.6494 Y125.0588
G01 X190.5553 Y125.0268
G01 X190.4649 Y124.9856
G01 X190.3790 Y124.9356
G01 X190.2985 Y124.8773
G01 X190.2241 Y124.8114
G01 X190.1567 Y124.7383
G01 X190.0969 Y124.6590
G01 X190.0452 Y124.5741
G01 X190.0022 Y124.4845
G01 X189.9683 Y124.3911
G01 X189.9438 Y124.2947
G01 X189.9291 Y124.1965
G01 X189.9241 Y124.0972
G01 Y121.1817
G01 X189.9266 Y121.0910
G01 X189.9376 Y120.9979
G01 X189.9573 Y120.9063
G01 X189.9854 Y120.8169
G01 X190.0218 Y120.7306
G01 X190.0662 Y120.6480
G01 X190.1180 Y120.5699
G01 X190.1770 Y120.4971
G01 X190.2425 Y120.4301
G01 X190.3139 Y120.3695
G01 X190.3908 Y120.3158
G01 X190.4723 Y120.2696
G01 X190.5578 Y120.2312
G01 X190.6465 Y120.2010
G01 X190.7377 Y120.1793
G01 X190.8305 Y120.1661
G01 X190.9241 Y120.1617
G01 X196.7459
G01 Y119.3296
G01 X190.9441
G01 X190.8448 Y119.3267
G01 X190.7462 Y119.3138
G01 X190.6494 Y119.2913
G01 X190.5553 Y119.2592
G01 X190.4649 Y119.2180
G01 X190.3790 Y119.1680
G01 X190.2985 Y119.1098
G01 X190.2241 Y119.0438
G01 X190.1567 Y118.9708
G01 X190.0969 Y118.8914
G01 X190.0452 Y118.8065
G01 X190.0022 Y118.7169
G01 X189.9683 Y118.6235
G01 X189.9438 Y118.5272
G01 X189.9291 Y118.4289
G01 X189.9241 Y118.3296
G01 Y115.3108
G01 X189.9266 Y115.2201
G01 X189.9310 Y115.1734
G01 X189.9376 Y115.1270
G01 X189.9464 Y115.0810
G01 X189.9573 Y115.0354
G01 X189.9703 Y114.9904
G01 X189.9854 Y114.9460
G01 X190.0026 Y114.9024
G01 X190.0218 Y114.8597
G01 X190.0430 Y114.8178
G01 X190.0662 Y114.7771
G01 X190.0912 Y114.7374
G01 X190.1180 Y114.6990
G01 X190.1466 Y114.6619
G01 X190.1770 Y114.6262
G01 X190.2089 Y114.5919
G01 X190.2425 Y114.5591
G01 X190.2775 Y114.5280
G01 X190.3139 Y114.4985
G01 X190.3517 Y114.4708
G01 X190.3908 Y114.4449
G01 X190.4310 Y114.4208
G01 X190.4723 Y114.3987
G01 X190.5146 Y114.3785
G01 X190.5578 Y114.3603
G01 X190.6018 Y114.3442
G01 X190.6465 Y114.3301
G01 X190.6919 Y114.3182
G01 X190.7377 Y114.3084
G01 X190.7839 Y114.3007
G01 X190.8305 Y114.2952
G01 X190.8772 Y114.2919
G01 X190.9241 Y114.2908
G01 X197.7795
G01 Y113.4587
G01 X188.7613
G01 Y125.9293
G01 X197.6762
G01 Y125.6940
G01 X197.4762
M107
G00 Z2.0000


;No. 6: Hole 7
G00 X204.8691 Y114.4441 Z2.0000
G00 Z0.5000
G01 Z-1.8000 F400
M106 S240
G01 X206.2018 F1000
M107
G00 Z2.0000
G00 X210.9505
G00 Z0.5000
G01 Z-1.8000 F400
M106 S240
G01 X212.1277 F1000
M107
G00 Z2.0000
G00 X204.3521 Y115.9441
G00 Z0.5000
G01 Z-1.8000 F400
M106 S240
G01 X203.3165 F1000
M107
G00 Z2.0000
G00 X204.9206 Y124.9441
G00 Z0.5000
G01 Z-1.8000 F400
M106 S240
G01 X206.2212 F1000
M107
G00 Z2.0000
G00 X210.8623
G00 Z0.5000
G01 Z-1.8000 F400
M106 S240
G01 X212.3522 F1000
M107
G00 Z2.0000
G00 Z0.5000
G01 Z-1.8000 F400
M106 S240
G01 X212.4658 Y125.1082 F1000
G01 X212.5536 Y125.0474
G01 X212.6405 Y124.9851
G01 X212.7263 Y124.9214
G01 X212.8110 Y124.8564
G01 X212.8094 Y124.8445
G01 X212.0808 Y124.0044
G01 X212.1025 Y124.0294
G01 X212.0650 Y124.0002
G01 X211.7728 Y124.2150
G01 X211.4679 Y124.4115
G01 X211.1515 Y124.5888
G01 X210.8249 Y124.7464
G01 X210.4891 Y124.8836
G01 X210.1456 Y124.9999
G01 X209.7956 Y125.0949
G01 X209.4404 Y125.1682
G01 X209.0107 Y125.2305
G01 X208.5774 Y125.2559
G01 X208.1434 Y125.2442
G01 X207.7120 Y125.1954
G01 X207.2864 Y125.1101
G01 X206.8696 Y124.9887
G01 X206.4647 Y124.8322
G01 X206.0746 Y124.6417
G01 X205.7022 Y124.4185
G01 X205.3502 Y124.1645
G01 X205.0212 Y123.8812
G01 X204.7176 Y123.5710
G01 X204.5021 Y123.3089
G01 X204.3025 Y123.0346
G01 X204.1193 Y122.7491
G01 X203.9533 Y122.4532
G01 X203.8051 Y122.1481
G01 X203.6750 Y121.8347
G01 X203.5637 Y121.5143
G01 X203.4714 Y121.1878
G01 X203.3985 Y120.8565
G01 X203.3453 Y120.5214
G01 X203.3119 Y120.1838
G01 X203.2984 Y119.8448
G01 X203.2976 Y119.6759
G01 X203.3058 Y119.3615
G01 X203.3301 Y119.0480
G01 X203.3706 Y118.7361
G01 X203.4270 Y118.4267
G01 X203.5174 Y118.0306
G01 X203.6375 Y117.6424
G01 X203.7865 Y117.2644
G01 X203.9637 Y116.8987
G01 X204.1679 Y116.5475
G01 X204.3981 Y116.2127
G01 X204.6530 Y115.8962
G01 X204.9310 Y115.5999
G01 X205.2306 Y115.3254
G01 X205.5501 Y115.0743
G01 X205.8876 Y114.8481
G01 X206.2412 Y114.6480
G01 X206.5717 Y114.5108
G01 X206.9101 Y114.3946
G01 X207.2552 Y114.2999
G01 X207.6055 Y114.2271
G01 X207.9597 Y114.1764
G01 X208.3164 Y114.1480
G01 X208.6741 Y114.1420
G01 X209.0316 Y114.1586
G01 X209.3873 Y114.1975
G01 X209.7398 Y114.2586
G01 X210.0878 Y114.3418
G01 X210.4299 Y114.4466
G01 X210.9097 Y114.6531
G01 X211.3725 Y114.8953
G01 X211.8156 Y115.1720
G01 X212.2364 Y115.4815
G01 X212.8952 Y114.8161
G01 X212.9001 Y114.8013
G01 X212.5369 Y114.4902
G01 X212.1493 Y114.2100
G01 X211.7399 Y113.9628
G01 X211.3115 Y113.7502
G01 X210.8671 Y113.5737
G01 X210.4095 Y113.4345
G01 X209.9421 Y113.3335
G01 X209.4679 Y113.2715
G01 X209.0069 Y113.2198
G01 X208.5436 Y113.1986
G01 X208.0798 Y113.2082
G01 X207.6177 Y113.2483
G01 X207.1593 Y113.3190
G01 X206.7065 Y113.4197
G01 X206.2614 Y113.5502
G01 X205.8259 Y113.7098
G01 X205.4287 Y113.8922
G01 X205.0451 Y114.1019
G01 X204.6771 Y114.3379
G01 X204.3264 Y114.5989
G01 X203.9949 Y114.8838
G01 X203.6840 Y115.1912
G01 X203.3953 Y115.5194
G01 X203.1302 Y115.8671
G01 X202.8901 Y116.2323
G01 X202.6760 Y116.6135
G01 X202.4890 Y117.0087
G01 X202.3301 Y117.4159
G01 X202.2000 Y117.8332
G01 X202.0993 Y118.2586
G01 X202.0285 Y118.6900
G01 X201.9880 Y119.1253
G01 X201.9810 Y119.2350
G01 X201.9756 Y119.3448
G01 X201.9718 Y119.4547
G01 X201.9697 Y119.5647
G01 X201.9692 Y119.6890
G01 X201.9707 Y119.8431
G01 X201.9871 Y120.2654
G01 X202.0315 Y120.6857
G01 X202.1036 Y121.1021
G01 X202.2031 Y121.5129
G01 X202.3297 Y121.9161
G01 X202.4827 Y122.3101
G01 X202.6614 Y122.6930
G01 X202.8652 Y123.0633
G01 X203.0931 Y123.4192
G01 X203.3441 Y123.7593
G01 X203.6170 Y124.0820
G01 X203.9107 Y124.3858
G01 X204.2240 Y124.6695
G01 X204.5553 Y124.9319
G01 X204.9034 Y125.1717
G01 X205.2665 Y125.3879
G01 X205.6432 Y125.5795
G01 X206.0317 Y125.7458
G01 X206.4305 Y125.8859
G01 X206.8376 Y125.9993
G01 X207.2514 Y126.0855
G01 X207.6699 Y126.1440
G01 X208.0914 Y126.1747
G01 X208.5141 Y126.1774
G01 X209.0274 Y126.1769
G01 X209.5392 Y126.1385
G01 X210.0469 Y126.0623
G01 X210.5474 Y125.9487
G01 X211.0383 Y125.7984
G01 X211.5166 Y125.6121
G01 X211.9798 Y125.3910
G01 X212.4254 Y125.1362
G01 X212.4658 Y125.1082
G01 X212.3522 Y124.9441
M107
G00 Z2.0000


;No. 7: Hole 8
G00 X217.0383 Y125.6940 Z2.0000
G00 Z0.5000
G01 Z-1.8000 F400
M106 S240
G01 X226.6282 F1000
M107
G00 Z2.0000
G00 Z0.5000
G01 Z-1.8000 F400
M106 S240
G01 X226.8282 F1000
G01 Y124.9938
G01 X223.4450
G01 X223.3457 Y124.9908
G01 X223.2471 Y124.9780
G01 X223.1503 Y124.9555
G01 X223.0563 Y124.9234
G01 X222.9658 Y124.8822
G01 X222.8799 Y124.8322
G01 X222.7994 Y124.7740
G01 X222.7251 Y124.7080
G01 X222.6576 Y124.6350
G01 X222.5978 Y124.5556
G01 X222.5461 Y124.4707
G01 X222.5031 Y124.3811
G01 X222.4692 Y124.2877
G01 X222.4448 Y124.1914
G01 X222.4300 Y124.0931
G01 X222.4250 Y123.9938
G01 Y113.4587
G01 X221.2415
G01 Y123.9738
G01 X221.2385 Y124.0732
G01 X221.2257 Y124.1717
G01 X221.2031 Y124.2685
G01 X221.1711 Y124.3626
G01 X221.1299 Y124.4530
G01 X221.0799 Y124.5389
G01 X221.0216 Y124.6195
G01 X220.9557 Y124.6938
G01 X220.8827 Y124.7612
G01 X220.8033 Y124.8211
G01 X220.7184 Y124.8728
G01 X220.6288 Y124.9158
G01 X220.5354 Y124.9496
G01 X220.4390 Y124.9741
G01 X220.3408 Y124.9889
G01 X220.2415 Y124.9938
G01 X216.8383
G01 Y125.9293
G01 X226.8282
G01 Y125.6940
G01 X226.6282
M107
G00 Z2.0000


;No. 8: Hole 23
G00 X231.4766 Y118.9440 Z2.0000
G00 Z0.5000
G01 Z-1.8000 F400
M106 S240
G01 X232.7376 F1000
M107
G00 Z2.0000
G00 X238.2250
G00 Z0.5000
G01 Z-1.8000 F400
M106 S240
G01 X239.2713 F1000
M107
G00 Z2.0000
G00 X232.6552 Y124.9440
G00 Z0.5000
G01 Z-1.8000 F400
M106 S240
G01 X231.4766 F1000
M107
G00 Z2.0000
G00 X238.3979
G00 Z0.5000
G01 Z-1.8000 F400
M106 S240
G01 X239.8884 F1000
M107
G00 Z2.0000
G00 X239.2242
G00 Z0.5000
G01 Z-1.8000 F400
M106 S240
G01 Y124.2041 F1000
G01 X238.9571 Y124.4039
G01 X238.6734 Y124.5792
G01 X238.3753 Y124.7286
G01 X238.0650 Y124.8510
G01 X237.7452 Y124.9454
G01 X237.4182 Y125.0110
G01 X237.0867 Y125.0474
G01 X236.7533 Y125.0543
G01 X236.6030 Y125.0559
G01 X233.4601
G01 X233.4132 Y125.0548
G01 X233.3665 Y125.0515
G01 X233.3199 Y125.0460
G01 X233.2737 Y125.0383
G01 X233.2279 Y125.0285
G01 X233.1825 Y125.0166
G01 X233.1378 Y125.0025
G01 X233.0938 Y124.9864
G01 X233.0506 Y124.9682
G01 X233.0083 Y124.9480
G01 X232.9670 Y124.9258
G01 X232.9268 Y124.9018
G01 X232.8877 Y124.8759
G01 X232.8500 Y124.8481
G01 X232.8135 Y124.8187
G01 X232.7785 Y124.7875
G01 X232.7449 Y124.7548
G01 X232.7130 Y124.7205
G01 X232.6826 Y124.6848
G01 X232.6540 Y124.6477
G01 X232.6272 Y124.6092
G01 X232.6022 Y124.5696
G01 X232.5790 Y124.5288
G01 X232.5578 Y124.4870
G01 X232.5386 Y124.4443
G01 X232.5214 Y124.4007
G01 X232.5063 Y124.3563
G01 X232.4933 Y124.3113
G01 X232.4824 Y124.2657
G01 X232.4736 Y124.2197
G01 X232.4670 Y124.1732
G01 X232.4626 Y124.1266
G01 X232.4601 Y124.0359
G01 Y119.9007
G01 X232.4651 Y119.8009
G01 X232.4787 Y119.7088
G01 X232.5008 Y119.6183
G01 X232.5313 Y119.5303
G01 X232.5698 Y119.4454
G01 X232.6160 Y119.3646
G01 X232.6696 Y119.2884
G01 X232.7300 Y119.2175
G01 X232.7967 Y119.1525
G01 X232.8692 Y119.0940
G01 X232.9468 Y119.0425
G01 X233.0289 Y118.9984
G01 X233.1147 Y118.9622
G01 X233.2035 Y118.9341
G01 X233.2945 Y118.9144
G01 X233.3870 Y118.9032
G01 X233.4801 Y118.9007
G01 X236.6850
G01 X237.0230 Y118.8997
G01 X237.3596 Y118.9304
G01 X237.6918 Y118.9927
G01 X238.0167 Y119.0859
G01 X238.3314 Y119.2092
G01 X238.6331 Y119.3616
G01 X238.9191 Y119.5417
G01 X239.1870 Y119.7479
G01 X239.2887 Y119.8459
G01 X239.3856 Y119.9486
G01 X239.4775 Y120.0559
G01 X239.5641 Y120.1674
G01 X239.6452 Y120.2830
G01 X239.7207 Y120.4024
G01 X239.7903 Y120.5252
G01 X239.8540 Y120.6513
G01 X239.9115 Y120.7803
G01 X239.9627 Y120.9119
G01 X240.0075 Y121.0458
G01 X240.0459 Y121.1817
G01 X240.0777 Y121.3193
G01 X240.1028 Y121.4583
G01 X240.1212 Y121.5983
G01 X240.1328 Y121.7391
G01 X240.1376 Y121.8802
G01 X240.1357 Y122.0214
G01 X240.1270 Y122.1623
G01 X240.1115 Y122.3027
G01 X240.1009 Y122.4367
G01 X240.0839 Y122.5699
G01 X240.0606 Y122.7023
G01 X240.0310 Y122.8333
G01 X239.9952 Y122.9628
G01 X239.9533 Y123.0905
G01 X239.9053 Y123.2160
G01 X239.8514 Y123.3391
G01 X239.7917 Y123.4594
G01 X239.7263 Y123.5768
G01 X239.6554 Y123.6910
G01 X239.5792 Y123.8016
G01 X239.4977 Y123.9085
G01 X239.4113 Y124.0113
G01 X239.3200 Y124.1099
G01 X239.2242 Y124.2041
G01 Y124.9440
M107
G00 Z2.0000
G00 X239.4605
G00 Z0.5000
G01 Z-1.8000 F400
M106 S240
G01 Y125.4325 F1000
G01 X239.7262 Y125.2939
G01 X239.9779 Y125.1313
G01 X240.2135 Y124.9461
G01 X240.4310 Y124.7400
G01 X240.6284 Y124.5145
G01 X240.8042 Y124.2718
G01 X240.9567 Y124.0139
G01 X241.0848 Y123.7429
G01 X241.1872 Y123.4613
G01 X241.2631 Y123.1714
G01 X241.3119 Y122.8757
G01 X241.3331 Y122.5768
G01 X241.3569 Y122.2924
G01 X241.3618 Y122.0071
G01 X241.3476 Y121.7221
G01 X241.3144 Y121.4387
G01 X241.2624 Y121.1581
G01 X241.1918 Y120.8816
G01 X241.1030 Y120.6105
G01 X240.9963 Y120.3458
G01 X240.8066 Y120.0324
G01 X240.5879 Y119.7385
G01 X240.3423 Y119.4667
G01 X240.0719 Y119.2195
G01 X239.7792 Y118.9992
G01 X239.4669 Y118.8078
G01 X239.1378 Y118.6469
G01 X238.7948 Y118.5180
G01 X238.7545 Y118.4963
G01 X238.7151 Y118.4728
G01 X238.6769 Y118.4475
G01 X238.6399 Y118.4204
G01 X238.6042 Y118.3917
G01 X238.5698 Y118.3614
G01 X238.5369 Y118.3295
G01 X238.5054 Y118.2962
G01 X238.4755 Y118.2615
G01 X238.4473 Y118.2254
G01 X238.4207 Y118.1881
G01 X238.3958 Y118.1496
G01 X238.3728 Y118.1099
G01 X238.3516 Y118.0693
G01 X238.3322 Y118.0278
G01 X238.3148 Y117.9854
G01 X238.2994 Y117.9422
G01 X238.2859 Y117.8984
G01 X238.2745 Y117.8540
G01 X238.2651 Y117.8092
G01 X238.2578 Y117.7639
G01 X238.2525 Y117.7184
G01 X238.2494 Y117.6727
G01 X238.2483 Y117.6269
G01 X238.2533 Y117.5270
G01 X238.2615 Y117.4651
G01 X238.2735 Y117.4038
G01 X238.2893 Y117.3433
G01 X238.3089 Y117.2840
G01 X238.3322 Y117.2260
G01 X238.3590 Y117.1695
G01 X238.3893 Y117.1149
G01 X238.4229 Y117.0622
G01 X240.8833 Y113.4587
G01 X239.6023
G01 X239.5927 Y113.4638
G01 X236.8035 Y117.6291
G01 X236.7556 Y117.6973
G01 X236.7021 Y117.7613
G01 X236.6436 Y117.8206
G01 X236.5803 Y117.8749
G01 X236.5127 Y117.9237
G01 X236.4412 Y117.9667
G01 X236.3665 Y118.0036
G01 X236.2889 Y118.0341
G01 X236.2090 Y118.0581
G01 X236.1275 Y118.0754
G01 X236.0447 Y118.0858
G01 X235.9614 Y118.0893
G01 X233.4801
G01 X233.3808 Y118.0863
G01 X233.2822 Y118.0735
G01 X233.1854 Y118.0509
G01 X233.0913 Y118.0189
G01 X233.0009 Y117.9777
G01 X232.9150 Y117.9277
G01 X232.8345 Y117.8694
G01 X232.7601 Y117.8034
G01 X232.6927 Y117.7304
G01 X232.6329 Y117.6511
G01 X232.5812 Y117.5662
G01 X232.5382 Y117.4766
G01 X232.5043 Y117.3831
G01 X232.4798 Y117.2868
G01 X232.4651 Y117.1885
G01 X232.4601 Y117.0893
G01 Y113.4587
G01 X231.2766
G01 Y125.9293
G01 X236.8860
G01 X237.2165 Y125.9313
G01 X237.5465 Y125.9147
G01 X237.8751 Y125.8796
G01 X238.2013 Y125.8262
G01 X238.5239 Y125.7545
G01 X238.8419 Y125.6648
G01 X239.1545 Y125.5573
G01 X239.4605 Y125.4325
G01 Y124.9440
M107
G00 Z2.0000


;No. 9: Hole 9


;No. 10: Hole 9
G00 X246.3602 Y113.4587 Z2.0000
G00 Z0.5000
G01 Z-1.8000 F400
M106 S240
G01 Y125.9293 F1000
G01 X247.5437
G01 Y113.4587
G01 X246.3602
M107
G00 Z2.0000


;No. 11: Hole 10
G00 X255.4194 Y114.4441 Z2.0000
G00 Z0.5000
G01 Z-1.8000 F400
M106 S240
G01 X256.7518 F1000
M107
G00 Z2.0000
G00 X261.5005
G00 Z0.5000
G01 Z-1.8000 F400
M106 S240
G01 X262.6778 F1000
M107
G00 Z2.0000
G00 X254.9021 Y115.9441
G00 Z0.5000
G01 Z-1.8000 F400
M106 S240
G01 X253.8671 F1000
M107
G00 Z2.0000
G00 X255.4706 Y124.9441
G00 Z0.5000
G01 Z-1.8000 F400
M106 S240
G01 X256.7712 F1000
M107
G00 Z2.0000
G00 X261.4124
G00 Z0.5000
G01 Z-1.8000 F400
M106 S240
G01 X262.9022 F1000
M107
G00 Z2.0000
G00 Z0.5000
G01 Z-1.8000 F400
M106 S240
G01 X263.0159 Y125.1082 F1000
G01 X263.1037 Y125.0474
G01 X263.1905 Y124.9851
G01 X263.2763 Y124.9214
G01 X263.3611 Y124.8564
G01 X263.3595 Y124.8445
G01 X262.6308 Y124.0044
G01 X262.6526 Y124.0294
G01 X262.6150 Y124.0002
G01 X262.3228 Y124.2150
G01 X262.0179 Y124.4115
G01 X261.7016 Y124.5888
G01 X261.3749 Y124.7464
G01 X261.0392 Y124.8836
G01 X260.6956 Y124.9999
G01 X260.3456 Y125.0949
G01 X259.9904 Y125.1682
G01 X259.5608 Y125.2305
G01 X259.1274 Y125.2559
G01 X258.6934 Y125.2442
G01 X258.2621 Y125.1954
G01 X257.8364 Y125.1101
G01 X257.4196 Y124.9887
G01 X257.0147 Y124.8322
G01 X256.6246 Y124.6417
G01 X256.2522 Y124.4185
G01 X255.9002 Y124.1645
G01 X255.5712 Y123.8812
G01 X255.2676 Y123.5710
G01 X255.0521 Y123.3089
G01 X254.8525 Y123.0346
G01 X254.6694 Y122.7491
G01 X254.5034 Y122.4532
G01 X254.3551 Y122.1481
G01 X254.2251 Y121.8347
G01 X254.1137 Y121.5143
G01 X254.0214 Y121.1878
G01 X253.9485 Y120.8565
G01 X253.8953 Y120.5214
G01 X253.8619 Y120.1838
G01 X253.8484 Y119.8448
G01 X253.8476 Y119.6759
G01 X253.8558 Y119.3615
G01 X253.8801 Y119.0480
G01 X253.9206 Y118.7361
G01 X253.9770 Y118.4267
G01 X254.0674 Y118.0306
G01 X254.1875 Y117.6424
G01 X254.3365 Y117.2644
G01 X254.5137 Y116.8987
G01 X254.7180 Y116.5475
G01 X254.9482 Y116.2127
G01 X255.2030 Y115.8962
G01 X255.4810 Y115.5999
G01 X255.7806 Y115.3254
G01 X256.1001 Y115.0743
G01 X256.4376 Y114.8481
G01 X256.7913 Y114.6480
G01 X257.1217 Y114.5108
G01 X257.4602 Y114.3946
G01 X257.8052 Y114.2999
G01 X258.1555 Y114.2271
G01 X258.5097 Y114.1764
G01 X258.8664 Y114.1480
G01 X259.2242 Y114.1420
G01 X259.5816 Y114.1586
G01 X259.9373 Y114.1975
G01 X260.2898 Y114.2586
G01 X260.6378 Y114.3418
G01 X260.9800 Y114.4466
G01 X261.4598 Y114.6531
G01 X261.9226 Y114.8953
G01 X262.3656 Y115.1720
G01 X262.7865 Y115.4815
G01 X263.4452 Y114.8161
G01 X263.4501 Y114.8013
G01 X263.2048 Y114.5864
G01 X262.9478 Y114.3855
G01 X262.6800 Y114.1992
G01 X262.4023 Y114.0281
G01 X262.1154 Y113.8729
G01 X261.8204 Y113.7338
G01 X261.5180 Y113.6115
G01 X261.2092 Y113.5062
G01 X260.8951 Y113.4183
G01 X260.5766 Y113.3481
G01 X260.2546 Y113.2957
G01 X259.9302 Y113.2614
G01 X259.4197 Y113.2100
G01 X258.9067 Y113.1970
G01 X258.3941 Y113.2223
G01 X257.8849 Y113.2860
G01 X257.3819 Y113.3876
G01 X256.8879 Y113.5266
G01 X256.4057 Y113.7021
G01 X255.9380 Y113.9132
G01 X255.5868 Y114.1076
G01 X255.2488 Y114.3241
G01 X254.9253 Y114.5618
G01 X254.6177 Y114.8196
G01 X254.3272 Y115.0967
G01 X254.0550 Y115.3918
G01 X253.8024 Y115.7037
G01 X253.5701 Y116.0311
G01 X253.3594 Y116.3727
G01 X253.1709 Y116.7272
G01 X253.0055 Y117.0929
G01 X252.8639 Y117.4685
G01 X252.7465 Y117.8524
G01 X252.6541 Y118.2430
G01 X252.5868 Y118.6388
G01 X252.5449 Y119.0380
G01 X252.5365 Y119.1475
G01 X252.5298 Y119.2570
G01 X252.5247 Y119.3667
G01 X252.5213 Y119.4764
G01 X252.5192 Y119.6558
G01 X252.5208 Y119.8431
G01 X252.5374 Y120.2653
G01 X252.5819 Y120.6855
G01 X252.6542 Y121.1018
G01 X252.7539 Y121.5125
G01 X252.8806 Y121.9156
G01 X253.0337 Y122.3095
G01 X253.2126 Y122.6923
G01 X253.4164 Y123.0625
G01 X253.6443 Y123.4183
G01 X253.8953 Y123.7583
G01 X254.1682 Y124.0809
G01 X254.4619 Y124.3847
G01 X254.7751 Y124.6684
G01 X255.1064 Y124.9307
G01 X255.4543 Y125.1705
G01 X255.8173 Y125.3867
G01 X256.1939 Y125.5784
G01 X256.5824 Y125.7448
G01 X256.9810 Y125.8850
G01 X257.3880 Y125.9985
G01 X257.8017 Y126.0849
G01 X258.2201 Y126.1436
G01 X258.6415 Y126.1745
G01 X259.0641 Y126.1774
G01 X259.5774 Y126.1769
G01 X260.0893 Y126.1385
G01 X260.5969 Y126.0623
G01 X261.0975 Y125.9487
G01 X261.5883 Y125.7984
G01 X262.0666 Y125.6121
G01 X262.5299 Y125.3910
G01 X262.9755 Y125.1362
G01 X263.0159 Y125.1082
G01 X262.9022 Y124.9441
M107
G00 Z2.0000


;No. 12: Hole 11
G00 X261.5637 Y93.0218 Z2.0000
G00 Z0.5000
G01 Z-1.8000 F400
M106 S240
G01 X257.7392 F1000
M107
G00 Z2.0000
G00 X262.3574 Y97.5218
G00 Z0.5000
G01 Z-1.8000 F400
M106 S240
G01 X263.5176 F1000
M107
G00 Z2.0000
G00 X261.0612 Y99.0218
G00 Z0.5000
G01 Z-1.8000 F400
M106 S240
G01 X258.4522 F1000
M107
G00 Z2.0000
G00 X256.9620 Y100.5218
G00 Z0.5000
G01 Z-1.8000 F400
M106 S240
G01 X255.7496 F1000
M107
G00 Z2.0000
G00 X257.6083 Y105.0218
G00 Z0.5000
G01 Z-1.8000 F400
M106 S240
G01 X261.2368 F1000
M107
G00 Z2.0000
G00 Z0.5000
G01 Z-1.8000 F400
M106 S240
G01 X261.2880 Y105.2153 F1000
G01 X261.3345 Y105.2030
G01 X261.8323 Y105.0480
G01 X262.3172 Y104.8565
G01 X262.7866 Y104.6296
G01 X263.2379 Y104.3684
G01 X262.6968 Y103.5839
G01 X262.7121 Y103.6061
G01 X262.6830 Y103.5868
G01 X262.3556 Y103.7769
G01 X262.0189 Y103.9501
G01 X261.6739 Y104.1060
G01 X261.3214 Y104.2443
G01 X260.9623 Y104.3644
G01 X260.5976 Y104.4663
G01 X260.2283 Y104.5494
G01 X259.8551 Y104.6138
G01 X259.5591 Y104.6515
G01 X259.2611 Y104.6666
G01 X258.9627 Y104.6589
G01 X258.6658 Y104.6286
G01 X258.3721 Y104.5757
G01 X258.0833 Y104.5006
G01 X257.8010 Y104.4037
G01 X257.5270 Y104.2856
G01 X257.3985 Y104.2151
G01 X257.2752 Y104.1360
G01 X257.1575 Y104.0487
G01 X257.0461 Y103.9535
G01 X256.9416 Y103.8509
G01 X256.8442 Y103.7414
G01 X256.7546 Y103.6254
G01 X256.6732 Y103.5036
G01 X256.6003 Y103.3765
G01 X256.5363 Y103.2447
G01 X256.4814 Y103.1089
G01 X256.4360 Y102.9696
G01 X256.4002 Y102.8275
G01 X256.3742 Y102.6833
G01 X256.3582 Y102.5377
G01 X256.3522 Y102.3913
G01 X256.3546 Y102.2348
G01 X256.3586 Y102.1208
G01 X256.3687 Y102.0072
G01 X256.3850 Y101.8944
G01 X256.4075 Y101.7826
G01 X256.4360 Y101.6722
G01 X256.4706 Y101.5635
G01 X256.5110 Y101.4569
G01 X256.5571 Y101.3527
G01 X256.6089 Y101.2511
G01 X256.6662 Y101.1525
G01 X256.7288 Y101.0572
G01 X256.7964 Y100.9654
G01 X256.9551 Y100.8060
G01 X257.1242 Y100.6577
G01 X257.3029 Y100.5210
G01 X257.4903 Y100.3966
G01 X257.6856 Y100.2851
G01 X257.8880 Y100.1869
G01 X258.0965 Y100.1026
G01 X258.3102 Y100.0324
G01 X258.5246 Y99.9597
G01 X258.6536 Y99.9193
G01 X260.1848 Y99.4905
G01 X260.5131 Y99.4066
G01 X260.8386 Y99.3121
G01 X261.1608 Y99.2070
G01 X261.4794 Y99.0915
G01 X261.7941 Y98.9657
G01 X262.1046 Y98.8298
G01 X262.4104 Y98.6838
G01 X262.7114 Y98.5280
G01 X262.8219 Y98.4652
G01 X262.9292 Y98.3972
G01 X263.0330 Y98.3241
G01 X263.1333 Y98.2460
G01 X263.2296 Y98.1632
G01 X263.3218 Y98.0758
G01 X263.4097 Y97.9840
G01 X263.4931 Y97.8881
G01 X263.5717 Y97.7883
G01 X263.6454 Y97.6849
G01 X263.7140 Y97.5779
G01 X263.7773 Y97.4678
G01 X263.8821 Y97.1978
G01 X263.9647 Y96.9202
G01 X264.0245 Y96.6368
G01 X264.0613 Y96.3495
G01 X264.0746 Y96.0601
G01 X264.0645 Y95.7707
G01 X264.0309 Y95.4830
G01 X263.9742 Y95.1989
G01 X263.9090 Y94.9545
G01 X263.8239 Y94.7162
G01 X263.7194 Y94.4858
G01 X263.5963 Y94.2647
G01 X263.4555 Y94.0546
G01 X263.2977 Y93.8568
G01 X263.1242 Y93.6726
G01 X262.9362 Y93.5034
G01 X262.7348 Y93.3502
G01 X262.5215 Y93.2141
G01 X262.2977 Y93.0961
G01 X262.0649 Y92.9970
G01 X261.7324 Y92.8785
G01 X261.3937 Y92.7789
G01 X261.0499 Y92.6986
G01 X260.7022 Y92.6377
G01 X260.3516 Y92.5965
G01 X259.9993 Y92.5750
G01 X259.6462 Y92.5734
G01 X259.2937 Y92.5917
G01 X258.9142 Y92.6149
G01 X258.5362 Y92.6564
G01 X258.1607 Y92.7161
G01 X257.7885 Y92.7939
G01 X257.4205 Y92.8895
G01 X257.0576 Y93.0028
G01 X256.7005 Y93.1334
G01 X256.3502 Y93.2812
G01 X256.0073 Y93.4457
G01 X255.6729 Y93.6265
G01 X255.3475 Y93.8232
G01 X255.0320 Y94.0355
G01 X255.6452 Y94.7681
G01 X255.6318 Y94.7521
G01 X255.6566 Y94.7789
G01 X255.9914 Y94.5469
G01 X256.3388 Y94.3341
G01 X256.6975 Y94.1411
G01 X257.0664 Y93.9685
G01 X257.4445 Y93.8168
G01 X257.8305 Y93.6866
G01 X258.2231 Y93.5782
G01 X258.6212 Y93.4920
G01 X258.9619 Y93.4338
G01 X259.3056 Y93.3973
G01 X259.6509 Y93.3826
G01 X259.9965 Y93.3899
G01 X260.3409 Y93.4191
G01 X260.6827 Y93.4701
G01 X261.0206 Y93.5427
G01 X261.3533 Y93.6365
G01 X261.4900 Y93.6857
G01 X261.6232 Y93.7437
G01 X261.7524 Y93.8102
G01 X261.8770 Y93.8849
G01 X261.9965 Y93.9676
G01 X262.1104 Y94.0579
G01 X262.2182 Y94.1553
G01 X262.3195 Y94.2596
G01 X262.4137 Y94.3702
G01 X262.5006 Y94.4866
G01 X262.5797 Y94.6085
G01 X262.6508 Y94.7352
G01 X262.7135 Y94.8663
G01 X262.7676 Y95.0012
G01 X262.8128 Y95.1393
G01 X262.8489 Y95.2800
G01 X262.8758 Y95.4228
G01 X262.8934 Y95.5671
G01 X262.9017 Y95.7122
G01 X262.9004 Y95.8575
G01 X262.8898 Y96.0024
G01 X262.8698 Y96.1463
G01 X262.8404 Y96.2886
G01 X262.8019 Y96.4287
G01 X262.7544 Y96.5661
G01 X262.6981 Y96.7000
G01 X262.6332 Y96.8300
G01 X262.5600 Y96.9556
G01 X262.4788 Y97.0761
G01 X262.3900 Y97.1911
G01 X262.2939 Y97.3001
G01 X262.1909 Y97.4026
G01 X261.9926 Y97.5458
G01 X261.7877 Y97.6794
G01 X261.5766 Y97.8031
G01 X261.3599 Y97.9165
G01 X261.1380 Y98.0194
G01 X260.9114 Y98.1116
G01 X260.6806 Y98.1929
G01 X260.4463 Y98.2630
G01 X259.8738 Y98.4311
G01 X259.2998 Y98.5939
G01 X258.7243 Y98.7514
G01 X258.1473 Y98.9037
G01 X257.8948 Y98.9741
G01 X257.6454 Y99.0545
G01 X257.3993 Y99.1448
G01 X257.1570 Y99.2448
G01 X256.9189 Y99.3545
G01 X256.6854 Y99.4735
G01 X256.4568 Y99.6018
G01 X256.2334 Y99.7391
G01 X256.1200 Y99.8217
G01 X256.0117 Y99.9110
G01 X255.9089 Y100.0066
G01 X255.8119 Y100.1080
G01 X255.7211 Y100.2151
G01 X255.6368 Y100.3274
G01 X255.5594 Y100.4444
G01 X255.4891 Y100.5659
G01 X255.4261 Y100.6913
G01 X255.3706 Y100.8203
G01 X255.3229 Y100.9523
G01 X255.2832 Y101.0869
G01 X255.2515 Y101.2237
G01 X255.2279 Y101.3621
G01 X255.2127 Y101.5016
G01 X255.2057 Y101.6418
G01 X255.1998 Y101.7253
G01 X255.1952 Y101.8089
G01 X255.1920 Y101.8926
G01 X255.1901 Y101.9763
G01 X255.1893 Y102.0951
G01 X255.1933 Y102.2777
G01 X255.2213 Y102.5962
G01 X255.2815 Y102.9102
G01 X255.3733 Y103.2165
G01 X255.4959 Y103.5118
G01 X255.6479 Y103.7931
G01 X255.8277 Y104.0574
G01 X256.0334 Y104.3021
G01 X256.2631 Y104.5246
G01 X256.5141 Y104.7226
G01 X256.7840 Y104.8940
G01 X257.0700 Y105.0370
G01 X257.3690 Y105.1502
G01 X257.7239 Y105.2590
G01 X258.0848 Y105.3462
G01 X258.4502 Y105.4115
G01 X258.8190 Y105.4545
G01 X259.1896 Y105.4752
G01 X259.5608 Y105.4735
G01 X259.9313 Y105.4493
G01 X260.2996 Y105.4028
G01 X260.5490 Y105.3688
G01 X260.7971 Y105.3262
G01 X261.0435 Y105.2750
G01 X261.2880 Y105.2153
G01 X261.2368 Y105.0218
M107
G00 Z2.0000


;No. 13: Hole 12
G00 X250.5723 Y93.0218 Z2.0000
G00 Z0.5000
G01 Z-1.8000 F400
M106 S240
G01 X241.9540 F1000
M107
G00 Z2.0000
G00 Y99.0218
G00 Z0.5000
G01 Z-1.8000 F400
M106 S240
G01 X249.5387 F1000
M107
G00 Z2.0000
G00 X250.4689 Y105.0218
G00 Z0.5000
G01 Z-1.8000 F400
M106 S240
G01 X241.9540 F1000
M107
G00 Z2.0000
G00 Z0.5000
G01 Z-1.8000 F400
M106 S240
G01 X241.7540 F1000
G01 Y105.2571
G01 X250.6689
G01 Y104.4250
G01 X243.9368
G01 X243.8375 Y104.4220
G01 X243.7390 Y104.4092
G01 X243.6422 Y104.3866
G01 X243.5481 Y104.3546
G01 X243.4576 Y104.3134
G01 X243.3717 Y104.2634
G01 X243.2912 Y104.2051
G01 X243.2169 Y104.1391
G01 X243.1495 Y104.0661
G01 X243.0896 Y103.9868
G01 X243.0379 Y103.9019
G01 X242.9949 Y103.8123
G01 X242.9610 Y103.7188
G01 X242.9366 Y103.6225
G01 X242.9218 Y103.5242
G01 X242.9168 Y103.4250
G01 Y100.5095
G01 X242.9194 Y100.4188
G01 X242.9238 Y100.3721
G01 X242.9304 Y100.3257
G01 X242.9391 Y100.2797
G01 X242.9500 Y100.2341
G01 X242.9631 Y100.1891
G01 X242.9782 Y100.1447
G01 X242.9954 Y100.1011
G01 X243.0146 Y100.0583
G01 X243.0358 Y100.0165
G01 X243.0589 Y99.9758
G01 X243.0839 Y99.9361
G01 X243.1108 Y99.8977
G01 X243.1394 Y99.8606
G01 X243.1697 Y99.8249
G01 X243.2017 Y99.7906
G01 X243.2352 Y99.7578
G01 X243.2702 Y99.7267
G01 X243.3067 Y99.6972
G01 X243.3445 Y99.6695
G01 X243.3835 Y99.6436
G01 X243.4238 Y99.6195
G01 X243.4651 Y99.5974
G01 X243.5074 Y99.5772
G01 X243.5506 Y99.5590
G01 X243.5946 Y99.5429
G01 X243.6393 Y99.5288
G01 X243.6846 Y99.5169
G01 X243.7304 Y99.5070
G01 X243.7767 Y99.4994
G01 X243.8232 Y99.4939
G01 X243.8700 Y99.4906
G01 X243.9168 Y99.4895
G01 X249.7387
G01 Y98.6574
G01 X243.9368
G01 X243.8375 Y98.6544
G01 X243.7390 Y98.6416
G01 X243.6422 Y98.6191
G01 X243.5481 Y98.5870
G01 X243.4576 Y98.5458
G01 X243.3717 Y98.4958
G01 X243.2912 Y98.4376
G01 X243.2169 Y98.3716
G01 X243.1495 Y98.2986
G01 X243.0896 Y98.2192
G01 X243.0379 Y98.1343
G01 X242.9949 Y98.0447
G01 X242.9610 Y97.9513
G01 X242.9366 Y97.8550
G01 X242.9218 Y97.7567
G01 X242.9168 Y97.6574
G01 Y94.6386
G01 X242.9194 Y94.5479
G01 X242.9238 Y94.5012
G01 X242.9304 Y94.4548
G01 X242.9391 Y94.4088
G01 X242.9500 Y94.3632
G01 X242.9631 Y94.3182
G01 X242.9782 Y94.2738
G01 X242.9954 Y94.2302
G01 X243.0146 Y94.1874
G01 X243.0358 Y94.1456
G01 X243.0589 Y94.1049
G01 X243.0839 Y94.0652
G01 X243.1108 Y94.0268
G01 X243.1394 Y93.9897
G01 X243.1697 Y93.9539
G01 X243.2017 Y93.9197
G01 X243.2352 Y93.8869
G01 X243.2702 Y93.8558
G01 X243.3067 Y93.8263
G01 X243.3445 Y93.7986
G01 X243.3835 Y93.7727
G01 X243.4238 Y93.7486
G01 X243.4651 Y93.7265
G01 X243.5074 Y93.7063
G01 X243.5506 Y93.6881
G01 X243.5946 Y93.6720
G01 X243.6393 Y93.6579
G01 X243.6846 Y93.6460
G01 X243.7304 Y93.6361
G01 X243.7767 Y93.6285
G01 X243.8232 Y93.6230
G01 X243.8700 Y93.6197
G01 X243.9168 Y93.6186
G01 X250.7723
G01 Y92.7865
G01 X241.7540
G01 Y105.0218
G01 X241.9540
M107
G00 Z2.0000


;No. 14: Hole 13
G00 X237.1531 Y93.0218 Z2.0000
G00 Z0.5000
G01 Z-1.8000 F400
M106 S240
G01 X229.1550 F1000
M107
G00 Z2.0000
G00 Z0.5000
G01 Z-1.8000 F400
M106 S240
G01 X228.9550 F1000
G01 Y105.2571
G01 X230.1385
G01 Y94.7006
G01 X230.1410 Y94.6099
G01 X230.1520 Y94.5168
G01 X230.1717 Y94.4252
G01 X230.1998 Y94.3358
G01 X230.2362 Y94.2494
G01 X230.2806 Y94.1669
G01 X230.3324 Y94.0888
G01 X230.3914 Y94.0160
G01 X230.4569 Y93.9489
G01 X230.5284 Y93.8883
G01 X230.6052 Y93.8347
G01 X230.6867 Y93.7885
G01 X230.7722 Y93.7501
G01 X230.8610 Y93.7199
G01 X230.9521 Y93.6981
G01 X231.0449 Y93.6850
G01 X231.1385 Y93.6806
G01 X237.3531
G01 Y92.7865
G01 X228.9550
G01 Y93.0218
G01 X229.1550
M107
G00 Z2.0000


;No. 15: Hole 14
G00 X217.2850 Y93.7718 Z2.0000
G00 Z0.5000
G01 Z-1.8000 F400
M106 S240
G01 X215.9522 F1000
M107
G00 Z2.0000
G00 X222.0334
G00 Z0.5000
G01 Z-1.8000 F400
M106 S240
G01 X223.2108 F1000
M107
G00 Z2.0000
G00 X215.4352 Y95.2718
G00 Z0.5000
G01 Z-1.8000 F400
M106 S240
G01 X214.3995 F1000
M107
G00 Z2.0000
G00 X216.0037 Y104.2718
G00 Z0.5000
G01 Z-1.8000 F400
M106 S240
G01 X217.3043 F1000
M107
G00 Z2.0000
G00 X221.9454
G00 Z0.5000
G01 Z-1.8000 F400
M106 S240
G01 X223.4353 F1000
M107
G00 Z2.0000
G00 Z0.5000
G01 Z-1.8000 F400
M106 S240
G01 X223.5489 Y104.4359 F1000
G01 X223.6367 Y104.3751
G01 X223.7235 Y104.3128
G01 X223.8093 Y104.2491
G01 X223.8941 Y104.1840
G01 X223.8925 Y104.1722
G01 X223.1639 Y103.3321
G01 X223.1856 Y103.3571
G01 X223.1480 Y103.3279
G01 X222.8558 Y103.5427
G01 X222.5509 Y103.7392
G01 X222.2346 Y103.9165
G01 X221.9079 Y104.0741
G01 X221.5722 Y104.2113
G01 X221.2286 Y104.3276
G01 X220.8786 Y104.4226
G01 X220.5234 Y104.4959
G01 X220.0938 Y104.5582
G01 X219.6604 Y104.5836
G01 X219.2265 Y104.5719
G01 X218.7951 Y104.5231
G01 X218.3694 Y104.4378
G01 X217.9526 Y104.3164
G01 X217.5477 Y104.1599
G01 X217.1576 Y103.9694
G01 X216.7853 Y103.7462
G01 X216.4333 Y103.4921
G01 X216.1043 Y103.2089
G01 X215.8006 Y102.8987
G01 X215.5852 Y102.6366
G01 X215.3855 Y102.3623
G01 X215.2024 Y102.0768
G01 X215.0364 Y101.7809
G01 X214.8881 Y101.4758
G01 X214.7581 Y101.1624
G01 X214.6467 Y100.8420
G01 X214.5544 Y100.5155
G01 X214.4816 Y100.1842
G01 X214.4283 Y99.8491
G01 X214.3949 Y99.5115
G01 X214.3815 Y99.1725
G01 X214.3806 Y99.0037
G01 X214.3888 Y98.6893
G01 X214.4132 Y98.3758
G01 X214.4536 Y98.0639
G01 X214.5100 Y97.7545
G01 X214.6005 Y97.3584
G01 X214.7205 Y96.9702
G01 X214.8696 Y96.5922
G01 X215.0467 Y96.2265
G01 X215.2510 Y95.8753
G01 X215.4812 Y95.5404
G01 X215.7360 Y95.2240
G01 X216.0140 Y94.9276
G01 X216.3136 Y94.6532
G01 X216.6331 Y94.4021
G01 X216.9706 Y94.1758
G01 X217.3243 Y93.9758
G01 X217.6547 Y93.8386
G01 X217.9932 Y93.7224
G01 X218.3382 Y93.6277
G01 X218.6886 Y93.5549
G01 X219.0427 Y93.5042
G01 X219.3994 Y93.4758
G01 X219.7572 Y93.4698
G01 X220.1146 Y93.4863
G01 X220.4703 Y93.5252
G01 X220.8229 Y93.5864
G01 X221.1709 Y93.6696
G01 X221.5130 Y93.7744
G01 X221.9928 Y93.9809
G01 X222.4556 Y94.2231
G01 X222.8987 Y94.4998
G01 X223.3195 Y94.8092
G01 X223.9782 Y94.1439
G01 X223.9832 Y94.1290
G01 X223.7378 Y93.9141
G01 X223.4808 Y93.7132
G01 X223.2131 Y93.5269
G01 X222.9353 Y93.3558
G01 X222.6485 Y93.2005
G01 X222.3534 Y93.0615
G01 X222.0510 Y92.9392
G01 X221.7423 Y92.8339
G01 X221.4281 Y92.7460
G01 X221.1096 Y92.6757
G01 X220.7876 Y92.6234
G01 X220.4633 Y92.5891
G01 X219.9527 Y92.5377
G01 X219.4397 Y92.5247
G01 X218.9272 Y92.5500
G01 X218.4180 Y92.6137
G01 X217.9150 Y92.7153
G01 X217.4210 Y92.8543
G01 X216.9388 Y93.0298
G01 X216.4711 Y93.2409
G01 X216.1197 Y93.4351
G01 X215.7815 Y93.6515
G01 X215.4579 Y93.8890
G01 X215.1502 Y94.1469
G01 X214.8596 Y94.4239
G01 X214.5874 Y94.7189
G01 X214.3346 Y95.0308
G01 X214.1024 Y95.3583
G01 X213.8916 Y95.6999
G01 X213.7031 Y96.0544
G01 X213.5378 Y96.4202
G01 X213.3962 Y96.7959
G01 X213.2790 Y97.1799
G01 X213.1867 Y97.5706
G01 X213.1196 Y97.9664
G01 X213.0780 Y98.3657
G01 X213.0696 Y98.4751
G01 X213.0628 Y98.5847
G01 X213.0578 Y98.6944
G01 X213.0544 Y98.8041
G01 X213.0522 Y99.0167
G01 X213.0560 Y99.2570
G01 X213.0853 Y99.7589
G01 X213.1541 Y100.2570
G01 X213.2619 Y100.7481
G01 X213.4082 Y101.2291
G01 X213.5919 Y101.6971
G01 X213.8120 Y102.1492
G01 X214.0670 Y102.5825
G01 X214.3555 Y102.9944
G01 X214.6755 Y103.3822
G01 X215.0251 Y103.7436
G01 X215.4021 Y104.0762
G01 X215.8041 Y104.3781
G01 X216.2287 Y104.6474
G01 X216.6733 Y104.8823
G01 X217.1350 Y105.0815
G01 X217.6109 Y105.2436
G01 X218.0982 Y105.3676
G01 X218.5937 Y105.4529
G01 X219.0944 Y105.4988
G01 X219.5971 Y105.5051
G01 X220.1104 Y105.5046
G01 X220.6223 Y105.4662
G01 X221.1299 Y105.3900
G01 X221.6305 Y105.2764
G01 X222.1213 Y105.1260
G01 X222.5996 Y104.9398
G01 X223.0629 Y104.7187
G01 X223.5085 Y104.4639
G01 X223.5489 Y104.4359
G01 X223.4353 Y104.2718
M107
G00 Z2.0000


;No. 16: Hole 15


;No. 17: Hole 15
G00 X206.8932 Y92.7865 Z2.0000
G00 Z0.5000
G01 Z-1.8000 F400
M106 S240
G01 Y105.2571 F1000
G01 X208.0767
G01 Y92.7865
G01 X206.8932
M107
G00 Z2.0000


;No. 18: Hole 16
G00 X201.0804 Y99.0218 Z2.0000
G00 Z0.5000
G01 Z-1.8000 F400
M106 S240
G01 X191.2425 F1000
M107
G00 Z2.0000
G00 Z0.5000
G01 Z-1.8000 F400
M106 S240
G01 X191.0425 F1000
G01 Y105.2571
G01 X192.2260
G01 Y100.5509
G01 X192.2285 Y100.4601
G01 X192.2395 Y100.3671
G01 X192.2592 Y100.2754
G01 X192.2873 Y100.1860
G01 X192.3237 Y100.0997
G01 X192.3680 Y100.0171
G01 X192.4199 Y99.9391
G01 X192.4788 Y99.8662
G01 X192.5443 Y99.7992
G01 X192.6158 Y99.7386
G01 X192.6927 Y99.6849
G01 X192.7742 Y99.6387
G01 X192.8597 Y99.6004
G01 X192.9484 Y99.5702
G01 X193.0396 Y99.5484
G01 X193.1324 Y99.5353
G01 X193.2260 Y99.5309
G01 X199.0769
G01 X199.1762 Y99.5338
G01 X199.2748 Y99.5467
G01 X199.3716 Y99.5692
G01 X199.4657 Y99.6013
G01 X199.5561 Y99.6425
G01 X199.6420 Y99.6925
G01 X199.7225 Y99.7507
G01 X199.7969 Y99.8167
G01 X199.8643 Y99.8897
G01 X199.9241 Y99.9691
G01 X199.9758 Y100.0540
G01 X200.0188 Y100.1436
G01 X200.0527 Y100.2370
G01 X200.0772 Y100.3333
G01 X200.0919 Y100.4316
G01 X200.0969 Y100.5309
G01 Y105.2571
G01 X201.2804
G01 Y92.7865
G01 X200.0969
G01 Y97.5754
G01 X200.0939 Y97.6748
G01 X200.0811 Y97.7733
G01 X200.0585 Y97.8701
G01 X200.0265 Y97.9642
G01 X199.9853 Y98.0546
G01 X199.9353 Y98.1405
G01 X199.8770 Y98.2210
G01 X199.8111 Y98.2954
G01 X199.7380 Y98.3628
G01 X199.6587 Y98.4227
G01 X199.5738 Y98.4743
G01 X199.4842 Y98.5173
G01 X199.3908 Y98.5512
G01 X199.2944 Y98.5757
G01 X199.1962 Y98.5905
G01 X199.0969 Y98.5954
G01 X193.2460
G01 X193.1466 Y98.5924
G01 X193.0481 Y98.5796
G01 X192.9513 Y98.5571
G01 X192.8572 Y98.5250
G01 X192.7668 Y98.4838
G01 X192.6809 Y98.4338
G01 X192.6003 Y98.3755
G01 X192.5260 Y98.3096
G01 X192.4586 Y98.2366
G01 X192.3987 Y98.1572
G01 X192.3471 Y98.0723
G01 X192.3041 Y97.9827
G01 X192.2702 Y97.8893
G01 X192.2457 Y97.7930
G01 X192.2309 Y97.6947
G01 X192.2260 Y97.5954
G01 Y92.7865
G01 X191.0425
G01 Y99.0218
G01 X191.2425
M107
G00 Z2.0000


;No. 19: Hole 17
G00 X186.0120 Y93.0218 Z2.0000
G00 Z0.5000
G01 Z-1.8000 F400
M106 S240
G01 X177.3937 F1000
M107
G00 Z2.0000
G00 Y99.0218
G00 Z0.5000
G01 Z-1.8000 F400
M106 S240
G01 X184.9784 F1000
M107
G00 Z2.0000
G00 X185.9086 Y105.0218
G00 Z0.5000
G01 Z-1.8000 F400
M106 S240
G01 X177.3937 F1000
M107
G00 Z2.0000
G00 Z0.5000
G01 Z-1.8000 F400
M106 S240
G01 X177.1937 F1000
G01 Y105.2571
G01 X186.1086
G01 Y104.4250
G01 X179.3765
G01 X179.2772 Y104.4220
G01 X179.1786 Y104.4092
G01 X179.0818 Y104.3866
G01 X178.9878 Y104.3546
G01 X178.8973 Y104.3134
G01 X178.8114 Y104.2634
G01 X178.7309 Y104.2051
G01 X178.6566 Y104.1391
G01 X178.5891 Y104.0661
G01 X178.5293 Y103.9868
G01 X178.4776 Y103.9019
G01 X178.4346 Y103.8123
G01 X178.4007 Y103.7188
G01 X178.3763 Y103.6225
G01 X178.3615 Y103.5242
G01 X178.3565 Y103.4250
G01 Y100.5095
G01 X178.3590 Y100.4188
G01 X178.3635 Y100.3721
G01 X178.3700 Y100.3257
G01 X178.3788 Y100.2797
G01 X178.3897 Y100.2341
G01 X178.4027 Y100.1891
G01 X178.4179 Y100.1447
G01 X178.4351 Y100.1011
G01 X178.4543 Y100.0583
G01 X178.4755 Y100.0165
G01 X178.4986 Y99.9758
G01 X178.5236 Y99.9361
G01 X178.5505 Y99.8977
G01 X178.5791 Y99.8606
G01 X178.6094 Y99.8249
G01 X178.6414 Y99.7906
G01 X178.6749 Y99.7578
G01 X178.7099 Y99.7267
G01 X178.7464 Y99.6972
G01 X178.7842 Y99.6695
G01 X178.8232 Y99.6436
G01 X178.8635 Y99.6195
G01 X178.9048 Y99.5974
G01 X178.9471 Y99.5772
G01 X178.9903 Y99.5590
G01 X179.0343 Y99.5429
G01 X179.0790 Y99.5288
G01 X179.1243 Y99.5169
G01 X179.1701 Y99.5070
G01 X179.2164 Y99.4994
G01 X179.2629 Y99.4939
G01 X179.3097 Y99.4906
G01 X179.3565 Y99.4895
G01 X185.1784
G01 Y98.6574
G01 X179.3765
G01 X179.2772 Y98.6544
G01 X179.1786 Y98.6416
G01 X179.0818 Y98.6191
G01 X178.9878 Y98.5870
G01 X178.8973 Y98.5458
G01 X178.8114 Y98.4958
G01 X178.7309 Y98.4376
G01 X178.6566 Y98.3716
G01 X178.5891 Y98.2986
G01 X178.5293 Y98.2192
G01 X178.4776 Y98.1343
G01 X178.4346 Y98.0447
G01 X178.4007 Y97.9513
G01 X178.3763 Y97.8550
G01 X178.3615 Y97.7567
G01 X178.3565 Y97.6574
G01 Y94.6386
G01 X178.3590 Y94.5479
G01 X178.3700 Y94.4548
G01 X178.3897 Y94.3632
G01 X178.4179 Y94.2738
G01 X178.4543 Y94.1874
G01 X178.4986 Y94.1049
G01 X178.5505 Y94.0268
G01 X178.6094 Y93.9539
G01 X178.6749 Y93.8869
G01 X178.7464 Y93.8263
G01 X178.8232 Y93.7727
G01 X178.9048 Y93.7265
G01 X178.9903 Y93.6881
G01 X179.0790 Y93.6579
G01 X179.1701 Y93.6361
G01 X179.2629 Y93.6230
G01 X179.3565 Y93.6186
G01 X186.2120
G01 Y92.7865
G01 X177.1937
G01 Y105.0218
G01 X177.3937
M107
G00 Z2.0000


;No. 20: Hole 18
G00 X167.3344 Y92.9701 Z2.0000
G00 Z0.5000
G01 Z-1.8000 F400
M106 S240
G01 X166.0759 F1000
G01 X165.4744 Y94.4701
G01 X167.9365
M107
G00 Z2.0000
G00 Z0.5000
G01 Z-1.8000 F400
M106 S240
G01 X168.1192 Y94.3967 F1000
G01 X167.4309 Y92.6832
G01 X165.9741 Y92.6867
G01 X160.9292 Y105.2571
G01 X162.2696 Y105.2528
G01 X165.8201 Y95.6890
G01 X165.8623 Y95.5984
G01 X165.9134 Y95.5125
G01 X165.9728 Y95.4321
G01 X166.0399 Y95.3580
G01 X166.1141 Y95.2910
G01 X166.1946 Y95.2317
G01 X166.2806 Y95.1808
G01 X166.3713 Y95.1387
G01 X166.4657 Y95.1059
G01 X166.5629 Y95.0827
G01 X166.6619 Y95.0692
G01 X166.7618 Y95.0658
G01 X166.8616 Y95.0723
G01 X166.9602 Y95.0888
G01 X167.0566 Y95.1150
G01 X167.1500 Y95.1507
G01 X167.2393 Y95.1955
G01 X167.3237 Y95.2491
G01 X167.4024 Y95.3108
G01 X167.4745 Y95.3801
G01 X167.5393 Y95.4562
G01 X167.5962 Y95.5383
G01 X167.6446 Y95.6258
G01 X167.6840 Y95.7177
G01 X171.2295 Y105.2571
G01 X172.4817 Y105.2561
G01 X168.1192 Y94.3967
G01 X167.9365 Y94.4701
M107
G00 Z2.0000


;No. 21: Hole 22
G00 X188.5083 Y72.3496 Z2.0000
G00 Z0.5000
G01 Z-1.8000 F400
M106 S240
G01 X192.5934 F1000
M107
G00 Z2.0000
G00 X187.0678 Y73.8496
G00 Z0.5000
G01 Z-1.8000 F400
M106 S240
G01 X185.9179 F1000
M107
G00 Z2.0000
G00 X194.1164
G00 Z0.5000
G01 Z-1.8000 F400
M106 S240
G01 X195.1628 F1000
M107
G00 Z2.0000
G00 X185.7941 Y75.3496
G00 Z0.5000
G01 Z-1.8000 F400
M106 S240
G01 X184.7918 F1000
M107
G00 Z2.0000
G00 X185.9789 Y82.8496
G00 Z0.5000
G01 Z-1.8000 F400
M106 S240
G01 X187.0125 F1000
M107
G00 Z2.0000
G00 X194.0611
G00 Z0.5000
G01 Z-1.8000 F400
M106 S240
G01 X195.1835 F1000
M107
G00 Z2.0000
G00 X192.5952 Y84.3496
G00 Z0.5000
G01 Z-1.8000 F400
M106 S240
G01 X188.5760 F1000
M107
G00 Z2.0000
G00 X188.8153 Y84.3495
G00 Z0.5000
G01 Z-1.8000 F400
M106 S240
G01 Y83.6306 F1000
G01 X188.4271 Y83.4824
G01 X188.0520 Y83.3039
G01 X187.6922 Y83.0961
G01 X187.3501 Y82.8604
G01 X187.0278 Y82.5983
G01 X186.7273 Y82.3114
G01 X186.4506 Y82.0015
G01 X186.1994 Y81.6706
G01 X185.9753 Y81.3208
G01 X185.7797 Y80.9542
G01 X185.6138 Y80.5733
G01 X185.4787 Y80.1805
G01 X185.3669 Y79.7733
G01 X185.2847 Y79.3592
G01 X185.2325 Y78.9402
G01 X185.2105 Y78.5185
G01 X185.2093 Y78.4003
G01 X185.2129 Y78.1375
G01 X185.2358 Y77.6811
G01 X185.2972 Y77.2282
G01 X185.3968 Y76.7822
G01 X185.5338 Y76.3462
G01 X185.7073 Y75.9234
G01 X185.9160 Y75.5167
G01 X186.1583 Y75.1293
G01 X186.4326 Y74.7637
G01 X186.7369 Y74.4227
G01 X187.0690 Y74.1087
G01 X187.4264 Y73.8240
G01 X187.8067 Y73.5705
G01 X188.2072 Y73.3502
G01 X188.6248 Y73.1646
G01 X189.0567 Y73.0150
G01 X189.4996 Y72.9026
G01 X189.9135 Y72.8319
G01 X190.3316 Y72.7941
G01 X190.7513 Y72.7894
G01 X191.1702 Y72.8178
G01 X191.5855 Y72.8793
G01 X191.9946 Y72.9733
G01 X192.3951 Y73.0993
G01 X192.7843 Y73.2565
G01 X193.1600 Y73.4440
G01 X193.5197 Y73.6605
G01 X193.8611 Y73.9047
G01 X194.1822 Y74.1752
G01 X194.4579 Y74.4634
G01 X194.7133 Y74.7699
G01 X194.9471 Y75.0931
G01 X195.1582 Y75.4315
G01 X195.3457 Y75.7836
G01 X195.5086 Y76.1477
G01 X195.6463 Y76.5221
G01 X195.7580 Y76.9050
G01 X195.8433 Y77.2947
G01 X195.9017 Y77.6893
G01 X195.9330 Y78.0870
G01 X195.9370 Y78.4859
G01 X195.9137 Y78.8841
G01 X195.8633 Y79.2798
G01 X195.7858 Y79.6711
G01 X195.6818 Y80.0562
G01 X195.5517 Y80.4333
G01 X195.3961 Y80.8006
G01 X195.2158 Y81.1564
G01 X195.0115 Y81.4990
G01 X194.7534 Y81.8555
G01 X194.4671 Y82.1898
G01 X194.1545 Y82.4996
G01 X193.8176 Y82.7828
G01 X193.4588 Y83.0376
G01 X193.0803 Y83.2622
G01 X192.6847 Y83.4552
G01 X192.2748 Y83.6153
G01 X191.8531 Y83.7413
G01 X191.4225 Y83.8325
G01 X190.9859 Y83.8883
G01 X190.5463 Y83.9082
G01 X190.1065 Y83.8922
G01 X189.6694 Y83.8403
G01 X189.2381 Y83.7529
G01 X188.8153 Y83.6306
G01 Y84.3495
M107
G00 Z2.0000
G00 X188.7474
G00 Z0.5000
G01 Z-1.8000 F400
M106 S240
G01 Y84.6053 F1000
G01 X188.7632 Y84.6095
G01 X189.2665 Y84.7236
G01 X189.7768 Y84.8008
G01 X190.2913 Y84.8406
G01 X190.8074 Y84.8427
G01 X191.3223 Y84.8073
G01 X191.8332 Y84.7344
G01 X192.3374 Y84.6245
G01 X192.8323 Y84.4781
G01 X193.3152 Y84.2961
G01 X193.7836 Y84.0793
G01 X194.2349 Y83.8290
G01 X194.6668 Y83.5464
G01 X195.0216 Y83.2649
G01 X195.3557 Y82.9590
G01 X195.6673 Y82.6304
G01 X195.9551 Y82.2805
G01 X196.2174 Y81.9113
G01 X196.4530 Y81.5244
G01 X196.6608 Y81.1219
G01 X196.8396 Y80.7058
G01 X196.9887 Y80.2781
G01 X197.1072 Y79.8409
G01 X197.1946 Y79.3965
G01 X197.2504 Y78.9470
G01 X197.2744 Y78.4947
G01 X197.2665 Y78.0418
G01 X197.2266 Y77.5906
G01 X197.1550 Y77.1433
G01 X197.0547 Y76.7037
G01 X196.9242 Y76.2721
G01 X196.7641 Y75.8505
G01 X196.5751 Y75.4411
G01 X196.3582 Y75.0458
G01 X196.1145 Y74.6664
G01 X195.8450 Y74.3049
G01 X195.5511 Y73.9629
G01 X195.2341 Y73.6421
G01 X194.8957 Y73.3441
G01 X194.5375 Y73.0702
G01 X194.1611 Y72.8218
G01 X193.7684 Y72.6002
G01 X193.3613 Y72.4063
G01 X192.9418 Y72.2411
G01 X192.5118 Y72.1053
G01 X192.0734 Y71.9997
G01 X191.6287 Y71.9248
G01 X191.1799 Y71.8809
G01 X190.7292 Y71.8682
G01 X190.2109 Y71.8647
G01 X189.6938 Y71.9011
G01 X189.1811 Y71.9773
G01 X188.6758 Y72.0927
G01 X188.1809 Y72.2466
G01 X187.6993 Y72.4383
G01 X187.2339 Y72.6664
G01 X186.7875 Y72.9297
G01 X186.3626 Y73.2266
G01 X185.9619 Y73.5553
G01 X185.5876 Y73.9139
G01 X185.2421 Y74.3003
G01 X185.0383 Y74.5696
G01 X184.8494 Y74.8497
G01 X184.6761 Y75.1396
G01 X184.5189 Y75.4386
G01 X184.3782 Y75.7456
G01 X184.2545 Y76.0600
G01 X184.1481 Y76.3806
G01 X184.0594 Y76.7065
G01 X183.9887 Y77.0368
G01 X183.9360 Y77.3704
G01 X183.9017 Y77.7065
G01 X183.8857 Y78.0439
G01 X183.8815 Y78.2201
G01 X183.8810 Y78.3441
G01 X183.8827 Y78.5028
G01 X183.9046 Y78.9215
G01 X183.9537 Y79.3380
G01 X184.0300 Y79.7504
G01 X184.1330 Y80.1569
G01 X184.2623 Y80.5558
G01 X184.4174 Y80.9455
G01 X184.5977 Y81.3241
G01 X184.8023 Y81.6902
G01 X185.0303 Y82.0421
G01 X185.2809 Y82.3784
G01 X185.5528 Y82.6976
G01 X185.8451 Y82.9984
G01 X186.1564 Y83.2794
G01 X186.4853 Y83.5395
G01 X186.8306 Y83.7776
G01 X187.1906 Y83.9926
G01 X187.5639 Y84.1837
G01 X187.9489 Y84.3499
G01 X188.3440 Y84.4907
G01 X188.7474 Y84.6053
G01 Y84.3495
M107
G00 Z2.0000


;No. 22: Hole 19
G00 X211.2314 Y73.0996 Z2.0000
G00 Z0.5000
G01 Z-1.8000 F400
M106 S240
G01 X212.7433 F1000
G01 Y74.5996
G01 X210.0887
M107
G00 Z2.0000
G00 X205.1650 Y82.0996
G00 Z0.5000
G01 Z-1.8000 F400
M106 S240
G01 X202.2851 F1000
G01 Y83.5996
G01 X204.0235
M107
G00 Z2.0000
G00 Z0.5000
G01 Z-1.8000 F400
M106 S240
G01 X204.1826 Y83.7207 F1000
G01 X209.9932 Y76.0854
G01 X210.0493 Y76.0155
G01 X210.1114 Y75.9508
G01 X210.1790 Y75.8920
G01 X210.2516 Y75.8394
G01 X210.3287 Y75.7936
G01 X210.4095 Y75.7548
G01 X210.4935 Y75.7235
G01 X210.5800 Y75.6998
G01 X210.6682 Y75.6839
G01 X210.7576 Y75.6760
G01 X210.8472 Y75.6761
G01 X210.9365 Y75.6843
G01 X211.0247 Y75.7004
G01 X211.1111 Y75.7244
G01 X211.1950 Y75.7560
G01 X211.2757 Y75.7950
G01 X211.3526 Y75.8410
G01 X211.4251 Y75.8938
G01 X211.4926 Y75.9528
G01 X211.5545 Y76.0176
G01 X211.6104 Y76.0878
G01 X211.6597 Y76.1626
G01 X211.7022 Y76.2416
G01 X211.7374 Y76.3240
G01 X211.7651 Y76.4093
G01 X211.7850 Y76.4967
G01 X211.7971 Y76.5856
G01 X211.8011 Y76.6751
G01 Y84.5849
G01 X212.9433
G01 Y72.1143
G01 X211.7277 Y72.1180
G01 X205.0349 Y80.9035
G01 X204.9788 Y80.9734
G01 X204.9167 Y81.0381
G01 X204.8491 Y81.0969
G01 X204.7764 Y81.1494
G01 X204.6993 Y81.1952
G01 X204.6185 Y81.2339
G01 X204.5345 Y81.2652
G01 X204.4481 Y81.2888
G01 X204.3598 Y81.3047
G01 X204.2705 Y81.3125
G01 X204.1809 Y81.3124
G01 X204.0916 Y81.3042
G01 X204.0035 Y81.2881
G01 X203.9171 Y81.2641
G01 X203.8332 Y81.2325
G01 X203.7525 Y81.1935
G01 X203.6756 Y81.1474
G01 X203.6031 Y81.0947
G01 X203.5357 Y81.0356
G01 X203.4738 Y80.9708
G01 X203.4180 Y80.9007
G01 X203.3686 Y80.8258
G01 X203.3262 Y80.7469
G01 X203.2910 Y80.6645
G01 X203.2633 Y80.5792
G01 X203.2434 Y80.4918
G01 X203.2313 Y80.4030
G01 X203.2273 Y80.3134
G01 Y72.1143
G01 X202.0851
G01 Y84.5849
G01 X203.5276 Y84.5814
G01 X204.1826 Y83.7207
G01 X204.0235 Y83.5996
M107
G00 Z2.0000


;No. 23: Hole 20
G00 X218.5968 Y72.3496 Z2.0000
G00 Z0.5000
G01 Z-1.8000 F400
M106 S240
G01 X226.5949 F1000
M107
G00 Z2.0000
G00 Z0.5000
G01 Z-1.8000 F400
M106 S240
G01 X226.7949 F1000
G01 Y72.1143
G01 X218.3968
G01 Y84.5849
G01 X219.5803
G01 Y74.0284
G01 X219.5828 Y73.9377
G01 X219.5938 Y73.8446
G01 X219.6135 Y73.7530
G01 X219.6417 Y73.6636
G01 X219.6781 Y73.5772
G01 X219.7224 Y73.4947
G01 X219.7743 Y73.4166
G01 X219.8332 Y73.3437
G01 X219.8987 Y73.2767
G01 X219.9702 Y73.2161
G01 X220.0470 Y73.1625
G01 X220.1286 Y73.1163
G01 X220.2141 Y73.0779
G01 X220.3028 Y73.0477
G01 X220.3939 Y73.0259
G01 X220.4867 Y73.0128
G01 X220.5803 Y73.0084
G01 X226.7949
G01 Y72.3496
G01 X226.5949
M107
G00 Z2.0000


;No. 24: Hole 21
G00 X235.1947 Y77.5996 Z2.0000
G00 Z0.5000
G01 Z-1.8000 F400
M106 S240
G01 X236.4863 F1000
M107
G00 Z2.0000
G00 Z0.5000
G01 Z-1.8000 F400
M106 S240
G01 X236.6549 Y77.4919 F1000
G01 X236.6088 Y77.4244
G01 X236.5683 Y77.3534
G01 X236.5335 Y77.2795
G01 X236.5046 Y77.2031
G01 X236.4819 Y77.1246
G01 X236.4655 Y77.0446
G01 X236.4554 Y76.9635
G01 X236.4518 Y76.8818
G01 Y72.1143
G01 X235.2683
G01 Y76.7998
G01 X235.2670 Y76.8730
G01 X235.2604 Y76.9458
G01 X235.2485 Y77.0180
G01 X235.2313 Y77.0891
G01 X235.2090 Y77.1588
G01 X235.1817 Y77.2267
G01 X235.1495 Y77.2924
G01 X235.1126 Y77.3555
G01 X230.5274 Y84.5849
G01 X231.8595
G01 X235.0108 Y79.2823
G01 X235.0569 Y79.2088
G01 X235.1091 Y79.1396
G01 X235.1671 Y79.0752
G01 X235.2305 Y79.0160
G01 X235.2988 Y78.9626
G01 X235.3714 Y78.9153
G01 X235.4479 Y78.8744
G01 X235.5276 Y78.8403
G01 X235.6099 Y78.8133
G01 X235.6943 Y78.7934
G01 X235.7801 Y78.7810
G01 X235.8667 Y78.7760
G01 X235.9534 Y78.7786
G01 X236.0395 Y78.7887
G01 X236.1244 Y78.8061
G01 X236.2075 Y78.8309
G01 X236.2881 Y78.8627
G01 X236.3657 Y78.9015
G01 X236.4396 Y78.9468
G01 X236.5093 Y78.9983
G01 X236.5743 Y79.0557
G01 X236.6341 Y79.1184
G01 X236.6882 Y79.1862
G01 X236.7363 Y79.2583
G01 X239.9587 Y84.5849
G01 X241.1869
G01 X236.6549 Y77.4919
G01 X236.4863 Y77.5996
M107
G00 Z2.0000


;No. 25: Hole 1
G00 X256.0015 Y13.0500 Z2.0000
G00 Z0.5000
G01 Z-1.8000 F400
M106 S240
G01 X43.6203 F1000
G01 Y14.5500
G01 X34.8468
G01 X264.7753
G01 Y16.0500
G01 X268.6949
G01 X30.9272
G01 Y17.5500
G01 X28.0259
G01 X42.5003
G01 X35.2691
G01 Y19.0500
G01 X25.6710
G01 Y20.5500
G01 X23.6790
G01 X31.6997
G01 X29.0599
G01 Y22.0500
G01 X21.9550
G01 X20.4421 Y23.5500
G01 X26.9310
G01 X25.1459
G01 Y25.0500
G01 X19.1036
G01 X17.9126 Y26.5500
G01 X23.6171
G01 X22.2903 Y28.0500
G01 X16.8531
G01 X15.9079 Y29.5500
G01 X21.1331
G01 X20.1211 Y31.0500
G01 X15.0688
G01 X14.3265 Y32.5500
G01 X19.2379
G01 X18.4701 Y34.0500
G01 X13.6738
G01 X13.1055 Y35.5500
G01 X17.8056
G01 X17.2408 Y37.0500
G01 X12.6173
G01 X12.2055 Y38.5500
G01 X16.7659
G01 X16.3787 Y40.0500
G01 X11.8671
G01 X11.5997 Y41.5500
G01 X16.0740
G01 X15.8485 Y43.0500
G01 X11.4015
G01 X11.2718 Y44.5500
G01 X15.7015
G01 X15.6293 Y46.0500
G01 X11.2083
G01 X11.2000 Y47.5500
G01 X15.6201
G01 Y49.0500
G01 X11.2000
G01 Y50.5500
G01 X15.6201
G01 Y52.0500
G01 X11.2000
G01 Y53.5500
G01 X15.6201
G01 Y55.0500
G01 X11.2000
G01 Y56.5500
G01 X15.6201
G01 Y58.0500
G01 X11.2000
G01 Y59.5500
G01 X15.6201
G01 Y61.0500
G01 X11.2000
G01 Y62.5500
G01 X15.6201
G01 Y64.0500
G01 X11.2000
G01 Y65.5500
G01 X15.6201
G01 Y67.0500
G01 X11.2000
G01 Y68.5500
G01 X15.6201
G01 Y70.0500
G01 X11.2000
G01 Y71.5500
G01 X15.6201
G01 Y73.0500
G01 X11.2000
G01 Y74.5500
G01 X15.6201
G01 Y76.0500
G01 X11.2000
G01 Y77.5500
G01 X15.6201
G01 Y79.0500
G01 X11.2000
G01 Y80.5500
G01 X15.6201
G01 Y82.0500
G01 X11.2000
G01 Y83.5500
G01 X15.6201
G01 Y85.0500
G01 X11.2000
G01 Y86.5500
G01 X15.6201
G01 Y88.0500
G01 X11.2000
G01 Y89.5500
G01 X15.6201
G01 Y91.0500
G01 X11.2000
G01 Y92.5500
G01 X15.6201
G01 Y94.0500
G01 X11.2000
G01 Y95.5500
G01 X15.6201
G01 Y97.0500
G01 X11.2000
G01 Y98.5500
G01 X15.6201
G01 Y100.0500
G01 X11.2000
G01 Y101.5500
G01 X15.6201
G01 Y103.0500
G01 X11.2000
G01 Y104.5500
G01 X15.6201
G01 Y106.0500
G01 X11.2000
G01 Y107.5500
G01 X15.6201
G01 Y109.0500
G01 X11.2000
G01 Y110.5500
G01 X15.6201
G01 Y112.0500
G01 X11.2000
G01 Y113.5500
G01 X15.6201
G01 Y115.0500
G01 X11.2000
G01 Y116.5500
G01 X15.6201
G01 Y118.0500
G01 X11.2000
G01 Y119.5500
G01 X15.6201
G01 Y121.0500
G01 X11.2000
G01 Y122.5500
G01 X15.6201
G01 Y124.0500
G01 X11.2000
G01 Y125.5500
G01 X15.6201
G01 Y127.0500
G01 X11.2000
G01 Y128.5500
G01 X15.6201
G01 Y130.0500
G01 X11.2000
G01 Y131.5500
G01 X15.6201
G01 Y133.0500
G01 X11.2000
G01 Y134.5500
G01 X15.6201
G01 Y136.0500
G01 X11.2000
G01 Y137.5500
G01 X15.6201
G01 Y139.0500
G01 X11.2000
G01 Y140.5500
G01 X15.6201
G01 Y142.0500
G01 X11.2000
G01 Y143.5500
G01 X15.6201
G01 Y145.0500
G01 X11.2000
G01 Y146.5500
G01 X15.6201
G01 Y148.0500
G01 X11.2000
G01 Y149.5500
G01 X15.6201
G01 Y151.0500
G01 X11.2000
G01 Y152.5500
G01 X15.6201
G01 Y154.0500
G01 X11.2000
G01 Y155.5500
G01 X15.6201
G01 Y157.0500
G01 X11.2000
G01 Y158.5500
G01 X15.6201
G01 Y160.0500
G01 X11.2000
G01 Y161.5500
G01 X15.6201
G01 Y163.0500
G01 X11.2000
G01 Y164.5500
G01 X15.6201
G01 Y166.0500
G01 X11.2000
G01 Y167.5500
G01 X15.6201
G01 Y169.0500
G01 X11.2000
G01 Y170.5500
G01 X15.6201
G01 Y172.0500
G01 X11.2000
G01 X11.2083 Y173.5500
G01 X15.6293
G01 X15.7012 Y175.0500
G01 X11.2718
G01 X11.4015 Y176.5500
G01 X15.8485
G01 X16.0741 Y178.0500
G01 X11.5998
G01 X11.8671 Y179.5500
G01 X16.3788
G01 X16.7657 Y181.0500
G01 X12.2055
G01 X12.6173 Y182.5500
G01 X17.2408
G01 X17.8058 Y184.0500
G01 X13.1055
G01 X13.6738 Y185.5500
G01 X18.4698
G01 X19.2379 Y187.0500
G01 X14.3265
G01 X15.0688 Y188.5500
G01 X20.1213
G01 X21.1333 Y190.0500
G01 X15.9079
G01 X16.8531 Y191.5500
G01 X22.2899
G01 X23.6175 Y193.0500
G01 X17.9126
G01 X19.1036 Y194.5500
G01 X25.1455
G01 Y196.0500
G01 X26.9307
G01 X20.4421
G01 X21.9550 Y197.5500
G01 X29.0600
G01 Y199.0500
G01 X31.6991
G01 X23.6790
G01 X25.6710
G01 Y200.5500
G01 X35.2692
G01 Y202.0500
G01 X42.4975
G01 X28.0259
G01 X30.9272
G01 Y203.5500
G01 X268.6949
G01 Y202.0500
G01 X271.5962
G01 X257.1218
G01 X264.3531
G01 Y200.5500
G01 X273.9511
G01 Y199.0500
G01 X275.9431
G01 X267.9227
G01 X270.5621
G01 Y197.5500
G01 X277.6671
G01 X279.1800 Y196.0500
G01 X272.6913
G01 X274.4766
G01 Y194.5500
G01 X280.5185
G01 X281.7095 Y193.0500
G01 X276.0047
G01 X277.3321 Y191.5500
G01 X282.7690
G01 X283.7142 Y190.0500
G01 X278.4884
G01 X279.5010 Y188.5500
G01 X284.5533
G01 X285.2956 Y187.0500
G01 X280.3840
G01 X281.1523 Y185.5500
G01 X285.9483
G01 X286.5165 Y184.0500
G01 X281.8165
G01 X282.3813 Y182.5500
G01 X287.0048
G01 X287.4166 Y181.0500
G01 X282.8562
G01 X283.2433 Y179.5500
G01 X287.7549
G01 X288.0223 Y178.0500
G01 X283.5480
G01 X283.7736 Y176.5500
G01 X288.2206
G01 X288.3503 Y175.0500
G01 X283.9209
G01 X283.9928 Y173.5500
G01 X288.4138
G01 X288.4221 Y172.0500
G01 X284.0020
G01 Y170.5500
G01 X288.4221
G01 Y169.0500
G01 X284.0020
G01 Y167.5500
G01 X288.4221
G01 Y166.0500
G01 X284.0020
G01 Y164.5500
G01 X288.4221
G01 Y163.0500
G01 X284.0020
G01 Y161.5500
G01 X288.4221
G01 Y160.0500
G01 X284.0020
G01 Y158.5500
G01 X288.4221
G01 Y157.0500
G01 X284.0020
G01 Y155.5500
G01 X288.4221
G01 Y154.0500
G01 X284.0020
G01 Y152.5500
G01 X288.4221
G01 Y151.0500
G01 X284.0020
G01 Y149.5500
G01 X288.4221
G01 Y148.0500
G01 X284.0020
G01 Y146.5500
G01 X288.4221
G01 Y145.0500
G01 X284.0020
G01 Y143.5500
G01 X288.4221
G01 Y142.0500
G01 X284.0020
G01 Y140.5500
G01 X288.4221
G01 Y139.0500
G01 X284.0020
G01 Y137.5500
G01 X288.4221
G01 Y136.0500
G01 X284.0020
G01 Y134.5500
G01 X288.4221
G01 Y133.0500
G01 X284.0020
G01 Y131.5500
G01 X288.4221
G01 Y130.0500
G01 X284.0020
G01 Y128.5500
G01 X288.4221
G01 Y127.0500
G01 X284.0020
G01 Y125.5500
G01 X288.4221
G01 Y124.0500
G01 X284.0020
G01 Y122.5500
G01 X288.4221
G01 Y121.0500
G01 X284.0020
G01 Y119.5500
G01 X288.4221
G01 Y118.0500
G01 X284.0020
G01 Y116.5500
G01 X288.4221
G01 Y115.0500
G01 X284.0020
G01 Y113.5500
G01 X288.4221
G01 Y112.0500
G01 X284.0020
G01 Y110.5500
G01 X288.4221
G01 Y109.0500
G01 X284.0020
G01 Y107.5500
G01 X288.4221
G01 Y106.0500
G01 X284.0020
G01 Y104.5500
G01 X288.4221
G01 Y103.0500
G01 X284.0020
G01 Y101.5500
G01 X288.4221
G01 Y100.0500
G01 X284.0020
G01 Y98.5500
G01 X288.4221
G01 Y97.0500
G01 X284.0020
G01 Y95.5500
G01 X288.4221
G01 Y94.0500
G01 X284.0020
G01 Y92.5500
G01 X288.4221
G01 Y91.0500
G01 X284.0020
G01 Y89.5500
G01 X288.4221
G01 Y88.0500
G01 X284.0020
G01 Y86.5500
G01 X288.4221
G01 Y85.0500
G01 X284.0020
G01 Y83.5500
G01 X288.4221
G01 Y82.0500
G01 X284.0020
G01 Y80.5500
G01 X288.4221
G01 Y79.0500
G01 X284.0020
G01 Y77.5500
G01 X288.4221
G01 Y76.0500
G01 X284.0020
G01 Y74.5500
G01 X288.4221
G01 Y73.0500
G01 X284.0020
G01 Y71.5500
G01 X288.4221
G01 Y70.0500
G01 X284.0020
G01 Y68.5500
G01 X288.4221
G01 Y67.0500
G01 X284.0020
G01 Y65.5500
G01 X288.4221
G01 Y64.0500
G01 X284.0020
G01 Y62.5500
G01 X288.4221
G01 Y61.0500
G01 X284.0020
G01 Y59.5500
G01 X288.4221
G01 Y58.0500
G01 X284.0020
G01 Y56.5500
G01 X288.4221
G01 Y55.0500
G01 X284.0020
G01 Y53.5500
G01 X288.4221
G01 Y52.0500
G01 X284.0020
G01 Y50.5500
G01 X288.4221
G01 Y49.0500
G01 X284.0020
G01 Y47.5500
G01 X288.4221
G01 X288.4138 Y46.0500
G01 X283.9928
G01 X283.9208 Y44.5500
G01 X288.3503
G01 X288.2206 Y43.0500
G01 X283.7736
G01 X283.5480 Y41.5500
G01 X288.0223
G01 X287.7549 Y40.0500
G01 X283.2431
G01 X282.8563 Y38.5500
G01 X287.4166
G01 X287.0048 Y37.0500
G01 X282.3813
G01 X281.8163 Y35.5500
G01 X286.5165
G01 X285.9483 Y34.0500
G01 X281.1523
G01 X280.3837 Y32.5500
G01 X285.2956
G01 X284.5533 Y31.0500
G01 X279.5008
G01 X278.4888 Y29.5500
G01 X283.7142
G01 X282.7690 Y28.0500
G01 X277.3321
G01 X276.0050 Y26.5500
G01 X281.7095
G01 X280.5185 Y25.0500
G01 X274.4766
G01 Y23.5500
G01 X272.6914
G01 X279.1800
G01 X277.6671 Y22.0500
G01 X270.5620
G01 Y20.5500
G01 X267.9230
G01 X275.9431
G01 X273.9511
G01 Y19.0500
G01 X264.3528
G01 Y17.5500
G01 X257.1246
G01 X271.5962
M107
G00 Z2.0000
G00 X264.7753 Y203.5500
G00 Z0.5000
G01 Z-1.8000 F400
M106 S240
G01 Y205.0500 F1000
G01 X34.8468
G01 X43.6206
G01 Y206.5500
G01 X256.0017
M107
G00 Z2.0000
G00 X257.1218 Y202.0500
G00 Z0.5000
G01 Z-1.8000 F400
M106 S240
G01 X255.8251 Y201.9246 F1000
G01 X255.5474 Y201.9338
G01 X255.2696 Y201.9403
G01 X254.9918 Y201.9441
G01 X254.7140 Y201.9452
G01 X44.8881
G01 X43.8591 Y201.9311
G01 X42.8312 Y201.8805
G01 X41.8058 Y201.7933
G01 X40.7841 Y201.6698
G01 X39.7675 Y201.5100
G01 X38.7572 Y201.3142
G01 X37.7545 Y201.0826
G01 X36.7606 Y200.8155
G01 X35.7769 Y200.5132
G01 X34.8045 Y200.1762
G01 X33.8448 Y199.8048
G01 X32.8988 Y199.3995
G01 X31.9678 Y198.9609
G01 X31.0531 Y198.4894
G01 X30.1556 Y197.9857
G01 X29.2767 Y197.4505
G01 X28.4173 Y196.8843
G01 X27.5786 Y196.2880
G01 X26.7616 Y195.6622
G01 X25.9673 Y195.0078
G01 X25.1969 Y194.3255
G01 X24.4511 Y193.6163
G01 X23.7311 Y192.8811
G01 X23.0376 Y192.1207
G01 X22.3716 Y191.3361
G01 X21.7339 Y190.5284
G01 X21.1254 Y189.6985
G01 X20.5467 Y188.8475
G01 X19.9986 Y187.9765
G01 X19.4818 Y187.0865
G01 X18.9970 Y186.1787
G01 X18.5448 Y185.2543
G01 X18.1257 Y184.3144
G01 X17.7403 Y183.3602
G01 X17.3891 Y182.3928
G01 X17.0724 Y181.4137
G01 X16.7908 Y180.4238
G01 X16.5445 Y179.4246
G01 X16.3339 Y178.4173
G01 X16.1592 Y177.4031
G01 X16.0207 Y176.3833
G01 X15.9186 Y175.3593
G01 X15.8529 Y174.3323
G01 X15.8237 Y173.3036
G01 X15.8201 Y172.8193
G01 Y46.7608
G01 Y46.7607
G01 X15.8235 Y46.3058
G01 X15.8338 Y45.8510
G01 X15.8509 Y45.3963
G01 X15.8749 Y44.9420
G01 X15.9490 Y43.9466
G01 X16.0573 Y42.9544
G01 X16.1999 Y41.9665
G01 X16.3764 Y40.9841
G01 X16.5867 Y40.0084
G01 X16.8305 Y39.0405
G01 X17.1075 Y38.0816
G01 X17.4174 Y37.1329
G01 X17.7599 Y36.1954
G01 X18.1345 Y35.2702
G01 X18.5408 Y34.3585
G01 X18.9783 Y33.4614
G01 X19.4465 Y32.5799
G01 X19.9448 Y31.7151
G01 X20.4726 Y30.8679
G01 X21.0293 Y30.0395
G01 X21.6143 Y29.2308
G01 X22.2268 Y28.4427
G01 X22.8661 Y27.6762
G01 X23.5315 Y26.9322
G01 X24.2221 Y26.2116
G01 X24.9372 Y25.5153
G01 X25.6759 Y24.8440
G01 X26.4373 Y24.1986
G01 X27.2204 Y23.5799
G01 X28.0245 Y22.9885
G01 X28.8485 Y22.4252
G01 X29.6914 Y21.8907
G01 X30.5522 Y21.3855
G01 X31.4300 Y20.9103
G01 X32.3236 Y20.4657
G01 X33.2320 Y20.0522
G01 X34.1541 Y19.6702
G01 X35.0889 Y19.3203
G01 X36.0352 Y19.0028
G01 X36.9918 Y18.7182
G01 X37.9577 Y18.4667
G01 X38.9318 Y18.2486
G01 X39.9127 Y18.0643
G01 X40.8994 Y17.9139
G01 X41.8907 Y17.7977
G01 X42.8855 Y17.7157
G01 X43.8825 Y17.6681
G01 X44.8805 Y17.6548
G01 X254.7340
G01 X255.7740 Y17.6693
G01 X256.8128 Y17.7211
G01 X257.8492 Y17.8102
G01 X258.8816 Y17.9365
G01 X259.9088 Y18.0998
G01 X260.9295 Y18.2999
G01 X261.9424 Y18.5365
G01 X262.9461 Y18.8094
G01 X263.9394 Y19.1181
G01 X264.9209 Y19.4623
G01 X265.8894 Y19.8416
G01 X266.8437 Y20.2554
G01 X267.7825 Y20.7032
G01 X268.7047 Y21.1844
G01 X269.6089 Y21.6985
G01 X270.4941 Y22.2447
G01 X271.3591 Y22.8223
G01 X272.2028 Y23.4307
G01 X273.0240 Y24.0689
G01 X273.8219 Y24.7363
G01 X274.5952 Y25.4318
G01 X275.3431 Y26.1547
G01 X276.0645 Y26.9040
G01 X276.7585 Y27.6788
G01 X277.4243 Y28.4779
G01 X278.0609 Y29.3005
G01 X278.6676 Y30.1454
G01 X279.2435 Y31.0115
G01 X279.7879 Y31.8978
G01 X280.3002 Y32.8031
G01 X280.7796 Y33.7261
G01 X281.2255 Y34.6658
G01 X281.6374 Y35.6209
G01 X282.0147 Y36.5902
G01 X282.3570 Y37.5724
G01 X282.6637 Y38.5663
G01 X282.9346 Y39.5706
G01 X283.1692 Y40.5839
G01 X283.3672 Y41.6050
G01 X283.5285 Y42.6326
G01 X283.6527 Y43.6653
G01 X283.7398 Y44.7017
G01 X283.7895 Y45.7407
G01 X283.8020 Y46.7808
G01 Y172.8393
G01 X283.7897 Y173.8540
G01 X283.7419 Y174.8678
G01 X283.6585 Y175.8792
G01 X283.5398 Y176.8871
G01 X283.3858 Y177.8902
G01 X283.1967 Y178.8873
G01 X282.9728 Y179.8771
G01 X282.7143 Y180.8585
G01 X282.4216 Y181.8302
G01 X282.0950 Y182.7911
G01 X281.7349 Y183.7399
G01 X281.3418 Y184.6755
G01 X280.9161 Y185.5968
G01 X280.4583 Y186.5025
G01 X279.9691 Y187.3917
G01 X279.4491 Y188.2631
G01 X278.8988 Y189.1158
G01 X278.3189 Y189.9487
G01 X277.7102 Y190.7608
G01 X277.0734 Y191.5510
G01 X276.4093 Y192.3184
G01 X275.7187 Y193.0620
G01 X275.0024 Y193.7810
G01 X274.2614 Y194.4744
G01 X273.4965 Y195.1414
G01 X272.7087 Y195.7812
G01 X271.8990 Y196.3929
G01 X271.0683 Y196.9759
G01 X270.2177 Y197.5295
G01 X269.3482 Y198.0528
G01 X268.4609 Y198.5454
G01 X267.5569 Y199.0066
G01 X266.6373 Y199.4357
G01 X265.7031 Y199.8324
G01 X264.7557 Y200.1961
G01 X263.7961 Y200.5263
G01 X262.8255 Y200.8227
G01 X261.8451 Y201.0849
G01 X260.8561 Y201.3126
G01 X259.8597 Y201.5054
G01 X258.8572 Y201.6632
G01 X257.8498 Y201.7858
G01 X256.8387 Y201.8729
G01 X255.8251 Y201.9246
G01 X257.1218 Y202.0500
M107
G00 Z2.0000
G00 X256.0017 Y206.5500
G00 Z0.5000
G01 Z-1.8000 F400
M106 S240
G01 X257.5169 Y206.6610 F1000
G01 X258.6585 Y206.5465
G01 X259.7956 Y206.3935
G01 X260.9269 Y206.2021
G01 X262.0511 Y205.9726
G01 X263.1669 Y205.7051
G01 X264.2730 Y205.4001
G01 X265.3681 Y205.0578
G01 X266.4510 Y204.6787
G01 X267.5205 Y204.2632
G01 X268.5754 Y203.8118
G01 X269.6143 Y203.3249
G01 X270.6362 Y202.8032
G01 X271.6399 Y202.2472
G01 X272.6241 Y201.6575
G01 X273.5879 Y201.0350
G01 X274.5301 Y200.3801
G01 X275.4495 Y199.6938
G01 X276.3453 Y198.9768
G01 X277.2162 Y198.2299
G01 X278.0615 Y197.4539
G01 X278.8799 Y196.6499
G01 X279.6707 Y195.8185
G01 X280.4330 Y194.9610
G01 X281.1658 Y194.0781
G01 X281.8683 Y193.1709
G01 X282.5398 Y192.2406
G01 X283.1793 Y191.2880
G01 X283.7863 Y190.3143
G01 X284.3601 Y189.3207
G01 X284.8998 Y188.3082
G01 X285.4051 Y187.2781
G01 X285.8752 Y186.2314
G01 X286.3096 Y185.1695
G01 X286.7079 Y184.0934
G01 X287.0695 Y183.0045
G01 X287.3941 Y181.9040
G01 X287.6813 Y180.7932
G01 X287.9307 Y179.6733
G01 X288.1422 Y178.5456
G01 X288.3153 Y177.4113
G01 X288.4500 Y176.2719
G01 X288.5461 Y175.1285
G01 X288.6035 Y173.9826
G01 X288.6221 Y172.8354
G01 Y46.7646
G01 X288.6048 Y45.6549
G01 X288.5513 Y44.5463
G01 X288.4614 Y43.4401
G01 X288.3355 Y42.3374
G01 X288.1735 Y41.2394
G01 X287.9757 Y40.1473
G01 X287.7422 Y39.0622
G01 X287.4734 Y37.9854
G01 X287.1695 Y36.9180
G01 X286.8308 Y35.8610
G01 X286.4577 Y34.8157
G01 X286.0505 Y33.7832
G01 X285.6099 Y32.7646
G01 X285.1361 Y31.7609
G01 X284.6297 Y30.7733
G01 X284.0913 Y29.8028
G01 X283.5214 Y28.8504
G01 X282.9206 Y27.9172
G01 X282.2897 Y27.0041
G01 X281.6292 Y26.1122
G01 X280.9398 Y25.2423
G01 X280.2224 Y24.3955
G01 X279.4776 Y23.5726
G01 X278.7063 Y22.7746
G01 X277.9093 Y22.0022
G01 X277.0875 Y21.2563
G01 X276.2417 Y20.5376
G01 X275.3728 Y19.8471
G01 X274.4818 Y19.1853
G01 X273.5696 Y18.5531
G01 X272.6372 Y17.9511
G01 X271.6856 Y17.3798
G01 X270.7158 Y16.8401
G01 X269.7289 Y16.3323
G01 X268.7259 Y15.8572
G01 X267.7079 Y15.4151
G01 X266.6759 Y15.0065
G01 X265.6312 Y14.6320
G01 X264.5747 Y14.2918
G01 X263.5077 Y13.9864
G01 X262.4312 Y13.7161
G01 X261.3465 Y13.4811
G01 X260.2547 Y13.2818
G01 X259.1569 Y13.1183
G01 X258.0544 Y12.9908
G01 X256.9483 Y12.8994
G01 X255.8398 Y12.8443
G01 X254.7301 Y12.8255
G01 X44.8920
G01 X43.7934 Y12.8439
G01 X42.6961 Y12.8979
G01 X41.6010 Y12.9874
G01 X40.5095 Y13.1124
G01 X39.4225 Y13.2726
G01 X38.3414 Y13.4680
G01 X37.2671 Y13.6983
G01 X36.2008 Y13.9632
G01 X35.1437 Y14.2626
G01 X34.0969 Y14.5961
G01 X33.0614 Y14.9633
G01 X32.0383 Y15.3638
G01 X31.0287 Y15.7973
G01 X30.0337 Y16.2633
G01 X29.0544 Y16.7612
G01 X28.0917 Y17.2906
G01 X27.1466 Y17.8509
G01 X26.2202 Y18.4416
G01 X25.3134 Y19.0619
G01 X24.4272 Y19.7113
G01 X23.5624 Y20.3891
G01 X22.7201 Y21.0945
G01 X21.9011 Y21.8268
G01 X21.1062 Y22.5853
G01 X20.3364 Y23.3692
G01 X19.5923 Y24.1775
G01 X18.8748 Y25.0096
G01 X18.1846 Y25.8644
G01 X17.5225 Y26.7412
G01 X16.8891 Y27.6389
G01 X16.2852 Y28.5567
G01 X15.7113 Y29.4936
G01 X15.1680 Y30.4486
G01 X14.6560 Y31.4207
G01 X14.1757 Y32.4088
G01 X13.7277 Y33.4120
G01 X13.3124 Y34.4292
G01 X12.9303 Y35.4593
G01 X12.5818 Y36.5012
G01 X12.2672 Y37.5539
G01 X11.9869 Y38.6162
G01 X11.7411 Y39.6871
G01 X11.5301 Y40.7653
G01 X11.3542 Y41.8498
G01 X11.2136 Y42.9395
G01 X11.1082 Y44.0331
G01 X11.0384 Y45.1296
G01 X11.0041 Y46.2277
G01 X11.0000 Y46.7646
G01 Y172.8354
G01 X11.0041 Y173.3723
G01 X11.0384 Y174.4705
G01 X11.1082 Y175.5669
G01 X11.2135 Y176.6606
G01 X11.3542 Y177.7502
G01 X11.5301 Y178.8347
G01 X11.7410 Y179.9130
G01 X11.9868 Y180.9838
G01 X12.2671 Y182.0462
G01 X12.5817 Y183.0988
G01 X12.9302 Y184.1408
G01 X13.3123 Y185.1709
G01 X13.7276 Y186.1881
G01 X14.1756 Y187.1913
G01 X14.6558 Y188.1794
G01 X15.1679 Y189.1515
G01 X15.7111 Y190.1065
G01 X16.2850 Y191.0434
G01 X16.8890 Y191.9612
G01 X17.5223 Y192.8590
G01 X18.1844 Y193.7357
G01 X18.8746 Y194.5906
G01 X19.5921 Y195.4226
G01 X20.3362 Y196.2310
G01 X21.1061 Y197.0148
G01 X21.9010 Y197.7733
G01 X22.7200 Y198.5057
G01 X23.5623 Y199.2111
G01 X24.4270 Y199.8888
G01 X25.3133 Y200.5382
G01 X26.2201 Y201.1586
G01 X27.1465 Y201.7492
G01 X28.0916 Y202.3095
G01 X29.0543 Y202.8389
G01 X30.0337 Y203.3369
G01 X31.0287 Y203.8028
G01 X32.0382 Y204.2363
G01 X33.0613 Y204.6369
G01 X34.0968 Y205.0040
G01 X35.1437 Y205.3375
G01 X36.2008 Y205.6369
G01 X37.2671 Y205.9018
G01 X38.3414 Y206.1321
G01 X39.4225 Y206.3274
G01 X40.5095 Y206.4877
G01 X41.6010 Y206.6126
G01 X42.6961 Y206.7021
G01 X43.7934 Y206.7561
G01 X44.8920 Y206.7745
G01 X254.7301
G01 X255.4275 Y206.7679
G01 X256.1247 Y206.7468
G01 X256.8212 Y206.7112
G01 X257.5169 Y206.6610
G01 X256.0017 Y206.5500
M107
G00 Z2.0000


;No. 26: Part 4
G00 X17.3007 Y201.6815 Z2.0000
G00 Z0.5000
G01 Z-2.0000 F400
M106 S240
G01 X16.4949 Y200.8884 F1000
G01 X15.7119 Y200.0727
G01 X14.9524 Y199.2351
G01 X14.2170 Y198.3763
G01 X13.5062 Y197.4970
G01 X12.8207 Y196.5979
G01 X12.1609 Y195.6797
G01 X11.5275 Y194.7431
G01 X10.9209 Y193.7889
G01 X10.3416 Y192.8179
G01 X9.7901 Y191.8309
G01 X9.2668 Y190.8286
G01 X8.7722 Y189.8119
G01 X8.3066 Y188.7815
G01 X7.8704 Y187.7383
G01 X7.4640 Y186.6832
G01 X7.0878 Y185.6170
G01 X6.7419 Y184.5406
G01 X6.4267 Y183.4547
G01 X6.1424 Y182.3604
G01 X5.8893 Y181.2584
G01 X5.6676 Y180.1497
G01 X5.4774 Y179.0351
G01 X5.3189 Y177.9156
G01 X5.1923 Y176.7921
G01 X5.0976 Y175.6654
G01 X5.0349 Y174.5364
G01 X5.0042 Y173.4062
G01 X5.0000 Y172.8193
G01 Y46.7608
G01 X5.0074 Y45.9883
G01 X5.0295 Y45.2161
G01 X5.0663 Y44.4444
G01 X5.1178 Y43.6736
G01 X5.2227 Y42.5199
G01 X5.3612 Y41.3697
G01 X5.5330 Y40.2240
G01 X5.7381 Y39.0838
G01 X5.9762 Y37.9501
G01 X6.2472 Y36.8237
G01 X6.5508 Y35.7057
G01 X6.8869 Y34.5970
G01 X7.2550 Y33.4986
G01 X7.6549 Y32.4113
G01 X8.0863 Y31.3361
G01 X8.5487 Y30.2739
G01 X9.0419 Y29.2256
G01 X9.5653 Y28.1921
G01 X10.1185 Y27.1743
G01 X10.7011 Y26.1730
G01 X11.3126 Y25.1890
G01 X11.9525 Y24.2232
G01 X12.6201 Y23.2765
G01 X13.3150 Y22.3495
G01 X14.0366 Y21.4432
G01 X14.7842 Y20.5582
G01 X15.5573 Y19.6954
G01 X16.3551 Y18.8554
M107
M106 S240
G01 X17.2414 Y17.9740
G01 X18.1551 Y17.1211
G01 X19.0953 Y16.2974
G01 X20.0611 Y15.5040
G01 X20.9443 Y14.8188
G01 X21.8463 Y14.1589
G01 X22.7666 Y13.5245
G01 X23.7044 Y12.9164
G01 X24.6590 Y12.3348
G01 X25.6295 Y11.7804
G01 X26.6152 Y11.2535
G01 X27.6154 Y10.7546
G01 X28.6293 Y10.2840
G01 X29.6559 Y9.8421
G01 X30.6947 Y9.4293
G01 X31.7446 Y9.0460
G01 X32.8049 Y8.6923
G01 X33.8747 Y8.3686
G01 X34.9532 Y8.0752
G01 X36.0396 Y7.8122
G01 X37.1329 Y7.5799
G01 X38.2323 Y7.3785
G01 X39.3370 Y7.2081
G01 X40.4460 Y7.0689
G01 X41.5585 Y6.9610
G01 X42.6736 Y6.8844
G01 X43.7905 Y6.8392
G01 X44.9081 Y6.8255
G01 X254.7340
G01 X255.8763 Y6.8405
G01 X257.0178 Y6.8883
G01 X258.1575 Y6.9689
G01 X259.2943 Y7.0823
G01 X260.4274 Y7.2284
G01 X261.5559 Y7.4070
G01 X262.6787 Y7.6179
G01 X263.7950 Y7.8611
G01 X264.9038 Y8.1363
G01 X266.0043 Y8.4433
G01 X267.0955 Y8.7818
G01 X268.1765 Y9.1516
G01 X269.2464 Y9.5523
G01 X270.3043 Y9.9836
G01 X271.3494 Y10.4452
G01 X272.3808 Y10.9367
G01 X273.3976 Y11.4576
G01 X274.3990 Y12.0075
G01 X275.3842 Y12.5861
G01 X276.3523 Y13.1927
G01 X277.3026 Y13.8270
G01 X278.2342 Y14.4883
G01 X279.1464 Y15.1761
G01 X280.0385 Y15.8899
M107
M106 S240
G01 X280.1448 Y15.9766
G01 X281.0692 Y16.7661
G01 X281.9692 Y17.5834
G01 X282.8439 Y18.4276
G01 X283.6925 Y19.2981
G01 X283.7956 Y19.4064
G01 X284.6420 Y20.3348
G01 X285.4587 Y21.2893
G01 X286.2450 Y22.2692
G01 X286.9999 Y23.2733
G01 X287.7228 Y24.3008
G01 X288.4129 Y25.3505
G01 X289.0696 Y26.4215
G01 X289.6922 Y27.5126
G01 X290.2801 Y28.6229
G01 X290.8327 Y29.7511
G01 X291.3495 Y30.8962
G01 X291.8299 Y32.0570
G01 X292.2734 Y33.2323
G01 X292.6797 Y34.4211
G01 X293.0483 Y35.6221
G01 X293.3789 Y36.8341
G01 X293.6710 Y38.0560
G01 X293.9245 Y39.2864
G01 X294.1391 Y40.5242
G01 X294.3145 Y41.7682
G01 X294.4507 Y43.0171
G01 X294.5474 Y44.2696
G01 X294.6045 Y45.5246
G01 X294.6221 Y46.7807
G01 Y172.8393
G01 X294.6046 Y174.0742
G01 X294.5488 Y175.3080
G01 X294.4548 Y176.5395
G01 X294.3227 Y177.7674
G01 X294.1525 Y178.9907
G01 X293.9446 Y180.2081
G01 X293.6989 Y181.4185
G01 X293.4159 Y182.6207
G01 X293.0957 Y183.8135
G01 X292.7387 Y184.9959
G01 X292.3452 Y186.1665
G01 X291.9156 Y187.3245
G01 X291.4503 Y188.4685
G01 X290.9498 Y189.5976
G01 X290.4145 Y190.7106
G01 X289.8450 Y191.8065
G01 X289.2417 Y192.8842
G01 X288.6053 Y193.9427
G01 X287.9365 Y194.9810
G01 X287.2357 Y195.9980
G01 X286.5038 Y196.9928
G01 X285.7413 Y197.9644
G01 X284.9491 Y198.9119
G01 X284.1279 Y199.8344
M107
M106 S240
G01 X283.2695 Y200.7430
G01 X282.3829 Y201.6240
G01 X281.4689 Y202.4767
G01 X280.5285 Y203.3002
G01 X279.6266 Y204.0453
G01 X278.7031 Y204.7636
G01 X277.7589 Y205.4544
G01 X276.7947 Y206.1171
G01 X275.8115 Y206.7511
G01 X274.8100 Y207.3558
G01 X273.7911 Y207.9308
G01 X272.7557 Y208.4755
G01 X271.7047 Y208.9895
G01 X270.6390 Y209.4723
G01 X269.5596 Y209.9236
G01 X268.4674 Y210.3428
G01 X267.3633 Y210.7297
G01 X266.2482 Y211.0838
G01 X265.1232 Y211.4050
G01 X263.9893 Y211.6929
G01 X262.8473 Y211.9473
G01 X261.6984 Y212.1680
G01 X260.5435 Y212.3547
G01 X259.3835 Y212.5073
G01 X258.2196 Y212.6256
G01 X257.0527 Y212.7097
G01 X255.8838 Y212.7593
G01 X254.7140 Y212.7745
G01 X44.8881
G01 X43.8267 Y212.7617
G01 X42.7661 Y212.7206
G01 X41.7070 Y212.6512
G01 X40.6500 Y212.5534
G01 X39.5961 Y212.4275
G01 X38.5459 Y212.2734
G01 X37.5003 Y212.0912
G01 X36.4598 Y211.8812
G01 X35.4254 Y211.6434
G01 X34.3977 Y211.3780
G01 X33.3774 Y211.0852
G01 X32.3653 Y210.7653
G01 X31.3622 Y210.4184
G01 X30.3687 Y210.0448
G01 X29.3855 Y209.6447
G01 X28.4134 Y209.2186
G01 X27.4531 Y208.7665
G01 X26.5051 Y208.2890
G01 X25.5703 Y207.7862
G01 X24.6493 Y207.2587
G01 X23.7427 Y206.7067
G01 X22.8512 Y206.1307
G01 X21.9754 Y205.5310
G01 X21.1159 Y204.9081
M107
M106 S240
G01 X20.1242 Y204.1473
G01 X19.1571 Y203.3554
G01 X18.2156 Y202.5332
G01 X17.3007 Y201.6815
G01 Z-4.0000 F400
G01 X16.4949 Y200.8884 F1000
G01 X15.7119 Y200.0727
G01 X14.9524 Y199.2351
G01 X14.2170 Y198.3763
G01 X13.5062 Y197.4970
G01 X12.8207 Y196.5979
G01 X12.1609 Y195.6797
G01 X11.5275 Y194.7431
G01 X10.9209 Y193.7889
G01 X10.3416 Y192.8179
G01 X9.7901 Y191.8309
G01 X9.2668 Y190.8286
G01 X8.7722 Y189.8119
G01 X8.3066 Y188.7815
G01 X7.8704 Y187.7383
G01 X7.4640 Y186.6832
G01 X7.0878 Y185.6170
G01 X6.7419 Y184.5406
G01 X6.4267 Y183.4547
G01 X6.1424 Y182.3604
G01 X5.8893 Y181.2584
G01 X5.6676 Y180.1497
G01 X5.4774 Y179.0351
G01 X5.3189 Y177.9156
G01 X5.1923 Y176.7921
G01 X5.0976 Y175.6654
G01 X5.0349 Y174.5364
G01 X5.0042 Y173.4062
G01 X5.0000 Y172.8193
G01 Y46.7608
G01 X5.0074 Y45.9883
G01 X5.0295 Y45.2161
G01 X5.0663 Y44.4444
G01 X5.1178 Y43.6736
G01 X5.2227 Y42.5199
G01 X5.3612 Y41.3697
G01 X5.5330 Y40.2240
G01 X5.7381 Y39.0838
G01 X5.9762 Y37.9501
G01 X6.2472 Y36.8237
G01 X6.5508 Y35.7057
G01 X6.8869 Y34.5970
G01 X7.2550 Y33.4986
G01 X7.6549 Y32.4113
G01 X8.0863 Y31.3361
G01 X8.5487 Y30.2739
G01 X9.0419 Y29.2256
G01 X9.5653 Y28.1921
G01 X10.1185 Y27.1743
G01 X10.7011 Y26.1730
G01 X11.3126 Y25.1890
G01 X11.9525 Y24.2232
G01 X12.6201 Y23.2765
G01 X13.3150 Y22.3495
G01 X14.0366 Y21.4432
G01 X14.7842 Y20.5582
G01 X15.5573 Y19.6954
G01 X16.3551 Y18.8554
M107
G00 Z-3.0000
M106 S240
G01 X17.2414 Y17.9740
G01 X18.1551 Y17.1211
G01 X19.0953 Y16.2974
G01 X20.0611 Y15.5040
G01 Z-4.0000 F400
G01 X20.9443 Y14.8188 F1000
G01 X21.8463 Y14.1589
G01 X22.7666 Y13.5245
G01 X23.7044 Y12.9164
G01 X24.6590 Y12.3348
G01 X25.6295 Y11.7804
G01 X26.6152 Y11.2535
G01 X27.6154 Y10.7546
G01 X28.6293 Y10.2840
G01 X29.6559 Y9.8421
G01 X30.6947 Y9.4293
G01 X31.7446 Y9.0460
G01 X32.8049 Y8.6923
G01 X33.8747 Y8.3686
G01 X34.9532 Y8.0752
G01 X36.0396 Y7.8122
G01 X37.1329 Y7.5799
G01 X38.2323 Y7.3785
G01 X39.3370 Y7.2081
G01 X40.4460 Y7.0689
G01 X41.5585 Y6.9610
G01 X42.6736 Y6.8844
G01 X43.7905 Y6.8392
G01 X44.9081 Y6.8255
G01 X254.7340
G01 X255.8763 Y6.8405
G01 X257.0178 Y6.8883
G01 X258.1575 Y6.9689
G01 X259.2943 Y7.0823
G01 X260.4274 Y7.2284
G01 X261.5559 Y7.4070
G01 X262.6787 Y7.6179
G01 X263.7950 Y7.8611
G01 X264.9038 Y8.1363
G01 X266.0043 Y8.4433
G01 X267.0955 Y8.7818
G01 X268.1765 Y9.1516
G01 X269.2464 Y9.5523
G01 X270.3043 Y9.9836
G01 X271.3494 Y10.4452
G01 X272.3808 Y10.9367
G01 X273.3976 Y11.4576
G01 X274.3990 Y12.0075
G01 X275.3842 Y12.5861
G01 X276.3523 Y13.1927
G01 X277.3026 Y13.8270
G01 X278.2342 Y14.4883
G01 X279.1464 Y15.1761
G01 X280.0385 Y15.8899
M107
G00 Z-3.0000
M106 S240
G01 X280.1448 Y15.9766
G01 X281.0692 Y16.7661
G01 X281.9692 Y17.5834
G01 X282.8439 Y18.4276
G01 X283.6925 Y19.2981
G01 Z-4.0000 F400
G01 X283.7956 Y19.4064 F1000
G01 X284.6420 Y20.3348
G01 X285.4587 Y21.2893
G01 X286.2450 Y22.2692
G01 X286.9999 Y23.2733
G01 X287.7228 Y24.3008
G01 X288.4129 Y25.3505
G01 X289.0696 Y26.4215
G01 X289.6922 Y27.5126
G01 X290.2801 Y28.6229
G01 X290.8327 Y29.7511
G01 X291.3495 Y30.8962
G01 X291.8299 Y32.0570
G01 X292.2734 Y33.2323
G01 X292.6797 Y34.4211
G01 X293.0483 Y35.6221
G01 X293.3789 Y36.8341
G01 X293.6710 Y38.0560
G01 X293.9245 Y39.2864
G01 X294.1391 Y40.5242
G01 X294.3145 Y41.7682
G01 X294.4507 Y43.0171
G01 X294.5474 Y44.2696
G01 X294.6045 Y45.5246
G01 X294.6221 Y46.7807
G01 Y172.8393
G01 X294.6046 Y174.0742
G01 X294.5488 Y175.3080
G01 X294.4548 Y176.5395
G01 X294.3227 Y177.7674
G01 X294.1525 Y178.9907
G01 X293.9446 Y180.2081
G01 X293.6989 Y181.4185
G01 X293.4159 Y182.6207
G01 X293.0957 Y183.8135
G01 X292.7387 Y184.9959
G01 X292.3452 Y186.1665
G01 X291.9156 Y187.3245
G01 X291.4503 Y188.4685
G01 X290.9498 Y189.5976
G01 X290.4145 Y190.7106
G01 X289.8450 Y191.8065
G01 X289.2417 Y192.8842
G01 X288.6053 Y193.9427
G01 X287.9365 Y194.9810
G01 X287.2357 Y195.9980
G01 X286.5038 Y196.9928
G01 X285.7413 Y197.9644
G01 X284.9491 Y198.9119
G01 X284.1279 Y199.8344
M107
G00 Z-3.0000
M106 S240
G01 X283.2695 Y200.7430
G01 X282.3829 Y201.6240
G01 X281.4689 Y202.4767
G01 X280.5285 Y203.3002
G01 Z-4.0000 F400
G01 X279.6266 Y204.0453 F1000
G01 X278.7031 Y204.7636
G01 X277.7589 Y205.4544
G01 X276.7947 Y206.1171
G01 X275.8115 Y206.7511
G01 X274.8100 Y207.3558
G01 X273.7911 Y207.9308
G01 X272.7557 Y208.4755
G01 X271.7047 Y208.9895
G01 X270.6390 Y209.4723
G01 X269.5596 Y209.9236
G01 X268.4674 Y210.3428
G01 X267.3633 Y210.7297
G01 X266.2482 Y211.0838
G01 X265.1232 Y211.4050
G01 X263.9893 Y211.6929
G01 X262.8473 Y211.9473
G01 X261.6984 Y212.1680
G01 X260.5435 Y212.3547
G01 X259.3835 Y212.5073
G01 X258.2196 Y212.6256
G01 X257.0527 Y212.7097
G01 X255.8838 Y212.7593
G01 X254.7140 Y212.7745
G01 X44.8881
G01 X43.8267 Y212.7617
G01 X42.7661 Y212.7206
G01 X41.7070 Y212.6512
G01 X40.6500 Y212.5534
G01 X39.5961 Y212.4275
G01 X38.5459 Y212.2734
G01 X37.5003 Y212.0912
G01 X36.4598 Y211.8812
G01 X35.4254 Y211.6434
G01 X34.3977 Y211.3780
G01 X33.3774 Y211.0852
G01 X32.3653 Y210.7653
G01 X31.3622 Y210.4184
G01 X30.3687 Y210.0448
G01 X29.3855 Y209.6447
G01 X28.4134 Y209.2186
G01 X27.4531 Y208.7665
G01 X26.5051 Y208.2890
G01 X25.5703 Y207.7862
G01 X24.6493 Y207.2587
G01 X23.7427 Y206.7067
G01 X22.8512 Y206.1307
G01 X21.9754 Y205.5310
G01 X21.1159 Y204.9081
M107
G00 Z-3.0000
M106 S240
G01 X20.1242 Y204.1473
G01 X19.1571 Y203.3554
G01 X18.2156 Y202.5332
G01 X17.3007 Y201.6815
M107
G00 Z-3.5000
G01 Z-6.0000 F400
M106 S240
G01 X16.4949 Y200.8884 F1000
G01 X15.7119 Y200.0727
G01 X14.9524 Y199.2351
G01 X14.2170 Y198.3763
G01 X13.5062 Y197.4970
G01 X12.8207 Y196.5979
G01 X12.1609 Y195.6797
G01 X11.5275 Y194.7431
G01 X10.9209 Y193.7889
G01 X10.3416 Y192.8179
G01 X9.7901 Y191.8309
G01 X9.2668 Y190.8286
G01 X8.7722 Y189.8119
G01 X8.3066 Y188.7815
G01 X7.8704 Y187.7383
G01 X7.4640 Y186.6832
G01 X7.0878 Y185.6170
G01 X6.7419 Y184.5406
G01 X6.4267 Y183.4547
G01 X6.1424 Y182.3604
G01 X5.8893 Y181.2584
G01 X5.6676 Y180.1497
G01 X5.4774 Y179.0351
G01 X5.3189 Y177.9156
G01 X5.1923 Y176.7921
G01 X5.0976 Y175.6654
G01 X5.0349 Y174.5364
G01 X5.0042 Y173.4062
G01 X5.0000 Y172.8193
G01 Y46.7608
G01 X5.0074 Y45.9883
G01 X5.0295 Y45.2161
G01 X5.0663 Y44.4444
G01 X5.1178 Y43.6736
G01 X5.2227 Y42.5199
G01 X5.3612 Y41.3697
G01 X5.5330 Y40.2240
G01 X5.7381 Y39.0838
G01 X5.9762 Y37.9501
G01 X6.2472 Y36.8237
G01 X6.5508 Y35.7057
G01 X6.8869 Y34.5970
G01 X7.2550 Y33.4986
G01 X7.6549 Y32.4113
G01 X8.0863 Y31.3361
G01 X8.5487 Y30.2739
G01 X9.0419 Y29.2256
G01 X9.5653 Y28.1921
G01 X10.1185 Y27.1743
G01 X10.7011 Y26.1730
G01 X11.3126 Y25.1890
G01 X11.9525 Y24.2232
G01 X12.6201 Y23.2765
G01 X13.3150 Y22.3495
G01 X14.0366 Y21.4432
G01 X14.7842 Y20.5582
G01 X15.5573 Y19.6954
G01 X16.3551 Y18.8554
M107
G00 Z-3.0000
M106 S240
G01 X17.2414 Y17.9740
G01 X18.1551 Y17.1211
G01 X19.0953 Y16.2974
G01 X20.0611 Y15.5040
M107
G00 Z-3.5000
G01 Z-6.0000 F400
M106 S240
G01 X20.9443 Y14.8188 F1000
G01 X21.8463 Y14.1589
G01 X22.7666 Y13.5245
G01 X23.7044 Y12.9164
G01 X24.6590 Y12.3348
G01 X25.6295 Y11.7804
G01 X26.6152 Y11.2535
G01 X27.6154 Y10.7546
G01 X28.6293 Y10.2840
G01 X29.6559 Y9.8421
G01 X30.6947 Y9.4293
G01 X31.7446 Y9.0460
G01 X32.8049 Y8.6923
G01 X33.8747 Y8.3686
G01 X34.9532 Y8.0752
G01 X36.0396 Y7.8122
G01 X37.1329 Y7.5799
G01 X38.2323 Y7.3785
G01 X39.3370 Y7.2081
G01 X40.4460 Y7.0689
G01 X41.5585 Y6.9610
G01 X42.6736 Y6.8844
G01 X43.7905 Y6.8392
G01 X44.9081 Y6.8255
G01 X254.7340
G01 X255.8763 Y6.8405
G01 X257.0178 Y6.8883
G01 X258.1575 Y6.9689
G01 X259.2943 Y7.0823
G01 X260.4274 Y7.2284
G01 X261.5559 Y7.4070
G01 X262.6787 Y7.6179
G01 X263.7950 Y7.8611
G01 X264.9038 Y8.1363
G01 X266.0043 Y8.4433
G01 X267.0955 Y8.7818
G01 X268.1765 Y9.1516
G01 X269.2464 Y9.5523
G01 X270.3043 Y9.9836
G01 X271.3494 Y10.4452
G01 X272.3808 Y10.9367
G01 X273.3976 Y11.4576
G01 X274.3990 Y12.0075
G01 X275.3842 Y12.5861
G01 X276.3523 Y13.1927
G01 X277.3026 Y13.8270
G01 X278.2342 Y14.4883
G01 X279.1464 Y15.1761
G01 X280.0385 Y15.8899
M107
G00 Z-3.0000
M106 S240
G01 X280.1448 Y15.9766
G01 X281.0692 Y16.7661
G01 X281.9692 Y17.5834
G01 X282.8439 Y18.4276
G01 X283.6925 Y19.2981
M107
G00 Z-3.5000
G01 Z-6.0000 F400
M106 S240
G01 X283.7956 Y19.4064 F1000
G01 X284.6420 Y20.3348
G01 X285.4587 Y21.2893
G01 X286.2450 Y22.2692
G01 X286.9999 Y23.2733
G01 X287.7228 Y24.3008
G01 X288.4129 Y25.3505
G01 X289.0696 Y26.4215
G01 X289.6922 Y27.5126
G01 X290.2801 Y28.6229
G01 X290.8327 Y29.7511
G01 X291.3495 Y30.8962
G01 X291.8299 Y32.0570
G01 X292.2734 Y33.2323
G01 X292.6797 Y34.4211
G01 X293.0483 Y35.6221
G01 X293.3789 Y36.8341
G01 X293.6710 Y38.0560
G01 X293.9245 Y39.2864
G01 X294.1391 Y40.5242
G01 X294.3145 Y41.7682
G01 X294.4507 Y43.0171
G01 X294.5474 Y44.2696
G01 X294.6045 Y45.5246
G01 X294.6221 Y46.7807
G01 Y172.8393
G01 X294.6046 Y174.0742
G01 X294.5488 Y175.3080
G01 X294.4548 Y176.5395
G01 X294.3227 Y177.7674
G01 X294.1525 Y178.9907
G01 X293.9446 Y180.2081
G01 X293.6989 Y181.4185
G01 X293.4159 Y182.6207
G01 X293.0957 Y183.8135
G01 X292.7387 Y184.9959
G01 X292.3452 Y186.1665
G01 X291.9156 Y187.3245
G01 X291.4503 Y188.4685
G01 X290.9498 Y189.5976
G01 X290.4145 Y190.7106
G01 X289.8450 Y191.8065
G01 X289.2417 Y192.8842
G01 X288.6053 Y193.9427
G01 X287.9365 Y194.9810
G01 X287.2357 Y195.9980
G01 X286.5038 Y196.9928
G01 X285.7413 Y197.9644
G01 X284.9491 Y198.9119
G01 X284.1279 Y199.8344
M107
G00 Z-3.0000
M106 S240
G01 X283.2695 Y200.7430
G01 X282.3829 Y201.6240
G01 X281.4689 Y202.4767
G01 X280.5285 Y203.3002
M107
G00 Z-3.5000
G01 Z-6.0000 F400
M106 S240
G01 X279.6266 Y204.0453 F1000
G01 X278.7031 Y204.7636
G01 X277.7589 Y205.4544
G01 X276.7947 Y206.1171
G01 X275.8115 Y206.7511
G01 X274.8100 Y207.3558
G01 X273.7911 Y207.9308
G01 X272.7557 Y208.4755
G01 X271.7047 Y208.9895
G01 X270.6390 Y209.4723
G01 X269.5596 Y209.9236
G01 X268.4674 Y210.3428
G01 X267.3633 Y210.7297
G01 X266.2482 Y211.0838
G01 X265.1232 Y211.4050
G01 X263.9893 Y211.6929
G01 X262.8473 Y211.9473
G01 X261.6984 Y212.1680
G01 X260.5435 Y212.3547
G01 X259.3835 Y212.5073
G01 X258.2196 Y212.6256
G01 X257.0527 Y212.7097
G01 X255.8838 Y212.7593
G01 X254.7140 Y212.7745
G01 X44.8881
G01 X43.8267 Y212.7617
G01 X42.7661 Y212.7206
G01 X41.7070 Y212.6512
G01 X40.6500 Y212.5534
G01 X39.5961 Y212.4275
G01 X38.5459 Y212.2734
G01 X37.5003 Y212.0912
G01 X36.4598 Y211.8812
G01 X35.4254 Y211.6434
G01 X34.3977 Y211.3780
G01 X33.3774 Y211.0852
G01 X32.3653 Y210.7653
G01 X31.3622 Y210.4184
G01 X30.3687 Y210.0448
G01 X29.3855 Y209.6447
G01 X28.4134 Y209.2186
G01 X27.4531 Y208.7665
G01 X26.5051 Y208.2890
G01 X25.5703 Y207.7862
G01 X24.6493 Y207.2587
G01 X23.7427 Y206.7067
G01 X22.8512 Y206.1307
G01 X21.9754 Y205.5310
G01 X21.1159 Y204.9081
M107
G00 Z-3.0000
M106 S240
G01 X20.1242 Y204.1473
G01 X19.1571 Y203.3554
G01 X18.2156 Y202.5332
G01 X17.3007 Y201.6815
M107
G00 Z2.0000
G00 X0.0000 Y0.0000
G00 Z0.0000

M05
