;Project ParkingHereMini
;Created by Estlcam version 11 build 11,113
;Machining time about 00:18:28 hours

G90
M03 S18000
G00 X0.0000 Y0.0000 Z0.0000
G00 Z2.0000


;No. 1: Helical drill 1
G00 X23.5667 Y187.4616
G00 Z0.5000
M106 S240
G01 X23.5655 Y187.4238 Z0.4771 F400 S18000
G01 X23.5618 Y187.3861 Z0.4542
G01 X23.5556 Y187.3488 Z0.4313
G01 X23.5470 Y187.3119 Z0.4083
G01 X23.5360 Y187.2757 Z0.3854
G01 X23.5227 Y187.2403 Z0.3625
G01 X23.5071 Y187.2058 Z0.3396
G01 X23.4892 Y187.1724 Z0.3167
G01 X23.4692 Y187.1403 Z0.2938
G01 X23.4472 Y187.1095 Z0.2708
G01 X23.4232 Y187.0803 Z0.2479
G01 X23.3973 Y187.0527 Z0.2250
G01 X23.3697 Y187.0268 Z0.2021
G01 X23.3404 Y187.0028 Z0.1792
G01 X23.3097 Y186.9807 Z0.1563
G01 X23.2775 Y186.9608 Z0.1333
G01 X23.2442 Y186.9429 Z0.1104
G01 X23.2097 Y186.9273 Z0.0875
G01 X23.1743 Y186.9140 Z0.0646
G01 X23.1380 Y186.9030 Z0.0417
G01 X23.1012 Y186.8944 Z0.0187
G01 X23.0639 Y186.8882 Z-0.0042
G01 X23.0262 Y186.8845 Z-0.0271
G01 X22.9884 Y186.8833 Z-0.0500
G01 X22.9505 Y186.8845 Z-0.0729
G01 X22.9129 Y186.8882 Z-0.0958
G01 X22.8755 Y186.8944 Z-0.1188
G01 X22.8387 Y186.9030 Z-0.1417
G01 X22.8025 Y186.9140 Z-0.1646
G01 X22.7670 Y186.9273 Z-0.1875
G01 X22.7326 Y186.9429 Z-0.2104
G01 X22.6992 Y186.9608 Z-0.2333
G01 X22.6671 Y186.9807 Z-0.2563
G01 X22.6363 Y187.0028 Z-0.2792
G01 X22.6070 Y187.0268 Z-0.3021
G01 X22.5794 Y187.0527 Z-0.3250
G01 X22.5535 Y187.0803 Z-0.3479
G01 X22.5295 Y187.1095 Z-0.3708
G01 X22.5075 Y187.1403 Z-0.3938
G01 X22.4875 Y187.1724 Z-0.4167
G01 X22.4697 Y187.2058 Z-0.4396
G01 X22.4541 Y187.2403 Z-0.4625
G01 X22.4407 Y187.2757 Z-0.4854
G01 X22.4297 Y187.3119 Z-0.5083
G01 X22.4211 Y187.3488 Z-0.5313
G01 X22.4150 Y187.3861 Z-0.5542
G01 X22.4113 Y187.4238 Z-0.5771
G01 X22.4100 Y187.4616 Z-0.6000
G01 X22.4113 Y187.4994 Z-0.6229
G01 X22.4150 Y187.5371 Z-0.6458
G01 X22.4211 Y187.5744 Z-0.6688
G01 X22.4297 Y187.6113 Z-0.6917
G01 X22.4407 Y187.6475 Z-0.7146
G01 X22.4541 Y187.6829 Z-0.7375
G01 X22.4697 Y187.7174 Z-0.7604
G01 X22.4875 Y187.7508 Z-0.7833
G01 X22.5075 Y187.7829 Z-0.8063
G01 X22.5295 Y187.8137 Z-0.8292
G01 X22.5535 Y187.8429 Z-0.8521
G01 X22.5794 Y187.8705 Z-0.8750
G01 X22.6070 Y187.8964 Z-0.8979
G01 X22.6363 Y187.9204 Z-0.9208
G01 X22.6671 Y187.9425 Z-0.9438
G01 X22.6992 Y187.9625 Z-0.9667
G01 X22.7326 Y187.9803 Z-0.9896
G01 X22.7670 Y187.9959 Z-1.0125
G01 X22.8025 Y188.0092 Z-1.0354
G01 X22.8387 Y188.0202 Z-1.0583
G01 X22.8755 Y188.0288 Z-1.0813
G01 X22.9129 Y188.0350 Z-1.1042
G01 X22.9505 Y188.0387 Z-1.1271
G01 X22.9884 Y188.0399 Z-1.1500
G01 X23.0262 Y188.0387 Z-1.1729
G01 X23.0639 Y188.0350 Z-1.1958
G01 X23.1012 Y188.0288 Z-1.2188
G01 X23.1380 Y188.0202 Z-1.2417
G01 X23.1743 Y188.0092 Z-1.2646
G01 X23.2097 Y187.9959 Z-1.2875
G01 X23.2442 Y187.9803 Z-1.3104
G01 X23.2775 Y187.9625 Z-1.3333
G01 X23.3097 Y187.9425 Z-1.3563
G01 X23.3404 Y187.9204 Z-1.3792
G01 X23.3697 Y187.8964 Z-1.4021
G01 X23.3973 Y187.8705 Z-1.4250
G01 X23.4232 Y187.8429 Z-1.4479
G01 X23.4472 Y187.8137 Z-1.4708
G01 X23.4692 Y187.7829 Z-1.4938
G01 X23.4892 Y187.7508 Z-1.5167
G01 X23.5071 Y187.7174 Z-1.5396
G01 X23.5227 Y187.6829 Z-1.5625
G01 X23.5360 Y187.6475 Z-1.5854
G01 X23.5470 Y187.6113 Z-1.6083
G01 X23.5556 Y187.5744 Z-1.6313
G01 X23.5618 Y187.5371 Z-1.6542
G01 X23.5655 Y187.4994 Z-1.6771
G01 X23.5667 Y187.4616 Z-1.7000
G01 X23.5655 Y187.4238 Z-1.7229
G01 X23.5618 Y187.3861 Z-1.7458
G01 X23.5556 Y187.3488 Z-1.7688
G01 X23.5470 Y187.3119 Z-1.7917
G01 X23.5360 Y187.2757 Z-1.8146
G01 X23.5227 Y187.2403 Z-1.8375
G01 X23.5071 Y187.2058 Z-1.8604
G01 X23.4892 Y187.1724 Z-1.8833
G01 X23.4692 Y187.1403 Z-1.9063
G01 X23.4472 Y187.1095 Z-1.9292
G01 X23.4232 Y187.0803 Z-1.9521
G01 X23.3973 Y187.0527 Z-1.9750
G01 X23.3697 Y187.0268 Z-1.9979
G01 X23.3404 Y187.0028 Z-2.0208
G01 X23.3097 Y186.9807 Z-2.0438
G01 X23.2775 Y186.9608 Z-2.0667
G01 X23.2442 Y186.9429 Z-2.0896
G01 X23.2097 Y186.9273 Z-2.1125
G01 X23.1743 Y186.9140 Z-2.1354
G01 X23.1380 Y186.9030 Z-2.1583
G01 X23.1012 Y186.8944 Z-2.1813
G01 X23.0639 Y186.8882 Z-2.2042
G01 X23.0262 Y186.8845 Z-2.2271
G01 X22.9884 Y186.8833 Z-2.2500
G01 X22.9505 Y186.8845 Z-2.2729
G01 X22.9129 Y186.8882 Z-2.2958
G01 X22.8755 Y186.8944 Z-2.3188
G01 X22.8387 Y186.9030 Z-2.3417
G01 X22.8025 Y186.9140 Z-2.3646
G01 X22.7670 Y186.9273 Z-2.3875
G01 X22.7326 Y186.9429 Z-2.4104
G01 X22.6992 Y186.9608 Z-2.4333
G01 X22.6671 Y186.9807 Z-2.4563
G01 X22.6363 Y187.0028 Z-2.4792
G01 X22.6070 Y187.0268 Z-2.5021
G01 X22.5794 Y187.0527 Z-2.5250
G01 X22.5535 Y187.0803 Z-2.5479
G01 X22.5295 Y187.1095 Z-2.5708
G01 X22.5075 Y187.1403 Z-2.5938
G01 X22.4875 Y187.1724 Z-2.6167
G01 X22.4697 Y187.2058 Z-2.6396
G01 X22.4541 Y187.2403 Z-2.6625
G01 X22.4407 Y187.2757 Z-2.6854
G01 X22.4297 Y187.3119 Z-2.7083
G01 X22.4211 Y187.3488 Z-2.7313
G01 X22.4150 Y187.3861 Z-2.7542
G01 X22.4113 Y187.4238 Z-2.7771
G01 X22.4100 Y187.4616 Z-2.8000
G01 X22.4113 Y187.4994 Z-2.8229
G01 X22.4150 Y187.5371 Z-2.8458
G01 X22.4211 Y187.5744 Z-2.8688
G01 X22.4297 Y187.6113 Z-2.8917
G01 X22.4407 Y187.6475 Z-2.9146
G01 X22.4541 Y187.6829 Z-2.9375
G01 X22.4697 Y187.7174 Z-2.9604
G01 X22.4875 Y187.7508 Z-2.9833
G01 X22.5075 Y187.7829 Z-3.0063
G01 X22.5295 Y187.8137 Z-3.0292
G01 X22.5535 Y187.8429 Z-3.0521
G01 X22.5794 Y187.8705 Z-3.0750
G01 X22.6070 Y187.8964 Z-3.0979
G01 X22.6363 Y187.9204 Z-3.1208
G01 X22.6671 Y187.9425 Z-3.1438
G01 X22.6992 Y187.9625 Z-3.1667
G01 X22.7326 Y187.9803 Z-3.1896
G01 X22.7670 Y187.9959 Z-3.2125
G01 X22.8025 Y188.0092 Z-3.2354
G01 X22.8387 Y188.0202 Z-3.2583
G01 X22.8755 Y188.0288 Z-3.2813
G01 X22.9129 Y188.0350 Z-3.3042
G01 X22.9505 Y188.0387 Z-3.3271
G01 X22.9884 Y188.0399 Z-3.3500
G01 X23.0262 Y188.0387 Z-3.3729
G01 X23.0639 Y188.0350 Z-3.3958
G01 X23.1012 Y188.0288 Z-3.4188
G01 X23.1380 Y188.0202 Z-3.4417
G01 X23.1743 Y188.0092 Z-3.4646
G01 X23.2097 Y187.9959 Z-3.4875
G01 X23.2442 Y187.9803 Z-3.5104
G01 X23.2775 Y187.9625 Z-3.5333
G01 X23.3097 Y187.9425 Z-3.5563
G01 X23.3404 Y187.9204 Z-3.5792
G01 X23.3697 Y187.8964 Z-3.6021
G01 X23.3973 Y187.8705 Z-3.6250
G01 X23.4232 Y187.8429 Z-3.6479
G01 X23.4472 Y187.8137 Z-3.6708
G01 X23.4692 Y187.7829 Z-3.6938
G01 X23.4892 Y187.7508 Z-3.7167
G01 X23.5071 Y187.7174 Z-3.7396
G01 X23.5227 Y187.6829 Z-3.7625
G01 X23.5360 Y187.6475 Z-3.7854
G01 X23.5470 Y187.6113 Z-3.8083
G01 X23.5556 Y187.5744 Z-3.8313
G01 X23.5618 Y187.5371 Z-3.8542
G01 X23.5655 Y187.4994 Z-3.8771
G01 X23.5667 Y187.4616 Z-3.9000
G01 X23.5655 Y187.4238 Z-3.9219
G01 X23.5618 Y187.3861 Z-3.9438
G01 X23.5556 Y187.3488 Z-3.9656
G01 X23.5470 Y187.3119 Z-3.9875
G01 X23.5360 Y187.2757 Z-4.0094
G01 X23.5227 Y187.2403 Z-4.0313
G01 X23.5071 Y187.2058 Z-4.0531
G01 X23.4892 Y187.1724 Z-4.0750
G01 X23.4692 Y187.1403 Z-4.0969
G01 X23.4472 Y187.1095 Z-4.1188
G01 X23.4232 Y187.0803 Z-4.1406
G01 X23.3973 Y187.0527 Z-4.1625
G01 X23.3697 Y187.0268 Z-4.1844
G01 X23.3404 Y187.0028 Z-4.2063
G01 X23.3097 Y186.9807 Z-4.2281
G01 X23.2775 Y186.9608 Z-4.2500
G01 X23.2442 Y186.9429 Z-4.2719
G01 X23.2097 Y186.9273 Z-4.2938
G01 X23.1743 Y186.9140 Z-4.3156
G01 X23.1380 Y186.9030 Z-4.3375
G01 X23.1012 Y186.8944 Z-4.3594
G01 X23.0639 Y186.8882 Z-4.3813
G01 X23.0262 Y186.8845 Z-4.4031
G01 X22.9884 Y186.8833 Z-4.4250
G01 X22.9505 Y186.8845 Z-4.4469
G01 X22.9129 Y186.8882 Z-4.4688
G01 X22.8755 Y186.8944 Z-4.4906
G01 X22.8387 Y186.9030 Z-4.5125
G01 X22.8025 Y186.9140 Z-4.5344
G01 X22.7670 Y186.9273 Z-4.5563
G01 X22.7326 Y186.9429 Z-4.5781
G01 X22.6992 Y186.9608 Z-4.6000
G01 X22.6671 Y186.9807 Z-4.6219
G01 X22.6363 Y187.0028 Z-4.6438
G01 X22.6070 Y187.0268 Z-4.6656
G01 X22.5794 Y187.0527 Z-4.6875
G01 X22.5535 Y187.0803 Z-4.7094
G01 X22.5295 Y187.1095 Z-4.7313
G01 X22.5075 Y187.1403 Z-4.7531
G01 X22.4875 Y187.1724 Z-4.7750
G01 X22.4697 Y187.2058 Z-4.7969
G01 X22.4541 Y187.2403 Z-4.8188
G01 X22.4407 Y187.2757 Z-4.8406
G01 X22.4297 Y187.3119 Z-4.8625
G01 X22.4211 Y187.3488 Z-4.8844
G01 X22.4150 Y187.3861 Z-4.9063
G01 X22.4113 Y187.4238 Z-4.9281
G01 X22.4100 Y187.4616 Z-4.9500
G01 X22.4113 Y187.4994 Z-4.9719
G01 X22.4150 Y187.5371 Z-4.9938
G01 X22.4211 Y187.5744 Z-5.0156
G01 X22.4297 Y187.6113 Z-5.0375
G01 X22.4407 Y187.6475 Z-5.0594
G01 X22.4541 Y187.6829 Z-5.0813
G01 X22.4697 Y187.7174 Z-5.1031
G01 X22.4875 Y187.7508 Z-5.1250
G01 X22.5075 Y187.7829 Z-5.1469
G01 X22.5295 Y187.8137 Z-5.1688
G01 X22.5535 Y187.8429 Z-5.1906
G01 X22.5794 Y187.8705 Z-5.2125
G01 X22.6070 Y187.8964 Z-5.2344
G01 X22.6363 Y187.9204 Z-5.2563
G01 X22.6671 Y187.9425 Z-5.2781
G01 X22.6992 Y187.9625 Z-5.3000
G01 X22.7326 Y187.9803 Z-5.3219
G01 X22.7670 Y187.9959 Z-5.3438
G01 X22.8025 Y188.0092 Z-5.3656
G01 X22.8387 Y188.0202 Z-5.3875
G01 X22.8755 Y188.0288 Z-5.4094
G01 X22.9129 Y188.0350 Z-5.4313
G01 X22.9505 Y188.0387 Z-5.4531
G01 X22.9884 Y188.0399 Z-5.4750
G01 X23.0262 Y188.0387 Z-5.4969
G01 X23.0639 Y188.0350 Z-5.5188
G01 X23.1012 Y188.0288 Z-5.5406
G01 X23.1380 Y188.0202 Z-5.5625
G01 X23.1743 Y188.0092 Z-5.5844
G01 X23.2097 Y187.9959 Z-5.6063
G01 X23.2442 Y187.9803 Z-5.6281
G01 X23.2775 Y187.9625 Z-5.6500
G01 X23.3097 Y187.9425 Z-5.6719
G01 X23.3404 Y187.9204 Z-5.6938
G01 X23.3697 Y187.8964 Z-5.7156
G01 X23.3973 Y187.8705 Z-5.7375
G01 X23.4232 Y187.8429 Z-5.7594
G01 X23.4472 Y187.8137 Z-5.7813
G01 X23.4692 Y187.7829 Z-5.8031
G01 X23.4892 Y187.7508 Z-5.8250
G01 X23.5071 Y187.7174 Z-5.8469
G01 X23.5227 Y187.6829 Z-5.8688
G01 X23.5360 Y187.6475 Z-5.8906
G01 X23.5470 Y187.6113 Z-5.9125
G01 X23.5556 Y187.5744 Z-5.9344
G01 X23.5618 Y187.5371 Z-5.9563
G01 X23.5655 Y187.4994 Z-5.9781
G01 X23.5667 Y187.4616 Z-6.0000
G01 X23.5655 Y187.4238
G01 X23.5618 Y187.3861
G01 X23.5556 Y187.3488
G01 X23.5470 Y187.3119
G01 X23.5360 Y187.2757
G01 X23.5227 Y187.2403
G01 X23.5071 Y187.2058
G01 X23.4892 Y187.1724
G01 X23.4692 Y187.1403
G01 X23.4472 Y187.1095
G01 X23.4232 Y187.0803
G01 X23.3973 Y187.0527
G01 X23.3697 Y187.0268
G01 X23.3404 Y187.0028
G01 X23.3097 Y186.9807
G01 X23.2775 Y186.9608
G01 X23.2442 Y186.9429
G01 X23.2097 Y186.9273
G01 X23.1743 Y186.9140
G01 X23.1380 Y186.9030
G01 X23.1012 Y186.8944
G01 X23.0639 Y186.8882
G01 X23.0262 Y186.8845
G01 X22.9884 Y186.8833
G01 X22.9505 Y186.8845
G01 X22.9129 Y186.8882
G01 X22.8755 Y186.8944
G01 X22.8387 Y186.9030
G01 X22.8025 Y186.9140
G01 X22.7670 Y186.9273
G01 X22.7326 Y186.9429
G01 X22.6992 Y186.9608
G01 X22.6671 Y186.9807
G01 X22.6363 Y187.0028
G01 X22.6070 Y187.0268
G01 X22.5794 Y187.0527
G01 X22.5535 Y187.0803
G01 X22.5295 Y187.1095
G01 X22.5075 Y187.1403
G01 X22.4875 Y187.1724
G01 X22.4697 Y187.2058
G01 X22.4541 Y187.2403
G01 X22.4407 Y187.2757
G01 X22.4297 Y187.3119
G01 X22.4211 Y187.3488
G01 X22.4150 Y187.3861
G01 X22.4113 Y187.4238
G01 X22.4100 Y187.4616
G01 X22.4113 Y187.4994
G01 X22.4150 Y187.5371
G01 X22.4211 Y187.5744
G01 X22.4297 Y187.6113
G01 X22.4407 Y187.6475
G01 X22.4541 Y187.6829
G01 X22.4697 Y187.7174
G01 X22.4875 Y187.7508
G01 X22.5075 Y187.7829
G01 X22.5295 Y187.8137
G01 X22.5535 Y187.8429
G01 X22.5794 Y187.8705
G01 X22.6070 Y187.8964
G01 X22.6363 Y187.9204
G01 X22.6671 Y187.9425
G01 X22.6992 Y187.9625
G01 X22.7326 Y187.9803
G01 X22.7670 Y187.9959
G01 X22.8025 Y188.0092
G01 X22.8387 Y188.0202
G01 X22.8755 Y188.0288
G01 X22.9129 Y188.0350
G01 X22.9505 Y188.0387
G01 X22.9884 Y188.0399
G01 X23.0262 Y188.0387
G01 X23.0639 Y188.0350
G01 X23.1012 Y188.0288
G01 X23.1380 Y188.0202
G01 X23.1743 Y188.0092
G01 X23.2097 Y187.9959
G01 X23.2442 Y187.9803
G01 X23.2775 Y187.9625
G01 X23.3097 Y187.9425
G01 X23.3404 Y187.9204
G01 X23.3697 Y187.8964
G01 X23.3973 Y187.8705
G01 X23.4232 Y187.8429
G01 X23.4472 Y187.8137
G01 X23.4692 Y187.7829
G01 X23.4892 Y187.7508
G01 X23.5071 Y187.7174
G01 X23.5227 Y187.6829
G01 X23.5360 Y187.6475
G01 X23.5470 Y187.6113
G01 X23.5556 Y187.5744
G01 X23.5618 Y187.5371
G01 X23.5655 Y187.4994
G01 X23.5667 Y187.4616
M107
M106 S240
G01 X23.5658 Y187.4389 Z-5.9875
M107
M106 S240
G01 X23.5631 Y187.4164 Z-5.9750
M107
M106 S240
G01 X23.5587 Y187.3941 Z-5.9625
M107
M106 S240
G01 X23.5525 Y187.3722 Z-5.9500
M107
M106 S240
G01 X23.5447 Y187.3509 Z-5.9375
M107
M106 S240
G01 X23.5352 Y187.3303 Z-5.9250
M107
M106 S240
G01 X23.5241 Y187.3105 Z-5.9125
M107
M106 S240
G01 X23.5115 Y187.2916 Z-5.9000
M107
M106 S240
G01 X23.4974 Y187.2738 Z-5.8875
M107
M106 S240
G01 X23.4820 Y187.2571 Z-5.8750
M107
M106 S240
G01 X23.4653 Y187.2417 Z-5.8625
M107
M106 S240
G01 X23.4475 Y187.2277 Z-5.8500
M107
M106 S240
G01 X23.4286 Y187.2150 Z-5.8375
M107
M106 S240
G01 X23.4088 Y187.2040 Z-5.8250
M107
M106 S240
G01 X23.3882 Y187.1944 Z-5.8125
M107
M106 S240
G01 X23.3669 Y187.1866 Z-5.8000
M107
M106 S240
G01 X23.3450 Y187.1804 Z-5.7875
M107
M106 S240
G01 X23.3228 Y187.1760 Z-5.7750
M107
M106 S240
G01 X23.3002 Y187.1733 Z-5.7625
M107
M106 S240
G01 X23.2775 Y187.1724 Z-5.7500
M107
M106 S240
G01 X23.2548 Y187.1733 Z-5.7375
M107
M106 S240
G01 X23.2323 Y187.1760 Z-5.7250
M107
M106 S240
G01 X23.2100 Y187.1804 Z-5.7125
M107
M106 S240
G01 X23.1882 Y187.1866 Z-5.7000
M107
M106 S240
G01 X23.1669 Y187.1944 Z-5.6875
M107
M106 S240
G01 X23.1463 Y187.2040 Z-5.6750
M107
M106 S240
G01 X23.1264 Y187.2150 Z-5.6625
M107
M106 S240
G01 X23.1076 Y187.2277 Z-5.6500
M107
M106 S240
G01 X23.0897 Y187.2417 Z-5.6375
M107
M106 S240
G01 X23.0731 Y187.2571 Z-5.6250
M107
M106 S240
G01 X23.0576 Y187.2738 Z-5.6125
M107
M106 S240
G01 X23.0436 Y187.2916 Z-5.6000
M107
M106 S240
G01 X23.0310 Y187.3105 Z-5.5875
M107
M106 S240
G01 X23.0199 Y187.3303 Z-5.5750
M107
M106 S240
G01 X23.0104 Y187.3509 Z-5.5625
M107
M106 S240
G01 X23.0025 Y187.3722 Z-5.5500
M107
M106 S240
G01 X22.9964 Y187.3941 Z-5.5375
M107
M106 S240
G01 X22.9919 Y187.4164 Z-5.5250
M107
M106 S240
G01 X22.9893 Y187.4389 Z-5.5125
M107
M106 S240
G01 X22.9884 Y187.4616 Z-5.5000
M107
G00 Z2.0000


;No. 2: Hole 3


;No. 3: Hole 3
G00 X32.0976 Y166.3303 Z2.0000
G00 Z0.5000
G01 Z-1.8000 F400
M106 S240
G01 X31.6998 Y166.3373 F1000
G01 X31.6346 Y176.4141
G01 X31.6256 Y176.5168
G01 X31.6071 Y176.6182
G01 X31.5791 Y176.7174
G01 X31.5419 Y176.8136
G01 X31.4959 Y176.9059
G01 X31.4415 Y176.9934
G01 X31.3792 Y177.0755
G01 X31.3094 Y177.1514
G01 X31.2328 Y177.2204
G01 X31.1501 Y177.2819
G01 X31.0620 Y177.3354
G01 X30.9693 Y177.3805
G01 X30.8727 Y177.4166
G01 X30.7732 Y177.4436
G01 X30.6716 Y177.4611
G01 X30.5689 Y177.4691
G01 X28.2937 Y177.5381
G01 X26.3919 Y177.5977
G01 X26.0420 Y177.8496
G01 X25.9764 Y177.8921
G01 X25.9139 Y177.9392
G01 X25.8549 Y177.9905
G01 X25.7997 Y178.0459
G01 X28.8657 Y178.0764
G01 X31.9319 Y178.0842
G01 X34.9981 Y178.0693
G01 X38.0640 Y178.0316
G01 X37.9941 Y177.9658
G01 X37.9230 Y177.9015
G01 X37.8506 Y177.8384
G01 X37.7771 Y177.7768
G01 X37.7493 Y177.7542
G01 X37.7205 Y177.7330
G01 X37.6909 Y177.7130
G01 X37.6603 Y177.6943
G01 X37.6450 Y177.6860
G01 X37.3924 Y177.6281
G01 X37.1361 Y177.5893
G01 X36.8776 Y177.5699
G01 X36.6184 Y177.5701
G01 X36.1288 Y177.5537
G01 X33.2569 Y177.4697
G01 X33.1716 Y177.4655
G01 X33.0869 Y177.4546
G01 X33.0033 Y177.4371
G01 X32.9213 Y177.4133
G01 X32.8414 Y177.3831
G01 X32.7640 Y177.3469
G01 X32.6897 Y177.3047
G01 X32.6189 Y177.2569
G01 X32.5521 Y177.2038
G01 X32.4895 Y177.1457
G01 X32.4316 Y177.0828
G01 X32.3788 Y177.0157
G01 X32.3314 Y176.9447
G01 X32.2896 Y176.8702
G01 X32.2537 Y176.7927
G01 X32.2240 Y176.7126
G01 X32.2005 Y176.6305
G01 X32.1835 Y176.5468
G01 X32.1730 Y176.4620
G01 X32.1691 Y176.3767
G01 X32.1332 Y170.7870
G01 X32.0976 Y166.3303
M107
G00 Z2.0000


;No. 4: Hole 4
G00 X48.0972 Y176.9114 Z2.0000
G00 Z0.5000
G01 Z-1.8000 F400
M106 S240
G01 X59.5336 F1000
G01 X60.9502 Y178.5614
G01 X46.4071
M107
G00 Z2.0000
G00 X48.4613
G00 Z0.5000
G01 Z-1.8000 F400
M106 S240
G01 Y177.9114 F1000
G01 X51.1131 Y177.9295
G01 X53.7649 Y177.9394
G01 X56.4167 Y177.9408
G01 X59.0686 Y177.9339
G01 X59.0218 Y177.8977
G01 X58.8862 Y177.8009
G01 X58.4916 Y177.5379
G01 X49.0049 Y177.5403
G01 X48.5797 Y177.8265
G01 X48.4693 Y177.9037
G01 X48.4613 Y177.9114
G01 Y178.5614
M107
G00 Z2.0000


;No. 5: Hole 5


;No. 6: Hole 5
G00 X48.9359 Y172.1858 Z2.0000
G00 Z0.5000
G01 Z-1.8000 F400
M106 S240
G01 X48.7314 Y172.3008 F1000
G01 X48.5352 Y172.4293
G01 X48.3482 Y172.5708
G01 X48.1711 Y172.7246
G01 X50.9322 Y172.7464
G01 X53.6934 Y172.7497
G01 X56.4546 Y172.7347
G01 X59.2156 Y172.7014
G01 X59.0278 Y172.5198
G01 X58.8263 Y172.3535
G01 X58.6124 Y172.2037
G01 X58.3873 Y172.0711
G01 X52.8811 Y172.0778
G01 X51.9568 Y172.0696
G01 X51.0325 Y172.0790
G01 X50.1085 Y172.1059
G01 X49.1853 Y172.1503
G01 X49.0348 Y172.1678
G01 X48.9792 Y172.1767
G01 X48.9359 Y172.1858
M107
G00 Z2.0000


;No. 7: Hole 6


;No. 8: Hole 6
G00 X49.0885 Y166.5643 Z2.0000
G00 Z0.5000
G01 Z-1.8000 F400
M106 S240
G01 X49.0695 Y166.5688 F1000
G01 X49.0506 Y166.5739
G01 X49.0319 Y166.5796
G01 X49.0133 Y166.5859
G01 X48.9950 Y166.5929
G01 X48.9770 Y166.6004
G01 X48.9592 Y166.6086
G01 X48.9416 Y166.6173
G01 X48.8658 Y166.6536
G01 X48.7910 Y166.6923
G01 X48.7175 Y166.7332
G01 X48.6453 Y166.7762
G01 X48.5743 Y166.8215
G01 X48.5048 Y166.8689
G01 X48.4368 Y166.9184
G01 X48.3702 Y166.9699
G01 X51.0510 Y166.9936
G01 X53.7319 Y167.0021
G01 X56.4127 Y166.9952
G01 X59.0935 Y166.9729
G01 X58.8739 Y166.8106
G01 X58.7789 Y166.7445
G01 X58.6787 Y166.6867
G01 X58.5740 Y166.6375
G01 X58.4656 Y166.5973
G01 X58.3541 Y166.5663
G01 X58.2404 Y166.5449
G01 X58.1254 Y166.5331
G01 X58.0097 Y166.5310
G01 X57.2615 Y166.4923
G01 X56.5128 Y166.4687
G01 X55.7637 Y166.4604
G01 X55.0145 Y166.4672
G01 X54.0490 Y166.4653
G01 X53.0834 Y166.4656
G01 X52.1178 Y166.4683
G01 X51.1522 Y166.4733
G01 X50.6484 Y166.4659
G01 X50.1447 Y166.4769
G01 X49.6418 Y166.5063
G01 X49.1402 Y166.5541
G01 X49.0885 Y166.5643
M107
G00 Z2.0000


;No. 9: Hole 7


;No. 10: Hole 7
G00 X70.3043 Y166.3641 Z2.0000
G00 Z0.5000
G01 Z-1.8000 F400
M106 S240
G01 X70.2927 Y166.3674 F1000
G01 X70.5144 Y166.5587
G01 X70.5665 Y166.6027
G01 X70.6200 Y166.6449
G01 X70.6749 Y166.6854
G01 X70.7310 Y166.7241
G01 X70.8265 Y166.7745
G01 X70.9253 Y166.8184
G01 X71.0268 Y166.8555
G01 X71.1305 Y166.8857
G01 X71.2361 Y166.9088
G01 X71.3430 Y166.9248
G01 X71.4507 Y166.9336
G01 X71.5587 Y166.9352
G01 X72.3327 Y166.9726
G01 X73.1072 Y166.9959
G01 X73.8821 Y167.0052
G01 X74.6569 Y167.0004
G01 X79.9248 Y167.0006
G01 X80.0121 Y167.0025
G01 X80.0991 Y167.0113
G01 X80.1850 Y167.0270
G01 X80.2694 Y167.0495
G01 X80.3518 Y167.0786
G01 X80.4316 Y167.1141
G01 X80.5084 Y167.1559
G01 X80.5816 Y167.2036
G01 X80.6507 Y167.2570
G01 X80.7155 Y167.3157
G01 X80.7753 Y167.3793
G01 X80.8299 Y167.4475
G01 X80.8790 Y167.5198
G01 X80.9221 Y167.5958
G01 X80.9591 Y167.6750
G01 X80.9897 Y167.7568
G01 X81.0137 Y167.8408
G01 X81.0309 Y167.9265
G01 X81.0413 Y168.0132
G01 X81.0448 Y168.1006
G01 Y170.9508
G01 X81.0429 Y171.0382
G01 X81.0340 Y171.1251
G01 X81.0183 Y171.2110
G01 X80.9959 Y171.2955
G01 X80.9668 Y171.3778
G01 X80.9312 Y171.4577
G01 X80.8895 Y171.5344
G01 X80.8417 Y171.6076
G01 X80.7884 Y171.6768
G01 X80.7297 Y171.7415
G01 X80.6660 Y171.8013
G01 X80.5978 Y171.8560
G01 X80.5255 Y171.9050
G01 X80.4495 Y171.9481
G01 X80.3703 Y171.9851
G01 X80.2885 Y172.0157
G01 X80.2045 Y172.0397
G01 X80.1188 Y172.0569
G01 X80.0321 Y172.0673
G01 X79.9448 Y172.0708
G01 X69.5638
G01 Y178.0715
G01 X75.4343
G01 X76.6922 Y178.0709
G01 X77.9501 Y178.0681
G01 X79.2079 Y178.0629
G01 X80.4658 Y178.0554
G01 X80.4627 Y178.0427
G01 X80.3087 Y177.9073
G01 X80.1496 Y177.7779
G01 X79.9857 Y177.6547
G01 X79.8171 Y177.5380
G01 X70.9440
G01 X70.8566 Y177.5360
G01 X70.7697 Y177.5272
G01 X70.6838 Y177.5115
G01 X70.5993 Y177.4890
G01 X70.5169 Y177.4599
G01 X70.4371 Y177.4244
G01 X70.3604 Y177.3826
G01 X70.2872 Y177.3349
G01 X70.2180 Y177.2815
G01 X70.1533 Y177.2228
G01 X70.0935 Y177.1592
G01 X70.0388 Y177.0910
G01 X69.9898 Y177.0187
G01 X69.9467 Y176.9427
G01 X69.9097 Y176.8635
G01 X69.8791 Y176.7817
G01 X69.8551 Y176.6977
G01 X69.8379 Y176.6120
G01 X69.8275 Y176.5253
G01 X69.8240 Y176.4380
G01 Y173.7244
G01 X69.8268 Y173.6266
G01 X69.8389 Y173.5242
G01 X69.8605 Y173.4234
G01 X69.8915 Y173.3251
G01 X69.9315 Y173.2301
G01 X69.9803 Y173.1393
G01 X70.0373 Y173.0534
G01 X70.1021 Y172.9733
G01 X70.1742 Y172.8995
G01 X70.2528 Y172.8329
G01 X70.3374 Y172.7739
G01 X70.4270 Y172.7230
G01 X70.5211 Y172.6808
G01 X70.6187 Y172.6476
G01 X70.7190 Y172.6237
G01 X70.8210 Y172.6092
G01 X70.9240 Y172.6044
G01 X81.4417
G01 Y166.3303
G01 X75.3030
G01 X74.0533 Y166.3299
G01 X72.8036 Y166.3354
G01 X71.5539 Y166.3468
G01 X70.3043 Y166.3641
M107
G00 Z2.0000


;No. 11: Hole 8


;No. 12: Hole 8
G00 X100.8071 Y166.4669 Z2.0000
G00 Z0.5000
G01 Z-1.8000 F400
M106 S240
G01 X90.8856 F1000
G01 Y178.0715
G01 X91.1458
G01 Y168.1205
G01 X91.1486 Y168.0227
G01 X91.1607 Y167.9203
G01 X91.1823 Y167.8195
G01 X91.2133 Y167.7212
G01 X91.2533 Y167.6262
G01 X91.3021 Y167.5354
G01 X91.3591 Y167.4495
G01 X91.4240 Y167.3694
G01 X91.4960 Y167.2957
G01 X91.5747 Y167.2290
G01 X91.6592 Y167.1700
G01 X91.7489 Y167.1192
G01 X91.8429 Y167.0770
G01 X91.9405 Y167.0437
G01 X92.0408 Y167.0198
G01 X92.1428 Y167.0054
G01 X92.2458 Y167.0005
G01 X101.4977
G01 X101.4881 Y166.9886
G01 X101.4535 Y166.9546
G01 X101.4183 Y166.9212
G01 X101.3825 Y166.8885
G01 X101.3461 Y166.8565
G01 X101.2485 Y166.7762
G01 X101.1189 Y166.6815
G01 X100.8071 Y166.4669
M107
G00 Z2.0000


;No. 13: Hole 10


;No. 14: Hole 10
G00 X112.0579 Y166.4670 Z2.0000
G00 Z0.5000
G01 Z-1.8000 F400
M106 S240
G01 X111.7976 F1000
G01 X111.7974 Y172.7380
G01 X123.6163 Y172.6782
G01 X123.6699 Y166.4669
G01 X123.4153
G01 Y170.9508
G01 X123.4134 Y171.0381
G01 X123.4046 Y171.1250
G01 X123.3889 Y171.2110
G01 X123.3664 Y171.2954
G01 X123.3373 Y171.3778
G01 X123.3017 Y171.4576
G01 X123.2600 Y171.5344
G01 X123.2123 Y171.6076
G01 X123.1589 Y171.6767
G01 X123.1002 Y171.7414
G01 X123.0365 Y171.8013
G01 X122.9683 Y171.8559
G01 X122.8960 Y171.9050
G01 X122.8200 Y171.9481
G01 X122.7409 Y171.9851
G01 X122.6590 Y172.0157
G01 X122.5750 Y172.0396
G01 X122.4894 Y172.0569
G01 X122.4026 Y172.0673
G01 X122.3153 Y172.0708
G01 X113.1779
G01 X113.0905 Y172.0689
G01 X113.0036 Y172.0600
G01 X112.9176 Y172.0443
G01 X112.8332 Y172.0219
G01 X112.7508 Y171.9928
G01 X112.6710 Y171.9572
G01 X112.5942 Y171.9154
G01 X112.5211 Y171.8677
G01 X112.4519 Y171.8143
G01 X112.3872 Y171.7556
G01 X112.3273 Y171.6920
G01 X112.2727 Y171.6238
G01 X112.2237 Y171.5515
G01 X112.1805 Y171.4755
G01 X112.1435 Y171.3963
G01 X112.1130 Y171.3145
G01 X112.0890 Y171.2305
G01 X112.0717 Y171.1448
G01 X112.0613 Y171.0581
G01 X112.0579 Y170.9708
G01 Y166.4670
M107
G00 Z2.0000


;No. 15: Hole 9
G00 X110.9409 Y177.7366 Z2.0000
G00 Z0.5000
G01 Z-1.8000 F400
M106 S240
G01 X124.4520 F1000
M107
G00 Z2.0000
G00 X123.0468
G00 Z0.5000
G01 Z-1.8000 F400
M106 S240
G01 Y177.9021 F1000
G01 X122.9974 Y177.8573
G01 X122.9458 Y177.8151
G01 X122.8920 Y177.7757
G01 X122.8362 Y177.7392
G01 X122.7786 Y177.7056
G01 X122.7193 Y177.6751
G01 X122.6585 Y177.6478
G01 X122.5963 Y177.6237
G01 X122.5466 Y177.6154
G01 X122.4968 Y177.6083
G01 X122.4468 Y177.6023
G01 X122.3967 Y177.5973
G01 X121.7256 Y177.5666
G01 X121.0541 Y177.5469
G01 X120.3823 Y177.5382
G01 X119.7105 Y177.5404
G01 X117.6661 Y177.5384
G01 X112.8713 Y177.5407
G01 X112.3796 Y177.8731
G01 X112.3395 Y177.9113
G01 X115.0163 Y177.9351
G01 X117.6932 Y177.9415
G01 X120.3700 Y177.9305
G01 X123.0468 Y177.9021
G01 Y177.7366
M107
G00 Z2.0000


;No. 16: Helical drill 2
G00 X127.6227 Y187.4616 Z2.0000
G00 Z0.5000
M106 S240
G01 X127.6215 Y187.4238 Z0.4771 F400
G01 X127.6178 Y187.3861 Z0.4542
G01 X127.6116 Y187.3488 Z0.4313
G01 X127.6030 Y187.3119 Z0.4083
G01 X127.5920 Y187.2757 Z0.3854
G01 X127.5787 Y187.2403 Z0.3625
G01 X127.5631 Y187.2058 Z0.3396
G01 X127.5452 Y187.1724 Z0.3167
G01 X127.5253 Y187.1403 Z0.2938
G01 X127.5032 Y187.1095 Z0.2708
G01 X127.4792 Y187.0803 Z0.2479
G01 X127.4533 Y187.0526 Z0.2250
G01 X127.4257 Y187.0268 Z0.2021
G01 X127.3965 Y187.0028 Z0.1792
G01 X127.3657 Y186.9807 Z0.1563
G01 X127.3336 Y186.9607 Z0.1333
G01 X127.3002 Y186.9429 Z0.1104
G01 X127.2657 Y186.9273 Z0.0875
G01 X127.2303 Y186.9139 Z0.0646
G01 X127.1941 Y186.9029 Z0.0417
G01 X127.1572 Y186.8944 Z0.0187
G01 X127.1199 Y186.8882 Z-0.0042
G01 X127.0822 Y186.8845 Z-0.0271
G01 X127.0444 Y186.8832 Z-0.0500
G01 X127.0066 Y186.8845 Z-0.0729
G01 X126.9689 Y186.8882 Z-0.0958
G01 X126.9316 Y186.8944 Z-0.1188
G01 X126.8947 Y186.9029 Z-0.1417
G01 X126.8585 Y186.9139 Z-0.1646
G01 X126.8231 Y186.9273 Z-0.1875
G01 X126.7886 Y186.9429 Z-0.2104
G01 X126.7552 Y186.9607 Z-0.2333
G01 X126.7231 Y186.9807 Z-0.2563
G01 X126.6923 Y187.0028 Z-0.2792
G01 X126.6631 Y187.0268 Z-0.3021
G01 X126.6354 Y187.0526 Z-0.3250
G01 X126.6096 Y187.0803 Z-0.3479
G01 X126.5856 Y187.1095 Z-0.3708
G01 X126.5635 Y187.1403 Z-0.3938
G01 X126.5435 Y187.1724 Z-0.4167
G01 X126.5257 Y187.2058 Z-0.4396
G01 X126.5101 Y187.2403 Z-0.4625
G01 X126.4967 Y187.2757 Z-0.4854
G01 X126.4858 Y187.3119 Z-0.5083
G01 X126.4772 Y187.3488 Z-0.5313
G01 X126.4710 Y187.3861 Z-0.5542
G01 X126.4673 Y187.4238 Z-0.5771
G01 X126.4660 Y187.4616 Z-0.6000
G01 X126.4673 Y187.4994 Z-0.6229
G01 X126.4710 Y187.5371 Z-0.6458
G01 X126.4772 Y187.5744 Z-0.6688
G01 X126.4858 Y187.6113 Z-0.6917
G01 X126.4967 Y187.6475 Z-0.7146
G01 X126.5101 Y187.6829 Z-0.7375
G01 X126.5257 Y187.7174 Z-0.7604
G01 X126.5435 Y187.7508 Z-0.7833
G01 X126.5635 Y187.7829 Z-0.8063
G01 X126.5856 Y187.8137 Z-0.8292
G01 X126.6096 Y187.8429 Z-0.8521
G01 X126.6354 Y187.8705 Z-0.8750
G01 X126.6631 Y187.8964 Z-0.8979
G01 X126.6923 Y187.9204 Z-0.9208
G01 X126.7231 Y187.9425 Z-0.9438
G01 X126.7552 Y187.9624 Z-0.9667
G01 X126.7886 Y187.9803 Z-0.9896
G01 X126.8231 Y187.9959 Z-1.0125
G01 X126.8585 Y188.0092 Z-1.0354
G01 X126.8947 Y188.0202 Z-1.0583
G01 X126.9316 Y188.0288 Z-1.0813
G01 X126.9689 Y188.0350 Z-1.1042
G01 X127.0066 Y188.0387 Z-1.1271
G01 X127.0444 Y188.0399 Z-1.1500
G01 X127.0822 Y188.0387 Z-1.1729
G01 X127.1199 Y188.0350 Z-1.1958
G01 X127.1572 Y188.0288 Z-1.2188
G01 X127.1941 Y188.0202 Z-1.2417
G01 X127.2303 Y188.0092 Z-1.2646
G01 X127.2657 Y187.9959 Z-1.2875
G01 X127.3002 Y187.9803 Z-1.3104
G01 X127.3336 Y187.9624 Z-1.3333
G01 X127.3657 Y187.9425 Z-1.3563
G01 X127.3965 Y187.9204 Z-1.3792
G01 X127.4257 Y187.8964 Z-1.4021
G01 X127.4533 Y187.8705 Z-1.4250
G01 X127.4792 Y187.8429 Z-1.4479
G01 X127.5032 Y187.8137 Z-1.4708
G01 X127.5253 Y187.7829 Z-1.4938
G01 X127.5452 Y187.7508 Z-1.5167
G01 X127.5631 Y187.7174 Z-1.5396
G01 X127.5787 Y187.6829 Z-1.5625
G01 X127.5920 Y187.6475 Z-1.5854
G01 X127.6030 Y187.6113 Z-1.6083
G01 X127.6116 Y187.5744 Z-1.6313
G01 X127.6178 Y187.5371 Z-1.6542
G01 X127.6215 Y187.4994 Z-1.6771
G01 X127.6227 Y187.4616 Z-1.7000
G01 X127.6215 Y187.4238 Z-1.7229
G01 X127.6178 Y187.3861 Z-1.7458
G01 X127.6116 Y187.3488 Z-1.7688
G01 X127.6030 Y187.3119 Z-1.7917
G01 X127.5920 Y187.2757 Z-1.8146
G01 X127.5787 Y187.2403 Z-1.8375
G01 X127.5631 Y187.2058 Z-1.8604
G01 X127.5452 Y187.1724 Z-1.8833
G01 X127.5253 Y187.1403 Z-1.9063
G01 X127.5032 Y187.1095 Z-1.9292
G01 X127.4792 Y187.0803 Z-1.9521
G01 X127.4533 Y187.0526 Z-1.9750
G01 X127.4257 Y187.0268 Z-1.9979
G01 X127.3965 Y187.0028 Z-2.0208
G01 X127.3657 Y186.9807 Z-2.0438
G01 X127.3336 Y186.9607 Z-2.0667
G01 X127.3002 Y186.9429 Z-2.0896
G01 X127.2657 Y186.9273 Z-2.1125
G01 X127.2303 Y186.9139 Z-2.1354
G01 X127.1941 Y186.9029 Z-2.1583
G01 X127.1572 Y186.8944 Z-2.1813
G01 X127.1199 Y186.8882 Z-2.2042
G01 X127.0822 Y186.8845 Z-2.2271
G01 X127.0444 Y186.8832 Z-2.2500
G01 X127.0066 Y186.8845 Z-2.2729
G01 X126.9689 Y186.8882 Z-2.2958
G01 X126.9316 Y186.8944 Z-2.3188
G01 X126.8947 Y186.9029 Z-2.3417
G01 X126.8585 Y186.9139 Z-2.3646
G01 X126.8231 Y186.9273 Z-2.3875
G01 X126.7886 Y186.9429 Z-2.4104
G01 X126.7552 Y186.9607 Z-2.4333
G01 X126.7231 Y186.9807 Z-2.4563
G01 X126.6923 Y187.0028 Z-2.4792
G01 X126.6631 Y187.0268 Z-2.5021
G01 X126.6354 Y187.0526 Z-2.5250
G01 X126.6096 Y187.0803 Z-2.5479
G01 X126.5856 Y187.1095 Z-2.5708
G01 X126.5635 Y187.1403 Z-2.5938
G01 X126.5435 Y187.1724 Z-2.6167
G01 X126.5257 Y187.2058 Z-2.6396
G01 X126.5101 Y187.2403 Z-2.6625
G01 X126.4967 Y187.2757 Z-2.6854
G01 X126.4858 Y187.3119 Z-2.7083
G01 X126.4772 Y187.3488 Z-2.7313
G01 X126.4710 Y187.3861 Z-2.7542
G01 X126.4673 Y187.4238 Z-2.7771
G01 X126.4660 Y187.4616 Z-2.8000
G01 X126.4673 Y187.4994 Z-2.8229
G01 X126.4710 Y187.5371 Z-2.8458
G01 X126.4772 Y187.5744 Z-2.8688
G01 X126.4858 Y187.6113 Z-2.8917
G01 X126.4967 Y187.6475 Z-2.9146
G01 X126.5101 Y187.6829 Z-2.9375
G01 X126.5257 Y187.7174 Z-2.9604
G01 X126.5435 Y187.7508 Z-2.9833
G01 X126.5635 Y187.7829 Z-3.0063
G01 X126.5856 Y187.8137 Z-3.0292
G01 X126.6096 Y187.8429 Z-3.0521
G01 X126.6354 Y187.8705 Z-3.0750
G01 X126.6631 Y187.8964 Z-3.0979
G01 X126.6923 Y187.9204 Z-3.1208
G01 X126.7231 Y187.9425 Z-3.1438
G01 X126.7552 Y187.9624 Z-3.1667
G01 X126.7886 Y187.9803 Z-3.1896
G01 X126.8231 Y187.9959 Z-3.2125
G01 X126.8585 Y188.0092 Z-3.2354
G01 X126.8947 Y188.0202 Z-3.2583
G01 X126.9316 Y188.0288 Z-3.2813
G01 X126.9689 Y188.0350 Z-3.3042
G01 X127.0066 Y188.0387 Z-3.3271
G01 X127.0444 Y188.0399 Z-3.3500
G01 X127.0822 Y188.0387 Z-3.3729
G01 X127.1199 Y188.0350 Z-3.3958
G01 X127.1572 Y188.0288 Z-3.4188
G01 X127.1941 Y188.0202 Z-3.4417
G01 X127.2303 Y188.0092 Z-3.4646
G01 X127.2657 Y187.9959 Z-3.4875
G01 X127.3002 Y187.9803 Z-3.5104
G01 X127.3336 Y187.9624 Z-3.5333
G01 X127.3657 Y187.9425 Z-3.5563
G01 X127.3965 Y187.9204 Z-3.5792
G01 X127.4257 Y187.8964 Z-3.6021
G01 X127.4533 Y187.8705 Z-3.6250
G01 X127.4792 Y187.8429 Z-3.6479
G01 X127.5032 Y187.8137 Z-3.6708
G01 X127.5253 Y187.7829 Z-3.6938
G01 X127.5452 Y187.7508 Z-3.7167
G01 X127.5631 Y187.7174 Z-3.7396
G01 X127.5787 Y187.6829 Z-3.7625
G01 X127.5920 Y187.6475 Z-3.7854
G01 X127.6030 Y187.6113 Z-3.8083
G01 X127.6116 Y187.5744 Z-3.8313
G01 X127.6178 Y187.5371 Z-3.8542
G01 X127.6215 Y187.4994 Z-3.8771
G01 X127.6227 Y187.4616 Z-3.9000
G01 X127.6215 Y187.4238 Z-3.9219
G01 X127.6178 Y187.3861 Z-3.9438
G01 X127.6116 Y187.3488 Z-3.9656
G01 X127.6030 Y187.3119 Z-3.9875
G01 X127.5920 Y187.2757 Z-4.0094
G01 X127.5787 Y187.2403 Z-4.0313
G01 X127.5631 Y187.2058 Z-4.0531
G01 X127.5452 Y187.1724 Z-4.0750
G01 X127.5253 Y187.1403 Z-4.0969
G01 X127.5032 Y187.1095 Z-4.1188
G01 X127.4792 Y187.0803 Z-4.1406
G01 X127.4533 Y187.0526 Z-4.1625
G01 X127.4257 Y187.0268 Z-4.1844
G01 X127.3965 Y187.0028 Z-4.2063
G01 X127.3657 Y186.9807 Z-4.2281
G01 X127.3336 Y186.9607 Z-4.2500
G01 X127.3002 Y186.9429 Z-4.2719
G01 X127.2657 Y186.9273 Z-4.2938
G01 X127.2303 Y186.9139 Z-4.3156
G01 X127.1941 Y186.9029 Z-4.3375
G01 X127.1572 Y186.8944 Z-4.3594
G01 X127.1199 Y186.8882 Z-4.3813
G01 X127.0822 Y186.8845 Z-4.4031
G01 X127.0444 Y186.8832 Z-4.4250
G01 X127.0066 Y186.8845 Z-4.4469
G01 X126.9689 Y186.8882 Z-4.4688
G01 X126.9316 Y186.8944 Z-4.4906
G01 X126.8947 Y186.9029 Z-4.5125
G01 X126.8585 Y186.9139 Z-4.5344
G01 X126.8231 Y186.9273 Z-4.5563
G01 X126.7886 Y186.9429 Z-4.5781
G01 X126.7552 Y186.9607 Z-4.6000
G01 X126.7231 Y186.9807 Z-4.6219
G01 X126.6923 Y187.0028 Z-4.6438
G01 X126.6631 Y187.0268 Z-4.6656
G01 X126.6354 Y187.0526 Z-4.6875
G01 X126.6096 Y187.0803 Z-4.7094
G01 X126.5856 Y187.1095 Z-4.7313
G01 X126.5635 Y187.1403 Z-4.7531
G01 X126.5435 Y187.1724 Z-4.7750
G01 X126.5257 Y187.2058 Z-4.7969
G01 X126.5101 Y187.2403 Z-4.8188
G01 X126.4967 Y187.2757 Z-4.8406
G01 X126.4858 Y187.3119 Z-4.8625
G01 X126.4772 Y187.3488 Z-4.8844
G01 X126.4710 Y187.3861 Z-4.9063
G01 X126.4673 Y187.4238 Z-4.9281
G01 X126.4660 Y187.4616 Z-4.9500
G01 X126.4673 Y187.4994 Z-4.9719
G01 X126.4710 Y187.5371 Z-4.9938
G01 X126.4772 Y187.5744 Z-5.0156
G01 X126.4858 Y187.6113 Z-5.0375
G01 X126.4967 Y187.6475 Z-5.0594
G01 X126.5101 Y187.6829 Z-5.0813
G01 X126.5257 Y187.7174 Z-5.1031
G01 X126.5435 Y187.7508 Z-5.1250
G01 X126.5635 Y187.7829 Z-5.1469
G01 X126.5856 Y187.8137 Z-5.1688
G01 X126.6096 Y187.8429 Z-5.1906
G01 X126.6354 Y187.8705 Z-5.2125
G01 X126.6631 Y187.8964 Z-5.2344
G01 X126.6923 Y187.9204 Z-5.2563
G01 X126.7231 Y187.9425 Z-5.2781
G01 X126.7552 Y187.9624 Z-5.3000
G01 X126.7886 Y187.9803 Z-5.3219
G01 X126.8231 Y187.9959 Z-5.3438
G01 X126.8585 Y188.0092 Z-5.3656
G01 X126.8947 Y188.0202 Z-5.3875
G01 X126.9316 Y188.0288 Z-5.4094
G01 X126.9689 Y188.0350 Z-5.4313
G01 X127.0066 Y188.0387 Z-5.4531
G01 X127.0444 Y188.0399 Z-5.4750
G01 X127.0822 Y188.0387 Z-5.4969
G01 X127.1199 Y188.0350 Z-5.5188
G01 X127.1572 Y188.0288 Z-5.5406
G01 X127.1941 Y188.0202 Z-5.5625
G01 X127.2303 Y188.0092 Z-5.5844
G01 X127.2657 Y187.9959 Z-5.6063
G01 X127.3002 Y187.9803 Z-5.6281
G01 X127.3336 Y187.9624 Z-5.6500
G01 X127.3657 Y187.9425 Z-5.6719
G01 X127.3965 Y187.9204 Z-5.6938
G01 X127.4257 Y187.8964 Z-5.7156
G01 X127.4533 Y187.8705 Z-5.7375
G01 X127.4792 Y187.8429 Z-5.7594
G01 X127.5032 Y187.8137 Z-5.7813
G01 X127.5253 Y187.7829 Z-5.8031
G01 X127.5452 Y187.7508 Z-5.8250
G01 X127.5631 Y187.7174 Z-5.8469
G01 X127.5787 Y187.6829 Z-5.8688
G01 X127.5920 Y187.6475 Z-5.8906
G01 X127.6030 Y187.6113 Z-5.9125
G01 X127.6116 Y187.5744 Z-5.9344
G01 X127.6178 Y187.5371 Z-5.9563
G01 X127.6215 Y187.4994 Z-5.9781
G01 X127.6227 Y187.4616 Z-6.0000
G01 X127.6215 Y187.4238
G01 X127.6178 Y187.3861
G01 X127.6116 Y187.3488
G01 X127.6030 Y187.3119
G01 X127.5920 Y187.2757
G01 X127.5787 Y187.2403
G01 X127.5631 Y187.2058
G01 X127.5452 Y187.1724
G01 X127.5253 Y187.1403
G01 X127.5032 Y187.1095
G01 X127.4792 Y187.0803
G01 X127.4533 Y187.0526
G01 X127.4257 Y187.0268
G01 X127.3965 Y187.0028
G01 X127.3657 Y186.9807
G01 X127.3336 Y186.9607
G01 X127.3002 Y186.9429
G01 X127.2657 Y186.9273
G01 X127.2303 Y186.9139
G01 X127.1941 Y186.9029
G01 X127.1572 Y186.8944
G01 X127.1199 Y186.8882
G01 X127.0822 Y186.8845
G01 X127.0444 Y186.8832
G01 X127.0066 Y186.8845
G01 X126.9689 Y186.8882
G01 X126.9316 Y186.8944
G01 X126.8947 Y186.9029
G01 X126.8585 Y186.9139
G01 X126.8231 Y186.9273
G01 X126.7886 Y186.9429
G01 X126.7552 Y186.9607
G01 X126.7231 Y186.9807
G01 X126.6923 Y187.0028
G01 X126.6631 Y187.0268
G01 X126.6354 Y187.0526
G01 X126.6096 Y187.0803
G01 X126.5856 Y187.1095
G01 X126.5635 Y187.1403
G01 X126.5435 Y187.1724
G01 X126.5257 Y187.2058
G01 X126.5101 Y187.2403
G01 X126.4967 Y187.2757
G01 X126.4858 Y187.3119
G01 X126.4772 Y187.3488
G01 X126.4710 Y187.3861
G01 X126.4673 Y187.4238
G01 X126.4660 Y187.4616
G01 X126.4673 Y187.4994
G01 X126.4710 Y187.5371
G01 X126.4772 Y187.5744
G01 X126.4858 Y187.6113
G01 X126.4967 Y187.6475
G01 X126.5101 Y187.6829
G01 X126.5257 Y187.7174
G01 X126.5435 Y187.7508
G01 X126.5635 Y187.7829
G01 X126.5856 Y187.8137
G01 X126.6096 Y187.8429
G01 X126.6354 Y187.8705
G01 X126.6631 Y187.8964
G01 X126.6923 Y187.9204
G01 X126.7231 Y187.9425
G01 X126.7552 Y187.9624
G01 X126.7886 Y187.9803
G01 X126.8231 Y187.9959
G01 X126.8585 Y188.0092
G01 X126.8947 Y188.0202
G01 X126.9316 Y188.0288
G01 X126.9689 Y188.0350
G01 X127.0066 Y188.0387
G01 X127.0444 Y188.0399
G01 X127.0822 Y188.0387
G01 X127.1199 Y188.0350
G01 X127.1572 Y188.0288
G01 X127.1941 Y188.0202
G01 X127.2303 Y188.0092
G01 X127.2657 Y187.9959
G01 X127.3002 Y187.9803
G01 X127.3336 Y187.9624
G01 X127.3657 Y187.9425
G01 X127.3965 Y187.9204
G01 X127.4257 Y187.8964
G01 X127.4533 Y187.8705
G01 X127.4792 Y187.8429
G01 X127.5032 Y187.8137
G01 X127.5253 Y187.7829
G01 X127.5452 Y187.7508
G01 X127.5631 Y187.7174
G01 X127.5787 Y187.6829
G01 X127.5920 Y187.6475
G01 X127.6030 Y187.6113
G01 X127.6116 Y187.5744
G01 X127.6178 Y187.5371
G01 X127.6215 Y187.4994
G01 X127.6227 Y187.4616
M107
M106 S240
G01 X127.6218 Y187.4389 Z-5.9875
M107
M106 S240
G01 X127.6192 Y187.4163 Z-5.9750
M107
M106 S240
G01 X127.6147 Y187.3941 Z-5.9625
M107
M106 S240
G01 X127.6086 Y187.3722 Z-5.9500
M107
M106 S240
G01 X127.6007 Y187.3509 Z-5.9375
M107
M106 S240
G01 X127.5912 Y187.3303 Z-5.9250
M107
M106 S240
G01 X127.5801 Y187.3105 Z-5.9125
M107
M106 S240
G01 X127.5675 Y187.2916 Z-5.9000
M107
M106 S240
G01 X127.5534 Y187.2738 Z-5.8875
M107
M106 S240
G01 X127.5380 Y187.2571 Z-5.8750
M107
M106 S240
G01 X127.5214 Y187.2417 Z-5.8625
M107
M106 S240
G01 X127.5035 Y187.2276 Z-5.8500
M107
M106 S240
G01 X127.4846 Y187.2150 Z-5.8375
M107
M106 S240
G01 X127.4648 Y187.2039 Z-5.8250
M107
M106 S240
G01 X127.4442 Y187.1944 Z-5.8125
M107
M106 S240
G01 X127.4229 Y187.1866 Z-5.8000
M107
M106 S240
G01 X127.4011 Y187.1804 Z-5.7875
M107
M106 S240
G01 X127.3788 Y187.1760 Z-5.7750
M107
M106 S240
G01 X127.3562 Y187.1733 Z-5.7625
M107
M106 S240
G01 X127.3336 Y187.1724 Z-5.7500
M107
M106 S240
G01 X127.3109 Y187.1733 Z-5.7375
M107
M106 S240
G01 X127.2883 Y187.1760 Z-5.7250
M107
M106 S240
G01 X127.2661 Y187.1804 Z-5.7125
M107
M106 S240
G01 X127.2442 Y187.1866 Z-5.7000
M107
M106 S240
G01 X127.2229 Y187.1944 Z-5.6875
M107
M106 S240
G01 X127.2023 Y187.2039 Z-5.6750
M107
M106 S240
G01 X127.1825 Y187.2150 Z-5.6625
M107
M106 S240
G01 X127.1636 Y187.2276 Z-5.6500
M107
M106 S240
G01 X127.1458 Y187.2417 Z-5.6375
M107
M106 S240
G01 X127.1291 Y187.2571 Z-5.6250
M107
M106 S240
G01 X127.1137 Y187.2738 Z-5.6125
M107
M106 S240
G01 X127.0996 Y187.2916 Z-5.6000
M107
M106 S240
G01 X127.0870 Y187.3105 Z-5.5875
M107
M106 S240
G01 X127.0759 Y187.3303 Z-5.5750
M107
M106 S240
G01 X127.0664 Y187.3509 Z-5.5625
M107
M106 S240
G01 X127.0585 Y187.3722 Z-5.5500
M107
M106 S240
G01 X127.0524 Y187.3941 Z-5.5375
M107
M106 S240
G01 X127.0479 Y187.4163 Z-5.5250
M107
M106 S240
G01 X127.0453 Y187.4389 Z-5.5125
M107
M106 S240
G01 X127.0444 Y187.4616 Z-5.5000
M107
G00 Z2.0000


;No. 17: Helical drill 3
G00 X168.7025 Y187.4615 Z2.0000
G00 Z0.5000
M106 S240
G01 X168.7013 Y187.4237 Z0.4771 F400
G01 X168.6976 Y187.3861 Z0.4542
G01 X168.6914 Y187.3487 Z0.4313
G01 X168.6828 Y187.3119 Z0.4083
G01 X168.6718 Y187.2756 Z0.3854
G01 X168.6585 Y187.2402 Z0.3625
G01 X168.6429 Y187.2058 Z0.3396
G01 X168.6250 Y187.1724 Z0.3167
G01 X168.6051 Y187.1402 Z0.2938
G01 X168.5830 Y187.1095 Z0.2708
G01 X168.5590 Y187.0802 Z0.2479
G01 X168.5331 Y187.0526 Z0.2250
G01 X168.5055 Y187.0267 Z0.2021
G01 X168.4763 Y187.0027 Z0.1792
G01 X168.4455 Y186.9807 Z0.1563
G01 X168.4134 Y186.9607 Z0.1333
G01 X168.3800 Y186.9429 Z0.1104
G01 X168.3455 Y186.9272 Z0.0875
G01 X168.3101 Y186.9139 Z0.0646
G01 X168.2739 Y186.9029 Z0.0417
G01 X168.2370 Y186.8943 Z0.0187
G01 X168.1997 Y186.8882 Z-0.0042
G01 X168.1620 Y186.8845 Z-0.0271
G01 X168.1242 Y186.8832 Z-0.0500
G01 X168.0864 Y186.8845 Z-0.0729
G01 X168.0487 Y186.8882 Z-0.0958
G01 X168.0114 Y186.8943 Z-0.1188
G01 X167.9745 Y186.9029 Z-0.1417
G01 X167.9383 Y186.9139 Z-0.1646
G01 X167.9029 Y186.9272 Z-0.1875
G01 X167.8684 Y186.9429 Z-0.2104
G01 X167.8350 Y186.9607 Z-0.2333
G01 X167.8029 Y186.9807 Z-0.2563
G01 X167.7721 Y187.0027 Z-0.2792
G01 X167.7429 Y187.0267 Z-0.3021
G01 X167.7152 Y187.0526 Z-0.3250
G01 X167.6894 Y187.0802 Z-0.3479
G01 X167.6654 Y187.1095 Z-0.3708
G01 X167.6433 Y187.1402 Z-0.3938
G01 X167.6233 Y187.1724 Z-0.4167
G01 X167.6055 Y187.2058 Z-0.4396
G01 X167.5899 Y187.2402 Z-0.4625
G01 X167.5765 Y187.2756 Z-0.4854
G01 X167.5656 Y187.3119 Z-0.5083
G01 X167.5570 Y187.3487 Z-0.5313
G01 X167.5508 Y187.3861 Z-0.5542
G01 X167.5471 Y187.4237 Z-0.5771
G01 X167.5459 Y187.4615 Z-0.6000
G01 X167.5471 Y187.4994 Z-0.6229
G01 X167.5508 Y187.5370 Z-0.6458
G01 X167.5570 Y187.5744 Z-0.6688
G01 X167.5656 Y187.6112 Z-0.6917
G01 X167.5765 Y187.6474 Z-0.7146
G01 X167.5899 Y187.6829 Z-0.7375
G01 X167.6055 Y187.7173 Z-0.7604
G01 X167.6233 Y187.7507 Z-0.7833
G01 X167.6433 Y187.7828 Z-0.8063
G01 X167.6654 Y187.8136 Z-0.8292
G01 X167.6894 Y187.8429 Z-0.8521
G01 X167.7152 Y187.8705 Z-0.8750
G01 X167.7429 Y187.8964 Z-0.8979
G01 X167.7721 Y187.9204 Z-0.9208
G01 X167.8029 Y187.9424 Z-0.9438
G01 X167.8350 Y187.9624 Z-0.9667
G01 X167.8684 Y187.9802 Z-0.9896
G01 X167.9029 Y187.9959 Z-1.0125
G01 X167.9383 Y188.0092 Z-1.0354
G01 X167.9745 Y188.0202 Z-1.0583
G01 X168.0114 Y188.0288 Z-1.0813
G01 X168.0487 Y188.0349 Z-1.1042
G01 X168.0864 Y188.0386 Z-1.1271
G01 X168.1242 Y188.0399 Z-1.1500
G01 X168.1620 Y188.0386 Z-1.1729
G01 X168.1997 Y188.0349 Z-1.1958
G01 X168.2370 Y188.0288 Z-1.2188
G01 X168.2739 Y188.0202 Z-1.2417
G01 X168.3101 Y188.0092 Z-1.2646
G01 X168.3455 Y187.9959 Z-1.2875
G01 X168.3800 Y187.9802 Z-1.3104
G01 X168.4134 Y187.9624 Z-1.3333
G01 X168.4455 Y187.9424 Z-1.3563
G01 X168.4763 Y187.9204 Z-1.3792
G01 X168.5055 Y187.8964 Z-1.4021
G01 X168.5331 Y187.8705 Z-1.4250
G01 X168.5590 Y187.8429 Z-1.4479
G01 X168.5830 Y187.8136 Z-1.4708
G01 X168.6051 Y187.7828 Z-1.4938
G01 X168.6250 Y187.7507 Z-1.5167
G01 X168.6429 Y187.7173 Z-1.5396
G01 X168.6585 Y187.6829 Z-1.5625
G01 X168.6718 Y187.6474 Z-1.5854
G01 X168.6828 Y187.6112 Z-1.6083
G01 X168.6914 Y187.5744 Z-1.6313
G01 X168.6976 Y187.5370 Z-1.6542
G01 X168.7013 Y187.4994 Z-1.6771
G01 X168.7025 Y187.4615 Z-1.7000
G01 X168.7013 Y187.4237 Z-1.7229
G01 X168.6976 Y187.3861 Z-1.7458
G01 X168.6914 Y187.3487 Z-1.7688
G01 X168.6828 Y187.3119 Z-1.7917
G01 X168.6718 Y187.2756 Z-1.8146
G01 X168.6585 Y187.2402 Z-1.8375
G01 X168.6429 Y187.2058 Z-1.8604
G01 X168.6250 Y187.1724 Z-1.8833
G01 X168.6051 Y187.1402 Z-1.9063
G01 X168.5830 Y187.1095 Z-1.9292
G01 X168.5590 Y187.0802 Z-1.9521
G01 X168.5331 Y187.0526 Z-1.9750
G01 X168.5055 Y187.0267 Z-1.9979
G01 X168.4763 Y187.0027 Z-2.0208
G01 X168.4455 Y186.9807 Z-2.0438
G01 X168.4134 Y186.9607 Z-2.0667
G01 X168.3800 Y186.9429 Z-2.0896
G01 X168.3455 Y186.9272 Z-2.1125
G01 X168.3101 Y186.9139 Z-2.1354
G01 X168.2739 Y186.9029 Z-2.1583
G01 X168.2370 Y186.8943 Z-2.1813
G01 X168.1997 Y186.8882 Z-2.2042
G01 X168.1620 Y186.8845 Z-2.2271
G01 X168.1242 Y186.8832 Z-2.2500
G01 X168.0864 Y186.8845 Z-2.2729
G01 X168.0487 Y186.8882 Z-2.2958
G01 X168.0114 Y186.8943 Z-2.3188
G01 X167.9745 Y186.9029 Z-2.3417
G01 X167.9383 Y186.9139 Z-2.3646
G01 X167.9029 Y186.9272 Z-2.3875
G01 X167.8684 Y186.9429 Z-2.4104
G01 X167.8350 Y186.9607 Z-2.4333
G01 X167.8029 Y186.9807 Z-2.4563
G01 X167.7721 Y187.0027 Z-2.4792
G01 X167.7429 Y187.0267 Z-2.5021
G01 X167.7152 Y187.0526 Z-2.5250
G01 X167.6894 Y187.0802 Z-2.5479
G01 X167.6654 Y187.1095 Z-2.5708
G01 X167.6433 Y187.1402 Z-2.5938
G01 X167.6233 Y187.1724 Z-2.6167
G01 X167.6055 Y187.2058 Z-2.6396
G01 X167.5899 Y187.2402 Z-2.6625
G01 X167.5765 Y187.2756 Z-2.6854
G01 X167.5656 Y187.3119 Z-2.7083
G01 X167.5570 Y187.3487 Z-2.7313
G01 X167.5508 Y187.3861 Z-2.7542
G01 X167.5471 Y187.4237 Z-2.7771
G01 X167.5459 Y187.4615 Z-2.8000
G01 X167.5471 Y187.4994 Z-2.8229
G01 X167.5508 Y187.5370 Z-2.8458
G01 X167.5570 Y187.5744 Z-2.8688
G01 X167.5656 Y187.6112 Z-2.8917
G01 X167.5765 Y187.6474 Z-2.9146
G01 X167.5899 Y187.6829 Z-2.9375
G01 X167.6055 Y187.7173 Z-2.9604
G01 X167.6233 Y187.7507 Z-2.9833
G01 X167.6433 Y187.7828 Z-3.0063
G01 X167.6654 Y187.8136 Z-3.0292
G01 X167.6894 Y187.8429 Z-3.0521
G01 X167.7152 Y187.8705 Z-3.0750
G01 X167.7429 Y187.8964 Z-3.0979
G01 X167.7721 Y187.9204 Z-3.1208
G01 X167.8029 Y187.9424 Z-3.1438
G01 X167.8350 Y187.9624 Z-3.1667
G01 X167.8684 Y187.9802 Z-3.1896
G01 X167.9029 Y187.9959 Z-3.2125
G01 X167.9383 Y188.0092 Z-3.2354
G01 X167.9745 Y188.0202 Z-3.2583
G01 X168.0114 Y188.0288 Z-3.2813
G01 X168.0487 Y188.0349 Z-3.3042
G01 X168.0864 Y188.0386 Z-3.3271
G01 X168.1242 Y188.0399 Z-3.3500
G01 X168.1620 Y188.0386 Z-3.3729
G01 X168.1997 Y188.0349 Z-3.3958
G01 X168.2370 Y188.0288 Z-3.4188
G01 X168.2739 Y188.0202 Z-3.4417
G01 X168.3101 Y188.0092 Z-3.4646
G01 X168.3455 Y187.9959 Z-3.4875
G01 X168.3800 Y187.9802 Z-3.5104
G01 X168.4134 Y187.9624 Z-3.5333
G01 X168.4455 Y187.9424 Z-3.5563
G01 X168.4763 Y187.9204 Z-3.5792
G01 X168.5055 Y187.8964 Z-3.6021
G01 X168.5331 Y187.8705 Z-3.6250
G01 X168.5590 Y187.8429 Z-3.6479
G01 X168.5830 Y187.8136 Z-3.6708
G01 X168.6051 Y187.7828 Z-3.6938
G01 X168.6250 Y187.7507 Z-3.7167
G01 X168.6429 Y187.7173 Z-3.7396
G01 X168.6585 Y187.6829 Z-3.7625
G01 X168.6718 Y187.6474 Z-3.7854
G01 X168.6828 Y187.6112 Z-3.8083
G01 X168.6914 Y187.5744 Z-3.8313
G01 X168.6976 Y187.5370 Z-3.8542
G01 X168.7013 Y187.4994 Z-3.8771
G01 X168.7025 Y187.4615 Z-3.9000
G01 X168.7013 Y187.4237 Z-3.9219
G01 X168.6976 Y187.3861 Z-3.9438
G01 X168.6914 Y187.3487 Z-3.9656
G01 X168.6828 Y187.3119 Z-3.9875
G01 X168.6718 Y187.2756 Z-4.0094
G01 X168.6585 Y187.2402 Z-4.0313
G01 X168.6429 Y187.2058 Z-4.0531
G01 X168.6250 Y187.1724 Z-4.0750
G01 X168.6051 Y187.1402 Z-4.0969
G01 X168.5830 Y187.1095 Z-4.1188
G01 X168.5590 Y187.0802 Z-4.1406
G01 X168.5331 Y187.0526 Z-4.1625
G01 X168.5055 Y187.0267 Z-4.1844
G01 X168.4763 Y187.0027 Z-4.2063
G01 X168.4455 Y186.9807 Z-4.2281
G01 X168.4134 Y186.9607 Z-4.2500
G01 X168.3800 Y186.9429 Z-4.2719
G01 X168.3455 Y186.9272 Z-4.2938
G01 X168.3101 Y186.9139 Z-4.3156
G01 X168.2739 Y186.9029 Z-4.3375
G01 X168.2370 Y186.8943 Z-4.3594
G01 X168.1997 Y186.8882 Z-4.3813
G01 X168.1620 Y186.8845 Z-4.4031
G01 X168.1242 Y186.8832 Z-4.4250
G01 X168.0864 Y186.8845 Z-4.4469
G01 X168.0487 Y186.8882 Z-4.4688
G01 X168.0114 Y186.8943 Z-4.4906
G01 X167.9745 Y186.9029 Z-4.5125
G01 X167.9383 Y186.9139 Z-4.5344
G01 X167.9029 Y186.9272 Z-4.5563
G01 X167.8684 Y186.9429 Z-4.5781
G01 X167.8350 Y186.9607 Z-4.6000
G01 X167.8029 Y186.9807 Z-4.6219
G01 X167.7721 Y187.0027 Z-4.6438
G01 X167.7429 Y187.0267 Z-4.6656
G01 X167.7152 Y187.0526 Z-4.6875
G01 X167.6894 Y187.0802 Z-4.7094
G01 X167.6654 Y187.1095 Z-4.7313
G01 X167.6433 Y187.1402 Z-4.7531
G01 X167.6233 Y187.1724 Z-4.7750
G01 X167.6055 Y187.2058 Z-4.7969
G01 X167.5899 Y187.2402 Z-4.8188
G01 X167.5765 Y187.2756 Z-4.8406
G01 X167.5656 Y187.3119 Z-4.8625
G01 X167.5570 Y187.3487 Z-4.8844
G01 X167.5508 Y187.3861 Z-4.9063
G01 X167.5471 Y187.4237 Z-4.9281
G01 X167.5459 Y187.4615 Z-4.9500
G01 X167.5471 Y187.4994 Z-4.9719
G01 X167.5508 Y187.5370 Z-4.9938
G01 X167.5570 Y187.5744 Z-5.0156
G01 X167.5656 Y187.6112 Z-5.0375
G01 X167.5765 Y187.6474 Z-5.0594
G01 X167.5899 Y187.6829 Z-5.0813
G01 X167.6055 Y187.7173 Z-5.1031
G01 X167.6233 Y187.7507 Z-5.1250
G01 X167.6433 Y187.7828 Z-5.1469
G01 X167.6654 Y187.8136 Z-5.1688
G01 X167.6894 Y187.8429 Z-5.1906
G01 X167.7152 Y187.8705 Z-5.2125
G01 X167.7429 Y187.8964 Z-5.2344
G01 X167.7721 Y187.9204 Z-5.2563
G01 X167.8029 Y187.9424 Z-5.2781
G01 X167.8350 Y187.9624 Z-5.3000
G01 X167.8684 Y187.9802 Z-5.3219
G01 X167.9029 Y187.9959 Z-5.3438
G01 X167.9383 Y188.0092 Z-5.3656
G01 X167.9745 Y188.0202 Z-5.3875
G01 X168.0114 Y188.0288 Z-5.4094
G01 X168.0487 Y188.0349 Z-5.4313
G01 X168.0864 Y188.0386 Z-5.4531
G01 X168.1242 Y188.0399 Z-5.4750
G01 X168.1620 Y188.0386 Z-5.4969
G01 X168.1997 Y188.0349 Z-5.5188
G01 X168.2370 Y188.0288 Z-5.5406
G01 X168.2739 Y188.0202 Z-5.5625
G01 X168.3101 Y188.0092 Z-5.5844
G01 X168.3455 Y187.9959 Z-5.6063
G01 X168.3800 Y187.9802 Z-5.6281
G01 X168.4134 Y187.9624 Z-5.6500
G01 X168.4455 Y187.9424 Z-5.6719
G01 X168.4763 Y187.9204 Z-5.6938
G01 X168.5055 Y187.8964 Z-5.7156
G01 X168.5331 Y187.8705 Z-5.7375
G01 X168.5590 Y187.8429 Z-5.7594
G01 X168.5830 Y187.8136 Z-5.7813
G01 X168.6051 Y187.7828 Z-5.8031
G01 X168.6250 Y187.7507 Z-5.8250
G01 X168.6429 Y187.7173 Z-5.8469
G01 X168.6585 Y187.6829 Z-5.8688
G01 X168.6718 Y187.6474 Z-5.8906
G01 X168.6828 Y187.6112 Z-5.9125
G01 X168.6914 Y187.5744 Z-5.9344
G01 X168.6976 Y187.5370 Z-5.9563
G01 X168.7013 Y187.4994 Z-5.9781
G01 X168.7025 Y187.4615 Z-6.0000
G01 X168.7013 Y187.4237
G01 X168.6976 Y187.3861
G01 X168.6914 Y187.3487
G01 X168.6828 Y187.3119
G01 X168.6718 Y187.2756
G01 X168.6585 Y187.2402
G01 X168.6429 Y187.2058
G01 X168.6250 Y187.1724
G01 X168.6051 Y187.1402
G01 X168.5830 Y187.1095
G01 X168.5590 Y187.0802
G01 X168.5331 Y187.0526
G01 X168.5055 Y187.0267
G01 X168.4763 Y187.0027
G01 X168.4455 Y186.9807
G01 X168.4134 Y186.9607
G01 X168.3800 Y186.9429
G01 X168.3455 Y186.9272
G01 X168.3101 Y186.9139
G01 X168.2739 Y186.9029
G01 X168.2370 Y186.8943
G01 X168.1997 Y186.8882
G01 X168.1620 Y186.8845
G01 X168.1242 Y186.8832
G01 X168.0864 Y186.8845
G01 X168.0487 Y186.8882
G01 X168.0114 Y186.8943
G01 X167.9745 Y186.9029
G01 X167.9383 Y186.9139
G01 X167.9029 Y186.9272
G01 X167.8684 Y186.9429
G01 X167.8350 Y186.9607
G01 X167.8029 Y186.9807
G01 X167.7721 Y187.0027
G01 X167.7429 Y187.0267
G01 X167.7152 Y187.0526
G01 X167.6894 Y187.0802
G01 X167.6654 Y187.1095
G01 X167.6433 Y187.1402
G01 X167.6233 Y187.1724
G01 X167.6055 Y187.2058
G01 X167.5899 Y187.2402
G01 X167.5765 Y187.2756
G01 X167.5656 Y187.3119
G01 X167.5570 Y187.3487
G01 X167.5508 Y187.3861
G01 X167.5471 Y187.4237
G01 X167.5459 Y187.4615
G01 X167.5471 Y187.4994
G01 X167.5508 Y187.5370
G01 X167.5570 Y187.5744
G01 X167.5656 Y187.6112
G01 X167.5765 Y187.6474
G01 X167.5899 Y187.6829
G01 X167.6055 Y187.7173
G01 X167.6233 Y187.7507
G01 X167.6433 Y187.7828
G01 X167.6654 Y187.8136
G01 X167.6894 Y187.8429
G01 X167.7152 Y187.8705
G01 X167.7429 Y187.8964
G01 X167.7721 Y187.9204
G01 X167.8029 Y187.9424
G01 X167.8350 Y187.9624
G01 X167.8684 Y187.9802
G01 X167.9029 Y187.9959
G01 X167.9383 Y188.0092
G01 X167.9745 Y188.0202
G01 X168.0114 Y188.0288
G01 X168.0487 Y188.0349
G01 X168.0864 Y188.0386
G01 X168.1242 Y188.0399
G01 X168.1620 Y188.0386
G01 X168.1997 Y188.0349
G01 X168.2370 Y188.0288
G01 X168.2739 Y188.0202
G01 X168.3101 Y188.0092
G01 X168.3455 Y187.9959
G01 X168.3800 Y187.9802
G01 X168.4134 Y187.9624
G01 X168.4455 Y187.9424
G01 X168.4763 Y187.9204
G01 X168.5055 Y187.8964
G01 X168.5331 Y187.8705
G01 X168.5590 Y187.8429
G01 X168.5830 Y187.8136
G01 X168.6051 Y187.7828
G01 X168.6250 Y187.7507
G01 X168.6429 Y187.7173
G01 X168.6585 Y187.6829
G01 X168.6718 Y187.6474
G01 X168.6828 Y187.6112
G01 X168.6914 Y187.5744
G01 X168.6976 Y187.5370
G01 X168.7013 Y187.4994
G01 X168.7025 Y187.4615
M107
M106 S240
G01 X168.7016 Y187.4389 Z-5.9875
M107
M106 S240
G01 X168.6990 Y187.4163 Z-5.9750
M107
M106 S240
G01 X168.6945 Y187.3940 Z-5.9625
M107
M106 S240
G01 X168.6884 Y187.3722 Z-5.9500
M107
M106 S240
G01 X168.6805 Y187.3509 Z-5.9375
M107
M106 S240
G01 X168.6710 Y187.3303 Z-5.9250
M107
M106 S240
G01 X168.6599 Y187.3105 Z-5.9125
M107
M106 S240
G01 X168.6473 Y187.2916 Z-5.9000
M107
M106 S240
G01 X168.6332 Y187.2737 Z-5.8875
M107
M106 S240
G01 X168.6178 Y187.2571 Z-5.8750
M107
M106 S240
G01 X168.6011 Y187.2417 Z-5.8625
M107
M106 S240
G01 X168.5833 Y187.2276 Z-5.8500
M107
M106 S240
G01 X168.5644 Y187.2150 Z-5.8375
M107
M106 S240
G01 X168.5446 Y187.2039 Z-5.8250
M107
M106 S240
G01 X168.5240 Y187.1944 Z-5.8125
M107
M106 S240
G01 X168.5027 Y187.1865 Z-5.8000
M107
M106 S240
G01 X168.4809 Y187.1804 Z-5.7875
M107
M106 S240
G01 X168.4586 Y187.1759 Z-5.7750
M107
M106 S240
G01 X168.4360 Y187.1733 Z-5.7625
M107
M106 S240
G01 X168.4134 Y187.1724 Z-5.7500
M107
M106 S240
G01 X168.3907 Y187.1733 Z-5.7375
M107
M106 S240
G01 X168.3681 Y187.1759 Z-5.7250
M107
M106 S240
G01 X168.3458 Y187.1804 Z-5.7125
M107
M106 S240
G01 X168.3240 Y187.1865 Z-5.7000
M107
M106 S240
G01 X168.3027 Y187.1944 Z-5.6875
M107
M106 S240
G01 X168.2821 Y187.2039 Z-5.6750
M107
M106 S240
G01 X168.2623 Y187.2150 Z-5.6625
M107
M106 S240
G01 X168.2434 Y187.2276 Z-5.6500
M107
M106 S240
G01 X168.2256 Y187.2417 Z-5.6375
M107
M106 S240
G01 X168.2089 Y187.2571 Z-5.6250
M107
M106 S240
G01 X168.1935 Y187.2737 Z-5.6125
M107
M106 S240
G01 X168.1794 Y187.2916 Z-5.6000
M107
M106 S240
G01 X168.1668 Y187.3105 Z-5.5875
M107
M106 S240
G01 X168.1557 Y187.3303 Z-5.5750
M107
M106 S240
G01 X168.1462 Y187.3509 Z-5.5625
M107
M106 S240
G01 X168.1383 Y187.3722 Z-5.5500
M107
M106 S240
G01 X168.1322 Y187.3940 Z-5.5375
M107
M106 S240
G01 X168.1277 Y187.4163 Z-5.5250
M107
M106 S240
G01 X168.1251 Y187.4389 Z-5.5125
M107
M106 S240
G01 X168.1242 Y187.4615 Z-5.5000
M107
G00 Z2.0000


;No. 18: Hole 21


;No. 19: Hole 21
G00 X177.2333 Y166.3307 Z2.0000
G00 Z0.5000
G01 Z-1.8000 F400
M106 S240
G01 X176.8355 Y166.3377 F1000
G01 X176.7704 Y176.4144
G01 X176.7614 Y176.5171
G01 X176.7428 Y176.6185
G01 X176.7148 Y176.7177
G01 X176.6777 Y176.8139
G01 X176.6317 Y176.9061
G01 X176.5773 Y176.9937
G01 X176.5149 Y177.0758
G01 X176.4451 Y177.1516
G01 X176.3685 Y177.2206
G01 X176.2858 Y177.2822
G01 X176.1977 Y177.3357
G01 X176.1050 Y177.3808
G01 X176.0085 Y177.4169
G01 X175.9090 Y177.4439
G01 X175.8074 Y177.4614
G01 X175.7046 Y177.4694
G01 X173.4294 Y177.5384
G01 X171.5276 Y177.5980
G01 X171.1778 Y177.8499
G01 X171.1121 Y177.8925
G01 X171.0496 Y177.9395
G01 X170.9907 Y177.9909
G01 X170.9354 Y178.0462
G01 X174.0015 Y178.0768
G01 X177.0677 Y178.0846
G01 X180.1338 Y178.0696
G01 X183.1998 Y178.0319
G01 X183.1299 Y177.9662
G01 X183.0587 Y177.9018
G01 X182.9864 Y177.8388
G01 X182.9129 Y177.7771
G01 X182.8851 Y177.7546
G01 X182.8563 Y177.7333
G01 X182.8266 Y177.7134
G01 X182.7961 Y177.6947
G01 X182.7808 Y177.6864
G01 X182.5281 Y177.6284
G01 X182.2718 Y177.5897
G01 X182.0134 Y177.5703
G01 X181.7541 Y177.5704
G01 X181.2645 Y177.5541
G01 X178.3926 Y177.4701
G01 X178.3073 Y177.4658
G01 X178.2226 Y177.4549
G01 X178.1390 Y177.4375
G01 X178.0570 Y177.4136
G01 X177.9771 Y177.3835
G01 X177.8998 Y177.3472
G01 X177.8255 Y177.3051
G01 X177.7547 Y177.2573
G01 X177.6878 Y177.2041
G01 X177.6252 Y177.1460
G01 X177.5674 Y177.0832
G01 X177.5146 Y177.0160
G01 X177.4671 Y176.9450
G01 X177.4253 Y176.8705
G01 X177.3895 Y176.7930
G01 X177.3597 Y176.7129
G01 X177.3362 Y176.6308
G01 X177.3192 Y176.5471
G01 X177.3087 Y176.4623
G01 X177.3049 Y176.3770
G01 X177.2689 Y170.7873
G01 X177.2333 Y166.3307
M107
G00 Z2.0000


;No. 20: Hole 22
G00 X193.1051 Y176.9117 Z2.0000
G00 Z0.5000
G01 Z-1.8000 F400
M106 S240
G01 X204.6693 F1000
G01 X206.0859 Y178.5617
G01 X191.5429
M107
G00 Z2.0000
G00 X193.5970
G00 Z0.5000
G01 Z-1.8000 F400
M106 S240
G01 Y177.9117 F1000
G01 X194.2837 Y177.9195
G01 X194.9704 Y177.9255
G01 X195.6571 Y177.9297
G01 X196.3438 Y177.9320
G01 X198.4408 Y177.9350
G01 X204.2043 Y177.9342
G01 X204.1575 Y177.8980
G01 X204.0219 Y177.8011
G01 X203.6274 Y177.5382
G01 X198.8680
G01 X194.1407 Y177.5406
G01 X193.7155 Y177.8268
G01 X193.6051 Y177.9040
G01 X193.5970 Y177.9117
G01 Y178.5617
M107
G00 Z2.0000


;No. 21: Hole 23


;No. 22: Hole 23
G00 X193.3068 Y172.7249 Z2.0000
G00 Z0.5000
G01 Z-1.8000 F400
M106 S240
G01 X196.0680 Y172.7425 F1000
G01 X198.8292 Y172.7444
G01 X201.5903 Y172.7308
G01 X204.3513 Y172.7016
G01 X204.1636 Y172.5201
G01 X203.9621 Y172.3538
G01 X203.7482 Y172.2040
G01 X203.5231 Y172.0714
G01 X198.5160 Y172.0773
G01 X197.4877 Y172.0678
G01 X196.4593 Y172.0757
G01 X195.4313 Y172.1010
G01 X194.4038 Y172.1437
G01 X194.3313 Y172.1493
G01 X194.2589 Y172.1568
G01 X194.1867 Y172.1661
G01 X194.1148 Y172.1773
G01 X194.0936 Y172.1837
G01 X194.0726 Y172.1909
G01 X194.0519 Y172.1989
G01 X194.0316 Y172.2078
G01 X194.0116 Y172.2175
G01 X193.9920 Y172.2279
G01 X193.9729 Y172.2392
G01 X193.9543 Y172.2512
G01 X193.7817 Y172.3543
G01 X193.6158 Y172.4679
G01 X193.4573 Y172.5916
G01 X193.3068 Y172.7249
M107
G00 Z2.0000


;No. 23: Hole 24


;No. 24: Hole 24
G00 X193.5060 Y166.9701 Z2.0000
G00 Z0.5000
G01 Z-1.8000 F400
M106 S240
G01 X196.1867 Y166.9935 F1000
G01 X198.8676 Y167.0018
G01 X201.5485 Y166.9950
G01 X204.2292 Y166.9732
G01 X204.0096 Y166.8108
G01 X203.9593 Y166.7744
G01 X203.9076 Y166.7399
G01 X203.8546 Y166.7075
G01 X203.8004 Y166.6772
G01 X203.7013 Y166.6390
G01 X203.6004 Y166.6060
G01 X203.4979 Y166.5780
G01 X203.3942 Y166.5553
G01 X203.2895 Y166.5377
G01 X203.1840 Y166.5255
G01 X203.0780 Y166.5186
G01 X202.9719 Y166.5171
G01 X202.1170 Y166.4870
G01 X201.2619 Y166.4687
G01 X200.4065 Y166.4621
G01 X199.5512 Y166.4673
G01 X197.2820 Y166.4689
G01 X196.5648 Y166.4594
G01 X195.8476 Y166.4674
G01 X195.1308 Y166.4926
G01 X194.4149 Y166.5352
G01 X194.2760 Y166.5544
G01 X194.1717 Y166.5895
G01 X194.0692 Y166.6297
G01 X193.9688 Y166.6748
G01 X193.8707 Y166.7248
G01 X193.7752 Y166.7794
G01 X193.6824 Y166.8386
G01 X193.5926 Y166.9022
G01 X193.5060 Y166.9701
M107
G00 Z2.0000


;No. 25: Hole 25


;No. 26: Hole 25
G00 X215.4401 Y166.3644 Z2.0000
G00 Z0.5000
G01 Z-1.8000 F400
M106 S240
G01 X215.4284 Y166.3676 F1000
G01 X215.6501 Y166.5590
G01 X215.7023 Y166.6029
G01 X215.7558 Y166.6452
G01 X215.8106 Y166.6857
G01 X215.8667 Y166.7244
G01 X215.9623 Y166.7748
G01 X216.0611 Y166.8187
G01 X216.1625 Y166.8558
G01 X216.2663 Y166.8860
G01 X216.3718 Y166.9091
G01 X216.4787 Y166.9251
G01 X216.5864 Y166.9339
G01 X216.6945 Y166.9354
G01 X217.4684 Y166.9729
G01 X218.2430 Y166.9962
G01 X219.0178 Y167.0055
G01 X219.7927 Y167.0007
G01 X225.0605 Y167.0008
G01 X225.1479 Y167.0027
G01 X225.2348 Y167.0116
G01 X225.3207 Y167.0273
G01 X225.4052 Y167.0497
G01 X225.4876 Y167.0788
G01 X225.5674 Y167.1144
G01 X225.6441 Y167.1561
G01 X225.7173 Y167.2039
G01 X225.7865 Y167.2573
G01 X225.8512 Y167.3160
G01 X225.9111 Y167.3796
G01 X225.9657 Y167.4478
G01 X226.0147 Y167.5201
G01 X226.0579 Y167.5961
G01 X226.0948 Y167.6753
G01 X226.1254 Y167.7571
G01 X226.1494 Y167.8411
G01 X226.1666 Y167.9268
G01 X226.1770 Y168.0135
G01 X226.1805 Y168.1008
G01 Y170.9511
G01 X226.1786 Y171.0384
G01 X226.1698 Y171.1254
G01 X226.1541 Y171.2113
G01 X226.1316 Y171.2957
G01 X226.1025 Y171.3781
G01 X226.0670 Y171.4579
G01 X226.0252 Y171.5347
G01 X225.9775 Y171.6079
G01 X225.9241 Y171.6770
G01 X225.8654 Y171.7418
G01 X225.8017 Y171.8016
G01 X225.7336 Y171.8562
G01 X225.6612 Y171.9053
G01 X225.5853 Y171.9484
G01 X225.5061 Y171.9854
G01 X225.4242 Y172.0160
G01 X225.3402 Y172.0400
G01 X225.2546 Y172.0572
G01 X225.1678 Y172.0676
G01 X225.0805 Y172.0711
G01 X214.6995
G01 Y178.0718
G01 X220.5701
G01 X221.8279 Y178.0712
G01 X223.0858 Y178.0684
G01 X224.3437 Y178.0632
G01 X225.6015 Y178.0557
G01 X225.5985 Y178.0430
G01 X225.4444 Y177.9076
G01 X225.2853 Y177.7782
G01 X225.1214 Y177.6551
G01 X224.9529 Y177.5383
G01 X216.0797
G01 X215.9924 Y177.5364
G01 X215.9055 Y177.5275
G01 X215.8195 Y177.5118
G01 X215.7351 Y177.4894
G01 X215.6527 Y177.4603
G01 X215.5729 Y177.4247
G01 X215.4961 Y177.3830
G01 X215.4229 Y177.3352
G01 X215.3538 Y177.2819
G01 X215.2891 Y177.2232
G01 X215.2292 Y177.1595
G01 X215.1746 Y177.0913
G01 X215.1255 Y177.0190
G01 X215.0824 Y176.9430
G01 X215.0454 Y176.8639
G01 X215.0149 Y176.7820
G01 X214.9909 Y176.6980
G01 X214.9736 Y176.6123
G01 X214.9632 Y176.5256
G01 X214.9597 Y176.4383
G01 Y173.7247
G01 X214.9625 Y173.6269
G01 X214.9746 Y173.5245
G01 X214.9962 Y173.4237
G01 X215.0272 Y173.3254
G01 X215.0672 Y173.2304
G01 X215.1160 Y173.1396
G01 X215.1731 Y173.0537
G01 X215.2379 Y172.9736
G01 X215.3099 Y172.8999
G01 X215.3886 Y172.8332
G01 X215.4731 Y172.7742
G01 X215.5628 Y172.7234
G01 X215.6568 Y172.6812
G01 X215.7544 Y172.6479
G01 X215.8547 Y172.6240
G01 X215.9568 Y172.6096
G01 X216.0597 Y172.6047
G01 X226.5774
G01 Y166.3306
G01 X220.4388 Y166.3307
G01 X219.1891 Y166.3303
G01 X217.9394 Y166.3357
G01 X216.6897 Y166.3471
G01 X215.4401 Y166.3644
M107
G00 Z2.0000


;No. 27: Hole 26


;No. 28: Hole 26
G00 X245.9429 Y166.4672 Z2.0000
G00 Z0.5000
G01 Z-1.8000 F400
M106 S240
G01 X236.0214 F1000
G01 Y178.0718
G01 X236.2816
G01 Y168.1208
G01 X236.2843 Y168.0230
G01 X236.2964 Y167.9206
G01 X236.3181 Y167.8198
G01 X236.3490 Y167.7215
G01 X236.3891 Y167.6265
G01 X236.4378 Y167.5357
G01 X236.4949 Y167.4498
G01 X236.5597 Y167.3697
G01 X236.6318 Y167.2959
G01 X236.7104 Y167.2293
G01 X236.7949 Y167.1703
G01 X236.8846 Y167.1195
G01 X236.9787 Y167.0772
G01 X237.0763 Y167.0440
G01 X237.1765 Y167.0201
G01 X237.2786 Y167.0056
G01 X237.3816 Y167.0008
G01 X246.6334
G01 X246.6239 Y166.9888
G01 X246.5893 Y166.9549
G01 X246.5541 Y166.9215
G01 X246.5182 Y166.8888
G01 X246.4819 Y166.8567
G01 X246.3842 Y166.7764
G01 X246.2547 Y166.6818
G01 X245.9429 Y166.4672
M107
G00 Z2.0000


;No. 29: Hole 28


;No. 30: Hole 28
G00 X257.1936 Y166.4673 Z2.0000
G00 Z0.5000
G01 Z-1.8000 F400
M106 S240
G01 X256.9333 F1000
G01 X256.9331 Y172.7383
G01 X268.7521 Y172.6785
G01 X268.8057 Y166.4673
G01 X268.5510
G01 Y170.9511
G01 X268.5491 Y171.0384
G01 X268.5403 Y171.1254
G01 X268.5246 Y171.2113
G01 X268.5021 Y171.2958
G01 X268.4730 Y171.3781
G01 X268.4375 Y171.4580
G01 X268.3957 Y171.5347
G01 X268.3480 Y171.6079
G01 X268.2946 Y171.6771
G01 X268.2359 Y171.7418
G01 X268.1723 Y171.8016
G01 X268.1041 Y171.8563
G01 X268.0318 Y171.9053
G01 X267.9558 Y171.9484
G01 X267.8766 Y171.9854
G01 X267.7948 Y172.0160
G01 X267.7108 Y172.0400
G01 X267.6251 Y172.0572
G01 X267.5383 Y172.0676
G01 X267.4510 Y172.0711
G01 X258.3136
G01 X258.2262 Y172.0692
G01 X258.1393 Y172.0604
G01 X258.0534 Y172.0447
G01 X257.9689 Y172.0222
G01 X257.8865 Y171.9931
G01 X257.8067 Y171.9575
G01 X257.7300 Y171.9158
G01 X257.6568 Y171.8681
G01 X257.5876 Y171.8147
G01 X257.5229 Y171.7560
G01 X257.4631 Y171.6923
G01 X257.4084 Y171.6241
G01 X257.3594 Y171.5518
G01 X257.3163 Y171.4758
G01 X257.2793 Y171.3967
G01 X257.2487 Y171.3148
G01 X257.2247 Y171.2308
G01 X257.2075 Y171.1452
G01 X257.1971 Y171.0584
G01 X257.1936 Y170.9711
G01 Y166.4673
M107
G00 Z2.0000


;No. 31: Helical drill 4
G00 X272.7583 Y187.4616 Z2.0000
G00 Z0.5000
M106 S240
G01 X272.7571 Y187.4238 Z0.4771 F400
G01 X272.7534 Y187.3861 Z0.4542
G01 X272.7472 Y187.3488 Z0.4313
G01 X272.7386 Y187.3119 Z0.4083
G01 X272.7277 Y187.2757 Z0.3854
G01 X272.7143 Y187.2403 Z0.3625
G01 X272.6987 Y187.2058 Z0.3396
G01 X272.6809 Y187.1725 Z0.3167
G01 X272.6609 Y187.1403 Z0.2938
G01 X272.6388 Y187.1096 Z0.2708
G01 X272.6148 Y187.0803 Z0.2479
G01 X272.5890 Y187.0527 Z0.2250
G01 X272.5613 Y187.0268 Z0.2021
G01 X272.5321 Y187.0028 Z0.1792
G01 X272.5013 Y186.9808 Z0.1563
G01 X272.4692 Y186.9608 Z0.1333
G01 X272.4358 Y186.9430 Z0.1104
G01 X272.4014 Y186.9273 Z0.0875
G01 X272.3659 Y186.9140 Z0.0646
G01 X272.3297 Y186.9030 Z0.0417
G01 X272.2929 Y186.8944 Z0.0187
G01 X272.2555 Y186.8883 Z-0.0042
G01 X272.2179 Y186.8846 Z-0.0271
G01 X272.1800 Y186.8833 Z-0.0500
G01 X272.1422 Y186.8846 Z-0.0729
G01 X272.1046 Y186.8883 Z-0.0958
G01 X272.0672 Y186.8944 Z-0.1188
G01 X272.0304 Y186.9030 Z-0.1417
G01 X271.9942 Y186.9140 Z-0.1646
G01 X271.9587 Y186.9273 Z-0.1875
G01 X271.9243 Y186.9430 Z-0.2104
G01 X271.8909 Y186.9608 Z-0.2333
G01 X271.8588 Y186.9808 Z-0.2563
G01 X271.8280 Y187.0028 Z-0.2792
G01 X271.7987 Y187.0268 Z-0.3021
G01 X271.7711 Y187.0527 Z-0.3250
G01 X271.7453 Y187.0803 Z-0.3479
G01 X271.7212 Y187.1096 Z-0.3708
G01 X271.6992 Y187.1403 Z-0.3938
G01 X271.6792 Y187.1725 Z-0.4167
G01 X271.6614 Y187.2058 Z-0.4396
G01 X271.6458 Y187.2403 Z-0.4625
G01 X271.6324 Y187.2757 Z-0.4854
G01 X271.6214 Y187.3119 Z-0.5083
G01 X271.6129 Y187.3488 Z-0.5313
G01 X271.6067 Y187.3861 Z-0.5542
G01 X271.6030 Y187.4238 Z-0.5771
G01 X271.6017 Y187.4616 Z-0.6000
G01 X271.6030 Y187.4994 Z-0.6229
G01 X271.6067 Y187.5371 Z-0.6458
G01 X271.6129 Y187.5744 Z-0.6688
G01 X271.6214 Y187.6113 Z-0.6917
G01 X271.6324 Y187.6475 Z-0.7146
G01 X271.6458 Y187.6829 Z-0.7375
G01 X271.6614 Y187.7174 Z-0.7604
G01 X271.6792 Y187.7508 Z-0.7833
G01 X271.6992 Y187.7829 Z-0.8063
G01 X271.7212 Y187.8137 Z-0.8292
G01 X271.7453 Y187.8429 Z-0.8521
G01 X271.7711 Y187.8705 Z-0.8750
G01 X271.7987 Y187.8964 Z-0.8979
G01 X271.8280 Y187.9204 Z-0.9208
G01 X271.8588 Y187.9425 Z-0.9438
G01 X271.8909 Y187.9624 Z-0.9667
G01 X271.9243 Y187.9803 Z-0.9896
G01 X271.9587 Y187.9959 Z-1.0125
G01 X271.9942 Y188.0092 Z-1.0354
G01 X272.0304 Y188.0202 Z-1.0583
G01 X272.0672 Y188.0288 Z-1.0813
G01 X272.1046 Y188.0350 Z-1.1042
G01 X272.1422 Y188.0387 Z-1.1271
G01 X272.1800 Y188.0399 Z-1.1500
G01 X272.2179 Y188.0387 Z-1.1729
G01 X272.2555 Y188.0350 Z-1.1958
G01 X272.2929 Y188.0288 Z-1.2188
G01 X272.3297 Y188.0202 Z-1.2417
G01 X272.3659 Y188.0092 Z-1.2646
G01 X272.4014 Y187.9959 Z-1.2875
G01 X272.4358 Y187.9803 Z-1.3104
G01 X272.4692 Y187.9624 Z-1.3333
G01 X272.5013 Y187.9425 Z-1.3563
G01 X272.5321 Y187.9204 Z-1.3792
G01 X272.5613 Y187.8964 Z-1.4021
G01 X272.5890 Y187.8705 Z-1.4250
G01 X272.6148 Y187.8429 Z-1.4479
G01 X272.6388 Y187.8137 Z-1.4708
G01 X272.6609 Y187.7829 Z-1.4938
G01 X272.6809 Y187.7508 Z-1.5167
G01 X272.6987 Y187.7174 Z-1.5396
G01 X272.7143 Y187.6829 Z-1.5625
G01 X272.7277 Y187.6475 Z-1.5854
G01 X272.7386 Y187.6113 Z-1.6083
G01 X272.7472 Y187.5744 Z-1.6313
G01 X272.7534 Y187.5371 Z-1.6542
G01 X272.7571 Y187.4994 Z-1.6771
G01 X272.7583 Y187.4616 Z-1.7000
G01 X272.7571 Y187.4238 Z-1.7229
G01 X272.7534 Y187.3861 Z-1.7458
G01 X272.7472 Y187.3488 Z-1.7688
G01 X272.7386 Y187.3119 Z-1.7917
G01 X272.7277 Y187.2757 Z-1.8146
G01 X272.7143 Y187.2403 Z-1.8375
G01 X272.6987 Y187.2058 Z-1.8604
G01 X272.6809 Y187.1725 Z-1.8833
G01 X272.6609 Y187.1403 Z-1.9063
G01 X272.6388 Y187.1096 Z-1.9292
G01 X272.6148 Y187.0803 Z-1.9521
G01 X272.5890 Y187.0527 Z-1.9750
G01 X272.5613 Y187.0268 Z-1.9979
G01 X272.5321 Y187.0028 Z-2.0208
G01 X272.5013 Y186.9808 Z-2.0438
G01 X272.4692 Y186.9608 Z-2.0667
G01 X272.4358 Y186.9430 Z-2.0896
G01 X272.4014 Y186.9273 Z-2.1125
G01 X272.3659 Y186.9140 Z-2.1354
G01 X272.3297 Y186.9030 Z-2.1583
G01 X272.2929 Y186.8944 Z-2.1813
G01 X272.2555 Y186.8883 Z-2.2042
G01 X272.2179 Y186.8846 Z-2.2271
G01 X272.1800 Y186.8833 Z-2.2500
G01 X272.1422 Y186.8846 Z-2.2729
G01 X272.1046 Y186.8883 Z-2.2958
G01 X272.0672 Y186.8944 Z-2.3188
G01 X272.0304 Y186.9030 Z-2.3417
G01 X271.9942 Y186.9140 Z-2.3646
G01 X271.9587 Y186.9273 Z-2.3875
G01 X271.9243 Y186.9430 Z-2.4104
G01 X271.8909 Y186.9608 Z-2.4333
G01 X271.8588 Y186.9808 Z-2.4563
G01 X271.8280 Y187.0028 Z-2.4792
G01 X271.7987 Y187.0268 Z-2.5021
G01 X271.7711 Y187.0527 Z-2.5250
G01 X271.7453 Y187.0803 Z-2.5479
G01 X271.7212 Y187.1096 Z-2.5708
G01 X271.6992 Y187.1403 Z-2.5938
G01 X271.6792 Y187.1725 Z-2.6167
G01 X271.6614 Y187.2058 Z-2.6396
G01 X271.6458 Y187.2403 Z-2.6625
G01 X271.6324 Y187.2757 Z-2.6854
G01 X271.6214 Y187.3119 Z-2.7083
G01 X271.6129 Y187.3488 Z-2.7313
G01 X271.6067 Y187.3861 Z-2.7542
G01 X271.6030 Y187.4238 Z-2.7771
G01 X271.6017 Y187.4616 Z-2.8000
G01 X271.6030 Y187.4994 Z-2.8229
G01 X271.6067 Y187.5371 Z-2.8458
G01 X271.6129 Y187.5744 Z-2.8688
G01 X271.6214 Y187.6113 Z-2.8917
G01 X271.6324 Y187.6475 Z-2.9146
G01 X271.6458 Y187.6829 Z-2.9375
G01 X271.6614 Y187.7174 Z-2.9604
G01 X271.6792 Y187.7508 Z-2.9833
G01 X271.6992 Y187.7829 Z-3.0063
G01 X271.7212 Y187.8137 Z-3.0292
G01 X271.7453 Y187.8429 Z-3.0521
G01 X271.7711 Y187.8705 Z-3.0750
G01 X271.7987 Y187.8964 Z-3.0979
G01 X271.8280 Y187.9204 Z-3.1208
G01 X271.8588 Y187.9425 Z-3.1438
G01 X271.8909 Y187.9624 Z-3.1667
G01 X271.9243 Y187.9803 Z-3.1896
G01 X271.9587 Y187.9959 Z-3.2125
G01 X271.9942 Y188.0092 Z-3.2354
G01 X272.0304 Y188.0202 Z-3.2583
G01 X272.0672 Y188.0288 Z-3.2813
G01 X272.1046 Y188.0350 Z-3.3042
G01 X272.1422 Y188.0387 Z-3.3271
G01 X272.1800 Y188.0399 Z-3.3500
G01 X272.2179 Y188.0387 Z-3.3729
G01 X272.2555 Y188.0350 Z-3.3958
G01 X272.2929 Y188.0288 Z-3.4188
G01 X272.3297 Y188.0202 Z-3.4417
G01 X272.3659 Y188.0092 Z-3.4646
G01 X272.4014 Y187.9959 Z-3.4875
G01 X272.4358 Y187.9803 Z-3.5104
G01 X272.4692 Y187.9624 Z-3.5333
G01 X272.5013 Y187.9425 Z-3.5563
G01 X272.5321 Y187.9204 Z-3.5792
G01 X272.5613 Y187.8964 Z-3.6021
G01 X272.5890 Y187.8705 Z-3.6250
G01 X272.6148 Y187.8429 Z-3.6479
G01 X272.6388 Y187.8137 Z-3.6708
G01 X272.6609 Y187.7829 Z-3.6938
G01 X272.6809 Y187.7508 Z-3.7167
G01 X272.6987 Y187.7174 Z-3.7396
G01 X272.7143 Y187.6829 Z-3.7625
G01 X272.7277 Y187.6475 Z-3.7854
G01 X272.7386 Y187.6113 Z-3.8083
G01 X272.7472 Y187.5744 Z-3.8313
G01 X272.7534 Y187.5371 Z-3.8542
G01 X272.7571 Y187.4994 Z-3.8771
G01 X272.7583 Y187.4616 Z-3.9000
G01 X272.7571 Y187.4238 Z-3.9219
G01 X272.7534 Y187.3861 Z-3.9438
G01 X272.7472 Y187.3488 Z-3.9656
G01 X272.7386 Y187.3119 Z-3.9875
G01 X272.7277 Y187.2757 Z-4.0094
G01 X272.7143 Y187.2403 Z-4.0313
G01 X272.6987 Y187.2058 Z-4.0531
G01 X272.6809 Y187.1725 Z-4.0750
G01 X272.6609 Y187.1403 Z-4.0969
G01 X272.6388 Y187.1096 Z-4.1188
G01 X272.6148 Y187.0803 Z-4.1406
G01 X272.5890 Y187.0527 Z-4.1625
G01 X272.5613 Y187.0268 Z-4.1844
G01 X272.5321 Y187.0028 Z-4.2063
G01 X272.5013 Y186.9808 Z-4.2281
G01 X272.4692 Y186.9608 Z-4.2500
G01 X272.4358 Y186.9430 Z-4.2719
G01 X272.4014 Y186.9273 Z-4.2938
G01 X272.3659 Y186.9140 Z-4.3156
G01 X272.3297 Y186.9030 Z-4.3375
G01 X272.2929 Y186.8944 Z-4.3594
G01 X272.2555 Y186.8883 Z-4.3813
G01 X272.2179 Y186.8846 Z-4.4031
G01 X272.1800 Y186.8833 Z-4.4250
G01 X272.1422 Y186.8846 Z-4.4469
G01 X272.1046 Y186.8883 Z-4.4688
G01 X272.0672 Y186.8944 Z-4.4906
G01 X272.0304 Y186.9030 Z-4.5125
G01 X271.9942 Y186.9140 Z-4.5344
G01 X271.9587 Y186.9273 Z-4.5563
G01 X271.9243 Y186.9430 Z-4.5781
G01 X271.8909 Y186.9608 Z-4.6000
G01 X271.8588 Y186.9808 Z-4.6219
G01 X271.8280 Y187.0028 Z-4.6438
G01 X271.7987 Y187.0268 Z-4.6656
G01 X271.7711 Y187.0527 Z-4.6875
G01 X271.7453 Y187.0803 Z-4.7094
G01 X271.7212 Y187.1096 Z-4.7313
G01 X271.6992 Y187.1403 Z-4.7531
G01 X271.6792 Y187.1725 Z-4.7750
G01 X271.6614 Y187.2058 Z-4.7969
G01 X271.6458 Y187.2403 Z-4.8188
G01 X271.6324 Y187.2757 Z-4.8406
G01 X271.6214 Y187.3119 Z-4.8625
G01 X271.6129 Y187.3488 Z-4.8844
G01 X271.6067 Y187.3861 Z-4.9063
G01 X271.6030 Y187.4238 Z-4.9281
G01 X271.6017 Y187.4616 Z-4.9500
G01 X271.6030 Y187.4994 Z-4.9719
G01 X271.6067 Y187.5371 Z-4.9938
G01 X271.6129 Y187.5744 Z-5.0156
G01 X271.6214 Y187.6113 Z-5.0375
G01 X271.6324 Y187.6475 Z-5.0594
G01 X271.6458 Y187.6829 Z-5.0813
G01 X271.6614 Y187.7174 Z-5.1031
G01 X271.6792 Y187.7508 Z-5.1250
G01 X271.6992 Y187.7829 Z-5.1469
G01 X271.7212 Y187.8137 Z-5.1688
G01 X271.7453 Y187.8429 Z-5.1906
G01 X271.7711 Y187.8705 Z-5.2125
G01 X271.7987 Y187.8964 Z-5.2344
G01 X271.8280 Y187.9204 Z-5.2563
G01 X271.8588 Y187.9425 Z-5.2781
G01 X271.8909 Y187.9624 Z-5.3000
G01 X271.9243 Y187.9803 Z-5.3219
G01 X271.9587 Y187.9959 Z-5.3438
G01 X271.9942 Y188.0092 Z-5.3656
G01 X272.0304 Y188.0202 Z-5.3875
G01 X272.0672 Y188.0288 Z-5.4094
G01 X272.1046 Y188.0350 Z-5.4313
G01 X272.1422 Y188.0387 Z-5.4531
G01 X272.1800 Y188.0399 Z-5.4750
G01 X272.2179 Y188.0387 Z-5.4969
G01 X272.2555 Y188.0350 Z-5.5188
G01 X272.2929 Y188.0288 Z-5.5406
G01 X272.3297 Y188.0202 Z-5.5625
G01 X272.3659 Y188.0092 Z-5.5844
G01 X272.4014 Y187.9959 Z-5.6063
G01 X272.4358 Y187.9803 Z-5.6281
G01 X272.4692 Y187.9624 Z-5.6500
G01 X272.5013 Y187.9425 Z-5.6719
G01 X272.5321 Y187.9204 Z-5.6938
G01 X272.5613 Y187.8964 Z-5.7156
G01 X272.5890 Y187.8705 Z-5.7375
G01 X272.6148 Y187.8429 Z-5.7594
G01 X272.6388 Y187.8137 Z-5.7813
G01 X272.6609 Y187.7829 Z-5.8031
G01 X272.6809 Y187.7508 Z-5.8250
G01 X272.6987 Y187.7174 Z-5.8469
G01 X272.7143 Y187.6829 Z-5.8688
G01 X272.7277 Y187.6475 Z-5.8906
G01 X272.7386 Y187.6113 Z-5.9125
G01 X272.7472 Y187.5744 Z-5.9344
G01 X272.7534 Y187.5371 Z-5.9563
G01 X272.7571 Y187.4994 Z-5.9781
G01 X272.7583 Y187.4616 Z-6.0000
G01 X272.7571 Y187.4238
G01 X272.7534 Y187.3861
G01 X272.7472 Y187.3488
G01 X272.7386 Y187.3119
G01 X272.7277 Y187.2757
G01 X272.7143 Y187.2403
G01 X272.6987 Y187.2058
G01 X272.6809 Y187.1725
G01 X272.6609 Y187.1403
G01 X272.6388 Y187.1096
G01 X272.6148 Y187.0803
G01 X272.5890 Y187.0527
G01 X272.5613 Y187.0268
G01 X272.5321 Y187.0028
G01 X272.5013 Y186.9808
G01 X272.4692 Y186.9608
G01 X272.4358 Y186.9430
G01 X272.4014 Y186.9273
G01 X272.3659 Y186.9140
G01 X272.3297 Y186.9030
G01 X272.2929 Y186.8944
G01 X272.2555 Y186.8883
G01 X272.2179 Y186.8846
G01 X272.1800 Y186.8833
G01 X272.1422 Y186.8846
G01 X272.1046 Y186.8883
G01 X272.0672 Y186.8944
G01 X272.0304 Y186.9030
G01 X271.9942 Y186.9140
G01 X271.9587 Y186.9273
G01 X271.9243 Y186.9430
G01 X271.8909 Y186.9608
G01 X271.8588 Y186.9808
G01 X271.8280 Y187.0028
G01 X271.7987 Y187.0268
G01 X271.7711 Y187.0527
G01 X271.7453 Y187.0803
G01 X271.7212 Y187.1096
G01 X271.6992 Y187.1403
G01 X271.6792 Y187.1725
G01 X271.6614 Y187.2058
G01 X271.6458 Y187.2403
G01 X271.6324 Y187.2757
G01 X271.6214 Y187.3119
G01 X271.6129 Y187.3488
G01 X271.6067 Y187.3861
G01 X271.6030 Y187.4238
G01 X271.6017 Y187.4616
G01 X271.6030 Y187.4994
G01 X271.6067 Y187.5371
G01 X271.6129 Y187.5744
G01 X271.6214 Y187.6113
G01 X271.6324 Y187.6475
G01 X271.6458 Y187.6829
G01 X271.6614 Y187.7174
G01 X271.6792 Y187.7508
G01 X271.6992 Y187.7829
G01 X271.7212 Y187.8137
G01 X271.7453 Y187.8429
G01 X271.7711 Y187.8705
G01 X271.7987 Y187.8964
G01 X271.8280 Y187.9204
G01 X271.8588 Y187.9425
G01 X271.8909 Y187.9624
G01 X271.9243 Y187.9803
G01 X271.9587 Y187.9959
G01 X271.9942 Y188.0092
G01 X272.0304 Y188.0202
G01 X272.0672 Y188.0288
G01 X272.1046 Y188.0350
G01 X272.1422 Y188.0387
G01 X272.1800 Y188.0399
G01 X272.2179 Y188.0387
G01 X272.2555 Y188.0350
G01 X272.2929 Y188.0288
G01 X272.3297 Y188.0202
G01 X272.3659 Y188.0092
G01 X272.4014 Y187.9959
G01 X272.4358 Y187.9803
G01 X272.4692 Y187.9624
G01 X272.5013 Y187.9425
G01 X272.5321 Y187.9204
G01 X272.5613 Y187.8964
G01 X272.5890 Y187.8705
G01 X272.6148 Y187.8429
G01 X272.6388 Y187.8137
G01 X272.6609 Y187.7829
G01 X272.6809 Y187.7508
G01 X272.6987 Y187.7174
G01 X272.7143 Y187.6829
G01 X272.7277 Y187.6475
G01 X272.7386 Y187.6113
G01 X272.7472 Y187.5744
G01 X272.7534 Y187.5371
G01 X272.7571 Y187.4994
G01 X272.7583 Y187.4616
M107
M106 S240
G01 X272.7575 Y187.4389 Z-5.9875
M107
M106 S240
G01 X272.7548 Y187.4164 Z-5.9750
M107
M106 S240
G01 X272.7504 Y187.3941 Z-5.9625
M107
M106 S240
G01 X272.7442 Y187.3723 Z-5.9500
M107
M106 S240
G01 X272.7363 Y187.3510 Z-5.9375
M107
M106 S240
G01 X272.7268 Y187.3304 Z-5.9250
M107
M106 S240
G01 X272.7157 Y187.3105 Z-5.9125
M107
M106 S240
G01 X272.7031 Y187.2917 Z-5.9000
M107
M106 S240
G01 X272.6891 Y187.2738 Z-5.8875
M107
M106 S240
G01 X272.6737 Y187.2572 Z-5.8750
M107
M106 S240
G01 X272.6570 Y187.2418 Z-5.8625
M107
M106 S240
G01 X272.6392 Y187.2277 Z-5.8500
M107
M106 S240
G01 X272.6203 Y187.2151 Z-5.8375
M107
M106 S240
G01 X272.6005 Y187.2040 Z-5.8250
M107
M106 S240
G01 X272.5798 Y187.1945 Z-5.8125
M107
M106 S240
G01 X272.5585 Y187.1866 Z-5.8000
M107
M106 S240
G01 X272.5367 Y187.1805 Z-5.7875
M107
M106 S240
G01 X272.5144 Y187.1760 Z-5.7750
M107
M106 S240
G01 X272.4919 Y187.1734 Z-5.7625
M107
M106 S240
G01 X272.4692 Y187.1725 Z-5.7500
M107
M106 S240
G01 X272.4465 Y187.1734 Z-5.7375
M107
M106 S240
G01 X272.4240 Y187.1760 Z-5.7250
M107
M106 S240
G01 X272.4017 Y187.1805 Z-5.7125
M107
M106 S240
G01 X272.3798 Y187.1866 Z-5.7000
M107
M106 S240
G01 X272.3585 Y187.1945 Z-5.6875
M107
M106 S240
G01 X272.3379 Y187.2040 Z-5.6750
M107
M106 S240
G01 X272.3181 Y187.2151 Z-5.6625
M107
M106 S240
G01 X272.2992 Y187.2277 Z-5.6500
M107
M106 S240
G01 X272.2814 Y187.2418 Z-5.6375
M107
M106 S240
G01 X272.2647 Y187.2572 Z-5.6250
M107
M106 S240
G01 X272.2493 Y187.2738 Z-5.6125
M107
M106 S240
G01 X272.2353 Y187.2917 Z-5.6000
M107
M106 S240
G01 X272.2227 Y187.3105 Z-5.5875
M107
M106 S240
G01 X272.2116 Y187.3304 Z-5.5750
M107
M106 S240
G01 X272.2021 Y187.3510 Z-5.5625
M107
M106 S240
G01 X272.1942 Y187.3723 Z-5.5500
M107
M106 S240
G01 X272.1880 Y187.3941 Z-5.5375
M107
M106 S240
G01 X272.1836 Y187.4164 Z-5.5250
M107
M106 S240
G01 X272.1809 Y187.4389 Z-5.5125
M107
M106 S240
G01 X272.1800 Y187.4616 Z-5.5000
M107
G00 Z2.0000


;No. 32: Hole 27
G00 X269.5878 Y177.7366 Z2.0000
G00 Z0.5000
G01 Z-1.8000 F400
M106 S240
G01 X256.0767 F1000
M107
G00 Z2.0000
G00 X257.4752
G00 Z0.5000
G01 Z-1.8000 F400
M106 S240
G01 Y177.9113 F1000
G01 X260.1520 Y177.9325
G01 X262.8289 Y177.9381
G01 X265.5058 Y177.9280
G01 X268.1825 Y177.9021
G01 X268.1332 Y177.8573
G01 X268.0815 Y177.8151
G01 X268.0277 Y177.7757
G01 X267.9719 Y177.7392
G01 X267.9143 Y177.7056
G01 X267.8550 Y177.6751
G01 X267.7942 Y177.6478
G01 X267.7321 Y177.6237
G01 X267.6824 Y177.6154
G01 X267.6325 Y177.6083
G01 X267.5826 Y177.6023
G01 X267.5325 Y177.5973
G01 X266.8613 Y177.5666
G01 X266.1898 Y177.5469
G01 X265.5181 Y177.5381
G01 X264.8463 Y177.5404
G01 X262.8018 Y177.5384
G01 X258.0071 Y177.5407
G01 X257.5153 Y177.8731
G01 X257.4752 Y177.9113
G01 Y177.7366
M107
G00 Z2.0000


;No. 33: Hole 29
G00 X180.5614 Y146.9494 Z2.0000
G00 Z0.5000
G01 Z-1.8000 F400
M106 S240
G01 X177.7134 F1000
G01 X177.0231 Y148.5994
G01 X185.0965
G01 X181.6017
G01 Y150.2494
G01 X190.5035
G01 X186.8969
G01 Y151.8994
G01 X197.5069
G01 X193.3290
G01 Y153.5494
G01 X209.4546
G01 X202.1011
G01 Y155.1994
G01 X235.6849
G01 X228.4220
G01 Y153.5494
G01 X244.4547
G01 X240.2090
G01 Y151.8994
G01 X250.8522
G01 X247.2259
G01 Y150.2494
G01 X256.1355
G01 X252.6654
G01 Y148.5994
G01 X260.7361
G01 X260.0575 Y146.9494
G01 X257.2027
M107
G00 Z2.0000
G00 Z0.5000
G01 Z-1.8000 F400
M106 S240
G01 X257.1224 Y146.7444 F1000
G01 X255.5815 Y147.3284
G01 X254.0314 Y147.8875
G01 X252.4725 Y148.4213
G01 X250.9051 Y148.9298
G01 X249.3297 Y149.4129
G01 X247.7466 Y149.8703
G01 X246.1564 Y150.3021
G01 X244.5593 Y150.7080
G01 X242.9559 Y151.0880
G01 X241.3465 Y151.4419
G01 X239.7317 Y151.7697
G01 X238.1117 Y152.0714
G01 X236.4870 Y152.3467
G01 X234.8581 Y152.5956
G01 X233.2254 Y152.8181
G01 X231.5893 Y153.0142
G01 X229.9502 Y153.1837
G01 X228.3086 Y153.3266
G01 X226.6649 Y153.4429
G01 X225.0195 Y153.5325
G01 X223.4851 Y153.5882
G01 X221.9502 Y153.6286
G01 X220.4150 Y153.6537
G01 X218.8796 Y153.6634
G01 X217.3442 Y153.6577
G01 X215.8090 Y153.6367
G01 X214.2740 Y153.6003
G01 X212.7395 Y153.5486
G01 X210.8347 Y153.4414
G01 X208.9323 Y153.2986
G01 X207.0328 Y153.1201
G01 X205.1371 Y152.9060
G01 X203.2457 Y152.6565
G01 X201.3593 Y152.3716
G01 X199.4786 Y152.0514
G01 X197.6042 Y151.6959
G01 X195.7368 Y151.3055
G01 X193.8771 Y150.8800
G01 X192.0256 Y150.4199
G01 X190.1831 Y149.9251
G01 X188.3502 Y149.3958
G01 X186.5276 Y148.8323
G01 X184.7158 Y148.2348
G01 X182.9155 Y147.6034
G01 X181.7041 Y147.1520
G01 X180.4976 Y146.6875
G01 X179.2963 Y146.2098
G01 X178.1003 Y145.7191
G01 X178.0850 Y145.7335
G01 X177.7073 Y146.4641
G01 X177.3406 Y147.2003
G01 X176.9850 Y147.9419
G01 X176.6407 Y148.6888
G01 X178.4412 Y149.3721
G01 X180.2528 Y150.0258
G01 X182.0748 Y150.6497
G01 X183.9068 Y151.2436
G01 X185.7482 Y151.8075
G01 X187.5987 Y152.3411
G01 X189.4576 Y152.8444
G01 X191.3246 Y153.3171
G01 X193.1990 Y153.7591
G01 X195.0805 Y154.1704
G01 X196.9684 Y154.5508
G01 X198.8623 Y154.9002
G01 X200.7617 Y155.2185
G01 X202.6660 Y155.5057
G01 X204.5748 Y155.7616
G01 X206.4875 Y155.9862
G01 X208.4037 Y156.1795
G01 X210.3227 Y156.3413
G01 X212.2442 Y156.4717
G01 X214.1675 Y156.5705
G01 X216.0922 Y156.6378
G01 X218.0177 Y156.6736
G01 X219.9436 Y156.6779
G01 X221.8693 Y156.6505
G01 X223.8793 Y156.5727
G01 X225.8878 Y156.4608
G01 X227.8941 Y156.3148
G01 X229.8976 Y156.1346
G01 X231.8977 Y155.9205
G01 X233.8939 Y155.6724
G01 X235.8857 Y155.3903
G01 X237.8723 Y155.0745
G01 X239.8533 Y154.7250
G01 X241.8280 Y154.3418
G01 X243.7960 Y153.9251
G01 X245.7565 Y153.4751
G01 X247.7092 Y152.9917
G01 X249.6534 Y152.4753
G01 X251.5885 Y151.9259
G01 X253.5139 Y151.3437
G01 X255.4292 Y150.7288
G01 X257.3338 Y150.0815
G01 X259.2271 Y149.4018
G01 X261.1086 Y148.6902
G01 X261.1122 Y148.6692
G01 X260.7723 Y147.9182
G01 X260.4181 Y147.1737
G01 X260.0499 Y146.4361
G01 X259.6678 Y145.7057
G01 X259.0340 Y145.9716
G01 X258.3985 Y146.2334
G01 X257.7613 Y146.4910
G01 X257.1224 Y146.7444
G01 X257.2027 Y146.9494
M107
G00 Z2.0000


;No. 34: Hole 11
G00 X35.4257 Y146.9494 Z2.0000
G00 Z0.5000
G01 Z-1.8000 F400
M106 S240
G01 X32.5777 F1000
G01 X31.8874 Y148.5994
G01 X39.9608
G01 X36.4659
G01 Y150.2494
G01 X45.3677
G01 X41.7611
G01 Y151.8994
G01 X52.3711
G01 X48.1933
G01 Y153.5494
G01 X64.3189
G01 X56.9654
G01 Y155.1994
G01 X90.5491
G01 X83.2863
G01 Y153.5494
G01 X99.3189
G01 X95.0733
G01 Y151.8994
G01 X105.7165
G01 X102.0902
G01 Y150.2494
G01 X110.9998
G01 X107.5296
G01 Y148.5994
G01 X115.6004
G01 X114.9218 Y146.9494
G01 X112.0670
M107
G00 Z2.0000
G00 Z0.5000
G01 Z-1.8000 F400
M106 S240
G01 X111.9866 Y146.7444 F1000
G01 X110.4458 Y147.3284
G01 X108.8957 Y147.8875
G01 X107.3368 Y148.4213
G01 X105.7694 Y148.9298
G01 X104.1939 Y149.4129
G01 X102.6109 Y149.8704
G01 X101.0206 Y150.3021
G01 X99.4236 Y150.7080
G01 X97.8202 Y151.0880
G01 X96.2108 Y151.4419
G01 X94.5959 Y151.7697
G01 X92.9759 Y152.0714
G01 X91.3513 Y152.3467
G01 X89.7224 Y152.5956
G01 X88.0896 Y152.8181
G01 X86.4535 Y153.0142
G01 X84.8144 Y153.1837
G01 X83.1728 Y153.3266
G01 X81.5291 Y153.4429
G01 X79.8837 Y153.5325
G01 X78.3493 Y153.5882
G01 X76.8145 Y153.6286
G01 X75.2793 Y153.6537
G01 X73.7439 Y153.6634
G01 X72.2085 Y153.6577
G01 X70.6732 Y153.6367
G01 X69.1382 Y153.6003
G01 X67.6037 Y153.5486
G01 X65.6989 Y153.4414
G01 X63.7965 Y153.2986
G01 X61.8971 Y153.1201
G01 X60.0014 Y152.9060
G01 X58.1100 Y152.6565
G01 X56.2236 Y152.3716
G01 X54.3429 Y152.0514
G01 X52.4685 Y151.6959
G01 X50.6011 Y151.3055
G01 X48.7414 Y150.8801
G01 X46.8899 Y150.4199
G01 X45.0474 Y149.9251
G01 X43.2145 Y149.3958
G01 X41.3918 Y148.8323
G01 X39.5801 Y148.2348
G01 X37.7798 Y147.6034
G01 X36.5684 Y147.1520
G01 X35.3619 Y146.6875
G01 X34.1606 Y146.2098
G01 X32.9645 Y145.7191
G01 X32.9493 Y145.7335
G01 X32.5715 Y146.4641
G01 X32.2048 Y147.2003
G01 X31.8493 Y147.9419
G01 X31.5049 Y148.6888
G01 X33.3055 Y149.3721
G01 X35.1170 Y150.0258
G01 X36.9390 Y150.6497
G01 X38.7710 Y151.2436
G01 X40.6125 Y151.8075
G01 X42.4630 Y152.3411
G01 X44.3219 Y152.8444
G01 X46.1889 Y153.3171
G01 X48.0633 Y153.7591
G01 X49.9447 Y154.1704
G01 X51.8327 Y154.5508
G01 X53.7266 Y154.9002
G01 X55.6259 Y155.2185
G01 X57.5303 Y155.5057
G01 X59.4391 Y155.7616
G01 X61.3518 Y155.9862
G01 X63.2679 Y156.1795
G01 X65.1870 Y156.3413
G01 X67.1084 Y156.4717
G01 X69.0318 Y156.5705
G01 X70.9565 Y156.6378
G01 X72.8820 Y156.6736
G01 X74.8078 Y156.6779
G01 X76.7335 Y156.6505
G01 X78.7436 Y156.5727
G01 X80.7521 Y156.4608
G01 X82.7583 Y156.3148
G01 X84.7618 Y156.1346
G01 X86.7620 Y155.9205
G01 X88.7582 Y155.6724
G01 X90.7499 Y155.3903
G01 X92.7365 Y155.0745
G01 X94.7175 Y154.7250
G01 X96.6923 Y154.3418
G01 X98.6602 Y153.9251
G01 X100.6208 Y153.4751
G01 X102.5735 Y152.9917
G01 X104.5176 Y152.4753
G01 X106.4527 Y151.9259
G01 X108.3782 Y151.3437
G01 X110.2935 Y150.7288
G01 X112.1981 Y150.0815
G01 X114.0914 Y149.4018
G01 X115.9728 Y148.6902
G01 X115.9765 Y148.6692
G01 X115.6365 Y147.9182
G01 X115.2824 Y147.1737
G01 X114.9142 Y146.4361
G01 X114.5321 Y145.7057
G01 X113.8983 Y145.9716
G01 X113.2628 Y146.2334
G01 X112.6255 Y146.4910
G01 X111.9866 Y146.7444
G01 X112.0670 Y146.9494
M107
G00 Z2.0000


;No. 35: Hole 12
G00 X74.5313 Y82.9141 Z2.0000
G00 Z0.5000
G01 Z-1.8000 F400
M106 S240
G01 X72.9386 F1000
G01 X72.6430 Y84.5641
G01 X74.8243
G01 X75.1174 Y86.2141
G01 X72.3475
G01 X72.0520 Y87.8641
G01 X75.4108
G01 X75.7043 Y89.5141
G01 X71.7564
G01 X71.4609 Y91.1641
G01 X75.9978
G01 X76.2913 Y92.8141
G01 X71.1653
G01 X70.8698 Y94.4641
G01 X76.5849
G01 X76.8784 Y96.1141
G01 X70.5742
G01 X70.2787 Y97.7641
G01 X77.1724
G01 X77.4664 Y99.4141
G01 X69.9832
G01 X69.6876 Y101.0641
G01 X77.7604
G01 X78.0544 Y102.7141
G01 X69.3921
G01 X69.0965 Y104.3641
G01 X78.3485
G01 X78.6425 Y106.0141
G01 X68.8010
G01 X68.5054 Y107.6641
G01 X78.9365
G01 X79.2305 Y109.3141
G01 X68.2099
G01 X67.9144 Y110.9641
G01 X79.5245
G01 X79.8186 Y112.6141
G01 X67.6188
G01 X67.3233 Y114.2641
G01 X80.1126
G01 X80.4066 Y115.9141
G01 X67.0277
G01 X66.7322 Y117.5641
G01 X80.7010
G01 X80.9956 Y119.2141
G01 X66.4367
G01 X66.1411 Y120.8641
G01 X81.2902
G01 X81.5849 Y122.5141
G01 X65.8456
G01 X65.5500 Y124.1641
G01 X81.8795
G01 X82.1741 Y125.8141
G01 X65.2545
G01 X64.9589 Y127.4641
G01 X82.4688
G01 X82.7634 Y129.1141
G01 X64.6634
G01 X64.3679 Y130.7641
G01 X83.0585
G01 X83.3538 Y132.4141
G01 X64.0723
G01 X63.7768 Y134.0641
G01 X83.6491
G01 X83.9452 Y135.7141
G01 X63.4812
G01 X63.1857 Y137.3641
G01 X72.9799
G01 X71.5078 Y139.0141
G01 X62.8901
G01 X62.2272 Y140.6641
G01 X70.1280
G01 X68.7640 Y142.3141
G01 X38.2241
G01 X36.5575 Y140.6641
G01 X54.4089
G01 X47.7985
G01 Y139.0141
G01 X38.2864
G01 X40.4589
G01 Y137.3641
G01 X45.8161
G01 X44.8486 Y135.7141
G01 X43.1760
M107
G00 Z2.0000
G00 X74.6093
G00 Z0.5000
G01 Z-1.8000 F400
M106 S240
G01 Y137.3641 F1000
G01 X84.2414
G01 X84.5391 Y139.0141
G01 X76.0069
G01 X77.3626 Y140.6641
G01 X85.2515
G01 X78.7182
G01 Y142.3141
G01 X109.2290
G01 X110.9247 Y140.6641
G01 X93.1085
G01 X99.6687
G01 Y139.0141
G01 X109.1875
G01 X107.0181
G01 Y137.3641
G01 X101.6627
G01 X102.6126 Y135.7141
G01 X104.2721
M107
G00 Z2.0000
G00 X67.4080 Y142.3141
G00 Z0.5000
G01 Z-1.8000 F400
M106 S240
G01 Y143.9641 F1000
G01 X42.8416
G01 X48.6923
G01 Y145.6141
G01 X66.0539
G01 X64.6998 Y147.2641
G01 X57.1139
M107
G00 Z2.0000
G00 X80.0739 Y142.3141
G00 Z0.5000
G01 Z-1.8000 F400
M106 S240
G01 Y143.9641 F1000
G01 X104.6159
G01 X98.8066
G01 Y145.6141
G01 X81.4324
G01 X82.7973 Y147.2641
G01 X90.3789
M107
G00 Z2.0000
G00 Z0.5000
G01 Z-1.8000 F400
M106 S240
G01 X90.4101 Y147.4819 F1000
G01 X90.5082 Y147.4679
G01 X91.8850 Y147.2580
G01 X93.2582 Y147.0256
G01 X94.6273 Y146.7708
G01 X95.9922 Y146.4935
G01 X97.3522 Y146.1938
G01 X98.7072 Y145.8719
G01 X100.0567 Y145.5278
G01 X101.4004 Y145.1616
G01 X102.7379 Y144.7734
G01 X104.0688 Y144.3633
G01 X105.3929 Y143.9314
G01 X106.7097 Y143.4779
G01 X108.0188 Y143.0029
G01 X109.3200 Y142.5064
G01 X110.6129 Y141.9886
G01 X111.8971 Y141.4497
G01 X111.3268 Y140.7935
G01 X110.7317 Y140.1598
G01 X110.1126 Y139.5494
G01 X109.4705 Y138.9633
G01 X108.8063 Y138.4024
G01 X108.1209 Y137.8674
G01 X107.4155 Y137.3593
G01 X106.6911 Y136.8787
G01 X106.2122 Y136.5726
G01 X105.7277 Y136.2755
G01 X105.2377 Y135.9876
G01 X104.7424 Y135.7089
G01 X104.2420 Y135.4395
G01 X103.7365 Y135.1796
G01 X103.2263 Y134.9292
G01 X102.7115 Y134.6884
G01 X102.5866 Y135.1577
G01 X102.4257 Y135.6159
G01 X102.2299 Y136.0603
G01 X102.0002 Y136.4882
G01 X101.7380 Y136.8970
G01 X101.4450 Y137.2843
G01 X101.1229 Y137.6477
G01 X100.7736 Y137.9851
G01 X100.3993 Y138.2945
G01 X100.0021 Y138.5739
G01 X99.5845 Y138.8218
G01 X99.1489 Y139.0365
G01 X98.6451 Y139.2527
G01 X98.1335 Y139.4498
G01 X97.6149 Y139.6275
G01 X97.0900 Y139.7856
G01 X96.5595 Y139.9239
G01 X96.0243 Y140.0421
G01 X95.4849 Y140.1402
G01 X94.9422 Y140.2179
G01 X94.3064 Y140.3062
G01 X93.6692 Y140.3836
G01 X93.0308 Y140.4501
G01 X92.3913 Y140.5055
G01 X91.7510 Y140.5500
G01 X91.1100 Y140.5835
G01 X90.4685 Y140.6060
G01 X89.8267 Y140.6174
G01 X88.8680 Y140.6584
G01 X87.9088 Y140.6814
G01 X86.9493 Y140.6867
G01 X85.9899 Y140.6740
G01 X85.8941 Y140.6690
G01 X85.7991 Y140.6558
G01 X85.7056 Y140.6346
G01 X85.6143 Y140.6054
G01 X85.5258 Y140.5684
G01 X85.4408 Y140.5241
G01 X85.3599 Y140.4726
G01 X85.2837 Y140.4144
G01 X85.2127 Y140.3498
G01 X85.1476 Y140.2795
G01 X85.0887 Y140.2038
G01 X85.0365 Y140.1233
G01 X84.9914 Y140.0387
G01 X84.9538 Y139.9505
G01 X84.9238 Y139.8594
G01 X84.9017 Y139.7661
G01 X84.7744 Y139.0796
G01 X84.5276 Y137.7134
G01 X83.9147 Y134.2993
G01 X82.9373 Y128.8372
G01 X80.2557 Y113.8158
G01 X76.6065 Y93.3311
G01 X75.0279 Y84.4537
G01 X73.8121 Y77.6048
G01 X73.7373 Y77.2071
G01 X62.5301 Y139.7764
G01 X62.5086 Y139.8749
G01 X62.4784 Y139.9712
G01 X62.4397 Y140.0644
G01 X62.3929 Y140.1537
G01 X62.3383 Y140.2385
G01 X62.2763 Y140.3182
G01 X62.2076 Y140.3920
G01 X62.1325 Y140.4593
G01 X62.0517 Y140.5198
G01 X61.9658 Y140.5727
G01 X61.8756 Y140.6178
G01 X61.7817 Y140.6547
G01 X61.6849 Y140.6831
G01 X61.5859 Y140.7028
G01 X61.4856 Y140.7135
G01 X61.3847 Y140.7153
G01 X61.2651 Y140.7193
G01 X60.9549 Y140.7213
G01 X60.6446 Y140.7205
G01 X60.3343 Y140.7172
G01 X60.0241 Y140.7112
G01 X59.1375 Y140.7011
G01 X58.2511 Y140.6783
G01 X57.3651 Y140.6431
G01 X56.4797 Y140.5952
G01 X55.5951 Y140.5348
G01 X54.7114 Y140.4619
G01 X53.8289 Y140.3765
G01 X52.9476 Y140.2786
G01 X52.3847 Y140.2067
G01 X51.8247 Y140.1148
G01 X51.2682 Y140.0031
G01 X50.7161 Y139.8717
G01 X50.1691 Y139.7207
G01 X49.6277 Y139.5504
G01 X49.0927 Y139.3610
G01 X48.5648 Y139.1526
G01 X48.1548 Y138.9683
G01 X47.7588 Y138.7555
G01 X47.3787 Y138.5155
G01 X47.0164 Y138.2493
G01 X46.6738 Y137.9583
G01 X46.3525 Y137.6439
G01 X46.0540 Y137.3077
G01 X45.7800 Y136.9514
G01 X45.5317 Y136.5766
G01 X45.3104 Y136.1853
G01 X45.1171 Y135.7795
G01 X44.9528 Y135.3610
G01 X44.8995 Y135.1917
G01 X44.8486 Y135.0217
G01 X44.8000 Y134.8511
G01 X44.7538 Y134.6797
G01 X44.0284 Y135.0191
G01 X43.3131 Y135.3792
G01 X42.6085 Y135.7598
G01 X41.9152 Y136.1606
G01 X41.2337 Y136.5812
G01 X40.5646 Y137.0213
G01 X39.9085 Y137.4806
G01 X39.2660 Y137.9585
G01 X38.6375 Y138.4548
G01 X38.0235 Y138.9691
G01 X37.4247 Y139.5008
G01 X36.8415 Y140.0496
G01 X36.5119 Y140.3829
G01 X36.1951 Y140.7283
G01 X35.8914 Y141.0852
G01 X35.6013 Y141.4533
G01 X36.5131 Y141.8466
G01 X37.9008 Y142.4117
G01 X39.2986 Y142.9515
G01 X40.7059 Y143.4657
G01 X42.1224 Y143.9544
G01 X43.5474 Y144.4172
G01 X44.9807 Y144.8541
G01 X46.4216 Y145.2649
G01 X47.8698 Y145.6495
G01 X49.3247 Y146.0077
G01 X50.7859 Y146.3394
G01 X52.2529 Y146.6446
G01 X53.7252 Y146.9230
G01 X55.0244 Y147.1571
G01 X56.3271 Y147.3707
G01 X57.6330 Y147.5638
G01 X58.9418 Y147.7365
G01 X60.2531 Y147.8885
G01 X61.5666 Y148.0200
G01 X62.8821 Y148.1308
G01 X64.1991 Y148.2210
G01 X68.5544 Y142.9141
G01 X69.6045 Y141.6209
G01 X70.6681 Y140.3387
G01 X71.7450 Y139.0677
G01 X72.8351 Y137.8080
G01 X72.8932 Y137.7305
G01 X72.9575 Y137.6582
G01 X73.0277 Y137.5916
G01 X73.1032 Y137.5310
G01 X73.1834 Y137.4769
G01 X73.2680 Y137.4296
G01 X73.3561 Y137.3896
G01 X73.4473 Y137.3571
G01 X73.5408 Y137.3323
G01 X73.6362 Y137.3154
G01 X73.7326 Y137.3065
G01 X73.8293 Y137.3057
G01 X73.9259 Y137.3129
G01 X74.0215 Y137.3282
G01 X74.1155 Y137.3514
G01 X74.2072 Y137.3823
G01 X74.2701 Y137.4100
G01 X74.3312 Y137.4415
G01 X74.3902 Y137.4768
G01 X74.4468 Y137.5157
G01 X74.5009 Y137.5581
G01 X74.5523 Y137.6038
G01 X74.6007 Y137.6526
G01 X74.6460 Y137.7043
G01 X79.8289 Y144.0126
G01 X80.6897 Y145.0619
G01 X81.5531 Y146.1090
G01 X82.4190 Y147.1540
G01 X83.2876 Y148.1968
G01 X83.3016 Y148.2086
G01 X84.1934 Y148.1536
G01 X85.0845 Y148.0883
G01 X85.9748 Y148.0127
G01 X86.8642 Y147.9269
G01 X87.7525 Y147.8310
G01 X88.6397 Y147.7248
G01 X89.5256 Y147.6084
G01 X90.4101 Y147.4819
G01 X90.3789 Y147.2641
M107
G00 Z2.0000


;No. 36: Hole 30
G00 X218.0743 Y82.9141 Z2.0000
G00 Z0.5000
G01 Z-1.8000 F400
M106 S240
G01 X219.6670 F1000
G01 X219.9601 Y84.5641
G01 X217.7788
G01 X217.4832 Y86.2141
G01 X220.2531
G01 X220.5465 Y87.8641
G01 X217.1877
G01 X216.8922 Y89.5141
G01 X220.8401
G01 X221.1336 Y91.1641
G01 X216.5966
G01 X216.3011 Y92.8141
G01 X221.4271
G01 X221.7206 Y94.4641
G01 X216.0055
G01 X215.7100 Y96.1141
G01 X222.0141
G01 X222.3081 Y97.7641
G01 X215.4144
G01 X215.1189 Y99.4141
G01 X222.6022
G01 X222.8962 Y101.0641
G01 X214.8234
G01 X214.5278 Y102.7141
G01 X223.1902
G01 X223.4842 Y104.3641
G01 X214.2323
G01 X213.9367 Y106.0141
G01 X223.7782
G01 X224.0722 Y107.6641
G01 X213.6412
G01 X213.3457 Y109.3141
G01 X224.3663
G01 X224.6603 Y110.9641
G01 X213.0501
G01 X212.7546 Y112.6141
G01 X224.9543
G01 X225.2483 Y114.2641
G01 X212.4590
G01 X212.1635 Y115.9141
G01 X225.5423
G01 X225.8367 Y117.5641
G01 X211.8679
G01 X211.5724 Y119.2141
G01 X226.1313
G01 X226.4260 Y120.8641
G01 X211.2769
G01 X210.9813 Y122.5141
G01 X226.7206
G01 X227.0152 Y124.1641
G01 X210.6858
G01 X210.3902 Y125.8141
G01 X227.3099
G01 X227.6045 Y127.4641
G01 X210.0947
G01 X209.7991 Y129.1141
G01 X227.8991
G01 X228.1943 Y130.7641
G01 X209.5036
G01 X209.2081 Y132.4141
G01 X228.4896
G01 X228.7849 Y134.0641
G01 X208.9125
G01 X208.6170 Y135.7141
G01 X229.0809
G01 X218.1157
G01 Y137.3641
G01 X208.3214
G01 X208.0259 Y139.0141
G01 X216.6435
G01 X215.2638 Y140.6641
G01 X207.3629
G01 X213.8997
G01 Y142.3141
G01 X183.3598
G01 X181.6932 Y140.6641
G01 X199.5447
G01 X192.9343
G01 Y139.0141
G01 X183.4222
G01 X185.5946
G01 Y137.3641
G01 X190.9519
G01 X189.9843 Y135.7141
G01 X188.3117
M107
G00 Z2.0000
G00 X219.7451
G00 Z0.5000
G01 Z-1.8000 F400
M106 S240
G01 Y137.3641 F1000
G01 X229.3772
G01 X229.6748 Y139.0141
G01 X221.1427
G01 X222.4983 Y140.6641
G01 X230.3873
G01 X223.8540
G01 Y142.3141
G01 X254.3647
G01 X256.0605 Y140.6641
G01 X238.2442
G01 X244.8044
G01 Y139.0141
G01 X254.3233
G01 X252.1538
G01 Y137.3641
G01 X246.7984
G01 X247.7483 Y135.7141
G01 X249.4078
M107
G00 Z2.0000
G00 X212.5437 Y142.3141
G00 Z0.5000
G01 Z-1.8000 F400
M106 S240
G01 Y143.9641 F1000
G01 X187.9773
G01 X193.8281
G01 Y145.6141
G01 X211.1896
G01 X209.8355 Y147.2641
G01 X202.2497
M107
G00 Z2.0000
G00 X225.2096 Y142.3141
G00 Z0.5000
G01 Z-1.8000 F400
M106 S240
G01 Y143.9641 F1000
G01 X249.7517
G01 X243.9424
G01 Y145.6141
G01 X226.5681
G01 X227.9330 Y147.2641
G01 X235.5146
M107
G00 Z2.0000
G00 Z0.5000
G01 Z-1.8000 F400
M106 S240
G01 X235.5458 Y147.4819 F1000
G01 X235.6440 Y147.4678
G01 X237.0208 Y147.2580
G01 X238.3939 Y147.0256
G01 X239.7631 Y146.7708
G01 X241.1279 Y146.4935
G01 X242.4880 Y146.1938
G01 X243.8429 Y145.8719
G01 X245.1925 Y145.5278
G01 X246.5361 Y145.1616
G01 X247.8736 Y144.7734
G01 X249.2046 Y144.3633
G01 X250.5286 Y143.9314
G01 X251.8454 Y143.4779
G01 X253.1546 Y143.0029
G01 X254.4558 Y142.5064
G01 X255.7486 Y141.9886
G01 X257.0328 Y141.4497
G01 X256.4626 Y140.7935
G01 X255.8674 Y140.1598
G01 X255.2484 Y139.5494
G01 X254.6062 Y138.9633
G01 X253.9420 Y138.4024
G01 X253.2567 Y137.8674
G01 X252.5513 Y137.3593
G01 X251.8268 Y136.8787
G01 X251.3480 Y136.5726
G01 X250.8634 Y136.2755
G01 X250.3735 Y135.9876
G01 X249.8781 Y135.7089
G01 X249.3777 Y135.4395
G01 X248.8723 Y135.1796
G01 X248.3621 Y134.9292
G01 X247.8473 Y134.6884
G01 X247.7224 Y135.1577
G01 X247.5615 Y135.6159
G01 X247.3656 Y136.0603
G01 X247.1359 Y136.4882
G01 X246.8738 Y136.8970
G01 X246.5808 Y137.2843
G01 X246.2587 Y137.6477
G01 X245.9094 Y137.9851
G01 X245.5350 Y138.2945
G01 X245.1378 Y138.5739
G01 X244.7202 Y138.8218
G01 X244.2846 Y139.0365
G01 X243.7808 Y139.2527
G01 X243.2693 Y139.4498
G01 X242.7507 Y139.6275
G01 X242.2258 Y139.7856
G01 X241.6953 Y139.9239
G01 X241.1600 Y140.0421
G01 X240.6206 Y140.1402
G01 X240.0780 Y140.2179
G01 X239.4422 Y140.3062
G01 X238.8050 Y140.3836
G01 X238.1665 Y140.4500
G01 X237.5271 Y140.5055
G01 X236.8867 Y140.5500
G01 X236.2457 Y140.5835
G01 X235.6042 Y140.6060
G01 X234.9624 Y140.6174
G01 X234.0038 Y140.6584
G01 X233.0446 Y140.6814
G01 X232.0851 Y140.6867
G01 X231.1256 Y140.6740
G01 X231.0299 Y140.6690
G01 X230.9349 Y140.6558
G01 X230.8414 Y140.6346
G01 X230.7500 Y140.6054
G01 X230.6615 Y140.5684
G01 X230.5765 Y140.5241
G01 X230.4956 Y140.4726
G01 X230.4194 Y140.4144
G01 X230.3485 Y140.3498
G01 X230.2833 Y140.2795
G01 X230.2245 Y140.2038
G01 X230.1723 Y140.1233
G01 X230.1272 Y140.0387
G01 X230.0895 Y139.9505
G01 X230.0595 Y139.8594
G01 X230.0375 Y139.7661
G01 X229.9102 Y139.0796
G01 X229.6634 Y137.7134
G01 X229.0505 Y134.2993
G01 X228.0730 Y128.8372
G01 X225.3914 Y113.8158
G01 X221.7423 Y93.3311
G01 X220.1637 Y84.4537
G01 X218.9478 Y77.6048
G01 X218.8731 Y77.2071
G01 X207.6659 Y139.7764
G01 X207.6443 Y139.8749
G01 X207.6141 Y139.9712
G01 X207.5754 Y140.0644
G01 X207.5286 Y140.1537
G01 X207.4740 Y140.2385
G01 X207.4121 Y140.3182
G01 X207.3433 Y140.3920
G01 X207.2682 Y140.4593
G01 X207.1874 Y140.5198
G01 X207.1016 Y140.5727
G01 X207.0113 Y140.6178
G01 X206.9174 Y140.6547
G01 X206.8206 Y140.6831
G01 X206.7217 Y140.7028
G01 X206.6214 Y140.7135
G01 X206.5205 Y140.7153
G01 X206.4009 Y140.7193
G01 X206.0906 Y140.7213
G01 X205.7803 Y140.7205
G01 X205.4700 Y140.7172
G01 X205.1598 Y140.7112
G01 X204.2732 Y140.7010
G01 X203.3868 Y140.6783
G01 X202.5009 Y140.6430
G01 X201.6155 Y140.5952
G01 X200.7309 Y140.5348
G01 X199.8472 Y140.4619
G01 X198.9646 Y140.3765
G01 X198.0834 Y140.2786
G01 X197.5204 Y140.2067
G01 X196.9604 Y140.1148
G01 X196.4040 Y140.0031
G01 X195.8519 Y139.8717
G01 X195.3048 Y139.7207
G01 X194.7634 Y139.5504
G01 X194.2285 Y139.3610
G01 X193.7006 Y139.1526
G01 X193.2906 Y138.9683
G01 X192.8945 Y138.7555
G01 X192.5145 Y138.5155
G01 X192.1522 Y138.2493
G01 X191.8095 Y137.9583
G01 X191.4882 Y137.6439
G01 X191.1898 Y137.3077
G01 X190.9157 Y136.9514
G01 X190.6674 Y136.5766
G01 X190.4461 Y136.1853
G01 X190.2528 Y135.7795
G01 X190.0886 Y135.3610
G01 X190.0353 Y135.1917
G01 X189.9843 Y135.0217
G01 X189.9358 Y134.8511
G01 X189.8896 Y134.6797
G01 X189.1642 Y135.0191
G01 X188.4489 Y135.3792
G01 X187.7442 Y135.7598
G01 X187.0509 Y136.1606
G01 X186.3694 Y136.5812
G01 X185.7004 Y137.0213
G01 X185.0443 Y137.4806
G01 X184.4017 Y137.9585
G01 X183.7732 Y138.4548
G01 X183.1593 Y138.9691
G01 X182.5604 Y139.5008
G01 X181.9772 Y140.0496
G01 X181.6477 Y140.3829
G01 X181.3308 Y140.7282
G01 X181.0271 Y141.0852
G01 X180.7370 Y141.4533
G01 X181.6488 Y141.8466
G01 X183.0365 Y142.4117
G01 X184.4343 Y142.9515
G01 X185.8416 Y143.4657
G01 X187.2581 Y143.9544
G01 X188.6832 Y144.4172
G01 X190.1164 Y144.8541
G01 X191.5574 Y145.2649
G01 X193.0056 Y145.6495
G01 X194.4605 Y146.0077
G01 X195.9217 Y146.3394
G01 X197.3886 Y146.6446
G01 X198.8609 Y146.9230
G01 X200.1601 Y147.1571
G01 X201.4628 Y147.3707
G01 X202.7687 Y147.5638
G01 X204.0775 Y147.7365
G01 X205.3888 Y147.8885
G01 X206.7024 Y148.0200
G01 X208.0178 Y148.1308
G01 X209.3349 Y148.2210
G01 X213.6901 Y142.9141
G01 X214.7403 Y141.6209
G01 X215.8039 Y140.3387
G01 X216.8807 Y139.0677
G01 X217.9708 Y137.8080
G01 X218.0289 Y137.7305
G01 X218.0933 Y137.6582
G01 X218.1634 Y137.5916
G01 X218.2389 Y137.5310
G01 X218.3192 Y137.4769
G01 X218.4037 Y137.4296
G01 X218.4918 Y137.3896
G01 X218.5830 Y137.3571
G01 X218.6766 Y137.3323
G01 X218.7719 Y137.3154
G01 X218.8683 Y137.3065
G01 X218.9651 Y137.3057
G01 X219.0616 Y137.3129
G01 X219.1572 Y137.3282
G01 X219.2512 Y137.3514
G01 X219.3429 Y137.3823
G01 X219.4058 Y137.4100
G01 X219.4669 Y137.4415
G01 X219.5259 Y137.4768
G01 X219.5826 Y137.5157
G01 X219.6367 Y137.5581
G01 X219.6881 Y137.6038
G01 X219.7365 Y137.6526
G01 X219.7818 Y137.7043
G01 X224.9647 Y144.0126
G01 X225.8254 Y145.0619
G01 X226.6888 Y146.1090
G01 X227.5548 Y147.1540
G01 X228.4234 Y148.1968
G01 X228.4374 Y148.2086
G01 X229.3292 Y148.1536
G01 X230.2203 Y148.0883
G01 X231.1106 Y148.0127
G01 X232.0000 Y147.9269
G01 X232.8883 Y147.8310
G01 X233.7754 Y147.7248
G01 X234.6613 Y147.6084
G01 X235.5458 Y147.4819
G01 X235.5146 Y147.2641
M107
G00 Z2.0000


;No. 37: Hole 34
G00 X261.2983 Y52.5240 Z2.0000
G00 Z0.5000
G01 Z-1.8000 F400
M106 S240
G01 X262.6807 F1000
M107
G00 Z2.0000
G00 X267.7477
G00 Z0.5000
G01 Z-1.8000 F400
M106 S240
G01 X268.9059 F1000
M107
G00 Z2.0000
G00 X262.7866 Y64.0740
G00 Z0.5000
G01 Z-1.8000 F400
M106 S240
G01 X261.4513 F1000
M107
G00 Z2.0000
G00 X267.3376
G00 Z0.5000
G01 Z-1.8000 F400
M106 S240
G01 X268.9601 F1000
M107
G00 Z2.0000
G00 Z0.5000
G01 Z-1.8000 F400
M106 S240
G01 X269.0695 Y64.2648 F1000
G01 X269.0952 Y64.2501
G01 X269.2402 Y64.1628
G01 X269.4186 Y64.0491
G01 X269.4640 Y64.0190
G01 X269.4728 Y64.0024
G01 X268.7396 Y63.1222
G01 X268.7682 Y63.1565
G01 X268.7158 Y63.1260
G01 X268.3398 Y63.3627
G01 X267.9487 Y63.5737
G01 X267.5443 Y63.7580
G01 X267.1285 Y63.9148
G01 X266.7032 Y64.0434
G01 X266.2701 Y64.1432
G01 X265.8314 Y64.2138
G01 X265.3889 Y64.2548
G01 X264.9447 Y64.2661
G01 X264.5007 Y64.2476
G01 X264.0589 Y64.1993
G01 X263.6214 Y64.1216
G01 X263.1724 Y63.9795
G01 X262.7364 Y63.8016
G01 X262.3160 Y63.5893
G01 X261.9141 Y63.3438
G01 X261.5333 Y63.0668
G01 X261.1759 Y62.7601
G01 X260.8444 Y62.4256
G01 X260.5409 Y62.0656
G01 X260.2673 Y61.6823
G01 X260.0254 Y61.2782
G01 X259.8168 Y60.8560
G01 X259.6429 Y60.4183
G01 X259.5047 Y59.9681
G01 X259.4032 Y59.5083
G01 X259.3390 Y59.0417
G01 X259.3125 Y58.5716
G01 X259.3096 Y58.4529
G01 X259.3087 Y58.3416
G01 X259.3099 Y58.1635
G01 X259.3204 Y57.8093
G01 X259.3509 Y57.4562
G01 X259.4011 Y57.1054
G01 X259.4711 Y56.7580
G01 X259.5605 Y56.4151
G01 X259.6691 Y56.0778
G01 X259.7965 Y55.7471
G01 X259.9423 Y55.4241
G01 X260.1372 Y55.0594
G01 X260.3585 Y54.7100
G01 X260.6049 Y54.3779
G01 X260.8750 Y54.0648
G01 X261.1676 Y53.7725
G01 X261.4808 Y53.5026
G01 X261.8132 Y53.2564
G01 X262.1627 Y53.0355
G01 X262.5276 Y52.8409
G01 X262.9058 Y52.6737
G01 X263.2953 Y52.5348
G01 X263.6940 Y52.4250
G01 X264.0997 Y52.3449
G01 X264.5102 Y52.2949
G01 X264.9233 Y52.2753
G01 X265.3367 Y52.2862
G01 X265.6709 Y52.2942
G01 X266.0042 Y52.3202
G01 X266.3357 Y52.3640
G01 X266.6643 Y52.4255
G01 X266.9891 Y52.5046
G01 X267.3092 Y52.6010
G01 X267.6237 Y52.7144
G01 X267.9317 Y52.8445
G01 X268.2323 Y52.9909
G01 X268.5245 Y53.1533
G01 X268.8077 Y53.3311
G01 X269.0808 Y53.5238
G01 X269.1317 Y53.5766
G01 X269.1789 Y53.6327
G01 X269.2223 Y53.6918
G01 X269.2617 Y53.7536
G01 X269.2968 Y53.8180
G01 X269.3276 Y53.8845
G01 X269.3539 Y53.9530
G01 X269.3756 Y54.0230
G01 X269.3925 Y54.0943
G01 X269.4047 Y54.1666
G01 X269.4120 Y54.2396
G01 X269.4145 Y54.3129
G01 Y56.5074
G01 X269.4126 Y56.5947
G01 X269.4037 Y56.6817
G01 X269.3880 Y56.7676
G01 X269.3656 Y56.8520
G01 X269.3365 Y56.9344
G01 X269.3009 Y57.0142
G01 X269.2592 Y57.0910
G01 X269.2114 Y57.1642
G01 X269.1580 Y57.2334
G01 X269.0993 Y57.2981
G01 X269.0357 Y57.3579
G01 X268.9675 Y57.4125
G01 X268.8952 Y57.4616
G01 X268.8192 Y57.5047
G01 X268.7400 Y57.5417
G01 X268.6582 Y57.5723
G01 X268.5742 Y57.5963
G01 X268.4885 Y57.6135
G01 X268.4018 Y57.6239
G01 X268.3145 Y57.6274
G01 X265.9820
G01 Y58.3727
G01 X270.5141
G01 Y53.2806
G01 X270.5121 Y53.2661
G01 X270.1392 Y52.9903
G01 X269.7529 Y52.7338
G01 X269.3541 Y52.4971
G01 X268.9438 Y52.2808
G01 X268.5231 Y52.0856
G01 X268.0931 Y51.9119
G01 X267.6549 Y51.7601
G01 X267.2095 Y51.6306
G01 X266.8131 Y51.5430
G01 X266.4132 Y51.4734
G01 X266.0105 Y51.4221
G01 X265.6059 Y51.3890
G01 X265.2002 Y51.3744
G01 X264.7942 Y51.3781
G01 X264.3889 Y51.4002
G01 X263.9849 Y51.4407
G01 X263.5832 Y51.4995
G01 X263.1846 Y51.5764
G01 X262.7899 Y51.6713
G01 X262.3999 Y51.7840
G01 X261.9830 Y51.9367
G01 X261.5776 Y52.1178
G01 X261.1857 Y52.3265
G01 X260.8091 Y52.5619
G01 X260.4498 Y52.8226
G01 X260.1093 Y53.1077
G01 X259.7894 Y53.4155
G01 X259.4915 Y53.7448
G01 X259.2171 Y54.0939
G01 X258.9675 Y54.4611
G01 X258.7439 Y54.8447
G01 X258.5473 Y55.2428
G01 X258.3787 Y55.6536
G01 X258.2390 Y56.0751
G01 X258.1287 Y56.5052
G01 X258.0484 Y56.9419
G01 X258.0073 Y57.2241
G01 X257.9763 Y57.5077
G01 X257.9556 Y57.7922
