;Project Smile_Schiefer
;Created by Estlcam version 11 build 11,116
;Machining time about 00:21:18 hours

G90
M03 S18000
G00 X0.0000 Y0.0000 Z0.0000
G00 Z2.0000


;No. 1: Helical drill 1
G00 X33.0110 Y187.6780
G00 Z0.5000
M106 S240
G01 X33.0098 Y187.6309 Z0.4958 F400 S18000
G01 X33.0061 Y187.5839 Z0.4917
G01 X32.9999 Y187.5372 Z0.4875
G01 X32.9913 Y187.4909 Z0.4833
G01 X32.9803 Y187.4450 Z0.4792
G01 X32.9670 Y187.3999 Z0.4750
G01 X32.9512 Y187.3554 Z0.4708
G01 X32.9332 Y187.3119 Z0.4667
G01 X32.9129 Y187.2694 Z0.4625
G01 X32.8904 Y187.2280 Z0.4583
G01 X32.8658 Y187.1878 Z0.4542
G01 X32.8391 Y187.1490 Z0.4500
G01 X32.8104 Y187.1116 Z0.4458
G01 X32.7798 Y187.0758 Z0.4417
G01 X32.7474 Y187.0416 Z0.4375
G01 X32.7132 Y187.0091 Z0.4333
G01 X32.6774 Y186.9785 Z0.4292
G01 X32.6400 Y186.9499 Z0.4250
G01 X32.6012 Y186.9232 Z0.4208
G01 X32.5610 Y186.8986 Z0.4167
G01 X32.5196 Y186.8761 Z0.4125
G01 X32.4771 Y186.8558 Z0.4083
G01 X32.4335 Y186.8378 Z0.4042
G01 X32.3891 Y186.8220 Z0.4000
G01 X32.3439 Y186.8086 Z0.3958
G01 X32.2981 Y186.7976 Z0.3917
G01 X32.2518 Y186.7891 Z0.3875
G01 X32.2051 Y186.7829 Z0.3833
G01 X32.1581 Y186.7792 Z0.3792
G01 X32.1110 Y186.7780 Z0.3750
G01 X32.0639 Y186.7792 Z0.3708
G01 X32.0169 Y186.7829 Z0.3667
G01 X31.9702 Y186.7891 Z0.3625
G01 X31.9239 Y186.7976 Z0.3583
G01 X31.8781 Y186.8086 Z0.3542
G01 X31.8329 Y186.8220 Z0.3500
G01 X31.7885 Y186.8378 Z0.3458
G01 X31.7449 Y186.8558 Z0.3417
G01 X31.7024 Y186.8761 Z0.3375
G01 X31.6610 Y186.8986 Z0.3333
G01 X31.6208 Y186.9232 Z0.3292
G01 X31.5820 Y186.9499 Z0.3250
G01 X31.5446 Y186.9785 Z0.3208
G01 X31.5088 Y187.0091 Z0.3167
G01 X31.4746 Y187.0416 Z0.3125
G01 X31.4422 Y187.0758 Z0.3083
G01 X31.4116 Y187.1116 Z0.3042
G01 X31.3829 Y187.1490 Z0.3000
G01 X31.3562 Y187.1878 Z0.2958
G01 X31.3316 Y187.2280 Z0.2917
G01 X31.3091 Y187.2694 Z0.2875
G01 X31.2888 Y187.3119 Z0.2833
G01 X31.2708 Y187.3554 Z0.2792
G01 X31.2550 Y187.3999 Z0.2750
G01 X31.2417 Y187.4450 Z0.2708
G01 X31.2307 Y187.4909 Z0.2667
G01 X31.2221 Y187.5372 Z0.2625
G01 X31.2159 Y187.5839 Z0.2583
G01 X31.2122 Y187.6309 Z0.2542
G01 X31.2110 Y187.6780 Z0.2500
G01 X31.2122 Y187.7251 Z0.2458
G01 X31.2159 Y187.7721 Z0.2417
G01 X31.2221 Y187.8188 Z0.2375
G01 X31.2307 Y187.8651 Z0.2333
G01 X31.2417 Y187.9109 Z0.2292
G01 X31.2550 Y187.9561 Z0.2250
G01 X31.2708 Y188.0005 Z0.2208
G01 X31.2888 Y188.0440 Z0.2167
G01 X31.3091 Y188.0866 Z0.2125
G01 X31.3316 Y188.1280 Z0.2083
G01 X31.3562 Y188.1682 Z0.2042
G01 X31.3829 Y188.2070 Z0.2000
G01 X31.4116 Y188.2444 Z0.1958
G01 X31.4422 Y188.2802 Z0.1917
G01 X31.4746 Y188.3144 Z0.1875
G01 X31.5088 Y188.3468 Z0.1833
G01 X31.5446 Y188.3774 Z0.1792
G01 X31.5820 Y188.4061 Z0.1750
G01 X31.6208 Y188.4328 Z0.1708
G01 X31.6610 Y188.4574 Z0.1667
G01 X31.7024 Y188.4799 Z0.1625
G01 X31.7449 Y188.5002 Z0.1583
G01 X31.7885 Y188.5182 Z0.1542
G01 X31.8329 Y188.5339 Z0.1500
G01 X31.8781 Y188.5473 Z0.1458
G01 X31.9239 Y188.5583 Z0.1417
G01 X31.9702 Y188.5669 Z0.1375
G01 X32.0169 Y188.5730 Z0.1333
G01 X32.0639 Y188.5767 Z0.1292
G01 X32.1110 Y188.5780 Z0.1250
G01 X32.1581 Y188.5767 Z0.1208
G01 X32.2051 Y188.5730 Z0.1167
G01 X32.2518 Y188.5669 Z0.1125
G01 X32.2981 Y188.5583 Z0.1083
G01 X32.3439 Y188.5473 Z0.1042
G01 X32.3891 Y188.5339 Z0.1000
G01 X32.4335 Y188.5182 Z0.0958
G01 X32.4771 Y188.5002 Z0.0917
G01 X32.5196 Y188.4799 Z0.0875
G01 X32.5610 Y188.4574 Z0.0833
G01 X32.6012 Y188.4328 Z0.0792
G01 X32.6400 Y188.4061 Z0.0750
G01 X32.6774 Y188.3774 Z0.0708
G01 X32.7132 Y188.3468 Z0.0667
G01 X32.7474 Y188.3144 Z0.0625
G01 X32.7798 Y188.2802 Z0.0583
G01 X32.8104 Y188.2444 Z0.0542
G01 X32.8391 Y188.2070 Z0.0500
G01 X32.8658 Y188.1682 Z0.0458
G01 X32.8904 Y188.1280 Z0.0417
G01 X32.9129 Y188.0866 Z0.0375
G01 X32.9332 Y188.0440 Z0.0333
G01 X32.9512 Y188.0005 Z0.0292
G01 X32.9670 Y187.9561 Z0.0250
G01 X32.9803 Y187.9109 Z0.0208
G01 X32.9913 Y187.8651 Z0.0167
G01 X32.9999 Y187.8188 Z0.0125
G01 X33.0061 Y187.7721 Z0.0083
G01 X33.0098 Y187.7251 Z0.0042
G01 X33.0110 Y187.6780 Z0.0000
G01 X33.0098 Y187.6309
G01 X33.0061 Y187.5839
G01 X32.9999 Y187.5372
G01 X32.9913 Y187.4909
G01 X32.9803 Y187.4450
G01 X32.9670 Y187.3999
G01 X32.9512 Y187.3554
G01 X32.9332 Y187.3119
G01 X32.9129 Y187.2694
G01 X32.8904 Y187.2280
G01 X32.8658 Y187.1878
G01 X32.8391 Y187.1490
G01 X32.8104 Y187.1116
G01 X32.7798 Y187.0758
G01 X32.7474 Y187.0416
G01 X32.7132 Y187.0091
G01 X32.6774 Y186.9785
G01 X32.6400 Y186.9499
G01 X32.6012 Y186.9232
G01 X32.5610 Y186.8986
G01 X32.5196 Y186.8761
G01 X32.4771 Y186.8558
G01 X32.4335 Y186.8378
G01 X32.3891 Y186.8220
G01 X32.3439 Y186.8086
G01 X32.2981 Y186.7976
G01 X32.2518 Y186.7891
G01 X32.2051 Y186.7829
G01 X32.1581 Y186.7792
G01 X32.1110 Y186.7780
G01 X32.0639 Y186.7792
G01 X32.0169 Y186.7829
G01 X31.9702 Y186.7891
G01 X31.9239 Y186.7976
G01 X31.8781 Y186.8086
G01 X31.8329 Y186.8220
G01 X31.7885 Y186.8378
G01 X31.7449 Y186.8558
G01 X31.7024 Y186.8761
G01 X31.6610 Y186.8986
G01 X31.6208 Y186.9232
G01 X31.5820 Y186.9499
G01 X31.5446 Y186.9785
G01 X31.5088 Y187.0091
G01 X31.4746 Y187.0416
G01 X31.4422 Y187.0758
G01 X31.4116 Y187.1116
G01 X31.3829 Y187.1490
G01 X31.3562 Y187.1878
G01 X31.3316 Y187.2280
G01 X31.3091 Y187.2694
G01 X31.2888 Y187.3119
G01 X31.2708 Y187.3554
G01 X31.2550 Y187.3999
G01 X31.2417 Y187.4450
G01 X31.2307 Y187.4909
G01 X31.2221 Y187.5372
G01 X31.2159 Y187.5839
G01 X31.2122 Y187.6309
G01 X31.2110 Y187.6780
G01 X31.2122 Y187.7251
G01 X31.2159 Y187.7721
G01 X31.2221 Y187.8188
G01 X31.2307 Y187.8651
G01 X31.2417 Y187.9109
G01 X31.2550 Y187.9561
G01 X31.2708 Y188.0005
G01 X31.2888 Y188.0440
G01 X31.3091 Y188.0866
G01 X31.3316 Y188.1280
G01 X31.3562 Y188.1682
G01 X31.3829 Y188.2070
G01 X31.4116 Y188.2444
G01 X31.4422 Y188.2802
G01 X31.4746 Y188.3144
G01 X31.5088 Y188.3468
G01 X31.5446 Y188.3774
G01 X31.5820 Y188.4061
G01 X31.6208 Y188.4328
G01 X31.6610 Y188.4574
G01 X31.7024 Y188.4799
G01 X31.7449 Y188.5002
G01 X31.7885 Y188.5182
G01 X31.8329 Y188.5339
G01 X31.8781 Y188.5473
G01 X31.9239 Y188.5583
G01 X31.9702 Y188.5669
G01 X32.0169 Y188.5730
G01 X32.0639 Y188.5767
G01 X32.1110 Y188.5780
G01 X32.1581 Y188.5767
G01 X32.2051 Y188.5730
G01 X32.2518 Y188.5669
G01 X32.2981 Y188.5583
G01 X32.3439 Y188.5473
G01 X32.3891 Y188.5339
G01 X32.4335 Y188.5182
G01 X32.4771 Y188.5002
G01 X32.5196 Y188.4799
G01 X32.5610 Y188.4574
G01 X32.6012 Y188.4328
G01 X32.6400 Y188.4061
G01 X32.6774 Y188.3774
G01 X32.7132 Y188.3468
G01 X32.7474 Y188.3144
G01 X32.7798 Y188.2802
G01 X32.8104 Y188.2444
G01 X32.8391 Y188.2070
G01 X32.8658 Y188.1682
G01 X32.8904 Y188.1280
G01 X32.9129 Y188.0866
G01 X32.9332 Y188.0440
G01 X32.9512 Y188.0005
G01 X32.9670 Y187.9561
G01 X32.9803 Y187.9109
G01 X32.9913 Y187.8651
G01 X32.9999 Y187.8188
G01 X33.0061 Y187.7721
G01 X33.0098 Y187.7251
G01 X33.0110 Y187.6780
M107
M106 S240
G01 X33.0098 Y187.6309 Z-0.0183
G01 X33.0061 Y187.5839 Z-0.0367
G01 X32.9999 Y187.5372 Z-0.0550
G01 X32.9913 Y187.4909 Z-0.0733
G01 X32.9803 Y187.4450 Z-0.0917
G01 X32.9670 Y187.3999 Z-0.1100
G01 X32.9512 Y187.3554 Z-0.1283
G01 X32.9332 Y187.3119 Z-0.1467
G01 X32.9129 Y187.2694 Z-0.1650
G01 X32.8904 Y187.2280 Z-0.1833
G01 X32.8658 Y187.1878 Z-0.2017
G01 X32.8391 Y187.1490 Z-0.2200
G01 X32.8104 Y187.1116 Z-0.2383
G01 X32.7798 Y187.0758 Z-0.2567
G01 X32.7474 Y187.0416 Z-0.2750
G01 X32.7132 Y187.0091 Z-0.2933
G01 X32.6774 Y186.9785 Z-0.3117
G01 X32.6400 Y186.9499 Z-0.3300
G01 X32.6012 Y186.9232 Z-0.3483
G01 X32.5610 Y186.8986 Z-0.3667
G01 X32.5196 Y186.8761 Z-0.3850
G01 X32.4771 Y186.8558 Z-0.4033
G01 X32.4335 Y186.8378 Z-0.4217
G01 X32.3891 Y186.8220 Z-0.4400
G01 X32.3439 Y186.8086 Z-0.4583
G01 X32.2981 Y186.7976 Z-0.4767
G01 X32.2518 Y186.7891 Z-0.4950
G01 X32.2051 Y186.7829 Z-0.5133
G01 X32.1581 Y186.7792 Z-0.5317
G01 X32.1110 Y186.7780 Z-0.5500
G01 X32.0639 Y186.7792 Z-0.5683
G01 X32.0169 Y186.7829 Z-0.5867
G01 X31.9702 Y186.7891 Z-0.6050
G01 X31.9239 Y186.7976 Z-0.6233
G01 X31.8781 Y186.8086 Z-0.6417
G01 X31.8329 Y186.8220 Z-0.6600
G01 X31.7885 Y186.8378 Z-0.6783
G01 X31.7449 Y186.8558 Z-0.6967
G01 X31.7024 Y186.8761 Z-0.7150
G01 X31.6610 Y186.8986 Z-0.7333
G01 X31.6208 Y186.9232 Z-0.7517
G01 X31.5820 Y186.9499 Z-0.7700
G01 X31.5446 Y186.9785 Z-0.7883
G01 X31.5088 Y187.0091 Z-0.8067
G01 X31.4746 Y187.0416 Z-0.8250
G01 X31.4422 Y187.0758 Z-0.8433
G01 X31.4116 Y187.1116 Z-0.8617
G01 X31.3829 Y187.1490 Z-0.8800
G01 X31.3562 Y187.1878 Z-0.8983
G01 X31.3316 Y187.2280 Z-0.9167
G01 X31.3091 Y187.2694 Z-0.9350
G01 X31.2888 Y187.3119 Z-0.9533
G01 X31.2708 Y187.3554 Z-0.9717
G01 X31.2550 Y187.3999 Z-0.9900
G01 X31.2417 Y187.4450 Z-1.0083
G01 X31.2307 Y187.4909 Z-1.0267
G01 X31.2221 Y187.5372 Z-1.0450
G01 X31.2159 Y187.5839 Z-1.0633
G01 X31.2122 Y187.6309 Z-1.0817
G01 X31.2110 Y187.6780 Z-1.1000
G01 X31.2122 Y187.7251 Z-1.1183
G01 X31.2159 Y187.7721 Z-1.1367
G01 X31.2221 Y187.8188 Z-1.1550
G01 X31.2307 Y187.8651 Z-1.1733
G01 X31.2417 Y187.9109 Z-1.1917
G01 X31.2550 Y187.9561 Z-1.2100
G01 X31.2708 Y188.0005 Z-1.2283
G01 X31.2888 Y188.0440 Z-1.2467
G01 X31.3091 Y188.0866 Z-1.2650
G01 X31.3316 Y188.1280 Z-1.2833
G01 X31.3562 Y188.1682 Z-1.3017
G01 X31.3829 Y188.2070 Z-1.3200
G01 X31.4116 Y188.2444 Z-1.3383
G01 X31.4422 Y188.2802 Z-1.3567
G01 X31.4746 Y188.3144 Z-1.3750
G01 X31.5088 Y188.3468 Z-1.3933
G01 X31.5446 Y188.3774 Z-1.4117
G01 X31.5820 Y188.4061 Z-1.4300
G01 X31.6208 Y188.4328 Z-1.4483
G01 X31.6610 Y188.4574 Z-1.4667
G01 X31.7024 Y188.4799 Z-1.4850
G01 X31.7449 Y188.5002 Z-1.5033
G01 X31.7885 Y188.5182 Z-1.5217
G01 X31.8329 Y188.5339 Z-1.5400
G01 X31.8781 Y188.5473 Z-1.5583
G01 X31.9239 Y188.5583 Z-1.5767
G01 X31.9702 Y188.5669 Z-1.5950
G01 X32.0169 Y188.5730 Z-1.6133
G01 X32.0639 Y188.5767 Z-1.6317
G01 X32.1110 Y188.5780 Z-1.6500
G01 X32.1581 Y188.5767 Z-1.6683
G01 X32.2051 Y188.5730 Z-1.6867
G01 X32.2518 Y188.5669 Z-1.7050
G01 X32.2981 Y188.5583 Z-1.7233
G01 X32.3439 Y188.5473 Z-1.7417
G01 X32.3891 Y188.5339 Z-1.7600
G01 X32.4335 Y188.5182 Z-1.7783
G01 X32.4771 Y188.5002 Z-1.7967
G01 X32.5196 Y188.4799 Z-1.8150
G01 X32.5610 Y188.4574 Z-1.8333
G01 X32.6012 Y188.4328 Z-1.8517
G01 X32.6400 Y188.4061 Z-1.8700
G01 X32.6774 Y188.3774 Z-1.8883
G01 X32.7132 Y188.3468 Z-1.9067
G01 X32.7474 Y188.3144 Z-1.9250
G01 X32.7798 Y188.2802 Z-1.9433
G01 X32.8104 Y188.2444 Z-1.9617
G01 X32.8391 Y188.2070 Z-1.9800
G01 X32.8658 Y188.1682 Z-1.9983
G01 X32.8904 Y188.1280 Z-2.0167
G01 X32.9129 Y188.0866 Z-2.0350
G01 X32.9332 Y188.0440 Z-2.0533
G01 X32.9512 Y188.0005 Z-2.0717
G01 X32.9670 Y187.9561 Z-2.0900
G01 X32.9803 Y187.9109 Z-2.1083
G01 X32.9913 Y187.8651 Z-2.1267
G01 X32.9999 Y187.8188 Z-2.1450
G01 X33.0061 Y187.7721 Z-2.1633
G01 X33.0098 Y187.7251 Z-2.1817
G01 X33.0110 Y187.6780 Z-2.2000
G01 X33.0098 Y187.6309
G01 X33.0061 Y187.5839
G01 X32.9999 Y187.5372
G01 X32.9913 Y187.4909
G01 X32.9803 Y187.4450
G01 X32.9670 Y187.3999
G01 X32.9512 Y187.3554
G01 X32.9332 Y187.3119
G01 X32.9129 Y187.2694
G01 X32.8904 Y187.2280
G01 X32.8658 Y187.1878
G01 X32.8391 Y187.1490
G01 X32.8104 Y187.1116
G01 X32.7798 Y187.0758
G01 X32.7474 Y187.0416
G01 X32.7132 Y187.0091
G01 X32.6774 Y186.9785
G01 X32.6400 Y186.9499
G01 X32.6012 Y186.9232
G01 X32.5610 Y186.8986
G01 X32.5196 Y186.8761
G01 X32.4771 Y186.8558
G01 X32.4335 Y186.8378
G01 X32.3891 Y186.8220
G01 X32.3439 Y186.8086
G01 X32.2981 Y186.7976
G01 X32.2518 Y186.7891
G01 X32.2051 Y186.7829
G01 X32.1581 Y186.7792
G01 X32.1110 Y186.7780
G01 X32.0639 Y186.7792
G01 X32.0169 Y186.7829
G01 X31.9702 Y186.7891
G01 X31.9239 Y186.7976
G01 X31.8781 Y186.8086
G01 X31.8329 Y186.8220
G01 X31.7885 Y186.8378
G01 X31.7449 Y186.8558
G01 X31.7024 Y186.8761
G01 X31.6610 Y186.8986
G01 X31.6208 Y186.9232
G01 X31.5820 Y186.9499
G01 X31.5446 Y186.9785
G01 X31.5088 Y187.0091
G01 X31.4746 Y187.0416
G01 X31.4422 Y187.0758
G01 X31.4116 Y187.1116
G01 X31.3829 Y187.1490
G01 X31.3562 Y187.1878
G01 X31.3316 Y187.2280
G01 X31.3091 Y187.2694
G01 X31.2888 Y187.3119
G01 X31.2708 Y187.3554
G01 X31.2550 Y187.3999
G01 X31.2417 Y187.4450
G01 X31.2307 Y187.4909
G01 X31.2221 Y187.5372
G01 X31.2159 Y187.5839
G01 X31.2122 Y187.6309
G01 X31.2110 Y187.6780
G01 X31.2122 Y187.7251
G01 X31.2159 Y187.7721
G01 X31.2221 Y187.8188
G01 X31.2307 Y187.8651
G01 X31.2417 Y187.9109
G01 X31.2550 Y187.9561
G01 X31.2708 Y188.0005
G01 X31.2888 Y188.0440
G01 X31.3091 Y188.0866
G01 X31.3316 Y188.1280
G01 X31.3562 Y188.1682
G01 X31.3829 Y188.2070
G01 X31.4116 Y188.2444
G01 X31.4422 Y188.2802
G01 X31.4746 Y188.3144
G01 X31.5088 Y188.3468
G01 X31.5446 Y188.3774
G01 X31.5820 Y188.4061
G01 X31.6208 Y188.4328
G01 X31.6610 Y188.4574
G01 X31.7024 Y188.4799
G01 X31.7449 Y188.5002
G01 X31.7885 Y188.5182
G01 X31.8329 Y188.5339
G01 X31.8781 Y188.5473
G01 X31.9239 Y188.5583
G01 X31.9702 Y188.5669
G01 X32.0169 Y188.5730
G01 X32.0639 Y188.5767
G01 X32.1110 Y188.5780
G01 X32.1581 Y188.5767
G01 X32.2051 Y188.5730
G01 X32.2518 Y188.5669
G01 X32.2981 Y188.5583
G01 X32.3439 Y188.5473
G01 X32.3891 Y188.5339
G01 X32.4335 Y188.5182
G01 X32.4771 Y188.5002
G01 X32.5196 Y188.4799
G01 X32.5610 Y188.4574
G01 X32.6012 Y188.4328
G01 X32.6400 Y188.4061
G01 X32.6774 Y188.3774
G01 X32.7132 Y188.3468
G01 X32.7474 Y188.3144
G01 X32.7798 Y188.2802
G01 X32.8104 Y188.2444
G01 X32.8391 Y188.2070
G01 X32.8658 Y188.1682
G01 X32.8904 Y188.1280
G01 X32.9129 Y188.0866
G01 X32.9332 Y188.0440
G01 X32.9512 Y188.0005
G01 X32.9670 Y187.9561
G01 X32.9803 Y187.9109
G01 X32.9913 Y187.8651
G01 X32.9999 Y187.8188
G01 X33.0061 Y187.7721
G01 X33.0098 Y187.7251
G01 X33.0110 Y187.6780
G01 X33.0219 Y187.6313 F1000
G01 X33.0304 Y187.5841
G01 X33.0364 Y187.5366
G01 X33.0399 Y187.4888
G01 X33.0409 Y187.4409
G01 X33.0395 Y187.3930
G01 X33.0355 Y187.3452
G01 X33.0291 Y187.2977
G01 X33.0194 Y187.2462
G01 X33.0071 Y187.1953
G01 X32.9921 Y187.1450
G01 X32.9746 Y187.0956
G01 X32.9546 Y187.0472
G01 X32.9321 Y186.9999
G01 X32.9072 Y186.9538
G01 X32.8800 Y186.9090
G01 X32.8480 Y186.8620
G01 X32.8136 Y186.8166
G01 X32.7769 Y186.7731
G01 X32.7381 Y186.7316
G01 X32.6971 Y186.6920
G01 X32.6543 Y186.6546
G01 X32.6095 Y186.6195
G01 X32.5630 Y186.5866
G01 X32.5111 Y186.5538
G01 X32.4576 Y186.5237
G01 X32.4027 Y186.4963
G01 X32.3464 Y186.4717
G01 X32.2889 Y186.4501
G01 X32.2304 Y186.4314
G01 X32.1711 Y186.4157
G01 X32.1110 Y186.4030
G01 X32.0459 Y186.3927
G01 X31.9803 Y186.3856
G01 X31.9145 Y186.3819
G01 X31.8486 Y186.3816
G01 X31.7827 Y186.3846
G01 X31.7171 Y186.3909
G01 X31.6519 Y186.4005
G01 X31.5872 Y186.4134
G01 X31.5189 Y186.4307
G01 X31.4515 Y186.4514
G01 X31.3853 Y186.4754
G01 X31.3204 Y186.5028
G01 X31.2569 Y186.5334
G01 X31.1951 Y186.5672
G01 X31.1350 Y186.6040
G01 X31.0769 Y186.6438
G01 X31.0233 Y186.6933
G01 X30.9723 Y186.7453
G01 X30.9239 Y186.7997
G01 X30.8783 Y186.8565
G01 X30.8355 Y186.9155
G01 X30.7956 Y186.9765
G01 X30.7588 Y187.0393
G01 X30.7252 Y187.1040
G01 X30.6987 Y187.1726
G01 X30.6756 Y187.2426
G01 X30.6560 Y187.3135
G01 X30.6398 Y187.3853
G01 X30.6272 Y187.4579
G01 X30.6182 Y187.5310
G01 X30.6128 Y187.6044
G01 X30.6110 Y187.6780
G01 X30.6128 Y187.7516
G01 X30.6182 Y187.8250
G01 X30.6272 Y187.8981
G01 X30.6398 Y187.9706
G01 X30.6560 Y188.0425
G01 X30.6756 Y188.1134
G01 X30.6987 Y188.1833
G01 X30.7252 Y188.2520
G01 X30.7550 Y188.3193
G01 X30.7881 Y188.3851
G01 X30.8244 Y188.4491
G01 X30.8638 Y188.5113
G01 X30.9062 Y188.5715
G01 X30.9515 Y188.6296
G01 X30.9996 Y188.6853
G01 X31.0503 Y188.7386
G01 X31.1037 Y188.7894
G01 X31.1594 Y188.8375
G01 X31.2175 Y188.8828
G01 X31.2776 Y188.9252
G01 X31.3398 Y188.9646
G01 X31.4039 Y189.0009
G01 X31.4697 Y189.0340
G01 X31.5370 Y189.0638
G01 X31.6057 Y189.0903
G01 X31.6756 Y189.1134
G01 X31.7465 Y189.1330
G01 X31.8184 Y189.1492
G01 X31.8909 Y189.1617
G01 X31.9640 Y189.1708
G01 X32.0374 Y189.1762
G01 X32.1110 Y189.1780
G01 X32.1846 Y189.1762
G01 X32.2580 Y189.1708
G01 X32.3311 Y189.1617
G01 X32.4036 Y189.1492
G01 X32.4755 Y189.1330
G01 X32.5464 Y189.1134
G01 X32.6163 Y189.0903
G01 X32.6850 Y189.0638
G01 X32.7523 Y189.0340
G01 X32.8181 Y189.0009
G01 X32.8822 Y188.9646
G01 X32.9444 Y188.9252
G01 X33.0045 Y188.8828
G01 X33.0626 Y188.8375
G01 X33.1183 Y188.7894
G01 X33.1717 Y188.7386
G01 X33.2224 Y188.6853
G01 X33.2705 Y188.6296
G01 X33.3158 Y188.5715
G01 X33.3582 Y188.5113
G01 X33.3976 Y188.4491
G01 X33.4339 Y188.3851
G01 X33.4670 Y188.3193
G01 X33.4968 Y188.2520
G01 X33.5233 Y188.1833
G01 X33.5464 Y188.1134
G01 X33.5660 Y188.0425
G01 X33.5822 Y187.9706
G01 X33.5948 Y187.8981
G01 X33.6038 Y187.8250
G01 X33.6092 Y187.7516
G01 X33.6110 Y187.6780
G01 X33.6068 Y187.5659
G01 X33.5942 Y187.4544
G01 X33.5734 Y187.3442
G01 X33.5444 Y187.2358
G01 X33.5073 Y187.1300
G01 X33.4625 Y187.0272
G01 X33.4100 Y186.9280
G01 X33.3504 Y186.8330
G01 X33.2837 Y186.7427
G01 X33.2106 Y186.6577
G01 X33.1313 Y186.5784
G01 X33.0462 Y186.5052
G01 X32.9560 Y186.4386
G01 X32.8610 Y186.3789
G01 X32.7618 Y186.3265
G01 X32.6590 Y186.2817
G01 X32.5531 Y186.2446
G01 X32.4448 Y186.2156
G01 X32.3346 Y186.1947
G01 X32.2231 Y186.1822
G01 X32.1110 Y186.1780
G01 X31.9989 Y186.1822
G01 X31.8874 Y186.1947
G01 X31.7772 Y186.2156
G01 X31.6689 Y186.2446
G01 X31.5630 Y186.2817
G01 X31.4602 Y186.3265
G01 X31.3610 Y186.3789
G01 X31.2660 Y186.4386
G01 X31.1758 Y186.5052
G01 X31.0907 Y186.5784
G01 X31.0114 Y186.6577
G01 X30.9383 Y186.7427
G01 X30.8716 Y186.8330
G01 X30.8120 Y186.9280
G01 X30.7595 Y187.0272
G01 X30.7147 Y187.1300
G01 X30.6776 Y187.2358
G01 X30.6486 Y187.3442
G01 X30.6278 Y187.4544
G01 X30.6152 Y187.5659
G01 X30.6110 Y187.6780
G01 X30.6152 Y187.7901
G01 X30.6278 Y187.9015
G01 X30.6486 Y188.0118
G01 X30.6776 Y188.1201
G01 X30.7147 Y188.2260
G01 X30.7595 Y188.3288
G01 X30.8120 Y188.4280
G01 X30.8716 Y188.5230
G01 X30.9383 Y188.6132
G01 X31.0114 Y188.6982
G01 X31.0907 Y188.7776
G01 X31.1758 Y188.8507
G01 X31.2660 Y188.9173
G01 X31.3610 Y188.9770
G01 X31.4602 Y189.0294
G01 X31.5630 Y189.0743
G01 X31.6689 Y189.1113
G01 X31.7772 Y189.1404
G01 X31.8874 Y189.1612
G01 X31.9989 Y189.1738
G01 X32.1110 Y189.1780
G01 X32.2231 Y189.1738
G01 X32.3346 Y189.1612
G01 X32.4448 Y189.1404
G01 X32.5531 Y189.1113
G01 X32.6590 Y189.0743
G01 X32.7618 Y189.0294
G01 X32.8610 Y188.9770
G01 X32.9560 Y188.9173
G01 X33.0462 Y188.8507
G01 X33.1313 Y188.7776
G01 X33.2106 Y188.6982
G01 X33.2837 Y188.6132
G01 X33.3504 Y188.5230
G01 X33.4100 Y188.4280
G01 X33.4625 Y188.3288
G01 X33.5073 Y188.2260
G01 X33.5444 Y188.1201
G01 X33.5734 Y188.0118
G01 X33.5942 Y187.9015
G01 X33.6068 Y187.7901
G01 X33.6110 Y187.6780
G01 X33.6064 Y187.5734
G01 X33.5928 Y187.4696
G01 X33.5701 Y187.3674
G01 X33.5386 Y187.2676
G01 X33.4986 Y187.1708
G01 X33.4502 Y187.0780
G01 X33.3940 Y186.9897
G01 X33.3303 Y186.9066
G01 X33.2595 Y186.8295
G01 X33.1823 Y186.7587
G01 X33.0993 Y186.6950
G01 X33.0110 Y186.6387
G01 X32.9181 Y186.5904
G01 X32.8214 Y186.5503
G01 X32.7216 Y186.5189
G01 X32.6194 Y186.4962
G01 X32.5156 Y186.4825
G01 X32.4110 Y186.4780
G01 X32.3064 Y186.4825
G01 X32.2026 Y186.4962
G01 X32.1004 Y186.5189
G01 X32.0006 Y186.5503
G01 X31.9039 Y186.5904
G01 X31.8110 Y186.6387
G01 X31.7227 Y186.6950
G01 X31.6397 Y186.7587
G01 X31.5625 Y186.8295
G01 X31.4917 Y186.9066
G01 X31.4280 Y186.9897
G01 X31.3718 Y187.0780
G01 X31.3234 Y187.1708
G01 X31.2834 Y187.2676
G01 X31.2519 Y187.3674
G01 X31.2292 Y187.4696
G01 X31.2156 Y187.5734
G01 X31.2110 Y187.6780
G01 X31.2122 Y187.7251
G01 X31.2159 Y187.7721
G01 X31.2221 Y187.8188
G01 X31.2307 Y187.8651
G01 X31.2417 Y187.9109
G01 X31.2550 Y187.9561
G01 X31.2708 Y188.0005
G01 X31.2888 Y188.0440
G01 X31.3091 Y188.0866
G01 X31.3316 Y188.1280
G01 X31.3562 Y188.1682
G01 X31.3829 Y188.2070
G01 X31.4116 Y188.2444
G01 X31.4422 Y188.2802
G01 X31.4746 Y188.3144
G01 X31.5088 Y188.3468
G01 X31.5446 Y188.3774
G01 X31.5820 Y188.4061
G01 X31.6208 Y188.4328
G01 X31.6610 Y188.4574
G01 X31.7024 Y188.4799
G01 X31.7449 Y188.5002
G01 X31.7885 Y188.5182
G01 X31.8329 Y188.5339
G01 X31.8781 Y188.5473
G01 X31.9239 Y188.5583
G01 X31.9702 Y188.5669
G01 X32.0169 Y188.5730
G01 X32.0639 Y188.5767
G01 X32.1110 Y188.5780
G01 X32.1581 Y188.5767
G01 X32.2051 Y188.5730
G01 X32.2518 Y188.5669
G01 X32.2981 Y188.5583
G01 X32.3439 Y188.5473
G01 X32.3891 Y188.5339
G01 X32.4335 Y188.5182
G01 X32.4771 Y188.5002
G01 X32.5196 Y188.4799
G01 X32.5610 Y188.4574
G01 X32.6012 Y188.4328
G01 X32.6400 Y188.4061
G01 X32.6774 Y188.3774
G01 X32.7132 Y188.3468
G01 X32.7474 Y188.3144
G01 X32.7798 Y188.2802
G01 X32.8104 Y188.2444
G01 X32.8391 Y188.2070
G01 X32.8658 Y188.1682
G01 X32.8904 Y188.1280
G01 X32.9129 Y188.0866
G01 X32.9332 Y188.0440
G01 X32.9512 Y188.0005
G01 X32.9670 Y187.9561
G01 X32.9803 Y187.9109
G01 X32.9913 Y187.8651
G01 X32.9999 Y187.8188
G01 X33.0061 Y187.7721
G01 X33.0098 Y187.7251
G01 X33.0110 Y187.6780
M107
M106 S240
G01 X33.0098 Y187.6309 Z-2.2183 F400
G01 X33.0061 Y187.5839 Z-2.2367
G01 X32.9999 Y187.5372 Z-2.2550
G01 X32.9913 Y187.4909 Z-2.2733
G01 X32.9803 Y187.4450 Z-2.2917
G01 X32.9670 Y187.3999 Z-2.3100
G01 X32.9512 Y187.3554 Z-2.3283
G01 X32.9332 Y187.3119 Z-2.3467
G01 X32.9129 Y187.2694 Z-2.3650
G01 X32.8904 Y187.2280 Z-2.3833
G01 X32.8658 Y187.1878 Z-2.4017
G01 X32.8391 Y187.1490 Z-2.4200
G01 X32.8104 Y187.1116 Z-2.4383
G01 X32.7798 Y187.0758 Z-2.4567
G01 X32.7474 Y187.0416 Z-2.4750
G01 X32.7132 Y187.0091 Z-2.4933
G01 X32.6774 Y186.9785 Z-2.5117
G01 X32.6400 Y186.9499 Z-2.5300
G01 X32.6012 Y186.9232 Z-2.5483
G01 X32.5610 Y186.8986 Z-2.5667
G01 X32.5196 Y186.8761 Z-2.5850
G01 X32.4771 Y186.8558 Z-2.6033
G01 X32.4335 Y186.8378 Z-2.6217
G01 X32.3891 Y186.8220 Z-2.6400
G01 X32.3439 Y186.8086 Z-2.6583
G01 X32.2981 Y186.7976 Z-2.6767
G01 X32.2518 Y186.7891 Z-2.6950
G01 X32.2051 Y186.7829 Z-2.7133
G01 X32.1581 Y186.7792 Z-2.7317
G01 X32.1110 Y186.7780 Z-2.7500
G01 X32.0639 Y186.7792 Z-2.7683
G01 X32.0169 Y186.7829 Z-2.7867
G01 X31.9702 Y186.7891 Z-2.8050
G01 X31.9239 Y186.7976 Z-2.8233
G01 X31.8781 Y186.8086 Z-2.8417
G01 X31.8329 Y186.8220 Z-2.8600
G01 X31.7885 Y186.8378 Z-2.8783
G01 X31.7449 Y186.8558 Z-2.8967
G01 X31.7024 Y186.8761 Z-2.9150
G01 X31.6610 Y186.8986 Z-2.9333
G01 X31.6208 Y186.9232 Z-2.9517
G01 X31.5820 Y186.9499 Z-2.9700
G01 X31.5446 Y186.9785 Z-2.9883
G01 X31.5088 Y187.0091 Z-3.0067
G01 X31.4746 Y187.0416 Z-3.0250
G01 X31.4422 Y187.0758 Z-3.0433
G01 X31.4116 Y187.1116 Z-3.0617
G01 X31.3829 Y187.1490 Z-3.0800
G01 X31.3562 Y187.1878 Z-3.0983
G01 X31.3316 Y187.2280 Z-3.1167
G01 X31.3091 Y187.2694 Z-3.1350
G01 X31.2888 Y187.3119 Z-3.1533
G01 X31.2708 Y187.3554 Z-3.1717
G01 X31.2550 Y187.3999 Z-3.1900
G01 X31.2417 Y187.4450 Z-3.2083
G01 X31.2307 Y187.4909 Z-3.2267
G01 X31.2221 Y187.5372 Z-3.2450
G01 X31.2159 Y187.5839 Z-3.2633
G01 X31.2122 Y187.6309 Z-3.2817
G01 X31.2110 Y187.6780 Z-3.3000
G01 X31.2122 Y187.7251 Z-3.3183
G01 X31.2159 Y187.7721 Z-3.3367
G01 X31.2221 Y187.8188 Z-3.3550
G01 X31.2307 Y187.8651 Z-3.3733
G01 X31.2417 Y187.9109 Z-3.3917
G01 X31.2550 Y187.9561 Z-3.4100
G01 X31.2708 Y188.0005 Z-3.4283
G01 X31.2888 Y188.0440 Z-3.4467
G01 X31.3091 Y188.0866 Z-3.4650
G01 X31.3316 Y188.1280 Z-3.4833
G01 X31.3562 Y188.1682 Z-3.5017
G01 X31.3829 Y188.2070 Z-3.5200
G01 X31.4116 Y188.2444 Z-3.5383
G01 X31.4422 Y188.2802 Z-3.5567
G01 X31.4746 Y188.3144 Z-3.5750
G01 X31.5088 Y188.3468 Z-3.5933
G01 X31.5446 Y188.3774 Z-3.6117
G01 X31.5820 Y188.4061 Z-3.6300
G01 X31.6208 Y188.4328 Z-3.6483
G01 X31.6610 Y188.4574 Z-3.6667
G01 X31.7024 Y188.4799 Z-3.6850
G01 X31.7449 Y188.5002 Z-3.7033
G01 X31.7885 Y188.5182 Z-3.7217
G01 X31.8329 Y188.5339 Z-3.7400
G01 X31.8781 Y188.5473 Z-3.7583
G01 X31.9239 Y188.5583 Z-3.7767
G01 X31.9702 Y188.5669 Z-3.7950
G01 X32.0169 Y188.5730 Z-3.8133
G01 X32.0639 Y188.5767 Z-3.8317
G01 X32.1110 Y188.5780 Z-3.8500
G01 X32.1581 Y188.5767 Z-3.8683
G01 X32.2051 Y188.5730 Z-3.8867
G01 X32.2518 Y188.5669 Z-3.9050
G01 X32.2981 Y188.5583 Z-3.9233
G01 X32.3439 Y188.5473 Z-3.9417
G01 X32.3891 Y188.5339 Z-3.9600
G01 X32.4335 Y188.5182 Z-3.9783
G01 X32.4771 Y188.5002 Z-3.9967
G01 X32.5196 Y188.4799 Z-4.0150
G01 X32.5610 Y188.4574 Z-4.0333
G01 X32.6012 Y188.4328 Z-4.0517
G01 X32.6400 Y188.4061 Z-4.0700
G01 X32.6774 Y188.3774 Z-4.0883
G01 X32.7132 Y188.3468 Z-4.1067
G01 X32.7474 Y188.3144 Z-4.1250
G01 X32.7798 Y188.2802 Z-4.1433
G01 X32.8104 Y188.2444 Z-4.1617
G01 X32.8391 Y188.2070 Z-4.1800
G01 X32.8658 Y188.1682 Z-4.1983
G01 X32.8904 Y188.1280 Z-4.2167
G01 X32.9129 Y188.0866 Z-4.2350
G01 X32.9332 Y188.0440 Z-4.2533
G01 X32.9512 Y188.0005 Z-4.2717
G01 X32.9670 Y187.9561 Z-4.2900
G01 X32.9803 Y187.9109 Z-4.3083
G01 X32.9913 Y187.8651 Z-4.3267
G01 X32.9999 Y187.8188 Z-4.3450
G01 X33.0061 Y187.7721 Z-4.3633
G01 X33.0098 Y187.7251 Z-4.3817
G01 X33.0110 Y187.6780 Z-4.4000
G01 X33.0098 Y187.6309
G01 X33.0061 Y187.5839
G01 X32.9999 Y187.5372
G01 X32.9913 Y187.4909
G01 X32.9803 Y187.4450
G01 X32.9670 Y187.3999
G01 X32.9512 Y187.3554
G01 X32.9332 Y187.3119
G01 X32.9129 Y187.2694
G01 X32.8904 Y187.2280
G01 X32.8658 Y187.1878
G01 X32.8391 Y187.1490
G01 X32.8104 Y187.1116
G01 X32.7798 Y187.0758
G01 X32.7474 Y187.0416
G01 X32.7132 Y187.0091
G01 X32.6774 Y186.9785
G01 X32.6400 Y186.9499
G01 X32.6012 Y186.9232
G01 X32.5610 Y186.8986
G01 X32.5196 Y186.8761
G01 X32.4771 Y186.8558
G01 X32.4335 Y186.8378
G01 X32.3891 Y186.8220
G01 X32.3439 Y186.8086
G01 X32.2981 Y186.7976
G01 X32.2518 Y186.7891
G01 X32.2051 Y186.7829
G01 X32.1581 Y186.7792
G01 X32.1110 Y186.7780
G01 X32.0639 Y186.7792
G01 X32.0169 Y186.7829
G01 X31.9702 Y186.7891
G01 X31.9239 Y186.7976
G01 X31.8781 Y186.8086
G01 X31.8329 Y186.8220
G01 X31.7885 Y186.8378
G01 X31.7449 Y186.8558
G01 X31.7024 Y186.8761
G01 X31.6610 Y186.8986
G01 X31.6208 Y186.9232
G01 X31.5820 Y186.9499
G01 X31.5446 Y186.9785
G01 X31.5088 Y187.0091
G01 X31.4746 Y187.0416
G01 X31.4422 Y187.0758
G01 X31.4116 Y187.1116
G01 X31.3829 Y187.1490
G01 X31.3562 Y187.1878
G01 X31.3316 Y187.2280
G01 X31.3091 Y187.2694
G01 X31.2888 Y187.3119
G01 X31.2708 Y187.3554
G01 X31.2550 Y187.3999
G01 X31.2417 Y187.4450
G01 X31.2307 Y187.4909
G01 X31.2221 Y187.5372
G01 X31.2159 Y187.5839
G01 X31.2122 Y187.6309
G01 X31.2110 Y187.6780
G01 X31.2122 Y187.7251
G01 X31.2159 Y187.7721
G01 X31.2221 Y187.8188
G01 X31.2307 Y187.8651
G01 X31.2417 Y187.9109
G01 X31.2550 Y187.9561
G01 X31.2708 Y188.0005
G01 X31.2888 Y188.0440
G01 X31.3091 Y188.0866
G01 X31.3316 Y188.1280
G01 X31.3562 Y188.1682
G01 X31.3829 Y188.2070
G01 X31.4116 Y188.2444
G01 X31.4422 Y188.2802
G01 X31.4746 Y188.3144
G01 X31.5088 Y188.3468
G01 X31.5446 Y188.3774
G01 X31.5820 Y188.4061
G01 X31.6208 Y188.4328
G01 X31.6610 Y188.4574
G01 X31.7024 Y188.4799
G01 X31.7449 Y188.5002
G01 X31.7885 Y188.5182
G01 X31.8329 Y188.5339
G01 X31.8781 Y188.5473
G01 X31.9239 Y188.5583
G01 X31.9702 Y188.5669
G01 X32.0169 Y188.5730
G01 X32.0639 Y188.5767
G01 X32.1110 Y188.5780
G01 X32.1581 Y188.5767
G01 X32.2051 Y188.5730
G01 X32.2518 Y188.5669
G01 X32.2981 Y188.5583
G01 X32.3439 Y188.5473
G01 X32.3891 Y188.5339
G01 X32.4335 Y188.5182
G01 X32.4771 Y188.5002
G01 X32.5196 Y188.4799
G01 X32.5610 Y188.4574
G01 X32.6012 Y188.4328
G01 X32.6400 Y188.4061
G01 X32.6774 Y188.3774
G01 X32.7132 Y188.3468
G01 X32.7474 Y188.3144
G01 X32.7798 Y188.2802
G01 X32.8104 Y188.2444
G01 X32.8391 Y188.2070
G01 X32.8658 Y188.1682
G01 X32.8904 Y188.1280
G01 X32.9129 Y188.0866
G01 X32.9332 Y188.0440
G01 X32.9512 Y188.0005
G01 X32.9670 Y187.9561
G01 X32.9803 Y187.9109
G01 X32.9913 Y187.8651
G01 X32.9999 Y187.8188
G01 X33.0061 Y187.7721
G01 X33.0098 Y187.7251
G01 X33.0110 Y187.6780
G01 X33.0219 Y187.6313 F1000
G01 X33.0304 Y187.5841
G01 X33.0364 Y187.5366
G01 X33.0399 Y187.4888
G01 X33.0409 Y187.4409
G01 X33.0395 Y187.3930
G01 X33.0355 Y187.3452
G01 X33.0291 Y187.2977
G01 X33.0194 Y187.2462
G01 X33.0071 Y187.1953
G01 X32.9921 Y187.1450
G01 X32.9746 Y187.0956
G01 X32.9546 Y187.0472
G01 X32.9321 Y186.9999
G01 X32.9072 Y186.9538
G01 X32.8800 Y186.9090
G01 X32.8480 Y186.8620
G01 X32.8136 Y186.8166
G01 X32.7769 Y186.7731
G01 X32.7381 Y186.7316
G01 X32.6971 Y186.6920
G01 X32.6543 Y186.6546
G01 X32.6095 Y186.6195
G01 X32.5630 Y186.5866
G01 X32.5111 Y186.5538
G01 X32.4576 Y186.5237
G01 X32.4027 Y186.4963
G01 X32.3464 Y186.4717
G01 X32.2889 Y186.4501
G01 X32.2304 Y186.4314
G01 X32.1711 Y186.4157
G01 X32.1110 Y186.4030
G01 X32.0459 Y186.3927
G01 X31.9803 Y186.3856
G01 X31.9145 Y186.3819
G01 X31.8486 Y186.3816
G01 X31.7827 Y186.3846
G01 X31.7171 Y186.3909
G01 X31.6519 Y186.4005
G01 X31.5872 Y186.4134
G01 X31.5189 Y186.4307
G01 X31.4515 Y186.4514
G01 X31.3853 Y186.4754
G01 X31.3204 Y186.5028
G01 X31.2569 Y186.5334
G01 X31.1951 Y186.5672
G01 X31.1350 Y186.6040
G01 X31.0769 Y186.6438
G01 X31.0233 Y186.6933
G01 X30.9723 Y186.7453
G01 X30.9239 Y186.7997
G01 X30.8783 Y186.8565
G01 X30.8355 Y186.9155
G01 X30.7956 Y186.9765
G01 X30.7588 Y187.0393
G01 X30.7252 Y187.1040
G01 X30.6987 Y187.1726
G01 X30.6756 Y187.2426
G01 X30.6560 Y187.3135
G01 X30.6398 Y187.3853
G01 X30.6272 Y187.4579
G01 X30.6182 Y187.5310
G01 X30.6128 Y187.6044
G01 X30.6110 Y187.6780
G01 X30.6128 Y187.7516
G01 X30.6182 Y187.8250
G01 X30.6272 Y187.8981
G01 X30.6398 Y187.9706
G01 X30.6560 Y188.0425
G01 X30.6756 Y188.1134
G01 X30.6987 Y188.1833
G01 X30.7252 Y188.2520
G01 X30.7550 Y188.3193
G01 X30.7881 Y188.3851
G01 X30.8244 Y188.4491
G01 X30.8638 Y188.5113
G01 X30.9062 Y188.5715
G01 X30.9515 Y188.6296
G01 X30.9996 Y188.6853
G01 X31.0503 Y188.7386
G01 X31.1037 Y188.7894
G01 X31.1594 Y188.8375
G01 X31.2175 Y188.8828
G01 X31.2776 Y188.9252
G01 X31.3398 Y188.9646
G01 X31.4039 Y189.0009
G01 X31.4697 Y189.0340
G01 X31.5370 Y189.0638
G01 X31.6057 Y189.0903
G01 X31.6756 Y189.1134
G01 X31.7465 Y189.1330
G01 X31.8184 Y189.1492
G01 X31.8909 Y189.1617
G01 X31.9640 Y189.1708
G01 X32.0374 Y189.1762
G01 X32.1110 Y189.1780
G01 X32.1846 Y189.1762
G01 X32.2580 Y189.1708
G01 X32.3311 Y189.1617
G01 X32.4036 Y189.1492
G01 X32.4755 Y189.1330
G01 X32.5464 Y189.1134
G01 X32.6163 Y189.0903
G01 X32.6850 Y189.0638
G01 X32.7523 Y189.0340
G01 X32.8181 Y189.0009
G01 X32.8822 Y188.9646
G01 X32.9444 Y188.9252
G01 X33.0045 Y188.8828
G01 X33.0626 Y188.8375
G01 X33.1183 Y188.7894
G01 X33.1717 Y188.7386
G01 X33.2224 Y188.6853
G01 X33.2705 Y188.6296
G01 X33.3158 Y188.5715
G01 X33.3582 Y188.5113
G01 X33.3976 Y188.4491
G01 X33.4339 Y188.3851
G01 X33.4670 Y188.3193
G01 X33.4968 Y188.2520
G01 X33.5233 Y188.1833
G01 X33.5464 Y188.1134
G01 X33.5660 Y188.0425
G01 X33.5822 Y187.9706
G01 X33.5948 Y187.8981
G01 X33.6038 Y187.8250
G01 X33.6092 Y187.7516
G01 X33.6110 Y187.6780
G01 X33.6068 Y187.5659
G01 X33.5942 Y187.4544
G01 X33.5734 Y187.3442
G01 X33.5444 Y187.2358
G01 X33.5073 Y187.1300
G01 X33.4625 Y187.0272
G01 X33.4100 Y186.9280
G01 X33.3504 Y186.8330
G01 X33.2837 Y186.7427
G01 X33.2106 Y186.6577
G01 X33.1313 Y186.5784
G01 X33.0462 Y186.5052
G01 X32.9560 Y186.4386
G01 X32.8610 Y186.3789
G01 X32.7618 Y186.3265
G01 X32.6590 Y186.2817
G01 X32.5531 Y186.2446
G01 X32.4448 Y186.2156
G01 X32.3346 Y186.1947
G01 X32.2231 Y186.1822
G01 X32.1110 Y186.1780
G01 X31.9989 Y186.1822
G01 X31.8874 Y186.1947
G01 X31.7772 Y186.2156
G01 X31.6689 Y186.2446
G01 X31.5630 Y186.2817
G01 X31.4602 Y186.3265
G01 X31.3610 Y186.3789
G01 X31.2660 Y186.4386
G01 X31.1758 Y186.5052
G01 X31.0907 Y186.5784
G01 X31.0114 Y186.6577
G01 X30.9383 Y186.7427
G01 X30.8716 Y186.8330
G01 X30.8120 Y186.9280
G01 X30.7595 Y187.0272
G01 X30.7147 Y187.1300
G01 X30.6776 Y187.2358
G01 X30.6486 Y187.3442
G01 X30.6278 Y187.4544
G01 X30.6152 Y187.5659
G01 X30.6110 Y187.6780
G01 X30.6152 Y187.7901
G01 X30.6278 Y187.9015
G01 X30.6486 Y188.0118
G01 X30.6776 Y188.1201
G01 X30.7147 Y188.2260
G01 X30.7595 Y188.3288
G01 X30.8120 Y188.4280
G01 X30.8716 Y188.5230
G01 X30.9383 Y188.6132
G01 X31.0114 Y188.6982
G01 X31.0907 Y188.7776
G01 X31.1758 Y188.8507
G01 X31.2660 Y188.9173
G01 X31.3610 Y188.9770
G01 X31.4602 Y189.0294
G01 X31.5630 Y189.0743
G01 X31.6689 Y189.1113
G01 X31.7772 Y189.1404
G01 X31.8874 Y189.1612
G01 X31.9989 Y189.1738
G01 X32.1110 Y189.1780
G01 X32.2231 Y189.1738
G01 X32.3346 Y189.1612
G01 X32.4448 Y189.1404
G01 X32.5531 Y189.1113
G01 X32.6590 Y189.0743
G01 X32.7618 Y189.0294
G01 X32.8610 Y188.9770
G01 X32.9560 Y188.9173
G01 X33.0462 Y188.8507
G01 X33.1313 Y188.7776
G01 X33.2106 Y188.6982
G01 X33.2837 Y188.6132
G01 X33.3504 Y188.5230
G01 X33.4100 Y188.4280
G01 X33.4625 Y188.3288
G01 X33.5073 Y188.2260
G01 X33.5444 Y188.1201
G01 X33.5734 Y188.0118
G01 X33.5942 Y187.9015
G01 X33.6068 Y187.7901
G01 X33.6110 Y187.6780
G01 X33.6064 Y187.5734
G01 X33.5928 Y187.4696
G01 X33.5701 Y187.3674
G01 X33.5386 Y187.2676
G01 X33.4986 Y187.1708
G01 X33.4502 Y187.0780
G01 X33.3940 Y186.9897
G01 X33.3303 Y186.9066
G01 X33.2595 Y186.8295
G01 X33.1823 Y186.7587
G01 X33.0993 Y186.6950
G01 X33.0110 Y186.6387
G01 X32.9181 Y186.5904
G01 X32.8214 Y186.5503
G01 X32.7216 Y186.5189
G01 X32.6194 Y186.4962
G01 X32.5156 Y186.4825
G01 X32.4110 Y186.4780
G01 X32.3064 Y186.4825
G01 X32.2026 Y186.4962
G01 X32.1004 Y186.5189
G01 X32.0006 Y186.5503
G01 X31.9039 Y186.5904
G01 X31.8110 Y186.6387
G01 X31.7227 Y186.6950
G01 X31.6397 Y186.7587
G01 X31.5625 Y186.8295
G01 X31.4917 Y186.9066
G01 X31.4280 Y186.9897
G01 X31.3718 Y187.0780
G01 X31.3234 Y187.1708
G01 X31.2834 Y187.2676
G01 X31.2519 Y187.3674
G01 X31.2292 Y187.4696
G01 X31.2156 Y187.5734
G01 X31.2110 Y187.6780
G01 X31.2122 Y187.7251
G01 X31.2159 Y187.7721
G01 X31.2221 Y187.8188
G01 X31.2307 Y187.8651
G01 X31.2417 Y187.9109
G01 X31.2550 Y187.9561
G01 X31.2708 Y188.0005
G01 X31.2888 Y188.0440
G01 X31.3091 Y188.0866
G01 X31.3316 Y188.1280
G01 X31.3562 Y188.1682
G01 X31.3829 Y188.2070
G01 X31.4116 Y188.2444
G01 X31.4422 Y188.2802
G01 X31.4746 Y188.3144
G01 X31.5088 Y188.3468
G01 X31.5446 Y188.3774
G01 X31.5820 Y188.4061
G01 X31.6208 Y188.4328
G01 X31.6610 Y188.4574
G01 X31.7024 Y188.4799
G01 X31.7449 Y188.5002
G01 X31.7885 Y188.5182
G01 X31.8329 Y188.5339
G01 X31.8781 Y188.5473
G01 X31.9239 Y188.5583
G01 X31.9702 Y188.5669
G01 X32.0169 Y188.5730
G01 X32.0639 Y188.5767
G01 X32.1110 Y188.5780
G01 X32.1581 Y188.5767
G01 X32.2051 Y188.5730
G01 X32.2518 Y188.5669
G01 X32.2981 Y188.5583
G01 X32.3439 Y188.5473
G01 X32.3891 Y188.5339
G01 X32.4335 Y188.5182
G01 X32.4771 Y188.5002
G01 X32.5196 Y188.4799
G01 X32.5610 Y188.4574
G01 X32.6012 Y188.4328
G01 X32.6400 Y188.4061
G01 X32.6774 Y188.3774
G01 X32.7132 Y188.3468
G01 X32.7474 Y188.3144
G01 X32.7798 Y188.2802
G01 X32.8104 Y188.2444
G01 X32.8391 Y188.2070
G01 X32.8658 Y188.1682
G01 X32.8904 Y188.1280
G01 X32.9129 Y188.0866
G01 X32.9332 Y188.0440
G01 X32.9512 Y188.0005
G01 X32.9670 Y187.9561
G01 X32.9803 Y187.9109
G01 X32.9913 Y187.8651
G01 X32.9999 Y187.8188
G01 X33.0061 Y187.7721
G01 X33.0098 Y187.7251
G01 X33.0110 Y187.6780
M107
M106 S240
G01 X33.0098 Y187.6309 Z-4.4183 F400
G01 X33.0061 Y187.5839 Z-4.4367
G01 X32.9999 Y187.5372 Z-4.4550
G01 X32.9913 Y187.4909 Z-4.4733
G01 X32.9803 Y187.4450 Z-4.4917
G01 X32.9670 Y187.3999 Z-4.5100
G01 X32.9512 Y187.3554 Z-4.5283
G01 X32.9332 Y187.3119 Z-4.5467
G01 X32.9129 Y187.2694 Z-4.5650
G01 X32.8904 Y187.2280 Z-4.5833
G01 X32.8658 Y187.1878 Z-4.6017
G01 X32.8391 Y187.1490 Z-4.6200
G01 X32.8104 Y187.1116 Z-4.6383
G01 X32.7798 Y187.0758 Z-4.6567
G01 X32.7474 Y187.0416 Z-4.6750
G01 X32.7132 Y187.0091 Z-4.6933
G01 X32.6774 Y186.9785 Z-4.7117
G01 X32.6400 Y186.9499 Z-4.7300
G01 X32.6012 Y186.9232 Z-4.7483
G01 X32.5610 Y186.8986 Z-4.7667
G01 X32.5196 Y186.8761 Z-4.7850
G01 X32.4771 Y186.8558 Z-4.8033
G01 X32.4335 Y186.8378 Z-4.8217
G01 X32.3891 Y186.8220 Z-4.8400
G01 X32.3439 Y186.8086 Z-4.8583
G01 X32.2981 Y186.7976 Z-4.8767
G01 X32.2518 Y186.7891 Z-4.8950
G01 X32.2051 Y186.7829 Z-4.9133
G01 X32.1581 Y186.7792 Z-4.9317
G01 X32.1110 Y186.7780 Z-4.9500
G01 X32.0639 Y186.7792 Z-4.9683
G01 X32.0169 Y186.7829 Z-4.9867
G01 X31.9702 Y186.7891 Z-5.0050
G01 X31.9239 Y186.7976 Z-5.0233
G01 X31.8781 Y186.8086 Z-5.0417
G01 X31.8329 Y186.8220 Z-5.0600
G01 X31.7885 Y186.8378 Z-5.0783
G01 X31.7449 Y186.8558 Z-5.0967
G01 X31.7024 Y186.8761 Z-5.1150
G01 X31.6610 Y186.8986 Z-5.1333
G01 X31.6208 Y186.9232 Z-5.1517
G01 X31.5820 Y186.9499 Z-5.1700
G01 X31.5446 Y186.9785 Z-5.1883
G01 X31.5088 Y187.0091 Z-5.2067
G01 X31.4746 Y187.0416 Z-5.2250
G01 X31.4422 Y187.0758 Z-5.2433
G01 X31.4116 Y187.1116 Z-5.2617
G01 X31.3829 Y187.1490 Z-5.2800
G01 X31.3562 Y187.1878 Z-5.2983
G01 X31.3316 Y187.2280 Z-5.3167
G01 X31.3091 Y187.2694 Z-5.3350
G01 X31.2888 Y187.3119 Z-5.3533
G01 X31.2708 Y187.3554 Z-5.3717
G01 X31.2550 Y187.3999 Z-5.3900
G01 X31.2417 Y187.4450 Z-5.4083
G01 X31.2307 Y187.4909 Z-5.4267
G01 X31.2221 Y187.5372 Z-5.4450
G01 X31.2159 Y187.5839 Z-5.4633
G01 X31.2122 Y187.6309 Z-5.4817
G01 X31.2110 Y187.6780 Z-5.5000
G01 X31.2122 Y187.7251 Z-5.5183
G01 X31.2159 Y187.7721 Z-5.5367
G01 X31.2221 Y187.8188 Z-5.5550
G01 X31.2307 Y187.8651 Z-5.5733
G01 X31.2417 Y187.9109 Z-5.5917
G01 X31.2550 Y187.9561 Z-5.6100
G01 X31.2708 Y188.0005 Z-5.6283
G01 X31.2888 Y188.0440 Z-5.6467
G01 X31.3091 Y188.0866 Z-5.6650
G01 X31.3316 Y188.1280 Z-5.6833
G01 X31.3562 Y188.1682 Z-5.7017
G01 X31.3829 Y188.2070 Z-5.7200
G01 X31.4116 Y188.2444 Z-5.7383
G01 X31.4422 Y188.2802 Z-5.7567
G01 X31.4746 Y188.3144 Z-5.7750
G01 X31.5088 Y188.3468 Z-5.7933
G01 X31.5446 Y188.3774 Z-5.8117
G01 X31.5820 Y188.4061 Z-5.8300
G01 X31.6208 Y188.4328 Z-5.8483
G01 X31.6610 Y188.4574 Z-5.8667
G01 X31.7024 Y188.4799 Z-5.8850
G01 X31.7449 Y188.5002 Z-5.9033
G01 X31.7885 Y188.5182 Z-5.9217
G01 X31.8329 Y188.5339 Z-5.9400
G01 X31.8781 Y188.5473 Z-5.9583
G01 X31.9239 Y188.5583 Z-5.9767
G01 X31.9702 Y188.5669 Z-5.9950
G01 X32.0169 Y188.5730 Z-6.0133
G01 X32.0639 Y188.5767 Z-6.0317
G01 X32.1110 Y188.5780 Z-6.0500
G01 X32.1581 Y188.5767 Z-6.0683
G01 X32.2051 Y188.5730 Z-6.0867
G01 X32.2518 Y188.5669 Z-6.1050
G01 X32.2981 Y188.5583 Z-6.1233
G01 X32.3439 Y188.5473 Z-6.1417
G01 X32.3891 Y188.5339 Z-6.1600
G01 X32.4335 Y188.5182 Z-6.1783
G01 X32.4771 Y188.5002 Z-6.1967
G01 X32.5196 Y188.4799 Z-6.2150
G01 X32.5610 Y188.4574 Z-6.2333
G01 X32.6012 Y188.4328 Z-6.2517
G01 X32.6400 Y188.4061 Z-6.2700
G01 X32.6774 Y188.3774 Z-6.2883
G01 X32.7132 Y188.3468 Z-6.3067
G01 X32.7474 Y188.3144 Z-6.3250
G01 X32.7798 Y188.2802 Z-6.3433
G01 X32.8104 Y188.2444 Z-6.3617
G01 X32.8391 Y188.2070 Z-6.3800
G01 X32.8658 Y188.1682 Z-6.3983
G01 X32.8904 Y188.1280 Z-6.4167
G01 X32.9129 Y188.0866 Z-6.4350
G01 X32.9332 Y188.0440 Z-6.4533
G01 X32.9512 Y188.0005 Z-6.4717
G01 X32.9670 Y187.9561 Z-6.4900
G01 X32.9803 Y187.9109 Z-6.5083
G01 X32.9913 Y187.8651 Z-6.5267
G01 X32.9999 Y187.8188 Z-6.5450
G01 X33.0061 Y187.7721 Z-6.5633
G01 X33.0098 Y187.7251 Z-6.5817
G01 X33.0110 Y187.6780 Z-6.6000
G01 X33.0098 Y187.6309
G01 X33.0061 Y187.5839
G01 X32.9999 Y187.5372
G01 X32.9913 Y187.4909
G01 X32.9803 Y187.4450
G01 X32.9670 Y187.3999
G01 X32.9512 Y187.3554
G01 X32.9332 Y187.3119
G01 X32.9129 Y187.2694
G01 X32.8904 Y187.2280
G01 X32.8658 Y187.1878
G01 X32.8391 Y187.1490
G01 X32.8104 Y187.1116
G01 X32.7798 Y187.0758
G01 X32.7474 Y187.0416
G01 X32.7132 Y187.0091
G01 X32.6774 Y186.9785
G01 X32.6400 Y186.9499
G01 X32.6012 Y186.9232
G01 X32.5610 Y186.8986
G01 X32.5196 Y186.8761
G01 X32.4771 Y186.8558
G01 X32.4335 Y186.8378
G01 X32.3891 Y186.8220
G01 X32.3439 Y186.8086
G01 X32.2981 Y186.7976
G01 X32.2518 Y186.7891
G01 X32.2051 Y186.7829
G01 X32.1581 Y186.7792
G01 X32.1110 Y186.7780
G01 X32.0639 Y186.7792
G01 X32.0169 Y186.7829
G01 X31.9702 Y186.7891
G01 X31.9239 Y186.7976
G01 X31.8781 Y186.8086
G01 X31.8329 Y186.8220
G01 X31.7885 Y186.8378
G01 X31.7449 Y186.8558
G01 X31.7024 Y186.8761
G01 X31.6610 Y186.8986
G01 X31.6208 Y186.9232
G01 X31.5820 Y186.9499
G01 X31.5446 Y186.9785
G01 X31.5088 Y187.0091
G01 X31.4746 Y187.0416
G01 X31.4422 Y187.0758
G01 X31.4116 Y187.1116
G01 X31.3829 Y187.1490
G01 X31.3562 Y187.1878
G01 X31.3316 Y187.2280
G01 X31.3091 Y187.2694
G01 X31.2888 Y187.3119
G01 X31.2708 Y187.3554
G01 X31.2550 Y187.3999
G01 X31.2417 Y187.4450
G01 X31.2307 Y187.4909
G01 X31.2221 Y187.5372
G01 X31.2159 Y187.5839
G01 X31.2122 Y187.6309
G01 X31.2110 Y187.6780
G01 X31.2122 Y187.7251
G01 X31.2159 Y187.7721
G01 X31.2221 Y187.8188
G01 X31.2307 Y187.8651
G01 X31.2417 Y187.9109
G01 X31.2550 Y187.9561
G01 X31.2708 Y188.0005
G01 X31.2888 Y188.0440
G01 X31.3091 Y188.0866
G01 X31.3316 Y188.1280
G01 X31.3562 Y188.1682
G01 X31.3829 Y188.2070
G01 X31.4116 Y188.2444
G01 X31.4422 Y188.2802
G01 X31.4746 Y188.3144
G01 X31.5088 Y188.3468
G01 X31.5446 Y188.3774
G01 X31.5820 Y188.4061
G01 X31.6208 Y188.4328
G01 X31.6610 Y188.4574
G01 X31.7024 Y188.4799
G01 X31.7449 Y188.5002
G01 X31.7885 Y188.5182
G01 X31.8329 Y188.5339
G01 X31.8781 Y188.5473
G01 X31.9239 Y188.5583
G01 X31.9702 Y188.5669
G01 X32.0169 Y188.5730
G01 X32.0639 Y188.5767
G01 X32.1110 Y188.5780
G01 X32.1581 Y188.5767
G01 X32.2051 Y188.5730
G01 X32.2518 Y188.5669
G01 X32.2981 Y188.5583
G01 X32.3439 Y188.5473
G01 X32.3891 Y188.5339
G01 X32.4335 Y188.5182
G01 X32.4771 Y188.5002
G01 X32.5196 Y188.4799
G01 X32.5610 Y188.4574
G01 X32.6012 Y188.4328
G01 X32.6400 Y188.4061
G01 X32.6774 Y188.3774
G01 X32.7132 Y188.3468
G01 X32.7474 Y188.3144
G01 X32.7798 Y188.2802
G01 X32.8104 Y188.2444
G01 X32.8391 Y188.2070
G01 X32.8658 Y188.1682
G01 X32.8904 Y188.1280
G01 X32.9129 Y188.0866
G01 X32.9332 Y188.0440
G01 X32.9512 Y188.0005
G01 X32.9670 Y187.9561
G01 X32.9803 Y187.9109
G01 X32.9913 Y187.8651
G01 X32.9999 Y187.8188
G01 X33.0061 Y187.7721
G01 X33.0098 Y187.7251
G01 X33.0110 Y187.6780
G01 X33.0219 Y187.6313 F1000
G01 X33.0304 Y187.5841
G01 X33.0364 Y187.5366
G01 X33.0399 Y187.4888
G01 X33.0409 Y187.4409
G01 X33.0395 Y187.3930
G01 X33.0355 Y187.3452
G01 X33.0291 Y187.2977
G01 X33.0194 Y187.2462
G01 X33.0071 Y187.1953
G01 X32.9921 Y187.1450
G01 X32.9746 Y187.0956
G01 X32.9546 Y187.0472
G01 X32.9321 Y186.9999
G01 X32.9072 Y186.9538
G01 X32.8800 Y186.9090
G01 X32.8480 Y186.8620
G01 X32.8136 Y186.8166
G01 X32.7769 Y186.7731
G01 X32.7381 Y186.7316
G01 X32.6971 Y186.6920
G01 X32.6543 Y186.6546
G01 X32.6095 Y186.6195
G01 X32.5630 Y186.5866
G01 X32.5111 Y186.5538
G01 X32.4576 Y186.5237
G01 X32.4027 Y186.4963
G01 X32.3464 Y186.4717
G01 X32.2889 Y186.4501
G01 X32.2304 Y186.4314
G01 X32.1711 Y186.4157
G01 X32.1110 Y186.4030
G01 X32.0459 Y186.3927
G01 X31.9803 Y186.3856
G01 X31.9145 Y186.3819
G01 X31.8486 Y186.3816
G01 X31.7827 Y186.3846
G01 X31.7171 Y186.3909
G01 X31.6519 Y186.4005
G01 X31.5872 Y186.4134
G01 X31.5189 Y186.4307
G01 X31.4515 Y186.4514
G01 X31.3853 Y186.4754
G01 X31.3204 Y186.5028
G01 X31.2569 Y186.5334
G01 X31.1951 Y186.5672
G01 X31.1350 Y186.6040
G01 X31.0769 Y186.6438
G01 X31.0233 Y186.6933
G01 X30.9723 Y186.7453
G01 X30.9239 Y186.7997
G01 X30.8783 Y186.8565
G01 X30.8355 Y186.9155
G01 X30.7956 Y186.9765
G01 X30.7588 Y187.0393
G01 X30.7252 Y187.1040
G01 X30.6987 Y187.1726
G01 X30.6756 Y187.2426
G01 X30.6560 Y187.3135
G01 X30.6398 Y187.3853
G01 X30.6272 Y187.4579
G01 X30.6182 Y187.5310
G01 X30.6128 Y187.6044
G01 X30.6110 Y187.6780
G01 X30.6128 Y187.7516
G01 X30.6182 Y187.8250
G01 X30.6272 Y187.8981
G01 X30.6398 Y187.9706
G01 X30.6560 Y188.0425
G01 X30.6756 Y188.1134
G01 X30.6987 Y188.1833
G01 X30.7252 Y188.2520
G01 X30.7550 Y188.3193
G01 X30.7881 Y188.3851
G01 X30.8244 Y188.4491
G01 X30.8638 Y188.5113
G01 X30.9062 Y188.5715
G01 X30.9515 Y188.6296
G01 X30.9996 Y188.6853
G01 X31.0503 Y188.7386
G01 X31.1037 Y188.7894
G01 X31.1594 Y188.8375
G01 X31.2175 Y188.8828
G01 X31.2776 Y188.9252
G01 X31.3398 Y188.9646
G01 X31.4039 Y189.0009
G01 X31.4697 Y189.0340
G01 X31.5370 Y189.0638
G01 X31.6057 Y189.0903
G01 X31.6756 Y189.1134
G01 X31.7465 Y189.1330
G01 X31.8184 Y189.1492
G01 X31.8909 Y189.1617
G01 X31.9640 Y189.1708
G01 X32.0374 Y189.1762
G01 X32.1110 Y189.1780
G01 X32.1846 Y189.1762
G01 X32.2580 Y189.1708
G01 X32.3311 Y189.1617
G01 X32.4036 Y189.1492
G01 X32.4755 Y189.1330
G01 X32.5464 Y189.1134
G01 X32.6163 Y189.0903
G01 X32.6850 Y189.0638
G01 X32.7523 Y189.0340
G01 X32.8181 Y189.0009
G01 X32.8822 Y188.9646
G01 X32.9444 Y188.9252
G01 X33.0045 Y188.8828
G01 X33.0626 Y188.8375
G01 X33.1183 Y188.7894
G01 X33.1717 Y188.7386
G01 X33.2224 Y188.6853
G01 X33.2705 Y188.6296
G01 X33.3158 Y188.5715
G01 X33.3582 Y188.5113
G01 X33.3976 Y188.4491
G01 X33.4339 Y188.3851
G01 X33.4670 Y188.3193
G01 X33.4968 Y188.2520
G01 X33.5233 Y188.1833
G01 X33.5464 Y188.1134
G01 X33.5660 Y188.0425
G01 X33.5822 Y187.9706
G01 X33.5948 Y187.8981
G01 X33.6038 Y187.8250
G01 X33.6092 Y187.7516
G01 X33.6110 Y187.6780
G01 X33.6068 Y187.5659
G01 X33.5942 Y187.4544
G01 X33.5734 Y187.3442
G01 X33.5444 Y187.2358
G01 X33.5073 Y187.1300
G01 X33.4625 Y187.0272
G01 X33.4100 Y186.9280
G01 X33.3504 Y186.8330
G01 X33.2837 Y186.7427
G01 X33.2106 Y186.6577
G01 X33.1313 Y186.5784
G01 X33.0462 Y186.5052
G01 X32.9560 Y186.4386
G01 X32.8610 Y186.3789
G01 X32.7618 Y186.3265
G01 X32.6590 Y186.2817
G01 X32.5531 Y186.2446
G01 X32.4448 Y186.2156
G01 X32.3346 Y186.1947
G01 X32.2231 Y186.1822
G01 X32.1110 Y186.1780
G01 X31.9989 Y186.1822
G01 X31.8874 Y186.1947
G01 X31.7772 Y186.2156
G01 X31.6689 Y186.2446
G01 X31.5630 Y186.2817
G01 X31.4602 Y186.3265
G01 X31.3610 Y186.3789
G01 X31.2660 Y186.4386
G01 X31.1758 Y186.5052
G01 X31.0907 Y186.5784
G01 X31.0114 Y186.6577
G01 X30.9383 Y186.7427
G01 X30.8716 Y186.8330
G01 X30.8120 Y186.9280
G01 X30.7595 Y187.0272
G01 X30.7147 Y187.1300
G01 X30.6776 Y187.2358
G01 X30.6486 Y187.3442
G01 X30.6278 Y187.4544
G01 X30.6152 Y187.5659
G01 X30.6110 Y187.6780
G01 X30.6152 Y187.7901
G01 X30.6278 Y187.9015
G01 X30.6486 Y188.0118
G01 X30.6776 Y188.1201
G01 X30.7147 Y188.2260
G01 X30.7595 Y188.3288
G01 X30.8120 Y188.4280
G01 X30.8716 Y188.5230
G01 X30.9383 Y188.6132
G01 X31.0114 Y188.6982
G01 X31.0907 Y188.7776
G01 X31.1758 Y188.8507
G01 X31.2660 Y188.9173
G01 X31.3610 Y188.9770
G01 X31.4602 Y189.0294
G01 X31.5630 Y189.0743
G01 X31.6689 Y189.1113
G01 X31.7772 Y189.1404
G01 X31.8874 Y189.1612
G01 X31.9989 Y189.1738
G01 X32.1110 Y189.1780
G01 X32.2231 Y189.1738
G01 X32.3346 Y189.1612
G01 X32.4448 Y189.1404
G01 X32.5531 Y189.1113
G01 X32.6590 Y189.0743
G01 X32.7618 Y189.0294
G01 X32.8610 Y188.9770
G01 X32.9560 Y188.9173
G01 X33.0462 Y188.8507
G01 X33.1313 Y188.7776
G01 X33.2106 Y188.6982
G01 X33.2837 Y188.6132
G01 X33.3504 Y188.5230
G01 X33.4100 Y188.4280
G01 X33.4625 Y188.3288
G01 X33.5073 Y188.2260
G01 X33.5444 Y188.1201
G01 X33.5734 Y188.0118
G01 X33.5942 Y187.9015
G01 X33.6068 Y187.7901
G01 X33.6110 Y187.6780
G01 X33.6064 Y187.5734
G01 X33.5928 Y187.4696
G01 X33.5701 Y187.3674
G01 X33.5386 Y187.2676
G01 X33.4986 Y187.1708
G01 X33.4502 Y187.0780
G01 X33.3940 Y186.9897
G01 X33.3303 Y186.9066
G01 X33.2595 Y186.8295
G01 X33.1823 Y186.7587
G01 X33.0993 Y186.6950
G01 X33.0110 Y186.6387
G01 X32.9181 Y186.5904
G01 X32.8214 Y186.5503
G01 X32.7216 Y186.5189
G01 X32.6194 Y186.4962
G01 X32.5156 Y186.4825
G01 X32.4110 Y186.4780
G01 X32.3064 Y186.4825
G01 X32.2026 Y186.4962
G01 X32.1004 Y186.5189
G01 X32.0006 Y186.5503
G01 X31.9039 Y186.5904
G01 X31.8110 Y186.6387
G01 X31.7227 Y186.6950
G01 X31.6397 Y186.7587
G01 X31.5625 Y186.8295
G01 X31.4917 Y186.9066
G01 X31.4280 Y186.9897
G01 X31.3718 Y187.0780
G01 X31.3234 Y187.1708
G01 X31.2834 Y187.2676
G01 X31.2519 Y187.3674
G01 X31.2292 Y187.4696
G01 X31.2156 Y187.5734
G01 X31.2110 Y187.6780
G01 X31.2122 Y187.7251
G01 X31.2159 Y187.7721
G01 X31.2221 Y187.8188
G01 X31.2307 Y187.8651
G01 X31.2417 Y187.9109
G01 X31.2550 Y187.9561
G01 X31.2708 Y188.0005
G01 X31.2888 Y188.0440
G01 X31.3091 Y188.0866
G01 X31.3316 Y188.1280
G01 X31.3562 Y188.1682
G01 X31.3829 Y188.2070
G01 X31.4116 Y188.2444
G01 X31.4422 Y188.2802
G01 X31.4746 Y188.3144
G01 X31.5088 Y188.3468
G01 X31.5446 Y188.3774
G01 X31.5820 Y188.4061
G01 X31.6208 Y188.4328
G01 X31.6610 Y188.4574
G01 X31.7024 Y188.4799
G01 X31.7449 Y188.5002
G01 X31.7885 Y188.5182
G01 X31.8329 Y188.5339
G01 X31.8781 Y188.5473
G01 X31.9239 Y188.5583
G01 X31.9702 Y188.5669
G01 X32.0169 Y188.5730
G01 X32.0639 Y188.5767
G01 X32.1110 Y188.5780
G01 X32.1581 Y188.5767
G01 X32.2051 Y188.5730
G01 X32.2518 Y188.5669
G01 X32.2981 Y188.5583
G01 X32.3439 Y188.5473
G01 X32.3891 Y188.5339
G01 X32.4335 Y188.5182
G01 X32.4771 Y188.5002
G01 X32.5196 Y188.4799
G01 X32.5610 Y188.4574
G01 X32.6012 Y188.4328
G01 X32.6400 Y188.4061
G01 X32.6774 Y188.3774
G01 X32.7132 Y188.3468
G01 X32.7474 Y188.3144
G01 X32.7798 Y188.2802
G01 X32.8104 Y188.2444
G01 X32.8391 Y188.2070
G01 X32.8658 Y188.1682
G01 X32.8904 Y188.1280
G01 X32.9129 Y188.0866
G01 X32.9332 Y188.0440
G01 X32.9512 Y188.0005
G01 X32.9670 Y187.9561
G01 X32.9803 Y187.9109
G01 X32.9913 Y187.8651
G01 X32.9999 Y187.8188
G01 X33.0061 Y187.7721
G01 X33.0098 Y187.7251
G01 X33.0110 Y187.6780
M107
M106 S240
G01 X33.0098 Y187.6309 Z-6.6117 F400
G01 X33.0061 Y187.5839 Z-6.6233
G01 X32.9999 Y187.5372 Z-6.6350
G01 X32.9913 Y187.4909 Z-6.6467
G01 X32.9803 Y187.4450 Z-6.6583
G01 X32.9670 Y187.3999 Z-6.6700
G01 X32.9512 Y187.3554 Z-6.6817
G01 X32.9332 Y187.3119 Z-6.6933
G01 X32.9129 Y187.2694 Z-6.7050
G01 X32.8904 Y187.2280 Z-6.7167
G01 X32.8658 Y187.1878 Z-6.7283
G01 X32.8391 Y187.1490 Z-6.7400
G01 X32.8104 Y187.1116 Z-6.7517
G01 X32.7798 Y187.0758 Z-6.7633
G01 X32.7474 Y187.0416 Z-6.7750
G01 X32.7132 Y187.0091 Z-6.7867
G01 X32.6774 Y186.9785 Z-6.7983
G01 X32.6400 Y186.9499 Z-6.8100
G01 X32.6012 Y186.9232 Z-6.8217
G01 X32.5610 Y186.8986 Z-6.8333
G01 X32.5196 Y186.8761 Z-6.8450
G01 X32.4771 Y186.8558 Z-6.8567
G01 X32.4335 Y186.8378 Z-6.8683
G01 X32.3891 Y186.8220 Z-6.8800
G01 X32.3439 Y186.8086 Z-6.8917
G01 X32.2981 Y186.7976 Z-6.9033
G01 X32.2518 Y186.7891 Z-6.9150
G01 X32.2051 Y186.7829 Z-6.9267
G01 X32.1581 Y186.7792 Z-6.9383
G01 X32.1110 Y186.7780 Z-6.9500
G01 X32.0639 Y186.7792 Z-6.9617
G01 X32.0169 Y186.7829 Z-6.9733
G01 X31.9702 Y186.7891 Z-6.9850
G01 X31.9239 Y186.7976 Z-6.9967
G01 X31.8781 Y186.8086 Z-7.0083
G01 X31.8329 Y186.8220 Z-7.0200
G01 X31.7885 Y186.8378 Z-7.0317
G01 X31.7449 Y186.8558 Z-7.0433
G01 X31.7024 Y186.8761 Z-7.0550
G01 X31.6610 Y186.8986 Z-7.0667
G01 X31.6208 Y186.9232 Z-7.0783
G01 X31.5820 Y186.9499 Z-7.0900
G01 X31.5446 Y186.9785 Z-7.1017
G01 X31.5088 Y187.0091 Z-7.1133
G01 X31.4746 Y187.0416 Z-7.1250
G01 X31.4422 Y187.0758 Z-7.1367
G01 X31.4116 Y187.1116 Z-7.1483
G01 X31.3829 Y187.1490 Z-7.1600
G01 X31.3562 Y187.1878 Z-7.1717
G01 X31.3316 Y187.2280 Z-7.1833
G01 X31.3091 Y187.2694 Z-7.1950
G01 X31.2888 Y187.3119 Z-7.2067
G01 X31.2708 Y187.3554 Z-7.2183
G01 X31.2550 Y187.3999 Z-7.2300
G01 X31.2417 Y187.4450 Z-7.2417
G01 X31.2307 Y187.4909 Z-7.2533
G01 X31.2221 Y187.5372 Z-7.2650
G01 X31.2159 Y187.5839 Z-7.2767
G01 X31.2122 Y187.6309 Z-7.2883
G01 X31.2110 Y187.6780 Z-7.3000
G01 X31.2122 Y187.7251 Z-7.3117
G01 X31.2159 Y187.7721 Z-7.3233
G01 X31.2221 Y187.8188 Z-7.3350
G01 X31.2307 Y187.8651 Z-7.3467
G01 X31.2417 Y187.9109 Z-7.3583
G01 X31.2550 Y187.9561 Z-7.3700
G01 X31.2708 Y188.0005 Z-7.3817
G01 X31.2888 Y188.0440 Z-7.3933
G01 X31.3091 Y188.0866 Z-7.4050
G01 X31.3316 Y188.1280 Z-7.4167
G01 X31.3562 Y188.1682 Z-7.4283
G01 X31.3829 Y188.2070 Z-7.4400
G01 X31.4116 Y188.2444 Z-7.4517
G01 X31.4422 Y188.2802 Z-7.4633
G01 X31.4746 Y188.3144 Z-7.4750
G01 X31.5088 Y188.3468 Z-7.4867
G01 X31.5446 Y188.3774 Z-7.4983
G01 X31.5820 Y188.4061 Z-7.5100
G01 X31.6208 Y188.4328 Z-7.5217
G01 X31.6610 Y188.4574 Z-7.5333
G01 X31.7024 Y188.4799 Z-7.5450
G01 X31.7449 Y188.5002 Z-7.5567
G01 X31.7885 Y188.5182 Z-7.5683
G01 X31.8329 Y188.5339 Z-7.5800
G01 X31.8781 Y188.5473 Z-7.5917
G01 X31.9239 Y188.5583 Z-7.6033
G01 X31.9702 Y188.5669 Z-7.6150
G01 X32.0169 Y188.5730 Z-7.6267
G01 X32.0639 Y188.5767 Z-7.6383
G01 X32.1110 Y188.5780 Z-7.6500
G01 X32.1581 Y188.5767 Z-7.6617
G01 X32.2051 Y188.5730 Z-7.6733
G01 X32.2518 Y188.5669 Z-7.6850
G01 X32.2981 Y188.5583 Z-7.6967
G01 X32.3439 Y188.5473 Z-7.7083
G01 X32.3891 Y188.5339 Z-7.7200
G01 X32.4335 Y188.5182 Z-7.7317
G01 X32.4771 Y188.5002 Z-7.7433
G01 X32.5196 Y188.4799 Z-7.7550
G01 X32.5610 Y188.4574 Z-7.7667
G01 X32.6012 Y188.4328 Z-7.7783
G01 X32.6400 Y188.4061 Z-7.7900
G01 X32.6774 Y188.3774 Z-7.8017
G01 X32.7132 Y188.3468 Z-7.8133
G01 X32.7474 Y188.3144 Z-7.8250
G01 X32.7798 Y188.2802 Z-7.8367
G01 X32.8104 Y188.2444 Z-7.8483
G01 X32.8391 Y188.2070 Z-7.8600
G01 X32.8658 Y188.1682 Z-7.8717
G01 X32.8904 Y188.1280 Z-7.8833
G01 X32.9129 Y188.0866 Z-7.8950
G01 X32.9332 Y188.0440 Z-7.9067
G01 X32.9512 Y188.0005 Z-7.9183
G01 X32.9670 Y187.9561 Z-7.9300
G01 X32.9803 Y187.9109 Z-7.9417
G01 X32.9913 Y187.8651 Z-7.9533
G01 X32.9999 Y187.8188 Z-7.9650
G01 X33.0061 Y187.7721 Z-7.9767
G01 X33.0098 Y187.7251 Z-7.9883
G01 X33.0110 Y187.6780 Z-8.0000
G01 X33.0098 Y187.6309
G01 X33.0061 Y187.5839
G01 X32.9999 Y187.5372
G01 X32.9913 Y187.4909
G01 X32.9803 Y187.4450
G01 X32.9670 Y187.3999
G01 X32.9512 Y187.3554
G01 X32.9332 Y187.3119
G01 X32.9129 Y187.2694
G01 X32.8904 Y187.2280
G01 X32.8658 Y187.1878
G01 X32.8391 Y187.1490
G01 X32.8104 Y187.1116
G01 X32.7798 Y187.0758
G01 X32.7474 Y187.0416
G01 X32.7132 Y187.0091
G01 X32.6774 Y186.9785
G01 X32.6400 Y186.9499
G01 X32.6012 Y186.9232
G01 X32.5610 Y186.8986
G01 X32.5196 Y186.8761
G01 X32.4771 Y186.8558
G01 X32.4335 Y186.8378
G01 X32.3891 Y186.8220
G01 X32.3439 Y186.8086
G01 X32.2981 Y186.7976
G01 X32.2518 Y186.7891
G01 X32.2051 Y186.7829
G01 X32.1581 Y186.7792
G01 X32.1110 Y186.7780
G01 X32.0639 Y186.7792
G01 X32.0169 Y186.7829
G01 X31.9702 Y186.7891
G01 X31.9239 Y186.7976
G01 X31.8781 Y186.8086
G01 X31.8329 Y186.8220
G01 X31.7885 Y186.8378
G01 X31.7449 Y186.8558
G01 X31.7024 Y186.8761
G01 X31.6610 Y186.8986
G01 X31.6208 Y186.9232
G01 X31.5820 Y186.9499
G01 X31.5446 Y186.9785
G01 X31.5088 Y187.0091
G01 X31.4746 Y187.0416
G01 X31.4422 Y187.0758
G01 X31.4116 Y187.1116
G01 X31.3829 Y187.1490
G01 X31.3562 Y187.1878
G01 X31.3316 Y187.2280
G01 X31.3091 Y187.2694
G01 X31.2888 Y187.3119
G01 X31.2708 Y187.3554
G01 X31.2550 Y187.3999
G01 X31.2417 Y187.4450
G01 X31.2307 Y187.4909
G01 X31.2221 Y187.5372
G01 X31.2159 Y187.5839
G01 X31.2122 Y187.6309
G01 X31.2110 Y187.6780
G01 X31.2122 Y187.7251
G01 X31.2159 Y187.7721
G01 X31.2221 Y187.8188
G01 X31.2307 Y187.8651
G01 X31.2417 Y187.9109
G01 X31.2550 Y187.9561
G01 X31.2708 Y188.0005
G01 X31.2888 Y188.0440
G01 X31.3091 Y188.0866
G01 X31.3316 Y188.1280
G01 X31.3562 Y188.1682
G01 X31.3829 Y188.2070
G01 X31.4116 Y188.2444
G01 X31.4422 Y188.2802
G01 X31.4746 Y188.3144
G01 X31.5088 Y188.3468
G01 X31.5446 Y188.3774
G01 X31.5820 Y188.4061
G01 X31.6208 Y188.4328
G01 X31.6610 Y188.4574
G01 X31.7024 Y188.4799
G01 X31.7449 Y188.5002
G01 X31.7885 Y188.5182
G01 X31.8329 Y188.5339
G01 X31.8781 Y188.5473
G01 X31.9239 Y188.5583
G01 X31.9702 Y188.5669
G01 X32.0169 Y188.5730
G01 X32.0639 Y188.5767
G01 X32.1110 Y188.5780
G01 X32.1581 Y188.5767
G01 X32.2051 Y188.5730
G01 X32.2518 Y188.5669
G01 X32.2981 Y188.5583
G01 X32.3439 Y188.5473
G01 X32.3891 Y188.5339
G01 X32.4335 Y188.5182
G01 X32.4771 Y188.5002
G01 X32.5196 Y188.4799
G01 X32.5610 Y188.4574
G01 X32.6012 Y188.4328
G01 X32.6400 Y188.4061
G01 X32.6774 Y188.3774
G01 X32.7132 Y188.3468
G01 X32.7474 Y188.3144
G01 X32.7798 Y188.2802
G01 X32.8104 Y188.2444
G01 X32.8391 Y188.2070
G01 X32.8658 Y188.1682
G01 X32.8904 Y188.1280
G01 X32.9129 Y188.0866
G01 X32.9332 Y188.0440
G01 X32.9512 Y188.0005
G01 X32.9670 Y187.9561
G01 X32.9803 Y187.9109
G01 X32.9913 Y187.8651
G01 X32.9999 Y187.8188
G01 X33.0061 Y187.7721
G01 X33.0098 Y187.7251
G01 X33.0110 Y187.6780
G01 X33.0219 Y187.6313 F1000
G01 X33.0304 Y187.5841
G01 X33.0364 Y187.5366
G01 X33.0399 Y187.4888
G01 X33.0409 Y187.4409
G01 X33.0395 Y187.3930
G01 X33.0355 Y187.3452
G01 X33.0291 Y187.2977
G01 X33.0194 Y187.2462
G01 X33.0071 Y187.1953
G01 X32.9921 Y187.1450
G01 X32.9746 Y187.0956
G01 X32.9546 Y187.0472
G01 X32.9321 Y186.9999
G01 X32.9072 Y186.9538
G01 X32.8800 Y186.9090
G01 X32.8480 Y186.8620
G01 X32.8136 Y186.8166
G01 X32.7769 Y186.7731
G01 X32.7381 Y186.7316
G01 X32.6971 Y186.6920
G01 X32.6543 Y186.6546
G01 X32.6095 Y186.6195
G01 X32.5630 Y186.5866
G01 X32.5111 Y186.5538
G01 X32.4576 Y186.5237
G01 X32.4027 Y186.4963
G01 X32.3464 Y186.4717
G01 X32.2889 Y186.4501
G01 X32.2304 Y186.4314
G01 X32.1711 Y186.4157
G01 X32.1110 Y186.4030
G01 X32.0459 Y186.3927
G01 X31.9803 Y186.3856
G01 X31.9145 Y186.3819
G01 X31.8486 Y186.3816
G01 X31.7827 Y186.3846
G01 X31.7171 Y186.3909
G01 X31.6519 Y186.4005
G01 X31.5872 Y186.4134
G01 X31.5189 Y186.4307
G01 X31.4515 Y186.4514
G01 X31.3853 Y186.4754
G01 X31.3204 Y186.5028
G01 X31.2569 Y186.5334
G01 X31.1951 Y186.5672
G01 X31.1350 Y186.6040
G01 X31.0769 Y186.6438
G01 X31.0233 Y186.6933
G01 X30.9723 Y186.7453
G01 X30.9239 Y186.7997
G01 X30.8783 Y186.8565
G01 X30.8355 Y186.9155
G01 X30.7956 Y186.9765
G01 X30.7588 Y187.0393
G01 X30.7252 Y187.1040
G01 X30.6987 Y187.1726
G01 X30.6756 Y187.2426
G01 X30.6560 Y187.3135
G01 X30.6398 Y187.3853
G01 X30.6272 Y187.4579
G01 X30.6182 Y187.5310
G01 X30.6128 Y187.6044
G01 X30.6110 Y187.6780
G01 X30.6128 Y187.7516
G01 X30.6182 Y187.8250
G01 X30.6272 Y187.8981
G01 X30.6398 Y187.9706
G01 X30.6560 Y188.0425
G01 X30.6756 Y188.1134
G01 X30.6987 Y188.1833
G01 X30.7252 Y188.2520
G01 X30.7550 Y188.3193
G01 X30.7881 Y188.3851
G01 X30.8244 Y188.4491
G01 X30.8638 Y188.5113
G01 X30.9062 Y188.5715
G01 X30.9515 Y188.6296
G01 X30.9996 Y188.6853
G01 X31.0503 Y188.7386
G01 X31.1037 Y188.7894
G01 X31.1594 Y188.8375
G01 X31.2175 Y188.8828
G01 X31.2776 Y188.9252
G01 X31.3398 Y188.9646
G01 X31.4039 Y189.0009
G01 X31.4697 Y189.0340
G01 X31.5370 Y189.0638
G01 X31.6057 Y189.0903
G01 X31.6756 Y189.1134
G01 X31.7465 Y189.1330
G01 X31.8184 Y189.1492
G01 X31.8909 Y189.1617
G01 X31.9640 Y189.1708
G01 X32.0374 Y189.1762
G01 X32.1110 Y189.1780
G01 X32.1846 Y189.1762
G01 X32.2580 Y189.1708
G01 X32.3311 Y189.1617
G01 X32.4036 Y189.1492
G01 X32.4755 Y189.1330
G01 X32.5464 Y189.1134
G01 X32.6163 Y189.0903
G01 X32.6850 Y189.0638
G01 X32.7523 Y189.0340
G01 X32.8181 Y189.0009
G01 X32.8822 Y188.9646
G01 X32.9444 Y188.9252
G01 X33.0045 Y188.8828
G01 X33.0626 Y188.8375
G01 X33.1183 Y188.7894
G01 X33.1717 Y188.7386
G01 X33.2224 Y188.6853
G01 X33.2705 Y188.6296
G01 X33.3158 Y188.5715
G01 X33.3582 Y188.5113
G01 X33.3976 Y188.4491
G01 X33.4339 Y188.3851
G01 X33.4670 Y188.3193
G01 X33.4968 Y188.2520
G01 X33.5233 Y188.1833
G01 X33.5464 Y188.1134
G01 X33.5660 Y188.0425
G01 X33.5822 Y187.9706
G01 X33.5948 Y187.8981
G01 X33.6038 Y187.8250
G01 X33.6092 Y187.7516
G01 X33.6110 Y187.6780
G01 X33.6068 Y187.5659
G01 X33.5942 Y187.4544
G01 X33.5734 Y187.3442
G01 X33.5444 Y187.2358
G01 X33.5073 Y187.1300
G01 X33.4625 Y187.0272
G01 X33.4100 Y186.9280
G01 X33.3504 Y186.8330
G01 X33.2837 Y186.7427
G01 X33.2106 Y186.6577
G01 X33.1313 Y186.5784
G01 X33.0462 Y186.5052
G01 X32.9560 Y186.4386
G01 X32.8610 Y186.3789
G01 X32.7618 Y186.3265
G01 X32.6590 Y186.2817
G01 X32.5531 Y186.2446
G01 X32.4448 Y186.2156
G01 X32.3346 Y186.1947
G01 X32.2231 Y186.1822
G01 X32.1110 Y186.1780
G01 X31.9989 Y186.1822
G01 X31.8874 Y186.1947
G01 X31.7772 Y186.2156
G01 X31.6689 Y186.2446
G01 X31.5630 Y186.2817
G01 X31.4602 Y186.3265
G01 X31.3610 Y186.3789
G01 X31.2660 Y186.4386
G01 X31.1758 Y186.5052
G01 X31.0907 Y186.5784
G01 X31.0114 Y186.6577
G01 X30.9383 Y186.7427
G01 X30.8716 Y186.8330
G01 X30.8120 Y186.9280
G01 X30.7595 Y187.0272
G01 X30.7147 Y187.1300
G01 X30.6776 Y187.2358
G01 X30.6486 Y187.3442
G01 X30.6278 Y187.4544
G01 X30.6152 Y187.5659
G01 X30.6110 Y187.6780
G01 X30.6152 Y187.7901
G01 X30.6278 Y187.9015
G01 X30.6486 Y188.0118
G01 X30.6776 Y188.1201
G01 X30.7147 Y188.2260
G01 X30.7595 Y188.3288
G01 X30.8120 Y188.4280
G01 X30.8716 Y188.5230
G01 X30.9383 Y188.6132
G01 X31.0114 Y188.6982
G01 X31.0907 Y188.7776
G01 X31.1758 Y188.8507
G01 X31.2660 Y188.9173
G01 X31.3610 Y188.9770
G01 X31.4602 Y189.0294
G01 X31.5630 Y189.0743
G01 X31.6689 Y189.1113
G01 X31.7772 Y189.1404
G01 X31.8874 Y189.1612
G01 X31.9989 Y189.1738
G01 X32.1110 Y189.1780
G01 X32.2231 Y189.1738
G01 X32.3346 Y189.1612
G01 X32.4448 Y189.1404
G01 X32.5531 Y189.1113
G01 X32.6590 Y189.0743
G01 X32.7618 Y189.0294
G01 X32.8610 Y188.9770
G01 X32.9560 Y188.9173
G01 X33.0462 Y188.8507
G01 X33.1313 Y188.7776
G01 X33.2106 Y188.6982
G01 X33.2837 Y188.6132
G01 X33.3504 Y188.5230
G01 X33.4100 Y188.4280
G01 X33.4625 Y188.3288
G01 X33.5073 Y188.2260
G01 X33.5444 Y188.1201
G01 X33.5734 Y188.0118
G01 X33.5942 Y187.9015
G01 X33.6068 Y187.7901
G01 X33.6110 Y187.6780
M107
M106 S240
G01 X33.6062 Y187.5800 Z-7.9688 F400
M107
M106 S240
G01 X33.5918 Y187.4829 Z-7.9375
M107
M106 S240
G01 X33.5679 Y187.3877 Z-7.9063
M107
M106 S240
G01 X33.5349 Y187.2953 Z-7.8750
M107
M106 S240
G01 X33.4929 Y187.2066 Z-7.8438
M107
M106 S240
G01 X33.4425 Y187.1224 Z-7.8125
M107
M106 S240
G01 X33.3840 Y187.0436 Z-7.7813
M107
M106 S240
G01 X33.3181 Y186.9709 Z-7.7500
M107
M106 S240
G01 X33.2454 Y186.9050 Z-7.7188
M107
M106 S240
G01 X33.1666 Y186.8465 Z-7.6875
M107
M106 S240
G01 X33.0824 Y186.7961 Z-7.6563
M107
M106 S240
G01 X32.9937 Y186.7541 Z-7.6250
M107
M106 S240
G01 X32.9013 Y186.7210 Z-7.5938
M107
M106 S240
G01 X32.8061 Y186.6972 Z-7.5625
M107
M106 S240
G01 X32.7090 Y186.6828 Z-7.5313
M107
M106 S240
G01 X32.6110 Y186.6780 Z-7.5000
M107
G00 Z2.0000


;No. 2: Hole 1
G00 X36.9145 Y173.6661 Z2.0000
G00 Z0.5000
G01 Z-2.2000 F400
M106 S240
G01 X41.2333 F1000
G01 Y175.1661
G01 X45.3190
G01 X36.1820
G01 X37.2732 Y176.6661
G01 X49.9398
G01 Y178.1661
G01 X55.3676
G01 X41.4691
G01 X46.1314
G01 Y179.6661
G01 X62.1507
G01 Y181.1661
G01 X72.1650
G01 X51.4252
G01 X57.7185
G01 Y182.6661
G01 X116.9188
G01 Y181.1661
G01 X123.1695
G01 X102.5286
G01 X112.4069
G01 Y179.6661
G01 X128.4532
G01 Y178.1661
G01 X133.1059
G01 X119.1942
G01 X124.6429
G01 Y176.6661
G01 X137.3221
G01 X138.4184 Y175.1661
G01 X129.2953
G01 X133.3763
G01 Y173.6661
G01 X137.7015
M107
G00 Z2.0000
G00 X108.8631 Y182.6661
G00 Z0.5000
G01 Z-2.2000 F400
M106 S240
G01 Y184.1661 F1000
G01 X65.7534
G01 X79.8141
G01 Y185.6661
G01 X94.9379
M107
G00 Z2.0000
G00 Z0.5000
G01 Z-2.2000 F400
M106 S240
G01 X94.9493 Y185.8657 F1000
G01 X97.1636 Y185.7189
G01 X99.3754 Y185.5381
G01 X101.5842 Y185.3235
G01 X103.7894 Y185.0749
G01 X105.9905 Y184.7926
G01 X108.1871 Y184.4765
G01 X110.3785 Y184.1268
G01 X112.5643 Y183.7435
G01 X114.7440 Y183.3267
G01 X116.9170 Y182.8765
G01 X119.0829 Y182.3931
G01 X121.2411 Y181.8765
G01 X123.3911 Y181.3268
G01 X125.5324 Y180.7442
G01 X127.6646 Y180.1289
G01 X129.7870 Y179.4809
G01 X131.8993 Y178.8004
G01 X134.0009 Y178.0876
G01 X136.0912 Y177.3426
G01 X138.1700 Y176.5657
G01 X138.7455 Y176.3472
G01 X139.1130 Y176.2054
G01 X138.6250 Y175.1369
G01 X138.1225 Y174.0753
G01 X137.6054 Y173.0206
G01 X137.0739 Y171.9731
G01 X137.0500 Y171.9644
G01 X136.8173 Y172.0564
G01 X136.5852 Y172.1500
G01 X136.3538 Y172.2451
G01 X136.1230 Y172.3418
G01 X134.2928 Y173.0855
G01 X132.4508 Y173.7994
G01 X130.5974 Y174.4833
G01 X128.7332 Y175.1371
G01 X126.8586 Y175.7605
G01 X124.9742 Y176.3534
G01 X123.0803 Y176.9156
G01 X121.1776 Y177.4470
G01 X119.2665 Y177.9475
G01 X117.3476 Y178.4168
G01 X115.4213 Y178.8549
G01 X113.4881 Y179.2618
G01 X111.5485 Y179.6371
G01 X109.6032 Y179.9810
G01 X107.6525 Y180.2932
G01 X105.6970 Y180.5737
G01 X103.7443 Y180.8267
G01 X101.7878 Y181.0475
G01 X99.8278 Y181.2361
G01 X97.8651 Y181.3924
G01 X95.9000 Y181.5163
G01 X93.9332 Y181.6079
G01 X91.9651 Y181.6671
G01 X89.9963 Y181.6938
G01 X87.5661 Y181.7262
G01 X85.1358 Y181.7230
G01 X82.7057 Y181.6843
G01 X80.2764 Y181.6101
G01 X78.2573 Y181.5038
G01 X76.2403 Y181.3648
G01 X74.2257 Y181.1931
G01 X72.2142 Y180.9887
G01 X70.2062 Y180.7517
G01 X68.2024 Y180.4822
G01 X66.2032 Y180.1802
G01 X64.2092 Y179.8458
G01 X62.2209 Y179.4790
G01 X60.2387 Y179.0801
G01 X58.2633 Y178.6491
G01 X56.2952 Y178.1861
G01 X54.3348 Y177.6912
G01 X52.3827 Y177.1646
G01 X50.4394 Y176.6063
G01 X48.5055 Y176.0167
G01 X47.1279 Y175.5660
G01 X45.7551 Y175.1009
G01 X44.3873 Y174.6213
G01 X43.0246 Y174.1274
G01 X41.6672 Y173.6192
G01 X40.3152 Y173.0967
G01 X38.9688 Y172.5600
G01 X37.6281 Y172.0092
G01 X37.5527 Y171.9846
G01 X37.0093 Y173.0253
G01 X36.4845 Y174.0754
G01 X35.9783 Y175.1347
G01 X35.4910 Y176.2028
G01 X37.4402 Y176.9468
G01 X39.3999 Y177.6627
G01 X41.3698 Y178.3502
G01 X43.3493 Y179.0092
G01 X45.3381 Y179.6397
G01 X47.3358 Y180.2414
G01 X49.3420 Y180.8143
G01 X51.3562 Y181.3582
G01 X53.3781 Y181.8730
G01 X55.4072 Y182.3586
G01 X57.4430 Y182.8149
G01 X59.4852 Y183.2418
G01 X61.5334 Y183.6392
G01 X63.5871 Y184.0071
G01 X65.6458 Y184.3453
G01 X67.7093 Y184.6538
G01 X69.7769 Y184.9325
G01 X71.8484 Y185.1814
G01 X73.9232 Y185.4004
G01 X76.0010 Y185.5895
G01 X78.0813 Y185.7486
G01 X80.1637 Y185.8777
G01 X82.2477 Y185.9767
G01 X84.3329 Y186.0458
G01 X86.6693 Y186.0790
G01 X88.7403 Y186.0748
G01 X90.8110 Y186.0378
G01 X92.8808 Y185.9681
G01 X94.9493 Y185.8657
G01 X94.9379 Y185.6661
M107
G00 Z2.0000


;No. 3: Hole 2
G00 X87.8886 Y91.6471 Z2.0000
G00 Z0.5000
G01 Z-2.2000 F400
M106 S240
G01 X86.6935 F1000
G01 X86.4247 Y93.1471
G01 X88.1549
G01 X88.4211 Y94.6471
G01 X86.1558
G01 X85.8869 Y96.1471
G01 X88.6874
G01 X88.9541 Y97.6471
G01 X85.6180
G01 X85.3491 Y99.1471
G01 X89.2208
G01 X89.4875 Y100.6471
G01 X85.0802
G01 X84.8113 Y102.1471
G01 X89.7542
G01 X90.0209 Y103.6471
G01 X84.5424
G01 X84.2735 Y105.1471
G01 X90.2876
G01 X90.5721 Y106.6471
G01 X84.0048
G01 X83.7361 Y108.1471
G01 X119.9396
G01 X120.3496 Y109.6471
G01 X83.4674
G01 X83.1987 Y111.1471
G01 X92.2134
G01 X91.6224 Y112.6471
G01 X82.9300
G01 X82.6613 Y114.1471
G01 X91.8896
G01 X92.1567 Y115.6471
G01 X82.3926
G01 X82.1240 Y117.1471
G01 X92.4239
G01 X92.6911 Y118.6471
G01 X81.8553
G01 X81.5866 Y120.1471
G01 X92.9582
G01 X93.2254 Y121.6471
G01 X81.3179
G01 X81.0492 Y123.1471
G01 X93.4925
G01 X93.7597 Y124.6471
G01 X80.7805
G01 X80.5118 Y126.1471
G01 X94.0268
G01 X94.2941 Y127.6471
G01 X80.2432
G01 X79.9745 Y129.1471
G01 X94.5616
G01 X94.8291 Y130.6471
G01 X79.7058
G01 X79.4371 Y132.1471
G01 X95.0965
G01 X95.3640 Y133.6471
G01 X79.1684
G01 X78.8997 Y135.1471
G01 X95.6315
G01 X95.8990 Y136.6471
G01 X78.6311
G01 X78.3626 Y138.1471
G01 X96.1664
G01 X96.4339 Y139.6471
G01 X78.0941
G01 X77.8256 Y141.1471
G01 X96.7014
G01 X96.9692 Y142.6471
G01 X77.5571
G01 X77.2886 Y144.1471
G01 X97.2371
G01 X97.5050 Y145.6471
G01 X77.0201
G01 X76.7516 Y147.1471
G01 X97.7729
G01 X98.0408 Y148.6471
G01 X76.4831
G01 X76.2146 Y150.1471
G01 X98.3087
G01 X98.5766 Y151.6471
G01 X75.9461
G01 X75.6776 Y153.1471
G01 X98.8445
G01 X99.1130 Y154.6471
G01 X75.4091
G01 X75.1406 Y156.1471
G01 X99.3817
G01 X99.6504 Y157.6471
G01 X74.8723
G01 X74.6041 Y159.1471
G01 X99.9191
G01 X100.1878 Y160.6471
G01 X74.3359
G01 X74.0678 Y162.1471
G01 X100.4567
G01 X85.6280
G01 Y163.6471
G01 X73.8002
G01 X73.5331 Y165.1471
G01 X84.3595
G01 X83.1087 Y166.6471
G01 X41.2020
G01 X42.6090 Y165.1471
G01 X59.2929
G01 X55.5312
G01 Y163.6471
G01 X44.2855
G01 X46.2660
G01 Y162.1471
G01 X53.7902
G01 X52.7953 Y160.6471
G01 X48.5981
M107
G00 Z2.0000
G00 X116.2006 Y109.6471
G00 Z0.5000
G01 Z-2.2000 F400
M106 S240
G01 Y111.1471 F1000
G01 X120.3958
G01 X120.4299 Y112.6471
G01 X116.8488
G01 Y114.1471
G01 X120.4628
G01 X120.5078 Y115.6471
G01 X116.8488
G01 X116.7891 Y117.1471
G01 X122.9248
G01 Y118.6471
G01 X125.0317
G01 X115.4814
G01 X114.4076 Y120.1471
G01 X123.6875
G01 X120.4635
G01 Y121.6471
G01 X113.8474
G01 X113.6671 Y123.1471
G01 X117.2200
M107
G00 Z2.0000
G00 X89.0311 Y162.1471
G00 Z0.5000
G01 Z-2.2000 F400
M106 S240
G01 Y163.6471 F1000
G01 X100.7274
G01 X101.0021 Y165.1471
G01 X90.2643
G01 X91.4959 Y166.6471
G01 X133.3960
G01 X131.9816 Y165.1471
G01 X115.2638
G01 X119.0504
G01 Y163.6471
G01 X130.2974
G01 X128.3198
G01 Y162.1471
G01 X120.8000
G01 X121.7754 Y160.6471
G01 X126.0061
M107
G00 Z2.0000
G00 X81.8684 Y166.6471
G00 Z0.5000
G01 Z-2.2000 F400
M106 S240
G01 Y168.1471 F1000
G01 X42.7516
G01 X46.6348
G01 Y169.6471
G01 X80.6344
G01 X79.4032 Y171.1471
G01 X51.1728
G01 X56.6549
G01 Y172.6471
G01 X78.1721
G01 X76.9409 Y174.1471
G01 X63.7343
M107
G00 Z2.0000
G00 X92.7275 Y166.6471
G00 Z0.5000
G01 Z-2.2000 F400
M106 S240
G01 Y168.1471 F1000
G01 X131.8280
G01 X127.9273
G01 Y169.6471
G01 X93.9591
G01 X95.1924 Y171.1471
G01 X123.3956
G01 X117.9621
G01 Y172.6471
G01 X96.4278
G01 X97.6675 Y174.1471
G01 X110.9067
M107
G00 Z2.0000
G00 Z0.5000
G01 Z-2.2000 F400
M106 S240
G01 X110.9406 Y174.3443 F1000
G01 X110.9878 Y174.3361
G01 X112.9339 Y173.9783
G01 X114.8727 Y173.5827
G01 X116.8034 Y173.1494
G01 X118.7253 Y172.6785
G01 X120.6376 Y172.1702
G01 X122.5397 Y171.6248
G01 X124.4308 Y171.0424
G01 X126.3102 Y170.4233
G01 X128.1771 Y169.7677
G01 X130.0310 Y169.0759
G01 X131.8710 Y168.3480
G01 X133.6964 Y167.5844
G01 X134.2133 Y167.3593
G01 X134.2208 Y167.3510
G01 X134.1568 Y167.2657
G01 X133.5543 Y166.5439
G01 X132.9265 Y165.8440
G01 X132.2742 Y165.1668
G01 X131.5982 Y164.5133
G01 X130.8994 Y163.8843
G01 X130.1786 Y163.2806
G01 X129.4367 Y162.7029
G01 X128.6748 Y162.1520
G01 X128.0970 Y161.7428
G01 X127.5102 Y161.3467
G01 X126.9147 Y160.9638
G01 X126.3108 Y160.5942
G01 X125.6988 Y160.2382
G01 X125.0790 Y159.8960
G01 X124.4517 Y159.5677
G01 X123.8173 Y159.2534
G01 X123.4386 Y159.0615
G01 X123.0585 Y158.8723
G01 X122.6771 Y158.6859
G01 X122.2943 Y158.5023
G01 X122.2519 Y158.6805
G01 X122.2072 Y158.8581
G01 X122.1604 Y159.0352
G01 X122.1113 Y159.2117
G01 X122.0948 Y159.2671
G01 X121.9308 Y159.7702
G01 X121.8992 Y159.8583
G01 X121.7049 Y160.3327
G01 X121.6643 Y160.4236
G01 X121.4383 Y160.8704
G01 X121.3881 Y160.9619
G01 X121.1291 Y161.3819
G01 X121.0694 Y161.4713
G01 X120.7758 Y161.8654
G01 X120.7078 Y161.9501
G01 X120.3782 Y162.3193
G01 X120.3037 Y162.3969
G01 X119.9366 Y162.7419
G01 X119.8579 Y162.8109
G01 X119.4516 Y163.1325
G01 X119.3712 Y163.1920
G01 X118.9241 Y163.4910
G01 X118.8443 Y163.5410
G01 X118.3549 Y163.8181
G01 X118.2774 Y163.8594
G01 X117.7441 Y164.1153
G01 X117.6701 Y164.1487
G01 X117.0914 Y164.3840
G01 X117.0217 Y164.4108
G01 X116.3959 Y164.6262
G01 X116.3308 Y164.6474
G01 X115.7008 Y164.8204
G01 X115.0670 Y164.9787
G01 X114.4296 Y165.1223
G01 X113.7891 Y165.2511
G01 X113.1457 Y165.3650
G01 X112.4999 Y165.4639
G01 X111.8520 Y165.5479
G01 X111.2023 Y165.6168
G01 X110.1658 Y165.7148
G01 X108.1625 Y165.8198
G01 X106.1576 Y165.8910
G01 X104.1518 Y165.9283
G01 X102.1457 Y165.9317
G01 X102.0619 Y165.9240
G01 X101.9790 Y165.9095
G01 X101.8976 Y165.8881
G01 X101.8182 Y165.8600
G01 X101.7414 Y165.8255
G01 X101.6678 Y165.7847
G01 X101.5978 Y165.7380
G01 X101.5318 Y165.6857
G01 X101.4705 Y165.6281
G01 X101.4141 Y165.5655
G01 X101.3631 Y165.4986
G01 X101.3178 Y165.4276
G01 X101.2785 Y165.3532
G01 X101.2456 Y165.2757
G01 X101.2191 Y165.1958
G01 X101.1994 Y165.1140
G01 X101.1566 Y164.8912
G01 X101.0437 Y164.2739
G01 X100.6215 Y161.9340
G01 X99.1125 Y153.5105
G01 X96.9496 Y141.3999
G01 X94.4121 Y127.1697
G01 X91.7828 Y112.4072
G01 X91.7722 Y112.3411
G01 X91.7643 Y112.2415
G01 X91.7664 Y112.1415
G01 X91.7708 Y112.0949
G01 X91.7774 Y112.0485
G01 X91.7861 Y112.0024
G01 X91.7970 Y111.9568
G01 X91.8101 Y111.9118
G01 X91.8252 Y111.8674
G01 X91.8424 Y111.8238
G01 X91.8616 Y111.7811
G01 X91.8828 Y111.7393
G01 X91.9059 Y111.6985
G01 X91.9309 Y111.6589
G01 X91.9578 Y111.6205
G01 X91.9864 Y111.5833
G01 X92.0167 Y111.5476
G01 X92.0487 Y111.5133
G01 X92.0822 Y111.4806
G01 X92.1172 Y111.4494
G01 X92.1537 Y111.4200
G01 X92.1915 Y111.3923
G01 X92.2305 Y111.3663
G01 X92.2708 Y111.3423
G01 X92.3121 Y111.3201
G01 X92.3544 Y111.2999
G01 X92.3976 Y111.2818
G01 X92.4416 Y111.2656
G01 X92.4863 Y111.2516
G01 X92.5316 Y111.2396
G01 X92.5774 Y111.2298
G01 X92.6237 Y111.2221
G01 X92.6702 Y111.2167
G01 X92.7170 Y111.2134
G01 X92.7638 Y111.2123
G01 X115.6288
G01 X115.7281 Y111.2152
G01 X115.8267 Y111.2281
G01 X115.9234 Y111.2506
G01 X116.0175 Y111.2827
G01 X116.1080 Y111.3239
G01 X116.1939 Y111.3739
G01 X116.2744 Y111.4321
G01 X116.3487 Y111.4981
G01 X116.4162 Y111.5711
G01 X116.4760 Y111.6505
G01 X116.5277 Y111.7354
G01 X116.5707 Y111.8250
G01 X116.6046 Y111.9184
G01 X116.6290 Y112.0147
G01 X116.6438 Y112.1130
G01 X116.6488 Y112.2123
G01 Y116.7574
G01 X116.6478 Y116.8244
G01 X116.6424 Y116.8913
G01 X116.6324 Y116.9576
G01 X116.6181 Y117.0232
G01 X116.5994 Y117.0876
G01 X116.5765 Y117.1506
G01 X116.5493 Y117.2120
G01 X116.5182 Y117.2714
G01 X116.4831 Y117.3286
G01 X116.4443 Y117.3833
G01 X116.4019 Y117.4352
G01 X116.3561 Y117.4843
G01 X115.4493 Y118.3915
G01 X115.1505 Y118.7101
G01 X114.8729 Y119.0473
G01 X114.6177 Y119.4017
G01 X114.3858 Y119.7718
G01 X114.1782 Y120.1561
G01 X113.9959 Y120.5530
G01 X113.8396 Y120.9608
G01 X113.7098 Y121.3778
G01 X113.6073 Y121.8024
G01 X113.5324 Y122.2327
G01 X113.4853 Y122.6669
G01 X113.4664 Y123.1032
G01 X113.4708 Y123.3916
G01 X113.4978 Y123.7912
G01 X113.5484 Y124.1885
G01 X113.6224 Y124.5822
G01 X113.7195 Y124.9708
G01 X114.2928 Y124.7107
G01 X117.1895 Y123.3841
G01 X120.0820 Y122.0486
G01 X122.9704 Y120.7041
G01 X125.8546 Y119.3506
G01 X125.8559 Y119.3298
G01 X125.6316 Y119.0232
G01 X125.3906 Y118.7295
G01 X125.1337 Y118.4497
G01 X124.8616 Y118.1845
G01 X124.5753 Y117.9348
G01 X124.2755 Y117.7014
G01 X123.9633 Y117.4850
G01 X123.6395 Y117.2863
G01 X123.3052 Y117.1058
G01 X122.9614 Y116.9441
G01 X122.6092 Y116.8018
G01 X122.2496 Y116.6792
G01 X121.4156 Y116.4214
G01 X121.3403 Y116.3965
G01 X121.2673 Y116.3657
G01 X121.1968 Y116.3292
G01 X121.1296 Y116.2872
G01 X121.0658 Y116.2400
G01 X121.0060 Y116.1880
G01 X120.9505 Y116.1313
G01 X120.8996 Y116.0705
G01 X120.8538 Y116.0058
G01 X120.8132 Y115.9376
G01 X120.7781 Y115.8665
G01 X120.7488 Y115.7928
G01 X120.7254 Y115.7171
G01 X120.7081 Y115.6397
G01 X120.6969 Y115.5611
G01 X120.6920 Y115.4820
G01 X120.5948 Y111.0690
G01 X120.5873 Y110.7374
G01 X120.5781 Y110.4058
G01 X120.5671 Y110.0742
G01 X120.5544 Y109.7427
G01 X120.5534 Y109.4481
G01 X120.5322 Y109.1542
G01 X120.4908 Y108.8625
G01 X120.4293 Y108.5743
G01 X120.3825 Y108.4672
G01 X120.3296 Y108.3631
G01 X120.2707 Y108.2621
G01 X120.2062 Y108.1647
G01 X120.1362 Y108.0712
G01 X120.0609 Y107.9819
G01 X119.9806 Y107.8970
G01 X119.8955 Y107.8169
G01 X119.8060 Y107.7418
G01 X119.7123 Y107.6720
G01 X119.6148 Y107.6076
G01 X119.5137 Y107.5490
G01 X119.4094 Y107.4964
G01 X119.3023 Y107.4497
G01 X119.1926 Y107.4094
G01 X119.0808 Y107.3754
G01 X118.8949 Y107.3667
G01 X118.7090 Y107.3592
G01 X118.5230 Y107.3529
G01 X118.3370 Y107.3478
G01 X115.8577 Y107.3072
G01 X113.3782 Y107.2788
G01 X110.8986 Y107.2628
G01 X108.4190 Y107.2591
G01 X91.7212 Y107.2468
G01 X91.6328 Y107.2445
G01 X91.5450 Y107.2345
G01 X91.4585 Y107.2168
G01 X91.3738 Y107.1915
G01 X91.2917 Y107.1588
G01 X91.2129 Y107.1191
G01 X91.1378 Y107.0725
G01 X91.0671 Y107.0194
G01 X91.0014 Y106.9604
G01 X90.9411 Y106.8958
G01 X90.8868 Y106.8261
G01 X90.8389 Y106.7519
G01 X90.7977 Y106.6737
G01 X90.7635 Y106.5923
G01 X90.7367 Y106.5081
G01 X90.7173 Y106.4219
G01 X88.8451 Y95.8915
G01 X87.3073 Y87.2262
G01 X87.2928 Y87.1713
G01 X83.9525 Y105.8046
G01 X78.5240 Y136.1107
G01 X74.8630 Y156.5632
G01 X73.7428 Y162.8281
G01 X73.3342 Y165.1237
G01 X73.3137 Y165.2159
G01 X73.2851 Y165.3058
G01 X73.2484 Y165.3928
G01 X73.2040 Y165.4761
G01 X73.1522 Y165.5550
G01 X73.0935 Y165.6289
G01 X73.0284 Y165.6972
G01 X72.9574 Y165.7594
G01 X72.8810 Y165.8149
G01 X72.8000 Y165.8632
G01 X72.7149 Y165.9041
G01 X72.6264 Y165.9370
G01 X72.5354 Y165.9619
G01 X72.4424 Y165.9784
G01 X72.3484 Y165.9864
G01 X72.2540 Y165.9859
G01 X71.2027 Y165.9817
G01 X70.1514 Y165.9670
G01 X69.1003 Y165.9419
G01 X68.0495 Y165.9063
G01 X66.9992 Y165.8602
G01 X65.9493 Y165.8037
G01 X64.9001 Y165.7368
G01 X63.8516 Y165.6594
G01 X63.1761 Y165.6014
G01 X62.5022 Y165.5267
G01 X61.8303 Y165.4355
G01 X61.1610 Y165.3277
G01 X60.4944 Y165.2035
G01 X59.8312 Y165.0629
G01 X59.1716 Y164.9059
G01 X58.5161 Y164.7327
G01 X57.9002 Y164.5367
G01 X57.3816 Y164.3469
G01 X57.3174 Y164.3222
G01 X56.8341 Y164.1180
G01 X56.7668 Y164.0880
G01 X56.3176 Y163.8692
G01 X56.2478 Y163.8333
G01 X55.8315 Y163.5995
G01 X55.7601 Y163.5571
G01 X55.3754 Y163.3080
G01 X55.3034 Y163.2587
G01 X54.9493 Y162.9939
G01 X54.8781 Y162.9375
G01 X54.5533 Y162.6567
G01 X54.4844 Y162.5936
G01 X54.1877 Y162.2964
G01 X54.1227 Y162.2273
G01 X53.8530 Y161.9133
G01 X53.7933 Y161.8394
G01 X53.5184 Y161.4680
G01 X53.2666 Y161.0805
G01 X53.0389 Y160.6785
G01 X52.8360 Y160.2633
G01 X52.6587 Y159.8366
G01 X52.5078 Y159.3999
G01 X52.3836 Y158.9548
G01 X52.2868 Y158.5030
G01 X51.4694 Y158.8797
G01 X50.6617 Y159.2766
G01 X49.8642 Y159.6935
G01 X49.0772 Y160.1302
G01 X48.3014 Y160.5862
G01 X47.5371 Y161.0615
G01 X46.7849 Y161.5557
G01 X46.0453 Y162.0684
G01 X45.3186 Y162.5993
G01 X44.6054 Y163.1482
G01 X43.9061 Y163.7147
G01 X43.2211 Y164.2984
G01 X42.8334 Y164.6474
G01 X42.4547 Y165.0063
G01 X42.0855 Y165.3748
G01 X41.7259 Y165.7527
G01 X41.3762 Y166.1398
G01 X41.0366 Y166.5358
G01 X40.7073 Y166.9404
G01 X40.3886 Y167.3534
G01 X41.9353 Y168.0191
G01 X43.4933 Y168.6581
G01 X45.0621 Y169.2701
G01 X46.6412 Y169.8548
G01 X48.2301 Y170.4122
G01 X49.8285 Y170.9421
G01 X51.4358 Y171.4442
G01 X53.0515 Y171.9185
G01 X54.6752 Y172.3649
G01 X56.3063 Y172.7831
G01 X57.9445 Y173.1730
G01 X59.5891 Y173.5347
G01 X60.9284 Y173.8217
G01 X62.2713 Y174.0909
G01 X63.6178 Y174.3421
G01 X64.9675 Y174.5753
G01 X66.3202 Y174.7905
G01 X67.6756 Y174.9875
G01 X69.0336 Y175.1665
G01 X70.3938 Y175.3273
G01 X71.7560 Y175.4699
G01 X73.1201 Y175.5943
G01 X74.4856 Y175.7005
G01 X75.8525 Y175.7885
G01 X81.4569 Y168.9602
G01 X82.6855 Y167.4543
G01 X83.9279 Y165.9598
G01 X85.1839 Y164.4768
G01 X86.4536 Y163.0054
G01 X86.5158 Y162.9222
G01 X86.5855 Y162.8452
G01 X86.6620 Y162.7749
G01 X86.7447 Y162.7121
G01 X86.8329 Y162.6572
G01 X86.9258 Y162.6107
G01 X87.0226 Y162.5730
G01 X87.1225 Y162.5444
G01 X87.2246 Y162.5252
G01 X87.3280 Y162.5156
G01 X87.4319
G01 X87.5353 Y162.5252
G01 X87.5783 Y162.5336
G01 X87.6208 Y162.5439
G01 X87.6628 Y162.5561
G01 X87.7043 Y162.5700
G01 X87.7451 Y162.5858
G01 X87.7851 Y162.6033
G01 X87.8244 Y162.6226
G01 X87.8628 Y162.6436
G01 X87.9002 Y162.6662
G01 X87.9366 Y162.6905
G01 X87.9720 Y162.7163
G01 X88.0061 Y162.7437
G01 X88.0390 Y162.7725
G01 X88.0707 Y162.8027
G01 X88.1009 Y162.8343
G01 X88.1298 Y162.8671
G01 X89.4839 Y164.5118
G01 X94.0297 Y170.0483
G01 X95.2036 Y171.4885
G01 X96.3841 Y172.9232
G01 X97.5714 Y174.3525
G01 X98.7652 Y175.7762
G01 X100.2957 Y175.6820
G01 X101.8246 Y175.5635
G01 X103.3513 Y175.4207
G01 X104.8756 Y175.2537
G01 X106.3971 Y175.0625
G01 X107.9153 Y174.8471
G01 X109.4299 Y174.6077
G01 X110.9406 Y174.3443
G01 X110.9067 Y174.1471
M107
G00 Z2.0000


;No. 4: Hole 3
G00 X136.1951 Y119.6318 Z2.0000
G00 Z0.5000
G01 Z-2.2000 F400
M106 S240
G01 X140.1572 F1000
G01 X140.9576 Y121.1318
G01 X132.9415
G01 Y122.6318
G01 X129.7122
G01 X141.6900
G01 X142.4020 Y124.1318
G01 X126.4964
G01 Y125.6318
G01 X123.2856
G01 X143.1064
G01 X143.8073 Y127.1318
G01 X120.0856
G01 Y128.6318
G01 X116.8903
G01 X144.5073
G01 X145.2032 Y130.1318
G01 X113.7014
G01 Y131.6318
G01 X110.5234
G01 X145.8884
G01 X139.4576
G01 Y133.1318
G01 X107.3604
G01 Y134.6318
G01 X104.2484
G01 X136.1567
G01 X132.8942
G01 Y136.1318
G01 X103.7124
G01 X104.2694 Y137.6318
G01 X129.6532
G01 X126.4329
G01 Y139.1318
G01 X104.9347
G01 X105.6214 Y140.6318
G01 X123.2279
G01 X120.0404
G01 Y142.1318
G01 X106.3150
G01 X107.0126 Y143.6318
G01 X116.8795
G01 X113.7665
G01 Y145.1318
G01 X107.7112
G01 X108.4136 Y146.6318
G01 X111.0206
G01 X110.4971 Y148.1318
G01 X109.1239
G01 X109.8508 Y149.6318
G01 X111.0722
G01 X110.6382 Y151.1318
G01 X114.5199
M107
G00 Z2.0000
G00 X145.2503 Y131.6318
G00 Z0.5000
G01 Z-2.2000 F400
M106 S240
G01 Y133.1318 F1000
G01 X146.5429
G01 X147.0896 Y134.6318
G01 X145.3444
G01 X146.5162 Y136.1318
G01 X143.9400
M107
G00 Z2.0000
G00 X143.5951 Y137.6318
G00 Z0.5000
G01 Z-2.2000 F400
M106 S240
G01 X140.9249 F1000
M107
G00 Z2.0000
G00 X140.4106 Y139.1318
G00 Z0.5000
G01 Z-2.2000 F400
M106 S240
G01 X137.7943 F1000
M107
G00 Z2.0000
G00 X137.1853 Y140.6318
G00 Z0.5000
G01 Z-2.2000 F400
M106 S240
G01 X134.6228 F1000
M107
G00 Z2.0000
G00 X133.9614 Y142.1318
G00 Z0.5000
G01 Z-2.2000 F400
M106 S240
G01 X131.4271 F1000
M107
G00 Z2.0000
G00 X130.7410 Y143.6318
G00 Z0.5000
G01 Z-2.2000 F400
M106 S240
G01 X128.2083 F1000
M107
G00 Z2.0000
G00 X127.5205 Y145.1318
G00 Z0.5000
G01 Z-2.2000 F400
M106 S240
G01 X124.9695 F1000
M107
G00 Z2.0000
G00 X124.3001 Y146.6318
G00 Z0.5000
G01 Z-2.2000 F400
M106 S240
G01 X121.7065 F1000
M107
G00 Z2.0000
G00 X121.0727 Y148.1318
G00 Z0.5000
G01 Z-2.2000 F400
M106 S240
G01 X118.4111 F1000
M107
G00 Z2.0000
G00 X117.8175 Y149.6318
G00 Z0.5000
G01 Z-2.2000 F400
M106 S240
G01 X115.0385 F1000
M107
G00 Z2.0000
G00 Z0.5000
G01 Z-2.2000 F400
M106 S240
G01 X114.9593 Y149.4479 F1000
G01 X114.1939 Y149.7778
G01 X113.5032 Y150.0597
G01 X113.4120 Y150.0920
G01 X113.1164 Y150.1869
G01 X112.9984 Y150.2055
G01 X112.8795 Y150.2168
G01 X112.7602 Y150.2210
G01 X112.6408 Y150.2179
G01 X112.5218 Y150.2076
G01 X112.4036 Y150.1901
G01 X112.2867 Y150.1655
G01 X112.1716 Y150.1338
G01 X112.0585 Y150.0953
G01 X111.9480 Y150.0499
G01 X111.8404 Y149.9980
G01 X111.7362 Y149.9396
G01 X111.6357 Y149.8751
G01 X111.5394 Y149.8045
G01 X111.4474 Y149.7283
G01 X111.3602 Y149.6466
G01 X111.2648 Y149.5482
G01 X111.1757 Y149.4440
G01 X111.0933 Y149.3344
G01 X111.0179 Y149.2198
G01 X110.9499 Y149.1007
G01 X110.8895 Y148.9776
G01 X110.8370 Y148.8510
G01 X110.7924 Y148.7213
G01 X110.7562 Y148.5890
G01 X110.7282 Y148.4548
G01 X110.7088 Y148.3190
G01 X110.6979 Y148.1823
G01 X110.6960 Y148.0561
G01 X110.7001 Y147.9316
G01 X110.7120 Y147.8076
G01 X110.7318 Y147.6846
G01 X110.7592 Y147.5630
G01 X110.7943 Y147.4435
G01 X110.8368 Y147.3263
G01 X110.8866 Y147.2121
G01 X110.9435 Y147.1013
G01 X111.0073 Y146.9943
G01 X111.0777 Y146.8915
G01 X111.1545 Y146.7934
G01 X111.2373 Y146.7003
G01 X111.2834 Y146.6620
G01 X111.3306 Y146.6253
G01 X111.3790 Y146.5900
G01 X111.4285 Y146.5563
G01 X112.1293 Y146.1777
G01 X112.8361 Y145.8104
G01 X113.5487 Y145.4545
G01 X114.2669 Y145.1100
G01 X117.6889 Y143.4707
G01 X121.1164 Y141.8427
G01 X124.5491 Y140.2261
G01 X127.9873 Y138.6208
G01 X131.4307 Y137.0270
G01 X134.8794 Y135.4446
G01 X138.3333 Y133.8736
G01 X141.7924 Y132.3140
G01 X142.0071 Y132.2194
G01 X142.2234 Y132.1280
G01 X142.4410 Y132.0401
G01 X142.6599 Y131.9555
G01 X142.7769 Y131.9228
G01 X142.8960 Y131.8987
G01 X143.0166 Y131.8834
G01 X143.1379 Y131.8770
G01 X143.2594 Y131.8795
G01 X143.3803 Y131.8909
G01 X143.5002 Y131.9111
G01 X143.6182 Y131.9401
G01 X143.7337 Y131.9776
G01 X143.8462 Y132.0235
G01 X143.9551 Y132.0775
G01 X144.0597 Y132.1393
G01 X144.1816 Y132.2091
G01 X144.2989 Y132.2863
G01 X144.4112 Y132.3706
G01 X144.5181 Y132.4616
G01 X144.6192 Y132.5591
G01 X144.7141 Y132.6626
G01 X144.8024 Y132.7718
G01 X144.8838 Y132.8863
G01 X144.9580 Y133.0055
G01 X145.0247 Y133.1291
G01 X145.0836 Y133.2566
G01 X145.1345 Y133.3875
G01 X145.1772 Y133.5213
G01 X145.2116 Y133.6574
G01 X145.2375 Y133.7955
G01 X145.2549 Y133.9348
G01 X145.2496 Y134.0547
G01 X145.2378 Y134.1741
G01 X145.2195 Y134.2928
G01 X145.1949 Y134.4102
G01 X145.1639 Y134.5261
G01 X145.1267 Y134.6402
G01 X145.0833 Y134.7521
G01 X145.0340 Y134.8615
G01 X144.9788 Y134.9681
G01 X144.9180 Y135.0715
G01 X144.8516 Y135.1715
G01 X144.7799 Y135.2677
G01 X144.7031 Y135.3599
G01 X144.6214 Y135.4478
G01 X144.5351 Y135.5312
G01 X144.4443 Y135.6098
G01 X144.1551 Y135.7901
G01 X144.0729 Y135.8364
G01 X141.9476 Y136.8979
G01 X139.8144 Y137.9433
G01 X137.6734 Y138.9728
G01 X135.5247 Y139.9860
G01 X132.9668 Y141.1964
G01 X130.4052 Y142.3989
G01 X127.8400 Y143.5935
G01 X125.2711 Y144.7802
G01 X122.6985 Y145.9590
G01 X120.1223 Y147.1299
G01 X117.5426 Y148.2929
G01 X114.9593 Y149.4479
G01 X115.0385 Y149.6318
M107
G00 Z2.0000
G00 X114.5199 Y151.1318
G00 Z0.5000
G01 Z-2.2000 F400
M106 S240
G01 X115.5964 Y150.8646 F1000
G01 X115.9222 Y150.7172
G01 X117.5459 Y149.9756
G01 X119.1682 Y149.2312
G01 X120.7892 Y148.4837
G01 X122.4088 Y147.7333
G01 X134.9359 Y141.8985
G01 X141.5012 Y138.8451
G01 X142.7650 Y138.2620
G01 X144.0196 Y137.6592
G01 X145.2646 Y137.0370
G01 X146.4999 Y136.3956
G01 X146.5173 Y136.3861
G01 X146.5343 Y136.3759
G01 X146.5509 Y136.3651
G01 X146.5672 Y136.3537
G01 X146.5829 Y136.3417
G01 X146.5983 Y136.3291
G01 X146.6131 Y136.3159
G01 X146.6274 Y136.3022
G01 X146.7126 Y136.2206
G01 X146.7940 Y136.1352
G01 X146.8714 Y136.0460
G01 X146.9445 Y135.9534
G01 X147.0133 Y135.8576
G01 X147.0776 Y135.7586
G01 X147.1373 Y135.6568
G01 X147.1922 Y135.5523
G01 X147.2422 Y135.4454
G01 X147.2872 Y135.3364
G01 X147.3271 Y135.2253
G01 X147.3619 Y135.1126
G01 X147.3183 Y134.7746
G01 X147.2474 Y134.4412
G01 X147.1496 Y134.1148
G01 X147.0255 Y133.7974
G01 X146.5187 Y132.5826
G01 X145.9942 Y131.3754
G01 X145.4520 Y130.1760
G01 X144.8924 Y128.9847
G01 X143.9485 Y126.9277
G01 X142.9879 Y124.8783
G01 X142.0107 Y122.8369
G01 X141.0170 Y120.8034
G01 X140.7949 Y120.3542
G01 X140.5559 Y119.9138
G01 X140.3003 Y119.4827
G01 X140.0286 Y119.0617
G01 X139.9899 Y118.9978
G01 X139.9469 Y118.9367
G01 X139.8999 Y118.8786
G01 X139.8491 Y118.8238
G01 X139.7948 Y118.7725
G01 X139.7371 Y118.7250
G01 X139.6764 Y118.6814
G01 X139.6129 Y118.6420
G01 X139.4998 Y118.5895
G01 X139.3835 Y118.5447
G01 X139.2644 Y118.5076
G01 X139.1432 Y118.4785
G01 X139.0203 Y118.4575
G01 X138.8962 Y118.4447
G01 X138.7716 Y118.4401
G01 X138.6470 Y118.4438
G01 X138.5229 Y118.4557
G01 X138.3998 Y118.4758
G01 X138.2784 Y118.5041
G01 X138.1591 Y118.5403
G01 X138.0897 Y118.5648
G01 X137.7170 Y118.7230
G01 X133.5034 Y120.6635
G01 X129.2936 Y122.6121
G01 X125.0875 Y124.5689
G01 X120.8853 Y126.5338
G01 X116.6869 Y128.5069
G01 X112.4923 Y130.4881
G01 X108.3016 Y132.4774
G01 X104.1147 Y134.4748
G01 X103.9927 Y134.5399
G01 X103.9183 Y134.6346
G01 X103.8493 Y134.7332
G01 X103.7860 Y134.8356
G01 X103.7284 Y134.9413
G01 X103.6768 Y135.0501
G01 X103.6314 Y135.1616
G01 X103.5923 Y135.2755
G01 X103.5597 Y135.3914
G01 X103.5335 Y135.5089
G01 X103.5140 Y135.6277
G01 X103.5011 Y135.7474
G01 X103.4949 Y135.8676
G01 X103.4932 Y135.9540
G01 X103.5047 Y136.0752
G01 X103.5221 Y136.1957
G01 X103.5454 Y136.3152
G01 X103.5744 Y136.4334
G01 X103.6092 Y136.5501
G01 X103.6496 Y136.6650
G01 X103.6956 Y136.7777
G01 X103.7470 Y136.8881
G01 X104.2048 Y137.9813
G01 X104.6783 Y139.0678
G01 X105.1674 Y140.1474
G01 X105.6721 Y141.2198
G01 X106.9239 Y143.9170
G01 X107.6791 Y145.5650
G01 X108.4512 Y147.2052
G01 X109.2401 Y148.8374
G01 X110.0456 Y150.4614
G01 X110.2083 Y150.7935
G01 X110.3888 Y151.1163
G01 X110.5866 Y151.4288
G01 X110.8010 Y151.7302
G01 X110.9016 Y151.8255
G01 X111.0087 Y151.9136
G01 X111.1216 Y151.9939
G01 X111.2399 Y152.0662
G01 X111.3630 Y152.1299
G01 X111.4902 Y152.1849
G01 X111.6210 Y152.2309
G01 X111.7547 Y152.2676
G01 X111.8906 Y152.2948
G01 X112.0281 Y152.3124
G01 X112.1665 Y152.3204
G01 X112.3051 Y152.3186
G01 X112.3986 Y152.2821
G01 X112.6157 Y152.1911
G01 X112.8323 Y152.0989
G01 X113.0484 Y152.0055
G01 X113.2640 Y151.9108
G01 X114.1622 Y151.5117
G01 X114.6973 Y151.2715
G01 X115.5964 Y150.8646
G01 X114.5199 Y151.1318
M107
G00 Z2.0000


;No. 5: Hole 4
G00 X150.9116 Y115.9233 Z2.0000
G00 Z0.5000
G01 Z-2.2000 F400
M106 S240
G01 X152.7981 F1000
G01 X153.5339 Y117.4233
G01 X149.9488
G01 X149.3004 Y118.9233
G01 X154.2537
G01 X154.9628 Y120.4233
G01 X148.5404
G01 Y121.9233
G01 X146.6675
G01 X155.6639
G01 X156.3647 Y123.4233
G01 X147.3639
G01 X148.0628 Y124.9233
G01 X157.0638
G01 X157.7408 Y126.4233
G01 X148.7636
G01 X149.4665 Y127.9233
G01 X150.8209
M107
G00 Z2.0000
G00 X153.6847 Y126.4233
G00 Z0.5000
G01 Z-2.2000 F400
M106 S240
G01 Y127.9233 F1000
G01 X158.1297
M107
G00 Z2.0000
G00 Z0.5000
G01 Z-2.2000 F400
M106 S240
G01 X158.2165 Y128.1035 F1000
G01 X158.3829 Y128.0234
G01 X158.4955 Y127.9619
G01 X158.4993 Y127.9435
G01 X158.4974 Y127.9254
G01 X158.3457 Y127.4203
G01 X158.1710 Y126.9226
G01 X157.9736 Y126.4336
G01 X157.7541 Y125.9540
G01 X157.4493 Y125.2809
G01 X157.0910 Y124.5052
G01 X155.1719 Y120.3978
G01 X154.5402 Y119.0281
G01 X153.8886 Y117.6678
G01 X153.2172 Y116.3171
G01 X152.5263 Y114.9763
G01 X152.4786 Y114.9942
G01 X151.9541 Y115.2044
G01 X151.4390 Y115.4367
G01 X150.9341 Y115.6906
G01 X150.4405 Y115.9656
G01 X150.2131 Y116.3974
G01 X149.9965 Y116.8346
G01 X149.7909 Y117.2772
G01 X149.5964 Y117.7248
G01 X148.6366 Y119.9660
G01 X148.5956 Y120.0432
G01 X148.5479 Y120.1166
G01 X148.4940 Y120.1854
G01 X148.4343 Y120.2494
G01 X148.3692 Y120.3078
G01 X148.2992 Y120.3603
G01 X148.2250 Y120.4066
G01 X148.1470 Y120.4461
G01 X146.6005 Y121.1478
G01 X146.3917 Y121.2470
G01 X146.1852 Y121.3502
G01 X146.1890 Y121.3662
G01 X146.5276 Y122.0981
G01 X147.9436 Y125.1411
G01 X149.1018 Y127.6178
G01 X149.5679 Y128.6099
G01 X149.6071 Y128.6868
G01 X149.8467 Y128.5828
G01 X150.0705 Y128.4834
G01 X151.6596 Y127.7630
G01 X151.7002 Y127.7466
G01 X151.7415 Y127.7321
G01 X151.7833 Y127.7193
G01 X151.8257 Y127.7084
G01 X151.8685 Y127.6994
G01 X151.9116 Y127.6922
G01 X151.9551 Y127.6869
G01 X151.9987 Y127.6836
G01 X152.0424 Y127.6821
G01 X152.0861 Y127.6826
G01 X152.1298 Y127.6850
G01 X152.1734 Y127.6892
G01 X152.2167 Y127.6954
G01 X152.2597 Y127.7035
G01 X152.3023 Y127.7134
G01 X152.3444 Y127.7252
G01 X154.4500 Y128.3648
G01 X154.9429 Y128.5147
G01 X155.4378 Y128.6577
G01 X155.9347 Y128.7938
G01 X156.4334 Y128.9228
G01 X156.8840 Y128.7287
G01 X157.3315 Y128.5274
G01 X157.7757 Y128.3190
G01 X158.2165 Y128.1035
G01 X158.1297 Y127.9233
M107
G00 Z2.0000


;No. 6: Hole 5
G00 X164.3215 Y143.8510 Z2.0000
G00 Z0.5000
G01 Z-2.2000 F400
M106 S240
G01 X169.4930 F1000
G01 X165.0079
G01 Y145.3510
G01 X160.6762
M107
G00 Z2.0000
G00 X168.9109 Y143.8510
G00 Z0.5000
G01 Z-2.2000 F400
M106 S240
G01 Y145.3510 F1000
G01 X172.1167
G01 X173.0267 Y146.8510
G01 X170.9059
G01 X171.2543 Y148.3510
G01 X173.3078
G01 X173.2090 Y149.8510
G01 X170.8153
G01 X172.4952
G01 Y151.3510
G01 X168.5911
G01 X170.2552 Y152.8510
G01 X163.6089
G01 X165.4312
G01 Y154.3510
G01 X161.2212
G01 X160.4989 Y155.8510
G01 X162.9208
G01 X162.4458 Y157.3510
G01 X160.3817
G01 X160.6477 Y158.8510
G01 X162.7376
G01 X161.5462 Y160.3510
G01 X164.6010
G01 X164.0710 Y161.8510
G01 X169.0052
G01 X168.1142 Y160.3510
G01 X172.1691
M107
G00 Z2.0000
G00 Z0.5000
G01 Z-2.2000 F400
M106 S240
G01 X172.3337 Y160.2375 F1000
G01 X171.3098 Y158.7528
G01 X171.2897 Y158.7385
G01 X170.8846 Y158.9854
G01 X170.4696 Y159.2153
G01 X170.0455 Y159.4277
G01 X169.6128 Y159.6223
G01 X169.1724 Y159.7987
G01 X168.7251 Y159.9566
G01 X168.2715 Y160.0958
G01 X167.8126 Y160.2159
G01 X167.4031 Y160.2996
G01 X166.9890 Y160.3557
G01 X166.5720 Y160.3840
G01 X166.1540 Y160.3844
G01 X165.7370 Y160.3568
G01 X165.3227 Y160.3014
G01 X164.9131 Y160.2185
G01 X164.5099 Y160.1083
G01 X164.3682 Y160.0585
G01 X164.2295 Y160.0008
G01 X164.0941 Y159.9356
G01 X163.9626 Y159.8629
G01 X163.8353 Y159.7830
G01 X163.7127 Y159.6962
G01 X163.5951 Y159.6027
G01 X163.4828 Y159.5029
G01 X163.3762 Y159.3969
G01 X163.2757 Y159.2853
G01 X163.1816 Y159.1682
G01 X163.0941 Y159.0460
G01 X163.0135 Y158.9192
G01 X162.9400 Y158.7881
G01 X162.8740 Y158.6532
G01 X162.8155 Y158.5148
G01 X162.7648 Y158.3733
G01 X162.7221 Y158.2293
G01 X162.6874 Y158.0831
G01 X162.6608 Y157.9352
G01 X162.6489 Y157.8178
G01 X162.6422 Y157.7003
G01 X162.6404 Y157.5366
G01 X162.6420 Y157.4295
G01 X162.6470 Y157.3226
G01 X162.6553 Y157.2158
G01 X162.6669 Y157.1094
G01 X162.6842 Y156.9651
G01 X162.7102 Y156.8221
G01 X162.7450 Y156.6810
G01 X162.7884 Y156.5423
G01 X162.8401 Y156.4065
G01 X162.9001 Y156.2741
G01 X162.9682 Y156.1457
G01 X163.0439 Y156.0217
G01 X163.1271 Y155.9025
G01 X163.2175 Y155.7887
G01 X163.3147 Y155.6806
G01 X163.4183 Y155.5787
G01 X163.5280 Y155.4834
G01 X163.6433 Y155.3949
G01 X163.7638 Y155.3137
G01 X163.8891 Y155.2400
G01 X164.3573 Y154.9894
G01 X164.8415 Y154.7710
G01 X165.3392 Y154.5858
G01 X165.8483 Y154.4346
G01 X166.4052 Y154.2756
G01 X166.9630 Y154.1196
G01 X167.5215 Y153.9666
G01 X168.0809 Y153.8167
G01 X168.5104 Y153.6981
G01 X168.9363 Y153.5668
G01 X169.3580 Y153.4228
G01 X169.7752 Y153.2663
G01 X170.1876 Y153.0975
G01 X170.5948 Y152.9165
G01 X170.9964 Y152.7234
G01 X171.3921 Y152.5184
G01 X171.6476 Y152.3658
G01 X171.8919 Y152.1959
G01 X172.1238 Y152.0093
G01 X172.3421 Y151.8071
G01 X172.5459 Y151.5903
G01 X172.7341 Y151.3597
G01 X172.9059 Y151.1167
G01 X173.0603 Y150.8623
G01 X173.1873 Y150.5748
G01 X173.2948 Y150.2796
G01 X173.3824 Y149.9778
G01 X173.4497 Y149.6708
G01 X173.4964 Y149.3600
G01 X173.5223 Y149.0468
G01 X173.5273 Y148.7326
G01 X173.5113 Y148.4188
G01 X173.4971 Y148.0605
G01 X173.4559 Y147.7043
G01 X173.3881 Y147.3523
G01 X173.2941 Y147.0063
G01 X173.1743 Y146.6683
G01 X173.0295 Y146.3403
G01 X172.8605 Y146.0241
G01 X172.6682 Y145.7215
G01 X172.4537 Y145.4342
G01 X172.2183 Y145.1638
G01 X171.9632 Y144.9118
G01 X171.6899 Y144.6797
G01 X171.3999 Y144.4688
G01 X171.0950 Y144.2803
G01 X170.7767 Y144.1152
G01 X170.4469 Y143.9745
G01 X170.0112 Y143.8118
G01 X169.5673 Y143.6728
G01 X169.1166 Y143.5580
G01 X168.6603 Y143.4678
G01 X168.1998 Y143.4023
G01 X167.7364 Y143.3618
G01 X167.2715 Y143.3463
G01 X166.8065 Y143.3560
G01 X166.1767 Y143.3752
G01 X165.5489 Y143.4284
G01 X164.9248 Y143.5154
G01 X164.3064 Y143.6359
G01 X163.6953 Y143.7897
G01 X163.0935 Y143.9762
G01 X162.5026 Y144.1950
G01 X161.9244 Y144.4453
G01 X161.3605 Y144.7265
G01 X160.8126 Y145.0378
G01 X160.2824 Y145.3781
G01 X159.7713 Y145.7466
G01 X161.1685 Y147.4203
G01 X161.1549 Y147.4039
G01 X161.1718 Y147.4211
G01 X161.6118 Y147.1043
G01 X162.0670 Y146.8097
G01 X162.5362 Y146.5381
G01 X163.0183 Y146.2901
G01 X163.5122 Y146.0663
G01 X164.0165 Y145.8673
G01 X164.5301 Y145.6936
G01 X165.0517 Y145.5456
G01 X165.5210 Y145.4452
G01 X165.9955 Y145.3731
G01 X166.4735 Y145.3297
G01 X166.9532 Y145.3150
G01 X167.4329 Y145.3290
G01 X167.9109 Y145.3719
G01 X168.3855 Y145.4433
G01 X168.8550 Y145.5430
G01 X168.9921 Y145.5801
G01 X169.1273 Y145.6237
G01 X169.2602 Y145.6738
G01 X169.3906 Y145.7302
G01 X169.5181 Y145.7927
G01 X169.6425 Y145.8614
G01 X169.7634 Y145.9359
G01 X169.8806 Y146.0162
G01 X169.9939 Y146.1020
G01 X170.1028 Y146.1931
G01 X170.2073 Y146.2894
G01 X170.3070 Y146.3905
G01 X170.4018 Y146.4964
G01 X170.4913 Y146.6066
G01 X170.5755 Y146.7211
G01 X170.6540 Y146.8394
G01 X170.7268 Y146.9614
G01 X170.7937 Y147.0868
G01 X170.8544 Y147.2152
G01 X170.9089 Y147.3464
G01 X170.9571 Y147.4932
G01 X170.9969 Y147.6425
G01 X171.0281 Y147.7939
G01 X171.0506 Y147.9467
G01 X171.0645 Y148.1006
G01 X171.0695 Y148.2551
G01 X171.0658 Y148.4096
G01 X171.0533 Y148.5636
G01 X171.0320 Y148.7167
G01 X171.0021 Y148.8683
G01 X170.9636 Y149.0180
G01 X170.9167 Y149.1652
G01 X170.8615 Y149.3095
G01 X170.7981 Y149.4505
G01 X170.7269 Y149.5876
G01 X170.6479 Y149.7205
G01 X170.5616 Y149.8486
G01 X170.4681 Y149.9716
G01 X170.3677 Y150.0891
G01 X170.2608 Y150.2008
G01 X170.0265 Y150.3806
G01 X169.7835 Y150.5486
G01 X169.5326 Y150.7044
G01 X169.2743 Y150.8476
G01 X169.0092 Y150.9780
G01 X168.7380 Y151.0950
G01 X168.4614 Y151.1986
G01 X168.1800 Y151.2883
G01 X167.4694 Y151.5135
G01 X166.7541 Y151.7233
G01 X166.0344 Y151.9176
G01 X165.3107 Y152.0962
G01 X164.9171 Y152.1987
G01 X164.5268 Y152.3131
G01 X164.1401 Y152.4393
G01 X163.7575 Y152.5773
G01 X163.3793 Y152.7269
G01 X163.0058 Y152.8879
G01 X162.6373 Y153.0602
G01 X162.2743 Y153.2437
G01 X161.9815 Y153.4098
G01 X161.7045 Y153.6011
G01 X161.4456 Y153.8162
G01 X161.2067 Y154.0535
G01 X160.9898 Y154.3109
G01 X160.7966 Y154.5866
G01 X160.6285 Y154.8783
G01 X160.4870 Y155.1838
G01 X160.3731 Y155.5005
G01 X160.2877 Y155.8262
G01 X160.2315 Y156.1581
G01 X160.2049 Y156.4937
G01 X160.1955 Y156.6207
G01 X160.1883 Y156.7479
G01 X160.1832 Y156.8752
G01 X160.1803 Y157.0026
G01 X160.1792 Y157.1909
G01 X160.1804 Y157.3158
G01 X160.1883 Y157.5813
G01 X160.2111 Y157.8460
G01 X160.2487 Y158.1089
G01 X160.3009 Y158.3694
G01 X160.3677 Y158.6265
G01 X160.4487 Y158.8795
G01 X160.5438 Y159.1275
G01 X160.6526 Y159.3698
G01 X160.8242 Y159.6820
G01 X161.0171 Y159.9815
G01 X161.2304 Y160.2669
G01 X161.4629 Y160.5368
G01 X161.7137 Y160.7899
G01 X161.9815 Y161.0249
G01 X162.2649 Y161.2407
G01 X162.5627 Y161.4363
G01 X162.8734 Y161.6107
G01 X163.1954 Y161.7631
G01 X163.5272 Y161.8927
G01 X163.8673 Y161.9989
G01 X164.3404 Y162.1204
G01 X164.8191 Y162.2172
G01 X165.3021 Y162.2892
G01 X165.7883 Y162.3362
G01 X166.2762 Y162.3579
G01 X166.7646 Y162.3544
G01 X167.2522 Y162.3257
G01 X167.7376 Y162.2718
G01 X168.3749 Y162.1823
G01 X169.0057 Y162.0542
G01 X169.6275 Y161.8881
G01 X170.2381 Y161.6847
G01 X170.8353 Y161.4446
G01 X171.4168 Y161.1687
G01 X171.9805 Y160.8581
G01 X172.5243 Y160.5138
G01 X172.3337 Y160.2375
G01 X172.1691 Y160.3510
M107
G00 Z2.0000


;No. 7: Hole 6
G00 X179.1751 Y144.6059 Z2.0000
G00 Z0.5000
G01 Z-2.2000 F400
M106 S240
G01 X181.2071 F1000
G01 Y146.1059
G01 X179.1751
G01 Y147.6059
G01 X181.2071
G01 Y149.1059
G01 X179.1751
G01 Y150.6059
G01 X181.2071
G01 X181.2440 Y152.1059
G01 X179.1751
G01 Y153.6059
G01 X181.6249
G01 X181.6794 Y155.1059
G01 X179.1751
G01 Y156.6059
G01 X181.2071
M107
G00 Z2.0000
G00 X188.8847 Y144.6059
G00 Z0.5000
G01 Z-2.2000 F400
M106 S240
G01 X190.9167 F1000
G01 Y146.1059
G01 X188.8847
G01 Y147.6059
G01 X190.9167
G01 Y149.1059
G01 X188.8847
G01 Y150.6059
G01 X190.9167
G01 X190.9536 Y152.1059
G01 X188.8485
G01 X188.4801 Y153.6059
G01 X191.3345
G01 X190.7285 Y155.1059
G01 X187.2746
G01 X189.4863
G01 Y156.6059
G01 X184.6107
M107
G00 Z2.0000
G00 X198.5942 Y144.6059
G00 Z0.5000
G01 Z-2.2000 F400
M106 S240
G01 X200.6262 F1000
G01 Y146.1059
G01 X198.5942
G01 Y147.6059
G01 X200.6262
G01 Y149.1059
G01 X198.5942
G01 Y150.6059
G01 X200.6262
G01 Y152.1059
G01 X198.5581
G01 X198.1897 Y153.6059
G01 X200.5925
G01 X200.2756 Y155.1059
G01 X196.9841
G01 X199.1922
G01 Y156.6059
G01 X193.7845
M107
G00 Z2.0000
G00 Z0.5000
G01 Z-2.2000 F400
M106 S240
G01 X193.6788 Y156.7757 F1000
G01 X194.0765 Y156.9992
G01 X194.4917 Y157.1881
G01 X194.9214 Y157.3410
G01 X195.3626 Y157.4569
G01 X195.8120 Y157.5348
G01 X196.2664 Y157.5744
G01 X196.7225 Y157.5751
G01 X197.1771 Y157.5372
G01 X197.5290 Y157.5040
G01 X197.8763 Y157.4385
G01 X198.2161 Y157.3412
G01 X198.5455 Y157.2130
G01 X198.8617 Y157.0549
G01 X199.1619 Y156.8683
G01 X199.4436 Y156.6548
G01 X199.7044 Y156.4162
G01 X199.9155 Y156.1577
G01 X200.1056 Y155.8835
G01 X200.2735 Y155.5951
G01 X200.4182 Y155.2944
G01 X200.5388 Y154.9833
G01 X200.6345 Y154.6636
G01 X200.7047 Y154.3373
G01 X200.7490 Y154.0066
G01 X200.7836 Y153.7100
G01 X200.8080 Y153.4125
G01 X200.8222 Y153.1142
G01 X200.8262 Y152.8157
G01 Y143.6458
G01 X198.3942
G01 Y151.3440
G01 X198.3983 Y151.6551
G01 X198.3831 Y151.9659
G01 X198.3488 Y152.2751
G01 X198.2955 Y152.5816
G01 X198.2234 Y152.8842
G01 X198.1327 Y153.1818
G01 X198.0239 Y153.4732
G01 X197.8973 Y153.7574
G01 X197.7388 Y154.0308
G01 X197.5550 Y154.2879
G01 X197.3475 Y154.5263
G01 X197.1183 Y154.7438
G01 X196.8693 Y154.9385
G01 X196.6029 Y155.1085
G01 X196.3215 Y155.2524
G01 X196.0277 Y155.3687
G01 X195.7241 Y155.4566
G01 X195.4135 Y155.5151
G01 X195.0988 Y155.5437
G01 X194.7827 Y155.5421
G01 X194.4368 Y155.5391
G01 X194.0928 Y155.5012
G01 X193.7545 Y155.4288
G01 X193.4252 Y155.3226
G01 X193.1083 Y155.1837
G01 X192.8070 Y155.0135
G01 X192.5245 Y154.8138
G01 X192.2635 Y154.5866
G01 X192.0268 Y154.3342
G01 X191.8168 Y154.0593
G01 X191.6356 Y153.7645
G01 X191.4851 Y153.4529
G01 X191.4000 Y153.2221
G01 X191.3258 Y152.9875
G01 X191.2628 Y152.7497
G01 X191.2110 Y152.5092
G01 X191.1706 Y152.2665
G01 X191.1417 Y152.0222
G01 X191.1243 Y151.7767
G01 X191.1185 Y151.5308
G01 X191.1167 Y151.3640
G01 Y143.6458
G01 X188.6847
G01 Y151.3440
G01 X188.6887 Y151.6551
G01 X188.6735 Y151.9659
G01 X188.6392 Y152.2751
G01 X188.5859 Y152.5816
G01 X188.5138 Y152.8842
G01 X188.4231 Y153.1818
G01 X188.3143 Y153.4732
G01 X188.1877 Y153.7574
G01 X188.0293 Y154.0308
G01 X187.8455 Y154.2879
G01 X187.6380 Y154.5263
G01 X187.4087 Y154.7438
G01 X187.1597 Y154.9385
G01 X186.8933 Y155.1085
G01 X186.6119 Y155.2524
G01 X186.3181 Y155.3687
G01 X186.0145 Y155.4566
G01 X185.7039 Y155.5151
G01 X185.3892 Y155.5437
G01 X185.0732 Y155.5421
G01 X184.7272 Y155.5391
G01 X184.3833 Y155.5012
G01 X184.0449 Y155.4288
G01 X183.7156 Y155.3226
G01 X183.3987 Y155.1837
G01 X183.0974 Y155.0135
G01 X182.8149 Y154.8138
G01 X182.5539 Y154.5866
G01 X182.3173 Y154.3342
G01 X182.1072 Y154.0593
G01 X181.9261 Y153.7645
G01 X181.7756 Y153.4529
G01 X181.6904 Y153.2221
G01 X181.6163 Y152.9875
G01 X181.5532 Y152.7497
G01 X181.5014 Y152.5092
G01 X181.4610 Y152.2665
G01 X181.4321 Y152.0222
G01 X181.4147 Y151.7767
G01 X181.4089 Y151.5308
G01 X181.4071 Y151.3640
G01 Y143.6458
G01 X178.9751
G01 Y157.2745
G01 X181.4071
G01 Y156.0785
G01 X181.4107 Y155.9731
G01 X181.4235 Y155.8820
G01 X181.4445 Y155.7925
G01 X181.4735 Y155.7052
G01 X181.5103 Y155.6210
G01 X181.5547 Y155.5404
G01 X181.6061 Y155.4642
G01 X181.6643 Y155.3930
G01 X181.7288 Y155.3274
G01 X181.7989 Y155.2679
G01 X181.8741 Y155.2150
G01 X181.9538 Y155.1692
G01 X182.0374 Y155.1308
G01 X182.1241 Y155.1002
G01 X182.2132 Y155.0775
G01 X182.3040 Y155.0631
G01 X182.3958 Y155.0569
G01 X182.4877 Y155.0592
G01 X182.5790 Y155.0698
G01 X182.6690 Y155.0886
G01 X182.7570 Y155.1155
G01 X182.8421 Y155.1503
G01 X182.9237 Y155.1927
G01 X183.0011 Y155.2424
G01 X183.0737 Y155.2988
G01 X183.1408 Y155.3617
G01 X183.2020 Y155.4303
G01 X183.2566 Y155.5043
G01 X183.3044 Y155.5829
G01 X183.4998 Y155.8351
G01 X183.7102 Y156.0751
G01 X183.9348 Y156.3018
G01 X184.1727 Y156.5145
G01 X184.4230 Y156.7124
