;Project TeslaChargingStation
;Created by Estlcam version 11 build 11,116
;Machining time about 00:17:04 hours

G90
M03 S18000
G00 X0.0000 Y0.0000 Z0.0000
G00 Z2.0000


;No. 1: Helical drill 1
G00 X33.4037 Y187.6780
G00 Z0.5000
M106 S240
G01 X33.4026 Y187.6309 Z0.4962 F400 S18000
G01 X33.3992 Y187.5839 Z0.4924
G01 X33.3936 Y187.5371 Z0.4886
G01 X33.3858 Y187.4906 Z0.4848
G01 X33.3758 Y187.4446 Z0.4811
G01 X33.3636 Y187.3991 Z0.4773
G01 X33.3492 Y187.3542 Z0.4735
G01 X33.3328 Y187.3100 Z0.4697
G01 X33.3142 Y187.2667 Z0.4659
G01 X33.2936 Y187.2243 Z0.4621
G01 X33.2711 Y187.1830 Z0.4583
G01 X33.2465 Y187.1427 Z0.4545
G01 X33.2201 Y187.1037 Z0.4508
G01 X33.1919 Y187.0660 Z0.4470
G01 X33.1619 Y187.0297 Z0.4432
G01 X33.1302 Y186.9948 Z0.4394
G01 X33.0969 Y186.9615 Z0.4356
G01 X33.0620 Y186.9298 Z0.4318
G01 X33.0257 Y186.8998 Z0.4280
G01 X32.9879 Y186.8715 Z0.4242
G01 X32.9489 Y186.8451 Z0.4205
G01 X32.9087 Y186.8206 Z0.4167
G01 X32.8673 Y186.7980 Z0.4129
G01 X32.8250 Y186.7774 Z0.4091
G01 X32.7816 Y186.7589 Z0.4053
G01 X32.7375 Y186.7424 Z0.4015
G01 X32.6926 Y186.7281 Z0.3977
G01 X32.6471 Y186.7159 Z0.3939
G01 X32.6011 Y186.7059 Z0.3902
G01 X32.5546 Y186.6981 Z0.3864
G01 X32.5078 Y186.6925 Z0.3826
G01 X32.4608 Y186.6891 Z0.3788
G01 X32.4137 Y186.6880 Z0.3750
G01 X32.3666 Y186.6891 Z0.3712
G01 X32.3196 Y186.6925 Z0.3674
G01 X32.2728 Y186.6981 Z0.3636
G01 X32.2263 Y186.7059 Z0.3598
G01 X32.1803 Y186.7159 Z0.3561
G01 X32.1348 Y186.7281 Z0.3523
G01 X32.0899 Y186.7424 Z0.3485
G01 X32.0457 Y186.7589 Z0.3447
G01 X32.0024 Y186.7774 Z0.3409
G01 X31.9600 Y186.7980 Z0.3371
G01 X31.9187 Y186.8206 Z0.3333
G01 X31.8785 Y186.8451 Z0.3295
G01 X31.8394 Y186.8715 Z0.3258
G01 X31.8017 Y186.8998 Z0.3220
G01 X31.7654 Y186.9298 Z0.3182
G01 X31.7305 Y186.9615 Z0.3144
G01 X31.6972 Y186.9948 Z0.3106
G01 X31.6655 Y187.0297 Z0.3068
G01 X31.6355 Y187.0660 Z0.3030
G01 X31.6073 Y187.1037 Z0.2992
G01 X31.5809 Y187.1427 Z0.2955
G01 X31.5563 Y187.1830 Z0.2917
G01 X31.5337 Y187.2243 Z0.2879
G01 X31.5132 Y187.2667 Z0.2841
G01 X31.4946 Y187.3100 Z0.2803
G01 X31.4781 Y187.3542 Z0.2765
G01 X31.4638 Y187.3991 Z0.2727
G01 X31.4516 Y187.4446 Z0.2689
G01 X31.4416 Y187.4906 Z0.2652
G01 X31.4338 Y187.5371 Z0.2614
G01 X31.4282 Y187.5839 Z0.2576
G01 X31.4248 Y187.6309 Z0.2538
G01 X31.4237 Y187.6780 Z0.2500
G01 X31.4248 Y187.7251 Z0.2462
G01 X31.4282 Y187.7721 Z0.2424
G01 X31.4338 Y187.8189 Z0.2386
G01 X31.4416 Y187.8653 Z0.2348
G01 X31.4516 Y187.9114 Z0.2311
G01 X31.4638 Y187.9569 Z0.2273
G01 X31.4781 Y188.0018 Z0.2235
G01 X31.4946 Y188.0459 Z0.2197
G01 X31.5132 Y188.0892 Z0.2159
G01 X31.5337 Y188.1316 Z0.2121
G01 X31.5563 Y188.1730 Z0.2083
G01 X31.5809 Y188.2132 Z0.2045
G01 X31.6073 Y188.2522 Z0.2008
G01 X31.6355 Y188.2900 Z0.1970
G01 X31.6655 Y188.3263 Z0.1932
G01 X31.6972 Y188.3612 Z0.1894
G01 X31.7305 Y188.3945 Z0.1856
G01 X31.7654 Y188.4262 Z0.1818
G01 X31.8017 Y188.4562 Z0.1780
G01 X31.8394 Y188.4844 Z0.1742
G01 X31.8785 Y188.5108 Z0.1705
G01 X31.9187 Y188.5353 Z0.1667
G01 X31.9600 Y188.5579 Z0.1629
G01 X32.0024 Y188.5785 Z0.1591
G01 X32.0457 Y188.5971 Z0.1553
G01 X32.0899 Y188.6135 Z0.1515
G01 X32.1348 Y188.6279 Z0.1477
G01 X32.1803 Y188.6401 Z0.1439
G01 X32.2263 Y188.6501 Z0.1402
G01 X32.2728 Y188.6579 Z0.1364
G01 X32.3196 Y188.6635 Z0.1326
G01 X32.3666 Y188.6669 Z0.1288
G01 X32.4137 Y188.6680 Z0.1250
G01 X32.4608 Y188.6669 Z0.1212
G01 X32.5078 Y188.6635 Z0.1174
G01 X32.5546 Y188.6579 Z0.1136
G01 X32.6011 Y188.6501 Z0.1098
G01 X32.6471 Y188.6401 Z0.1061
G01 X32.6926 Y188.6279 Z0.1023
G01 X32.7375 Y188.6135 Z0.0985
G01 X32.7816 Y188.5971 Z0.0947
G01 X32.8250 Y188.5785 Z0.0909
G01 X32.8673 Y188.5579 Z0.0871
G01 X32.9087 Y188.5353 Z0.0833
G01 X32.9489 Y188.5108 Z0.0795
G01 X32.9879 Y188.4844 Z0.0758
G01 X33.0257 Y188.4562 Z0.0720
G01 X33.0620 Y188.4262 Z0.0682
G01 X33.0969 Y188.3945 Z0.0644
G01 X33.1302 Y188.3612 Z0.0606
G01 X33.1619 Y188.3263 Z0.0568
G01 X33.1919 Y188.2900 Z0.0530
G01 X33.2201 Y188.2522 Z0.0492
G01 X33.2465 Y188.2132 Z0.0455
G01 X33.2711 Y188.1730 Z0.0417
G01 X33.2936 Y188.1316 Z0.0379
G01 X33.3142 Y188.0892 Z0.0341
G01 X33.3328 Y188.0459 Z0.0303
G01 X33.3492 Y188.0018 Z0.0265
G01 X33.3636 Y187.9569 Z0.0227
G01 X33.3758 Y187.9114 Z0.0189
G01 X33.3858 Y187.8653 Z0.0152
G01 X33.3936 Y187.8189 Z0.0114
G01 X33.3992 Y187.7721 Z0.0076
G01 X33.4026 Y187.7251 Z0.0038
G01 X33.4037 Y187.6780 Z0.0000
G01 X33.4026 Y187.6309
G01 X33.3992 Y187.5839
G01 X33.3936 Y187.5371
G01 X33.3858 Y187.4906
G01 X33.3758 Y187.4446
G01 X33.3636 Y187.3991
G01 X33.3492 Y187.3542
G01 X33.3328 Y187.3100
G01 X33.3142 Y187.2667
G01 X33.2936 Y187.2243
G01 X33.2711 Y187.1830
G01 X33.2465 Y187.1427
G01 X33.2201 Y187.1037
G01 X33.1919 Y187.0660
G01 X33.1619 Y187.0297
G01 X33.1302 Y186.9948
G01 X33.0969 Y186.9615
G01 X33.0620 Y186.9298
G01 X33.0257 Y186.8998
G01 X32.9879 Y186.8715
G01 X32.9489 Y186.8451
G01 X32.9087 Y186.8206
G01 X32.8673 Y186.7980
G01 X32.8250 Y186.7774
G01 X32.7816 Y186.7589
G01 X32.7375 Y186.7424
G01 X32.6926 Y186.7281
G01 X32.6471 Y186.7159
G01 X32.6011 Y186.7059
G01 X32.5546 Y186.6981
G01 X32.5078 Y186.6925
G01 X32.4608 Y186.6891
G01 X32.4137 Y186.6880
G01 X32.3666 Y186.6891
G01 X32.3196 Y186.6925
G01 X32.2728 Y186.6981
G01 X32.2263 Y186.7059
G01 X32.1803 Y186.7159
G01 X32.1348 Y186.7281
G01 X32.0899 Y186.7424
G01 X32.0457 Y186.7589
G01 X32.0024 Y186.7774
G01 X31.9600 Y186.7980
G01 X31.9187 Y186.8206
G01 X31.8785 Y186.8451
G01 X31.8394 Y186.8715
G01 X31.8017 Y186.8998
G01 X31.7654 Y186.9298
G01 X31.7305 Y186.9615
G01 X31.6972 Y186.9948
G01 X31.6655 Y187.0297
G01 X31.6355 Y187.0660
G01 X31.6073 Y187.1037
G01 X31.5809 Y187.1427
G01 X31.5563 Y187.1830
G01 X31.5337 Y187.2243
G01 X31.5132 Y187.2667
G01 X31.4946 Y187.3100
G01 X31.4781 Y187.3542
G01 X31.4638 Y187.3991
G01 X31.4516 Y187.4446
G01 X31.4416 Y187.4906
G01 X31.4338 Y187.5371
G01 X31.4282 Y187.5839
G01 X31.4248 Y187.6309
G01 X31.4237 Y187.6780
G01 X31.4248 Y187.7251
G01 X31.4282 Y187.7721
G01 X31.4338 Y187.8189
G01 X31.4416 Y187.8653
G01 X31.4516 Y187.9114
G01 X31.4638 Y187.9569
G01 X31.4781 Y188.0018
G01 X31.4946 Y188.0459
G01 X31.5132 Y188.0892
G01 X31.5337 Y188.1316
G01 X31.5563 Y188.1730
G01 X31.5809 Y188.2132
G01 X31.6073 Y188.2522
G01 X31.6355 Y188.2900
G01 X31.6655 Y188.3263
G01 X31.6972 Y188.3612
G01 X31.7305 Y188.3945
G01 X31.7654 Y188.4262
G01 X31.8017 Y188.4562
G01 X31.8394 Y188.4844
G01 X31.8785 Y188.5108
G01 X31.9187 Y188.5353
G01 X31.9600 Y188.5579
G01 X32.0024 Y188.5785
G01 X32.0457 Y188.5971
G01 X32.0899 Y188.6135
G01 X32.1348 Y188.6279
G01 X32.1803 Y188.6401
G01 X32.2263 Y188.6501
G01 X32.2728 Y188.6579
G01 X32.3196 Y188.6635
G01 X32.3666 Y188.6669
G01 X32.4137 Y188.6680
G01 X32.4608 Y188.6669
G01 X32.5078 Y188.6635
G01 X32.5546 Y188.6579
G01 X32.6011 Y188.6501
G01 X32.6471 Y188.6401
G01 X32.6926 Y188.6279
G01 X32.7375 Y188.6135
G01 X32.7816 Y188.5971
G01 X32.8250 Y188.5785
G01 X32.8673 Y188.5579
G01 X32.9087 Y188.5353
G01 X32.9489 Y188.5108
G01 X32.9879 Y188.4844
G01 X33.0257 Y188.4562
G01 X33.0620 Y188.4262
G01 X33.0969 Y188.3945
G01 X33.1302 Y188.3612
G01 X33.1619 Y188.3263
G01 X33.1919 Y188.2900
G01 X33.2201 Y188.2522
G01 X33.2465 Y188.2132
G01 X33.2711 Y188.1730
G01 X33.2936 Y188.1316
G01 X33.3142 Y188.0892
G01 X33.3328 Y188.0459
G01 X33.3492 Y188.0018
G01 X33.3636 Y187.9569
G01 X33.3758 Y187.9114
G01 X33.3858 Y187.8653
G01 X33.3936 Y187.8189
G01 X33.3992 Y187.7721
G01 X33.4026 Y187.7251
G01 X33.4037 Y187.6780
M107
M106 S240
G01 X33.4026 Y187.6309 Z-0.0167
G01 X33.3992 Y187.5839 Z-0.0333
G01 X33.3936 Y187.5371 Z-0.0500
G01 X33.3858 Y187.4906 Z-0.0667
G01 X33.3758 Y187.4446 Z-0.0833
G01 X33.3636 Y187.3991 Z-0.1000
G01 X33.3492 Y187.3542 Z-0.1167
G01 X33.3328 Y187.3100 Z-0.1333
G01 X33.3142 Y187.2667 Z-0.1500
G01 X33.2936 Y187.2243 Z-0.1667
G01 X33.2711 Y187.1830 Z-0.1833
G01 X33.2465 Y187.1427 Z-0.2000
G01 X33.2201 Y187.1037 Z-0.2167
G01 X33.1919 Y187.0660 Z-0.2333
G01 X33.1619 Y187.0297 Z-0.2500
G01 X33.1302 Y186.9948 Z-0.2667
G01 X33.0969 Y186.9615 Z-0.2833
G01 X33.0620 Y186.9298 Z-0.3000
G01 X33.0257 Y186.8998 Z-0.3167
G01 X32.9879 Y186.8715 Z-0.3333
G01 X32.9489 Y186.8451 Z-0.3500
G01 X32.9087 Y186.8206 Z-0.3667
G01 X32.8673 Y186.7980 Z-0.3833
G01 X32.8250 Y186.7774 Z-0.4000
G01 X32.7816 Y186.7589 Z-0.4167
G01 X32.7375 Y186.7424 Z-0.4333
G01 X32.6926 Y186.7281 Z-0.4500
G01 X32.6471 Y186.7159 Z-0.4667
G01 X32.6011 Y186.7059 Z-0.4833
G01 X32.5546 Y186.6981 Z-0.5000
G01 X32.5078 Y186.6925 Z-0.5167
G01 X32.4608 Y186.6891 Z-0.5333
G01 X32.4137 Y186.6880 Z-0.5500
G01 X32.3666 Y186.6891 Z-0.5667
G01 X32.3196 Y186.6925 Z-0.5833
G01 X32.2728 Y186.6981 Z-0.6000
G01 X32.2263 Y186.7059 Z-0.6167
G01 X32.1803 Y186.7159 Z-0.6333
G01 X32.1348 Y186.7281 Z-0.6500
G01 X32.0899 Y186.7424 Z-0.6667
G01 X32.0457 Y186.7589 Z-0.6833
G01 X32.0024 Y186.7774 Z-0.7000
G01 X31.9600 Y186.7980 Z-0.7167
G01 X31.9187 Y186.8206 Z-0.7333
G01 X31.8785 Y186.8451 Z-0.7500
G01 X31.8394 Y186.8715 Z-0.7667
G01 X31.8017 Y186.8998 Z-0.7833
G01 X31.7654 Y186.9298 Z-0.8000
G01 X31.7305 Y186.9615 Z-0.8167
G01 X31.6972 Y186.9948 Z-0.8333
G01 X31.6655 Y187.0297 Z-0.8500
G01 X31.6355 Y187.0660 Z-0.8667
G01 X31.6073 Y187.1037 Z-0.8833
G01 X31.5809 Y187.1427 Z-0.9000
G01 X31.5563 Y187.1830 Z-0.9167
G01 X31.5337 Y187.2243 Z-0.9333
G01 X31.5132 Y187.2667 Z-0.9500
G01 X31.4946 Y187.3100 Z-0.9667
G01 X31.4781 Y187.3542 Z-0.9833
G01 X31.4638 Y187.3991 Z-1.0000
G01 X31.4516 Y187.4446 Z-1.0167
G01 X31.4416 Y187.4906 Z-1.0333
G01 X31.4338 Y187.5371 Z-1.0500
G01 X31.4282 Y187.5839 Z-1.0667
G01 X31.4248 Y187.6309 Z-1.0833
G01 X31.4237 Y187.6780 Z-1.1000
G01 X31.4248 Y187.7251 Z-1.1167
G01 X31.4282 Y187.7721 Z-1.1333
G01 X31.4338 Y187.8189 Z-1.1500
G01 X31.4416 Y187.8653 Z-1.1667
G01 X31.4516 Y187.9114 Z-1.1833
G01 X31.4638 Y187.9569 Z-1.2000
G01 X31.4781 Y188.0018 Z-1.2167
G01 X31.4946 Y188.0459 Z-1.2333
G01 X31.5132 Y188.0892 Z-1.2500
G01 X31.5337 Y188.1316 Z-1.2667
G01 X31.5563 Y188.1730 Z-1.2833
G01 X31.5809 Y188.2132 Z-1.3000
G01 X31.6073 Y188.2522 Z-1.3167
G01 X31.6355 Y188.2900 Z-1.3333
G01 X31.6655 Y188.3263 Z-1.3500
G01 X31.6972 Y188.3612 Z-1.3667
G01 X31.7305 Y188.3945 Z-1.3833
G01 X31.7654 Y188.4262 Z-1.4000
G01 X31.8017 Y188.4562 Z-1.4167
G01 X31.8394 Y188.4844 Z-1.4333
G01 X31.8785 Y188.5108 Z-1.4500
G01 X31.9187 Y188.5353 Z-1.4667
G01 X31.9600 Y188.5579 Z-1.4833
G01 X32.0024 Y188.5785 Z-1.5000
G01 X32.0457 Y188.5971 Z-1.5167
G01 X32.0899 Y188.6135 Z-1.5333
G01 X32.1348 Y188.6279 Z-1.5500
G01 X32.1803 Y188.6401 Z-1.5667
G01 X32.2263 Y188.6501 Z-1.5833
G01 X32.2728 Y188.6579 Z-1.6000
G01 X32.3196 Y188.6635 Z-1.6167
G01 X32.3666 Y188.6669 Z-1.6333
G01 X32.4137 Y188.6680 Z-1.6500
G01 X32.4608 Y188.6669 Z-1.6667
G01 X32.5078 Y188.6635 Z-1.6833
G01 X32.5546 Y188.6579 Z-1.7000
G01 X32.6011 Y188.6501 Z-1.7167
G01 X32.6471 Y188.6401 Z-1.7333
G01 X32.6926 Y188.6279 Z-1.7500
G01 X32.7375 Y188.6135 Z-1.7667
G01 X32.7816 Y188.5971 Z-1.7833
G01 X32.8250 Y188.5785 Z-1.8000
G01 X32.8673 Y188.5579 Z-1.8167
G01 X32.9087 Y188.5353 Z-1.8333
G01 X32.9489 Y188.5108 Z-1.8500
G01 X32.9879 Y188.4844 Z-1.8667
G01 X33.0257 Y188.4562 Z-1.8833
G01 X33.0620 Y188.4262 Z-1.9000
G01 X33.0969 Y188.3945 Z-1.9167
G01 X33.1302 Y188.3612 Z-1.9333
G01 X33.1619 Y188.3263 Z-1.9500
G01 X33.1919 Y188.2900 Z-1.9667
G01 X33.2201 Y188.2522 Z-1.9833
G01 X33.2465 Y188.2132 Z-2.0000
G01 X33.2711 Y188.1730 Z-2.0167
G01 X33.2936 Y188.1316 Z-2.0333
G01 X33.3142 Y188.0892 Z-2.0500
G01 X33.3328 Y188.0459 Z-2.0667
G01 X33.3492 Y188.0018 Z-2.0833
G01 X33.3636 Y187.9569 Z-2.1000
G01 X33.3758 Y187.9114 Z-2.1167
G01 X33.3858 Y187.8653 Z-2.1333
G01 X33.3936 Y187.8189 Z-2.1500
G01 X33.3992 Y187.7721 Z-2.1667
G01 X33.4026 Y187.7251 Z-2.1833
G01 X33.4037 Y187.6780 Z-2.2000
G01 X33.4026 Y187.6309
G01 X33.3992 Y187.5839
G01 X33.3936 Y187.5371
G01 X33.3858 Y187.4906
G01 X33.3758 Y187.4446
G01 X33.3636 Y187.3991
G01 X33.3492 Y187.3542
G01 X33.3328 Y187.3100
G01 X33.3142 Y187.2667
G01 X33.2936 Y187.2243
G01 X33.2711 Y187.1830
G01 X33.2465 Y187.1427
G01 X33.2201 Y187.1037
G01 X33.1919 Y187.0660
G01 X33.1619 Y187.0297
G01 X33.1302 Y186.9948
G01 X33.0969 Y186.9615
G01 X33.0620 Y186.9298
G01 X33.0257 Y186.8998
G01 X32.9879 Y186.8715
G01 X32.9489 Y186.8451
G01 X32.9087 Y186.8206
G01 X32.8673 Y186.7980
G01 X32.8250 Y186.7774
G01 X32.7816 Y186.7589
G01 X32.7375 Y186.7424
G01 X32.6926 Y186.7281
G01 X32.6471 Y186.7159
G01 X32.6011 Y186.7059
G01 X32.5546 Y186.6981
G01 X32.5078 Y186.6925
G01 X32.4608 Y186.6891
G01 X32.4137 Y186.6880
G01 X32.3666 Y186.6891
G01 X32.3196 Y186.6925
G01 X32.2728 Y186.6981
G01 X32.2263 Y186.7059
G01 X32.1803 Y186.7159
G01 X32.1348 Y186.7281
G01 X32.0899 Y186.7424
G01 X32.0457 Y186.7589
G01 X32.0024 Y186.7774
G01 X31.9600 Y186.7980
G01 X31.9187 Y186.8206
G01 X31.8785 Y186.8451
G01 X31.8394 Y186.8715
G01 X31.8017 Y186.8998
G01 X31.7654 Y186.9298
G01 X31.7305 Y186.9615
G01 X31.6972 Y186.9948
G01 X31.6655 Y187.0297
G01 X31.6355 Y187.0660
G01 X31.6073 Y187.1037
G01 X31.5809 Y187.1427
G01 X31.5563 Y187.1830
G01 X31.5337 Y187.2243
G01 X31.5132 Y187.2667
G01 X31.4946 Y187.3100
G01 X31.4781 Y187.3542
G01 X31.4638 Y187.3991
G01 X31.4516 Y187.4446
G01 X31.4416 Y187.4906
G01 X31.4338 Y187.5371
G01 X31.4282 Y187.5839
G01 X31.4248 Y187.6309
G01 X31.4237 Y187.6780
G01 X31.4248 Y187.7251
G01 X31.4282 Y187.7721
G01 X31.4338 Y187.8189
G01 X31.4416 Y187.8653
G01 X31.4516 Y187.9114
G01 X31.4638 Y187.9569
G01 X31.4781 Y188.0018
G01 X31.4946 Y188.0459
G01 X31.5132 Y188.0892
G01 X31.5337 Y188.1316
G01 X31.5563 Y188.1730
G01 X31.5809 Y188.2132
G01 X31.6073 Y188.2522
G01 X31.6355 Y188.2900
G01 X31.6655 Y188.3263
G01 X31.6972 Y188.3612
G01 X31.7305 Y188.3945
G01 X31.7654 Y188.4262
G01 X31.8017 Y188.4562
G01 X31.8394 Y188.4844
G01 X31.8785 Y188.5108
G01 X31.9187 Y188.5353
G01 X31.9600 Y188.5579
G01 X32.0024 Y188.5785
G01 X32.0457 Y188.5971
G01 X32.0899 Y188.6135
G01 X32.1348 Y188.6279
G01 X32.1803 Y188.6401
G01 X32.2263 Y188.6501
G01 X32.2728 Y188.6579
G01 X32.3196 Y188.6635
G01 X32.3666 Y188.6669
G01 X32.4137 Y188.6680
G01 X32.4608 Y188.6669
G01 X32.5078 Y188.6635
G01 X32.5546 Y188.6579
G01 X32.6011 Y188.6501
G01 X32.6471 Y188.6401
G01 X32.6926 Y188.6279
G01 X32.7375 Y188.6135
G01 X32.7816 Y188.5971
G01 X32.8250 Y188.5785
G01 X32.8673 Y188.5579
G01 X32.9087 Y188.5353
G01 X32.9489 Y188.5108
G01 X32.9879 Y188.4844
G01 X33.0257 Y188.4562
G01 X33.0620 Y188.4262
G01 X33.0969 Y188.3945
G01 X33.1302 Y188.3612
G01 X33.1619 Y188.3263
G01 X33.1919 Y188.2900
G01 X33.2201 Y188.2522
G01 X33.2465 Y188.2132
G01 X33.2711 Y188.1730
G01 X33.2936 Y188.1316
G01 X33.3142 Y188.0892
G01 X33.3328 Y188.0459
G01 X33.3492 Y188.0018
G01 X33.3636 Y187.9569
G01 X33.3758 Y187.9114
G01 X33.3858 Y187.8653
G01 X33.3936 Y187.8189
G01 X33.3992 Y187.7721
G01 X33.4026 Y187.7251
G01 X33.4037 Y187.6780
G01 X33.4157 Y187.6266 F1000
G01 X33.4250 Y187.5747
G01 X33.4316 Y187.5224
G01 X33.4355 Y187.4699
G01 X33.4366 Y187.4171
G01 X33.4350 Y187.3644
G01 X33.4307 Y187.3119
G01 X33.4236 Y187.2597
G01 X33.4129 Y187.2030
G01 X33.3994 Y187.1470
G01 X33.3830 Y187.0917
G01 X33.3637 Y187.0374
G01 X33.3417 Y186.9841
G01 X33.3169 Y186.9321
G01 X33.2895 Y186.8813
G01 X33.2596 Y186.8321
G01 X33.2243 Y186.7804
G01 X33.1865 Y186.7305
G01 X33.1462 Y186.6826
G01 X33.1035 Y186.6369
G01 X33.0585 Y186.5934
G01 X33.0113 Y186.5523
G01 X32.9621 Y186.5136
G01 X32.9109 Y186.4775
G01 X32.8538 Y186.4417
G01 X32.7949 Y186.4089
G01 X32.7344 Y186.3791
G01 X32.6725 Y186.3524
G01 X32.6093 Y186.3289
G01 X32.5450 Y186.3086
G01 X32.4797 Y186.2916
G01 X32.4137 Y186.2780
G01 X32.3450 Y186.2797
G01 X32.2765 Y186.2847
G01 X32.2083 Y186.2932
G01 X32.1406 Y186.3049
G01 X32.0735 Y186.3200
G01 X32.0073 Y186.3383
G01 X31.9421 Y186.3598
G01 X31.8779 Y186.3846
G01 X31.8151 Y186.4124
G01 X31.7537 Y186.4433
G01 X31.6940 Y186.4772
G01 X31.6359 Y186.5139
G01 X31.5797 Y186.5535
G01 X31.5256 Y186.5958
G01 X31.4735 Y186.6407
G01 X31.4238 Y186.6880
G01 X31.3764 Y186.7378
G01 X31.3315 Y186.7898
G01 X31.2892 Y186.8440
G01 X31.2497 Y186.9002
G01 X31.2129 Y186.9582
G01 X31.1790 Y187.0180
G01 X31.1481 Y187.0794
G01 X31.1203 Y187.1422
G01 X31.0956 Y187.2063
G01 X31.0740 Y187.2716
G01 X31.0557 Y187.3378
G01 X31.0406 Y187.4049
G01 X31.0289 Y187.4726
G01 X31.0205 Y187.5408
G01 X31.0154 Y187.6093
G01 X31.0137 Y187.6780
G01 X31.0154 Y187.7467
G01 X31.0205 Y187.8152
G01 X31.0289 Y187.8834
G01 X31.0406 Y187.9511
G01 X31.0557 Y188.0181
G01 X31.0740 Y188.0844
G01 X31.0956 Y188.1496
G01 X31.1203 Y188.2137
G01 X31.1481 Y188.2765
G01 X31.1790 Y188.3379
G01 X31.2129 Y188.3977
G01 X31.2497 Y188.4558
G01 X31.2892 Y188.5119
G01 X31.3315 Y188.5661
G01 X31.3764 Y188.6181
G01 X31.4238 Y188.6679
G01 X31.4735 Y188.7153
G01 X31.5256 Y188.7602
G01 X31.5797 Y188.8024
G01 X31.6359 Y188.8420
G01 X31.6940 Y188.8788
G01 X31.7537 Y188.9126
G01 X31.8151 Y188.9435
G01 X31.8779 Y188.9714
G01 X31.9421 Y188.9961
G01 X32.0073 Y189.0177
G01 X32.0735 Y189.0360
G01 X32.1406 Y189.0511
G01 X32.2083 Y189.0628
G01 X32.2765 Y189.0712
G01 X32.3450 Y189.0763
G01 X32.4137 Y189.0780
G01 X32.4824 Y189.0763
G01 X32.5509 Y189.0712
G01 X32.6191 Y189.0628
G01 X32.6868 Y189.0511
G01 X32.7539 Y189.0360
G01 X32.8201 Y189.0177
G01 X32.8853 Y188.9961
G01 X32.9494 Y188.9714
G01 X33.0123 Y188.9435
G01 X33.0736 Y188.9126
G01 X33.1334 Y188.8788
G01 X33.1915 Y188.8420
G01 X33.2477 Y188.8024
G01 X33.3018 Y188.7602
G01 X33.3539 Y188.7153
G01 X33.4036 Y188.6679
G01 X33.4510 Y188.6181
G01 X33.4959 Y188.5661
G01 X33.5382 Y188.5119
G01 X33.5777 Y188.4558
G01 X33.6145 Y188.3977
G01 X33.6484 Y188.3379
G01 X33.6793 Y188.2765
G01 X33.7071 Y188.2137
G01 X33.7318 Y188.1496
G01 X33.7534 Y188.0844
G01 X33.7717 Y188.0181
G01 X33.7868 Y187.9511
G01 X33.7985 Y187.8834
G01 X33.8069 Y187.8152
G01 X33.8120 Y187.7467
G01 X33.8137 Y187.6780
G01 X33.8098 Y187.5734
G01 X33.7980 Y187.4693
G01 X33.7786 Y187.3665
G01 X33.7515 Y187.2653
G01 X33.7169 Y187.1665
G01 X33.6750 Y187.0706
G01 X33.6261 Y186.9780
G01 X33.5704 Y186.8893
G01 X33.5082 Y186.8051
G01 X33.4399 Y186.7258
G01 X33.3659 Y186.6517
G01 X33.2866 Y186.5834
G01 X33.2023 Y186.5213
G01 X33.1137 Y186.4656
G01 X33.0211 Y186.4166
G01 X32.9252 Y186.3748
G01 X32.8263 Y186.3402
G01 X32.7252 Y186.3131
G01 X32.6223 Y186.2936
G01 X32.5183 Y186.2819
G01 X32.4137 Y186.2780
G01 X32.3091 Y186.2819
G01 X32.2050 Y186.2936
G01 X32.1022 Y186.3131
G01 X32.0010 Y186.3402
G01 X31.9022 Y186.3748
G01 X31.8063 Y186.4166
G01 X31.7137 Y186.4656
G01 X31.6251 Y186.5213
G01 X31.5408 Y186.5834
G01 X31.4615 Y186.6517
G01 X31.3874 Y186.7258
G01 X31.3191 Y186.8051
G01 X31.2570 Y186.8893
G01 X31.2013 Y186.9780
G01 X31.1524 Y187.0706
G01 X31.1105 Y187.1665
G01 X31.0759 Y187.2653
G01 X31.0488 Y187.3665
G01 X31.0294 Y187.4693
G01 X31.0176 Y187.5734
G01 X31.0137 Y187.6780
G01 X31.0176 Y187.7826
G01 X31.0294 Y187.8866
G01 X31.0488 Y187.9895
G01 X31.0759 Y188.0906
G01 X31.1105 Y188.1894
G01 X31.1524 Y188.2854
G01 X31.2013 Y188.3780
G01 X31.2570 Y188.4666
G01 X31.3191 Y188.5508
G01 X31.3874 Y188.6302
G01 X31.4615 Y188.7042
G01 X31.5408 Y188.7725
G01 X31.6251 Y188.8347
G01 X31.7137 Y188.8904
G01 X31.8063 Y188.9393
G01 X31.9022 Y188.9812
G01 X32.0010 Y189.0158
G01 X32.1022 Y189.0429
G01 X32.2050 Y189.0623
G01 X32.3091 Y189.0740
G01 X32.4137 Y189.0780
G01 X32.5183 Y189.0740
G01 X32.6223 Y189.0623
G01 X32.7252 Y189.0429
G01 X32.8263 Y189.0158
G01 X32.9252 Y188.9812
G01 X33.0211 Y188.9393
G01 X33.1137 Y188.8904
G01 X33.2023 Y188.8347
G01 X33.2866 Y188.7725
G01 X33.3659 Y188.7042
G01 X33.4399 Y188.6302
G01 X33.5082 Y188.5508
G01 X33.5704 Y188.4666
G01 X33.6261 Y188.3780
G01 X33.6750 Y188.2854
G01 X33.7169 Y188.1894
G01 X33.7515 Y188.0906
G01 X33.7786 Y187.9895
G01 X33.7980 Y187.8866
G01 X33.8098 Y187.7826
G01 X33.8137 Y187.6780
G01 X33.8091 Y187.5738
G01 X33.7955 Y187.4705
G01 X33.7729 Y187.3687
G01 X33.7416 Y187.2693
G01 X33.7017 Y187.1730
G01 X33.6536 Y187.0805
G01 X33.5976 Y186.9926
G01 X33.5341 Y186.9099
G01 X33.4637 Y186.8330
G01 X33.3868 Y186.7626
G01 X33.3041 Y186.6991
G01 X33.2162 Y186.6431
G01 X33.1237 Y186.5950
G01 X33.0274 Y186.5551
G01 X32.9280 Y186.5237
G01 X32.8262 Y186.5011
G01 X32.7228 Y186.4875
G01 X32.6187 Y186.4830
G01 X32.5145 Y186.4875
G01 X32.4112 Y186.5011
G01 X32.3094 Y186.5237
G01 X32.2100 Y186.5551
G01 X32.1137 Y186.5950
G01 X32.0212 Y186.6431
G01 X31.9333 Y186.6991
G01 X31.8506 Y186.7626
G01 X31.7737 Y186.8330
G01 X31.7033 Y186.9099
G01 X31.6398 Y186.9926
G01 X31.5838 Y187.0805
G01 X31.5357 Y187.1730
G01 X31.4958 Y187.2693
G01 X31.4644 Y187.3687
G01 X31.4418 Y187.4705
G01 X31.4282 Y187.5738
G01 X31.4237 Y187.6780
G01 X31.4249 Y187.7266
G01 X31.4285 Y187.7750
G01 X31.4344 Y187.8232
G01 X31.4427 Y187.8711
G01 X31.4534 Y187.9185
G01 X31.4663 Y187.9654
G01 X31.4816 Y188.0115
G01 X31.4991 Y188.0568
G01 X31.5187 Y188.1013
G01 X31.5406 Y188.1447
G01 X31.5645 Y188.1869
G01 X31.5905 Y188.2280
G01 X31.6185 Y188.2677
G01 X31.6484 Y188.3060
G01 X31.6801 Y188.3428
G01 X31.7137 Y188.3780
G01 X31.7488 Y188.4115
G01 X31.7856 Y188.4433
G01 X31.8239 Y188.4732
G01 X31.8637 Y188.5011
G01 X31.9047 Y188.5271
G01 X31.9470 Y188.5511
G01 X31.9904 Y188.5729
G01 X32.0348 Y188.5926
G01 X32.0802 Y188.6101
G01 X32.1263 Y188.6253
G01 X32.1731 Y188.6383
G01 X32.2206 Y188.6490
G01 X32.2684 Y188.6573
G01 X32.3167 Y188.6632
G01 X32.3651 Y188.6668
G01 X32.4137 Y188.6680
G01 X32.4623 Y188.6668
G01 X32.5107 Y188.6632
G01 X32.5590 Y188.6573
G01 X32.6068 Y188.6490
G01 X32.6542 Y188.6383
G01 X32.7011 Y188.6253
G01 X32.7472 Y188.6101
G01 X32.7925 Y188.5926
G01 X32.8370 Y188.5729
G01 X32.8804 Y188.5511
G01 X32.9227 Y188.5271
G01 X32.9637 Y188.5011
G01 X33.0034 Y188.4732
G01 X33.0417 Y188.4433
G01 X33.0785 Y188.4115
G01 X33.1137 Y188.3780
G01 X33.1472 Y188.3428
G01 X33.1790 Y188.3060
G01 X33.2089 Y188.2677
G01 X33.2368 Y188.2280
G01 X33.2628 Y188.1869
G01 X33.2868 Y188.1447
G01 X33.3086 Y188.1013
G01 X33.3283 Y188.0568
G01 X33.3458 Y188.0115
G01 X33.3611 Y187.9654
G01 X33.3740 Y187.9185
G01 X33.3847 Y187.8711
G01 X33.3930 Y187.8232
G01 X33.3989 Y187.7750
G01 X33.4025 Y187.7266
G01 X33.4037 Y187.6780
M107
M106 S240
G01 X33.4026 Y187.6309 Z-2.2167 F400
G01 X33.3992 Y187.5839 Z-2.2333
G01 X33.3936 Y187.5371 Z-2.2500
G01 X33.3858 Y187.4906 Z-2.2667
G01 X33.3758 Y187.4446 Z-2.2833
G01 X33.3636 Y187.3991 Z-2.3000
G01 X33.3492 Y187.3542 Z-2.3167
G01 X33.3328 Y187.3100 Z-2.3333
G01 X33.3142 Y187.2667 Z-2.3500
G01 X33.2936 Y187.2243 Z-2.3667
G01 X33.2711 Y187.1830 Z-2.3833
G01 X33.2465 Y187.1427 Z-2.4000
G01 X33.2201 Y187.1037 Z-2.4167
G01 X33.1919 Y187.0660 Z-2.4333
G01 X33.1619 Y187.0297 Z-2.4500
G01 X33.1302 Y186.9948 Z-2.4667
G01 X33.0969 Y186.9615 Z-2.4833
G01 X33.0620 Y186.9298 Z-2.5000
G01 X33.0257 Y186.8998 Z-2.5167
G01 X32.9879 Y186.8715 Z-2.5333
G01 X32.9489 Y186.8451 Z-2.5500
G01 X32.9087 Y186.8206 Z-2.5667
G01 X32.8673 Y186.7980 Z-2.5833
G01 X32.8250 Y186.7774 Z-2.6000
G01 X32.7816 Y186.7589 Z-2.6167
G01 X32.7375 Y186.7424 Z-2.6333
G01 X32.6926 Y186.7281 Z-2.6500
G01 X32.6471 Y186.7159 Z-2.6667
G01 X32.6011 Y186.7059 Z-2.6833
G01 X32.5546 Y186.6981 Z-2.7000
G01 X32.5078 Y186.6925 Z-2.7167
G01 X32.4608 Y186.6891 Z-2.7333
G01 X32.4137 Y186.6880 Z-2.7500
G01 X32.3666 Y186.6891 Z-2.7667
G01 X32.3196 Y186.6925 Z-2.7833
G01 X32.2728 Y186.6981 Z-2.8000
G01 X32.2263 Y186.7059 Z-2.8167
G01 X32.1803 Y186.7159 Z-2.8333
G01 X32.1348 Y186.7281 Z-2.8500
G01 X32.0899 Y186.7424 Z-2.8667
G01 X32.0457 Y186.7589 Z-2.8833
G01 X32.0024 Y186.7774 Z-2.9000
G01 X31.9600 Y186.7980 Z-2.9167
G01 X31.9187 Y186.8206 Z-2.9333
G01 X31.8785 Y186.8451 Z-2.9500
G01 X31.8394 Y186.8715 Z-2.9667
G01 X31.8017 Y186.8998 Z-2.9833
G01 X31.7654 Y186.9298 Z-3.0000
G01 X31.7305 Y186.9615 Z-3.0167
G01 X31.6972 Y186.9948 Z-3.0333
G01 X31.6655 Y187.0297 Z-3.0500
G01 X31.6355 Y187.0660 Z-3.0667
G01 X31.6073 Y187.1037 Z-3.0833
G01 X31.5809 Y187.1427 Z-3.1000
G01 X31.5563 Y187.1830 Z-3.1167
G01 X31.5337 Y187.2243 Z-3.1333
G01 X31.5132 Y187.2667 Z-3.1500
G01 X31.4946 Y187.3100 Z-3.1667
G01 X31.4781 Y187.3542 Z-3.1833
G01 X31.4638 Y187.3991 Z-3.2000
G01 X31.4516 Y187.4446 Z-3.2167
G01 X31.4416 Y187.4906 Z-3.2333
G01 X31.4338 Y187.5371 Z-3.2500
G01 X31.4282 Y187.5839 Z-3.2667
G01 X31.4248 Y187.6309 Z-3.2833
G01 X31.4237 Y187.6780 Z-3.3000
G01 X31.4248 Y187.7251 Z-3.3167
G01 X31.4282 Y187.7721 Z-3.3333
G01 X31.4338 Y187.8189 Z-3.3500
G01 X31.4416 Y187.8653 Z-3.3667
G01 X31.4516 Y187.9114 Z-3.3833
G01 X31.4638 Y187.9569 Z-3.4000
G01 X31.4781 Y188.0018 Z-3.4167
G01 X31.4946 Y188.0459 Z-3.4333
G01 X31.5132 Y188.0892 Z-3.4500
G01 X31.5337 Y188.1316 Z-3.4667
G01 X31.5563 Y188.1730 Z-3.4833
G01 X31.5809 Y188.2132 Z-3.5000
G01 X31.6073 Y188.2522 Z-3.5167
G01 X31.6355 Y188.2900 Z-3.5333
G01 X31.6655 Y188.3263 Z-3.5500
G01 X31.6972 Y188.3612 Z-3.5667
G01 X31.7305 Y188.3945 Z-3.5833
G01 X31.7654 Y188.4262 Z-3.6000
G01 X31.8017 Y188.4562 Z-3.6167
G01 X31.8394 Y188.4844 Z-3.6333
G01 X31.8785 Y188.5108 Z-3.6500
G01 X31.9187 Y188.5353 Z-3.6667
G01 X31.9600 Y188.5579 Z-3.6833
G01 X32.0024 Y188.5785 Z-3.7000
G01 X32.0457 Y188.5971 Z-3.7167
G01 X32.0899 Y188.6135 Z-3.7333
G01 X32.1348 Y188.6279 Z-3.7500
G01 X32.1803 Y188.6401 Z-3.7667
G01 X32.2263 Y188.6501 Z-3.7833
G01 X32.2728 Y188.6579 Z-3.8000
G01 X32.3196 Y188.6635 Z-3.8167
G01 X32.3666 Y188.6669 Z-3.8333
G01 X32.4137 Y188.6680 Z-3.8500
G01 X32.4608 Y188.6669 Z-3.8667
G01 X32.5078 Y188.6635 Z-3.8833
G01 X32.5546 Y188.6579 Z-3.9000
G01 X32.6011 Y188.6501 Z-3.9167
G01 X32.6471 Y188.6401 Z-3.9333
G01 X32.6926 Y188.6279 Z-3.9500
G01 X32.7375 Y188.6135 Z-3.9667
G01 X32.7816 Y188.5971 Z-3.9833
G01 X32.8250 Y188.5785 Z-4.0000
G01 X32.8673 Y188.5579 Z-4.0167
G01 X32.9087 Y188.5353 Z-4.0333
G01 X32.9489 Y188.5108 Z-4.0500
G01 X32.9879 Y188.4844 Z-4.0667
G01 X33.0257 Y188.4562 Z-4.0833
G01 X33.0620 Y188.4262 Z-4.1000
G01 X33.0969 Y188.3945 Z-4.1167
G01 X33.1302 Y188.3612 Z-4.1333
G01 X33.1619 Y188.3263 Z-4.1500
G01 X33.1919 Y188.2900 Z-4.1667
G01 X33.2201 Y188.2522 Z-4.1833
G01 X33.2465 Y188.2132 Z-4.2000
G01 X33.2711 Y188.1730 Z-4.2167
G01 X33.2936 Y188.1316 Z-4.2333
G01 X33.3142 Y188.0892 Z-4.2500
G01 X33.3328 Y188.0459 Z-4.2667
G01 X33.3492 Y188.0018 Z-4.2833
G01 X33.3636 Y187.9569 Z-4.3000
G01 X33.3758 Y187.9114 Z-4.3167
G01 X33.3858 Y187.8653 Z-4.3333
G01 X33.3936 Y187.8189 Z-4.3500
G01 X33.3992 Y187.7721 Z-4.3667
G01 X33.4026 Y187.7251 Z-4.3833
G01 X33.4037 Y187.6780 Z-4.4000
G01 X33.4026 Y187.6309
G01 X33.3992 Y187.5839
G01 X33.3936 Y187.5371
G01 X33.3858 Y187.4906
G01 X33.3758 Y187.4446
G01 X33.3636 Y187.3991
G01 X33.3492 Y187.3542
G01 X33.3328 Y187.3100
G01 X33.3142 Y187.2667
G01 X33.2936 Y187.2243
G01 X33.2711 Y187.1830
G01 X33.2465 Y187.1427
G01 X33.2201 Y187.1037
G01 X33.1919 Y187.0660
G01 X33.1619 Y187.0297
G01 X33.1302 Y186.9948
G01 X33.0969 Y186.9615
G01 X33.0620 Y186.9298
G01 X33.0257 Y186.8998
G01 X32.9879 Y186.8715
G01 X32.9489 Y186.8451
G01 X32.9087 Y186.8206
G01 X32.8673 Y186.7980
G01 X32.8250 Y186.7774
G01 X32.7816 Y186.7589
G01 X32.7375 Y186.7424
G01 X32.6926 Y186.7281
G01 X32.6471 Y186.7159
G01 X32.6011 Y186.7059
G01 X32.5546 Y186.6981
G01 X32.5078 Y186.6925
G01 X32.4608 Y186.6891
G01 X32.4137 Y186.6880
G01 X32.3666 Y186.6891
G01 X32.3196 Y186.6925
G01 X32.2728 Y186.6981
G01 X32.2263 Y186.7059
G01 X32.1803 Y186.7159
G01 X32.1348 Y186.7281
G01 X32.0899 Y186.7424
G01 X32.0457 Y186.7589
G01 X32.0024 Y186.7774
G01 X31.9600 Y186.7980
G01 X31.9187 Y186.8206
G01 X31.8785 Y186.8451
G01 X31.8394 Y186.8715
G01 X31.8017 Y186.8998
G01 X31.7654 Y186.9298
G01 X31.7305 Y186.9615
G01 X31.6972 Y186.9948
G01 X31.6655 Y187.0297
G01 X31.6355 Y187.0660
G01 X31.6073 Y187.1037
G01 X31.5809 Y187.1427
G01 X31.5563 Y187.1830
G01 X31.5337 Y187.2243
G01 X31.5132 Y187.2667
G01 X31.4946 Y187.3100
G01 X31.4781 Y187.3542
G01 X31.4638 Y187.3991
G01 X31.4516 Y187.4446
G01 X31.4416 Y187.4906
G01 X31.4338 Y187.5371
G01 X31.4282 Y187.5839
G01 X31.4248 Y187.6309
G01 X31.4237 Y187.6780
G01 X31.4248 Y187.7251
G01 X31.4282 Y187.7721
G01 X31.4338 Y187.8189
G01 X31.4416 Y187.8653
G01 X31.4516 Y187.9114
G01 X31.4638 Y187.9569
G01 X31.4781 Y188.0018
G01 X31.4946 Y188.0459
G01 X31.5132 Y188.0892
G01 X31.5337 Y188.1316
G01 X31.5563 Y188.1730
G01 X31.5809 Y188.2132
G01 X31.6073 Y188.2522
G01 X31.6355 Y188.2900
G01 X31.6655 Y188.3263
G01 X31.6972 Y188.3612
G01 X31.7305 Y188.3945
G01 X31.7654 Y188.4262
G01 X31.8017 Y188.4562
G01 X31.8394 Y188.4844
G01 X31.8785 Y188.5108
G01 X31.9187 Y188.5353
G01 X31.9600 Y188.5579
G01 X32.0024 Y188.5785
G01 X32.0457 Y188.5971
G01 X32.0899 Y188.6135
G01 X32.1348 Y188.6279
G01 X32.1803 Y188.6401
G01 X32.2263 Y188.6501
G01 X32.2728 Y188.6579
G01 X32.3196 Y188.6635
G01 X32.3666 Y188.6669
G01 X32.4137 Y188.6680
G01 X32.4608 Y188.6669
G01 X32.5078 Y188.6635
G01 X32.5546 Y188.6579
G01 X32.6011 Y188.6501
G01 X32.6471 Y188.6401
G01 X32.6926 Y188.6279
G01 X32.7375 Y188.6135
G01 X32.7816 Y188.5971
G01 X32.8250 Y188.5785
G01 X32.8673 Y188.5579
G01 X32.9087 Y188.5353
G01 X32.9489 Y188.5108
G01 X32.9879 Y188.4844
G01 X33.0257 Y188.4562
G01 X33.0620 Y188.4262
G01 X33.0969 Y188.3945
G01 X33.1302 Y188.3612
G01 X33.1619 Y188.3263
G01 X33.1919 Y188.2900
G01 X33.2201 Y188.2522
G01 X33.2465 Y188.2132
G01 X33.2711 Y188.1730
G01 X33.2936 Y188.1316
G01 X33.3142 Y188.0892
G01 X33.3328 Y188.0459
G01 X33.3492 Y188.0018
G01 X33.3636 Y187.9569
G01 X33.3758 Y187.9114
G01 X33.3858 Y187.8653
G01 X33.3936 Y187.8189
G01 X33.3992 Y187.7721
G01 X33.4026 Y187.7251
G01 X33.4037 Y187.6780
G01 X33.4157 Y187.6266 F1000
G01 X33.4250 Y187.5747
G01 X33.4316 Y187.5224
G01 X33.4355 Y187.4699
G01 X33.4366 Y187.4171
G01 X33.4350 Y187.3644
G01 X33.4307 Y187.3119
G01 X33.4236 Y187.2597
G01 X33.4129 Y187.2030
G01 X33.3994 Y187.1470
G01 X33.3830 Y187.0917
G01 X33.3637 Y187.0374
G01 X33.3417 Y186.9841
G01 X33.3169 Y186.9321
G01 X33.2895 Y186.8813
G01 X33.2596 Y186.8321
G01 X33.2243 Y186.7804
G01 X33.1865 Y186.7305
G01 X33.1462 Y186.6826
G01 X33.1035 Y186.6369
G01 X33.0585 Y186.5934
G01 X33.0113 Y186.5523
G01 X32.9621 Y186.5136
G01 X32.9109 Y186.4775
G01 X32.8538 Y186.4417
G01 X32.7949 Y186.4089
G01 X32.7344 Y186.3791
G01 X32.6725 Y186.3524
G01 X32.6093 Y186.3289
G01 X32.5450 Y186.3086
G01 X32.4797 Y186.2916
G01 X32.4137 Y186.2780
G01 X32.3450 Y186.2797
G01 X32.2765 Y186.2847
G01 X32.2083 Y186.2932
G01 X32.1406 Y186.3049
G01 X32.0735 Y186.3200
G01 X32.0073 Y186.3383
G01 X31.9421 Y186.3598
G01 X31.8779 Y186.3846
G01 X31.8151 Y186.4124
G01 X31.7537 Y186.4433
G01 X31.6940 Y186.4772
G01 X31.6359 Y186.5139
G01 X31.5797 Y186.5535
G01 X31.5256 Y186.5958
G01 X31.4735 Y186.6407
G01 X31.4238 Y186.6880
G01 X31.3764 Y186.7378
G01 X31.3315 Y186.7898
G01 X31.2892 Y186.8440
G01 X31.2497 Y186.9002
G01 X31.2129 Y186.9582
G01 X31.1790 Y187.0180
G01 X31.1481 Y187.0794
G01 X31.1203 Y187.1422
G01 X31.0956 Y187.2063
G01 X31.0740 Y187.2716
G01 X31.0557 Y187.3378
G01 X31.0406 Y187.4049
G01 X31.0289 Y187.4726
G01 X31.0205 Y187.5408
G01 X31.0154 Y187.6093
G01 X31.0137 Y187.6780
G01 X31.0154 Y187.7467
G01 X31.0205 Y187.8152
G01 X31.0289 Y187.8834
G01 X31.0406 Y187.9511
G01 X31.0557 Y188.0181
G01 X31.0740 Y188.0844
G01 X31.0956 Y188.1496
G01 X31.1203 Y188.2137
G01 X31.1481 Y188.2765
G01 X31.1790 Y188.3379
G01 X31.2129 Y188.3977
G01 X31.2497 Y188.4558
G01 X31.2892 Y188.5119
G01 X31.3315 Y188.5661
G01 X31.3764 Y188.6181
G01 X31.4238 Y188.6679
G01 X31.4735 Y188.7153
G01 X31.5256 Y188.7602
G01 X31.5797 Y188.8024
G01 X31.6359 Y188.8420
G01 X31.6940 Y188.8788
G01 X31.7537 Y188.9126
G01 X31.8151 Y188.9435
G01 X31.8779 Y188.9714
G01 X31.9421 Y188.9961
G01 X32.0073 Y189.0177
G01 X32.0735 Y189.0360
G01 X32.1406 Y189.0511
G01 X32.2083 Y189.0628
G01 X32.2765 Y189.0712
G01 X32.3450 Y189.0763
G01 X32.4137 Y189.0780
G01 X32.4824 Y189.0763
G01 X32.5509 Y189.0712
G01 X32.6191 Y189.0628
G01 X32.6868 Y189.0511
G01 X32.7539 Y189.0360
G01 X32.8201 Y189.0177
G01 X32.8853 Y188.9961
G01 X32.9494 Y188.9714
G01 X33.0123 Y188.9435
G01 X33.0736 Y188.9126
G01 X33.1334 Y188.8788
G01 X33.1915 Y188.8420
G01 X33.2477 Y188.8024
G01 X33.3018 Y188.7602
G01 X33.3539 Y188.7153
G01 X33.4036 Y188.6679
G01 X33.4510 Y188.6181
G01 X33.4959 Y188.5661
G01 X33.5382 Y188.5119
G01 X33.5777 Y188.4558
G01 X33.6145 Y188.3977
G01 X33.6484 Y188.3379
G01 X33.6793 Y188.2765
G01 X33.7071 Y188.2137
G01 X33.7318 Y188.1496
G01 X33.7534 Y188.0844
G01 X33.7717 Y188.0181
G01 X33.7868 Y187.9511
G01 X33.7985 Y187.8834
G01 X33.8069 Y187.8152
G01 X33.8120 Y187.7467
G01 X33.8137 Y187.6780
G01 X33.8098 Y187.5734
G01 X33.7980 Y187.4693
G01 X33.7786 Y187.3665
G01 X33.7515 Y187.2653
G01 X33.7169 Y187.1665
G01 X33.6750 Y187.0706
G01 X33.6261 Y186.9780
G01 X33.5704 Y186.8893
G01 X33.5082 Y186.8051
G01 X33.4399 Y186.7258
G01 X33.3659 Y186.6517
G01 X33.2866 Y186.5834
G01 X33.2023 Y186.5213
G01 X33.1137 Y186.4656
G01 X33.0211 Y186.4166
G01 X32.9252 Y186.3748
G01 X32.8263 Y186.3402
G01 X32.7252 Y186.3131
G01 X32.6223 Y186.2936
G01 X32.5183 Y186.2819
G01 X32.4137 Y186.2780
G01 X32.3091 Y186.2819
G01 X32.2050 Y186.2936
G01 X32.1022 Y186.3131
G01 X32.0010 Y186.3402
G01 X31.9022 Y186.3748
G01 X31.8063 Y186.4166
G01 X31.7137 Y186.4656
G01 X31.6251 Y186.5213
G01 X31.5408 Y186.5834
G01 X31.4615 Y186.6517
G01 X31.3874 Y186.7258
G01 X31.3191 Y186.8051
G01 X31.2570 Y186.8893
G01 X31.2013 Y186.9780
G01 X31.1524 Y187.0706
G01 X31.1105 Y187.1665
G01 X31.0759 Y187.2653
G01 X31.0488 Y187.3665
G01 X31.0294 Y187.4693
G01 X31.0176 Y187.5734
G01 X31.0137 Y187.6780
G01 X31.0176 Y187.7826
G01 X31.0294 Y187.8866
G01 X31.0488 Y187.9895
G01 X31.0759 Y188.0906
G01 X31.1105 Y188.1894
G01 X31.1524 Y188.2854
G01 X31.2013 Y188.3780
G01 X31.2570 Y188.4666
G01 X31.3191 Y188.5508
G01 X31.3874 Y188.6302
G01 X31.4615 Y188.7042
G01 X31.5408 Y188.7725
G01 X31.6251 Y188.8347
G01 X31.7137 Y188.8904
G01 X31.8063 Y188.9393
G01 X31.9022 Y188.9812
G01 X32.0010 Y189.0158
G01 X32.1022 Y189.0429
G01 X32.2050 Y189.0623
G01 X32.3091 Y189.0740
G01 X32.4137 Y189.0780
G01 X32.5183 Y189.0740
G01 X32.6223 Y189.0623
G01 X32.7252 Y189.0429
G01 X32.8263 Y189.0158
G01 X32.9252 Y188.9812
G01 X33.0211 Y188.9393
G01 X33.1137 Y188.8904
G01 X33.2023 Y188.8347
G01 X33.2866 Y188.7725
G01 X33.3659 Y188.7042
G01 X33.4399 Y188.6302
G01 X33.5082 Y188.5508
G01 X33.5704 Y188.4666
G01 X33.6261 Y188.3780
G01 X33.6750 Y188.2854
G01 X33.7169 Y188.1894
G01 X33.7515 Y188.0906
G01 X33.7786 Y187.9895
G01 X33.7980 Y187.8866
G01 X33.8098 Y187.7826
G01 X33.8137 Y187.6780
G01 X33.8091 Y187.5738
G01 X33.7955 Y187.4705
G01 X33.7729 Y187.3687
G01 X33.7416 Y187.2693
G01 X33.7017 Y187.1730
G01 X33.6536 Y187.0805
G01 X33.5976 Y186.9926
G01 X33.5341 Y186.9099
G01 X33.4637 Y186.8330
G01 X33.3868 Y186.7626
G01 X33.3041 Y186.6991
G01 X33.2162 Y186.6431
G01 X33.1237 Y186.5950
G01 X33.0274 Y186.5551
G01 X32.9280 Y186.5237
G01 X32.8262 Y186.5011
G01 X32.7228 Y186.4875
G01 X32.6187 Y186.4830
G01 X32.5145 Y186.4875
G01 X32.4112 Y186.5011
G01 X32.3094 Y186.5237
G01 X32.2100 Y186.5551
G01 X32.1137 Y186.5950
G01 X32.0212 Y186.6431
G01 X31.9333 Y186.6991
G01 X31.8506 Y186.7626
G01 X31.7737 Y186.8330
G01 X31.7033 Y186.9099
G01 X31.6398 Y186.9926
G01 X31.5838 Y187.0805
G01 X31.5357 Y187.1730
G01 X31.4958 Y187.2693
G01 X31.4644 Y187.3687
G01 X31.4418 Y187.4705
G01 X31.4282 Y187.5738
G01 X31.4237 Y187.6780
G01 X31.4249 Y187.7266
G01 X31.4285 Y187.7750
G01 X31.4344 Y187.8232
G01 X31.4427 Y187.8711
G01 X31.4534 Y187.9185
G01 X31.4663 Y187.9654
G01 X31.4816 Y188.0115
G01 X31.4991 Y188.0568
G01 X31.5187 Y188.1013
G01 X31.5406 Y188.1447
G01 X31.5645 Y188.1869
G01 X31.5905 Y188.2280
G01 X31.6185 Y188.2677
G01 X31.6484 Y188.3060
G01 X31.6801 Y188.3428
G01 X31.7137 Y188.3780
G01 X31.7488 Y188.4115
G01 X31.7856 Y188.4433
G01 X31.8239 Y188.4732
G01 X31.8637 Y188.5011
G01 X31.9047 Y188.5271
G01 X31.9470 Y188.5511
G01 X31.9904 Y188.5729
G01 X32.0348 Y188.5926
G01 X32.0802 Y188.6101
G01 X32.1263 Y188.6253
G01 X32.1731 Y188.6383
G01 X32.2206 Y188.6490
G01 X32.2684 Y188.6573
G01 X32.3167 Y188.6632
G01 X32.3651 Y188.6668
G01 X32.4137 Y188.6680
G01 X32.4623 Y188.6668
G01 X32.5107 Y188.6632
G01 X32.5590 Y188.6573
G01 X32.6068 Y188.6490
G01 X32.6542 Y188.6383
G01 X32.7011 Y188.6253
G01 X32.7472 Y188.6101
G01 X32.7925 Y188.5926
G01 X32.8370 Y188.5729
G01 X32.8804 Y188.5511
G01 X32.9227 Y188.5271
G01 X32.9637 Y188.5011
G01 X33.0034 Y188.4732
G01 X33.0417 Y188.4433
G01 X33.0785 Y188.4115
G01 X33.1137 Y188.3780
G01 X33.1472 Y188.3428
G01 X33.1790 Y188.3060
G01 X33.2089 Y188.2677
G01 X33.2368 Y188.2280
G01 X33.2628 Y188.1869
G01 X33.2868 Y188.1447
G01 X33.3086 Y188.1013
G01 X33.3283 Y188.0568
G01 X33.3458 Y188.0115
G01 X33.3611 Y187.9654
G01 X33.3740 Y187.9185
G01 X33.3847 Y187.8711
G01 X33.3930 Y187.8232
G01 X33.3989 Y187.7750
G01 X33.4025 Y187.7266
G01 X33.4037 Y187.6780
M107
M106 S240
G01 X33.4026 Y187.6309 Z-4.4121 F400
G01 X33.3992 Y187.5839 Z-4.4242
G01 X33.3936 Y187.5371 Z-4.4364
G01 X33.3858 Y187.4906 Z-4.4485
G01 X33.3758 Y187.4446 Z-4.4606
G01 X33.3636 Y187.3991 Z-4.4727
G01 X33.3492 Y187.3542 Z-4.4848
G01 X33.3328 Y187.3100 Z-4.4970
G01 X33.3142 Y187.2667 Z-4.5091
G01 X33.2936 Y187.2243 Z-4.5212
G01 X33.2711 Y187.1830 Z-4.5333
G01 X33.2465 Y187.1427 Z-4.5455
G01 X33.2201 Y187.1037 Z-4.5576
G01 X33.1919 Y187.0660 Z-4.5697
G01 X33.1619 Y187.0297 Z-4.5818
G01 X33.1302 Y186.9948 Z-4.5939
G01 X33.0969 Y186.9615 Z-4.6061
G01 X33.0620 Y186.9298 Z-4.6182
G01 X33.0257 Y186.8998 Z-4.6303
G01 X32.9879 Y186.8715 Z-4.6424
G01 X32.9489 Y186.8451 Z-4.6545
G01 X32.9087 Y186.8206 Z-4.6667
G01 X32.8673 Y186.7980 Z-4.6788
G01 X32.8250 Y186.7774 Z-4.6909
G01 X32.7816 Y186.7589 Z-4.7030
G01 X32.7375 Y186.7424 Z-4.7152
G01 X32.6926 Y186.7281 Z-4.7273
G01 X32.6471 Y186.7159 Z-4.7394
G01 X32.6011 Y186.7059 Z-4.7515
G01 X32.5546 Y186.6981 Z-4.7636
G01 X32.5078 Y186.6925 Z-4.7758
G01 X32.4608 Y186.6891 Z-4.7879
G01 X32.4137 Y186.6880 Z-4.8000
G01 X32.3666 Y186.6891 Z-4.8121
G01 X32.3196 Y186.6925 Z-4.8242
G01 X32.2728 Y186.6981 Z-4.8364
G01 X32.2263 Y186.7059 Z-4.8485
G01 X32.1803 Y186.7159 Z-4.8606
G01 X32.1348 Y186.7281 Z-4.8727
G01 X32.0899 Y186.7424 Z-4.8848
G01 X32.0457 Y186.7589 Z-4.8970
G01 X32.0024 Y186.7774 Z-4.9091
G01 X31.9600 Y186.7980 Z-4.9212
G01 X31.9187 Y186.8206 Z-4.9333
G01 X31.8785 Y186.8451 Z-4.9455
G01 X31.8394 Y186.8715 Z-4.9576
G01 X31.8017 Y186.8998 Z-4.9697
G01 X31.7654 Y186.9298 Z-4.9818
G01 X31.7305 Y186.9615 Z-4.9939
G01 X31.6972 Y186.9948 Z-5.0061
G01 X31.6655 Y187.0297 Z-5.0182
G01 X31.6355 Y187.0660 Z-5.0303
G01 X31.6073 Y187.1037 Z-5.0424
G01 X31.5809 Y187.1427 Z-5.0545
G01 X31.5563 Y187.1830 Z-5.0667
G01 X31.5337 Y187.2243 Z-5.0788
G01 X31.5132 Y187.2667 Z-5.0909
G01 X31.4946 Y187.3100 Z-5.1030
G01 X31.4781 Y187.3542 Z-5.1152
G01 X31.4638 Y187.3991 Z-5.1273
G01 X31.4516 Y187.4446 Z-5.1394
G01 X31.4416 Y187.4906 Z-5.1515
G01 X31.4338 Y187.5371 Z-5.1636
G01 X31.4282 Y187.5839 Z-5.1758
G01 X31.4248 Y187.6309 Z-5.1879
G01 X31.4237 Y187.6780 Z-5.2000
G01 X31.4248 Y187.7251 Z-5.2121
G01 X31.4282 Y187.7721 Z-5.2242
G01 X31.4338 Y187.8189 Z-5.2364
G01 X31.4416 Y187.8653 Z-5.2485
G01 X31.4516 Y187.9114 Z-5.2606
G01 X31.4638 Y187.9569 Z-5.2727
G01 X31.4781 Y188.0018 Z-5.2848
G01 X31.4946 Y188.0459 Z-5.2970
G01 X31.5132 Y188.0892 Z-5.3091
G01 X31.5337 Y188.1316 Z-5.3212
G01 X31.5563 Y188.1730 Z-5.3333
G01 X31.5809 Y188.2132 Z-5.3455
G01 X31.6073 Y188.2522 Z-5.3576
G01 X31.6355 Y188.2900 Z-5.3697
G01 X31.6655 Y188.3263 Z-5.3818
G01 X31.6972 Y188.3612 Z-5.3939
G01 X31.7305 Y188.3945 Z-5.4061
G01 X31.7654 Y188.4262 Z-5.4182
G01 X31.8017 Y188.4562 Z-5.4303
G01 X31.8394 Y188.4844 Z-5.4424
G01 X31.8785 Y188.5108 Z-5.4545
G01 X31.9187 Y188.5353 Z-5.4667
G01 X31.9600 Y188.5579 Z-5.4788
G01 X32.0024 Y188.5785 Z-5.4909
G01 X32.0457 Y188.5971 Z-5.5030
G01 X32.0899 Y188.6135 Z-5.5152
G01 X32.1348 Y188.6279 Z-5.5273
G01 X32.1803 Y188.6401 Z-5.5394
G01 X32.2263 Y188.6501 Z-5.5515
G01 X32.2728 Y188.6579 Z-5.5636
G01 X32.3196 Y188.6635 Z-5.5758
G01 X32.3666 Y188.6669 Z-5.5879
G01 X32.4137 Y188.6680 Z-5.6000
G01 X32.4608 Y188.6669 Z-5.6121
G01 X32.5078 Y188.6635 Z-5.6242
G01 X32.5546 Y188.6579 Z-5.6364
G01 X32.6011 Y188.6501 Z-5.6485
G01 X32.6471 Y188.6401 Z-5.6606
G01 X32.6926 Y188.6279 Z-5.6727
G01 X32.7375 Y188.6135 Z-5.6848
G01 X32.7816 Y188.5971 Z-5.6970
G01 X32.8250 Y188.5785 Z-5.7091
G01 X32.8673 Y188.5579 Z-5.7212
G01 X32.9087 Y188.5353 Z-5.7333
G01 X32.9489 Y188.5108 Z-5.7455
G01 X32.9879 Y188.4844 Z-5.7576
G01 X33.0257 Y188.4562 Z-5.7697
G01 X33.0620 Y188.4262 Z-5.7818
G01 X33.0969 Y188.3945 Z-5.7939
G01 X33.1302 Y188.3612 Z-5.8061
G01 X33.1619 Y188.3263 Z-5.8182
G01 X33.1919 Y188.2900 Z-5.8303
G01 X33.2201 Y188.2522 Z-5.8424
G01 X33.2465 Y188.2132 Z-5.8545
G01 X33.2711 Y188.1730 Z-5.8667
G01 X33.2936 Y188.1316 Z-5.8788
G01 X33.3142 Y188.0892 Z-5.8909
G01 X33.3328 Y188.0459 Z-5.9030
G01 X33.3492 Y188.0018 Z-5.9152
G01 X33.3636 Y187.9569 Z-5.9273
G01 X33.3758 Y187.9114 Z-5.9394
G01 X33.3858 Y187.8653 Z-5.9515
G01 X33.3936 Y187.8189 Z-5.9636
G01 X33.3992 Y187.7721 Z-5.9758
G01 X33.4026 Y187.7251 Z-5.9879
G01 X33.4037 Y187.6780 Z-6.0000
G01 X33.4026 Y187.6309
G01 X33.3992 Y187.5839
G01 X33.3936 Y187.5371
G01 X33.3858 Y187.4906
G01 X33.3758 Y187.4446
G01 X33.3636 Y187.3991
G01 X33.3492 Y187.3542
G01 X33.3328 Y187.3100
G01 X33.3142 Y187.2667
G01 X33.2936 Y187.2243
G01 X33.2711 Y187.1830
G01 X33.2465 Y187.1427
G01 X33.2201 Y187.1037
G01 X33.1919 Y187.0660
G01 X33.1619 Y187.0297
G01 X33.1302 Y186.9948
G01 X33.0969 Y186.9615
G01 X33.0620 Y186.9298
G01 X33.0257 Y186.8998
G01 X32.9879 Y186.8715
G01 X32.9489 Y186.8451
G01 X32.9087 Y186.8206
G01 X32.8673 Y186.7980
G01 X32.8250 Y186.7774
G01 X32.7816 Y186.7589
G01 X32.7375 Y186.7424
G01 X32.6926 Y186.7281
G01 X32.6471 Y186.7159
G01 X32.6011 Y186.7059
G01 X32.5546 Y186.6981
G01 X32.5078 Y186.6925
G01 X32.4608 Y186.6891
G01 X32.4137 Y186.6880
G01 X32.3666 Y186.6891
G01 X32.3196 Y186.6925
G01 X32.2728 Y186.6981
G01 X32.2263 Y186.7059
G01 X32.1803 Y186.7159
G01 X32.1348 Y186.7281
G01 X32.0899 Y186.7424
G01 X32.0457 Y186.7589
G01 X32.0024 Y186.7774
G01 X31.9600 Y186.7980
G01 X31.9187 Y186.8206
G01 X31.8785 Y186.8451
G01 X31.8394 Y186.8715
G01 X31.8017 Y186.8998
G01 X31.7654 Y186.9298
G01 X31.7305 Y186.9615
G01 X31.6972 Y186.9948
G01 X31.6655 Y187.0297
G01 X31.6355 Y187.0660
G01 X31.6073 Y187.1037
G01 X31.5809 Y187.1427
G01 X31.5563 Y187.1830
G01 X31.5337 Y187.2243
G01 X31.5132 Y187.2667
G01 X31.4946 Y187.3100
G01 X31.4781 Y187.3542
G01 X31.4638 Y187.3991
G01 X31.4516 Y187.4446
G01 X31.4416 Y187.4906
G01 X31.4338 Y187.5371
G01 X31.4282 Y187.5839
G01 X31.4248 Y187.6309
G01 X31.4237 Y187.6780
G01 X31.4248 Y187.7251
G01 X31.4282 Y187.7721
G01 X31.4338 Y187.8189
G01 X31.4416 Y187.8653
G01 X31.4516 Y187.9114
G01 X31.4638 Y187.9569
G01 X31.4781 Y188.0018
G01 X31.4946 Y188.0459
G01 X31.5132 Y188.0892
G01 X31.5337 Y188.1316
G01 X31.5563 Y188.1730
G01 X31.5809 Y188.2132
G01 X31.6073 Y188.2522
G01 X31.6355 Y188.2900
G01 X31.6655 Y188.3263
G01 X31.6972 Y188.3612
G01 X31.7305 Y188.3945
G01 X31.7654 Y188.4262
G01 X31.8017 Y188.4562
G01 X31.8394 Y188.4844
G01 X31.8785 Y188.5108
G01 X31.9187 Y188.5353
G01 X31.9600 Y188.5579
G01 X32.0024 Y188.5785
G01 X32.0457 Y188.5971
G01 X32.0899 Y188.6135
G01 X32.1348 Y188.6279
G01 X32.1803 Y188.6401
G01 X32.2263 Y188.6501
G01 X32.2728 Y188.6579
G01 X32.3196 Y188.6635
G01 X32.3666 Y188.6669
G01 X32.4137 Y188.6680
G01 X32.4608 Y188.6669
G01 X32.5078 Y188.6635
G01 X32.5546 Y188.6579
G01 X32.6011 Y188.6501
G01 X32.6471 Y188.6401
G01 X32.6926 Y188.6279
G01 X32.7375 Y188.6135
G01 X32.7816 Y188.5971
G01 X32.8250 Y188.5785
G01 X32.8673 Y188.5579
G01 X32.9087 Y188.5353
G01 X32.9489 Y188.5108
G01 X32.9879 Y188.4844
G01 X33.0257 Y188.4562
G01 X33.0620 Y188.4262
G01 X33.0969 Y188.3945
G01 X33.1302 Y188.3612
G01 X33.1619 Y188.3263
G01 X33.1919 Y188.2900
G01 X33.2201 Y188.2522
G01 X33.2465 Y188.2132
G01 X33.2711 Y188.1730
G01 X33.2936 Y188.1316
G01 X33.3142 Y188.0892
G01 X33.3328 Y188.0459
G01 X33.3492 Y188.0018
G01 X33.3636 Y187.9569
G01 X33.3758 Y187.9114
G01 X33.3858 Y187.8653
G01 X33.3936 Y187.8189
G01 X33.3992 Y187.7721
G01 X33.4026 Y187.7251
G01 X33.4037 Y187.6780
G01 X33.4157 Y187.6266 F1000
G01 X33.4250 Y187.5747
G01 X33.4316 Y187.5224
G01 X33.4355 Y187.4699
G01 X33.4366 Y187.4171
G01 X33.4350 Y187.3644
G01 X33.4307 Y187.3119
G01 X33.4236 Y187.2597
G01 X33.4129 Y187.2030
G01 X33.3994 Y187.1470
G01 X33.3830 Y187.0917
G01 X33.3637 Y187.0374
G01 X33.3417 Y186.9841
G01 X33.3169 Y186.9321
G01 X33.2895 Y186.8813
G01 X33.2596 Y186.8321
G01 X33.2243 Y186.7804
G01 X33.1865 Y186.7305
G01 X33.1462 Y186.6826
G01 X33.1035 Y186.6369
G01 X33.0585 Y186.5934
G01 X33.0113 Y186.5523
G01 X32.9621 Y186.5136
G01 X32.9109 Y186.4775
G01 X32.8538 Y186.4417
G01 X32.7949 Y186.4089
G01 X32.7344 Y186.3791
G01 X32.6725 Y186.3524
G01 X32.6093 Y186.3289
G01 X32.5450 Y186.3086
G01 X32.4797 Y186.2916
G01 X32.4137 Y186.2780
G01 X32.3450 Y186.2797
G01 X32.2765 Y186.2847
G01 X32.2083 Y186.2932
G01 X32.1406 Y186.3049
G01 X32.0735 Y186.3200
G01 X32.0073 Y186.3383
G01 X31.9421 Y186.3598
G01 X31.8779 Y186.3846
G01 X31.8151 Y186.4124
G01 X31.7537 Y186.4433
G01 X31.6940 Y186.4772
G01 X31.6359 Y186.5139
G01 X31.5797 Y186.5535
G01 X31.5256 Y186.5958
G01 X31.4735 Y186.6407
G01 X31.4238 Y186.6880
G01 X31.3764 Y186.7378
G01 X31.3315 Y186.7898
G01 X31.2892 Y186.8440
G01 X31.2497 Y186.9002
G01 X31.2129 Y186.9582
G01 X31.1790 Y187.0180
G01 X31.1481 Y187.0794
G01 X31.1203 Y187.1422
G01 X31.0956 Y187.2063
G01 X31.0740 Y187.2716
G01 X31.0557 Y187.3378
G01 X31.0406 Y187.4049
G01 X31.0289 Y187.4726
G01 X31.0205 Y187.5408
G01 X31.0154 Y187.6093
G01 X31.0137 Y187.6780
G01 X31.0154 Y187.7467
G01 X31.0205 Y187.8152
G01 X31.0289 Y187.8834
G01 X31.0406 Y187.9511
G01 X31.0557 Y188.0181
G01 X31.0740 Y188.0844
G01 X31.0956 Y188.1496
G01 X31.1203 Y188.2137
G01 X31.1481 Y188.2765
G01 X31.1790 Y188.3379
G01 X31.2129 Y188.3977
G01 X31.2497 Y188.4558
G01 X31.2892 Y188.5119
G01 X31.3315 Y188.5661
G01 X31.3764 Y188.6181
G01 X31.4238 Y188.6679
G01 X31.4735 Y188.7153
G01 X31.5256 Y188.7602
G01 X31.5797 Y188.8024
G01 X31.6359 Y188.8420
G01 X31.6940 Y188.8788
G01 X31.7537 Y188.9126
G01 X31.8151 Y188.9435
G01 X31.8779 Y188.9714
G01 X31.9421 Y188.9961
G01 X32.0073 Y189.0177
G01 X32.0735 Y189.0360
G01 X32.1406 Y189.0511
G01 X32.2083 Y189.0628
G01 X32.2765 Y189.0712
G01 X32.3450 Y189.0763
G01 X32.4137 Y189.0780
G01 X32.4824 Y189.0763
G01 X32.5509 Y189.0712
G01 X32.6191 Y189.0628
G01 X32.6868 Y189.0511
G01 X32.7539 Y189.0360
G01 X32.8201 Y189.0177
G01 X32.8853 Y188.9961
G01 X32.9494 Y188.9714
G01 X33.0123 Y188.9435
G01 X33.0736 Y188.9126
G01 X33.1334 Y188.8788
G01 X33.1915 Y188.8420
G01 X33.2477 Y188.8024
G01 X33.3018 Y188.7602
G01 X33.3539 Y188.7153
G01 X33.4036 Y188.6679
G01 X33.4510 Y188.6181
G01 X33.4959 Y188.5661
G01 X33.5382 Y188.5119
G01 X33.5777 Y188.4558
G01 X33.6145 Y188.3977
G01 X33.6484 Y188.3379
G01 X33.6793 Y188.2765
G01 X33.7071 Y188.2137
G01 X33.7318 Y188.1496
G01 X33.7534 Y188.0844
G01 X33.7717 Y188.0181
G01 X33.7868 Y187.9511
G01 X33.7985 Y187.8834
G01 X33.8069 Y187.8152
G01 X33.8120 Y187.7467
G01 X33.8137 Y187.6780
G01 X33.8098 Y187.5734
G01 X33.7980 Y187.4693
G01 X33.7786 Y187.3665
G01 X33.7515 Y187.2653
G01 X33.7169 Y187.1665
G01 X33.6750 Y187.0706
G01 X33.6261 Y186.9780
G01 X33.5704 Y186.8893
G01 X33.5082 Y186.8051
G01 X33.4399 Y186.7258
G01 X33.3659 Y186.6517
G01 X33.2866 Y186.5834
G01 X33.2023 Y186.5213
G01 X33.1137 Y186.4656
G01 X33.0211 Y186.4166
G01 X32.9252 Y186.3748
G01 X32.8263 Y186.3402
G01 X32.7252 Y186.3131
G01 X32.6223 Y186.2936
G01 X32.5183 Y186.2819
G01 X32.4137 Y186.2780
G01 X32.3091 Y186.2819
G01 X32.2050 Y186.2936
G01 X32.1022 Y186.3131
G01 X32.0010 Y186.3402
G01 X31.9022 Y186.3748
G01 X31.8063 Y186.4166
G01 X31.7137 Y186.4656
G01 X31.6251 Y186.5213
G01 X31.5408 Y186.5834
G01 X31.4615 Y186.6517
G01 X31.3874 Y186.7258
G01 X31.3191 Y186.8051
G01 X31.2570 Y186.8893
G01 X31.2013 Y186.9780
G01 X31.1524 Y187.0706
G01 X31.1105 Y187.1665
G01 X31.0759 Y187.2653
G01 X31.0488 Y187.3665
G01 X31.0294 Y187.4693
G01 X31.0176 Y187.5734
G01 X31.0137 Y187.6780
G01 X31.0176 Y187.7826
G01 X31.0294 Y187.8866
G01 X31.0488 Y187.9895
G01 X31.0759 Y188.0906
G01 X31.1105 Y188.1894
G01 X31.1524 Y188.2854
G01 X31.2013 Y188.3780
G01 X31.2570 Y188.4666
G01 X31.3191 Y188.5508
G01 X31.3874 Y188.6302
G01 X31.4615 Y188.7042
G01 X31.5408 Y188.7725
G01 X31.6251 Y188.8347
G01 X31.7137 Y188.8904
G01 X31.8063 Y188.9393
G01 X31.9022 Y188.9812
G01 X32.0010 Y189.0158
G01 X32.1022 Y189.0429
G01 X32.2050 Y189.0623
G01 X32.3091 Y189.0740
G01 X32.4137 Y189.0780
G01 X32.5183 Y189.0740
G01 X32.6223 Y189.0623
G01 X32.7252 Y189.0429
G01 X32.8263 Y189.0158
G01 X32.9252 Y188.9812
G01 X33.0211 Y188.9393
G01 X33.1137 Y188.8904
G01 X33.2023 Y188.8347
G01 X33.2866 Y188.7725
G01 X33.3659 Y188.7042
G01 X33.4399 Y188.6302
G01 X33.5082 Y188.5508
G01 X33.5704 Y188.4666
G01 X33.6261 Y188.3780
G01 X33.6750 Y188.2854
G01 X33.7169 Y188.1894
G01 X33.7515 Y188.0906
G01 X33.7786 Y187.9895
G01 X33.7980 Y187.8866
G01 X33.8098 Y187.7826
G01 X33.8137 Y187.6780
M107
M106 S240
G01 X33.8103 Y187.5917 Z-5.9750 F400
M107
M106 S240
G01 X33.8001 Y187.5059 Z-5.9500
M107
M106 S240
G01 X33.7833 Y187.4212 Z-5.9250
M107
M106 S240
G01 X33.7598 Y187.3381 Z-5.9000
M107
M106 S240
G01 X33.7299 Y187.2570 Z-5.8750
M107
M106 S240
G01 X33.6938 Y187.1786 Z-5.8500
M107
M106 S240
G01 X33.6516 Y187.1032 Z-5.8250
M107
M106 S240
G01 X33.6036 Y187.0314 Z-5.8000
M107
M106 S240
G01 X33.5501 Y186.9636 Z-5.7750
M107
M106 S240
G01 X33.4915 Y186.9002 Z-5.7500
M107
M106 S240
G01 X33.4281 Y186.8415 Z-5.7250
M107
M106 S240
G01 X33.3602 Y186.7881 Z-5.7000
M107
M106 S240
G01 X33.2884 Y186.7401 Z-5.6750
M107
M106 S240
G01 X33.2131 Y186.6979 Z-5.6500
M107
M106 S240
G01 X33.1346 Y186.6617 Z-5.6250
M107
M106 S240
G01 X33.0536 Y186.6318 Z-5.6000
M107
M106 S240
G01 X32.9705 Y186.6084 Z-5.5750
M107
M106 S240
G01 X32.8857 Y186.5915 Z-5.5500
M107
M106 S240
G01 X32.8000 Y186.5814 Z-5.5250
M107
M106 S240
G01 X32.7137 Y186.5780 Z-5.5000
M107
G00 Z2.0000


;No. 2: Hole 2
G00 X44.3389 Y173.2355 Z2.0000
G00 Z0.5000
G01 Z-1.8000 F400
M106 S240
G01 X45.6272 F1000
G01 Y174.8855
G01 X43.5122
G01 X49.8244
G01 Y176.5355
G01 X54.5196
G01 X42.7207
G01 X46.2874
G01 Y178.1855
G01 X59.9241
G01 Y179.8355
G01 X66.4544
G01 X51.1391
G01 X56.6237
G01 Y181.4855
G01 X75.1730
G01 X63.0245
G01 Y183.1355
G01 X131.3924
G01 Y181.4855
G01 X137.7571
G01 X119.2082
G01 X127.8759
G01 Y179.8355
G01 X143.2230
G01 Y178.1855
G01 X148.0883
G01 X134.4314
G01 X139.8714
G01 Y176.5355
G01 X151.6649
G01 X150.8906 Y174.8855
G01 X144.5789
G01 X148.7517
G01 Y173.2355
G01 X150.0797
M107
G00 Z2.0000
G00 X123.4602 Y183.1355
G00 Z0.5000
G01 Z-1.8000 F400
M106 S240
G01 Y184.7855 F1000
G01 X70.9727
G01 X82.7365
G01 Y186.4355
G01 X111.6613
M107
G00 Z2.0000
G00 Z0.5000
G01 Z-1.8000 F400
M106 S240
G01 X111.6832 Y186.6546 F1000
G01 X111.8260 Y186.6403
G01 X113.8908 Y186.4163
G01 X115.9524 Y186.1644
G01 X118.0104 Y185.8846
G01 X120.0644 Y185.5769
G01 X122.1141 Y185.2414
G01 X124.1590 Y184.8782
G01 X126.1988 Y184.4873
G01 X128.2331 Y184.0688
G01 X130.2616 Y183.6227
G01 X132.2839 Y183.1492
G01 X134.2995 Y182.6483
G01 X136.3081 Y182.1202
G01 X138.3095 Y181.5649
G01 X140.3031 Y180.9825
G01 X142.2886 Y180.3731
G01 X144.2657 Y179.7369
G01 X146.2340 Y179.0739
G01 X148.1931 Y178.3844
G01 X150.1427 Y177.6683
G01 X152.0824 Y176.9259
G01 X151.5752 Y175.8083
G01 X151.0492 Y174.6995
G01 X150.5045 Y173.5997
G01 X149.9412 Y172.5093
G01 X149.7263 Y172.5942
G01 X147.9412 Y173.3318
G01 X146.1453 Y174.0427
G01 X144.3390 Y174.7270
G01 X142.5228 Y175.3844
G01 X140.6971 Y176.0148
G01 X138.8622 Y176.6180
G01 X137.0185 Y177.1939
G01 X135.1665 Y177.7424
G01 X133.3066 Y178.2634
G01 X131.4391 Y178.7567
G01 X129.5646 Y179.2223
G01 X127.6833 Y179.6600
G01 X125.7958 Y180.0697
G01 X123.9023 Y180.4514
G01 X122.0035 Y180.8050
G01 X120.0995 Y181.1303
G01 X118.1910 Y181.4274
G01 X116.2783 Y181.6961
G01 X114.3618 Y181.9364
G01 X112.4419 Y182.1482
G01 X110.9284 Y182.2972
G01 X109.4133 Y182.4275
G01 X107.8966 Y182.5391
G01 X106.3786 Y182.6319
G01 X104.8596 Y182.7060
G01 X103.3399 Y182.7612
G01 X101.8195 Y182.7977
G01 X100.2988 Y182.8154
G01 X98.9235 Y182.8416
G01 X97.5480 Y182.8565
G01 X96.1724 Y182.8600
G01 X94.7968 Y182.8522
G01 X93.4213 Y182.8331
G01 X92.0460 Y182.8026
G01 X90.6711 Y182.7608
G01 X89.2965 Y182.7077
G01 X87.1599 Y182.5885
G01 X85.0256 Y182.4347
G01 X82.8940 Y182.2464
G01 X80.7658 Y182.0234
G01 X78.6414 Y181.7660
G01 X76.5215 Y181.4742
G01 X74.4067 Y181.1480
G01 X72.2973 Y180.7876
G01 X70.1942 Y180.3931
G01 X68.0976 Y179.9645
G01 X66.0083 Y179.5019
G01 X63.9268 Y179.0055
G01 X61.8536 Y178.4755
G01 X59.7893 Y177.9119
G01 X57.7344 Y177.3149
G01 X55.6894 Y176.6846
G01 X54.2688 Y176.2188
G01 X52.8533 Y175.7378
G01 X51.4430 Y175.2416
G01 X50.0382 Y174.7302
G01 X48.6389 Y174.2039
G01 X47.2453 Y173.6625
G01 X45.8576 Y173.1062
G01 X44.4760 Y172.5351
G01 X44.4528 Y172.5451
G01 X43.8900 Y173.6294
G01 X43.3452 Y174.7229
G01 X42.8187 Y175.8253
G01 X42.3105 Y176.9362
G01 X44.4561 Y177.7549
G01 X46.6138 Y178.5412
G01 X48.7831 Y179.2950
G01 X50.9634 Y180.0162
G01 X53.1543 Y180.7045
G01 X55.3553 Y181.3599
G01 X57.5658 Y181.9822
G01 X59.7855 Y182.5712
G01 X62.0138 Y183.1269
G01 X64.2501 Y183.6490
G01 X66.4941 Y184.1375
G01 X68.7451 Y184.5922
G01 X71.0027 Y185.0131
G01 X73.2663 Y185.4001
G01 X75.5355 Y185.7530
G01 X77.8098 Y186.0719
G01 X80.0886 Y186.3565
G01 X82.3714 Y186.6069
G01 X84.6577 Y186.8230
G01 X86.9469 Y187.0048
G01 X89.2387 Y187.1522
G01 X91.5324 Y187.2652
G01 X93.8276 Y187.3437
G01 X96.1236 Y187.3877
G01 X98.0717 Y187.3908
G01 X100.0197 Y187.3668
G01 X101.9671 Y187.3157
G01 X103.9136 Y187.2376
G01 X105.8589 Y187.1323
G01 X107.8025 Y187.0001
G01 X109.7441 Y186.8408
G01 X111.6832 Y186.6546
G01 X111.6613 Y186.4355
M107
G00 Z2.0000


;No. 3: Hole 3
G00 X97.9470 Y88.2817 Z2.0000
G00 Z0.5000
G01 Z-1.8000 F400
M106 S240
G01 X96.4277 F1000
G01 X96.1321 Y89.9317
G01 X98.2398
G01 X98.5326 Y91.5817
G01 X95.8366
G01 X95.5411 Y93.2317
G01 X98.8257
G01 X99.1190 Y94.8817
G01 X95.2455
G01 X94.9500 Y96.5317
G01 X99.4123
G01 X99.7057 Y98.1817
G01 X94.6544
G01 X94.3589 Y99.8317
G01 X99.9990
G01 X100.2923 Y101.4817
G01 X94.0634
G01 X93.7678 Y103.1317
G01 X100.5859
G01 X100.8795 Y104.7817
G01 X93.4723
G01 X93.1767 Y106.4317
G01 X101.1732
G01 X101.4668 Y108.0817
G01 X92.8812
G01 X92.5856 Y109.7317
G01 X101.7605
G01 X102.0542 Y111.3817
G01 X92.2901
G01 X91.9946 Y113.0317
G01 X102.3478
G01 X102.6417 Y114.6817
G01 X91.6990
G01 X91.4035 Y116.3317
G01 X102.9357
G01 X103.2296 Y117.9817
G01 X91.1079
G01 X90.8124 Y119.6317
G01 X103.5236
G01 X103.8175 Y121.2817
G01 X90.5168
G01 X90.2213 Y122.9317
G01 X104.1115
G01 X104.4055 Y124.5817
G01 X89.9258
G01 X89.6302 Y126.2317
G01 X104.6995
G01 X104.9938 Y127.8817
G01 X89.3347
G01 X89.0391 Y129.5317
G01 X105.2880
G01 X105.5822 Y131.1817
G01 X88.7436
G01 X88.4480 Y132.8317
G01 X105.8765
G01 X106.1707 Y134.4817
G01 X88.1525
G01 X87.8570 Y136.1317
G01 X106.4650
G01 X106.7593 Y137.7817
G01 X87.5614
G01 X87.2659 Y139.4317
G01 X107.0539
G01 X107.3485 Y141.0817
G01 X86.9703
G01 X86.6748 Y142.7317
G01 X107.6430
G01 X107.9376 Y144.3817
G01 X86.3792
G01 X86.0837 Y146.0317
G01 X108.2322
G01 X108.5268 Y147.6817
G01 X85.7882
G01 X85.4926 Y149.3317
G01 X108.8218
G01 X109.1168 Y150.9817
G01 X85.1971
G01 X84.9015 Y152.6317
G01 X109.4118
G01 X109.7068 Y154.2817
G01 X84.6060
G01 X84.3105 Y155.9317
G01 X110.0020
G01 X110.2978 Y157.5817
G01 X84.0149
G01 X83.7194 Y159.2317
G01 X110.5937
G01 X110.8895 Y160.8817
G01 X83.4238
G01 X83.1283 Y162.5317
G01 X96.3603
G01 X94.9007 Y164.1817
G01 X82.8327
G01 X82.3946 Y165.8317
G01 X93.5152
G01 X92.1436 Y167.4817
G01 X47.8876
G01 X49.2738 Y165.8317
G01 X70.4993
G01 X64.3648
G01 Y164.1817
G01 X51.0148
G01 X53.0901
G01 Y162.5317
G01 X62.0308
G01 X60.7809 Y160.8817
G01 X55.5482
G01 X58.5021
G01 Y159.2317
G01 X60.0687
M107
G00 Z2.0000
G00 X98.1610 Y160.8817
G00 Z0.5000
G01 Z-1.8000 F400
M106 S240
G01 Y162.5317 F1000
G01 X111.1862
G01 X111.4839 Y164.1817
G01 X99.5339
G01 X100.8896 Y165.8317
G01 X111.9543
G01 X102.2452
G01 Y167.4817
G01 X146.5104
G01 X145.1098 Y165.8317
G01 X123.8814
G01 X129.9993
G01 Y164.1817
G01 X143.3587
G01 X141.2848
G01 Y162.5317
G01 X132.3474
G01 X133.5939 Y160.8817
G01 X138.8411
G01 X135.8361
G01 Y159.2317
G01 X134.2945
M107
G00 Z2.0000
G00 X90.7826 Y167.4817
G00 Z0.5000
G01 Z-1.8000 F400
M106 S240
G01 Y169.1317 F1000
G01 X51.8582
G01 X56.4672
G01 Y170.7817
G01 X89.4279
G01 X88.0738 Y172.4317
G01 X61.9617
G01 X68.8418
G01 Y174.0817
G01 X86.7197
G01 X85.3655 Y175.7317
G01 X78.9542
M107
G00 Z2.0000
G00 X103.6008 Y167.4817
G00 Z0.5000
G01 Z-1.8000 F400
M106 S240
G01 Y169.1317 F1000
G01 X142.4866
G01 X137.8821
G01 Y170.7817
G01 X104.9565
G01 X106.3142 Y172.4317
G01 X132.4231
G01 X125.5780
G01 Y174.0817
G01 X107.6759
G01 X109.0442 Y175.7317
G01 X115.4123
M107
G00 Z2.0000
G00 Z0.5000
G01 Z-1.8000 F400
M106 S240
G01 X115.4374 Y175.9502 F1000
G01 X117.2451 Y175.7281
G01 X119.0489 Y175.4765
G01 X120.8483 Y175.1956
G01 X122.6430 Y174.8854
G01 X124.4323 Y174.5460
G01 X126.2159 Y174.1775
G01 X127.9932 Y173.7800
G01 X129.7639 Y173.3536
G01 X131.5273 Y172.8984
G01 X133.2831 Y172.4146
G01 X135.0308 Y171.9022
G01 X136.7699 Y171.3614
G01 X138.5000 Y170.7923
G01 X140.2206 Y170.1952
G01 X141.9312 Y169.5701
G01 X143.6314 Y168.9172
G01 X144.4548 Y168.5974
G01 X145.2724 Y168.2628
G01 X146.0838 Y167.9135
G01 X146.8887 Y167.5496
G01 X146.2647 Y166.7913
G01 X145.6135 Y166.0562
G01 X144.9359 Y165.3454
G01 X144.2329 Y164.6598
G01 X143.5053 Y164.0002
G01 X142.7541 Y163.3677
G01 X141.9804 Y162.7629
G01 X141.1852 Y162.1867
G01 X140.5579 Y161.7401
G01 X139.9207 Y161.3076
G01 X139.2741 Y160.8895
G01 X138.6182 Y160.4860
G01 X137.9534 Y160.0973
G01 X137.2802 Y159.7235
G01 X136.5987 Y159.3649
G01 X135.9094 Y159.0216
G01 X135.5171 Y158.8232
G01 X135.1235 Y158.6273
G01 X134.7287 Y158.4340
G01 X134.3327 Y158.2432
G01 X134.2165 Y158.7573
G01 X134.0677 Y159.2630
G01 X133.8871 Y159.7582
G01 X133.6753 Y160.2409
G01 X133.4331 Y160.7091
G01 X133.1617 Y161.1610
G01 X132.8620 Y161.5946
G01 X132.5353 Y162.0082
G01 X132.1430 Y162.4108
G01 X131.7266 Y162.7884
G01 X131.2878 Y163.1396
G01 X130.8280 Y163.4630
G01 X130.3492 Y163.7573
G01 X129.8531 Y164.0216
G01 X129.3416 Y164.2547
G01 X128.8168 Y164.4558
G01 X128.1661 Y164.6754
G01 X127.5093 Y164.8757
G01 X126.8469 Y165.0565
G01 X126.1794 Y165.2177
G01 X125.5074 Y165.3592
G01 X124.8316 Y165.4807
G01 X124.1524 Y165.5823
G01 X123.4706 Y165.6637
G01 X122.2084 Y165.8048
G01 X120.9429 Y165.9111
G01 X119.6748 Y165.9825
G01 X118.4053 Y166.0191
G01 X117.0835 Y166.0726
G01 X115.7610 Y166.1064
G01 X114.4381 Y166.1205
G01 X113.1151 Y166.1148
G01 X113.0109 Y166.1187
G01 X112.9067 Y166.1132
G01 X112.8034 Y166.0981
G01 X112.7020 Y166.0738
G01 X112.6031 Y166.0403
G01 X112.5077 Y165.9980
G01 X112.4166 Y165.9473
G01 X112.3304 Y165.8884
G01 X112.2500 Y165.8220
G01 X112.1759 Y165.7485
G01 X112.1088 Y165.6686
G01 X112.0492 Y165.5829
G01 X111.9977 Y165.4922
G01 X111.9546 Y165.3972
G01 X111.9203 Y165.2987
G01 X111.8951 Y165.1974
G01 X111.7312 Y164.3136
G01 X111.4131 Y162.5525
G01 X110.3075 Y156.3903
G01 X107.7901 Y142.3054
G01 X104.4927 Y123.8180
G01 X100.4172 Y100.9277
G01 X98.6957 Y91.2427
G01 X97.2863 Y83.2983
G01 X97.1894 Y82.7813
G01 X82.4236 Y165.2182
G01 X82.4022 Y165.3161
G01 X82.3723 Y165.4117
G01 X82.3340 Y165.5043
G01 X82.2877 Y165.5932
G01 X82.2338 Y165.6776
G01 X82.1726 Y165.7569
G01 X82.1046 Y165.8305
G01 X82.0304 Y165.8979
G01 X81.9506 Y165.9584
G01 X81.8657 Y166.0116
G01 X81.7764 Y166.0571
G01 X81.6835 Y166.0946
G01 X81.5877 Y166.1237
G01 X81.4896 Y166.1443
G01 X81.3901 Y166.1561
G01 X81.2900 Y166.1591
G01 X80.3436 Y166.1680
G01 X79.3971 Y166.1616
G01 X78.4509 Y166.1399
G01 X77.5052 Y166.1030
G01 X76.6691 Y166.0843
G01 X75.8333 Y166.0550
G01 X74.9980 Y166.0149
G01 X74.1632 Y165.9641
G01 X73.3292 Y165.9026
G01 X72.4960 Y165.8304
G01 X71.6638 Y165.7475
G01 X70.8328 Y165.6539
G01 X70.2108 Y165.5793
G01 X69.5910 Y165.4883
G01 X68.9738 Y165.3809
G01 X68.3597 Y165.2572
G01 X67.7490 Y165.1173
G01 X67.1423 Y164.9613
G01 X66.5400 Y164.7892
G01 X65.9424 Y164.6013
G01 X65.4289 Y164.4244
G01 X64.9263 Y164.2185
G01 X64.4362 Y163.9843
G01 X63.9603 Y163.7226
G01 X63.5001 Y163.4342
G01 X63.0571 Y163.1200
G01 X62.6327 Y162.7811
G01 X62.2283 Y162.4185
G01 X61.9537 Y162.1298
G01 X61.6942 Y161.8276
G01 X61.4503 Y161.5126
G01 X61.2226 Y161.1857
G01 X61.0117 Y160.8476
G01 X60.8183 Y160.4993
G01 X60.6427 Y160.1417
G01 X60.4855 Y159.7757
G01 X60.3470 Y159.4021
G01 X60.2275 Y159.0221
G01 X60.1275 Y158.6364
G01 X60.0471 Y158.2462
G01 X60.0303 Y158.2467
G01 X59.1688 Y158.6437
G01 X58.3174 Y159.0622
G01 X57.4768 Y159.5019
G01 X56.6474 Y159.9624
G01 X55.8299 Y160.4435
G01 X55.0246 Y160.9450
G01 X54.2321 Y161.4664
G01 X53.4530 Y162.0076
G01 X52.6876 Y162.5680
G01 X51.9364 Y163.1474
G01 X51.2001 Y163.7455
G01 X50.4789 Y164.3617
G01 X50.0762 Y164.7292
G01 X49.6819 Y165.1057
G01 X49.2961 Y165.4909
G01 X48.9191 Y165.8846
G01 X48.5510 Y166.2868
G01 X48.1921 Y166.6971
G01 X47.8425 Y167.1154
G01 X47.5024 Y167.5414
G01 X47.5106 Y167.5588
G01 X49.0679 Y168.2304
G01 X50.6045 Y168.8599
G01 X52.1508 Y169.4650
G01 X53.7066 Y170.0455
G01 X55.2714 Y170.6014
G01 X56.8448 Y171.1323
G01 X58.4264 Y171.6383
G01 X60.0158 Y172.1191
G01 X61.6126 Y172.5747
G01 X63.2165 Y173.0049
G01 X64.8270 Y173.4097
G01 X66.4437 Y173.7889
G01 X68.0661 Y174.1424
G01 X69.4641 Y174.4369
G01 X70.8658 Y174.7134
G01 X72.2709 Y174.9720
G01 X73.6791 Y175.2125
G01 X75.0904 Y175.4350
G01 X76.5043 Y175.6394
G01 X77.9208 Y175.8257
G01 X79.3396 Y175.9938
G01 X80.7603 Y176.1438
G01 X82.1829 Y176.2755
G01 X83.6071 Y176.3890
G01 X85.0326 Y176.4842
G01 X90.6958 Y169.5835
G01 X92.0633 Y167.9045
G01 X93.4465 Y166.2384
G01 X94.8452 Y164.5853
G01 X96.2593 Y162.9454
G01 X96.3172 Y162.8671
G01 X96.3811 Y162.7935
G01 X96.4504 Y162.7251
G01 X96.5248 Y162.6623
G01 X96.6039 Y162.6054
G01 X96.6872 Y162.5548
G01 X96.7741 Y162.5108
G01 X96.8641 Y162.4737
G01 X96.9568 Y162.4437
G01 X97.0515 Y162.4209
G01 X97.1476 Y162.4055
G01 X97.2447 Y162.3976
G01 X97.3272 Y162.3993
G01 X97.4093 Y162.4072
G01 X97.4906 Y162.4212
G01 X97.5706 Y162.4412
G01 X97.6489 Y162.4672
G01 X97.7250 Y162.4990
G01 X97.7985 Y162.5364
G01 X97.8690 Y162.5792
G01 X97.9361 Y162.6271
G01 X97.9994 Y162.6800
G01 X98.0586 Y162.7374
G01 X98.1133 Y162.7991
G01 X104.8477 Y170.9958
G01 X105.9670 Y172.3741
G01 X107.0954 Y173.7450
G01 X108.2329 Y175.1084
G01 X109.3795 Y176.4642
G01 X110.8971 Y176.3747
G01 X112.4129 Y176.2592
G01 X113.9265 Y176.1177
G01 X115.4374 Y175.9502
G01 X115.4123 Y175.7317
M107
G00 Z2.0000


;No. 4: Hole 4
G00 X128.1842 Y110.7657 Z2.0000
G00 Z0.5000
G01 Z-1.8000 F400
M106 S240
G01 X130.0794 F1000
G01 Y112.4157
G01 X128.1842
G01 Y114.0657
G01 X130.0794
G01 Y115.7157
G01 X128.1842
G01 Y117.3657
G01 X130.0794
G01 Y119.0157
G01 X128.1842
G01 Y120.6657
G01 X130.0794
G01 Y122.3157
G01 X128.1842
G01 Y123.9657
G01 X130.0794
G01 Y125.6157
G01 X128.1842
G01 Y127.2657
G01 X130.0794
G01 Y128.9157
G01 X139.1283
G01 X119.0977
G01 Y130.5657
G01 X117.1623
G01 X141.0978
M107
G00 Z2.0000
G00 Z0.5000
G01 Z-1.8000 F400
M106 S240
G01 X141.2930 Y130.4644 F1000
G01 X141.1358 Y130.1874
G01 X140.9538 Y129.9260
G01 X140.7486 Y129.6823
G01 X140.5219 Y129.4586
G01 X140.2757 Y129.2566
G01 X140.0119 Y129.0780
G01 X139.7329 Y128.9245
G01 X139.4409 Y128.7971
G01 X139.1385 Y128.6972
G01 X138.8282 Y128.6254
G01 X138.5126 Y128.5824
G01 X138.1944 Y128.5685
G01 X131.4194
G01 X131.3320 Y128.5666
G01 X131.2451 Y128.5578
G01 X131.1591 Y128.5421
G01 X131.0747 Y128.5196
G01 X130.9923 Y128.4905
G01 X130.9125 Y128.4549
G01 X130.8357 Y128.4132
G01 X130.7626 Y128.3655
G01 X130.6934 Y128.3121
G01 X130.6287 Y128.2534
G01 X130.5688 Y128.1897
G01 X130.5142 Y128.1215
G01 X130.4652 Y128.0492
G01 X130.4220 Y127.9732
G01 X130.3850 Y127.8941
G01 X130.3545 Y127.8122
G01 X130.3305 Y127.7282
G01 X130.3132 Y127.6426
G01 X130.3028 Y127.5558
G01 X130.2994 Y127.4685
G01 Y110.4277
G01 X127.9642
G01 Y127.4485
G01 X127.9623 Y127.5359
G01 X127.9534 Y127.6228
G01 X127.9377 Y127.7087
G01 X127.9153 Y127.7932
G01 X127.8862 Y127.8755
G01 X127.8506 Y127.9554
G01 X127.8089 Y128.0321
G01 X127.7611 Y128.1053
G01 X127.7078 Y128.1745
G01 X127.6491 Y128.2392
G01 X127.5854 Y128.2990
G01 X127.5172 Y128.3537
G01 X127.4449 Y128.4027
G01 X127.3689 Y128.4458
G01 X127.2897 Y128.4828
G01 X127.2079 Y128.5134
G01 X127.1239 Y128.5374
G01 X127.0382 Y128.5546
G01 X126.9515 Y128.5650
G01 X126.8642 Y128.5685
G01 X119.9920 Y128.5692
G01 X119.6399 Y128.5874
G01 X119.2916 Y128.6425
G01 X118.9511 Y128.7337
G01 X118.6220 Y128.8600
G01 X118.3079 Y129.0202
G01 X118.0123 Y129.2124
G01 X117.7385 Y129.4345
G01 X117.4895 Y129.6841
G01 X117.2680 Y129.9584
G01 X117.0765 Y130.2544
G01 X116.9170 Y130.5688
G01 X116.7913 Y130.8982
G01 X116.8062 Y130.9037
G01 X141.4573
G01 X141.4727 Y130.9015
G01 X141.4666 Y130.8824
G01 X141.4292 Y130.7755
G01 X141.3877 Y130.6701
G01 X141.3423 Y130.5664
G01 X141.2930 Y130.4644
G01 X141.0978 Y130.5657
M107
G00 Z2.0000


;No. 5: Hole 5
G00 X150.8631 Y128.9111 Z2.0000
G00 Z0.5000
G01 Z-1.8000 F400
M106 S240
G01 X170.8590 F1000
G01 Y130.5611
G01 X172.8409
G01 X148.9112
M107
G00 Z2.0000
G00 Z0.5000
G01 Z-1.8000 F400
M106 S240
G01 X148.7145 Y130.4624 F1000
G01 X148.7033 Y130.4847
G01 X148.6564 Y130.5858
G01 X148.6132 Y130.6885
G01 X148.5736 Y130.7927
G01 X148.5377 Y130.8982
G01 X148.5525 Y130.9037
G01 X173.2037
G01 X173.2191 Y130.9015
G01 X173.0853 Y130.5697
G01 X172.9180 Y130.2536
G01 X172.7190 Y129.9564
G01 X172.4903 Y129.6813
G01 X172.2344 Y129.4314
G01 X171.9541 Y129.2092
G01 X171.6523 Y129.0171
G01 X171.3323 Y128.8573
G01 X170.9975 Y128.7313
G01 X170.6515 Y128.6406
G01 X170.2980 Y128.5862
G01 X169.9407 Y128.5685
G01 X151.8130
G01 X151.4934 Y128.5761
G01 X151.1760 Y128.6141
G01 X150.8636 Y128.6822
G01 X150.5592 Y128.7797
G01 X150.2654 Y128.9058
G01 X149.9850 Y129.0593
G01 X149.7204 Y129.2389
G01 X149.4742 Y129.4428
G01 X149.2486 Y129.6693
G01 X149.0456 Y129.9162
G01 X148.8670 Y130.1814
G01 X148.7145 Y130.4624
G01 X148.9112 Y130.5611
M107
G00 Z2.0000


;No. 6: Hole 6
G00 X150.8627 Y119.8407 Z2.0000
G00 Z0.5000
G01 Z-1.8000 F400
M106 S240
G01 X170.8590 F1000
G01 Y121.4907
G01 X172.8409
G01 X148.9116
M107
G00 Z2.0000
G00 Z0.5000
G01 Z-1.8000 F400
M106 S240
G01 X148.7157 Y121.3896 F1000
G01 X148.7096 Y121.4013
G01 X148.6608 Y121.5055
G01 X148.6159 Y121.6114
G01 X148.5748 Y121.7189
G01 X148.5377 Y121.8278
G01 X148.5525 Y121.8333
G01 X173.2037
G01 X173.2191 Y121.8311
G01 X173.0848 Y121.4997
G01 X172.9171 Y121.1840
G01 X172.7177 Y120.8871
G01 X172.4889 Y120.6124
G01 X172.2330 Y120.3627
G01 X171.9527 Y120.1407
G01 X171.6511 Y119.9487
G01 X171.3314 Y119.7887
G01 X170.9968 Y119.6625
G01 X170.6511 Y119.5715
G01 X170.2978 Y119.5165
G01 X169.9407 Y119.4981
G01 X151.8130
G01 X151.4935 Y119.5052
G01 X151.1762 Y119.5428
G01 X150.8638 Y119.6105
G01 X150.5594 Y119.7077
G01 X150.2657 Y119.8335
G01 X149.9853 Y119.9869
G01 X149.7208 Y120.1663
G01 X149.4747 Y120.3701
G01 X149.2492 Y120.5965
G01 X149.0463 Y120.8434
G01 X148.8679 Y121.1086
G01 X148.7157 Y121.3896
G01 X148.9116 Y121.4907
M107
G00 Z2.0000


;No. 7: Hole 11
G00 X150.8627 Y110.7703 Z2.0000
G00 Z0.5000
G01 Z-1.8000 F400
M106 S240
G01 X170.8590 F1000
G01 Y112.4203
G01 X172.8409
G01 X148.9110
M107
G00 Z2.0000
G00 Z0.5000
G01 Z-1.8000 F400
M106 S240
G01 X148.7145 Y112.3212 F1000
G01 X148.7096 Y112.3309
G01 X148.6609 Y112.4351
G01 X148.6159 Y112.5410
G01 X148.5748 Y112.6485
G01 X148.5377 Y112.7574
G01 X148.5525 Y112.7629
G01 X173.2037
G01 X173.2191 Y112.7607
G01 X173.0848 Y112.4293
G01 X172.9171 Y112.1136
G01 X172.7177 Y111.8168
G01 X172.4889 Y111.5420
G01 X172.2330 Y111.2923
G01 X171.9528 Y111.0703
G01 X171.6511 Y110.8783
G01 X171.3314 Y110.7183
G01 X170.9968 Y110.5921
G01 X170.6511 Y110.5011
G01 X170.2978 Y110.4461
G01 X169.9407 Y110.4277
G01 X151.8130
G01 X151.4933 Y110.4347
G01 X151.1757 Y110.4722
G01 X150.8631 Y110.5399
G01 X150.5585 Y110.6372
G01 X150.2645 Y110.7631
G01 X149.9840 Y110.9166
G01 X149.7194 Y111.0963
G01 X149.4732 Y111.3004
G01 X149.2477 Y111.5271
G01 X149.0448 Y111.7744
G01 X148.8666 Y112.0399
G01 X148.7145 Y112.3212
G01 X148.9110 Y112.4203
M107
G00 Z2.0000


;No. 8: Hole 7
G00 X180.6619 Y110.7657 Z2.0000
G00 Z0.5000
G01 Z-1.8000 F400
M106 S240
G01 X204.9101 F1000
G01 Y112.4157
G01 X182.6228
G01 X203.0149
G01 Y114.0657
G01 X204.9101
G01 Y115.7157
G01 X203.0149
G01 Y117.3657
G01 X204.9101
G01 Y119.0157
G01 X202.8604
G01 X204.9101
G01 Y120.6657
G01 X180.3389
G01 Y122.3157
G01 X182.3885
G01 X182.2341 Y123.9657
G01 X180.3389
G01 Y125.6157
G01 X182.2341
G01 Y127.2657
G01 X180.3389
G01 Y128.9157
G01 X202.6216
G01 Y130.5657
G01 X204.5896
G01 X180.3389
M107
G00 Z2.0000
G00 Z0.5000
G01 Z-1.8000 F400
M106 S240
G01 X180.1189 F1000
G01 Y130.9037
G01 X204.9501
G01 X204.9655 Y130.9015
G01 X204.8311 Y130.5701
G01 X204.6634 Y130.2544
G01 X204.4641 Y129.9575
G01 X204.2352 Y129.6828
G01 X203.9793 Y129.4331
G01 X203.6991 Y129.2111
G01 X203.3975 Y129.0190
G01 X203.0777 Y128.8591
G01 X202.7432 Y128.7329
G01 X202.3974 Y128.6418
G01 X202.0442 Y128.5868
G01 X201.6871 Y128.5685
G01 X183.5741
G01 X183.4867 Y128.5666
G01 X183.3998 Y128.5578
G01 X183.3139 Y128.5421
G01 X183.2294 Y128.5196
G01 X183.1470 Y128.4905
G01 X183.0672 Y128.4549
G01 X182.9905 Y128.4132
G01 X182.9173 Y128.3655
G01 X182.8481 Y128.3121
G01 X182.7834 Y128.2534
G01 X182.7235 Y128.1897
G01 X182.6689 Y128.1215
G01 X182.6199 Y128.0492
G01 X182.5768 Y127.9732
G01 X182.5398 Y127.8941
G01 X182.5092 Y127.8122
G01 X182.4852 Y127.7282
G01 X182.4680 Y127.6426
G01 X182.4576 Y127.5558
G01 X182.4541 Y127.4685
G01 Y122.9533
G01 X182.4568 Y122.8555
G01 X182.4690 Y122.7531
G01 X182.4906 Y122.6523
G01 X182.5216 Y122.5540
G01 X182.5616 Y122.4590
G01 X182.6104 Y122.3682
G01 X182.6674 Y122.2823
G01 X182.7322 Y122.2022
G01 X182.8043 Y122.1285
G01 X182.8829 Y122.0618
G01 X182.9675 Y122.0028
G01 X183.0571 Y121.9520
G01 X183.1512 Y121.9098
G01 X183.2488 Y121.8765
G01 X183.3490 Y121.8526
G01 X183.4511 Y121.8381
G01 X183.5541 Y121.8333
G01 X205.1301
G01 Y110.4277
G01 X180.2845 Y110.4281
G01 X180.4182 Y110.7610
G01 X180.5858 Y111.0783
G01 X180.7854 Y111.3765
G01 X181.0148 Y111.6524
G01 X181.2716 Y111.9030
G01 X181.5531 Y112.1256
G01 X181.8561 Y112.3178
G01 X182.1774 Y112.4775
G01 X182.5135 Y112.6030
G01 X182.8608 Y112.6930
G01 X183.2157 Y112.7465
G01 X183.5741 Y112.7629
G01 X201.6749
G01 X201.7622 Y112.7648
G01 X201.8491 Y112.7737
G01 X201.9351 Y112.7894
G01 X202.0195 Y112.8118
G01 X202.1019 Y112.8409
G01 X202.1817 Y112.8765
G01 X202.2585 Y112.9182
G01 X202.3317 Y112.9660
G01 X202.4008 Y113.0193
G01 X202.4656 Y113.0780
G01 X202.5254 Y113.1417
G01 X202.5800 Y113.2099
G01 X202.6291 Y113.2822
G01 X202.6722 Y113.3582
G01 X202.7092 Y113.4373
G01 X202.7398 Y113.5192
G01 X202.7637 Y113.6032
G01 X202.7810 Y113.6889
G01 X202.7914 Y113.7756
G01 X202.7949 Y113.8629
G01 Y118.3781
G01 X202.7930 Y118.4655
G01 X202.7841 Y118.5524
G01 X202.7684 Y118.6383
G01 X202.7460 Y118.7228
G01 X202.7169 Y118.8052
G01 X202.6813 Y118.8850
G01 X202.6396 Y118.9617
G01 X202.5918 Y119.0349
G01 X202.5384 Y119.1041
G01 X202.4797 Y119.1688
G01 X202.4161 Y119.2287
G01 X202.3479 Y119.2833
G01 X202.2756 Y119.3323
G01 X202.1996 Y119.3754
G01 X202.1204 Y119.4124
G01 X202.0386 Y119.4430
G01 X201.9546 Y119.4670
G01 X201.8689 Y119.4842
G01 X201.7822 Y119.4946
G01 X201.6949 Y119.4981
G01 X180.1189
G01 Y130.5657
G01 X180.3389
M107
G00 Z2.0000


;No. 9: Hole 8
G00 X212.0853 Y110.7657 Z2.0000
G00 Z0.5000
G01 Z-1.8000 F400
M106 S240
G01 X234.3355 F1000
G01 Y112.4157
G01 X236.3320
G01 X212.0853
G01 Y114.0657
G01 X213.9804
G01 Y115.7157
G01 X212.0853
G01 Y117.3657
G01 X213.9804
G01 Y119.0157
G01 X212.0853
G01 Y120.6657
G01 X213.9804
G01 Y122.3157
G01 X212.0853
G01 Y123.9657
G01 X213.9804
G01 Y125.6157
G01 X212.0853
G01 Y127.2657
G01 X213.9804
G01 Y128.9157
G01 X212.0853
G01 Y130.5657
G01 X213.9804
M107
G00 Z2.0000
G00 Z0.5000
G01 Z-1.8000 F400
M106 S240
G01 X214.2004 F1000
G01 Y113.8829
G01 X214.2032 Y113.7851
G01 X214.2153 Y113.6827
G01 X214.2369 Y113.5819
G01 X214.2679 Y113.4836
G01 X214.3080 Y113.3886
G01 X214.3567 Y113.2978
G01 X214.4138 Y113.2119
G01 X214.4786 Y113.1318
G01 X214.5506 Y113.0581
G01 X214.6293 Y112.9914
G01 X214.7138 Y112.9324
G01 X214.8035 Y112.8816
G01 X214.8975 Y112.8394
G01 X214.9951 Y112.8061
G01 X215.0954 Y112.7822
G01 X215.1975 Y112.7678
G01 X215.3004 Y112.7629
G01 X236.6964
G01 X236.7118 Y112.7607
G01 X236.5774 Y112.4294
G01 X236.4096 Y112.1137
G01 X236.2103 Y111.8169
G01 X235.9814 Y111.5422
G01 X235.7255 Y111.2925
G01 X235.4453 Y111.0705
G01 X235.1437 Y110.8785
G01 X234.8240 Y110.7185
G01 X234.4895 Y110.5923
G01 X234.1437 Y110.5012
G01 X233.7905 Y110.4461
G01 X233.4334 Y110.4277
G01 X211.8653
G01 Y130.9037
G01 X214.2004
G01 Y130.5657
G01 X213.9804
M107
G00 Z2.0000


;No. 10: Hole 10
G00 X243.8316 Y112.0055 Z2.0000
G00 Z0.5000
G01 Z-1.8000 F400
M106 S240
G01 X245.7268 F1000
G01 Y113.6555
G01 X243.8316
G01 Y115.3055
G01 X245.7268
G01 Y116.9555
G01 X243.8316
G01 Y118.6055
G01 X245.7448
G01 X243.8316
G01 Y120.2555
G01 X268.4028
G01 Y118.6055
G01 X266.4904
G01 X266.5076 Y116.9555
G01 X268.4028
G01 Y115.3055
G01 X266.5076
G01 Y113.6555
G01 X268.4028
G01 Y112.0055
G01 X266.5076
M107
G00 Z2.0000
G00 Z0.5000
G01 Z-1.8000 F400
M106 S240
G01 X266.2876 F1000
G01 Y118.3781
G01 X266.2857 Y118.4655
G01 X266.2768 Y118.5524
G01 X266.2611 Y118.6383
G01 X266.2387 Y118.7228
G01 X266.2096 Y118.8052
G01 X266.1740 Y118.8850
G01 X266.1323 Y118.9617
G01 X266.0845 Y119.0349
G01 X266.0312 Y119.1041
G01 X265.9725 Y119.1688
G01 X265.9088 Y119.2287
G01 X265.8406 Y119.2833
G01 X265.7683 Y119.3323
G01 X265.6923 Y119.3754
G01 X265.6132 Y119.4124
G01 X265.5313 Y119.4430
G01 X265.4473 Y119.4670
G01 X265.3616 Y119.4842
G01 X265.2749 Y119.4946
G01 X265.1876 Y119.4981
G01 X247.0668
G01 X246.9795 Y119.4962
G01 X246.8925 Y119.4874
G01 X246.8066 Y119.4717
G01 X246.7221 Y119.4492
G01 X246.6398 Y119.4201
G01 X246.5599 Y119.3846
G01 X246.4832 Y119.3428
G01 X246.4100 Y119.2951
G01 X246.3408 Y119.2417
G01 X246.2761 Y119.1830
G01 X246.2163 Y119.1193
G01 X246.1616 Y119.0511
G01 X246.1126 Y118.9788
G01 X246.0695 Y118.9028
G01 X246.0325 Y118.8237
G01 X246.0019 Y118.7418
G01 X245.9779 Y118.6578
G01 X245.9607 Y118.5722
G01 X245.9503 Y118.4854
G01 X245.9468 Y118.3981
G01 Y110.4277
G01 X243.6116
G01 Y121.8333
G01 X268.6228
G01 Y110.4277
G01 X266.2876
G01 Y112.0055
G01 X266.5076
M107
G00 Z2.0000


;No. 11: Helical drill 2
G00 X268.4901 Y187.3000 Z2.0000
G00 Z0.5000
M106 S240
G01 X268.4889 Y187.2529 Z0.4962 F400
G01 X268.4856 Y187.2059 Z0.4924
G01 X268.4800 Y187.1591 Z0.4886
G01 X268.4722 Y187.1127 Z0.4848
G01 X268.4621 Y187.0666 Z0.4811
G01 X268.4500 Y187.0211 Z0.4773
G01 X268.4356 Y186.9762 Z0.4735
G01 X268.4191 Y186.9321 Z0.4697
G01 X268.4006 Y186.8888 Z0.4659
G01 X268.3800 Y186.8464 Z0.4621
G01 X268.3574 Y186.8050 Z0.4583
G01 X268.3329 Y186.7648 Z0.4545
G01 X268.3065 Y186.7258 Z0.4508
G01 X268.2782 Y186.6881 Z0.4470
G01 X268.2482 Y186.6517 Z0.4432
G01 X268.2166 Y186.6169 Z0.4394
G01 X268.1832 Y186.5835 Z0.4356
G01 X268.1484 Y186.5518 Z0.4318
G01 X268.1120 Y186.5218 Z0.4280
G01 X268.0743 Y186.4936 Z0.4242
G01 X268.0353 Y186.4672 Z0.4205
G01 X267.9951 Y186.4427 Z0.4167
G01 X267.9537 Y186.4201 Z0.4129
G01 X267.9113 Y186.3995 Z0.4091
G01 X267.8680 Y186.3809 Z0.4053
G01 X267.8239 Y186.3645 Z0.4015
G01 X267.7790 Y186.3501 Z0.3977
G01 X267.7335 Y186.3379 Z0.3939
G01 X267.6874 Y186.3279 Z0.3902
G01 X267.6409 Y186.3201 Z0.3864
G01 X267.5942 Y186.3145 Z0.3826
G01 X267.5472 Y186.3112 Z0.3788
G01 X267.5001 Y186.3100 Z0.3750
G01 X267.4529 Y186.3112 Z0.3712
G01 X267.4059 Y186.3145 Z0.3674
G01 X267.3592 Y186.3201 Z0.3636
G01 X267.3127 Y186.3279 Z0.3598
G01 X267.2667 Y186.3379 Z0.3561
G01 X267.2211 Y186.3501 Z0.3523
G01 X267.1763 Y186.3645 Z0.3485
G01 X267.1321 Y186.3809 Z0.3447
G01 X267.0888 Y186.3995 Z0.3409
G01 X267.0464 Y186.4201 Z0.3371
G01 X267.0051 Y186.4427 Z0.3333
G01 X266.9648 Y186.4672 Z0.3295
G01 X266.9258 Y186.4936 Z0.3258
G01 X266.8881 Y186.5218 Z0.3220
G01 X266.8517 Y186.5518 Z0.3182
G01 X266.8169 Y186.5835 Z0.3144
G01 X266.7836 Y186.6169 Z0.3106
G01 X266.7519 Y186.6517 Z0.3068
G01 X266.7219 Y186.6881 Z0.3030
G01 X266.6936 Y186.7258 Z0.2992
G01 X266.6672 Y186.7648 Z0.2955
G01 X266.6427 Y186.8050 Z0.2917
G01 X266.6201 Y186.8464 Z0.2879
G01 X266.5995 Y186.8888 Z0.2841
G01 X266.5810 Y186.9321 Z0.2803
G01 X266.5645 Y186.9762 Z0.2765
G01 X266.5502 Y187.0211 Z0.2727
G01 X266.5380 Y187.0666 Z0.2689
G01 X266.5279 Y187.1127 Z0.2652
G01 X266.5201 Y187.1591 Z0.2614
G01 X266.5145 Y187.2059 Z0.2576
G01 X266.5112 Y187.2529 Z0.2538
G01 X266.5101 Y187.3000 Z0.2500
G01 X266.5112 Y187.3471 Z0.2462
G01 X266.5145 Y187.3941 Z0.2424
G01 X266.5201 Y187.4409 Z0.2386
G01 X266.5279 Y187.4874 Z0.2348
G01 X266.5380 Y187.5334 Z0.2311
G01 X266.5502 Y187.5789 Z0.2273
G01 X266.5645 Y187.6238 Z0.2235
G01 X266.5810 Y187.6680 Z0.2197
G01 X266.5995 Y187.7113 Z0.2159
G01 X266.6201 Y187.7537 Z0.2121
G01 X266.6427 Y187.7950 Z0.2083
G01 X266.6672 Y187.8353 Z0.2045
G01 X266.6936 Y187.8743 Z0.2008
G01 X266.7219 Y187.9120 Z0.1970
G01 X266.7519 Y187.9483 Z0.1932
G01 X266.7836 Y187.9832 Z0.1894
G01 X266.8169 Y188.0165 Z0.1856
G01 X266.8517 Y188.0482 Z0.1818
G01 X266.8881 Y188.0782 Z0.1780
G01 X266.9258 Y188.1065 Z0.1742
G01 X266.9648 Y188.1329 Z0.1705
G01 X267.0051 Y188.1574 Z0.1667
G01 X267.0464 Y188.1800 Z0.1629
G01 X267.0888 Y188.2006 Z0.1591
G01 X267.1321 Y188.2191 Z0.1553
G01 X267.1763 Y188.2356 Z0.1515
G01 X267.2211 Y188.2499 Z0.1477
G01 X267.2667 Y188.2621 Z0.1439
G01 X267.3127 Y188.2721 Z0.1402
G01 X267.3592 Y188.2800 Z0.1364
G01 X267.4059 Y188.2855 Z0.1326
G01 X267.4529 Y188.2889 Z0.1288
G01 X267.5001 Y188.2900 Z0.1250
G01 X267.5472 Y188.2889 Z0.1212
G01 X267.5942 Y188.2855 Z0.1174
G01 X267.6409 Y188.2800 Z0.1136
G01 X267.6874 Y188.2721 Z0.1098
G01 X267.7335 Y188.2621 Z0.1061
G01 X267.7790 Y188.2499 Z0.1023
G01 X267.8239 Y188.2356 Z0.0985
G01 X267.8680 Y188.2191 Z0.0947
G01 X267.9113 Y188.2006 Z0.0909
G01 X267.9537 Y188.1800 Z0.0871
G01 X267.9951 Y188.1574 Z0.0833
G01 X268.0353 Y188.1329 Z0.0795
G01 X268.0743 Y188.1065 Z0.0758
G01 X268.1120 Y188.0782 Z0.0720
G01 X268.1484 Y188.0482 Z0.0682
G01 X268.1832 Y188.0165 Z0.0644
G01 X268.2166 Y187.9832 Z0.0606
G01 X268.2482 Y187.9483 Z0.0568
G01 X268.2782 Y187.9120 Z0.0530
G01 X268.3065 Y187.8743 Z0.0492
G01 X268.3329 Y187.8353 Z0.0455
G01 X268.3574 Y187.7950 Z0.0417
G01 X268.3800 Y187.7537 Z0.0379
G01 X268.4006 Y187.7113 Z0.0341
G01 X268.4191 Y187.6680 Z0.0303
G01 X268.4356 Y187.6238 Z0.0265
G01 X268.4500 Y187.5789 Z0.0227
G01 X268.4621 Y187.5334 Z0.0189
G01 X268.4722 Y187.4874 Z0.0152
G01 X268.4800 Y187.4409 Z0.0114
G01 X268.4856 Y187.3941 Z0.0076
G01 X268.4889 Y187.3471 Z0.0038
G01 X268.4901 Y187.3000 Z0.0000
G01 X268.4889 Y187.2529
G01 X268.4856 Y187.2059
G01 X268.4800 Y187.1591
G01 X268.4722 Y187.1127
G01 X268.4621 Y187.0666
G01 X268.4500 Y187.0211
G01 X268.4356 Y186.9762
G01 X268.4191 Y186.9321
G01 X268.4006 Y186.8888
G01 X268.3800 Y186.8464
G01 X268.3574 Y186.8050
G01 X268.3329 Y186.7648
G01 X268.3065 Y186.7258
G01 X268.2782 Y186.6881
G01 X268.2482 Y186.6517
G01 X268.2166 Y186.6169
G01 X268.1832 Y186.5835
G01 X268.1484 Y186.5518
G01 X268.1120 Y186.5218
G01 X268.0743 Y186.4936
G01 X268.0353 Y186.4672
G01 X267.9951 Y186.4427
G01 X267.9537 Y186.4201
G01 X267.9113 Y186.3995
G01 X267.8680 Y186.3809
G01 X267.8239 Y186.3645
G01 X267.7790 Y186.3501
G01 X267.7335 Y186.3379
G01 X267.6874 Y186.3279
G01 X267.6409 Y186.3201
G01 X267.5942 Y186.3145
G01 X267.5472 Y186.3112
G01 X267.5001 Y186.3100
G01 X267.4529 Y186.3112
G01 X267.4059 Y186.3145
G01 X267.3592 Y186.3201
G01 X267.3127 Y186.3279
G01 X267.2667 Y186.3379
G01 X267.2211 Y186.3501
G01 X267.1763 Y186.3645
G01 X267.1321 Y186.3809
G01 X267.0888 Y186.3995
G01 X267.0464 Y186.4201
G01 X267.0051 Y186.4427
G01 X266.9648 Y186.4672
G01 X266.9258 Y186.4936
G01 X266.8881 Y186.5218
G01 X266.8517 Y186.5518
G01 X266.8169 Y186.5835
G01 X266.7836 Y186.6169
G01 X266.7519 Y186.6517
G01 X266.7219 Y186.6881
G01 X266.6936 Y186.7258
G01 X266.6672 Y186.7648
G01 X266.6427 Y186.8050
G01 X266.6201 Y186.8464
G01 X266.5995 Y186.8888
G01 X266.5810 Y186.9321
G01 X266.5645 Y186.9762
G01 X266.5502 Y187.0211
G01 X266.5380 Y187.0666
G01 X266.5279 Y187.1127
G01 X266.5201 Y187.1591
G01 X266.5145 Y187.2059
G01 X266.5112 Y187.2529
G01 X266.5101 Y187.3000
G01 X266.5112 Y187.3471
G01 X266.5145 Y187.3941
G01 X266.5201 Y187.4409
G01 X266.5279 Y187.4874
G01 X266.5380 Y187.5334
G01 X266.5502 Y187.5789
G01 X266.5645 Y187.6238
G01 X266.5810 Y187.6680
G01 X266.5995 Y187.7113
G01 X266.6201 Y187.7537
G01 X266.6427 Y187.7950
G01 X266.6672 Y187.8353
G01 X266.6936 Y187.8743
G01 X266.7219 Y187.9120
G01 X266.7519 Y187.9483
G01 X266.7836 Y187.9832
G01 X266.8169 Y188.0165
G01 X266.8517 Y188.0482
G01 X266.8881 Y188.0782
G01 X266.9258 Y188.1065
G01 X266.9648 Y188.1329
G01 X267.0051 Y188.1574
G01 X267.0464 Y188.1800
G01 X267.0888 Y188.2006
G01 X267.1321 Y188.2191
G01 X267.1763 Y188.2356
G01 X267.2211 Y188.2499
G01 X267.2667 Y188.2621
G01 X267.3127 Y188.2721
G01 X267.3592 Y188.2800
G01 X267.4059 Y188.2855
G01 X267.4529 Y188.2889
G01 X267.5001 Y188.2900
G01 X267.5472 Y188.2889
G01 X267.5942 Y188.2855
G01 X267.6409 Y188.2800
G01 X267.6874 Y188.2721
G01 X267.7335 Y188.2621
G01 X267.7790 Y188.2499
G01 X267.8239 Y188.2356
G01 X267.8680 Y188.2191
G01 X267.9113 Y188.2006
G01 X267.9537 Y188.1800
G01 X267.9951 Y188.1574
G01 X268.0353 Y188.1329
G01 X268.0743 Y188.1065
G01 X268.1120 Y188.0782
G01 X268.1484 Y188.0482
G01 X268.1832 Y188.0165
G01 X268.2166 Y187.9832
G01 X268.2482 Y187.9483
G01 X268.2782 Y187.9120
G01 X268.3065 Y187.8743
G01 X268.3329 Y187.8353
G01 X268.3574 Y187.7950
G01 X268.3800 Y187.7537
G01 X268.4006 Y187.7113
G01 X268.4191 Y187.6680
G01 X268.4356 Y187.6238
G01 X268.4500 Y187.5789
G01 X268.4621 Y187.5334
G01 X268.4722 Y187.4874
G01 X268.4800 Y187.4409
G01 X268.4856 Y187.3941
G01 X268.4889 Y187.3471
G01 X268.4901 Y187.3000
M107
M106 S240
G01 X268.4889 Y187.2529 Z-0.0167
G01 X268.4856 Y187.2059 Z-0.0333
G01 X268.4800 Y187.1591 Z-0.0500
G01 X268.4722 Y187.1127 Z-0.0667
G01 X268.4621 Y187.0666 Z-0.0833
G01 X268.4500 Y187.0211 Z-0.1000
G01 X268.4356 Y186.9762 Z-0.1167
G01 X268.4191 Y186.9321 Z-0.1333
G01 X268.4006 Y186.8888 Z-0.1500
G01 X268.3800 Y186.8464 Z-0.1667
G01 X268.3574 Y186.8050 Z-0.1833
G01 X268.3329 Y186.7648 Z-0.2000
G01 X268.3065 Y186.7258 Z-0.2167
G01 X268.2782 Y186.6881 Z-0.2333
G01 X268.2482 Y186.6517 Z-0.2500
G01 X268.2166 Y186.6169 Z-0.2667
G01 X268.1832 Y186.5835 Z-0.2833
G01 X268.1484 Y186.5518 Z-0.3000
G01 X268.1120 Y186.5218 Z-0.3167
G01 X268.0743 Y186.4936 Z-0.3333
G01 X268.0353 Y186.4672 Z-0.3500
G01 X267.9951 Y186.4427 Z-0.3667
G01 X267.9537 Y186.4201 Z-0.3833
G01 X267.9113 Y186.3995 Z-0.4000
G01 X267.8680 Y186.3809 Z-0.4167
G01 X267.8239 Y186.3645 Z-0.4333
G01 X267.7790 Y186.3501 Z-0.4500
G01 X267.7335 Y186.3379 Z-0.4667
G01 X267.6874 Y186.3279 Z-0.4833
G01 X267.6409 Y186.3201 Z-0.5000
G01 X267.5942 Y186.3145 Z-0.5167
G01 X267.5472 Y186.3112 Z-0.5333
G01 X267.5001 Y186.3100 Z-0.5500
G01 X267.4529 Y186.3112 Z-0.5667
G01 X267.4059 Y186.3145 Z-0.5833
G01 X267.3592 Y186.3201 Z-0.6000
G01 X267.3127 Y186.3279 Z-0.6167
G01 X267.2667 Y186.3379 Z-0.6333
G01 X267.2211 Y186.3501 Z-0.6500
G01 X267.1763 Y186.3645 Z-0.6667
G01 X267.1321 Y186.3809 Z-0.6833
G01 X267.0888 Y186.3995 Z-0.7000
G01 X267.0464 Y186.4201 Z-0.7167
G01 X267.0051 Y186.4427 Z-0.7333
G01 X266.9648 Y186.4672 Z-0.7500
G01 X266.9258 Y186.4936 Z-0.7667
G01 X266.8881 Y186.5218 Z-0.7833
G01 X266.8517 Y186.5518 Z-0.8000
G01 X266.8169 Y186.5835 Z-0.8167
G01 X266.7836 Y186.6169 Z-0.8333
G01 X266.7519 Y186.6517 Z-0.8500
G01 X266.7219 Y186.6881 Z-0.8667
G01 X266.6936 Y186.7258 Z-0.8833
G01 X266.6672 Y186.7648 Z-0.9000
G01 X266.6427 Y186.8050 Z-0.9167
G01 X266.6201 Y186.8464 Z-0.9333
G01 X266.5995 Y186.8888 Z-0.9500
G01 X266.5810 Y186.9321 Z-0.9667
G01 X266.5645 Y186.9762 Z-0.9833
G01 X266.5502 Y187.0211 Z-1.0000
G01 X266.5380 Y187.0666 Z-1.0167
G01 X266.5279 Y187.1127 Z-1.0333
G01 X266.5201 Y187.1591 Z-1.0500
G01 X266.5145 Y187.2059 Z-1.0667
G01 X266.5112 Y187.2529 Z-1.0833
G01 X266.5101 Y187.3000 Z-1.1000
G01 X266.5112 Y187.3471 Z-1.1167
G01 X266.5145 Y187.3941 Z-1.1333
G01 X266.5201 Y187.4409 Z-1.1500
G01 X266.5279 Y187.4874 Z-1.1667
G01 X266.5380 Y187.5334 Z-1.1833
G01 X266.5502 Y187.5789 Z-1.2000
G01 X266.5645 Y187.6238 Z-1.2167
G01 X266.5810 Y187.6680 Z-1.2333
G01 X266.5995 Y187.7113 Z-1.2500
G01 X266.6201 Y187.7537 Z-1.2667
G01 X266.6427 Y187.7950 Z-1.2833
G01 X266.6672 Y187.8353 Z-1.3000
G01 X266.6936 Y187.8743 Z-1.3167
G01 X266.7219 Y187.9120 Z-1.3333
G01 X266.7519 Y187.9483 Z-1.3500
G01 X266.7836 Y187.9832 Z-1.3667
G01 X266.8169 Y188.0165 Z-1.3833
G01 X266.8517 Y188.0482 Z-1.4000
G01 X266.8881 Y188.0782 Z-1.4167
G01 X266.9258 Y188.1065 Z-1.4333
G01 X266.9648 Y188.1329 Z-1.4500
G01 X267.0051 Y188.1574 Z-1.4667
G01 X267.0464 Y188.1800 Z-1.4833
G01 X267.0888 Y188.2006 Z-1.5000
G01 X267.1321 Y188.2191 Z-1.5167
G01 X267.1763 Y188.2356 Z-1.5333
G01 X267.2211 Y188.2499 Z-1.5500
G01 X267.2667 Y188.2621 Z-1.5667
G01 X267.3127 Y188.2721 Z-1.5833
G01 X267.3592 Y188.2800 Z-1.6000
G01 X267.4059 Y188.2855 Z-1.6167
G01 X267.4529 Y188.2889 Z-1.6333
G01 X267.5001 Y188.2900 Z-1.6500
G01 X267.5472 Y188.2889 Z-1.6667
G01 X267.5942 Y188.2855 Z-1.6833
G01 X267.6409 Y188.2800 Z-1.7000
G01 X267.6874 Y188.2721 Z-1.7167
G01 X267.7335 Y188.2621 Z-1.7333
G01 X267.7790 Y188.2499 Z-1.7500
G01 X267.8239 Y188.2356 Z-1.7667
G01 X267.8680 Y188.2191 Z-1.7833
G01 X267.9113 Y188.2006 Z-1.8000
G01 X267.9537 Y188.1800 Z-1.8167
G01 X267.9951 Y188.1574 Z-1.8333
G01 X268.0353 Y188.1329 Z-1.8500
G01 X268.0743 Y188.1065 Z-1.8667
G01 X268.1120 Y188.0782 Z-1.8833
G01 X268.1484 Y188.0482 Z-1.9000
G01 X268.1832 Y188.0165 Z-1.9167
G01 X268.2166 Y187.9832 Z-1.9333
G01 X268.2482 Y187.9483 Z-1.9500
G01 X268.2782 Y187.9120 Z-1.9667
G01 X268.3065 Y187.8743 Z-1.9833
G01 X268.3329 Y187.8353 Z-2.0000
G01 X268.3574 Y187.7950 Z-2.0167
G01 X268.3800 Y187.7537 Z-2.0333
G01 X268.4006 Y187.7113 Z-2.0500
G01 X268.4191 Y187.6680 Z-2.0667
G01 X268.4356 Y187.6238 Z-2.0833
G01 X268.4500 Y187.5789 Z-2.1000
G01 X268.4621 Y187.5334 Z-2.1167
G01 X268.4722 Y187.4874 Z-2.1333
G01 X268.4800 Y187.4409 Z-2.1500
G01 X268.4856 Y187.3941 Z-2.1667
G01 X268.4889 Y187.3471 Z-2.1833
G01 X268.4901 Y187.3000 Z-2.2000
G01 X268.4889 Y187.2529
G01 X268.4856 Y187.2059
G01 X268.4800 Y187.1591
G01 X268.4722 Y187.1127
G01 X268.4621 Y187.0666
G01 X268.4500 Y187.0211
G01 X268.4356 Y186.9762
G01 X268.4191 Y186.9321
G01 X268.4006 Y186.8888
G01 X268.3800 Y186.8464
G01 X268.3574 Y186.8050
G01 X268.3329 Y186.7648
G01 X268.3065 Y186.7258
G01 X268.2782 Y186.6881
G01 X268.2482 Y186.6517
G01 X268.2166 Y186.6169
G01 X268.1832 Y186.5835
G01 X268.1484 Y186.5518
G01 X268.1120 Y186.5218
G01 X268.0743 Y186.4936
G01 X268.0353 Y186.4672
G01 X267.9951 Y186.4427
G01 X267.9537 Y186.4201
G01 X267.9113 Y186.3995
G01 X267.8680 Y186.3809
G01 X267.8239 Y186.3645
G01 X267.7790 Y186.3501
G01 X267.7335 Y186.3379
G01 X267.6874 Y186.3279
G01 X267.6409 Y186.3201
G01 X267.5942 Y186.3145
G01 X267.5472 Y186.3112
G01 X267.5001 Y186.3100
G01 X267.4529 Y186.3112
G01 X267.4059 Y186.3145
G01 X267.3592 Y186.3201
G01 X267.3127 Y186.3279
G01 X267.2667 Y186.3379
G01 X267.2211 Y186.3501
G01 X267.1763 Y186.3645
G01 X267.1321 Y186.3809
G01 X267.0888 Y186.3995
G01 X267.0464 Y186.4201
G01 X267.0051 Y186.4427
G01 X266.9648 Y186.4672
G01 X266.9258 Y186.4936
G01 X266.8881 Y186.5218
G01 X266.8517 Y186.5518
G01 X266.8169 Y186.5835
G01 X266.7836 Y186.6169
G01 X266.7519 Y186.6517
G01 X266.7219 Y186.6881
G01 X266.6936 Y186.7258
G01 X266.6672 Y186.7648
G01 X266.6427 Y186.8050
G01 X266.6201 Y186.8464
G01 X266.5995 Y186.8888
G01 X266.5810 Y186.9321
G01 X266.5645 Y186.9762
G01 X266.5502 Y187.0211
G01 X266.5380 Y187.0666
G01 X266.5279 Y187.1127
G01 X266.5201 Y187.1591
G01 X266.5145 Y187.2059
G01 X266.5112 Y187.2529
G01 X266.5101 Y187.3000
G01 X266.5112 Y187.3471
G01 X266.5145 Y187.3941
G01 X266.5201 Y187.4409
G01 X266.5279 Y187.4874
G01 X266.5380 Y187.5334
G01 X266.5502 Y187.5789
G01 X266.5645 Y187.6238
G01 X266.5810 Y187.6680
G01 X266.5995 Y187.7113
G01 X266.6201 Y187.7537
G01 X266.6427 Y187.7950
G01 X266.6672 Y187.8353
G01 X266.6936 Y187.8743
G01 X266.7219 Y187.9120
G01 X266.7519 Y187.9483
G01 X266.7836 Y187.9832
G01 X266.8169 Y188.0165
G01 X266.8517 Y188.0482
G01 X266.8881 Y188.0782
G01 X266.9258 Y188.1065
G01 X266.9648 Y188.1329
G01 X267.0051 Y188.1574
G01 X267.0464 Y188.1800
G01 X267.0888 Y188.2006
G01 X267.1321 Y188.2191
G01 X267.1763 Y188.2356
G01 X267.2211 Y188.2499
G01 X267.2667 Y188.2621
G01 X267.3127 Y188.2721
G01 X267.3592 Y188.2800
G01 X267.4059 Y188.2855
G01 X267.4529 Y188.2889
G01 X267.5001 Y188.2900
G01 X267.5472 Y188.2889
G01 X267.5942 Y188.2855
G01 X267.6409 Y188.2800
G01 X267.6874 Y188.2721
G01 X267.7335 Y188.2621
G01 X267.7790 Y188.2499
G01 X267.8239 Y188.2356
G01 X267.8680 Y188.2191
G01 X267.9113 Y188.2006
G01 X267.9537 Y188.1800
G01 X267.9951 Y188.1574
G01 X268.0353 Y188.1329
G01 X268.0743 Y188.1065
G01 X268.1120 Y188.0782
G01 X268.1484 Y188.0482
G01 X268.1832 Y188.0165
G01 X268.2166 Y187.9832
G01 X268.2482 Y187.9483
G01 X268.2782 Y187.9120
G01 X268.3065 Y187.8743
G01 X268.3329 Y187.8353
G01 X268.3574 Y187.7950
G01 X268.3800 Y187.7537
G01 X268.4006 Y187.7113
G01 X268.4191 Y187.6680
G01 X268.4356 Y187.6238
G01 X268.4500 Y187.5789
G01 X268.4621 Y187.5334
G01 X268.4722 Y187.4874
G01 X268.4800 Y187.4409
G01 X268.4856 Y187.3941
G01 X268.4889 Y187.3471
G01 X268.4901 Y187.3000
G01 X268.5021 Y187.2487 F1000
G01 X268.5114 Y187.1968
G01 X268.5180 Y187.1445
G01 X268.5218 Y187.0919
G01 X268.5230 Y187.0392
G01 X268.5214 Y186.9865
G01 X268.5170 Y186.9340
G01 X268.5100 Y186.8817
G01 X268.4993 Y186.8251
G01 X268.4857 Y186.7690
G01 X268.4693 Y186.7138
G01 X268.4501 Y186.6594
G01 X268.4280 Y186.6062
G01 X268.4033 Y186.5541
G01 X268.3759 Y186.5034
G01 X268.3459 Y186.4542
G01 X268.3107 Y186.4024
G01 X268.2729 Y186.3526
G01 X268.2325 Y186.3047
G01 X268.1898 Y186.2590
G01 X268.1448 Y186.2155
G01 X268.0976 Y186.1743
G01 X268.0484 Y186.1357
G01 X267.9973 Y186.0996
G01 X267.9402 Y186.0638
G01 X267.8813 Y186.0310
G01 X267.8208 Y186.0012
G01 X267.7588 Y185.9745
G01 X267.6957 Y185.9509
G01 X267.6313 Y185.9307
G01 X267.5661 Y185.9137
G01 X267.5001 Y185.9000
G01 X267.4314 Y185.9017
G01 X267.3628 Y185.9068
G01 X267.2946 Y185.9152
G01 X267.2269 Y185.9269
G01 X267.1599 Y185.9420
G01 X267.0937 Y185.9603
G01 X267.0284 Y185.9819
G01 X266.9643 Y186.0066
G01 X266.9015 Y186.0345
G01 X266.8401 Y186.0654
G01 X266.7803 Y186.0992
G01 X266.7223 Y186.1360
G01 X266.6661 Y186.1755
G01 X266.6119 Y186.2178
G01 X266.5599 Y186.2627
G01 X266.5101 Y186.3101
G01 X266.4627 Y186.3599
G01 X266.4178 Y186.4119
G01 X266.3756 Y186.4661
G01 X266.3360 Y186.5222
G01 X266.2992 Y186.5803
G01 X266.2654 Y186.6401
G01 X266.2345 Y186.7015
G01 X266.2066 Y186.7643
G01 X266.1819 Y186.8284
G01 X266.1603 Y186.8936
G01 X266.1420 Y186.9599
G01 X266.1270 Y187.0269
G01 X266.1152 Y187.0946
G01 X266.1068 Y187.1628
G01 X266.1018 Y187.2313
G01 X266.1001 Y187.3000
G01 X266.1018 Y187.3687
G01 X266.1068 Y187.4373
G01 X266.1152 Y187.5055
G01 X266.1270 Y187.5732
G01 X266.1420 Y187.6402
G01 X266.1603 Y187.7064
G01 X266.1819 Y187.7717
G01 X266.2066 Y187.8358
G01 X266.2345 Y187.8986
G01 X266.2654 Y187.9600
G01 X266.2992 Y188.0198
G01 X266.3360 Y188.0778
G01 X266.3756 Y188.1340
G01 X266.4178 Y188.1882
G01 X266.4627 Y188.2402
G01 X266.5101 Y188.2900
G01 X266.5599 Y188.3374
G01 X266.6119 Y188.3822
G01 X266.6661 Y188.4245
G01 X266.7223 Y188.4641
G01 X266.7803 Y188.5008
G01 X266.8401 Y188.5347
G01 X266.9015 Y188.5656
G01 X266.9643 Y188.5935
G01 X267.0284 Y188.6182
G01 X267.0937 Y188.6397
G01 X267.1599 Y188.6581
G01 X267.2269 Y188.6731
G01 X267.2946 Y188.6849
G01 X267.3628 Y188.6933
G01 X267.4314 Y188.6983
G01 X267.5001 Y188.7000
G01 X267.5687 Y188.6983
G01 X267.6373 Y188.6933
G01 X267.7055 Y188.6849
G01 X267.7732 Y188.6731
G01 X267.8402 Y188.6581
G01 X267.9064 Y188.6397
G01 X267.9717 Y188.6182
G01 X268.0358 Y188.5935
G01 X268.0986 Y188.5656
G01 X268.1600 Y188.5347
G01 X268.2198 Y188.5008
G01 X268.2778 Y188.4641
G01 X268.3340 Y188.4245
G01 X268.3882 Y188.3822
G01 X268.4402 Y188.3374
G01 X268.4900 Y188.2900
G01 X268.5374 Y188.2402
G01 X268.5823 Y188.1882
G01 X268.6245 Y188.1340
G01 X268.6641 Y188.0778
G01 X268.7009 Y188.0198
G01 X268.7347 Y187.9600
G01 X268.7656 Y187.8986
G01 X268.7935 Y187.8358
G01 X268.8182 Y187.7717
G01 X268.8398 Y187.7064
G01 X268.8581 Y187.6402
G01 X268.8731 Y187.5732
G01 X268.8849 Y187.5055
G01 X268.8933 Y187.4373
G01 X268.8984 Y187.3687
G01 X268.9000 Y187.3000
G01 X268.8961 Y187.1954
G01 X268.8844 Y187.0914
G01 X268.8649 Y186.9885
G01 X268.8378 Y186.8874
G01 X268.8033 Y186.7886
G01 X268.7614 Y186.6926
G01 X268.7125 Y186.6000
G01 X268.6568 Y186.5114
G01 X268.5946 Y186.4272
G01 X268.5263 Y186.3478
G01 X268.4523 Y186.2738
G01 X268.3729 Y186.2055
G01 X268.2887 Y186.1433
G01 X268.2000 Y186.0876
G01 X268.1075 Y186.0387
G01 X268.0115 Y185.9968
G01 X267.9127 Y185.9622
G01 X267.8116 Y185.9351
G01 X267.7087 Y185.9157
G01 X267.6047 Y185.9040
G01 X267.5001 Y185.9000
G01 X267.3954 Y185.9040
G01 X267.2914 Y185.9157
G01 X267.1885 Y185.9351
G01 X267.0874 Y185.9622
G01 X266.9886 Y185.9968
G01 X266.8926 Y186.0387
G01 X266.8001 Y186.0876
G01 X266.7114 Y186.1433
G01 X266.6272 Y186.2055
G01 X266.5478 Y186.2738
G01 X266.4738 Y186.3478
G01 X266.4055 Y186.4272
G01 X266.3433 Y186.5114
G01 X266.2876 Y186.6000
G01 X266.2387 Y186.6926
G01 X266.1968 Y186.7886
G01 X266.1623 Y186.8874
G01 X266.1352 Y186.9885
G01 X266.1157 Y187.0914
G01 X266.1040 Y187.1954
G01 X266.1001 Y187.3000
G01 X266.1040 Y187.4047
G01 X266.1157 Y187.5087
G01 X266.1352 Y187.6116
G01 X266.1623 Y187.7127
G01 X266.1968 Y187.8115
G01 X266.2387 Y187.9075
G01 X266.2876 Y188.0000
G01 X266.3433 Y188.0887
G01 X266.4055 Y188.1729
G01 X266.4738 Y188.2523
G01 X266.5478 Y188.3263
G01 X266.6272 Y188.3946
G01 X266.7114 Y188.4568
G01 X266.8001 Y188.5125
G01 X266.8926 Y188.5614
G01 X266.9886 Y188.6032
G01 X267.0874 Y188.6378
G01 X267.1885 Y188.6649
G01 X267.2914 Y188.6844
G01 X267.3954 Y188.6961
G01 X267.5001 Y188.7000
G01 X267.6047 Y188.6961
G01 X267.7087 Y188.6844
G01 X267.8116 Y188.6649
G01 X267.9127 Y188.6378
G01 X268.0115 Y188.6032
G01 X268.1075 Y188.5614
G01 X268.2000 Y188.5125
G01 X268.2887 Y188.4568
G01 X268.3729 Y188.3946
G01 X268.4523 Y188.3263
G01 X268.5263 Y188.2523
G01 X268.5946 Y188.1729
G01 X268.6568 Y188.0887
G01 X268.7125 Y188.0000
G01 X268.7614 Y187.9075
G01 X268.8033 Y187.8115
G01 X268.8378 Y187.7127
G01 X268.8649 Y187.6116
G01 X268.8844 Y187.5087
G01 X268.8961 Y187.4047
G01 X268.9000 Y187.3000
G01 X268.8955 Y187.1959
G01 X268.8819 Y187.0925
G01 X268.8593 Y186.9907
G01 X268.8280 Y186.8913
G01 X268.7881 Y186.7950
G01 X268.7399 Y186.7025
G01 X268.6839 Y186.6146
G01 X268.6205 Y186.5319
G01 X268.5500 Y186.4550
G01 X268.4732 Y186.3846
G01 X268.3905 Y186.3211
G01 X268.3025 Y186.2651
G01 X268.2101 Y186.2170
G01 X268.1138 Y186.1771
G01 X268.0143 Y186.1458
G01 X267.9126 Y186.1232
G01 X267.8092 Y186.1096
G01 X267.7050 Y186.1050
G01 X267.6009 Y186.1096
G01 X267.4975 Y186.1232
G01 X267.3958 Y186.1458
G01 X267.2963 Y186.1771
G01 X267.2000 Y186.2170
G01 X267.1076 Y186.2651
G01 X267.0196 Y186.3211
G01 X266.9369 Y186.3846
G01 X266.8601 Y186.4550
G01 X266.7896 Y186.5319
G01 X266.7262 Y186.6146
G01 X266.6702 Y186.7025
G01 X266.6220 Y186.7950
G01 X266.5821 Y186.8913
G01 X266.5508 Y186.9907
G01 X266.5282 Y187.0925
G01 X266.5146 Y187.1959
G01 X266.5101 Y187.3000
G01 X266.5112 Y187.3486
G01 X266.5148 Y187.3971
G01 X266.5208 Y187.4453
G01 X266.5291 Y187.4932
G01 X266.5397 Y187.5406
G01 X266.5527 Y187.5874
G01 X266.5679 Y187.6336
G01 X266.5854 Y187.6789
G01 X266.6051 Y187.7233
G01 X266.6270 Y187.7667
G01 X266.6509 Y187.8090
G01 X266.6769 Y187.8500
G01 X266.7049 Y187.8898
G01 X266.7348 Y187.9281
G01 X266.7665 Y187.9649
G01 X266.8000 Y188.0001
G01 X266.8352 Y188.0336
G01 X266.8720 Y188.0653
G01 X266.9103 Y188.0952
G01 X266.9500 Y188.1232
G01 X266.9911 Y188.1492
G01 X267.0334 Y188.1731
G01 X267.0768 Y188.1950
G01 X267.1212 Y188.2147
G01 X267.1665 Y188.2322
G01 X267.2127 Y188.2474
G01 X267.2595 Y188.2604
G01 X267.3069 Y188.2710
G01 X267.3548 Y188.2793
G01 X267.4030 Y188.2853
G01 X267.4515 Y188.2888
G01 X267.5001 Y188.2900
G01 X267.5486 Y188.2888
G01 X267.5971 Y188.2853
G01 X267.6453 Y188.2793
G01 X267.6932 Y188.2710
G01 X267.7406 Y188.2604
G01 X267.7874 Y188.2474
G01 X267.8336 Y188.2322
G01 X267.8789 Y188.2147
G01 X267.9233 Y188.1950
G01 X267.9667 Y188.1731
G01 X268.0090 Y188.1492
G01 X268.0501 Y188.1232
G01 X268.0898 Y188.0952
G01 X268.1281 Y188.0653
G01 X268.1649 Y188.0336
G01 X268.2001 Y188.0001
G01 X268.2336 Y187.9649
G01 X268.2653 Y187.9281
G01 X268.2952 Y187.8898
G01 X268.3232 Y187.8500
G01 X268.3492 Y187.8090
G01 X268.3732 Y187.7667
G01 X268.3950 Y187.7233
G01 X268.4147 Y187.6789
G01 X268.4322 Y187.6336
G01 X268.4474 Y187.5874
G01 X268.4604 Y187.5406
G01 X268.4710 Y187.4932
G01 X268.4793 Y187.4453
G01 X268.4853 Y187.3971
G01 X268.4889 Y187.3486
G01 X268.4901 Y187.3000
M107
M106 S240
G01 X268.4889 Y187.2529 Z-2.2167 F400
G01 X268.4856 Y187.2059 Z-2.2333
G01 X268.4800 Y187.1591 Z-2.2500
G01 X268.4722 Y187.1127 Z-2.2667
G01 X268.4621 Y187.0666 Z-2.2833
G01 X268.4500 Y187.0211 Z-2.3000
G01 X268.4356 Y186.9762 Z-2.3167
G01 X268.4191 Y186.9321 Z-2.3333
G01 X268.4006 Y186.8888 Z-2.3500
G01 X268.3800 Y186.8464 Z-2.3667
G01 X268.3574 Y186.8050 Z-2.3833
G01 X268.3329 Y186.7648 Z-2.4000
G01 X268.3065 Y186.7258 Z-2.4167
G01 X268.2782 Y186.6881 Z-2.4333
G01 X268.2482 Y186.6517 Z-2.4500
G01 X268.2166 Y186.6169 Z-2.4667
G01 X268.1832 Y186.5835 Z-2.4833
G01 X268.1484 Y186.5518 Z-2.5000
G01 X268.1120 Y186.5218 Z-2.5167
G01 X268.0743 Y186.4936 Z-2.5333
G01 X268.0353 Y186.4672 Z-2.5500
G01 X267.9951 Y186.4427 Z-2.5667
G01 X267.9537 Y186.4201 Z-2.5833
G01 X267.9113 Y186.3995 Z-2.6000
G01 X267.8680 Y186.3809 Z-2.6167
G01 X267.8239 Y186.3645 Z-2.6333
G01 X267.7790 Y186.3501 Z-2.6500
G01 X267.7335 Y186.3379 Z-2.6667
G01 X267.6874 Y186.3279 Z-2.6833
G01 X267.6409 Y186.3201 Z-2.7000
G01 X267.5942 Y186.3145 Z-2.7167
G01 X267.5472 Y186.3112 Z-2.7333
G01 X267.5001 Y186.3100 Z-2.7500
G01 X267.4529 Y186.3112 Z-2.7667
G01 X267.4059 Y186.3145 Z-2.7833
G01 X267.3592 Y186.3201 Z-2.8000
G01 X267.3127 Y186.3279 Z-2.8167
G01 X267.2667 Y186.3379 Z-2.8333
G01 X267.2211 Y186.3501 Z-2.8500
G01 X267.1763 Y186.3645 Z-2.8667
G01 X267.1321 Y186.3809 Z-2.8833
G01 X267.0888 Y186.3995 Z-2.9000
G01 X267.0464 Y186.4201 Z-2.9167
G01 X267.0051 Y186.4427 Z-2.9333
G01 X266.9648 Y186.4672 Z-2.9500
G01 X266.9258 Y186.4936 Z-2.9667
G01 X266.8881 Y186.5218 Z-2.9833
G01 X266.8517 Y186.5518 Z-3.0000
G01 X266.8169 Y186.5835 Z-3.0167
G01 X266.7836 Y186.6169 Z-3.0333
G01 X266.7519 Y186.6517 Z-3.0500
G01 X266.7219 Y186.6881 Z-3.0667
G01 X266.6936 Y186.7258 Z-3.0833
G01 X266.6672 Y186.7648 Z-3.1000
G01 X266.6427 Y186.8050 Z-3.1167
G01 X266.6201 Y186.8464 Z-3.1333
G01 X266.5995 Y186.8888 Z-3.1500
G01 X266.5810 Y186.9321 Z-3.1667
G01 X266.5645 Y186.9762 Z-3.1833
G01 X266.5502 Y187.0211 Z-3.2000
G01 X266.5380 Y187.0666 Z-3.2167
G01 X266.5279 Y187.1127 Z-3.2333
G01 X266.5201 Y187.1591 Z-3.2500
G01 X266.5145 Y187.2059 Z-3.2667
G01 X266.5112 Y187.2529 Z-3.2833
G01 X266.5101 Y187.3000 Z-3.3000
G01 X266.5112 Y187.3471 Z-3.3167
G01 X266.5145 Y187.3941 Z-3.3333
G01 X266.5201 Y187.4409 Z-3.3500
G01 X266.5279 Y187.4874 Z-3.3667
G01 X266.5380 Y187.5334 Z-3.3833
G01 X266.5502 Y187.5789 Z-3.4000
G01 X266.5645 Y187.6238 Z-3.4167
G01 X266.5810 Y187.6680 Z-3.4333
G01 X266.5995 Y187.7113 Z-3.4500
G01 X266.6201 Y187.7537 Z-3.4667
G01 X266.6427 Y187.7950 Z-3.4833
G01 X266.6672 Y187.8353 Z-3.5000
G01 X266.6936 Y187.8743 Z-3.5167
G01 X266.7219 Y187.9120 Z-3.5333
G01 X266.7519 Y187.9483 Z-3.5500
G01 X266.7836 Y187.9832 Z-3.5667
G01 X266.8169 Y188.0165 Z-3.5833
G01 X266.8517 Y188.0482 Z-3.6000
G01 X266.8881 Y188.0782 Z-3.6167
G01 X266.9258 Y188.1065 Z-3.6333
G01 X266.9648 Y188.1329 Z-3.6500
G01 X267.0051 Y188.1574 Z-3.6667
G01 X267.0464 Y188.1800 Z-3.6833
G01 X267.0888 Y188.2006 Z-3.7000
G01 X267.1321 Y188.2191 Z-3.7167
G01 X267.1763 Y188.2356 Z-3.7333
G01 X267.2211 Y188.2499 Z-3.7500
G01 X267.2667 Y188.2621 Z-3.7667
G01 X267.3127 Y188.2721 Z-3.7833
G01 X267.3592 Y188.2800 Z-3.8000
G01 X267.4059 Y188.2855 Z-3.8167
G01 X267.4529 Y188.2889 Z-3.8333
G01 X267.5001 Y188.2900 Z-3.8500
G01 X267.5472 Y188.2889 Z-3.8667
G01 X267.5942 Y188.2855 Z-3.8833
G01 X267.6409 Y188.2800 Z-3.9000
G01 X267.6874 Y188.2721 Z-3.9167
G01 X267.7335 Y188.2621 Z-3.9333
G01 X267.7790 Y188.2499 Z-3.9500
G01 X267.8239 Y188.2356 Z-3.9667
G01 X267.8680 Y188.2191 Z-3.9833
G01 X267.9113 Y188.2006 Z-4.0000
G01 X267.9537 Y188.1800 Z-4.0167
G01 X267.9951 Y188.1574 Z-4.0333
G01 X268.0353 Y188.1329 Z-4.0500
G01 X268.0743 Y188.1065 Z-4.0667
G01 X268.1120 Y188.0782 Z-4.0833
G01 X268.1484 Y188.0482 Z-4.1000
