;Project TeslaExclusiveParking
;Created by Estlcam version 11 build 11,116
;Machining time about 00:25:44 hours

G90
M03 S18000
G00 X0.0000 Y0.0000 Z0.0000
G00 Z2.0000


;No. 1: Helical drill 1
G00 X33.3137 Y187.6780
G00 Z0.5000
M106 S240
G01 X33.3124 Y187.6309 Z0.4958 F400 S18000
G01 X33.3087 Y187.5839 Z0.4917
G01 X33.3026 Y187.5372 Z0.4875
G01 X33.2940 Y187.4909 Z0.4833
G01 X33.2830 Y187.4450 Z0.4792
G01 X33.2696 Y187.3999 Z0.4750
G01 X33.2539 Y187.3554 Z0.4708
G01 X33.2359 Y187.3119 Z0.4667
G01 X33.2156 Y187.2694 Z0.4625
G01 X33.1931 Y187.2280 Z0.4583
G01 X33.1685 Y187.1878 Z0.4542
G01 X33.1418 Y187.1490 Z0.4500
G01 X33.1131 Y187.1116 Z0.4458
G01 X33.0825 Y187.0758 Z0.4417
G01 X33.0501 Y187.0416 Z0.4375
G01 X33.0159 Y187.0092 Z0.4333
G01 X32.9801 Y186.9785 Z0.4292
G01 X32.9427 Y186.9499 Z0.4250
G01 X32.9039 Y186.9232 Z0.4208
G01 X32.8637 Y186.8986 Z0.4167
G01 X32.8223 Y186.8761 Z0.4125
G01 X32.7797 Y186.8558 Z0.4083
G01 X32.7362 Y186.8378 Z0.4042
G01 X32.6918 Y186.8220 Z0.4000
G01 X32.6466 Y186.8086 Z0.3958
G01 X32.6008 Y186.7976 Z0.3917
G01 X32.5545 Y186.7891 Z0.3875
G01 X32.5078 Y186.7829 Z0.3833
G01 X32.4608 Y186.7792 Z0.3792
G01 X32.4137 Y186.7780 Z0.3750
G01 X32.3666 Y186.7792 Z0.3708
G01 X32.3196 Y186.7829 Z0.3667
G01 X32.2729 Y186.7891 Z0.3625
G01 X32.2266 Y186.7976 Z0.3583
G01 X32.1807 Y186.8086 Z0.3542
G01 X32.1356 Y186.8220 Z0.3500
G01 X32.0911 Y186.8378 Z0.3458
G01 X32.0476 Y186.8558 Z0.3417
G01 X32.0051 Y186.8761 Z0.3375
G01 X31.9637 Y186.8986 Z0.3333
G01 X31.9235 Y186.9232 Z0.3292
G01 X31.8847 Y186.9499 Z0.3250
G01 X31.8473 Y186.9785 Z0.3208
G01 X31.8115 Y187.0092 Z0.3167
G01 X31.7773 Y187.0416 Z0.3125
G01 X31.7448 Y187.0758 Z0.3083
G01 X31.7142 Y187.1116 Z0.3042
G01 X31.6856 Y187.1490 Z0.3000
G01 X31.6589 Y187.1878 Z0.2958
G01 X31.6343 Y187.2280 Z0.2917
G01 X31.6118 Y187.2694 Z0.2875
G01 X31.5915 Y187.3119 Z0.2833
G01 X31.5735 Y187.3554 Z0.2792
G01 X31.5577 Y187.3999 Z0.2750
G01 X31.5443 Y187.4450 Z0.2708
G01 X31.5333 Y187.4909 Z0.2667
G01 X31.5248 Y187.5372 Z0.2625
G01 X31.5186 Y187.5839 Z0.2583
G01 X31.5149 Y187.6309 Z0.2542
G01 X31.5137 Y187.6780 Z0.2500
G01 X31.5149 Y187.7251 Z0.2458
G01 X31.5186 Y187.7721 Z0.2417
G01 X31.5248 Y187.8188 Z0.2375
G01 X31.5333 Y187.8651 Z0.2333
G01 X31.5443 Y187.9109 Z0.2292
G01 X31.5577 Y187.9561 Z0.2250
G01 X31.5735 Y188.0005 Z0.2208
G01 X31.5915 Y188.0440 Z0.2167
G01 X31.6118 Y188.0866 Z0.2125
G01 X31.6343 Y188.1280 Z0.2083
G01 X31.6589 Y188.1682 Z0.2042
G01 X31.6856 Y188.2070 Z0.2000
G01 X31.7142 Y188.2444 Z0.1958
G01 X31.7448 Y188.2802 Z0.1917
G01 X31.7773 Y188.3144 Z0.1875
G01 X31.8115 Y188.3468 Z0.1833
G01 X31.8473 Y188.3774 Z0.1792
G01 X31.8847 Y188.4061 Z0.1750
G01 X31.9235 Y188.4328 Z0.1708
G01 X31.9637 Y188.4574 Z0.1667
G01 X32.0051 Y188.4799 Z0.1625
G01 X32.0476 Y188.5002 Z0.1583
G01 X32.0911 Y188.5182 Z0.1542
G01 X32.1356 Y188.5339 Z0.1500
G01 X32.1807 Y188.5473 Z0.1458
G01 X32.2266 Y188.5583 Z0.1417
G01 X32.2729 Y188.5669 Z0.1375
G01 X32.3196 Y188.5731 Z0.1333
G01 X32.3666 Y188.5767 Z0.1292
G01 X32.4137 Y188.5780 Z0.1250
G01 X32.4608 Y188.5767 Z0.1208
G01 X32.5078 Y188.5731 Z0.1167
G01 X32.5545 Y188.5669 Z0.1125
G01 X32.6008 Y188.5583 Z0.1083
G01 X32.6466 Y188.5473 Z0.1042
G01 X32.6918 Y188.5339 Z0.1000
G01 X32.7362 Y188.5182 Z0.0958
G01 X32.7797 Y188.5002 Z0.0917
G01 X32.8223 Y188.4799 Z0.0875
G01 X32.8637 Y188.4574 Z0.0833
G01 X32.9039 Y188.4328 Z0.0792
G01 X32.9427 Y188.4061 Z0.0750
G01 X32.9801 Y188.3774 Z0.0708
G01 X33.0159 Y188.3468 Z0.0667
G01 X33.0501 Y188.3144 Z0.0625
G01 X33.0825 Y188.2802 Z0.0583
G01 X33.1131 Y188.2444 Z0.0542
G01 X33.1418 Y188.2070 Z0.0500
G01 X33.1685 Y188.1682 Z0.0458
G01 X33.1931 Y188.1280 Z0.0417
G01 X33.2156 Y188.0866 Z0.0375
G01 X33.2359 Y188.0440 Z0.0333
G01 X33.2539 Y188.0005 Z0.0292
G01 X33.2696 Y187.9561 Z0.0250
G01 X33.2830 Y187.9109 Z0.0208
G01 X33.2940 Y187.8651 Z0.0167
G01 X33.3026 Y187.8188 Z0.0125
G01 X33.3087 Y187.7721 Z0.0083
G01 X33.3124 Y187.7251 Z0.0042
G01 X33.3137 Y187.6780 Z0.0000
G01 X33.3124 Y187.6309
G01 X33.3087 Y187.5839
G01 X33.3026 Y187.5372
G01 X33.2940 Y187.4909
G01 X33.2830 Y187.4450
G01 X33.2696 Y187.3999
G01 X33.2539 Y187.3554
G01 X33.2359 Y187.3119
G01 X33.2156 Y187.2694
G01 X33.1931 Y187.2280
G01 X33.1685 Y187.1878
G01 X33.1418 Y187.1490
G01 X33.1131 Y187.1116
G01 X33.0825 Y187.0758
G01 X33.0501 Y187.0416
G01 X33.0159 Y187.0092
G01 X32.9801 Y186.9785
G01 X32.9427 Y186.9499
G01 X32.9039 Y186.9232
G01 X32.8637 Y186.8986
G01 X32.8223 Y186.8761
G01 X32.7797 Y186.8558
G01 X32.7362 Y186.8378
G01 X32.6918 Y186.8220
G01 X32.6466 Y186.8086
G01 X32.6008 Y186.7976
G01 X32.5545 Y186.7891
G01 X32.5078 Y186.7829
G01 X32.4608 Y186.7792
G01 X32.4137 Y186.7780
G01 X32.3666 Y186.7792
G01 X32.3196 Y186.7829
G01 X32.2729 Y186.7891
G01 X32.2266 Y186.7976
G01 X32.1807 Y186.8086
G01 X32.1356 Y186.8220
G01 X32.0911 Y186.8378
G01 X32.0476 Y186.8558
G01 X32.0051 Y186.8761
G01 X31.9637 Y186.8986
G01 X31.9235 Y186.9232
G01 X31.8847 Y186.9499
G01 X31.8473 Y186.9785
G01 X31.8115 Y187.0092
G01 X31.7773 Y187.0416
G01 X31.7448 Y187.0758
G01 X31.7142 Y187.1116
G01 X31.6856 Y187.1490
G01 X31.6589 Y187.1878
G01 X31.6343 Y187.2280
G01 X31.6118 Y187.2694
G01 X31.5915 Y187.3119
G01 X31.5735 Y187.3554
G01 X31.5577 Y187.3999
G01 X31.5443 Y187.4450
G01 X31.5333 Y187.4909
G01 X31.5248 Y187.5372
G01 X31.5186 Y187.5839
G01 X31.5149 Y187.6309
G01 X31.5137 Y187.6780
G01 X31.5149 Y187.7251
G01 X31.5186 Y187.7721
G01 X31.5248 Y187.8188
G01 X31.5333 Y187.8651
G01 X31.5443 Y187.9109
G01 X31.5577 Y187.9561
G01 X31.5735 Y188.0005
G01 X31.5915 Y188.0440
G01 X31.6118 Y188.0866
G01 X31.6343 Y188.1280
G01 X31.6589 Y188.1682
G01 X31.6856 Y188.2070
G01 X31.7142 Y188.2444
G01 X31.7448 Y188.2802
G01 X31.7773 Y188.3144
G01 X31.8115 Y188.3468
G01 X31.8473 Y188.3774
G01 X31.8847 Y188.4061
G01 X31.9235 Y188.4328
G01 X31.9637 Y188.4574
G01 X32.0051 Y188.4799
G01 X32.0476 Y188.5002
G01 X32.0911 Y188.5182
G01 X32.1356 Y188.5339
G01 X32.1807 Y188.5473
G01 X32.2266 Y188.5583
G01 X32.2729 Y188.5669
G01 X32.3196 Y188.5731
G01 X32.3666 Y188.5767
G01 X32.4137 Y188.5780
G01 X32.4608 Y188.5767
G01 X32.5078 Y188.5731
G01 X32.5545 Y188.5669
G01 X32.6008 Y188.5583
G01 X32.6466 Y188.5473
G01 X32.6918 Y188.5339
G01 X32.7362 Y188.5182
G01 X32.7797 Y188.5002
G01 X32.8223 Y188.4799
G01 X32.8637 Y188.4574
G01 X32.9039 Y188.4328
G01 X32.9427 Y188.4061
G01 X32.9801 Y188.3774
G01 X33.0159 Y188.3468
G01 X33.0501 Y188.3144
G01 X33.0825 Y188.2802
G01 X33.1131 Y188.2444
G01 X33.1418 Y188.2070
G01 X33.1685 Y188.1682
G01 X33.1931 Y188.1280
G01 X33.2156 Y188.0866
G01 X33.2359 Y188.0440
G01 X33.2539 Y188.0005
G01 X33.2696 Y187.9561
G01 X33.2830 Y187.9109
G01 X33.2940 Y187.8651
G01 X33.3026 Y187.8188
G01 X33.3087 Y187.7721
G01 X33.3124 Y187.7251
G01 X33.3137 Y187.6780
M107
M106 S240
G01 X33.3124 Y187.6309 Z-0.0167
G01 X33.3087 Y187.5839 Z-0.0333
G01 X33.3026 Y187.5372 Z-0.0500
G01 X33.2940 Y187.4909 Z-0.0667
G01 X33.2830 Y187.4450 Z-0.0833
G01 X33.2696 Y187.3999 Z-0.1000
G01 X33.2539 Y187.3554 Z-0.1167
G01 X33.2359 Y187.3119 Z-0.1333
G01 X33.2156 Y187.2694 Z-0.1500
G01 X33.1931 Y187.2280 Z-0.1667
G01 X33.1685 Y187.1878 Z-0.1833
G01 X33.1418 Y187.1490 Z-0.2000
G01 X33.1131 Y187.1116 Z-0.2167
G01 X33.0825 Y187.0758 Z-0.2333
G01 X33.0501 Y187.0416 Z-0.2500
G01 X33.0159 Y187.0092 Z-0.2667
G01 X32.9801 Y186.9785 Z-0.2833
G01 X32.9427 Y186.9499 Z-0.3000
G01 X32.9039 Y186.9232 Z-0.3167
G01 X32.8637 Y186.8986 Z-0.3333
G01 X32.8223 Y186.8761 Z-0.3500
G01 X32.7797 Y186.8558 Z-0.3667
G01 X32.7362 Y186.8378 Z-0.3833
G01 X32.6918 Y186.8220 Z-0.4000
G01 X32.6466 Y186.8086 Z-0.4167
G01 X32.6008 Y186.7976 Z-0.4333
G01 X32.5545 Y186.7891 Z-0.4500
G01 X32.5078 Y186.7829 Z-0.4667
G01 X32.4608 Y186.7792 Z-0.4833
G01 X32.4137 Y186.7780 Z-0.5000
G01 X32.3666 Y186.7792 Z-0.5167
G01 X32.3196 Y186.7829 Z-0.5333
G01 X32.2729 Y186.7891 Z-0.5500
G01 X32.2266 Y186.7976 Z-0.5667
G01 X32.1807 Y186.8086 Z-0.5833
G01 X32.1356 Y186.8220 Z-0.6000
G01 X32.0911 Y186.8378 Z-0.6167
G01 X32.0476 Y186.8558 Z-0.6333
G01 X32.0051 Y186.8761 Z-0.6500
G01 X31.9637 Y186.8986 Z-0.6667
G01 X31.9235 Y186.9232 Z-0.6833
G01 X31.8847 Y186.9499 Z-0.7000
G01 X31.8473 Y186.9785 Z-0.7167
G01 X31.8115 Y187.0092 Z-0.7333
G01 X31.7773 Y187.0416 Z-0.7500
G01 X31.7448 Y187.0758 Z-0.7667
G01 X31.7142 Y187.1116 Z-0.7833
G01 X31.6856 Y187.1490 Z-0.8000
G01 X31.6589 Y187.1878 Z-0.8167
G01 X31.6343 Y187.2280 Z-0.8333
G01 X31.6118 Y187.2694 Z-0.8500
G01 X31.5915 Y187.3119 Z-0.8667
G01 X31.5735 Y187.3554 Z-0.8833
G01 X31.5577 Y187.3999 Z-0.9000
G01 X31.5443 Y187.4450 Z-0.9167
G01 X31.5333 Y187.4909 Z-0.9333
G01 X31.5248 Y187.5372 Z-0.9500
G01 X31.5186 Y187.5839 Z-0.9667
G01 X31.5149 Y187.6309 Z-0.9833
G01 X31.5137 Y187.6780 Z-1.0000
G01 X31.5149 Y187.7251 Z-1.0167
G01 X31.5186 Y187.7721 Z-1.0333
G01 X31.5248 Y187.8188 Z-1.0500
G01 X31.5333 Y187.8651 Z-1.0667
G01 X31.5443 Y187.9109 Z-1.0833
G01 X31.5577 Y187.9561 Z-1.1000
G01 X31.5735 Y188.0005 Z-1.1167
G01 X31.5915 Y188.0440 Z-1.1333
G01 X31.6118 Y188.0866 Z-1.1500
G01 X31.6343 Y188.1280 Z-1.1667
G01 X31.6589 Y188.1682 Z-1.1833
G01 X31.6856 Y188.2070 Z-1.2000
G01 X31.7142 Y188.2444 Z-1.2167
G01 X31.7448 Y188.2802 Z-1.2333
G01 X31.7773 Y188.3144 Z-1.2500
G01 X31.8115 Y188.3468 Z-1.2667
G01 X31.8473 Y188.3774 Z-1.2833
G01 X31.8847 Y188.4061 Z-1.3000
G01 X31.9235 Y188.4328 Z-1.3167
G01 X31.9637 Y188.4574 Z-1.3333
G01 X32.0051 Y188.4799 Z-1.3500
G01 X32.0476 Y188.5002 Z-1.3667
G01 X32.0911 Y188.5182 Z-1.3833
G01 X32.1356 Y188.5339 Z-1.4000
G01 X32.1807 Y188.5473 Z-1.4167
G01 X32.2266 Y188.5583 Z-1.4333
G01 X32.2729 Y188.5669 Z-1.4500
G01 X32.3196 Y188.5731 Z-1.4667
G01 X32.3666 Y188.5767 Z-1.4833
G01 X32.4137 Y188.5780 Z-1.5000
G01 X32.4608 Y188.5767 Z-1.5167
G01 X32.5078 Y188.5731 Z-1.5333
G01 X32.5545 Y188.5669 Z-1.5500
G01 X32.6008 Y188.5583 Z-1.5667
G01 X32.6466 Y188.5473 Z-1.5833
G01 X32.6918 Y188.5339 Z-1.6000
G01 X32.7362 Y188.5182 Z-1.6167
G01 X32.7797 Y188.5002 Z-1.6333
G01 X32.8223 Y188.4799 Z-1.6500
G01 X32.8637 Y188.4574 Z-1.6667
G01 X32.9039 Y188.4328 Z-1.6833
G01 X32.9427 Y188.4061 Z-1.7000
G01 X32.9801 Y188.3774 Z-1.7167
G01 X33.0159 Y188.3468 Z-1.7333
G01 X33.0501 Y188.3144 Z-1.7500
G01 X33.0825 Y188.2802 Z-1.7667
G01 X33.1131 Y188.2444 Z-1.7833
G01 X33.1418 Y188.2070 Z-1.8000
G01 X33.1685 Y188.1682 Z-1.8167
G01 X33.1931 Y188.1280 Z-1.8333
G01 X33.2156 Y188.0866 Z-1.8500
G01 X33.2359 Y188.0440 Z-1.8667
G01 X33.2539 Y188.0005 Z-1.8833
G01 X33.2696 Y187.9561 Z-1.9000
G01 X33.2830 Y187.9109 Z-1.9167
G01 X33.2940 Y187.8651 Z-1.9333
G01 X33.3026 Y187.8188 Z-1.9500
G01 X33.3087 Y187.7721 Z-1.9667
G01 X33.3124 Y187.7251 Z-1.9833
G01 X33.3137 Y187.6780 Z-2.0000
G01 X33.3124 Y187.6309
G01 X33.3087 Y187.5839
G01 X33.3026 Y187.5372
G01 X33.2940 Y187.4909
G01 X33.2830 Y187.4450
G01 X33.2696 Y187.3999
G01 X33.2539 Y187.3554
G01 X33.2359 Y187.3119
G01 X33.2156 Y187.2694
G01 X33.1931 Y187.2280
G01 X33.1685 Y187.1878
G01 X33.1418 Y187.1490
G01 X33.1131 Y187.1116
G01 X33.0825 Y187.0758
G01 X33.0501 Y187.0416
G01 X33.0159 Y187.0092
G01 X32.9801 Y186.9785
G01 X32.9427 Y186.9499
G01 X32.9039 Y186.9232
G01 X32.8637 Y186.8986
G01 X32.8223 Y186.8761
G01 X32.7797 Y186.8558
G01 X32.7362 Y186.8378
G01 X32.6918 Y186.8220
G01 X32.6466 Y186.8086
G01 X32.6008 Y186.7976
G01 X32.5545 Y186.7891
G01 X32.5078 Y186.7829
G01 X32.4608 Y186.7792
G01 X32.4137 Y186.7780
G01 X32.3666 Y186.7792
G01 X32.3196 Y186.7829
G01 X32.2729 Y186.7891
G01 X32.2266 Y186.7976
G01 X32.1807 Y186.8086
G01 X32.1356 Y186.8220
G01 X32.0911 Y186.8378
G01 X32.0476 Y186.8558
G01 X32.0051 Y186.8761
G01 X31.9637 Y186.8986
G01 X31.9235 Y186.9232
G01 X31.8847 Y186.9499
G01 X31.8473 Y186.9785
G01 X31.8115 Y187.0092
G01 X31.7773 Y187.0416
G01 X31.7448 Y187.0758
G01 X31.7142 Y187.1116
G01 X31.6856 Y187.1490
G01 X31.6589 Y187.1878
G01 X31.6343 Y187.2280
G01 X31.6118 Y187.2694
G01 X31.5915 Y187.3119
G01 X31.5735 Y187.3554
G01 X31.5577 Y187.3999
G01 X31.5443 Y187.4450
G01 X31.5333 Y187.4909
G01 X31.5248 Y187.5372
G01 X31.5186 Y187.5839
G01 X31.5149 Y187.6309
G01 X31.5137 Y187.6780
G01 X31.5149 Y187.7251
G01 X31.5186 Y187.7721
G01 X31.5248 Y187.8188
G01 X31.5333 Y187.8651
G01 X31.5443 Y187.9109
G01 X31.5577 Y187.9561
G01 X31.5735 Y188.0005
G01 X31.5915 Y188.0440
G01 X31.6118 Y188.0866
G01 X31.6343 Y188.1280
G01 X31.6589 Y188.1682
G01 X31.6856 Y188.2070
G01 X31.7142 Y188.2444
G01 X31.7448 Y188.2802
G01 X31.7773 Y188.3144
G01 X31.8115 Y188.3468
G01 X31.8473 Y188.3774
G01 X31.8847 Y188.4061
G01 X31.9235 Y188.4328
G01 X31.9637 Y188.4574
G01 X32.0051 Y188.4799
G01 X32.0476 Y188.5002
G01 X32.0911 Y188.5182
G01 X32.1356 Y188.5339
G01 X32.1807 Y188.5473
G01 X32.2266 Y188.5583
G01 X32.2729 Y188.5669
G01 X32.3196 Y188.5731
G01 X32.3666 Y188.5767
G01 X32.4137 Y188.5780
G01 X32.4608 Y188.5767
G01 X32.5078 Y188.5731
G01 X32.5545 Y188.5669
G01 X32.6008 Y188.5583
G01 X32.6466 Y188.5473
G01 X32.6918 Y188.5339
G01 X32.7362 Y188.5182
G01 X32.7797 Y188.5002
G01 X32.8223 Y188.4799
G01 X32.8637 Y188.4574
G01 X32.9039 Y188.4328
G01 X32.9427 Y188.4061
G01 X32.9801 Y188.3774
G01 X33.0159 Y188.3468
G01 X33.0501 Y188.3144
G01 X33.0825 Y188.2802
G01 X33.1131 Y188.2444
G01 X33.1418 Y188.2070
G01 X33.1685 Y188.1682
G01 X33.1931 Y188.1280
G01 X33.2156 Y188.0866
G01 X33.2359 Y188.0440
G01 X33.2539 Y188.0005
G01 X33.2696 Y187.9561
G01 X33.2830 Y187.9109
G01 X33.2940 Y187.8651
G01 X33.3026 Y187.8188
G01 X33.3087 Y187.7721
G01 X33.3124 Y187.7251
G01 X33.3137 Y187.6780
G01 X33.3246 Y187.6313 F1000
G01 X33.3331 Y187.5841
G01 X33.3391 Y187.5366
G01 X33.3426 Y187.4888
G01 X33.3436 Y187.4409
G01 X33.3422 Y187.3930
G01 X33.3382 Y187.3452
G01 X33.3318 Y187.2977
G01 X33.3221 Y187.2462
G01 X33.3098 Y187.1953
G01 X33.2948 Y187.1450
G01 X33.2773 Y187.0956
G01 X33.2573 Y187.0472
G01 X33.2348 Y186.9999
G01 X33.2099 Y186.9538
G01 X33.1827 Y186.9090
G01 X33.1506 Y186.8620
G01 X33.1162 Y186.8166
G01 X33.0796 Y186.7731
G01 X33.0407 Y186.7316
G01 X32.9998 Y186.6920
G01 X32.9569 Y186.6546
G01 X32.9122 Y186.6195
G01 X32.8657 Y186.5866
G01 X32.8138 Y186.5538
G01 X32.7603 Y186.5237
G01 X32.7054 Y186.4963
G01 X32.6491 Y186.4717
G01 X32.5916 Y186.4501
G01 X32.5331 Y186.4314
G01 X32.4738 Y186.4157
G01 X32.4137 Y186.4030
G01 X32.3486 Y186.3927
G01 X32.2830 Y186.3856
G01 X32.2172 Y186.3819
G01 X32.1513 Y186.3816
G01 X32.0854 Y186.3846
G01 X32.0198 Y186.3909
G01 X31.9545 Y186.4005
G01 X31.8899 Y186.4134
G01 X31.8216 Y186.4307
G01 X31.7542 Y186.4514
G01 X31.6880 Y186.4754
G01 X31.6230 Y186.5028
G01 X31.5596 Y186.5334
G01 X31.4977 Y186.5672
G01 X31.4377 Y186.6040
G01 X31.3795 Y186.6438
G01 X31.3260 Y186.6933
G01 X31.2750 Y186.7453
G01 X31.2266 Y186.7997
G01 X31.1810 Y186.8565
G01 X31.1382 Y186.9155
G01 X31.0983 Y186.9765
G01 X31.0615 Y187.0393
G01 X31.0279 Y187.1040
G01 X31.0014 Y187.1727
G01 X30.9783 Y187.2426
G01 X30.9587 Y187.3135
G01 X30.9425 Y187.3854
G01 X30.9299 Y187.4579
G01 X30.9209 Y187.5310
G01 X30.9155 Y187.6044
G01 X30.9137 Y187.6780
G01 X30.9155 Y187.7516
G01 X30.9209 Y187.8250
G01 X30.9299 Y187.8981
G01 X30.9425 Y187.9706
G01 X30.9587 Y188.0424
G01 X30.9783 Y188.1134
G01 X31.0014 Y188.1833
G01 X31.0279 Y188.2520
G01 X31.0577 Y188.3193
G01 X31.0908 Y188.3851
G01 X31.1271 Y188.4491
G01 X31.1665 Y188.5113
G01 X31.2089 Y188.5715
G01 X31.2542 Y188.6296
G01 X31.3023 Y188.6853
G01 X31.3530 Y188.7386
G01 X31.4064 Y188.7894
G01 X31.4621 Y188.8375
G01 X31.5201 Y188.8828
G01 X31.5803 Y188.9252
G01 X31.6425 Y188.9645
G01 X31.7066 Y189.0008
G01 X31.7724 Y189.0339
G01 X31.8397 Y189.0638
G01 X31.9084 Y189.0903
G01 X31.9783 Y189.1134
G01 X32.0492 Y189.1330
G01 X32.1211 Y189.1491
G01 X32.1936 Y189.1617
G01 X32.2667 Y189.1707
G01 X32.3401 Y189.1761
G01 X32.4137 Y189.1779
G01 X32.4873 Y189.1761
G01 X32.5607 Y189.1707
G01 X32.6338 Y189.1617
G01 X32.7063 Y189.1491
G01 X32.7781 Y189.1330
G01 X32.8491 Y189.1134
G01 X32.9190 Y189.0903
G01 X32.9877 Y189.0638
G01 X33.0550 Y189.0339
G01 X33.1208 Y189.0008
G01 X33.1848 Y188.9645
G01 X33.2470 Y188.9252
G01 X33.3072 Y188.8828
G01 X33.3652 Y188.8375
G01 X33.4210 Y188.7894
G01 X33.4743 Y188.7386
G01 X33.5251 Y188.6853
G01 X33.5732 Y188.6296
G01 X33.6185 Y188.5715
G01 X33.6609 Y188.5113
G01 X33.7002 Y188.4491
G01 X33.7365 Y188.3851
G01 X33.7696 Y188.3193
G01 X33.7995 Y188.2520
G01 X33.8260 Y188.1833
G01 X33.8491 Y188.1134
G01 X33.8687 Y188.0424
G01 X33.8848 Y187.9706
G01 X33.8974 Y187.8981
G01 X33.9064 Y187.8250
G01 X33.9118 Y187.7516
G01 X33.9136 Y187.6780
G01 X33.9095 Y187.5659
G01 X33.8969 Y187.4544
G01 X33.8760 Y187.3442
G01 X33.8470 Y187.2359
G01 X33.8100 Y187.1300
G01 X33.7651 Y187.0272
G01 X33.7127 Y186.9280
G01 X33.6530 Y186.8330
G01 X33.5864 Y186.7428
G01 X33.5132 Y186.6577
G01 X33.4339 Y186.5784
G01 X33.3489 Y186.5053
G01 X33.2586 Y186.4386
G01 X33.1637 Y186.3790
G01 X33.0645 Y186.3266
G01 X32.9617 Y186.2817
G01 X32.8558 Y186.2447
G01 X32.7475 Y186.2156
G01 X32.6372 Y186.1948
G01 X32.5258 Y186.1822
G01 X32.4137 Y186.1780
G01 X32.3016 Y186.1822
G01 X32.1901 Y186.1948
G01 X32.0799 Y186.2156
G01 X31.9716 Y186.2447
G01 X31.8657 Y186.2817
G01 X31.7629 Y186.3266
G01 X31.6637 Y186.3790
G01 X31.5687 Y186.4386
G01 X31.4785 Y186.5053
G01 X31.3934 Y186.5784
G01 X31.3141 Y186.6577
G01 X31.2410 Y186.7428
G01 X31.1743 Y186.8330
G01 X31.1147 Y186.9280
G01 X31.0623 Y187.0272
G01 X31.0174 Y187.1300
G01 X30.9804 Y187.2359
G01 X30.9513 Y187.3442
G01 X30.9305 Y187.4544
G01 X30.9179 Y187.5659
G01 X30.9137 Y187.6780
G01 X30.9179 Y187.7901
G01 X30.9305 Y187.9015
G01 X30.9513 Y188.0118
G01 X30.9804 Y188.1201
G01 X31.0174 Y188.2260
G01 X31.0623 Y188.3288
G01 X31.1147 Y188.4280
G01 X31.1743 Y188.5229
G01 X31.2410 Y188.6132
G01 X31.3141 Y188.6982
G01 X31.3934 Y188.7775
G01 X31.4785 Y188.8507
G01 X31.5687 Y188.9173
G01 X31.6637 Y188.9770
G01 X31.7629 Y189.0294
G01 X31.8657 Y189.0743
G01 X31.9716 Y189.1113
G01 X32.0799 Y189.1403
G01 X32.1901 Y189.1612
G01 X32.3016 Y189.1738
G01 X32.4137 Y189.1779
G01 X32.5258 Y189.1738
G01 X32.6372 Y189.1612
G01 X32.7475 Y189.1403
G01 X32.8558 Y189.1113
G01 X32.9617 Y189.0743
G01 X33.0645 Y189.0294
G01 X33.1637 Y188.9770
G01 X33.2586 Y188.9173
G01 X33.3489 Y188.8507
G01 X33.4339 Y188.7775
G01 X33.5132 Y188.6982
G01 X33.5864 Y188.6132
G01 X33.6530 Y188.5229
G01 X33.7127 Y188.4280
G01 X33.7651 Y188.3288
G01 X33.8100 Y188.2260
G01 X33.8470 Y188.1201
G01 X33.8760 Y188.0118
G01 X33.8969 Y187.9015
G01 X33.9095 Y187.7901
G01 X33.9136 Y187.6780
G01 X33.9091 Y187.5734
G01 X33.8954 Y187.4696
G01 X33.8728 Y187.3674
G01 X33.8413 Y187.2676
G01 X33.8012 Y187.1708
G01 X33.7529 Y187.0780
G01 X33.6966 Y186.9897
G01 X33.6329 Y186.9066
G01 X33.5622 Y186.8295
G01 X33.4850 Y186.7587
G01 X33.4019 Y186.6950
G01 X33.3137 Y186.6388
G01 X33.2208 Y186.5904
G01 X33.1241 Y186.5504
G01 X33.0242 Y186.5189
G01 X32.9220 Y186.4962
G01 X32.8182 Y186.4826
G01 X32.7137 Y186.4780
G01 X32.6091 Y186.4826
G01 X32.5053 Y186.4962
G01 X32.4031 Y186.5189
G01 X32.3032 Y186.5504
G01 X32.2065 Y186.5904
G01 X32.1137 Y186.6388
G01 X32.0254 Y186.6950
G01 X31.9423 Y186.7587
G01 X31.8651 Y186.8295
G01 X31.7944 Y186.9066
G01 X31.7307 Y186.9897
G01 X31.6744 Y187.0780
G01 X31.6261 Y187.1708
G01 X31.5860 Y187.2676
G01 X31.5546 Y187.3674
G01 X31.5319 Y187.4696
G01 X31.5182 Y187.5734
G01 X31.5137 Y187.6780
G01 X31.5149 Y187.7251
G01 X31.5186 Y187.7721
G01 X31.5248 Y187.8188
G01 X31.5333 Y187.8651
G01 X31.5443 Y187.9109
G01 X31.5577 Y187.9561
G01 X31.5735 Y188.0005
G01 X31.5915 Y188.0440
G01 X31.6118 Y188.0866
G01 X31.6343 Y188.1280
G01 X31.6589 Y188.1682
G01 X31.6856 Y188.2070
G01 X31.7142 Y188.2444
G01 X31.7448 Y188.2802
G01 X31.7773 Y188.3144
G01 X31.8115 Y188.3468
G01 X31.8473 Y188.3774
G01 X31.8847 Y188.4061
G01 X31.9235 Y188.4328
G01 X31.9637 Y188.4574
G01 X32.0051 Y188.4799
G01 X32.0476 Y188.5002
G01 X32.0911 Y188.5182
G01 X32.1356 Y188.5339
G01 X32.1807 Y188.5473
G01 X32.2266 Y188.5583
G01 X32.2729 Y188.5669
G01 X32.3196 Y188.5731
G01 X32.3666 Y188.5767
G01 X32.4137 Y188.5780
G01 X32.4608 Y188.5767
G01 X32.5078 Y188.5731
G01 X32.5545 Y188.5669
G01 X32.6008 Y188.5583
G01 X32.6466 Y188.5473
G01 X32.6918 Y188.5339
G01 X32.7362 Y188.5182
G01 X32.7797 Y188.5002
G01 X32.8223 Y188.4799
G01 X32.8637 Y188.4574
G01 X32.9039 Y188.4328
G01 X32.9427 Y188.4061
G01 X32.9801 Y188.3774
G01 X33.0159 Y188.3468
G01 X33.0501 Y188.3144
G01 X33.0825 Y188.2802
G01 X33.1131 Y188.2444
G01 X33.1418 Y188.2070
G01 X33.1685 Y188.1682
G01 X33.1931 Y188.1280
G01 X33.2156 Y188.0866
G01 X33.2359 Y188.0440
G01 X33.2539 Y188.0005
G01 X33.2696 Y187.9561
G01 X33.2830 Y187.9109
G01 X33.2940 Y187.8651
G01 X33.3026 Y187.8188
G01 X33.3087 Y187.7721
G01 X33.3124 Y187.7251
G01 X33.3137 Y187.6780
M107
M106 S240
G01 X33.3124 Y187.6309 Z-2.0167 F400
G01 X33.3087 Y187.5839 Z-2.0333
G01 X33.3026 Y187.5372 Z-2.0500
G01 X33.2940 Y187.4909 Z-2.0667
G01 X33.2830 Y187.4450 Z-2.0833
G01 X33.2696 Y187.3999 Z-2.1000
G01 X33.2539 Y187.3554 Z-2.1167
G01 X33.2359 Y187.3119 Z-2.1333
G01 X33.2156 Y187.2694 Z-2.1500
G01 X33.1931 Y187.2280 Z-2.1667
G01 X33.1685 Y187.1878 Z-2.1833
G01 X33.1418 Y187.1490 Z-2.2000
G01 X33.1131 Y187.1116 Z-2.2167
G01 X33.0825 Y187.0758 Z-2.2333
G01 X33.0501 Y187.0416 Z-2.2500
G01 X33.0159 Y187.0092 Z-2.2667
G01 X32.9801 Y186.9785 Z-2.2833
G01 X32.9427 Y186.9499 Z-2.3000
G01 X32.9039 Y186.9232 Z-2.3167
G01 X32.8637 Y186.8986 Z-2.3333
G01 X32.8223 Y186.8761 Z-2.3500
G01 X32.7797 Y186.8558 Z-2.3667
G01 X32.7362 Y186.8378 Z-2.3833
G01 X32.6918 Y186.8220 Z-2.4000
G01 X32.6466 Y186.8086 Z-2.4167
G01 X32.6008 Y186.7976 Z-2.4333
G01 X32.5545 Y186.7891 Z-2.4500
G01 X32.5078 Y186.7829 Z-2.4667
G01 X32.4608 Y186.7792 Z-2.4833
G01 X32.4137 Y186.7780 Z-2.5000
G01 X32.3666 Y186.7792 Z-2.5167
G01 X32.3196 Y186.7829 Z-2.5333
G01 X32.2729 Y186.7891 Z-2.5500
G01 X32.2266 Y186.7976 Z-2.5667
G01 X32.1807 Y186.8086 Z-2.5833
G01 X32.1356 Y186.8220 Z-2.6000
G01 X32.0911 Y186.8378 Z-2.6167
G01 X32.0476 Y186.8558 Z-2.6333
G01 X32.0051 Y186.8761 Z-2.6500
G01 X31.9637 Y186.8986 Z-2.6667
G01 X31.9235 Y186.9232 Z-2.6833
G01 X31.8847 Y186.9499 Z-2.7000
G01 X31.8473 Y186.9785 Z-2.7167
G01 X31.8115 Y187.0092 Z-2.7333
G01 X31.7773 Y187.0416 Z-2.7500
G01 X31.7448 Y187.0758 Z-2.7667
G01 X31.7142 Y187.1116 Z-2.7833
G01 X31.6856 Y187.1490 Z-2.8000
G01 X31.6589 Y187.1878 Z-2.8167
G01 X31.6343 Y187.2280 Z-2.8333
G01 X31.6118 Y187.2694 Z-2.8500
G01 X31.5915 Y187.3119 Z-2.8667
G01 X31.5735 Y187.3554 Z-2.8833
G01 X31.5577 Y187.3999 Z-2.9000
G01 X31.5443 Y187.4450 Z-2.9167
G01 X31.5333 Y187.4909 Z-2.9333
G01 X31.5248 Y187.5372 Z-2.9500
G01 X31.5186 Y187.5839 Z-2.9667
G01 X31.5149 Y187.6309 Z-2.9833
G01 X31.5137 Y187.6780 Z-3.0000
G01 X31.5149 Y187.7251 Z-3.0167
G01 X31.5186 Y187.7721 Z-3.0333
G01 X31.5248 Y187.8188 Z-3.0500
G01 X31.5333 Y187.8651 Z-3.0667
G01 X31.5443 Y187.9109 Z-3.0833
G01 X31.5577 Y187.9561 Z-3.1000
G01 X31.5735 Y188.0005 Z-3.1167
G01 X31.5915 Y188.0440 Z-3.1333
G01 X31.6118 Y188.0866 Z-3.1500
G01 X31.6343 Y188.1280 Z-3.1667
G01 X31.6589 Y188.1682 Z-3.1833
G01 X31.6856 Y188.2070 Z-3.2000
G01 X31.7142 Y188.2444 Z-3.2167
G01 X31.7448 Y188.2802 Z-3.2333
G01 X31.7773 Y188.3144 Z-3.2500
G01 X31.8115 Y188.3468 Z-3.2667
G01 X31.8473 Y188.3774 Z-3.2833
G01 X31.8847 Y188.4061 Z-3.3000
G01 X31.9235 Y188.4328 Z-3.3167
G01 X31.9637 Y188.4574 Z-3.3333
G01 X32.0051 Y188.4799 Z-3.3500
G01 X32.0476 Y188.5002 Z-3.3667
G01 X32.0911 Y188.5182 Z-3.3833
G01 X32.1356 Y188.5339 Z-3.4000
G01 X32.1807 Y188.5473 Z-3.4167
G01 X32.2266 Y188.5583 Z-3.4333
G01 X32.2729 Y188.5669 Z-3.4500
G01 X32.3196 Y188.5731 Z-3.4667
G01 X32.3666 Y188.5767 Z-3.4833
G01 X32.4137 Y188.5780 Z-3.5000
G01 X32.4608 Y188.5767 Z-3.5167
G01 X32.5078 Y188.5731 Z-3.5333
G01 X32.5545 Y188.5669 Z-3.5500
G01 X32.6008 Y188.5583 Z-3.5667
G01 X32.6466 Y188.5473 Z-3.5833
G01 X32.6918 Y188.5339 Z-3.6000
G01 X32.7362 Y188.5182 Z-3.6167
G01 X32.7797 Y188.5002 Z-3.6333
G01 X32.8223 Y188.4799 Z-3.6500
G01 X32.8637 Y188.4574 Z-3.6667
G01 X32.9039 Y188.4328 Z-3.6833
G01 X32.9427 Y188.4061 Z-3.7000
G01 X32.9801 Y188.3774 Z-3.7167
G01 X33.0159 Y188.3468 Z-3.7333
G01 X33.0501 Y188.3144 Z-3.7500
G01 X33.0825 Y188.2802 Z-3.7667
G01 X33.1131 Y188.2444 Z-3.7833
G01 X33.1418 Y188.2070 Z-3.8000
G01 X33.1685 Y188.1682 Z-3.8167
G01 X33.1931 Y188.1280 Z-3.8333
G01 X33.2156 Y188.0866 Z-3.8500
G01 X33.2359 Y188.0440 Z-3.8667
G01 X33.2539 Y188.0005 Z-3.8833
G01 X33.2696 Y187.9561 Z-3.9000
G01 X33.2830 Y187.9109 Z-3.9167
G01 X33.2940 Y187.8651 Z-3.9333
G01 X33.3026 Y187.8188 Z-3.9500
G01 X33.3087 Y187.7721 Z-3.9667
G01 X33.3124 Y187.7251 Z-3.9833
G01 X33.3137 Y187.6780 Z-4.0000
G01 X33.3124 Y187.6309
G01 X33.3087 Y187.5839
G01 X33.3026 Y187.5372
G01 X33.2940 Y187.4909
G01 X33.2830 Y187.4450
G01 X33.2696 Y187.3999
G01 X33.2539 Y187.3554
G01 X33.2359 Y187.3119
G01 X33.2156 Y187.2694
G01 X33.1931 Y187.2280
G01 X33.1685 Y187.1878
G01 X33.1418 Y187.1490
G01 X33.1131 Y187.1116
G01 X33.0825 Y187.0758
G01 X33.0501 Y187.0416
G01 X33.0159 Y187.0092
G01 X32.9801 Y186.9785
G01 X32.9427 Y186.9499
G01 X32.9039 Y186.9232
G01 X32.8637 Y186.8986
G01 X32.8223 Y186.8761
G01 X32.7797 Y186.8558
G01 X32.7362 Y186.8378
G01 X32.6918 Y186.8220
G01 X32.6466 Y186.8086
G01 X32.6008 Y186.7976
G01 X32.5545 Y186.7891
G01 X32.5078 Y186.7829
G01 X32.4608 Y186.7792
G01 X32.4137 Y186.7780
G01 X32.3666 Y186.7792
G01 X32.3196 Y186.7829
G01 X32.2729 Y186.7891
G01 X32.2266 Y186.7976
G01 X32.1807 Y186.8086
G01 X32.1356 Y186.8220
G01 X32.0911 Y186.8378
G01 X32.0476 Y186.8558
G01 X32.0051 Y186.8761
G01 X31.9637 Y186.8986
G01 X31.9235 Y186.9232
G01 X31.8847 Y186.9499
G01 X31.8473 Y186.9785
G01 X31.8115 Y187.0092
G01 X31.7773 Y187.0416
G01 X31.7448 Y187.0758
G01 X31.7142 Y187.1116
G01 X31.6856 Y187.1490
G01 X31.6589 Y187.1878
G01 X31.6343 Y187.2280
G01 X31.6118 Y187.2694
G01 X31.5915 Y187.3119
G01 X31.5735 Y187.3554
G01 X31.5577 Y187.3999
G01 X31.5443 Y187.4450
G01 X31.5333 Y187.4909
G01 X31.5248 Y187.5372
G01 X31.5186 Y187.5839
G01 X31.5149 Y187.6309
G01 X31.5137 Y187.6780
G01 X31.5149 Y187.7251
G01 X31.5186 Y187.7721
G01 X31.5248 Y187.8188
G01 X31.5333 Y187.8651
G01 X31.5443 Y187.9109
G01 X31.5577 Y187.9561
G01 X31.5735 Y188.0005
G01 X31.5915 Y188.0440
G01 X31.6118 Y188.0866
G01 X31.6343 Y188.1280
G01 X31.6589 Y188.1682
G01 X31.6856 Y188.2070
G01 X31.7142 Y188.2444
G01 X31.7448 Y188.2802
G01 X31.7773 Y188.3144
G01 X31.8115 Y188.3468
G01 X31.8473 Y188.3774
G01 X31.8847 Y188.4061
G01 X31.9235 Y188.4328
G01 X31.9637 Y188.4574
G01 X32.0051 Y188.4799
G01 X32.0476 Y188.5002
G01 X32.0911 Y188.5182
G01 X32.1356 Y188.5339
G01 X32.1807 Y188.5473
G01 X32.2266 Y188.5583
G01 X32.2729 Y188.5669
G01 X32.3196 Y188.5731
G01 X32.3666 Y188.5767
G01 X32.4137 Y188.5780
G01 X32.4608 Y188.5767
G01 X32.5078 Y188.5731
G01 X32.5545 Y188.5669
G01 X32.6008 Y188.5583
G01 X32.6466 Y188.5473
G01 X32.6918 Y188.5339
G01 X32.7362 Y188.5182
G01 X32.7797 Y188.5002
G01 X32.8223 Y188.4799
G01 X32.8637 Y188.4574
G01 X32.9039 Y188.4328
G01 X32.9427 Y188.4061
G01 X32.9801 Y188.3774
G01 X33.0159 Y188.3468
G01 X33.0501 Y188.3144
G01 X33.0825 Y188.2802
G01 X33.1131 Y188.2444
G01 X33.1418 Y188.2070
G01 X33.1685 Y188.1682
G01 X33.1931 Y188.1280
G01 X33.2156 Y188.0866
G01 X33.2359 Y188.0440
G01 X33.2539 Y188.0005
G01 X33.2696 Y187.9561
G01 X33.2830 Y187.9109
G01 X33.2940 Y187.8651
G01 X33.3026 Y187.8188
G01 X33.3087 Y187.7721
G01 X33.3124 Y187.7251
G01 X33.3137 Y187.6780
G01 X33.3246 Y187.6313 F1000
G01 X33.3331 Y187.5841
G01 X33.3391 Y187.5366
G01 X33.3426 Y187.4888
G01 X33.3436 Y187.4409
G01 X33.3422 Y187.3930
G01 X33.3382 Y187.3452
G01 X33.3318 Y187.2977
G01 X33.3221 Y187.2462
G01 X33.3098 Y187.1953
G01 X33.2948 Y187.1450
G01 X33.2773 Y187.0956
G01 X33.2573 Y187.0472
G01 X33.2348 Y186.9999
G01 X33.2099 Y186.9538
G01 X33.1827 Y186.9090
G01 X33.1506 Y186.8620
G01 X33.1162 Y186.8166
G01 X33.0796 Y186.7731
G01 X33.0407 Y186.7316
G01 X32.9998 Y186.6920
G01 X32.9569 Y186.6546
G01 X32.9122 Y186.6195
G01 X32.8657 Y186.5866
G01 X32.8138 Y186.5538
G01 X32.7603 Y186.5237
G01 X32.7054 Y186.4963
G01 X32.6491 Y186.4717
G01 X32.5916 Y186.4501
G01 X32.5331 Y186.4314
G01 X32.4738 Y186.4157
G01 X32.4137 Y186.4030
G01 X32.3486 Y186.3927
G01 X32.2830 Y186.3856
G01 X32.2172 Y186.3819
G01 X32.1513 Y186.3816
G01 X32.0854 Y186.3846
G01 X32.0198 Y186.3909
G01 X31.9545 Y186.4005
G01 X31.8899 Y186.4134
G01 X31.8216 Y186.4307
G01 X31.7542 Y186.4514
G01 X31.6880 Y186.4754
G01 X31.6230 Y186.5028
G01 X31.5596 Y186.5334
G01 X31.4977 Y186.5672
G01 X31.4377 Y186.6040
G01 X31.3795 Y186.6438
G01 X31.3260 Y186.6933
G01 X31.2750 Y186.7453
G01 X31.2266 Y186.7997
G01 X31.1810 Y186.8565
G01 X31.1382 Y186.9155
G01 X31.0983 Y186.9765
G01 X31.0615 Y187.0393
G01 X31.0279 Y187.1040
G01 X31.0014 Y187.1727
G01 X30.9783 Y187.2426
G01 X30.9587 Y187.3135
G01 X30.9425 Y187.3854
G01 X30.9299 Y187.4579
G01 X30.9209 Y187.5310
G01 X30.9155 Y187.6044
G01 X30.9137 Y187.6780
G01 X30.9155 Y187.7516
G01 X30.9209 Y187.8250
G01 X30.9299 Y187.8981
G01 X30.9425 Y187.9706
G01 X30.9587 Y188.0424
G01 X30.9783 Y188.1134
G01 X31.0014 Y188.1833
G01 X31.0279 Y188.2520
G01 X31.0577 Y188.3193
G01 X31.0908 Y188.3851
G01 X31.1271 Y188.4491
G01 X31.1665 Y188.5113
G01 X31.2089 Y188.5715
G01 X31.2542 Y188.6296
G01 X31.3023 Y188.6853
G01 X31.3530 Y188.7386
G01 X31.4064 Y188.7894
G01 X31.4621 Y188.8375
G01 X31.5201 Y188.8828
G01 X31.5803 Y188.9252
G01 X31.6425 Y188.9645
G01 X31.7066 Y189.0008
G01 X31.7724 Y189.0339
G01 X31.8397 Y189.0638
G01 X31.9084 Y189.0903
G01 X31.9783 Y189.1134
G01 X32.0492 Y189.1330
G01 X32.1211 Y189.1491
G01 X32.1936 Y189.1617
G01 X32.2667 Y189.1707
G01 X32.3401 Y189.1761
G01 X32.4137 Y189.1779
G01 X32.4873 Y189.1761
G01 X32.5607 Y189.1707
G01 X32.6338 Y189.1617
G01 X32.7063 Y189.1491
G01 X32.7781 Y189.1330
G01 X32.8491 Y189.1134
G01 X32.9190 Y189.0903
G01 X32.9877 Y189.0638
G01 X33.0550 Y189.0339
G01 X33.1208 Y189.0008
G01 X33.1848 Y188.9645
G01 X33.2470 Y188.9252
G01 X33.3072 Y188.8828
G01 X33.3652 Y188.8375
G01 X33.4210 Y188.7894
G01 X33.4743 Y188.7386
G01 X33.5251 Y188.6853
G01 X33.5732 Y188.6296
G01 X33.6185 Y188.5715
G01 X33.6609 Y188.5113
G01 X33.7002 Y188.4491
G01 X33.7365 Y188.3851
G01 X33.7696 Y188.3193
G01 X33.7995 Y188.2520
G01 X33.8260 Y188.1833
G01 X33.8491 Y188.1134
G01 X33.8687 Y188.0424
G01 X33.8848 Y187.9706
G01 X33.8974 Y187.8981
G01 X33.9064 Y187.8250
G01 X33.9118 Y187.7516
G01 X33.9136 Y187.6780
G01 X33.9095 Y187.5659
G01 X33.8969 Y187.4544
G01 X33.8760 Y187.3442
G01 X33.8470 Y187.2359
G01 X33.8100 Y187.1300
G01 X33.7651 Y187.0272
G01 X33.7127 Y186.9280
G01 X33.6530 Y186.8330
G01 X33.5864 Y186.7428
G01 X33.5132 Y186.6577
G01 X33.4339 Y186.5784
G01 X33.3489 Y186.5053
G01 X33.2586 Y186.4386
G01 X33.1637 Y186.3790
G01 X33.0645 Y186.3266
G01 X32.9617 Y186.2817
G01 X32.8558 Y186.2447
G01 X32.7475 Y186.2156
G01 X32.6372 Y186.1948
G01 X32.5258 Y186.1822
G01 X32.4137 Y186.1780
G01 X32.3016 Y186.1822
G01 X32.1901 Y186.1948
G01 X32.0799 Y186.2156
G01 X31.9716 Y186.2447
G01 X31.8657 Y186.2817
G01 X31.7629 Y186.3266
G01 X31.6637 Y186.3790
G01 X31.5687 Y186.4386
G01 X31.4785 Y186.5053
G01 X31.3934 Y186.5784
G01 X31.3141 Y186.6577
G01 X31.2410 Y186.7428
G01 X31.1743 Y186.8330
G01 X31.1147 Y186.9280
G01 X31.0623 Y187.0272
G01 X31.0174 Y187.1300
G01 X30.9804 Y187.2359
G01 X30.9513 Y187.3442
G01 X30.9305 Y187.4544
G01 X30.9179 Y187.5659
G01 X30.9137 Y187.6780
G01 X30.9179 Y187.7901
G01 X30.9305 Y187.9015
G01 X30.9513 Y188.0118
G01 X30.9804 Y188.1201
G01 X31.0174 Y188.2260
G01 X31.0623 Y188.3288
G01 X31.1147 Y188.4280
G01 X31.1743 Y188.5229
G01 X31.2410 Y188.6132
G01 X31.3141 Y188.6982
G01 X31.3934 Y188.7775
G01 X31.4785 Y188.8507
G01 X31.5687 Y188.9173
G01 X31.6637 Y188.9770
G01 X31.7629 Y189.0294
G01 X31.8657 Y189.0743
G01 X31.9716 Y189.1113
G01 X32.0799 Y189.1403
G01 X32.1901 Y189.1612
G01 X32.3016 Y189.1738
G01 X32.4137 Y189.1779
G01 X32.5258 Y189.1738
G01 X32.6372 Y189.1612
G01 X32.7475 Y189.1403
G01 X32.8558 Y189.1113
G01 X32.9617 Y189.0743
G01 X33.0645 Y189.0294
G01 X33.1637 Y188.9770
G01 X33.2586 Y188.9173
G01 X33.3489 Y188.8507
G01 X33.4339 Y188.7775
G01 X33.5132 Y188.6982
G01 X33.5864 Y188.6132
G01 X33.6530 Y188.5229
G01 X33.7127 Y188.4280
G01 X33.7651 Y188.3288
G01 X33.8100 Y188.2260
G01 X33.8470 Y188.1201
G01 X33.8760 Y188.0118
G01 X33.8969 Y187.9015
G01 X33.9095 Y187.7901
G01 X33.9136 Y187.6780
G01 X33.9091 Y187.5734
G01 X33.8954 Y187.4696
G01 X33.8728 Y187.3674
G01 X33.8413 Y187.2676
G01 X33.8012 Y187.1708
G01 X33.7529 Y187.0780
G01 X33.6966 Y186.9897
G01 X33.6329 Y186.9066
G01 X33.5622 Y186.8295
G01 X33.4850 Y186.7587
G01 X33.4019 Y186.6950
G01 X33.3137 Y186.6388
G01 X33.2208 Y186.5904
G01 X33.1241 Y186.5504
G01 X33.0242 Y186.5189
G01 X32.9220 Y186.4962
G01 X32.8182 Y186.4826
G01 X32.7137 Y186.4780
G01 X32.6091 Y186.4826
G01 X32.5053 Y186.4962
G01 X32.4031 Y186.5189
G01 X32.3032 Y186.5504
G01 X32.2065 Y186.5904
G01 X32.1137 Y186.6388
G01 X32.0254 Y186.6950
G01 X31.9423 Y186.7587
G01 X31.8651 Y186.8295
G01 X31.7944 Y186.9066
G01 X31.7307 Y186.9897
G01 X31.6744 Y187.0780
G01 X31.6261 Y187.1708
G01 X31.5860 Y187.2676
G01 X31.5546 Y187.3674
G01 X31.5319 Y187.4696
G01 X31.5182 Y187.5734
G01 X31.5137 Y187.6780
G01 X31.5149 Y187.7251
G01 X31.5186 Y187.7721
G01 X31.5248 Y187.8188
G01 X31.5333 Y187.8651
G01 X31.5443 Y187.9109
G01 X31.5577 Y187.9561
G01 X31.5735 Y188.0005
G01 X31.5915 Y188.0440
G01 X31.6118 Y188.0866
G01 X31.6343 Y188.1280
G01 X31.6589 Y188.1682
G01 X31.6856 Y188.2070
G01 X31.7142 Y188.2444
G01 X31.7448 Y188.2802
G01 X31.7773 Y188.3144
G01 X31.8115 Y188.3468
G01 X31.8473 Y188.3774
G01 X31.8847 Y188.4061
G01 X31.9235 Y188.4328
G01 X31.9637 Y188.4574
G01 X32.0051 Y188.4799
G01 X32.0476 Y188.5002
G01 X32.0911 Y188.5182
G01 X32.1356 Y188.5339
G01 X32.1807 Y188.5473
G01 X32.2266 Y188.5583
G01 X32.2729 Y188.5669
G01 X32.3196 Y188.5731
G01 X32.3666 Y188.5767
G01 X32.4137 Y188.5780
G01 X32.4608 Y188.5767
G01 X32.5078 Y188.5731
G01 X32.5545 Y188.5669
G01 X32.6008 Y188.5583
G01 X32.6466 Y188.5473
G01 X32.6918 Y188.5339
G01 X32.7362 Y188.5182
G01 X32.7797 Y188.5002
G01 X32.8223 Y188.4799
G01 X32.8637 Y188.4574
G01 X32.9039 Y188.4328
G01 X32.9427 Y188.4061
G01 X32.9801 Y188.3774
G01 X33.0159 Y188.3468
G01 X33.0501 Y188.3144
G01 X33.0825 Y188.2802
G01 X33.1131 Y188.2444
G01 X33.1418 Y188.2070
G01 X33.1685 Y188.1682
G01 X33.1931 Y188.1280
G01 X33.2156 Y188.0866
G01 X33.2359 Y188.0440
G01 X33.2539 Y188.0005
G01 X33.2696 Y187.9561
G01 X33.2830 Y187.9109
G01 X33.2940 Y187.8651
G01 X33.3026 Y187.8188
G01 X33.3087 Y187.7721
G01 X33.3124 Y187.7251
G01 X33.3137 Y187.6780
M107
M106 S240
G01 X33.3124 Y187.6309 Z-4.0167 F400
G01 X33.3087 Y187.5839 Z-4.0333
G01 X33.3026 Y187.5372 Z-4.0500
G01 X33.2940 Y187.4909 Z-4.0667
G01 X33.2830 Y187.4450 Z-4.0833
G01 X33.2696 Y187.3999 Z-4.1000
G01 X33.2539 Y187.3554 Z-4.1167
G01 X33.2359 Y187.3119 Z-4.1333
G01 X33.2156 Y187.2694 Z-4.1500
G01 X33.1931 Y187.2280 Z-4.1667
G01 X33.1685 Y187.1878 Z-4.1833
G01 X33.1418 Y187.1490 Z-4.2000
G01 X33.1131 Y187.1116 Z-4.2167
G01 X33.0825 Y187.0758 Z-4.2333
G01 X33.0501 Y187.0416 Z-4.2500
G01 X33.0159 Y187.0092 Z-4.2667
G01 X32.9801 Y186.9785 Z-4.2833
G01 X32.9427 Y186.9499 Z-4.3000
G01 X32.9039 Y186.9232 Z-4.3167
G01 X32.8637 Y186.8986 Z-4.3333
G01 X32.8223 Y186.8761 Z-4.3500
G01 X32.7797 Y186.8558 Z-4.3667
G01 X32.7362 Y186.8378 Z-4.3833
G01 X32.6918 Y186.8220 Z-4.4000
G01 X32.6466 Y186.8086 Z-4.4167
G01 X32.6008 Y186.7976 Z-4.4333
G01 X32.5545 Y186.7891 Z-4.4500
G01 X32.5078 Y186.7829 Z-4.4667
G01 X32.4608 Y186.7792 Z-4.4833
G01 X32.4137 Y186.7780 Z-4.5000
G01 X32.3666 Y186.7792 Z-4.5167
G01 X32.3196 Y186.7829 Z-4.5333
G01 X32.2729 Y186.7891 Z-4.5500
G01 X32.2266 Y186.7976 Z-4.5667
G01 X32.1807 Y186.8086 Z-4.5833
G01 X32.1356 Y186.8220 Z-4.6000
G01 X32.0911 Y186.8378 Z-4.6167
G01 X32.0476 Y186.8558 Z-4.6333
G01 X32.0051 Y186.8761 Z-4.6500
G01 X31.9637 Y186.8986 Z-4.6667
G01 X31.9235 Y186.9232 Z-4.6833
G01 X31.8847 Y186.9499 Z-4.7000
G01 X31.8473 Y186.9785 Z-4.7167
G01 X31.8115 Y187.0092 Z-4.7333
G01 X31.7773 Y187.0416 Z-4.7500
G01 X31.7448 Y187.0758 Z-4.7667
G01 X31.7142 Y187.1116 Z-4.7833
G01 X31.6856 Y187.1490 Z-4.8000
G01 X31.6589 Y187.1878 Z-4.8167
G01 X31.6343 Y187.2280 Z-4.8333
G01 X31.6118 Y187.2694 Z-4.8500
G01 X31.5915 Y187.3119 Z-4.8667
G01 X31.5735 Y187.3554 Z-4.8833
G01 X31.5577 Y187.3999 Z-4.9000
G01 X31.5443 Y187.4450 Z-4.9167
G01 X31.5333 Y187.4909 Z-4.9333
G01 X31.5248 Y187.5372 Z-4.9500
G01 X31.5186 Y187.5839 Z-4.9667
G01 X31.5149 Y187.6309 Z-4.9833
G01 X31.5137 Y187.6780 Z-5.0000
G01 X31.5149 Y187.7251 Z-5.0167
G01 X31.5186 Y187.7721 Z-5.0333
G01 X31.5248 Y187.8188 Z-5.0500
G01 X31.5333 Y187.8651 Z-5.0667
G01 X31.5443 Y187.9109 Z-5.0833
G01 X31.5577 Y187.9561 Z-5.1000
G01 X31.5735 Y188.0005 Z-5.1167
G01 X31.5915 Y188.0440 Z-5.1333
G01 X31.6118 Y188.0866 Z-5.1500
G01 X31.6343 Y188.1280 Z-5.1667
G01 X31.6589 Y188.1682 Z-5.1833
G01 X31.6856 Y188.2070 Z-5.2000
G01 X31.7142 Y188.2444 Z-5.2167
G01 X31.7448 Y188.2802 Z-5.2333
G01 X31.7773 Y188.3144 Z-5.2500
G01 X31.8115 Y188.3468 Z-5.2667
G01 X31.8473 Y188.3774 Z-5.2833
G01 X31.8847 Y188.4061 Z-5.3000
G01 X31.9235 Y188.4328 Z-5.3167
G01 X31.9637 Y188.4574 Z-5.3333
G01 X32.0051 Y188.4799 Z-5.3500
G01 X32.0476 Y188.5002 Z-5.3667
G01 X32.0911 Y188.5182 Z-5.3833
G01 X32.1356 Y188.5339 Z-5.4000
G01 X32.1807 Y188.5473 Z-5.4167
G01 X32.2266 Y188.5583 Z-5.4333
G01 X32.2729 Y188.5669 Z-5.4500
G01 X32.3196 Y188.5731 Z-5.4667
G01 X32.3666 Y188.5767 Z-5.4833
G01 X32.4137 Y188.5780 Z-5.5000
G01 X32.4608 Y188.5767 Z-5.5167
G01 X32.5078 Y188.5731 Z-5.5333
G01 X32.5545 Y188.5669 Z-5.5500
G01 X32.6008 Y188.5583 Z-5.5667
G01 X32.6466 Y188.5473 Z-5.5833
G01 X32.6918 Y188.5339 Z-5.6000
G01 X32.7362 Y188.5182 Z-5.6167
G01 X32.7797 Y188.5002 Z-5.6333
G01 X32.8223 Y188.4799 Z-5.6500
G01 X32.8637 Y188.4574 Z-5.6667
G01 X32.9039 Y188.4328 Z-5.6833
G01 X32.9427 Y188.4061 Z-5.7000
G01 X32.9801 Y188.3774 Z-5.7167
G01 X33.0159 Y188.3468 Z-5.7333
G01 X33.0501 Y188.3144 Z-5.7500
G01 X33.0825 Y188.2802 Z-5.7667
G01 X33.1131 Y188.2444 Z-5.7833
G01 X33.1418 Y188.2070 Z-5.8000
G01 X33.1685 Y188.1682 Z-5.8167
G01 X33.1931 Y188.1280 Z-5.8333
G01 X33.2156 Y188.0866 Z-5.8500
G01 X33.2359 Y188.0440 Z-5.8667
G01 X33.2539 Y188.0005 Z-5.8833
G01 X33.2696 Y187.9561 Z-5.9000
G01 X33.2830 Y187.9109 Z-5.9167
G01 X33.2940 Y187.8651 Z-5.9333
G01 X33.3026 Y187.8188 Z-5.9500
G01 X33.3087 Y187.7721 Z-5.9667
G01 X33.3124 Y187.7251 Z-5.9833
G01 X33.3137 Y187.6780 Z-6.0000
G01 X33.3124 Y187.6309
G01 X33.3087 Y187.5839
G01 X33.3026 Y187.5372
G01 X33.2940 Y187.4909
G01 X33.2830 Y187.4450
G01 X33.2696 Y187.3999
G01 X33.2539 Y187.3554
G01 X33.2359 Y187.3119
G01 X33.2156 Y187.2694
G01 X33.1931 Y187.2280
G01 X33.1685 Y187.1878
G01 X33.1418 Y187.1490
G01 X33.1131 Y187.1116
G01 X33.0825 Y187.0758
G01 X33.0501 Y187.0416
G01 X33.0159 Y187.0092
G01 X32.9801 Y186.9785
G01 X32.9427 Y186.9499
G01 X32.9039 Y186.9232
G01 X32.8637 Y186.8986
G01 X32.8223 Y186.8761
G01 X32.7797 Y186.8558
G01 X32.7362 Y186.8378
G01 X32.6918 Y186.8220
G01 X32.6466 Y186.8086
G01 X32.6008 Y186.7976
G01 X32.5545 Y186.7891
G01 X32.5078 Y186.7829
G01 X32.4608 Y186.7792
G01 X32.4137 Y186.7780
G01 X32.3666 Y186.7792
G01 X32.3196 Y186.7829
G01 X32.2729 Y186.7891
G01 X32.2266 Y186.7976
G01 X32.1807 Y186.8086
G01 X32.1356 Y186.8220
G01 X32.0911 Y186.8378
G01 X32.0476 Y186.8558
G01 X32.0051 Y186.8761
G01 X31.9637 Y186.8986
G01 X31.9235 Y186.9232
G01 X31.8847 Y186.9499
G01 X31.8473 Y186.9785
G01 X31.8115 Y187.0092
G01 X31.7773 Y187.0416
G01 X31.7448 Y187.0758
G01 X31.7142 Y187.1116
G01 X31.6856 Y187.1490
G01 X31.6589 Y187.1878
G01 X31.6343 Y187.2280
G01 X31.6118 Y187.2694
G01 X31.5915 Y187.3119
G01 X31.5735 Y187.3554
G01 X31.5577 Y187.3999
G01 X31.5443 Y187.4450
G01 X31.5333 Y187.4909
G01 X31.5248 Y187.5372
G01 X31.5186 Y187.5839
G01 X31.5149 Y187.6309
G01 X31.5137 Y187.6780
G01 X31.5149 Y187.7251
G01 X31.5186 Y187.7721
G01 X31.5248 Y187.8188
G01 X31.5333 Y187.8651
G01 X31.5443 Y187.9109
G01 X31.5577 Y187.9561
G01 X31.5735 Y188.0005
G01 X31.5915 Y188.0440
G01 X31.6118 Y188.0866
G01 X31.6343 Y188.1280
G01 X31.6589 Y188.1682
G01 X31.6856 Y188.2070
G01 X31.7142 Y188.2444
G01 X31.7448 Y188.2802
G01 X31.7773 Y188.3144
G01 X31.8115 Y188.3468
G01 X31.8473 Y188.3774
G01 X31.8847 Y188.4061
G01 X31.9235 Y188.4328
G01 X31.9637 Y188.4574
G01 X32.0051 Y188.4799
G01 X32.0476 Y188.5002
G01 X32.0911 Y188.5182
G01 X32.1356 Y188.5339
G01 X32.1807 Y188.5473
G01 X32.2266 Y188.5583
G01 X32.2729 Y188.5669
G01 X32.3196 Y188.5731
G01 X32.3666 Y188.5767
G01 X32.4137 Y188.5780
G01 X32.4608 Y188.5767
G01 X32.5078 Y188.5731
G01 X32.5545 Y188.5669
G01 X32.6008 Y188.5583
G01 X32.6466 Y188.5473
G01 X32.6918 Y188.5339
G01 X32.7362 Y188.5182
G01 X32.7797 Y188.5002
G01 X32.8223 Y188.4799
G01 X32.8637 Y188.4574
G01 X32.9039 Y188.4328
G01 X32.9427 Y188.4061
G01 X32.9801 Y188.3774
G01 X33.0159 Y188.3468
G01 X33.0501 Y188.3144
G01 X33.0825 Y188.2802
G01 X33.1131 Y188.2444
G01 X33.1418 Y188.2070
G01 X33.1685 Y188.1682
G01 X33.1931 Y188.1280
G01 X33.2156 Y188.0866
G01 X33.2359 Y188.0440
G01 X33.2539 Y188.0005
G01 X33.2696 Y187.9561
G01 X33.2830 Y187.9109
G01 X33.2940 Y187.8651
G01 X33.3026 Y187.8188
G01 X33.3087 Y187.7721
G01 X33.3124 Y187.7251
G01 X33.3137 Y187.6780
G01 X33.3246 Y187.6313 F1000
G01 X33.3331 Y187.5841
G01 X33.3391 Y187.5366
G01 X33.3426 Y187.4888
G01 X33.3436 Y187.4409
G01 X33.3422 Y187.3930
G01 X33.3382 Y187.3452
G01 X33.3318 Y187.2977
G01 X33.3221 Y187.2462
G01 X33.3098 Y187.1953
G01 X33.2948 Y187.1450
G01 X33.2773 Y187.0956
G01 X33.2573 Y187.0472
G01 X33.2348 Y186.9999
G01 X33.2099 Y186.9538
G01 X33.1827 Y186.9090
G01 X33.1506 Y186.8620
G01 X33.1162 Y186.8166
G01 X33.0796 Y186.7731
G01 X33.0407 Y186.7316
G01 X32.9998 Y186.6920
G01 X32.9569 Y186.6546
G01 X32.9122 Y186.6195
G01 X32.8657 Y186.5866
G01 X32.8138 Y186.5538
G01 X32.7603 Y186.5237
G01 X32.7054 Y186.4963
G01 X32.6491 Y186.4717
G01 X32.5916 Y186.4501
G01 X32.5331 Y186.4314
G01 X32.4738 Y186.4157
G01 X32.4137 Y186.4030
G01 X32.3486 Y186.3927
G01 X32.2830 Y186.3856
G01 X32.2172 Y186.3819
G01 X32.1513 Y186.3816
G01 X32.0854 Y186.3846
G01 X32.0198 Y186.3909
G01 X31.9545 Y186.4005
G01 X31.8899 Y186.4134
G01 X31.8216 Y186.4307
G01 X31.7542 Y186.4514
G01 X31.6880 Y186.4754
G01 X31.6230 Y186.5028
G01 X31.5596 Y186.5334
G01 X31.4977 Y186.5672
G01 X31.4377 Y186.6040
G01 X31.3795 Y186.6438
G01 X31.3260 Y186.6933
G01 X31.2750 Y186.7453
G01 X31.2266 Y186.7997
G01 X31.1810 Y186.8565
G01 X31.1382 Y186.9155
G01 X31.0983 Y186.9765
G01 X31.0615 Y187.0393
G01 X31.0279 Y187.1040
G01 X31.0014 Y187.1727
G01 X30.9783 Y187.2426
G01 X30.9587 Y187.3135
G01 X30.9425 Y187.3854
G01 X30.9299 Y187.4579
G01 X30.9209 Y187.5310
G01 X30.9155 Y187.6044
G01 X30.9137 Y187.6780
G01 X30.9155 Y187.7516
G01 X30.9209 Y187.8250
G01 X30.9299 Y187.8981
G01 X30.9425 Y187.9706
G01 X30.9587 Y188.0424
G01 X30.9783 Y188.1134
G01 X31.0014 Y188.1833
G01 X31.0279 Y188.2520
G01 X31.0577 Y188.3193
G01 X31.0908 Y188.3851
G01 X31.1271 Y188.4491
G01 X31.1665 Y188.5113
G01 X31.2089 Y188.5715
G01 X31.2542 Y188.6296
G01 X31.3023 Y188.6853
G01 X31.3530 Y188.7386
G01 X31.4064 Y188.7894
G01 X31.4621 Y188.8375
G01 X31.5201 Y188.8828
G01 X31.5803 Y188.9252
G01 X31.6425 Y188.9645
G01 X31.7066 Y189.0008
G01 X31.7724 Y189.0339
G01 X31.8397 Y189.0638
G01 X31.9084 Y189.0903
G01 X31.9783 Y189.1134
G01 X32.0492 Y189.1330
G01 X32.1211 Y189.1491
G01 X32.1936 Y189.1617
G01 X32.2667 Y189.1707
G01 X32.3401 Y189.1761
G01 X32.4137 Y189.1779
G01 X32.4873 Y189.1761
G01 X32.5607 Y189.1707
G01 X32.6338 Y189.1617
G01 X32.7063 Y189.1491
G01 X32.7781 Y189.1330
G01 X32.8491 Y189.1134
G01 X32.9190 Y189.0903
G01 X32.9877 Y189.0638
G01 X33.0550 Y189.0339
G01 X33.1208 Y189.0008
G01 X33.1848 Y188.9645
G01 X33.2470 Y188.9252
G01 X33.3072 Y188.8828
G01 X33.3652 Y188.8375
G01 X33.4210 Y188.7894
G01 X33.4743 Y188.7386
G01 X33.5251 Y188.6853
G01 X33.5732 Y188.6296
G01 X33.6185 Y188.5715
G01 X33.6609 Y188.5113
G01 X33.7002 Y188.4491
G01 X33.7365 Y188.3851
G01 X33.7696 Y188.3193
G01 X33.7995 Y188.2520
G01 X33.8260 Y188.1833
G01 X33.8491 Y188.1134
G01 X33.8687 Y188.0424
G01 X33.8848 Y187.9706
G01 X33.8974 Y187.8981
G01 X33.9064 Y187.8250
G01 X33.9118 Y187.7516
G01 X33.9136 Y187.6780
G01 X33.9095 Y187.5659
G01 X33.8969 Y187.4544
G01 X33.8760 Y187.3442
G01 X33.8470 Y187.2359
G01 X33.8100 Y187.1300
G01 X33.7651 Y187.0272
G01 X33.7127 Y186.9280
G01 X33.6530 Y186.8330
G01 X33.5864 Y186.7428
G01 X33.5132 Y186.6577
G01 X33.4339 Y186.5784
G01 X33.3489 Y186.5053
G01 X33.2586 Y186.4386
G01 X33.1637 Y186.3790
G01 X33.0645 Y186.3266
G01 X32.9617 Y186.2817
G01 X32.8558 Y186.2447
G01 X32.7475 Y186.2156
G01 X32.6372 Y186.1948
G01 X32.5258 Y186.1822
G01 X32.4137 Y186.1780
G01 X32.3016 Y186.1822
G01 X32.1901 Y186.1948
G01 X32.0799 Y186.2156
G01 X31.9716 Y186.2447
G01 X31.8657 Y186.2817
G01 X31.7629 Y186.3266
G01 X31.6637 Y186.3790
G01 X31.5687 Y186.4386
G01 X31.4785 Y186.5053
G01 X31.3934 Y186.5784
G01 X31.3141 Y186.6577
G01 X31.2410 Y186.7428
G01 X31.1743 Y186.8330
G01 X31.1147 Y186.9280
G01 X31.0623 Y187.0272
G01 X31.0174 Y187.1300
G01 X30.9804 Y187.2359
G01 X30.9513 Y187.3442
G01 X30.9305 Y187.4544
G01 X30.9179 Y187.5659
G01 X30.9137 Y187.6780
G01 X30.9179 Y187.7901
G01 X30.9305 Y187.9015
G01 X30.9513 Y188.0118
G01 X30.9804 Y188.1201
G01 X31.0174 Y188.2260
G01 X31.0623 Y188.3288
G01 X31.1147 Y188.4280
G01 X31.1743 Y188.5229
G01 X31.2410 Y188.6132
G01 X31.3141 Y188.6982
G01 X31.3934 Y188.7775
G01 X31.4785 Y188.8507
G01 X31.5687 Y188.9173
G01 X31.6637 Y188.9770
G01 X31.7629 Y189.0294
G01 X31.8657 Y189.0743
G01 X31.9716 Y189.1113
G01 X32.0799 Y189.1403
G01 X32.1901 Y189.1612
G01 X32.3016 Y189.1738
G01 X32.4137 Y189.1779
G01 X32.5258 Y189.1738
G01 X32.6372 Y189.1612
G01 X32.7475 Y189.1403
G01 X32.8558 Y189.1113
G01 X32.9617 Y189.0743
G01 X33.0645 Y189.0294
G01 X33.1637 Y188.9770
G01 X33.2586 Y188.9173
G01 X33.3489 Y188.8507
G01 X33.4339 Y188.7775
G01 X33.5132 Y188.6982
G01 X33.5864 Y188.6132
G01 X33.6530 Y188.5229
G01 X33.7127 Y188.4280
G01 X33.7651 Y188.3288
G01 X33.8100 Y188.2260
G01 X33.8470 Y188.1201
G01 X33.8760 Y188.0118
G01 X33.8969 Y187.9015
G01 X33.9095 Y187.7901
G01 X33.9136 Y187.6780
M107
M106 S240
G01 X33.9088 Y187.5800 Z-5.9688 F400
M107
M106 S240
G01 X33.8944 Y187.4829 Z-5.9375
M107
M106 S240
G01 X33.8706 Y187.3877 Z-5.9063
M107
M106 S240
G01 X33.8375 Y187.2953 Z-5.8750
M107
M106 S240
G01 X33.7956 Y187.2066 Z-5.8438
M107
M106 S240
G01 X33.7451 Y187.1224 Z-5.8125
M107
M106 S240
G01 X33.6867 Y187.0436 Z-5.7813
M107
M106 S240
G01 X33.6208 Y186.9709 Z-5.7500
M107
M106 S240
G01 X33.5480 Y186.9050 Z-5.7188
M107
M106 S240
G01 X33.4692 Y186.8465 Z-5.6875
M107
M106 S240
G01 X33.3850 Y186.7961 Z-5.6563
M107
M106 S240
G01 X33.2963 Y186.7541 Z-5.6250
M107
M106 S240
G01 X33.2039 Y186.7210 Z-5.5938
M107
M106 S240
G01 X33.1087 Y186.6972 Z-5.5625
M107
M106 S240
G01 X33.0117 Y186.6828 Z-5.5313
M107
M106 S240
G01 X32.9136 Y186.6780 Z-5.5000
M107
G00 Z2.0000


;No. 2: Hole 30
G00 X35.8018 Y159.5166 Z2.0000
G00 Z0.5000
G01 Z-1.8000 F400
M106 S240
G01 X39.8967 F1000
G01 Y161.0166
G01 X43.5895
G01 X35.0236
G01 X34.2685 Y162.5166
G01 X47.4421
G01 Y164.0166
G01 X51.4763
G01 X33.5287
G01 X32.7986 Y165.5166
G01 X55.7186
G01 Y167.0166
G01 X60.2014
G01 X32.0833
G01 X31.3928 Y168.5166
G01 X64.9659
G01 Y170.0166
G01 X70.0685
G01 X31.7222
G01 X35.6566
G01 Y171.5166
G01 X75.5842
G01 Y173.0166
G01 X81.6239
G01 X39.7212
G01 X43.9553
G01 Y174.5166
G01 X88.3503
G01 Y176.0166
G01 X96.0394
G01 X48.3967
G01 X53.0606
G01 Y177.5166
G01 X105.2146
G01 Y179.0166
G01 X117.1668
G01 X57.9777
G01 X63.1913
G01 Y180.5166
G01 X140.8578
G01 X68.7537
G01 Y182.0166
G01 X231.2345
G01 Y180.5166
G01 X236.7672
G01 X155.1416
G01 X183.0394
G01 Y179.0166
G01 X241.9543
G01 Y177.5166
G01 X246.8559
G01 X194.7778
G01 X203.8478
G01 Y176.0166
G01 X251.5126
G01 Y174.5166
G01 X255.9596
G01 X211.4979
G01 X218.2258
G01 Y173.0166
G01 X260.2227
G01 Y171.5166
G01 X264.3254
G01 X224.2873
G01 X229.8363
G01 Y170.0166
G01 X268.2835
G01 X268.5618 Y168.5166
G01 X234.9724
G01 X239.7664
G01 Y167.0166
G01 X267.8811
G01 X267.1819 Y165.5166
G01 X244.2704
G01 X248.5229
G01 Y164.0166
G01 X266.4685
G01 X265.7418 Y162.5166
G01 X252.5542
G01 X256.3899
G01 Y161.0166
G01 X265.0016
G01 X264.2403 Y159.5166
G01 X260.0477
M107
G00 Z2.0000
G00 X225.2771 Y182.0166
G00 Z0.5000
G01 Z-1.8000 F400
M106 S240
G01 Y183.5166 F1000
G01 X74.7433
G01 X81.2631
G01 Y185.0166
G01 X218.7850
G01 X211.5876
G01 Y186.5166
G01 X88.4782
G01 X96.6588
G01 Y188.0166
G01 X203.4004
G01 X193.6925
G01 Y189.5166
G01 X106.3326
G01 X118.8110
G01 Y191.0166
G01 X181.1793
G01 X157.6867
G01 Y192.5166
G01 X142.7573
M107
G00 Z2.0000
G00 Z0.5000
G01 Z-1.8000 F400
M106 S240
G01 X142.7521 Y192.7165 F1000
G01 X142.8540 Y192.7191
G01 X145.6883 Y192.7731
G01 X148.5231 Y192.8010
G01 X151.3580 Y192.8026
G01 X154.1928 Y192.7781
G01 X157.0272 Y192.7275
G01 X159.8610 Y192.6507
G01 X162.6941 Y192.5477
G01 X165.5260 Y192.4186
G01 X168.3566 Y192.2633
G01 X171.1857 Y192.0820
G01 X174.0130 Y191.8745
G01 X176.8382 Y191.6409
G01 X179.6612 Y191.3813
G01 X182.4817 Y191.0956
G01 X185.2994 Y190.7839
G01 X188.1141 Y190.4462
G01 X191.6744 Y189.9918
G01 X195.2295 Y189.4985
G01 X198.7790 Y188.9664
G01 X202.3224 Y188.3957
G01 X205.8595 Y187.7863
G01 X209.3897 Y187.1383
G01 X212.9126 Y186.4518
G01 X216.4278 Y185.7270
G01 X219.9348 Y184.9638
G01 X223.4334 Y184.1623
G01 X226.9230 Y183.3227
G01 X230.4032 Y182.4451
G01 X233.8736 Y181.5295
G01 X237.3338 Y180.5762
G01 X240.7834 Y179.5851
G01 X244.2220 Y178.5564
G01 X247.6491 Y177.4902
G01 X251.0644 Y176.3867
G01 X254.4675 Y175.2460
G01 X257.8579 Y174.0682
G01 X260.7427 Y173.0449
G01 X263.6177 Y171.9945
G01 X266.4827 Y170.9171
G01 X269.3374 Y169.8129
G01 X268.6768 Y168.3083
G01 X268.0014 Y166.8103
G01 X267.3112 Y165.3191
G01 X266.6063 Y163.8348
G01 X265.8867 Y162.3576
G01 X265.1526 Y160.8875
G01 X264.4040 Y159.4248
G01 X263.6409 Y157.9695
G01 X263.5871 Y157.8890
G01 X262.3639 Y158.3546
G01 X261.1469 Y158.8362
G01 X259.9364 Y159.3339
G01 X258.7326 Y159.8477
G01 X255.7209 Y161.0595
G01 X252.6949 Y162.2352
G01 X249.6551 Y163.3746
G01 X246.6018 Y164.4774
G01 X243.5355 Y165.5435
G01 X240.4567 Y166.5729
G01 X237.3657 Y167.5652
G01 X234.2631 Y168.5205
G01 X231.1493 Y169.4385
G01 X228.0247 Y170.3191
G01 X224.8897 Y171.1622
G01 X221.7449 Y171.9677
G01 X218.5906 Y172.7354
G01 X215.4274 Y173.4653
G01 X212.2556 Y174.1572
G01 X209.0758 Y174.8111
G01 X205.9171 Y175.4304
G01 X202.7515 Y176.0134
G01 X199.5794 Y176.5602
G01 X196.4013 Y177.0706
G01 X193.2175 Y177.5445
G01 X190.0285 Y177.9820
G01 X186.8347 Y178.3829
G01 X183.6365 Y178.7473
G01 X180.4344 Y179.0749
G01 X177.2287 Y179.3659
G01 X174.0199 Y179.6202
G01 X170.8084 Y179.8377
G01 X166.5214 Y180.0203
G01 X162.2329 Y180.1641
G01 X157.9433 Y180.2691
G01 X153.6529 Y180.3353
G01 X149.3621 Y180.3627
G01 X145.0712 Y180.3513
G01 X140.7806 Y180.3010
G01 X136.4907 Y180.2120
G01 X135.9957 Y180.1949
G01 X135.5009 Y180.1762
G01 X135.0061 Y180.1559
G01 X134.5113 Y180.1340
G01 X131.1465 Y179.9627
G01 X127.7840 Y179.7521
G01 X124.4241 Y179.5023
G01 X121.0674 Y179.2133
G01 X117.7143 Y178.8852
G01 X114.3652 Y178.5180
G01 X111.0206 Y178.1118
G01 X107.6810 Y177.6666
G01 X104.3468 Y177.1825
G01 X101.0185 Y176.6596
G01 X97.6965 Y176.0978
G01 X94.3813 Y175.4974
G01 X91.0734 Y174.8583
G01 X87.7731 Y174.1807
G01 X84.4809 Y173.4647
G01 X81.1973 Y172.7103
G01 X78.4630 Y172.0427
G01 X75.7356 Y171.3471
G01 X73.0156 Y170.6235
G01 X70.3031 Y169.8720
G01 X67.5985 Y169.0926
G01 X64.9021 Y168.2855
G01 X62.2141 Y167.4508
G01 X59.5348 Y166.5884
G01 X56.8645 Y165.6986
G01 X54.2035 Y164.7814
G01 X51.5521 Y163.8369
G01 X48.9105 Y162.8652
G01 X46.2790 Y161.8664
G01 X43.6580 Y160.8407
G01 X41.0476 Y159.7880
G01 X38.4481 Y158.7086
G01 X37.9499 Y158.5107
G01 X37.4489 Y158.3200
G01 X36.9452 Y158.1365
G01 X36.4389 Y157.9604
G01 X36.4184 Y157.9690
G01 X35.4631 Y159.7358
G01 X34.5358 Y161.5174
G01 X33.6367 Y163.3134
G01 X32.7661 Y165.1235
G01 X32.2124 Y166.2517
G01 X31.6788 Y167.3895
G01 X31.1653 Y168.5366
G01 X30.6723 Y169.6926
G01 X30.6380 Y169.7798
G01 X30.6392 Y169.8015
G01 X33.7026 Y170.9926
G01 X36.7777 Y172.1532
G01 X39.8642 Y173.2831
G01 X42.9617 Y174.3823
G01 X46.0701 Y175.4506
G01 X49.1889 Y176.4880
G01 X52.3178 Y177.4944
G01 X55.4566 Y178.4695
G01 X58.6050 Y179.4134
G01 X61.7625 Y180.3260
G01 X64.9290 Y181.2071
G01 X68.1041 Y182.0567
G01 X71.2875 Y182.8747
G01 X74.4789 Y183.6610
G01 X77.6779 Y184.4155
G01 X80.8843 Y185.1382
G01 X84.0977 Y185.8290
G01 X87.3178 Y186.4878
G01 X90.5443 Y187.1145
G01 X93.7768 Y187.7091
G01 X97.0151 Y188.2716
G01 X100.2589 Y188.8018
G01 X103.5078 Y189.2998
G01 X106.7614 Y189.7654
G01 X110.0195 Y190.1987
G01 X113.2818 Y190.5996
G01 X116.5479 Y190.9679
G01 X119.8175 Y191.3038
G01 X123.0902 Y191.6072
G01 X126.3659 Y191.8781
G01 X129.6440 Y192.1163
G01 X132.9244 Y192.3219
G01 X135.3801 Y192.4496
G01 X137.8367 Y192.5579
G01 X140.2941 Y192.6469
G01 X142.7521 Y192.7165
G01 X142.7573 Y192.5166
M107
G00 Z2.0000


;No. 3: Helical drill 2
G00 X268.3999 Y187.2998 Z2.0000
G00 Z0.5000
M106 S240
G01 X268.3987 Y187.2527 Z0.4958 F400
G01 X268.3950 Y187.2058 Z0.4917
G01 X268.3889 Y187.1590 Z0.4875
G01 X268.3803 Y187.1127 Z0.4833
G01 X268.3693 Y187.0669 Z0.4792
G01 X268.3559 Y187.0217 Z0.4750
G01 X268.3402 Y186.9773 Z0.4708
G01 X268.3221 Y186.9338 Z0.4667
G01 X268.3018 Y186.8912 Z0.4625
G01 X268.2794 Y186.8498 Z0.4583
G01 X268.2547 Y186.8097 Z0.4542
G01 X268.2280 Y186.7708 Z0.4500
G01 X268.1994 Y186.7335 Z0.4458
G01 X268.1688 Y186.6976 Z0.4417
G01 X268.1363 Y186.6634 Z0.4375
G01 X268.1022 Y186.6310 Z0.4333
G01 X268.0663 Y186.6004 Z0.4292
G01 X268.0289 Y186.5717 Z0.4250
G01 X267.9901 Y186.5450 Z0.4208
G01 X267.9499 Y186.5204 Z0.4167
G01 X267.9085 Y186.4979 Z0.4125
G01 X267.8660 Y186.4776 Z0.4083
G01 X267.8225 Y186.4596 Z0.4042
G01 X267.7780 Y186.4439 Z0.4000
G01 X267.7329 Y186.4305 Z0.3958
G01 X267.6871 Y186.4195 Z0.3917
G01 X267.6407 Y186.4109 Z0.3875
G01 X267.5940 Y186.4048 Z0.3833
G01 X267.5470 Y186.4011 Z0.3792
G01 X267.4999 Y186.3998 Z0.3750
G01 X267.4528 Y186.4011 Z0.3708
G01 X267.4059 Y186.4048 Z0.3667
G01 X267.3591 Y186.4109 Z0.3625
G01 X267.3128 Y186.4195 Z0.3583
G01 X267.2670 Y186.4305 Z0.3542
G01 X267.2218 Y186.4439 Z0.3500
G01 X267.1774 Y186.4596 Z0.3458
G01 X267.1339 Y186.4776 Z0.3417
G01 X267.0913 Y186.4979 Z0.3375
G01 X267.0499 Y186.5204 Z0.3333
G01 X267.0098 Y186.5450 Z0.3292
G01 X266.9709 Y186.5717 Z0.3250
G01 X266.9335 Y186.6004 Z0.3208
G01 X266.8977 Y186.6310 Z0.3167
G01 X266.8635 Y186.6634 Z0.3125
G01 X266.8311 Y186.6976 Z0.3083
G01 X266.8005 Y186.7335 Z0.3042
G01 X266.7718 Y186.7708 Z0.3000
G01 X266.7451 Y186.8097 Z0.2958
G01 X266.7205 Y186.8498 Z0.2917
G01 X266.6980 Y186.8912 Z0.2875
G01 X266.6777 Y186.9338 Z0.2833
G01 X266.6597 Y186.9773 Z0.2792
G01 X266.6440 Y187.0217 Z0.2750
G01 X266.6306 Y187.0669 Z0.2708
G01 X266.6196 Y187.1127 Z0.2667
G01 X266.6110 Y187.1590 Z0.2625
G01 X266.6049 Y187.2058 Z0.2583
G01 X266.6012 Y187.2527 Z0.2542
G01 X266.5999 Y187.2998 Z0.2500
G01 X266.6012 Y187.3469 Z0.2458
G01 X266.6049 Y187.3939 Z0.2417
G01 X266.6110 Y187.4406 Z0.2375
G01 X266.6196 Y187.4870 Z0.2333
G01 X266.6306 Y187.5328 Z0.2292
G01 X266.6440 Y187.5780 Z0.2250
G01 X266.6597 Y187.6224 Z0.2208
G01 X266.6777 Y187.6659 Z0.2167
G01 X266.6980 Y187.7084 Z0.2125
G01 X266.7205 Y187.7498 Z0.2083
G01 X266.7451 Y187.7900 Z0.2042
G01 X266.7718 Y187.8288 Z0.2000
G01 X266.8005 Y187.8662 Z0.1958
G01 X266.8311 Y187.9021 Z0.1917
G01 X266.8635 Y187.9362 Z0.1875
G01 X266.8977 Y187.9687 Z0.1833
G01 X266.9335 Y187.9993 Z0.1792
G01 X266.9709 Y188.0280 Z0.1750
G01 X267.0098 Y188.0546 Z0.1708
G01 X267.0499 Y188.0793 Z0.1667
G01 X267.0913 Y188.1017 Z0.1625
G01 X267.1339 Y188.1220 Z0.1583
G01 X267.1774 Y188.1401 Z0.1542
G01 X267.2218 Y188.1558 Z0.1500
G01 X267.2670 Y188.1692 Z0.1458
G01 X267.3128 Y188.1802 Z0.1417
G01 X267.3591 Y188.1888 Z0.1375
G01 X267.4059 Y188.1949 Z0.1333
G01 X267.4528 Y188.1986 Z0.1292
G01 X267.4999 Y188.1998 Z0.1250
G01 X267.5470 Y188.1986 Z0.1208
G01 X267.5940 Y188.1949 Z0.1167
G01 X267.6407 Y188.1888 Z0.1125
G01 X267.6871 Y188.1802 Z0.1083
G01 X267.7329 Y188.1692 Z0.1042
G01 X267.7780 Y188.1558 Z0.1000
G01 X267.8225 Y188.1401 Z0.0958
G01 X267.8660 Y188.1220 Z0.0917
G01 X267.9085 Y188.1017 Z0.0875
G01 X267.9499 Y188.0793 Z0.0833
G01 X267.9901 Y188.0546 Z0.0792
G01 X268.0289 Y188.0280 Z0.0750
G01 X268.0663 Y187.9993 Z0.0708
G01 X268.1022 Y187.9687 Z0.0667
G01 X268.1363 Y187.9362 Z0.0625
G01 X268.1688 Y187.9021 Z0.0583
G01 X268.1994 Y187.8662 Z0.0542
G01 X268.2280 Y187.8288 Z0.0500
G01 X268.2547 Y187.7900 Z0.0458
G01 X268.2794 Y187.7498 Z0.0417
G01 X268.3018 Y187.7084 Z0.0375
G01 X268.3221 Y187.6659 Z0.0333
G01 X268.3402 Y187.6224 Z0.0292
G01 X268.3559 Y187.5780 Z0.0250
G01 X268.3693 Y187.5328 Z0.0208
G01 X268.3803 Y187.4870 Z0.0167
G01 X268.3889 Y187.4406 Z0.0125
G01 X268.3950 Y187.3939 Z0.0083
G01 X268.3987 Y187.3469 Z0.0042
G01 X268.3999 Y187.2998 Z0.0000
G01 X268.3987 Y187.2527
G01 X268.3950 Y187.2058
G01 X268.3889 Y187.1590
G01 X268.3803 Y187.1127
G01 X268.3693 Y187.0669
G01 X268.3559 Y187.0217
G01 X268.3402 Y186.9773
G01 X268.3221 Y186.9338
G01 X268.3018 Y186.8912
G01 X268.2794 Y186.8498
G01 X268.2547 Y186.8097
G01 X268.2280 Y186.7708
G01 X268.1994 Y186.7335
G01 X268.1688 Y186.6976
G01 X268.1363 Y186.6634
G01 X268.1022 Y186.6310
G01 X268.0663 Y186.6004
G01 X268.0289 Y186.5717
G01 X267.9901 Y186.5450
G01 X267.9499 Y186.5204
G01 X267.9085 Y186.4979
G01 X267.8660 Y186.4776
G01 X267.8225 Y186.4596
G01 X267.7780 Y186.4439
G01 X267.7329 Y186.4305
G01 X267.6871 Y186.4195
G01 X267.6407 Y186.4109
G01 X267.5940 Y186.4048
G01 X267.5470 Y186.4011
G01 X267.4999 Y186.3998
G01 X267.4528 Y186.4011
G01 X267.4059 Y186.4048
G01 X267.3591 Y186.4109
G01 X267.3128 Y186.4195
G01 X267.2670 Y186.4305
G01 X267.2218 Y186.4439
G01 X267.1774 Y186.4596
G01 X267.1339 Y186.4776
G01 X267.0913 Y186.4979
G01 X267.0499 Y186.5204
G01 X267.0098 Y186.5450
G01 X266.9709 Y186.5717
G01 X266.9335 Y186.6004
G01 X266.8977 Y186.6310
G01 X266.8635 Y186.6634
G01 X266.8311 Y186.6976
G01 X266.8005 Y186.7335
G01 X266.7718 Y186.7708
G01 X266.7451 Y186.8097
G01 X266.7205 Y186.8498
G01 X266.6980 Y186.8912
G01 X266.6777 Y186.9338
G01 X266.6597 Y186.9773
G01 X266.6440 Y187.0217
G01 X266.6306 Y187.0669
G01 X266.6196 Y187.1127
G01 X266.6110 Y187.1590
G01 X266.6049 Y187.2058
G01 X266.6012 Y187.2527
G01 X266.5999 Y187.2998
G01 X266.6012 Y187.3469
G01 X266.6049 Y187.3939
G01 X266.6110 Y187.4406
G01 X266.6196 Y187.4870
G01 X266.6306 Y187.5328
G01 X266.6440 Y187.5780
G01 X266.6597 Y187.6224
G01 X266.6777 Y187.6659
G01 X266.6980 Y187.7084
G01 X266.7205 Y187.7498
G01 X266.7451 Y187.7900
G01 X266.7718 Y187.8288
G01 X266.8005 Y187.8662
G01 X266.8311 Y187.9021
G01 X266.8635 Y187.9362
G01 X266.8977 Y187.9687
G01 X266.9335 Y187.9993
G01 X266.9709 Y188.0280
G01 X267.0098 Y188.0546
G01 X267.0499 Y188.0793
G01 X267.0913 Y188.1017
G01 X267.1339 Y188.1220
G01 X267.1774 Y188.1401
G01 X267.2218 Y188.1558
G01 X267.2670 Y188.1692
G01 X267.3128 Y188.1802
G01 X267.3591 Y188.1888
G01 X267.4059 Y188.1949
G01 X267.4528 Y188.1986
G01 X267.4999 Y188.1998
G01 X267.5470 Y188.1986
G01 X267.5940 Y188.1949
G01 X267.6407 Y188.1888
G01 X267.6871 Y188.1802
G01 X267.7329 Y188.1692
G01 X267.7780 Y188.1558
G01 X267.8225 Y188.1401
G01 X267.8660 Y188.1220
G01 X267.9085 Y188.1017
G01 X267.9499 Y188.0793
G01 X267.9901 Y188.0546
G01 X268.0289 Y188.0280
G01 X268.0663 Y187.9993
G01 X268.1022 Y187.9687
G01 X268.1363 Y187.9362
G01 X268.1688 Y187.9021
G01 X268.1994 Y187.8662
G01 X268.2280 Y187.8288
G01 X268.2547 Y187.7900
G01 X268.2794 Y187.7498
G01 X268.3018 Y187.7084
G01 X268.3221 Y187.6659
G01 X268.3402 Y187.6224
G01 X268.3559 Y187.5780
G01 X268.3693 Y187.5328
G01 X268.3803 Y187.4870
G01 X268.3889 Y187.4406
G01 X268.3950 Y187.3939
G01 X268.3987 Y187.3469
G01 X268.3999 Y187.2998
M107
M106 S240
G01 X268.3987 Y187.2527 Z-0.0167
G01 X268.3950 Y187.2058 Z-0.0333
G01 X268.3889 Y187.1590 Z-0.0500
G01 X268.3803 Y187.1127 Z-0.0667
G01 X268.3693 Y187.0669 Z-0.0833
G01 X268.3559 Y187.0217 Z-0.1000
G01 X268.3402 Y186.9773 Z-0.1167
G01 X268.3221 Y186.9338 Z-0.1333
G01 X268.3018 Y186.8912 Z-0.1500
G01 X268.2794 Y186.8498 Z-0.1667
G01 X268.2547 Y186.8097 Z-0.1833
G01 X268.2280 Y186.7708 Z-0.2000
G01 X268.1994 Y186.7335 Z-0.2167
G01 X268.1688 Y186.6976 Z-0.2333
G01 X268.1363 Y186.6634 Z-0.2500
G01 X268.1022 Y186.6310 Z-0.2667
G01 X268.0663 Y186.6004 Z-0.2833
G01 X268.0289 Y186.5717 Z-0.3000
G01 X267.9901 Y186.5450 Z-0.3167
G01 X267.9499 Y186.5204 Z-0.3333
G01 X267.9085 Y186.4979 Z-0.3500
G01 X267.8660 Y186.4776 Z-0.3667
G01 X267.8225 Y186.4596 Z-0.3833
G01 X267.7780 Y186.4439 Z-0.4000
G01 X267.7329 Y186.4305 Z-0.4167
G01 X267.6871 Y186.4195 Z-0.4333
G01 X267.6407 Y186.4109 Z-0.4500
G01 X267.5940 Y186.4048 Z-0.4667
G01 X267.5470 Y186.4011 Z-0.4833
G01 X267.4999 Y186.3998 Z-0.5000
G01 X267.4528 Y186.4011 Z-0.5167
G01 X267.4059 Y186.4048 Z-0.5333
G01 X267.3591 Y186.4109 Z-0.5500
G01 X267.3128 Y186.4195 Z-0.5667
G01 X267.2670 Y186.4305 Z-0.5833
G01 X267.2218 Y186.4439 Z-0.6000
G01 X267.1774 Y186.4596 Z-0.6167
G01 X267.1339 Y186.4776 Z-0.6333
G01 X267.0913 Y186.4979 Z-0.6500
G01 X267.0499 Y186.5204 Z-0.6667
G01 X267.0098 Y186.5450 Z-0.6833
G01 X266.9709 Y186.5717 Z-0.7000
G01 X266.9335 Y186.6004 Z-0.7167
G01 X266.8977 Y186.6310 Z-0.7333
G01 X266.8635 Y186.6634 Z-0.7500
G01 X266.8311 Y186.6976 Z-0.7667
G01 X266.8005 Y186.7335 Z-0.7833
G01 X266.7718 Y186.7708 Z-0.8000
G01 X266.7451 Y186.8097 Z-0.8167
G01 X266.7205 Y186.8498 Z-0.8333
G01 X266.6980 Y186.8912 Z-0.8500
G01 X266.6777 Y186.9338 Z-0.8667
G01 X266.6597 Y186.9773 Z-0.8833
G01 X266.6440 Y187.0217 Z-0.9000
G01 X266.6306 Y187.0669 Z-0.9167
G01 X266.6196 Y187.1127 Z-0.9333
G01 X266.6110 Y187.1590 Z-0.9500
G01 X266.6049 Y187.2058 Z-0.9667
G01 X266.6012 Y187.2527 Z-0.9833
G01 X266.5999 Y187.2998 Z-1.0000
G01 X266.6012 Y187.3469 Z-1.0167
G01 X266.6049 Y187.3939 Z-1.0333
G01 X266.6110 Y187.4406 Z-1.0500
G01 X266.6196 Y187.4870 Z-1.0667
G01 X266.6306 Y187.5328 Z-1.0833
G01 X266.6440 Y187.5780 Z-1.1000
G01 X266.6597 Y187.6224 Z-1.1167
G01 X266.6777 Y187.6659 Z-1.1333
G01 X266.6980 Y187.7084 Z-1.1500
G01 X266.7205 Y187.7498 Z-1.1667
G01 X266.7451 Y187.7900 Z-1.1833
G01 X266.7718 Y187.8288 Z-1.2000
G01 X266.8005 Y187.8662 Z-1.2167
G01 X266.8311 Y187.9021 Z-1.2333
G01 X266.8635 Y187.9362 Z-1.2500
G01 X266.8977 Y187.9687 Z-1.2667
G01 X266.9335 Y187.9993 Z-1.2833
G01 X266.9709 Y188.0280 Z-1.3000
G01 X267.0098 Y188.0546 Z-1.3167
G01 X267.0499 Y188.0793 Z-1.3333
G01 X267.0913 Y188.1017 Z-1.3500
G01 X267.1339 Y188.1220 Z-1.3667
G01 X267.1774 Y188.1401 Z-1.3833
G01 X267.2218 Y188.1558 Z-1.4000
G01 X267.2670 Y188.1692 Z-1.4167
G01 X267.3128 Y188.1802 Z-1.4333
G01 X267.3591 Y188.1888 Z-1.4500
G01 X267.4059 Y188.1949 Z-1.4667
G01 X267.4528 Y188.1986 Z-1.4833
G01 X267.4999 Y188.1998 Z-1.5000
G01 X267.5470 Y188.1986 Z-1.5167
G01 X267.5940 Y188.1949 Z-1.5333
G01 X267.6407 Y188.1888 Z-1.5500
G01 X267.6871 Y188.1802 Z-1.5667
G01 X267.7329 Y188.1692 Z-1.5833
G01 X267.7780 Y188.1558 Z-1.6000
G01 X267.8225 Y188.1401 Z-1.6167
G01 X267.8660 Y188.1220 Z-1.6333
G01 X267.9085 Y188.1017 Z-1.6500
G01 X267.9499 Y188.0793 Z-1.6667
G01 X267.9901 Y188.0546 Z-1.6833
G01 X268.0289 Y188.0280 Z-1.7000
G01 X268.0663 Y187.9993 Z-1.7167
G01 X268.1022 Y187.9687 Z-1.7333
G01 X268.1363 Y187.9362 Z-1.7500
G01 X268.1688 Y187.9021 Z-1.7667
G01 X268.1994 Y187.8662 Z-1.7833
G01 X268.2280 Y187.8288 Z-1.8000
G01 X268.2547 Y187.7900 Z-1.8167
G01 X268.2794 Y187.7498 Z-1.8333
G01 X268.3018 Y187.7084 Z-1.8500
G01 X268.3221 Y187.6659 Z-1.8667
G01 X268.3402 Y187.6224 Z-1.8833
G01 X268.3559 Y187.5780 Z-1.9000
G01 X268.3693 Y187.5328 Z-1.9167
G01 X268.3803 Y187.4870 Z-1.9333
G01 X268.3889 Y187.4406 Z-1.9500
G01 X268.3950 Y187.3939 Z-1.9667
G01 X268.3987 Y187.3469 Z-1.9833
G01 X268.3999 Y187.2998 Z-2.0000
G01 X268.3987 Y187.2527
G01 X268.3950 Y187.2058
G01 X268.3889 Y187.1590
G01 X268.3803 Y187.1127
G01 X268.3693 Y187.0669
G01 X268.3559 Y187.0217
G01 X268.3402 Y186.9773
G01 X268.3221 Y186.9338
G01 X268.3018 Y186.8912
G01 X268.2794 Y186.8498
G01 X268.2547 Y186.8097
G01 X268.2280 Y186.7708
G01 X268.1994 Y186.7335
G01 X268.1688 Y186.6976
G01 X268.1363 Y186.6634
G01 X268.1022 Y186.6310
G01 X268.0663 Y186.6004
G01 X268.0289 Y186.5717
G01 X267.9901 Y186.5450
G01 X267.9499 Y186.5204
G01 X267.9085 Y186.4979
G01 X267.8660 Y186.4776
G01 X267.8225 Y186.4596
G01 X267.7780 Y186.4439
G01 X267.7329 Y186.4305
G01 X267.6871 Y186.4195
G01 X267.6407 Y186.4109
G01 X267.5940 Y186.4048
G01 X267.5470 Y186.4011
G01 X267.4999 Y186.3998
G01 X267.4528 Y186.4011
G01 X267.4059 Y186.4048
G01 X267.3591 Y186.4109
G01 X267.3128 Y186.4195
G01 X267.2670 Y186.4305
G01 X267.2218 Y186.4439
G01 X267.1774 Y186.4596
G01 X267.1339 Y186.4776
G01 X267.0913 Y186.4979
G01 X267.0499 Y186.5204
G01 X267.0098 Y186.5450
G01 X266.9709 Y186.5717
G01 X266.9335 Y186.6004
G01 X266.8977 Y186.6310
G01 X266.8635 Y186.6634
G01 X266.8311 Y186.6976
G01 X266.8005 Y186.7335
G01 X266.7718 Y186.7708
G01 X266.7451 Y186.8097
G01 X266.7205 Y186.8498
G01 X266.6980 Y186.8912
G01 X266.6777 Y186.9338
G01 X266.6597 Y186.9773
G01 X266.6440 Y187.0217
G01 X266.6306 Y187.0669
G01 X266.6196 Y187.1127
G01 X266.6110 Y187.1590
G01 X266.6049 Y187.2058
G01 X266.6012 Y187.2527
G01 X266.5999 Y187.2998
G01 X266.6012 Y187.3469
G01 X266.6049 Y187.3939
G01 X266.6110 Y187.4406
G01 X266.6196 Y187.4870
G01 X266.6306 Y187.5328
G01 X266.6440 Y187.5780
G01 X266.6597 Y187.6224
G01 X266.6777 Y187.6659
G01 X266.6980 Y187.7084
G01 X266.7205 Y187.7498
G01 X266.7451 Y187.7900
G01 X266.7718 Y187.8288
G01 X266.8005 Y187.8662
G01 X266.8311 Y187.9021
G01 X266.8635 Y187.9362
G01 X266.8977 Y187.9687
G01 X266.9335 Y187.9993
G01 X266.9709 Y188.0280
G01 X267.0098 Y188.0546
G01 X267.0499 Y188.0793
G01 X267.0913 Y188.1017
G01 X267.1339 Y188.1220
G01 X267.1774 Y188.1401
G01 X267.2218 Y188.1558
G01 X267.2670 Y188.1692
G01 X267.3128 Y188.1802
G01 X267.3591 Y188.1888
G01 X267.4059 Y188.1949
G01 X267.4528 Y188.1986
G01 X267.4999 Y188.1998
G01 X267.5470 Y188.1986
G01 X267.5940 Y188.1949
G01 X267.6407 Y188.1888
G01 X267.6871 Y188.1802
G01 X267.7329 Y188.1692
G01 X267.7780 Y188.1558
G01 X267.8225 Y188.1401
G01 X267.8660 Y188.1220
G01 X267.9085 Y188.1017
G01 X267.9499 Y188.0793
G01 X267.9901 Y188.0546
G01 X268.0289 Y188.0280
G01 X268.0663 Y187.9993
G01 X268.1022 Y187.9687
G01 X268.1363 Y187.9362
G01 X268.1688 Y187.9021
G01 X268.1994 Y187.8662
G01 X268.2280 Y187.8288
G01 X268.2547 Y187.7900
G01 X268.2794 Y187.7498
G01 X268.3018 Y187.7084
G01 X268.3221 Y187.6659
G01 X268.3402 Y187.6224
G01 X268.3559 Y187.5780
G01 X268.3693 Y187.5328
G01 X268.3803 Y187.4870
G01 X268.3889 Y187.4406
G01 X268.3950 Y187.3939
G01 X268.3987 Y187.3469
G01 X268.3999 Y187.2998
G01 X268.4108 Y187.2532 F1000
G01 X268.4193 Y187.2060
G01 X268.4253 Y187.1584
G01 X268.4288 Y187.1106
G01 X268.4299 Y187.0627
G01 X268.4284 Y187.0148
G01 X268.4245 Y186.9670
G01 X268.4180 Y186.9195
G01 X268.4083 Y186.8680
G01 X268.3960 Y186.8171
G01 X268.3811 Y186.7669
G01 X268.3636 Y186.7175
G01 X268.3436 Y186.6691
G01 X268.3211 Y186.6217
G01 X268.2962 Y186.5756
G01 X268.2689 Y186.5309
G01 X268.2369 Y186.4838
G01 X268.2025 Y186.4385
G01 X268.1658 Y186.3950
G01 X268.1270 Y186.3534
G01 X268.0861 Y186.3139
G01 X268.0432 Y186.2765
G01 X267.9985 Y186.2413
G01 X267.9520 Y186.2085
G01 X267.9001 Y186.1757
G01 X267.8466 Y186.1455
G01 X267.7916 Y186.1182
G01 X267.7353 Y186.0936
G01 X267.6779 Y186.0719
G01 X267.6194 Y186.0532
G01 X267.5600 Y186.0375
G01 X267.4999 Y186.0248
G01 X267.4348 Y186.0145
G01 X267.3693 Y186.0075
G01 X267.3034 Y186.0038
G01 X267.2375 Y186.0034
G01 X267.1716 Y186.0064
G01 X267.1060 Y186.0127
G01 X267.0408 Y186.0224
G01 X266.9761 Y186.0353
G01 X266.9078 Y186.0525
G01 X266.8405 Y186.0732
G01 X266.7742 Y186.0973
G01 X266.7093 Y186.1247
G01 X266.6458 Y186.1553
G01 X266.5840 Y186.1890
G01 X266.5239 Y186.2259
G01 X266.4658 Y186.2657
G01 X266.4123 Y186.3151
G01 X266.3612 Y186.3671
G01 X266.3128 Y186.4216
G01 X266.2671 Y186.4783
G01 X266.2243 Y186.5373
G01 X266.1845 Y186.5983
G01 X266.1477 Y186.6612
G01 X266.1140 Y186.7258
G01 X266.0875 Y186.7945
G01 X266.0644 Y186.8644
G01 X266.0448 Y186.9353
G01 X266.0286 Y187.0072
G01 X266.0160 Y187.0797
G01 X266.0070 Y187.1528
G01 X266.0016 Y187.2262
G01 X265.9998 Y187.2998
G01 X266.0016 Y187.3734
G01 X266.0070 Y187.4469
G01 X266.0160 Y187.5200
G01 X266.0286 Y187.5925
G01 X266.0448 Y187.6643
G01 X266.0644 Y187.7353
G01 X266.0875 Y187.8052
G01 X266.1140 Y187.8739
G01 X266.1438 Y187.9412
G01 X266.1769 Y188.0070
G01 X266.2132 Y188.0711
G01 X266.2526 Y188.1333
G01 X266.2950 Y188.1935
G01 X266.3403 Y188.2515
G01 X266.3884 Y188.3073
G01 X266.4392 Y188.3606
G01 X266.4925 Y188.4114
G01 X266.5483 Y188.4594
G01 X266.6063 Y188.5047
G01 X266.6665 Y188.5471
G01 X266.7287 Y188.5865
G01 X266.7928 Y188.6228
G01 X266.8585 Y188.6559
G01 X266.9259 Y188.6858
G01 X266.9946 Y188.7123
G01 X267.0645 Y188.7354
G01 X267.1354 Y188.7550
G01 X267.2073 Y188.7711
G01 X267.2798 Y188.7837
G01 X267.3529 Y188.7927
G01 X267.4263 Y188.7982
G01 X267.4999 Y188.8000
G01 X267.5735 Y188.7982
G01 X267.6470 Y188.7927
G01 X267.7200 Y188.7837
G01 X267.7926 Y188.7711
G01 X267.8644 Y188.7550
G01 X267.9354 Y188.7354
G01 X268.0053 Y188.7123
G01 X268.0740 Y188.6858
G01 X268.1413 Y188.6559
G01 X268.2071 Y188.6228
G01 X268.2711 Y188.5865
G01 X268.3334 Y188.5471
G01 X268.3936 Y188.5047
G01 X268.4516 Y188.4594
G01 X268.5074 Y188.4114
G01 X268.5607 Y188.3606
G01 X268.6114 Y188.3073
G01 X268.6595 Y188.2515
G01 X268.7048 Y188.1935
G01 X268.7472 Y188.1333
G01 X268.7866 Y188.0711
G01 X268.8229 Y188.0070
G01 X268.8560 Y187.9412
G01 X268.8859 Y187.8739
G01 X268.9124 Y187.8052
G01 X268.9355 Y187.7353
G01 X268.9551 Y187.6643
G01 X268.9712 Y187.5925
G01 X268.9838 Y187.5200
G01 X268.9928 Y187.4469
G01 X268.9982 Y187.3734
G01 X269.0001 Y187.2998
G01 X268.9959 Y187.1877
G01 X268.9833 Y187.0763
G01 X268.9624 Y186.9660
G01 X268.9334 Y186.8577
G01 X268.8964 Y186.7518
G01 X268.8515 Y186.6490
G01 X268.7991 Y186.5498
G01 X268.7394 Y186.4548
G01 X268.6728 Y186.3645
G01 X268.5996 Y186.2795
G01 X268.5203 Y186.2002
G01 X268.4352 Y186.1270
G01 X268.3450 Y186.0604
G01 X268.2500 Y186.0007
G01 X268.1508 Y185.9483
G01 X268.0480 Y185.9034
G01 X267.9421 Y185.8664
G01 X267.8337 Y185.8373
G01 X267.7235 Y185.8165
G01 X267.6120 Y185.8039
G01 X267.4999 Y185.7997
G01 X267.3878 Y185.8039
G01 X267.2764 Y185.8165
G01 X267.1661 Y185.8373
G01 X267.0578 Y185.8664
G01 X266.9519 Y185.9034
G01 X266.8491 Y185.9483
G01 X266.7499 Y186.0007
G01 X266.6549 Y186.0604
G01 X266.5646 Y186.1270
G01 X266.4796 Y186.2002
G01 X266.4003 Y186.2795
G01 X266.3271 Y186.3645
G01 X266.2605 Y186.4548
G01 X266.2008 Y186.5498
G01 X266.1484 Y186.6490
G01 X266.1035 Y186.7518
G01 X266.0665 Y186.8577
G01 X266.0374 Y186.9660
G01 X266.0166 Y187.0763
G01 X266.0040 Y187.1877
G01 X265.9998 Y187.2998
G01 X266.0040 Y187.4119
G01 X266.0166 Y187.5234
G01 X266.0374 Y187.6336
G01 X266.0665 Y187.7420
G01 X266.1035 Y187.8479
G01 X266.1484 Y187.9507
G01 X266.2008 Y188.0499
G01 X266.2605 Y188.1449
G01 X266.3271 Y188.2352
G01 X266.4003 Y188.3202
G01 X266.4796 Y188.3995
G01 X266.5646 Y188.4727
G01 X266.6549 Y188.5393
G01 X266.7499 Y188.5990
G01 X266.8491 Y188.6514
G01 X266.9519 Y188.6963
G01 X267.0578 Y188.7333
G01 X267.1661 Y188.7623
G01 X267.2764 Y188.7832
G01 X267.3878 Y188.7958
G01 X267.4999 Y188.8000
G01 X267.6120 Y188.7958
G01 X267.7235 Y188.7832
G01 X267.8337 Y188.7623
G01 X267.9421 Y188.7333
G01 X268.0480 Y188.6963
G01 X268.1508 Y188.6514
G01 X268.2500 Y188.5990
G01 X268.3450 Y188.5393
G01 X268.4352 Y188.4727
G01 X268.5203 Y188.3995
G01 X268.5996 Y188.3202
G01 X268.6728 Y188.2352
G01 X268.7394 Y188.1449
G01 X268.7991 Y188.0499
G01 X268.8515 Y187.9507
G01 X268.8964 Y187.8479
G01 X268.9334 Y187.7420
G01 X268.9624 Y187.6336
G01 X268.9833 Y187.5234
G01 X268.9959 Y187.4119
G01 X269.0001 Y187.2998
G01 X268.9955 Y187.1952
G01 X268.9818 Y187.0915
G01 X268.9592 Y186.9892
G01 X268.9277 Y186.8894
G01 X268.8876 Y186.7927
G01 X268.8393 Y186.6998
G01 X268.7830 Y186.6115
G01 X268.7193 Y186.5285
G01 X268.6486 Y186.4513
G01 X268.5714 Y186.3805
G01 X268.4883 Y186.3168
G01 X268.4000 Y186.2606
G01 X268.3072 Y186.2122
G01 X268.2104 Y186.1722
G01 X268.1106 Y186.1407
G01 X268.0084 Y186.1180
G01 X267.9046 Y186.1043
G01 X267.8000 Y186.0998
G01 X267.6954 Y186.1043
G01 X267.5916 Y186.1180
G01 X267.4894 Y186.1407
G01 X267.3895 Y186.1722
G01 X267.2928 Y186.2122
G01 X267.2000 Y186.2606
G01 X267.1117 Y186.3168
G01 X267.0286 Y186.3805
G01 X266.9514 Y186.4513
G01 X266.8807 Y186.5285
G01 X266.8170 Y186.6115
G01 X266.7607 Y186.6998
G01 X266.7124 Y186.7927
G01 X266.6723 Y186.8894
G01 X266.6408 Y186.9892
G01 X266.6182 Y187.0915
G01 X266.6045 Y187.1952
G01 X266.5999 Y187.2998
G01 X266.6012 Y187.3469
G01 X266.6049 Y187.3939
G01 X266.6110 Y187.4406
G01 X266.6196 Y187.4870
G01 X266.6306 Y187.5328
G01 X266.6440 Y187.5780
G01 X266.6597 Y187.6224
G01 X266.6777 Y187.6659
G01 X266.6980 Y187.7084
G01 X266.7205 Y187.7498
G01 X266.7451 Y187.7900
G01 X266.7718 Y187.8288
G01 X266.8005 Y187.8662
G01 X266.8311 Y187.9021
G01 X266.8635 Y187.9362
G01 X266.8977 Y187.9687
G01 X266.9335 Y187.9993
G01 X266.9709 Y188.0280
G01 X267.0098 Y188.0546
G01 X267.0499 Y188.0793
G01 X267.0913 Y188.1017
G01 X267.1339 Y188.1220
G01 X267.1774 Y188.1401
G01 X267.2218 Y188.1558
G01 X267.2670 Y188.1692
G01 X267.3128 Y188.1802
G01 X267.3591 Y188.1888
G01 X267.4059 Y188.1949
G01 X267.4528 Y188.1986
G01 X267.4999 Y188.1998
G01 X267.5470 Y188.1986
G01 X267.5940 Y188.1949
G01 X267.6407 Y188.1888
G01 X267.6871 Y188.1802
G01 X267.7329 Y188.1692
G01 X267.7780 Y188.1558
G01 X267.8225 Y188.1401
G01 X267.8660 Y188.1220
G01 X267.9085 Y188.1017
G01 X267.9499 Y188.0793
G01 X267.9901 Y188.0546
G01 X268.0289 Y188.0280
G01 X268.0663 Y187.9993
G01 X268.1022 Y187.9687
G01 X268.1363 Y187.9362
G01 X268.1688 Y187.9021
G01 X268.1994 Y187.8662
G01 X268.2280 Y187.8288
G01 X268.2547 Y187.7900
G01 X268.2794 Y187.7498
G01 X268.3018 Y187.7084
G01 X268.3221 Y187.6659
G01 X268.3402 Y187.6224
G01 X268.3559 Y187.5780
G01 X268.3693 Y187.5328
G01 X268.3803 Y187.4870
G01 X268.3889 Y187.4406
G01 X268.3950 Y187.3939
G01 X268.3987 Y187.3469
G01 X268.3999 Y187.2998
M107
M106 S240
G01 X268.3987 Y187.2527 Z-2.0167 F400
G01 X268.3950 Y187.2058 Z-2.0333
G01 X268.3889 Y187.1590 Z-2.0500
G01 X268.3803 Y187.1127 Z-2.0667
G01 X268.3693 Y187.0669 Z-2.0833
G01 X268.3559 Y187.0217 Z-2.1000
G01 X268.3402 Y186.9773 Z-2.1167
G01 X268.3221 Y186.9338 Z-2.1333
G01 X268.3018 Y186.8912 Z-2.1500
G01 X268.2794 Y186.8498 Z-2.1667
G01 X268.2547 Y186.8097 Z-2.1833
G01 X268.2280 Y186.7708 Z-2.2000
G01 X268.1994 Y186.7335 Z-2.2167
G01 X268.1688 Y186.6976 Z-2.2333
G01 X268.1363 Y186.6634 Z-2.2500
G01 X268.1022 Y186.6310 Z-2.2667
G01 X268.0663 Y186.6004 Z-2.2833
G01 X268.0289 Y186.5717 Z-2.3000
G01 X267.9901 Y186.5450 Z-2.3167
G01 X267.9499 Y186.5204 Z-2.3333
G01 X267.9085 Y186.4979 Z-2.3500
G01 X267.8660 Y186.4776 Z-2.3667
G01 X267.8225 Y186.4596 Z-2.3833
G01 X267.7780 Y186.4439 Z-2.4000
G01 X267.7329 Y186.4305 Z-2.4167
G01 X267.6871 Y186.4195 Z-2.4333
G01 X267.6407 Y186.4109 Z-2.4500
G01 X267.5940 Y186.4048 Z-2.4667
G01 X267.5470 Y186.4011 Z-2.4833
G01 X267.4999 Y186.3998 Z-2.5000
G01 X267.4528 Y186.4011 Z-2.5167
G01 X267.4059 Y186.4048 Z-2.5333
G01 X267.3591 Y186.4109 Z-2.5500
G01 X267.3128 Y186.4195 Z-2.5667
G01 X267.2670 Y186.4305 Z-2.5833
G01 X267.2218 Y186.4439 Z-2.6000
G01 X267.1774 Y186.4596 Z-2.6167
G01 X267.1339 Y186.4776 Z-2.6333
G01 X267.0913 Y186.4979 Z-2.6500
G01 X267.0499 Y186.5204 Z-2.6667
G01 X267.0098 Y186.5450 Z-2.6833
G01 X266.9709 Y186.5717 Z-2.7000
G01 X266.9335 Y186.6004 Z-2.7167
G01 X266.8977 Y186.6310 Z-2.7333
G01 X266.8635 Y186.6634 Z-2.7500
G01 X266.8311 Y186.6976 Z-2.7667
G01 X266.8005 Y186.7335 Z-2.7833
G01 X266.7718 Y186.7708 Z-2.8000
G01 X266.7451 Y186.8097 Z-2.8167
G01 X266.7205 Y186.8498 Z-2.8333
G01 X266.6980 Y186.8912 Z-2.8500
G01 X266.6777 Y186.9338 Z-2.8667
G01 X266.6597 Y186.9773 Z-2.8833
G01 X266.6440 Y187.0217 Z-2.9000
G01 X266.6306 Y187.0669 Z-2.9167
G01 X266.6196 Y187.1127 Z-2.9333
G01 X266.6110 Y187.1590 Z-2.9500
G01 X266.6049 Y187.2058 Z-2.9667
G01 X266.6012 Y187.2527 Z-2.9833
G01 X266.5999 Y187.2998 Z-3.0000
G01 X266.6012 Y187.3469 Z-3.0167
G01 X266.6049 Y187.3939 Z-3.0333
G01 X266.6110 Y187.4406 Z-3.0500
G01 X266.6196 Y187.4870 Z-3.0667
G01 X266.6306 Y187.5328 Z-3.0833
G01 X266.6440 Y187.5780 Z-3.1000
G01 X266.6597 Y187.6224 Z-3.1167
G01 X266.6777 Y187.6659 Z-3.1333
G01 X266.6980 Y187.7084 Z-3.1500
G01 X266.7205 Y187.7498 Z-3.1667
G01 X266.7451 Y187.7900 Z-3.1833
G01 X266.7718 Y187.8288 Z-3.2000
G01 X266.8005 Y187.8662 Z-3.2167
G01 X266.8311 Y187.9021 Z-3.2333
G01 X266.8635 Y187.9362 Z-3.2500
G01 X266.8977 Y187.9687 Z-3.2667
G01 X266.9335 Y187.9993 Z-3.2833
G01 X266.9709 Y188.0280 Z-3.3000
G01 X267.0098 Y188.0546 Z-3.3167
G01 X267.0499 Y188.0793 Z-3.3333
G01 X267.0913 Y188.1017 Z-3.3500
G01 X267.1339 Y188.1220 Z-3.3667
G01 X267.1774 Y188.1401 Z-3.3833
G01 X267.2218 Y188.1558 Z-3.4000
G01 X267.2670 Y188.1692 Z-3.4167
G01 X267.3128 Y188.1802 Z-3.4333
G01 X267.3591 Y188.1888 Z-3.4500
G01 X267.4059 Y188.1949 Z-3.4667
G01 X267.4528 Y188.1986 Z-3.4833
G01 X267.4999 Y188.1998 Z-3.5000
G01 X267.5470 Y188.1986 Z-3.5167
G01 X267.5940 Y188.1949 Z-3.5333
G01 X267.6407 Y188.1888 Z-3.5500
G01 X267.6871 Y188.1802 Z-3.5667
G01 X267.7329 Y188.1692 Z-3.5833
G01 X267.7780 Y188.1558 Z-3.6000
G01 X267.8225 Y188.1401 Z-3.6167
G01 X267.8660 Y188.1220 Z-3.6333
G01 X267.9085 Y188.1017 Z-3.6500
G01 X267.9499 Y188.0793 Z-3.6667
G01 X267.9901 Y188.0546 Z-3.6833
G01 X268.0289 Y188.0280 Z-3.7000
G01 X268.0663 Y187.9993 Z-3.7167
G01 X268.1022 Y187.9687 Z-3.7333
G01 X268.1363 Y187.9362 Z-3.7500
G01 X268.1688 Y187.9021 Z-3.7667
G01 X268.1994 Y187.8662 Z-3.7833
G01 X268.2280 Y187.8288 Z-3.8000
G01 X268.2547 Y187.7900 Z-3.8167
G01 X268.2794 Y187.7498 Z-3.8333
G01 X268.3018 Y187.7084 Z-3.8500
G01 X268.3221 Y187.6659 Z-3.8667
G01 X268.3402 Y187.6224 Z-3.8833
G01 X268.3559 Y187.5780 Z-3.9000
G01 X268.3693 Y187.5328 Z-3.9167
G01 X268.3803 Y187.4870 Z-3.9333
G01 X268.3889 Y187.4406 Z-3.9500
G01 X268.3950 Y187.3939 Z-3.9667
G01 X268.3987 Y187.3469 Z-3.9833
G01 X268.3999 Y187.2998 Z-4.0000
G01 X268.3987 Y187.2527
G01 X268.3950 Y187.2058
G01 X268.3889 Y187.1590
G01 X268.3803 Y187.1127
G01 X268.3693 Y187.0669
G01 X268.3559 Y187.0217
G01 X268.3402 Y186.9773
G01 X268.3221 Y186.9338
G01 X268.3018 Y186.8912
G01 X268.2794 Y186.8498
G01 X268.2547 Y186.8097
G01 X268.2280 Y186.7708
G01 X268.1994 Y186.7335
G01 X268.1688 Y186.6976
G01 X268.1363 Y186.6634
G01 X268.1022 Y186.6310
G01 X268.0663 Y186.6004
G01 X268.0289 Y186.5717
G01 X267.9901 Y186.5450
G01 X267.9499 Y186.5204
G01 X267.9085 Y186.4979
G01 X267.8660 Y186.4776
G01 X267.8225 Y186.4596
G01 X267.7780 Y186.4439
G01 X267.7329 Y186.4305
G01 X267.6871 Y186.4195
G01 X267.6407 Y186.4109
G01 X267.5940 Y186.4048
G01 X267.5470 Y186.4011
G01 X267.4999 Y186.3998
G01 X267.4528 Y186.4011
G01 X267.4059 Y186.4048
G01 X267.3591 Y186.4109
G01 X267.3128 Y186.4195
G01 X267.2670 Y186.4305
G01 X267.2218 Y186.4439
G01 X267.1774 Y186.4596
G01 X267.1339 Y186.4776
G01 X267.0913 Y186.4979
G01 X267.0499 Y186.5204
G01 X267.0098 Y186.5450
G01 X266.9709 Y186.5717
G01 X266.9335 Y186.6004
G01 X266.8977 Y186.6310
G01 X266.8635 Y186.6634
G01 X266.8311 Y186.6976
G01 X266.8005 Y186.7335
G01 X266.7718 Y186.7708
G01 X266.7451 Y186.8097
G01 X266.7205 Y186.8498
G01 X266.6980 Y186.8912
G01 X266.6777 Y186.9338
G01 X266.6597 Y186.9773
G01 X266.6440 Y187.0217
G01 X266.6306 Y187.0669
G01 X266.6196 Y187.1127
G01 X266.6110 Y187.1590
G01 X266.6049 Y187.2058
G01 X266.6012 Y187.2527
G01 X266.5999 Y187.2998
G01 X266.6012 Y187.3469
G01 X266.6049 Y187.3939
G01 X266.6110 Y187.4406
G01 X266.6196 Y187.4870
G01 X266.6306 Y187.5328
G01 X266.6440 Y187.5780
G01 X266.6597 Y187.6224
G01 X266.6777 Y187.6659
G01 X266.6980 Y187.7084
G01 X266.7205 Y187.7498
G01 X266.7451 Y187.7900
G01 X266.7718 Y187.8288
G01 X266.8005 Y187.8662
G01 X266.8311 Y187.9021
G01 X266.8635 Y187.9362
G01 X266.8977 Y187.9687
G01 X266.9335 Y187.9993
G01 X266.9709 Y188.0280
G01 X267.0098 Y188.0546
G01 X267.0499 Y188.0793
G01 X267.0913 Y188.1017
G01 X267.1339 Y188.1220
G01 X267.1774 Y188.1401
G01 X267.2218 Y188.1558
G01 X267.2670 Y188.1692
G01 X267.3128 Y188.1802
G01 X267.3591 Y188.1888
G01 X267.4059 Y188.1949
G01 X267.4528 Y188.1986
G01 X267.4999 Y188.1998
G01 X267.5470 Y188.1986
G01 X267.5940 Y188.1949
G01 X267.6407 Y188.1888
G01 X267.6871 Y188.1802
G01 X267.7329 Y188.1692
G01 X267.7780 Y188.1558
G01 X267.8225 Y188.1401
G01 X267.8660 Y188.1220
G01 X267.9085 Y188.1017
G01 X267.9499 Y188.0793
G01 X267.9901 Y188.0546
G01 X268.0289 Y188.0280
G01 X268.0663 Y187.9993
G01 X268.1022 Y187.9687
G01 X268.1363 Y187.9362
G01 X268.1688 Y187.9021
G01 X268.1994 Y187.8662
G01 X268.2280 Y187.8288
G01 X268.2547 Y187.7900
G01 X268.2794 Y187.7498
G01 X268.3018 Y187.7084
G01 X268.3221 Y187.6659
G01 X268.3402 Y187.6224
G01 X268.3559 Y187.5780
G01 X268.3693 Y187.5328
G01 X268.3803 Y187.4870
G01 X268.3889 Y187.4406
G01 X268.3950 Y187.3939
G01 X268.3987 Y187.3469
G01 X268.3999 Y187.2998
G01 X268.4108 Y187.2532 F1000
G01 X268.4193 Y187.2060
G01 X268.4253 Y187.1584
G01 X268.4288 Y187.1106
G01 X268.4299 Y187.0627
G01 X268.4284 Y187.0148
G01 X268.4245 Y186.9670
G01 X268.4180 Y186.9195
G01 X268.4083 Y186.8680
G01 X268.3960 Y186.8171
G01 X268.3811 Y186.7669
G01 X268.3636 Y186.7175
G01 X268.3436 Y186.6691
G01 X268.3211 Y186.6217
G01 X268.2962 Y186.5756
G01 X268.2689 Y186.5309
G01 X268.2369 Y186.4838
G01 X268.2025 Y186.4385
G01 X268.1658 Y186.3950
G01 X268.1270 Y186.3534
G01 X268.0861 Y186.3139
G01 X268.0432 Y186.2765
G01 X267.9985 Y186.2413
G01 X267.9520 Y186.2085
G01 X267.9001 Y186.1757
G01 X267.8466 Y186.1455
G01 X267.7916 Y186.1182
G01 X267.7353 Y186.0936
G01 X267.6779 Y186.0719
G01 X267.6194 Y186.0532
G01 X267.5600 Y186.0375
G01 X267.4999 Y186.0248
G01 X267.4348 Y186.0145
G01 X267.3693 Y186.0075
G01 X267.3034 Y186.0038
G01 X267.2375 Y186.0034
G01 X267.1716 Y186.0064
G01 X267.1060 Y186.0127
G01 X267.0408 Y186.0224
G01 X266.9761 Y186.0353
G01 X266.9078 Y186.0525
G01 X266.8405 Y186.0732
G01 X266.7742 Y186.0973
G01 X266.7093 Y186.1247
G01 X266.6458 Y186.1553
G01 X266.5840 Y186.1890
G01 X266.5239 Y186.2259
G01 X266.4658 Y186.2657
G01 X266.4123 Y186.3151
G01 X266.3612 Y186.3671
G01 X266.3128 Y186.4216
G01 X266.2671 Y186.4783
G01 X266.2243 Y186.5373
G01 X266.1845 Y186.5983
G01 X266.1477 Y186.6612
G01 X266.1140 Y186.7258
G01 X266.0875 Y186.7945
G01 X266.0644 Y186.8644
G01 X266.0448 Y186.9353
G01 X266.0286 Y187.0072
G01 X266.0160 Y187.0797
G01 X266.0070 Y187.1528
G01 X266.0016 Y187.2262
G01 X265.9998 Y187.2998
G01 X266.0016 Y187.3734
G01 X266.0070 Y187.4469
G01 X266.0160 Y187.5200
G01 X266.0286 Y187.5925
G01 X266.0448 Y187.6643
G01 X266.0644 Y187.7353
G01 X266.0875 Y187.8052
G01 X266.1140 Y187.8739
G01 X266.1438 Y187.9412
G01 X266.1769 Y188.0070
G01 X266.2132 Y188.0711
G01 X266.2526 Y188.1333
G01 X266.2950 Y188.1935
G01 X266.3403 Y188.2515
G01 X266.3884 Y188.3073
G01 X266.4392 Y188.3606
G01 X266.4925 Y188.4114
G01 X266.5483 Y188.4594
G01 X266.6063 Y188.5047
G01 X266.6665 Y188.5471
G01 X266.7287 Y188.5865
G01 X266.7928 Y188.6228
G01 X266.8585 Y188.6559
G01 X266.9259 Y188.6858
G01 X266.9946 Y188.7123
G01 X267.0645 Y188.7354
G01 X267.1354 Y188.7550
G01 X267.2073 Y188.7711
G01 X267.2798 Y188.7837
G01 X267.3529 Y188.7927
G01 X267.4263 Y188.7982
G01 X267.4999 Y188.8000
G01 X267.5735 Y188.7982
G01 X267.6470 Y188.7927
G01 X267.7200 Y188.7837
G01 X267.7926 Y188.7711
G01 X267.8644 Y188.7550
G01 X267.9354 Y188.7354
G01 X268.0053 Y188.7123
G01 X268.0740 Y188.6858
G01 X268.1413 Y188.6559
G01 X268.2071 Y188.6228
G01 X268.2711 Y188.5865
G01 X268.3334 Y188.5471
G01 X268.3936 Y188.5047
G01 X268.4516 Y188.4594
G01 X268.5074 Y188.4114
G01 X268.5607 Y188.3606
G01 X268.6114 Y188.3073
G01 X268.6595 Y188.2515
G01 X268.7048 Y188.1935
G01 X268.7472 Y188.1333
G01 X268.7866 Y188.0711
G01 X268.8229 Y188.0070
G01 X268.8560 Y187.9412
G01 X268.8859 Y187.8739
G01 X268.9124 Y187.8052
G01 X268.9355 Y187.7353
G01 X268.9551 Y187.6643
G01 X268.9712 Y187.5925
G01 X268.9838 Y187.5200
G01 X268.9928 Y187.4469
G01 X268.9982 Y187.3734
G01 X269.0001 Y187.2998
G01 X268.9959 Y187.1877
G01 X268.9833 Y187.0763
G01 X268.9624 Y186.9660
G01 X268.9334 Y186.8577
G01 X268.8964 Y186.7518
G01 X268.8515 Y186.6490
G01 X268.7991 Y186.5498
G01 X268.7394 Y186.4548
G01 X268.6728 Y186.3645
G01 X268.5996 Y186.2795
G01 X268.5203 Y186.2002
G01 X268.4352 Y186.1270
G01 X268.3450 Y186.0604
G01 X268.2500 Y186.0007
G01 X268.1508 Y185.9483
G01 X268.0480 Y185.9034
G01 X267.9421 Y185.8664
G01 X267.8337 Y185.8373
G01 X267.7235 Y185.8165
G01 X267.6120 Y185.8039
G01 X267.4999 Y185.7997
G01 X267.3878 Y185.8039
G01 X267.2764 Y185.8165
G01 X267.1661 Y185.8373
G01 X267.0578 Y185.8664
G01 X266.9519 Y185.9034
G01 X266.8491 Y185.9483
G01 X266.7499 Y186.0007
G01 X266.6549 Y186.0604
G01 X266.5646 Y186.1270
G01 X266.4796 Y186.2002
G01 X266.4003 Y186.2795
G01 X266.3271 Y186.3645
G01 X266.2605 Y186.4548
G01 X266.2008 Y186.5498
G01 X266.1484 Y186.6490
G01 X266.1035 Y186.7518
G01 X266.0665 Y186.8577
G01 X266.0374 Y186.9660
G01 X266.0166 Y187.0763
G01 X266.0040 Y187.1877
G01 X265.9998 Y187.2998
G01 X266.0040 Y187.4119
G01 X266.0166 Y187.5234
G01 X266.0374 Y187.6336
G01 X266.0665 Y187.7420
G01 X266.1035 Y187.8479
G01 X266.1484 Y187.9507
G01 X266.2008 Y188.0499
G01 X266.2605 Y188.1449
G01 X266.3271 Y188.2352
G01 X266.4003 Y188.3202
G01 X266.4796 Y188.3995
G01 X266.5646 Y188.4727
G01 X266.6549 Y188.5393
G01 X266.7499 Y188.5990
G01 X266.8491 Y188.6514
G01 X266.9519 Y188.6963
G01 X267.0578 Y188.7333
G01 X267.1661 Y188.7623
G01 X267.2764 Y188.7832
G01 X267.3878 Y188.7958
G01 X267.4999 Y188.8000
G01 X267.6120 Y188.7958
G01 X267.7235 Y188.7832
G01 X267.8337 Y188.7623
G01 X267.9421 Y188.7333
G01 X268.0480 Y188.6963
G01 X268.1508 Y188.6514
G01 X268.2500 Y188.5990
G01 X268.3450 Y188.5393
G01 X268.4352 Y188.4727
G01 X268.5203 Y188.3995
G01 X268.5996 Y188.3202
G01 X268.6728 Y188.2352
G01 X268.7394 Y188.1449
G01 X268.7991 Y188.0499
G01 X268.8515 Y187.9507
G01 X268.8964 Y187.8479
G01 X268.9334 Y187.7420
G01 X268.9624 Y187.6336
G01 X268.9833 Y187.5234
G01 X268.9959 Y187.4119
G01 X269.0001 Y187.2998
G01 X268.9955 Y187.1952
G01 X268.9818 Y187.0915
G01 X268.9592 Y186.9892
G01 X268.9277 Y186.8894
G01 X268.8876 Y186.7927
G01 X268.8393 Y186.6998
G01 X268.7830 Y186.6115
G01 X268.7193 Y186.5285
G01 X268.6486 Y186.4513
G01 X268.5714 Y186.3805
G01 X268.4883 Y186.3168
G01 X268.4000 Y186.2606
G01 X268.3072 Y186.2122
G01 X268.2104 Y186.1722
G01 X268.1106 Y186.1407
G01 X268.0084 Y186.1180
G01 X267.9046 Y186.1043
G01 X267.8000 Y186.0998
G01 X267.6954 Y186.1043
G01 X267.5916 Y186.1180
G01 X267.4894 Y186.1407
G01 X267.3895 Y186.1722
G01 X267.2928 Y186.2122
G01 X267.2000 Y186.2606
G01 X267.1117 Y186.3168
G01 X267.0286 Y186.3805
G01 X266.9514 Y186.4513
G01 X266.8807 Y186.5285
G01 X266.8170 Y186.6115
G01 X266.7607 Y186.6998
G01 X266.7124 Y186.7927
G01 X266.6723 Y186.8894
G01 X266.6408 Y186.9892
G01 X266.6182 Y187.0915
G01 X266.6045 Y187.1952
G01 X266.5999 Y187.2998
G01 X266.6012 Y187.3469
G01 X266.6049 Y187.3939
G01 X266.6110 Y187.4406
G01 X266.6196 Y187.4870
G01 X266.6306 Y187.5328
G01 X266.6440 Y187.5780
G01 X266.6597 Y187.6224
G01 X266.6777 Y187.6659
G01 X266.6980 Y187.7084
G01 X266.7205 Y187.7498
G01 X266.7451 Y187.7900
G01 X266.7718 Y187.8288
G01 X266.8005 Y187.8662
G01 X266.8311 Y187.9021
G01 X266.8635 Y187.9362
G01 X266.8977 Y187.9687
G01 X266.9335 Y187.9993
G01 X266.9709 Y188.0280
G01 X267.0098 Y188.0546
G01 X267.0499 Y188.0793
G01 X267.0913 Y188.1017
G01 X267.1339 Y188.1220
G01 X267.1774 Y188.1401
G01 X267.2218 Y188.1558
G01 X267.2670 Y188.1692
G01 X267.3128 Y188.1802
G01 X267.3591 Y188.1888
G01 X267.4059 Y188.1949
G01 X267.4528 Y188.1986
G01 X267.4999 Y188.1998
G01 X267.5470 Y188.1986
G01 X267.5940 Y188.1949
G01 X267.6407 Y188.1888
G01 X267.6871 Y188.1802
G01 X267.7329 Y188.1692
G01 X267.7780 Y188.1558
G01 X267.8225 Y188.1401
G01 X267.8660 Y188.1220
G01 X267.9085 Y188.1017
G01 X267.9499 Y188.0793
G01 X267.9901 Y188.0546
G01 X268.0289 Y188.0280
G01 X268.0663 Y187.9993
G01 X268.1022 Y187.9687
G01 X268.1363 Y187.9362
G01 X268.1688 Y187.9021
G01 X268.1994 Y187.8662
G01 X268.2280 Y187.8288
G01 X268.2547 Y187.7900
G01 X268.2794 Y187.7498
G01 X268.3018 Y187.7084
G01 X268.3221 Y187.6659
G01 X268.3402 Y187.6224
G01 X268.3559 Y187.5780
G01 X268.3693 Y187.5328
G01 X268.3803 Y187.4870
G01 X268.3889 Y187.4406
G01 X268.3950 Y187.3939
G01 X268.3987 Y187.3469
G01 X268.3999 Y187.2998
M107
M106 S240
G01 X268.3987 Y187.2527 Z-4.0167 F400
G01 X268.3950 Y187.2058 Z-4.0333
G01 X268.3889 Y187.1590 Z-4.0500
G01 X268.3803 Y187.1127 Z-4.0667
G01 X268.3693 Y187.0669 Z-4.0833
G01 X268.3559 Y187.0217 Z-4.1000
G01 X268.3402 Y186.9773 Z-4.1167
G01 X268.3221 Y186.9338 Z-4.1333
G01 X268.3018 Y186.8912 Z-4.1500
G01 X268.2794 Y186.8498 Z-4.1667
G01 X268.2547 Y186.8097 Z-4.1833
G01 X268.2280 Y186.7708 Z-4.2000
G01 X268.1994 Y186.7335 Z-4.2167
G01 X268.1688 Y186.6976 Z-4.2333
G01 X268.1363 Y186.6634 Z-4.2500
G01 X268.1022 Y186.6310 Z-4.2667
G01 X268.0663 Y186.6004 Z-4.2833
G01 X268.0289 Y186.5717 Z-4.3000
G01 X267.9901 Y186.5450 Z-4.3167
G01 X267.9499 Y186.5204 Z-4.3333
G01 X267.9085 Y186.4979 Z-4.3500
G01 X267.8660 Y186.4776 Z-4.3667
G01 X267.8225 Y186.4596 Z-4.3833
G01 X267.7780 Y186.4439 Z-4.4000
G01 X267.7329 Y186.4305 Z-4.4167
G01 X267.6871 Y186.4195 Z-4.4333
G01 X267.6407 Y186.4109 Z-4.4500
G01 X267.5940 Y186.4048 Z-4.4667
G01 X267.5470 Y186.4011 Z-4.4833
G01 X267.4999 Y186.3998 Z-4.5000
G01 X267.4528 Y186.4011 Z-4.5167
G01 X267.4059 Y186.4048 Z-4.5333
G01 X267.3591 Y186.4109 Z-4.5500
G01 X267.3128 Y186.4195 Z-4.5667
G01 X267.2670 Y186.4305 Z-4.5833
G01 X267.2218 Y186.4439 Z-4.6000
G01 X267.1774 Y186.4596 Z-4.6167
G01 X267.1339 Y186.4776 Z-4.6333
G01 X267.0913 Y186.4979 Z-4.6500
G01 X267.0499 Y186.5204 Z-4.6667
G01 X267.0098 Y186.5450 Z-4.6833
G01 X266.9709 Y186.5717 Z-4.7000
G01 X266.9335 Y186.6004 Z-4.7167
G01 X266.8977 Y186.6310 Z-4.7333
G01 X266.8635 Y186.6634 Z-4.7500
G01 X266.8311 Y186.6976 Z-4.7667
G01 X266.8005 Y186.7335 Z-4.7833
G01 X266.7718 Y186.7708 Z-4.8000
G01 X266.7451 Y186.8097 Z-4.8167
G01 X266.7205 Y186.8498 Z-4.8333
G01 X266.6980 Y186.8912 Z-4.8500
G01 X266.6777 Y186.9338 Z-4.8667
G01 X266.6597 Y186.9773 Z-4.8833
G01 X266.6440 Y187.0217 Z-4.9000
G01 X266.6306 Y187.0669 Z-4.9167
G01 X266.6196 Y187.1127 Z-4.9333
G01 X266.6110 Y187.1590 Z-4.9500
G01 X266.6049 Y187.2058 Z-4.9667
G01 X266.6012 Y187.2527 Z-4.9833
G01 X266.5999 Y187.2998 Z-5.0000
G01 X266.6012 Y187.3469 Z-5.0167
G01 X266.6049 Y187.3939 Z-5.0333
G01 X266.6110 Y187.4406 Z-5.0500
G01 X266.6196 Y187.4870 Z-5.0667
G01 X266.6306 Y187.5328 Z-5.0833
G01 X266.6440 Y187.5780 Z-5.1000
G01 X266.6597 Y187.6224 Z-5.1167
G01 X266.6777 Y187.6659 Z-5.1333
G01 X266.6980 Y187.7084 Z-5.1500
G01 X266.7205 Y187.7498 Z-5.1667
G01 X266.7451 Y187.7900 Z-5.1833
G01 X266.7718 Y187.8288 Z-5.2000
G01 X266.8005 Y187.8662 Z-5.2167
G01 X266.8311 Y187.9021 Z-5.2333
G01 X266.8635 Y187.9362 Z-5.2500
G01 X266.8977 Y187.9687 Z-5.2667
G01 X266.9335 Y187.9993 Z-5.2833
G01 X266.9709 Y188.0280 Z-5.3000
G01 X267.0098 Y188.0546 Z-5.3167
G01 X267.0499 Y188.0793 Z-5.3333
G01 X267.0913 Y188.1017 Z-5.3500
G01 X267.1339 Y188.1220 Z-5.3667
G01 X267.1774 Y188.1401 Z-5.3833
G01 X267.2218 Y188.1558 Z-5.4000
G01 X267.2670 Y188.1692 Z-5.4167
G01 X267.3128 Y188.1802 Z-5.4333
G01 X267.3591 Y188.1888 Z-5.4500
G01 X267.4059 Y188.1949 Z-5.4667
G01 X267.4528 Y188.1986 Z-5.4833
G01 X267.4999 Y188.1998 Z-5.5000
G01 X267.5470 Y188.1986 Z-5.5167
G01 X267.5940 Y188.1949 Z-5.5333
G01 X267.6407 Y188.1888 Z-5.5500
G01 X267.6871 Y188.1802 Z-5.5667
G01 X267.7329 Y188.1692 Z-5.5833
G01 X267.7780 Y188.1558 Z-5.6000
G01 X267.8225 Y188.1401 Z-5.6167
G01 X267.8660 Y188.1220 Z-5.6333
G01 X267.9085 Y188.1017 Z-5.6500
G01 X267.9499 Y188.0793 Z-5.6667
G01 X267.9901 Y188.0546 Z-5.6833
G01 X268.0289 Y188.0280 Z-5.7000
G01 X268.0663 Y187.9993 Z-5.7167
G01 X268.1022 Y187.9687 Z-5.7333
G01 X268.1363 Y187.9362 Z-5.7500
G01 X268.1688 Y187.9021 Z-5.7667
G01 X268.1994 Y187.8662 Z-5.7833
G01 X268.2280 Y187.8288 Z-5.8000
G01 X268.2547 Y187.7900 Z-5.8167
G01 X268.2794 Y187.7498 Z-5.8333
G01 X268.3018 Y187.7084 Z-5.8500
G01 X268.3221 Y187.6659 Z-5.8667
G01 X268.3402 Y187.6224 Z-5.8833
G01 X268.3559 Y187.5780 Z-5.9000
G01 X268.3693 Y187.5328 Z-5.9167
G01 X268.3803 Y187.4870 Z-5.9333
G01 X268.3889 Y187.4406 Z-5.9500
G01 X268.3950 Y187.3939 Z-5.9667
G01 X268.3987 Y187.3469 Z-5.9833
G01 X268.3999 Y187.2998 Z-6.0000
G01 X268.3987 Y187.2527
G01 X268.3950 Y187.2058
G01 X268.3889 Y187.1590
G01 X268.3803 Y187.1127
G01 X268.3693 Y187.0669
G01 X268.3559 Y187.0217
G01 X268.3402 Y186.9773
G01 X268.3221 Y186.9338
G01 X268.3018 Y186.8912
G01 X268.2794 Y186.8498
G01 X268.2547 Y186.8097
G01 X268.2280 Y186.7708
G01 X268.1994 Y186.7335
G01 X268.1688 Y186.6976
G01 X268.1363 Y186.6634
G01 X268.1022 Y186.6310
G01 X268.0663 Y186.6004
G01 X268.0289 Y186.5717
G01 X267.9901 Y186.5450
G01 X267.9499 Y186.5204
G01 X267.9085 Y186.4979
G01 X267.8660 Y186.4776
G01 X267.8225 Y186.4596
G01 X267.7780 Y186.4439
G01 X267.7329 Y186.4305
G01 X267.6871 Y186.4195
G01 X267.6407 Y186.4109
G01 X267.5940 Y186.4048
G01 X267.5470 Y186.4011
G01 X267.4999 Y186.3998
G01 X267.4528 Y186.4011
G01 X267.4059 Y186.4048
G01 X267.3591 Y186.4109
G01 X267.3128 Y186.4195
G01 X267.2670 Y186.4305
G01 X267.2218 Y186.4439
G01 X267.1774 Y186.4596
G01 X267.1339 Y186.4776
G01 X267.0913 Y186.4979
G01 X267.0499 Y186.5204
G01 X267.0098 Y186.5450
G01 X266.9709 Y186.5717
G01 X266.9335 Y186.6004
G01 X266.8977 Y186.6310
G01 X266.8635 Y186.6634
G01 X266.8311 Y186.6976
G01 X266.8005 Y186.7335
G01 X266.7718 Y186.7708
G01 X266.7451 Y186.8097
G01 X266.7205 Y186.8498
G01 X266.6980 Y186.8912
G01 X266.6777 Y186.9338
G01 X266.6597 Y186.9773
G01 X266.6440 Y187.0217
G01 X266.6306 Y187.0669
G01 X266.6196 Y187.1127
G01 X266.6110 Y187.1590
G01 X266.6049 Y187.2058
G01 X266.6012 Y187.2527
G01 X266.5999 Y187.2998
G01 X266.6012 Y187.3469
G01 X266.6049 Y187.3939
G01 X266.6110 Y187.4406
G01 X266.6196 Y187.4870
G01 X266.6306 Y187.5328
G01 X266.6440 Y187.5780
G01 X266.6597 Y187.6224
G01 X266.6777 Y187.6659
G01 X266.6980 Y187.7084
G01 X266.7205 Y187.7498
G01 X266.7451 Y187.7900
G01 X266.7718 Y187.8288
G01 X266.8005 Y187.8662
G01 X266.8311 Y187.9021
G01 X266.8635 Y187.9362
G01 X266.8977 Y187.9687
G01 X266.9335 Y187.9993
G01 X266.9709 Y188.0280
G01 X267.0098 Y188.0546
G01 X267.0499 Y188.0793
G01 X267.0913 Y188.1017
G01 X267.1339 Y188.1220
G01 X267.1774 Y188.1401
G01 X267.2218 Y188.1558
G01 X267.2670 Y188.1692
G01 X267.3128 Y188.1802
G01 X267.3591 Y188.1888
G01 X267.4059 Y188.1949
G01 X267.4528 Y188.1986
G01 X267.4999 Y188.1998
G01 X267.5470 Y188.1986
G01 X267.5940 Y188.1949
G01 X267.6407 Y188.1888
G01 X267.6871 Y188.1802
G01 X267.7329 Y188.1692
G01 X267.7780 Y188.1558
G01 X267.8225 Y188.1401
G01 X267.8660 Y188.1220
G01 X267.9085 Y188.1017
G01 X267.9499 Y188.0793
G01 X267.9901 Y188.0546
G01 X268.0289 Y188.0280
G01 X268.0663 Y187.9993
G01 X268.1022 Y187.9687
G01 X268.1363 Y187.9362
G01 X268.1688 Y187.9021
G01 X268.1994 Y187.8662
G01 X268.2280 Y187.8288
G01 X268.2547 Y187.7900
G01 X268.2794 Y187.7498
G01 X268.3018 Y187.7084
G01 X268.3221 Y187.6659
G01 X268.3402 Y187.6224
G01 X268.3559 Y187.5780
G01 X268.3693 Y187.5328
G01 X268.3803 Y187.4870
G01 X268.3889 Y187.4406
G01 X268.3950 Y187.3939
G01 X268.3987 Y187.3469
G01 X268.3999 Y187.2998
G01 X268.4108 Y187.2532 F1000
G01 X268.4193 Y187.2060
G01 X268.4253 Y187.1584
G01 X268.4288 Y187.1106
G01 X268.4299 Y187.0627
G01 X268.4284 Y187.0148
G01 X268.4245 Y186.9670
G01 X268.4180 Y186.9195
G01 X268.4083 Y186.8680
G01 X268.3960 Y186.8171
G01 X268.3811 Y186.7669
G01 X268.3636 Y186.7175
G01 X268.3436 Y186.6691
G01 X268.3211 Y186.6217
G01 X268.2962 Y186.5756
G01 X268.2689 Y186.5309
G01 X268.2369 Y186.4838
G01 X268.2025 Y186.4385
G01 X268.1658 Y186.3950
G01 X268.1270 Y186.3534
G01 X268.0861 Y186.3139
G01 X268.0432 Y186.2765
G01 X267.9985 Y186.2413
G01 X267.9520 Y186.2085
G01 X267.9001 Y186.1757
G01 X267.8466 Y186.1455
G01 X267.7916 Y186.1182
G01 X267.7353 Y186.0936
G01 X267.6779 Y186.0719
G01 X267.6194 Y186.0532
G01 X267.5600 Y186.0375
G01 X267.4999 Y186.0248
G01 X267.4348 Y186.0145
G01 X267.3693 Y186.0075
G01 X267.3034 Y186.0038
G01 X267.2375 Y186.0034
G01 X267.1716 Y186.0064
G01 X267.1060 Y186.0127
G01 X267.0408 Y186.0224
G01 X266.9761 Y186.0353
G01 X266.9078 Y186.0525
G01 X266.8405 Y186.0732
G01 X266.7742 Y186.0973
G01 X266.7093 Y186.1247
G01 X266.6458 Y186.1553
G01 X266.5840 Y186.1890
G01 X266.5239 Y186.2259
G01 X266.4658 Y186.2657
G01 X266.4123 Y186.3151
G01 X266.3612 Y186.3671
G01 X266.3128 Y186.4216
G01 X266.2671 Y186.4783
G01 X266.2243 Y186.5373
G01 X266.1845 Y186.5983
G01 X266.1477 Y186.6612
G01 X266.1140 Y186.7258
G01 X266.0875 Y186.7945
G01 X266.0644 Y186.8644
G01 X266.0448 Y186.9353
G01 X266.0286 Y187.0072
G01 X266.0160 Y187.0797
G01 X266.0070 Y187.1528
G01 X266.0016 Y187.2262
G01 X265.9998 Y187.2998
G01 X266.0016 Y187.3734
G01 X266.0070 Y187.4469
G01 X266.0160 Y187.5200
G01 X266.0286 Y187.5925
G01 X266.0448 Y187.6643
G01 X266.0644 Y187.7353
G01 X266.0875 Y187.8052
G01 X266.1140 Y187.8739
G01 X266.1438 Y187.9412
G01 X266.1769 Y188.0070
G01 X266.2132 Y188.0711
G01 X266.2526 Y188.1333
G01 X266.2950 Y188.1935
G01 X266.3403 Y188.2515
G01 X266.3884 Y188.3073
G01 X266.4392 Y188.3606
G01 X266.4925 Y188.4114
G01 X266.5483 Y188.4594
G01 X266.6063 Y188.5047
G01 X266.6665 Y188.5471
G01 X266.7287 Y188.5865
G01 X266.7928 Y188.6228
G01 X266.8585 Y188.6559
G01 X266.9259 Y188.6858
G01 X266.9946 Y188.7123
G01 X267.0645 Y188.7354
G01 X267.1354 Y188.7550
G01 X267.2073 Y188.7711
G01 X267.2798 Y188.7837
G01 X267.3529 Y188.7927
G01 X267.4263 Y188.7982
G01 X267.4999 Y188.8000
G01 X267.5735 Y188.7982
G01 X267.6470 Y188.7927
G01 X267.7200 Y188.7837
G01 X267.7926 Y188.7711
G01 X267.8644 Y188.7550
G01 X267.9354 Y188.7354
G01 X268.0053 Y188.7123
G01 X268.0740 Y188.6858
G01 X268.1413 Y188.6559
G01 X268.2071 Y188.6228
G01 X268.2711 Y188.5865
G01 X268.3334 Y188.5471
G01 X268.3936 Y188.5047
G01 X268.4516 Y188.4594
G01 X268.5074 Y188.4114
G01 X268.5607 Y188.3606
G01 X268.6114 Y188.3073
G01 X268.6595 Y188.2515
G01 X268.7048 Y188.1935
G01 X268.7472 Y188.1333
G01 X268.7866 Y188.0711
G01 X268.8229 Y188.0070
G01 X268.8560 Y187.9412
G01 X268.8859 Y187.8739
G01 X268.9124 Y187.8052
G01 X268.9355 Y187.7353
G01 X268.9551 Y187.6643
G01 X268.9712 Y187.5925
G01 X268.9838 Y187.5200
G01 X268.9928 Y187.4469
G01 X268.9982 Y187.3734
G01 X269.0001 Y187.2998
G01 X268.9959 Y187.1877
G01 X268.9833 Y187.0763
G01 X268.9624 Y186.9660
G01 X268.9334 Y186.8577
G01 X268.8964 Y186.7518
G01 X268.8515 Y186.6490
G01 X268.7991 Y186.5498
G01 X268.7394 Y186.4548
G01 X268.6728 Y186.3645
G01 X268.5996 Y186.2795
G01 X268.5203 Y186.2002
G01 X268.4352 Y186.1270
G01 X268.3450 Y186.0604
G01 X268.2500 Y186.0007
G01 X268.1508 Y185.9483
G01 X268.0480 Y185.9034
G01 X267.9421 Y185.8664
G01 X267.8337 Y185.8373
G01 X267.7235 Y185.8165
G01 X267.6120 Y185.8039
G01 X267.4999 Y185.7997
G01 X267.3878 Y185.8039
G01 X267.2764 Y185.8165
G01 X267.1661 Y185.8373
G01 X267.0578 Y185.8664
G01 X266.9519 Y185.9034
G01 X266.8491 Y185.9483
G01 X266.7499 Y186.0007
G01 X266.6549 Y186.0604
G01 X266.5646 Y186.1270
G01 X266.4796 Y186.2002
G01 X266.4003 Y186.2795
G01 X266.3271 Y186.3645
G01 X266.2605 Y186.4548
G01 X266.2008 Y186.5498
G01 X266.1484 Y186.6490
G01 X266.1035 Y186.7518
G01 X266.0665 Y186.8577
G01 X266.0374 Y186.9660
G01 X266.0166 Y187.0763
G01 X266.0040 Y187.1877
G01 X265.9998 Y187.2998
G01 X266.0040 Y187.4119
G01 X266.0166 Y187.5234
G01 X266.0374 Y187.6336
G01 X266.0665 Y187.7420
G01 X266.1035 Y187.8479
G01 X266.1484 Y187.9507
G01 X266.2008 Y188.0499
G01 X266.2605 Y188.1449
G01 X266.3271 Y188.2352
G01 X266.4003 Y188.3202
G01 X266.4796 Y188.3995
G01 X266.5646 Y188.4727
G01 X266.6549 Y188.5393
G01 X266.7499 Y188.5990
G01 X266.8491 Y188.6514
G01 X266.9519 Y188.6963
G01 X267.0578 Y188.7333
G01 X267.1661 Y188.7623
G01 X267.2764 Y188.7832
G01 X267.3878 Y188.7958
G01 X267.4999 Y188.8000
G01 X267.6120 Y188.7958
G01 X267.7235 Y188.7832
G01 X267.8337 Y188.7623
G01 X267.9421 Y188.7333
G01 X268.0480 Y188.6963
G01 X268.1508 Y188.6514
G01 X268.2500 Y188.5990
G01 X268.3450 Y188.5393
G01 X268.4352 Y188.4727
G01 X268.5203 Y188.3995
G01 X268.5996 Y188.3202
G01 X268.6728 Y188.2352
G01 X268.7394 Y188.1449
G01 X268.7991 Y188.0499
G01 X268.8515 Y187.9507
G01 X268.8964 Y187.8479
G01 X268.9334 Y187.7420
G01 X268.9624 Y187.6336
G01 X268.9833 Y187.5234
G01 X268.9959 Y187.4119
G01 X269.0001 Y187.2998
M107
M106 S240
G01 X268.9952 Y187.2018 Z-5.9688 F400
M107
M106 S240
G01 X268.9808 Y187.1048 Z-5.9375
M107
M106 S240
G01 X268.9570 Y187.0096 Z-5.9063
M107
M106 S240
G01 X268.9239 Y186.9172 Z-5.8750
M107
M106 S240
G01 X268.8820 Y186.8284 Z-5.8438
M107
M106 S240
G01 X268.8315 Y186.7443 Z-5.8125
M107
M106 S240
