;Project TeslaSparkalaSchiefer
;Created by Estlcam version 11 build 11,113
;Machining time about 00:19:39 hours

G90
M03 S18000
G00 X0.0000 Y0.0000 Z0.0000
G00 Z2.0000


;No. 1: Helical drill 1
G00 X23.7812 Y188.2326
G00 Z0.5000
M106 S240
G01 X23.7802 Y188.1976 Z0.4796 F400 S18000
G01 X23.7771 Y188.1628 Z0.4593
G01 X23.7720 Y188.1282 Z0.4389
G01 X23.7650 Y188.0940 Z0.4185
G01 X23.7559 Y188.0602 Z0.3981
G01 X23.7449 Y188.0270 Z0.3778
G01 X23.7320 Y187.9946 Z0.3574
G01 X23.7173 Y187.9629 Z0.3370
G01 X23.7007 Y187.9321 Z0.3167
G01 X23.6823 Y187.9024 Z0.2963
G01 X23.6623 Y187.8737 Z0.2759
G01 X23.6406 Y187.8463 Z0.2556
G01 X23.6174 Y187.8202 Z0.2352
G01 X23.5926 Y187.7955 Z0.2148
G01 X23.5665 Y187.7722 Z0.1944
G01 X23.5391 Y187.7506 Z0.1741
G01 X23.5105 Y187.7305 Z0.1537
G01 X23.4807 Y187.7122 Z0.1333
G01 X23.4500 Y187.6956 Z0.1130
G01 X23.4183 Y187.6808 Z0.0926
G01 X23.3858 Y187.6679 Z0.0722
G01 X23.3526 Y187.6569 Z0.0519
G01 X23.3189 Y187.6479 Z0.0315
G01 X23.2846 Y187.6408 Z0.0111
G01 X23.2500 Y187.6357 Z-0.0093
G01 X23.2152 Y187.6327 Z-0.0296
G01 X23.1803 Y187.6317 Z-0.0500
G01 X23.1453 Y187.6327 Z-0.0704
G01 X23.1105 Y187.6357 Z-0.0907
G01 X23.0759 Y187.6408 Z-0.1111
G01 X23.0417 Y187.6479 Z-0.1315
G01 X23.0079 Y187.6569 Z-0.1519
G01 X22.9748 Y187.6679 Z-0.1722
G01 X22.9423 Y187.6808 Z-0.1926
G01 X22.9106 Y187.6956 Z-0.2130
G01 X22.8798 Y187.7122 Z-0.2333
G01 X22.8501 Y187.7305 Z-0.2537
G01 X22.8215 Y187.7506 Z-0.2741
G01 X22.7940 Y187.7722 Z-0.2944
G01 X22.7679 Y187.7955 Z-0.3148
G01 X22.7432 Y187.8202 Z-0.3352
G01 X22.7200 Y187.8463 Z-0.3556
G01 X22.6983 Y187.8737 Z-0.3759
G01 X22.6782 Y187.9024 Z-0.3963
G01 X22.6599 Y187.9321 Z-0.4167
G01 X22.6433 Y187.9629 Z-0.4370
G01 X22.6285 Y187.9946 Z-0.4574
G01 X22.6156 Y188.0270 Z-0.4778
G01 X22.6046 Y188.0602 Z-0.4981
G01 X22.5956 Y188.0940 Z-0.5185
G01 X22.5885 Y188.1282 Z-0.5389
G01 X22.5835 Y188.1628 Z-0.5593
G01 X22.5804 Y188.1976 Z-0.5796
G01 X22.5794 Y188.2326 Z-0.6000
G01 X22.5804 Y188.2675 Z-0.6204
G01 X22.5835 Y188.3023 Z-0.6407
G01 X22.5885 Y188.3369 Z-0.6611
G01 X22.5956 Y188.3711 Z-0.6815
G01 X22.6046 Y188.4049 Z-0.7019
G01 X22.6156 Y188.4381 Z-0.7222
G01 X22.6285 Y188.4706 Z-0.7426
G01 X22.6433 Y188.5022 Z-0.7630
G01 X22.6599 Y188.5330 Z-0.7833
G01 X22.6782 Y188.5628 Z-0.8037
G01 X22.6983 Y188.5914 Z-0.8241
G01 X22.7200 Y188.6188 Z-0.8444
G01 X22.7432 Y188.6449 Z-0.8648
G01 X22.7679 Y188.6696 Z-0.8852
G01 X22.7940 Y188.6929 Z-0.9056
G01 X22.8215 Y188.7145 Z-0.9259
G01 X22.8501 Y188.7346 Z-0.9463
G01 X22.8798 Y188.7529 Z-0.9667
G01 X22.9106 Y188.7695 Z-0.9870
G01 X22.9423 Y188.7843 Z-1.0074
G01 X22.9748 Y188.7972 Z-1.0278
G01 X23.0079 Y188.8082 Z-1.0481
G01 X23.0417 Y188.8173 Z-1.0685
G01 X23.0759 Y188.8243 Z-1.0889
G01 X23.1105 Y188.8294 Z-1.1093
G01 X23.1453 Y188.8324 Z-1.1296
G01 X23.1803 Y188.8334 Z-1.1500
G01 X23.2152 Y188.8324 Z-1.1704
G01 X23.2500 Y188.8294 Z-1.1907
G01 X23.2846 Y188.8243 Z-1.2111
G01 X23.3189 Y188.8173 Z-1.2315
G01 X23.3526 Y188.8082 Z-1.2519
G01 X23.3858 Y188.7972 Z-1.2722
G01 X23.4183 Y188.7843 Z-1.2926
G01 X23.4500 Y188.7695 Z-1.3130
G01 X23.4807 Y188.7529 Z-1.3333
G01 X23.5105 Y188.7346 Z-1.3537
G01 X23.5391 Y188.7145 Z-1.3741
G01 X23.5665 Y188.6929 Z-1.3944
G01 X23.5926 Y188.6696 Z-1.4148
G01 X23.6174 Y188.6449 Z-1.4352
G01 X23.6406 Y188.6188 Z-1.4556
G01 X23.6623 Y188.5914 Z-1.4759
G01 X23.6823 Y188.5628 Z-1.4963
G01 X23.7007 Y188.5330 Z-1.5167
G01 X23.7173 Y188.5022 Z-1.5370
G01 X23.7320 Y188.4706 Z-1.5574
G01 X23.7449 Y188.4381 Z-1.5778
G01 X23.7559 Y188.4049 Z-1.5981
G01 X23.7650 Y188.3711 Z-1.6185
G01 X23.7720 Y188.3369 Z-1.6389
G01 X23.7771 Y188.3023 Z-1.6593
G01 X23.7802 Y188.2675 Z-1.6796
G01 X23.7812 Y188.2326 Z-1.7000
G01 X23.7802 Y188.1976 Z-1.7204
G01 X23.7771 Y188.1628 Z-1.7407
G01 X23.7720 Y188.1282 Z-1.7611
G01 X23.7650 Y188.0940 Z-1.7815
G01 X23.7559 Y188.0602 Z-1.8019
G01 X23.7449 Y188.0270 Z-1.8222
G01 X23.7320 Y187.9946 Z-1.8426
G01 X23.7173 Y187.9629 Z-1.8630
G01 X23.7007 Y187.9321 Z-1.8833
G01 X23.6823 Y187.9024 Z-1.9037
G01 X23.6623 Y187.8737 Z-1.9241
G01 X23.6406 Y187.8463 Z-1.9444
G01 X23.6174 Y187.8202 Z-1.9648
G01 X23.5926 Y187.7955 Z-1.9852
G01 X23.5665 Y187.7722 Z-2.0056
G01 X23.5391 Y187.7506 Z-2.0259
G01 X23.5105 Y187.7305 Z-2.0463
G01 X23.4807 Y187.7122 Z-2.0667
G01 X23.4500 Y187.6956 Z-2.0870
G01 X23.4183 Y187.6808 Z-2.1074
G01 X23.3858 Y187.6679 Z-2.1278
G01 X23.3526 Y187.6569 Z-2.1481
G01 X23.3189 Y187.6479 Z-2.1685
G01 X23.2846 Y187.6408 Z-2.1889
G01 X23.2500 Y187.6357 Z-2.2093
G01 X23.2152 Y187.6327 Z-2.2296
G01 X23.1803 Y187.6317 Z-2.2500
G01 X23.1453 Y187.6327 Z-2.2704
G01 X23.1105 Y187.6357 Z-2.2907
G01 X23.0759 Y187.6408 Z-2.3111
G01 X23.0417 Y187.6479 Z-2.3315
G01 X23.0079 Y187.6569 Z-2.3519
G01 X22.9748 Y187.6679 Z-2.3722
G01 X22.9423 Y187.6808 Z-2.3926
G01 X22.9106 Y187.6956 Z-2.4130
G01 X22.8798 Y187.7122 Z-2.4333
G01 X22.8501 Y187.7305 Z-2.4537
G01 X22.8215 Y187.7506 Z-2.4741
G01 X22.7940 Y187.7722 Z-2.4944
G01 X22.7679 Y187.7955 Z-2.5148
G01 X22.7432 Y187.8202 Z-2.5352
G01 X22.7200 Y187.8463 Z-2.5556
G01 X22.6983 Y187.8737 Z-2.5759
G01 X22.6782 Y187.9024 Z-2.5963
G01 X22.6599 Y187.9321 Z-2.6167
G01 X22.6433 Y187.9629 Z-2.6370
G01 X22.6285 Y187.9946 Z-2.6574
G01 X22.6156 Y188.0270 Z-2.6778
G01 X22.6046 Y188.0602 Z-2.6981
G01 X22.5956 Y188.0940 Z-2.7185
G01 X22.5885 Y188.1282 Z-2.7389
G01 X22.5835 Y188.1628 Z-2.7593
G01 X22.5804 Y188.1976 Z-2.7796
G01 X22.5794 Y188.2326 Z-2.8000
G01 X22.5804 Y188.2675 Z-2.8204
G01 X22.5835 Y188.3023 Z-2.8407
G01 X22.5885 Y188.3369 Z-2.8611
G01 X22.5956 Y188.3711 Z-2.8815
G01 X22.6046 Y188.4049 Z-2.9019
G01 X22.6156 Y188.4381 Z-2.9222
G01 X22.6285 Y188.4706 Z-2.9426
G01 X22.6433 Y188.5022 Z-2.9630
G01 X22.6599 Y188.5330 Z-2.9833
G01 X22.6782 Y188.5628 Z-3.0037
G01 X22.6983 Y188.5914 Z-3.0241
G01 X22.7200 Y188.6188 Z-3.0444
G01 X22.7432 Y188.6449 Z-3.0648
G01 X22.7679 Y188.6696 Z-3.0852
G01 X22.7940 Y188.6929 Z-3.1056
G01 X22.8215 Y188.7145 Z-3.1259
G01 X22.8501 Y188.7346 Z-3.1463
G01 X22.8798 Y188.7529 Z-3.1667
G01 X22.9106 Y188.7695 Z-3.1870
G01 X22.9423 Y188.7843 Z-3.2074
G01 X22.9748 Y188.7972 Z-3.2278
G01 X23.0079 Y188.8082 Z-3.2481
G01 X23.0417 Y188.8173 Z-3.2685
G01 X23.0759 Y188.8243 Z-3.2889
G01 X23.1105 Y188.8294 Z-3.3093
G01 X23.1453 Y188.8324 Z-3.3296
G01 X23.1803 Y188.8334 Z-3.3500
G01 X23.2152 Y188.8324 Z-3.3704
G01 X23.2500 Y188.8294 Z-3.3907
G01 X23.2846 Y188.8243 Z-3.4111
G01 X23.3189 Y188.8173 Z-3.4315
G01 X23.3526 Y188.8082 Z-3.4519
G01 X23.3858 Y188.7972 Z-3.4722
G01 X23.4183 Y188.7843 Z-3.4926
G01 X23.4500 Y188.7695 Z-3.5130
G01 X23.4807 Y188.7529 Z-3.5333
G01 X23.5105 Y188.7346 Z-3.5537
G01 X23.5391 Y188.7145 Z-3.5741
G01 X23.5665 Y188.6929 Z-3.5944
G01 X23.5926 Y188.6696 Z-3.6148
G01 X23.6174 Y188.6449 Z-3.6352
G01 X23.6406 Y188.6188 Z-3.6556
G01 X23.6623 Y188.5914 Z-3.6759
G01 X23.6823 Y188.5628 Z-3.6963
G01 X23.7007 Y188.5330 Z-3.7167
G01 X23.7173 Y188.5022 Z-3.7370
G01 X23.7320 Y188.4706 Z-3.7574
G01 X23.7449 Y188.4381 Z-3.7778
G01 X23.7559 Y188.4049 Z-3.7981
G01 X23.7650 Y188.3711 Z-3.8185
G01 X23.7720 Y188.3369 Z-3.8389
G01 X23.7771 Y188.3023 Z-3.8593
G01 X23.7802 Y188.2675 Z-3.8796
G01 X23.7812 Y188.2326 Z-3.9000
G01 X23.7802 Y188.1976 Z-3.9204
G01 X23.7771 Y188.1628 Z-3.9407
G01 X23.7720 Y188.1282 Z-3.9611
G01 X23.7650 Y188.0940 Z-3.9815
G01 X23.7559 Y188.0602 Z-4.0019
G01 X23.7449 Y188.0270 Z-4.0222
G01 X23.7320 Y187.9946 Z-4.0426
G01 X23.7173 Y187.9629 Z-4.0630
G01 X23.7007 Y187.9321 Z-4.0833
G01 X23.6823 Y187.9024 Z-4.1037
G01 X23.6623 Y187.8737 Z-4.1241
G01 X23.6406 Y187.8463 Z-4.1444
G01 X23.6174 Y187.8202 Z-4.1648
G01 X23.5926 Y187.7955 Z-4.1852
G01 X23.5665 Y187.7722 Z-4.2056
G01 X23.5391 Y187.7506 Z-4.2259
G01 X23.5105 Y187.7305 Z-4.2463
G01 X23.4807 Y187.7122 Z-4.2667
G01 X23.4500 Y187.6956 Z-4.2870
G01 X23.4183 Y187.6808 Z-4.3074
G01 X23.3858 Y187.6679 Z-4.3278
G01 X23.3526 Y187.6569 Z-4.3481
G01 X23.3189 Y187.6479 Z-4.3685
G01 X23.2846 Y187.6408 Z-4.3889
G01 X23.2500 Y187.6357 Z-4.4093
G01 X23.2152 Y187.6327 Z-4.4296
G01 X23.1803 Y187.6317 Z-4.4500
G01 X23.1453 Y187.6327 Z-4.4704
G01 X23.1105 Y187.6357 Z-4.4907
G01 X23.0759 Y187.6408 Z-4.5111
G01 X23.0417 Y187.6479 Z-4.5315
G01 X23.0079 Y187.6569 Z-4.5519
G01 X22.9748 Y187.6679 Z-4.5722
G01 X22.9423 Y187.6808 Z-4.5926
G01 X22.9106 Y187.6956 Z-4.6130
G01 X22.8798 Y187.7122 Z-4.6333
G01 X22.8501 Y187.7305 Z-4.6537
G01 X22.8215 Y187.7506 Z-4.6741
G01 X22.7940 Y187.7722 Z-4.6944
G01 X22.7679 Y187.7955 Z-4.7148
G01 X22.7432 Y187.8202 Z-4.7352
G01 X22.7200 Y187.8463 Z-4.7556
G01 X22.6983 Y187.8737 Z-4.7759
G01 X22.6782 Y187.9024 Z-4.7963
G01 X22.6599 Y187.9321 Z-4.8167
G01 X22.6433 Y187.9629 Z-4.8370
G01 X22.6285 Y187.9946 Z-4.8574
G01 X22.6156 Y188.0270 Z-4.8778
G01 X22.6046 Y188.0602 Z-4.8981
G01 X22.5956 Y188.0940 Z-4.9185
G01 X22.5885 Y188.1282 Z-4.9389
G01 X22.5835 Y188.1628 Z-4.9593
G01 X22.5804 Y188.1976 Z-4.9796
G01 X22.5794 Y188.2326 Z-5.0000
G01 X22.5804 Y188.2675 Z-5.0204
G01 X22.5835 Y188.3023 Z-5.0407
G01 X22.5885 Y188.3369 Z-5.0611
G01 X22.5956 Y188.3711 Z-5.0815
G01 X22.6046 Y188.4049 Z-5.1019
G01 X22.6156 Y188.4381 Z-5.1222
G01 X22.6285 Y188.4706 Z-5.1426
G01 X22.6433 Y188.5022 Z-5.1630
G01 X22.6599 Y188.5330 Z-5.1833
G01 X22.6782 Y188.5628 Z-5.2037
G01 X22.6983 Y188.5914 Z-5.2241
G01 X22.7200 Y188.6188 Z-5.2444
G01 X22.7432 Y188.6449 Z-5.2648
G01 X22.7679 Y188.6696 Z-5.2852
G01 X22.7940 Y188.6929 Z-5.3056
G01 X22.8215 Y188.7145 Z-5.3259
G01 X22.8501 Y188.7346 Z-5.3463
G01 X22.8798 Y188.7529 Z-5.3667
G01 X22.9106 Y188.7695 Z-5.3870
G01 X22.9423 Y188.7843 Z-5.4074
G01 X22.9748 Y188.7972 Z-5.4278
G01 X23.0079 Y188.8082 Z-5.4481
G01 X23.0417 Y188.8173 Z-5.4685
G01 X23.0759 Y188.8243 Z-5.4889
G01 X23.1105 Y188.8294 Z-5.5093
G01 X23.1453 Y188.8324 Z-5.5296
G01 X23.1803 Y188.8334 Z-5.5500
G01 X23.2152 Y188.8324 Z-5.5704
G01 X23.2500 Y188.8294 Z-5.5907
G01 X23.2846 Y188.8243 Z-5.6111
G01 X23.3189 Y188.8173 Z-5.6315
G01 X23.3526 Y188.8082 Z-5.6519
G01 X23.3858 Y188.7972 Z-5.6722
G01 X23.4183 Y188.7843 Z-5.6926
G01 X23.4500 Y188.7695 Z-5.7130
G01 X23.4807 Y188.7529 Z-5.7333
G01 X23.5105 Y188.7346 Z-5.7537
G01 X23.5391 Y188.7145 Z-5.7741
G01 X23.5665 Y188.6929 Z-5.7944
G01 X23.5926 Y188.6696 Z-5.8148
G01 X23.6174 Y188.6449 Z-5.8352
G01 X23.6406 Y188.6188 Z-5.8556
G01 X23.6623 Y188.5914 Z-5.8759
G01 X23.6823 Y188.5628 Z-5.8963
G01 X23.7007 Y188.5330 Z-5.9167
G01 X23.7173 Y188.5022 Z-5.9370
G01 X23.7320 Y188.4706 Z-5.9574
G01 X23.7449 Y188.4381 Z-5.9778
G01 X23.7559 Y188.4049 Z-5.9981
G01 X23.7650 Y188.3711 Z-6.0185
G01 X23.7720 Y188.3369 Z-6.0389
G01 X23.7771 Y188.3023 Z-6.0593
G01 X23.7802 Y188.2675 Z-6.0796
G01 X23.7812 Y188.2326 Z-6.1000
G01 X23.7802 Y188.1976 Z-6.1176
G01 X23.7771 Y188.1628 Z-6.1352
G01 X23.7720 Y188.1282 Z-6.1528
G01 X23.7650 Y188.0940 Z-6.1704
G01 X23.7559 Y188.0602 Z-6.1880
G01 X23.7449 Y188.0270 Z-6.2056
G01 X23.7320 Y187.9946 Z-6.2231
G01 X23.7173 Y187.9629 Z-6.2407
G01 X23.7007 Y187.9321 Z-6.2583
G01 X23.6823 Y187.9024 Z-6.2759
G01 X23.6623 Y187.8737 Z-6.2935
G01 X23.6406 Y187.8463 Z-6.3111
G01 X23.6174 Y187.8202 Z-6.3287
G01 X23.5926 Y187.7955 Z-6.3463
G01 X23.5665 Y187.7722 Z-6.3639
G01 X23.5391 Y187.7506 Z-6.3815
G01 X23.5105 Y187.7305 Z-6.3991
G01 X23.4807 Y187.7122 Z-6.4167
G01 X23.4500 Y187.6956 Z-6.4343
G01 X23.4183 Y187.6808 Z-6.4519
G01 X23.3858 Y187.6679 Z-6.4694
G01 X23.3526 Y187.6569 Z-6.4870
G01 X23.3189 Y187.6479 Z-6.5046
G01 X23.2846 Y187.6408 Z-6.5222
G01 X23.2500 Y187.6357 Z-6.5398
G01 X23.2152 Y187.6327 Z-6.5574
G01 X23.1803 Y187.6317 Z-6.5750
G01 X23.1453 Y187.6327 Z-6.5926
G01 X23.1105 Y187.6357 Z-6.6102
G01 X23.0759 Y187.6408 Z-6.6278
G01 X23.0417 Y187.6479 Z-6.6454
G01 X23.0079 Y187.6569 Z-6.6630
G01 X22.9748 Y187.6679 Z-6.6806
G01 X22.9423 Y187.6808 Z-6.6981
G01 X22.9106 Y187.6956 Z-6.7157
G01 X22.8798 Y187.7122 Z-6.7333
G01 X22.8501 Y187.7305 Z-6.7509
G01 X22.8215 Y187.7506 Z-6.7685
G01 X22.7940 Y187.7722 Z-6.7861
G01 X22.7679 Y187.7955 Z-6.8037
G01 X22.7432 Y187.8202 Z-6.8213
G01 X22.7200 Y187.8463 Z-6.8389
G01 X22.6983 Y187.8737 Z-6.8565
G01 X22.6782 Y187.9024 Z-6.8741
G01 X22.6599 Y187.9321 Z-6.8917
G01 X22.6433 Y187.9629 Z-6.9093
G01 X22.6285 Y187.9946 Z-6.9269
G01 X22.6156 Y188.0270 Z-6.9444
G01 X22.6046 Y188.0602 Z-6.9620
G01 X22.5956 Y188.0940 Z-6.9796
G01 X22.5885 Y188.1282 Z-6.9972
G01 X22.5835 Y188.1628 Z-7.0148
G01 X22.5804 Y188.1976 Z-7.0324
G01 X22.5794 Y188.2326 Z-7.0500
G01 X22.5804 Y188.2675 Z-7.0676
G01 X22.5835 Y188.3023 Z-7.0852
G01 X22.5885 Y188.3369 Z-7.1028
G01 X22.5956 Y188.3711 Z-7.1204
G01 X22.6046 Y188.4049 Z-7.1380
G01 X22.6156 Y188.4381 Z-7.1556
G01 X22.6285 Y188.4706 Z-7.1731
G01 X22.6433 Y188.5022 Z-7.1907
G01 X22.6599 Y188.5330 Z-7.2083
G01 X22.6782 Y188.5628 Z-7.2259
G01 X22.6983 Y188.5914 Z-7.2435
G01 X22.7200 Y188.6188 Z-7.2611
G01 X22.7432 Y188.6449 Z-7.2787
G01 X22.7679 Y188.6696 Z-7.2963
G01 X22.7940 Y188.6929 Z-7.3139
G01 X22.8215 Y188.7145 Z-7.3315
G01 X22.8501 Y188.7346 Z-7.3491
G01 X22.8798 Y188.7529 Z-7.3667
G01 X22.9106 Y188.7695 Z-7.3843
G01 X22.9423 Y188.7843 Z-7.4019
G01 X22.9748 Y188.7972 Z-7.4194
G01 X23.0079 Y188.8082 Z-7.4370
G01 X23.0417 Y188.8173 Z-7.4546
G01 X23.0759 Y188.8243 Z-7.4722
G01 X23.1105 Y188.8294 Z-7.4898
G01 X23.1453 Y188.8324 Z-7.5074
G01 X23.1803 Y188.8334 Z-7.5250
G01 X23.2152 Y188.8324 Z-7.5426
G01 X23.2500 Y188.8294 Z-7.5602
G01 X23.2846 Y188.8243 Z-7.5778
G01 X23.3189 Y188.8173 Z-7.5954
G01 X23.3526 Y188.8082 Z-7.6130
G01 X23.3858 Y188.7972 Z-7.6306
G01 X23.4183 Y188.7843 Z-7.6481
G01 X23.4500 Y188.7695 Z-7.6657
G01 X23.4807 Y188.7529 Z-7.6833
G01 X23.5105 Y188.7346 Z-7.7009
G01 X23.5391 Y188.7145 Z-7.7185
G01 X23.5665 Y188.6929 Z-7.7361
G01 X23.5926 Y188.6696 Z-7.7537
G01 X23.6174 Y188.6449 Z-7.7713
G01 X23.6406 Y188.6188 Z-7.7889
G01 X23.6623 Y188.5914 Z-7.8065
G01 X23.6823 Y188.5628 Z-7.8241
G01 X23.7007 Y188.5330 Z-7.8417
G01 X23.7173 Y188.5022 Z-7.8593
G01 X23.7320 Y188.4706 Z-7.8769
G01 X23.7449 Y188.4381 Z-7.8944
G01 X23.7559 Y188.4049 Z-7.9120
G01 X23.7650 Y188.3711 Z-7.9296
G01 X23.7720 Y188.3369 Z-7.9472
G01 X23.7771 Y188.3023 Z-7.9648
G01 X23.7802 Y188.2675 Z-7.9824
G01 X23.7812 Y188.2326 Z-8.0000
G01 X23.7802 Y188.1976
G01 X23.7771 Y188.1628
G01 X23.7720 Y188.1282
G01 X23.7650 Y188.0940
G01 X23.7559 Y188.0602
G01 X23.7449 Y188.0270
G01 X23.7320 Y187.9946
G01 X23.7173 Y187.9629
G01 X23.7007 Y187.9321
G01 X23.6823 Y187.9024
G01 X23.6623 Y187.8737
G01 X23.6406 Y187.8463
G01 X23.6174 Y187.8202
G01 X23.5926 Y187.7955
G01 X23.5665 Y187.7722
G01 X23.5391 Y187.7506
G01 X23.5105 Y187.7305
G01 X23.4807 Y187.7122
G01 X23.4500 Y187.6956
G01 X23.4183 Y187.6808
G01 X23.3858 Y187.6679
G01 X23.3526 Y187.6569
G01 X23.3189 Y187.6479
G01 X23.2846 Y187.6408
G01 X23.2500 Y187.6357
G01 X23.2152 Y187.6327
G01 X23.1803 Y187.6317
G01 X23.1453 Y187.6327
G01 X23.1105 Y187.6357
G01 X23.0759 Y187.6408
G01 X23.0417 Y187.6479
G01 X23.0079 Y187.6569
G01 X22.9748 Y187.6679
G01 X22.9423 Y187.6808
G01 X22.9106 Y187.6956
G01 X22.8798 Y187.7122
G01 X22.8501 Y187.7305
G01 X22.8215 Y187.7506
G01 X22.7940 Y187.7722
G01 X22.7679 Y187.7955
G01 X22.7432 Y187.8202
G01 X22.7200 Y187.8463
G01 X22.6983 Y187.8737
G01 X22.6782 Y187.9024
G01 X22.6599 Y187.9321
G01 X22.6433 Y187.9629
G01 X22.6285 Y187.9946
G01 X22.6156 Y188.0270
G01 X22.6046 Y188.0602
G01 X22.5956 Y188.0940
G01 X22.5885 Y188.1282
G01 X22.5835 Y188.1628
G01 X22.5804 Y188.1976
G01 X22.5794 Y188.2326
G01 X22.5804 Y188.2675
G01 X22.5835 Y188.3023
G01 X22.5885 Y188.3369
G01 X22.5956 Y188.3711
G01 X22.6046 Y188.4049
G01 X22.6156 Y188.4381
G01 X22.6285 Y188.4706
G01 X22.6433 Y188.5022
G01 X22.6599 Y188.5330
G01 X22.6782 Y188.5628
G01 X22.6983 Y188.5914
G01 X22.7200 Y188.6188
G01 X22.7432 Y188.6449
G01 X22.7679 Y188.6696
G01 X22.7940 Y188.6929
G01 X22.8215 Y188.7145
G01 X22.8501 Y188.7346
G01 X22.8798 Y188.7529
G01 X22.9106 Y188.7695
G01 X22.9423 Y188.7843
G01 X22.9748 Y188.7972
G01 X23.0079 Y188.8082
G01 X23.0417 Y188.8173
G01 X23.0759 Y188.8243
G01 X23.1105 Y188.8294
G01 X23.1453 Y188.8324
G01 X23.1803 Y188.8334
G01 X23.2152 Y188.8324
G01 X23.2500 Y188.8294
G01 X23.2846 Y188.8243
G01 X23.3189 Y188.8173
G01 X23.3526 Y188.8082
G01 X23.3858 Y188.7972
G01 X23.4183 Y188.7843
G01 X23.4500 Y188.7695
G01 X23.4807 Y188.7529
G01 X23.5105 Y188.7346
G01 X23.5391 Y188.7145
G01 X23.5665 Y188.6929
G01 X23.5926 Y188.6696
G01 X23.6174 Y188.6449
G01 X23.6406 Y188.6188
G01 X23.6623 Y188.5914
G01 X23.6823 Y188.5628
G01 X23.7007 Y188.5330
G01 X23.7173 Y188.5022
G01 X23.7320 Y188.4706
G01 X23.7449 Y188.4381
G01 X23.7559 Y188.4049
G01 X23.7650 Y188.3711
G01 X23.7720 Y188.3369
G01 X23.7771 Y188.3023
G01 X23.7802 Y188.2675
G01 X23.7812 Y188.2326
M107
M106 S240
G01 X23.7803 Y188.2090 Z-7.9875
M107
M106 S240
G01 X23.7775 Y188.1856 Z-7.9750
M107
M106 S240
G01 X23.7729 Y188.1624 Z-7.9625
M107
M106 S240
G01 X23.7665 Y188.1397 Z-7.9500
M107
M106 S240
G01 X23.7583 Y188.1176 Z-7.9375
M107
M106 S240
G01 X23.7484 Y188.0962 Z-7.9250
M107
M106 S240
G01 X23.7369 Y188.0756 Z-7.9125
M107
M106 S240
G01 X23.7238 Y188.0560 Z-7.9000
M107
M106 S240
G01 X23.7092 Y188.0374 Z-7.8875
M107
M106 S240
G01 X23.6932 Y188.0201 Z-7.8750
M107
M106 S240
G01 X23.6759 Y188.0041 Z-7.8625
M107
M106 S240
G01 X23.6573 Y187.9895 Z-7.8500
M107
M106 S240
G01 X23.6377 Y187.9764 Z-7.8375
M107
M106 S240
G01 X23.6171 Y187.9649 Z-7.8250
M107
M106 S240
G01 X23.5957 Y187.9550 Z-7.8125
M107
M106 S240
G01 X23.5736 Y187.9468 Z-7.8000
M107
M106 S240
G01 X23.5509 Y187.9404 Z-7.7875
M107
M106 S240
G01 X23.5277 Y187.9358 Z-7.7750
M107
M106 S240
G01 X23.5043 Y187.9330 Z-7.7625
M107
M106 S240
G01 X23.4807 Y187.9321 Z-7.7500
M107
M106 S240
G01 X23.4572 Y187.9330 Z-7.7375
M107
M106 S240
G01 X23.4337 Y187.9358 Z-7.7250
M107
M106 S240
G01 X23.4106 Y187.9404 Z-7.7125
M107
M106 S240
G01 X23.3879 Y187.9468 Z-7.7000
M107
M106 S240
G01 X23.3658 Y187.9550 Z-7.6875
M107
M106 S240
G01 X23.3443 Y187.9649 Z-7.6750
M107
M106 S240
G01 X23.3237 Y187.9764 Z-7.6625
M107
M106 S240
G01 X23.3041 Y187.9895 Z-7.6500
M107
M106 S240
G01 X23.2856 Y188.0041 Z-7.6375
M107
M106 S240
G01 X23.2683 Y188.0201 Z-7.6250
M107
M106 S240
G01 X23.2523 Y188.0374 Z-7.6125
M107
M106 S240
G01 X23.2377 Y188.0560 Z-7.6000
M107
M106 S240
G01 X23.2246 Y188.0756 Z-7.5875
M107
M106 S240
G01 X23.2130 Y188.0962 Z-7.5750
M107
M106 S240
G01 X23.2032 Y188.1176 Z-7.5625
M107
M106 S240
G01 X23.1950 Y188.1397 Z-7.5500
M107
M106 S240
G01 X23.1886 Y188.1624 Z-7.5375
M107
M106 S240
G01 X23.1840 Y188.1856 Z-7.5250
M107
M106 S240
G01 X23.1812 Y188.2090 Z-7.5125
M107
M106 S240
G01 X23.1803 Y188.2326 Z-7.5000
M107
G00 Z2.0000


;No. 2: Hole 37
G00 X26.8914 Y165.8615 Z2.0000
G00 Z0.5000
G01 Z-2.2000 F400
M106 S240
G01 X26.1101 Y165.8685 F1000
G01 X26.0344 Y177.5941
G01 X26.0254 Y177.6968
G01 X26.0068 Y177.7982
G01 X25.9788 Y177.8974
G01 X25.9417 Y177.9935
G01 X25.8957 Y178.0858
G01 X25.8413 Y178.1734
G01 X25.7789 Y178.2554
G01 X25.7091 Y178.3313
G01 X25.6325 Y178.4003
G01 X25.5498 Y178.4619
G01 X25.4617 Y178.5154
G01 X25.3690 Y178.5604
G01 X25.2725 Y178.5966
G01 X25.1730 Y178.6236
G01 X25.0714 Y178.6411
G01 X24.9686 Y178.6490
G01 X22.3596 Y178.7281
G01 X20.1241 Y178.7979
G01 X19.6801 Y179.1175
G01 X19.5968 Y179.1714
G01 X19.5156 Y179.2284
G01 X19.4367 Y179.2885
G01 X19.3601 Y179.3516
G01 X19.2860 Y179.4176
G01 X19.2145 Y179.4864
G01 X19.1457 Y179.5580
G01 X19.0797 Y179.6321
G01 X19.1792 Y179.6332
G01 X22.8794 Y179.6681
G01 X26.5798 Y179.6772
G01 X30.2802 Y179.6605
G01 X33.9803 Y179.6179
G01 X33.9738 Y179.6074
G01 X33.8368 Y179.4756
G01 X33.6979 Y179.3458
G01 X33.5574 Y179.2178
G01 X33.4151 Y179.0917
G01 X33.3626 Y179.0452
G01 X33.3070 Y179.0023
G01 X33.2487 Y178.9633
G01 X33.1879 Y178.9282
G01 X33.1249 Y178.8974
G01 X33.0600 Y178.8709
G01 X32.9934 Y178.8488
G01 X32.9255 Y178.8312
G01 X32.8565 Y178.8183
G01 X32.7868 Y178.8100
G01 X32.7168 Y178.8064
G01 X32.6466 Y178.8076
G01 X31.4589 Y178.7497
G01 X30.2708 Y178.7016
G01 X29.0823 Y178.6633
G01 X27.8935 Y178.6348
G01 X27.7993 Y178.6149
G01 X27.7073 Y178.5868
G01 X27.6180 Y178.5509
G01 X27.5323 Y178.5072
G01 X27.4507 Y178.4563
G01 X27.3738 Y178.3984
G01 X27.3023 Y178.3340
G01 X27.2367 Y178.2636
G01 X27.1775 Y178.1878
G01 X27.1252 Y178.1070
G01 X27.0801 Y178.0220
G01 X27.0426 Y177.9334
G01 X27.0130 Y177.8419
G01 X26.9915 Y177.7481
G01 X26.9783 Y177.6528
G01 X26.9735 Y177.5567
G01 X26.9323 Y171.1426
G01 X26.8914 Y165.8615
M107
G00 Z2.0000


;No. 3: Hole 38
G00 X57.0797 Y178.7280 Z2.0000
G00 Z0.5000
G01 Z-2.2000 F400
M106 S240
G01 X46.0893 Y178.7304 F1000
G01 X45.5579 Y179.0880
G01 X45.4261 Y179.1747
G01 X45.2990 Y179.2682
G01 X45.1770 Y179.3682
G01 X45.0604 Y179.4746
G01 X48.3252 Y179.5029
G01 X51.5902 Y179.5179
G01 X54.8551 Y179.5196
G01 X58.1201 Y179.5080
G01 X57.8772 Y179.2909
G01 X57.6223 Y179.0881
G01 X57.3561 Y178.9003
G01 X57.0797 Y178.7280
M107
G00 Z2.0000


;No. 4: Hole 39
G00 X46.0478 Y172.5819 Z2.0000
G00 Z0.5000
G01 Z-2.2000 F400
M106 S240
G01 X46.0064 Y172.5918 F1000
G01 X45.9952 Y172.5952
G01 X45.9840 Y172.6010
G01 X45.6596 Y172.7886
G01 X45.3527 Y173.0035
G01 X45.0656 Y173.2443
G01 X44.8004 Y173.5090
G01 X44.8108 Y173.5174
G01 X47.2895 Y173.5509
G01 X49.7683 Y173.5658
G01 X52.2472 Y173.5622
G01 X54.7260 Y173.5400
G01 X55.6010 Y173.5358
G01 X56.4759 Y173.5278
G01 X57.3508 Y173.5161
G01 X58.2256 Y173.5007
G01 X58.2088 Y173.4776
G01 X57.9344 Y173.1771
G01 X57.6323 Y172.9043
G01 X57.3054 Y172.6619
G01 X56.9567 Y172.4520
G01 X50.7209 Y172.4594
G01 X50.0249 Y172.4602
G01 X49.3288 Y172.4638
G01 X48.6328 Y172.4702
G01 X47.9368 Y172.4794
G01 X47.4634 Y172.4787
G01 X46.9904 Y172.4956
G01 X46.5183 Y172.5300
G01 X46.0478 Y172.5819
M107
G00 Z2.0000


;No. 5: Hole 40
G00 X46.2140 Y166.1305 Z2.0000
G00 Z0.5000
G01 Z-2.2000 F400
M106 S240
G01 X45.8713 Y166.2794 F1000
G01 X45.5444 Y166.4605
G01 X45.2365 Y166.6722
G01 X44.9504 Y166.9126
G01 X48.2463 Y166.9475
G01 X51.5423 Y166.9597
G01 X54.8384 Y166.9493
G01 X58.1343 Y166.9162
G01 X58.0783 Y166.8549
G01 X58.0194 Y166.7964
G01 X57.9577 Y166.7409
G01 X57.8934 Y166.6884
G01 X57.7651 Y166.5871
G01 X57.6334 Y166.4901
G01 X57.4986 Y166.3975
G01 X57.3608 Y166.3095
G01 X57.2470 Y166.2550
G01 X57.1300 Y166.2076
G01 X57.0103 Y166.1677
G01 X56.8883 Y166.1353
G01 X56.7646 Y166.1107
G01 X56.6395 Y166.0937
G01 X56.5136 Y166.0847
G01 X56.3875 Y166.0835
G01 X55.5357 Y166.0441
G01 X54.6833 Y166.0201
G01 X53.8306 Y166.0116
G01 X52.9779 Y166.0186
G01 X51.5134 Y166.0058
G01 X50.0488 Y166.0073
G01 X48.5843 Y166.0231
G01 X47.1200 Y166.0530
G01 X46.8925 Y166.0578
G01 X46.6654 Y166.0723
G01 X46.4391 Y166.0966
G01 X46.2140 Y166.1305
M107
G00 Z2.0000


;No. 6: Hole 41
G00 X70.2238 Y165.9079 Z2.0000
G00 Z0.5000
G01 Z-2.2000 F400
M106 S240
G01 X70.2126 Y165.9174 F1000
G01 X70.2607 Y165.9782
G01 X70.3116 Y166.0367
G01 X70.3651 Y166.0929
G01 X70.4211 Y166.1465
G01 X70.6880 Y166.3785
G01 X70.7595 Y166.4458
G01 X70.8349 Y166.5087
G01 X70.9141 Y166.5669
G01 X70.9966 Y166.6202
G01 X71.0822 Y166.6684
G01 X71.1706 Y166.7113
G01 X71.2615 Y166.7487
G01 X71.3544 Y166.7805
G01 X71.4491 Y166.8066
G01 X71.5453 Y166.8269
G01 X71.6425 Y166.8413
G01 X71.7403 Y166.8498
G01 X72.6260 Y166.9122
G01 X73.5130 Y166.9507
G01 X74.4008 Y166.9653
G01 X75.2886 Y166.9561
G01 X81.6378 Y166.9566
G01 X81.7252 Y166.9585
G01 X81.8121 Y166.9673
G01 X81.8980 Y166.9830
G01 X81.9825 Y167.0055
G01 X82.0649 Y167.0346
G01 X82.1447 Y167.0701
G01 X82.2214 Y167.1119
G01 X82.2946 Y167.1596
G01 X82.3638 Y167.2130
G01 X82.4285 Y167.2717
G01 X82.4884 Y167.3353
G01 X82.5430 Y167.4035
G01 X82.5920 Y167.4758
G01 X82.6351 Y167.5518
G01 X82.6721 Y167.6310
G01 X82.7027 Y167.7128
G01 X82.7267 Y167.7968
G01 X82.7439 Y167.8825
G01 X82.7543 Y167.9693
G01 X82.7578 Y168.0566
G01 Y171.3316
G01 X82.7559 Y171.4190
G01 X82.7471 Y171.5059
G01 X82.7314 Y171.5918
G01 X82.7089 Y171.6763
G01 X82.6798 Y171.7587
G01 X82.6443 Y171.8385
G01 X82.6025 Y171.9152
G01 X82.5548 Y171.9884
G01 X82.5014 Y172.0576
G01 X82.4427 Y172.1223
G01 X82.3790 Y172.1822
G01 X82.3108 Y172.2368
G01 X82.2385 Y172.2858
G01 X82.1625 Y172.3289
G01 X82.0834 Y172.3659
G01 X82.0015 Y172.3965
G01 X81.9175 Y172.4205
G01 X81.8319 Y172.4377
G01 X81.7451 Y172.4481
G01 X81.6578 Y172.4516
G01 X69.5775
G01 Y179.6661
G01 X76.4798
G01 X78.0218 Y179.6689
G01 X79.5639 Y179.6655
G01 X81.1059 Y179.6559
G01 X82.6479 Y179.6401
G01 X82.3994 Y179.3867
G01 X82.1352 Y179.1496
G01 X81.8566 Y178.9297
G01 X81.5645 Y178.7280
G01 X71.3218
G01 X71.2345 Y178.7261
G01 X71.1476 Y178.7172
G01 X71.0616 Y178.7015
G01 X70.9772 Y178.6791
G01 X70.8948 Y178.6500
G01 X70.8150 Y178.6144
G01 X70.7382 Y178.5727
G01 X70.6650 Y178.5249
G01 X70.5959 Y178.4716
G01 X70.5311 Y178.4129
G01 X70.4713 Y178.3492
G01 X70.4167 Y178.2810
G01 X70.3676 Y178.2087
G01 X70.3245 Y178.1327
G01 X70.2875 Y178.0536
G01 X70.2569 Y177.9717
G01 X70.2330 Y177.8877
G01 X70.2157 Y177.8020
G01 X70.2053 Y177.7153
G01 X70.2018 Y177.6280
G01 Y174.5098
G01 X70.2046 Y174.4120
G01 X70.2167 Y174.3096
G01 X70.2383 Y174.2088
G01 X70.2693 Y174.1105
G01 X70.3093 Y174.0155
G01 X70.3581 Y173.9247
G01 X70.4151 Y173.8388
G01 X70.4800 Y173.7587
G01 X70.5520 Y173.6850
G01 X70.6307 Y173.6183
G01 X70.7152 Y173.5593
G01 X70.8049 Y173.5085
G01 X70.8989 Y173.4663
G01 X70.9965 Y173.4330
G01 X71.0968 Y173.4091
G01 X71.1989 Y173.3946
G01 X71.3018 Y173.3898
G01 X83.5391
G01 Y165.8614
G01 X76.2587 Y165.8615
G01 X74.7499 Y165.8604
G01 X73.2411 Y165.8678
G01 X71.7324 Y165.8836
G01 X70.2238 Y165.9079
M107
G00 Z2.0000


;No. 7: Hole 42
G00 X105.6587 Y166.0183 Z2.0000
G00 Z0.5000
G01 Z-2.2000 F400
M106 S240
G01 X94.0553 F1000
G01 Y179.6661
G01 X94.6796
G01 Y168.0765
G01 X94.6823 Y167.9787
G01 X94.6944 Y167.8763
G01 X94.7161 Y167.7755
G01 X94.7471 Y167.6772
G01 X94.7871 Y167.5822
G01 X94.8359 Y167.4914
G01 X94.8929 Y167.4055
G01 X94.9577 Y167.3254
G01 X95.0298 Y167.2517
G01 X95.1084 Y167.1850
G01 X95.1930 Y167.1260
G01 X95.2826 Y167.0752
G01 X95.3767 Y167.0330
G01 X95.4743 Y166.9997
G01 X95.5745 Y166.9758
G01 X95.6766 Y166.9614
G01 X95.7796 Y166.9565
G01 X106.7473
G01 X106.7614 Y166.9495
G01 X106.5182 Y166.6806
G01 X106.2518 Y166.4344
G01 X105.9646 Y166.2131
G01 X105.6587 Y166.0183
M107
G00 Z2.0000


;No. 8: Hole 43
G00 X118.6871 Y166.0184 Z2.0000
G00 Z0.5000
G01 Z-2.2000 F400
M106 S240
G01 X118.0626 Y166.0185 F1000
G01 X118.0623 Y173.5440
G01 X131.9548 Y173.4737
G01 X132.0193 Y166.0183
G01 X131.3999
G01 Y171.3316
G01 X131.3980 Y171.4190
G01 X131.3892 Y171.5059
G01 X131.3735 Y171.5918
G01 X131.3510 Y171.6763
G01 X131.3219 Y171.7587
G01 X131.2864 Y171.8385
G01 X131.2446 Y171.9152
G01 X131.1969 Y171.9884
G01 X131.1435 Y172.0576
G01 X131.0848 Y172.1223
G01 X131.0212 Y172.1822
G01 X130.9530 Y172.2368
G01 X130.8806 Y172.2858
G01 X130.8047 Y172.3289
G01 X130.7255 Y172.3659
G01 X130.6436 Y172.3965
G01 X130.5596 Y172.4205
G01 X130.4740 Y172.4377
G01 X130.3872 Y172.4481
G01 X130.2999 Y172.4516
G01 X119.8071
G01 X119.7197 Y172.4497
G01 X119.6328 Y172.4409
G01 X119.5468 Y172.4252
G01 X119.4624 Y172.4027
G01 X119.3800 Y172.3736
G01 X119.3002 Y172.3381
G01 X119.2234 Y172.2963
G01 X119.1503 Y172.2486
G01 X119.0811 Y172.1952
G01 X119.0164 Y172.1365
G01 X118.9565 Y172.0728
G01 X118.9019 Y172.0046
G01 X118.8529 Y171.9323
G01 X118.8097 Y171.8563
G01 X118.7727 Y171.7772
G01 X118.7422 Y171.6953
G01 X118.7182 Y171.6113
G01 X118.7009 Y171.5257
G01 X118.6905 Y171.4389
G01 X118.6871 Y171.3516
G01 Y166.0184
M107
G00 Z2.0000


;No. 9: Hole 44
G00 X124.9624 Y178.7285 Z2.0000
G00 Z0.5000
G01 Z-2.2000 F400
M106 S240
G01 X119.4088 Y178.7308 F1000
G01 X118.8641 Y179.0976
G01 X118.7450 Y179.1805
G01 X118.6317 Y179.2713
G01 X118.5249 Y179.3695
G01 X118.4250 Y179.4747
G01 X118.8794 Y179.4827
G01 X119.8007 Y179.4928
G01 X120.7221 Y179.5002
G01 X121.6434 Y179.5050
G01 X122.5648 Y179.5070
G01 X124.8203 Y179.5194
G01 X127.0759 Y179.5152
G01 X129.3314 Y179.4945
G01 X131.5866 Y179.4574
G01 X131.3839 Y179.2842
G01 X131.1708 Y179.1239
G01 X130.9483 Y178.9770
G01 X130.7172 Y178.8442
G01 X130.4196 Y178.7973
G01 X130.1199 Y178.7664
G01 X129.8190 Y178.7516
G01 X129.5178 Y178.7529
G01 X128.3790 Y178.7386
G01 X127.2402 Y178.7297
G01 X126.1013 Y178.7264
G01 X124.9624 Y178.7285
M107
G00 Z2.0000


;No. 10: Helical drill 2
G00 X129.2582 Y188.2331 Z2.0000
G00 Z0.5000
M106 S240
G01 X129.2572 Y188.1982 Z0.4796 F400
G01 X129.2541 Y188.1633 Z0.4593
G01 X129.2490 Y188.1287 Z0.4389
G01 X129.2420 Y188.0945 Z0.4185
G01 X129.2329 Y188.0607 Z0.3981
G01 X129.2219 Y188.0275 Z0.3778
G01 X129.2090 Y187.9950 Z0.3574
G01 X129.1942 Y187.9633 Z0.3370
G01 X129.1776 Y187.9326 Z0.3167
G01 X129.1593 Y187.9028 Z0.2963
G01 X129.1392 Y187.8742 Z0.2759
G01 X129.1175 Y187.8467 Z0.2556
G01 X129.0943 Y187.8206 Z0.2352
G01 X129.0696 Y187.7959 Z0.2148
G01 X129.0434 Y187.7726 Z0.1944
G01 X129.0160 Y187.7509 Z0.1741
G01 X128.9874 Y187.7309 Z0.1537
G01 X128.9576 Y187.7125 Z0.1333
G01 X128.9268 Y187.6959 Z0.1130
G01 X128.8951 Y187.6811 Z0.0926
G01 X128.8626 Y187.6682 Z0.0722
G01 X128.8294 Y187.6572 Z0.0519
G01 X128.7957 Y187.6482 Z0.0315
G01 X128.7614 Y187.6411 Z0.0111
G01 X128.7268 Y187.6360 Z-0.0093
G01 X128.6920 Y187.6330 Z-0.0296
G01 X128.6570 Y187.6320 Z-0.0500
G01 X128.6221 Y187.6330 Z-0.0704
G01 X128.5872 Y187.6360 Z-0.0907
G01 X128.5526 Y187.6411 Z-0.1111
G01 X128.5184 Y187.6482 Z-0.1315
G01 X128.4846 Y187.6572 Z-0.1519
G01 X128.4514 Y187.6682 Z-0.1722
G01 X128.4189 Y187.6811 Z-0.1926
G01 X128.3872 Y187.6959 Z-0.2130
G01 X128.3564 Y187.7125 Z-0.2333
G01 X128.3267 Y187.7309 Z-0.2537
G01 X128.2980 Y187.7509 Z-0.2741
G01 X128.2706 Y187.7726 Z-0.2944
G01 X128.2445 Y187.7959 Z-0.3148
G01 X128.2197 Y187.8206 Z-0.3352
G01 X128.1965 Y187.8467 Z-0.3556
G01 X128.1748 Y187.8742 Z-0.3759
G01 X128.1548 Y187.9028 Z-0.3963
G01 X128.1364 Y187.9326 Z-0.4167
G01 X128.1198 Y187.9633 Z-0.4370
G01 X128.1050 Y187.9950 Z-0.4574
G01 X128.0921 Y188.0275 Z-0.4778
G01 X128.0811 Y188.0607 Z-0.4981
G01 X128.0721 Y188.0945 Z-0.5185
G01 X128.0650 Y188.1287 Z-0.5389
G01 X128.0599 Y188.1633 Z-0.5593
G01 X128.0569 Y188.1982 Z-0.5796
G01 X128.0559 Y188.2331 Z-0.6000
G01 X128.0569 Y188.2681 Z-0.6204
G01 X128.0599 Y188.3029 Z-0.6407
G01 X128.0650 Y188.3375 Z-0.6611
G01 X128.0721 Y188.3718 Z-0.6815
G01 X128.0811 Y188.4056 Z-0.7019
G01 X128.0921 Y188.4387 Z-0.7222
G01 X128.1050 Y188.4712 Z-0.7426
G01 X128.1198 Y188.5029 Z-0.7630
G01 X128.1364 Y188.5337 Z-0.7833
G01 X128.1548 Y188.5635 Z-0.8037
G01 X128.1748 Y188.5921 Z-0.8241
G01 X128.1965 Y188.6196 Z-0.8444
G01 X128.2197 Y188.6457 Z-0.8648
G01 X128.2445 Y188.6704 Z-0.8852
G01 X128.2706 Y188.6937 Z-0.9056
G01 X128.2980 Y188.7153 Z-0.9259
G01 X128.3267 Y188.7354 Z-0.9463
G01 X128.3564 Y188.7538 Z-0.9667
G01 X128.3872 Y188.7704 Z-0.9870
G01 X128.4189 Y188.7851 Z-1.0074
G01 X128.4514 Y188.7980 Z-1.0278
G01 X128.4846 Y188.8090 Z-1.0481
G01 X128.5184 Y188.8181 Z-1.0685
G01 X128.5526 Y188.8252 Z-1.0889
G01 X128.5872 Y188.8302 Z-1.1093
G01 X128.6221 Y188.8333 Z-1.1296
G01 X128.6570 Y188.8343 Z-1.1500
G01 X128.6920 Y188.8333 Z-1.1704
G01 X128.7268 Y188.8302 Z-1.1907
G01 X128.7614 Y188.8252 Z-1.2111
G01 X128.7957 Y188.8181 Z-1.2315
G01 X128.8294 Y188.8090 Z-1.2519
G01 X128.8626 Y188.7980 Z-1.2722
G01 X128.8951 Y188.7851 Z-1.2926
G01 X128.9268 Y188.7704 Z-1.3130
G01 X128.9576 Y188.7538 Z-1.3333
G01 X128.9874 Y188.7354 Z-1.3537
G01 X129.0160 Y188.7153 Z-1.3741
G01 X129.0434 Y188.6937 Z-1.3944
G01 X129.0696 Y188.6704 Z-1.4148
G01 X129.0943 Y188.6457 Z-1.4352
G01 X129.1175 Y188.6196 Z-1.4556
G01 X129.1392 Y188.5921 Z-1.4759
G01 X129.1593 Y188.5635 Z-1.4963
G01 X129.1776 Y188.5337 Z-1.5167
G01 X129.1942 Y188.5029 Z-1.5370
G01 X129.2090 Y188.4712 Z-1.5574
G01 X129.2219 Y188.4387 Z-1.5778
G01 X129.2329 Y188.4056 Z-1.5981
G01 X129.2420 Y188.3718 Z-1.6185
G01 X129.2490 Y188.3375 Z-1.6389
G01 X129.2541 Y188.3029 Z-1.6593
G01 X129.2572 Y188.2681 Z-1.6796
G01 X129.2582 Y188.2331 Z-1.7000
G01 X129.2572 Y188.1982 Z-1.7204
G01 X129.2541 Y188.1633 Z-1.7407
G01 X129.2490 Y188.1287 Z-1.7611
G01 X129.2420 Y188.0945 Z-1.7815
G01 X129.2329 Y188.0607 Z-1.8019
G01 X129.2219 Y188.0275 Z-1.8222
G01 X129.2090 Y187.9950 Z-1.8426
G01 X129.1942 Y187.9633 Z-1.8630
G01 X129.1776 Y187.9326 Z-1.8833
G01 X129.1593 Y187.9028 Z-1.9037
G01 X129.1392 Y187.8742 Z-1.9241
G01 X129.1175 Y187.8467 Z-1.9444
G01 X129.0943 Y187.8206 Z-1.9648
G01 X129.0696 Y187.7959 Z-1.9852
G01 X129.0434 Y187.7726 Z-2.0056
G01 X129.0160 Y187.7509 Z-2.0259
G01 X128.9874 Y187.7309 Z-2.0463
G01 X128.9576 Y187.7125 Z-2.0667
G01 X128.9268 Y187.6959 Z-2.0870
G01 X128.8951 Y187.6811 Z-2.1074
G01 X128.8626 Y187.6682 Z-2.1278
G01 X128.8294 Y187.6572 Z-2.1481
G01 X128.7957 Y187.6482 Z-2.1685
G01 X128.7614 Y187.6411 Z-2.1889
G01 X128.7268 Y187.6360 Z-2.2093
G01 X128.6920 Y187.6330 Z-2.2296
G01 X128.6570 Y187.6320 Z-2.2500
G01 X128.6221 Y187.6330 Z-2.2704
G01 X128.5872 Y187.6360 Z-2.2907
G01 X128.5526 Y187.6411 Z-2.3111
G01 X128.5184 Y187.6482 Z-2.3315
G01 X128.4846 Y187.6572 Z-2.3519
G01 X128.4514 Y187.6682 Z-2.3722
G01 X128.4189 Y187.6811 Z-2.3926
G01 X128.3872 Y187.6959 Z-2.4130
G01 X128.3564 Y187.7125 Z-2.4333
G01 X128.3267 Y187.7309 Z-2.4537
G01 X128.2980 Y187.7509 Z-2.4741
G01 X128.2706 Y187.7726 Z-2.4944
G01 X128.2445 Y187.7959 Z-2.5148
G01 X128.2197 Y187.8206 Z-2.5352
G01 X128.1965 Y187.8467 Z-2.5556
G01 X128.1748 Y187.8742 Z-2.5759
G01 X128.1548 Y187.9028 Z-2.5963
G01 X128.1364 Y187.9326 Z-2.6167
G01 X128.1198 Y187.9633 Z-2.6370
G01 X128.1050 Y187.9950 Z-2.6574
G01 X128.0921 Y188.0275 Z-2.6778
G01 X128.0811 Y188.0607 Z-2.6981
G01 X128.0721 Y188.0945 Z-2.7185
G01 X128.0650 Y188.1287 Z-2.7389
G01 X128.0599 Y188.1633 Z-2.7593
G01 X128.0569 Y188.1982 Z-2.7796
G01 X128.0559 Y188.2331 Z-2.8000
G01 X128.0569 Y188.2681 Z-2.8204
G01 X128.0599 Y188.3029 Z-2.8407
G01 X128.0650 Y188.3375 Z-2.8611
G01 X128.0721 Y188.3718 Z-2.8815
G01 X128.0811 Y188.4056 Z-2.9019
G01 X128.0921 Y188.4387 Z-2.9222
G01 X128.1050 Y188.4712 Z-2.9426
G01 X128.1198 Y188.5029 Z-2.9630
G01 X128.1364 Y188.5337 Z-2.9833
G01 X128.1548 Y188.5635 Z-3.0037
G01 X128.1748 Y188.5921 Z-3.0241
G01 X128.1965 Y188.6196 Z-3.0444
G01 X128.2197 Y188.6457 Z-3.0648
G01 X128.2445 Y188.6704 Z-3.0852
G01 X128.2706 Y188.6937 Z-3.1056
G01 X128.2980 Y188.7153 Z-3.1259
G01 X128.3267 Y188.7354 Z-3.1463
G01 X128.3564 Y188.7538 Z-3.1667
G01 X128.3872 Y188.7704 Z-3.1870
G01 X128.4189 Y188.7851 Z-3.2074
G01 X128.4514 Y188.7980 Z-3.2278
G01 X128.4846 Y188.8090 Z-3.2481
G01 X128.5184 Y188.8181 Z-3.2685
G01 X128.5526 Y188.8252 Z-3.2889
G01 X128.5872 Y188.8302 Z-3.3093
G01 X128.6221 Y188.8333 Z-3.3296
G01 X128.6570 Y188.8343 Z-3.3500
G01 X128.6920 Y188.8333 Z-3.3704
G01 X128.7268 Y188.8302 Z-3.3907
G01 X128.7614 Y188.8252 Z-3.4111
G01 X128.7957 Y188.8181 Z-3.4315
G01 X128.8294 Y188.8090 Z-3.4519
G01 X128.8626 Y188.7980 Z-3.4722
G01 X128.8951 Y188.7851 Z-3.4926
G01 X128.9268 Y188.7704 Z-3.5130
G01 X128.9576 Y188.7538 Z-3.5333
G01 X128.9874 Y188.7354 Z-3.5537
G01 X129.0160 Y188.7153 Z-3.5741
G01 X129.0434 Y188.6937 Z-3.5944
G01 X129.0696 Y188.6704 Z-3.6148
G01 X129.0943 Y188.6457 Z-3.6352
G01 X129.1175 Y188.6196 Z-3.6556
G01 X129.1392 Y188.5921 Z-3.6759
G01 X129.1593 Y188.5635 Z-3.6963
G01 X129.1776 Y188.5337 Z-3.7167
G01 X129.1942 Y188.5029 Z-3.7370
G01 X129.2090 Y188.4712 Z-3.7574
G01 X129.2219 Y188.4387 Z-3.7778
G01 X129.2329 Y188.4056 Z-3.7981
G01 X129.2420 Y188.3718 Z-3.8185
G01 X129.2490 Y188.3375 Z-3.8389
G01 X129.2541 Y188.3029 Z-3.8593
G01 X129.2572 Y188.2681 Z-3.8796
G01 X129.2582 Y188.2331 Z-3.9000
G01 X129.2572 Y188.1982 Z-3.9204
G01 X129.2541 Y188.1633 Z-3.9407
G01 X129.2490 Y188.1287 Z-3.9611
G01 X129.2420 Y188.0945 Z-3.9815
G01 X129.2329 Y188.0607 Z-4.0019
G01 X129.2219 Y188.0275 Z-4.0222
G01 X129.2090 Y187.9950 Z-4.0426
G01 X129.1942 Y187.9633 Z-4.0630
G01 X129.1776 Y187.9326 Z-4.0833
G01 X129.1593 Y187.9028 Z-4.1037
G01 X129.1392 Y187.8742 Z-4.1241
G01 X129.1175 Y187.8467 Z-4.1444
G01 X129.0943 Y187.8206 Z-4.1648
G01 X129.0696 Y187.7959 Z-4.1852
G01 X129.0434 Y187.7726 Z-4.2056
G01 X129.0160 Y187.7509 Z-4.2259
G01 X128.9874 Y187.7309 Z-4.2463
G01 X128.9576 Y187.7125 Z-4.2667
G01 X128.9268 Y187.6959 Z-4.2870
G01 X128.8951 Y187.6811 Z-4.3074
G01 X128.8626 Y187.6682 Z-4.3278
G01 X128.8294 Y187.6572 Z-4.3481
G01 X128.7957 Y187.6482 Z-4.3685
G01 X128.7614 Y187.6411 Z-4.3889
G01 X128.7268 Y187.6360 Z-4.4093
G01 X128.6920 Y187.6330 Z-4.4296
G01 X128.6570 Y187.6320 Z-4.4500
G01 X128.6221 Y187.6330 Z-4.4704
G01 X128.5872 Y187.6360 Z-4.4907
G01 X128.5526 Y187.6411 Z-4.5111
G01 X128.5184 Y187.6482 Z-4.5315
G01 X128.4846 Y187.6572 Z-4.5519
G01 X128.4514 Y187.6682 Z-4.5722
G01 X128.4189 Y187.6811 Z-4.5926
G01 X128.3872 Y187.6959 Z-4.6130
G01 X128.3564 Y187.7125 Z-4.6333
G01 X128.3267 Y187.7309 Z-4.6537
G01 X128.2980 Y187.7509 Z-4.6741
G01 X128.2706 Y187.7726 Z-4.6944
G01 X128.2445 Y187.7959 Z-4.7148
G01 X128.2197 Y187.8206 Z-4.7352
G01 X128.1965 Y187.8467 Z-4.7556
G01 X128.1748 Y187.8742 Z-4.7759
G01 X128.1548 Y187.9028 Z-4.7963
G01 X128.1364 Y187.9326 Z-4.8167
G01 X128.1198 Y187.9633 Z-4.8370
G01 X128.1050 Y187.9950 Z-4.8574
G01 X128.0921 Y188.0275 Z-4.8778
G01 X128.0811 Y188.0607 Z-4.8981
G01 X128.0721 Y188.0945 Z-4.9185
G01 X128.0650 Y188.1287 Z-4.9389
G01 X128.0599 Y188.1633 Z-4.9593
G01 X128.0569 Y188.1982 Z-4.9796
G01 X128.0559 Y188.2331 Z-5.0000
G01 X128.0569 Y188.2681 Z-5.0204
G01 X128.0599 Y188.3029 Z-5.0407
G01 X128.0650 Y188.3375 Z-5.0611
G01 X128.0721 Y188.3718 Z-5.0815
G01 X128.0811 Y188.4056 Z-5.1019
G01 X128.0921 Y188.4387 Z-5.1222
G01 X128.1050 Y188.4712 Z-5.1426
G01 X128.1198 Y188.5029 Z-5.1630
G01 X128.1364 Y188.5337 Z-5.1833
G01 X128.1548 Y188.5635 Z-5.2037
G01 X128.1748 Y188.5921 Z-5.2241
G01 X128.1965 Y188.6196 Z-5.2444
G01 X128.2197 Y188.6457 Z-5.2648
G01 X128.2445 Y188.6704 Z-5.2852
G01 X128.2706 Y188.6937 Z-5.3056
G01 X128.2980 Y188.7153 Z-5.3259
G01 X128.3267 Y188.7354 Z-5.3463
G01 X128.3564 Y188.7538 Z-5.3667
G01 X128.3872 Y188.7704 Z-5.3870
G01 X128.4189 Y188.7851 Z-5.4074
G01 X128.4514 Y188.7980 Z-5.4278
G01 X128.4846 Y188.8090 Z-5.4481
G01 X128.5184 Y188.8181 Z-5.4685
G01 X128.5526 Y188.8252 Z-5.4889
G01 X128.5872 Y188.8302 Z-5.5093
G01 X128.6221 Y188.8333 Z-5.5296
G01 X128.6570 Y188.8343 Z-5.5500
G01 X128.6920 Y188.8333 Z-5.5704
G01 X128.7268 Y188.8302 Z-5.5907
G01 X128.7614 Y188.8252 Z-5.6111
G01 X128.7957 Y188.8181 Z-5.6315
G01 X128.8294 Y188.8090 Z-5.6519
G01 X128.8626 Y188.7980 Z-5.6722
G01 X128.8951 Y188.7851 Z-5.6926
G01 X128.9268 Y188.7704 Z-5.7130
G01 X128.9576 Y188.7538 Z-5.7333
G01 X128.9874 Y188.7354 Z-5.7537
G01 X129.0160 Y188.7153 Z-5.7741
G01 X129.0434 Y188.6937 Z-5.7944
G01 X129.0696 Y188.6704 Z-5.8148
G01 X129.0943 Y188.6457 Z-5.8352
G01 X129.1175 Y188.6196 Z-5.8556
G01 X129.1392 Y188.5921 Z-5.8759
G01 X129.1593 Y188.5635 Z-5.8963
G01 X129.1776 Y188.5337 Z-5.9167
G01 X129.1942 Y188.5029 Z-5.9370
G01 X129.2090 Y188.4712 Z-5.9574
G01 X129.2219 Y188.4387 Z-5.9778
G01 X129.2329 Y188.4056 Z-5.9981
G01 X129.2420 Y188.3718 Z-6.0185
G01 X129.2490 Y188.3375 Z-6.0389
G01 X129.2541 Y188.3029 Z-6.0593
G01 X129.2572 Y188.2681 Z-6.0796
G01 X129.2582 Y188.2331 Z-6.1000
G01 X129.2572 Y188.1982 Z-6.1176
G01 X129.2541 Y188.1633 Z-6.1352
G01 X129.2490 Y188.1287 Z-6.1528
G01 X129.2420 Y188.0945 Z-6.1704
G01 X129.2329 Y188.0607 Z-6.1880
G01 X129.2219 Y188.0275 Z-6.2056
G01 X129.2090 Y187.9950 Z-6.2231
G01 X129.1942 Y187.9633 Z-6.2407
G01 X129.1776 Y187.9326 Z-6.2583
G01 X129.1593 Y187.9028 Z-6.2759
G01 X129.1392 Y187.8742 Z-6.2935
G01 X129.1175 Y187.8467 Z-6.3111
G01 X129.0943 Y187.8206 Z-6.3287
G01 X129.0696 Y187.7959 Z-6.3463
G01 X129.0434 Y187.7726 Z-6.3639
G01 X129.0160 Y187.7509 Z-6.3815
G01 X128.9874 Y187.7309 Z-6.3991
G01 X128.9576 Y187.7125 Z-6.4167
G01 X128.9268 Y187.6959 Z-6.4343
G01 X128.8951 Y187.6811 Z-6.4519
G01 X128.8626 Y187.6682 Z-6.4694
G01 X128.8294 Y187.6572 Z-6.4870
G01 X128.7957 Y187.6482 Z-6.5046
G01 X128.7614 Y187.6411 Z-6.5222
G01 X128.7268 Y187.6360 Z-6.5398
G01 X128.6920 Y187.6330 Z-6.5574
G01 X128.6570 Y187.6320 Z-6.5750
G01 X128.6221 Y187.6330 Z-6.5926
G01 X128.5872 Y187.6360 Z-6.6102
G01 X128.5526 Y187.6411 Z-6.6278
G01 X128.5184 Y187.6482 Z-6.6454
G01 X128.4846 Y187.6572 Z-6.6630
G01 X128.4514 Y187.6682 Z-6.6806
G01 X128.4189 Y187.6811 Z-6.6981
G01 X128.3872 Y187.6959 Z-6.7157
G01 X128.3564 Y187.7125 Z-6.7333
G01 X128.3267 Y187.7309 Z-6.7509
G01 X128.2980 Y187.7509 Z-6.7685
G01 X128.2706 Y187.7726 Z-6.7861
G01 X128.2445 Y187.7959 Z-6.8037
G01 X128.2197 Y187.8206 Z-6.8213
G01 X128.1965 Y187.8467 Z-6.8389
G01 X128.1748 Y187.8742 Z-6.8565
G01 X128.1548 Y187.9028 Z-6.8741
G01 X128.1364 Y187.9326 Z-6.8917
G01 X128.1198 Y187.9633 Z-6.9093
G01 X128.1050 Y187.9950 Z-6.9269
G01 X128.0921 Y188.0275 Z-6.9444
G01 X128.0811 Y188.0607 Z-6.9620
G01 X128.0721 Y188.0945 Z-6.9796
G01 X128.0650 Y188.1287 Z-6.9972
G01 X128.0599 Y188.1633 Z-7.0148
G01 X128.0569 Y188.1982 Z-7.0324
G01 X128.0559 Y188.2331 Z-7.0500
G01 X128.0569 Y188.2681 Z-7.0676
G01 X128.0599 Y188.3029 Z-7.0852
G01 X128.0650 Y188.3375 Z-7.1028
G01 X128.0721 Y188.3718 Z-7.1204
G01 X128.0811 Y188.4056 Z-7.1380
G01 X128.0921 Y188.4387 Z-7.1556
G01 X128.1050 Y188.4712 Z-7.1731
G01 X128.1198 Y188.5029 Z-7.1907
G01 X128.1364 Y188.5337 Z-7.2083
G01 X128.1548 Y188.5635 Z-7.2259
G01 X128.1748 Y188.5921 Z-7.2435
G01 X128.1965 Y188.6196 Z-7.2611
G01 X128.2197 Y188.6457 Z-7.2787
G01 X128.2445 Y188.6704 Z-7.2963
G01 X128.2706 Y188.6937 Z-7.3139
G01 X128.2980 Y188.7153 Z-7.3315
G01 X128.3267 Y188.7354 Z-7.3491
G01 X128.3564 Y188.7538 Z-7.3667
G01 X128.3872 Y188.7704 Z-7.3843
G01 X128.4189 Y188.7851 Z-7.4019
G01 X128.4514 Y188.7980 Z-7.4194
G01 X128.4846 Y188.8090 Z-7.4370
G01 X128.5184 Y188.8181 Z-7.4546
G01 X128.5526 Y188.8252 Z-7.4722
G01 X128.5872 Y188.8302 Z-7.4898
G01 X128.6221 Y188.8333 Z-7.5074
G01 X128.6570 Y188.8343 Z-7.5250
G01 X128.6920 Y188.8333 Z-7.5426
G01 X128.7268 Y188.8302 Z-7.5602
G01 X128.7614 Y188.8252 Z-7.5778
G01 X128.7957 Y188.8181 Z-7.5954
G01 X128.8294 Y188.8090 Z-7.6130
G01 X128.8626 Y188.7980 Z-7.6306
G01 X128.8951 Y188.7851 Z-7.6481
G01 X128.9268 Y188.7704 Z-7.6657
G01 X128.9576 Y188.7538 Z-7.6833
G01 X128.9874 Y188.7354 Z-7.7009
G01 X129.0160 Y188.7153 Z-7.7185
G01 X129.0434 Y188.6937 Z-7.7361
G01 X129.0696 Y188.6704 Z-7.7537
G01 X129.0943 Y188.6457 Z-7.7713
G01 X129.1175 Y188.6196 Z-7.7889
G01 X129.1392 Y188.5921 Z-7.8065
G01 X129.1593 Y188.5635 Z-7.8241
G01 X129.1776 Y188.5337 Z-7.8417
G01 X129.1942 Y188.5029 Z-7.8593
G01 X129.2090 Y188.4712 Z-7.8769
G01 X129.2219 Y188.4387 Z-7.8944
G01 X129.2329 Y188.4056 Z-7.9120
G01 X129.2420 Y188.3718 Z-7.9296
G01 X129.2490 Y188.3375 Z-7.9472
G01 X129.2541 Y188.3029 Z-7.9648
G01 X129.2572 Y188.2681 Z-7.9824
G01 X129.2582 Y188.2331 Z-8.0000
G01 X129.2572 Y188.1982
G01 X129.2541 Y188.1633
G01 X129.2490 Y188.1287
G01 X129.2420 Y188.0945
G01 X129.2329 Y188.0607
G01 X129.2219 Y188.0275
G01 X129.2090 Y187.9950
G01 X129.1942 Y187.9633
G01 X129.1776 Y187.9326
G01 X129.1593 Y187.9028
G01 X129.1392 Y187.8742
G01 X129.1175 Y187.8467
G01 X129.0943 Y187.8206
G01 X129.0696 Y187.7959
G01 X129.0434 Y187.7726
G01 X129.0160 Y187.7509
G01 X128.9874 Y187.7309
G01 X128.9576 Y187.7125
G01 X128.9268 Y187.6959
G01 X128.8951 Y187.6811
G01 X128.8626 Y187.6682
G01 X128.8294 Y187.6572
G01 X128.7957 Y187.6482
G01 X128.7614 Y187.6411
G01 X128.7268 Y187.6360
G01 X128.6920 Y187.6330
G01 X128.6570 Y187.6320
G01 X128.6221 Y187.6330
G01 X128.5872 Y187.6360
G01 X128.5526 Y187.6411
G01 X128.5184 Y187.6482
G01 X128.4846 Y187.6572
G01 X128.4514 Y187.6682
G01 X128.4189 Y187.6811
G01 X128.3872 Y187.6959
G01 X128.3564 Y187.7125
G01 X128.3267 Y187.7309
G01 X128.2980 Y187.7509
G01 X128.2706 Y187.7726
G01 X128.2445 Y187.7959
G01 X128.2197 Y187.8206
G01 X128.1965 Y187.8467
G01 X128.1748 Y187.8742
G01 X128.1548 Y187.9028
G01 X128.1364 Y187.9326
G01 X128.1198 Y187.9633
G01 X128.1050 Y187.9950
G01 X128.0921 Y188.0275
G01 X128.0811 Y188.0607
G01 X128.0721 Y188.0945
G01 X128.0650 Y188.1287
G01 X128.0599 Y188.1633
G01 X128.0569 Y188.1982
G01 X128.0559 Y188.2331
G01 X128.0569 Y188.2681
G01 X128.0599 Y188.3029
G01 X128.0650 Y188.3375
G01 X128.0721 Y188.3718
G01 X128.0811 Y188.4056
G01 X128.0921 Y188.4387
G01 X128.1050 Y188.4712
G01 X128.1198 Y188.5029
G01 X128.1364 Y188.5337
G01 X128.1548 Y188.5635
G01 X128.1748 Y188.5921
G01 X128.1965 Y188.6196
G01 X128.2197 Y188.6457
G01 X128.2445 Y188.6704
G01 X128.2706 Y188.6937
G01 X128.2980 Y188.7153
G01 X128.3267 Y188.7354
G01 X128.3564 Y188.7538
G01 X128.3872 Y188.7704
G01 X128.4189 Y188.7851
G01 X128.4514 Y188.7980
G01 X128.4846 Y188.8090
G01 X128.5184 Y188.8181
G01 X128.5526 Y188.8252
G01 X128.5872 Y188.8302
G01 X128.6221 Y188.8333
G01 X128.6570 Y188.8343
G01 X128.6920 Y188.8333
G01 X128.7268 Y188.8302
G01 X128.7614 Y188.8252
G01 X128.7957 Y188.8181
G01 X128.8294 Y188.8090
G01 X128.8626 Y188.7980
G01 X128.8951 Y188.7851
G01 X128.9268 Y188.7704
G01 X128.9576 Y188.7538
G01 X128.9874 Y188.7354
G01 X129.0160 Y188.7153
G01 X129.0434 Y188.6937
G01 X129.0696 Y188.6704
G01 X129.0943 Y188.6457
G01 X129.1175 Y188.6196
G01 X129.1392 Y188.5921
G01 X129.1593 Y188.5635
G01 X129.1776 Y188.5337
G01 X129.1942 Y188.5029
G01 X129.2090 Y188.4712
G01 X129.2219 Y188.4387
G01 X129.2329 Y188.4056
G01 X129.2420 Y188.3718
G01 X129.2490 Y188.3375
G01 X129.2541 Y188.3029
G01 X129.2572 Y188.2681
G01 X129.2582 Y188.2331
M107
M106 S240
G01 X129.2572 Y188.2096 Z-7.9875
M107
M106 S240
G01 X129.2545 Y188.1861 Z-7.9750
M107
M106 S240
G01 X129.2499 Y188.1630 Z-7.9625
M107
M106 S240
G01 X129.2435 Y188.1403 Z-7.9500
M107
M106 S240
G01 X129.2353 Y188.1181 Z-7.9375
M107
M106 S240
G01 X129.2254 Y188.0967 Z-7.9250
M107
M106 S240
G01 X129.2139 Y188.0761 Z-7.9125
M107
M106 S240
G01 X129.2008 Y188.0565 Z-7.9000
M107
M106 S240
G01 X129.1862 Y188.0379 Z-7.8875
M107
M106 S240
G01 X129.1701 Y188.0206 Z-7.8750
M107
M106 S240
G01 X129.1528 Y188.0046 Z-7.8625
M107
M106 S240
G01 X129.1343 Y187.9900 Z-7.8500
M107
M106 S240
G01 X129.1146 Y187.9769 Z-7.8375
M107
M106 S240
G01 X129.0941 Y187.9653 Z-7.8250
M107
M106 S240
G01 X129.0726 Y187.9554 Z-7.8125
M107
M106 S240
G01 X129.0505 Y187.9473 Z-7.8000
M107
M106 S240
G01 X129.0278 Y187.9409 Z-7.7875
M107
M106 S240
G01 X129.0046 Y187.9363 Z-7.7750
M107
M106 S240
G01 X128.9812 Y187.9335 Z-7.7625
M107
M106 S240
G01 X128.9576 Y187.9326 Z-7.7500
M107
M106 S240
G01 X128.9340 Y187.9335 Z-7.7375
M107
M106 S240
G01 X128.9106 Y187.9363 Z-7.7250
M107
M106 S240
G01 X128.8874 Y187.9409 Z-7.7125
M107
M106 S240
G01 X128.8647 Y187.9473 Z-7.7000
M107
M106 S240
G01 X128.8426 Y187.9554 Z-7.6875
M107
M106 S240
G01 X128.8211 Y187.9653 Z-7.6750
M107
M106 S240
G01 X128.8005 Y187.9769 Z-7.6625
M107
M106 S240
G01 X128.7809 Y187.9900 Z-7.6500
M107
M106 S240
G01 X128.7624 Y188.0046 Z-7.6375
M107
M106 S240
G01 X128.7451 Y188.0206 Z-7.6250
M107
M106 S240
G01 X128.7290 Y188.0379 Z-7.6125
M107
M106 S240
G01 X128.7144 Y188.0565 Z-7.6000
M107
M106 S240
G01 X128.7013 Y188.0761 Z-7.5875
M107
M106 S240
G01 X128.6898 Y188.0967 Z-7.5750
M107
M106 S240
G01 X128.6799 Y188.1181 Z-7.5625
M107
M106 S240
G01 X128.6717 Y188.1403 Z-7.5500
M107
M106 S240
G01 X128.6653 Y188.1630 Z-7.5375
M107
M106 S240
G01 X128.6607 Y188.1861 Z-7.5250
M107
M106 S240
G01 X128.6579 Y188.2096 Z-7.5125
M107
M106 S240
G01 X128.6570 Y188.2331 Z-7.5000
M107
G00 Z2.0000


;No. 11: Helical drill 3
G00 X168.2536 Y188.2329 Z2.0000
G00 Z0.5000
M106 S240
G01 X168.2526 Y188.1979 Z0.4796 F400
G01 X168.2496 Y188.1631 Z0.4593
G01 X168.2445 Y188.1285 Z0.4389
G01 X168.2374 Y188.0942 Z0.4185
G01 X168.2284 Y188.0604 Z0.3981
G01 X168.2174 Y188.0272 Z0.3778
G01 X168.2045 Y187.9947 Z0.3574
G01 X168.1897 Y187.9630 Z0.3370
G01 X168.1731 Y187.9323 Z0.3167
G01 X168.1547 Y187.9025 Z0.2963
G01 X168.1347 Y187.8738 Z0.2759
G01 X168.1130 Y187.8464 Z0.2556
G01 X168.0897 Y187.8203 Z0.2352
G01 X168.0650 Y187.7955 Z0.2148
G01 X168.0388 Y187.7723 Z0.1944
G01 X168.0114 Y187.7506 Z0.1741
G01 X167.9828 Y187.7305 Z0.1537
G01 X167.9530 Y187.7122 Z0.1333
G01 X167.9222 Y187.6956 Z0.1130
G01 X167.8905 Y187.6808 Z0.0926
G01 X167.8580 Y187.6679 Z0.0722
G01 X167.8248 Y187.6569 Z0.0519
G01 X167.7910 Y187.6478 Z0.0315
G01 X167.7568 Y187.6408 Z0.0111
G01 X167.7222 Y187.6357 Z-0.0093
G01 X167.6873 Y187.6326 Z-0.0296
G01 X167.6524 Y187.6316 Z-0.0500
G01 X167.6174 Y187.6326 Z-0.0704
G01 X167.5826 Y187.6357 Z-0.0907
G01 X167.5480 Y187.6408 Z-0.1111
G01 X167.5137 Y187.6478 Z-0.1315
G01 X167.4799 Y187.6569 Z-0.1519
G01 X167.4467 Y187.6679 Z-0.1722
G01 X167.4142 Y187.6808 Z-0.1926
G01 X167.3825 Y187.6956 Z-0.2130
G01 X167.3517 Y187.7122 Z-0.2333
G01 X167.3220 Y187.7305 Z-0.2537
G01 X167.2933 Y187.7506 Z-0.2741
G01 X167.2659 Y187.7723 Z-0.2944
G01 X167.2397 Y187.7955 Z-0.3148
G01 X167.2150 Y187.8203 Z-0.3352
G01 X167.1918 Y187.8464 Z-0.3556
G01 X167.1701 Y187.8738 Z-0.3759
G01 X167.1500 Y187.9025 Z-0.3963
G01 X167.1316 Y187.9323 Z-0.4167
G01 X167.1150 Y187.9630 Z-0.4370
G01 X167.1003 Y187.9947 Z-0.4574
G01 X167.0874 Y188.0272 Z-0.4778
G01 X167.0764 Y188.0604 Z-0.4981
G01 X167.0673 Y188.0942 Z-0.5185
G01 X167.0602 Y188.1285 Z-0.5389
G01 X167.0552 Y188.1631 Z-0.5593
G01 X167.0521 Y188.1979 Z-0.5796
G01 X167.0511 Y188.2329 Z-0.6000
G01 X167.0521 Y188.2679 Z-0.6204
G01 X167.0552 Y188.3027 Z-0.6407
G01 X167.0602 Y188.3373 Z-0.6611
G01 X167.0673 Y188.3716 Z-0.6815
G01 X167.0764 Y188.4053 Z-0.7019
G01 X167.0874 Y188.4385 Z-0.7222
G01 X167.1003 Y188.4710 Z-0.7426
G01 X167.1150 Y188.5027 Z-0.7630
G01 X167.1316 Y188.5335 Z-0.7833
G01 X167.1500 Y188.5633 Z-0.8037
G01 X167.1701 Y188.5919 Z-0.8241
G01 X167.1918 Y188.6194 Z-0.8444
G01 X167.2150 Y188.6455 Z-0.8648
G01 X167.2397 Y188.6702 Z-0.8852
G01 X167.2659 Y188.6935 Z-0.9056
G01 X167.2933 Y188.7152 Z-0.9259
G01 X167.3220 Y188.7352 Z-0.9463
G01 X167.3517 Y188.7536 Z-0.9667
G01 X167.3825 Y188.7702 Z-0.9870
G01 X167.4142 Y188.7850 Z-1.0074
G01 X167.4467 Y188.7979 Z-1.0278
G01 X167.4799 Y188.8089 Z-1.0481
G01 X167.5137 Y188.8180 Z-1.0685
G01 X167.5480 Y188.8250 Z-1.0889
G01 X167.5826 Y188.8301 Z-1.1093
G01 X167.6174 Y188.8331 Z-1.1296
G01 X167.6524 Y188.8342 Z-1.1500
G01 X167.6873 Y188.8331 Z-1.1704
G01 X167.7222 Y188.8301 Z-1.1907
G01 X167.7568 Y188.8250 Z-1.2111
G01 X167.7910 Y188.8180 Z-1.2315
G01 X167.8248 Y188.8089 Z-1.2519
G01 X167.8580 Y188.7979 Z-1.2722
G01 X167.8905 Y188.7850 Z-1.2926
G01 X167.9222 Y188.7702 Z-1.3130
G01 X167.9530 Y188.7536 Z-1.3333
G01 X167.9828 Y188.7352 Z-1.3537
G01 X168.0114 Y188.7152 Z-1.3741
G01 X168.0388 Y188.6935 Z-1.3944
G01 X168.0650 Y188.6702 Z-1.4148
G01 X168.0897 Y188.6455 Z-1.4352
G01 X168.1130 Y188.6194 Z-1.4556
G01 X168.1347 Y188.5919 Z-1.4759
G01 X168.1547 Y188.5633 Z-1.4963
G01 X168.1731 Y188.5335 Z-1.5167
G01 X168.1897 Y188.5027 Z-1.5370
G01 X168.2045 Y188.4710 Z-1.5574
G01 X168.2174 Y188.4385 Z-1.5778
G01 X168.2284 Y188.4053 Z-1.5981
G01 X168.2374 Y188.3716 Z-1.6185
G01 X168.2445 Y188.3373 Z-1.6389
G01 X168.2496 Y188.3027 Z-1.6593
G01 X168.2526 Y188.2679 Z-1.6796
G01 X168.2536 Y188.2329 Z-1.7000
G01 X168.2526 Y188.1979 Z-1.7204
G01 X168.2496 Y188.1631 Z-1.7407
G01 X168.2445 Y188.1285 Z-1.7611
G01 X168.2374 Y188.0942 Z-1.7815
G01 X168.2284 Y188.0604 Z-1.8019
G01 X168.2174 Y188.0272 Z-1.8222
G01 X168.2045 Y187.9947 Z-1.8426
G01 X168.1897 Y187.9630 Z-1.8630
G01 X168.1731 Y187.9323 Z-1.8833
G01 X168.1547 Y187.9025 Z-1.9037
G01 X168.1347 Y187.8738 Z-1.9241
G01 X168.1130 Y187.8464 Z-1.9444
G01 X168.0897 Y187.8203 Z-1.9648
G01 X168.0650 Y187.7955 Z-1.9852
G01 X168.0388 Y187.7723 Z-2.0056
G01 X168.0114 Y187.7506 Z-2.0259
G01 X167.9828 Y187.7305 Z-2.0463
G01 X167.9530 Y187.7122 Z-2.0667
G01 X167.9222 Y187.6956 Z-2.0870
G01 X167.8905 Y187.6808 Z-2.1074
G01 X167.8580 Y187.6679 Z-2.1278
G01 X167.8248 Y187.6569 Z-2.1481
G01 X167.7910 Y187.6478 Z-2.1685
G01 X167.7568 Y187.6408 Z-2.1889
G01 X167.7222 Y187.6357 Z-2.2093
G01 X167.6873 Y187.6326 Z-2.2296
G01 X167.6524 Y187.6316 Z-2.2500
G01 X167.6174 Y187.6326 Z-2.2704
G01 X167.5826 Y187.6357 Z-2.2907
G01 X167.5480 Y187.6408 Z-2.3111
G01 X167.5137 Y187.6478 Z-2.3315
G01 X167.4799 Y187.6569 Z-2.3519
G01 X167.4467 Y187.6679 Z-2.3722
G01 X167.4142 Y187.6808 Z-2.3926
G01 X167.3825 Y187.6956 Z-2.4130
G01 X167.3517 Y187.7122 Z-2.4333
G01 X167.3220 Y187.7305 Z-2.4537
G01 X167.2933 Y187.7506 Z-2.4741
G01 X167.2659 Y187.7723 Z-2.4944
G01 X167.2397 Y187.7955 Z-2.5148
G01 X167.2150 Y187.8203 Z-2.5352
G01 X167.1918 Y187.8464 Z-2.5556
G01 X167.1701 Y187.8738 Z-2.5759
G01 X167.1500 Y187.9025 Z-2.5963
G01 X167.1316 Y187.9323 Z-2.6167
G01 X167.1150 Y187.9630 Z-2.6370
G01 X167.1003 Y187.9947 Z-2.6574
G01 X167.0874 Y188.0272 Z-2.6778
G01 X167.0764 Y188.0604 Z-2.6981
G01 X167.0673 Y188.0942 Z-2.7185
G01 X167.0602 Y188.1285 Z-2.7389
G01 X167.0552 Y188.1631 Z-2.7593
G01 X167.0521 Y188.1979 Z-2.7796
G01 X167.0511 Y188.2329 Z-2.8000
G01 X167.0521 Y188.2679 Z-2.8204
G01 X167.0552 Y188.3027 Z-2.8407
G01 X167.0602 Y188.3373 Z-2.8611
G01 X167.0673 Y188.3716 Z-2.8815
G01 X167.0764 Y188.4053 Z-2.9019
G01 X167.0874 Y188.4385 Z-2.9222
G01 X167.1003 Y188.4710 Z-2.9426
G01 X167.1150 Y188.5027 Z-2.9630
G01 X167.1316 Y188.5335 Z-2.9833
G01 X167.1500 Y188.5633 Z-3.0037
G01 X167.1701 Y188.5919 Z-3.0241
G01 X167.1918 Y188.6194 Z-3.0444
G01 X167.2150 Y188.6455 Z-3.0648
G01 X167.2397 Y188.6702 Z-3.0852
G01 X167.2659 Y188.6935 Z-3.1056
G01 X167.2933 Y188.7152 Z-3.1259
G01 X167.3220 Y188.7352 Z-3.1463
G01 X167.3517 Y188.7536 Z-3.1667
G01 X167.3825 Y188.7702 Z-3.1870
G01 X167.4142 Y188.7850 Z-3.2074
G01 X167.4467 Y188.7979 Z-3.2278
G01 X167.4799 Y188.8089 Z-3.2481
G01 X167.5137 Y188.8180 Z-3.2685
G01 X167.5480 Y188.8250 Z-3.2889
G01 X167.5826 Y188.8301 Z-3.3093
G01 X167.6174 Y188.8331 Z-3.3296
G01 X167.6524 Y188.8342 Z-3.3500
G01 X167.6873 Y188.8331 Z-3.3704
G01 X167.7222 Y188.8301 Z-3.3907
G01 X167.7568 Y188.8250 Z-3.4111
G01 X167.7910 Y188.8180 Z-3.4315
G01 X167.8248 Y188.8089 Z-3.4519
G01 X167.8580 Y188.7979 Z-3.4722
G01 X167.8905 Y188.7850 Z-3.4926
G01 X167.9222 Y188.7702 Z-3.5130
G01 X167.9530 Y188.7536 Z-3.5333
G01 X167.9828 Y188.7352 Z-3.5537
G01 X168.0114 Y188.7152 Z-3.5741
G01 X168.0388 Y188.6935 Z-3.5944
G01 X168.0650 Y188.6702 Z-3.6148
G01 X168.0897 Y188.6455 Z-3.6352
G01 X168.1130 Y188.6194 Z-3.6556
G01 X168.1347 Y188.5919 Z-3.6759
G01 X168.1547 Y188.5633 Z-3.6963
G01 X168.1731 Y188.5335 Z-3.7167
G01 X168.1897 Y188.5027 Z-3.7370
G01 X168.2045 Y188.4710 Z-3.7574
G01 X168.2174 Y188.4385 Z-3.7778
G01 X168.2284 Y188.4053 Z-3.7981
G01 X168.2374 Y188.3716 Z-3.8185
G01 X168.2445 Y188.3373 Z-3.8389
G01 X168.2496 Y188.3027 Z-3.8593
G01 X168.2526 Y188.2679 Z-3.8796
G01 X168.2536 Y188.2329 Z-3.9000
G01 X168.2526 Y188.1979 Z-3.9204
G01 X168.2496 Y188.1631 Z-3.9407
G01 X168.2445 Y188.1285 Z-3.9611
G01 X168.2374 Y188.0942 Z-3.9815
G01 X168.2284 Y188.0604 Z-4.0019
G01 X168.2174 Y188.0272 Z-4.0222
G01 X168.2045 Y187.9947 Z-4.0426
G01 X168.1897 Y187.9630 Z-4.0630
G01 X168.1731 Y187.9323 Z-4.0833
G01 X168.1547 Y187.9025 Z-4.1037
G01 X168.1347 Y187.8738 Z-4.1241
G01 X168.1130 Y187.8464 Z-4.1444
G01 X168.0897 Y187.8203 Z-4.1648
G01 X168.0650 Y187.7955 Z-4.1852
G01 X168.0388 Y187.7723 Z-4.2056
G01 X168.0114 Y187.7506 Z-4.2259
G01 X167.9828 Y187.7305 Z-4.2463
G01 X167.9530 Y187.7122 Z-4.2667
G01 X167.9222 Y187.6956 Z-4.2870
G01 X167.8905 Y187.6808 Z-4.3074
G01 X167.8580 Y187.6679 Z-4.3278
G01 X167.8248 Y187.6569 Z-4.3481
G01 X167.7910 Y187.6478 Z-4.3685
G01 X167.7568 Y187.6408 Z-4.3889
G01 X167.7222 Y187.6357 Z-4.4093
G01 X167.6873 Y187.6326 Z-4.4296
G01 X167.6524 Y187.6316 Z-4.4500
G01 X167.6174 Y187.6326 Z-4.4704
G01 X167.5826 Y187.6357 Z-4.4907
G01 X167.5480 Y187.6408 Z-4.5111
G01 X167.5137 Y187.6478 Z-4.5315
G01 X167.4799 Y187.6569 Z-4.5519
G01 X167.4467 Y187.6679 Z-4.5722
G01 X167.4142 Y187.6808 Z-4.5926
G01 X167.3825 Y187.6956 Z-4.6130
G01 X167.3517 Y187.7122 Z-4.6333
G01 X167.3220 Y187.7305 Z-4.6537
G01 X167.2933 Y187.7506 Z-4.6741
G01 X167.2659 Y187.7723 Z-4.6944
G01 X167.2397 Y187.7955 Z-4.7148
G01 X167.2150 Y187.8203 Z-4.7352
G01 X167.1918 Y187.8464 Z-4.7556
G01 X167.1701 Y187.8738 Z-4.7759
G01 X167.1500 Y187.9025 Z-4.7963
G01 X167.1316 Y187.9323 Z-4.8167
G01 X167.1150 Y187.9630 Z-4.8370
G01 X167.1003 Y187.9947 Z-4.8574
G01 X167.0874 Y188.0272 Z-4.8778
G01 X167.0764 Y188.0604 Z-4.8981
G01 X167.0673 Y188.0942 Z-4.9185
G01 X167.0602 Y188.1285 Z-4.9389
G01 X167.0552 Y188.1631 Z-4.9593
G01 X167.0521 Y188.1979 Z-4.9796
G01 X167.0511 Y188.2329 Z-5.0000
G01 X167.0521 Y188.2679 Z-5.0204
G01 X167.0552 Y188.3027 Z-5.0407
G01 X167.0602 Y188.3373 Z-5.0611
G01 X167.0673 Y188.3716 Z-5.0815
G01 X167.0764 Y188.4053 Z-5.1019
G01 X167.0874 Y188.4385 Z-5.1222
G01 X167.1003 Y188.4710 Z-5.1426
G01 X167.1150 Y188.5027 Z-5.1630
G01 X167.1316 Y188.5335 Z-5.1833
G01 X167.1500 Y188.5633 Z-5.2037
G01 X167.1701 Y188.5919 Z-5.2241
G01 X167.1918 Y188.6194 Z-5.2444
G01 X167.2150 Y188.6455 Z-5.2648
G01 X167.2397 Y188.6702 Z-5.2852
G01 X167.2659 Y188.6935 Z-5.3056
G01 X167.2933 Y188.7152 Z-5.3259
G01 X167.3220 Y188.7352 Z-5.3463
G01 X167.3517 Y188.7536 Z-5.3667
G01 X167.3825 Y188.7702 Z-5.3870
G01 X167.4142 Y188.7850 Z-5.4074
G01 X167.4467 Y188.7979 Z-5.4278
G01 X167.4799 Y188.8089 Z-5.4481
G01 X167.5137 Y188.8180 Z-5.4685
G01 X167.5480 Y188.8250 Z-5.4889
G01 X167.5826 Y188.8301 Z-5.5093
G01 X167.6174 Y188.8331 Z-5.5296
G01 X167.6524 Y188.8342 Z-5.5500
G01 X167.6873 Y188.8331 Z-5.5704
G01 X167.7222 Y188.8301 Z-5.5907
G01 X167.7568 Y188.8250 Z-5.6111
G01 X167.7910 Y188.8180 Z-5.6315
G01 X167.8248 Y188.8089 Z-5.6519
G01 X167.8580 Y188.7979 Z-5.6722
G01 X167.8905 Y188.7850 Z-5.6926
G01 X167.9222 Y188.7702 Z-5.7130
G01 X167.9530 Y188.7536 Z-5.7333
G01 X167.9828 Y188.7352 Z-5.7537
G01 X168.0114 Y188.7152 Z-5.7741
G01 X168.0388 Y188.6935 Z-5.7944
G01 X168.0650 Y188.6702 Z-5.8148
G01 X168.0897 Y188.6455 Z-5.8352
G01 X168.1130 Y188.6194 Z-5.8556
G01 X168.1347 Y188.5919 Z-5.8759
G01 X168.1547 Y188.5633 Z-5.8963
G01 X168.1731 Y188.5335 Z-5.9167
G01 X168.1897 Y188.5027 Z-5.9370
G01 X168.2045 Y188.4710 Z-5.9574
G01 X168.2174 Y188.4385 Z-5.9778
G01 X168.2284 Y188.4053 Z-5.9981
G01 X168.2374 Y188.3716 Z-6.0185
G01 X168.2445 Y188.3373 Z-6.0389
G01 X168.2496 Y188.3027 Z-6.0593
G01 X168.2526 Y188.2679 Z-6.0796
G01 X168.2536 Y188.2329 Z-6.1000
G01 X168.2526 Y188.1979 Z-6.1176
G01 X168.2496 Y188.1631 Z-6.1352
G01 X168.2445 Y188.1285 Z-6.1528
G01 X168.2374 Y188.0942 Z-6.1704
G01 X168.2284 Y188.0604 Z-6.1880
G01 X168.2174 Y188.0272 Z-6.2056
G01 X168.2045 Y187.9947 Z-6.2231
G01 X168.1897 Y187.9630 Z-6.2407
G01 X168.1731 Y187.9323 Z-6.2583
G01 X168.1547 Y187.9025 Z-6.2759
G01 X168.1347 Y187.8738 Z-6.2935
G01 X168.1130 Y187.8464 Z-6.3111
G01 X168.0897 Y187.8203 Z-6.3287
G01 X168.0650 Y187.7955 Z-6.3463
G01 X168.0388 Y187.7723 Z-6.3639
G01 X168.0114 Y187.7506 Z-6.3815
G01 X167.9828 Y187.7305 Z-6.3991
G01 X167.9530 Y187.7122 Z-6.4167
G01 X167.9222 Y187.6956 Z-6.4343
G01 X167.8905 Y187.6808 Z-6.4519
G01 X167.8580 Y187.6679 Z-6.4694
G01 X167.8248 Y187.6569 Z-6.4870
G01 X167.7910 Y187.6478 Z-6.5046
G01 X167.7568 Y187.6408 Z-6.5222
G01 X167.7222 Y187.6357 Z-6.5398
G01 X167.6873 Y187.6326 Z-6.5574
G01 X167.6524 Y187.6316 Z-6.5750
G01 X167.6174 Y187.6326 Z-6.5926
G01 X167.5826 Y187.6357 Z-6.6102
G01 X167.5480 Y187.6408 Z-6.6278
G01 X167.5137 Y187.6478 Z-6.6454
G01 X167.4799 Y187.6569 Z-6.6630
G01 X167.4467 Y187.6679 Z-6.6806
G01 X167.4142 Y187.6808 Z-6.6981
G01 X167.3825 Y187.6956 Z-6.7157
G01 X167.3517 Y187.7122 Z-6.7333
G01 X167.3220 Y187.7305 Z-6.7509
G01 X167.2933 Y187.7506 Z-6.7685
G01 X167.2659 Y187.7723 Z-6.7861
G01 X167.2397 Y187.7955 Z-6.8037
G01 X167.2150 Y187.8203 Z-6.8213
G01 X167.1918 Y187.8464 Z-6.8389
G01 X167.1701 Y187.8738 Z-6.8565
G01 X167.1500 Y187.9025 Z-6.8741
G01 X167.1316 Y187.9323 Z-6.8917
G01 X167.1150 Y187.9630 Z-6.9093
G01 X167.1003 Y187.9947 Z-6.9269
G01 X167.0874 Y188.0272 Z-6.9444
G01 X167.0764 Y188.0604 Z-6.9620
G01 X167.0673 Y188.0942 Z-6.9796
G01 X167.0602 Y188.1285 Z-6.9972
G01 X167.0552 Y188.1631 Z-7.0148
G01 X167.0521 Y188.1979 Z-7.0324
G01 X167.0511 Y188.2329 Z-7.0500
G01 X167.0521 Y188.2679 Z-7.0676
G01 X167.0552 Y188.3027 Z-7.0852
G01 X167.0602 Y188.3373 Z-7.1028
G01 X167.0673 Y188.3716 Z-7.1204
G01 X167.0764 Y188.4053 Z-7.1380
G01 X167.0874 Y188.4385 Z-7.1556
G01 X167.1003 Y188.4710 Z-7.1731
G01 X167.1150 Y188.5027 Z-7.1907
G01 X167.1316 Y188.5335 Z-7.2083
G01 X167.1500 Y188.5633 Z-7.2259
G01 X167.1701 Y188.5919 Z-7.2435
G01 X167.1918 Y188.6194 Z-7.2611
G01 X167.2150 Y188.6455 Z-7.2787
G01 X167.2397 Y188.6702 Z-7.2963
G01 X167.2659 Y188.6935 Z-7.3139
G01 X167.2933 Y188.7152 Z-7.3315
G01 X167.3220 Y188.7352 Z-7.3491
G01 X167.3517 Y188.7536 Z-7.3667
G01 X167.3825 Y188.7702 Z-7.3843
G01 X167.4142 Y188.7850 Z-7.4019
G01 X167.4467 Y188.7979 Z-7.4194
G01 X167.4799 Y188.8089 Z-7.4370
G01 X167.5137 Y188.8180 Z-7.4546
G01 X167.5480 Y188.8250 Z-7.4722
G01 X167.5826 Y188.8301 Z-7.4898
G01 X167.6174 Y188.8331 Z-7.5074
G01 X167.6524 Y188.8342 Z-7.5250
G01 X167.6873 Y188.8331 Z-7.5426
G01 X167.7222 Y188.8301 Z-7.5602
G01 X167.7568 Y188.8250 Z-7.5778
G01 X167.7910 Y188.8180 Z-7.5954
G01 X167.8248 Y188.8089 Z-7.6130
G01 X167.8580 Y188.7979 Z-7.6306
G01 X167.8905 Y188.7850 Z-7.6481
G01 X167.9222 Y188.7702 Z-7.6657
G01 X167.9530 Y188.7536 Z-7.6833
G01 X167.9828 Y188.7352 Z-7.7009
G01 X168.0114 Y188.7152 Z-7.7185
G01 X168.0388 Y188.6935 Z-7.7361
G01 X168.0650 Y188.6702 Z-7.7537
G01 X168.0897 Y188.6455 Z-7.7713
G01 X168.1130 Y188.6194 Z-7.7889
G01 X168.1347 Y188.5919 Z-7.8065
G01 X168.1547 Y188.5633 Z-7.8241
G01 X168.1731 Y188.5335 Z-7.8417
G01 X168.1897 Y188.5027 Z-7.8593
G01 X168.2045 Y188.4710 Z-7.8769
G01 X168.2174 Y188.4385 Z-7.8944
G01 X168.2284 Y188.4053 Z-7.9120
G01 X168.2374 Y188.3716 Z-7.9296
G01 X168.2445 Y188.3373 Z-7.9472
G01 X168.2496 Y188.3027 Z-7.9648
G01 X168.2526 Y188.2679 Z-7.9824
G01 X168.2536 Y188.2329 Z-8.0000
G01 X168.2526 Y188.1979
G01 X168.2496 Y188.1631
G01 X168.2445 Y188.1285
G01 X168.2374 Y188.0942
G01 X168.2284 Y188.0604
G01 X168.2174 Y188.0272
G01 X168.2045 Y187.9947
G01 X168.1897 Y187.9630
G01 X168.1731 Y187.9323
G01 X168.1547 Y187.9025
G01 X168.1347 Y187.8738
G01 X168.1130 Y187.8464
G01 X168.0897 Y187.8203
G01 X168.0650 Y187.7955
G01 X168.0388 Y187.7723
G01 X168.0114 Y187.7506
G01 X167.9828 Y187.7305
G01 X167.9530 Y187.7122
G01 X167.9222 Y187.6956
G01 X167.8905 Y187.6808
G01 X167.8580 Y187.6679
G01 X167.8248 Y187.6569
G01 X167.7910 Y187.6478
G01 X167.7568 Y187.6408
G01 X167.7222 Y187.6357
G01 X167.6873 Y187.6326
G01 X167.6524 Y187.6316
G01 X167.6174 Y187.6326
G01 X167.5826 Y187.6357
G01 X167.5480 Y187.6408
G01 X167.5137 Y187.6478
G01 X167.4799 Y187.6569
G01 X167.4467 Y187.6679
G01 X167.4142 Y187.6808
G01 X167.3825 Y187.6956
G01 X167.3517 Y187.7122
G01 X167.3220 Y187.7305
G01 X167.2933 Y187.7506
G01 X167.2659 Y187.7723
G01 X167.2397 Y187.7955
G01 X167.2150 Y187.8203
G01 X167.1918 Y187.8464
G01 X167.1701 Y187.8738
G01 X167.1500 Y187.9025
G01 X167.1316 Y187.9323
G01 X167.1150 Y187.9630
G01 X167.1003 Y187.9947
G01 X167.0874 Y188.0272
G01 X167.0764 Y188.0604
G01 X167.0673 Y188.0942
G01 X167.0602 Y188.1285
G01 X167.0552 Y188.1631
G01 X167.0521 Y188.1979
G01 X167.0511 Y188.2329
G01 X167.0521 Y188.2679
G01 X167.0552 Y188.3027
G01 X167.0602 Y188.3373
G01 X167.0673 Y188.3716
G01 X167.0764 Y188.4053
G01 X167.0874 Y188.4385
G01 X167.1003 Y188.4710
G01 X167.1150 Y188.5027
G01 X167.1316 Y188.5335
G01 X167.1500 Y188.5633
G01 X167.1701 Y188.5919
G01 X167.1918 Y188.6194
G01 X167.2150 Y188.6455
G01 X167.2397 Y188.6702
G01 X167.2659 Y188.6935
G01 X167.2933 Y188.7152
G01 X167.3220 Y188.7352
G01 X167.3517 Y188.7536
G01 X167.3825 Y188.7702
G01 X167.4142 Y188.7850
G01 X167.4467 Y188.7979
G01 X167.4799 Y188.8089
G01 X167.5137 Y188.8180
G01 X167.5480 Y188.8250
G01 X167.5826 Y188.8301
G01 X167.6174 Y188.8331
G01 X167.6524 Y188.8342
G01 X167.6873 Y188.8331
G01 X167.7222 Y188.8301
G01 X167.7568 Y188.8250
G01 X167.7910 Y188.8180
G01 X167.8248 Y188.8089
G01 X167.8580 Y188.7979
G01 X167.8905 Y188.7850
G01 X167.9222 Y188.7702
G01 X167.9530 Y188.7536
G01 X167.9828 Y188.7352
G01 X168.0114 Y188.7152
G01 X168.0388 Y188.6935
G01 X168.0650 Y188.6702
G01 X168.0897 Y188.6455
G01 X168.1130 Y188.6194
G01 X168.1347 Y188.5919
G01 X168.1547 Y188.5633
G01 X168.1731 Y188.5335
G01 X168.1897 Y188.5027
G01 X168.2045 Y188.4710
G01 X168.2174 Y188.4385
G01 X168.2284 Y188.4053
G01 X168.2374 Y188.3716
G01 X168.2445 Y188.3373
G01 X168.2496 Y188.3027
G01 X168.2526 Y188.2679
G01 X168.2536 Y188.2329
M107
M106 S240
G01 X168.2527 Y188.2093 Z-7.9875
M107
M106 S240
G01 X168.2499 Y188.1859 Z-7.9750
M107
M106 S240
G01 X168.2453 Y188.1627 Z-7.9625
M107
M106 S240
G01 X168.2389 Y188.1400 Z-7.9500
M107
M106 S240
G01 X168.2307 Y188.1178 Z-7.9375
M107
M106 S240
G01 X168.2209 Y188.0964 Z-7.9250
M107
M106 S240
G01 X168.2093 Y188.0758 Z-7.9125
M107
M106 S240
G01 X168.1962 Y188.0562 Z-7.9000
M107
M106 S240
G01 X168.1816 Y188.0376 Z-7.8875
M107
M106 S240
G01 X168.1656 Y188.0203 Z-7.8750
M107
M106 S240
G01 X168.1482 Y188.0043 Z-7.8625
M107
M106 S240
G01 X168.1297 Y187.9897 Z-7.8500
M107
M106 S240
G01 X168.1101 Y187.9766 Z-7.8375
M107
M106 S240
G01 X168.0895 Y187.9650 Z-7.8250
M107
M106 S240
G01 X168.0680 Y187.9551 Z-7.8125
M107
M106 S240
G01 X168.0459 Y187.9470 Z-7.8000
M107
M106 S240
G01 X168.0232 Y187.9406 Z-7.7875
M107
M106 S240
G01 X168.0000 Y187.9360 Z-7.7750
M107
M106 S240
G01 X167.9766 Y187.9332 Z-7.7625
M107
M106 S240
G01 X167.9530 Y187.9323 Z-7.7500
M107
M106 S240
G01 X167.9294 Y187.9332 Z-7.7375
M107
M106 S240
G01 X167.9060 Y187.9360 Z-7.7250
M107
M106 S240
G01 X167.8828 Y187.9406 Z-7.7125
M107
M106 S240
G01 X167.8601 Y187.9470 Z-7.7000
M107
M106 S240
G01 X167.8379 Y187.9551 Z-7.6875
M107
M106 S240
G01 X167.8165 Y187.9650 Z-7.6750
M107
M106 S240
G01 X167.7959 Y187.9766 Z-7.6625
M107
M106 S240
G01 X167.7763 Y187.9897 Z-7.6500
M107
M106 S240
G01 X167.7577 Y188.0043 Z-7.6375
M107
M106 S240
G01 X167.7404 Y188.0203 Z-7.6250
M107
M106 S240
G01 X167.7244 Y188.0376 Z-7.6125
M107
M106 S240
G01 X167.7098 Y188.0562 Z-7.6000
M107
M106 S240
G01 X167.6967 Y188.0758 Z-7.5875
M107
M106 S240
G01 X167.6851 Y188.0964 Z-7.5750
M107
M106 S240
G01 X167.6752 Y188.1178 Z-7.5625
M107
M106 S240
G01 X167.6671 Y188.1400 Z-7.5500
M107
M106 S240
G01 X167.6607 Y188.1627 Z-7.5375
M107
M106 S240
G01 X167.6561 Y188.1859 Z-7.5250
M107
M106 S240
G01 X167.6533 Y188.2093 Z-7.5125
M107
M106 S240
G01 X167.6524 Y188.2329 Z-7.5000
M107
G00 Z2.0000


;No. 12: Hole 45
G00 X171.6716 Y165.9138 Z2.0000
G00 Z0.5000
G01 Z-2.2000 F400
M106 S240
G01 X170.9097 Y165.9208 F1000
G01 X170.8345 Y177.5632
G01 X170.8255 Y177.6659
G01 X170.8069 Y177.7673
G01 X170.7789 Y177.8665
G01 X170.7418 Y177.9627
G01 X170.6958 Y178.0549
G01 X170.6414 Y178.1425
G01 X170.5790 Y178.2245
G01 X170.5092 Y178.3004
G01 X170.4326 Y178.3694
G01 X170.3499 Y178.4310
G01 X170.2618 Y178.4845
G01 X170.1691 Y178.5295
G01 X170.0726 Y178.5657
G01 X169.9731 Y178.5927
G01 X169.8715 Y178.6102
G01 X169.7687 Y178.6182
G01 X164.9578 Y178.7660
G01 X164.5186 Y179.0822
G01 X164.3624 Y179.1957
G01 X164.2120 Y179.3168
G01 X164.0679 Y179.4453
G01 X163.9302 Y179.5807
G01 X167.6232 Y179.6175
G01 X171.3163 Y179.6263
G01 X175.0093 Y179.6071
G01 X178.7022 Y179.5601
G01 X178.6117 Y179.4722
G01 X178.2717 Y179.1585
G01 X178.1391 Y179.0425
G01 X178.0869 Y178.9980
G01 X178.0319 Y178.9571
G01 X177.9743 Y178.9200
G01 X177.9144 Y178.8867
G01 X177.8523 Y178.8575
G01 X177.7885 Y178.8324
G01 X177.7232 Y178.8117
G01 X177.6566 Y178.7953
G01 X177.5891 Y178.7833
G01 X177.5209 Y178.7759
G01 X177.4524 Y178.7730
G01 X177.3839 Y178.7746
G01 X176.2067 Y178.7181
G01 X175.0292 Y178.6708
G01 X173.8513 Y178.6327
G01 X172.6731 Y178.6039
G01 X172.5790 Y178.5840
G01 X172.4869 Y178.5560
G01 X172.3977 Y178.5200
G01 X172.3119 Y178.4764
G01 X172.2303 Y178.4255
G01 X172.1535 Y178.3676
G01 X172.0820 Y178.3032
G01 X172.0164 Y178.2328
G01 X171.9572 Y178.1569
G01 X171.9048 Y178.0762
G01 X171.8597 Y177.9912
G01 X171.8223 Y177.9026
G01 X171.7927 Y177.8110
G01 X171.7712 Y177.7172
G01 X171.7580 Y177.6219
G01 X171.7532 Y177.5258
G01 X171.7122 Y171.1533
G01 X171.6716 Y165.9138
M107
G00 Z2.0000


;No. 13: Hole 46
G00 X189.7516 Y179.4140 Z2.0000
G00 Z0.5000
G01 Z-2.2000 F400
M106 S240
G01 X189.7427 Y179.4242 F1000
G01 X190.3138 Y179.4334
G01 X190.8850 Y179.4406
G01 X191.4562 Y179.4460
G01 X192.0273 Y179.4494
G01 X193.5238 Y179.4555
G01 X196.1890 Y179.4584
G01 X202.6782 Y179.4486
G01 X202.4424 Y179.2391
G01 X202.1950 Y179.0434
G01 X201.9367 Y178.8624
G01 X201.6685 Y178.6965
G01 X190.7540 Y178.6990
G01 X190.2280 Y179.0529
G01 X190.1053 Y179.1383
G01 X189.9849 Y179.2270
G01 X189.8670 Y179.3189
G01 X189.7516 Y179.4140
M107
G00 Z2.0000


;No. 14: Hole 47
G00 X189.5222 Y173.4592 Z2.0000
G00 Z0.5000
G01 Z-2.2000 F400
M106 S240
G01 X189.4800 Y173.5055 F1000
G01 X189.5182 Y173.5068
G01 X192.8370 Y173.5308
G01 X196.1559 Y173.5359
G01 X199.4748 Y173.5221
G01 X202.7935 Y173.4892
G01 X202.7879 Y173.4789
G01 X202.7800 Y173.4696
G01 X202.5094 Y173.1742
G01 X202.2118 Y172.9062
G01 X201.8898 Y172.6678
G01 X201.5466 Y172.4614
G01 X195.5472 Y172.4686
G01 X194.8260 Y172.4696
G01 X194.1047 Y172.4732
G01 X193.3835 Y172.4792
G01 X192.6623 Y172.4878
G01 X192.1823 Y172.4863
G01 X191.7025 Y172.5018
G01 X191.2236 Y172.5344
G01 X190.7462 Y172.5840
G01 X190.7271 Y172.5860
G01 X190.7082 Y172.5893
G01 X190.6896 Y172.5939
G01 X190.6713 Y172.5997
G01 X190.6534 Y172.6066
G01 X190.6361 Y172.6148
G01 X190.6193 Y172.6241
G01 X190.6032 Y172.6345
G01 X190.3089 Y172.8074
G01 X190.0295 Y173.0033
G01 X189.7667 Y173.2211
G01 X189.5222 Y173.4592
M107
G00 Z2.0000


;No. 15: Hole 48
G00 X189.6333 Y166.9437 Z2.0000
G00 Z0.5000
G01 Z-2.2000 F400
M106 S240
G01 X192.9015 Y166.9759 F1000
G01 X196.1699 Y166.9880
G01 X199.4382 Y166.9801
G01 X202.7065 Y166.9521
G01 X202.5991 Y166.8422
G01 X202.4861 Y166.7381
G01 X202.3677 Y166.6401
G01 X202.2443 Y166.5485
G01 X202.1162 Y166.4636
G01 X201.9838 Y166.3855
G01 X201.8475 Y166.3145
G01 X201.7077 Y166.2509
G01 X201.2931 Y166.1712
G01 X200.8743 Y166.1177
G01 X200.4530 Y166.0904
G01 X200.0308 Y166.0895
G01 X197.8903 Y166.0640
G01 X195.7497 Y166.0603
G01 X193.6091 Y166.0784
G01 X191.4689 Y166.1183
G01 X191.3762 Y166.1177
G01 X191.2835 Y166.1210
G01 X191.1911 Y166.1282
G01 X191.0991 Y166.1393
G01 X191.0076 Y166.1542
G01 X190.9168 Y166.1730
G01 X190.8269 Y166.1955
G01 X190.7380 Y166.2218
G01 X190.4431 Y166.3721
G01 X190.1597 Y166.5431
G01 X189.8893 Y166.7339
G01 X189.6333 Y166.9437
M107
G00 Z2.0000


;No. 16: Hole 49
G00 X214.7296 Y165.9649 Z2.0000
G00 Z0.5000
G01 Z-2.2000 F400
M106 S240
G01 X214.9358 Y166.1932 F1000
G01 X215.1632 Y166.4005
G01 X215.4097 Y166.5848
G01 X215.6729 Y166.7442
G01 X216.0094 Y166.8399
G01 X216.3529 Y166.9061
G01 X216.7009 Y166.9423
G01 X217.0507 Y166.9482
G01 X217.7128 Y166.9677
G01 X218.3751 Y166.9806
G01 X219.0375 Y166.9870
G01 X219.6999 Y166.9868
G01 X226.0691 Y166.9874
G01 X226.1565 Y166.9893
G01 X226.2434 Y166.9981
G01 X226.3293 Y167.0138
G01 X226.4138 Y167.0363
G01 X226.4962 Y167.0654
G01 X226.5760 Y167.1010
G01 X226.6527 Y167.1427
G01 X226.7259 Y167.1904
G01 X226.7951 Y167.2438
G01 X226.8598 Y167.3025
G01 X226.9196 Y167.3662
G01 X226.9743 Y167.4344
G01 X227.0233 Y167.5067
G01 X227.0664 Y167.5827
G01 X227.1034 Y167.6618
G01 X227.1340 Y167.7437
G01 X227.1580 Y167.8277
G01 X227.1752 Y167.9133
G01 X227.1856 Y168.0001
G01 X227.1891 Y168.0874
G01 Y171.3411
G01 X227.1872 Y171.4284
G01 X227.1784 Y171.5154
G01 X227.1627 Y171.6013
G01 X227.1402 Y171.6857
G01 X227.1111 Y171.7681
G01 X227.0756 Y171.8479
G01 X227.0338 Y171.9247
G01 X226.9861 Y171.9979
G01 X226.9327 Y172.0671
G01 X226.8740 Y172.1318
G01 X226.8103 Y172.1916
G01 X226.7421 Y172.2462
G01 X226.6698 Y172.2953
G01 X226.5938 Y172.3384
G01 X226.5147 Y172.3754
G01 X226.4328 Y172.4060
G01 X226.3488 Y172.4300
G01 X226.2632 Y172.4472
G01 X226.1764 Y172.4576
G01 X226.0891 Y172.4611
G01 X214.0945
G01 Y179.6144
G01 X220.9447
G01 X222.4723 Y179.6138
G01 X223.9998 Y179.6100
G01 X225.5273 Y179.6031
G01 X227.0548 Y179.5930
G01 X227.0490 Y179.5802
G01 X226.8063 Y179.3353
G01 X226.5489 Y179.1058
G01 X226.2778 Y178.8927
G01 X225.9941 Y178.6967
G01 X215.8205
G01 X215.7331 Y178.6948
G01 X215.6462 Y178.6860
G01 X215.5602 Y178.6703
G01 X215.4758 Y178.6478
G01 X215.3934 Y178.6187
G01 X215.3136 Y178.5832
G01 X215.2368 Y178.5414
G01 X215.1637 Y178.4937
G01 X215.0945 Y178.4403
G01 X215.0298 Y178.3816
G01 X214.9699 Y178.3179
G01 X214.9153 Y178.2497
G01 X214.8663 Y178.1774
G01 X214.8231 Y178.1014
G01 X214.7861 Y178.0223
G01 X214.7556 Y177.9404
G01 X214.7316 Y177.8564
G01 X214.7143 Y177.7708
G01 X214.7039 Y177.6840
G01 X214.7005 Y177.5967
G01 Y174.4990
G01 X214.7032 Y174.4011
G01 X214.7153 Y174.2988
G01 X214.7369 Y174.1980
G01 X214.7679 Y174.0996
G01 X214.8080 Y174.0047
G01 X214.8567 Y173.9138
G01 X214.9138 Y173.8280
G01 X214.9786 Y173.7478
G01 X215.0507 Y173.6741
G01 X215.1293 Y173.6074
G01 X215.2138 Y173.5484
G01 X215.3035 Y173.4976
G01 X215.3976 Y173.4554
G01 X215.4951 Y173.4222
G01 X215.5954 Y173.3982
G01 X215.6975 Y173.3838
G01 X215.8005 Y173.3790
G01 X227.9510
G01 Y165.9138
G01 X220.6233 Y165.9139
G01 X219.5014 Y165.9145
G01 X218.3796 Y165.9185
G01 X217.2578 Y165.9258
G01 X216.1360 Y165.9365
G01 X215.5399 Y165.9446
G01 X214.9456 Y165.9552
G01 X214.7481 Y165.9595
G01 X214.7296 Y165.9649
M107
G00 Z2.0000


;No. 17: Hole 52
G00 X249.9317 Y166.0696 Z2.0000
G00 Z0.5000
G01 Z-2.2000 F400
M106 S240
G01 X238.4131 F1000
G01 Y179.6144
G01 X239.0191
G01 Y168.1074
G01 X239.0218 Y168.0096
G01 X239.0339 Y167.9072
G01 X239.0556 Y167.8064
G01 X239.0865 Y167.7081
G01 X239.1266 Y167.6131
G01 X239.1753 Y167.5222
G01 X239.2324 Y167.4364
G01 X239.2972 Y167.3562
G01 X239.3693 Y167.2825
G01 X239.4479 Y167.2159
G01 X239.5324 Y167.1569
G01 X239.6221 Y167.1060
G01 X239.7162 Y167.0638
G01 X239.8138 Y167.0306
G01 X239.9140 Y167.0067
G01 X240.0161 Y166.9922
G01 X240.1191 Y166.9874
G01 X251.0043
G01 X251.0193 Y166.9862
G01 X250.7790 Y166.7217
G01 X250.5162 Y166.4796
G01 X250.2331 Y166.2616
G01 X249.9317 Y166.0696
M107
G00 Z2.0000


;No. 18: Hole 51
G00 X262.8703 Y166.0696 Z2.0000
G00 Z0.5000
G01 Z-2.2000 F400
M106 S240
G01 X262.2642 Y166.0697 F1000
G01 X262.2640 Y173.5320
G01 X276.0520 Y173.4623
G01 X276.1158 Y166.0696
G01 X275.5148
G01 Y171.3410
G01 X275.5129 Y171.4284
G01 X275.5041 Y171.5153
G01 X275.4884 Y171.6013
G01 X275.4659 Y171.6857
G01 X275.4368 Y171.7681
G01 X275.4013 Y171.8479
G01 X275.3595 Y171.9246
G01 X275.3118 Y171.9978
G01 X275.2584 Y172.0670
G01 X275.1997 Y172.1317
G01 X275.1361 Y172.1916
G01 X275.0679 Y172.2462
G01 X274.9955 Y172.2952
G01 X274.9196 Y172.3384
G01 X274.8404 Y172.3753
G01 X274.7586 Y172.4059
G01 X274.6745 Y172.4299
G01 X274.5889 Y172.4472
G01 X274.5021 Y172.4575
G01 X274.4148 Y172.4610
G01 X263.9903
G01 X263.9030 Y172.4591
G01 X263.8160 Y172.4503
G01 X263.7301 Y172.4346
G01 X263.6456 Y172.4121
G01 X263.5633 Y172.3830
G01 X263.4834 Y172.3475
G01 X263.4067 Y172.3057
G01 X263.3335 Y172.2580
G01 X263.2643 Y172.2046
G01 X263.1996 Y172.1459
G01 X263.1398 Y172.0823
G01 X263.0851 Y172.0141
G01 X263.0361 Y171.9417
G01 X262.9930 Y171.8658
G01 X262.9560 Y171.7866
G01 X262.9254 Y171.7048
G01 X262.9014 Y171.6207
G01 X262.8842 Y171.5351
G01 X262.8738 Y171.4483
G01 X262.8703 Y171.3610
G01 Y166.0696
M107
G00 Z2.0000


;No. 19: Helical drill 4
G00 X273.7310 Y188.2329 Z2.0000
G00 Z0.5000
M106 S240
G01 X273.7299 Y188.1979 Z0.4796 F400
G01 X273.7269 Y188.1631 Z0.4593
G01 X273.7218 Y188.1285 Z0.4389
G01 X273.7147 Y188.0942 Z0.4185
G01 X273.7057 Y188.0604 Z0.3981
G01 X273.6947 Y188.0272 Z0.3778
G01 X273.6818 Y187.9947 Z0.3574
G01 X273.6670 Y187.9630 Z0.3370
G01 X273.6504 Y187.9323 Z0.3167
G01 X273.6320 Y187.9025 Z0.2963
G01 X273.6120 Y187.8738 Z0.2759
G01 X273.5903 Y187.8464 Z0.2556
G01 X273.5670 Y187.8203 Z0.2352
G01 X273.5423 Y187.7955 Z0.2148
G01 X273.5162 Y187.7723 Z0.1944
G01 X273.4887 Y187.7506 Z0.1741
G01 X273.4601 Y187.7305 Z0.1537
G01 X273.4303 Y187.7122 Z0.1333
G01 X273.3995 Y187.6956 Z0.1130
G01 X273.3678 Y187.6808 Z0.0926
G01 X273.3353 Y187.6679 Z0.0722
G01 X273.3021 Y187.6569 Z0.0519
G01 X273.2684 Y187.6478 Z0.0315
G01 X273.2341 Y187.6408 Z0.0111
G01 X273.1995 Y187.6357 Z-0.0093
G01 X273.1646 Y187.6326 Z-0.0296
G01 X273.1297 Y187.6316 Z-0.0500
G01 X273.0947 Y187.6326 Z-0.0704
G01 X273.0599 Y187.6357 Z-0.0907
G01 X273.0253 Y187.6408 Z-0.1111
G01 X272.9910 Y187.6478 Z-0.1315
G01 X272.9572 Y187.6569 Z-0.1519
G01 X272.9240 Y187.6679 Z-0.1722
G01 X272.8915 Y187.6808 Z-0.1926
G01 X272.8598 Y187.6956 Z-0.2130
G01 X272.8291 Y187.7122 Z-0.2333
G01 X272.7993 Y187.7305 Z-0.2537
G01 X272.7706 Y187.7506 Z-0.2741
G01 X272.7432 Y187.7723 Z-0.2944
G01 X272.7171 Y187.7955 Z-0.3148
G01 X272.6923 Y187.8203 Z-0.3352
G01 X272.6691 Y187.8464 Z-0.3556
G01 X272.6474 Y187.8738 Z-0.3759
G01 X272.6273 Y187.9025 Z-0.3963
G01 X272.6090 Y187.9323 Z-0.4167
G01 X272.5924 Y187.9630 Z-0.4370
G01 X272.5776 Y187.9947 Z-0.4574
G01 X272.5647 Y188.0272 Z-0.4778
G01 X272.5537 Y188.0604 Z-0.4981
G01 X272.5446 Y188.0942 Z-0.5185
G01 X272.5376 Y188.1285 Z-0.5389
G01 X272.5325 Y188.1631 Z-0.5593
G01 X272.5294 Y188.1979 Z-0.5796
G01 X272.5284 Y188.2329 Z-0.6000
G01 X272.5294 Y188.2678 Z-0.6204
G01 X272.5325 Y188.3027 Z-0.6407
G01 X272.5376 Y188.3373 Z-0.6611
G01 X272.5446 Y188.3715 Z-0.6815
G01 X272.5537 Y188.4053 Z-0.7019
G01 X272.5647 Y188.4385 Z-0.7222
G01 X272.5776 Y188.4710 Z-0.7426
G01 X272.5924 Y188.5027 Z-0.7630
G01 X272.6090 Y188.5335 Z-0.7833
G01 X272.6273 Y188.5633 Z-0.8037
G01 X272.6474 Y188.5919 Z-0.8241
G01 X272.6691 Y188.6194 Z-0.8444
G01 X272.6923 Y188.6455 Z-0.8648
G01 X272.7171 Y188.6702 Z-0.8852
G01 X272.7432 Y188.6935 Z-0.9056
G01 X272.7706 Y188.7152 Z-0.9259
G01 X272.7993 Y188.7352 Z-0.9463
G01 X272.8291 Y188.7536 Z-0.9667
G01 X272.8598 Y188.7702 Z-0.9870
G01 X272.8915 Y188.7850 Z-1.0074
G01 X272.9240 Y188.7979 Z-1.0278
G01 X272.9572 Y188.8089 Z-1.0481
G01 X272.9910 Y188.8179 Z-1.0685
G01 X273.0253 Y188.8250 Z-1.0889
G01 X273.0599 Y188.8301 Z-1.1093
G01 X273.0947 Y188.8331 Z-1.1296
G01 X273.1297 Y188.8342 Z-1.1500
G01 X273.1646 Y188.8331 Z-1.1704
G01 X273.1995 Y188.8301 Z-1.1907
G01 X273.2341 Y188.8250 Z-1.2111
G01 X273.2684 Y188.8179 Z-1.2315
G01 X273.3021 Y188.8089 Z-1.2519
G01 X273.3353 Y188.7979 Z-1.2722
G01 X273.3678 Y188.7850 Z-1.2926
G01 X273.3995 Y188.7702 Z-1.3130
G01 X273.4303 Y188.7536 Z-1.3333
G01 X273.4601 Y188.7352 Z-1.3537
G01 X273.4887 Y188.7152 Z-1.3741
G01 X273.5162 Y188.6935 Z-1.3944
G01 X273.5423 Y188.6702 Z-1.4148
G01 X273.5670 Y188.6455 Z-1.4352
G01 X273.5903 Y188.6194 Z-1.4556
G01 X273.6120 Y188.5919 Z-1.4759
G01 X273.6320 Y188.5633 Z-1.4963
G01 X273.6504 Y188.5335 Z-1.5167
G01 X273.6670 Y188.5027 Z-1.5370
G01 X273.6818 Y188.4710 Z-1.5574
G01 X273.6947 Y188.4385 Z-1.5778
G01 X273.7057 Y188.4053 Z-1.5981
G01 X273.7147 Y188.3715 Z-1.6185
G01 X273.7218 Y188.3373 Z-1.6389
G01 X273.7269 Y188.3027 Z-1.6593
G01 X273.7299 Y188.2678 Z-1.6796
G01 X273.7310 Y188.2329 Z-1.7000
G01 X273.7299 Y188.1979 Z-1.7204
G01 X273.7269 Y188.1631 Z-1.7407
G01 X273.7218 Y188.1285 Z-1.7611
G01 X273.7147 Y188.0942 Z-1.7815
G01 X273.7057 Y188.0604 Z-1.8019
G01 X273.6947 Y188.0272 Z-1.8222
G01 X273.6818 Y187.9947 Z-1.8426
G01 X273.6670 Y187.9630 Z-1.8630
G01 X273.6504 Y187.9323 Z-1.8833
G01 X273.6320 Y187.9025 Z-1.9037
G01 X273.6120 Y187.8738 Z-1.9241
G01 X273.5903 Y187.8464 Z-1.9444
G01 X273.5670 Y187.8203 Z-1.9648
G01 X273.5423 Y187.7955 Z-1.9852
G01 X273.5162 Y187.7723 Z-2.0056
G01 X273.4887 Y187.7506 Z-2.0259
G01 X273.4601 Y187.7305 Z-2.0463
G01 X273.4303 Y187.7122 Z-2.0667
G01 X273.3995 Y187.6956 Z-2.0870
G01 X273.3678 Y187.6808 Z-2.1074
G01 X273.3353 Y187.6679 Z-2.1278
G01 X273.3021 Y187.6569 Z-2.1481
G01 X273.2684 Y187.6478 Z-2.1685
G01 X273.2341 Y187.6408 Z-2.1889
G01 X273.1995 Y187.6357 Z-2.2093
G01 X273.1646 Y187.6326 Z-2.2296
G01 X273.1297 Y187.6316 Z-2.2500
G01 X273.0947 Y187.6326 Z-2.2704
G01 X273.0599 Y187.6357 Z-2.2907
G01 X273.0253 Y187.6408 Z-2.3111
G01 X272.9910 Y187.6478 Z-2.3315
G01 X272.9572 Y187.6569 Z-2.3519
G01 X272.9240 Y187.6679 Z-2.3722
G01 X272.8915 Y187.6808 Z-2.3926
G01 X272.8598 Y187.6956 Z-2.4130
G01 X272.8291 Y187.7122 Z-2.4333
G01 X272.7993 Y187.7305 Z-2.4537
G01 X272.7706 Y187.7506 Z-2.4741
G01 X272.7432 Y187.7723 Z-2.4944
G01 X272.7171 Y187.7955 Z-2.5148
G01 X272.6923 Y187.8203 Z-2.5352
G01 X272.6691 Y187.8464 Z-2.5556
G01 X272.6474 Y187.8738 Z-2.5759
G01 X272.6273 Y187.9025 Z-2.5963
G01 X272.6090 Y187.9323 Z-2.6167
G01 X272.5924 Y187.9630 Z-2.6370
G01 X272.5776 Y187.9947 Z-2.6574
G01 X272.5647 Y188.0272 Z-2.6778
G01 X272.5537 Y188.0604 Z-2.6981
G01 X272.5446 Y188.0942 Z-2.7185
G01 X272.5376 Y188.1285 Z-2.7389
G01 X272.5325 Y188.1631 Z-2.7593
G01 X272.5294 Y188.1979 Z-2.7796
G01 X272.5284 Y188.2329 Z-2.8000
G01 X272.5294 Y188.2678 Z-2.8204
G01 X272.5325 Y188.3027 Z-2.8407
G01 X272.5376 Y188.3373 Z-2.8611
G01 X272.5446 Y188.3715 Z-2.8815
G01 X272.5537 Y188.4053 Z-2.9019
G01 X272.5647 Y188.4385 Z-2.9222
G01 X272.5776 Y188.4710 Z-2.9426
G01 X272.5924 Y188.5027 Z-2.9630
G01 X272.6090 Y188.5335 Z-2.9833
G01 X272.6273 Y188.5633 Z-3.0037
G01 X272.6474 Y188.5919 Z-3.0241
G01 X272.6691 Y188.6194 Z-3.0444
G01 X272.6923 Y188.6455 Z-3.0648
G01 X272.7171 Y188.6702 Z-3.0852
G01 X272.7432 Y188.6935 Z-3.1056
G01 X272.7706 Y188.7152 Z-3.1259
G01 X272.7993 Y188.7352 Z-3.1463
G01 X272.8291 Y188.7536 Z-3.1667
G01 X272.8598 Y188.7702 Z-3.1870
G01 X272.8915 Y188.7850 Z-3.2074
G01 X272.9240 Y188.7979 Z-3.2278
G01 X272.9572 Y188.8089 Z-3.2481
G01 X272.9910 Y188.8179 Z-3.2685
G01 X273.0253 Y188.8250 Z-3.2889
G01 X273.0599 Y188.8301 Z-3.3093
G01 X273.0947 Y188.8331 Z-3.3296
G01 X273.1297 Y188.8342 Z-3.3500
G01 X273.1646 Y188.8331 Z-3.3704
G01 X273.1995 Y188.8301 Z-3.3907
G01 X273.2341 Y188.8250 Z-3.4111
G01 X273.2684 Y188.8179 Z-3.4315
G01 X273.3021 Y188.8089 Z-3.4519
G01 X273.3353 Y188.7979 Z-3.4722
G01 X273.3678 Y188.7850 Z-3.4926
G01 X273.3995 Y188.7702 Z-3.5130
G01 X273.4303 Y188.7536 Z-3.5333
G01 X273.4601 Y188.7352 Z-3.5537
G01 X273.4887 Y188.7152 Z-3.5741
G01 X273.5162 Y188.6935 Z-3.5944
G01 X273.5423 Y188.6702 Z-3.6148
G01 X273.5670 Y188.6455 Z-3.6352
G01 X273.5903 Y188.6194 Z-3.6556
G01 X273.6120 Y188.5919 Z-3.6759
G01 X273.6320 Y188.5633 Z-3.6963
G01 X273.6504 Y188.5335 Z-3.7167
G01 X273.6670 Y188.5027 Z-3.7370
G01 X273.6818 Y188.4710 Z-3.7574
G01 X273.6947 Y188.4385 Z-3.7778
G01 X273.7057 Y188.4053 Z-3.7981
G01 X273.7147 Y188.3715 Z-3.8185
G01 X273.7218 Y188.3373 Z-3.8389
G01 X273.7269 Y188.3027 Z-3.8593
G01 X273.7299 Y188.2678 Z-3.8796
G01 X273.7310 Y188.2329 Z-3.9000
G01 X273.7299 Y188.1979 Z-3.9204
G01 X273.7269 Y188.1631 Z-3.9407
G01 X273.7218 Y188.1285 Z-3.9611
G01 X273.7147 Y188.0942 Z-3.9815
G01 X273.7057 Y188.0604 Z-4.0019
G01 X273.6947 Y188.0272 Z-4.0222
G01 X273.6818 Y187.9947 Z-4.0426
G01 X273.6670 Y187.9630 Z-4.0630
G01 X273.6504 Y187.9323 Z-4.0833
G01 X273.6320 Y187.9025 Z-4.1037
G01 X273.6120 Y187.8738 Z-4.1241
G01 X273.5903 Y187.8464 Z-4.1444
G01 X273.5670 Y187.8203 Z-4.1648
G01 X273.5423 Y187.7955 Z-4.1852
G01 X273.5162 Y187.7723 Z-4.2056
G01 X273.4887 Y187.7506 Z-4.2259
G01 X273.4601 Y187.7305 Z-4.2463
G01 X273.4303 Y187.7122 Z-4.2667
G01 X273.3995 Y187.6956 Z-4.2870
G01 X273.3678 Y187.6808 Z-4.3074
G01 X273.3353 Y187.6679 Z-4.3278
G01 X273.3021 Y187.6569 Z-4.3481
G01 X273.2684 Y187.6478 Z-4.3685
G01 X273.2341 Y187.6408 Z-4.3889
G01 X273.1995 Y187.6357 Z-4.4093
G01 X273.1646 Y187.6326 Z-4.4296
G01 X273.1297 Y187.6316 Z-4.4500
G01 X273.0947 Y187.6326 Z-4.4704
G01 X273.0599 Y187.6357 Z-4.4907
G01 X273.0253 Y187.6408 Z-4.5111
G01 X272.9910 Y187.6478 Z-4.5315
G01 X272.9572 Y187.6569 Z-4.5519
G01 X272.9240 Y187.6679 Z-4.5722
G01 X272.8915 Y187.6808 Z-4.5926
G01 X272.8598 Y187.6956 Z-4.6130
G01 X272.8291 Y187.7122 Z-4.6333
G01 X272.7993 Y187.7305 Z-4.6537
G01 X272.7706 Y187.7506 Z-4.6741
G01 X272.7432 Y187.7723 Z-4.6944
G01 X272.7171 Y187.7955 Z-4.7148
G01 X272.6923 Y187.8203 Z-4.7352
G01 X272.6691 Y187.8464 Z-4.7556
G01 X272.6474 Y187.8738 Z-4.7759
G01 X272.6273 Y187.9025 Z-4.7963
G01 X272.6090 Y187.9323 Z-4.8167
G01 X272.5924 Y187.9630 Z-4.8370
G01 X272.5776 Y187.9947 Z-4.8574
G01 X272.5647 Y188.0272 Z-4.8778
G01 X272.5537 Y188.0604 Z-4.8981
G01 X272.5446 Y188.0942 Z-4.9185
G01 X272.5376 Y188.1285 Z-4.9389
G01 X272.5325 Y188.1631 Z-4.9593
G01 X272.5294 Y188.1979 Z-4.9796
G01 X272.5284 Y188.2329 Z-5.0000
G01 X272.5294 Y188.2678 Z-5.0204
G01 X272.5325 Y188.3027 Z-5.0407
G01 X272.5376 Y188.3373 Z-5.0611
G01 X272.5446 Y188.3715 Z-5.0815
G01 X272.5537 Y188.4053 Z-5.1019
G01 X272.5647 Y188.4385 Z-5.1222
G01 X272.5776 Y188.4710 Z-5.1426
G01 X272.5924 Y188.5027 Z-5.1630
G01 X272.6090 Y188.5335 Z-5.1833
G01 X272.6273 Y188.5633 Z-5.2037
G01 X272.6474 Y188.5919 Z-5.2241
G01 X272.6691 Y188.6194 Z-5.2444
G01 X272.6923 Y188.6455 Z-5.2648
G01 X272.7171 Y188.6702 Z-5.2852
G01 X272.7432 Y188.6935 Z-5.3056
G01 X272.7706 Y188.7152 Z-5.3259
G01 X272.7993 Y188.7352 Z-5.3463
G01 X272.8291 Y188.7536 Z-5.3667
G01 X272.8598 Y188.7702 Z-5.3870
G01 X272.8915 Y188.7850 Z-5.4074
G01 X272.9240 Y188.7979 Z-5.4278
G01 X272.9572 Y188.8089 Z-5.4481
G01 X272.9910 Y188.8179 Z-5.4685
G01 X273.0253 Y188.8250 Z-5.4889
G01 X273.0599 Y188.8301 Z-5.5093
G01 X273.0947 Y188.8331 Z-5.5296
G01 X273.1297 Y188.8342 Z-5.5500
G01 X273.1646 Y188.8331 Z-5.5704
G01 X273.1995 Y188.8301 Z-5.5907
G01 X273.2341 Y188.8250 Z-5.6111
G01 X273.2684 Y188.8179 Z-5.6315
G01 X273.3021 Y188.8089 Z-5.6519
G01 X273.3353 Y188.7979 Z-5.6722
G01 X273.3678 Y188.7850 Z-5.6926
G01 X273.3995 Y188.7702 Z-5.7130
G01 X273.4303 Y188.7536 Z-5.7333
G01 X273.4601 Y188.7352 Z-5.7537
G01 X273.4887 Y188.7152 Z-5.7741
G01 X273.5162 Y188.6935 Z-5.7944
G01 X273.5423 Y188.6702 Z-5.8148
G01 X273.5670 Y188.6455 Z-5.8352
G01 X273.5903 Y188.6194 Z-5.8556
G01 X273.6120 Y188.5919 Z-5.8759
G01 X273.6320 Y188.5633 Z-5.8963
G01 X273.6504 Y188.5335 Z-5.9167
G01 X273.6670 Y188.5027 Z-5.9370
G01 X273.6818 Y188.4710 Z-5.9574
G01 X273.6947 Y188.4385 Z-5.9778
G01 X273.7057 Y188.4053 Z-5.9981
G01 X273.7147 Y188.3715 Z-6.0185
G01 X273.7218 Y188.3373 Z-6.0389
G01 X273.7269 Y188.3027 Z-6.0593
G01 X273.7299 Y188.2678 Z-6.0796
G01 X273.7310 Y188.2329 Z-6.1000
G01 X273.7299 Y188.1979 Z-6.1176
G01 X273.7269 Y188.1631 Z-6.1352
G01 X273.7218 Y188.1285 Z-6.1528
G01 X273.7147 Y188.0942 Z-6.1704
G01 X273.7057 Y188.0604 Z-6.1880
G01 X273.6947 Y188.0272 Z-6.2056
G01 X273.6818 Y187.9947 Z-6.2231
G01 X273.6670 Y187.9630 Z-6.2407
G01 X273.6504 Y187.9323 Z-6.2583
G01 X273.6320 Y187.9025 Z-6.2759
G01 X273.6120 Y187.8738 Z-6.2935
G01 X273.5903 Y187.8464 Z-6.3111
G01 X273.5670 Y187.8203 Z-6.3287
G01 X273.5423 Y187.7955 Z-6.3463
G01 X273.5162 Y187.7723 Z-6.3639
G01 X273.4887 Y187.7506 Z-6.3815
G01 X273.4601 Y187.7305 Z-6.3991
G01 X273.4303 Y187.7122 Z-6.4167
G01 X273.3995 Y187.6956 Z-6.4343
G01 X273.3678 Y187.6808 Z-6.4519
G01 X273.3353 Y187.6679 Z-6.4694
G01 X273.3021 Y187.6569 Z-6.4870
G01 X273.2684 Y187.6478 Z-6.5046
G01 X273.2341 Y187.6408 Z-6.5222
G01 X273.1995 Y187.6357 Z-6.5398
G01 X273.1646 Y187.6326 Z-6.5574
G01 X273.1297 Y187.6316 Z-6.5750
G01 X273.0947 Y187.6326 Z-6.5926
G01 X273.0599 Y187.6357 Z-6.6102
G01 X273.0253 Y187.6408 Z-6.6278
G01 X272.9910 Y187.6478 Z-6.6454
G01 X272.9572 Y187.6569 Z-6.6630
G01 X272.9240 Y187.6679 Z-6.6806
G01 X272.8915 Y187.6808 Z-6.6981
G01 X272.8598 Y187.6956 Z-6.7157
G01 X272.8291 Y187.7122 Z-6.7333
G01 X272.7993 Y187.7305 Z-6.7509
G01 X272.7706 Y187.7506 Z-6.7685
G01 X272.7432 Y187.7723 Z-6.7861
G01 X272.7171 Y187.7955 Z-6.8037
G01 X272.6923 Y187.8203 Z-6.8213
G01 X272.6691 Y187.8464 Z-6.8389
G01 X272.6474 Y187.8738 Z-6.8565
G01 X272.6273 Y187.9025 Z-6.8741
G01 X272.6090 Y187.9323 Z-6.8917
G01 X272.5924 Y187.9630 Z-6.9093
G01 X272.5776 Y187.9947 Z-6.9269
G01 X272.5647 Y188.0272 Z-6.9444
G01 X272.5537 Y188.0604 Z-6.9620
G01 X272.5446 Y188.0942 Z-6.9796
G01 X272.5376 Y188.1285 Z-6.9972
G01 X272.5325 Y188.1631 Z-7.0148
G01 X272.5294 Y188.1979 Z-7.0324
G01 X272.5284 Y188.2329 Z-7.0500
G01 X272.5294 Y188.2678 Z-7.0676
G01 X272.5325 Y188.3027 Z-7.0852
G01 X272.5376 Y188.3373 Z-7.1028
G01 X272.5446 Y188.3715 Z-7.1204
G01 X272.5537 Y188.4053 Z-7.1380
G01 X272.5647 Y188.4385 Z-7.1556
G01 X272.5776 Y188.4710 Z-7.1731
G01 X272.5924 Y188.5027 Z-7.1907
G01 X272.6090 Y188.5335 Z-7.2083
G01 X272.6273 Y188.5633 Z-7.2259
G01 X272.6474 Y188.5919 Z-7.2435
G01 X272.6691 Y188.6194 Z-7.2611
G01 X272.6923 Y188.6455 Z-7.2787
G01 X272.7171 Y188.6702 Z-7.2963
G01 X272.7432 Y188.6935 Z-7.3139
G01 X272.7706 Y188.7152 Z-7.3315
G01 X272.7993 Y188.7352 Z-7.3491
G01 X272.8291 Y188.7536 Z-7.3667
G01 X272.8598 Y188.7702 Z-7.3843
G01 X272.8915 Y188.7850 Z-7.4019
G01 X272.9240 Y188.7979 Z-7.4194
G01 X272.9572 Y188.8089 Z-7.4370
G01 X272.9910 Y188.8179 Z-7.4546
G01 X273.0253 Y188.8250 Z-7.4722
G01 X273.0599 Y188.8301 Z-7.4898
G01 X273.0947 Y188.8331 Z-7.5074
G01 X273.1297 Y188.8342 Z-7.5250
G01 X273.1646 Y188.8331 Z-7.5426
G01 X273.1995 Y188.8301 Z-7.5602
G01 X273.2341 Y188.8250 Z-7.5778
G01 X273.2684 Y188.8179 Z-7.5954
G01 X273.3021 Y188.8089 Z-7.6130
G01 X273.3353 Y188.7979 Z-7.6306
G01 X273.3678 Y188.7850 Z-7.6481
G01 X273.3995 Y188.7702 Z-7.6657
G01 X273.4303 Y188.7536 Z-7.6833
G01 X273.4601 Y188.7352 Z-7.7009
G01 X273.4887 Y188.7152 Z-7.7185
G01 X273.5162 Y188.6935 Z-7.7361
G01 X273.5423 Y188.6702 Z-7.7537
G01 X273.5670 Y188.6455 Z-7.7713
G01 X273.5903 Y188.6194 Z-7.7889
G01 X273.6120 Y188.5919 Z-7.8065
G01 X273.6320 Y188.5633 Z-7.8241
G01 X273.6504 Y188.5335 Z-7.8417
G01 X273.6670 Y188.5027 Z-7.8593
G01 X273.6818 Y188.4710 Z-7.8769
G01 X273.6947 Y188.4385 Z-7.8944
G01 X273.7057 Y188.4053 Z-7.9120
G01 X273.7147 Y188.3715 Z-7.9296
G01 X273.7218 Y188.3373 Z-7.9472
G01 X273.7269 Y188.3027 Z-7.9648
G01 X273.7299 Y188.2678 Z-7.9824
G01 X273.7310 Y188.2329 Z-8.0000
G01 X273.7299 Y188.1979
G01 X273.7269 Y188.1631
G01 X273.7218 Y188.1285
G01 X273.7147 Y188.0942
G01 X273.7057 Y188.0604
G01 X273.6947 Y188.0272
G01 X273.6818 Y187.9947
G01 X273.6670 Y187.9630
G01 X273.6504 Y187.9323
G01 X273.6320 Y187.9025
G01 X273.6120 Y187.8738
G01 X273.5903 Y187.8464
G01 X273.5670 Y187.8203
G01 X273.5423 Y187.7955
G01 X273.5162 Y187.7723
G01 X273.4887 Y187.7506
G01 X273.4601 Y187.7305
G01 X273.4303 Y187.7122
G01 X273.3995 Y187.6956
G01 X273.3678 Y187.6808
G01 X273.3353 Y187.6679
G01 X273.3021 Y187.6569
G01 X273.2684 Y187.6478
G01 X273.2341 Y187.6408
G01 X273.1995 Y187.6357
G01 X273.1646 Y187.6326
G01 X273.1297 Y187.6316
G01 X273.0947 Y187.6326
G01 X273.0599 Y187.6357
G01 X273.0253 Y187.6408
G01 X272.9910 Y187.6478
G01 X272.9572 Y187.6569
G01 X272.9240 Y187.6679
G01 X272.8915 Y187.6808
G01 X272.8598 Y187.6956
G01 X272.8291 Y187.7122
G01 X272.7993 Y187.7305
G01 X272.7706 Y187.7506
G01 X272.7432 Y187.7723
G01 X272.7171 Y187.7955
G01 X272.6923 Y187.8203
G01 X272.6691 Y187.8464
G01 X272.6474 Y187.8738
G01 X272.6273 Y187.9025
G01 X272.6090 Y187.9323
G01 X272.5924 Y187.9630
G01 X272.5776 Y187.9947
G01 X272.5647 Y188.0272
G01 X272.5537 Y188.0604
G01 X272.5446 Y188.0942
G01 X272.5376 Y188.1285
G01 X272.5325 Y188.1631
G01 X272.5294 Y188.1979
G01 X272.5284 Y188.2329
G01 X272.5294 Y188.2678
G01 X272.5325 Y188.3027
G01 X272.5376 Y188.3373
G01 X272.5446 Y188.3715
G01 X272.5537 Y188.4053
G01 X272.5647 Y188.4385
G01 X272.5776 Y188.4710
G01 X272.5924 Y188.5027
G01 X272.6090 Y188.5335
G01 X272.6273 Y188.5633
G01 X272.6474 Y188.5919
G01 X272.6691 Y188.6194
G01 X272.6923 Y188.6455
G01 X272.7171 Y188.6702
G01 X272.7432 Y188.6935
G01 X272.7706 Y188.7152
G01 X272.7993 Y188.7352
G01 X272.8291 Y188.7536
G01 X272.8598 Y188.7702
G01 X272.8915 Y188.7850
G01 X272.9240 Y188.7979
G01 X272.9572 Y188.8089
G01 X272.9910 Y188.8179
G01 X273.0253 Y188.8250
G01 X273.0599 Y188.8301
G01 X273.0947 Y188.8331
G01 X273.1297 Y188.8342
G01 X273.1646 Y188.8331
G01 X273.1995 Y188.8301
G01 X273.2341 Y188.8250
G01 X273.2684 Y188.8179
G01 X273.3021 Y188.8089
G01 X273.3353 Y188.7979
G01 X273.3678 Y188.7850
G01 X273.3995 Y188.7702
G01 X273.4303 Y188.7536
G01 X273.4601 Y188.7352
G01 X273.4887 Y188.7152
G01 X273.5162 Y188.6935
G01 X273.5423 Y188.6702
G01 X273.5670 Y188.6455
G01 X273.5903 Y188.6194
G01 X273.6120 Y188.5919
G01 X273.6320 Y188.5633
G01 X273.6504 Y188.5335
G01 X273.6670 Y188.5027
G01 X273.6818 Y188.4710
G01 X273.6947 Y188.4385
G01 X273.7057 Y188.4053
G01 X273.7147 Y188.3715
G01 X273.7218 Y188.3373
G01 X273.7269 Y188.3027
G01 X273.7299 Y188.2678
G01 X273.7310 Y188.2329
M107
M106 S240
G01 X273.7300 Y188.2093 Z-7.9875
M107
M106 S240
G01 X273.7273 Y188.1859 Z-7.9750
M107
M106 S240
G01 X273.7226 Y188.1627 Z-7.9625
M107
M106 S240
G01 X273.7162 Y188.1400 Z-7.9500
M107
M106 S240
G01 X273.7081 Y188.1178 Z-7.9375
M107
M106 S240
G01 X273.6982 Y188.0964 Z-7.9250
M107
M106 S240
G01 X273.6867 Y188.0758 Z-7.9125
M107
M106 S240
G01 X273.6735 Y188.0562 Z-7.9000
M107
M106 S240
G01 X273.6589 Y188.0376 Z-7.8875
M107
M106 S240
G01 X273.6429 Y188.0203 Z-7.8750
M107
M106 S240
G01 X273.6256 Y188.0043 Z-7.8625
M107
M106 S240
G01 X273.6070 Y187.9897 Z-7.8500
M107
M106 S240
G01 X273.5874 Y187.9766 Z-7.8375
M107
M106 S240
G01 X273.5668 Y187.9650 Z-7.8250
M107
M106 S240
G01 X273.5454 Y187.9551 Z-7.8125
M107
M106 S240
G01 X273.5232 Y187.9470 Z-7.8000
M107
M106 S240
G01 X273.5005 Y187.9406 Z-7.7875
M107
M106 S240
G01 X273.4774 Y187.9360 Z-7.7750
M107
M106 S240
G01 X273.4539 Y187.9332 Z-7.7625
M107
M106 S240
G01 X273.4303 Y187.9323 Z-7.7500
M107
M106 S240
G01 X273.4067 Y187.9332 Z-7.7375
M107
M106 S240
G01 X273.3833 Y187.9360 Z-7.7250
M107
M106 S240
G01 X273.3601 Y187.9406 Z-7.7125
M107
M106 S240
G01 X273.3374 Y187.9470 Z-7.7000
M107
M106 S240
G01 X273.3153 Y187.9551 Z-7.6875
M107
M106 S240
G01 X273.2938 Y187.9650 Z-7.6750
M107
M106 S240
G01 X273.2732 Y187.9766 Z-7.6625
M107
M106 S240
G01 X273.2536 Y187.9897 Z-7.6500
M107
M106 S240
G01 X273.2351 Y188.0043 Z-7.6375
M107
M106 S240
G01 X273.2177 Y188.0203 Z-7.6250
M107
M106 S240
G01 X273.2017 Y188.0376 Z-7.6125
M107
M106 S240
G01 X273.1871 Y188.0562 Z-7.6000
M107
M106 S240
G01 X273.1740 Y188.0758 Z-7.5875
M107
M106 S240
G01 X273.1625 Y188.0964 Z-7.5750
M107
M106 S240
G01 X273.1526 Y188.1178 Z-7.5625
M107
M106 S240
G01 X273.1444 Y188.1400 Z-7.5500
M107
M106 S240
G01 X273.1380 Y188.1627 Z-7.5375
M107
M106 S240
G01 X273.1334 Y188.1859 Z-7.5250
M107
M106 S240
G01 X273.1306 Y188.2093 Z-7.5125
M107
M106 S240
G01 X273.1297 Y188.2329 Z-7.5000
M107
G00 Z2.0000


;No. 20: Hole 50
G00 X262.6298 Y179.4241 Z2.0000
G00 Z0.5000
G01 Z-2.2000 F400
M106 S240
G01 X263.2655 Y179.4342 F1000
G01 X263.9013 Y179.4421
G01 X264.5371 Y179.4476
G01 X265.1729 Y179.4508
G01 X267.7980 Y179.4702
G01 X270.4232 Y179.4692
G01 X273.0482 Y179.4478
G01 X275.6730 Y179.4059
G01 X275.4750 Y179.2309
G01 X275.2638 Y179.0720
G01 X275.0408 Y178.9301
G01 X274.8074 Y178.8062
G01 X274.3919 Y178.7543
G01 X273.9744 Y178.7212
G01 X273.5559 Y178.7068
G01 X273.1371 Y178.7113
G01 X270.7520 Y178.6980
G01 X268.3670 Y178.6915
G01 X265.9819 Y178.6919
G01 X263.5968 Y178.6991
G01 X263.0575 Y179.0623
G01 X262.9438 Y179.1444
G01 X262.8343 Y179.2322
G01 X262.7296 Y179.3255
G01 X262.6298 Y179.4241
M107
G00 Z2.0000


;No. 21: Hole 28
G00 X175.6913 Y146.4609 Z2.0000
G00 Z0.5000
G01 Z-2.2000 F400
M106 S240
G01 X171.8186 F1000
G01 X171.0167 Y148.1109
G01 X180.2089
G01 Y149.7609
G01 X185.4310
G01 X173.9260
G01 X178.7936
G01 Y151.4109
G01 X191.7882
G01 X184.3766
G01 Y153.0609
G01 X200.4459
G01 X191.0568
G01 Y154.7109
G01 X249.5422
G01 Y153.0609
G01 X256.1912
G01 X240.1216
G01 X248.7273
G01 Y151.4109
G01 X261.7513
G01 Y149.7609
G01 X266.6307
G01 X255.1140
G01 X260.3680
G01 Y148.1109
G01 X269.5516
G01 X268.7666 Y146.4609
G01 X264.8856
M107
G00 Z2.0000
G00 X240.7599 Y154.7109
G00 Z0.5000
G01 Z-2.2000 F400
M106 S240
G01 Y156.3609 F1000
G01 X199.8371
M107
G00 Z2.0000
G00 Z0.5000
G01 Z-2.2000 F400
M106 S240
G01 X199.8038 Y156.5783 F1000
G01 X201.8995 Y156.8912
G01 X204.0000 Y157.1704
G01 X206.1046 Y157.4158
G01 X208.2130 Y157.6273
G01 X210.3245 Y157.8049
G01 X212.4385 Y157.9485
G01 X214.5546 Y158.0581
G01 X216.6722 Y158.1337
G01 X218.7907 Y158.1752
G01 X220.9096 Y158.1826
G01 X223.0284 Y158.1560
G01 X225.1465 Y158.0953
G01 X227.2633 Y158.0006
G01 X229.3783 Y157.8718
G01 X231.4909 Y157.7091
G01 X233.6007 Y157.5124
G01 X235.7071 Y157.2818
G01 X237.8094 Y157.0173
G01 X239.9073 Y156.7191
G01 X242.0001 Y156.3872
G01 X243.7958 Y156.0796
G01 X245.5874 Y155.7488
G01 X247.3745 Y155.3947
G01 X249.1569 Y155.0175
G01 X250.9343 Y154.6172
G01 X252.7063 Y154.1939
G01 X254.4727 Y153.7476
G01 X256.2331 Y153.2784
G01 X257.9873 Y152.7864
G01 X259.7350 Y152.2718
G01 X261.4758 Y151.7344
G01 X263.2096 Y151.1746
G01 X264.9359 Y150.5923
G01 X266.6545 Y149.9877
G01 X268.3652 Y149.3608
G01 X270.0675 Y148.7117
G01 X269.6243 Y147.7418
G01 X269.1673 Y146.7783
G01 X268.6966 Y145.8214
G01 X268.2122 Y144.8714
G01 X267.9964 Y144.9575
G01 X266.3761 Y145.6255
G01 X264.7461 Y146.2695
G01 X263.1067 Y146.8893
G01 X261.4583 Y147.4848
G01 X259.8013 Y148.0558
G01 X258.1360 Y148.6022
G01 X256.4628 Y149.1239
G01 X254.7821 Y149.6208
G01 X253.0942 Y150.0928
G01 X251.3995 Y150.5397
G01 X249.6983 Y150.9615
G01 X247.9912 Y151.3581
G01 X246.2783 Y151.7293
G01 X244.5601 Y152.0752
G01 X242.8370 Y152.3956
G01 X241.1093 Y152.6904
G01 X239.3775 Y152.9597
G01 X237.6419 Y153.2033
G01 X235.9028 Y153.4211
G01 X234.1607 Y153.6132
G01 X232.7833 Y153.7489
G01 X231.4043 Y153.8675
G01 X230.0239 Y153.9690
G01 X228.6424 Y154.0535
G01 X227.2599 Y154.1209
G01 X225.8767 Y154.1712
G01 X224.4930 Y154.2044
G01 X223.1090 Y154.2205
G01 X221.7536 Y154.2488
G01 X220.3980 Y154.2639
G01 X219.0424 Y154.2657
G01 X217.6868 Y154.2543
G01 X216.3313 Y154.2297
G01 X214.9762 Y154.1919
G01 X213.6215 Y154.1408
G01 X212.2674 Y154.0765
G01 X210.1938 Y153.9469
G01 X208.1228 Y153.7812
G01 X206.0550 Y153.5795
G01 X203.9911 Y153.3417
G01 X201.9316 Y153.0681
G01 X199.8771 Y152.7587
G01 X197.8284 Y152.4135
G01 X195.7860 Y152.0327
G01 X193.7505 Y151.6163
G01 X191.7226 Y151.1646
G01 X189.7029 Y150.6777
G01 X187.6919 Y150.1556
G01 X185.6904 Y149.5986
G01 X183.6988 Y149.0068
G01 X181.7179 Y148.3805
G01 X179.7482 Y147.7197
G01 X177.8910 Y147.0534
G01 X176.0438 Y146.3602
G01 X174.2069 Y145.6402
G01 X172.3806 Y144.8934
G01 X172.3692 Y144.9003
G01 X171.8785 Y145.8429
G01 X171.4030 Y146.7933
G01 X170.9427 Y147.7512
G01 X170.4978 Y148.7163
G01 X172.2737 Y149.3919
G01 X174.0586 Y150.0435
G01 X175.8521 Y150.6709
G01 X177.6540 Y151.2739
G01 X179.4638 Y151.8525
G01 X181.2813 Y152.4066
G01 X183.1061 Y152.9361
G01 X184.9379 Y153.4408
G01 X186.7764 Y153.9207
G01 X188.6212 Y154.3757
G01 X190.4720 Y154.8058
G01 X192.3284 Y155.2107
G01 X194.1902 Y155.5905
G01 X196.0569 Y155.9451
G01 X197.9282 Y156.2744
G01 X199.8038 Y156.5783
G01 X199.8371 Y156.3609
M107
G00 Z2.0000


;No. 22: Hole 29
G00 X219.5987 Y68.7628 Z2.0000
G00 Z0.5000
G01 Z-2.2000 F400
M106 S240
G01 X220.9560 F1000
G01 X221.2490 Y70.4128
G01 X219.3031
G01 X219.0076 Y72.0628
G01 X221.5419
G01 X221.8349 Y73.7128
G01 X218.7120
G01 X218.4165 Y75.3628
G01 X222.1280
G01 X222.4215 Y77.0128
G01 X218.1209
G01 X217.8254 Y78.6628
G01 X222.7150
G01 X223.0084 Y80.3128
G01 X217.5299
G01 X217.2343 Y81.9628
G01 X223.3019
G01 X223.5954 Y83.6128
G01 X216.9388
G01 X216.6432 Y85.2628
G01 X223.8889
G01 X224.1826 Y86.9128
G01 X216.3477
G01 X216.0522 Y88.5628
G01 X224.4765
G01 X224.7705 Y90.2128
G01 X215.7566
G01 X215.4611 Y91.8628
G01 X225.0644
G01 X225.3583 Y93.5128
G01 X215.1655
G01 X214.8700 Y95.1628
G01 X225.6523
G01 X225.9462 Y96.8128
G01 X214.5744
G01 X214.2789 Y98.4628
G01 X226.2401
G01 X226.5341 Y100.1128
G01 X213.9834
G01 X213.6878 Y101.7628
G01 X226.8280
G01 X227.1219 Y103.4128
G01 X213.3923
G01 X213.0967 Y105.0628
G01 X227.4159
G01 X227.7101 Y106.7128
G01 X212.8012
G01 X212.5056 Y108.3628
G01 X228.0045
G01 X228.2988 Y110.0128
G01 X212.2101
G01 X211.9146 Y111.6628
G01 X228.5931
G01 X228.8875 Y113.3128
G01 X211.6190
G01 X211.3235 Y114.9628
G01 X229.1818
G01 X229.4763 Y116.6128
G01 X211.0279
G01 X210.7324 Y118.2628
G01 X229.7710
G01 X230.0657 Y119.9128
G01 X210.4368
G01 X210.1413 Y121.5628
G01 X230.3604
G01 X230.6551 Y123.2128
G01 X209.8458
G01 X209.5502 Y124.8628
G01 X230.9499
G01 X231.2450 Y126.5128
G01 X209.2547
G01 X208.9591 Y128.1628
G01 X231.5402
G01 X231.8354 Y129.8128
G01 X208.6636
G01 X208.3680 Y131.4628
G01 X232.1309
G01 X232.4270 Y133.1128
G01 X208.0725
G01 X207.7770 Y134.7628
G01 X232.7231
G01 X218.6911
G01 Y136.4128
G01 X207.4814
G01 X207.1859 Y138.0628
G01 X217.2944
G01 X215.9199 Y139.7128
G01 X175.9260
G01 X177.4893 Y138.0628
G01 X192.3949
G01 X188.9669
G01 Y136.4128
G01 X179.3986
G01 X181.7058
G01 Y134.7628
G01 X187.4018
G01 X186.5396 Y133.1128
G01 X184.5010
M107
G00 Z2.0000
G00 X221.9403 Y134.7628
G00 Z0.5000
G01 Z-2.2000 F400
M106 S240
G01 Y136.4128 F1000
G01 X233.0200
G01 X233.3215 Y138.0628
G01 X223.2960
G01 X224.6516 Y139.7128
G01 X264.6414
G01 X263.0691 Y138.0628
G01 X248.1444
G01 X251.5857
G01 Y136.4128
G01 X261.1548
G01 X258.8569
G01 Y134.7628
G01 X253.1627
G01 X254.0017 Y133.1128
G01 X256.0218
M107
G00 Z2.0000
G00 X214.5573 Y139.7128
G00 Z0.5000
G01 Z-2.2000 F400
M106 S240
G01 Y141.3628 F1000
G01 X178.5836
G01 X183.1301
G01 Y143.0128
G01 X213.2013
G01 X211.8472 Y144.6628
G01 X188.6461
G01 X195.7690
G01 Y146.3128
G01 X210.4931
