;Project Tesla100ProV1_Schiefer
;Created by Estlcam version 11 build 11,113
;Machining time about 00:17:36 hours

G90
M03 S18000
G00 X0.0000 Y0.0000 Z0.0000
G00 Z2.0000


;No. 1: Helical drill 1
G00 X33.6680 Y267.1863
G00 Z0.5000
M106 S240
G01 X33.6668 Y267.1392 Z0.4962 F400 S18000
G01 X33.6635 Y267.0922 Z0.4924
G01 X33.6579 Y267.0454 Z0.4886
G01 X33.6501 Y266.9989 Z0.4848
G01 X33.6401 Y266.9529 Z0.4811
G01 X33.6279 Y266.9074 Z0.4773
G01 X33.6135 Y266.8625 Z0.4735
G01 X33.5970 Y266.8183 Z0.4697
G01 X33.5785 Y266.7750 Z0.4659
G01 X33.5579 Y266.7327 Z0.4621
G01 X33.5353 Y266.6913 Z0.4583
G01 X33.5108 Y266.6511 Z0.4545
G01 X33.4844 Y266.6120 Z0.4508
G01 X33.4562 Y266.5743 Z0.4470
G01 X33.4262 Y266.5380 Z0.4432
G01 X33.3945 Y266.5031 Z0.4394
G01 X33.3611 Y266.4698 Z0.4356
G01 X33.3263 Y266.4381 Z0.4318
G01 X33.2899 Y266.4081 Z0.4280
G01 X33.2522 Y266.3799 Z0.4242
G01 X33.2132 Y266.3535 Z0.4205
G01 X33.1730 Y266.3289 Z0.4167
G01 X33.1316 Y266.3063 Z0.4129
G01 X33.0892 Y266.2858 Z0.4091
G01 X33.0459 Y266.2672 Z0.4053
G01 X33.0018 Y266.2507 Z0.4015
G01 X32.9569 Y266.2364 Z0.3977
G01 X32.9114 Y266.2242 Z0.3939
G01 X32.8653 Y266.2142 Z0.3902
G01 X32.8189 Y266.2064 Z0.3864
G01 X32.7721 Y266.2008 Z0.3826
G01 X32.7251 Y266.1974 Z0.3788
G01 X32.6780 Y266.1963 Z0.3750
G01 X32.6309 Y266.1974 Z0.3712
G01 X32.5839 Y266.2008 Z0.3674
G01 X32.5371 Y266.2064 Z0.3636
G01 X32.4906 Y266.2142 Z0.3598
G01 X32.4446 Y266.2242 Z0.3561
G01 X32.3990 Y266.2364 Z0.3523
G01 X32.3542 Y266.2507 Z0.3485
G01 X32.3100 Y266.2672 Z0.3447
G01 X32.2667 Y266.2858 Z0.3409
G01 X32.2243 Y266.3063 Z0.3371
G01 X32.1830 Y266.3289 Z0.3333
G01 X32.1427 Y266.3535 Z0.3295
G01 X32.1037 Y266.3799 Z0.3258
G01 X32.0660 Y266.4081 Z0.3220
G01 X32.0296 Y266.4381 Z0.3182
G01 X31.9948 Y266.4698 Z0.3144
G01 X31.9615 Y266.5031 Z0.3106
G01 X31.9298 Y266.5380 Z0.3068
G01 X31.8998 Y266.5743 Z0.3030
G01 X31.8715 Y266.6120 Z0.2992
G01 X31.8451 Y266.6511 Z0.2955
G01 X31.8206 Y266.6913 Z0.2917
G01 X31.7980 Y266.7327 Z0.2879
G01 X31.7774 Y266.7750 Z0.2841
G01 X31.7589 Y266.8183 Z0.2803
G01 X31.7424 Y266.8625 Z0.2765
G01 X31.7281 Y266.9074 Z0.2727
G01 X31.7159 Y266.9529 Z0.2689
G01 X31.7059 Y266.9989 Z0.2652
G01 X31.6980 Y267.0454 Z0.2614
G01 X31.6924 Y267.0922 Z0.2576
G01 X31.6891 Y267.1392 Z0.2538
G01 X31.6880 Y267.1863 Z0.2500
G01 X31.6891 Y267.2334 Z0.2462
G01 X31.6924 Y267.2804 Z0.2424
G01 X31.6980 Y267.3272 Z0.2386
G01 X31.7059 Y267.3737 Z0.2348
G01 X31.7159 Y267.4197 Z0.2311
G01 X31.7281 Y267.4652 Z0.2273
G01 X31.7424 Y267.5101 Z0.2235
G01 X31.7589 Y267.5542 Z0.2197
G01 X31.7774 Y267.5976 Z0.2159
G01 X31.7980 Y267.6399 Z0.2121
G01 X31.8206 Y267.6813 Z0.2083
G01 X31.8451 Y267.7215 Z0.2045
G01 X31.8715 Y267.7606 Z0.2008
G01 X31.8998 Y267.7983 Z0.1970
G01 X31.9298 Y267.8346 Z0.1932
G01 X31.9615 Y267.8695 Z0.1894
G01 X31.9948 Y267.9028 Z0.1856
G01 X32.0296 Y267.9345 Z0.1818
G01 X32.0660 Y267.9645 Z0.1780
G01 X32.1037 Y267.9927 Z0.1742
G01 X32.1427 Y268.0191 Z0.1705
G01 X32.1830 Y268.0437 Z0.1667
G01 X32.2243 Y268.0662 Z0.1629
G01 X32.2667 Y268.0868 Z0.1591
G01 X32.3100 Y268.1054 Z0.1553
G01 X32.3542 Y268.1218 Z0.1515
G01 X32.3990 Y268.1362 Z0.1477
G01 X32.4446 Y268.1484 Z0.1439
G01 X32.4906 Y268.1584 Z0.1402
G01 X32.5371 Y268.1662 Z0.1364
G01 X32.5839 Y268.1718 Z0.1326
G01 X32.6309 Y268.1752 Z0.1288
G01 X32.6780 Y268.1763 Z0.1250
G01 X32.7251 Y268.1752 Z0.1212
G01 X32.7721 Y268.1718 Z0.1174
G01 X32.8189 Y268.1662 Z0.1136
G01 X32.8653 Y268.1584 Z0.1098
G01 X32.9114 Y268.1484 Z0.1061
G01 X32.9569 Y268.1362 Z0.1023
G01 X33.0018 Y268.1218 Z0.0985
G01 X33.0459 Y268.1054 Z0.0947
G01 X33.0892 Y268.0868 Z0.0909
G01 X33.1316 Y268.0662 Z0.0871
G01 X33.1730 Y268.0437 Z0.0833
G01 X33.2132 Y268.0191 Z0.0795
G01 X33.2522 Y267.9927 Z0.0758
G01 X33.2899 Y267.9645 Z0.0720
G01 X33.3263 Y267.9345 Z0.0682
G01 X33.3611 Y267.9028 Z0.0644
G01 X33.3945 Y267.8695 Z0.0606
G01 X33.4262 Y267.8346 Z0.0568
G01 X33.4562 Y267.7983 Z0.0530
G01 X33.4844 Y267.7606 Z0.0492
G01 X33.5108 Y267.7215 Z0.0455
G01 X33.5353 Y267.6813 Z0.0417
G01 X33.5579 Y267.6399 Z0.0379
G01 X33.5785 Y267.5976 Z0.0341
G01 X33.5970 Y267.5542 Z0.0303
G01 X33.6135 Y267.5101 Z0.0265
G01 X33.6279 Y267.4652 Z0.0227
G01 X33.6401 Y267.4197 Z0.0189
G01 X33.6501 Y267.3737 Z0.0152
G01 X33.6579 Y267.3272 Z0.0114
G01 X33.6635 Y267.2804 Z0.0076
G01 X33.6668 Y267.2334 Z0.0038
G01 X33.6680 Y267.1863 Z0.0000
G01 X33.6668 Y267.1392
G01 X33.6635 Y267.0922
G01 X33.6579 Y267.0454
G01 X33.6501 Y266.9989
G01 X33.6401 Y266.9529
G01 X33.6279 Y266.9074
G01 X33.6135 Y266.8625
G01 X33.5970 Y266.8183
G01 X33.5785 Y266.7750
G01 X33.5579 Y266.7327
G01 X33.5353 Y266.6913
G01 X33.5108 Y266.6511
G01 X33.4844 Y266.6120
G01 X33.4562 Y266.5743
G01 X33.4262 Y266.5380
G01 X33.3945 Y266.5031
G01 X33.3611 Y266.4698
G01 X33.3263 Y266.4381
G01 X33.2899 Y266.4081
G01 X33.2522 Y266.3799
G01 X33.2132 Y266.3535
G01 X33.1730 Y266.3289
G01 X33.1316 Y266.3063
G01 X33.0892 Y266.2858
G01 X33.0459 Y266.2672
G01 X33.0018 Y266.2507
G01 X32.9569 Y266.2364
G01 X32.9114 Y266.2242
G01 X32.8653 Y266.2142
G01 X32.8189 Y266.2064
G01 X32.7721 Y266.2008
G01 X32.7251 Y266.1974
G01 X32.6780 Y266.1963
G01 X32.6309 Y266.1974
G01 X32.5839 Y266.2008
G01 X32.5371 Y266.2064
G01 X32.4906 Y266.2142
G01 X32.4446 Y266.2242
G01 X32.3990 Y266.2364
G01 X32.3542 Y266.2507
G01 X32.3100 Y266.2672
G01 X32.2667 Y266.2858
G01 X32.2243 Y266.3063
G01 X32.1830 Y266.3289
G01 X32.1427 Y266.3535
G01 X32.1037 Y266.3799
G01 X32.0660 Y266.4081
G01 X32.0296 Y266.4381
G01 X31.9948 Y266.4698
G01 X31.9615 Y266.5031
G01 X31.9298 Y266.5380
G01 X31.8998 Y266.5743
G01 X31.8715 Y266.6120
G01 X31.8451 Y266.6511
G01 X31.8206 Y266.6913
G01 X31.7980 Y266.7327
G01 X31.7774 Y266.7750
G01 X31.7589 Y266.8183
G01 X31.7424 Y266.8625
G01 X31.7281 Y266.9074
G01 X31.7159 Y266.9529
G01 X31.7059 Y266.9989
G01 X31.6980 Y267.0454
G01 X31.6924 Y267.0922
G01 X31.6891 Y267.1392
G01 X31.6880 Y267.1863
G01 X31.6891 Y267.2334
G01 X31.6924 Y267.2804
G01 X31.6980 Y267.3272
G01 X31.7059 Y267.3737
G01 X31.7159 Y267.4197
G01 X31.7281 Y267.4652
G01 X31.7424 Y267.5101
G01 X31.7589 Y267.5542
G01 X31.7774 Y267.5976
G01 X31.7980 Y267.6399
G01 X31.8206 Y267.6813
G01 X31.8451 Y267.7215
G01 X31.8715 Y267.7606
G01 X31.8998 Y267.7983
G01 X31.9298 Y267.8346
G01 X31.9615 Y267.8695
G01 X31.9948 Y267.9028
G01 X32.0296 Y267.9345
G01 X32.0660 Y267.9645
G01 X32.1037 Y267.9927
G01 X32.1427 Y268.0191
G01 X32.1830 Y268.0437
G01 X32.2243 Y268.0662
G01 X32.2667 Y268.0868
G01 X32.3100 Y268.1054
G01 X32.3542 Y268.1218
G01 X32.3990 Y268.1362
G01 X32.4446 Y268.1484
G01 X32.4906 Y268.1584
G01 X32.5371 Y268.1662
G01 X32.5839 Y268.1718
G01 X32.6309 Y268.1752
G01 X32.6780 Y268.1763
G01 X32.7251 Y268.1752
G01 X32.7721 Y268.1718
G01 X32.8189 Y268.1662
G01 X32.8653 Y268.1584
G01 X32.9114 Y268.1484
G01 X32.9569 Y268.1362
G01 X33.0018 Y268.1218
G01 X33.0459 Y268.1054
G01 X33.0892 Y268.0868
G01 X33.1316 Y268.0662
G01 X33.1730 Y268.0437
G01 X33.2132 Y268.0191
G01 X33.2522 Y267.9927
G01 X33.2899 Y267.9645
G01 X33.3263 Y267.9345
G01 X33.3611 Y267.9028
G01 X33.3945 Y267.8695
G01 X33.4262 Y267.8346
G01 X33.4562 Y267.7983
G01 X33.4844 Y267.7606
G01 X33.5108 Y267.7215
G01 X33.5353 Y267.6813
G01 X33.5579 Y267.6399
G01 X33.5785 Y267.5976
G01 X33.5970 Y267.5542
G01 X33.6135 Y267.5101
G01 X33.6279 Y267.4652
G01 X33.6401 Y267.4197
G01 X33.6501 Y267.3737
G01 X33.6579 Y267.3272
G01 X33.6635 Y267.2804
G01 X33.6668 Y267.2334
G01 X33.6680 Y267.1863
M107
M106 S240
G01 X33.6668 Y267.1392 Z-0.0167
G01 X33.6635 Y267.0922 Z-0.0333
G01 X33.6579 Y267.0454 Z-0.0500
G01 X33.6501 Y266.9989 Z-0.0667
G01 X33.6401 Y266.9529 Z-0.0833
G01 X33.6279 Y266.9074 Z-0.1000
G01 X33.6135 Y266.8625 Z-0.1167
G01 X33.5970 Y266.8183 Z-0.1333
G01 X33.5785 Y266.7750 Z-0.1500
G01 X33.5579 Y266.7327 Z-0.1667
G01 X33.5353 Y266.6913 Z-0.1833
G01 X33.5108 Y266.6511 Z-0.2000
G01 X33.4844 Y266.6120 Z-0.2167
G01 X33.4562 Y266.5743 Z-0.2333
G01 X33.4262 Y266.5380 Z-0.2500
G01 X33.3945 Y266.5031 Z-0.2667
G01 X33.3611 Y266.4698 Z-0.2833
G01 X33.3263 Y266.4381 Z-0.3000
G01 X33.2899 Y266.4081 Z-0.3167
G01 X33.2522 Y266.3799 Z-0.3333
G01 X33.2132 Y266.3535 Z-0.3500
G01 X33.1730 Y266.3289 Z-0.3667
G01 X33.1316 Y266.3063 Z-0.3833
G01 X33.0892 Y266.2858 Z-0.4000
G01 X33.0459 Y266.2672 Z-0.4167
G01 X33.0018 Y266.2507 Z-0.4333
G01 X32.9569 Y266.2364 Z-0.4500
G01 X32.9114 Y266.2242 Z-0.4667
G01 X32.8653 Y266.2142 Z-0.4833
G01 X32.8189 Y266.2064 Z-0.5000
G01 X32.7721 Y266.2008 Z-0.5167
G01 X32.7251 Y266.1974 Z-0.5333
G01 X32.6780 Y266.1963 Z-0.5500
G01 X32.6309 Y266.1974 Z-0.5667
G01 X32.5839 Y266.2008 Z-0.5833
G01 X32.5371 Y266.2064 Z-0.6000
G01 X32.4906 Y266.2142 Z-0.6167
G01 X32.4446 Y266.2242 Z-0.6333
G01 X32.3990 Y266.2364 Z-0.6500
G01 X32.3542 Y266.2507 Z-0.6667
G01 X32.3100 Y266.2672 Z-0.6833
G01 X32.2667 Y266.2858 Z-0.7000
G01 X32.2243 Y266.3063 Z-0.7167
G01 X32.1830 Y266.3289 Z-0.7333
G01 X32.1427 Y266.3535 Z-0.7500
G01 X32.1037 Y266.3799 Z-0.7667
G01 X32.0660 Y266.4081 Z-0.7833
G01 X32.0296 Y266.4381 Z-0.8000
G01 X31.9948 Y266.4698 Z-0.8167
G01 X31.9615 Y266.5031 Z-0.8333
G01 X31.9298 Y266.5380 Z-0.8500
G01 X31.8998 Y266.5743 Z-0.8667
G01 X31.8715 Y266.6120 Z-0.8833
G01 X31.8451 Y266.6511 Z-0.9000
G01 X31.8206 Y266.6913 Z-0.9167
G01 X31.7980 Y266.7327 Z-0.9333
G01 X31.7774 Y266.7750 Z-0.9500
G01 X31.7589 Y266.8183 Z-0.9667
G01 X31.7424 Y266.8625 Z-0.9833
G01 X31.7281 Y266.9074 Z-1.0000
G01 X31.7159 Y266.9529 Z-1.0167
G01 X31.7059 Y266.9989 Z-1.0333
G01 X31.6980 Y267.0454 Z-1.0500
G01 X31.6924 Y267.0922 Z-1.0667
G01 X31.6891 Y267.1392 Z-1.0833
G01 X31.6880 Y267.1863 Z-1.1000
G01 X31.6891 Y267.2334 Z-1.1167
G01 X31.6924 Y267.2804 Z-1.1333
G01 X31.6980 Y267.3272 Z-1.1500
G01 X31.7059 Y267.3737 Z-1.1667
G01 X31.7159 Y267.4197 Z-1.1833
G01 X31.7281 Y267.4652 Z-1.2000
G01 X31.7424 Y267.5101 Z-1.2167
G01 X31.7589 Y267.5542 Z-1.2333
G01 X31.7774 Y267.5976 Z-1.2500
G01 X31.7980 Y267.6399 Z-1.2667
G01 X31.8206 Y267.6813 Z-1.2833
G01 X31.8451 Y267.7215 Z-1.3000
G01 X31.8715 Y267.7606 Z-1.3167
G01 X31.8998 Y267.7983 Z-1.3333
G01 X31.9298 Y267.8346 Z-1.3500
G01 X31.9615 Y267.8695 Z-1.3667
G01 X31.9948 Y267.9028 Z-1.3833
G01 X32.0296 Y267.9345 Z-1.4000
G01 X32.0660 Y267.9645 Z-1.4167
G01 X32.1037 Y267.9927 Z-1.4333
G01 X32.1427 Y268.0191 Z-1.4500
G01 X32.1830 Y268.0437 Z-1.4667
G01 X32.2243 Y268.0662 Z-1.4833
G01 X32.2667 Y268.0868 Z-1.5000
G01 X32.3100 Y268.1054 Z-1.5167
G01 X32.3542 Y268.1218 Z-1.5333
G01 X32.3990 Y268.1362 Z-1.5500
G01 X32.4446 Y268.1484 Z-1.5667
G01 X32.4906 Y268.1584 Z-1.5833
G01 X32.5371 Y268.1662 Z-1.6000
G01 X32.5839 Y268.1718 Z-1.6167
G01 X32.6309 Y268.1752 Z-1.6333
G01 X32.6780 Y268.1763 Z-1.6500
G01 X32.7251 Y268.1752 Z-1.6667
G01 X32.7721 Y268.1718 Z-1.6833
G01 X32.8189 Y268.1662 Z-1.7000
G01 X32.8653 Y268.1584 Z-1.7167
G01 X32.9114 Y268.1484 Z-1.7333
G01 X32.9569 Y268.1362 Z-1.7500
G01 X33.0018 Y268.1218 Z-1.7667
G01 X33.0459 Y268.1054 Z-1.7833
G01 X33.0892 Y268.0868 Z-1.8000
G01 X33.1316 Y268.0662 Z-1.8167
G01 X33.1730 Y268.0437 Z-1.8333
G01 X33.2132 Y268.0191 Z-1.8500
G01 X33.2522 Y267.9927 Z-1.8667
G01 X33.2899 Y267.9645 Z-1.8833
G01 X33.3263 Y267.9345 Z-1.9000
G01 X33.3611 Y267.9028 Z-1.9167
G01 X33.3945 Y267.8695 Z-1.9333
G01 X33.4262 Y267.8346 Z-1.9500
G01 X33.4562 Y267.7983 Z-1.9667
G01 X33.4844 Y267.7606 Z-1.9833
G01 X33.5108 Y267.7215 Z-2.0000
G01 X33.5353 Y267.6813 Z-2.0167
G01 X33.5579 Y267.6399 Z-2.0333
G01 X33.5785 Y267.5976 Z-2.0500
G01 X33.5970 Y267.5542 Z-2.0667
G01 X33.6135 Y267.5101 Z-2.0833
G01 X33.6279 Y267.4652 Z-2.1000
G01 X33.6401 Y267.4197 Z-2.1167
G01 X33.6501 Y267.3737 Z-2.1333
G01 X33.6579 Y267.3272 Z-2.1500
G01 X33.6635 Y267.2804 Z-2.1667
G01 X33.6668 Y267.2334 Z-2.1833
G01 X33.6680 Y267.1863 Z-2.2000
G01 X33.6668 Y267.1392
G01 X33.6635 Y267.0922
G01 X33.6579 Y267.0454
G01 X33.6501 Y266.9989
G01 X33.6401 Y266.9529
G01 X33.6279 Y266.9074
G01 X33.6135 Y266.8625
G01 X33.5970 Y266.8183
G01 X33.5785 Y266.7750
G01 X33.5579 Y266.7327
G01 X33.5353 Y266.6913
G01 X33.5108 Y266.6511
G01 X33.4844 Y266.6120
G01 X33.4562 Y266.5743
G01 X33.4262 Y266.5380
G01 X33.3945 Y266.5031
G01 X33.3611 Y266.4698
G01 X33.3263 Y266.4381
G01 X33.2899 Y266.4081
G01 X33.2522 Y266.3799
G01 X33.2132 Y266.3535
G01 X33.1730 Y266.3289
G01 X33.1316 Y266.3063
G01 X33.0892 Y266.2858
G01 X33.0459 Y266.2672
G01 X33.0018 Y266.2507
G01 X32.9569 Y266.2364
G01 X32.9114 Y266.2242
G01 X32.8653 Y266.2142
G01 X32.8189 Y266.2064
G01 X32.7721 Y266.2008
G01 X32.7251 Y266.1974
G01 X32.6780 Y266.1963
G01 X32.6309 Y266.1974
G01 X32.5839 Y266.2008
G01 X32.5371 Y266.2064
G01 X32.4906 Y266.2142
G01 X32.4446 Y266.2242
G01 X32.3990 Y266.2364
G01 X32.3542 Y266.2507
G01 X32.3100 Y266.2672
G01 X32.2667 Y266.2858
G01 X32.2243 Y266.3063
G01 X32.1830 Y266.3289
G01 X32.1427 Y266.3535
G01 X32.1037 Y266.3799
G01 X32.0660 Y266.4081
G01 X32.0296 Y266.4381
G01 X31.9948 Y266.4698
G01 X31.9615 Y266.5031
G01 X31.9298 Y266.5380
G01 X31.8998 Y266.5743
G01 X31.8715 Y266.6120
G01 X31.8451 Y266.6511
G01 X31.8206 Y266.6913
G01 X31.7980 Y266.7327
G01 X31.7774 Y266.7750
G01 X31.7589 Y266.8183
G01 X31.7424 Y266.8625
G01 X31.7281 Y266.9074
G01 X31.7159 Y266.9529
G01 X31.7059 Y266.9989
G01 X31.6980 Y267.0454
G01 X31.6924 Y267.0922
G01 X31.6891 Y267.1392
G01 X31.6880 Y267.1863
G01 X31.6891 Y267.2334
G01 X31.6924 Y267.2804
G01 X31.6980 Y267.3272
G01 X31.7059 Y267.3737
G01 X31.7159 Y267.4197
G01 X31.7281 Y267.4652
G01 X31.7424 Y267.5101
G01 X31.7589 Y267.5542
G01 X31.7774 Y267.5976
G01 X31.7980 Y267.6399
G01 X31.8206 Y267.6813
G01 X31.8451 Y267.7215
G01 X31.8715 Y267.7606
G01 X31.8998 Y267.7983
G01 X31.9298 Y267.8346
G01 X31.9615 Y267.8695
G01 X31.9948 Y267.9028
G01 X32.0296 Y267.9345
G01 X32.0660 Y267.9645
G01 X32.1037 Y267.9927
G01 X32.1427 Y268.0191
G01 X32.1830 Y268.0437
G01 X32.2243 Y268.0662
G01 X32.2667 Y268.0868
G01 X32.3100 Y268.1054
G01 X32.3542 Y268.1218
G01 X32.3990 Y268.1362
G01 X32.4446 Y268.1484
G01 X32.4906 Y268.1584
G01 X32.5371 Y268.1662
G01 X32.5839 Y268.1718
G01 X32.6309 Y268.1752
G01 X32.6780 Y268.1763
G01 X32.7251 Y268.1752
G01 X32.7721 Y268.1718
G01 X32.8189 Y268.1662
G01 X32.8653 Y268.1584
G01 X32.9114 Y268.1484
G01 X32.9569 Y268.1362
G01 X33.0018 Y268.1218
G01 X33.0459 Y268.1054
G01 X33.0892 Y268.0868
G01 X33.1316 Y268.0662
G01 X33.1730 Y268.0437
G01 X33.2132 Y268.0191
G01 X33.2522 Y267.9927
G01 X33.2899 Y267.9645
G01 X33.3263 Y267.9345
G01 X33.3611 Y267.9028
G01 X33.3945 Y267.8695
G01 X33.4262 Y267.8346
G01 X33.4562 Y267.7983
G01 X33.4844 Y267.7606
G01 X33.5108 Y267.7215
G01 X33.5353 Y267.6813
G01 X33.5579 Y267.6399
G01 X33.5785 Y267.5976
G01 X33.5970 Y267.5542
G01 X33.6135 Y267.5101
G01 X33.6279 Y267.4652
G01 X33.6401 Y267.4197
G01 X33.6501 Y267.3737
G01 X33.6579 Y267.3272
G01 X33.6635 Y267.2804
G01 X33.6668 Y267.2334
G01 X33.6680 Y267.1863
G01 X33.6800 Y267.1350 F1000
G01 X33.6893 Y267.0831
G01 X33.6959 Y267.0308
G01 X33.6998 Y266.9782
G01 X33.7009 Y266.9255
G01 X33.6993 Y266.8728
G01 X33.6949 Y266.8202
G01 X33.6879 Y266.7680
G01 X33.6772 Y266.7113
G01 X33.6637 Y266.6553
G01 X33.6472 Y266.6000
G01 X33.6280 Y266.5457
G01 X33.6059 Y266.4924
G01 X33.5812 Y266.4404
G01 X33.5538 Y266.3897
G01 X33.5238 Y266.3404
G01 X33.4886 Y266.2887
G01 X33.4508 Y266.2388
G01 X33.4105 Y266.1910
G01 X33.3677 Y266.1452
G01 X33.3227 Y266.1017
G01 X33.2756 Y266.0606
G01 X33.2263 Y266.0219
G01 X33.1752 Y265.9858
G01 X33.1181 Y265.9501
G01 X33.0592 Y265.9172
G01 X32.9987 Y265.8874
G01 X32.9368 Y265.8607
G01 X32.8736 Y265.8372
G01 X32.8092 Y265.8170
G01 X32.7440 Y265.8000
G01 X32.6780 Y265.7863
G01 X32.6093 Y265.7880
G01 X32.5407 Y265.7931
G01 X32.4725 Y265.8015
G01 X32.4048 Y265.8132
G01 X32.3378 Y265.8283
G01 X32.2716 Y265.8466
G01 X32.2063 Y265.8682
G01 X32.1422 Y265.8929
G01 X32.0794 Y265.9207
G01 X32.0180 Y265.9516
G01 X31.9582 Y265.9855
G01 X31.9002 Y266.0223
G01 X31.8440 Y266.0618
G01 X31.7898 Y266.1041
G01 X31.7378 Y266.1490
G01 X31.6880 Y266.1964
G01 X31.6407 Y266.2461
G01 X31.5958 Y266.2982
G01 X31.5535 Y266.3523
G01 X31.5139 Y266.4085
G01 X31.4772 Y266.4666
G01 X31.4433 Y266.5264
G01 X31.4124 Y266.5877
G01 X31.3846 Y266.6506
G01 X31.3598 Y266.7147
G01 X31.3383 Y266.7799
G01 X31.3199 Y266.8461
G01 X31.3049 Y266.9132
G01 X31.2931 Y266.9809
G01 X31.2847 Y267.0491
G01 X31.2797 Y267.1176
G01 X31.2780 Y267.1863
G01 X31.2797 Y267.2550
G01 X31.2847 Y267.3235
G01 X31.2931 Y267.3917
G01 X31.3049 Y267.4594
G01 X31.3199 Y267.5265
G01 X31.3383 Y267.5927
G01 X31.3598 Y267.6579
G01 X31.3846 Y267.7220
G01 X31.4124 Y267.7849
G01 X31.4433 Y267.8462
G01 X31.4772 Y267.9060
G01 X31.5139 Y267.9641
G01 X31.5535 Y268.0203
G01 X31.5958 Y268.0744
G01 X31.6407 Y268.1265
G01 X31.6880 Y268.1762
G01 X31.7378 Y268.2236
G01 X31.7898 Y268.2685
G01 X31.8440 Y268.3108
G01 X31.9002 Y268.3503
G01 X31.9582 Y268.3871
G01 X32.0180 Y268.4210
G01 X32.0794 Y268.4519
G01 X32.1422 Y268.4797
G01 X32.2063 Y268.5044
G01 X32.2716 Y268.5260
G01 X32.3378 Y268.5443
G01 X32.4048 Y268.5594
G01 X32.4725 Y268.5711
G01 X32.5407 Y268.5795
G01 X32.6093 Y268.5846
G01 X32.6780 Y268.5863
G01 X32.7467 Y268.5846
G01 X32.8152 Y268.5795
G01 X32.8834 Y268.5711
G01 X32.9511 Y268.5594
G01 X33.0181 Y268.5443
G01 X33.0843 Y268.5260
G01 X33.1496 Y268.5044
G01 X33.2137 Y268.4797
G01 X33.2765 Y268.4519
G01 X33.3379 Y268.4210
G01 X33.3977 Y268.3871
G01 X33.4557 Y268.3503
G01 X33.5119 Y268.3108
G01 X33.5661 Y268.2685
G01 X33.6181 Y268.2236
G01 X33.6679 Y268.1762
G01 X33.7153 Y268.1265
G01 X33.7602 Y268.0744
G01 X33.8024 Y268.0203
G01 X33.8420 Y267.9641
G01 X33.8788 Y267.9060
G01 X33.9126 Y267.8462
G01 X33.9435 Y267.7849
G01 X33.9714 Y267.7220
G01 X33.9961 Y267.6579
G01 X34.0176 Y267.5927
G01 X34.0360 Y267.5265
G01 X34.0510 Y267.4594
G01 X34.0628 Y267.3917
G01 X34.0712 Y267.3235
G01 X34.0762 Y267.2550
G01 X34.0779 Y267.1863
G01 X34.0740 Y267.0817
G01 X34.0623 Y266.9776
G01 X34.0428 Y266.8748
G01 X34.0157 Y266.7736
G01 X33.9812 Y266.6748
G01 X33.9393 Y266.5789
G01 X33.8904 Y266.4863
G01 X33.8347 Y266.3977
G01 X33.7725 Y266.3134
G01 X33.7042 Y266.2341
G01 X33.6302 Y266.1600
G01 X33.5508 Y266.0918
G01 X33.4666 Y266.0296
G01 X33.3779 Y265.9739
G01 X33.2854 Y265.9250
G01 X33.1894 Y265.8831
G01 X33.0906 Y265.8485
G01 X32.9895 Y265.8214
G01 X32.8866 Y265.8020
G01 X32.7826 Y265.7902
G01 X32.6780 Y265.7863
G01 X32.5733 Y265.7902
G01 X32.4693 Y265.8020
G01 X32.3664 Y265.8214
G01 X32.2653 Y265.8485
G01 X32.1665 Y265.8831
G01 X32.0705 Y265.9250
G01 X31.9780 Y265.9739
G01 X31.8893 Y266.0296
G01 X31.8051 Y266.0918
G01 X31.7257 Y266.1600
G01 X31.6517 Y266.2341
G01 X31.5834 Y266.3134
G01 X31.5213 Y266.3977
G01 X31.4656 Y266.4863
G01 X31.4166 Y266.5789
G01 X31.3748 Y266.6748
G01 X31.3402 Y266.7736
G01 X31.3131 Y266.8748
G01 X31.2936 Y266.9776
G01 X31.2819 Y267.0817
G01 X31.2780 Y267.1863
G01 X31.2819 Y267.2909
G01 X31.2936 Y267.3949
G01 X31.3131 Y267.4978
G01 X31.3402 Y267.5989
G01 X31.3748 Y267.6978
G01 X31.4166 Y267.7937
G01 X31.4656 Y267.8863
G01 X31.5213 Y267.9749
G01 X31.5834 Y268.0592
G01 X31.6517 Y268.1385
G01 X31.7257 Y268.2125
G01 X31.8051 Y268.2808
G01 X31.8893 Y268.3430
G01 X31.9780 Y268.3987
G01 X32.0705 Y268.4476
G01 X32.1665 Y268.4895
G01 X32.2653 Y268.5241
G01 X32.3664 Y268.5512
G01 X32.4693 Y268.5706
G01 X32.5733 Y268.5823
G01 X32.6780 Y268.5863
G01 X32.7826 Y268.5823
G01 X32.8866 Y268.5706
G01 X32.9895 Y268.5512
G01 X33.0906 Y268.5241
G01 X33.1894 Y268.4895
G01 X33.2854 Y268.4476
G01 X33.3779 Y268.3987
G01 X33.4666 Y268.3430
G01 X33.5508 Y268.2808
G01 X33.6302 Y268.2125
G01 X33.7042 Y268.1385
G01 X33.7725 Y268.0592
G01 X33.8347 Y267.9749
G01 X33.8904 Y267.8863
G01 X33.9393 Y267.7937
G01 X33.9812 Y267.6978
G01 X34.0157 Y267.5989
G01 X34.0428 Y267.4978
G01 X34.0623 Y267.3949
G01 X34.0740 Y267.2909
G01 X34.0779 Y267.1863
G01 X34.0734 Y267.0821
G01 X34.0598 Y266.9788
G01 X34.0372 Y266.8770
G01 X34.0059 Y266.7776
G01 X33.9660 Y266.6813
G01 X33.9178 Y266.5888
G01 X33.8618 Y266.5009
G01 X33.7984 Y266.4182
G01 X33.7279 Y266.3413
G01 X33.6511 Y266.2709
G01 X33.5684 Y266.2074
G01 X33.4804 Y266.1514
G01 X33.3880 Y266.1033
G01 X33.2917 Y266.0634
G01 X33.1922 Y266.0320
G01 X33.0905 Y266.0095
G01 X32.9871 Y265.9959
G01 X32.8829 Y265.9913
G01 X32.7788 Y265.9959
G01 X32.6754 Y266.0095
G01 X32.5737 Y266.0320
G01 X32.4742 Y266.0634
G01 X32.3779 Y266.1033
G01 X32.2855 Y266.1514
G01 X32.1975 Y266.2074
G01 X32.1148 Y266.2709
G01 X32.0380 Y266.3413
G01 X31.9675 Y266.4182
G01 X31.9041 Y266.5009
G01 X31.8481 Y266.5888
G01 X31.7999 Y266.6813
G01 X31.7600 Y266.7776
G01 X31.7287 Y266.8770
G01 X31.7061 Y266.9788
G01 X31.6925 Y267.0821
G01 X31.6880 Y267.1863
G01 X31.6892 Y267.2349
G01 X31.6927 Y267.2833
G01 X31.6987 Y267.3316
G01 X31.7070 Y267.3794
G01 X31.7176 Y267.4268
G01 X31.7306 Y267.4737
G01 X31.7458 Y267.5198
G01 X31.7633 Y267.5652
G01 X31.7830 Y267.6096
G01 X31.8049 Y267.6530
G01 X31.8288 Y267.6953
G01 X31.8548 Y267.7363
G01 X31.8828 Y267.7760
G01 X31.9127 Y267.8143
G01 X31.9444 Y267.8511
G01 X31.9779 Y267.8863
G01 X32.0131 Y267.9198
G01 X32.0499 Y267.9516
G01 X32.0882 Y267.9815
G01 X32.1279 Y268.0095
G01 X32.1690 Y268.0354
G01 X32.2113 Y268.0594
G01 X32.2547 Y268.0812
G01 X32.2991 Y268.1009
G01 X32.3444 Y268.1184
G01 X32.3906 Y268.1337
G01 X32.4374 Y268.1466
G01 X32.4848 Y268.1573
G01 X32.5327 Y268.1656
G01 X32.5809 Y268.1715
G01 X32.6294 Y268.1751
G01 X32.6780 Y268.1763
G01 X32.7265 Y268.1751
G01 X32.7750 Y268.1715
G01 X32.8232 Y268.1656
G01 X32.8711 Y268.1573
G01 X32.9185 Y268.1466
G01 X32.9653 Y268.1337
G01 X33.0115 Y268.1184
G01 X33.0568 Y268.1009
G01 X33.1012 Y268.0812
G01 X33.1446 Y268.0594
G01 X33.1869 Y268.0354
G01 X33.2280 Y268.0095
G01 X33.2677 Y267.9815
G01 X33.3060 Y267.9516
G01 X33.3428 Y267.9198
G01 X33.3780 Y267.8863
G01 X33.4115 Y267.8511
G01 X33.4432 Y267.8143
G01 X33.4731 Y267.7760
G01 X33.5011 Y267.7363
G01 X33.5271 Y267.6953
G01 X33.5511 Y267.6530
G01 X33.5729 Y267.6096
G01 X33.5926 Y267.5652
G01 X33.6101 Y267.5198
G01 X33.6253 Y267.4737
G01 X33.6383 Y267.4268
G01 X33.6489 Y267.3794
G01 X33.6572 Y267.3316
G01 X33.6632 Y267.2833
G01 X33.6668 Y267.2349
G01 X33.6680 Y267.1863
M107
M106 S240
G01 X33.6668 Y267.1392 Z-2.2167 F400
G01 X33.6635 Y267.0922 Z-2.2333
G01 X33.6579 Y267.0454 Z-2.2500
G01 X33.6501 Y266.9989 Z-2.2667
G01 X33.6401 Y266.9529 Z-2.2833
G01 X33.6279 Y266.9074 Z-2.3000
G01 X33.6135 Y266.8625 Z-2.3167
G01 X33.5970 Y266.8183 Z-2.3333
G01 X33.5785 Y266.7750 Z-2.3500
G01 X33.5579 Y266.7327 Z-2.3667
G01 X33.5353 Y266.6913 Z-2.3833
G01 X33.5108 Y266.6511 Z-2.4000
G01 X33.4844 Y266.6120 Z-2.4167
G01 X33.4562 Y266.5743 Z-2.4333
G01 X33.4262 Y266.5380 Z-2.4500
G01 X33.3945 Y266.5031 Z-2.4667
G01 X33.3611 Y266.4698 Z-2.4833
G01 X33.3263 Y266.4381 Z-2.5000
G01 X33.2899 Y266.4081 Z-2.5167
G01 X33.2522 Y266.3799 Z-2.5333
G01 X33.2132 Y266.3535 Z-2.5500
G01 X33.1730 Y266.3289 Z-2.5667
G01 X33.1316 Y266.3063 Z-2.5833
G01 X33.0892 Y266.2858 Z-2.6000
G01 X33.0459 Y266.2672 Z-2.6167
G01 X33.0018 Y266.2507 Z-2.6333
G01 X32.9569 Y266.2364 Z-2.6500
G01 X32.9114 Y266.2242 Z-2.6667
G01 X32.8653 Y266.2142 Z-2.6833
G01 X32.8189 Y266.2064 Z-2.7000
G01 X32.7721 Y266.2008 Z-2.7167
G01 X32.7251 Y266.1974 Z-2.7333
G01 X32.6780 Y266.1963 Z-2.7500
G01 X32.6309 Y266.1974 Z-2.7667
G01 X32.5839 Y266.2008 Z-2.7833
G01 X32.5371 Y266.2064 Z-2.8000
G01 X32.4906 Y266.2142 Z-2.8167
G01 X32.4446 Y266.2242 Z-2.8333
G01 X32.3990 Y266.2364 Z-2.8500
G01 X32.3542 Y266.2507 Z-2.8667
G01 X32.3100 Y266.2672 Z-2.8833
G01 X32.2667 Y266.2858 Z-2.9000
G01 X32.2243 Y266.3063 Z-2.9167
G01 X32.1830 Y266.3289 Z-2.9333
G01 X32.1427 Y266.3535 Z-2.9500
G01 X32.1037 Y266.3799 Z-2.9667
G01 X32.0660 Y266.4081 Z-2.9833
G01 X32.0296 Y266.4381 Z-3.0000
G01 X31.9948 Y266.4698 Z-3.0167
G01 X31.9615 Y266.5031 Z-3.0333
G01 X31.9298 Y266.5380 Z-3.0500
G01 X31.8998 Y266.5743 Z-3.0667
G01 X31.8715 Y266.6120 Z-3.0833
G01 X31.8451 Y266.6511 Z-3.1000
G01 X31.8206 Y266.6913 Z-3.1167
G01 X31.7980 Y266.7327 Z-3.1333
G01 X31.7774 Y266.7750 Z-3.1500
G01 X31.7589 Y266.8183 Z-3.1667
G01 X31.7424 Y266.8625 Z-3.1833
G01 X31.7281 Y266.9074 Z-3.2000
G01 X31.7159 Y266.9529 Z-3.2167
G01 X31.7059 Y266.9989 Z-3.2333
G01 X31.6980 Y267.0454 Z-3.2500
G01 X31.6924 Y267.0922 Z-3.2667
G01 X31.6891 Y267.1392 Z-3.2833
G01 X31.6880 Y267.1863 Z-3.3000
G01 X31.6891 Y267.2334 Z-3.3167
G01 X31.6924 Y267.2804 Z-3.3333
G01 X31.6980 Y267.3272 Z-3.3500
G01 X31.7059 Y267.3737 Z-3.3667
G01 X31.7159 Y267.4197 Z-3.3833
G01 X31.7281 Y267.4652 Z-3.4000
G01 X31.7424 Y267.5101 Z-3.4167
G01 X31.7589 Y267.5542 Z-3.4333
G01 X31.7774 Y267.5976 Z-3.4500
G01 X31.7980 Y267.6399 Z-3.4667
G01 X31.8206 Y267.6813 Z-3.4833
G01 X31.8451 Y267.7215 Z-3.5000
G01 X31.8715 Y267.7606 Z-3.5167
G01 X31.8998 Y267.7983 Z-3.5333
G01 X31.9298 Y267.8346 Z-3.5500
G01 X31.9615 Y267.8695 Z-3.5667
G01 X31.9948 Y267.9028 Z-3.5833
G01 X32.0296 Y267.9345 Z-3.6000
G01 X32.0660 Y267.9645 Z-3.6167
G01 X32.1037 Y267.9927 Z-3.6333
G01 X32.1427 Y268.0191 Z-3.6500
G01 X32.1830 Y268.0437 Z-3.6667
G01 X32.2243 Y268.0662 Z-3.6833
G01 X32.2667 Y268.0868 Z-3.7000
G01 X32.3100 Y268.1054 Z-3.7167
G01 X32.3542 Y268.1218 Z-3.7333
G01 X32.3990 Y268.1362 Z-3.7500
G01 X32.4446 Y268.1484 Z-3.7667
G01 X32.4906 Y268.1584 Z-3.7833
G01 X32.5371 Y268.1662 Z-3.8000
G01 X32.5839 Y268.1718 Z-3.8167
G01 X32.6309 Y268.1752 Z-3.8333
G01 X32.6780 Y268.1763 Z-3.8500
G01 X32.7251 Y268.1752 Z-3.8667
G01 X32.7721 Y268.1718 Z-3.8833
G01 X32.8189 Y268.1662 Z-3.9000
G01 X32.8653 Y268.1584 Z-3.9167
G01 X32.9114 Y268.1484 Z-3.9333
G01 X32.9569 Y268.1362 Z-3.9500
G01 X33.0018 Y268.1218 Z-3.9667
G01 X33.0459 Y268.1054 Z-3.9833
G01 X33.0892 Y268.0868 Z-4.0000
G01 X33.1316 Y268.0662 Z-4.0167
G01 X33.1730 Y268.0437 Z-4.0333
G01 X33.2132 Y268.0191 Z-4.0500
G01 X33.2522 Y267.9927 Z-4.0667
G01 X33.2899 Y267.9645 Z-4.0833
G01 X33.3263 Y267.9345 Z-4.1000
G01 X33.3611 Y267.9028 Z-4.1167
G01 X33.3945 Y267.8695 Z-4.1333
G01 X33.4262 Y267.8346 Z-4.1500
G01 X33.4562 Y267.7983 Z-4.1667
G01 X33.4844 Y267.7606 Z-4.1833
G01 X33.5108 Y267.7215 Z-4.2000
G01 X33.5353 Y267.6813 Z-4.2167
G01 X33.5579 Y267.6399 Z-4.2333
G01 X33.5785 Y267.5976 Z-4.2500
G01 X33.5970 Y267.5542 Z-4.2667
G01 X33.6135 Y267.5101 Z-4.2833
G01 X33.6279 Y267.4652 Z-4.3000
G01 X33.6401 Y267.4197 Z-4.3167
G01 X33.6501 Y267.3737 Z-4.3333
G01 X33.6579 Y267.3272 Z-4.3500
G01 X33.6635 Y267.2804 Z-4.3667
G01 X33.6668 Y267.2334 Z-4.3833
G01 X33.6680 Y267.1863 Z-4.4000
G01 X33.6668 Y267.1392
G01 X33.6635 Y267.0922
G01 X33.6579 Y267.0454
G01 X33.6501 Y266.9989
G01 X33.6401 Y266.9529
G01 X33.6279 Y266.9074
G01 X33.6135 Y266.8625
G01 X33.5970 Y266.8183
G01 X33.5785 Y266.7750
G01 X33.5579 Y266.7327
G01 X33.5353 Y266.6913
G01 X33.5108 Y266.6511
G01 X33.4844 Y266.6120
G01 X33.4562 Y266.5743
G01 X33.4262 Y266.5380
G01 X33.3945 Y266.5031
G01 X33.3611 Y266.4698
G01 X33.3263 Y266.4381
G01 X33.2899 Y266.4081
G01 X33.2522 Y266.3799
G01 X33.2132 Y266.3535
G01 X33.1730 Y266.3289
G01 X33.1316 Y266.3063
G01 X33.0892 Y266.2858
G01 X33.0459 Y266.2672
G01 X33.0018 Y266.2507
G01 X32.9569 Y266.2364
G01 X32.9114 Y266.2242
G01 X32.8653 Y266.2142
G01 X32.8189 Y266.2064
G01 X32.7721 Y266.2008
G01 X32.7251 Y266.1974
G01 X32.6780 Y266.1963
G01 X32.6309 Y266.1974
G01 X32.5839 Y266.2008
G01 X32.5371 Y266.2064
G01 X32.4906 Y266.2142
G01 X32.4446 Y266.2242
G01 X32.3990 Y266.2364
G01 X32.3542 Y266.2507
G01 X32.3100 Y266.2672
G01 X32.2667 Y266.2858
G01 X32.2243 Y266.3063
G01 X32.1830 Y266.3289
G01 X32.1427 Y266.3535
G01 X32.1037 Y266.3799
G01 X32.0660 Y266.4081
G01 X32.0296 Y266.4381
G01 X31.9948 Y266.4698
G01 X31.9615 Y266.5031
G01 X31.9298 Y266.5380
G01 X31.8998 Y266.5743
G01 X31.8715 Y266.6120
G01 X31.8451 Y266.6511
G01 X31.8206 Y266.6913
G01 X31.7980 Y266.7327
G01 X31.7774 Y266.7750
G01 X31.7589 Y266.8183
G01 X31.7424 Y266.8625
G01 X31.7281 Y266.9074
G01 X31.7159 Y266.9529
G01 X31.7059 Y266.9989
G01 X31.6980 Y267.0454
G01 X31.6924 Y267.0922
G01 X31.6891 Y267.1392
G01 X31.6880 Y267.1863
G01 X31.6891 Y267.2334
G01 X31.6924 Y267.2804
G01 X31.6980 Y267.3272
G01 X31.7059 Y267.3737
G01 X31.7159 Y267.4197
G01 X31.7281 Y267.4652
G01 X31.7424 Y267.5101
G01 X31.7589 Y267.5542
G01 X31.7774 Y267.5976
G01 X31.7980 Y267.6399
G01 X31.8206 Y267.6813
G01 X31.8451 Y267.7215
G01 X31.8715 Y267.7606
G01 X31.8998 Y267.7983
G01 X31.9298 Y267.8346
G01 X31.9615 Y267.8695
G01 X31.9948 Y267.9028
G01 X32.0296 Y267.9345
G01 X32.0660 Y267.9645
G01 X32.1037 Y267.9927
G01 X32.1427 Y268.0191
G01 X32.1830 Y268.0437
G01 X32.2243 Y268.0662
G01 X32.2667 Y268.0868
G01 X32.3100 Y268.1054
G01 X32.3542 Y268.1218
G01 X32.3990 Y268.1362
G01 X32.4446 Y268.1484
G01 X32.4906 Y268.1584
G01 X32.5371 Y268.1662
G01 X32.5839 Y268.1718
G01 X32.6309 Y268.1752
G01 X32.6780 Y268.1763
G01 X32.7251 Y268.1752
G01 X32.7721 Y268.1718
G01 X32.8189 Y268.1662
G01 X32.8653 Y268.1584
G01 X32.9114 Y268.1484
G01 X32.9569 Y268.1362
G01 X33.0018 Y268.1218
G01 X33.0459 Y268.1054
G01 X33.0892 Y268.0868
G01 X33.1316 Y268.0662
G01 X33.1730 Y268.0437
G01 X33.2132 Y268.0191
G01 X33.2522 Y267.9927
G01 X33.2899 Y267.9645
G01 X33.3263 Y267.9345
G01 X33.3611 Y267.9028
G01 X33.3945 Y267.8695
G01 X33.4262 Y267.8346
G01 X33.4562 Y267.7983
G01 X33.4844 Y267.7606
G01 X33.5108 Y267.7215
G01 X33.5353 Y267.6813
G01 X33.5579 Y267.6399
G01 X33.5785 Y267.5976
G01 X33.5970 Y267.5542
G01 X33.6135 Y267.5101
G01 X33.6279 Y267.4652
G01 X33.6401 Y267.4197
G01 X33.6501 Y267.3737
G01 X33.6579 Y267.3272
G01 X33.6635 Y267.2804
G01 X33.6668 Y267.2334
G01 X33.6680 Y267.1863
G01 X33.6800 Y267.1350 F1000
G01 X33.6893 Y267.0831
G01 X33.6959 Y267.0308
G01 X33.6998 Y266.9782
G01 X33.7009 Y266.9255
G01 X33.6993 Y266.8728
G01 X33.6949 Y266.8202
G01 X33.6879 Y266.7680
G01 X33.6772 Y266.7113
G01 X33.6637 Y266.6553
G01 X33.6472 Y266.6000
G01 X33.6280 Y266.5457
G01 X33.6059 Y266.4924
G01 X33.5812 Y266.4404
G01 X33.5538 Y266.3897
G01 X33.5238 Y266.3404
G01 X33.4886 Y266.2887
G01 X33.4508 Y266.2388
G01 X33.4105 Y266.1910
G01 X33.3677 Y266.1452
G01 X33.3227 Y266.1017
G01 X33.2756 Y266.0606
G01 X33.2263 Y266.0219
G01 X33.1752 Y265.9858
G01 X33.1181 Y265.9501
G01 X33.0592 Y265.9172
G01 X32.9987 Y265.8874
G01 X32.9368 Y265.8607
G01 X32.8736 Y265.8372
G01 X32.8092 Y265.8170
G01 X32.7440 Y265.8000
G01 X32.6780 Y265.7863
G01 X32.6093 Y265.7880
G01 X32.5407 Y265.7931
G01 X32.4725 Y265.8015
G01 X32.4048 Y265.8132
G01 X32.3378 Y265.8283
G01 X32.2716 Y265.8466
G01 X32.2063 Y265.8682
G01 X32.1422 Y265.8929
G01 X32.0794 Y265.9207
G01 X32.0180 Y265.9516
G01 X31.9582 Y265.9855
G01 X31.9002 Y266.0223
G01 X31.8440 Y266.0618
G01 X31.7898 Y266.1041
G01 X31.7378 Y266.1490
G01 X31.6880 Y266.1964
G01 X31.6407 Y266.2461
G01 X31.5958 Y266.2982
G01 X31.5535 Y266.3523
G01 X31.5139 Y266.4085
G01 X31.4772 Y266.4666
G01 X31.4433 Y266.5264
G01 X31.4124 Y266.5877
G01 X31.3846 Y266.6506
G01 X31.3598 Y266.7147
G01 X31.3383 Y266.7799
G01 X31.3199 Y266.8461
G01 X31.3049 Y266.9132
G01 X31.2931 Y266.9809
G01 X31.2847 Y267.0491
G01 X31.2797 Y267.1176
G01 X31.2780 Y267.1863
G01 X31.2797 Y267.2550
G01 X31.2847 Y267.3235
G01 X31.2931 Y267.3917
G01 X31.3049 Y267.4594
G01 X31.3199 Y267.5265
G01 X31.3383 Y267.5927
G01 X31.3598 Y267.6579
G01 X31.3846 Y267.7220
G01 X31.4124 Y267.7849
G01 X31.4433 Y267.8462
G01 X31.4772 Y267.9060
G01 X31.5139 Y267.9641
G01 X31.5535 Y268.0203
G01 X31.5958 Y268.0744
G01 X31.6407 Y268.1265
G01 X31.6880 Y268.1762
G01 X31.7378 Y268.2236
G01 X31.7898 Y268.2685
G01 X31.8440 Y268.3108
G01 X31.9002 Y268.3503
G01 X31.9582 Y268.3871
G01 X32.0180 Y268.4210
G01 X32.0794 Y268.4519
G01 X32.1422 Y268.4797
G01 X32.2063 Y268.5044
G01 X32.2716 Y268.5260
G01 X32.3378 Y268.5443
G01 X32.4048 Y268.5594
G01 X32.4725 Y268.5711
G01 X32.5407 Y268.5795
G01 X32.6093 Y268.5846
G01 X32.6780 Y268.5863
G01 X32.7467 Y268.5846
G01 X32.8152 Y268.5795
G01 X32.8834 Y268.5711
G01 X32.9511 Y268.5594
G01 X33.0181 Y268.5443
G01 X33.0843 Y268.5260
G01 X33.1496 Y268.5044
G01 X33.2137 Y268.4797
G01 X33.2765 Y268.4519
G01 X33.3379 Y268.4210
G01 X33.3977 Y268.3871
G01 X33.4557 Y268.3503
G01 X33.5119 Y268.3108
G01 X33.5661 Y268.2685
G01 X33.6181 Y268.2236
G01 X33.6679 Y268.1762
G01 X33.7153 Y268.1265
G01 X33.7602 Y268.0744
G01 X33.8024 Y268.0203
G01 X33.8420 Y267.9641
G01 X33.8788 Y267.9060
G01 X33.9126 Y267.8462
G01 X33.9435 Y267.7849
G01 X33.9714 Y267.7220
G01 X33.9961 Y267.6579
G01 X34.0176 Y267.5927
G01 X34.0360 Y267.5265
G01 X34.0510 Y267.4594
G01 X34.0628 Y267.3917
G01 X34.0712 Y267.3235
G01 X34.0762 Y267.2550
G01 X34.0779 Y267.1863
G01 X34.0740 Y267.0817
G01 X34.0623 Y266.9776
G01 X34.0428 Y266.8748
G01 X34.0157 Y266.7736
G01 X33.9812 Y266.6748
G01 X33.9393 Y266.5789
G01 X33.8904 Y266.4863
G01 X33.8347 Y266.3977
G01 X33.7725 Y266.3134
G01 X33.7042 Y266.2341
G01 X33.6302 Y266.1600
G01 X33.5508 Y266.0918
G01 X33.4666 Y266.0296
G01 X33.3779 Y265.9739
G01 X33.2854 Y265.9250
G01 X33.1894 Y265.8831
G01 X33.0906 Y265.8485
G01 X32.9895 Y265.8214
G01 X32.8866 Y265.8020
G01 X32.7826 Y265.7902
G01 X32.6780 Y265.7863
G01 X32.5733 Y265.7902
G01 X32.4693 Y265.8020
G01 X32.3664 Y265.8214
G01 X32.2653 Y265.8485
G01 X32.1665 Y265.8831
G01 X32.0705 Y265.9250
G01 X31.9780 Y265.9739
G01 X31.8893 Y266.0296
G01 X31.8051 Y266.0918
G01 X31.7257 Y266.1600
G01 X31.6517 Y266.2341
G01 X31.5834 Y266.3134
G01 X31.5213 Y266.3977
G01 X31.4656 Y266.4863
G01 X31.4166 Y266.5789
G01 X31.3748 Y266.6748
G01 X31.3402 Y266.7736
G01 X31.3131 Y266.8748
G01 X31.2936 Y266.9776
G01 X31.2819 Y267.0817
G01 X31.2780 Y267.1863
G01 X31.2819 Y267.2909
G01 X31.2936 Y267.3949
G01 X31.3131 Y267.4978
G01 X31.3402 Y267.5989
G01 X31.3748 Y267.6978
G01 X31.4166 Y267.7937
G01 X31.4656 Y267.8863
G01 X31.5213 Y267.9749
G01 X31.5834 Y268.0592
G01 X31.6517 Y268.1385
G01 X31.7257 Y268.2125
G01 X31.8051 Y268.2808
G01 X31.8893 Y268.3430
G01 X31.9780 Y268.3987
G01 X32.0705 Y268.4476
G01 X32.1665 Y268.4895
G01 X32.2653 Y268.5241
G01 X32.3664 Y268.5512
G01 X32.4693 Y268.5706
G01 X32.5733 Y268.5823
G01 X32.6780 Y268.5863
G01 X32.7826 Y268.5823
G01 X32.8866 Y268.5706
G01 X32.9895 Y268.5512
G01 X33.0906 Y268.5241
G01 X33.1894 Y268.4895
G01 X33.2854 Y268.4476
G01 X33.3779 Y268.3987
G01 X33.4666 Y268.3430
G01 X33.5508 Y268.2808
G01 X33.6302 Y268.2125
G01 X33.7042 Y268.1385
G01 X33.7725 Y268.0592
G01 X33.8347 Y267.9749
G01 X33.8904 Y267.8863
G01 X33.9393 Y267.7937
G01 X33.9812 Y267.6978
G01 X34.0157 Y267.5989
G01 X34.0428 Y267.4978
G01 X34.0623 Y267.3949
G01 X34.0740 Y267.2909
G01 X34.0779 Y267.1863
G01 X34.0734 Y267.0821
G01 X34.0598 Y266.9788
G01 X34.0372 Y266.8770
G01 X34.0059 Y266.7776
G01 X33.9660 Y266.6813
G01 X33.9178 Y266.5888
G01 X33.8618 Y266.5009
G01 X33.7984 Y266.4182
G01 X33.7279 Y266.3413
G01 X33.6511 Y266.2709
G01 X33.5684 Y266.2074
G01 X33.4804 Y266.1514
G01 X33.3880 Y266.1033
G01 X33.2917 Y266.0634
G01 X33.1922 Y266.0320
G01 X33.0905 Y266.0095
G01 X32.9871 Y265.9959
G01 X32.8829 Y265.9913
G01 X32.7788 Y265.9959
G01 X32.6754 Y266.0095
G01 X32.5737 Y266.0320
G01 X32.4742 Y266.0634
G01 X32.3779 Y266.1033
G01 X32.2855 Y266.1514
G01 X32.1975 Y266.2074
G01 X32.1148 Y266.2709
G01 X32.0380 Y266.3413
G01 X31.9675 Y266.4182
G01 X31.9041 Y266.5009
G01 X31.8481 Y266.5888
G01 X31.7999 Y266.6813
G01 X31.7600 Y266.7776
G01 X31.7287 Y266.8770
G01 X31.7061 Y266.9788
G01 X31.6925 Y267.0821
G01 X31.6880 Y267.1863
G01 X31.6892 Y267.2349
G01 X31.6927 Y267.2833
G01 X31.6987 Y267.3316
G01 X31.7070 Y267.3794
G01 X31.7176 Y267.4268
G01 X31.7306 Y267.4737
G01 X31.7458 Y267.5198
G01 X31.7633 Y267.5652
G01 X31.7830 Y267.6096
G01 X31.8049 Y267.6530
G01 X31.8288 Y267.6953
G01 X31.8548 Y267.7363
G01 X31.8828 Y267.7760
G01 X31.9127 Y267.8143
G01 X31.9444 Y267.8511
G01 X31.9779 Y267.8863
G01 X32.0131 Y267.9198
G01 X32.0499 Y267.9516
G01 X32.0882 Y267.9815
G01 X32.1279 Y268.0095
G01 X32.1690 Y268.0354
G01 X32.2113 Y268.0594
G01 X32.2547 Y268.0812
G01 X32.2991 Y268.1009
G01 X32.3444 Y268.1184
G01 X32.3906 Y268.1337
G01 X32.4374 Y268.1466
G01 X32.4848 Y268.1573
G01 X32.5327 Y268.1656
G01 X32.5809 Y268.1715
G01 X32.6294 Y268.1751
G01 X32.6780 Y268.1763
G01 X32.7265 Y268.1751
G01 X32.7750 Y268.1715
G01 X32.8232 Y268.1656
G01 X32.8711 Y268.1573
G01 X32.9185 Y268.1466
G01 X32.9653 Y268.1337
G01 X33.0115 Y268.1184
G01 X33.0568 Y268.1009
G01 X33.1012 Y268.0812
G01 X33.1446 Y268.0594
G01 X33.1869 Y268.0354
G01 X33.2280 Y268.0095
G01 X33.2677 Y267.9815
G01 X33.3060 Y267.9516
G01 X33.3428 Y267.9198
G01 X33.3780 Y267.8863
G01 X33.4115 Y267.8511
G01 X33.4432 Y267.8143
G01 X33.4731 Y267.7760
G01 X33.5011 Y267.7363
G01 X33.5271 Y267.6953
G01 X33.5511 Y267.6530
G01 X33.5729 Y267.6096
G01 X33.5926 Y267.5652
G01 X33.6101 Y267.5198
G01 X33.6253 Y267.4737
G01 X33.6383 Y267.4268
G01 X33.6489 Y267.3794
G01 X33.6572 Y267.3316
G01 X33.6632 Y267.2833
G01 X33.6668 Y267.2349
G01 X33.6680 Y267.1863
M107
M106 S240
G01 X33.6668 Y267.1392 Z-4.4167 F400
G01 X33.6635 Y267.0922 Z-4.4333
G01 X33.6579 Y267.0454 Z-4.4500
G01 X33.6501 Y266.9989 Z-4.4667
G01 X33.6401 Y266.9529 Z-4.4833
G01 X33.6279 Y266.9074 Z-4.5000
G01 X33.6135 Y266.8625 Z-4.5167
G01 X33.5970 Y266.8183 Z-4.5333
G01 X33.5785 Y266.7750 Z-4.5500
G01 X33.5579 Y266.7327 Z-4.5667
G01 X33.5353 Y266.6913 Z-4.5833
G01 X33.5108 Y266.6511 Z-4.6000
G01 X33.4844 Y266.6120 Z-4.6167
G01 X33.4562 Y266.5743 Z-4.6333
G01 X33.4262 Y266.5380 Z-4.6500
G01 X33.3945 Y266.5031 Z-4.6667
G01 X33.3611 Y266.4698 Z-4.6833
G01 X33.3263 Y266.4381 Z-4.7000
G01 X33.2899 Y266.4081 Z-4.7167
G01 X33.2522 Y266.3799 Z-4.7333
G01 X33.2132 Y266.3535 Z-4.7500
G01 X33.1730 Y266.3289 Z-4.7667
G01 X33.1316 Y266.3063 Z-4.7833
G01 X33.0892 Y266.2858 Z-4.8000
G01 X33.0459 Y266.2672 Z-4.8167
G01 X33.0018 Y266.2507 Z-4.8333
G01 X32.9569 Y266.2364 Z-4.8500
G01 X32.9114 Y266.2242 Z-4.8667
G01 X32.8653 Y266.2142 Z-4.8833
G01 X32.8189 Y266.2064 Z-4.9000
G01 X32.7721 Y266.2008 Z-4.9167
G01 X32.7251 Y266.1974 Z-4.9333
G01 X32.6780 Y266.1963 Z-4.9500
G01 X32.6309 Y266.1974 Z-4.9667
G01 X32.5839 Y266.2008 Z-4.9833
G01 X32.5371 Y266.2064 Z-5.0000
G01 X32.4906 Y266.2142 Z-5.0167
G01 X32.4446 Y266.2242 Z-5.0333
G01 X32.3990 Y266.2364 Z-5.0500
G01 X32.3542 Y266.2507 Z-5.0667
G01 X32.3100 Y266.2672 Z-5.0833
G01 X32.2667 Y266.2858 Z-5.1000
G01 X32.2243 Y266.3063 Z-5.1167
G01 X32.1830 Y266.3289 Z-5.1333
G01 X32.1427 Y266.3535 Z-5.1500
G01 X32.1037 Y266.3799 Z-5.1667
G01 X32.0660 Y266.4081 Z-5.1833
G01 X32.0296 Y266.4381 Z-5.2000
G01 X31.9948 Y266.4698 Z-5.2167
G01 X31.9615 Y266.5031 Z-5.2333
G01 X31.9298 Y266.5380 Z-5.2500
G01 X31.8998 Y266.5743 Z-5.2667
G01 X31.8715 Y266.6120 Z-5.2833
G01 X31.8451 Y266.6511 Z-5.3000
G01 X31.8206 Y266.6913 Z-5.3167
G01 X31.7980 Y266.7327 Z-5.3333
G01 X31.7774 Y266.7750 Z-5.3500
G01 X31.7589 Y266.8183 Z-5.3667
G01 X31.7424 Y266.8625 Z-5.3833
G01 X31.7281 Y266.9074 Z-5.4000
G01 X31.7159 Y266.9529 Z-5.4167
G01 X31.7059 Y266.9989 Z-5.4333
G01 X31.6980 Y267.0454 Z-5.4500
G01 X31.6924 Y267.0922 Z-5.4667
G01 X31.6891 Y267.1392 Z-5.4833
G01 X31.6880 Y267.1863 Z-5.5000
G01 X31.6891 Y267.2334 Z-5.5167
G01 X31.6924 Y267.2804 Z-5.5333
G01 X31.6980 Y267.3272 Z-5.5500
G01 X31.7059 Y267.3737 Z-5.5667
G01 X31.7159 Y267.4197 Z-5.5833
G01 X31.7281 Y267.4652 Z-5.6000
G01 X31.7424 Y267.5101 Z-5.6167
G01 X31.7589 Y267.5542 Z-5.6333
G01 X31.7774 Y267.5976 Z-5.6500
G01 X31.7980 Y267.6399 Z-5.6667
G01 X31.8206 Y267.6813 Z-5.6833
G01 X31.8451 Y267.7215 Z-5.7000
G01 X31.8715 Y267.7606 Z-5.7167
G01 X31.8998 Y267.7983 Z-5.7333
G01 X31.9298 Y267.8346 Z-5.7500
G01 X31.9615 Y267.8695 Z-5.7667
G01 X31.9948 Y267.9028 Z-5.7833
G01 X32.0296 Y267.9345 Z-5.8000
G01 X32.0660 Y267.9645 Z-5.8167
G01 X32.1037 Y267.9927 Z-5.8333
G01 X32.1427 Y268.0191 Z-5.8500
G01 X32.1830 Y268.0437 Z-5.8667
G01 X32.2243 Y268.0662 Z-5.8833
G01 X32.2667 Y268.0868 Z-5.9000
G01 X32.3100 Y268.1054 Z-5.9167
G01 X32.3542 Y268.1218 Z-5.9333
G01 X32.3990 Y268.1362 Z-5.9500
G01 X32.4446 Y268.1484 Z-5.9667
G01 X32.4906 Y268.1584 Z-5.9833
G01 X32.5371 Y268.1662 Z-6.0000
G01 X32.5839 Y268.1718 Z-6.0167
G01 X32.6309 Y268.1752 Z-6.0333
G01 X32.6780 Y268.1763 Z-6.0500
G01 X32.7251 Y268.1752 Z-6.0667
G01 X32.7721 Y268.1718 Z-6.0833
G01 X32.8189 Y268.1662 Z-6.1000
G01 X32.8653 Y268.1584 Z-6.1167
G01 X32.9114 Y268.1484 Z-6.1333
G01 X32.9569 Y268.1362 Z-6.1500
G01 X33.0018 Y268.1218 Z-6.1667
G01 X33.0459 Y268.1054 Z-6.1833
G01 X33.0892 Y268.0868 Z-6.2000
G01 X33.1316 Y268.0662 Z-6.2167
G01 X33.1730 Y268.0437 Z-6.2333
G01 X33.2132 Y268.0191 Z-6.2500
G01 X33.2522 Y267.9927 Z-6.2667
G01 X33.2899 Y267.9645 Z-6.2833
G01 X33.3263 Y267.9345 Z-6.3000
G01 X33.3611 Y267.9028 Z-6.3167
G01 X33.3945 Y267.8695 Z-6.3333
G01 X33.4262 Y267.8346 Z-6.3500
G01 X33.4562 Y267.7983 Z-6.3667
G01 X33.4844 Y267.7606 Z-6.3833
G01 X33.5108 Y267.7215 Z-6.4000
G01 X33.5353 Y267.6813 Z-6.4167
G01 X33.5579 Y267.6399 Z-6.4333
G01 X33.5785 Y267.5976 Z-6.4500
G01 X33.5970 Y267.5542 Z-6.4667
G01 X33.6135 Y267.5101 Z-6.4833
G01 X33.6279 Y267.4652 Z-6.5000
G01 X33.6401 Y267.4197 Z-6.5167
G01 X33.6501 Y267.3737 Z-6.5333
G01 X33.6579 Y267.3272 Z-6.5500
G01 X33.6635 Y267.2804 Z-6.5667
G01 X33.6668 Y267.2334 Z-6.5833
G01 X33.6680 Y267.1863 Z-6.6000
G01 X33.6668 Y267.1392
G01 X33.6635 Y267.0922
G01 X33.6579 Y267.0454
G01 X33.6501 Y266.9989
G01 X33.6401 Y266.9529
G01 X33.6279 Y266.9074
G01 X33.6135 Y266.8625
G01 X33.5970 Y266.8183
G01 X33.5785 Y266.7750
G01 X33.5579 Y266.7327
G01 X33.5353 Y266.6913
G01 X33.5108 Y266.6511
G01 X33.4844 Y266.6120
G01 X33.4562 Y266.5743
G01 X33.4262 Y266.5380
G01 X33.3945 Y266.5031
G01 X33.3611 Y266.4698
G01 X33.3263 Y266.4381
G01 X33.2899 Y266.4081
G01 X33.2522 Y266.3799
G01 X33.2132 Y266.3535
G01 X33.1730 Y266.3289
G01 X33.1316 Y266.3063
G01 X33.0892 Y266.2858
G01 X33.0459 Y266.2672
G01 X33.0018 Y266.2507
G01 X32.9569 Y266.2364
G01 X32.9114 Y266.2242
G01 X32.8653 Y266.2142
G01 X32.8189 Y266.2064
G01 X32.7721 Y266.2008
G01 X32.7251 Y266.1974
G01 X32.6780 Y266.1963
G01 X32.6309 Y266.1974
G01 X32.5839 Y266.2008
G01 X32.5371 Y266.2064
G01 X32.4906 Y266.2142
G01 X32.4446 Y266.2242
G01 X32.3990 Y266.2364
G01 X32.3542 Y266.2507
G01 X32.3100 Y266.2672
G01 X32.2667 Y266.2858
G01 X32.2243 Y266.3063
G01 X32.1830 Y266.3289
G01 X32.1427 Y266.3535
G01 X32.1037 Y266.3799
G01 X32.0660 Y266.4081
G01 X32.0296 Y266.4381
G01 X31.9948 Y266.4698
G01 X31.9615 Y266.5031
G01 X31.9298 Y266.5380
G01 X31.8998 Y266.5743
G01 X31.8715 Y266.6120
G01 X31.8451 Y266.6511
G01 X31.8206 Y266.6913
G01 X31.7980 Y266.7327
G01 X31.7774 Y266.7750
G01 X31.7589 Y266.8183
G01 X31.7424 Y266.8625
G01 X31.7281 Y266.9074
G01 X31.7159 Y266.9529
G01 X31.7059 Y266.9989
G01 X31.6980 Y267.0454
G01 X31.6924 Y267.0922
G01 X31.6891 Y267.1392
G01 X31.6880 Y267.1863
G01 X31.6891 Y267.2334
G01 X31.6924 Y267.2804
G01 X31.6980 Y267.3272
G01 X31.7059 Y267.3737
G01 X31.7159 Y267.4197
G01 X31.7281 Y267.4652
G01 X31.7424 Y267.5101
G01 X31.7589 Y267.5542
G01 X31.7774 Y267.5976
G01 X31.7980 Y267.6399
G01 X31.8206 Y267.6813
G01 X31.8451 Y267.7215
G01 X31.8715 Y267.7606
G01 X31.8998 Y267.7983
G01 X31.9298 Y267.8346
G01 X31.9615 Y267.8695
G01 X31.9948 Y267.9028
G01 X32.0296 Y267.9345
G01 X32.0660 Y267.9645
G01 X32.1037 Y267.9927
G01 X32.1427 Y268.0191
G01 X32.1830 Y268.0437
G01 X32.2243 Y268.0662
G01 X32.2667 Y268.0868
G01 X32.3100 Y268.1054
G01 X32.3542 Y268.1218
G01 X32.3990 Y268.1362
G01 X32.4446 Y268.1484
G01 X32.4906 Y268.1584
G01 X32.5371 Y268.1662
G01 X32.5839 Y268.1718
G01 X32.6309 Y268.1752
G01 X32.6780 Y268.1763
G01 X32.7251 Y268.1752
G01 X32.7721 Y268.1718
G01 X32.8189 Y268.1662
G01 X32.8653 Y268.1584
G01 X32.9114 Y268.1484
G01 X32.9569 Y268.1362
G01 X33.0018 Y268.1218
G01 X33.0459 Y268.1054
G01 X33.0892 Y268.0868
G01 X33.1316 Y268.0662
G01 X33.1730 Y268.0437
G01 X33.2132 Y268.0191
G01 X33.2522 Y267.9927
G01 X33.2899 Y267.9645
G01 X33.3263 Y267.9345
G01 X33.3611 Y267.9028
G01 X33.3945 Y267.8695
G01 X33.4262 Y267.8346
G01 X33.4562 Y267.7983
G01 X33.4844 Y267.7606
G01 X33.5108 Y267.7215
G01 X33.5353 Y267.6813
G01 X33.5579 Y267.6399
G01 X33.5785 Y267.5976
G01 X33.5970 Y267.5542
G01 X33.6135 Y267.5101
G01 X33.6279 Y267.4652
G01 X33.6401 Y267.4197
G01 X33.6501 Y267.3737
G01 X33.6579 Y267.3272
G01 X33.6635 Y267.2804
G01 X33.6668 Y267.2334
G01 X33.6680 Y267.1863
G01 X33.6800 Y267.1350 F1000
G01 X33.6893 Y267.0831
G01 X33.6959 Y267.0308
G01 X33.6998 Y266.9782
G01 X33.7009 Y266.9255
G01 X33.6993 Y266.8728
G01 X33.6949 Y266.8202
G01 X33.6879 Y266.7680
G01 X33.6772 Y266.7113
G01 X33.6637 Y266.6553
G01 X33.6472 Y266.6000
G01 X33.6280 Y266.5457
G01 X33.6059 Y266.4924
G01 X33.5812 Y266.4404
G01 X33.5538 Y266.3897
G01 X33.5238 Y266.3404
G01 X33.4886 Y266.2887
G01 X33.4508 Y266.2388
G01 X33.4105 Y266.1910
G01 X33.3677 Y266.1452
G01 X33.3227 Y266.1017
G01 X33.2756 Y266.0606
G01 X33.2263 Y266.0219
G01 X33.1752 Y265.9858
G01 X33.1181 Y265.9501
G01 X33.0592 Y265.9172
G01 X32.9987 Y265.8874
G01 X32.9368 Y265.8607
G01 X32.8736 Y265.8372
G01 X32.8092 Y265.8170
G01 X32.7440 Y265.8000
G01 X32.6780 Y265.7863
G01 X32.6093 Y265.7880
G01 X32.5407 Y265.7931
G01 X32.4725 Y265.8015
G01 X32.4048 Y265.8132
G01 X32.3378 Y265.8283
G01 X32.2716 Y265.8466
G01 X32.2063 Y265.8682
G01 X32.1422 Y265.8929
G01 X32.0794 Y265.9207
G01 X32.0180 Y265.9516
G01 X31.9582 Y265.9855
G01 X31.9002 Y266.0223
G01 X31.8440 Y266.0618
G01 X31.7898 Y266.1041
G01 X31.7378 Y266.1490
G01 X31.6880 Y266.1964
G01 X31.6407 Y266.2461
G01 X31.5958 Y266.2982
G01 X31.5535 Y266.3523
G01 X31.5139 Y266.4085
G01 X31.4772 Y266.4666
G01 X31.4433 Y266.5264
G01 X31.4124 Y266.5877
G01 X31.3846 Y266.6506
G01 X31.3598 Y266.7147
G01 X31.3383 Y266.7799
G01 X31.3199 Y266.8461
G01 X31.3049 Y266.9132
G01 X31.2931 Y266.9809
G01 X31.2847 Y267.0491
G01 X31.2797 Y267.1176
G01 X31.2780 Y267.1863
G01 X31.2797 Y267.2550
G01 X31.2847 Y267.3235
G01 X31.2931 Y267.3917
G01 X31.3049 Y267.4594
G01 X31.3199 Y267.5265
G01 X31.3383 Y267.5927
G01 X31.3598 Y267.6579
G01 X31.3846 Y267.7220
G01 X31.4124 Y267.7849
G01 X31.4433 Y267.8462
G01 X31.4772 Y267.9060
G01 X31.5139 Y267.9641
G01 X31.5535 Y268.0203
G01 X31.5958 Y268.0744
G01 X31.6407 Y268.1265
G01 X31.6880 Y268.1762
G01 X31.7378 Y268.2236
G01 X31.7898 Y268.2685
G01 X31.8440 Y268.3108
G01 X31.9002 Y268.3503
G01 X31.9582 Y268.3871
G01 X32.0180 Y268.4210
G01 X32.0794 Y268.4519
G01 X32.1422 Y268.4797
G01 X32.2063 Y268.5044
G01 X32.2716 Y268.5260
G01 X32.3378 Y268.5443
G01 X32.4048 Y268.5594
G01 X32.4725 Y268.5711
G01 X32.5407 Y268.5795
G01 X32.6093 Y268.5846
G01 X32.6780 Y268.5863
G01 X32.7467 Y268.5846
G01 X32.8152 Y268.5795
G01 X32.8834 Y268.5711
G01 X32.9511 Y268.5594
G01 X33.0181 Y268.5443
G01 X33.0843 Y268.5260
G01 X33.1496 Y268.5044
G01 X33.2137 Y268.4797
G01 X33.2765 Y268.4519
G01 X33.3379 Y268.4210
G01 X33.3977 Y268.3871
G01 X33.4557 Y268.3503
G01 X33.5119 Y268.3108
G01 X33.5661 Y268.2685
G01 X33.6181 Y268.2236
G01 X33.6679 Y268.1762
G01 X33.7153 Y268.1265
G01 X33.7602 Y268.0744
G01 X33.8024 Y268.0203
G01 X33.8420 Y267.9641
G01 X33.8788 Y267.9060
G01 X33.9126 Y267.8462
G01 X33.9435 Y267.7849
G01 X33.9714 Y267.7220
G01 X33.9961 Y267.6579
G01 X34.0176 Y267.5927
G01 X34.0360 Y267.5265
G01 X34.0510 Y267.4594
G01 X34.0628 Y267.3917
G01 X34.0712 Y267.3235
G01 X34.0762 Y267.2550
G01 X34.0779 Y267.1863
G01 X34.0740 Y267.0817
G01 X34.0623 Y266.9776
G01 X34.0428 Y266.8748
G01 X34.0157 Y266.7736
G01 X33.9812 Y266.6748
G01 X33.9393 Y266.5789
G01 X33.8904 Y266.4863
G01 X33.8347 Y266.3977
G01 X33.7725 Y266.3134
G01 X33.7042 Y266.2341
G01 X33.6302 Y266.1600
G01 X33.5508 Y266.0918
G01 X33.4666 Y266.0296
G01 X33.3779 Y265.9739
G01 X33.2854 Y265.9250
G01 X33.1894 Y265.8831
G01 X33.0906 Y265.8485
G01 X32.9895 Y265.8214
G01 X32.8866 Y265.8020
G01 X32.7826 Y265.7902
G01 X32.6780 Y265.7863
G01 X32.5733 Y265.7902
G01 X32.4693 Y265.8020
G01 X32.3664 Y265.8214
G01 X32.2653 Y265.8485
G01 X32.1665 Y265.8831
G01 X32.0705 Y265.9250
G01 X31.9780 Y265.9739
G01 X31.8893 Y266.0296
G01 X31.8051 Y266.0918
G01 X31.7257 Y266.1600
G01 X31.6517 Y266.2341
G01 X31.5834 Y266.3134
G01 X31.5213 Y266.3977
G01 X31.4656 Y266.4863
G01 X31.4166 Y266.5789
G01 X31.3748 Y266.6748
G01 X31.3402 Y266.7736
G01 X31.3131 Y266.8748
G01 X31.2936 Y266.9776
G01 X31.2819 Y267.0817
G01 X31.2780 Y267.1863
G01 X31.2819 Y267.2909
G01 X31.2936 Y267.3949
G01 X31.3131 Y267.4978
G01 X31.3402 Y267.5989
G01 X31.3748 Y267.6978
G01 X31.4166 Y267.7937
G01 X31.4656 Y267.8863
G01 X31.5213 Y267.9749
G01 X31.5834 Y268.0592
G01 X31.6517 Y268.1385
G01 X31.7257 Y268.2125
G01 X31.8051 Y268.2808
G01 X31.8893 Y268.3430
G01 X31.9780 Y268.3987
G01 X32.0705 Y268.4476
G01 X32.1665 Y268.4895
G01 X32.2653 Y268.5241
G01 X32.3664 Y268.5512
G01 X32.4693 Y268.5706
G01 X32.5733 Y268.5823
G01 X32.6780 Y268.5863
G01 X32.7826 Y268.5823
G01 X32.8866 Y268.5706
G01 X32.9895 Y268.5512
G01 X33.0906 Y268.5241
G01 X33.1894 Y268.4895
G01 X33.2854 Y268.4476
G01 X33.3779 Y268.3987
G01 X33.4666 Y268.3430
G01 X33.5508 Y268.2808
G01 X33.6302 Y268.2125
G01 X33.7042 Y268.1385
G01 X33.7725 Y268.0592
G01 X33.8347 Y267.9749
G01 X33.8904 Y267.8863
G01 X33.9393 Y267.7937
G01 X33.9812 Y267.6978
G01 X34.0157 Y267.5989
G01 X34.0428 Y267.4978
G01 X34.0623 Y267.3949
G01 X34.0740 Y267.2909
G01 X34.0779 Y267.1863
G01 X34.0734 Y267.0821
G01 X34.0598 Y266.9788
G01 X34.0372 Y266.8770
G01 X34.0059 Y266.7776
G01 X33.9660 Y266.6813
G01 X33.9178 Y266.5888
G01 X33.8618 Y266.5009
G01 X33.7984 Y266.4182
G01 X33.7279 Y266.3413
G01 X33.6511 Y266.2709
G01 X33.5684 Y266.2074
G01 X33.4804 Y266.1514
G01 X33.3880 Y266.1033
G01 X33.2917 Y266.0634
G01 X33.1922 Y266.0320
G01 X33.0905 Y266.0095
G01 X32.9871 Y265.9959
G01 X32.8829 Y265.9913
G01 X32.7788 Y265.9959
G01 X32.6754 Y266.0095
G01 X32.5737 Y266.0320
G01 X32.4742 Y266.0634
G01 X32.3779 Y266.1033
G01 X32.2855 Y266.1514
G01 X32.1975 Y266.2074
G01 X32.1148 Y266.2709
G01 X32.0380 Y266.3413
G01 X31.9675 Y266.4182
G01 X31.9041 Y266.5009
G01 X31.8481 Y266.5888
G01 X31.7999 Y266.6813
G01 X31.7600 Y266.7776
G01 X31.7287 Y266.8770
G01 X31.7061 Y266.9788
G01 X31.6925 Y267.0821
G01 X31.6880 Y267.1863
G01 X31.6892 Y267.2349
G01 X31.6927 Y267.2833
G01 X31.6987 Y267.3316
G01 X31.7070 Y267.3794
G01 X31.7176 Y267.4268
G01 X31.7306 Y267.4737
G01 X31.7458 Y267.5198
G01 X31.7633 Y267.5652
G01 X31.7830 Y267.6096
G01 X31.8049 Y267.6530
G01 X31.8288 Y267.6953
G01 X31.8548 Y267.7363
G01 X31.8828 Y267.7760
G01 X31.9127 Y267.8143
G01 X31.9444 Y267.8511
G01 X31.9779 Y267.8863
G01 X32.0131 Y267.9198
G01 X32.0499 Y267.9516
G01 X32.0882 Y267.9815
G01 X32.1279 Y268.0095
G01 X32.1690 Y268.0354
G01 X32.2113 Y268.0594
G01 X32.2547 Y268.0812
G01 X32.2991 Y268.1009
G01 X32.3444 Y268.1184
G01 X32.3906 Y268.1337
G01 X32.4374 Y268.1466
G01 X32.4848 Y268.1573
G01 X32.5327 Y268.1656
G01 X32.5809 Y268.1715
G01 X32.6294 Y268.1751
G01 X32.6780 Y268.1763
G01 X32.7265 Y268.1751
G01 X32.7750 Y268.1715
G01 X32.8232 Y268.1656
G01 X32.8711 Y268.1573
G01 X32.9185 Y268.1466
G01 X32.9653 Y268.1337
G01 X33.0115 Y268.1184
G01 X33.0568 Y268.1009
G01 X33.1012 Y268.0812
G01 X33.1446 Y268.0594
G01 X33.1869 Y268.0354
G01 X33.2280 Y268.0095
G01 X33.2677 Y267.9815
G01 X33.3060 Y267.9516
G01 X33.3428 Y267.9198
G01 X33.3780 Y267.8863
G01 X33.4115 Y267.8511
G01 X33.4432 Y267.8143
G01 X33.4731 Y267.7760
G01 X33.5011 Y267.7363
G01 X33.5271 Y267.6953
G01 X33.5511 Y267.6530
G01 X33.5729 Y267.6096
G01 X33.5926 Y267.5652
G01 X33.6101 Y267.5198
G01 X33.6253 Y267.4737
G01 X33.6383 Y267.4268
G01 X33.6489 Y267.3794
G01 X33.6572 Y267.3316
G01 X33.6632 Y267.2833
G01 X33.6668 Y267.2349
G01 X33.6680 Y267.1863
M107
M106 S240
G01 X33.6668 Y267.1392 Z-6.6106 F400
G01 X33.6635 Y267.0922 Z-6.6212
G01 X33.6579 Y267.0454 Z-6.6318
G01 X33.6501 Y266.9989 Z-6.6424
G01 X33.6401 Y266.9529 Z-6.6530
G01 X33.6279 Y266.9074 Z-6.6636
G01 X33.6135 Y266.8625 Z-6.6742
G01 X33.5970 Y266.8183 Z-6.6848
G01 X33.5785 Y266.7750 Z-6.6955
G01 X33.5579 Y266.7327 Z-6.7061
G01 X33.5353 Y266.6913 Z-6.7167
G01 X33.5108 Y266.6511 Z-6.7273
G01 X33.4844 Y266.6120 Z-6.7379
G01 X33.4562 Y266.5743 Z-6.7485
G01 X33.4262 Y266.5380 Z-6.7591
G01 X33.3945 Y266.5031 Z-6.7697
G01 X33.3611 Y266.4698 Z-6.7803
G01 X33.3263 Y266.4381 Z-6.7909
G01 X33.2899 Y266.4081 Z-6.8015
G01 X33.2522 Y266.3799 Z-6.8121
G01 X33.2132 Y266.3535 Z-6.8227
G01 X33.1730 Y266.3289 Z-6.8333
G01 X33.1316 Y266.3063 Z-6.8439
G01 X33.0892 Y266.2858 Z-6.8545
G01 X33.0459 Y266.2672 Z-6.8652
G01 X33.0018 Y266.2507 Z-6.8758
G01 X32.9569 Y266.2364 Z-6.8864
G01 X32.9114 Y266.2242 Z-6.8970
G01 X32.8653 Y266.2142 Z-6.9076
G01 X32.8189 Y266.2064 Z-6.9182
G01 X32.7721 Y266.2008 Z-6.9288
G01 X32.7251 Y266.1974 Z-6.9394
G01 X32.6780 Y266.1963 Z-6.9500
G01 X32.6309 Y266.1974 Z-6.9606
G01 X32.5839 Y266.2008 Z-6.9712
G01 X32.5371 Y266.2064 Z-6.9818
G01 X32.4906 Y266.2142 Z-6.9924
G01 X32.4446 Y266.2242 Z-7.0030
G01 X32.3990 Y266.2364 Z-7.0136
G01 X32.3542 Y266.2507 Z-7.0242
G01 X32.3100 Y266.2672 Z-7.0348
G01 X32.2667 Y266.2858 Z-7.0455
G01 X32.2243 Y266.3063 Z-7.0561
G01 X32.1830 Y266.3289 Z-7.0667
G01 X32.1427 Y266.3535 Z-7.0773
G01 X32.1037 Y266.3799 Z-7.0879
G01 X32.0660 Y266.4081 Z-7.0985
G01 X32.0296 Y266.4381 Z-7.1091
G01 X31.9948 Y266.4698 Z-7.1197
G01 X31.9615 Y266.5031 Z-7.1303
G01 X31.9298 Y266.5380 Z-7.1409
G01 X31.8998 Y266.5743 Z-7.1515
G01 X31.8715 Y266.6120 Z-7.1621
G01 X31.8451 Y266.6511 Z-7.1727
G01 X31.8206 Y266.6913 Z-7.1833
G01 X31.7980 Y266.7327 Z-7.1939
G01 X31.7774 Y266.7750 Z-7.2045
G01 X31.7589 Y266.8183 Z-7.2152
G01 X31.7424 Y266.8625 Z-7.2258
G01 X31.7281 Y266.9074 Z-7.2364
G01 X31.7159 Y266.9529 Z-7.2470
G01 X31.7059 Y266.9989 Z-7.2576
G01 X31.6980 Y267.0454 Z-7.2682
G01 X31.6924 Y267.0922 Z-7.2788
G01 X31.6891 Y267.1392 Z-7.2894
G01 X31.6880 Y267.1863 Z-7.3000
G01 X31.6891 Y267.2334 Z-7.3106
G01 X31.6924 Y267.2804 Z-7.3212
G01 X31.6980 Y267.3272 Z-7.3318
G01 X31.7059 Y267.3737 Z-7.3424
G01 X31.7159 Y267.4197 Z-7.3530
G01 X31.7281 Y267.4652 Z-7.3636
G01 X31.7424 Y267.5101 Z-7.3742
G01 X31.7589 Y267.5542 Z-7.3848
G01 X31.7774 Y267.5976 Z-7.3955
G01 X31.7980 Y267.6399 Z-7.4061
G01 X31.8206 Y267.6813 Z-7.4167
G01 X31.8451 Y267.7215 Z-7.4273
G01 X31.8715 Y267.7606 Z-7.4379
G01 X31.8998 Y267.7983 Z-7.4485
G01 X31.9298 Y267.8346 Z-7.4591
G01 X31.9615 Y267.8695 Z-7.4697
G01 X31.9948 Y267.9028 Z-7.4803
G01 X32.0296 Y267.9345 Z-7.4909
G01 X32.0660 Y267.9645 Z-7.5015
G01 X32.1037 Y267.9927 Z-7.5121
G01 X32.1427 Y268.0191 Z-7.5227
G01 X32.1830 Y268.0437 Z-7.5333
G01 X32.2243 Y268.0662 Z-7.5439
G01 X32.2667 Y268.0868 Z-7.5545
G01 X32.3100 Y268.1054 Z-7.5652
G01 X32.3542 Y268.1218 Z-7.5758
G01 X32.3990 Y268.1362 Z-7.5864
G01 X32.4446 Y268.1484 Z-7.5970
G01 X32.4906 Y268.1584 Z-7.6076
G01 X32.5371 Y268.1662 Z-7.6182
G01 X32.5839 Y268.1718 Z-7.6288
G01 X32.6309 Y268.1752 Z-7.6394
G01 X32.6780 Y268.1763 Z-7.6500
G01 X32.7251 Y268.1752 Z-7.6606
G01 X32.7721 Y268.1718 Z-7.6712
G01 X32.8189 Y268.1662 Z-7.6818
G01 X32.8653 Y268.1584 Z-7.6924
G01 X32.9114 Y268.1484 Z-7.7030
G01 X32.9569 Y268.1362 Z-7.7136
G01 X33.0018 Y268.1218 Z-7.7242
G01 X33.0459 Y268.1054 Z-7.7348
G01 X33.0892 Y268.0868 Z-7.7455
G01 X33.1316 Y268.0662 Z-7.7561
G01 X33.1730 Y268.0437 Z-7.7667
G01 X33.2132 Y268.0191 Z-7.7773
G01 X33.2522 Y267.9927 Z-7.7879
G01 X33.2899 Y267.9645 Z-7.7985
G01 X33.3263 Y267.9345 Z-7.8091
G01 X33.3611 Y267.9028 Z-7.8197
G01 X33.3945 Y267.8695 Z-7.8303
G01 X33.4262 Y267.8346 Z-7.8409
G01 X33.4562 Y267.7983 Z-7.8515
G01 X33.4844 Y267.7606 Z-7.8621
G01 X33.5108 Y267.7215 Z-7.8727
G01 X33.5353 Y267.6813 Z-7.8833
G01 X33.5579 Y267.6399 Z-7.8939
G01 X33.5785 Y267.5976 Z-7.9045
G01 X33.5970 Y267.5542 Z-7.9152
G01 X33.6135 Y267.5101 Z-7.9258
G01 X33.6279 Y267.4652 Z-7.9364
G01 X33.6401 Y267.4197 Z-7.9470
G01 X33.6501 Y267.3737 Z-7.9576
G01 X33.6579 Y267.3272 Z-7.9682
G01 X33.6635 Y267.2804 Z-7.9788
G01 X33.6668 Y267.2334 Z-7.9894
G01 X33.6680 Y267.1863 Z-8.0000
G01 X33.6668 Y267.1392
G01 X33.6635 Y267.0922
G01 X33.6579 Y267.0454
G01 X33.6501 Y266.9989
G01 X33.6401 Y266.9529
G01 X33.6279 Y266.9074
G01 X33.6135 Y266.8625
G01 X33.5970 Y266.8183
G01 X33.5785 Y266.7750
G01 X33.5579 Y266.7327
G01 X33.5353 Y266.6913
G01 X33.5108 Y266.6511
G01 X33.4844 Y266.6120
G01 X33.4562 Y266.5743
G01 X33.4262 Y266.5380
G01 X33.3945 Y266.5031
G01 X33.3611 Y266.4698
G01 X33.3263 Y266.4381
G01 X33.2899 Y266.4081
G01 X33.2522 Y266.3799
G01 X33.2132 Y266.3535
G01 X33.1730 Y266.3289
G01 X33.1316 Y266.3063
G01 X33.0892 Y266.2858
G01 X33.0459 Y266.2672
G01 X33.0018 Y266.2507
G01 X32.9569 Y266.2364
G01 X32.9114 Y266.2242
G01 X32.8653 Y266.2142
G01 X32.8189 Y266.2064
G01 X32.7721 Y266.2008
G01 X32.7251 Y266.1974
G01 X32.6780 Y266.1963
G01 X32.6309 Y266.1974
G01 X32.5839 Y266.2008
G01 X32.5371 Y266.2064
G01 X32.4906 Y266.2142
G01 X32.4446 Y266.2242
G01 X32.3990 Y266.2364
G01 X32.3542 Y266.2507
G01 X32.3100 Y266.2672
G01 X32.2667 Y266.2858
G01 X32.2243 Y266.3063
G01 X32.1830 Y266.3289
G01 X32.1427 Y266.3535
G01 X32.1037 Y266.3799
G01 X32.0660 Y266.4081
G01 X32.0296 Y266.4381
G01 X31.9948 Y266.4698
G01 X31.9615 Y266.5031
G01 X31.9298 Y266.5380
G01 X31.8998 Y266.5743
G01 X31.8715 Y266.6120
G01 X31.8451 Y266.6511
G01 X31.8206 Y266.6913
G01 X31.7980 Y266.7327
G01 X31.7774 Y266.7750
G01 X31.7589 Y266.8183
G01 X31.7424 Y266.8625
G01 X31.7281 Y266.9074
G01 X31.7159 Y266.9529
G01 X31.7059 Y266.9989
G01 X31.6980 Y267.0454
G01 X31.6924 Y267.0922
G01 X31.6891 Y267.1392
G01 X31.6880 Y267.1863
G01 X31.6891 Y267.2334
G01 X31.6924 Y267.2804
G01 X31.6980 Y267.3272
G01 X31.7059 Y267.3737
G01 X31.7159 Y267.4197
G01 X31.7281 Y267.4652
G01 X31.7424 Y267.5101
G01 X31.7589 Y267.5542
G01 X31.7774 Y267.5976
G01 X31.7980 Y267.6399
G01 X31.8206 Y267.6813
G01 X31.8451 Y267.7215
G01 X31.8715 Y267.7606
G01 X31.8998 Y267.7983
G01 X31.9298 Y267.8346
G01 X31.9615 Y267.8695
G01 X31.9948 Y267.9028
G01 X32.0296 Y267.9345
G01 X32.0660 Y267.9645
G01 X32.1037 Y267.9927
G01 X32.1427 Y268.0191
G01 X32.1830 Y268.0437
G01 X32.2243 Y268.0662
G01 X32.2667 Y268.0868
G01 X32.3100 Y268.1054
G01 X32.3542 Y268.1218
G01 X32.3990 Y268.1362
G01 X32.4446 Y268.1484
G01 X32.4906 Y268.1584
G01 X32.5371 Y268.1662
G01 X32.5839 Y268.1718
G01 X32.6309 Y268.1752
G01 X32.6780 Y268.1763
G01 X32.7251 Y268.1752
G01 X32.7721 Y268.1718
G01 X32.8189 Y268.1662
G01 X32.8653 Y268.1584
G01 X32.9114 Y268.1484
G01 X32.9569 Y268.1362
G01 X33.0018 Y268.1218
G01 X33.0459 Y268.1054
G01 X33.0892 Y268.0868
G01 X33.1316 Y268.0662
G01 X33.1730 Y268.0437
G01 X33.2132 Y268.0191
G01 X33.2522 Y267.9927
G01 X33.2899 Y267.9645
G01 X33.3263 Y267.9345
G01 X33.3611 Y267.9028
G01 X33.3945 Y267.8695
G01 X33.4262 Y267.8346
G01 X33.4562 Y267.7983
G01 X33.4844 Y267.7606
G01 X33.5108 Y267.7215
G01 X33.5353 Y267.6813
G01 X33.5579 Y267.6399
G01 X33.5785 Y267.5976
G01 X33.5970 Y267.5542
G01 X33.6135 Y267.5101
G01 X33.6279 Y267.4652
G01 X33.6401 Y267.4197
G01 X33.6501 Y267.3737
G01 X33.6579 Y267.3272
G01 X33.6635 Y267.2804
G01 X33.6668 Y267.2334
G01 X33.6680 Y267.1863
G01 X33.6800 Y267.1350 F1000
G01 X33.6893 Y267.0831
G01 X33.6959 Y267.0308
G01 X33.6998 Y266.9782
G01 X33.7009 Y266.9255
G01 X33.6993 Y266.8728
G01 X33.6949 Y266.8202
G01 X33.6879 Y266.7680
G01 X33.6772 Y266.7113
G01 X33.6637 Y266.6553
G01 X33.6472 Y266.6000
G01 X33.6280 Y266.5457
G01 X33.6059 Y266.4924
G01 X33.5812 Y266.4404
G01 X33.5538 Y266.3897
G01 X33.5238 Y266.3404
G01 X33.4886 Y266.2887
G01 X33.4508 Y266.2388
G01 X33.4105 Y266.1910
G01 X33.3677 Y266.1452
G01 X33.3227 Y266.1017
G01 X33.2756 Y266.0606
G01 X33.2263 Y266.0219
G01 X33.1752 Y265.9858
G01 X33.1181 Y265.9501
G01 X33.0592 Y265.9172
G01 X32.9987 Y265.8874
G01 X32.9368 Y265.8607
G01 X32.8736 Y265.8372
G01 X32.8092 Y265.8170
G01 X32.7440 Y265.8000
G01 X32.6780 Y265.7863
G01 X32.6093 Y265.7880
G01 X32.5407 Y265.7931
G01 X32.4725 Y265.8015
G01 X32.4048 Y265.8132
G01 X32.3378 Y265.8283
G01 X32.2716 Y265.8466
G01 X32.2063 Y265.8682
G01 X32.1422 Y265.8929
G01 X32.0794 Y265.9207
G01 X32.0180 Y265.9516
G01 X31.9582 Y265.9855
G01 X31.9002 Y266.0223
G01 X31.8440 Y266.0618
G01 X31.7898 Y266.1041
G01 X31.7378 Y266.1490
G01 X31.6880 Y266.1964
G01 X31.6407 Y266.2461
G01 X31.5958 Y266.2982
G01 X31.5535 Y266.3523
G01 X31.5139 Y266.4085
G01 X31.4772 Y266.4666
G01 X31.4433 Y266.5264
G01 X31.4124 Y266.5877
G01 X31.3846 Y266.6506
G01 X31.3598 Y266.7147
G01 X31.3383 Y266.7799
G01 X31.3199 Y266.8461
G01 X31.3049 Y266.9132
G01 X31.2931 Y266.9809
G01 X31.2847 Y267.0491
G01 X31.2797 Y267.1176
G01 X31.2780 Y267.1863
G01 X31.2797 Y267.2550
G01 X31.2847 Y267.3235
G01 X31.2931 Y267.3917
G01 X31.3049 Y267.4594
G01 X31.3199 Y267.5265
G01 X31.3383 Y267.5927
G01 X31.3598 Y267.6579
G01 X31.3846 Y267.7220
G01 X31.4124 Y267.7849
G01 X31.4433 Y267.8462
G01 X31.4772 Y267.9060
G01 X31.5139 Y267.9641
G01 X31.5535 Y268.0203
G01 X31.5958 Y268.0744
G01 X31.6407 Y268.1265
G01 X31.6880 Y268.1762
G01 X31.7378 Y268.2236
G01 X31.7898 Y268.2685
G01 X31.8440 Y268.3108
G01 X31.9002 Y268.3503
G01 X31.9582 Y268.3871
G01 X32.0180 Y268.4210
G01 X32.0794 Y268.4519
G01 X32.1422 Y268.4797
G01 X32.2063 Y268.5044
G01 X32.2716 Y268.5260
G01 X32.3378 Y268.5443
G01 X32.4048 Y268.5594
G01 X32.4725 Y268.5711
G01 X32.5407 Y268.5795
G01 X32.6093 Y268.5846
G01 X32.6780 Y268.5863
G01 X32.7467 Y268.5846
G01 X32.8152 Y268.5795
G01 X32.8834 Y268.5711
G01 X32.9511 Y268.5594
G01 X33.0181 Y268.5443
G01 X33.0843 Y268.5260
G01 X33.1496 Y268.5044
G01 X33.2137 Y268.4797
G01 X33.2765 Y268.4519
G01 X33.3379 Y268.4210
G01 X33.3977 Y268.3871
G01 X33.4557 Y268.3503
G01 X33.5119 Y268.3108
G01 X33.5661 Y268.2685
G01 X33.6181 Y268.2236
G01 X33.6679 Y268.1762
G01 X33.7153 Y268.1265
G01 X33.7602 Y268.0744
G01 X33.8024 Y268.0203
G01 X33.8420 Y267.9641
G01 X33.8788 Y267.9060
G01 X33.9126 Y267.8462
G01 X33.9435 Y267.7849
G01 X33.9714 Y267.7220
G01 X33.9961 Y267.6579
G01 X34.0176 Y267.5927
G01 X34.0360 Y267.5265
G01 X34.0510 Y267.4594
G01 X34.0628 Y267.3917
G01 X34.0712 Y267.3235
G01 X34.0762 Y267.2550
G01 X34.0779 Y267.1863
G01 X34.0740 Y267.0817
G01 X34.0623 Y266.9776
G01 X34.0428 Y266.8748
G01 X34.0157 Y266.7736
G01 X33.9812 Y266.6748
G01 X33.9393 Y266.5789
G01 X33.8904 Y266.4863
G01 X33.8347 Y266.3977
G01 X33.7725 Y266.3134
G01 X33.7042 Y266.2341
G01 X33.6302 Y266.1600
G01 X33.5508 Y266.0918
G01 X33.4666 Y266.0296
G01 X33.3779 Y265.9739
G01 X33.2854 Y265.9250
G01 X33.1894 Y265.8831
G01 X33.0906 Y265.8485
G01 X32.9895 Y265.8214
G01 X32.8866 Y265.8020
G01 X32.7826 Y265.7902
G01 X32.6780 Y265.7863
G01 X32.5733 Y265.7902
G01 X32.4693 Y265.8020
G01 X32.3664 Y265.8214
G01 X32.2653 Y265.8485
G01 X32.1665 Y265.8831
G01 X32.0705 Y265.9250
G01 X31.9780 Y265.9739
G01 X31.8893 Y266.0296
G01 X31.8051 Y266.0918
G01 X31.7257 Y266.1600
G01 X31.6517 Y266.2341
G01 X31.5834 Y266.3134
G01 X31.5213 Y266.3977
G01 X31.4656 Y266.4863
G01 X31.4166 Y266.5789
G01 X31.3748 Y266.6748
G01 X31.3402 Y266.7736
G01 X31.3131 Y266.8748
G01 X31.2936 Y266.9776
G01 X31.2819 Y267.0817
G01 X31.2780 Y267.1863
G01 X31.2819 Y267.2909
G01 X31.2936 Y267.3949
G01 X31.3131 Y267.4978
G01 X31.3402 Y267.5989
G01 X31.3748 Y267.6978
G01 X31.4166 Y267.7937
G01 X31.4656 Y267.8863
G01 X31.5213 Y267.9749
G01 X31.5834 Y268.0592
G01 X31.6517 Y268.1385
G01 X31.7257 Y268.2125
G01 X31.8051 Y268.2808
G01 X31.8893 Y268.3430
G01 X31.9780 Y268.3987
G01 X32.0705 Y268.4476
G01 X32.1665 Y268.4895
G01 X32.2653 Y268.5241
G01 X32.3664 Y268.5512
G01 X32.4693 Y268.5706
G01 X32.5733 Y268.5823
G01 X32.6780 Y268.5863
G01 X32.7826 Y268.5823
G01 X32.8866 Y268.5706
G01 X32.9895 Y268.5512
G01 X33.0906 Y268.5241
G01 X33.1894 Y268.4895
G01 X33.2854 Y268.4476
G01 X33.3779 Y268.3987
G01 X33.4666 Y268.3430
G01 X33.5508 Y268.2808
G01 X33.6302 Y268.2125
G01 X33.7042 Y268.1385
G01 X33.7725 Y268.0592
G01 X33.8347 Y267.9749
G01 X33.8904 Y267.8863
G01 X33.9393 Y267.7937
G01 X33.9812 Y267.6978
G01 X34.0157 Y267.5989
G01 X34.0428 Y267.4978
G01 X34.0623 Y267.3949
G01 X34.0740 Y267.2909
G01 X34.0779 Y267.1863
M107
M106 S240
G01 X34.0745 Y267.1000 Z-7.9750 F400
M107
M106 S240
G01 X34.0644 Y267.0142 Z-7.9500
M107
M106 S240
G01 X34.0475 Y266.9295 Z-7.9250
M107
M106 S240
G01 X34.0241 Y266.8464 Z-7.9000
M107
M106 S240
G01 X33.9942 Y266.7653 Z-7.8750
M107
M106 S240
G01 X33.9580 Y266.6869 Z-7.8500
M107
M106 S240
G01 X33.9158 Y266.6115 Z-7.8250
M107
M106 S240
G01 X33.8678 Y266.5397 Z-7.8000
M107
M106 S240
G01 X33.8144 Y266.4719 Z-7.7750
M107
M106 S240
G01 X33.7557 Y266.4085 Z-7.7500
M107
M106 S240
G01 X33.6923 Y266.3498 Z-7.7250
M107
M106 S240
G01 X33.6245 Y266.2964 Z-7.7000
M107
M106 S240
G01 X33.5527 Y266.2484 Z-7.6750
M107
M106 S240
G01 X33.4773 Y266.2062 Z-7.6500
M107
M106 S240
G01 X33.3989 Y266.1700 Z-7.6250
M107
M106 S240
G01 X33.3178 Y266.1401 Z-7.6000
M107
M106 S240
G01 X33.2347 Y266.1167 Z-7.5750
M107
M106 S240
G01 X33.1500 Y266.0998 Z-7.5500
M107
M106 S240
G01 X33.0642 Y266.0897 Z-7.5250
M107
M106 S240
G01 X32.9779 Y266.0863 Z-7.5000
M107
G00 Z2.0000


;No. 2: Hole 2
G00 X45.3326 Y236.2042 Z2.0000
G00 Z0.5000
G01 Z-2.2000 F400
M106 S240
G01 X46.5715 F1000
G01 X46.5841 Y237.8542
G01 X45.3220
G01 X45.3114 Y239.5042
G01 X46.5967
G01 X46.6093 Y241.1542
G01 X45.3009
G01 X45.2903 Y242.8042
G01 X46.6213
G01 X46.6319 Y244.4542
G01 X45.2797
G01 X45.2692 Y246.1042
G01 X46.6425
G01 X46.6531 Y247.7542
G01 X45.2586
G01 X45.2480 Y249.4042
G01 X46.6637
G01 X46.7313 Y251.0542
G01 X45.1792
G01 Y252.7042
G01 X36.9136
G01 X55.1301
M107
G00 Z2.0000
G00 Z0.5000
G01 Z-2.2000 F400
M106 S240
G01 X55.2770 Y252.5410 F1000
G01 X55.1996 Y252.4584
G01 X55.1166 Y252.3815
G01 X55.0283 Y252.3107
G01 X54.9353 Y252.2464
G01 X54.8379 Y252.1888
G01 X54.7366 Y252.1382
G01 X54.6321 Y252.0950
G01 X54.5247 Y252.0593
G01 X54.1164 Y251.9901
G01 X53.7052 Y251.9419
G01 X53.2919 Y251.9149
G01 X52.8779 Y251.9091
G01 X52.2853 Y251.8898
G01 X47.9797 Y251.7639
G01 X47.8944 Y251.7596
G01 X47.8096 Y251.7487
G01 X47.7260 Y251.7313
G01 X47.6440 Y251.7075
G01 X47.5641 Y251.6773
G01 X47.4868 Y251.6411
G01 X47.4125 Y251.5989
G01 X47.3417 Y251.5511
G01 X47.2748 Y251.4980
G01 X47.2122 Y251.4398
G01 X47.1544 Y251.3770
G01 X47.1016 Y251.3099
G01 X47.0541 Y251.2389
G01 X47.0123 Y251.1644
G01 X46.9765 Y251.0869
G01 X46.9467 Y251.0068
G01 X46.9232 Y250.9247
G01 X46.9062 Y250.8410
G01 X46.8957 Y250.7562
G01 X46.8919 Y250.6709
G01 X46.8384 Y242.3544
G01 X46.7853 Y235.1709
G01 X45.1191 Y235.1779
G01 X45.0200 Y250.6508
G01 X45.0177 Y250.7361
G01 X45.0088 Y250.8210
G01 X44.9933 Y250.9050
G01 X44.9713 Y250.9874
G01 X44.9431 Y251.0680
G01 X44.9086 Y251.1461
G01 X44.8682 Y251.2213
G01 X44.8221 Y251.2931
G01 X44.7706 Y251.3612
G01 X44.7140 Y251.4250
G01 X44.6525 Y251.4843
G01 X44.5867 Y251.5386
G01 X44.5169 Y251.5877
G01 X44.4434 Y251.6312
G01 X44.3668 Y251.6689
G01 X44.2876 Y251.7005
G01 X44.2061 Y251.7259
G01 X44.1229 Y251.7449
G01 X44.0384 Y251.7573
G01 X43.9533 Y251.7633
G01 X40.5739 Y251.8657
G01 X37.5681 Y251.9588
G01 X36.9077 Y252.4343
G01 X36.5552 Y252.6891
G01 X36.2275 Y252.9751
G01 X35.9273 Y253.2898
G01 X35.6571 Y253.6307
G01 X35.6325 Y253.6839
G01 X38.2202 Y253.7113
G01 X40.8080 Y253.7299
G01 X43.3958 Y253.7398
G01 X45.9836 Y253.7409
G01 X48.5714 Y253.7333
G01 X51.1592 Y253.7170
G01 X53.7469 Y253.6918
G01 X56.3346 Y253.6579
G01 X56.3429 Y253.6493
G01 X56.1014 Y253.3491
G01 X55.8427 Y253.0636
G01 X55.5676 Y252.7939
G01 X55.2770 Y252.5410
G01 X55.1301 Y252.7042
M107
G00 Z2.0000


;No. 3: Hole 3
G00 X85.7294 Y251.8655 Z2.0000
G00 Z0.5000
G01 Z-2.2000 F400
M106 S240
G01 X71.2691 Y251.8680 F1000
G01 X70.4197 Y252.4404
G01 X70.1013 Y252.6731
G01 X69.7960 Y252.9225
G01 X69.5047 Y253.1882
G01 X69.2281 Y253.4692
G01 X71.5316 Y253.5071
G01 X73.8353 Y253.5305
G01 X76.1391 Y253.5394
G01 X78.4429 Y253.5338
G01 X87.6907
G01 X87.7002 Y253.5213
G01 X87.6682 Y253.4807
G01 X87.4002 Y253.1682
G01 X87.1098 Y252.8763
G01 X86.7987 Y252.6066
G01 X86.4686 Y252.3606
G01 X85.7294 Y251.8655
M107
G00 Z2.0000


;No. 4: Hole 4


;No. 5: Hole 4
G00 X71.2056 Y243.9066 Z2.0000
G00 Z0.5000
G01 Z-2.2000 F400
M106 S240
G01 X71.1310 Y243.9280 F1000
G01 X71.0971 Y243.9431
G01 X70.7952 Y244.1079
G01 X70.5040 Y244.2908
G01 X70.2246 Y244.4912
G01 X69.9579 Y244.7083
G01 X69.7050 Y244.9414
G01 X69.4668 Y245.1895
G01 X69.2442 Y245.4517
G01 X69.0382 Y245.7270
G01 X69.0513 Y245.7293
G01 X69.1124 Y245.7331
G01 X70.3467 Y245.7733
G01 X71.5815 Y245.7979
G01 X72.8165 Y245.8068
G01 X74.0514 Y245.7999
G01 X80.1891 Y245.7959
G01 X82.0854 Y245.7999
G01 X83.9818 Y245.7878
G01 X85.8780 Y245.7594
G01 X87.7738 Y245.7149
G01 X87.5518 Y245.4123
G01 X87.3124 Y245.1232
G01 X87.0567 Y244.8485
G01 X86.7854 Y244.5891
G01 X86.4994 Y244.3460
G01 X86.1998 Y244.1200
G01 X85.8875 Y243.9118
G01 X85.5636 Y243.7221
G01 X77.2448 Y243.7322
G01 X75.9362 Y243.7274
G01 X74.6276 Y243.7396
G01 X73.3193 Y243.7688
G01 X72.0115 Y243.8149
G01 X71.8608 Y243.8241
G01 X71.7103 Y243.8364
G01 X71.5600 Y243.8517
G01 X71.4102 Y243.8702
G01 X71.3343 Y243.8816
G01 X71.2608 Y243.8948
G01 X71.2056 Y243.9066
M107
G00 Z2.0000


;No. 6: Hole 5


;No. 7: Hole 5
G00 X71.3805 Y235.5458 Z2.0000
G00 Z0.5000
G01 Z-2.2000 F400
M106 S240
G01 X71.0607 Y235.6856 F1000
G01 X70.7501 Y235.8448
G01 X70.4499 Y236.0229
G01 X70.1613 Y236.2193
G01 X69.8854 Y236.4330
G01 X69.6232 Y236.6634
G01 X69.3757 Y236.9096
G01 X69.1439 Y237.1705
G01 X73.7777 Y237.2259
G01 X78.4119 Y237.2463
G01 X83.0460 Y237.2318
G01 X87.6799 Y237.1824
G01 X87.6766 Y237.1722
G01 X87.6317 Y237.1136
G01 X87.4699 Y236.9071
G01 X87.2972 Y236.7096
G01 X87.1142 Y236.5217
G01 X86.9213 Y236.3439
G01 X86.7191 Y236.1768
G01 X86.5082 Y236.0208
G01 X86.2892 Y235.8764
G01 X86.0628 Y235.7440
G01 X85.7459 Y235.6205
G01 X85.4178 Y235.5312
G01 X85.0821 Y235.4771
G01 X84.7425 Y235.4588
G01 X83.8900 Y235.4132
G01 X83.0367 Y235.3842
G01 X82.1831 Y235.3720
G01 X81.3293 Y235.3766
G01 X79.6716 Y235.3725
G01 X78.0139 Y235.3723
G01 X76.3562 Y235.3759
G01 X74.6985 Y235.3833
G01 X73.9548 Y235.3827
G01 X73.2113 Y235.3994
G01 X72.4684 Y235.4335
G01 X71.7265 Y235.4851
G01 X71.5654 Y235.5079
G01 X71.4366 Y235.5323
G01 X71.3805 Y235.5458
M107
G00 Z2.0000


;No. 8: Hole 6
G00 X102.0521 Y235.2477 Z2.0000
G00 Z0.5000
G01 Z-2.2000 F400
M106 S240
G01 X102.0490 Y235.2584 F1000
G01 X102.0780 Y235.3037
G01 X102.1961 Y235.4877
G01 X102.3234 Y235.6653
G01 X102.4598 Y235.8361
G01 X102.6047 Y235.9998
G01 X102.7578 Y236.1557
G01 X102.9187 Y236.3036
G01 X103.0870 Y236.4431
G01 X103.2623 Y236.5737
G01 X103.3551 Y236.6476
G01 X103.4516 Y236.7165
G01 X103.5516 Y236.7802
G01 X103.6549 Y236.8387
G01 X103.7610 Y236.8916
G01 X103.8698 Y236.9389
G01 X103.9808 Y236.9805
G01 X104.0940 Y237.0162
G01 X104.2088 Y237.0459
G01 X104.3250 Y237.0695
G01 X104.4423 Y237.0871
G01 X104.5604 Y237.0984
G01 X105.4442 Y237.1741
G01 X106.3299 Y237.2233
G01 X107.2167 Y237.2460
G01 X108.1037 Y237.2422
G01 X109.1992 Y237.2456
G01 X117.4992 Y237.2463
G01 X117.5866 Y237.2482
G01 X117.6735 Y237.2570
G01 X117.7595 Y237.2727
G01 X117.8439 Y237.2952
G01 X117.9263 Y237.3243
G01 X118.0061 Y237.3599
G01 X118.0828 Y237.4016
G01 X118.1560 Y237.4493
G01 X118.2252 Y237.5027
G01 X118.2899 Y237.5614
G01 X118.3498 Y237.6251
G01 X118.4044 Y237.6933
G01 X118.4534 Y237.7656
G01 X118.4966 Y237.8416
G01 X118.5336 Y237.9207
G01 X118.5641 Y238.0026
G01 X118.5881 Y238.0866
G01 X118.6054 Y238.1722
G01 X118.6158 Y238.2590
G01 X118.6192 Y238.3463
G01 Y242.6018
G01 X118.6173 Y242.6891
G01 X118.6085 Y242.7761
G01 X118.5928 Y242.8620
G01 X118.5703 Y242.9464
G01 X118.5412 Y243.0288
G01 X118.5057 Y243.1086
G01 X118.4639 Y243.1854
G01 X118.4162 Y243.2586
G01 X118.3628 Y243.3278
G01 X118.3041 Y243.3925
G01 X118.2405 Y243.4523
G01 X118.1723 Y243.5069
G01 X118.1000 Y243.5560
G01 X118.0240 Y243.5991
G01 X117.9448 Y243.6361
G01 X117.8630 Y243.6667
G01 X117.7790 Y243.6907
G01 X117.6933 Y243.7079
G01 X117.6065 Y243.7183
G01 X117.5192 Y243.7218
G01 X101.5173
G01 Y253.7374
G01 X110.8006
G01 X112.9699 Y253.7425
G01 X115.1392 Y253.7373
G01 X117.3084 Y253.7219
G01 X119.4776 Y253.6962
G01 X119.2712 Y253.4280
G01 X119.0523 Y253.1700
G01 X118.8213 Y252.9227
G01 X118.5789 Y252.6867
G01 X118.3255 Y252.4624
G01 X118.0617 Y252.2505
G01 X117.7881 Y252.0514
G01 X117.5053 Y251.8656
G01 X104.1020
G01 X104.0147 Y251.8637
G01 X103.9278 Y251.8548
G01 X103.8418 Y251.8391
G01 X103.7574 Y251.8167
G01 X103.6750 Y251.7876
G01 X103.5952 Y251.7520
G01 X103.5184 Y251.7103
G01 X103.4452 Y251.6625
G01 X103.3761 Y251.6092
G01 X103.3113 Y251.5505
G01 X103.2515 Y251.4868
G01 X103.1969 Y251.4186
G01 X103.1478 Y251.3463
G01 X103.1047 Y251.2703
G01 X103.0677 Y251.1912
G01 X103.0371 Y251.1093
G01 X103.0132 Y251.0253
G01 X102.9959 Y250.9396
G01 X102.9855 Y250.8529
G01 X102.9820 Y250.7656
G01 Y246.7137
G01 X102.9848 Y246.6159
G01 X102.9969 Y246.5135
G01 X103.0185 Y246.4127
G01 X103.0495 Y246.3144
G01 X103.0895 Y246.2194
G01 X103.1383 Y246.1286
G01 X103.1953 Y246.0427
G01 X103.2602 Y245.9626
G01 X103.3322 Y245.8888
G01 X103.4109 Y245.8222
G01 X103.4954 Y245.7632
G01 X103.5851 Y245.7124
G01 X103.6791 Y245.6701
G01 X103.7767 Y245.6369
G01 X103.8770 Y245.6130
G01 X103.9791 Y245.5985
G01 X104.0820 Y245.5937
G01 X120.2875
G01 Y235.1708
G01 X110.4829 Y235.1709
G01 X108.3751 Y235.1670
G01 X106.2672 Y235.1785
G01 X104.1596 Y235.2054
G01 X102.0521 Y235.2477
M107
G00 Z2.0000


;No. 9: Hole 7
G00 X133.4980 Y236.3059 Z2.0000
G00 Z0.5000
G01 Z-2.2000 F400
M106 S240
G01 X149.6671 F1000
M107
G00 Z2.0000
G00 Z0.5000
G01 Z-2.2000 F400
M106 S240
G01 X149.8168 Y236.1441 F1000
G01 X149.8055 Y236.1337
G01 X149.5563 Y235.9286
G01 X149.2992 Y235.7334
G01 X149.0346 Y235.5486
G01 X148.7629 Y235.3744
G01 X133.2780
G01 Y253.7374
G01 X134.7427
G01 Y238.3663
G01 X134.7455 Y238.2685
G01 X134.7576 Y238.1661
G01 X134.7792 Y238.0653
G01 X134.8102 Y237.9670
G01 X134.8502 Y237.8720
G01 X134.8990 Y237.7812
G01 X134.9560 Y237.6953
G01 X135.0209 Y237.6152
G01 X135.0929 Y237.5414
G01 X135.1716 Y237.4748
G01 X135.2561 Y237.4158
G01 X135.3458 Y237.3650
G01 X135.4398 Y237.3227
G01 X135.5374 Y237.2895
G01 X135.6377 Y237.2656
G01 X135.7397 Y237.2511
G01 X135.8427 Y237.2463
G01 X150.7054
G01 X150.7147 Y237.2302
G01 X150.5209 Y236.9346
G01 X150.3058 Y236.6540
G01 X150.0707 Y236.3901
G01 X149.8168 Y236.1441
G01 X149.6671 Y236.3059
M107
G00 Z2.0000


;No. 10: Hole 8


;No. 11: Hole 8
G00 X173.7084 Y251.8662 Z2.0000
G00 Z0.5000
G01 Z-2.2000 F400
M106 S240
G01 X166.4034 Y251.8685 F1000
G01 X165.5413 Y252.4499
G01 X165.2540 Y252.6814
G01 X164.9806 Y252.9292
G01 X164.7221 Y253.1925
G01 X164.4793 Y253.4704
G01 X169.1105 Y253.5259
G01 X173.7420 Y253.5415
G01 X178.3735 Y253.5171
G01 X183.0046 Y253.4529
G01 X182.8700 Y253.2788
G01 X182.7269 Y253.1116
G01 X182.5756 Y252.9518
G01 X182.4164 Y252.7998
G01 X182.2499 Y252.6559
G01 X182.0763 Y252.5206
G01 X181.8962 Y252.3941
G01 X181.7100 Y252.2768
G01 X181.6301 Y252.2230
G01 X181.5488 Y252.1714
G01 X181.4661 Y252.1220
G01 X181.3822 Y252.0748
G01 X181.0862 Y251.9966
G01 X180.7846 Y251.9439
G01 X180.4797 Y251.9170
G01 X180.1735 Y251.9161
G01 X179.9305 Y251.9072
G01 X179.6874 Y251.8997
G01 X179.4443 Y251.8936
G01 X179.2012 Y251.8890
G01 X177.8280 Y251.8752
G01 X176.4549 Y251.8668
G01 X175.0817 Y251.8638
G01 X173.7084 Y251.8662
M107
G00 Z2.0000


;No. 12: Helical drill 2
G00 X188.6680 Y267.1863 Z2.0000
G00 Z0.5000
M106 S240
G01 X188.6669 Y267.1392 Z0.4962 F400
G01 X188.6635 Y267.0922 Z0.4924
G01 X188.6579 Y267.0454 Z0.4886
G01 X188.6501 Y266.9989 Z0.4848
G01 X188.6401 Y266.9529 Z0.4811
G01 X188.6279 Y266.9074 Z0.4773
G01 X188.6136 Y266.8625 Z0.4735
G01 X188.5971 Y266.8183 Z0.4697
G01 X188.5785 Y266.7750 Z0.4659
G01 X188.5579 Y266.7326 Z0.4621
G01 X188.5354 Y266.6913 Z0.4583
G01 X188.5108 Y266.6510 Z0.4545
G01 X188.4844 Y266.6120 Z0.4508
G01 X188.4562 Y266.5743 Z0.4470
G01 X188.4262 Y266.5380 Z0.4432
G01 X188.3945 Y266.5031 Z0.4394
G01 X188.3612 Y266.4698 Z0.4356
G01 X188.3263 Y266.4381 Z0.4318
G01 X188.2900 Y266.4081 Z0.4280
G01 X188.2523 Y266.3798 Z0.4242
G01 X188.2132 Y266.3534 Z0.4205
G01 X188.1730 Y266.3289 Z0.4167
G01 X188.1316 Y266.3063 Z0.4129
G01 X188.0893 Y266.2857 Z0.4091
G01 X188.0459 Y266.2672 Z0.4053
G01 X188.0018 Y266.2507 Z0.4015
G01 X187.9569 Y266.2364 Z0.3977
G01 X187.9114 Y266.2242 Z0.3939
G01 X187.8654 Y266.2142 Z0.3902
G01 X187.8189 Y266.2064 Z0.3864
G01 X187.7721 Y266.2008 Z0.3826
G01 X187.7251 Y266.1974 Z0.3788
G01 X187.6780 Y266.1963 Z0.3750
G01 X187.6309 Y266.1974 Z0.3712
G01 X187.5839 Y266.2008 Z0.3674
G01 X187.5371 Y266.2064 Z0.3636
G01 X187.4906 Y266.2142 Z0.3598
G01 X187.4446 Y266.2242 Z0.3561
G01 X187.3991 Y266.2364 Z0.3523
G01 X187.3542 Y266.2507 Z0.3485
G01 X187.3101 Y266.2672 Z0.3447
G01 X187.2667 Y266.2857 Z0.3409
G01 X187.2244 Y266.3063 Z0.3371
G01 X187.1830 Y266.3289 Z0.3333
G01 X187.1428 Y266.3534 Z0.3295
G01 X187.1037 Y266.3798 Z0.3258
G01 X187.0660 Y266.4081 Z0.3220
G01 X187.0297 Y266.4381 Z0.3182
G01 X186.9948 Y266.4698 Z0.3144
G01 X186.9615 Y266.5031 Z0.3106
G01 X186.9298 Y266.5380 Z0.3068
G01 X186.8998 Y266.5743 Z0.3030
G01 X186.8716 Y266.6120 Z0.2992
G01 X186.8452 Y266.6510 Z0.2955
G01 X186.8206 Y266.6913 Z0.2917
G01 X186.7981 Y266.7326 Z0.2879
G01 X186.7775 Y266.7750 Z0.2841
G01 X186.7589 Y266.8183 Z0.2803
G01 X186.7425 Y266.8625 Z0.2765
G01 X186.7281 Y266.9074 Z0.2727
G01 X186.7159 Y266.9529 Z0.2689
G01 X186.7059 Y266.9989 Z0.2652
G01 X186.6981 Y267.0454 Z0.2614
G01 X186.6925 Y267.0922 Z0.2576
G01 X186.6891 Y267.1392 Z0.2538
G01 X186.6880 Y267.1863 Z0.2500
G01 X186.6891 Y267.2334 Z0.2462
G01 X186.6925 Y267.2804 Z0.2424
G01 X186.6981 Y267.3272 Z0.2386
G01 X186.7059 Y267.3736 Z0.2348
G01 X186.7159 Y267.4197 Z0.2311
G01 X186.7281 Y267.4652 Z0.2273
G01 X186.7425 Y267.5101 Z0.2235
G01 X186.7589 Y267.5542 Z0.2197
G01 X186.7775 Y267.5975 Z0.2159
G01 X186.7981 Y267.6399 Z0.2121
G01 X186.8206 Y267.6813 Z0.2083
G01 X186.8452 Y267.7215 Z0.2045
G01 X186.8716 Y267.7605 Z0.2008
G01 X186.8998 Y267.7983 Z0.1970
G01 X186.9298 Y267.8346 Z0.1932
G01 X186.9615 Y267.8695 Z0.1894
G01 X186.9948 Y267.9028 Z0.1856
G01 X187.0297 Y267.9345 Z0.1818
G01 X187.0660 Y267.9645 Z0.1780
G01 X187.1037 Y267.9927 Z0.1742
G01 X187.1428 Y268.0191 Z0.1705
G01 X187.1830 Y268.0436 Z0.1667
G01 X187.2244 Y268.0662 Z0.1629
G01 X187.2667 Y268.0868 Z0.1591
G01 X187.3101 Y268.1054 Z0.1553
G01 X187.3542 Y268.1218 Z0.1515
G01 X187.3991 Y268.1362 Z0.1477
G01 X187.4446 Y268.1484 Z0.1439
G01 X187.4906 Y268.1584 Z0.1402
G01 X187.5371 Y268.1662 Z0.1364
G01 X187.5839 Y268.1718 Z0.1326
G01 X187.6309 Y268.1752 Z0.1288
G01 X187.6780 Y268.1763 Z0.1250
G01 X187.7251 Y268.1752 Z0.1212
G01 X187.7721 Y268.1718 Z0.1174
G01 X187.8189 Y268.1662 Z0.1136
G01 X187.8654 Y268.1584 Z0.1098
G01 X187.9114 Y268.1484 Z0.1061
G01 X187.9569 Y268.1362 Z0.1023
G01 X188.0018 Y268.1218 Z0.0985
G01 X188.0459 Y268.1054 Z0.0947
G01 X188.0893 Y268.0868 Z0.0909
G01 X188.1316 Y268.0662 Z0.0871
G01 X188.1730 Y268.0436 Z0.0833
G01 X188.2132 Y268.0191 Z0.0795
G01 X188.2523 Y267.9927 Z0.0758
G01 X188.2900 Y267.9645 Z0.0720
G01 X188.3263 Y267.9345 Z0.0682
G01 X188.3612 Y267.9028 Z0.0644
G01 X188.3945 Y267.8695 Z0.0606
G01 X188.4262 Y267.8346 Z0.0568
G01 X188.4562 Y267.7983 Z0.0530
G01 X188.4844 Y267.7605 Z0.0492
G01 X188.5108 Y267.7215 Z0.0455
G01 X188.5354 Y267.6813 Z0.0417
G01 X188.5579 Y267.6399 Z0.0379
G01 X188.5785 Y267.5975 Z0.0341
G01 X188.5971 Y267.5542 Z0.0303
G01 X188.6136 Y267.5101 Z0.0265
G01 X188.6279 Y267.4652 Z0.0227
G01 X188.6401 Y267.4197 Z0.0189
G01 X188.6501 Y267.3736 Z0.0152
G01 X188.6579 Y267.3272 Z0.0114
G01 X188.6635 Y267.2804 Z0.0076
G01 X188.6669 Y267.2334 Z0.0038
G01 X188.6680 Y267.1863 Z0.0000
G01 X188.6669 Y267.1392
G01 X188.6635 Y267.0922
G01 X188.6579 Y267.0454
G01 X188.6501 Y266.9989
G01 X188.6401 Y266.9529
G01 X188.6279 Y266.9074
G01 X188.6136 Y266.8625
G01 X188.5971 Y266.8183
G01 X188.5785 Y266.7750
G01 X188.5579 Y266.7326
G01 X188.5354 Y266.6913
G01 X188.5108 Y266.6510
G01 X188.4844 Y266.6120
G01 X188.4562 Y266.5743
G01 X188.4262 Y266.5380
G01 X188.3945 Y266.5031
G01 X188.3612 Y266.4698
G01 X188.3263 Y266.4381
G01 X188.2900 Y266.4081
G01 X188.2523 Y266.3798
G01 X188.2132 Y266.3534
G01 X188.1730 Y266.3289
G01 X188.1316 Y266.3063
G01 X188.0893 Y266.2857
G01 X188.0459 Y266.2672
G01 X188.0018 Y266.2507
G01 X187.9569 Y266.2364
G01 X187.9114 Y266.2242
G01 X187.8654 Y266.2142
G01 X187.8189 Y266.2064
G01 X187.7721 Y266.2008
G01 X187.7251 Y266.1974
G01 X187.6780 Y266.1963
G01 X187.6309 Y266.1974
G01 X187.5839 Y266.2008
G01 X187.5371 Y266.2064
G01 X187.4906 Y266.2142
G01 X187.4446 Y266.2242
G01 X187.3991 Y266.2364
G01 X187.3542 Y266.2507
G01 X187.3101 Y266.2672
G01 X187.2667 Y266.2857
G01 X187.2244 Y266.3063
G01 X187.1830 Y266.3289
G01 X187.1428 Y266.3534
G01 X187.1037 Y266.3798
G01 X187.0660 Y266.4081
G01 X187.0297 Y266.4381
G01 X186.9948 Y266.4698
G01 X186.9615 Y266.5031
G01 X186.9298 Y266.5380
G01 X186.8998 Y266.5743
G01 X186.8716 Y266.6120
G01 X186.8452 Y266.6510
G01 X186.8206 Y266.6913
G01 X186.7981 Y266.7326
G01 X186.7775 Y266.7750
G01 X186.7589 Y266.8183
G01 X186.7425 Y266.8625
G01 X186.7281 Y266.9074
G01 X186.7159 Y266.9529
G01 X186.7059 Y266.9989
G01 X186.6981 Y267.0454
G01 X186.6925 Y267.0922
G01 X186.6891 Y267.1392
G01 X186.6880 Y267.1863
G01 X186.6891 Y267.2334
G01 X186.6925 Y267.2804
G01 X186.6981 Y267.3272
G01 X186.7059 Y267.3736
G01 X186.7159 Y267.4197
G01 X186.7281 Y267.4652
G01 X186.7425 Y267.5101
G01 X186.7589 Y267.5542
G01 X186.7775 Y267.5975
G01 X186.7981 Y267.6399
G01 X186.8206 Y267.6813
G01 X186.8452 Y267.7215
G01 X186.8716 Y267.7605
G01 X186.8998 Y267.7983
G01 X186.9298 Y267.8346
G01 X186.9615 Y267.8695
G01 X186.9948 Y267.9028
G01 X187.0297 Y267.9345
G01 X187.0660 Y267.9645
G01 X187.1037 Y267.9927
G01 X187.1428 Y268.0191
G01 X187.1830 Y268.0436
G01 X187.2244 Y268.0662
G01 X187.2667 Y268.0868
G01 X187.3101 Y268.1054
G01 X187.3542 Y268.1218
G01 X187.3991 Y268.1362
G01 X187.4446 Y268.1484
G01 X187.4906 Y268.1584
G01 X187.5371 Y268.1662
G01 X187.5839 Y268.1718
G01 X187.6309 Y268.1752
G01 X187.6780 Y268.1763
G01 X187.7251 Y268.1752
G01 X187.7721 Y268.1718
G01 X187.8189 Y268.1662
G01 X187.8654 Y268.1584
G01 X187.9114 Y268.1484
G01 X187.9569 Y268.1362
G01 X188.0018 Y268.1218
G01 X188.0459 Y268.1054
G01 X188.0893 Y268.0868
G01 X188.1316 Y268.0662
G01 X188.1730 Y268.0436
G01 X188.2132 Y268.0191
G01 X188.2523 Y267.9927
G01 X188.2900 Y267.9645
G01 X188.3263 Y267.9345
G01 X188.3612 Y267.9028
G01 X188.3945 Y267.8695
G01 X188.4262 Y267.8346
G01 X188.4562 Y267.7983
G01 X188.4844 Y267.7605
G01 X188.5108 Y267.7215
G01 X188.5354 Y267.6813
G01 X188.5579 Y267.6399
G01 X188.5785 Y267.5975
G01 X188.5971 Y267.5542
G01 X188.6136 Y267.5101
G01 X188.6279 Y267.4652
G01 X188.6401 Y267.4197
G01 X188.6501 Y267.3736
G01 X188.6579 Y267.3272
G01 X188.6635 Y267.2804
G01 X188.6669 Y267.2334
G01 X188.6680 Y267.1863
M107
M106 S240
G01 X188.6669 Y267.1392 Z-0.0167
G01 X188.6635 Y267.0922 Z-0.0333
G01 X188.6579 Y267.0454 Z-0.0500
G01 X188.6501 Y266.9989 Z-0.0667
G01 X188.6401 Y266.9529 Z-0.0833
G01 X188.6279 Y266.9074 Z-0.1000
G01 X188.6136 Y266.8625 Z-0.1167
G01 X188.5971 Y266.8183 Z-0.1333
G01 X188.5785 Y266.7750 Z-0.1500
G01 X188.5579 Y266.7326 Z-0.1667
G01 X188.5354 Y266.6913 Z-0.1833
G01 X188.5108 Y266.6510 Z-0.2000
G01 X188.4844 Y266.6120 Z-0.2167
G01 X188.4562 Y266.5743 Z-0.2333
G01 X188.4262 Y266.5380 Z-0.2500
G01 X188.3945 Y266.5031 Z-0.2667
G01 X188.3612 Y266.4698 Z-0.2833
G01 X188.3263 Y266.4381 Z-0.3000
G01 X188.2900 Y266.4081 Z-0.3167
G01 X188.2523 Y266.3798 Z-0.3333
G01 X188.2132 Y266.3534 Z-0.3500
G01 X188.1730 Y266.3289 Z-0.3667
G01 X188.1316 Y266.3063 Z-0.3833
G01 X188.0893 Y266.2857 Z-0.4000
G01 X188.0459 Y266.2672 Z-0.4167
G01 X188.0018 Y266.2507 Z-0.4333
G01 X187.9569 Y266.2364 Z-0.4500
G01 X187.9114 Y266.2242 Z-0.4667
G01 X187.8654 Y266.2142 Z-0.4833
G01 X187.8189 Y266.2064 Z-0.5000
G01 X187.7721 Y266.2008 Z-0.5167
G01 X187.7251 Y266.1974 Z-0.5333
G01 X187.6780 Y266.1963 Z-0.5500
G01 X187.6309 Y266.1974 Z-0.5667
G01 X187.5839 Y266.2008 Z-0.5833
G01 X187.5371 Y266.2064 Z-0.6000
G01 X187.4906 Y266.2142 Z-0.6167
G01 X187.4446 Y266.2242 Z-0.6333
G01 X187.3991 Y266.2364 Z-0.6500
G01 X187.3542 Y266.2507 Z-0.6667
G01 X187.3101 Y266.2672 Z-0.6833
G01 X187.2667 Y266.2857 Z-0.7000
G01 X187.2244 Y266.3063 Z-0.7167
G01 X187.1830 Y266.3289 Z-0.7333
G01 X187.1428 Y266.3534 Z-0.7500
G01 X187.1037 Y266.3798 Z-0.7667
G01 X187.0660 Y266.4081 Z-0.7833
G01 X187.0297 Y266.4381 Z-0.8000
G01 X186.9948 Y266.4698 Z-0.8167
G01 X186.9615 Y266.5031 Z-0.8333
G01 X186.9298 Y266.5380 Z-0.8500
G01 X186.8998 Y266.5743 Z-0.8667
G01 X186.8716 Y266.6120 Z-0.8833
G01 X186.8452 Y266.6510 Z-0.9000
G01 X186.8206 Y266.6913 Z-0.9167
G01 X186.7981 Y266.7326 Z-0.9333
G01 X186.7775 Y266.7750 Z-0.9500
G01 X186.7589 Y266.8183 Z-0.9667
G01 X186.7425 Y266.8625 Z-0.9833
G01 X186.7281 Y266.9074 Z-1.0000
G01 X186.7159 Y266.9529 Z-1.0167
G01 X186.7059 Y266.9989 Z-1.0333
G01 X186.6981 Y267.0454 Z-1.0500
G01 X186.6925 Y267.0922 Z-1.0667
G01 X186.6891 Y267.1392 Z-1.0833
G01 X186.6880 Y267.1863 Z-1.1000
G01 X186.6891 Y267.2334 Z-1.1167
G01 X186.6925 Y267.2804 Z-1.1333
G01 X186.6981 Y267.3272 Z-1.1500
G01 X186.7059 Y267.3736 Z-1.1667
G01 X186.7159 Y267.4197 Z-1.1833
G01 X186.7281 Y267.4652 Z-1.2000
G01 X186.7425 Y267.5101 Z-1.2167
G01 X186.7589 Y267.5542 Z-1.2333
G01 X186.7775 Y267.5975 Z-1.2500
G01 X186.7981 Y267.6399 Z-1.2667
G01 X186.8206 Y267.6813 Z-1.2833
G01 X186.8452 Y267.7215 Z-1.3000
G01 X186.8716 Y267.7605 Z-1.3167
G01 X186.8998 Y267.7983 Z-1.3333
G01 X186.9298 Y267.8346 Z-1.3500
G01 X186.9615 Y267.8695 Z-1.3667
G01 X186.9948 Y267.9028 Z-1.3833
G01 X187.0297 Y267.9345 Z-1.4000
G01 X187.0660 Y267.9645 Z-1.4167
G01 X187.1037 Y267.9927 Z-1.4333
G01 X187.1428 Y268.0191 Z-1.4500
G01 X187.1830 Y268.0436 Z-1.4667
G01 X187.2244 Y268.0662 Z-1.4833
G01 X187.2667 Y268.0868 Z-1.5000
G01 X187.3101 Y268.1054 Z-1.5167
G01 X187.3542 Y268.1218 Z-1.5333
G01 X187.3991 Y268.1362 Z-1.5500
G01 X187.4446 Y268.1484 Z-1.5667
G01 X187.4906 Y268.1584 Z-1.5833
G01 X187.5371 Y268.1662 Z-1.6000
G01 X187.5839 Y268.1718 Z-1.6167
G01 X187.6309 Y268.1752 Z-1.6333
G01 X187.6780 Y268.1763 Z-1.6500
G01 X187.7251 Y268.1752 Z-1.6667
G01 X187.7721 Y268.1718 Z-1.6833
G01 X187.8189 Y268.1662 Z-1.7000
G01 X187.8654 Y268.1584 Z-1.7167
G01 X187.9114 Y268.1484 Z-1.7333
G01 X187.9569 Y268.1362 Z-1.7500
G01 X188.0018 Y268.1218 Z-1.7667
G01 X188.0459 Y268.1054 Z-1.7833
G01 X188.0893 Y268.0868 Z-1.8000
G01 X188.1316 Y268.0662 Z-1.8167
G01 X188.1730 Y268.0436 Z-1.8333
G01 X188.2132 Y268.0191 Z-1.8500
G01 X188.2523 Y267.9927 Z-1.8667
G01 X188.2900 Y267.9645 Z-1.8833
G01 X188.3263 Y267.9345 Z-1.9000
G01 X188.3612 Y267.9028 Z-1.9167
G01 X188.3945 Y267.8695 Z-1.9333
G01 X188.4262 Y267.8346 Z-1.9500
G01 X188.4562 Y267.7983 Z-1.9667
G01 X188.4844 Y267.7605 Z-1.9833
G01 X188.5108 Y267.7215 Z-2.0000
G01 X188.5354 Y267.6813 Z-2.0167
G01 X188.5579 Y267.6399 Z-2.0333
G01 X188.5785 Y267.5975 Z-2.0500
G01 X188.5971 Y267.5542 Z-2.0667
G01 X188.6136 Y267.5101 Z-2.0833
G01 X188.6279 Y267.4652 Z-2.1000
G01 X188.6401 Y267.4197 Z-2.1167
G01 X188.6501 Y267.3736 Z-2.1333
G01 X188.6579 Y267.3272 Z-2.1500
G01 X188.6635 Y267.2804 Z-2.1667
G01 X188.6669 Y267.2334 Z-2.1833
G01 X188.6680 Y267.1863 Z-2.2000
G01 X188.6669 Y267.1392
G01 X188.6635 Y267.0922
G01 X188.6579 Y267.0454
G01 X188.6501 Y266.9989
G01 X188.6401 Y266.9529
G01 X188.6279 Y266.9074
G01 X188.6136 Y266.8625
G01 X188.5971 Y266.8183
G01 X188.5785 Y266.7750
G01 X188.5579 Y266.7326
G01 X188.5354 Y266.6913
G01 X188.5108 Y266.6510
G01 X188.4844 Y266.6120
G01 X188.4562 Y266.5743
G01 X188.4262 Y266.5380
G01 X188.3945 Y266.5031
G01 X188.3612 Y266.4698
G01 X188.3263 Y266.4381
G01 X188.2900 Y266.4081
G01 X188.2523 Y266.3798
G01 X188.2132 Y266.3534
G01 X188.1730 Y266.3289
G01 X188.1316 Y266.3063
G01 X188.0893 Y266.2857
G01 X188.0459 Y266.2672
G01 X188.0018 Y266.2507
G01 X187.9569 Y266.2364
G01 X187.9114 Y266.2242
G01 X187.8654 Y266.2142
G01 X187.8189 Y266.2064
G01 X187.7721 Y266.2008
G01 X187.7251 Y266.1974
G01 X187.6780 Y266.1963
G01 X187.6309 Y266.1974
G01 X187.5839 Y266.2008
G01 X187.5371 Y266.2064
G01 X187.4906 Y266.2142
G01 X187.4446 Y266.2242
G01 X187.3991 Y266.2364
G01 X187.3542 Y266.2507
G01 X187.3101 Y266.2672
G01 X187.2667 Y266.2857
G01 X187.2244 Y266.3063
G01 X187.1830 Y266.3289
G01 X187.1428 Y266.3534
G01 X187.1037 Y266.3798
G01 X187.0660 Y266.4081
G01 X187.0297 Y266.4381
G01 X186.9948 Y266.4698
G01 X186.9615 Y266.5031
G01 X186.9298 Y266.5380
G01 X186.8998 Y266.5743
G01 X186.8716 Y266.6120
G01 X186.8452 Y266.6510
G01 X186.8206 Y266.6913
G01 X186.7981 Y266.7326
G01 X186.7775 Y266.7750
G01 X186.7589 Y266.8183
G01 X186.7425 Y266.8625
G01 X186.7281 Y266.9074
G01 X186.7159 Y266.9529
G01 X186.7059 Y266.9989
G01 X186.6981 Y267.0454
G01 X186.6925 Y267.0922
G01 X186.6891 Y267.1392
G01 X186.6880 Y267.1863
G01 X186.6891 Y267.2334
G01 X186.6925 Y267.2804
G01 X186.6981 Y267.3272
G01 X186.7059 Y267.3736
G01 X186.7159 Y267.4197
G01 X186.7281 Y267.4652
G01 X186.7425 Y267.5101
G01 X186.7589 Y267.5542
G01 X186.7775 Y267.5975
G01 X186.7981 Y267.6399
G01 X186.8206 Y267.6813
G01 X186.8452 Y267.7215
G01 X186.8716 Y267.7605
G01 X186.8998 Y267.7983
G01 X186.9298 Y267.8346
G01 X186.9615 Y267.8695
G01 X186.9948 Y267.9028
G01 X187.0297 Y267.9345
G01 X187.0660 Y267.9645
G01 X187.1037 Y267.9927
G01 X187.1428 Y268.0191
G01 X187.1830 Y268.0436
G01 X187.2244 Y268.0662
G01 X187.2667 Y268.0868
G01 X187.3101 Y268.1054
G01 X187.3542 Y268.1218
G01 X187.3991 Y268.1362
G01 X187.4446 Y268.1484
G01 X187.4906 Y268.1584
G01 X187.5371 Y268.1662
G01 X187.5839 Y268.1718
G01 X187.6309 Y268.1752
G01 X187.6780 Y268.1763
G01 X187.7251 Y268.1752
G01 X187.7721 Y268.1718
G01 X187.8189 Y268.1662
G01 X187.8654 Y268.1584
G01 X187.9114 Y268.1484
G01 X187.9569 Y268.1362
G01 X188.0018 Y268.1218
G01 X188.0459 Y268.1054
G01 X188.0893 Y268.0868
G01 X188.1316 Y268.0662
G01 X188.1730 Y268.0436
G01 X188.2132 Y268.0191
G01 X188.2523 Y267.9927
G01 X188.2900 Y267.9645
G01 X188.3263 Y267.9345
G01 X188.3612 Y267.9028
G01 X188.3945 Y267.8695
G01 X188.4262 Y267.8346
G01 X188.4562 Y267.7983
G01 X188.4844 Y267.7605
G01 X188.5108 Y267.7215
G01 X188.5354 Y267.6813
G01 X188.5579 Y267.6399
G01 X188.5785 Y267.5975
G01 X188.5971 Y267.5542
G01 X188.6136 Y267.5101
G01 X188.6279 Y267.4652
G01 X188.6401 Y267.4197
G01 X188.6501 Y267.3736
G01 X188.6579 Y267.3272
G01 X188.6635 Y267.2804
G01 X188.6669 Y267.2334
G01 X188.6680 Y267.1863
G01 X188.6800 Y267.1349 F1000
G01 X188.6893 Y267.0830
G01 X188.6959 Y267.0307
G01 X188.6998 Y266.9782
G01 X188.7009 Y266.9254
G01 X188.6993 Y266.8727
G01 X188.6950 Y266.8202
G01 X188.6879 Y266.7680
G01 X188.6773 Y266.7113
G01 X188.6637 Y266.6553
G01 X188.6473 Y266.6000
G01 X188.6280 Y266.5457
G01 X188.6060 Y266.4924
G01 X188.5812 Y266.4404
G01 X188.5538 Y266.3896
G01 X188.5239 Y266.3404
G01 X188.4887 Y266.2887
G01 X188.4508 Y266.2388
G01 X188.4105 Y266.1909
G01 X188.3678 Y266.1452
G01 X188.3228 Y266.1017
G01 X188.2756 Y266.0606
G01 X188.2264 Y266.0219
G01 X188.1753 Y265.9858
G01 X188.1181 Y265.9500
G01 X188.0592 Y265.9172
G01 X187.9987 Y265.8874
G01 X187.9368 Y265.8607
G01 X187.8736 Y265.8372
G01 X187.8093 Y265.8169
G01 X187.7440 Y265.7999
G01 X187.6780 Y265.7863
G01 X187.6093 Y265.7880
G01 X187.5408 Y265.7930
G01 X187.4726 Y265.8014
G01 X187.4049 Y265.8132
G01 X187.3378 Y265.8283
G01 X187.2716 Y265.8466
G01 X187.2064 Y265.8681
G01 X187.1423 Y265.8929
G01 X187.0794 Y265.9207
G01 X187.0181 Y265.9516
G01 X186.9583 Y265.9855
G01 X186.9002 Y266.0222
G01 X186.8440 Y266.0618
G01 X186.7899 Y266.1041
G01 X186.7378 Y266.1490
G01 X186.6881 Y266.1963
G01 X186.6407 Y266.2461
G01 X186.5958 Y266.2981
G01 X186.5535 Y266.3523
G01 X186.5140 Y266.4085
G01 X186.4772 Y266.4665
G01 X186.4433 Y266.5263
G01 X186.4124 Y266.5877
G01 X186.3846 Y266.6505
G01 X186.3599 Y266.7146
G01 X186.3383 Y266.7799
G01 X186.3200 Y266.8461
G01 X186.3049 Y266.9132
G01 X186.2932 Y266.9809
G01 X186.2848 Y267.0491
G01 X186.2797 Y267.1176
G01 X186.2780 Y267.1863
G01 X186.2797 Y267.2550
G01 X186.2848 Y267.3235
G01 X186.2932 Y267.3917
G01 X186.3049 Y267.4594
G01 X186.3200 Y267.5264
G01 X186.3383 Y267.5927
G01 X186.3599 Y267.6579
G01 X186.3846 Y267.7220
G01 X186.4124 Y267.7848
G01 X186.4433 Y267.8462
G01 X186.4772 Y267.9060
G01 X186.5140 Y267.9641
G01 X186.5535 Y268.0202
G01 X186.5958 Y268.0744
G01 X186.6407 Y268.1264
G01 X186.6881 Y268.1762
G01 X186.7378 Y268.2236
G01 X186.7899 Y268.2685
G01 X186.8440 Y268.3107
G01 X186.9002 Y268.3503
G01 X186.9583 Y268.3871
G01 X187.0181 Y268.4209
G01 X187.0794 Y268.4518
G01 X187.1423 Y268.4797
G01 X187.2064 Y268.5044
G01 X187.2716 Y268.5260
G01 X187.3378 Y268.5443
G01 X187.4049 Y268.5594
G01 X187.4726 Y268.5711
G01 X187.5408 Y268.5795
G01 X187.6093 Y268.5846
G01 X187.6780 Y268.5863
G01 X187.7467 Y268.5846
G01 X187.8152 Y268.5795
G01 X187.8834 Y268.5711
G01 X187.9511 Y268.5594
G01 X188.0182 Y268.5443
G01 X188.0844 Y268.5260
G01 X188.1496 Y268.5044
G01 X188.2138 Y268.4797
G01 X188.2766 Y268.4518
G01 X188.3379 Y268.4209
G01 X188.3977 Y268.3871
G01 X188.4558 Y268.3503
G01 X188.5120 Y268.3107
G01 X188.5661 Y268.2685
G01 X188.6182 Y268.2236
G01 X188.6679 Y268.1762
G01 X188.7153 Y268.1264
G01 X188.7602 Y268.0744
G01 X188.8025 Y268.0202
G01 X188.8420 Y267.9641
G01 X188.8788 Y267.9060
G01 X188.9127 Y267.8462
G01 X188.9436 Y267.7848
G01 X188.9714 Y267.7220
G01 X188.9961 Y267.6579
G01 X189.0177 Y267.5927
G01 X189.0360 Y267.5264
G01 X189.0511 Y267.4594
G01 X189.0628 Y267.3917
G01 X189.0712 Y267.3235
G01 X189.0763 Y267.2550
G01 X189.0780 Y267.1863
G01 X189.0741 Y267.0817
G01 X189.0623 Y266.9776
G01 X189.0429 Y266.8747
G01 X189.0158 Y266.7736
G01 X188.9812 Y266.6748
G01 X188.9393 Y266.5788
G01 X188.8904 Y266.4863
G01 X188.8347 Y266.3976
G01 X188.7726 Y266.3134
G01 X188.7043 Y266.2340
G01 X188.6302 Y266.1600
G01 X188.5509 Y266.0917
G01 X188.4666 Y266.0296
G01 X188.3780 Y265.9739
G01 X188.2854 Y265.9249
G01 X188.1895 Y265.8831
G01 X188.0907 Y265.8485
G01 X187.9895 Y265.8214
G01 X187.8867 Y265.8019
G01 X187.7826 Y265.7902
G01 X187.6780 Y265.7863
G01 X187.5734 Y265.7902
G01 X187.4693 Y265.8019
G01 X187.3665 Y265.8214
G01 X187.2654 Y265.8485
G01 X187.1665 Y265.8831
G01 X187.0706 Y265.9249
G01 X186.9780 Y265.9739
G01 X186.8894 Y266.0296
G01 X186.8051 Y266.0917
G01 X186.7258 Y266.1600
G01 X186.6517 Y266.2340
G01 X186.5835 Y266.3134
G01 X186.5213 Y266.3976
G01 X186.4656 Y266.4863
G01 X186.4167 Y266.5788
G01 X186.3748 Y266.6748
G01 X186.3402 Y266.7736
G01 X186.3131 Y266.8747
G01 X186.2937 Y266.9776
G01 X186.2819 Y267.0817
G01 X186.2780 Y267.1863
G01 X186.2819 Y267.2909
G01 X186.2937 Y267.3949
G01 X186.3131 Y267.4978
G01 X186.3402 Y267.5989
G01 X186.3748 Y267.6977
G01 X186.4167 Y267.7937
G01 X186.4656 Y267.8863
G01 X186.5213 Y267.9749
G01 X186.5835 Y268.0591
G01 X186.6517 Y268.1385
G01 X186.7258 Y268.2125
G01 X186.8051 Y268.2808
G01 X186.8894 Y268.3430
G01 X186.9780 Y268.3987
G01 X187.0706 Y268.4476
G01 X187.1665 Y268.4895
G01 X187.2654 Y268.5241
G01 X187.3665 Y268.5512
G01 X187.4693 Y268.5706
G01 X187.5734 Y268.5823
G01 X187.6780 Y268.5863
G01 X187.7826 Y268.5823
G01 X187.8867 Y268.5706
G01 X187.9895 Y268.5512
G01 X188.0907 Y268.5241
G01 X188.1895 Y268.4895
G01 X188.2854 Y268.4476
G01 X188.3780 Y268.3987
G01 X188.4666 Y268.3430
G01 X188.5509 Y268.2808
G01 X188.6302 Y268.2125
G01 X188.7043 Y268.1385
G01 X188.7726 Y268.0591
G01 X188.8347 Y267.9749
G01 X188.8904 Y267.8863
G01 X188.9393 Y267.7937
G01 X188.9812 Y267.6977
G01 X189.0158 Y267.5989
G01 X189.0429 Y267.4978
G01 X189.0623 Y267.3949
G01 X189.0741 Y267.2909
G01 X189.0780 Y267.1863
G01 X189.0734 Y267.0821
G01 X189.0598 Y266.9788
G01 X189.0373 Y266.8770
G01 X189.0059 Y266.7776
G01 X188.9660 Y266.6813
G01 X188.9179 Y266.5888
G01 X188.8619 Y266.5009
G01 X188.7984 Y266.4182
G01 X188.7280 Y266.3413
G01 X188.6511 Y266.2709
G01 X188.5684 Y266.2074
G01 X188.4805 Y266.1514
G01 X188.3880 Y266.1032
G01 X188.2917 Y266.0634
G01 X188.1923 Y266.0320
G01 X188.0905 Y266.0094
G01 X187.9871 Y265.9958
G01 X187.8830 Y265.9913
G01 X187.7788 Y265.9958
G01 X187.6755 Y266.0094
G01 X187.5737 Y266.0320
G01 X187.4743 Y266.0634
G01 X187.3780 Y266.1032
G01 X187.2855 Y266.1514
G01 X187.1976 Y266.2074
G01 X187.1149 Y266.2709
G01 X187.0380 Y266.3413
G01 X186.9676 Y266.4182
G01 X186.9041 Y266.5009
G01 X186.8481 Y266.5888
G01 X186.8000 Y266.6813
G01 X186.7601 Y266.7776
G01 X186.7287 Y266.8770
G01 X186.7062 Y266.9788
G01 X186.6926 Y267.0821
G01 X186.6880 Y267.1863
G01 X186.6892 Y267.2349
G01 X186.6928 Y267.2833
G01 X186.6987 Y267.3315
G01 X186.7070 Y267.3794
G01 X186.7177 Y267.4268
G01 X186.7306 Y267.4737
G01 X186.7459 Y267.5198
G01 X186.7634 Y267.5651
G01 X186.7831 Y267.6096
G01 X186.8049 Y267.6530
G01 X186.8289 Y267.6952
G01 X186.8548 Y267.7363
G01 X186.8828 Y267.7760
G01 X186.9127 Y267.8143
G01 X186.9445 Y267.8511
G01 X186.9780 Y267.8863
G01 X187.0132 Y267.9198
G01 X187.0500 Y267.9516
G01 X187.0883 Y267.9815
G01 X187.1280 Y268.0094
G01 X187.1690 Y268.0354
G01 X187.2113 Y268.0594
G01 X187.2547 Y268.0812
G01 X187.2991 Y268.1009
G01 X187.3445 Y268.1184
G01 X187.3906 Y268.1336
G01 X187.4375 Y268.1466
G01 X187.4849 Y268.1573
G01 X187.5327 Y268.1656
G01 X187.5810 Y268.1715
G01 X187.6294 Y268.1751
G01 X187.6780 Y268.1763
G01 X187.7266 Y268.1751
G01 X187.7750 Y268.1715
G01 X187.8233 Y268.1656
G01 X187.8711 Y268.1573
G01 X187.9186 Y268.1466
G01 X187.9654 Y268.1336
G01 X188.0115 Y268.1184
G01 X188.0569 Y268.1009
G01 X188.1013 Y268.0812
G01 X188.1447 Y268.0594
G01 X188.1870 Y268.0354
G01 X188.2280 Y268.0094
G01 X188.2677 Y267.9815
G01 X188.3061 Y267.9516
G01 X188.3428 Y267.9198
G01 X188.3780 Y267.8863
G01 X188.4115 Y267.8511
G01 X188.4433 Y267.8143
G01 X188.4732 Y267.7760
G01 X188.5012 Y267.7363
G01 X188.5272 Y267.6952
G01 X188.5511 Y267.6530
G01 X188.5730 Y267.6096
G01 X188.5926 Y267.5651
G01 X188.6101 Y267.5198
G01 X188.6254 Y267.4737
G01 X188.6383 Y267.4268
G01 X188.6490 Y267.3794
G01 X188.6573 Y267.3315
G01 X188.6632 Y267.2833
G01 X188.6668 Y267.2349
G01 X188.6680 Y267.1863
M107
M106 S240
G01 X188.6669 Y267.1392 Z-2.2167 F400
G01 X188.6635 Y267.0922 Z-2.2333
G01 X188.6579 Y267.0454 Z-2.2500
G01 X188.6501 Y266.9989 Z-2.2667
G01 X188.6401 Y266.9529 Z-2.2833
G01 X188.6279 Y266.9074 Z-2.3000
G01 X188.6136 Y266.8625 Z-2.3167
G01 X188.5971 Y266.8183 Z-2.3333
G01 X188.5785 Y266.7750 Z-2.3500
G01 X188.5579 Y266.7326 Z-2.3667
G01 X188.5354 Y266.6913 Z-2.3833
G01 X188.5108 Y266.6510 Z-2.4000
G01 X188.4844 Y266.6120 Z-2.4167
G01 X188.4562 Y266.5743 Z-2.4333
G01 X188.4262 Y266.5380 Z-2.4500
G01 X188.3945 Y266.5031 Z-2.4667
G01 X188.3612 Y266.4698 Z-2.4833
G01 X188.3263 Y266.4381 Z-2.5000
G01 X188.2900 Y266.4081 Z-2.5167
G01 X188.2523 Y266.3798 Z-2.5333
G01 X188.2132 Y266.3534 Z-2.5500
G01 X188.1730 Y266.3289 Z-2.5667
G01 X188.1316 Y266.3063 Z-2.5833
G01 X188.0893 Y266.2857 Z-2.6000
G01 X188.0459 Y266.2672 Z-2.6167
G01 X188.0018 Y266.2507 Z-2.6333
G01 X187.9569 Y266.2364 Z-2.6500
G01 X187.9114 Y266.2242 Z-2.6667
G01 X187.8654 Y266.2142 Z-2.6833
G01 X187.8189 Y266.2064 Z-2.7000
G01 X187.7721 Y266.2008 Z-2.7167
G01 X187.7251 Y266.1974 Z-2.7333
G01 X187.6780 Y266.1963 Z-2.7500
G01 X187.6309 Y266.1974 Z-2.7667
G01 X187.5839 Y266.2008 Z-2.7833
G01 X187.5371 Y266.2064 Z-2.8000
G01 X187.4906 Y266.2142 Z-2.8167
G01 X187.4446 Y266.2242 Z-2.8333
G01 X187.3991 Y266.2364 Z-2.8500
G01 X187.3542 Y266.2507 Z-2.8667
G01 X187.3101 Y266.2672 Z-2.8833
G01 X187.2667 Y266.2857 Z-2.9000
G01 X187.2244 Y266.3063 Z-2.9167
G01 X187.1830 Y266.3289 Z-2.9333
G01 X187.1428 Y266.3534 Z-2.9500
G01 X187.1037 Y266.3798 Z-2.9667
G01 X187.0660 Y266.4081 Z-2.9833
G01 X187.0297 Y266.4381 Z-3.0000
G01 X186.9948 Y266.4698 Z-3.0167
G01 X186.9615 Y266.5031 Z-3.0333
G01 X186.9298 Y266.5380 Z-3.0500
G01 X186.8998 Y266.5743 Z-3.0667
G01 X186.8716 Y266.6120 Z-3.0833
G01 X186.8452 Y266.6510 Z-3.1000
G01 X186.8206 Y266.6913 Z-3.1167
G01 X186.7981 Y266.7326 Z-3.1333
G01 X186.7775 Y266.7750 Z-3.1500
G01 X186.7589 Y266.8183 Z-3.1667
G01 X186.7425 Y266.8625 Z-3.1833
G01 X186.7281 Y266.9074 Z-3.2000
G01 X186.7159 Y266.9529 Z-3.2167
G01 X186.7059 Y266.9989 Z-3.2333
G01 X186.6981 Y267.0454 Z-3.2500
G01 X186.6925 Y267.0922 Z-3.2667
G01 X186.6891 Y267.1392 Z-3.2833
G01 X186.6880 Y267.1863 Z-3.3000
G01 X186.6891 Y267.2334 Z-3.3167
G01 X186.6925 Y267.2804 Z-3.3333
G01 X186.6981 Y267.3272 Z-3.3500
G01 X186.7059 Y267.3736 Z-3.3667
G01 X186.7159 Y267.4197 Z-3.3833
G01 X186.7281 Y267.4652 Z-3.4000
G01 X186.7425 Y267.5101 Z-3.4167
G01 X186.7589 Y267.5542 Z-3.4333
G01 X186.7775 Y267.5975 Z-3.4500
G01 X186.7981 Y267.6399 Z-3.4667
G01 X186.8206 Y267.6813 Z-3.4833
G01 X186.8452 Y267.7215 Z-3.5000
G01 X186.8716 Y267.7605 Z-3.5167
G01 X186.8998 Y267.7983 Z-3.5333
G01 X186.9298 Y267.8346 Z-3.5500
G01 X186.9615 Y267.8695 Z-3.5667
G01 X186.9948 Y267.9028 Z-3.5833
G01 X187.0297 Y267.9345 Z-3.6000
G01 X187.0660 Y267.9645 Z-3.6167
G01 X187.1037 Y267.9927 Z-3.6333
G01 X187.1428 Y268.0191 Z-3.6500
G01 X187.1830 Y268.0436 Z-3.6667
G01 X187.2244 Y268.0662 Z-3.6833
G01 X187.2667 Y268.0868 Z-3.7000
G01 X187.3101 Y268.1054 Z-3.7167
G01 X187.3542 Y268.1218 Z-3.7333
G01 X187.3991 Y268.1362 Z-3.7500
G01 X187.4446 Y268.1484 Z-3.7667
G01 X187.4906 Y268.1584 Z-3.7833
G01 X187.5371 Y268.1662 Z-3.8000
G01 X187.5839 Y268.1718 Z-3.8167
G01 X187.6309 Y268.1752 Z-3.8333
G01 X187.6780 Y268.1763 Z-3.8500
G01 X187.7251 Y268.1752 Z-3.8667
G01 X187.7721 Y268.1718 Z-3.8833
G01 X187.8189 Y268.1662 Z-3.9000
G01 X187.8654 Y268.1584 Z-3.9167
G01 X187.9114 Y268.1484 Z-3.9333
