;Project TeslaVehiclesOnly
;Created by Estlcam version 11 build 11,116
;Machining time about 00:15:52 hours

G90
M03 S18000
G00 X0.0000 Y0.0000 Z0.0000
G00 Z2.0000


;No. 1: Helical drill 1
G00 X33.4037 Y187.6780
G00 Z0.5000
M106 S240
G01 X33.4026 Y187.6309 Z0.4962 F400 S18000
G01 X33.3992 Y187.5839 Z0.4924
G01 X33.3936 Y187.5371 Z0.4886
G01 X33.3858 Y187.4906 Z0.4848
G01 X33.3758 Y187.4446 Z0.4811
G01 X33.3636 Y187.3991 Z0.4773
G01 X33.3492 Y187.3542 Z0.4735
G01 X33.3328 Y187.3100 Z0.4697
G01 X33.3142 Y187.2667 Z0.4659
G01 X33.2936 Y187.2243 Z0.4621
G01 X33.2711 Y187.1830 Z0.4583
G01 X33.2465 Y187.1427 Z0.4545
G01 X33.2201 Y187.1037 Z0.4508
G01 X33.1919 Y187.0660 Z0.4470
G01 X33.1619 Y187.0297 Z0.4432
G01 X33.1302 Y186.9948 Z0.4394
G01 X33.0969 Y186.9615 Z0.4356
G01 X33.0620 Y186.9298 Z0.4318
G01 X33.0257 Y186.8998 Z0.4280
G01 X32.9879 Y186.8716 Z0.4242
G01 X32.9489 Y186.8451 Z0.4205
G01 X32.9087 Y186.8206 Z0.4167
G01 X32.8673 Y186.7980 Z0.4129
G01 X32.8249 Y186.7774 Z0.4091
G01 X32.7816 Y186.7589 Z0.4053
G01 X32.7375 Y186.7424 Z0.4015
G01 X32.6926 Y186.7281 Z0.3977
G01 X32.6471 Y186.7159 Z0.3939
G01 X32.6010 Y186.7059 Z0.3902
G01 X32.5546 Y186.6981 Z0.3864
G01 X32.5078 Y186.6925 Z0.3826
G01 X32.4608 Y186.6891 Z0.3788
G01 X32.4137 Y186.6880 Z0.3750
G01 X32.3666 Y186.6891 Z0.3712
G01 X32.3196 Y186.6925 Z0.3674
G01 X32.2728 Y186.6981 Z0.3636
G01 X32.2263 Y186.7059 Z0.3598
G01 X32.1803 Y186.7159 Z0.3561
G01 X32.1348 Y186.7281 Z0.3523
G01 X32.0899 Y186.7424 Z0.3485
G01 X32.0457 Y186.7589 Z0.3447
G01 X32.0024 Y186.7774 Z0.3409
G01 X31.9600 Y186.7980 Z0.3371
G01 X31.9187 Y186.8206 Z0.3333
G01 X31.8785 Y186.8451 Z0.3295
G01 X31.8394 Y186.8716 Z0.3258
G01 X31.8017 Y186.8998 Z0.3220
G01 X31.7654 Y186.9298 Z0.3182
G01 X31.7305 Y186.9615 Z0.3144
G01 X31.6972 Y186.9948 Z0.3106
G01 X31.6655 Y187.0297 Z0.3068
G01 X31.6355 Y187.0660 Z0.3030
G01 X31.6073 Y187.1037 Z0.2992
G01 X31.5808 Y187.1427 Z0.2955
G01 X31.5563 Y187.1830 Z0.2917
G01 X31.5337 Y187.2243 Z0.2879
G01 X31.5132 Y187.2667 Z0.2841
G01 X31.4946 Y187.3100 Z0.2803
G01 X31.4781 Y187.3542 Z0.2765
G01 X31.4638 Y187.3991 Z0.2727
G01 X31.4516 Y187.4446 Z0.2689
G01 X31.4416 Y187.4906 Z0.2652
G01 X31.4338 Y187.5371 Z0.2614
G01 X31.4282 Y187.5839 Z0.2576
G01 X31.4248 Y187.6309 Z0.2538
G01 X31.4237 Y187.6780 Z0.2500
G01 X31.4248 Y187.7251 Z0.2462
G01 X31.4282 Y187.7721 Z0.2424
G01 X31.4338 Y187.8189 Z0.2386
G01 X31.4416 Y187.8653 Z0.2348
G01 X31.4516 Y187.9114 Z0.2311
G01 X31.4638 Y187.9569 Z0.2273
G01 X31.4781 Y188.0018 Z0.2235
G01 X31.4946 Y188.0459 Z0.2197
G01 X31.5132 Y188.0892 Z0.2159
G01 X31.5337 Y188.1316 Z0.2121
G01 X31.5563 Y188.1730 Z0.2083
G01 X31.5808 Y188.2132 Z0.2045
G01 X31.6073 Y188.2522 Z0.2008
G01 X31.6355 Y188.2900 Z0.1970
G01 X31.6655 Y188.3263 Z0.1932
G01 X31.6972 Y188.3612 Z0.1894
G01 X31.7305 Y188.3945 Z0.1856
G01 X31.7654 Y188.4262 Z0.1818
G01 X31.8017 Y188.4562 Z0.1780
G01 X31.8394 Y188.4844 Z0.1742
G01 X31.8785 Y188.5108 Z0.1705
G01 X31.9187 Y188.5353 Z0.1667
G01 X31.9600 Y188.5579 Z0.1629
G01 X32.0024 Y188.5785 Z0.1591
G01 X32.0457 Y188.5971 Z0.1553
G01 X32.0899 Y188.6135 Z0.1515
G01 X32.1348 Y188.6279 Z0.1477
G01 X32.1803 Y188.6401 Z0.1439
G01 X32.2263 Y188.6501 Z0.1402
G01 X32.2728 Y188.6579 Z0.1364
G01 X32.3196 Y188.6635 Z0.1326
G01 X32.3666 Y188.6669 Z0.1288
G01 X32.4137 Y188.6680 Z0.1250
G01 X32.4608 Y188.6669 Z0.1212
G01 X32.5078 Y188.6635 Z0.1174
G01 X32.5546 Y188.6579 Z0.1136
G01 X32.6010 Y188.6501 Z0.1098
G01 X32.6471 Y188.6401 Z0.1061
G01 X32.6926 Y188.6279 Z0.1023
G01 X32.7375 Y188.6135 Z0.0985
G01 X32.7816 Y188.5971 Z0.0947
G01 X32.8249 Y188.5785 Z0.0909
G01 X32.8673 Y188.5579 Z0.0871
G01 X32.9087 Y188.5353 Z0.0833
G01 X32.9489 Y188.5108 Z0.0795
G01 X32.9879 Y188.4844 Z0.0758
G01 X33.0257 Y188.4562 Z0.0720
G01 X33.0620 Y188.4262 Z0.0682
G01 X33.0969 Y188.3945 Z0.0644
G01 X33.1302 Y188.3612 Z0.0606
G01 X33.1619 Y188.3263 Z0.0568
G01 X33.1919 Y188.2900 Z0.0530
G01 X33.2201 Y188.2522 Z0.0492
G01 X33.2465 Y188.2132 Z0.0455
G01 X33.2711 Y188.1730 Z0.0417
G01 X33.2936 Y188.1316 Z0.0379
G01 X33.3142 Y188.0892 Z0.0341
G01 X33.3328 Y188.0459 Z0.0303
G01 X33.3492 Y188.0018 Z0.0265
G01 X33.3636 Y187.9569 Z0.0227
G01 X33.3758 Y187.9114 Z0.0189
G01 X33.3858 Y187.8653 Z0.0152
G01 X33.3936 Y187.8189 Z0.0114
G01 X33.3992 Y187.7721 Z0.0076
G01 X33.4026 Y187.7251 Z0.0038
G01 X33.4037 Y187.6780 Z0.0000
G01 X33.4026 Y187.6309
G01 X33.3992 Y187.5839
G01 X33.3936 Y187.5371
G01 X33.3858 Y187.4906
G01 X33.3758 Y187.4446
G01 X33.3636 Y187.3991
G01 X33.3492 Y187.3542
G01 X33.3328 Y187.3100
G01 X33.3142 Y187.2667
G01 X33.2936 Y187.2243
G01 X33.2711 Y187.1830
G01 X33.2465 Y187.1427
G01 X33.2201 Y187.1037
G01 X33.1919 Y187.0660
G01 X33.1619 Y187.0297
G01 X33.1302 Y186.9948
G01 X33.0969 Y186.9615
G01 X33.0620 Y186.9298
G01 X33.0257 Y186.8998
G01 X32.9879 Y186.8716
G01 X32.9489 Y186.8451
G01 X32.9087 Y186.8206
G01 X32.8673 Y186.7980
G01 X32.8249 Y186.7774
G01 X32.7816 Y186.7589
G01 X32.7375 Y186.7424
G01 X32.6926 Y186.7281
G01 X32.6471 Y186.7159
G01 X32.6010 Y186.7059
G01 X32.5546 Y186.6981
G01 X32.5078 Y186.6925
G01 X32.4608 Y186.6891
G01 X32.4137 Y186.6880
G01 X32.3666 Y186.6891
G01 X32.3196 Y186.6925
G01 X32.2728 Y186.6981
G01 X32.2263 Y186.7059
G01 X32.1803 Y186.7159
G01 X32.1348 Y186.7281
G01 X32.0899 Y186.7424
G01 X32.0457 Y186.7589
G01 X32.0024 Y186.7774
G01 X31.9600 Y186.7980
G01 X31.9187 Y186.8206
G01 X31.8785 Y186.8451
G01 X31.8394 Y186.8716
G01 X31.8017 Y186.8998
G01 X31.7654 Y186.9298
G01 X31.7305 Y186.9615
G01 X31.6972 Y186.9948
G01 X31.6655 Y187.0297
G01 X31.6355 Y187.0660
G01 X31.6073 Y187.1037
G01 X31.5808 Y187.1427
G01 X31.5563 Y187.1830
G01 X31.5337 Y187.2243
G01 X31.5132 Y187.2667
G01 X31.4946 Y187.3100
G01 X31.4781 Y187.3542
G01 X31.4638 Y187.3991
G01 X31.4516 Y187.4446
G01 X31.4416 Y187.4906
G01 X31.4338 Y187.5371
G01 X31.4282 Y187.5839
G01 X31.4248 Y187.6309
G01 X31.4237 Y187.6780
G01 X31.4248 Y187.7251
G01 X31.4282 Y187.7721
G01 X31.4338 Y187.8189
G01 X31.4416 Y187.8653
G01 X31.4516 Y187.9114
G01 X31.4638 Y187.9569
G01 X31.4781 Y188.0018
G01 X31.4946 Y188.0459
G01 X31.5132 Y188.0892
G01 X31.5337 Y188.1316
G01 X31.5563 Y188.1730
G01 X31.5808 Y188.2132
G01 X31.6073 Y188.2522
G01 X31.6355 Y188.2900
G01 X31.6655 Y188.3263
G01 X31.6972 Y188.3612
G01 X31.7305 Y188.3945
G01 X31.7654 Y188.4262
G01 X31.8017 Y188.4562
G01 X31.8394 Y188.4844
G01 X31.8785 Y188.5108
G01 X31.9187 Y188.5353
G01 X31.9600 Y188.5579
G01 X32.0024 Y188.5785
G01 X32.0457 Y188.5971
G01 X32.0899 Y188.6135
G01 X32.1348 Y188.6279
G01 X32.1803 Y188.6401
G01 X32.2263 Y188.6501
G01 X32.2728 Y188.6579
G01 X32.3196 Y188.6635
G01 X32.3666 Y188.6669
G01 X32.4137 Y188.6680
G01 X32.4608 Y188.6669
G01 X32.5078 Y188.6635
G01 X32.5546 Y188.6579
G01 X32.6010 Y188.6501
G01 X32.6471 Y188.6401
G01 X32.6926 Y188.6279
G01 X32.7375 Y188.6135
G01 X32.7816 Y188.5971
G01 X32.8249 Y188.5785
G01 X32.8673 Y188.5579
G01 X32.9087 Y188.5353
G01 X32.9489 Y188.5108
G01 X32.9879 Y188.4844
G01 X33.0257 Y188.4562
G01 X33.0620 Y188.4262
G01 X33.0969 Y188.3945
G01 X33.1302 Y188.3612
G01 X33.1619 Y188.3263
G01 X33.1919 Y188.2900
G01 X33.2201 Y188.2522
G01 X33.2465 Y188.2132
G01 X33.2711 Y188.1730
G01 X33.2936 Y188.1316
G01 X33.3142 Y188.0892
G01 X33.3328 Y188.0459
G01 X33.3492 Y188.0018
G01 X33.3636 Y187.9569
G01 X33.3758 Y187.9114
G01 X33.3858 Y187.8653
G01 X33.3936 Y187.8189
G01 X33.3992 Y187.7721
G01 X33.4026 Y187.7251
G01 X33.4037 Y187.6780
M107
M106 S240
G01 X33.4026 Y187.6309 Z-0.0167
G01 X33.3992 Y187.5839 Z-0.0333
G01 X33.3936 Y187.5371 Z-0.0500
G01 X33.3858 Y187.4906 Z-0.0667
G01 X33.3758 Y187.4446 Z-0.0833
G01 X33.3636 Y187.3991 Z-0.1000
G01 X33.3492 Y187.3542 Z-0.1167
G01 X33.3328 Y187.3100 Z-0.1333
G01 X33.3142 Y187.2667 Z-0.1500
G01 X33.2936 Y187.2243 Z-0.1667
G01 X33.2711 Y187.1830 Z-0.1833
G01 X33.2465 Y187.1427 Z-0.2000
G01 X33.2201 Y187.1037 Z-0.2167
G01 X33.1919 Y187.0660 Z-0.2333
G01 X33.1619 Y187.0297 Z-0.2500
G01 X33.1302 Y186.9948 Z-0.2667
G01 X33.0969 Y186.9615 Z-0.2833
G01 X33.0620 Y186.9298 Z-0.3000
G01 X33.0257 Y186.8998 Z-0.3167
G01 X32.9879 Y186.8716 Z-0.3333
G01 X32.9489 Y186.8451 Z-0.3500
G01 X32.9087 Y186.8206 Z-0.3667
G01 X32.8673 Y186.7980 Z-0.3833
G01 X32.8249 Y186.7774 Z-0.4000
G01 X32.7816 Y186.7589 Z-0.4167
G01 X32.7375 Y186.7424 Z-0.4333
G01 X32.6926 Y186.7281 Z-0.4500
G01 X32.6471 Y186.7159 Z-0.4667
G01 X32.6010 Y186.7059 Z-0.4833
G01 X32.5546 Y186.6981 Z-0.5000
G01 X32.5078 Y186.6925 Z-0.5167
G01 X32.4608 Y186.6891 Z-0.5333
G01 X32.4137 Y186.6880 Z-0.5500
G01 X32.3666 Y186.6891 Z-0.5667
G01 X32.3196 Y186.6925 Z-0.5833
G01 X32.2728 Y186.6981 Z-0.6000
G01 X32.2263 Y186.7059 Z-0.6167
G01 X32.1803 Y186.7159 Z-0.6333
G01 X32.1348 Y186.7281 Z-0.6500
G01 X32.0899 Y186.7424 Z-0.6667
G01 X32.0457 Y186.7589 Z-0.6833
G01 X32.0024 Y186.7774 Z-0.7000
G01 X31.9600 Y186.7980 Z-0.7167
G01 X31.9187 Y186.8206 Z-0.7333
G01 X31.8785 Y186.8451 Z-0.7500
G01 X31.8394 Y186.8716 Z-0.7667
G01 X31.8017 Y186.8998 Z-0.7833
G01 X31.7654 Y186.9298 Z-0.8000
G01 X31.7305 Y186.9615 Z-0.8167
G01 X31.6972 Y186.9948 Z-0.8333
G01 X31.6655 Y187.0297 Z-0.8500
G01 X31.6355 Y187.0660 Z-0.8667
G01 X31.6073 Y187.1037 Z-0.8833
G01 X31.5808 Y187.1427 Z-0.9000
G01 X31.5563 Y187.1830 Z-0.9167
G01 X31.5337 Y187.2243 Z-0.9333
G01 X31.5132 Y187.2667 Z-0.9500
G01 X31.4946 Y187.3100 Z-0.9667
G01 X31.4781 Y187.3542 Z-0.9833
G01 X31.4638 Y187.3991 Z-1.0000
G01 X31.4516 Y187.4446 Z-1.0167
G01 X31.4416 Y187.4906 Z-1.0333
G01 X31.4338 Y187.5371 Z-1.0500
G01 X31.4282 Y187.5839 Z-1.0667
G01 X31.4248 Y187.6309 Z-1.0833
G01 X31.4237 Y187.6780 Z-1.1000
G01 X31.4248 Y187.7251 Z-1.1167
G01 X31.4282 Y187.7721 Z-1.1333
G01 X31.4338 Y187.8189 Z-1.1500
G01 X31.4416 Y187.8653 Z-1.1667
G01 X31.4516 Y187.9114 Z-1.1833
G01 X31.4638 Y187.9569 Z-1.2000
G01 X31.4781 Y188.0018 Z-1.2167
G01 X31.4946 Y188.0459 Z-1.2333
G01 X31.5132 Y188.0892 Z-1.2500
G01 X31.5337 Y188.1316 Z-1.2667
G01 X31.5563 Y188.1730 Z-1.2833
G01 X31.5808 Y188.2132 Z-1.3000
G01 X31.6073 Y188.2522 Z-1.3167
G01 X31.6355 Y188.2900 Z-1.3333
G01 X31.6655 Y188.3263 Z-1.3500
G01 X31.6972 Y188.3612 Z-1.3667
G01 X31.7305 Y188.3945 Z-1.3833
G01 X31.7654 Y188.4262 Z-1.4000
G01 X31.8017 Y188.4562 Z-1.4167
G01 X31.8394 Y188.4844 Z-1.4333
G01 X31.8785 Y188.5108 Z-1.4500
G01 X31.9187 Y188.5353 Z-1.4667
G01 X31.9600 Y188.5579 Z-1.4833
G01 X32.0024 Y188.5785 Z-1.5000
G01 X32.0457 Y188.5971 Z-1.5167
G01 X32.0899 Y188.6135 Z-1.5333
G01 X32.1348 Y188.6279 Z-1.5500
G01 X32.1803 Y188.6401 Z-1.5667
G01 X32.2263 Y188.6501 Z-1.5833
G01 X32.2728 Y188.6579 Z-1.6000
G01 X32.3196 Y188.6635 Z-1.6167
G01 X32.3666 Y188.6669 Z-1.6333
G01 X32.4137 Y188.6680 Z-1.6500
G01 X32.4608 Y188.6669 Z-1.6667
G01 X32.5078 Y188.6635 Z-1.6833
G01 X32.5546 Y188.6579 Z-1.7000
G01 X32.6010 Y188.6501 Z-1.7167
G01 X32.6471 Y188.6401 Z-1.7333
G01 X32.6926 Y188.6279 Z-1.7500
G01 X32.7375 Y188.6135 Z-1.7667
G01 X32.7816 Y188.5971 Z-1.7833
G01 X32.8249 Y188.5785 Z-1.8000
G01 X32.8673 Y188.5579 Z-1.8167
G01 X32.9087 Y188.5353 Z-1.8333
G01 X32.9489 Y188.5108 Z-1.8500
G01 X32.9879 Y188.4844 Z-1.8667
G01 X33.0257 Y188.4562 Z-1.8833
G01 X33.0620 Y188.4262 Z-1.9000
G01 X33.0969 Y188.3945 Z-1.9167
G01 X33.1302 Y188.3612 Z-1.9333
G01 X33.1619 Y188.3263 Z-1.9500
G01 X33.1919 Y188.2900 Z-1.9667
G01 X33.2201 Y188.2522 Z-1.9833
G01 X33.2465 Y188.2132 Z-2.0000
G01 X33.2711 Y188.1730 Z-2.0167
G01 X33.2936 Y188.1316 Z-2.0333
G01 X33.3142 Y188.0892 Z-2.0500
G01 X33.3328 Y188.0459 Z-2.0667
G01 X33.3492 Y188.0018 Z-2.0833
G01 X33.3636 Y187.9569 Z-2.1000
G01 X33.3758 Y187.9114 Z-2.1167
G01 X33.3858 Y187.8653 Z-2.1333
G01 X33.3936 Y187.8189 Z-2.1500
G01 X33.3992 Y187.7721 Z-2.1667
G01 X33.4026 Y187.7251 Z-2.1833
G01 X33.4037 Y187.6780 Z-2.2000
G01 X33.4026 Y187.6309
G01 X33.3992 Y187.5839
G01 X33.3936 Y187.5371
G01 X33.3858 Y187.4906
G01 X33.3758 Y187.4446
G01 X33.3636 Y187.3991
G01 X33.3492 Y187.3542
G01 X33.3328 Y187.3100
G01 X33.3142 Y187.2667
G01 X33.2936 Y187.2243
G01 X33.2711 Y187.1830
G01 X33.2465 Y187.1427
G01 X33.2201 Y187.1037
G01 X33.1919 Y187.0660
G01 X33.1619 Y187.0297
G01 X33.1302 Y186.9948
G01 X33.0969 Y186.9615
G01 X33.0620 Y186.9298
G01 X33.0257 Y186.8998
G01 X32.9879 Y186.8716
G01 X32.9489 Y186.8451
G01 X32.9087 Y186.8206
G01 X32.8673 Y186.7980
G01 X32.8249 Y186.7774
G01 X32.7816 Y186.7589
G01 X32.7375 Y186.7424
G01 X32.6926 Y186.7281
G01 X32.6471 Y186.7159
G01 X32.6010 Y186.7059
G01 X32.5546 Y186.6981
G01 X32.5078 Y186.6925
G01 X32.4608 Y186.6891
G01 X32.4137 Y186.6880
G01 X32.3666 Y186.6891
G01 X32.3196 Y186.6925
G01 X32.2728 Y186.6981
G01 X32.2263 Y186.7059
G01 X32.1803 Y186.7159
G01 X32.1348 Y186.7281
G01 X32.0899 Y186.7424
G01 X32.0457 Y186.7589
G01 X32.0024 Y186.7774
G01 X31.9600 Y186.7980
G01 X31.9187 Y186.8206
G01 X31.8785 Y186.8451
G01 X31.8394 Y186.8716
G01 X31.8017 Y186.8998
G01 X31.7654 Y186.9298
G01 X31.7305 Y186.9615
G01 X31.6972 Y186.9948
G01 X31.6655 Y187.0297
G01 X31.6355 Y187.0660
G01 X31.6073 Y187.1037
G01 X31.5808 Y187.1427
G01 X31.5563 Y187.1830
G01 X31.5337 Y187.2243
G01 X31.5132 Y187.2667
G01 X31.4946 Y187.3100
G01 X31.4781 Y187.3542
G01 X31.4638 Y187.3991
G01 X31.4516 Y187.4446
G01 X31.4416 Y187.4906
G01 X31.4338 Y187.5371
G01 X31.4282 Y187.5839
G01 X31.4248 Y187.6309
G01 X31.4237 Y187.6780
G01 X31.4248 Y187.7251
G01 X31.4282 Y187.7721
G01 X31.4338 Y187.8189
G01 X31.4416 Y187.8653
G01 X31.4516 Y187.9114
G01 X31.4638 Y187.9569
G01 X31.4781 Y188.0018
G01 X31.4946 Y188.0459
G01 X31.5132 Y188.0892
G01 X31.5337 Y188.1316
G01 X31.5563 Y188.1730
G01 X31.5808 Y188.2132
G01 X31.6073 Y188.2522
G01 X31.6355 Y188.2900
G01 X31.6655 Y188.3263
G01 X31.6972 Y188.3612
G01 X31.7305 Y188.3945
G01 X31.7654 Y188.4262
G01 X31.8017 Y188.4562
G01 X31.8394 Y188.4844
G01 X31.8785 Y188.5108
G01 X31.9187 Y188.5353
G01 X31.9600 Y188.5579
G01 X32.0024 Y188.5785
G01 X32.0457 Y188.5971
G01 X32.0899 Y188.6135
G01 X32.1348 Y188.6279
G01 X32.1803 Y188.6401
G01 X32.2263 Y188.6501
G01 X32.2728 Y188.6579
G01 X32.3196 Y188.6635
G01 X32.3666 Y188.6669
G01 X32.4137 Y188.6680
G01 X32.4608 Y188.6669
G01 X32.5078 Y188.6635
G01 X32.5546 Y188.6579
G01 X32.6010 Y188.6501
G01 X32.6471 Y188.6401
G01 X32.6926 Y188.6279
G01 X32.7375 Y188.6135
G01 X32.7816 Y188.5971
G01 X32.8249 Y188.5785
G01 X32.8673 Y188.5579
G01 X32.9087 Y188.5353
G01 X32.9489 Y188.5108
G01 X32.9879 Y188.4844
G01 X33.0257 Y188.4562
G01 X33.0620 Y188.4262
G01 X33.0969 Y188.3945
G01 X33.1302 Y188.3612
G01 X33.1619 Y188.3263
G01 X33.1919 Y188.2900
G01 X33.2201 Y188.2522
G01 X33.2465 Y188.2132
G01 X33.2711 Y188.1730
G01 X33.2936 Y188.1316
G01 X33.3142 Y188.0892
G01 X33.3328 Y188.0459
G01 X33.3492 Y188.0018
G01 X33.3636 Y187.9569
G01 X33.3758 Y187.9114
G01 X33.3858 Y187.8653
G01 X33.3936 Y187.8189
G01 X33.3992 Y187.7721
G01 X33.4026 Y187.7251
G01 X33.4037 Y187.6780
G01 X33.4157 Y187.6266 F1000
G01 X33.4250 Y187.5747
G01 X33.4316 Y187.5224
G01 X33.4355 Y187.4699
G01 X33.4366 Y187.4172
G01 X33.4350 Y187.3645
G01 X33.4307 Y187.3119
G01 X33.4236 Y187.2597
G01 X33.4129 Y187.2030
G01 X33.3994 Y187.1470
G01 X33.3829 Y187.0917
G01 X33.3637 Y187.0374
G01 X33.3417 Y186.9841
G01 X33.3169 Y186.9321
G01 X33.2895 Y186.8813
G01 X33.2596 Y186.8321
G01 X33.2243 Y186.7804
G01 X33.1865 Y186.7305
G01 X33.1462 Y186.6826
G01 X33.1035 Y186.6369
G01 X33.0584 Y186.5934
G01 X33.0113 Y186.5523
G01 X32.9621 Y186.5136
G01 X32.9109 Y186.4775
G01 X32.8538 Y186.4417
G01 X32.7949 Y186.4089
G01 X32.7344 Y186.3791
G01 X32.6725 Y186.3524
G01 X32.6093 Y186.3289
G01 X32.5450 Y186.3086
G01 X32.4797 Y186.2917
G01 X32.4137 Y186.2780
G01 X32.3450 Y186.2797
G01 X32.2765 Y186.2848
G01 X32.2083 Y186.2932
G01 X32.1406 Y186.3049
G01 X32.0735 Y186.3200
G01 X32.0073 Y186.3383
G01 X31.9421 Y186.3599
G01 X31.8779 Y186.3846
G01 X31.8151 Y186.4124
G01 X31.7537 Y186.4433
G01 X31.6940 Y186.4772
G01 X31.6359 Y186.5140
G01 X31.5797 Y186.5535
G01 X31.5256 Y186.5958
G01 X31.4735 Y186.6407
G01 X31.4238 Y186.6881
G01 X31.3764 Y186.7378
G01 X31.3315 Y186.7899
G01 X31.2892 Y186.8440
G01 X31.2497 Y186.9002
G01 X31.2129 Y186.9583
G01 X31.1790 Y187.0180
G01 X31.1481 Y187.0794
G01 X31.1203 Y187.1422
G01 X31.0956 Y187.2063
G01 X31.0740 Y187.2716
G01 X31.0557 Y187.3378
G01 X31.0406 Y187.4049
G01 X31.0289 Y187.4726
G01 X31.0205 Y187.5408
G01 X31.0154 Y187.6093
G01 X31.0137 Y187.6780
G01 X31.0154 Y187.7467
G01 X31.0205 Y187.8152
G01 X31.0289 Y187.8834
G01 X31.0406 Y187.9511
G01 X31.0557 Y188.0181
G01 X31.0740 Y188.0844
G01 X31.0956 Y188.1496
G01 X31.1203 Y188.2137
G01 X31.1481 Y188.2765
G01 X31.1790 Y188.3379
G01 X31.2129 Y188.3977
G01 X31.2497 Y188.4558
G01 X31.2892 Y188.5119
G01 X31.3315 Y188.5661
G01 X31.3764 Y188.6181
G01 X31.4238 Y188.6679
G01 X31.4735 Y188.7153
G01 X31.5256 Y188.7602
G01 X31.5797 Y188.8024
G01 X31.6359 Y188.8420
G01 X31.6940 Y188.8788
G01 X31.7537 Y188.9126
G01 X31.8151 Y188.9435
G01 X31.8779 Y188.9714
G01 X31.9421 Y188.9961
G01 X32.0073 Y189.0177
G01 X32.0735 Y189.0360
G01 X32.1406 Y189.0510
G01 X32.2083 Y189.0628
G01 X32.2765 Y189.0712
G01 X32.3450 Y189.0763
G01 X32.4137 Y189.0779
G01 X32.4824 Y189.0763
G01 X32.5509 Y189.0712
G01 X32.6191 Y189.0628
G01 X32.6868 Y189.0510
G01 X32.7538 Y189.0360
G01 X32.8201 Y189.0177
G01 X32.8853 Y188.9961
G01 X32.9494 Y188.9714
G01 X33.0122 Y188.9435
G01 X33.0736 Y188.9126
G01 X33.1334 Y188.8788
G01 X33.1915 Y188.8420
G01 X33.2476 Y188.8024
G01 X33.3018 Y188.7602
G01 X33.3538 Y188.7153
G01 X33.4036 Y188.6679
G01 X33.4510 Y188.6181
G01 X33.4959 Y188.5661
G01 X33.5381 Y188.5119
G01 X33.5777 Y188.4558
G01 X33.6145 Y188.3977
G01 X33.6483 Y188.3379
G01 X33.6792 Y188.2765
G01 X33.7071 Y188.2137
G01 X33.7318 Y188.1496
G01 X33.7534 Y188.0844
G01 X33.7717 Y188.0181
G01 X33.7868 Y187.9511
G01 X33.7985 Y187.8834
G01 X33.8069 Y187.8152
G01 X33.8120 Y187.7467
G01 X33.8137 Y187.6780
G01 X33.8097 Y187.5734
G01 X33.7980 Y187.4693
G01 X33.7786 Y187.3665
G01 X33.7515 Y187.2653
G01 X33.7169 Y187.1665
G01 X33.6750 Y187.0706
G01 X33.6261 Y186.9780
G01 X33.5704 Y186.8894
G01 X33.5082 Y186.8051
G01 X33.4399 Y186.7258
G01 X33.3659 Y186.6517
G01 X33.2865 Y186.5834
G01 X33.2023 Y186.5213
G01 X33.1137 Y186.4656
G01 X33.0211 Y186.4167
G01 X32.9252 Y186.3748
G01 X32.8263 Y186.3402
G01 X32.7252 Y186.3131
G01 X32.6223 Y186.2937
G01 X32.5183 Y186.2819
G01 X32.4137 Y186.2780
G01 X32.3091 Y186.2819
G01 X32.2050 Y186.2937
G01 X32.1022 Y186.3131
G01 X32.0010 Y186.3402
G01 X31.9022 Y186.3748
G01 X31.8063 Y186.4167
G01 X31.7137 Y186.4656
G01 X31.6251 Y186.5213
G01 X31.5408 Y186.5834
G01 X31.4615 Y186.6517
G01 X31.3874 Y186.7258
G01 X31.3191 Y186.8051
G01 X31.2570 Y186.8894
G01 X31.2013 Y186.9780
G01 X31.1524 Y187.0706
G01 X31.1105 Y187.1665
G01 X31.0759 Y187.2653
G01 X31.0488 Y187.3665
G01 X31.0294 Y187.4693
G01 X31.0176 Y187.5734
G01 X31.0137 Y187.6780
G01 X31.0176 Y187.7826
G01 X31.0294 Y187.8866
G01 X31.0488 Y187.9895
G01 X31.0759 Y188.0906
G01 X31.1105 Y188.1894
G01 X31.1524 Y188.2854
G01 X31.2013 Y188.3780
G01 X31.2570 Y188.4666
G01 X31.3191 Y188.5508
G01 X31.3874 Y188.6302
G01 X31.4615 Y188.7042
G01 X31.5408 Y188.7725
G01 X31.6251 Y188.8347
G01 X31.7137 Y188.8904
G01 X31.8063 Y188.9393
G01 X31.9022 Y188.9812
G01 X32.0010 Y189.0158
G01 X32.1022 Y189.0428
G01 X32.2050 Y189.0623
G01 X32.3091 Y189.0740
G01 X32.4137 Y189.0779
G01 X32.5183 Y189.0740
G01 X32.6223 Y189.0623
G01 X32.7252 Y189.0428
G01 X32.8263 Y189.0158
G01 X32.9252 Y188.9812
G01 X33.0211 Y188.9393
G01 X33.1137 Y188.8904
G01 X33.2023 Y188.8347
G01 X33.2865 Y188.7725
G01 X33.3659 Y188.7042
G01 X33.4399 Y188.6302
G01 X33.5082 Y188.5508
G01 X33.5704 Y188.4666
G01 X33.6261 Y188.3780
G01 X33.6750 Y188.2854
G01 X33.7169 Y188.1894
G01 X33.7515 Y188.0906
G01 X33.7786 Y187.9895
G01 X33.7980 Y187.8866
G01 X33.8097 Y187.7826
G01 X33.8137 Y187.6780
G01 X33.8091 Y187.5738
G01 X33.7955 Y187.4705
G01 X33.7729 Y187.3687
G01 X33.7416 Y187.2693
G01 X33.7017 Y187.1730
G01 X33.6536 Y187.0805
G01 X33.5975 Y186.9926
G01 X33.5341 Y186.9099
G01 X33.4636 Y186.8330
G01 X33.3868 Y186.7626
G01 X33.3041 Y186.6991
G01 X33.2162 Y186.6431
G01 X33.1237 Y186.5950
G01 X33.0274 Y186.5551
G01 X32.9280 Y186.5237
G01 X32.8262 Y186.5012
G01 X32.7228 Y186.4875
G01 X32.6187 Y186.4830
G01 X32.5145 Y186.4875
G01 X32.4112 Y186.5012
G01 X32.3094 Y186.5237
G01 X32.2100 Y186.5551
G01 X32.1136 Y186.5950
G01 X32.0212 Y186.6431
G01 X31.9333 Y186.6991
G01 X31.8505 Y186.7626
G01 X31.7737 Y186.8330
G01 X31.7033 Y186.9099
G01 X31.6398 Y186.9926
G01 X31.5838 Y187.0805
G01 X31.5356 Y187.1730
G01 X31.4958 Y187.2693
G01 X31.4644 Y187.3687
G01 X31.4418 Y187.4705
G01 X31.4282 Y187.5738
G01 X31.4237 Y187.6780
G01 X31.4249 Y187.7266
G01 X31.4285 Y187.7750
G01 X31.4344 Y187.8232
G01 X31.4427 Y187.8711
G01 X31.4534 Y187.9185
G01 X31.4663 Y187.9654
G01 X31.4816 Y188.0115
G01 X31.4990 Y188.0568
G01 X31.5187 Y188.1013
G01 X31.5406 Y188.1447
G01 X31.5645 Y188.1869
G01 X31.5905 Y188.2280
G01 X31.6185 Y188.2677
G01 X31.6484 Y188.3060
G01 X31.6801 Y188.3428
G01 X31.7137 Y188.3780
G01 X31.7488 Y188.4115
G01 X31.7856 Y188.4433
G01 X31.8239 Y188.4732
G01 X31.8637 Y188.5011
G01 X31.9047 Y188.5271
G01 X31.9470 Y188.5511
G01 X31.9904 Y188.5729
G01 X32.0348 Y188.5926
G01 X32.0802 Y188.6101
G01 X32.1263 Y188.6254
G01 X32.1731 Y188.6383
G01 X32.2205 Y188.6490
G01 X32.2684 Y188.6573
G01 X32.3166 Y188.6632
G01 X32.3651 Y188.6668
G01 X32.4137 Y188.6680
G01 X32.4623 Y188.6668
G01 X32.5107 Y188.6632
G01 X32.5589 Y188.6573
G01 X32.6068 Y188.6490
G01 X32.6542 Y188.6383
G01 X32.7011 Y188.6254
G01 X32.7472 Y188.6101
G01 X32.7925 Y188.5926
G01 X32.8370 Y188.5729
G01 X32.8804 Y188.5511
G01 X32.9226 Y188.5271
G01 X32.9637 Y188.5011
G01 X33.0034 Y188.4732
G01 X33.0417 Y188.4433
G01 X33.0785 Y188.4115
G01 X33.1137 Y188.3780
G01 X33.1472 Y188.3428
G01 X33.1790 Y188.3060
G01 X33.2089 Y188.2677
G01 X33.2368 Y188.2280
G01 X33.2628 Y188.1869
G01 X33.2868 Y188.1447
G01 X33.3086 Y188.1013
G01 X33.3283 Y188.0568
G01 X33.3458 Y188.0115
G01 X33.3611 Y187.9654
G01 X33.3740 Y187.9185
G01 X33.3847 Y187.8711
G01 X33.3930 Y187.8232
G01 X33.3989 Y187.7750
G01 X33.4025 Y187.7266
G01 X33.4037 Y187.6780
M107
M106 S240
G01 X33.4026 Y187.6309 Z-2.2167 F400
G01 X33.3992 Y187.5839 Z-2.2333
G01 X33.3936 Y187.5371 Z-2.2500
G01 X33.3858 Y187.4906 Z-2.2667
G01 X33.3758 Y187.4446 Z-2.2833
G01 X33.3636 Y187.3991 Z-2.3000
G01 X33.3492 Y187.3542 Z-2.3167
G01 X33.3328 Y187.3100 Z-2.3333
G01 X33.3142 Y187.2667 Z-2.3500
G01 X33.2936 Y187.2243 Z-2.3667
G01 X33.2711 Y187.1830 Z-2.3833
G01 X33.2465 Y187.1427 Z-2.4000
G01 X33.2201 Y187.1037 Z-2.4167
G01 X33.1919 Y187.0660 Z-2.4333
G01 X33.1619 Y187.0297 Z-2.4500
G01 X33.1302 Y186.9948 Z-2.4667
G01 X33.0969 Y186.9615 Z-2.4833
G01 X33.0620 Y186.9298 Z-2.5000
G01 X33.0257 Y186.8998 Z-2.5167
G01 X32.9879 Y186.8716 Z-2.5333
G01 X32.9489 Y186.8451 Z-2.5500
G01 X32.9087 Y186.8206 Z-2.5667
G01 X32.8673 Y186.7980 Z-2.5833
G01 X32.8249 Y186.7774 Z-2.6000
G01 X32.7816 Y186.7589 Z-2.6167
G01 X32.7375 Y186.7424 Z-2.6333
G01 X32.6926 Y186.7281 Z-2.6500
G01 X32.6471 Y186.7159 Z-2.6667
G01 X32.6010 Y186.7059 Z-2.6833
G01 X32.5546 Y186.6981 Z-2.7000
G01 X32.5078 Y186.6925 Z-2.7167
G01 X32.4608 Y186.6891 Z-2.7333
G01 X32.4137 Y186.6880 Z-2.7500
G01 X32.3666 Y186.6891 Z-2.7667
G01 X32.3196 Y186.6925 Z-2.7833
G01 X32.2728 Y186.6981 Z-2.8000
G01 X32.2263 Y186.7059 Z-2.8167
G01 X32.1803 Y186.7159 Z-2.8333
G01 X32.1348 Y186.7281 Z-2.8500
G01 X32.0899 Y186.7424 Z-2.8667
G01 X32.0457 Y186.7589 Z-2.8833
G01 X32.0024 Y186.7774 Z-2.9000
G01 X31.9600 Y186.7980 Z-2.9167
G01 X31.9187 Y186.8206 Z-2.9333
G01 X31.8785 Y186.8451 Z-2.9500
G01 X31.8394 Y186.8716 Z-2.9667
G01 X31.8017 Y186.8998 Z-2.9833
G01 X31.7654 Y186.9298 Z-3.0000
G01 X31.7305 Y186.9615 Z-3.0167
G01 X31.6972 Y186.9948 Z-3.0333
G01 X31.6655 Y187.0297 Z-3.0500
G01 X31.6355 Y187.0660 Z-3.0667
G01 X31.6073 Y187.1037 Z-3.0833
G01 X31.5808 Y187.1427 Z-3.1000
G01 X31.5563 Y187.1830 Z-3.1167
G01 X31.5337 Y187.2243 Z-3.1333
G01 X31.5132 Y187.2667 Z-3.1500
G01 X31.4946 Y187.3100 Z-3.1667
G01 X31.4781 Y187.3542 Z-3.1833
G01 X31.4638 Y187.3991 Z-3.2000
G01 X31.4516 Y187.4446 Z-3.2167
G01 X31.4416 Y187.4906 Z-3.2333
G01 X31.4338 Y187.5371 Z-3.2500
G01 X31.4282 Y187.5839 Z-3.2667
G01 X31.4248 Y187.6309 Z-3.2833
G01 X31.4237 Y187.6780 Z-3.3000
G01 X31.4248 Y187.7251 Z-3.3167
G01 X31.4282 Y187.7721 Z-3.3333
G01 X31.4338 Y187.8189 Z-3.3500
G01 X31.4416 Y187.8653 Z-3.3667
G01 X31.4516 Y187.9114 Z-3.3833
G01 X31.4638 Y187.9569 Z-3.4000
G01 X31.4781 Y188.0018 Z-3.4167
G01 X31.4946 Y188.0459 Z-3.4333
G01 X31.5132 Y188.0892 Z-3.4500
G01 X31.5337 Y188.1316 Z-3.4667
G01 X31.5563 Y188.1730 Z-3.4833
G01 X31.5808 Y188.2132 Z-3.5000
G01 X31.6073 Y188.2522 Z-3.5167
G01 X31.6355 Y188.2900 Z-3.5333
G01 X31.6655 Y188.3263 Z-3.5500
G01 X31.6972 Y188.3612 Z-3.5667
G01 X31.7305 Y188.3945 Z-3.5833
G01 X31.7654 Y188.4262 Z-3.6000
G01 X31.8017 Y188.4562 Z-3.6167
G01 X31.8394 Y188.4844 Z-3.6333
G01 X31.8785 Y188.5108 Z-3.6500
G01 X31.9187 Y188.5353 Z-3.6667
G01 X31.9600 Y188.5579 Z-3.6833
G01 X32.0024 Y188.5785 Z-3.7000
G01 X32.0457 Y188.5971 Z-3.7167
G01 X32.0899 Y188.6135 Z-3.7333
G01 X32.1348 Y188.6279 Z-3.7500
G01 X32.1803 Y188.6401 Z-3.7667
G01 X32.2263 Y188.6501 Z-3.7833
G01 X32.2728 Y188.6579 Z-3.8000
G01 X32.3196 Y188.6635 Z-3.8167
G01 X32.3666 Y188.6669 Z-3.8333
G01 X32.4137 Y188.6680 Z-3.8500
G01 X32.4608 Y188.6669 Z-3.8667
G01 X32.5078 Y188.6635 Z-3.8833
G01 X32.5546 Y188.6579 Z-3.9000
G01 X32.6010 Y188.6501 Z-3.9167
G01 X32.6471 Y188.6401 Z-3.9333
G01 X32.6926 Y188.6279 Z-3.9500
G01 X32.7375 Y188.6135 Z-3.9667
G01 X32.7816 Y188.5971 Z-3.9833
G01 X32.8249 Y188.5785 Z-4.0000
G01 X32.8673 Y188.5579 Z-4.0167
G01 X32.9087 Y188.5353 Z-4.0333
G01 X32.9489 Y188.5108 Z-4.0500
G01 X32.9879 Y188.4844 Z-4.0667
G01 X33.0257 Y188.4562 Z-4.0833
G01 X33.0620 Y188.4262 Z-4.1000
G01 X33.0969 Y188.3945 Z-4.1167
G01 X33.1302 Y188.3612 Z-4.1333
G01 X33.1619 Y188.3263 Z-4.1500
G01 X33.1919 Y188.2900 Z-4.1667
G01 X33.2201 Y188.2522 Z-4.1833
G01 X33.2465 Y188.2132 Z-4.2000
G01 X33.2711 Y188.1730 Z-4.2167
G01 X33.2936 Y188.1316 Z-4.2333
G01 X33.3142 Y188.0892 Z-4.2500
G01 X33.3328 Y188.0459 Z-4.2667
G01 X33.3492 Y188.0018 Z-4.2833
G01 X33.3636 Y187.9569 Z-4.3000
G01 X33.3758 Y187.9114 Z-4.3167
G01 X33.3858 Y187.8653 Z-4.3333
G01 X33.3936 Y187.8189 Z-4.3500
G01 X33.3992 Y187.7721 Z-4.3667
G01 X33.4026 Y187.7251 Z-4.3833
G01 X33.4037 Y187.6780 Z-4.4000
G01 X33.4026 Y187.6309
G01 X33.3992 Y187.5839
G01 X33.3936 Y187.5371
G01 X33.3858 Y187.4906
G01 X33.3758 Y187.4446
G01 X33.3636 Y187.3991
G01 X33.3492 Y187.3542
G01 X33.3328 Y187.3100
G01 X33.3142 Y187.2667
G01 X33.2936 Y187.2243
G01 X33.2711 Y187.1830
G01 X33.2465 Y187.1427
G01 X33.2201 Y187.1037
G01 X33.1919 Y187.0660
G01 X33.1619 Y187.0297
G01 X33.1302 Y186.9948
G01 X33.0969 Y186.9615
G01 X33.0620 Y186.9298
G01 X33.0257 Y186.8998
G01 X32.9879 Y186.8716
G01 X32.9489 Y186.8451
G01 X32.9087 Y186.8206
G01 X32.8673 Y186.7980
G01 X32.8249 Y186.7774
G01 X32.7816 Y186.7589
G01 X32.7375 Y186.7424
G01 X32.6926 Y186.7281
G01 X32.6471 Y186.7159
G01 X32.6010 Y186.7059
G01 X32.5546 Y186.6981
G01 X32.5078 Y186.6925
G01 X32.4608 Y186.6891
G01 X32.4137 Y186.6880
G01 X32.3666 Y186.6891
G01 X32.3196 Y186.6925
G01 X32.2728 Y186.6981
G01 X32.2263 Y186.7059
G01 X32.1803 Y186.7159
G01 X32.1348 Y186.7281
G01 X32.0899 Y186.7424
G01 X32.0457 Y186.7589
G01 X32.0024 Y186.7774
G01 X31.9600 Y186.7980
G01 X31.9187 Y186.8206
G01 X31.8785 Y186.8451
G01 X31.8394 Y186.8716
G01 X31.8017 Y186.8998
G01 X31.7654 Y186.9298
G01 X31.7305 Y186.9615
G01 X31.6972 Y186.9948
G01 X31.6655 Y187.0297
G01 X31.6355 Y187.0660
G01 X31.6073 Y187.1037
G01 X31.5808 Y187.1427
G01 X31.5563 Y187.1830
G01 X31.5337 Y187.2243
G01 X31.5132 Y187.2667
G01 X31.4946 Y187.3100
G01 X31.4781 Y187.3542
G01 X31.4638 Y187.3991
G01 X31.4516 Y187.4446
G01 X31.4416 Y187.4906
G01 X31.4338 Y187.5371
G01 X31.4282 Y187.5839
G01 X31.4248 Y187.6309
G01 X31.4237 Y187.6780
G01 X31.4248 Y187.7251
G01 X31.4282 Y187.7721
G01 X31.4338 Y187.8189
G01 X31.4416 Y187.8653
G01 X31.4516 Y187.9114
G01 X31.4638 Y187.9569
G01 X31.4781 Y188.0018
G01 X31.4946 Y188.0459
G01 X31.5132 Y188.0892
G01 X31.5337 Y188.1316
G01 X31.5563 Y188.1730
G01 X31.5808 Y188.2132
G01 X31.6073 Y188.2522
G01 X31.6355 Y188.2900
G01 X31.6655 Y188.3263
G01 X31.6972 Y188.3612
G01 X31.7305 Y188.3945
G01 X31.7654 Y188.4262
G01 X31.8017 Y188.4562
G01 X31.8394 Y188.4844
G01 X31.8785 Y188.5108
G01 X31.9187 Y188.5353
G01 X31.9600 Y188.5579
G01 X32.0024 Y188.5785
G01 X32.0457 Y188.5971
G01 X32.0899 Y188.6135
G01 X32.1348 Y188.6279
G01 X32.1803 Y188.6401
G01 X32.2263 Y188.6501
G01 X32.2728 Y188.6579
G01 X32.3196 Y188.6635
G01 X32.3666 Y188.6669
G01 X32.4137 Y188.6680
G01 X32.4608 Y188.6669
G01 X32.5078 Y188.6635
G01 X32.5546 Y188.6579
G01 X32.6010 Y188.6501
G01 X32.6471 Y188.6401
G01 X32.6926 Y188.6279
G01 X32.7375 Y188.6135
G01 X32.7816 Y188.5971
G01 X32.8249 Y188.5785
G01 X32.8673 Y188.5579
G01 X32.9087 Y188.5353
G01 X32.9489 Y188.5108
G01 X32.9879 Y188.4844
G01 X33.0257 Y188.4562
G01 X33.0620 Y188.4262
G01 X33.0969 Y188.3945
G01 X33.1302 Y188.3612
G01 X33.1619 Y188.3263
G01 X33.1919 Y188.2900
G01 X33.2201 Y188.2522
G01 X33.2465 Y188.2132
G01 X33.2711 Y188.1730
G01 X33.2936 Y188.1316
G01 X33.3142 Y188.0892
G01 X33.3328 Y188.0459
G01 X33.3492 Y188.0018
G01 X33.3636 Y187.9569
G01 X33.3758 Y187.9114
G01 X33.3858 Y187.8653
G01 X33.3936 Y187.8189
G01 X33.3992 Y187.7721
G01 X33.4026 Y187.7251
G01 X33.4037 Y187.6780
G01 X33.4157 Y187.6266 F1000
G01 X33.4250 Y187.5747
G01 X33.4316 Y187.5224
G01 X33.4355 Y187.4699
G01 X33.4366 Y187.4172
G01 X33.4350 Y187.3645
G01 X33.4307 Y187.3119
G01 X33.4236 Y187.2597
G01 X33.4129 Y187.2030
G01 X33.3994 Y187.1470
G01 X33.3829 Y187.0917
G01 X33.3637 Y187.0374
G01 X33.3417 Y186.9841
G01 X33.3169 Y186.9321
G01 X33.2895 Y186.8813
G01 X33.2596 Y186.8321
G01 X33.2243 Y186.7804
G01 X33.1865 Y186.7305
G01 X33.1462 Y186.6826
G01 X33.1035 Y186.6369
G01 X33.0584 Y186.5934
G01 X33.0113 Y186.5523
G01 X32.9621 Y186.5136
G01 X32.9109 Y186.4775
G01 X32.8538 Y186.4417
G01 X32.7949 Y186.4089
G01 X32.7344 Y186.3791
G01 X32.6725 Y186.3524
G01 X32.6093 Y186.3289
G01 X32.5450 Y186.3086
G01 X32.4797 Y186.2917
G01 X32.4137 Y186.2780
G01 X32.3450 Y186.2797
G01 X32.2765 Y186.2848
G01 X32.2083 Y186.2932
G01 X32.1406 Y186.3049
G01 X32.0735 Y186.3200
G01 X32.0073 Y186.3383
G01 X31.9421 Y186.3599
G01 X31.8779 Y186.3846
G01 X31.8151 Y186.4124
G01 X31.7537 Y186.4433
G01 X31.6940 Y186.4772
G01 X31.6359 Y186.5140
G01 X31.5797 Y186.5535
G01 X31.5256 Y186.5958
G01 X31.4735 Y186.6407
G01 X31.4238 Y186.6881
G01 X31.3764 Y186.7378
G01 X31.3315 Y186.7899
G01 X31.2892 Y186.8440
G01 X31.2497 Y186.9002
G01 X31.2129 Y186.9583
G01 X31.1790 Y187.0180
G01 X31.1481 Y187.0794
G01 X31.1203 Y187.1422
G01 X31.0956 Y187.2063
G01 X31.0740 Y187.2716
G01 X31.0557 Y187.3378
G01 X31.0406 Y187.4049
G01 X31.0289 Y187.4726
G01 X31.0205 Y187.5408
G01 X31.0154 Y187.6093
G01 X31.0137 Y187.6780
G01 X31.0154 Y187.7467
G01 X31.0205 Y187.8152
G01 X31.0289 Y187.8834
G01 X31.0406 Y187.9511
G01 X31.0557 Y188.0181
G01 X31.0740 Y188.0844
G01 X31.0956 Y188.1496
G01 X31.1203 Y188.2137
G01 X31.1481 Y188.2765
G01 X31.1790 Y188.3379
G01 X31.2129 Y188.3977
G01 X31.2497 Y188.4558
G01 X31.2892 Y188.5119
G01 X31.3315 Y188.5661
G01 X31.3764 Y188.6181
G01 X31.4238 Y188.6679
G01 X31.4735 Y188.7153
G01 X31.5256 Y188.7602
G01 X31.5797 Y188.8024
G01 X31.6359 Y188.8420
G01 X31.6940 Y188.8788
G01 X31.7537 Y188.9126
G01 X31.8151 Y188.9435
G01 X31.8779 Y188.9714
G01 X31.9421 Y188.9961
G01 X32.0073 Y189.0177
G01 X32.0735 Y189.0360
G01 X32.1406 Y189.0510
G01 X32.2083 Y189.0628
G01 X32.2765 Y189.0712
G01 X32.3450 Y189.0763
G01 X32.4137 Y189.0779
G01 X32.4824 Y189.0763
G01 X32.5509 Y189.0712
G01 X32.6191 Y189.0628
G01 X32.6868 Y189.0510
G01 X32.7538 Y189.0360
G01 X32.8201 Y189.0177
G01 X32.8853 Y188.9961
G01 X32.9494 Y188.9714
G01 X33.0122 Y188.9435
G01 X33.0736 Y188.9126
G01 X33.1334 Y188.8788
G01 X33.1915 Y188.8420
G01 X33.2476 Y188.8024
G01 X33.3018 Y188.7602
G01 X33.3538 Y188.7153
G01 X33.4036 Y188.6679
G01 X33.4510 Y188.6181
G01 X33.4959 Y188.5661
G01 X33.5381 Y188.5119
G01 X33.5777 Y188.4558
G01 X33.6145 Y188.3977
G01 X33.6483 Y188.3379
G01 X33.6792 Y188.2765
G01 X33.7071 Y188.2137
G01 X33.7318 Y188.1496
G01 X33.7534 Y188.0844
G01 X33.7717 Y188.0181
G01 X33.7868 Y187.9511
G01 X33.7985 Y187.8834
G01 X33.8069 Y187.8152
G01 X33.8120 Y187.7467
G01 X33.8137 Y187.6780
G01 X33.8097 Y187.5734
G01 X33.7980 Y187.4693
G01 X33.7786 Y187.3665
G01 X33.7515 Y187.2653
G01 X33.7169 Y187.1665
G01 X33.6750 Y187.0706
G01 X33.6261 Y186.9780
G01 X33.5704 Y186.8894
G01 X33.5082 Y186.8051
G01 X33.4399 Y186.7258
G01 X33.3659 Y186.6517
G01 X33.2865 Y186.5834
G01 X33.2023 Y186.5213
G01 X33.1137 Y186.4656
G01 X33.0211 Y186.4167
G01 X32.9252 Y186.3748
G01 X32.8263 Y186.3402
G01 X32.7252 Y186.3131
G01 X32.6223 Y186.2937
G01 X32.5183 Y186.2819
G01 X32.4137 Y186.2780
G01 X32.3091 Y186.2819
G01 X32.2050 Y186.2937
G01 X32.1022 Y186.3131
G01 X32.0010 Y186.3402
G01 X31.9022 Y186.3748
G01 X31.8063 Y186.4167
G01 X31.7137 Y186.4656
G01 X31.6251 Y186.5213
G01 X31.5408 Y186.5834
G01 X31.4615 Y186.6517
G01 X31.3874 Y186.7258
G01 X31.3191 Y186.8051
G01 X31.2570 Y186.8894
G01 X31.2013 Y186.9780
G01 X31.1524 Y187.0706
G01 X31.1105 Y187.1665
G01 X31.0759 Y187.2653
G01 X31.0488 Y187.3665
G01 X31.0294 Y187.4693
G01 X31.0176 Y187.5734
G01 X31.0137 Y187.6780
G01 X31.0176 Y187.7826
G01 X31.0294 Y187.8866
G01 X31.0488 Y187.9895
G01 X31.0759 Y188.0906
G01 X31.1105 Y188.1894
G01 X31.1524 Y188.2854
G01 X31.2013 Y188.3780
G01 X31.2570 Y188.4666
G01 X31.3191 Y188.5508
G01 X31.3874 Y188.6302
G01 X31.4615 Y188.7042
G01 X31.5408 Y188.7725
G01 X31.6251 Y188.8347
G01 X31.7137 Y188.8904
G01 X31.8063 Y188.9393
G01 X31.9022 Y188.9812
G01 X32.0010 Y189.0158
G01 X32.1022 Y189.0428
G01 X32.2050 Y189.0623
G01 X32.3091 Y189.0740
G01 X32.4137 Y189.0779
G01 X32.5183 Y189.0740
G01 X32.6223 Y189.0623
G01 X32.7252 Y189.0428
G01 X32.8263 Y189.0158
G01 X32.9252 Y188.9812
G01 X33.0211 Y188.9393
G01 X33.1137 Y188.8904
G01 X33.2023 Y188.8347
G01 X33.2865 Y188.7725
G01 X33.3659 Y188.7042
G01 X33.4399 Y188.6302
G01 X33.5082 Y188.5508
G01 X33.5704 Y188.4666
G01 X33.6261 Y188.3780
G01 X33.6750 Y188.2854
G01 X33.7169 Y188.1894
G01 X33.7515 Y188.0906
G01 X33.7786 Y187.9895
G01 X33.7980 Y187.8866
G01 X33.8097 Y187.7826
G01 X33.8137 Y187.6780
G01 X33.8091 Y187.5738
G01 X33.7955 Y187.4705
G01 X33.7729 Y187.3687
G01 X33.7416 Y187.2693
G01 X33.7017 Y187.1730
G01 X33.6536 Y187.0805
G01 X33.5975 Y186.9926
G01 X33.5341 Y186.9099
G01 X33.4636 Y186.8330
G01 X33.3868 Y186.7626
G01 X33.3041 Y186.6991
G01 X33.2162 Y186.6431
G01 X33.1237 Y186.5950
G01 X33.0274 Y186.5551
G01 X32.9280 Y186.5237
G01 X32.8262 Y186.5012
G01 X32.7228 Y186.4875
G01 X32.6187 Y186.4830
G01 X32.5145 Y186.4875
G01 X32.4112 Y186.5012
G01 X32.3094 Y186.5237
G01 X32.2100 Y186.5551
G01 X32.1136 Y186.5950
G01 X32.0212 Y186.6431
G01 X31.9333 Y186.6991
G01 X31.8505 Y186.7626
G01 X31.7737 Y186.8330
G01 X31.7033 Y186.9099
G01 X31.6398 Y186.9926
G01 X31.5838 Y187.0805
G01 X31.5356 Y187.1730
G01 X31.4958 Y187.2693
G01 X31.4644 Y187.3687
G01 X31.4418 Y187.4705
G01 X31.4282 Y187.5738
G01 X31.4237 Y187.6780
G01 X31.4249 Y187.7266
G01 X31.4285 Y187.7750
G01 X31.4344 Y187.8232
G01 X31.4427 Y187.8711
G01 X31.4534 Y187.9185
G01 X31.4663 Y187.9654
G01 X31.4816 Y188.0115
G01 X31.4990 Y188.0568
G01 X31.5187 Y188.1013
G01 X31.5406 Y188.1447
G01 X31.5645 Y188.1869
G01 X31.5905 Y188.2280
G01 X31.6185 Y188.2677
G01 X31.6484 Y188.3060
G01 X31.6801 Y188.3428
G01 X31.7137 Y188.3780
G01 X31.7488 Y188.4115
G01 X31.7856 Y188.4433
G01 X31.8239 Y188.4732
G01 X31.8637 Y188.5011
G01 X31.9047 Y188.5271
G01 X31.9470 Y188.5511
G01 X31.9904 Y188.5729
G01 X32.0348 Y188.5926
G01 X32.0802 Y188.6101
G01 X32.1263 Y188.6254
G01 X32.1731 Y188.6383
G01 X32.2205 Y188.6490
G01 X32.2684 Y188.6573
G01 X32.3166 Y188.6632
G01 X32.3651 Y188.6668
G01 X32.4137 Y188.6680
G01 X32.4623 Y188.6668
G01 X32.5107 Y188.6632
G01 X32.5589 Y188.6573
G01 X32.6068 Y188.6490
G01 X32.6542 Y188.6383
G01 X32.7011 Y188.6254
G01 X32.7472 Y188.6101
G01 X32.7925 Y188.5926
G01 X32.8370 Y188.5729
G01 X32.8804 Y188.5511
G01 X32.9226 Y188.5271
G01 X32.9637 Y188.5011
G01 X33.0034 Y188.4732
G01 X33.0417 Y188.4433
G01 X33.0785 Y188.4115
G01 X33.1137 Y188.3780
G01 X33.1472 Y188.3428
G01 X33.1790 Y188.3060
G01 X33.2089 Y188.2677
G01 X33.2368 Y188.2280
G01 X33.2628 Y188.1869
G01 X33.2868 Y188.1447
G01 X33.3086 Y188.1013
G01 X33.3283 Y188.0568
G01 X33.3458 Y188.0115
G01 X33.3611 Y187.9654
G01 X33.3740 Y187.9185
G01 X33.3847 Y187.8711
G01 X33.3930 Y187.8232
G01 X33.3989 Y187.7750
G01 X33.4025 Y187.7266
G01 X33.4037 Y187.6780
M107
M106 S240
G01 X33.4026 Y187.6309 Z-4.4121 F400
G01 X33.3992 Y187.5839 Z-4.4242
G01 X33.3936 Y187.5371 Z-4.4364
G01 X33.3858 Y187.4906 Z-4.4485
G01 X33.3758 Y187.4446 Z-4.4606
G01 X33.3636 Y187.3991 Z-4.4727
G01 X33.3492 Y187.3542 Z-4.4848
G01 X33.3328 Y187.3100 Z-4.4970
G01 X33.3142 Y187.2667 Z-4.5091
G01 X33.2936 Y187.2243 Z-4.5212
G01 X33.2711 Y187.1830 Z-4.5333
G01 X33.2465 Y187.1427 Z-4.5455
G01 X33.2201 Y187.1037 Z-4.5576
G01 X33.1919 Y187.0660 Z-4.5697
G01 X33.1619 Y187.0297 Z-4.5818
G01 X33.1302 Y186.9948 Z-4.5939
G01 X33.0969 Y186.9615 Z-4.6061
G01 X33.0620 Y186.9298 Z-4.6182
G01 X33.0257 Y186.8998 Z-4.6303
G01 X32.9879 Y186.8716 Z-4.6424
G01 X32.9489 Y186.8451 Z-4.6545
G01 X32.9087 Y186.8206 Z-4.6667
G01 X32.8673 Y186.7980 Z-4.6788
G01 X32.8249 Y186.7774 Z-4.6909
G01 X32.7816 Y186.7589 Z-4.7030
G01 X32.7375 Y186.7424 Z-4.7152
G01 X32.6926 Y186.7281 Z-4.7273
G01 X32.6471 Y186.7159 Z-4.7394
G01 X32.6010 Y186.7059 Z-4.7515
G01 X32.5546 Y186.6981 Z-4.7636
G01 X32.5078 Y186.6925 Z-4.7758
G01 X32.4608 Y186.6891 Z-4.7879
G01 X32.4137 Y186.6880 Z-4.8000
G01 X32.3666 Y186.6891 Z-4.8121
G01 X32.3196 Y186.6925 Z-4.8242
G01 X32.2728 Y186.6981 Z-4.8364
G01 X32.2263 Y186.7059 Z-4.8485
G01 X32.1803 Y186.7159 Z-4.8606
G01 X32.1348 Y186.7281 Z-4.8727
G01 X32.0899 Y186.7424 Z-4.8848
G01 X32.0457 Y186.7589 Z-4.8970
G01 X32.0024 Y186.7774 Z-4.9091
G01 X31.9600 Y186.7980 Z-4.9212
G01 X31.9187 Y186.8206 Z-4.9333
G01 X31.8785 Y186.8451 Z-4.9455
G01 X31.8394 Y186.8716 Z-4.9576
G01 X31.8017 Y186.8998 Z-4.9697
G01 X31.7654 Y186.9298 Z-4.9818
G01 X31.7305 Y186.9615 Z-4.9939
G01 X31.6972 Y186.9948 Z-5.0061
G01 X31.6655 Y187.0297 Z-5.0182
G01 X31.6355 Y187.0660 Z-5.0303
G01 X31.6073 Y187.1037 Z-5.0424
G01 X31.5808 Y187.1427 Z-5.0545
G01 X31.5563 Y187.1830 Z-5.0667
G01 X31.5337 Y187.2243 Z-5.0788
G01 X31.5132 Y187.2667 Z-5.0909
G01 X31.4946 Y187.3100 Z-5.1030
G01 X31.4781 Y187.3542 Z-5.1152
G01 X31.4638 Y187.3991 Z-5.1273
G01 X31.4516 Y187.4446 Z-5.1394
G01 X31.4416 Y187.4906 Z-5.1515
G01 X31.4338 Y187.5371 Z-5.1636
G01 X31.4282 Y187.5839 Z-5.1758
G01 X31.4248 Y187.6309 Z-5.1879
G01 X31.4237 Y187.6780 Z-5.2000
G01 X31.4248 Y187.7251 Z-5.2121
G01 X31.4282 Y187.7721 Z-5.2242
G01 X31.4338 Y187.8189 Z-5.2364
G01 X31.4416 Y187.8653 Z-5.2485
G01 X31.4516 Y187.9114 Z-5.2606
G01 X31.4638 Y187.9569 Z-5.2727
G01 X31.4781 Y188.0018 Z-5.2848
G01 X31.4946 Y188.0459 Z-5.2970
G01 X31.5132 Y188.0892 Z-5.3091
G01 X31.5337 Y188.1316 Z-5.3212
G01 X31.5563 Y188.1730 Z-5.3333
G01 X31.5808 Y188.2132 Z-5.3455
G01 X31.6073 Y188.2522 Z-5.3576
G01 X31.6355 Y188.2900 Z-5.3697
G01 X31.6655 Y188.3263 Z-5.3818
G01 X31.6972 Y188.3612 Z-5.3939
G01 X31.7305 Y188.3945 Z-5.4061
G01 X31.7654 Y188.4262 Z-5.4182
G01 X31.8017 Y188.4562 Z-5.4303
G01 X31.8394 Y188.4844 Z-5.4424
G01 X31.8785 Y188.5108 Z-5.4545
G01 X31.9187 Y188.5353 Z-5.4667
G01 X31.9600 Y188.5579 Z-5.4788
G01 X32.0024 Y188.5785 Z-5.4909
G01 X32.0457 Y188.5971 Z-5.5030
G01 X32.0899 Y188.6135 Z-5.5152
G01 X32.1348 Y188.6279 Z-5.5273
G01 X32.1803 Y188.6401 Z-5.5394
G01 X32.2263 Y188.6501 Z-5.5515
G01 X32.2728 Y188.6579 Z-5.5636
G01 X32.3196 Y188.6635 Z-5.5758
G01 X32.3666 Y188.6669 Z-5.5879
G01 X32.4137 Y188.6680 Z-5.6000
G01 X32.4608 Y188.6669 Z-5.6121
G01 X32.5078 Y188.6635 Z-5.6242
G01 X32.5546 Y188.6579 Z-5.6364
G01 X32.6010 Y188.6501 Z-5.6485
G01 X32.6471 Y188.6401 Z-5.6606
G01 X32.6926 Y188.6279 Z-5.6727
G01 X32.7375 Y188.6135 Z-5.6848
G01 X32.7816 Y188.5971 Z-5.6970
G01 X32.8249 Y188.5785 Z-5.7091
G01 X32.8673 Y188.5579 Z-5.7212
G01 X32.9087 Y188.5353 Z-5.7333
G01 X32.9489 Y188.5108 Z-5.7455
G01 X32.9879 Y188.4844 Z-5.7576
G01 X33.0257 Y188.4562 Z-5.7697
G01 X33.0620 Y188.4262 Z-5.7818
G01 X33.0969 Y188.3945 Z-5.7939
G01 X33.1302 Y188.3612 Z-5.8061
G01 X33.1619 Y188.3263 Z-5.8182
G01 X33.1919 Y188.2900 Z-5.8303
G01 X33.2201 Y188.2522 Z-5.8424
G01 X33.2465 Y188.2132 Z-5.8545
G01 X33.2711 Y188.1730 Z-5.8667
G01 X33.2936 Y188.1316 Z-5.8788
G01 X33.3142 Y188.0892 Z-5.8909
G01 X33.3328 Y188.0459 Z-5.9030
G01 X33.3492 Y188.0018 Z-5.9152
G01 X33.3636 Y187.9569 Z-5.9273
G01 X33.3758 Y187.9114 Z-5.9394
G01 X33.3858 Y187.8653 Z-5.9515
G01 X33.3936 Y187.8189 Z-5.9636
G01 X33.3992 Y187.7721 Z-5.9758
G01 X33.4026 Y187.7251 Z-5.9879
G01 X33.4037 Y187.6780 Z-6.0000
G01 X33.4026 Y187.6309
G01 X33.3992 Y187.5839
G01 X33.3936 Y187.5371
G01 X33.3858 Y187.4906
G01 X33.3758 Y187.4446
G01 X33.3636 Y187.3991
G01 X33.3492 Y187.3542
G01 X33.3328 Y187.3100
G01 X33.3142 Y187.2667
G01 X33.2936 Y187.2243
G01 X33.2711 Y187.1830
G01 X33.2465 Y187.1427
G01 X33.2201 Y187.1037
G01 X33.1919 Y187.0660
G01 X33.1619 Y187.0297
G01 X33.1302 Y186.9948
G01 X33.0969 Y186.9615
G01 X33.0620 Y186.9298
G01 X33.0257 Y186.8998
G01 X32.9879 Y186.8716
G01 X32.9489 Y186.8451
G01 X32.9087 Y186.8206
G01 X32.8673 Y186.7980
G01 X32.8249 Y186.7774
G01 X32.7816 Y186.7589
G01 X32.7375 Y186.7424
G01 X32.6926 Y186.7281
G01 X32.6471 Y186.7159
G01 X32.6010 Y186.7059
G01 X32.5546 Y186.6981
G01 X32.5078 Y186.6925
G01 X32.4608 Y186.6891
G01 X32.4137 Y186.6880
G01 X32.3666 Y186.6891
G01 X32.3196 Y186.6925
G01 X32.2728 Y186.6981
G01 X32.2263 Y186.7059
G01 X32.1803 Y186.7159
G01 X32.1348 Y186.7281
G01 X32.0899 Y186.7424
G01 X32.0457 Y186.7589
G01 X32.0024 Y186.7774
G01 X31.9600 Y186.7980
G01 X31.9187 Y186.8206
G01 X31.8785 Y186.8451
G01 X31.8394 Y186.8716
G01 X31.8017 Y186.8998
G01 X31.7654 Y186.9298
G01 X31.7305 Y186.9615
G01 X31.6972 Y186.9948
G01 X31.6655 Y187.0297
G01 X31.6355 Y187.0660
G01 X31.6073 Y187.1037
G01 X31.5808 Y187.1427
G01 X31.5563 Y187.1830
G01 X31.5337 Y187.2243
G01 X31.5132 Y187.2667
G01 X31.4946 Y187.3100
G01 X31.4781 Y187.3542
G01 X31.4638 Y187.3991
G01 X31.4516 Y187.4446
G01 X31.4416 Y187.4906
G01 X31.4338 Y187.5371
G01 X31.4282 Y187.5839
G01 X31.4248 Y187.6309
G01 X31.4237 Y187.6780
G01 X31.4248 Y187.7251
G01 X31.4282 Y187.7721
G01 X31.4338 Y187.8189
G01 X31.4416 Y187.8653
G01 X31.4516 Y187.9114
G01 X31.4638 Y187.9569
G01 X31.4781 Y188.0018
G01 X31.4946 Y188.0459
G01 X31.5132 Y188.0892
G01 X31.5337 Y188.1316
G01 X31.5563 Y188.1730
G01 X31.5808 Y188.2132
G01 X31.6073 Y188.2522
G01 X31.6355 Y188.2900
G01 X31.6655 Y188.3263
G01 X31.6972 Y188.3612
G01 X31.7305 Y188.3945
G01 X31.7654 Y188.4262
G01 X31.8017 Y188.4562
G01 X31.8394 Y188.4844
G01 X31.8785 Y188.5108
G01 X31.9187 Y188.5353
G01 X31.9600 Y188.5579
G01 X32.0024 Y188.5785
G01 X32.0457 Y188.5971
G01 X32.0899 Y188.6135
G01 X32.1348 Y188.6279
G01 X32.1803 Y188.6401
G01 X32.2263 Y188.6501
G01 X32.2728 Y188.6579
G01 X32.3196 Y188.6635
G01 X32.3666 Y188.6669
G01 X32.4137 Y188.6680
G01 X32.4608 Y188.6669
G01 X32.5078 Y188.6635
G01 X32.5546 Y188.6579
G01 X32.6010 Y188.6501
G01 X32.6471 Y188.6401
G01 X32.6926 Y188.6279
G01 X32.7375 Y188.6135
G01 X32.7816 Y188.5971
G01 X32.8249 Y188.5785
G01 X32.8673 Y188.5579
G01 X32.9087 Y188.5353
G01 X32.9489 Y188.5108
G01 X32.9879 Y188.4844
G01 X33.0257 Y188.4562
G01 X33.0620 Y188.4262
G01 X33.0969 Y188.3945
G01 X33.1302 Y188.3612
G01 X33.1619 Y188.3263
G01 X33.1919 Y188.2900
G01 X33.2201 Y188.2522
G01 X33.2465 Y188.2132
G01 X33.2711 Y188.1730
G01 X33.2936 Y188.1316
G01 X33.3142 Y188.0892
G01 X33.3328 Y188.0459
G01 X33.3492 Y188.0018
G01 X33.3636 Y187.9569
G01 X33.3758 Y187.9114
G01 X33.3858 Y187.8653
G01 X33.3936 Y187.8189
G01 X33.3992 Y187.7721
G01 X33.4026 Y187.7251
G01 X33.4037 Y187.6780
G01 X33.4157 Y187.6266 F1000
G01 X33.4250 Y187.5747
G01 X33.4316 Y187.5224
G01 X33.4355 Y187.4699
G01 X33.4366 Y187.4172
G01 X33.4350 Y187.3645
G01 X33.4307 Y187.3119
G01 X33.4236 Y187.2597
G01 X33.4129 Y187.2030
G01 X33.3994 Y187.1470
G01 X33.3829 Y187.0917
G01 X33.3637 Y187.0374
G01 X33.3417 Y186.9841
G01 X33.3169 Y186.9321
G01 X33.2895 Y186.8813
G01 X33.2596 Y186.8321
G01 X33.2243 Y186.7804
G01 X33.1865 Y186.7305
G01 X33.1462 Y186.6826
G01 X33.1035 Y186.6369
G01 X33.0584 Y186.5934
G01 X33.0113 Y186.5523
G01 X32.9621 Y186.5136
G01 X32.9109 Y186.4775
G01 X32.8538 Y186.4417
G01 X32.7949 Y186.4089
G01 X32.7344 Y186.3791
G01 X32.6725 Y186.3524
G01 X32.6093 Y186.3289
G01 X32.5450 Y186.3086
G01 X32.4797 Y186.2917
G01 X32.4137 Y186.2780
G01 X32.3450 Y186.2797
G01 X32.2765 Y186.2848
G01 X32.2083 Y186.2932
G01 X32.1406 Y186.3049
G01 X32.0735 Y186.3200
G01 X32.0073 Y186.3383
G01 X31.9421 Y186.3599
G01 X31.8779 Y186.3846
G01 X31.8151 Y186.4124
G01 X31.7537 Y186.4433
G01 X31.6940 Y186.4772
G01 X31.6359 Y186.5140
G01 X31.5797 Y186.5535
G01 X31.5256 Y186.5958
G01 X31.4735 Y186.6407
G01 X31.4238 Y186.6881
G01 X31.3764 Y186.7378
G01 X31.3315 Y186.7899
G01 X31.2892 Y186.8440
G01 X31.2497 Y186.9002
G01 X31.2129 Y186.9583
G01 X31.1790 Y187.0180
G01 X31.1481 Y187.0794
G01 X31.1203 Y187.1422
G01 X31.0956 Y187.2063
G01 X31.0740 Y187.2716
G01 X31.0557 Y187.3378
G01 X31.0406 Y187.4049
G01 X31.0289 Y187.4726
G01 X31.0205 Y187.5408
G01 X31.0154 Y187.6093
G01 X31.0137 Y187.6780
G01 X31.0154 Y187.7467
G01 X31.0205 Y187.8152
G01 X31.0289 Y187.8834
G01 X31.0406 Y187.9511
G01 X31.0557 Y188.0181
G01 X31.0740 Y188.0844
G01 X31.0956 Y188.1496
G01 X31.1203 Y188.2137
G01 X31.1481 Y188.2765
G01 X31.1790 Y188.3379
G01 X31.2129 Y188.3977
G01 X31.2497 Y188.4558
G01 X31.2892 Y188.5119
G01 X31.3315 Y188.5661
G01 X31.3764 Y188.6181
G01 X31.4238 Y188.6679
G01 X31.4735 Y188.7153
G01 X31.5256 Y188.7602
G01 X31.5797 Y188.8024
G01 X31.6359 Y188.8420
G01 X31.6940 Y188.8788
G01 X31.7537 Y188.9126
G01 X31.8151 Y188.9435
G01 X31.8779 Y188.9714
G01 X31.9421 Y188.9961
G01 X32.0073 Y189.0177
G01 X32.0735 Y189.0360
G01 X32.1406 Y189.0510
G01 X32.2083 Y189.0628
G01 X32.2765 Y189.0712
G01 X32.3450 Y189.0763
G01 X32.4137 Y189.0779
G01 X32.4824 Y189.0763
G01 X32.5509 Y189.0712
G01 X32.6191 Y189.0628
G01 X32.6868 Y189.0510
G01 X32.7538 Y189.0360
G01 X32.8201 Y189.0177
G01 X32.8853 Y188.9961
G01 X32.9494 Y188.9714
G01 X33.0122 Y188.9435
G01 X33.0736 Y188.9126
G01 X33.1334 Y188.8788
G01 X33.1915 Y188.8420
G01 X33.2476 Y188.8024
G01 X33.3018 Y188.7602
G01 X33.3538 Y188.7153
G01 X33.4036 Y188.6679
G01 X33.4510 Y188.6181
G01 X33.4959 Y188.5661
G01 X33.5381 Y188.5119
G01 X33.5777 Y188.4558
G01 X33.6145 Y188.3977
G01 X33.6483 Y188.3379
G01 X33.6792 Y188.2765
G01 X33.7071 Y188.2137
G01 X33.7318 Y188.1496
G01 X33.7534 Y188.0844
G01 X33.7717 Y188.0181
G01 X33.7868 Y187.9511
G01 X33.7985 Y187.8834
G01 X33.8069 Y187.8152
G01 X33.8120 Y187.7467
G01 X33.8137 Y187.6780
G01 X33.8097 Y187.5734
G01 X33.7980 Y187.4693
G01 X33.7786 Y187.3665
G01 X33.7515 Y187.2653
G01 X33.7169 Y187.1665
G01 X33.6750 Y187.0706
G01 X33.6261 Y186.9780
G01 X33.5704 Y186.8894
G01 X33.5082 Y186.8051
G01 X33.4399 Y186.7258
G01 X33.3659 Y186.6517
G01 X33.2865 Y186.5834
G01 X33.2023 Y186.5213
G01 X33.1137 Y186.4656
G01 X33.0211 Y186.4167
G01 X32.9252 Y186.3748
G01 X32.8263 Y186.3402
G01 X32.7252 Y186.3131
G01 X32.6223 Y186.2937
G01 X32.5183 Y186.2819
G01 X32.4137 Y186.2780
G01 X32.3091 Y186.2819
G01 X32.2050 Y186.2937
G01 X32.1022 Y186.3131
G01 X32.0010 Y186.3402
G01 X31.9022 Y186.3748
G01 X31.8063 Y186.4167
G01 X31.7137 Y186.4656
G01 X31.6251 Y186.5213
G01 X31.5408 Y186.5834
G01 X31.4615 Y186.6517
G01 X31.3874 Y186.7258
G01 X31.3191 Y186.8051
G01 X31.2570 Y186.8894
G01 X31.2013 Y186.9780
G01 X31.1524 Y187.0706
G01 X31.1105 Y187.1665
G01 X31.0759 Y187.2653
G01 X31.0488 Y187.3665
G01 X31.0294 Y187.4693
G01 X31.0176 Y187.5734
G01 X31.0137 Y187.6780
G01 X31.0176 Y187.7826
G01 X31.0294 Y187.8866
G01 X31.0488 Y187.9895
G01 X31.0759 Y188.0906
G01 X31.1105 Y188.1894
G01 X31.1524 Y188.2854
G01 X31.2013 Y188.3780
G01 X31.2570 Y188.4666
G01 X31.3191 Y188.5508
G01 X31.3874 Y188.6302
G01 X31.4615 Y188.7042
G01 X31.5408 Y188.7725
G01 X31.6251 Y188.8347
G01 X31.7137 Y188.8904
G01 X31.8063 Y188.9393
G01 X31.9022 Y188.9812
G01 X32.0010 Y189.0158
G01 X32.1022 Y189.0428
G01 X32.2050 Y189.0623
G01 X32.3091 Y189.0740
G01 X32.4137 Y189.0779
G01 X32.5183 Y189.0740
G01 X32.6223 Y189.0623
G01 X32.7252 Y189.0428
G01 X32.8263 Y189.0158
G01 X32.9252 Y188.9812
G01 X33.0211 Y188.9393
G01 X33.1137 Y188.8904
G01 X33.2023 Y188.8347
G01 X33.2865 Y188.7725
G01 X33.3659 Y188.7042
G01 X33.4399 Y188.6302
G01 X33.5082 Y188.5508
G01 X33.5704 Y188.4666
G01 X33.6261 Y188.3780
G01 X33.6750 Y188.2854
G01 X33.7169 Y188.1894
G01 X33.7515 Y188.0906
G01 X33.7786 Y187.9895
G01 X33.7980 Y187.8866
G01 X33.8097 Y187.7826
G01 X33.8137 Y187.6780
M107
M106 S240
G01 X33.8103 Y187.5917 Z-5.9750 F400
M107
M106 S240
G01 X33.8001 Y187.5059 Z-5.9500
M107
M106 S240
G01 X33.7833 Y187.4212 Z-5.9250
M107
M106 S240
G01 X33.7598 Y187.3381 Z-5.9000
M107
M106 S240
G01 X33.7299 Y187.2570 Z-5.8750
M107
M106 S240
G01 X33.6938 Y187.1786 Z-5.8500
M107
M106 S240
G01 X33.6516 Y187.1032 Z-5.8250
M107
M106 S240
G01 X33.6036 Y187.0314 Z-5.8000
M107
M106 S240
G01 X33.5501 Y186.9636 Z-5.7750
M107
M106 S240
G01 X33.4915 Y186.9002 Z-5.7500
M107
M106 S240
G01 X33.4280 Y186.8415 Z-5.7250
M107
M106 S240
G01 X33.3602 Y186.7881 Z-5.7000
M107
M106 S240
G01 X33.2884 Y186.7401 Z-5.6750
M107
M106 S240
G01 X33.2130 Y186.6979 Z-5.6500
M107
M106 S240
G01 X33.1346 Y186.6617 Z-5.6250
M107
M106 S240
G01 X33.0536 Y186.6318 Z-5.6000
M107
M106 S240
G01 X32.9704 Y186.6084 Z-5.5750
M107
M106 S240
G01 X32.8857 Y186.5915 Z-5.5500
M107
M106 S240
G01 X32.8000 Y186.5814 Z-5.5250
M107
M106 S240
G01 X32.7137 Y186.5780 Z-5.5000
M107
G00 Z2.0000


;No. 2: Hole 2
G00 X32.2718 Y164.4188 Z2.0000
G00 Z0.5000
G01 Z-1.8000 F400
M106 S240
G01 X36.6386 F1000
G01 Y166.0688
G01 X40.9366
G01 X31.4521
G01 X30.6557 Y167.7188
G01 X45.6296
G01 Y169.3688
G01 X50.8396
G01 X31.2248
G01 X35.6846
G01 Y171.0188
G01 X56.7623
G01 Y172.6688
G01 X63.7586
G01 X40.5049
G01 X45.7764
G01 Y174.3188
G01 X72.6477
G01 Y175.9688
G01 X86.6107
G01 X51.6335
G01 X58.2962
G01 Y177.6188
G01 X145.8962
G01 Y175.9688
G01 X152.5241
G01 X117.7506
G01 X131.4872
G01 Y174.3188
G01 X158.3518
G01 Y172.6688
G01 X163.6090
G01 X140.3166
G01 X147.3259
G01 Y171.0188
G01 X168.4421
G01 Y169.3688
G01 X172.9412
G01 X153.2873
G01 X158.5281
G01 Y167.7188
G01 X173.4952
G01 X172.7167 Y166.0688
G01 X163.2315
G01 X167.5154
G01 Y164.4188
G01 X171.9119
M107
G00 Z2.0000
G00 X138.0127 Y177.6188
G00 Z0.5000
G01 Z-1.8000 F400
M106 S240
G01 Y179.2688 F1000
G01 X66.1975
G01 X76.4140
G01 Y180.9188
G01 X127.7646
G01 X108.4758
G01 Y182.5688
G01 X95.9443
M107
G00 Z2.0000
G00 Z0.5000
G01 Z-1.8000 F400
M106 S240
G01 X95.9373 Y182.7887 F1000
G01 X98.1406 Y182.8477
G01 X100.3445 Y182.8811
G01 X102.5486 Y182.8890
G01 X104.7527 Y182.8712
G01 X106.9564 Y182.8279
G01 X109.1595 Y182.7590
G01 X111.3616 Y182.6645
G01 X113.5625 Y182.5444
G01 X115.7618 Y182.3988
G01 X117.9593 Y182.2277
G01 X120.1546 Y182.0311
G01 X122.3475 Y181.8090
G01 X124.5377 Y181.5615
G01 X126.7249 Y181.2885
G01 X128.9088 Y180.9902
G01 X131.0890 Y180.6665
G01 X133.7717 Y180.2386
G01 X136.4484 Y179.7748
G01 X139.1186 Y179.2752
G01 X141.7819 Y178.7398
G01 X144.4378 Y178.1689
G01 X147.0858 Y177.5624
G01 X149.7255 Y176.9205
G01 X152.3563 Y176.2433
G01 X154.9778 Y175.5310
G01 X157.5896 Y174.7835
G01 X160.1911 Y174.0012
G01 X162.7818 Y173.1841
G01 X165.3614 Y172.3324
G01 X167.9294 Y171.4462
G01 X170.4853 Y170.5257
G01 X173.0286 Y169.5711
G01 X173.7724 Y169.2877
G01 X174.3282 Y169.0735
G01 X174.3424 Y169.0624
G01 X173.6140 Y167.4395
G01 X172.8548 Y165.8307
G01 X172.0652 Y164.2367
G01 X171.2455 Y162.6579
G01 X171.1912 Y162.6785
G01 X169.6799 Y163.3030
G01 X168.1649 Y163.9186
G01 X166.6464 Y164.5253
G01 X165.1243 Y165.1231
G01 X163.0667 Y165.8886
G01 X160.9994 Y166.6277
G01 X158.9229 Y167.3403
G01 X156.8374 Y168.0263
G01 X154.7433 Y168.6855
G01 X152.6409 Y169.3178
G01 X150.5306 Y169.9232
G01 X148.4127 Y170.5014
G01 X146.2876 Y171.0525
G01 X144.1556 Y171.5764
G01 X142.0171 Y172.0729
G01 X139.8723 Y172.5420
G01 X137.7218 Y172.9836
G01 X135.5658 Y173.3976
G01 X133.4046 Y173.7840
G01 X131.2387 Y174.1426
G01 X129.0684 Y174.4735
G01 X126.8940 Y174.7766
G01 X124.7159 Y175.0518
G01 X122.5345 Y175.2991
G01 X120.7009 Y175.4895
G01 X118.8651 Y175.6575
G01 X117.0275 Y175.8032
G01 X115.1882 Y175.9266
G01 X113.3475 Y176.0276
G01 X111.5058 Y176.1063
G01 X109.6632 Y176.1625
G01 X107.8201 Y176.1964
G01 X106.0090 Y176.2361
G01 X104.1977 Y176.2632
G01 X102.3862 Y176.2776
G01 X100.5747 Y176.2795
G01 X98.7632 Y176.2686
G01 X96.9519 Y176.2451
G01 X95.1407 Y176.2090
G01 X93.3298 Y176.1603
G01 X91.0363 Y176.0536
G01 X88.7444 Y175.9168
G01 X86.4545 Y175.7499
G01 X84.1670 Y175.5531
G01 X81.8822 Y175.3262
G01 X79.6007 Y175.0693
G01 X77.3227 Y174.7825
G01 X75.0486 Y174.4659
G01 X72.7789 Y174.1194
G01 X70.5140 Y173.7432
G01 X68.2541 Y173.3373
G01 X65.9998 Y172.9017
G01 X63.7515 Y172.4366
G01 X61.5094 Y171.9421
G01 X59.2740 Y171.4182
G01 X57.0456 Y170.8649
G01 X55.0537 Y170.3380
G01 X53.0684 Y169.7868
G01 X51.0900 Y169.2114
G01 X49.1187 Y168.6119
G01 X47.1548 Y167.9885
G01 X45.1988 Y167.3412
G01 X43.2507 Y166.6700
G01 X41.3110 Y165.9752
G01 X39.3799 Y165.2568
G01 X37.4577 Y164.5148
G01 X35.5447 Y163.7495
G01 X33.6411 Y162.9610
G01 X33.3694 Y162.8554
G01 X32.9361 Y162.6929
G01 X32.9199 Y162.7057
G01 X32.1020 Y164.2741
G01 X31.3103 Y165.8557
G01 X30.5450 Y167.4504
G01 X29.8062 Y169.0574
G01 X30.3521 Y169.2700
G01 X30.8987 Y169.4805
G01 X31.4461 Y169.6890
G01 X31.9943 Y169.8955
G01 X34.5538 Y170.8452
G01 X37.1259 Y171.7599
G01 X39.7103 Y172.6396
G01 X42.3064 Y173.4842
G01 X44.9137 Y174.2933
G01 X47.5318 Y175.0669
G01 X50.1601 Y175.8049
G01 X52.7982 Y176.5071
G01 X55.4457 Y177.1733
G01 X58.1019 Y177.8035
G01 X60.7665 Y178.3976
G01 X63.4389 Y178.9554
G01 X66.1186 Y179.4767
G01 X68.8051 Y179.9617
G01 X71.4981 Y180.4100
G01 X74.1968 Y180.8218
G01 X76.9009 Y181.1968
G01 X79.6099 Y181.5350
G01 X82.3232 Y181.8363
G01 X85.0403 Y182.1008
G01 X87.7608 Y182.3283
G01 X90.4841 Y182.5188
G01 X93.2098 Y182.6723
G01 X95.9373 Y182.7887
G01 X95.9443 Y182.5688
M107
G00 Z2.0000


;No. 3: Hole 3
G00 X101.3264 Y49.1698 Z2.0000
G00 Z0.5000
G01 Z-1.8000 F400
M106 S240
G01 X102.8132 F1000
G01 X103.1058 Y50.8198
G01 X101.0308
G01 X100.7353 Y52.4698
G01 X103.3983
G01 X103.6912 Y54.1198
G01 X100.4397
G01 X100.1442 Y55.7698
G01 X103.9843
G01 X104.2774 Y57.4198
G01 X99.8486
G01 X99.5531 Y59.0698
G01 X104.5705
G01 X104.8636 Y60.7198
G01 X99.2575
G01 X98.9620 Y62.3698
G01 X105.1567
G01 X105.4499 Y64.0198
G01 X98.6664
G01 X98.3709 Y65.6698
G01 X105.7433
G01 X106.0368 Y67.3198
G01 X98.0753
G01 X97.7798 Y68.9698
G01 X106.3303
G01 X106.6238 Y70.6198
G01 X97.4842
G01 X97.1887 Y72.2698
G01 X106.9172
G01 X107.2107 Y73.9198
G01 X96.8931
G01 X96.5976 Y75.5698
G01 X107.5042
G01 X107.7978 Y77.2198
G01 X96.3020
G01 X96.0065 Y78.8698
G01 X108.0916
G01 X108.3853 Y80.5198
G01 X95.7109
G01 X95.4154 Y82.1698
G01 X108.6791
G01 X108.9729 Y83.8198
G01 X95.1198
G01 X94.8243 Y85.4698
G01 X109.2666
G01 X109.5604 Y87.1198
G01 X94.5287
G01 X94.2332 Y88.7698
G01 X109.8542
G01 X110.1480 Y90.4198
G01 X93.9376
G01 X93.6421 Y92.0698
G01 X110.4420
G01 X110.7360 Y93.7198
G01 X93.3465
G01 X93.0510 Y95.3698
G01 X111.0300
G01 X111.3241 Y97.0198
G01 X92.7554
G01 X92.4599 Y98.6698
G01 X111.6181
G01 X111.9121 Y100.3198
G01 X92.1643
G01 X91.8688 Y101.9698
G01 X112.2061
G01 X112.5001 Y103.6198
G01 X91.5732
G01 X91.2777 Y105.2698
G01 X112.7943
G01 X113.0886 Y106.9198
G01 X90.9821
G01 X90.6866 Y108.5698
G01 X113.3829
G01 X113.6772 Y110.2198
G01 X90.3910
G01 X90.0955 Y111.8698
G01 X113.9714
G01 X114.2657 Y113.5198
G01 X89.7999
G01 X89.5044 Y115.1698
G01 X114.5600
G01 X114.8543 Y116.8198
G01 X89.2088
G01 X88.9133 Y118.4698
G01 X115.1487
G01 X115.4432 Y120.1198
G01 X88.6177
G01 X88.3222 Y121.7698
G01 X115.7378
G01 X116.0323 Y123.4198
G01 X88.0266
G01 X87.7311 Y125.0698
G01 X116.3269
G01 X116.6215 Y126.7198
G01 X87.4355
G01 X87.1400 Y128.3698
G01 X116.9160
G01 X117.2108 Y130.0198
G01 X86.8444
G01 X86.5489 Y131.6698
G01 X117.5057
G01 X117.8007 Y133.3198
G01 X86.2533
G01 X85.9578 Y134.9698
G01 X118.0956
G01 X118.3906 Y136.6198
G01 X85.6622
G01 X85.3667 Y138.2698
G01 X118.6855
G01 X118.9806 Y139.9198
G01 X85.0711
G01 X84.7756 Y141.5698
G01 X119.2763
G01 X119.5719 Y143.2198
G01 X84.4800
G01 X84.1845 Y144.8698
G01 X119.8676
G01 X120.1632 Y146.5198
G01 X83.8889
G01 X83.5934 Y148.1698
G01 X120.4593
G01 X120.7567 Y149.8198
G01 X83.2978
G01 X83.0023 Y151.4698
G01 X100.2237
G01 X98.8220 Y153.1198
G01 X82.7067
G01 X97.4402
G01 Y154.7698
G01 X38.4325
G01 X40.0377 Y153.1198
G01 X62.8621
G01 X58.6402
G01 Y151.4698
G01 X41.8767
G01 X43.9738
G01 Y149.8198
G01 X56.4366
G01 X55.1003 Y148.1698
G01 X46.3589
G01 X49.0732
G01 Y146.5198
G01 X54.2181
G01 X53.7006 Y144.8698
G01 X52.2420
M107
G00 Z2.0000
G00 X104.0186 Y149.8198
G00 Z0.5000
G01 Z-1.8000 F400
M106 S240
G01 Y151.4698 F1000
G01 X121.0540
G01 X121.3554 Y153.1198
G01 X105.3742
G01 X106.7299 Y154.7698
G01 X165.7160
G01 X164.1021 Y153.1198
G01 X141.2455
G01 X145.4814
G01 Y151.4698
G01 X162.2554
G01 X160.1582
G01 Y149.8198
G01 X147.6993
G01 X149.0436 Y148.1698
G01 X157.7831
G01 X155.0558
G01 Y146.5198
G01 X149.8936
G01 X150.4280 Y144.8698
G01 X151.8564
M107
G00 Z2.0000
G00 X96.0688 Y154.7698
G00 Z0.5000
G01 Z-1.8000 F400
M106 S240
G01 Y156.4198 F1000
G01 X37.0437
G01 X40.1894
G01 Y158.0698
G01 X94.7045
G01 X93.3475 Y159.7198
G01 X44.3987
G01 X49.1541
G01 Y161.3698
G01 X91.9934
G01 X90.6393 Y163.0198
G01 X54.5940
G01 X60.9819
G01 Y164.6698
G01 X89.2852
G01 X87.9311 Y166.3198
G01 X68.9075
G01 X80.6282
G01 Y167.9698
G01 X86.5770
M107
G00 Z2.0000
G00 X108.0855 Y154.7698
G00 Z0.5000
G01 Z-1.8000 F400
M106 S240
G01 Y156.4198 F1000
G01 X167.1039
G01 X163.9249
G01 Y158.0698
G01 X109.4411
G01 X110.7968 Y159.7198
G01 X159.6969
G01 X154.9493
G01 Y161.3698
G01 X112.1527
G01 X113.5104 Y163.0198
G01 X149.5452
G01 X143.2011
G01 Y164.6698
G01 X114.8710
G01 X116.2353 Y166.3198
G01 X135.2857
G01 X123.4959
G01 Y167.9698
G01 X117.6077
M107
G00 Z2.0000
G00 Z0.5000
G01 Z-1.8000 F400
M106 S240
G01 X117.4395 Y168.1107 F1000
G01 X117.8463 Y168.5962
G01 X117.8659 Y168.6017
G01 X118.1410 Y168.5929
G01 X118.4160 Y168.5819
G01 X118.6910 Y168.5686
G01 X118.9658 Y168.5530
G01 X121.1477 Y168.3913
G01 X123.3270 Y168.1972
G01 X125.5032 Y167.9708
G01 X127.6758 Y167.7121
G01 X129.8443 Y167.4211
G01 X132.0082 Y167.0980
G01 X134.1671 Y166.7428
G01 X136.3205 Y166.3556
G01 X138.4679 Y165.9364
G01 X140.6088 Y165.4854
G01 X142.7428 Y165.0026
G01 X144.8694 Y164.4883
G01 X146.9882 Y163.9424
G01 X149.0986 Y163.3651
G01 X151.2002 Y162.7565
G01 X153.2925 Y162.1168
G01 X155.3751 Y161.4461
G01 X157.4475 Y160.7445
G01 X159.5092 Y160.0122
G01 X161.5599 Y159.2494
G01 X163.0822 Y158.6526
G01 X164.5971 Y158.0372
G01 X166.1044 Y157.4034
G01 X167.6039 Y156.7512
G01 X167.6201 Y156.7372
G01 X166.9271 Y155.8599
G01 X166.2055 Y155.0061
G01 X165.4559 Y154.1767
G01 X164.6791 Y153.3727
G01 X163.8762 Y152.5948
G01 X163.0478 Y151.8441
G01 X162.1950 Y151.1212
G01 X161.3187 Y150.4271
G01 X160.2941 Y149.6446
G01 X159.2485 Y148.8902
G01 X158.1829 Y148.1646
G01 X157.0979 Y147.4683
G01 X155.9943 Y146.8017
G01 X154.8730 Y146.1654
G01 X153.7348 Y145.5599
G01 X152.5806 Y144.9856
G01 X152.0491 Y144.7085
G01 X151.5123 Y144.4416
G01 X150.9706 Y144.1850
G01 X150.4240 Y143.9390
G01 X150.3274 Y144.4130
G01 X150.2123 Y144.8829
G01 X150.0788 Y145.3479
G01 X149.9272 Y145.8073
G01 X149.7576 Y146.2604
G01 X149.5704 Y146.7065
G01 X149.3659 Y147.1449
G01 X149.1442 Y147.5750
G01 X148.8732 Y148.0167
G01 X148.5796 Y148.4438
G01 X148.2643 Y148.8551
G01 X147.9281 Y149.2496
G01 X147.5720 Y149.6261
G01 X147.1969 Y149.9836
G01 X146.8037 Y150.3213
G01 X146.3936 Y150.6381
G01 X145.9676 Y150.9334
G01 X145.5270 Y151.2061
G01 X145.0728 Y151.4557
G01 X144.6063 Y151.6814
G01 X143.9596 Y151.9661
G01 X143.3041 Y152.2296
G01 X142.6403 Y152.4716
G01 X141.9690 Y152.6918
G01 X141.2909 Y152.8901
G01 X140.6067 Y153.0662
G01 X139.9172 Y153.2199
G01 X139.2229 Y153.3511
G01 X138.1214 Y153.5397
G01 X137.0164 Y153.7061
G01 X135.9082 Y153.8503
G01 X134.7973 Y153.9721
G01 X133.6842 Y154.0717
G01 X132.5694 Y154.1489
G01 X131.4532 Y154.2036
G01 X130.3362 Y154.2359
G01 X128.4728 Y154.3050
G01 X126.6088 Y154.3517
G01 X124.7443 Y154.3761
G01 X122.8797 Y154.3781
G01 X122.7950 Y154.3811
G01 X122.7103 Y154.3782
G01 X122.6260 Y154.3693
G01 X122.5425 Y154.3544
G01 X122.4603 Y154.3337
G01 X122.3798 Y154.3071
G01 X122.3013 Y154.2750
G01 X122.2254 Y154.2373
G01 X122.1523 Y154.1944
G01 X122.0824 Y154.1464
G01 X122.0161 Y154.0936
G01 X121.9537 Y154.0362
G01 X121.8955 Y153.9745
G01 X121.8419 Y153.9089
G01 X121.7930 Y153.8396
G01 X121.7492 Y153.7670
G01 X121.7136 Y153.6926
G01 X121.6837 Y153.6158
G01 X121.6597 Y153.5369
G01 X121.6416 Y153.4564
G01 X121.3256 Y151.7286
G01 X121.0118 Y150.0004
G01 X120.7001 Y148.2719
G01 X120.3905 Y146.5429
G01 X118.7407 Y137.3298
G01 X116.8885 Y126.9647
G01 X114.8328 Y115.4476
G01 X110.3161 Y90.1091
G01 X106.2161 Y67.0729
G01 X103.9647 Y54.4023
G01 X102.1228 Y44.0147
G01 X102.0729 Y43.7516
G01 X82.4166 Y153.4917
G01 X82.3933 Y153.5934
G01 X82.3609 Y153.6925
G01 X82.3198 Y153.7883
G01 X82.2702 Y153.8800
G01 X82.2125 Y153.9668
G01 X82.1473 Y154.0481
G01 X82.0750 Y154.1232
G01 X81.9962 Y154.1915
G01 X81.9116 Y154.2524
G01 X81.8218 Y154.3055
G01 X81.7277 Y154.3502
G01 X81.6299 Y154.3863
G01 X81.5292 Y154.4135
G01 X81.4265 Y154.4314
G01 X81.3226 Y154.4401
G01 X81.2184 Y154.4393
G01 X81.0730 Y154.4448
G01 X80.9275 Y154.4486
G01 X80.7820 Y154.4508
G01 X80.6365 Y154.4513
G01 X79.1627 Y154.4408
G01 X77.6891 Y154.4143
G01 X76.2159 Y154.3718
G01 X74.7433 Y154.3133
G01 X73.2714 Y154.2388
G01 X71.8003 Y154.1483
G01 X70.3304 Y154.0419
G01 X68.8616 Y153.9195
G01 X68.0150 Y153.8360
G01 X67.1705 Y153.7327
G01 X66.3287 Y153.6095
G01 X65.4901 Y153.4667
G01 X64.6550 Y153.3042
G01 X63.8240 Y153.1221
G01 X62.9974 Y152.9206
G01 X62.1758 Y152.6997
G01 X61.5673 Y152.5192
G01 X60.9672 Y152.3121
G01 X60.3769 Y152.0787
G01 X59.7974 Y151.8196
G01 X59.2299 Y151.5351
G01 X58.6756 Y151.2259
G01 X58.1354 Y150.8925
G01 X57.6104 Y150.5357
G01 X57.1260 Y150.1460
G01 X56.6669 Y149.7269
G01 X56.2348 Y149.2800
G01 X55.8315 Y148.8069
G01 X55.4584 Y148.3096
G01 X55.1171 Y147.7900
G01 X54.8090 Y147.2501
G01 X54.5351 Y146.6921
G01 X54.2965 Y146.1180
G01 X54.0943 Y145.5302
G01 X53.9291 Y144.9309
G01 X53.8016 Y144.3224
G01 X53.7230 Y143.9461
G01 X53.7030 Y143.9385
G01 X52.7214 Y144.3842
G01 X51.7492 Y144.8500
G01 X50.7868 Y145.3358
G01 X49.8346 Y145.8413
G01 X48.8930 Y146.3664
G01 X47.9625 Y146.9107
G01 X47.0434 Y147.4741
G01 X46.1360 Y148.0564
G01 X45.2409 Y148.6572
G01 X44.3584 Y149.2763
G01 X43.4888 Y149.9135
G01 X42.6325 Y150.5685
G01 X41.7857 Y151.2500
G01 X40.9612 Y151.9583
G01 X40.1600 Y152.6927
G01 X39.3827 Y153.4526
G01 X38.6303 Y154.2370
G01 X37.9034 Y155.0451
G01 X37.2029 Y155.8763
G01 X36.5295 Y156.7295
G01 X36.5399 Y156.7458
G01 X38.9793 Y157.7977
G01 X40.7312 Y158.5211
G01 X42.4932 Y159.2195
G01 X44.2649 Y159.8929
G01 X46.0460 Y160.5410
G01 X47.8361 Y161.1638
G01 X49.6348 Y161.7611
G01 X51.4419 Y162.3328
G01 X53.2569 Y162.8788
G01 X55.0794 Y163.3989
G01 X56.9092 Y163.8932
G01 X58.7458 Y164.3614
G01 X60.5888 Y164.8035
G01 X62.7029 Y165.2947
G01 X64.8240 Y165.7548
G01 X66.9516 Y166.1839
G01 X69.0852 Y166.5818
G01 X71.2244 Y166.9484
G01 X73.3687 Y167.2836
G01 X75.5178 Y167.5875
G01 X77.6710 Y167.8599
G01 X79.8280 Y168.1007
G01 X81.9883 Y168.3100
G01 X84.1514 Y168.4876
G01 X86.3169 Y168.6335
G01 X93.8152 Y159.4967
G01 X95.5697 Y157.3506
G01 X97.3405 Y155.2178
G01 X99.1273 Y153.0986
G01 X100.9302 Y150.9929
G01 X101.0112 Y150.8870
G01 X101.0979 Y150.7856
G01 X101.1899 Y150.6891
G01 X101.2870 Y150.5977
G01 X101.3889 Y150.5117
G01 X101.4953 Y150.4313
G01 X101.6060 Y150.3569
G01 X101.7205 Y150.2885
G01 X101.8036 Y150.2557
G01 X101.8891 Y150.2297
G01 X101.9764 Y150.2107
G01 X102.0649 Y150.1989
G01 X102.1542 Y150.1943
G01 X102.2435 Y150.1970
G01 X102.3323 Y150.2069
G01 X102.4200 Y150.2240
G01 X102.5060 Y150.2481
G01 X102.5898 Y150.2791
G01 X102.6708 Y150.3169
G01 X102.7484 Y150.3611
G01 X102.8223 Y150.4114
G01 X102.8917 Y150.4676
G01 X102.9564 Y150.5292
G01 X103.0159 Y150.5959
G01 X111.8667 Y161.3685
G01 X113.1707 Y162.9556
G01 X114.4773 Y164.5405
G01 X115.7866 Y166.1232
G01 X117.0985 Y167.7037
G01 X117.4395 Y168.1107
G01 X117.6077 Y167.9698
M107
G00 Z2.0000


;No. 4: Hole 4
G00 X141.0076 Y111.8425 Z2.0000
G00 Z0.5000
G01 Z-1.8000 F400
M106 S240
G01 X142.4232 F1000
G01 Y113.4925
G01 X141.0076
G01 Y115.1425
G01 X142.4232
G01 Y116.7925
G01 X141.0076
G01 Y118.4425
G01 X142.4232
G01 Y120.0925
G01 X141.0076
G01 Y121.7425
G01 X142.4232
G01 Y123.3925
G01 X141.0076
G01 Y125.0425
G01 X142.4232
G01 X142.5286 Y126.6925
G01 X140.9007
G01 Y128.3425
G01 X131.5981
G01 X151.8056
M107
G00 Z2.0000
G00 Z0.5000
G01 Z-1.8000 F400
M106 S240
G01 X151.9619 Y128.1888 F1000
G01 X151.8574 Y128.0820
G01 X151.7473 Y127.9808
G01 X151.6322 Y127.8855
G01 X151.5122 Y127.7963
G01 X151.3878 Y127.7135
G01 X151.2591 Y127.6374
G01 X151.1267 Y127.5680
G01 X150.9908 Y127.5057
G01 X150.8519 Y127.4506
G01 X150.7102 Y127.4028
G01 X150.5663 Y127.3625
G01 X150.4205 Y127.3298
G01 X150.2731 Y127.3047
G01 X150.1246 Y127.2874
G01 X149.9755 Y127.2778
G01 X149.8260 Y127.2761
G01 X143.7632 Y127.2759
G01 X143.6758 Y127.2740
G01 X143.5889 Y127.2652
G01 X143.5030 Y127.2495
G01 X143.4185 Y127.2270
G01 X143.3361 Y127.1979
G01 X143.2563 Y127.1624
G01 X143.1796 Y127.1206
G01 X143.1064 Y127.0729
G01 X143.0372 Y127.0195
G01 X142.9725 Y126.9608
G01 X142.9127 Y126.8971
G01 X142.8580 Y126.8289
G01 X142.8090 Y126.7566
G01 X142.7659 Y126.6807
G01 X142.7289 Y126.6015
G01 X142.6983 Y126.5196
G01 X142.6743 Y126.4356
G01 X142.6571 Y126.3500
G01 X142.6467 Y126.2632
G01 X142.6432 Y126.1759
G01 Y111.0534
G01 X140.7876
G01 Y126.1559
G01 X140.7857 Y126.2433
G01 X140.7768 Y126.3302
G01 X140.7611 Y126.4161
G01 X140.7387 Y126.5006
G01 X140.7096 Y126.5830
G01 X140.6740 Y126.6628
G01 X140.6323 Y126.7395
G01 X140.5845 Y126.8127
G01 X140.5312 Y126.8819
G01 X140.4725 Y126.9466
G01 X140.4088 Y127.0065
G01 X140.3406 Y127.0611
G01 X140.2683 Y127.1101
G01 X140.1923 Y127.1532
G01 X140.1132 Y127.1902
G01 X140.0313 Y127.2208
G01 X139.9473 Y127.2448
G01 X139.8616 Y127.2620
G01 X139.7749 Y127.2724
G01 X139.6876 Y127.2759
G01 X133.5360 Y127.2767
G01 X133.3914 Y127.2804
G01 X133.2471 Y127.2913
G01 X133.1036 Y127.3095
G01 X132.9611 Y127.3349
G01 X132.8202 Y127.3674
G01 X132.6810 Y127.4070
G01 X132.5440 Y127.4535
G01 X132.4095 Y127.5069
G01 X132.2779 Y127.5669
G01 X132.1494 Y127.6335
G01 X132.0245 Y127.7065
G01 X131.9034 Y127.7856
G01 X131.7865 Y127.8708
G01 X131.6739 Y127.9617
G01 X131.5661 Y128.0582
G01 X131.4633 Y128.1599
G01 X131.3657 Y128.2668
G01 X131.2736 Y128.3783
G01 X131.1872 Y128.4944
G01 X131.1068 Y128.6147
G01 X131.0326 Y128.7389
G01 X130.9647 Y128.8666
G01 X130.9033 Y128.9976
G01 X130.8485 Y129.1315
G01 X152.5867 Y129.1309
G01 X152.5305 Y129.0002
G01 X152.4676 Y128.8725
G01 X152.3983 Y128.7482
G01 X152.3228 Y128.6277
G01 X152.2411 Y128.5112
G01 X152.1536 Y128.3990
G01 X152.0605 Y128.2914
G01 X151.9619 Y128.1888
G01 X151.8056 Y128.3425
M107
G00 Z2.0000


;No. 5: Hole 5


;No. 6: Hole 5
G00 X159.7393 Y128.2905 Z2.0000
G00 Z0.5000
G01 Z-1.8000 F400
M106 S240
G01 X159.6597 Y128.3844 F1000
G01 X159.5847 Y128.4820
G01 X159.5143 Y128.5831
G01 X159.4488 Y128.6873
G01 X159.3883 Y128.7945
G01 X159.3329 Y128.9045
G01 X159.2827 Y129.0169
G01 X159.2379 Y129.1315
G01 X180.9760 Y129.1309
G01 X180.9166 Y128.9956
G01 X180.8506 Y128.8634
G01 X180.7781 Y128.7346
G01 X180.6994 Y128.6096
G01 X180.6145 Y128.4886
G01 X180.5238 Y128.3720
G01 X180.4274 Y128.2600
G01 X180.3257 Y128.1529
G01 X180.2187 Y128.0509
G01 X180.1068 Y127.9544
G01 X179.9903 Y127.8635
G01 X179.8695 Y127.7785
G01 X179.7446 Y127.6995
G01 X179.6160 Y127.6269
G01 X179.4839 Y127.5606
G01 X179.3487 Y127.5010
G01 X179.2107 Y127.4481
G01 X179.0703 Y127.4022
G01 X178.9278 Y127.3632
G01 X178.7835 Y127.3313
G01 X178.6378 Y127.3066
G01 X178.4911 Y127.2891
G01 X178.3437 Y127.2788
G01 X178.1960 Y127.2759
G01 X161.9994
G01 X161.8391 Y127.2752
G01 X161.6791 Y127.2837
G01 X161.5197 Y127.3012
G01 X161.3617 Y127.3277
G01 X161.2054 Y127.3631
G01 X161.0513 Y127.4074
G01 X160.9000 Y127.4604
G01 X160.7520 Y127.5218
G01 X160.6077 Y127.5916
G01 X160.4676 Y127.6694
G01 X160.3322 Y127.7551
G01 X160.2018 Y127.8484
G01 X160.0769 Y127.9488
G01 X159.9580 Y128.0563
G01 X159.8453 Y128.1703
G01 X159.7393 Y128.2905
M107
G00 Z2.0000


;No. 7: Hole 6


;No. 8: Hole 6
G00 X159.6450 Y120.2952 Z2.0000
G00 Z0.5000
G01 Z-1.8000 F400
M106 S240
G01 X159.5816 Y120.3782 F1000
G01 X159.5217 Y120.4637
G01 X159.4652 Y120.5514
G01 X159.4123 Y120.6414
G01 X159.3630 Y120.7334
G01 X159.3175 Y120.8274
G01 X159.2757 Y120.9230
G01 X159.2379 Y121.0203
G01 X180.9760 Y121.0196
G01 X180.9166 Y120.8843
G01 X180.8506 Y120.7521
G01 X180.7781 Y120.6234
G01 X180.6994 Y120.4984
G01 X180.6145 Y120.3774
G01 X180.5238 Y120.2608
G01 X180.4274 Y120.1487
G01 X180.3257 Y120.0416
G01 X180.2187 Y119.9397
G01 X180.1068 Y119.8432
G01 X179.9903 Y119.7523
G01 X179.8695 Y119.6672
G01 X179.7446 Y119.5883
G01 X179.6160 Y119.5156
G01 X179.4839 Y119.4494
G01 X179.3487 Y119.3898
G01 X179.2107 Y119.3369
G01 X179.0703 Y119.2909
G01 X178.9278 Y119.2519
G01 X178.7835 Y119.2200
G01 X178.6378 Y119.1953
G01 X178.4911 Y119.1778
G01 X178.3437 Y119.1676
G01 X178.1960 Y119.1647
G01 X161.9994
G01 X161.8637 Y119.1636
G01 X161.7281 Y119.1691
G01 X161.5929 Y119.1810
G01 X161.4584 Y119.1994
G01 X161.3250 Y119.2243
G01 X161.1929 Y119.2555
G01 X161.0625 Y119.2929
G01 X160.9340 Y119.3366
G01 X160.8078 Y119.3865
G01 X160.6840 Y119.4423
G01 X160.5631 Y119.5039
G01 X160.4453 Y119.5713
G01 X160.3309 Y119.6443
G01 X160.2201 Y119.7226
G01 X160.1131 Y119.8062
G01 X160.0103 Y119.8948
G01 X159.9119 Y119.9882
G01 X159.8181 Y120.0862
G01 X159.7290 Y120.1887
G01 X159.6450 Y120.2952
M107
G00 Z2.0000


;No. 9: Hole 7


;No. 10: Hole 7
G00 X159.6003 Y112.2430 Z2.0000
G00 Z0.5000
G01 Z-1.8000 F400
M106 S240
G01 X159.5442 Y112.3198 F1000
G01 X159.4911 Y112.3987
G01 X159.4409 Y112.4796
G01 X159.3939 Y112.5623
G01 X159.3500 Y112.6467
G01 X159.3093 Y112.7327
G01 X159.2719 Y112.8202
G01 X159.2379 Y112.9091
G01 X180.9760 Y112.9084
G01 X180.9166 Y112.7731
G01 X180.8506 Y112.6409
G01 X180.7781 Y112.5121
G01 X180.6994 Y112.3871
G01 X180.6145 Y112.2662
G01 X180.5238 Y112.1495
G01 X180.4274 Y112.0375
G01 X180.3257 Y111.9304
G01 X180.2187 Y111.8285
G01 X180.1068 Y111.7319
G01 X179.9903 Y111.6410
G01 X179.8695 Y111.5560
G01 X179.7446 Y111.4771
G01 X179.6160 Y111.4044
G01 X179.4839 Y111.3381
G01 X179.3487 Y111.2785
G01 X179.2107 Y111.2257
G01 X179.0703 Y111.1797
G01 X178.9278 Y111.1407
G01 X178.7835 Y111.1088
G01 X178.6378 Y111.0841
G01 X178.4911 Y111.0666
G01 X178.3437 Y111.0564
G01 X178.1960 Y111.0534
G01 X161.9994
G01 X161.8600 Y111.0525
G01 X161.7207 Y111.0585
G01 X161.5819 Y111.0712
G01 X161.4438 Y111.0908
G01 X161.3069 Y111.1171
G01 X161.1715 Y111.1502
G01 X161.0378 Y111.1898
G01 X160.9062 Y111.2360
G01 X160.7771 Y111.2885
G01 X160.6507 Y111.3474
G01 X160.5273 Y111.4124
G01 X160.4073 Y111.4833
G01 X160.2910 Y111.5601
G01 X160.1785 Y111.6425
G01 X160.0702 Y111.7303
G01 X159.9664 Y111.8234
G01 X159.8672 Y111.9214
G01 X159.7730 Y112.0242
G01 X159.6840 Y112.1315
G01 X159.6003 Y112.2430
M107
G00 Z2.0000


;No. 11: Hole 8
G00 X188.4052 Y111.8425 Z2.0000
G00 Z0.5000
G01 Z-1.8000 F400
M106 S240
G01 X209.3409 F1000
G01 Y113.4925
G01 X207.8199
G01 X207.9253 Y115.1425
G01 X209.3409
G01 Y116.7925
G01 X207.9253
G01 X207.8690 Y118.4425
G01 X209.3409
G01 Y120.0925
G01 X187.6472
G01 Y121.7425
G01 X189.1191
G01 X189.0628 Y123.3925
G01 X187.6472
G01 Y125.0425
G01 X189.0628
G01 X189.1683 Y126.6925
G01 X187.6472
G01 Y128.3425
G01 X208.5833
M107
G00 Z2.0000
G00 Z0.5000
G01 Z-1.8000 F400
M106 S240
G01 X208.7391 Y128.1861 F1000
G01 X208.6335 Y128.0787
G01 X208.5225 Y127.9771
G01 X208.4063 Y127.8815
G01 X208.2852 Y127.7921
G01 X208.1597 Y127.7091
G01 X208.0299 Y127.6329
G01 X207.8963 Y127.5636
G01 X207.7592 Y127.5014
G01 X207.6191 Y127.4464
G01 X207.4763 Y127.3989
G01 X207.3312 Y127.3590
G01 X207.1841 Y127.3268
G01 X207.0356 Y127.3023
G01 X206.8861 Y127.2856
G01 X206.7358 Y127.2768
G01 X206.5853 Y127.2759
G01 X190.4028
G01 X190.3155 Y127.2740
G01 X190.2285 Y127.2652
G01 X190.1426 Y127.2495
G01 X190.0582 Y127.2270
G01 X189.9758 Y127.1979
G01 X189.8960 Y127.1624
G01 X189.8192 Y127.1206
G01 X189.7460 Y127.0729
G01 X189.6769 Y127.0195
G01 X189.6121 Y126.9608
G01 X189.5523 Y126.8971
G01 X189.4977 Y126.8289
G01 X189.4486 Y126.7566
G01 X189.4055 Y126.6807
G01 X189.3685 Y126.6015
G01 X189.3379 Y126.5196
G01 X189.3139 Y126.4356
G01 X189.2967 Y126.3500
G01 X189.2863 Y126.2632
G01 X189.2828 Y126.1759
G01 Y122.1403
G01 X189.2856 Y122.0425
G01 X189.2977 Y121.9401
G01 X189.3193 Y121.8393
G01 X189.3503 Y121.7410
G01 X189.3903 Y121.6460
G01 X189.4391 Y121.5552
G01 X189.4961 Y121.4693
G01 X189.5610 Y121.3892
G01 X189.6330 Y121.3154
G01 X189.7117 Y121.2488
G01 X189.7962 Y121.1898
G01 X189.8859 Y121.1390
G01 X189.9799 Y121.0967
G01 X190.0775 Y121.0635
G01 X190.1778 Y121.0396
G01 X190.2799 Y121.0251
G01 X190.3828 Y121.0203
G01 X209.5609
G01 Y111.0534
G01 X187.6272
G01 X187.6313 Y111.0710
G01 X187.6427 Y111.0992
G01 X187.7024 Y111.2317
G01 X187.7686 Y111.3611
G01 X187.8410 Y111.4871
G01 X187.9195 Y111.6093
G01 X188.0040 Y111.7276
G01 X188.0941 Y111.8416
G01 X188.1897 Y111.9510
G01 X188.2906 Y112.0556
G01 X188.3965 Y112.1551
G01 X188.5071 Y112.2493
G01 X188.6223 Y112.3380
G01 X188.7416 Y112.4209
G01 X188.8649 Y112.4978
G01 X188.9918 Y112.5686
G01 X189.1220 Y112.6331
G01 X189.2553 Y112.6911
G01 X189.3912 Y112.7426
G01 X189.5294 Y112.7872
G01 X189.6698 Y112.8251
G01 X189.8117 Y112.8560
G01 X189.9551 Y112.8799
G01 X190.0994 Y112.8967
G01 X190.2444 Y112.9065
G01 X190.3897 Y112.9091
G01 X206.5853
G01 X206.6727 Y112.9110
G01 X206.7596 Y112.9198
G01 X206.8455 Y112.9355
G01 X206.9300 Y112.9580
G01 X207.0124 Y112.9871
G01 X207.0922 Y113.0226
G01 X207.1689 Y113.0644
G01 X207.2421 Y113.1121
G01 X207.3113 Y113.1655
G01 X207.3760 Y113.2242
G01 X207.4358 Y113.2878
G01 X207.4905 Y113.3560
G01 X207.5395 Y113.4283
G01 X207.5826 Y113.5043
G01 X207.6196 Y113.5835
G01 X207.6502 Y113.6653
G01 X207.6742 Y113.7494
G01 X207.6914 Y113.8350
G01 X207.7018 Y113.9218
G01 X207.7053 Y114.0091
G01 Y118.0447
G01 X207.7034 Y118.1320
G01 X207.6946 Y118.2190
G01 X207.6789 Y118.3049
G01 X207.6564 Y118.3893
G01 X207.6273 Y118.4717
G01 X207.5918 Y118.5515
G01 X207.5500 Y118.6283
G01 X207.5023 Y118.7015
G01 X207.4489 Y118.7706
G01 X207.3902 Y118.8354
G01 X207.3265 Y118.8952
G01 X207.2583 Y118.9498
G01 X207.1860 Y118.9989
G01 X207.1100 Y119.0420
G01 X207.0309 Y119.0790
G01 X206.9490 Y119.1096
G01 X206.8650 Y119.1336
G01 X206.7794 Y119.1508
G01 X206.6926 Y119.1612
G01 X206.6053 Y119.1647
G01 X187.4272
G01 Y129.1315
G01 X209.3654 Y129.1309
G01 X209.3089 Y128.9998
G01 X209.2459 Y128.8719
G01 X209.1764 Y128.7473
G01 X209.1006 Y128.6264
G01 X209.0188 Y128.5095
G01 X208.9311 Y128.3970
G01 X208.8378 Y128.2891
G01 X208.7391 Y128.1861
G01 X208.5833 Y128.3425
M107
G00 Z2.0000


;No. 12: Hole 9
G00 X216.0365 Y111.8425 Z2.0000
G00 Z0.5000
G01 Z-1.8000 F400
M106 S240
G01 X236.6630 F1000
G01 X217.5590
G01 Y113.4925
G01 X216.0365
G01 Y115.1425
G01 X217.4522
G01 Y116.7925
G01 X216.0365
G01 Y118.4425
G01 X217.4522
G01 Y120.0925
G01 X216.0365
G01 Y121.7425
G01 X217.4522
G01 Y123.3925
G01 X216.0365
G01 Y125.0425
G01 X217.4522
G01 Y126.6925
G01 X216.0365
G01 Y128.3425
G01 X217.4522
M107
G00 Z2.0000
G00 Z0.5000
G01 Z-1.8000 F400
M106 S240
G01 X217.6722 F1000
G01 Y114.0291
G01 X217.6749 Y113.9313
G01 X217.6870 Y113.8289
G01 X217.7087 Y113.7281
G01 X217.7396 Y113.6298
G01 X217.7797 Y113.5348
G01 X217.8284 Y113.4439
G01 X217.8855 Y113.3581
G01 X217.9503 Y113.2779
G01 X218.0224 Y113.2042
G01 X218.1010 Y113.1375
G01 X218.1855 Y113.0785
G01 X218.2752 Y113.0277
G01 X218.3693 Y112.9855
G01 X218.4668 Y112.9523
G01 X218.5671 Y112.9283
G01 X218.6692 Y112.9139
G01 X218.7722 Y112.9091
G01 X237.7547 Y112.9084
G01 X237.6953 Y112.7731
G01 X237.6293 Y112.6409
G01 X237.5568 Y112.5121
G01 X237.4780 Y112.3871
G01 X237.3932 Y112.2662
G01 X237.3025 Y112.1495
G01 X237.2061 Y112.0375
G01 X237.1043 Y111.9304
G01 X236.9974 Y111.8285
G01 X236.8855 Y111.7319
G01 X236.7690 Y111.6410
G01 X236.6482 Y111.5560
G01 X236.5233 Y111.4771
G01 X236.3946 Y111.4044
G01 X236.2625 Y111.3382
G01 X236.1274 Y111.2785
G01 X235.9894 Y111.2257
G01 X235.8490 Y111.1797
G01 X235.7064 Y111.1407
G01 X235.5622 Y111.1088
G01 X235.4165 Y111.0841
G01 X235.2698 Y111.0666
G01 X235.1224 Y111.0564
G01 X234.9746 Y111.0534
G01 X215.8165
G01 Y129.1315
G01 X217.6722
G01 Y128.3425
G01 X217.4522
M107
G00 Z2.0000


;No. 13: Hole 10
G00 X244.4259 Y111.9119 Z2.0000
G00 Z0.5000
G01 Z-1.8000 F400
M106 S240
G01 X245.8415 F1000
G01 Y113.5619
G01 X244.4259
G01 Y115.2119
G01 X245.8415
G01 Y116.8619
G01 X244.4259
G01 Y118.5119
G01 X245.9213
G01 X244.4259 Y120.1619
G01 X266.1196
G01 Y118.5119
G01 X264.6246
G01 X264.7040 Y116.8619
G01 X266.1196
G01 Y115.2119
G01 X264.7040
G01 Y113.5619
G01 X266.1196
G01 Y111.9119
G01 X264.7040
M107
G00 Z2.0000
G00 Z0.5000
G01 Z-1.8000 F400
M106 S240
G01 X264.4840 F1000
G01 Y118.0447
G01 X264.4821 Y118.1320
G01 X264.4732 Y118.2190
G01 X264.4575 Y118.3049
G01 X264.4351 Y118.3893
G01 X264.4060 Y118.4717
G01 X264.3704 Y118.5515
G01 X264.3287 Y118.6283
G01 X264.2809 Y118.7015
G01 X264.2276 Y118.7706
G01 X264.1689 Y118.8354
G01 X264.1052 Y118.8952
G01 X264.0370 Y118.9498
G01 X263.9647 Y118.9989
G01 X263.8887 Y119.0420
G01 X263.8096 Y119.0790
G01 X263.7277 Y119.1096
G01 X263.6437 Y119.1336
G01 X263.5580 Y119.1508
G01 X263.4713 Y119.1612
G01 X263.3840 Y119.1647
G01 X247.1815
G01 X247.0941 Y119.1628
G01 X247.0072 Y119.1539
G01 X246.9213 Y119.1382
G01 X246.8368 Y119.1158
G01 X246.7545 Y119.0867
G01 X246.6746 Y119.0511
G01 X246.5979 Y119.0094
G01 X246.5247 Y118.9616
G01 X246.4555 Y118.9083
G01 X246.3908 Y118.8496
G01 X246.3310 Y118.7859
G01 X246.2763 Y118.7177
G01 X246.2273 Y118.6454
G01 X246.1842 Y118.5694
G01 X246.1472 Y118.4902
G01 X246.1166 Y118.4084
G01 X246.0926 Y118.3244
G01 X246.0754 Y118.2387
G01 X246.0650 Y118.1520
G01 X246.0615 Y118.0647
G01 Y111.0534
G01 X244.2059
G01 Y121.0203
G01 X266.3396
G01 Y111.0534
G01 X264.4840
G01 Y111.9119
G01 X264.7040
M107
G00 Z2.0000


;No. 14: Helical drill 2
G00 X268.4901 Y187.2999 Z2.0000
G00 Z0.5000
M106 S240
G01 X268.4889 Y187.2528 Z0.4962 F400
G01 X268.4856 Y187.2058 Z0.4924
G01 X268.4800 Y187.1590 Z0.4886
G01 X268.4722 Y187.1126 Z0.4848
G01 X268.4622 Y187.0665 Z0.4811
G01 X268.4500 Y187.0210 Z0.4773
G01 X268.4356 Y186.9761 Z0.4735
G01 X268.4191 Y186.9320 Z0.4697
G01 X268.4006 Y186.8886 Z0.4659
G01 X268.3800 Y186.8463 Z0.4621
G01 X268.3574 Y186.8049 Z0.4583
G01 X268.3329 Y186.7647 Z0.4545
G01 X268.3065 Y186.7257 Z0.4508
G01 X268.2783 Y186.6879 Z0.4470
G01 X268.2483 Y186.6516 Z0.4432
G01 X268.2166 Y186.6167 Z0.4394
G01 X268.1832 Y186.5834 Z0.4356
G01 X268.1484 Y186.5517 Z0.4318
G01 X268.1120 Y186.5217 Z0.4280
G01 X268.0743 Y186.4935 Z0.4242
G01 X268.0353 Y186.4671 Z0.4205
G01 X267.9951 Y186.4425 Z0.4167
G01 X267.9537 Y186.4200 Z0.4129
G01 X267.9113 Y186.3994 Z0.4091
G01 X267.8680 Y186.3808 Z0.4053
G01 X267.8239 Y186.3644 Z0.4015
G01 X267.7790 Y186.3500 Z0.3977
G01 X267.7335 Y186.3378 Z0.3939
G01 X267.6874 Y186.3278 Z0.3902
G01 X267.6410 Y186.3200 Z0.3864
G01 X267.5942 Y186.3144 Z0.3826
G01 X267.5472 Y186.3110 Z0.3788
G01 X267.5001 Y186.3099 Z0.3750
G01 X267.4530 Y186.3110 Z0.3712
G01 X267.4060 Y186.3144 Z0.3674
G01 X267.3592 Y186.3200 Z0.3636
G01 X267.3127 Y186.3278 Z0.3598
G01 X267.2667 Y186.3378 Z0.3561
G01 X267.2211 Y186.3500 Z0.3523
G01 X267.1763 Y186.3644 Z0.3485
G01 X267.1321 Y186.3808 Z0.3447
G01 X267.0888 Y186.3994 Z0.3409
G01 X267.0464 Y186.4200 Z0.3371
G01 X267.0051 Y186.4425 Z0.3333
G01 X266.9648 Y186.4671 Z0.3295
G01 X266.9258 Y186.4935 Z0.3258
G01 X266.8881 Y186.5217 Z0.3220
G01 X266.8517 Y186.5517 Z0.3182
G01 X266.8169 Y186.5834 Z0.3144
G01 X266.7836 Y186.6167 Z0.3106
G01 X266.7519 Y186.6516 Z0.3068
G01 X266.7219 Y186.6879 Z0.3030
G01 X266.6936 Y186.7257 Z0.2992
G01 X266.6672 Y186.7647 Z0.2955
G01 X266.6427 Y186.8049 Z0.2917
G01 X266.6201 Y186.8463 Z0.2879
G01 X266.5995 Y186.8886 Z0.2841
G01 X266.5810 Y186.9320 Z0.2803
G01 X266.5645 Y186.9761 Z0.2765
G01 X266.5502 Y187.0210 Z0.2727
G01 X266.5380 Y187.0665 Z0.2689
G01 X266.5280 Y187.1126 Z0.2652
G01 X266.5201 Y187.1590 Z0.2614
G01 X266.5145 Y187.2058 Z0.2576
G01 X266.5112 Y187.2528 Z0.2538
G01 X266.5101 Y187.2999 Z0.2500
G01 X266.5112 Y187.3470 Z0.2462
G01 X266.5145 Y187.3940 Z0.2424
G01 X266.5201 Y187.4408 Z0.2386
G01 X266.5280 Y187.4873 Z0.2348
G01 X266.5380 Y187.5333 Z0.2311
G01 X266.5502 Y187.5788 Z0.2273
G01 X266.5645 Y187.6237 Z0.2235
G01 X266.5810 Y187.6679 Z0.2197
G01 X266.5995 Y187.7112 Z0.2159
G01 X266.6201 Y187.7536 Z0.2121
G01 X266.6427 Y187.7949 Z0.2083
G01 X266.6672 Y187.8351 Z0.2045
G01 X266.6936 Y187.8742 Z0.2008
G01 X266.7219 Y187.9119 Z0.1970
G01 X266.7519 Y187.9482 Z0.1932
G01 X266.7836 Y187.9831 Z0.1894
G01 X266.8169 Y188.0164 Z0.1856
G01 X266.8517 Y188.0481 Z0.1818
G01 X266.8881 Y188.0781 Z0.1780
G01 X266.9258 Y188.1063 Z0.1742
G01 X266.9648 Y188.1327 Z0.1705
G01 X267.0051 Y188.1573 Z0.1667
G01 X267.0464 Y188.1799 Z0.1629
G01 X267.0888 Y188.2004 Z0.1591
G01 X267.1321 Y188.2190 Z0.1553
G01 X267.1763 Y188.2355 Z0.1515
G01 X267.2211 Y188.2498 Z0.1477
G01 X267.2667 Y188.2620 Z0.1439
G01 X267.3127 Y188.2720 Z0.1402
G01 X267.3592 Y188.2798 Z0.1364
G01 X267.4060 Y188.2854 Z0.1326
G01 X267.4530 Y188.2888 Z0.1288
G01 X267.5001 Y188.2899 Z0.1250
G01 X267.5472 Y188.2888 Z0.1212
G01 X267.5942 Y188.2854 Z0.1174
G01 X267.6410 Y188.2798 Z0.1136
G01 X267.6874 Y188.2720 Z0.1098
G01 X267.7335 Y188.2620 Z0.1061
G01 X267.7790 Y188.2498 Z0.1023
G01 X267.8239 Y188.2355 Z0.0985
G01 X267.8680 Y188.2190 Z0.0947
G01 X267.9113 Y188.2004 Z0.0909
G01 X267.9537 Y188.1799 Z0.0871
G01 X267.9951 Y188.1573 Z0.0833
G01 X268.0353 Y188.1327 Z0.0795
G01 X268.0743 Y188.1063 Z0.0758
G01 X268.1120 Y188.0781 Z0.0720
G01 X268.1484 Y188.0481 Z0.0682
G01 X268.1832 Y188.0164 Z0.0644
G01 X268.2166 Y187.9831 Z0.0606
G01 X268.2483 Y187.9482 Z0.0568
G01 X268.2783 Y187.9119 Z0.0530
G01 X268.3065 Y187.8742 Z0.0492
G01 X268.3329 Y187.8351 Z0.0455
G01 X268.3574 Y187.7949 Z0.0417
G01 X268.3800 Y187.7536 Z0.0379
G01 X268.4006 Y187.7112 Z0.0341
G01 X268.4191 Y187.6679 Z0.0303
G01 X268.4356 Y187.6237 Z0.0265
G01 X268.4500 Y187.5788 Z0.0227
G01 X268.4622 Y187.5333 Z0.0189
G01 X268.4722 Y187.4873 Z0.0152
G01 X268.4800 Y187.4408 Z0.0114
G01 X268.4856 Y187.3940 Z0.0076
G01 X268.4889 Y187.3470 Z0.0038
G01 X268.4901 Y187.2999 Z0.0000
G01 X268.4889 Y187.2528
G01 X268.4856 Y187.2058
G01 X268.4800 Y187.1590
G01 X268.4722 Y187.1126
G01 X268.4622 Y187.0665
G01 X268.4500 Y187.0210
G01 X268.4356 Y186.9761
G01 X268.4191 Y186.9320
G01 X268.4006 Y186.8886
G01 X268.3800 Y186.8463
G01 X268.3574 Y186.8049
G01 X268.3329 Y186.7647
G01 X268.3065 Y186.7257
G01 X268.2783 Y186.6879
G01 X268.2483 Y186.6516
G01 X268.2166 Y186.6167
G01 X268.1832 Y186.5834
G01 X268.1484 Y186.5517
G01 X268.1120 Y186.5217
G01 X268.0743 Y186.4935
G01 X268.0353 Y186.4671
G01 X267.9951 Y186.4425
G01 X267.9537 Y186.4200
G01 X267.9113 Y186.3994
G01 X267.8680 Y186.3808
G01 X267.8239 Y186.3644
G01 X267.7790 Y186.3500
G01 X267.7335 Y186.3378
G01 X267.6874 Y186.3278
G01 X267.6410 Y186.3200
G01 X267.5942 Y186.3144
G01 X267.5472 Y186.3110
G01 X267.5001 Y186.3099
G01 X267.4530 Y186.3110
G01 X267.4060 Y186.3144
G01 X267.3592 Y186.3200
G01 X267.3127 Y186.3278
G01 X267.2667 Y186.3378
G01 X267.2211 Y186.3500
G01 X267.1763 Y186.3644
G01 X267.1321 Y186.3808
G01 X267.0888 Y186.3994
G01 X267.0464 Y186.4200
G01 X267.0051 Y186.4425
G01 X266.9648 Y186.4671
G01 X266.9258 Y186.4935
G01 X266.8881 Y186.5217
G01 X266.8517 Y186.5517
G01 X266.8169 Y186.5834
G01 X266.7836 Y186.6167
G01 X266.7519 Y186.6516
G01 X266.7219 Y186.6879
G01 X266.6936 Y186.7257
G01 X266.6672 Y186.7647
G01 X266.6427 Y186.8049
G01 X266.6201 Y186.8463
G01 X266.5995 Y186.8886
G01 X266.5810 Y186.9320
G01 X266.5645 Y186.9761
G01 X266.5502 Y187.0210
G01 X266.5380 Y187.0665
G01 X266.5280 Y187.1126
G01 X266.5201 Y187.1590
G01 X266.5145 Y187.2058
G01 X266.5112 Y187.2528
G01 X266.5101 Y187.2999
G01 X266.5112 Y187.3470
G01 X266.5145 Y187.3940
G01 X266.5201 Y187.4408
G01 X266.5280 Y187.4873
G01 X266.5380 Y187.5333
G01 X266.5502 Y187.5788
G01 X266.5645 Y187.6237
G01 X266.5810 Y187.6679
G01 X266.5995 Y187.7112
G01 X266.6201 Y187.7536
G01 X266.6427 Y187.7949
G01 X266.6672 Y187.8351
G01 X266.6936 Y187.8742
G01 X266.7219 Y187.9119
G01 X266.7519 Y187.9482
G01 X266.7836 Y187.9831
G01 X266.8169 Y188.0164
G01 X266.8517 Y188.0481
G01 X266.8881 Y188.0781
G01 X266.9258 Y188.1063
G01 X266.9648 Y188.1327
G01 X267.0051 Y188.1573
G01 X267.0464 Y188.1799
G01 X267.0888 Y188.2004
G01 X267.1321 Y188.2190
G01 X267.1763 Y188.2355
G01 X267.2211 Y188.2498
G01 X267.2667 Y188.2620
G01 X267.3127 Y188.2720
G01 X267.3592 Y188.2798
G01 X267.4060 Y188.2854
G01 X267.4530 Y188.2888
G01 X267.5001 Y188.2899
G01 X267.5472 Y188.2888
G01 X267.5942 Y188.2854
G01 X267.6410 Y188.2798
G01 X267.6874 Y188.2720
G01 X267.7335 Y188.2620
G01 X267.7790 Y188.2498
G01 X267.8239 Y188.2355
G01 X267.8680 Y188.2190
G01 X267.9113 Y188.2004
G01 X267.9537 Y188.1799
G01 X267.9951 Y188.1573
G01 X268.0353 Y188.1327
G01 X268.0743 Y188.1063
G01 X268.1120 Y188.0781
G01 X268.1484 Y188.0481
G01 X268.1832 Y188.0164
G01 X268.2166 Y187.9831
G01 X268.2483 Y187.9482
G01 X268.2783 Y187.9119
G01 X268.3065 Y187.8742
G01 X268.3329 Y187.8351
G01 X268.3574 Y187.7949
G01 X268.3800 Y187.7536
G01 X268.4006 Y187.7112
G01 X268.4191 Y187.6679
G01 X268.4356 Y187.6237
G01 X268.4500 Y187.5788
G01 X268.4622 Y187.5333
G01 X268.4722 Y187.4873
G01 X268.4800 Y187.4408
G01 X268.4856 Y187.3940
G01 X268.4889 Y187.3470
G01 X268.4901 Y187.2999
M107
M106 S240
G01 X268.4889 Y187.2528 Z-0.0167
G01 X268.4856 Y187.2058 Z-0.0333
G01 X268.4800 Y187.1590 Z-0.0500
G01 X268.4722 Y187.1126 Z-0.0667
G01 X268.4622 Y187.0665 Z-0.0833
G01 X268.4500 Y187.0210 Z-0.1000
G01 X268.4356 Y186.9761 Z-0.1167
G01 X268.4191 Y186.9320 Z-0.1333
G01 X268.4006 Y186.8886 Z-0.1500
G01 X268.3800 Y186.8463 Z-0.1667
G01 X268.3574 Y186.8049 Z-0.1833
G01 X268.3329 Y186.7647 Z-0.2000
G01 X268.3065 Y186.7257 Z-0.2167
G01 X268.2783 Y186.6879 Z-0.2333
G01 X268.2483 Y186.6516 Z-0.2500
G01 X268.2166 Y186.6167 Z-0.2667
G01 X268.1832 Y186.5834 Z-0.2833
G01 X268.1484 Y186.5517 Z-0.3000
G01 X268.1120 Y186.5217 Z-0.3167
G01 X268.0743 Y186.4935 Z-0.3333
G01 X268.0353 Y186.4671 Z-0.3500
G01 X267.9951 Y186.4425 Z-0.3667
G01 X267.9537 Y186.4200 Z-0.3833
G01 X267.9113 Y186.3994 Z-0.4000
G01 X267.8680 Y186.3808 Z-0.4167
G01 X267.8239 Y186.3644 Z-0.4333
G01 X267.7790 Y186.3500 Z-0.4500
G01 X267.7335 Y186.3378 Z-0.4667
G01 X267.6874 Y186.3278 Z-0.4833
G01 X267.6410 Y186.3200 Z-0.5000
G01 X267.5942 Y186.3144 Z-0.5167
G01 X267.5472 Y186.3110 Z-0.5333
G01 X267.5001 Y186.3099 Z-0.5500
G01 X267.4530 Y186.3110 Z-0.5667
G01 X267.4060 Y186.3144 Z-0.5833
G01 X267.3592 Y186.3200 Z-0.6000
G01 X267.3127 Y186.3278 Z-0.6167
G01 X267.2667 Y186.3378 Z-0.6333
G01 X267.2211 Y186.3500 Z-0.6500
G01 X267.1763 Y186.3644 Z-0.6667
G01 X267.1321 Y186.3808 Z-0.6833
G01 X267.0888 Y186.3994 Z-0.7000
G01 X267.0464 Y186.4200 Z-0.7167
G01 X267.0051 Y186.4425 Z-0.7333
G01 X266.9648 Y186.4671 Z-0.7500
G01 X266.9258 Y186.4935 Z-0.7667
G01 X266.8881 Y186.5217 Z-0.7833
G01 X266.8517 Y186.5517 Z-0.8000
G01 X266.8169 Y186.5834 Z-0.8167
G01 X266.7836 Y186.6167 Z-0.8333
G01 X266.7519 Y186.6516 Z-0.8500
G01 X266.7219 Y186.6879 Z-0.8667
G01 X266.6936 Y186.7257 Z-0.8833
G01 X266.6672 Y186.7647 Z-0.9000
G01 X266.6427 Y186.8049 Z-0.9167
G01 X266.6201 Y186.8463 Z-0.9333
G01 X266.5995 Y186.8886 Z-0.9500
G01 X266.5810 Y186.9320 Z-0.9667
G01 X266.5645 Y186.9761 Z-0.9833
G01 X266.5502 Y187.0210 Z-1.0000
G01 X266.5380 Y187.0665 Z-1.0167
G01 X266.5280 Y187.1126 Z-1.0333
G01 X266.5201 Y187.1590 Z-1.0500
G01 X266.5145 Y187.2058 Z-1.0667
G01 X266.5112 Y187.2528 Z-1.0833
G01 X266.5101 Y187.2999 Z-1.1000
G01 X266.5112 Y187.3470 Z-1.1167
G01 X266.5145 Y187.3940 Z-1.1333
G01 X266.5201 Y187.4408 Z-1.1500
G01 X266.5280 Y187.4873 Z-1.1667
G01 X266.5380 Y187.5333 Z-1.1833
G01 X266.5502 Y187.5788 Z-1.2000
G01 X266.5645 Y187.6237 Z-1.2167
G01 X266.5810 Y187.6679 Z-1.2333
G01 X266.5995 Y187.7112 Z-1.2500
G01 X266.6201 Y187.7536 Z-1.2667
G01 X266.6427 Y187.7949 Z-1.2833
G01 X266.6672 Y187.8351 Z-1.3000
G01 X266.6936 Y187.8742 Z-1.3167
G01 X266.7219 Y187.9119 Z-1.3333
G01 X266.7519 Y187.9482 Z-1.3500
G01 X266.7836 Y187.9831 Z-1.3667
G01 X266.8169 Y188.0164 Z-1.3833
G01 X266.8517 Y188.0481 Z-1.4000
G01 X266.8881 Y188.0781 Z-1.4167
G01 X266.9258 Y188.1063 Z-1.4333
G01 X266.9648 Y188.1327 Z-1.4500
G01 X267.0051 Y188.1573 Z-1.4667
G01 X267.0464 Y188.1799 Z-1.4833
G01 X267.0888 Y188.2004 Z-1.5000
G01 X267.1321 Y188.2190 Z-1.5167
G01 X267.1763 Y188.2355 Z-1.5333
G01 X267.2211 Y188.2498 Z-1.5500
G01 X267.2667 Y188.2620 Z-1.5667
G01 X267.3127 Y188.2720 Z-1.5833
G01 X267.3592 Y188.2798 Z-1.6000
G01 X267.4060 Y188.2854 Z-1.6167
G01 X267.4530 Y188.2888 Z-1.6333
G01 X267.5001 Y188.2899 Z-1.6500
G01 X267.5472 Y188.2888 Z-1.6667
G01 X267.5942 Y188.2854 Z-1.6833
G01 X267.6410 Y188.2798 Z-1.7000
G01 X267.6874 Y188.2720 Z-1.7167
G01 X267.7335 Y188.2620 Z-1.7333
G01 X267.7790 Y188.2498 Z-1.7500
G01 X267.8239 Y188.2355 Z-1.7667
G01 X267.8680 Y188.2190 Z-1.7833
G01 X267.9113 Y188.2004 Z-1.8000
G01 X267.9537 Y188.1799 Z-1.8167
G01 X267.9951 Y188.1573 Z-1.8333
G01 X268.0353 Y188.1327 Z-1.8500
G01 X268.0743 Y188.1063 Z-1.8667
G01 X268.1120 Y188.0781 Z-1.8833
G01 X268.1484 Y188.0481 Z-1.9000
G01 X268.1832 Y188.0164 Z-1.9167
G01 X268.2166 Y187.9831 Z-1.9333
G01 X268.2483 Y187.9482 Z-1.9500
G01 X268.2783 Y187.9119 Z-1.9667
G01 X268.3065 Y187.8742 Z-1.9833
G01 X268.3329 Y187.8351 Z-2.0000
G01 X268.3574 Y187.7949 Z-2.0167
G01 X268.3800 Y187.7536 Z-2.0333
G01 X268.4006 Y187.7112 Z-2.0500
G01 X268.4191 Y187.6679 Z-2.0667
G01 X268.4356 Y187.6237 Z-2.0833
G01 X268.4500 Y187.5788 Z-2.1000
G01 X268.4622 Y187.5333 Z-2.1167
G01 X268.4722 Y187.4873 Z-2.1333
G01 X268.4800 Y187.4408 Z-2.1500
G01 X268.4856 Y187.3940 Z-2.1667
G01 X268.4889 Y187.3470 Z-2.1833
G01 X268.4901 Y187.2999 Z-2.2000
G01 X268.4889 Y187.2528
G01 X268.4856 Y187.2058
G01 X268.4800 Y187.1590
G01 X268.4722 Y187.1126
G01 X268.4622 Y187.0665
G01 X268.4500 Y187.0210
G01 X268.4356 Y186.9761
G01 X268.4191 Y186.9320
G01 X268.4006 Y186.8886
G01 X268.3800 Y186.8463
G01 X268.3574 Y186.8049
G01 X268.3329 Y186.7647
G01 X268.3065 Y186.7257
G01 X268.2783 Y186.6879
G01 X268.2483 Y186.6516
G01 X268.2166 Y186.6167
G01 X268.1832 Y186.5834
G01 X268.1484 Y186.5517
G01 X268.1120 Y186.5217
G01 X268.0743 Y186.4935
G01 X268.0353 Y186.4671
G01 X267.9951 Y186.4425
G01 X267.9537 Y186.4200
G01 X267.9113 Y186.3994
G01 X267.8680 Y186.3808
G01 X267.8239 Y186.3644
G01 X267.7790 Y186.3500
G01 X267.7335 Y186.3378
G01 X267.6874 Y186.3278
G01 X267.6410 Y186.3200
G01 X267.5942 Y186.3144
G01 X267.5472 Y186.3110
G01 X267.5001 Y186.3099
G01 X267.4530 Y186.3110
G01 X267.4060 Y186.3144
G01 X267.3592 Y186.3200
G01 X267.3127 Y186.3278
G01 X267.2667 Y186.3378
G01 X267.2211 Y186.3500
G01 X267.1763 Y186.3644
G01 X267.1321 Y186.3808
G01 X267.0888 Y186.3994
G01 X267.0464 Y186.4200
G01 X267.0051 Y186.4425
G01 X266.9648 Y186.4671
G01 X266.9258 Y186.4935
G01 X266.8881 Y186.5217
G01 X266.8517 Y186.5517
G01 X266.8169 Y186.5834
G01 X266.7836 Y186.6167
G01 X266.7519 Y186.6516
G01 X266.7219 Y186.6879
G01 X266.6936 Y186.7257
G01 X266.6672 Y186.7647
G01 X266.6427 Y186.8049
G01 X266.6201 Y186.8463
G01 X266.5995 Y186.8886
G01 X266.5810 Y186.9320
G01 X266.5645 Y186.9761
G01 X266.5502 Y187.0210
G01 X266.5380 Y187.0665
G01 X266.5280 Y187.1126
G01 X266.5201 Y187.1590
G01 X266.5145 Y187.2058
G01 X266.5112 Y187.2528
G01 X266.5101 Y187.2999
G01 X266.5112 Y187.3470
G01 X266.5145 Y187.3940
G01 X266.5201 Y187.4408
G01 X266.5280 Y187.4873
G01 X266.5380 Y187.5333
G01 X266.5502 Y187.5788
G01 X266.5645 Y187.6237
G01 X266.5810 Y187.6679
G01 X266.5995 Y187.7112
G01 X266.6201 Y187.7536
G01 X266.6427 Y187.7949
G01 X266.6672 Y187.8351
G01 X266.6936 Y187.8742
G01 X266.7219 Y187.9119
G01 X266.7519 Y187.9482
G01 X266.7836 Y187.9831
G01 X266.8169 Y188.0164
G01 X266.8517 Y188.0481
G01 X266.8881 Y188.0781
G01 X266.9258 Y188.1063
G01 X266.9648 Y188.1327
G01 X267.0051 Y188.1573
G01 X267.0464 Y188.1799
G01 X267.0888 Y188.2004
G01 X267.1321 Y188.2190
G01 X267.1763 Y188.2355
G01 X267.2211 Y188.2498
G01 X267.2667 Y188.2620
G01 X267.3127 Y188.2720
G01 X267.3592 Y188.2798
G01 X267.4060 Y188.2854
G01 X267.4530 Y188.2888
G01 X267.5001 Y188.2899
G01 X267.5472 Y188.2888
G01 X267.5942 Y188.2854
G01 X267.6410 Y188.2798
G01 X267.6874 Y188.2720
G01 X267.7335 Y188.2620
G01 X267.7790 Y188.2498
G01 X267.8239 Y188.2355
G01 X267.8680 Y188.2190
G01 X267.9113 Y188.2004
G01 X267.9537 Y188.1799
G01 X267.9951 Y188.1573
G01 X268.0353 Y188.1327
G01 X268.0743 Y188.1063
G01 X268.1120 Y188.0781
G01 X268.1484 Y188.0481
G01 X268.1832 Y188.0164
G01 X268.2166 Y187.9831
G01 X268.2483 Y187.9482
G01 X268.2783 Y187.9119
G01 X268.3065 Y187.8742
G01 X268.3329 Y187.8351
G01 X268.3574 Y187.7949
G01 X268.3800 Y187.7536
G01 X268.4006 Y187.7112
G01 X268.4191 Y187.6679
G01 X268.4356 Y187.6237
G01 X268.4500 Y187.5788
G01 X268.4622 Y187.5333
G01 X268.4722 Y187.4873
G01 X268.4800 Y187.4408
G01 X268.4856 Y187.3940
G01 X268.4889 Y187.3470
G01 X268.4901 Y187.2999
G01 X268.5021 Y187.2486 F1000
G01 X268.5114 Y187.1967
G01 X268.5180 Y187.1444
G01 X268.5219 Y187.0918
G01 X268.5230 Y187.0391
G01 X268.5214 Y186.9864
G01 X268.5170 Y186.9338
G01 X268.5100 Y186.8816
G01 X268.4993 Y186.8249
G01 X268.4858 Y186.7689
G01 X268.4693 Y186.7137
G01 X268.4501 Y186.6593
G01 X268.4280 Y186.6061
G01 X268.4033 Y186.5540
G01 X268.3759 Y186.5033
G01 X268.3459 Y186.4540
G01 X268.3107 Y186.4023
G01 X268.2729 Y186.3524
G01 X268.2326 Y186.3046
G01 X268.1898 Y186.2588
G01 X268.1448 Y186.2153
G01 X268.0977 Y186.1742
G01 X268.0484 Y186.1355
G01 X267.9973 Y186.0994
G01 X267.9402 Y186.0637
G01 X267.8813 Y186.0308
G01 X267.8208 Y186.0010
G01 X267.7589 Y185.9743
G01 X267.6957 Y185.9508
G01 X267.6314 Y185.9305
G01 X267.5661 Y185.9135
G01 X267.5001 Y185.8999
G01 X267.4314 Y185.9016
G01 X267.3628 Y185.9066
G01 X267.2946 Y185.9150
G01 X267.2269 Y185.9268
G01 X267.1599 Y185.9418
G01 X267.0937 Y185.9602
G01 X267.0284 Y185.9817
G01 X266.9643 Y186.0065
G01 X266.9015 Y186.0343
G01 X266.8401 Y186.0652
G01 X266.7803 Y186.0991
G01 X266.7222 Y186.1358
G01 X266.6661 Y186.1754
G01 X266.6119 Y186.2177
G01 X266.5599 Y186.2626
G01 X266.5101 Y186.3099
G01 X266.4627 Y186.3597
G01 X266.4178 Y186.4117
G01 X266.3755 Y186.4659
G01 X266.3360 Y186.5221
G01 X266.2992 Y186.5802
G01 X266.2653 Y186.6399
G01 X266.2345 Y186.7013
G01 X266.2066 Y186.7641
G01 X266.1819 Y186.8283
G01 X266.1603 Y186.8935
G01 X266.1420 Y186.9597
G01 X266.1269 Y187.0268
G01 X266.1152 Y187.0945
G01 X266.1068 Y187.1627
G01 X266.1017 Y187.2312
G01 X266.1000 Y187.2999
G01 X266.1017 Y187.3686
G01 X266.1068 Y187.4371
G01 X266.1152 Y187.5053
G01 X266.1269 Y187.5730
G01 X266.1420 Y187.6401
G01 X266.1603 Y187.7063
G01 X266.1819 Y187.7716
G01 X266.2066 Y187.8357
G01 X266.2345 Y187.8985
G01 X266.2653 Y187.9599
G01 X266.2992 Y188.0197
G01 X266.3360 Y188.0777
G01 X266.3755 Y188.1339
G01 X266.4178 Y188.1881
G01 X266.4627 Y188.2401
G01 X266.5101 Y188.2899
G01 X266.5599 Y188.3373
G01 X266.6119 Y188.3821
G01 X266.6661 Y188.4244
G01 X266.7222 Y188.4640
G01 X266.7803 Y188.5008
G01 X266.8401 Y188.5346
G01 X266.9015 Y188.5655
G01 X266.9643 Y188.5934
G01 X267.0284 Y188.6181
G01 X267.0937 Y188.6396
G01 X267.1599 Y188.6580
G01 X267.2269 Y188.6730
G01 X267.2946 Y188.6848
G01 X267.3628 Y188.6932
G01 X267.4314 Y188.6982
G01 X267.5001 Y188.6999
G01 X267.5688 Y188.6982
G01 X267.6373 Y188.6932
G01 X267.7055 Y188.6848
G01 X267.7732 Y188.6730
G01 X267.8402 Y188.6580
G01 X267.9065 Y188.6396
G01 X267.9717 Y188.6181
G01 X268.0358 Y188.5934
G01 X268.0986 Y188.5655
G01 X268.1600 Y188.5346
G01 X268.2198 Y188.5008
G01 X268.2779 Y188.4640
G01 X268.3341 Y188.4244
G01 X268.3882 Y188.3821
G01 X268.4403 Y188.3373
G01 X268.4900 Y188.2899
G01 X268.5374 Y188.2401
G01 X268.5823 Y188.1881
G01 X268.6246 Y188.1339
G01 X268.6641 Y188.0777
G01 X268.7009 Y188.0197
G01 X268.7348 Y187.9599
G01 X268.7657 Y187.8985
G01 X268.7935 Y187.8357
G01 X268.8182 Y187.7716
G01 X268.8398 Y187.7063
G01 X268.8581 Y187.6401
G01 X268.8732 Y187.5730
G01 X268.8849 Y187.5053
G01 X268.8933 Y187.4371
G01 X268.8984 Y187.3686
G01 X268.9001 Y187.2999
G01 X268.8962 Y187.1953
G01 X268.8844 Y187.0912
G01 X268.8650 Y186.9884
G01 X268.8379 Y186.8872
G01 X268.8033 Y186.7884
G01 X268.7614 Y186.6925
G01 X268.7125 Y186.5999
G01 X268.6568 Y186.5112
G01 X268.5946 Y186.4270
G01 X268.5264 Y186.3477
G01 X268.4523 Y186.2736
G01 X268.3730 Y186.2053
G01 X268.2887 Y186.1432
G01 X268.2001 Y186.0875
G01 X268.1075 Y186.0385
G01 X268.0115 Y185.9967
G01 X267.9127 Y185.9621
G01 X267.8116 Y185.9350
G01 X267.7087 Y185.9155
G01 X267.6047 Y185.9038
G01 X267.5001 Y185.8999
G01 X267.3954 Y185.9038
G01 X267.2914 Y185.9155
G01 X267.1885 Y185.9350
G01 X267.0874 Y185.9621
G01 X266.9886 Y185.9967
G01 X266.8926 Y186.0385
G01 X266.8000 Y186.0875
G01 X266.7114 Y186.1432
G01 X266.6272 Y186.2053
G01 X266.5478 Y186.2736
G01 X266.4738 Y186.3477
G01 X266.4055 Y186.4270
G01 X266.3433 Y186.5112
G01 X266.2876 Y186.5999
G01 X266.2387 Y186.6925
G01 X266.1968 Y186.7884
G01 X266.1622 Y186.8872
G01 X266.1351 Y186.9884
G01 X266.1157 Y187.0912
G01 X266.1040 Y187.1953
G01 X266.1000 Y187.2999
G01 X266.1040 Y187.4045
G01 X266.1157 Y187.5086
G01 X266.1351 Y187.6114
G01 X266.1622 Y187.7126
G01 X266.1968 Y187.8114
G01 X266.2387 Y187.9074
G01 X266.2876 Y187.9999
G01 X266.3433 Y188.0886
G01 X266.4055 Y188.1728
G01 X266.4738 Y188.2522
G01 X266.5478 Y188.3262
G01 X266.6272 Y188.3945
G01 X266.7114 Y188.4567
G01 X266.8000 Y188.5124
G01 X266.8926 Y188.5613
G01 X266.9886 Y188.6032
G01 X267.0874 Y188.6377
G01 X267.1885 Y188.6648
G01 X267.2914 Y188.6843
G01 X267.3954 Y188.6960
G01 X267.5001 Y188.6999
G01 X267.6047 Y188.6960
G01 X267.7087 Y188.6843
G01 X267.8116 Y188.6648
G01 X267.9127 Y188.6377
G01 X268.0115 Y188.6032
G01 X268.1075 Y188.5613
G01 X268.2001 Y188.5124
G01 X268.2887 Y188.4567
G01 X268.3730 Y188.3945
G01 X268.4523 Y188.3262
G01 X268.5264 Y188.2522
G01 X268.5946 Y188.1728
G01 X268.6568 Y188.0886
G01 X268.7125 Y187.9999
G01 X268.7614 Y187.9074
G01 X268.8033 Y187.8114
G01 X268.8379 Y187.7126
G01 X268.8650 Y187.6114
G01 X268.8844 Y187.5086
G01 X268.8962 Y187.4045
G01 X268.9001 Y187.2999
G01 X268.8955 Y187.1958
G01 X268.8819 Y187.0924
G01 X268.8594 Y186.9906
G01 X268.8280 Y186.8912
G01 X268.7881 Y186.7949
G01 X268.7400 Y186.7024
G01 X268.6840 Y186.6145
G01 X268.6205 Y186.5318
G01 X268.5501 Y186.4549
G01 X268.4732 Y186.3845
G01 X268.3905 Y186.3210
G01 X268.3026 Y186.2650
G01 X268.2101 Y186.2169
G01 X268.1138 Y186.1770
G01 X268.0144 Y186.1456
G01 X267.9126 Y186.1231
G01 X267.8092 Y186.1094
G01 X267.7051 Y186.1049
G01 X267.6009 Y186.1094
G01 X267.4976 Y186.1231
G01 X267.3958 Y186.1456
G01 X267.2964 Y186.1770
G01 X267.2000 Y186.2169
G01 X267.1076 Y186.2650
G01 X267.0196 Y186.3210
G01 X266.9369 Y186.3845
G01 X266.8601 Y186.4549
G01 X266.7896 Y186.5318
G01 X266.7262 Y186.6145
G01 X266.6702 Y186.7024
G01 X266.6220 Y186.7949
G01 X266.5821 Y186.8912
G01 X266.5508 Y186.9906
G01 X266.5282 Y187.0924
G01 X266.5146 Y187.1958
G01 X266.5101 Y187.2999
G01 X266.5113 Y187.3485
G01 X266.5148 Y187.3969
G01 X266.5208 Y187.4452
G01 X266.5291 Y187.4930
G01 X266.5397 Y187.5405
G01 X266.5527 Y187.5873
G01 X266.5679 Y187.6334
G01 X266.5854 Y187.6788
G01 X266.6051 Y187.7232
G01 X266.6270 Y187.7666
G01 X266.6509 Y187.8089
G01 X266.6769 Y187.8499
G01 X266.7049 Y187.8897
G01 X266.7348 Y187.9280
G01 X266.7665 Y187.9648
G01 X266.8000 Y187.9999
G01 X266.8352 Y188.0335
G01 X266.8720 Y188.0652
G01 X266.9103 Y188.0951
G01 X266.9500 Y188.1231
G01 X266.9911 Y188.1491
G01 X267.0334 Y188.1730
G01 X267.0768 Y188.1949
G01 X267.1212 Y188.2145
G01 X267.1665 Y188.2320
G01 X267.2127 Y188.2473
G01 X267.2595 Y188.2602
G01 X267.3069 Y188.2709
G01 X267.3548 Y188.2792
G01 X267.4030 Y188.2851
G01 X267.4515 Y188.2887
G01 X267.5001 Y188.2899
G01 X267.5486 Y188.2887
G01 X267.5971 Y188.2851
G01 X267.6453 Y188.2792
G01 X267.6932 Y188.2709
G01 X267.7406 Y188.2602
G01 X267.7874 Y188.2473
G01 X267.8336 Y188.2320
G01 X267.8789 Y188.2145
G01 X267.9233 Y188.1949
G01 X267.9667 Y188.1730
G01 X268.0090 Y188.1491
G01 X268.0501 Y188.1231
G01 X268.0898 Y188.0951
