;Project TeslaParking
;Created by Estlcam version 11 build 11,113
;Machining time about 00:18:37 hours

G90
M03 S18000
G00 X0.0000 Y0.0000 Z0.0000
G00 Z2.0000


;No. 1: Hole 1
G00 X37.2389 Y12.5390
G00 Z0.5000
G01 Z-1.8000 F400 S18000
M106 S240
G01 X182.3611 F1000
G01 Y14.0390
G01 X186.4635
G01 X33.1365
G01 Y15.5390
G01 X30.1490
G01 X189.4511
G01 X37.5863
G01 Y17.0390
G01 X27.7411
G01 Y18.5390
G01 X25.7112
G01 X33.8588
G01 X31.1473
G01 Y20.0390
G01 X23.9589
G01 X22.4227 Y21.5390
G01 X28.9725
G01 X27.1542
G01 Y23.0390
G01 X21.0638
G01 X19.8570 Y24.5390
G01 X25.5981
G01 X24.2514 Y26.0390
G01 X18.7821
G01 X17.8247 Y27.5390
G01 X23.0762
G01 X22.0492 Y29.0390
G01 X16.9730
G01 X16.2194 Y30.5390
G01 X21.1527
G01 X20.3716 Y32.0390
G01 X15.5573
G01 X14.9802 Y33.5390
G01 X19.6978
G01 X19.1223 Y35.0390
G01 X14.4837
G01 X14.0642 Y36.5390
G01 X18.6393
G01 X18.2434 Y38.0390
G01 X13.7185
G01 X13.4452 Y39.5390
G01 X17.9317
G01 X17.6996 Y41.0390
G01 X13.2415
G01 X13.1057 Y42.5390
G01 X17.5447
G01 X17.4666 Y44.0390
G01 X13.0366
G01 X13.0255 Y45.5390
G01 X17.4548
G01 Y47.0390
G01 X13.0255
G01 Y48.5390
G01 X17.4548
G01 Y50.0390
G01 X13.0255
G01 Y51.5390
G01 X17.4548
G01 Y53.0390
G01 X13.0255
G01 Y54.5390
G01 X17.4548
G01 Y56.0390
G01 X13.0255
G01 Y57.5390
G01 X17.4548
G01 Y59.0390
G01 X13.0255
G01 Y60.5390
G01 X17.4548
G01 Y62.0390
G01 X13.0255
G01 Y63.5390
G01 X17.4548
G01 Y65.0390
G01 X13.0255
G01 Y66.5390
G01 X17.4548
G01 Y68.0390
G01 X13.0255
G01 Y69.5390
G01 X17.4548
G01 Y71.0390
G01 X13.0255
G01 Y72.5390
G01 X17.4548
G01 Y74.0390
G01 X13.0255
G01 Y75.5390
G01 X17.4548
G01 Y77.0390
G01 X13.0255
G01 Y78.5390
G01 X17.4548
G01 Y80.0390
G01 X13.0255
G01 Y81.5390
G01 X17.4548
G01 Y83.0390
G01 X13.0255
G01 Y84.5390
G01 X17.4548
G01 Y86.0390
G01 X13.0255
G01 Y87.5390
G01 X17.4548
G01 Y89.0390
G01 X13.0255
G01 Y90.5390
G01 X17.4548
G01 Y92.0390
G01 X13.0255
G01 Y93.5390
G01 X17.4548
G01 Y95.0390
G01 X13.0255
G01 Y96.5390
G01 X17.4548
G01 Y98.0390
G01 X13.0255
G01 Y99.5390
G01 X17.4548
G01 Y101.0390
G01 X13.0255
G01 Y102.5390
G01 X17.4548
G01 Y104.0390
G01 X13.0255
G01 Y105.5390
G01 X17.4548
G01 Y107.0390
G01 X13.0255
G01 Y108.5390
G01 X17.4548
G01 Y110.0390
G01 X13.0255
G01 Y111.5390
G01 X17.4548
G01 Y113.0390
G01 X13.0255
G01 Y114.5390
G01 X17.4548
G01 Y116.0390
G01 X13.0255
G01 Y117.5390
G01 X17.4548
G01 Y119.0390
G01 X13.0255
G01 Y120.5390
G01 X17.4548
G01 Y122.0390
G01 X13.0255
G01 Y123.5390
G01 X17.4548
G01 Y125.0390
G01 X13.0255
G01 Y126.5390
G01 X17.4548
G01 Y128.0390
G01 X13.0255
G01 Y129.5390
G01 X17.4548
G01 Y131.0390
G01 X13.0255
G01 Y132.5390
G01 X17.4548
G01 Y134.0390
G01 X13.0255
G01 Y135.5390
G01 X17.4548
G01 Y137.0390
G01 X13.0255
G01 Y138.5390
G01 X17.4548
G01 Y140.0390
G01 X13.0255
G01 Y141.5390
G01 X17.4548
G01 Y143.0390
G01 X13.0255
G01 Y144.5390
G01 X17.4548
G01 Y146.0390
G01 X13.0255
G01 Y147.5390
G01 X17.4548
G01 Y149.0390
G01 X13.0255
G01 Y150.5390
G01 X17.4548
G01 Y152.0390
G01 X13.0255
G01 Y153.5390
G01 X17.4548
G01 Y155.0390
G01 X13.0255
G01 Y156.5390
G01 X17.4548
G01 Y158.0390
G01 X13.0255
G01 Y159.5390
G01 X17.4548
G01 Y161.0390
G01 X13.0255
G01 Y162.5390
G01 X17.4548
G01 Y164.0390
G01 X13.0255
G01 Y165.5390
G01 X17.4548
G01 Y167.0390
G01 X13.0255
G01 Y168.5390
G01 X17.4548
G01 Y170.0390
G01 X13.0255
G01 Y171.5390
G01 X17.4548
G01 Y173.0390
G01 X13.0255
G01 Y174.5390
G01 X17.4548
G01 Y176.0390
G01 X13.0255
G01 Y177.5390
G01 X17.4548
G01 Y179.0390
G01 X13.0255
G01 Y180.5390
G01 X17.4548
G01 Y182.0390
G01 X13.0255
G01 Y183.5390
G01 X17.4548
G01 Y185.0390
G01 X13.0255
G01 Y186.5390
G01 X17.4548
G01 Y188.0390
G01 X13.0255
G01 Y189.5390
G01 X17.4548
G01 Y191.0390
G01 X13.0255
G01 Y192.5390
G01 X17.4548
G01 Y194.0390
G01 X13.0255
G01 Y195.5390
G01 X17.4548
G01 Y197.0390
G01 X13.0255
G01 Y198.5390
G01 X17.4548
G01 Y200.0390
G01 X13.0255
G01 Y201.5390
G01 X17.4548
G01 Y203.0390
G01 X13.0255
G01 Y204.5390
G01 X17.4548
G01 Y206.0390
G01 X13.0255
G01 Y207.5390
G01 X17.4548
G01 Y209.0390
G01 X13.0255
G01 Y210.5390
G01 X17.4548
G01 Y212.0390
G01 X13.0255
G01 Y213.5390
G01 X17.4548
G01 Y215.0390
G01 X13.0255
G01 Y216.5390
G01 X17.4548
G01 Y218.0390
G01 X13.0255
G01 Y219.5390
G01 X17.4548
G01 Y221.0390
G01 X13.0255
G01 Y222.5390
G01 X17.4548
G01 Y224.0390
G01 X13.0255
G01 Y225.5390
G01 X17.4548
G01 Y227.0390
G01 X13.0255
G01 Y228.5390
G01 X17.4548
G01 Y230.0390
G01 X13.0255
G01 Y231.5390
G01 X17.4548
G01 Y233.0390
G01 X13.0255
G01 Y234.5390
G01 X17.4548
G01 Y236.0390
G01 X13.0255
G01 Y237.5390
G01 X17.4548
G01 Y239.0390
G01 X13.0255
G01 Y240.5390
G01 X17.4548
G01 Y242.0390
G01 X13.0255
G01 Y243.5390
G01 X17.4548
G01 Y245.0390
G01 X13.0255
G01 Y246.5390
G01 X17.4548
G01 Y248.0390
G01 X13.0255
G01 Y249.5390
G01 X17.4548
G01 Y251.0390
G01 X13.0255
G01 Y252.5390
G01 X17.4548
G01 Y254.0390
G01 X13.0255
G01 X13.0366 Y255.5390
G01 X17.4667
G01 X17.5445 Y257.0390
G01 X13.1058
G01 X13.2415 Y258.5390
G01 X17.6994
G01 X17.9314 Y260.0390
G01 X13.4452
G01 X13.7185 Y261.5390
G01 X18.2430
G01 X18.6394 Y263.0390
G01 X14.0641
G01 X14.4837 Y264.5390
G01 X19.1224
G01 X19.6977 Y266.0390
G01 X14.9802
G01 X15.5573 Y267.5390
G01 X20.3717
G01 X21.1524 Y269.0390
G01 X16.2194
G01 X16.9730 Y270.5390
G01 X22.0493
G01 X23.0761 Y272.0390
G01 X17.8247
G01 X18.7821 Y273.5390
G01 X24.2512
G01 X25.5983 Y275.0390
G01 X19.8570
G01 X21.0638 Y276.5390
G01 X27.1538
G01 Y278.0390
G01 X28.9725
G01 X22.4227
G01 X23.9589 Y279.5390
G01 X31.1469
G01 Y281.0390
G01 X33.8591
G01 X25.7112
G01 X27.7410
G01 Y282.5390
G01 X37.5855
G01 X30.1489
G01 Y284.0390
G01 X189.4510
G01 Y282.5390
G01 X191.8589
G01 X182.0137
G01 X185.7416
G01 Y281.0390
G01 X193.8888
G01 Y279.5390
G01 X195.6411
G01 X188.4529
G01 X190.6275
G01 Y278.0390
G01 X197.1773
G01 X198.5362 Y276.5390
G01 X192.4463
G01 X194.0014 Y275.0390
G01 X199.7430
G01 X200.8179 Y273.5390
G01 X195.3488
G01 X196.5239 Y272.0390
G01 X201.7753
G01 X202.6270 Y270.5390
G01 X197.5505
G01 X198.4475 Y269.0390
G01 X203.3806
G01 X204.0427 Y267.5390
G01 X199.2285
G01 X199.9022 Y266.0390
G01 X204.6198
G01 X205.1163 Y264.5390
G01 X200.4777
G01 X200.9606 Y263.0390
G01 X205.5358
G01 X205.8815 Y261.5390
G01 X201.3571
G01 X201.6686 Y260.0390
G01 X206.1548
G01 X206.3585 Y258.5390
G01 X201.9007
G01 X202.0553 Y257.0390
G01 X206.4943
G01 X206.5634 Y255.5390
G01 X202.1334
G01 X202.1452 Y254.0390
G01 X206.5745
G01 Y252.5390
G01 X202.1452
G01 Y251.0390
G01 X206.5745
G01 Y249.5390
G01 X202.1452
G01 Y248.0390
G01 X206.5745
G01 Y246.5390
G01 X202.1452
G01 Y245.0390
G01 X206.5745
G01 Y243.5390
G01 X202.1452
G01 Y242.0390
G01 X206.5745
G01 Y240.5390
G01 X202.1452
G01 Y239.0390
G01 X206.5745
G01 Y237.5390
G01 X202.1452
G01 Y236.0390
G01 X206.5745
G01 Y234.5390
G01 X202.1452
G01 Y233.0390
G01 X206.5745
G01 Y231.5390
G01 X202.1452
G01 Y230.0390
G01 X206.5745
G01 Y228.5390
G01 X202.1452
G01 Y227.0390
G01 X206.5745
G01 Y225.5390
G01 X202.1452
G01 Y224.0390
G01 X206.5745
G01 Y222.5390
G01 X202.1452
G01 Y221.0390
G01 X206.5745
G01 Y219.5390
G01 X202.1452
G01 Y218.0390
G01 X206.5745
G01 Y216.5390
G01 X202.1452
G01 Y215.0390
G01 X206.5745
G01 Y213.5390
G01 X202.1452
G01 Y212.0390
G01 X206.5745
G01 Y210.5390
G01 X202.1452
G01 Y209.0390
G01 X206.5745
G01 Y207.5390
G01 X202.1452
G01 Y206.0390
G01 X206.5745
G01 Y204.5390
G01 X202.1452
G01 Y203.0390
G01 X206.5745
G01 Y201.5390
G01 X202.1452
G01 Y200.0390
G01 X206.5745
G01 Y198.5390
G01 X202.1452
G01 Y197.0390
G01 X206.5745
G01 Y195.5390
G01 X202.1452
G01 Y194.0390
G01 X206.5745
G01 Y192.5390
G01 X202.1452
G01 Y191.0390
G01 X206.5745
G01 Y189.5390
G01 X202.1452
G01 Y188.0390
G01 X206.5745
G01 Y186.5390
G01 X202.1452
G01 Y185.0390
G01 X206.5745
G01 Y183.5390
G01 X202.1452
G01 Y182.0390
G01 X206.5745
G01 Y180.5390
G01 X202.1452
G01 Y179.0390
G01 X206.5745
G01 Y177.5390
G01 X202.1452
G01 Y176.0390
G01 X206.5745
G01 Y174.5390
G01 X202.1452
G01 Y173.0390
G01 X206.5745
G01 Y171.5390
G01 X202.1452
G01 Y170.0390
G01 X206.5745
G01 Y168.5390
G01 X202.1452
G01 Y167.0390
G01 X206.5745
G01 Y165.5390
G01 X202.1452
G01 Y164.0390
G01 X206.5745
G01 Y162.5390
G01 X202.1452
G01 Y161.0390
G01 X206.5745
G01 Y159.5390
G01 X202.1452
G01 Y158.0390
G01 X206.5745
G01 Y156.5390
G01 X202.1452
G01 Y155.0390
G01 X206.5745
G01 Y153.5390
G01 X202.1452
G01 Y152.0390
G01 X206.5745
G01 Y150.5390
G01 X202.1452
G01 Y149.0390
G01 X206.5745
G01 Y147.5390
G01 X202.1452
G01 Y146.0390
G01 X206.5745
G01 Y144.5390
G01 X202.1452
G01 Y143.0390
G01 X206.5745
G01 Y141.5390
G01 X202.1452
G01 Y140.0390
G01 X206.5745
G01 Y138.5390
G01 X202.1452
G01 Y137.0390
G01 X206.5745
G01 Y135.5390
G01 X202.1452
G01 Y134.0390
G01 X206.5745
G01 Y132.5390
G01 X202.1452
G01 Y131.0390
G01 X206.5745
G01 Y129.5390
G01 X202.1452
G01 Y128.0390
G01 X206.5745
G01 Y126.5390
G01 X202.1452
G01 Y125.0390
G01 X206.5745
G01 Y123.5390
G01 X202.1452
G01 Y122.0390
G01 X206.5745
G01 Y120.5390
G01 X202.1452
G01 Y119.0390
G01 X206.5745
G01 Y117.5390
G01 X202.1452
G01 Y116.0390
G01 X206.5745
G01 Y114.5390
G01 X202.1452
G01 Y113.0390
G01 X206.5745
G01 Y111.5390
G01 X202.1452
G01 Y110.0390
G01 X206.5745
G01 Y108.5390
G01 X202.1452
G01 Y107.0390
G01 X206.5745
G01 Y105.5390
G01 X202.1452
G01 Y104.0390
G01 X206.5745
G01 Y102.5390
G01 X202.1452
G01 Y101.0390
G01 X206.5745
G01 Y99.5390
G01 X202.1452
G01 Y98.0390
G01 X206.5745
G01 Y96.5390
G01 X202.1452
G01 Y95.0390
G01 X206.5745
G01 Y93.5390
G01 X202.1452
G01 Y92.0390
G01 X206.5745
G01 Y90.5390
G01 X202.1452
G01 Y89.0390
G01 X206.5745
G01 Y87.5390
G01 X202.1452
G01 Y86.0390
G01 X206.5745
G01 Y84.5390
G01 X202.1452
G01 Y83.0390
G01 X206.5745
G01 Y81.5390
G01 X202.1452
G01 Y80.0390
G01 X206.5745
G01 Y78.5390
G01 X202.1452
G01 Y77.0390
G01 X206.5745
G01 Y75.5390
G01 X202.1452
G01 Y74.0390
G01 X206.5745
G01 Y72.5390
G01 X202.1452
G01 Y71.0390
G01 X206.5745
G01 Y69.5390
G01 X202.1452
G01 Y68.0390
G01 X206.5745
G01 Y66.5390
G01 X202.1452
G01 Y65.0390
G01 X206.5745
G01 Y63.5390
G01 X202.1452
G01 Y62.0390
G01 X206.5745
G01 Y60.5390
G01 X202.1452
G01 Y59.0390
G01 X206.5745
G01 Y57.5390
G01 X202.1452
G01 Y56.0390
G01 X206.5745
G01 Y54.5390
G01 X202.1452
G01 Y53.0390
G01 X206.5745
G01 Y51.5390
G01 X202.1452
G01 Y50.0390
G01 X206.5745
G01 Y48.5390
G01 X202.1452
G01 Y47.0390
G01 X206.5745
G01 Y45.5390
G01 X202.1452
G01 X202.1333 Y44.0390
G01 X206.5634
G01 X206.4942 Y42.5390
G01 X202.0555
G01 X201.9006 Y41.0390
G01 X206.3585
G01 X206.1548 Y39.5390
G01 X201.6686
G01 X201.3570 Y38.0390
G01 X205.8815
G01 X205.5359 Y36.5390
G01 X200.9606
G01 X200.4776 Y35.0390
G01 X205.1163
G01 X204.6198 Y33.5390
G01 X199.9023
G01 X199.2283 Y32.0390
G01 X204.0427
G01 X203.3806 Y30.5390
G01 X198.4476
G01 X197.5507 Y29.0390
G01 X202.6270
G01 X201.7753 Y27.5390
G01 X196.5239
G01 X195.3488 Y26.0390
G01 X200.8179
G01 X199.7430 Y24.5390
G01 X194.0017
G01 X192.4462 Y23.0390
G01 X198.5362
G01 X197.1773 Y21.5390
G01 X190.6275
G01 Y20.0390
G01 X188.4531
G01 X195.6411
G01 X193.8888
G01 Y18.5390
G01 X185.7418
G01 Y17.0390
G01 X182.0145
G01 X191.8590
M107
G00 Z2.0000
G00 X186.4635 Y284.0390
G00 Z0.5000
G01 Z-1.8000 F400
M106 S240
G01 Y285.5390 F1000
G01 X33.1365
G01 X37.2389
G01 Y287.0390
G01 X182.3611
M107
G00 Z2.0000
G00 X182.0137 Y282.5390
G00 Z0.5000
G01 Z-1.8000 F400
M106 S240
G01 X181.0607 Y282.6227 F1000
G01 X180.9713 Y282.6490
G01 X179.9739 Y282.9142
G01 X178.9679 Y283.1445
G01 X177.9544 Y283.3396
G01 X176.9348 Y283.4992
G01 X175.9102 Y283.6232
G01 X174.8819 Y283.7114
G01 X173.8512 Y283.7636
G01 X172.8193 Y283.7799
G01 X46.7608
G01 X45.7317 Y283.7672
G01 X44.7038 Y283.7179
G01 X43.6782 Y283.6320
G01 X42.6564 Y283.5098
G01 X41.6396 Y283.3513
G01 X40.6290 Y283.1568
G01 X39.6260 Y282.9265
G01 X38.6318 Y282.6607
G01 X37.6477 Y282.3597
G01 X36.6749 Y282.0240
G01 X35.7146 Y281.6538
G01 X34.7681 Y281.2498
G01 X33.8366 Y280.8124
G01 X32.9212 Y280.3421
G01 X32.0231 Y279.8396
G01 X31.1434 Y279.3055
G01 X30.2833 Y278.7405
G01 X29.4438 Y278.1452
G01 X28.6260 Y277.5205
G01 X27.8309 Y276.8671
G01 X27.0595 Y276.1859
G01 X26.3129 Y275.4777
G01 X25.5919 Y274.7434
G01 X24.8974 Y273.9839
G01 X24.2304 Y273.2002
G01 X23.5916 Y272.3933
G01 X22.9819 Y271.5642
G01 X22.4021 Y270.7140
G01 X21.8529 Y269.8437
G01 X21.3350 Y268.9544
G01 X20.8489 Y268.0473
G01 X20.3955 Y267.1235
G01 X19.9751 Y266.1841
G01 X19.5885 Y265.2304
G01 X19.2359 Y264.2635
G01 X18.9180 Y263.2848
G01 X18.6350 Y262.2953
G01 X18.3874 Y261.2964
G01 X18.1755 Y260.2894
G01 X17.9994 Y259.2754
G01 X17.8596 Y258.2558
G01 X17.7560 Y257.2319
G01 X17.6890 Y256.2050
G01 X17.6584 Y255.1764
G01 X17.6548 Y254.6919
G01 Y44.8660
G01 X17.6567 Y44.5253
G01 X17.6625 Y44.1846
G01 X17.6722 Y43.8440
G01 X17.6856 Y43.5035
G01 X17.7464 Y42.4962
G01 X17.8422 Y41.4916
G01 X17.9730 Y40.4910
G01 X18.1386 Y39.4956
G01 X18.3389 Y38.5065
G01 X18.5734 Y37.5250
G01 X18.8420 Y36.5523
G01 X19.1444 Y35.5895
G01 X19.4802 Y34.6379
G01 X19.8489 Y33.6985
G01 X20.2501 Y32.7726
G01 X20.6834 Y31.8612
G01 X21.1482 Y30.9655
G01 X21.6439 Y30.0865
G01 X22.1699 Y29.2254
G01 X22.7257 Y28.3831
G01 X23.3105 Y27.5606
G01 X23.9236 Y26.7591
G01 X24.5642 Y25.9794
G01 X25.2317 Y25.2225
G01 X25.9251 Y24.4894
G01 X26.6437 Y23.7809
G01 X27.3865 Y23.0978
G01 X28.1527 Y22.4411
G01 X28.9413 Y21.8114
G01 X29.7513 Y21.2097
G01 X30.5819 Y20.6365
G01 X31.4319 Y20.0927
G01 X32.3004 Y19.5788
G01 X33.1863 Y19.0954
G01 X34.0884 Y18.6433
G01 X35.0058 Y18.2229
G01 X35.9373 Y17.8347
G01 X36.8817 Y17.4792
G01 X37.8380 Y17.1569
G01 X38.8049 Y16.8681
G01 X39.7813 Y16.6131
G01 X40.7660 Y16.3924
G01 X41.7578 Y16.2061
G01 X42.7555 Y16.0545
G01 X43.7578 Y15.9378
G01 X44.7636 Y15.8561
G01 X45.7717 Y15.8095
G01 X46.7808 Y15.7980
G01 X172.8393
G01 X173.8793 Y15.8111
G01 X174.9182 Y15.8616
G01 X175.9546 Y15.9494
G01 X176.9873 Y16.0743
G01 X178.0147 Y16.2363
G01 X179.0357 Y16.4350
G01 X180.0488 Y16.6703
G01 X181.0529 Y16.9419
G01 X182.0466 Y17.2493
G01 X183.0286 Y17.5923
G01 X183.9976 Y17.9702
G01 X184.9524 Y18.3828
G01 X185.8918 Y18.8294
G01 X186.8145 Y19.3094
G01 X187.7194 Y19.8223
G01 X188.6053 Y20.3673
G01 X189.4711 Y20.9438
G01 X190.3156 Y21.5511
G01 X191.1377 Y22.1883
G01 X191.9364 Y22.8546
G01 X192.7106 Y23.5491
G01 X193.4594 Y24.2710
G01 X194.1818 Y25.0194
G01 X194.8769 Y25.7932
G01 X195.5437 Y26.5915
G01 X196.1814 Y27.4132
G01 X196.7891 Y28.2574
G01 X197.3662 Y29.1227
G01 X197.9118 Y30.0083
G01 X198.4252 Y30.9129
G01 X198.9058 Y31.8353
G01 X199.3529 Y32.7745
G01 X199.7661 Y33.7290
G01 X200.1447 Y34.6978
G01 X200.4882 Y35.6796
G01 X200.7962 Y36.6731
G01 X201.0684 Y37.6770
G01 X201.3043 Y38.6900
G01 X201.5037 Y39.7108
G01 X201.6663 Y40.7382
G01 X201.7919 Y41.7707
G01 X201.8803 Y42.8071
G01 X201.9314 Y43.8460
G01 X201.9452 Y44.8860
G01 Y254.7119
G01 X201.9312 Y255.7511
G01 X201.8798 Y256.7890
G01 X201.7912 Y257.8245
G01 X201.6655 Y258.8561
G01 X201.5027 Y259.8825
G01 X201.3032 Y260.9024
G01 X201.0672 Y261.9145
G01 X200.7950 Y262.9174
G01 X200.4869 Y263.9099
G01 X200.1433 Y264.8908
G01 X199.7647 Y265.8586
G01 X199.3516 Y266.8122
G01 X198.9045 Y267.7503
G01 X198.4240 Y268.6718
G01 X197.9107 Y269.5754
G01 X197.3652 Y270.4600
G01 X196.7884 Y271.3244
G01 X196.1808 Y272.1676
G01 X195.5433 Y272.9883
G01 X194.8768 Y273.7857
G01 X194.1820 Y274.5585
G01 X193.4600 Y275.3059
G01 X192.7115 Y276.0269
G01 X191.9376 Y276.7205
G01 X191.1393 Y277.3859
G01 X190.3176 Y278.0221
G01 X189.4736 Y278.6285
G01 X188.6083 Y279.2041
G01 X187.7229 Y279.7482
G01 X186.8185 Y280.2602
G01 X185.8963 Y280.7394
G01 X184.9575 Y281.1851
G01 X184.0033 Y281.5968
G01 X183.0349 Y281.9739
G01 X182.0536 Y282.3160
G01 X181.0607 Y282.6227
G01 X182.0137 Y282.5390
M107
G00 Z2.0000
G00 X182.3611 Y287.0390
G00 Z0.5000
G01 Z-1.8000 F400
M106 S240
G01 X183.4665 Y286.9045 F1000
G01 X184.4697 Y286.5569
G01 X185.4615 Y286.1781
G01 X186.4410 Y285.7684
G01 X187.4072 Y285.3283
G01 X188.3591 Y284.8581
G01 X189.2959 Y284.3583
G01 X190.2165 Y283.8294
G01 X191.1201 Y283.2720
G01 X192.0058 Y282.6866
G01 X192.8728 Y282.0737
G01 X193.7201 Y281.4340
G01 X194.5470 Y280.7680
G01 X195.3527 Y280.0765
G01 X196.1363 Y279.3601
G01 X196.8971 Y278.6195
G01 X197.6343 Y277.8555
G01 X198.3472 Y277.0688
G01 X199.0351 Y276.2601
G01 X199.6974 Y275.4302
G01 X200.3334 Y274.5801
G01 X200.9425 Y273.7104
G01 X201.5240 Y272.8221
G01 X202.0774 Y271.9160
G01 X202.6022 Y270.9931
G01 X203.0978 Y270.0541
G01 X203.5638 Y269.1002
G01 X203.9997 Y268.1320
G01 X204.4050 Y267.1507
G01 X204.7795 Y266.1572
G01 X205.1226 Y265.1525
G01 X205.4341 Y264.1375
G01 X205.7137 Y263.1133
G01 X205.9610 Y262.0808
G01 X206.1760 Y261.0410
G01 X206.3582 Y259.9951
G01 X206.5076 Y258.9439
G01 X206.6241 Y257.8886
G01 X206.7074 Y256.8302
G01 X206.7575 Y255.7696
G01 X206.7745 Y254.7080
G01 Y44.8699
G01 X206.7557 Y43.7602
G01 X206.7006 Y42.6517
G01 X206.6092 Y41.5456
G01 X206.4817 Y40.4430
G01 X206.3182 Y39.3453
G01 X206.1189 Y38.2534
G01 X205.8839 Y37.1687
G01 X205.6136 Y36.0923
G01 X205.3082 Y35.0253
G01 X204.9680 Y33.9688
G01 X204.5935 Y32.9241
G01 X204.1849 Y31.8921
G01 X203.7428 Y30.8741
G01 X203.2676 Y29.8711
G01 X202.7599 Y28.8842
G01 X202.2201 Y27.9144
G01 X201.6489 Y26.9628
G01 X201.0469 Y26.0304
G01 X200.4146 Y25.1182
G01 X199.7529 Y24.2272
G01 X199.0623 Y23.3583
G01 X198.3437 Y22.5125
G01 X197.5978 Y21.6907
G01 X196.8254 Y20.8937
G01 X196.0273 Y20.1224
G01 X195.2045 Y19.3776
G01 X194.3576 Y18.6602
G01 X193.4878 Y17.9708
G01 X192.5959 Y17.3103
G01 X191.6828 Y16.6793
G01 X190.7496 Y16.0786
G01 X189.7972 Y15.5087
G01 X188.8267 Y14.9703
G01 X187.8390 Y14.4639
G01 X186.8354 Y13.9901
G01 X185.8167 Y13.5495
G01 X184.7842 Y13.1423
G01 X183.7390 Y12.7692
G01 X182.6820 Y12.4305
G01 X181.6146 Y12.1266
G01 X180.5378 Y11.8578
G01 X179.4527 Y11.6243
G01 X178.3606 Y11.4265
G01 X177.2626 Y11.2645
G01 X176.1599 Y11.1386
G01 X175.0537 Y11.0488
G01 X173.9451 Y10.9952
G01 X172.8354 Y10.9780
G01 X46.7646
G01 X45.6549 Y10.9952
G01 X44.5463 Y11.0488
G01 X43.4401 Y11.1386
G01 X42.3374 Y11.2645
G01 X41.2394 Y11.4265
G01 X40.1473 Y11.6243
G01 X39.0622 Y11.8578
G01 X37.9854 Y12.1266
G01 X36.9180 Y12.4306
G01 X35.8610 Y12.7693
G01 X34.8158 Y13.1424
G01 X33.7833 Y13.5495
G01 X32.7646 Y13.9902
G01 X31.7610 Y14.4639
G01 X30.7733 Y14.9703
G01 X29.8028 Y15.5087
G01 X28.8504 Y16.0786
G01 X27.9172 Y16.6794
G01 X27.0041 Y17.3103
G01 X26.1122 Y17.9708
G01 X25.2424 Y18.6602
G01 X24.3955 Y19.3776
G01 X23.5727 Y20.1224
G01 X22.7746 Y20.8937
G01 X22.0022 Y21.6907
G01 X21.2563 Y22.5125
G01 X20.5377 Y23.3583
G01 X19.8471 Y24.2272
G01 X19.1854 Y25.1182
G01 X18.5531 Y26.0304
G01 X17.9511 Y26.9628
G01 X17.3799 Y27.9144
G01 X16.8401 Y28.8842
G01 X16.3324 Y29.8711
G01 X15.8572 Y30.8741
G01 X15.4151 Y31.8921
G01 X15.0065 Y32.9241
G01 X14.6320 Y33.9688
G01 X14.2918 Y35.0253
G01 X13.9864 Y36.0923
G01 X13.7161 Y37.1688
G01 X13.4811 Y38.2535
G01 X13.2818 Y39.3453
G01 X13.1183 Y40.4430
G01 X12.9908 Y41.5456
G01 X12.8994 Y42.6517
G01 X12.8443 Y43.7602
G01 X12.8255 Y44.8699
G01 Y254.7081
G01 X12.8297 Y255.2449
G01 X12.8655 Y256.3430
G01 X12.9369 Y257.4394
G01 X13.0438 Y258.5329
G01 X13.1861 Y259.6223
G01 X13.3635 Y260.7065
G01 X13.5760 Y261.7845
G01 X13.8233 Y262.8550
G01 X14.1052 Y263.9169
G01 X14.4213 Y264.9691
G01 X14.7713 Y266.0106
G01 X15.1549 Y267.0401
G01 X15.5716 Y268.0567
G01 X16.0210 Y269.0593
G01 X16.5027 Y270.0467
G01 X17.0161 Y271.0181
G01 X17.5607 Y271.9723
G01 X18.1359 Y272.9084
G01 X18.7412 Y273.8253
G01 X19.3758 Y274.7222
G01 X20.0391 Y275.5980
G01 X20.7305 Y276.4519
G01 X21.4492 Y277.2829
G01 X22.1944 Y278.0902
G01 X22.9654 Y278.8730
G01 X23.7613 Y279.6304
G01 X24.5813 Y280.3616
G01 X25.4246 Y281.0658
G01 X26.2903 Y281.7424
G01 X27.1774 Y282.3905
G01 X28.0851 Y283.0096
G01 X29.0123 Y283.5989
G01 X29.9582 Y284.1580
G01 X30.9216 Y284.6860
G01 X31.9017 Y285.1826
G01 X32.8973 Y285.6472
G01 X33.9075 Y286.0793
G01 X34.9311 Y286.4784
G01 X35.9671 Y286.8442
G01 X37.0144 Y287.1762
G01 X38.0719 Y287.4741
G01 X39.1386 Y287.7376
G01 X40.2131 Y287.9664
G01 X41.2946 Y288.1603
G01 X42.3817 Y288.3191
G01 X43.4735 Y288.4425
G01 X44.5686 Y288.5306
G01 X45.6661 Y288.5831
G01 X46.7646 Y288.6000
G01 X172.8354
G01 X173.7362 Y288.5892
G01 X174.6365 Y288.5544
G01 X175.5355 Y288.4958
G01 X176.4326 Y288.4133
G01 X177.3272 Y288.3070
G01 X178.2187 Y288.1769
G01 X179.1064 Y288.0232
G01 X179.9897 Y287.8460
G01 X180.8679 Y287.6453
G01 X181.7406 Y287.4214
G01 X182.6070 Y287.1744
G01 X183.4665 Y286.9045
G01 X182.3611 Y287.0390
M107
G00 Z2.0000


;No. 2: Helical drill 1
G00 X33.5788 Y267.1863 Z2.0000
G00 Z0.5000
M106 S240
G01 X33.5776 Y267.1392 Z0.4958 F400
G01 X33.5739 Y267.0923 Z0.4917
G01 X33.5677 Y267.0455 Z0.4875
G01 X33.5591 Y266.9992 Z0.4833
G01 X33.5481 Y266.9534 Z0.4792
G01 X33.5348 Y266.9082 Z0.4750
G01 X33.5190 Y266.8638 Z0.4708
G01 X33.5010 Y266.8203 Z0.4667
G01 X33.4807 Y266.7777 Z0.4625
G01 X33.4582 Y266.7363 Z0.4583
G01 X33.4336 Y266.6962 Z0.4542
G01 X33.4069 Y266.6573 Z0.4500
G01 X33.3782 Y266.6200 Z0.4458
G01 X33.3476 Y266.5841 Z0.4417
G01 X33.3152 Y266.5499 Z0.4375
G01 X33.2810 Y266.5175 Z0.4333
G01 X33.2452 Y266.4869 Z0.4292
G01 X33.2078 Y266.4582 Z0.4250
G01 X33.1690 Y266.4315 Z0.4208
G01 X33.1288 Y266.4069 Z0.4167
G01 X33.0874 Y266.3844 Z0.4125
G01 X33.0449 Y266.3641 Z0.4083
G01 X33.0013 Y266.3461 Z0.4042
G01 X32.9569 Y266.3304 Z0.4000
G01 X32.9117 Y266.3170 Z0.3958
G01 X32.8659 Y266.3060 Z0.3917
G01 X32.8196 Y266.2974 Z0.3875
G01 X32.7729 Y266.2913 Z0.3833
G01 X32.7259 Y266.2876 Z0.3792
G01 X32.6788 Y266.2863 Z0.3750
G01 X32.6317 Y266.2876 Z0.3708
G01 X32.5847 Y266.2913 Z0.3667
G01 X32.5380 Y266.2974 Z0.3625
G01 X32.4917 Y266.3060 Z0.3583
G01 X32.4459 Y266.3170 Z0.3542
G01 X32.4007 Y266.3304 Z0.3500
G01 X32.3563 Y266.3461 Z0.3458
G01 X32.3127 Y266.3641 Z0.3417
G01 X32.2702 Y266.3844 Z0.3375
G01 X32.2288 Y266.4069 Z0.3333
G01 X32.1886 Y266.4315 Z0.3292
G01 X32.1498 Y266.4582 Z0.3250
G01 X32.1124 Y266.4869 Z0.3208
G01 X32.0766 Y266.5175 Z0.3167
G01 X32.0424 Y266.5499 Z0.3125
G01 X32.0100 Y266.5841 Z0.3083
G01 X31.9794 Y266.6200 Z0.3042
G01 X31.9507 Y266.6573 Z0.3000
G01 X31.9240 Y266.6962 Z0.2958
G01 X31.8994 Y266.7363 Z0.2917
G01 X31.8769 Y266.7777 Z0.2875
G01 X31.8566 Y266.8203 Z0.2833
G01 X31.8386 Y266.8638 Z0.2792
G01 X31.8229 Y266.9082 Z0.2750
G01 X31.8095 Y266.9534 Z0.2708
G01 X31.7985 Y266.9992 Z0.2667
G01 X31.7899 Y267.0455 Z0.2625
G01 X31.7837 Y267.0923 Z0.2583
G01 X31.7800 Y267.1392 Z0.2542
G01 X31.7788 Y267.1863 Z0.2500
G01 X31.7800 Y267.2334 Z0.2458
G01 X31.7837 Y267.2804 Z0.2417
G01 X31.7899 Y267.3271 Z0.2375
G01 X31.7985 Y267.3735 Z0.2333
G01 X31.8095 Y267.4193 Z0.2292
G01 X31.8229 Y267.4645 Z0.2250
G01 X31.8386 Y267.5089 Z0.2208
G01 X31.8566 Y267.5524 Z0.2167
G01 X31.8769 Y267.5949 Z0.2125
G01 X31.8994 Y267.6363 Z0.2083
G01 X31.9240 Y267.6765 Z0.2042
G01 X31.9507 Y267.7153 Z0.2000
G01 X31.9794 Y267.7527 Z0.1958
G01 X32.0100 Y267.7886 Z0.1917
G01 X32.0424 Y267.8227 Z0.1875
G01 X32.0766 Y267.8552 Z0.1833
G01 X32.1124 Y267.8858 Z0.1792
G01 X32.1498 Y267.9145 Z0.1750
G01 X32.1886 Y267.9411 Z0.1708
G01 X32.2288 Y267.9658 Z0.1667
G01 X32.2702 Y267.9882 Z0.1625
G01 X32.3127 Y268.0085 Z0.1583
G01 X32.3563 Y268.0266 Z0.1542
G01 X32.4007 Y268.0423 Z0.1500
G01 X32.4459 Y268.0557 Z0.1458
G01 X32.4917 Y268.0667 Z0.1417
G01 X32.5380 Y268.0753 Z0.1375
G01 X32.5847 Y268.0814 Z0.1333
G01 X32.6317 Y268.0851 Z0.1292
G01 X32.6788 Y268.0863 Z0.1250
G01 X32.7259 Y268.0851 Z0.1208
G01 X32.7729 Y268.0814 Z0.1167
G01 X32.8196 Y268.0753 Z0.1125
G01 X32.8659 Y268.0667 Z0.1083
G01 X32.9117 Y268.0557 Z0.1042
G01 X32.9569 Y268.0423 Z0.1000
G01 X33.0013 Y268.0266 Z0.0958
G01 X33.0449 Y268.0085 Z0.0917
G01 X33.0874 Y267.9882 Z0.0875
G01 X33.1288 Y267.9658 Z0.0833
G01 X33.1690 Y267.9411 Z0.0792
G01 X33.2078 Y267.9145 Z0.0750
G01 X33.2452 Y267.8858 Z0.0708
G01 X33.2810 Y267.8552 Z0.0667
G01 X33.3152 Y267.8227 Z0.0625
G01 X33.3476 Y267.7886 Z0.0583
G01 X33.3782 Y267.7527 Z0.0542
G01 X33.4069 Y267.7153 Z0.0500
G01 X33.4336 Y267.6765 Z0.0458
G01 X33.4582 Y267.6363 Z0.0417
G01 X33.4807 Y267.5949 Z0.0375
G01 X33.5010 Y267.5524 Z0.0333
G01 X33.5190 Y267.5089 Z0.0292
G01 X33.5348 Y267.4645 Z0.0250
G01 X33.5481 Y267.4193 Z0.0208
G01 X33.5591 Y267.3735 Z0.0167
G01 X33.5677 Y267.3271 Z0.0125
G01 X33.5739 Y267.2804 Z0.0083
G01 X33.5776 Y267.2334 Z0.0042
G01 X33.5788 Y267.1863 Z0.0000
G01 X33.5776 Y267.1392
G01 X33.5739 Y267.0923
G01 X33.5677 Y267.0455
G01 X33.5591 Y266.9992
G01 X33.5481 Y266.9534
G01 X33.5348 Y266.9082
G01 X33.5190 Y266.8638
G01 X33.5010 Y266.8203
G01 X33.4807 Y266.7777
G01 X33.4582 Y266.7363
G01 X33.4336 Y266.6962
G01 X33.4069 Y266.6573
G01 X33.3782 Y266.6200
G01 X33.3476 Y266.5841
G01 X33.3152 Y266.5499
G01 X33.2810 Y266.5175
G01 X33.2452 Y266.4869
G01 X33.2078 Y266.4582
G01 X33.1690 Y266.4315
G01 X33.1288 Y266.4069
G01 X33.0874 Y266.3844
G01 X33.0449 Y266.3641
G01 X33.0013 Y266.3461
G01 X32.9569 Y266.3304
G01 X32.9117 Y266.3170
G01 X32.8659 Y266.3060
G01 X32.8196 Y266.2974
G01 X32.7729 Y266.2913
G01 X32.7259 Y266.2876
G01 X32.6788 Y266.2863
G01 X32.6317 Y266.2876
G01 X32.5847 Y266.2913
G01 X32.5380 Y266.2974
G01 X32.4917 Y266.3060
G01 X32.4459 Y266.3170
G01 X32.4007 Y266.3304
G01 X32.3563 Y266.3461
G01 X32.3127 Y266.3641
G01 X32.2702 Y266.3844
G01 X32.2288 Y266.4069
G01 X32.1886 Y266.4315
G01 X32.1498 Y266.4582
G01 X32.1124 Y266.4869
G01 X32.0766 Y266.5175
G01 X32.0424 Y266.5499
G01 X32.0100 Y266.5841
G01 X31.9794 Y266.6200
G01 X31.9507 Y266.6573
G01 X31.9240 Y266.6962
G01 X31.8994 Y266.7363
G01 X31.8769 Y266.7777
G01 X31.8566 Y266.8203
G01 X31.8386 Y266.8638
G01 X31.8229 Y266.9082
G01 X31.8095 Y266.9534
G01 X31.7985 Y266.9992
G01 X31.7899 Y267.0455
G01 X31.7837 Y267.0923
G01 X31.7800 Y267.1392
G01 X31.7788 Y267.1863
G01 X31.7800 Y267.2334
G01 X31.7837 Y267.2804
G01 X31.7899 Y267.3271
G01 X31.7985 Y267.3735
G01 X31.8095 Y267.4193
G01 X31.8229 Y267.4645
G01 X31.8386 Y267.5089
G01 X31.8566 Y267.5524
G01 X31.8769 Y267.5949
G01 X31.8994 Y267.6363
G01 X31.9240 Y267.6765
G01 X31.9507 Y267.7153
G01 X31.9794 Y267.7527
G01 X32.0100 Y267.7886
G01 X32.0424 Y267.8227
G01 X32.0766 Y267.8552
G01 X32.1124 Y267.8858
G01 X32.1498 Y267.9145
G01 X32.1886 Y267.9411
G01 X32.2288 Y267.9658
G01 X32.2702 Y267.9882
G01 X32.3127 Y268.0085
G01 X32.3563 Y268.0266
G01 X32.4007 Y268.0423
G01 X32.4459 Y268.0557
G01 X32.4917 Y268.0667
G01 X32.5380 Y268.0753
G01 X32.5847 Y268.0814
G01 X32.6317 Y268.0851
G01 X32.6788 Y268.0863
G01 X32.7259 Y268.0851
G01 X32.7729 Y268.0814
G01 X32.8196 Y268.0753
G01 X32.8659 Y268.0667
G01 X32.9117 Y268.0557
G01 X32.9569 Y268.0423
G01 X33.0013 Y268.0266
G01 X33.0449 Y268.0085
G01 X33.0874 Y267.9882
G01 X33.1288 Y267.9658
G01 X33.1690 Y267.9411
G01 X33.2078 Y267.9145
G01 X33.2452 Y267.8858
G01 X33.2810 Y267.8552
G01 X33.3152 Y267.8227
G01 X33.3476 Y267.7886
G01 X33.3782 Y267.7527
G01 X33.4069 Y267.7153
G01 X33.4336 Y267.6765
G01 X33.4582 Y267.6363
G01 X33.4807 Y267.5949
G01 X33.5010 Y267.5524
G01 X33.5190 Y267.5089
G01 X33.5348 Y267.4645
G01 X33.5481 Y267.4193
G01 X33.5591 Y267.3735
G01 X33.5677 Y267.3271
G01 X33.5739 Y267.2804
G01 X33.5776 Y267.2334
G01 X33.5788 Y267.1863
M107
M106 S240
G01 X33.5776 Y267.1392 Z-0.0167
G01 X33.5739 Y267.0923 Z-0.0333
G01 X33.5677 Y267.0455 Z-0.0500
G01 X33.5591 Y266.9992 Z-0.0667
G01 X33.5481 Y266.9534 Z-0.0833
G01 X33.5348 Y266.9082 Z-0.1000
G01 X33.5190 Y266.8638 Z-0.1167
G01 X33.5010 Y266.8203 Z-0.1333
G01 X33.4807 Y266.7777 Z-0.1500
G01 X33.4582 Y266.7363 Z-0.1667
G01 X33.4336 Y266.6962 Z-0.1833
G01 X33.4069 Y266.6573 Z-0.2000
G01 X33.3782 Y266.6200 Z-0.2167
G01 X33.3476 Y266.5841 Z-0.2333
G01 X33.3152 Y266.5499 Z-0.2500
G01 X33.2810 Y266.5175 Z-0.2667
G01 X33.2452 Y266.4869 Z-0.2833
G01 X33.2078 Y266.4582 Z-0.3000
G01 X33.1690 Y266.4315 Z-0.3167
G01 X33.1288 Y266.4069 Z-0.3333
G01 X33.0874 Y266.3844 Z-0.3500
G01 X33.0449 Y266.3641 Z-0.3667
G01 X33.0013 Y266.3461 Z-0.3833
G01 X32.9569 Y266.3304 Z-0.4000
G01 X32.9117 Y266.3170 Z-0.4167
G01 X32.8659 Y266.3060 Z-0.4333
G01 X32.8196 Y266.2974 Z-0.4500
G01 X32.7729 Y266.2913 Z-0.4667
G01 X32.7259 Y266.2876 Z-0.4833
G01 X32.6788 Y266.2863 Z-0.5000
G01 X32.6317 Y266.2876 Z-0.5167
G01 X32.5847 Y266.2913 Z-0.5333
G01 X32.5380 Y266.2974 Z-0.5500
G01 X32.4917 Y266.3060 Z-0.5667
G01 X32.4459 Y266.3170 Z-0.5833
G01 X32.4007 Y266.3304 Z-0.6000
G01 X32.3563 Y266.3461 Z-0.6167
G01 X32.3127 Y266.3641 Z-0.6333
G01 X32.2702 Y266.3844 Z-0.6500
G01 X32.2288 Y266.4069 Z-0.6667
G01 X32.1886 Y266.4315 Z-0.6833
G01 X32.1498 Y266.4582 Z-0.7000
G01 X32.1124 Y266.4869 Z-0.7167
G01 X32.0766 Y266.5175 Z-0.7333
G01 X32.0424 Y266.5499 Z-0.7500
G01 X32.0100 Y266.5841 Z-0.7667
G01 X31.9794 Y266.6200 Z-0.7833
G01 X31.9507 Y266.6573 Z-0.8000
G01 X31.9240 Y266.6962 Z-0.8167
G01 X31.8994 Y266.7363 Z-0.8333
G01 X31.8769 Y266.7777 Z-0.8500
G01 X31.8566 Y266.8203 Z-0.8667
G01 X31.8386 Y266.8638 Z-0.8833
G01 X31.8229 Y266.9082 Z-0.9000
G01 X31.8095 Y266.9534 Z-0.9167
G01 X31.7985 Y266.9992 Z-0.9333
G01 X31.7899 Y267.0455 Z-0.9500
G01 X31.7837 Y267.0923 Z-0.9667
G01 X31.7800 Y267.1392 Z-0.9833
G01 X31.7788 Y267.1863 Z-1.0000
G01 X31.7800 Y267.2334 Z-1.0167
G01 X31.7837 Y267.2804 Z-1.0333
G01 X31.7899 Y267.3271 Z-1.0500
G01 X31.7985 Y267.3735 Z-1.0667
G01 X31.8095 Y267.4193 Z-1.0833
G01 X31.8229 Y267.4645 Z-1.1000
G01 X31.8386 Y267.5089 Z-1.1167
G01 X31.8566 Y267.5524 Z-1.1333
G01 X31.8769 Y267.5949 Z-1.1500
G01 X31.8994 Y267.6363 Z-1.1667
G01 X31.9240 Y267.6765 Z-1.1833
G01 X31.9507 Y267.7153 Z-1.2000
G01 X31.9794 Y267.7527 Z-1.2167
G01 X32.0100 Y267.7886 Z-1.2333
G01 X32.0424 Y267.8227 Z-1.2500
G01 X32.0766 Y267.8552 Z-1.2667
G01 X32.1124 Y267.8858 Z-1.2833
G01 X32.1498 Y267.9145 Z-1.3000
G01 X32.1886 Y267.9411 Z-1.3167
G01 X32.2288 Y267.9658 Z-1.3333
G01 X32.2702 Y267.9882 Z-1.3500
G01 X32.3127 Y268.0085 Z-1.3667
G01 X32.3563 Y268.0266 Z-1.3833
G01 X32.4007 Y268.0423 Z-1.4000
G01 X32.4459 Y268.0557 Z-1.4167
G01 X32.4917 Y268.0667 Z-1.4333
G01 X32.5380 Y268.0753 Z-1.4500
G01 X32.5847 Y268.0814 Z-1.4667
G01 X32.6317 Y268.0851 Z-1.4833
G01 X32.6788 Y268.0863 Z-1.5000
G01 X32.7259 Y268.0851 Z-1.5167
G01 X32.7729 Y268.0814 Z-1.5333
G01 X32.8196 Y268.0753 Z-1.5500
G01 X32.8659 Y268.0667 Z-1.5667
G01 X32.9117 Y268.0557 Z-1.5833
G01 X32.9569 Y268.0423 Z-1.6000
G01 X33.0013 Y268.0266 Z-1.6167
G01 X33.0449 Y268.0085 Z-1.6333
G01 X33.0874 Y267.9882 Z-1.6500
G01 X33.1288 Y267.9658 Z-1.6667
G01 X33.1690 Y267.9411 Z-1.6833
G01 X33.2078 Y267.9145 Z-1.7000
G01 X33.2452 Y267.8858 Z-1.7167
G01 X33.2810 Y267.8552 Z-1.7333
G01 X33.3152 Y267.8227 Z-1.7500
G01 X33.3476 Y267.7886 Z-1.7667
G01 X33.3782 Y267.7527 Z-1.7833
G01 X33.4069 Y267.7153 Z-1.8000
G01 X33.4336 Y267.6765 Z-1.8167
G01 X33.4582 Y267.6363 Z-1.8333
G01 X33.4807 Y267.5949 Z-1.8500
G01 X33.5010 Y267.5524 Z-1.8667
G01 X33.5190 Y267.5089 Z-1.8833
G01 X33.5348 Y267.4645 Z-1.9000
G01 X33.5481 Y267.4193 Z-1.9167
G01 X33.5591 Y267.3735 Z-1.9333
G01 X33.5677 Y267.3271 Z-1.9500
G01 X33.5739 Y267.2804 Z-1.9667
G01 X33.5776 Y267.2334 Z-1.9833
G01 X33.5788 Y267.1863 Z-2.0000
G01 X33.5776 Y267.1392
G01 X33.5739 Y267.0923
G01 X33.5677 Y267.0455
G01 X33.5591 Y266.9992
G01 X33.5481 Y266.9534
G01 X33.5348 Y266.9082
G01 X33.5190 Y266.8638
G01 X33.5010 Y266.8203
G01 X33.4807 Y266.7777
G01 X33.4582 Y266.7363
G01 X33.4336 Y266.6962
G01 X33.4069 Y266.6573
G01 X33.3782 Y266.6200
G01 X33.3476 Y266.5841
G01 X33.3152 Y266.5499
G01 X33.2810 Y266.5175
G01 X33.2452 Y266.4869
G01 X33.2078 Y266.4582
G01 X33.1690 Y266.4315
G01 X33.1288 Y266.4069
G01 X33.0874 Y266.3844
G01 X33.0449 Y266.3641
G01 X33.0013 Y266.3461
G01 X32.9569 Y266.3304
G01 X32.9117 Y266.3170
G01 X32.8659 Y266.3060
G01 X32.8196 Y266.2974
G01 X32.7729 Y266.2913
G01 X32.7259 Y266.2876
G01 X32.6788 Y266.2863
G01 X32.6317 Y266.2876
G01 X32.5847 Y266.2913
G01 X32.5380 Y266.2974
G01 X32.4917 Y266.3060
G01 X32.4459 Y266.3170
G01 X32.4007 Y266.3304
G01 X32.3563 Y266.3461
G01 X32.3127 Y266.3641
G01 X32.2702 Y266.3844
G01 X32.2288 Y266.4069
G01 X32.1886 Y266.4315
G01 X32.1498 Y266.4582
G01 X32.1124 Y266.4869
G01 X32.0766 Y266.5175
G01 X32.0424 Y266.5499
G01 X32.0100 Y266.5841
G01 X31.9794 Y266.6200
G01 X31.9507 Y266.6573
G01 X31.9240 Y266.6962
G01 X31.8994 Y266.7363
G01 X31.8769 Y266.7777
G01 X31.8566 Y266.8203
G01 X31.8386 Y266.8638
G01 X31.8229 Y266.9082
G01 X31.8095 Y266.9534
G01 X31.7985 Y266.9992
G01 X31.7899 Y267.0455
G01 X31.7837 Y267.0923
G01 X31.7800 Y267.1392
G01 X31.7788 Y267.1863
G01 X31.7800 Y267.2334
G01 X31.7837 Y267.2804
G01 X31.7899 Y267.3271
G01 X31.7985 Y267.3735
G01 X31.8095 Y267.4193
G01 X31.8229 Y267.4645
G01 X31.8386 Y267.5089
G01 X31.8566 Y267.5524
G01 X31.8769 Y267.5949
G01 X31.8994 Y267.6363
G01 X31.9240 Y267.6765
G01 X31.9507 Y267.7153
G01 X31.9794 Y267.7527
G01 X32.0100 Y267.7886
G01 X32.0424 Y267.8227
G01 X32.0766 Y267.8552
G01 X32.1124 Y267.8858
G01 X32.1498 Y267.9145
G01 X32.1886 Y267.9411
G01 X32.2288 Y267.9658
G01 X32.2702 Y267.9882
G01 X32.3127 Y268.0085
G01 X32.3563 Y268.0266
G01 X32.4007 Y268.0423
G01 X32.4459 Y268.0557
G01 X32.4917 Y268.0667
G01 X32.5380 Y268.0753
G01 X32.5847 Y268.0814
G01 X32.6317 Y268.0851
G01 X32.6788 Y268.0863
G01 X32.7259 Y268.0851
G01 X32.7729 Y268.0814
G01 X32.8196 Y268.0753
G01 X32.8659 Y268.0667
G01 X32.9117 Y268.0557
G01 X32.9569 Y268.0423
G01 X33.0013 Y268.0266
G01 X33.0449 Y268.0085
G01 X33.0874 Y267.9882
G01 X33.1288 Y267.9658
G01 X33.1690 Y267.9411
G01 X33.2078 Y267.9145
G01 X33.2452 Y267.8858
G01 X33.2810 Y267.8552
G01 X33.3152 Y267.8227
G01 X33.3476 Y267.7886
G01 X33.3782 Y267.7527
G01 X33.4069 Y267.7153
G01 X33.4336 Y267.6765
G01 X33.4582 Y267.6363
G01 X33.4807 Y267.5949
G01 X33.5010 Y267.5524
G01 X33.5190 Y267.5089
G01 X33.5348 Y267.4645
G01 X33.5481 Y267.4193
G01 X33.5591 Y267.3735
G01 X33.5677 Y267.3271
G01 X33.5739 Y267.2804
G01 X33.5776 Y267.2334
G01 X33.5788 Y267.1863
G01 X33.5897 Y267.1397 F1000
G01 X33.5982 Y267.0925
G01 X33.6042 Y267.0449
G01 X33.6077 Y266.9971
G01 X33.6088 Y266.9492
G01 X33.6073 Y266.9013
G01 X33.6033 Y266.8535
G01 X33.5969 Y266.8060
G01 X33.5872 Y266.7545
G01 X33.5749 Y266.7036
G01 X33.5600 Y266.6534
G01 X33.5425 Y266.6040
G01 X33.5224 Y266.5556
G01 X33.4999 Y266.5082
G01 X33.4750 Y266.4621
G01 X33.4478 Y266.4174
G01 X33.4158 Y266.3703
G01 X33.3814 Y266.3250
G01 X33.3447 Y266.2815
G01 X33.3059 Y266.2399
G01 X33.2650 Y266.2004
G01 X33.2221 Y266.1630
G01 X33.1773 Y266.1278
G01 X33.1309 Y266.0950
G01 X33.0790 Y266.0622
G01 X33.0255 Y266.0320
G01 X32.9705 Y266.0047
G01 X32.9142 Y265.9801
G01 X32.8567 Y265.9584
G01 X32.7983 Y265.9397
G01 X32.7389 Y265.9240
G01 X32.6788 Y265.9113
G01 X32.6137 Y265.9010
G01 X32.5481 Y265.8940
G01 X32.4823 Y265.8903
G01 X32.4164 Y265.8899
G01 X32.3505 Y265.8929
G01 X32.2849 Y265.8992
G01 X32.2197 Y265.9089
G01 X32.1550 Y265.9218
G01 X32.0867 Y265.9390
G01 X32.0193 Y265.9597
G01 X31.9531 Y265.9838
G01 X31.8882 Y266.0112
G01 X31.8247 Y266.0418
G01 X31.7629 Y266.0755
G01 X31.7028 Y266.1124
G01 X31.6447 Y266.1522
G01 X31.5912 Y266.2017
G01 X31.5402 Y266.2537
G01 X31.4919 Y266.3082
G01 X31.4463 Y266.3650
G01 X31.4035 Y266.4240
G01 X31.3637 Y266.4850
G01 X31.3270 Y266.5479
G01 X31.2934 Y266.6125
G01 X31.2669 Y266.6812
G01 X31.2438 Y266.7510
G01 X31.2242 Y266.8220
G01 X31.2081 Y266.8938
G01 X31.1955 Y266.9663
G01 X31.1865 Y267.0394
G01 X31.1811 Y267.1128
G01 X31.1793 Y267.1863
G01 X31.1811 Y267.2599
G01 X31.1865 Y267.3333
G01 X31.1955 Y267.4064
G01 X31.2081 Y267.4789
G01 X31.2242 Y267.5507
G01 X31.2438 Y267.6216
G01 X31.2669 Y267.6915
G01 X31.2934 Y267.7602
G01 X31.3232 Y267.8275
G01 X31.3563 Y267.8932
G01 X31.3926 Y267.9573
G01 X31.4320 Y268.0194
G01 X31.4744 Y268.0796
G01 X31.5196 Y268.1376
G01 X31.5677 Y268.1934
G01 X31.6185 Y268.2467
G01 X31.6718 Y268.2974
G01 X31.7275 Y268.3455
G01 X31.7855 Y268.3908
G01 X31.8457 Y268.4332
G01 X31.9079 Y268.4725
G01 X31.9719 Y268.5088
G01 X32.0377 Y268.5419
G01 X32.1050 Y268.5717
G01 X32.1736 Y268.5982
G01 X32.2435 Y268.6213
G01 X32.3145 Y268.6409
G01 X32.3863 Y268.6571
G01 X32.4588 Y268.6697
G01 X32.5318 Y268.6787
G01 X32.6052 Y268.6841
G01 X32.6788 Y268.6859
G01 X32.7524 Y268.6841
G01 X32.8258 Y268.6787
G01 X32.8988 Y268.6697
G01 X32.9714 Y268.6571
G01 X33.0432 Y268.6409
G01 X33.1141 Y268.6213
G01 X33.1840 Y268.5982
G01 X33.2527 Y268.5717
G01 X33.3200 Y268.5419
G01 X33.3857 Y268.5088
G01 X33.4497 Y268.4725
G01 X33.5119 Y268.4332
G01 X33.5721 Y268.3908
G01 X33.6301 Y268.3455
G01 X33.6858 Y268.2974
G01 X33.7392 Y268.2467
G01 X33.7899 Y268.1934
G01 X33.8380 Y268.1376
G01 X33.8833 Y268.0796
G01 X33.9256 Y268.0194
G01 X33.9650 Y267.9573
G01 X34.0013 Y267.8932
G01 X34.0344 Y267.8275
G01 X34.0642 Y267.7602
G01 X34.0907 Y267.6915
G01 X34.1138 Y267.6216
G01 X34.1334 Y267.5507
G01 X34.1495 Y267.4789
G01 X34.1621 Y267.4064
G01 X34.1711 Y267.3333
G01 X34.1766 Y267.2599
G01 X34.1784 Y267.1863
G01 X34.1742 Y267.0743
G01 X34.1616 Y266.9628
G01 X34.1408 Y266.8527
G01 X34.1117 Y266.7443
G01 X34.0747 Y266.6385
G01 X34.0299 Y266.5357
G01 X33.9775 Y266.4366
G01 X33.9178 Y266.3416
G01 X33.8512 Y266.2514
G01 X33.7781 Y266.1664
G01 X33.6988 Y266.0871
G01 X33.6138 Y266.0139
G01 X33.5235 Y265.9474
G01 X33.4286 Y265.8877
G01 X33.3294 Y265.8353
G01 X33.2267 Y265.7905
G01 X33.1208 Y265.7534
G01 X33.0125 Y265.7244
G01 X32.9023 Y265.7035
G01 X32.7909 Y265.6910
G01 X32.6788 Y265.6868
G01 X32.5668 Y265.6910
G01 X32.4553 Y265.7035
G01 X32.3451 Y265.7244
G01 X32.2368 Y265.7534
G01 X32.1310 Y265.7905
G01 X32.0282 Y265.8353
G01 X31.9290 Y265.8877
G01 X31.8341 Y265.9474
G01 X31.7439 Y266.0139
G01 X31.6589 Y266.0871
G01 X31.5796 Y266.1664
G01 X31.5064 Y266.2514
G01 X31.4398 Y266.3416
G01 X31.3802 Y266.4366
G01 X31.3278 Y266.5357
G01 X31.2829 Y266.6385
G01 X31.2459 Y266.7443
G01 X31.2169 Y266.8527
G01 X31.1960 Y266.9628
G01 X31.1835 Y267.0743
G01 X31.1793 Y267.1863
G01 X31.1835 Y267.2984
G01 X31.1960 Y267.4098
G01 X31.2169 Y267.5200
G01 X31.2459 Y267.6283
G01 X31.2829 Y267.7342
G01 X31.3278 Y267.8370
G01 X31.3802 Y267.9361
G01 X31.4398 Y268.0311
G01 X31.5064 Y268.1213
G01 X31.5796 Y268.2063
G01 X31.6589 Y268.2856
G01 X31.7439 Y268.3587
G01 X31.8341 Y268.4253
G01 X31.9290 Y268.4850
G01 X32.0282 Y268.5374
G01 X32.1310 Y268.5822
G01 X32.2368 Y268.6193
G01 X32.3451 Y268.6483
G01 X32.4553 Y268.6691
G01 X32.5668 Y268.6817
G01 X32.6788 Y268.6859
G01 X32.7909 Y268.6817
G01 X32.9023 Y268.6691
G01 X33.0125 Y268.6483
G01 X33.1208 Y268.6193
G01 X33.2267 Y268.5822
G01 X33.3294 Y268.5374
G01 X33.4286 Y268.4850
G01 X33.5235 Y268.4253
G01 X33.6138 Y268.3587
G01 X33.6988 Y268.2856
G01 X33.7781 Y268.2063
G01 X33.8512 Y268.1213
G01 X33.9178 Y268.0311
G01 X33.9775 Y267.9361
G01 X34.0299 Y267.8370
G01 X34.0747 Y267.7342
G01 X34.1117 Y267.6283
G01 X34.1408 Y267.5200
G01 X34.1616 Y267.4098
G01 X34.1742 Y267.2984
G01 X34.1784 Y267.1863
G01 X34.1738 Y267.0818
G01 X34.1601 Y266.9780
G01 X34.1375 Y266.8758
G01 X34.1060 Y266.7760
G01 X34.0660 Y266.6793
G01 X34.0176 Y266.5865
G01 X33.9614 Y266.4982
G01 X33.8977 Y266.4151
G01 X33.8270 Y266.3380
G01 X33.7498 Y266.2673
G01 X33.6667 Y266.2035
G01 X33.5785 Y266.1473
G01 X33.4856 Y266.0990
G01 X33.3889 Y266.0589
G01 X33.2891 Y266.0274
G01 X33.1869 Y266.0048
G01 X33.0832 Y265.9911
G01 X32.9786 Y265.9866
G01 X32.8740 Y265.9911
G01 X32.7702 Y266.0048
G01 X32.6681 Y266.0274
G01 X32.5682 Y266.0589
G01 X32.4715 Y266.0990
G01 X32.3787 Y266.1473
G01 X32.2904 Y266.2035
G01 X32.2074 Y266.2673
G01 X32.1302 Y266.3380
G01 X32.0595 Y266.4151
G01 X31.9958 Y266.4982
G01 X31.9396 Y266.5865
G01 X31.8912 Y266.6793
G01 X31.8512 Y266.7760
G01 X31.8197 Y266.8758
G01 X31.7970 Y266.9780
G01 X31.7834 Y267.0818
G01 X31.7788 Y267.1863
G01 X31.7800 Y267.2334
G01 X31.7837 Y267.2804
G01 X31.7899 Y267.3271
G01 X31.7985 Y267.3735
G01 X31.8095 Y267.4193
G01 X31.8229 Y267.4645
G01 X31.8386 Y267.5089
G01 X31.8566 Y267.5524
G01 X31.8769 Y267.5949
G01 X31.8994 Y267.6363
G01 X31.9240 Y267.6765
G01 X31.9507 Y267.7153
G01 X31.9794 Y267.7527
G01 X32.0100 Y267.7886
G01 X32.0424 Y267.8227
G01 X32.0766 Y267.8552
G01 X32.1124 Y267.8858
G01 X32.1498 Y267.9145
G01 X32.1886 Y267.9411
G01 X32.2288 Y267.9658
G01 X32.2702 Y267.9882
G01 X32.3127 Y268.0085
G01 X32.3563 Y268.0266
G01 X32.4007 Y268.0423
G01 X32.4459 Y268.0557
G01 X32.4917 Y268.0667
G01 X32.5380 Y268.0753
G01 X32.5847 Y268.0814
G01 X32.6317 Y268.0851
G01 X32.6788 Y268.0863
G01 X32.7259 Y268.0851
G01 X32.7729 Y268.0814
G01 X32.8196 Y268.0753
G01 X32.8659 Y268.0667
G01 X32.9117 Y268.0557
G01 X32.9569 Y268.0423
G01 X33.0013 Y268.0266
G01 X33.0449 Y268.0085
G01 X33.0874 Y267.9882
G01 X33.1288 Y267.9658
G01 X33.1690 Y267.9411
G01 X33.2078 Y267.9145
G01 X33.2452 Y267.8858
G01 X33.2810 Y267.8552
G01 X33.3152 Y267.8227
G01 X33.3476 Y267.7886
G01 X33.3782 Y267.7527
G01 X33.4069 Y267.7153
G01 X33.4336 Y267.6765
G01 X33.4582 Y267.6363
G01 X33.4807 Y267.5949
G01 X33.5010 Y267.5524
G01 X33.5190 Y267.5089
G01 X33.5348 Y267.4645
G01 X33.5481 Y267.4193
G01 X33.5591 Y267.3735
G01 X33.5677 Y267.3271
G01 X33.5739 Y267.2804
G01 X33.5776 Y267.2334
G01 X33.5788 Y267.1863
M107
M106 S240
G01 X33.5776 Y267.1392 Z-2.0167 F400
G01 X33.5739 Y267.0923 Z-2.0333
G01 X33.5677 Y267.0455 Z-2.0500
G01 X33.5591 Y266.9992 Z-2.0667
G01 X33.5481 Y266.9534 Z-2.0833
G01 X33.5348 Y266.9082 Z-2.1000
G01 X33.5190 Y266.8638 Z-2.1167
G01 X33.5010 Y266.8203 Z-2.1333
G01 X33.4807 Y266.7777 Z-2.1500
G01 X33.4582 Y266.7363 Z-2.1667
G01 X33.4336 Y266.6962 Z-2.1833
G01 X33.4069 Y266.6573 Z-2.2000
G01 X33.3782 Y266.6200 Z-2.2167
G01 X33.3476 Y266.5841 Z-2.2333
G01 X33.3152 Y266.5499 Z-2.2500
G01 X33.2810 Y266.5175 Z-2.2667
G01 X33.2452 Y266.4869 Z-2.2833
G01 X33.2078 Y266.4582 Z-2.3000
G01 X33.1690 Y266.4315 Z-2.3167
G01 X33.1288 Y266.4069 Z-2.3333
G01 X33.0874 Y266.3844 Z-2.3500
G01 X33.0449 Y266.3641 Z-2.3667
G01 X33.0013 Y266.3461 Z-2.3833
G01 X32.9569 Y266.3304 Z-2.4000
G01 X32.9117 Y266.3170 Z-2.4167
G01 X32.8659 Y266.3060 Z-2.4333
G01 X32.8196 Y266.2974 Z-2.4500
G01 X32.7729 Y266.2913 Z-2.4667
G01 X32.7259 Y266.2876 Z-2.4833
G01 X32.6788 Y266.2863 Z-2.5000
G01 X32.6317 Y266.2876 Z-2.5167
G01 X32.5847 Y266.2913 Z-2.5333
G01 X32.5380 Y266.2974 Z-2.5500
G01 X32.4917 Y266.3060 Z-2.5667
G01 X32.4459 Y266.3170 Z-2.5833
G01 X32.4007 Y266.3304 Z-2.6000
G01 X32.3563 Y266.3461 Z-2.6167
G01 X32.3127 Y266.3641 Z-2.6333
G01 X32.2702 Y266.3844 Z-2.6500
G01 X32.2288 Y266.4069 Z-2.6667
G01 X32.1886 Y266.4315 Z-2.6833
G01 X32.1498 Y266.4582 Z-2.7000
G01 X32.1124 Y266.4869 Z-2.7167
G01 X32.0766 Y266.5175 Z-2.7333
G01 X32.0424 Y266.5499 Z-2.7500
G01 X32.0100 Y266.5841 Z-2.7667
G01 X31.9794 Y266.6200 Z-2.7833
G01 X31.9507 Y266.6573 Z-2.8000
G01 X31.9240 Y266.6962 Z-2.8167
G01 X31.8994 Y266.7363 Z-2.8333
G01 X31.8769 Y266.7777 Z-2.8500
G01 X31.8566 Y266.8203 Z-2.8667
G01 X31.8386 Y266.8638 Z-2.8833
G01 X31.8229 Y266.9082 Z-2.9000
G01 X31.8095 Y266.9534 Z-2.9167
G01 X31.7985 Y266.9992 Z-2.9333
G01 X31.7899 Y267.0455 Z-2.9500
G01 X31.7837 Y267.0923 Z-2.9667
G01 X31.7800 Y267.1392 Z-2.9833
G01 X31.7788 Y267.1863 Z-3.0000
G01 X31.7800 Y267.2334 Z-3.0167
G01 X31.7837 Y267.2804 Z-3.0333
G01 X31.7899 Y267.3271 Z-3.0500
G01 X31.7985 Y267.3735 Z-3.0667
G01 X31.8095 Y267.4193 Z-3.0833
G01 X31.8229 Y267.4645 Z-3.1000
G01 X31.8386 Y267.5089 Z-3.1167
G01 X31.8566 Y267.5524 Z-3.1333
G01 X31.8769 Y267.5949 Z-3.1500
G01 X31.8994 Y267.6363 Z-3.1667
G01 X31.9240 Y267.6765 Z-3.1833
G01 X31.9507 Y267.7153 Z-3.2000
G01 X31.9794 Y267.7527 Z-3.2167
G01 X32.0100 Y267.7886 Z-3.2333
G01 X32.0424 Y267.8227 Z-3.2500
G01 X32.0766 Y267.8552 Z-3.2667
G01 X32.1124 Y267.8858 Z-3.2833
G01 X32.1498 Y267.9145 Z-3.3000
G01 X32.1886 Y267.9411 Z-3.3167
G01 X32.2288 Y267.9658 Z-3.3333
G01 X32.2702 Y267.9882 Z-3.3500
G01 X32.3127 Y268.0085 Z-3.3667
G01 X32.3563 Y268.0266 Z-3.3833
G01 X32.4007 Y268.0423 Z-3.4000
G01 X32.4459 Y268.0557 Z-3.4167
G01 X32.4917 Y268.0667 Z-3.4333
G01 X32.5380 Y268.0753 Z-3.4500
G01 X32.5847 Y268.0814 Z-3.4667
G01 X32.6317 Y268.0851 Z-3.4833
G01 X32.6788 Y268.0863 Z-3.5000
G01 X32.7259 Y268.0851 Z-3.5167
G01 X32.7729 Y268.0814 Z-3.5333
G01 X32.8196 Y268.0753 Z-3.5500
G01 X32.8659 Y268.0667 Z-3.5667
G01 X32.9117 Y268.0557 Z-3.5833
G01 X32.9569 Y268.0423 Z-3.6000
G01 X33.0013 Y268.0266 Z-3.6167
G01 X33.0449 Y268.0085 Z-3.6333
G01 X33.0874 Y267.9882 Z-3.6500
G01 X33.1288 Y267.9658 Z-3.6667
G01 X33.1690 Y267.9411 Z-3.6833
G01 X33.2078 Y267.9145 Z-3.7000
G01 X33.2452 Y267.8858 Z-3.7167
G01 X33.2810 Y267.8552 Z-3.7333
G01 X33.3152 Y267.8227 Z-3.7500
G01 X33.3476 Y267.7886 Z-3.7667
G01 X33.3782 Y267.7527 Z-3.7833
G01 X33.4069 Y267.7153 Z-3.8000
G01 X33.4336 Y267.6765 Z-3.8167
G01 X33.4582 Y267.6363 Z-3.8333
G01 X33.4807 Y267.5949 Z-3.8500
G01 X33.5010 Y267.5524 Z-3.8667
G01 X33.5190 Y267.5089 Z-3.8833
G01 X33.5348 Y267.4645 Z-3.9000
G01 X33.5481 Y267.4193 Z-3.9167
G01 X33.5591 Y267.3735 Z-3.9333
G01 X33.5677 Y267.3271 Z-3.9500
G01 X33.5739 Y267.2804 Z-3.9667
G01 X33.5776 Y267.2334 Z-3.9833
G01 X33.5788 Y267.1863 Z-4.0000
G01 X33.5776 Y267.1392
G01 X33.5739 Y267.0923
G01 X33.5677 Y267.0455
G01 X33.5591 Y266.9992
G01 X33.5481 Y266.9534
G01 X33.5348 Y266.9082
G01 X33.5190 Y266.8638
G01 X33.5010 Y266.8203
G01 X33.4807 Y266.7777
G01 X33.4582 Y266.7363
G01 X33.4336 Y266.6962
G01 X33.4069 Y266.6573
G01 X33.3782 Y266.6200
G01 X33.3476 Y266.5841
G01 X33.3152 Y266.5499
G01 X33.2810 Y266.5175
G01 X33.2452 Y266.4869
G01 X33.2078 Y266.4582
G01 X33.1690 Y266.4315
G01 X33.1288 Y266.4069
G01 X33.0874 Y266.3844
G01 X33.0449 Y266.3641
G01 X33.0013 Y266.3461
G01 X32.9569 Y266.3304
G01 X32.9117 Y266.3170
G01 X32.8659 Y266.3060
G01 X32.8196 Y266.2974
G01 X32.7729 Y266.2913
G01 X32.7259 Y266.2876
G01 X32.6788 Y266.2863
G01 X32.6317 Y266.2876
G01 X32.5847 Y266.2913
G01 X32.5380 Y266.2974
G01 X32.4917 Y266.3060
G01 X32.4459 Y266.3170
G01 X32.4007 Y266.3304
G01 X32.3563 Y266.3461
G01 X32.3127 Y266.3641
G01 X32.2702 Y266.3844
G01 X32.2288 Y266.4069
G01 X32.1886 Y266.4315
G01 X32.1498 Y266.4582
G01 X32.1124 Y266.4869
G01 X32.0766 Y266.5175
G01 X32.0424 Y266.5499
G01 X32.0100 Y266.5841
G01 X31.9794 Y266.6200
G01 X31.9507 Y266.6573
G01 X31.9240 Y266.6962
G01 X31.8994 Y266.7363
G01 X31.8769 Y266.7777
G01 X31.8566 Y266.8203
G01 X31.8386 Y266.8638
G01 X31.8229 Y266.9082
G01 X31.8095 Y266.9534
G01 X31.7985 Y266.9992
G01 X31.7899 Y267.0455
G01 X31.7837 Y267.0923
G01 X31.7800 Y267.1392
G01 X31.7788 Y267.1863
G01 X31.7800 Y267.2334
G01 X31.7837 Y267.2804
G01 X31.7899 Y267.3271
G01 X31.7985 Y267.3735
G01 X31.8095 Y267.4193
G01 X31.8229 Y267.4645
G01 X31.8386 Y267.5089
G01 X31.8566 Y267.5524
G01 X31.8769 Y267.5949
G01 X31.8994 Y267.6363
G01 X31.9240 Y267.6765
G01 X31.9507 Y267.7153
G01 X31.9794 Y267.7527
G01 X32.0100 Y267.7886
G01 X32.0424 Y267.8227
G01 X32.0766 Y267.8552
G01 X32.1124 Y267.8858
G01 X32.1498 Y267.9145
G01 X32.1886 Y267.9411
G01 X32.2288 Y267.9658
G01 X32.2702 Y267.9882
G01 X32.3127 Y268.0085
G01 X32.3563 Y268.0266
G01 X32.4007 Y268.0423
G01 X32.4459 Y268.0557
G01 X32.4917 Y268.0667
G01 X32.5380 Y268.0753
G01 X32.5847 Y268.0814
G01 X32.6317 Y268.0851
G01 X32.6788 Y268.0863
G01 X32.7259 Y268.0851
G01 X32.7729 Y268.0814
G01 X32.8196 Y268.0753
G01 X32.8659 Y268.0667
G01 X32.9117 Y268.0557
G01 X32.9569 Y268.0423
G01 X33.0013 Y268.0266
G01 X33.0449 Y268.0085
G01 X33.0874 Y267.9882
G01 X33.1288 Y267.9658
G01 X33.1690 Y267.9411
G01 X33.2078 Y267.9145
G01 X33.2452 Y267.8858
G01 X33.2810 Y267.8552
G01 X33.3152 Y267.8227
G01 X33.3476 Y267.7886
G01 X33.3782 Y267.7527
G01 X33.4069 Y267.7153
G01 X33.4336 Y267.6765
G01 X33.4582 Y267.6363
G01 X33.4807 Y267.5949
G01 X33.5010 Y267.5524
G01 X33.5190 Y267.5089
G01 X33.5348 Y267.4645
G01 X33.5481 Y267.4193
G01 X33.5591 Y267.3735
G01 X33.5677 Y267.3271
G01 X33.5739 Y267.2804
G01 X33.5776 Y267.2334
G01 X33.5788 Y267.1863
G01 X33.5897 Y267.1397 F1000
G01 X33.5982 Y267.0925
G01 X33.6042 Y267.0449
G01 X33.6077 Y266.9971
G01 X33.6088 Y266.9492
G01 X33.6073 Y266.9013
G01 X33.6033 Y266.8535
G01 X33.5969 Y266.8060
G01 X33.5872 Y266.7545
G01 X33.5749 Y266.7036
G01 X33.5600 Y266.6534
G01 X33.5425 Y266.6040
G01 X33.5224 Y266.5556
G01 X33.4999 Y266.5082
G01 X33.4750 Y266.4621
G01 X33.4478 Y266.4174
G01 X33.4158 Y266.3703
G01 X33.3814 Y266.3250
G01 X33.3447 Y266.2815
G01 X33.3059 Y266.2399
G01 X33.2650 Y266.2004
G01 X33.2221 Y266.1630
G01 X33.1773 Y266.1278
G01 X33.1309 Y266.0950
G01 X33.0790 Y266.0622
G01 X33.0255 Y266.0320
G01 X32.9705 Y266.0047
G01 X32.9142 Y265.9801
G01 X32.8567 Y265.9584
G01 X32.7983 Y265.9397
G01 X32.7389 Y265.9240
G01 X32.6788 Y265.9113
G01 X32.6137 Y265.9010
G01 X32.5481 Y265.8940
G01 X32.4823 Y265.8903
G01 X32.4164 Y265.8899
G01 X32.3505 Y265.8929
G01 X32.2849 Y265.8992
G01 X32.2197 Y265.9089
G01 X32.1550 Y265.9218
G01 X32.0867 Y265.9390
G01 X32.0193 Y265.9597
G01 X31.9531 Y265.9838
G01 X31.8882 Y266.0112
G01 X31.8247 Y266.0418
G01 X31.7629 Y266.0755
G01 X31.7028 Y266.1124
G01 X31.6447 Y266.1522
G01 X31.5912 Y266.2017
G01 X31.5402 Y266.2537
G01 X31.4919 Y266.3082
G01 X31.4463 Y266.3650
G01 X31.4035 Y266.4240
G01 X31.3637 Y266.4850
G01 X31.3270 Y266.5479
G01 X31.2934 Y266.6125
G01 X31.2669 Y266.6812
G01 X31.2438 Y266.7510
G01 X31.2242 Y266.8220
G01 X31.2081 Y266.8938
G01 X31.1955 Y266.9663
G01 X31.1865 Y267.0394
G01 X31.1811 Y267.1128
G01 X31.1793 Y267.1863
G01 X31.1811 Y267.2599
G01 X31.1865 Y267.3333
G01 X31.1955 Y267.4064
G01 X31.2081 Y267.4789
G01 X31.2242 Y267.5507
G01 X31.2438 Y267.6216
G01 X31.2669 Y267.6915
G01 X31.2934 Y267.7602
G01 X31.3232 Y267.8275
G01 X31.3563 Y267.8932
G01 X31.3926 Y267.9573
G01 X31.4320 Y268.0194
G01 X31.4744 Y268.0796
G01 X31.5196 Y268.1376
G01 X31.5677 Y268.1934
G01 X31.6185 Y268.2467
G01 X31.6718 Y268.2974
G01 X31.7275 Y268.3455
G01 X31.7855 Y268.3908
G01 X31.8457 Y268.4332
G01 X31.9079 Y268.4725
G01 X31.9719 Y268.5088
G01 X32.0377 Y268.5419
G01 X32.1050 Y268.5717
G01 X32.1736 Y268.5982
G01 X32.2435 Y268.6213
G01 X32.3145 Y268.6409
G01 X32.3863 Y268.6571
G01 X32.4588 Y268.6697
G01 X32.5318 Y268.6787
G01 X32.6052 Y268.6841
G01 X32.6788 Y268.6859
G01 X32.7524 Y268.6841
G01 X32.8258 Y268.6787
G01 X32.8988 Y268.6697
G01 X32.9714 Y268.6571
G01 X33.0432 Y268.6409
G01 X33.1141 Y268.6213
G01 X33.1840 Y268.5982
G01 X33.2527 Y268.5717
G01 X33.3200 Y268.5419
G01 X33.3857 Y268.5088
G01 X33.4497 Y268.4725
G01 X33.5119 Y268.4332
G01 X33.5721 Y268.3908
G01 X33.6301 Y268.3455
G01 X33.6858 Y268.2974
G01 X33.7392 Y268.2467
G01 X33.7899 Y268.1934
G01 X33.8380 Y268.1376
G01 X33.8833 Y268.0796
G01 X33.9256 Y268.0194
G01 X33.9650 Y267.9573
G01 X34.0013 Y267.8932
G01 X34.0344 Y267.8275
G01 X34.0642 Y267.7602
G01 X34.0907 Y267.6915
G01 X34.1138 Y267.6216
G01 X34.1334 Y267.5507
G01 X34.1495 Y267.4789
G01 X34.1621 Y267.4064
G01 X34.1711 Y267.3333
G01 X34.1766 Y267.2599
G01 X34.1784 Y267.1863
G01 X34.1742 Y267.0743
G01 X34.1616 Y266.9628
G01 X34.1408 Y266.8527
G01 X34.1117 Y266.7443
G01 X34.0747 Y266.6385
G01 X34.0299 Y266.5357
G01 X33.9775 Y266.4366
G01 X33.9178 Y266.3416
G01 X33.8512 Y266.2514
G01 X33.7781 Y266.1664
G01 X33.6988 Y266.0871
G01 X33.6138 Y266.0139
G01 X33.5235 Y265.9474
G01 X33.4286 Y265.8877
G01 X33.3294 Y265.8353
G01 X33.2267 Y265.7905
G01 X33.1208 Y265.7534
G01 X33.0125 Y265.7244
G01 X32.9023 Y265.7035
G01 X32.7909 Y265.6910
G01 X32.6788 Y265.6868
G01 X32.5668 Y265.6910
G01 X32.4553 Y265.7035
G01 X32.3451 Y265.7244
G01 X32.2368 Y265.7534
G01 X32.1310 Y265.7905
G01 X32.0282 Y265.8353
G01 X31.9290 Y265.8877
G01 X31.8341 Y265.9474
G01 X31.7439 Y266.0139
G01 X31.6589 Y266.0871
G01 X31.5796 Y266.1664
G01 X31.5064 Y266.2514
G01 X31.4398 Y266.3416
G01 X31.3802 Y266.4366
G01 X31.3278 Y266.5357
G01 X31.2829 Y266.6385
G01 X31.2459 Y266.7443
G01 X31.2169 Y266.8527
G01 X31.1960 Y266.9628
G01 X31.1835 Y267.0743
G01 X31.1793 Y267.1863
G01 X31.1835 Y267.2984
G01 X31.1960 Y267.4098
G01 X31.2169 Y267.5200
G01 X31.2459 Y267.6283
G01 X31.2829 Y267.7342
G01 X31.3278 Y267.8370
G01 X31.3802 Y267.9361
G01 X31.4398 Y268.0311
G01 X31.5064 Y268.1213
G01 X31.5796 Y268.2063
G01 X31.6589 Y268.2856
G01 X31.7439 Y268.3587
G01 X31.8341 Y268.4253
G01 X31.9290 Y268.4850
G01 X32.0282 Y268.5374
G01 X32.1310 Y268.5822
G01 X32.2368 Y268.6193
G01 X32.3451 Y268.6483
G01 X32.4553 Y268.6691
G01 X32.5668 Y268.6817
G01 X32.6788 Y268.6859
G01 X32.7909 Y268.6817
G01 X32.9023 Y268.6691
G01 X33.0125 Y268.6483
G01 X33.1208 Y268.6193
G01 X33.2267 Y268.5822
G01 X33.3294 Y268.5374
G01 X33.4286 Y268.4850
G01 X33.5235 Y268.4253
G01 X33.6138 Y268.3587
G01 X33.6988 Y268.2856
G01 X33.7781 Y268.2063
G01 X33.8512 Y268.1213
G01 X33.9178 Y268.0311
G01 X33.9775 Y267.9361
G01 X34.0299 Y267.8370
G01 X34.0747 Y267.7342
G01 X34.1117 Y267.6283
G01 X34.1408 Y267.5200
G01 X34.1616 Y267.4098
G01 X34.1742 Y267.2984
G01 X34.1784 Y267.1863
G01 X34.1738 Y267.0818
G01 X34.1601 Y266.9780
G01 X34.1375 Y266.8758
G01 X34.1060 Y266.7760
G01 X34.0660 Y266.6793
G01 X34.0176 Y266.5865
G01 X33.9614 Y266.4982
G01 X33.8977 Y266.4151
G01 X33.8270 Y266.3380
G01 X33.7498 Y266.2673
G01 X33.6667 Y266.2035
G01 X33.5785 Y266.1473
G01 X33.4856 Y266.0990
G01 X33.3889 Y266.0589
G01 X33.2891 Y266.0274
G01 X33.1869 Y266.0048
G01 X33.0832 Y265.9911
G01 X32.9786 Y265.9866
G01 X32.8740 Y265.9911
G01 X32.7702 Y266.0048
G01 X32.6681 Y266.0274
G01 X32.5682 Y266.0589
G01 X32.4715 Y266.0990
G01 X32.3787 Y266.1473
G01 X32.2904 Y266.2035
G01 X32.2074 Y266.2673
G01 X32.1302 Y266.3380
G01 X32.0595 Y266.4151
G01 X31.9958 Y266.4982
G01 X31.9396 Y266.5865
G01 X31.8912 Y266.6793
G01 X31.8512 Y266.7760
G01 X31.8197 Y266.8758
G01 X31.7970 Y266.9780
G01 X31.7834 Y267.0818
G01 X31.7788 Y267.1863
G01 X31.7800 Y267.2334
G01 X31.7837 Y267.2804
G01 X31.7899 Y267.3271
G01 X31.7985 Y267.3735
G01 X31.8095 Y267.4193
G01 X31.8229 Y267.4645
G01 X31.8386 Y267.5089
G01 X31.8566 Y267.5524
G01 X31.8769 Y267.5949
G01 X31.8994 Y267.6363
G01 X31.9240 Y267.6765
G01 X31.9507 Y267.7153
G01 X31.9794 Y267.7527
G01 X32.0100 Y267.7886
G01 X32.0424 Y267.8227
G01 X32.0766 Y267.8552
G01 X32.1124 Y267.8858
G01 X32.1498 Y267.9145
G01 X32.1886 Y267.9411
G01 X32.2288 Y267.9658
G01 X32.2702 Y267.9882
G01 X32.3127 Y268.0085
G01 X32.3563 Y268.0266
G01 X32.4007 Y268.0423
G01 X32.4459 Y268.0557
G01 X32.4917 Y268.0667
G01 X32.5380 Y268.0753
G01 X32.5847 Y268.0814
G01 X32.6317 Y268.0851
G01 X32.6788 Y268.0863
G01 X32.7259 Y268.0851
G01 X32.7729 Y268.0814
G01 X32.8196 Y268.0753
G01 X32.8659 Y268.0667
G01 X32.9117 Y268.0557
G01 X32.9569 Y268.0423
G01 X33.0013 Y268.0266
G01 X33.0449 Y268.0085
G01 X33.0874 Y267.9882
G01 X33.1288 Y267.9658
G01 X33.1690 Y267.9411
G01 X33.2078 Y267.9145
G01 X33.2452 Y267.8858
G01 X33.2810 Y267.8552
G01 X33.3152 Y267.8227
G01 X33.3476 Y267.7886
G01 X33.3782 Y267.7527
G01 X33.4069 Y267.7153
G01 X33.4336 Y267.6765
G01 X33.4582 Y267.6363
G01 X33.4807 Y267.5949
G01 X33.5010 Y267.5524
G01 X33.5190 Y267.5089
G01 X33.5348 Y267.4645
G01 X33.5481 Y267.4193
G01 X33.5591 Y267.3735
G01 X33.5677 Y267.3271
G01 X33.5739 Y267.2804
G01 X33.5776 Y267.2334
G01 X33.5788 Y267.1863
M107
M106 S240
G01 X33.5776 Y267.1392 Z-4.0167 F400
G01 X33.5739 Y267.0923 Z-4.0333
G01 X33.5677 Y267.0455 Z-4.0500
G01 X33.5591 Y266.9992 Z-4.0667
G01 X33.5481 Y266.9534 Z-4.0833
G01 X33.5348 Y266.9082 Z-4.1000
G01 X33.5190 Y266.8638 Z-4.1167
G01 X33.5010 Y266.8203 Z-4.1333
G01 X33.4807 Y266.7777 Z-4.1500
G01 X33.4582 Y266.7363 Z-4.1667
G01 X33.4336 Y266.6962 Z-4.1833
G01 X33.4069 Y266.6573 Z-4.2000
G01 X33.3782 Y266.6200 Z-4.2167
G01 X33.3476 Y266.5841 Z-4.2333
G01 X33.3152 Y266.5499 Z-4.2500
G01 X33.2810 Y266.5175 Z-4.2667
G01 X33.2452 Y266.4869 Z-4.2833
G01 X33.2078 Y266.4582 Z-4.3000
G01 X33.1690 Y266.4315 Z-4.3167
G01 X33.1288 Y266.4069 Z-4.3333
G01 X33.0874 Y266.3844 Z-4.3500
G01 X33.0449 Y266.3641 Z-4.3667
G01 X33.0013 Y266.3461 Z-4.3833
G01 X32.9569 Y266.3304 Z-4.4000
G01 X32.9117 Y266.3170 Z-4.4167
G01 X32.8659 Y266.3060 Z-4.4333
G01 X32.8196 Y266.2974 Z-4.4500
G01 X32.7729 Y266.2913 Z-4.4667
G01 X32.7259 Y266.2876 Z-4.4833
G01 X32.6788 Y266.2863 Z-4.5000
G01 X32.6317 Y266.2876 Z-4.5167
G01 X32.5847 Y266.2913 Z-4.5333
G01 X32.5380 Y266.2974 Z-4.5500
G01 X32.4917 Y266.3060 Z-4.5667
G01 X32.4459 Y266.3170 Z-4.5833
G01 X32.4007 Y266.3304 Z-4.6000
G01 X32.3563 Y266.3461 Z-4.6167
G01 X32.3127 Y266.3641 Z-4.6333
G01 X32.2702 Y266.3844 Z-4.6500
G01 X32.2288 Y266.4069 Z-4.6667
G01 X32.1886 Y266.4315 Z-4.6833
G01 X32.1498 Y266.4582 Z-4.7000
G01 X32.1124 Y266.4869 Z-4.7167
G01 X32.0766 Y266.5175 Z-4.7333
G01 X32.0424 Y266.5499 Z-4.7500
G01 X32.0100 Y266.5841 Z-4.7667
G01 X31.9794 Y266.6200 Z-4.7833
G01 X31.9507 Y266.6573 Z-4.8000
G01 X31.9240 Y266.6962 Z-4.8167
G01 X31.8994 Y266.7363 Z-4.8333
G01 X31.8769 Y266.7777 Z-4.8500
G01 X31.8566 Y266.8203 Z-4.8667
G01 X31.8386 Y266.8638 Z-4.8833
G01 X31.8229 Y266.9082 Z-4.9000
G01 X31.8095 Y266.9534 Z-4.9167
G01 X31.7985 Y266.9992 Z-4.9333
G01 X31.7899 Y267.0455 Z-4.9500
G01 X31.7837 Y267.0923 Z-4.9667
G01 X31.7800 Y267.1392 Z-4.9833
G01 X31.7788 Y267.1863 Z-5.0000
G01 X31.7800 Y267.2334 Z-5.0167
G01 X31.7837 Y267.2804 Z-5.0333
G01 X31.7899 Y267.3271 Z-5.0500
G01 X31.7985 Y267.3735 Z-5.0667
G01 X31.8095 Y267.4193 Z-5.0833
G01 X31.8229 Y267.4645 Z-5.1000
G01 X31.8386 Y267.5089 Z-5.1167
G01 X31.8566 Y267.5524 Z-5.1333
G01 X31.8769 Y267.5949 Z-5.1500
G01 X31.8994 Y267.6363 Z-5.1667
G01 X31.9240 Y267.6765 Z-5.1833
G01 X31.9507 Y267.7153 Z-5.2000
G01 X31.9794 Y267.7527 Z-5.2167
G01 X32.0100 Y267.7886 Z-5.2333
G01 X32.0424 Y267.8227 Z-5.2500
G01 X32.0766 Y267.8552 Z-5.2667
G01 X32.1124 Y267.8858 Z-5.2833
G01 X32.1498 Y267.9145 Z-5.3000
G01 X32.1886 Y267.9411 Z-5.3167
G01 X32.2288 Y267.9658 Z-5.3333
G01 X32.2702 Y267.9882 Z-5.3500
G01 X32.3127 Y268.0085 Z-5.3667
G01 X32.3563 Y268.0266 Z-5.3833
G01 X32.4007 Y268.0423 Z-5.4000
G01 X32.4459 Y268.0557 Z-5.4167
G01 X32.4917 Y268.0667 Z-5.4333
G01 X32.5380 Y268.0753 Z-5.4500
G01 X32.5847 Y268.0814 Z-5.4667
G01 X32.6317 Y268.0851 Z-5.4833
G01 X32.6788 Y268.0863 Z-5.5000
G01 X32.7259 Y268.0851 Z-5.5167
G01 X32.7729 Y268.0814 Z-5.5333
G01 X32.8196 Y268.0753 Z-5.5500
G01 X32.8659 Y268.0667 Z-5.5667
G01 X32.9117 Y268.0557 Z-5.5833
G01 X32.9569 Y268.0423 Z-5.6000
G01 X33.0013 Y268.0266 Z-5.6167
G01 X33.0449 Y268.0085 Z-5.6333
G01 X33.0874 Y267.9882 Z-5.6500
G01 X33.1288 Y267.9658 Z-5.6667
G01 X33.1690 Y267.9411 Z-5.6833
G01 X33.2078 Y267.9145 Z-5.7000
G01 X33.2452 Y267.8858 Z-5.7167
G01 X33.2810 Y267.8552 Z-5.7333
G01 X33.3152 Y267.8227 Z-5.7500
G01 X33.3476 Y267.7886 Z-5.7667
G01 X33.3782 Y267.7527 Z-5.7833
G01 X33.4069 Y267.7153 Z-5.8000
G01 X33.4336 Y267.6765 Z-5.8167
G01 X33.4582 Y267.6363 Z-5.8333
G01 X33.4807 Y267.5949 Z-5.8500
G01 X33.5010 Y267.5524 Z-5.8667
G01 X33.5190 Y267.5089 Z-5.8833
G01 X33.5348 Y267.4645 Z-5.9000
G01 X33.5481 Y267.4193 Z-5.9167
G01 X33.5591 Y267.3735 Z-5.9333
G01 X33.5677 Y267.3271 Z-5.9500
G01 X33.5739 Y267.2804 Z-5.9667
G01 X33.5776 Y267.2334 Z-5.9833
G01 X33.5788 Y267.1863 Z-6.0000
G01 X33.5776 Y267.1392
G01 X33.5739 Y267.0923
G01 X33.5677 Y267.0455
G01 X33.5591 Y266.9992
G01 X33.5481 Y266.9534
G01 X33.5348 Y266.9082
G01 X33.5190 Y266.8638
G01 X33.5010 Y266.8203
G01 X33.4807 Y266.7777
G01 X33.4582 Y266.7363
G01 X33.4336 Y266.6962
G01 X33.4069 Y266.6573
G01 X33.3782 Y266.6200
G01 X33.3476 Y266.5841
G01 X33.3152 Y266.5499
G01 X33.2810 Y266.5175
G01 X33.2452 Y266.4869
G01 X33.2078 Y266.4582
G01 X33.1690 Y266.4315
G01 X33.1288 Y266.4069
G01 X33.0874 Y266.3844
G01 X33.0449 Y266.3641
G01 X33.0013 Y266.3461
G01 X32.9569 Y266.3304
G01 X32.9117 Y266.3170
G01 X32.8659 Y266.3060
G01 X32.8196 Y266.2974
G01 X32.7729 Y266.2913
G01 X32.7259 Y266.2876
G01 X32.6788 Y266.2863
G01 X32.6317 Y266.2876
G01 X32.5847 Y266.2913
G01 X32.5380 Y266.2974
G01 X32.4917 Y266.3060
G01 X32.4459 Y266.3170
G01 X32.4007 Y266.3304
G01 X32.3563 Y266.3461
G01 X32.3127 Y266.3641
G01 X32.2702 Y266.3844
G01 X32.2288 Y266.4069
G01 X32.1886 Y266.4315
G01 X32.1498 Y266.4582
G01 X32.1124 Y266.4869
G01 X32.0766 Y266.5175
G01 X32.0424 Y266.5499
G01 X32.0100 Y266.5841
G01 X31.9794 Y266.6200
G01 X31.9507 Y266.6573
G01 X31.9240 Y266.6962
G01 X31.8994 Y266.7363
G01 X31.8769 Y266.7777
G01 X31.8566 Y266.8203
G01 X31.8386 Y266.8638
G01 X31.8229 Y266.9082
G01 X31.8095 Y266.9534
G01 X31.7985 Y266.9992
G01 X31.7899 Y267.0455
G01 X31.7837 Y267.0923
G01 X31.7800 Y267.1392
G01 X31.7788 Y267.1863
G01 X31.7800 Y267.2334
G01 X31.7837 Y267.2804
G01 X31.7899 Y267.3271
G01 X31.7985 Y267.3735
G01 X31.8095 Y267.4193
G01 X31.8229 Y267.4645
G01 X31.8386 Y267.5089
G01 X31.8566 Y267.5524
G01 X31.8769 Y267.5949
G01 X31.8994 Y267.6363
G01 X31.9240 Y267.6765
G01 X31.9507 Y267.7153
G01 X31.9794 Y267.7527
G01 X32.0100 Y267.7886
G01 X32.0424 Y267.8227
G01 X32.0766 Y267.8552
G01 X32.1124 Y267.8858
G01 X32.1498 Y267.9145
G01 X32.1886 Y267.9411
G01 X32.2288 Y267.9658
G01 X32.2702 Y267.9882
G01 X32.3127 Y268.0085
G01 X32.3563 Y268.0266
G01 X32.4007 Y268.0423
G01 X32.4459 Y268.0557
G01 X32.4917 Y268.0667
G01 X32.5380 Y268.0753
G01 X32.5847 Y268.0814
G01 X32.6317 Y268.0851
G01 X32.6788 Y268.0863
G01 X32.7259 Y268.0851
G01 X32.7729 Y268.0814
G01 X32.8196 Y268.0753
G01 X32.8659 Y268.0667
G01 X32.9117 Y268.0557
G01 X32.9569 Y268.0423
G01 X33.0013 Y268.0266
G01 X33.0449 Y268.0085
G01 X33.0874 Y267.9882
G01 X33.1288 Y267.9658
G01 X33.1690 Y267.9411
G01 X33.2078 Y267.9145
G01 X33.2452 Y267.8858
G01 X33.2810 Y267.8552
G01 X33.3152 Y267.8227
G01 X33.3476 Y267.7886
G01 X33.3782 Y267.7527
G01 X33.4069 Y267.7153
G01 X33.4336 Y267.6765
G01 X33.4582 Y267.6363
G01 X33.4807 Y267.5949
G01 X33.5010 Y267.5524
G01 X33.5190 Y267.5089
G01 X33.5348 Y267.4645
G01 X33.5481 Y267.4193
G01 X33.5591 Y267.3735
G01 X33.5677 Y267.3271
G01 X33.5739 Y267.2804
G01 X33.5776 Y267.2334
G01 X33.5788 Y267.1863
G01 X33.5897 Y267.1397 F1000
G01 X33.5982 Y267.0925
G01 X33.6042 Y267.0449
G01 X33.6077 Y266.9971
G01 X33.6088 Y266.9492
G01 X33.6073 Y266.9013
G01 X33.6033 Y266.8535
G01 X33.5969 Y266.8060
G01 X33.5872 Y266.7545
G01 X33.5749 Y266.7036
G01 X33.5600 Y266.6534
G01 X33.5425 Y266.6040
G01 X33.5224 Y266.5556
G01 X33.4999 Y266.5082
G01 X33.4750 Y266.4621
G01 X33.4478 Y266.4174
G01 X33.4158 Y266.3703
G01 X33.3814 Y266.3250
G01 X33.3447 Y266.2815
G01 X33.3059 Y266.2399
G01 X33.2650 Y266.2004
G01 X33.2221 Y266.1630
G01 X33.1773 Y266.1278
G01 X33.1309 Y266.0950
G01 X33.0790 Y266.0622
G01 X33.0255 Y266.0320
G01 X32.9705 Y266.0047
G01 X32.9142 Y265.9801
G01 X32.8567 Y265.9584
G01 X32.7983 Y265.9397
G01 X32.7389 Y265.9240
G01 X32.6788 Y265.9113
G01 X32.6137 Y265.9010
G01 X32.5481 Y265.8940
G01 X32.4823 Y265.8903
G01 X32.4164 Y265.8899
G01 X32.3505 Y265.8929
G01 X32.2849 Y265.8992
G01 X32.2197 Y265.9089
G01 X32.1550 Y265.9218
G01 X32.0867 Y265.9390
G01 X32.0193 Y265.9597
G01 X31.9531 Y265.9838
G01 X31.8882 Y266.0112
G01 X31.8247 Y266.0418
G01 X31.7629 Y266.0755
G01 X31.7028 Y266.1124
G01 X31.6447 Y266.1522
G01 X31.5912 Y266.2017
G01 X31.5402 Y266.2537
G01 X31.4919 Y266.3082
G01 X31.4463 Y266.3650
G01 X31.4035 Y266.4240
G01 X31.3637 Y266.4850
G01 X31.3270 Y266.5479
G01 X31.2934 Y266.6125
G01 X31.2669 Y266.6812
G01 X31.2438 Y266.7510
G01 X31.2242 Y266.8220
G01 X31.2081 Y266.8938
G01 X31.1955 Y266.9663
G01 X31.1865 Y267.0394
G01 X31.1811 Y267.1128
G01 X31.1793 Y267.1863
G01 X31.1811 Y267.2599
G01 X31.1865 Y267.3333
G01 X31.1955 Y267.4064
G01 X31.2081 Y267.4789
G01 X31.2242 Y267.5507
G01 X31.2438 Y267.6216
G01 X31.2669 Y267.6915
G01 X31.2934 Y267.7602
G01 X31.3232 Y267.8275
G01 X31.3563 Y267.8932
G01 X31.3926 Y267.9573
G01 X31.4320 Y268.0194
G01 X31.4744 Y268.0796
G01 X31.5196 Y268.1376
G01 X31.5677 Y268.1934
G01 X31.6185 Y268.2467
G01 X31.6718 Y268.2974
G01 X31.7275 Y268.3455
G01 X31.7855 Y268.3908
G01 X31.8457 Y268.4332
G01 X31.9079 Y268.4725
G01 X31.9719 Y268.5088
G01 X32.0377 Y268.5419
G01 X32.1050 Y268.5717
G01 X32.1736 Y268.5982
G01 X32.2435 Y268.6213
G01 X32.3145 Y268.6409
G01 X32.3863 Y268.6571
G01 X32.4588 Y268.6697
G01 X32.5318 Y268.6787
G01 X32.6052 Y268.6841
G01 X32.6788 Y268.6859
G01 X32.7524 Y268.6841
G01 X32.8258 Y268.6787
G01 X32.8988 Y268.6697
G01 X32.9714 Y268.6571
G01 X33.0432 Y268.6409
G01 X33.1141 Y268.6213
G01 X33.1840 Y268.5982
G01 X33.2527 Y268.5717
G01 X33.3200 Y268.5419
G01 X33.3857 Y268.5088
G01 X33.4497 Y268.4725
G01 X33.5119 Y268.4332
G01 X33.5721 Y268.3908
G01 X33.6301 Y268.3455
G01 X33.6858 Y268.2974
G01 X33.7392 Y268.2467
G01 X33.7899 Y268.1934
G01 X33.8380 Y268.1376
G01 X33.8833 Y268.0796
G01 X33.9256 Y268.0194
G01 X33.9650 Y267.9573
G01 X34.0013 Y267.8932
G01 X34.0344 Y267.8275
G01 X34.0642 Y267.7602
G01 X34.0907 Y267.6915
G01 X34.1138 Y267.6216
G01 X34.1334 Y267.5507
G01 X34.1495 Y267.4789
G01 X34.1621 Y267.4064
G01 X34.1711 Y267.3333
G01 X34.1766 Y267.2599
G01 X34.1784 Y267.1863
G01 X34.1742 Y267.0743
G01 X34.1616 Y266.9628
G01 X34.1408 Y266.8527
G01 X34.1117 Y266.7443
G01 X34.0747 Y266.6385
G01 X34.0299 Y266.5357
G01 X33.9775 Y266.4366
G01 X33.9178 Y266.3416
G01 X33.8512 Y266.2514
G01 X33.7781 Y266.1664
G01 X33.6988 Y266.0871
G01 X33.6138 Y266.0139
G01 X33.5235 Y265.9474
G01 X33.4286 Y265.8877
G01 X33.3294 Y265.8353
G01 X33.2267 Y265.7905
G01 X33.1208 Y265.7534
G01 X33.0125 Y265.7244
G01 X32.9023 Y265.7035
G01 X32.7909 Y265.6910
G01 X32.6788 Y265.6868
G01 X32.5668 Y265.6910
G01 X32.4553 Y265.7035
G01 X32.3451 Y265.7244
G01 X32.2368 Y265.7534
G01 X32.1310 Y265.7905
G01 X32.0282 Y265.8353
G01 X31.9290 Y265.8877
G01 X31.8341 Y265.9474
G01 X31.7439 Y266.0139
G01 X31.6589 Y266.0871
G01 X31.5796 Y266.1664
G01 X31.5064 Y266.2514
G01 X31.4398 Y266.3416
G01 X31.3802 Y266.4366
G01 X31.3278 Y266.5357
G01 X31.2829 Y266.6385
G01 X31.2459 Y266.7443
G01 X31.2169 Y266.8527
G01 X31.1960 Y266.9628
G01 X31.1835 Y267.0743
G01 X31.1793 Y267.1863
G01 X31.1835 Y267.2984
G01 X31.1960 Y267.4098
G01 X31.2169 Y267.5200
G01 X31.2459 Y267.6283
G01 X31.2829 Y267.7342
G01 X31.3278 Y267.8370
G01 X31.3802 Y267.9361
G01 X31.4398 Y268.0311
G01 X31.5064 Y268.1213
G01 X31.5796 Y268.2063
G01 X31.6589 Y268.2856
G01 X31.7439 Y268.3587
G01 X31.8341 Y268.4253
G01 X31.9290 Y268.4850
G01 X32.0282 Y268.5374
G01 X32.1310 Y268.5822
G01 X32.2368 Y268.6193
G01 X32.3451 Y268.6483
G01 X32.4553 Y268.6691
G01 X32.5668 Y268.6817
G01 X32.6788 Y268.6859
G01 X32.7909 Y268.6817
G01 X32.9023 Y268.6691
G01 X33.0125 Y268.6483
G01 X33.1208 Y268.6193
G01 X33.2267 Y268.5822
G01 X33.3294 Y268.5374
G01 X33.4286 Y268.4850
G01 X33.5235 Y268.4253
G01 X33.6138 Y268.3587
G01 X33.6988 Y268.2856
G01 X33.7781 Y268.2063
G01 X33.8512 Y268.1213
G01 X33.9178 Y268.0311
G01 X33.9775 Y267.9361
G01 X34.0299 Y267.8370
G01 X34.0747 Y267.7342
G01 X34.1117 Y267.6283
G01 X34.1408 Y267.5200
G01 X34.1616 Y267.4098
G01 X34.1742 Y267.2984
G01 X34.1784 Y267.1863
M107
M106 S240
G01 X34.1735 Y267.0883 Z-5.9688 F400
M107
M106 S240
G01 X34.1591 Y266.9913 Z-5.9375
M107
M106 S240
G01 X34.1353 Y266.8961 Z-5.9063
M107
M106 S240
G01 X34.1022 Y266.8037 Z-5.8750
M107
M106 S240
G01 X34.0603 Y266.7149 Z-5.8438
M107
M106 S240
G01 X34.0098 Y266.6308 Z-5.8125
M107
M106 S240
G01 X33.9514 Y266.5519 Z-5.7813
M107
M106 S240
G01 X33.8855 Y266.4792 Z-5.7500
M107
M106 S240
G01 X33.8128 Y266.4133 Z-5.7188
M107
M106 S240
G01 X33.7339 Y266.3549 Z-5.6875
M107
M106 S240
G01 X33.6498 Y266.3044 Z-5.6563
M107
M106 S240
G01 X33.5610 Y266.2625 Z-5.6250
M107
M106 S240
G01 X33.4686 Y266.2294 Z-5.5938
M107
M106 S240
G01 X33.3735 Y266.2056 Z-5.5625
M107
M106 S240
G01 X33.2764 Y266.1912 Z-5.5313
M107
M106 S240
G01 X33.1784 Y266.1863 Z-5.5000
M107
G00 Z2.0000


;No. 3: Hole 2
G00 X46.0558 Y237.0995 Z2.0000
G00 Z0.5000
G01 Z-1.8000 F400
M106 S240
G01 X47.5060 F1000
G01 X47.5173 Y238.5995
G01 X46.0462
G01 X46.0365 Y240.0995
G01 X47.5285
G01 X47.5397 Y241.5995
G01 X46.0269
G01 X46.0173 Y243.0995
G01 X47.5510
G01 X47.5616 Y244.5995
G01 X46.0077
G01 X45.9981 Y246.0995
G01 X47.5712
G01 X47.5809 Y247.5995
G01 X45.9885
G01 X45.9789 Y249.0995
G01 X47.5905
G01 X47.6001 Y250.5995
G01 X45.9693
G01 X45.9597 Y252.0995
G01 X47.6097
G01 Y253.5995
G01 X52.8974
G01 X40.8147
G01 Y255.0995
G01 X36.7545
G01 X56.8692
M107
G00 Z2.0000
G00 Z0.5000
G01 Z-1.8000 F400
M106 S240
G01 X57.0233 Y254.9721 F1000
G01 X56.6997 Y254.6111
G01 X56.3522 Y254.2731
G01 X55.9824 Y253.9595
G01 X55.5920 Y253.6720
G01 X55.4526 Y253.6201
G01 X55.3108 Y253.5753
G01 X55.1669 Y253.5377
G01 X55.0213 Y253.5073
G01 X54.8743 Y253.4842
G01 X54.7264 Y253.4686
G01 X54.5779 Y253.4604
G01 X54.4292 Y253.4597
G01 X54.1131 Y253.4432
G01 X53.7969 Y253.4290
G01 X53.4806 Y253.4170
G01 X53.1642 Y253.4072
G01 X48.7466 Y253.2774
G01 X48.6999 Y253.2733
G01 X48.6535 Y253.2670
G01 X48.6074 Y253.2585
G01 X48.5617 Y253.2479
G01 X48.5166 Y253.2352
G01 X48.4721 Y253.2203
G01 X48.4284 Y253.2034
G01 X48.3855 Y253.1845
G01 X48.3436 Y253.1636
G01 X48.3027 Y253.1407
G01 X48.2629 Y253.1159
G01 X48.2243 Y253.0893
G01 X48.1870 Y253.0609
G01 X48.1511 Y253.0309
G01 X48.1166 Y252.9991
G01 X48.0836 Y252.9658
G01 X48.0523 Y252.9309
G01 X48.0226 Y252.8947
G01 X47.9946 Y252.8571
G01 X47.9684 Y252.8182
G01 X47.9441 Y252.7781
G01 X47.9217 Y252.7369
G01 X47.9012 Y252.6948
G01 X47.8828 Y252.6517
G01 X47.8664 Y252.6078
G01 X47.8520 Y252.5632
G01 X47.8398 Y252.5179
G01 X47.8297 Y252.4722
G01 X47.8217 Y252.4260
G01 X47.8159 Y252.3795
G01 X47.8123 Y252.3327
G01 X47.8109 Y252.2859
G01 X47.7578 Y244.0090
G01 X47.7050 Y236.7658
G01 X45.8579 Y236.7722
G01 X45.7586 Y252.2658
G01 X45.7552 Y252.3629
G01 X45.7424 Y252.4591
G01 X45.7203 Y252.5536
G01 X45.6891 Y252.6456
G01 X45.6492 Y252.7341
G01 X45.6009 Y252.8183
G01 X45.5446 Y252.8975
G01 X45.4810 Y252.9708
G01 X45.4105 Y253.0376
G01 X45.3339 Y253.0972
G01 X45.2519 Y253.1492
G01 X45.1652 Y253.1929
G01 X45.0747 Y253.2281
G01 X44.9812 Y253.2543
G01 X44.8856 Y253.2713
G01 X44.7888 Y253.2790
G01 X38.4080 Y253.4724
G01 X37.7241 Y253.9648
G01 X37.5354 Y254.0966
G01 X37.3531 Y254.2372
G01 X37.1775 Y254.3861
G01 X37.0091 Y254.5430
G01 X36.8483 Y254.7077
G01 X36.6952 Y254.8796
G01 X36.5504 Y255.0586
G01 X36.4141 Y255.2441
G01 X36.3360 Y255.3672
G01 X36.3497 Y255.3773
G01 X38.9677 Y255.4061
G01 X41.5857 Y255.4256
G01 X44.2038 Y255.4359
G01 X46.8220 Y255.4369
G01 X49.4401 Y255.4287
G01 X52.0581 Y255.4112
G01 X54.6761 Y255.3846
G01 X57.2940 Y255.3486
G01 X57.3088 Y255.3458
G01 X57.1729 Y255.1606
G01 X57.0670 Y255.0250
G01 X57.0233 Y254.9721
G01 X56.8692 Y255.0995
M107
G00 Z2.0000


;No. 4: Hole 3


;No. 5: Hole 3
G00 X86.4012 Y253.3807 Z2.0000
G00 Z0.5000
G01 Z-1.8000 F400
M106 S240
G01 X71.9517 F1000
G01 X71.0773 Y253.9700
G01 X70.7166 Y254.2343
G01 X70.3738 Y254.5216
G01 X70.0505 Y254.8305
G01 X69.7479 Y255.1598
G01 X71.8703 Y255.2035
G01 X73.9929 Y255.2299
G01 X76.1157 Y255.2388
G01 X78.2385 Y255.2303
G01 X88.5117 Y255.2305
G01 X88.5277 Y255.2287
G01 X88.3824 Y255.0370
G01 X88.2291 Y254.8517
G01 X88.0681 Y254.6730
G01 X87.8997 Y254.5014
G01 X87.7242 Y254.3370
G01 X87.5418 Y254.1802
G01 X87.3530 Y254.0312
G01 X87.1580 Y253.8904
G01 X86.4012 Y253.3807
M107
G00 Z2.0000


;No. 6: Hole 4
G00 X86.4540 Y245.6547 Z2.0000
G00 Z0.5000
G01 Z-1.8000 F400
M106 S240
G01 X71.9500 F1000
G01 Y247.1547
G01 X70.0448
G01 X88.1202
M107
G00 Z2.0000
G00 Z0.5000
G01 Z-1.8000 F400
M106 S240
G01 X88.2795 Y247.0330 F1000
G01 X88.2621 Y247.0101
G01 X88.0515 Y246.7466
G01 X87.8267 Y246.4950
G01 X87.5885 Y246.2561
G01 X87.3375 Y246.0306
G01 X87.0745 Y245.8193
G01 X86.8003 Y245.6227
G01 X86.5157 Y245.4415
G01 X86.2216 Y245.2762
G01 X77.9177 Y245.2864
G01 X76.1217 Y245.2941
G01 X75.2148 Y245.2949
G01 X74.3080 Y245.3101
G01 X73.4015 Y245.3397
G01 X72.4957 Y245.3838
G01 X72.2306 Y245.4087
G01 X72.1279 Y245.4143
G01 X72.0260 Y245.4281
G01 X71.9254 Y245.4500
G01 X71.8270 Y245.4799
G01 X71.7313 Y245.5176
G01 X71.6389 Y245.5628
G01 X71.5504 Y245.6153
G01 X71.4664 Y245.6747
G01 X71.1881 Y245.8445
G01 X70.9206 Y246.0308
G01 X70.6648 Y246.2328
G01 X70.4216 Y246.4498
G01 X70.1919 Y246.6811
G01 X69.9765 Y246.9258
G01 X69.7762 Y247.1830
G01 X69.5918 Y247.4518
G01 X70.8797 Y247.5017
G01 X72.1683 Y247.5320
G01 X73.4571 Y247.5426
G01 X74.7460 Y247.5335
G01 X80.8545 Y247.5296
G01 X82.7869 Y247.5332
G01 X84.7193 Y247.5208
G01 X86.6515 Y247.4921
G01 X88.5835 Y247.4474
G01 X88.5263 Y247.3644
G01 X88.4234 Y247.2214
G01 X88.2795 Y247.0330
G01 X88.1202 Y247.1547
M107
G00 Z2.0000


;No. 7: Hole 5
G00 X85.2808 Y237.2446 Z2.0000
G00 Z0.5000
G01 Z-1.8000 F400
M106 S240
G01 X72.8046 F1000
G01 Y238.7446
G01 X70.0847
G01 X88.0880
M107
G00 Z2.0000
G00 Z0.5000
G01 Z-1.8000 F400
M106 S240
G01 X88.2431 Y238.6187 F1000
G01 X88.0627 Y238.3927
G01 X87.8673 Y238.1795
G01 X87.6578 Y237.9802
G01 X87.4352 Y237.7956
G01 X87.2005 Y237.6266
G01 X86.9549 Y237.4740
G01 X86.6994 Y237.3384
G01 X86.4353 Y237.2207
G01 X85.9637 Y237.1243
G01 X85.4872 Y237.0562
G01 X85.0075 Y237.0166
G01 X84.5263 Y237.0057
G01 X84.1578 Y236.9950
G01 X83.7892 Y236.9866
G01 X83.4207 Y236.9806
G01 X83.0520 Y236.9768
G01 X80.7610 Y236.9641
G01 X78.4699 Y236.9635
G01 X76.1788 Y236.9749
G01 X73.8879 Y236.9984
G01 X73.4388 Y236.9986
G01 X72.9904 Y237.0212
G01 X72.5436 Y237.0661
G01 X72.0997 Y237.1332
G01 X71.8842 Y237.2176
G01 X71.6727 Y237.3115
G01 X71.4656 Y237.4148
G01 X71.2633 Y237.5273
G01 X71.0663 Y237.6488
G01 X70.8750 Y237.7789
G01 X70.6897 Y237.9175
G01 X70.5107 Y238.0643
G01 X70.2775 Y238.2612
G01 X70.0580 Y238.4733
G01 X69.8532 Y238.6996
G01 X69.6640 Y238.9392
G01 X73.8867 Y238.9949
G01 X78.1097 Y239.0223
G01 X82.3328 Y239.0214
G01 X86.5558 Y238.9924
G01 X87.0172 Y238.9867
G01 X87.4785 Y238.9785
G01 X87.9398 Y238.9676
G01 X88.4010 Y238.9542
G01 X88.4198 Y238.9536
G01 X88.4924 Y238.9439
G01 X88.3854 Y238.7999
G01 X88.2760 Y238.6592
G01 X88.2431 Y238.6187
G01 X88.0880 Y238.7446
M107
G00 Z2.0000


;No. 8: Hole 6
G00 X102.8375 Y237.0995 Z2.0000
G00 Z0.5000
G01 Z-1.8000 F400
M106 S240
G01 X120.6560 F1000
G01 Y238.5995
G01 X104.7262
G01 X119.2062
G01 Y240.0995
G01 X120.6560
G01 Y241.5995
G01 X119.2062
G01 Y243.0995
G01 X120.6560
G01 Y244.5995
G01 X119.1616
G01 X120.6560 Y246.0995
G01 X102.1860
G01 Y247.5995
G01 X103.6809
G01 X103.4331 Y249.0995
G01 X102.1860
G01 Y250.5995
G01 X103.4331
G01 Y252.0995
G01 X102.1860
G01 Y253.5995
G01 X117.9875
G01 Y255.0995
G01 X119.6759
G01 X102.1860
M107
G00 Z2.0000
G00 Z0.5000
G01 Z-1.8000 F400
M106 S240
G01 X101.9860 F1000
G01 Y255.4331
G01 X111.3196
G01 X113.5232 Y255.4407
G01 X115.7267 Y255.4366
G01 X117.9303 Y255.4209
G01 X120.1337 Y255.3936
G01 X119.9702 Y255.1603
G01 X119.7964 Y254.9346
G01 X119.6125 Y254.7170
G01 X119.4190 Y254.5079
G01 X119.2163 Y254.3077
G01 X119.0047 Y254.1169
G01 X118.7848 Y253.9359
G01 X118.5569 Y253.7650
G01 X118.0265 Y253.3807
G01 X104.6531
G01 X104.5538 Y253.3778
G01 X104.4552 Y253.3649
G01 X104.3584 Y253.3424
G01 X104.2644 Y253.3103
G01 X104.1739 Y253.2691
G01 X104.0880 Y253.2191
G01 X104.0075 Y253.1609
G01 X103.9332 Y253.0949
G01 X103.8657 Y253.0219
G01 X103.8059 Y252.9425
G01 X103.7542 Y252.8577
G01 X103.7112 Y252.7681
G01 X103.6773 Y252.6746
G01 X103.6529 Y252.5783
G01 X103.6381 Y252.4800
G01 X103.6331 Y252.3807
G01 Y248.3483
G01 X103.6356 Y248.2576
G01 X103.6401 Y248.2109
G01 X103.6466 Y248.1645
G01 X103.6554 Y248.1185
G01 X103.6663 Y248.0729
G01 X103.6793 Y248.0279
G01 X103.6945 Y247.9835
G01 X103.7117 Y247.9399
G01 X103.7309 Y247.8971
G01 X103.7521 Y247.8553
G01 X103.7752 Y247.8146
G01 X103.8002 Y247.7749
G01 X103.8271 Y247.7365
G01 X103.8557 Y247.6994
G01 X103.8860 Y247.6637
G01 X103.9180 Y247.6294
G01 X103.9515 Y247.5966
G01 X103.9865 Y247.5655
G01 X104.0230 Y247.5360
G01 X104.0608 Y247.5083
G01 X104.0998 Y247.4824
G01 X104.1401 Y247.4583
G01 X104.1814 Y247.4362
G01 X104.2237 Y247.4160
G01 X104.2669 Y247.3978
G01 X104.3109 Y247.3817
G01 X104.3556 Y247.3676
G01 X104.4009 Y247.3557
G01 X104.4467 Y247.3459
G01 X104.4930 Y247.3382
G01 X104.5395 Y247.3327
G01 X104.5863 Y247.3294
G01 X104.6331 Y247.3283
G01 X120.8560
G01 Y236.7658
G01 X110.7946 Y236.7660
G01 X108.7129 Y236.7628
G01 X106.6312 Y236.7752
G01 X104.5496 Y236.8032
G01 X102.4683 Y236.8468
G01 X102.4411 Y236.8562
G01 X102.5742 Y237.0794
G01 X102.7198 Y237.2947
G01 X102.8773 Y237.5013
G01 X103.0463 Y237.6987
G01 X103.2263 Y237.8861
G01 X103.4166 Y238.0631
G01 X103.6166 Y238.2290
G01 X103.8257 Y238.3832
G01 X103.9252 Y238.4560
G01 X104.0283 Y238.5236
G01 X104.1347 Y238.5859
G01 X104.2441 Y238.6428
G01 X104.3562 Y238.6940
G01 X104.4708 Y238.7395
G01 X104.5876 Y238.7791
G01 X104.7062 Y238.8127
G01 X104.8264 Y238.8403
G01 X104.9478 Y238.8617
G01 X105.0701 Y238.8769
G01 X105.1931 Y238.8859
G01 X106.0347 Y238.9542
G01 X106.8780 Y238.9987
G01 X107.7221 Y239.0194
G01 X108.5665 Y239.0163
G01 X109.7620 Y239.0202
G01 X117.9862 Y239.0208
G01 X118.0855 Y239.0238
G01 X118.1840 Y239.0366
G01 X118.2808 Y239.0592
G01 X118.3749 Y239.0912
G01 X118.4654 Y239.1324
G01 X118.5513 Y239.1824
G01 X118.6318 Y239.2407
G01 X118.7061 Y239.3066
G01 X118.7735 Y239.3796
G01 X118.8334 Y239.4590
G01 X118.8851 Y239.5439
G01 X118.9281 Y239.6335
G01 X118.9620 Y239.7269
G01 X118.9864 Y239.8233
G01 X119.0012 Y239.9215
G01 X119.0061 Y240.0208
G01 X119.0062 Y244.2559
G01 X119.0032 Y244.3552
G01 X118.9903 Y244.4538
G01 X118.9678 Y244.5506
G01 X118.9358 Y244.6446
G01 X118.8945 Y244.7351
G01 X118.8446 Y244.8210
G01 X118.7863 Y244.9015
G01 X118.7203 Y244.9758
G01 X118.6473 Y245.0433
G01 X118.5680 Y245.1031
G01 X118.4831 Y245.1548
G01 X118.3935 Y245.1978
G01 X118.3000 Y245.2317
G01 X118.2037 Y245.2561
G01 X118.1054 Y245.2709
G01 X118.0062 Y245.2759
G01 X101.9860
G01 Y255.0995
G01 X102.1860
M107
G00 Z2.0000


;No. 9: Hole 7
G00 X133.7949 Y237.2007 Z2.0000
G00 Z0.5000
G01 Z-1.8000 F400
M106 S240
G01 X149.1085 F1000
G01 X150.7815 Y238.7007
G01 X133.7949
G01 Y240.2007
G01 X135.0421
G01 Y241.7007
G01 X133.7949
G01 Y243.2007
G01 X135.0421
G01 Y244.7007
G01 X133.7949
G01 Y246.2007
G01 X135.0421
G01 Y247.7007
G01 X133.7949
G01 Y249.2007
G01 X135.0421
G01 Y250.7007
G01 X133.7949
G01 Y252.2007
G01 X135.0421
G01 Y253.7007
G01 X133.7949
G01 Y255.2007
G01 X135.0421
M107
G00 Z2.0000
G00 Z0.5000
G01 Z-1.8000 F400
M106 S240
G01 X135.2421 F1000
G01 Y240.0408
G01 X135.2446 Y239.9501
G01 X135.2490 Y239.9034
G01 X135.2556 Y239.8570
G01 X135.2644 Y239.8110
G01 X135.2753 Y239.7654
G01 X135.2883 Y239.7203
G01 X135.3034 Y239.6760
G01 X135.3206 Y239.6324
G01 X135.3398 Y239.5896
G01 X135.3610 Y239.5478
G01 X135.3841 Y239.5071
G01 X135.4092 Y239.4674
G01 X135.4360 Y239.4290
G01 X135.4646 Y239.3919
G01 X135.4949 Y239.3561
G01 X135.5269 Y239.3219
G01 X135.5605 Y239.2891
G01 X135.5955 Y239.2580
G01 X135.6319 Y239.2285
G01 X135.6697 Y239.2008
G01 X135.7088 Y239.1749
G01 X135.7490 Y239.1508
G01 X135.7903 Y239.1287
G01 X135.8326 Y239.1085
G01 X135.8758 Y239.0903
G01 X135.9198 Y239.0742
G01 X135.9645 Y239.0601
G01 X136.0099 Y239.0481
G01 X136.0557 Y239.0383
G01 X136.1019 Y239.0307
G01 X136.1485 Y239.0252
G01 X136.1952 Y239.0219
G01 X136.2421 Y239.0208
G01 X151.2121 Y239.0150
G01 X151.0733 Y238.7794
G01 X150.9213 Y238.5521
G01 X150.7565 Y238.3340
G01 X150.5796 Y238.1256
G01 X150.3910 Y237.9276
G01 X150.1913 Y237.7408
G01 X149.9813 Y237.5657
G01 X149.7617 Y237.4030
G01 X149.1208 Y236.9683
G01 X133.5949
G01 Y255.4332
G01 X135.2421
G01 Y255.2007
G01 X135.0421
M107
G00 Z2.0000


;No. 10: Hole 8


;No. 11: Hole 8
G00 X173.9269 Y253.3814 Z2.0000
G00 Z0.5000
G01 Z-1.8000 F400
M106 S240
G01 X166.6313 F1000
G01 X165.7426 Y253.9808
G01 X165.4185 Y254.2460
G01 X165.1113 Y254.5307
G01 X164.8222 Y254.8338
G01 X164.5524 Y255.1542
G01 X164.5630 Y255.1615
G01 X164.6315 Y255.1639
G01 X169.3131 Y255.2179
G01 X173.9949 Y255.2331
G01 X178.6766 Y255.2096
G01 X183.3581 Y255.1474
G01 X183.2315 Y254.9621
G01 X183.0948 Y254.7843
G01 X182.9481 Y254.6146
G01 X182.7922 Y254.4533
G01 X182.6273 Y254.3012
G01 X182.4541 Y254.1586
G01 X182.2732 Y254.0260
G01 X182.0850 Y253.9039
G01 X182.0127 Y253.8455
G01 X181.9378 Y253.7906
G01 X181.8604 Y253.7391
G01 X181.7807 Y253.6913
G01 X181.6990 Y253.6471
G01 X181.6152 Y253.6068
G01 X181.5297 Y253.5704
G01 X181.4426 Y253.5380
G01 X180.9299 Y253.4724
G01 X180.4148 Y253.4282
G01 X179.8984 Y253.4053
G01 X179.3814 Y253.4038
G01 X178.0178 Y253.3903
G01 X176.6542 Y253.3820
G01 X175.2906 Y253.3791
G01 X173.9269 Y253.3814
M107
G00 Z2.0000


;No. 12: Hole 9
G00 X166.0434 Y237.7515 Z2.0000
G00 Z0.5000
G01 Z-1.8000 F400
M106 S240
G01 X164.7961 F1000
G01 Y239.2515
G01 X166.0434
G01 Y240.7515
G01 X164.7961
G01 Y242.2515
G01 X166.0434
G01 Y243.7515
G01 X164.7960
G01 Y245.2515
G01 X166.5473
G01 Y246.7515
G01 X164.7960
G01 X183.1791
G01 X183.1920 Y245.2515
G01 X181.5160
G01 X182.0190 Y243.7515
G01 X183.2050
G01 X183.2179 Y242.2515
G01 X182.0190
G01 Y240.7515
G01 X183.2308
G01 X183.2437 Y239.2515
G01 X182.0190
G01 Y237.7515
G01 X183.2567
M107
G00 Z2.0000
G00 Z0.5000
G01 Z-1.8000 F400
M106 S240
G01 X183.4566 Y237.7532 F1000
G01 X183.4634 Y236.9683
G01 X181.8190
G01 Y244.2558
G01 X181.8160 Y244.3552
G01 X181.8032 Y244.4537
G01 X181.7806 Y244.5505
G01 X181.7486 Y244.6446
G01 X181.7074 Y244.7350
G01 X181.6574 Y244.8209
G01 X181.5991 Y244.9014
G01 X181.5332 Y244.9758
G01 X181.4602 Y245.0432
G01 X181.3808 Y245.1031
G01 X181.2959 Y245.1547
G01 X181.2063 Y245.1977
G01 X181.1129 Y245.2316
G01 X181.0165 Y245.2561
G01 X180.9183 Y245.2709
G01 X180.8190 Y245.2758
G01 X167.2634
G01 X167.1640 Y245.2728
G01 X167.0655 Y245.2600
G01 X166.9687 Y245.2375
G01 X166.8746 Y245.2054
G01 X166.7842 Y245.1642
G01 X166.6983 Y245.1142
G01 X166.6177 Y245.0559
G01 X166.5434 Y244.9900
G01 X166.4760 Y244.9170
G01 X166.4161 Y244.8376
G01 X166.3644 Y244.7527
G01 X166.3214 Y244.6631
G01 X166.2876 Y244.5697
G01 X166.2631 Y244.4734
G01 X166.2483 Y244.3751
G01 X166.2434 Y244.2758
G01 Y236.9683
G01 X164.5962 Y236.9684
G01 X164.5960 Y247.5296
G01 X183.3732 Y247.4346
G01 X183.4566 Y237.7532
G01 X183.2567 Y237.7515
M107
G00 Z2.0000


;No. 13: Helical drill 2
G00 X188.5780 Y267.1863 Z2.0000
G00 Z0.5000
M106 S240
G01 X188.5767 Y267.1392 Z0.4958 F400
G01 X188.5730 Y267.0922 Z0.4917
G01 X188.5669 Y267.0455 Z0.4875
G01 X188.5583 Y266.9992 Z0.4833
G01 X188.5473 Y266.9533 Z0.4792
G01 X188.5339 Y266.9082 Z0.4750
G01 X188.5182 Y266.8638 Z0.4708
G01 X188.5002 Y266.8202 Z0.4667
G01 X188.4799 Y266.7777 Z0.4625
G01 X188.4574 Y266.7363 Z0.4583
G01 X188.4328 Y266.6961 Z0.4542
G01 X188.4061 Y266.6573 Z0.4500
G01 X188.3774 Y266.6199 Z0.4458
G01 X188.3468 Y266.5841 Z0.4417
G01 X188.3144 Y266.5499 Z0.4375
G01 X188.2802 Y266.5175 Z0.4333
G01 X188.2443 Y266.4869 Z0.4292
G01 X188.2070 Y266.4582 Z0.4250
G01 X188.1681 Y266.4315 Z0.4208
G01 X188.1280 Y266.4069 Z0.4167
G01 X188.0866 Y266.3844 Z0.4125
G01 X188.0440 Y266.3641 Z0.4083
G01 X188.0005 Y266.3461 Z0.4042
G01 X187.9561 Y266.3303 Z0.4000
G01 X187.9109 Y266.3170 Z0.3958
G01 X187.8651 Y266.3060 Z0.3917
G01 X187.8188 Y266.2974 Z0.3875
G01 X187.7720 Y266.2912 Z0.3833
G01 X187.7251 Y266.2875 Z0.3792
G01 X187.6780 Y266.2863 Z0.3750
G01 X187.6309 Y266.2875 Z0.3708
G01 X187.5839 Y266.2912 Z0.3667
G01 X187.5372 Y266.2974 Z0.3625
G01 X187.4908 Y266.3060 Z0.3583
G01 X187.4450 Y266.3170 Z0.3542
G01 X187.3998 Y266.3303 Z0.3500
G01 X187.3554 Y266.3461 Z0.3458
G01 X187.3119 Y266.3641 Z0.3417
G01 X187.2694 Y266.3844 Z0.3375
G01 X187.2280 Y266.4069 Z0.3333
G01 X187.1878 Y266.4315 Z0.3292
G01 X187.1490 Y266.4582 Z0.3250
G01 X187.1116 Y266.4869 Z0.3208
G01 X187.0757 Y266.5175 Z0.3167
G01 X187.0416 Y266.5499 Z0.3125
G01 X187.0091 Y266.5841 Z0.3083
G01 X186.9785 Y266.6199 Z0.3042
G01 X186.9498 Y266.6573 Z0.3000
G01 X186.9232 Y266.6961 Z0.2958
G01 X186.8985 Y266.7363 Z0.2917
G01 X186.8761 Y266.7777 Z0.2875
G01 X186.8558 Y266.8202 Z0.2833
G01 X186.8377 Y266.8638 Z0.2792
G01 X186.8220 Y266.9082 Z0.2750
G01 X186.8086 Y266.9533 Z0.2708
G01 X186.7976 Y266.9992 Z0.2667
G01 X186.7890 Y267.0455 Z0.2625
G01 X186.7829 Y267.0922 Z0.2583
G01 X186.7792 Y267.1392 Z0.2542
G01 X186.7780 Y267.1863 Z0.2500
G01 X186.7792 Y267.2334 Z0.2458
G01 X186.7829 Y267.2804 Z0.2417
G01 X186.7890 Y267.3271 Z0.2375
G01 X186.7976 Y267.3734 Z0.2333
G01 X186.8086 Y267.4192 Z0.2292
G01 X186.8220 Y267.4644 Z0.2250
G01 X186.8377 Y267.5088 Z0.2208
G01 X186.8558 Y267.5523 Z0.2167
G01 X186.8761 Y267.5949 Z0.2125
G01 X186.8985 Y267.6363 Z0.2083
G01 X186.9232 Y267.6765 Z0.2042
G01 X186.9498 Y267.7153 Z0.2000
G01 X186.9785 Y267.7527 Z0.1958
G01 X187.0091 Y267.7885 Z0.1917
G01 X187.0416 Y267.8227 Z0.1875
G01 X187.0757 Y267.8551 Z0.1833
G01 X187.1116 Y267.8857 Z0.1792
G01 X187.1490 Y267.9144 Z0.1750
G01 X187.1878 Y267.9411 Z0.1708
G01 X187.2280 Y267.9657 Z0.1667
G01 X187.2694 Y267.9882 Z0.1625
G01 X187.3119 Y268.0085 Z0.1583
G01 X187.3554 Y268.0265 Z0.1542
G01 X187.3998 Y268.0422 Z0.1500
G01 X187.4450 Y268.0556 Z0.1458
G01 X187.4908 Y268.0666 Z0.1417
G01 X187.5372 Y268.0752 Z0.1375
G01 X187.5839 Y268.0814 Z0.1333
G01 X187.6309 Y268.0851 Z0.1292
G01 X187.6780 Y268.0863 Z0.1250
G01 X187.7251 Y268.0851 Z0.1208
G01 X187.7720 Y268.0814 Z0.1167
G01 X187.8188 Y268.0752 Z0.1125
G01 X187.8651 Y268.0666 Z0.1083
G01 X187.9109 Y268.0556 Z0.1042
G01 X187.9561 Y268.0422 Z0.1000
G01 X188.0005 Y268.0265 Z0.0958
G01 X188.0440 Y268.0085 Z0.0917
G01 X188.0866 Y267.9882 Z0.0875
G01 X188.1280 Y267.9657 Z0.0833
G01 X188.1681 Y267.9411 Z0.0792
G01 X188.2070 Y267.9144 Z0.0750
G01 X188.2443 Y267.8857 Z0.0708
G01 X188.2802 Y267.8551 Z0.0667
G01 X188.3144 Y267.8227 Z0.0625
G01 X188.3468 Y267.7885 Z0.0583
G01 X188.3774 Y267.7527 Z0.0542
G01 X188.4061 Y267.7153 Z0.0500
G01 X188.4328 Y267.6765 Z0.0458
G01 X188.4574 Y267.6363 Z0.0417
G01 X188.4799 Y267.5949 Z0.0375
G01 X188.5002 Y267.5523 Z0.0333
G01 X188.5182 Y267.5088 Z0.0292
G01 X188.5339 Y267.4644 Z0.0250
G01 X188.5473 Y267.4192 Z0.0208
G01 X188.5583 Y267.3734 Z0.0167
G01 X188.5669 Y267.3271 Z0.0125
G01 X188.5730 Y267.2804 Z0.0083
G01 X188.5767 Y267.2334 Z0.0042
G01 X188.5780 Y267.1863 Z0.0000
G01 X188.5767 Y267.1392
G01 X188.5730 Y267.0922
G01 X188.5669 Y267.0455
G01 X188.5583 Y266.9992
G01 X188.5473 Y266.9533
G01 X188.5339 Y266.9082
G01 X188.5182 Y266.8638
G01 X188.5002 Y266.8202
G01 X188.4799 Y266.7777
G01 X188.4574 Y266.7363
G01 X188.4328 Y266.6961
G01 X188.4061 Y266.6573
G01 X188.3774 Y266.6199
G01 X188.3468 Y266.5841
G01 X188.3144 Y266.5499
G01 X188.2802 Y266.5175
G01 X188.2443 Y266.4869
G01 X188.2070 Y266.4582
G01 X188.1681 Y266.4315
G01 X188.1280 Y266.4069
G01 X188.0866 Y266.3844
G01 X188.0440 Y266.3641
G01 X188.0005 Y266.3461
G01 X187.9561 Y266.3303
G01 X187.9109 Y266.3170
G01 X187.8651 Y266.3060
G01 X187.8188 Y266.2974
G01 X187.7720 Y266.2912
G01 X187.7251 Y266.2875
G01 X187.6780 Y266.2863
G01 X187.6309 Y266.2875
G01 X187.5839 Y266.2912
G01 X187.5372 Y266.2974
G01 X187.4908 Y266.3060
G01 X187.4450 Y266.3170
G01 X187.3998 Y266.3303
G01 X187.3554 Y266.3461
G01 X187.3119 Y266.3641
G01 X187.2694 Y266.3844
G01 X187.2280 Y266.4069
G01 X187.1878 Y266.4315
G01 X187.1490 Y266.4582
G01 X187.1116 Y266.4869
G01 X187.0757 Y266.5175
G01 X187.0416 Y266.5499
G01 X187.0091 Y266.5841
G01 X186.9785 Y266.6199
G01 X186.9498 Y266.6573
G01 X186.9232 Y266.6961
G01 X186.8985 Y266.7363
G01 X186.8761 Y266.7777
G01 X186.8558 Y266.8202
G01 X186.8377 Y266.8638
G01 X186.8220 Y266.9082
G01 X186.8086 Y266.9533
G01 X186.7976 Y266.9992
G01 X186.7890 Y267.0455
G01 X186.7829 Y267.0922
G01 X186.7792 Y267.1392
G01 X186.7780 Y267.1863
G01 X186.7792 Y267.2334
G01 X186.7829 Y267.2804
G01 X186.7890 Y267.3271
G01 X186.7976 Y267.3734
G01 X186.8086 Y267.4192
G01 X186.8220 Y267.4644
G01 X186.8377 Y267.5088
G01 X186.8558 Y267.5523
G01 X186.8761 Y267.5949
G01 X186.8985 Y267.6363
G01 X186.9232 Y267.6765
G01 X186.9498 Y267.7153
G01 X186.9785 Y267.7527
G01 X187.0091 Y267.7885
G01 X187.0416 Y267.8227
G01 X187.0757 Y267.8551
G01 X187.1116 Y267.8857
G01 X187.1490 Y267.9144
G01 X187.1878 Y267.9411
G01 X187.2280 Y267.9657
G01 X187.2694 Y267.9882
G01 X187.3119 Y268.0085
G01 X187.3554 Y268.0265
G01 X187.3998 Y268.0422
G01 X187.4450 Y268.0556
G01 X187.4908 Y268.0666
G01 X187.5372 Y268.0752
G01 X187.5839 Y268.0814
G01 X187.6309 Y268.0851
G01 X187.6780 Y268.0863
G01 X187.7251 Y268.0851
G01 X187.7720 Y268.0814
G01 X187.8188 Y268.0752
G01 X187.8651 Y268.0666
G01 X187.9109 Y268.0556
G01 X187.9561 Y268.0422
G01 X188.0005 Y268.0265
G01 X188.0440 Y268.0085
G01 X188.0866 Y267.9882
G01 X188.1280 Y267.9657
G01 X188.1681 Y267.9411
G01 X188.2070 Y267.9144
G01 X188.2443 Y267.8857
G01 X188.2802 Y267.8551
G01 X188.3144 Y267.8227
G01 X188.3468 Y267.7885
G01 X188.3774 Y267.7527
G01 X188.4061 Y267.7153
G01 X188.4328 Y267.6765
G01 X188.4574 Y267.6363
G01 X188.4799 Y267.5949
G01 X188.5002 Y267.5523
G01 X188.5182 Y267.5088
G01 X188.5339 Y267.4644
G01 X188.5473 Y267.4192
G01 X188.5583 Y267.3734
G01 X188.5669 Y267.3271
G01 X188.5730 Y267.2804
G01 X188.5767 Y267.2334
G01 X188.5780 Y267.1863
M107
M106 S240
G01 X188.5767 Y267.1392 Z-0.0167
G01 X188.5730 Y267.0922 Z-0.0333
G01 X188.5669 Y267.0455 Z-0.0500
G01 X188.5583 Y266.9992 Z-0.0667
G01 X188.5473 Y266.9533 Z-0.0833
G01 X188.5339 Y266.9082 Z-0.1000
G01 X188.5182 Y266.8638 Z-0.1167
G01 X188.5002 Y266.8202 Z-0.1333
G01 X188.4799 Y266.7777 Z-0.1500
G01 X188.4574 Y266.7363 Z-0.1667
G01 X188.4328 Y266.6961 Z-0.1833
G01 X188.4061 Y266.6573 Z-0.2000
G01 X188.3774 Y266.6199 Z-0.2167
G01 X188.3468 Y266.5841 Z-0.2333
G01 X188.3144 Y266.5499 Z-0.2500
G01 X188.2802 Y266.5175 Z-0.2667
G01 X188.2443 Y266.4869 Z-0.2833
G01 X188.2070 Y266.4582 Z-0.3000
G01 X188.1681 Y266.4315 Z-0.3167
G01 X188.1280 Y266.4069 Z-0.3333
G01 X188.0866 Y266.3844 Z-0.3500
G01 X188.0440 Y266.3641 Z-0.3667
G01 X188.0005 Y266.3461 Z-0.3833
G01 X187.9561 Y266.3303 Z-0.4000
G01 X187.9109 Y266.3170 Z-0.4167
G01 X187.8651 Y266.3060 Z-0.4333
G01 X187.8188 Y266.2974 Z-0.4500
G01 X187.7720 Y266.2912 Z-0.4667
G01 X187.7251 Y266.2875 Z-0.4833
G01 X187.6780 Y266.2863 Z-0.5000
G01 X187.6309 Y266.2875 Z-0.5167
G01 X187.5839 Y266.2912 Z-0.5333
G01 X187.5372 Y266.2974 Z-0.5500
G01 X187.4908 Y266.3060 Z-0.5667
G01 X187.4450 Y266.3170 Z-0.5833
G01 X187.3998 Y266.3303 Z-0.6000
G01 X187.3554 Y266.3461 Z-0.6167
G01 X187.3119 Y266.3641 Z-0.6333
G01 X187.2694 Y266.3844 Z-0.6500
G01 X187.2280 Y266.4069 Z-0.6667
G01 X187.1878 Y266.4315 Z-0.6833
G01 X187.1490 Y266.4582 Z-0.7000
G01 X187.1116 Y266.4869 Z-0.7167
G01 X187.0757 Y266.5175 Z-0.7333
G01 X187.0416 Y266.5499 Z-0.7500
G01 X187.0091 Y266.5841 Z-0.7667
G01 X186.9785 Y266.6199 Z-0.7833
G01 X186.9498 Y266.6573 Z-0.8000
G01 X186.9232 Y266.6961 Z-0.8167
G01 X186.8985 Y266.7363 Z-0.8333
G01 X186.8761 Y266.7777 Z-0.8500
G01 X186.8558 Y266.8202 Z-0.8667
G01 X186.8377 Y266.8638 Z-0.8833
G01 X186.8220 Y266.9082 Z-0.9000
G01 X186.8086 Y266.9533 Z-0.9167
G01 X186.7976 Y266.9992 Z-0.9333
G01 X186.7890 Y267.0455 Z-0.9500
G01 X186.7829 Y267.0922 Z-0.9667
G01 X186.7792 Y267.1392 Z-0.9833
G01 X186.7780 Y267.1863 Z-1.0000
G01 X186.7792 Y267.2334 Z-1.0167
G01 X186.7829 Y267.2804 Z-1.0333
G01 X186.7890 Y267.3271 Z-1.0500
G01 X186.7976 Y267.3734 Z-1.0667
G01 X186.8086 Y267.4192 Z-1.0833
G01 X186.8220 Y267.4644 Z-1.1000
G01 X186.8377 Y267.5088 Z-1.1167
G01 X186.8558 Y267.5523 Z-1.1333
G01 X186.8761 Y267.5949 Z-1.1500
G01 X186.8985 Y267.6363 Z-1.1667
G01 X186.9232 Y267.6765 Z-1.1833
G01 X186.9498 Y267.7153 Z-1.2000
G01 X186.9785 Y267.7527 Z-1.2167
G01 X187.0091 Y267.7885 Z-1.2333
G01 X187.0416 Y267.8227 Z-1.2500
G01 X187.0757 Y267.8551 Z-1.2667
G01 X187.1116 Y267.8857 Z-1.2833
G01 X187.1490 Y267.9144 Z-1.3000
G01 X187.1878 Y267.9411 Z-1.3167
G01 X187.2280 Y267.9657 Z-1.3333
G01 X187.2694 Y267.9882 Z-1.3500
G01 X187.3119 Y268.0085 Z-1.3667
G01 X187.3554 Y268.0265 Z-1.3833
G01 X187.3998 Y268.0422 Z-1.4000
G01 X187.4450 Y268.0556 Z-1.4167
G01 X187.4908 Y268.0666 Z-1.4333
G01 X187.5372 Y268.0752 Z-1.4500
G01 X187.5839 Y268.0814 Z-1.4667
G01 X187.6309 Y268.0851 Z-1.4833
G01 X187.6780 Y268.0863 Z-1.5000
G01 X187.7251 Y268.0851 Z-1.5167
G01 X187.7720 Y268.0814 Z-1.5333
G01 X187.8188 Y268.0752 Z-1.5500
G01 X187.8651 Y268.0666 Z-1.5667
G01 X187.9109 Y268.0556 Z-1.5833
G01 X187.9561 Y268.0422 Z-1.6000
G01 X188.0005 Y268.0265 Z-1.6167
G01 X188.0440 Y268.0085 Z-1.6333
G01 X188.0866 Y267.9882 Z-1.6500
G01 X188.1280 Y267.9657 Z-1.6667
G01 X188.1681 Y267.9411 Z-1.6833
G01 X188.2070 Y267.9144 Z-1.7000
G01 X188.2443 Y267.8857 Z-1.7167
G01 X188.2802 Y267.8551 Z-1.7333
G01 X188.3144 Y267.8227 Z-1.7500
G01 X188.3468 Y267.7885 Z-1.7667
G01 X188.3774 Y267.7527 Z-1.7833
G01 X188.4061 Y267.7153 Z-1.8000
G01 X188.4328 Y267.6765 Z-1.8167
G01 X188.4574 Y267.6363 Z-1.8333
G01 X188.4799 Y267.5949 Z-1.8500
G01 X188.5002 Y267.5523 Z-1.8667
G01 X188.5182 Y267.5088 Z-1.8833
G01 X188.5339 Y267.4644 Z-1.9000
G01 X188.5473 Y267.4192 Z-1.9167
G01 X188.5583 Y267.3734 Z-1.9333
G01 X188.5669 Y267.3271 Z-1.9500
G01 X188.5730 Y267.2804 Z-1.9667
G01 X188.5767 Y267.2334 Z-1.9833
G01 X188.5780 Y267.1863 Z-2.0000
G01 X188.5767 Y267.1392
G01 X188.5730 Y267.0922
G01 X188.5669 Y267.0455
G01 X188.5583 Y266.9992
G01 X188.5473 Y266.9533
G01 X188.5339 Y266.9082
G01 X188.5182 Y266.8638
G01 X188.5002 Y266.8202
G01 X188.4799 Y266.7777
G01 X188.4574 Y266.7363
G01 X188.4328 Y266.6961
G01 X188.4061 Y266.6573
G01 X188.3774 Y266.6199
G01 X188.3468 Y266.5841
G01 X188.3144 Y266.5499
G01 X188.2802 Y266.5175
G01 X188.2443 Y266.4869
G01 X188.2070 Y266.4582
G01 X188.1681 Y266.4315
G01 X188.1280 Y266.4069
G01 X188.0866 Y266.3844
G01 X188.0440 Y266.3641
G01 X188.0005 Y266.3461
G01 X187.9561 Y266.3303
G01 X187.9109 Y266.3170
G01 X187.8651 Y266.3060
G01 X187.8188 Y266.2974
G01 X187.7720 Y266.2912
G01 X187.7251 Y266.2875
G01 X187.6780 Y266.2863
G01 X187.6309 Y266.2875
G01 X187.5839 Y266.2912
G01 X187.5372 Y266.2974
G01 X187.4908 Y266.3060
G01 X187.4450 Y266.3170
G01 X187.3998 Y266.3303
G01 X187.3554 Y266.3461
G01 X187.3119 Y266.3641
G01 X187.2694 Y266.3844
G01 X187.2280 Y266.4069
G01 X187.1878 Y266.4315
G01 X187.1490 Y266.4582
G01 X187.1116 Y266.4869
G01 X187.0757 Y266.5175
G01 X187.0416 Y266.5499
G01 X187.0091 Y266.5841
G01 X186.9785 Y266.6199
G01 X186.9498 Y266.6573
G01 X186.9232 Y266.6961
G01 X186.8985 Y266.7363
G01 X186.8761 Y266.7777
G01 X186.8558 Y266.8202
G01 X186.8377 Y266.8638
G01 X186.8220 Y266.9082
G01 X186.8086 Y266.9533
G01 X186.7976 Y266.9992
G01 X186.7890 Y267.0455
G01 X186.7829 Y267.0922
G01 X186.7792 Y267.1392
G01 X186.7780 Y267.1863
G01 X186.7792 Y267.2334
G01 X186.7829 Y267.2804
G01 X186.7890 Y267.3271
G01 X186.7976 Y267.3734
G01 X186.8086 Y267.4192
G01 X186.8220 Y267.4644
G01 X186.8377 Y267.5088
G01 X186.8558 Y267.5523
G01 X186.8761 Y267.5949
G01 X186.8985 Y267.6363
G01 X186.9232 Y267.6765
G01 X186.9498 Y267.7153
G01 X186.9785 Y267.7527
G01 X187.0091 Y267.7885
G01 X187.0416 Y267.8227
G01 X187.0757 Y267.8551
G01 X187.1116 Y267.8857
G01 X187.1490 Y267.9144
G01 X187.1878 Y267.9411
G01 X187.2280 Y267.9657
G01 X187.2694 Y267.9882
G01 X187.3119 Y268.0085
G01 X187.3554 Y268.0265
G01 X187.3998 Y268.0422
G01 X187.4450 Y268.0556
G01 X187.4908 Y268.0666
G01 X187.5372 Y268.0752
G01 X187.5839 Y268.0814
G01 X187.6309 Y268.0851
G01 X187.6780 Y268.0863
G01 X187.7251 Y268.0851
G01 X187.7720 Y268.0814
G01 X187.8188 Y268.0752
G01 X187.8651 Y268.0666
G01 X187.9109 Y268.0556
G01 X187.9561 Y268.0422
G01 X188.0005 Y268.0265
G01 X188.0440 Y268.0085
G01 X188.0866 Y267.9882
G01 X188.1280 Y267.9657
G01 X188.1681 Y267.9411
G01 X188.2070 Y267.9144
G01 X188.2443 Y267.8857
G01 X188.2802 Y267.8551
G01 X188.3144 Y267.8227
G01 X188.3468 Y267.7885
G01 X188.3774 Y267.7527
G01 X188.4061 Y267.7153
G01 X188.4328 Y267.6765
G01 X188.4574 Y267.6363
G01 X188.4799 Y267.5949
G01 X188.5002 Y267.5523
G01 X188.5182 Y267.5088
G01 X188.5339 Y267.4644
G01 X188.5473 Y267.4192
G01 X188.5583 Y267.3734
G01 X188.5669 Y267.3271
G01 X188.5730 Y267.2804
G01 X188.5767 Y267.2334
G01 X188.5780 Y267.1863
G01 X188.5889 Y267.1396 F1000
G01 X188.5973 Y267.0924
G01 X188.6033 Y267.0449
G01 X188.6069 Y266.9971
G01 X188.6079 Y266.9492
G01 X188.6064 Y266.9013
G01 X188.6025 Y266.8535
G01 X188.5961 Y266.8060
G01 X188.5864 Y266.7545
G01 X188.5740 Y266.7036
G01 X188.5591 Y266.6533
G01 X188.5416 Y266.6039
G01 X188.5216 Y266.5555
G01 X188.4991 Y266.5082
G01 X188.4742 Y266.4621
G01 X188.4469 Y266.4173
G01 X188.4149 Y266.3703
G01 X188.3805 Y266.3249
G01 X188.3439 Y266.2814
G01 X188.3050 Y266.2399
G01 X188.2641 Y266.2003
G01 X188.2212 Y266.1629
G01 X188.1765 Y266.1278
G01 X188.1300 Y266.0950
G01 X188.0781 Y266.0621
G01 X188.0246 Y266.0320
G01 X187.9696 Y266.0046
G01 X187.9134 Y265.9800
G01 X187.8559 Y265.9584
G01 X187.7974 Y265.9397
G01 X187.7380 Y265.9240
G01 X187.6780 Y265.9113
G01 X187.6128 Y265.9010
G01 X187.5473 Y265.8939
G01 X187.4815 Y265.8902
G01 X187.4155 Y265.8899
G01 X187.3497 Y265.8929
G01 X187.2840 Y265.8992
G01 X187.2188 Y265.9088
G01 X187.1542 Y265.9217
G01 X187.0858 Y265.9390
G01 X187.0185 Y265.9597
G01 X186.9523 Y265.9837
G01 X186.8873 Y266.0111
G01 X186.8239 Y266.0417
G01 X186.7620 Y266.0755
G01 X186.7019 Y266.1123
G01 X186.6438 Y266.1521
G01 X186.5903 Y266.2016
G01 X186.5393 Y266.2536
G01 X186.4909 Y266.3080
G01 X186.4452 Y266.3648
G01 X186.4024 Y266.4238
G01 X186.3626 Y266.4848
G01 X186.3258 Y266.5477
G01 X186.2922 Y266.6123
G01 X186.2657 Y266.6810
G01 X186.2426 Y266.7509
G01 X186.2229 Y266.8218
G01 X186.2068 Y266.8937
G01 X186.1942 Y266.9662
G01 X186.1852 Y267.0393
G01 X186.1798 Y267.1127
G01 X186.1780 Y267.1863
G01 X186.1798 Y267.2599
G01 X186.1852 Y267.3333
G01 X186.1942 Y267.4064
G01 X186.2068 Y267.4789
G01 X186.2229 Y267.5507
G01 X186.2426 Y267.6217
G01 X186.2657 Y267.6916
G01 X186.2922 Y267.7603
G01 X186.3220 Y267.8276
G01 X186.3551 Y267.8934
G01 X186.3914 Y267.9574
G01 X186.4308 Y268.0196
G01 X186.4732 Y268.0798
G01 X186.5185 Y268.1379
G01 X186.5666 Y268.1936
G01 X186.6173 Y268.2469
G01 X186.6706 Y268.2977
G01 X186.7264 Y268.3458
G01 X186.7844 Y268.3911
G01 X186.8446 Y268.4335
G01 X186.9068 Y268.4729
G01 X186.9709 Y268.5091
G01 X187.0366 Y268.5422
G01 X187.1039 Y268.5721
G01 X187.1726 Y268.5986
G01 X187.2425 Y268.6217
G01 X187.3135 Y268.6413
G01 X187.3853 Y268.6574
G01 X187.4579 Y268.6700
G01 X187.5309 Y268.6790
G01 X187.6044 Y268.6845
G01 X187.6780 Y268.6863
G01 X187.7516 Y268.6845
G01 X187.8250 Y268.6790
G01 X187.8981 Y268.6700
G01 X187.9706 Y268.6574
G01 X188.0424 Y268.6413
G01 X188.1134 Y268.6217
G01 X188.1833 Y268.5986
G01 X188.2520 Y268.5721
G01 X188.3193 Y268.5422
G01 X188.3850 Y268.5091
G01 X188.4491 Y268.4729
G01 X188.5113 Y268.4335
G01 X188.5715 Y268.3911
G01 X188.6295 Y268.3458
G01 X188.6853 Y268.2977
G01 X188.7386 Y268.2469
G01 X188.7894 Y268.1936
G01 X188.8375 Y268.1379
G01 X188.8828 Y268.0798
G01 X188.9251 Y268.0196
G01 X188.9645 Y267.9574
G01 X189.0008 Y267.8934
G01 X189.0339 Y267.8276
G01 X189.0638 Y267.7603
G01 X189.0903 Y267.6916
G01 X189.1133 Y267.6217
G01 X189.1330 Y267.5507
G01 X189.1491 Y267.4789
G01 X189.1617 Y267.4064
G01 X189.1707 Y267.3333
G01 X189.1761 Y267.2599
G01 X189.1779 Y267.1863
G01 X189.1737 Y267.0742
G01 X189.1612 Y266.9627
G01 X189.1403 Y266.8525
G01 X189.1113 Y266.7442
G01 X189.0742 Y266.6383
G01 X189.0294 Y266.5355
G01 X188.9770 Y266.4363
G01 X188.9173 Y266.3413
G01 X188.8507 Y266.2511
G01 X188.7775 Y266.1660
G01 X188.6982 Y266.0867
G01 X188.6132 Y266.0136
G01 X188.5229 Y265.9469
G01 X188.4279 Y265.8873
G01 X188.3288 Y265.8349
G01 X188.2260 Y265.7900
G01 X188.1201 Y265.7529
G01 X188.0117 Y265.7239
G01 X187.9015 Y265.7031
G01 X187.7901 Y265.6905
G01 X187.6780 Y265.6863
G01 X187.5659 Y265.6905
G01 X187.4544 Y265.7031
G01 X187.3442 Y265.7239
G01 X187.2358 Y265.7529
G01 X187.1300 Y265.7900
G01 X187.0271 Y265.8349
G01 X186.9280 Y265.8873
G01 X186.8330 Y265.9469
G01 X186.7427 Y266.0136
G01 X186.6577 Y266.0867
G01 X186.5784 Y266.1660
G01 X186.5052 Y266.2511
G01 X186.4386 Y266.3413
G01 X186.3789 Y266.4363
G01 X186.3265 Y266.5355
G01 X186.2817 Y266.6383
G01 X186.2446 Y266.7442
G01 X186.2156 Y266.8525
G01 X186.1947 Y266.9627
G01 X186.1822 Y267.0742
G01 X186.1780 Y267.1863
G01 X186.1822 Y267.2984
G01 X186.1947 Y267.4098
G01 X186.2156 Y267.5201
G01 X186.2446 Y267.6284
G01 X186.2817 Y267.7343
G01 X186.3265 Y267.8371
G01 X186.3789 Y267.9363
G01 X186.4386 Y268.0313
G01 X186.5052 Y268.1215
G01 X186.5784 Y268.2065
G01 X186.6577 Y268.2858
G01 X186.7427 Y268.3590
G01 X186.8330 Y268.4256
G01 X186.9280 Y268.4853
G01 X187.0271 Y268.5377
G01 X187.1300 Y268.5826
G01 X187.2358 Y268.6196
G01 X187.3442 Y268.6487
G01 X187.4544 Y268.6695
G01 X187.5659 Y268.6821
G01 X187.6780 Y268.6863
G01 X187.7901 Y268.6821
G01 X187.9015 Y268.6695
G01 X188.0117 Y268.6487
G01 X188.1201 Y268.6196
G01 X188.2260 Y268.5826
G01 X188.3288 Y268.5377
G01 X188.4279 Y268.4853
G01 X188.5229 Y268.4256
G01 X188.6132 Y268.3590
G01 X188.6982 Y268.2858
G01 X188.7775 Y268.2065
G01 X188.8507 Y268.1215
G01 X188.9173 Y268.0313
G01 X188.9770 Y267.9363
G01 X189.0294 Y267.8371
G01 X189.0742 Y267.7343
G01 X189.1113 Y267.6284
G01 X189.1403 Y267.5201
G01 X189.1612 Y267.4098
G01 X189.1737 Y267.2984
G01 X189.1779 Y267.1863
G01 X189.1734 Y267.0817
G01 X189.1597 Y266.9779
G01 X189.1370 Y266.8757
G01 X189.1056 Y266.7759
G01 X189.0655 Y266.6791
G01 X189.0172 Y266.5863
G01 X188.9609 Y266.4980
G01 X188.8972 Y266.4149
G01 X188.8265 Y266.3378
G01 X188.7493 Y266.2670
G01 X188.6662 Y266.2033
G01 X188.5779 Y266.1471
G01 X188.4851 Y266.0987
G01 X188.3884 Y266.0587
G01 X188.2885 Y266.0272
G01 X188.1863 Y266.0045
G01 X188.0825 Y265.9909
G01 X187.9779 Y265.9863
G01 X187.8734 Y265.9909
G01 X187.7696 Y266.0045
G01 X187.6674 Y266.0272
G01 X187.5675 Y266.0587
G01 X187.4708 Y266.0987
G01 X187.3780 Y266.1471
G01 X187.2897 Y266.2033
G01 X187.2066 Y266.2670
G01 X187.1294 Y266.3378
G01 X187.0587 Y266.4149
G01 X186.9950 Y266.4980
G01 X186.9387 Y266.5863
G01 X186.8904 Y266.6791
G01 X186.8503 Y266.7759
